Afshin1997/kuka_rl_ros2/src/catch_and_throw/output_files/tm/nn_ema7.00_jvws3_realball_D22H08M25S20/recorded_data.csv
pure_target_joint_0,pure_target_joint_1,pure_target_joint_2,pure_target_joint_3,pure_target_joint_4,pure_target_joint_5,pure_target_joint_6,target_joint_0,target_joint_1,target_joint_2,target_joint_3,target_joint_4,target_joint_5,target_joint_6,pos_joint_0,pos_joint_1,pos_joint_2,pos_joint_3,pos_joint_4,pos_joint_5,pos_joint_6,vel_joint_0,vel_joint_1,vel_joint_2,vel_joint_3,vel_joint_4,vel_joint_5,vel_joint_6,vel_smooth_joint_0,vel_smooth_joint_1,vel_smooth_joint_2,vel_smooth_joint_3,vel_smooth_joint_4,vel_smooth_joint_5,vel_smooth_joint_6,ee_pos_x,ee_pos_y,ee_pos_z,ee_or_w,ee_or_x,ee_or_y,ee_or_z,ee_vel_x,ee_vel_y,ee_vel_z,ball_pos_x,ball_pos_y,ball_pos_z,ball_raw_vx,ball_raw_vy,ball_raw_vz,ball_ema_vx,ball_ema_vy,ball_ema_vz,action_0,action_1,action_2,action_3,action_4,action_5,action_6,command_published
1.84645,-1.06265,-1.75947,-1.14353,2.01338,1.15798,-0.871473,1.78438,-1.06457,-1.81175,-1.1187,1.94206,1.11962,-0.913513,1.78024,-1.06469,-1.81524,-1.11705,1.93731,1.11707,-0.916316,0,0,0,0,0,0,0,0,0,0,0,0,0,0,0.531038,-0.454454,0.694237,0.574549,0.175146,0.152571,0.784818,0,0,0,0.7,0,0.56435,0,0,0,0,0,-0.25,0.662064,0.0203946,0.557643,-0.264826,0.760764,0.409138,0.448424,1
1.84586,-1.11009,-1.75945,-1.10015,2.01206,1.15607,-0.889951,1.8009,-1.06702,-1.79781,-1.12261,1.961,1.12973,-0.903457,1.78024,-1.06469,-1.81524,-1.11705,1.93731,1.11707,-0.916316,0,0,0,0,0,0,0,0,0,0,0,0,0,0,0.531038,-0.454454,0.694237,0.574549,0.175146,0.152571,0.784818,0,0,0,0.7,0,0.56435,0,0,0,0,0,-0.25,0.656212,-0.453947,0.557876,0.168967,0.747513,0.390021,0.263644,1
1.79329,-1.10266,-1.78505,-1.13208,2.01266,1.14817,-0.891545,1.82229,-1.07765,-1.77849,-1.12369,1.98923,1.1441,-0.89136,1.78024,-1.06469,-1.81524,-1.11705,1.93731,1.11707,-0.916316,0,0,0,0,0,0,0,0,0,0,0,0,0,0,0.531038,-0.454454,0.694237,0.574549,0.175146,0.152571,0.784818,0,0,0,0.7,0,0.56435,0,0,0,0,0,-0.25,0.130434,-0.379702,0.301864,-0.150275,0.753587,0.311014,0.24771,1
1.81551,-1.04576,-1.77215,-1.10697,2.01419,1.14936,-0.886882,1.82687,-1.08952,-1.77014,-1.12046,2.008,1.15172,-0.887186,1.78024,-1.06469,-1.81524,-1.11705,1.93731,1.11707,-0.916316,0,0,0,0,0,0,0,0,0,0,0,0,0,0,0.531038,-0.454454,0.694237,0.574549,0.175146,0.152571,0.784818,0,0,0,0.7,0,0.56435,0,0,0,0,0,-0.25,0.352634,0.189321,0.430854,0.100798,0.768874,0.322884,0.294337,1
1.80886,-1.08669,-1.78569,-1.13541,2.01281,1.15801,-0.888705,1.81628,-1.0868,-1.77387,-1.11874,2.01295,1.15167,-0.888549,1.78024,-1.06469,-1.81524,-1.11705,1.93731,1.11707,-0.916316,0,0,0,0,0,0,0,0,0,0,0,0,0,0,0.531038,-0.454454,0.694237,0.574549,0.175146,0.152571,0.784818,0,0,0,0.7,0,0.56435,0,0,0,0,0,-0.25,0.286134,-0.219958,0.295475,-0.183643,0.755045,0.409416,0.276107,1
1.81341,-1.05838,-1.78078,-1.13201,2.01427,1.16743,-0.893091,1.81005,-1.07503,-1.77851,-1.1215,2.01334,1.15277,-0.889083,1.78024,-1.06469,-1.81524,-1.11705,1.93731,1.11707,-0.916316,0,0,0,0,0,0,0,0,0,0,0,0,0,0,0.531038,-0.454454,0.694237,0.574549,0.175146,0.152571,0.784818,0,0,0,0.7,0,0.56435,0,0,0,0,0,-0.25,0.331638,0.0631645,0.344519,-0.149623,0.769662,0.503668,0.232243,1
1.81406,-1.07109,-1.78708,-1.12405,2.0137,1.16493,-0.888406,1.81101,-1.0694,-1.78112,-1.12653,2.01357,1.15802,-0.889505,1.78024,-1.06469,-1.81524,-1.11705,1.93731,1.11707,-0.916316,0,0,0,0,0,0,0,0,0,0,0,0,0,0,0.531038,-0.454454,0.694237,0.574549,0.175146,0.152571,0.784818,0,0,0,0.7,0,0.56435,0,0,0,0,0,-0.25,0.338138,-0.063986,0.281552,-0.0700238,0.763937,0.478617,0.279102,1
1.81312,-1.0698,-1.78019,-1.12723,2.01397,1.16869,-0.890068,1.81255,-1.06856,-1.78301,-1.12901,2.01374,1.1634,-0.890246,1.78024,-1.06469,-1.81524,-1.11705,1.93731,1.11707,-0.916316,0,0,0,0,0,0,0,0,0,0,0,0,0,0,0.531038,-0.454454,0.694237,0.574549,0.175146,0.152571,0.784818,0,0,0,0.7,0,0.56435,0,0,0,0,0,-0.25,0.328801,-0.0510812,0.350485,-0.101772,0.766685,0.516269,0.262479,1
1.81339,-1.06684,-1.78707,-1.12663,2.01374,1.16818,-0.887696,1.81329,-1.0683,-1.7837,-1.12771,2.01386,1.16627,-0.889967,1.78024,-1.06469,-1.81524,-1.11705,1.93731,1.11707,-0.916316,0,0,0,0,0,0,0,0,0,0,0,0,0,0,0.531038,-0.454454,0.694237,0.574549,0.175146,0.152571,0.784818,0,0,0,0.7,0,0.56435,0,0,0,0,0,-0.25,0.331455,-0.0214541,0.281676,-0.0958135,0.764304,0.511157,0.286198,1
1.81306,-1.07014,-1.78201,-1.12675,2.01394,1.16813,-0.889538,1.81344,-1.06869,-1.78378,-1.12655,2.01386,1.16751,-0.889215,1.78024,-1.06469,-1.81524,-1.11705,1.93731,1.11707,-0.916316,0,0,0,0,0,0,0,0,0,0,0,0,0,0,0.531038,-0.454454,0.694237,0.574549,0.175146,0.152571,0.784818,0,0,0,0.7,0,0.56435,0,0,0,0,0,-0.25,0.328213,-0.0544919,0.332283,-0.0969698,0.766344,0.510649,0.26778,1
1.81353,-1.06751,-1.78492,-1.12589,2.01385,1.1691,-0.888128,1.81329,-1.06871,-1.78395,-1.1266,2.01385,1.16815,-0.888821,1.78024,-1.06469,-1.81524,-1.11705,1.93731,1.11707,-0.916316,0,0,0,0,0,0,0,0,0,0,0,0,0,0,0.531038,-0.454454,0.694237,0.574549,0.175146,0.152571,0.784818,0,0,0,0.7,0,0.56435,0,0,0,0,0,-0.25,0.332842,-0.0281569,0.303184,-0.0884265,0.765416,0.520279,0.281875,1
1.81264,-1.0699,-1.78355,-1.12712,2.01385,1.16833,-0.88882,1.81324,-1.06862,-1.78398,-1.12656,2.01386,1.16843,-0.888713,1.78024,-1.06469,-1.81524,-1.11705,1.93731,1.11707,-0.916316,0,0,0,0,0,0,0,0,0,0,0,0,0,0,0.531038,-0.454454,0.694237,0.574549,0.175146,0.152571,0.784818,0,0,0,0.7,0,0.56435,0,0,0,0,0,-0.25,0.323923,-0.0520682,0.316835,-0.100733,0.765449,0.512604,0.274952,1
1.81286,-1.06781,-1.78394,-1.12647,2.01386,1.16892,-0.888174,1.81314,-1.06874,-1.78392,-1.12649,2.01387,1.1686,-0.888629,1.78024,-1.06469,-1.81524,-1.11705,1.93731,1.11707,-0.916316,0,0,0,0,0,0,0,0,0,0,0,0,0,0,0.531038,-0.454454,0.694237,0.574549,0.175146,0.152571,0.784818,0,0,0,0.7,0,0.56435,0,0,0,0,0,-0.25,0.326153,-0.0311376,0.312933,-0.0942209,0.765537,0.51853,0.281421,1
1.81279,-1.06913,-1.78403,-1.12635,2.01384,1.16861,-0.888553,1.81295,-1.06875,-1.78392,-1.12658,2.01386,1.16867,-0.888514,1.78024,-1.06469,-1.81524,-1.11705,1.93731,1.11707,-0.916316,0,0,0,0,0,0,0,0,0,0,0,0,0,0,0.531038,-0.454454,0.694237,0.574549,0.175146,0.152571,0.784818,0,0,0,0.7,0,0.56435,0,0,0,0,0,-0.25,0.32543,-0.0443336,0.312022,-0.0929672,0.765333,0.515379,0.277624,1
1.81259,-1.06862,-1.78381,-1.12687,2.01385,1.16887,-0.888412,1.81281,-1.06869,-1.78392,-1.12659,2.01385,1.1687,-0.888442,1.78024,-1.06469,-1.81524,-1.11705,1.93731,1.11707,-0.916316,0,0,0,0,0,0,0,0,0,0,0,0,0,0,0.531038,-0.454454,0.694237,0.574549,0.175146,0.152571,0.784818,0,0,0,0.7,0,0.56435,0,0,0,0,0,-0.25,0.323452,-0.0392299,0.3143,-0.0982379,0.76548,0.51802,0.27904,1
1.81271,-1.06849,-1.78408,-1.1264,2.01384,1.16874,-0.888377,1.81274,-1.06868,-1.78393,-1.12656,2.01385,1.16874,-0.888429,1.78024,-1.06469,-1.81524,-1.11705,1.93731,1.11707,-0.916316,0,0,0,0,0,0,0,0,0,0,0,0,0,0,0.531038,-0.454454,0.694237,0.574549,0.175146,0.152571,0.784818,0,0,0,0.7,0,0.56435,0,0,0,0,0,-0.25,0.324707,-0.0379567,0.311567,-0.0935338,0.765354,0.516727,0.279384,1
1.81264,-1.06885,-1.78385,-1.12663,2.01385,1.16882,-0.888479,1.81269,-1.06868,-1.78394,-1.12658,2.01385,1.16877,-0.888428,1.78024,-1.06469,-1.81524,-1.11705,1.93731,1.11707,-0.916316,0,0,0,0,0,0,0,0,0,0,0,0,0,0,0.531038,-0.454454,0.694237,0.574549,0.175146,0.152571,0.784818,0,0,0,0.7,0,0.56435,0,0,0,0,0,-0.25,0.323928,-0.0415218,0.31385,-0.0958273,0.765434,0.517478,0.278364,1
1.81264,-1.06854,-1.78402,-1.1266,2.01384,1.16883,-0.888395,1.81266,-1.06865,-1.78395,-1.12659,2.01385,1.16879,-0.888423,1.78024,-1.06469,-1.81524,-1.11705,1.93731,1.11707,-0.916316,0,0,0,0,0,0,0,0,0,0,0,0,0,0,0.531038,-0.454454,0.694237,0.574549,0.175146,0.152571,0.784818,0,0,0,0.7,0,0.56435,0,0,0,0,0,-0.25,0.323971,-0.0384812,0.312158,-0.0954688,0.765382,0.517663,0.279207,1
1.81263,-1.06869,-1.78393,-1.12657,2.01385,1.16879,-0.888432,1.81265,-1.06866,-1.78395,-1.12658,2.01385,1.1688,-0.888426,1.78024,-1.06469,-1.81524,-1.11705,1.93731,1.11707,-0.916316,0,0,0,0,0,0,0,0,0,0,0,0,0,0,0.531038,-0.454454,0.694237,0.574549,0.175146,0.152571,0.784818,0,0,0,0.7,0,0.56435,0,0,0,0,0,-0.25,0.323867,-0.0399997,0.313033,-0.0952196,0.765397,0.517262,0.278834,1
1.81264,-1.06864,-1.78396,-1.12657,2.01385,1.16884,-0.888424,1.81264,-1.06866,-1.78396,-1.12658,2.01385,1.16881,-0.888426,1.78024,-1.06469,-1.81524,-1.11705,1.93731,1.11707,-0.916316,0,0,0,0,0,0,0,0,0,0,0,0,0,0,0.531038,-0.454454,0.694237,0.574549,0.175146,0.152571,0.784818,0,0,0,0.7,0,0.56435,0,0,0,0,0,-0.25,0.323979,-0.0394752,0.312778,-0.0952421,0.765403,0.517721,0.278916,1
1.81262,-1.06866,-1.78397,-1.1266,2.01384,1.16882,-0.888424,1.81263,-1.06865,-1.78396,-1.12658,2.01385,1.16882,-0.888423,1.78024,-1.06469,-1.81524,-1.11705,1.93731,1.11707,-0.916316,0,0,0,0,0,0,0,0,0,0,0,0,0,0,0.531038,-0.454454,0.694237,0.574549,0.175146,0.152571,0.784818,0,0,0,0.7,0,0.56435,0,0,0,0,0,-0.25,0.323795,-0.0396933,0.312647,-0.0954914,0.765385,0.517503,0.278912,1
1.81263,-1.06864,-1.78395,-1.12658,2.01385,1.16883,-0.88842,1.81263,-1.06865,-1.78396,-1.12658,2.01385,1.16882,-0.888424,1.78024,-1.06469,-1.81524,-1.11705,1.93731,1.11707,-0.916316,0,0,0,0,0,0,0,0,0,0,0,0,0,0,0.531038,-0.454454,0.694237,0.574549,0.175146,0.152571,0.784818,0,0,0,0.7,0,0.56435,0,0,0,0,0,-0.25,0.323849,-0.0394288,0.312865,-0.0953345,0.765401,0.517592,0.278958,1
1.81263,-1.06866,-1.78397,-1.12657,2.01385,1.16883,-0.888426,1.81263,-1.06865,-1.78396,-1.12658,2.01385,1.16882,-0.888424,1.78024,-1.06469,-1.81524,-1.11705,1.93731,1.11707,-0.916316,0,0,0,0,0,0,0,0,0,0,0,0,0,0,0.531038,-0.454454,0.694237,0.574549,0.175146,0.152571,0.784818,0,0,0,0.7,0,0.56435,0,0,0,0,0,-0.25,0.323908,-0.0396479,0.312693,-0.0952139,0.765392,0.517591,0.278896,1
1.81262,-1.06866,-1.78396,-1.1266,2.01385,1.16883,-0.888424,1.81263,-1.06865,-1.78396,-1.12658,2.01385,1.16883,-0.888423,1.78024,-1.06469,-1.81524,-1.11705,1.93731,1.11707,-0.916316,0,0,0,0,0,0,0,0,0,0,0,0,0,0,0.531038,-0.454454,0.694237,0.574549,0.175146,0.152571,0.784818,0,0,0,0.7,0,0.56435,0,0,0,0,0,-0.25,0.323788,-0.0396194,0.312788,-0.0954946,0.765394,0.517603,0.278917,1
1.81263,-1.06864,-1.78396,-1.12658,2.01385,1.16883,-0.88842,1.81263,-1.06865,-1.78396,-1.12658,2.01385,1.16883,-0.888424,1.78024,-1.06469,-1.81524,-1.11705,1.93731,1.11707,-0.916316,0,0,0,0,0,0,0,0,0,0,0,0,0,0,0.531038,-0.454454,0.694237,0.574549,0.175146,0.152571,0.784818,0,0,0,0.7,0,0.56435,0,0,0,0,0,-0.25,0.323862,-0.039459,0.312733,-0.0952785,0.765394,0.517588,0.278953,1
1.81263,-1.06866,-1.78396,-1.12658,2.01385,1.16883,-0.888426,1.81263,-1.06865,-1.78396,-1.12658,2.01385,1.16883,-0.888423,1.78024,-1.06469,-1.81524,-1.11705,1.93731,1.11707,-0.916316,0,0,0,0,0,0,0,0,0,0,0,0,0,0,0.531038,-0.454454,0.694237,0.574549,0.175146,0.152571,0.784818,0,0,0,0.7,0,0.56435,0,0,0,0,0,-0.25,0.323851,-0.039664,0.312772,-0.0953284,0.765394,0.517597,0.278897,1
1.81263,-1.06865,-1.78396,-1.12659,2.01385,1.16883,-0.888422,1.81263,-1.06865,-1.78396,-1.12658,2.01385,1.16883,-0.888423,1.78024,-1.06469,-1.81524,-1.11705,1.93731,1.11707,-0.916316,0,0,0,0,0,0,0,0,0,0,0,0,0,0,0.531038,-0.454454,0.694237,0.574549,0.175146,0.152571,0.784818,0,0,0,0.7,0,0.56435,0,0,0,0,0,-0.25,0.323826,-0.0395413,0.312744,-0.0953926,0.765394,0.51761,0.278933,1
1.81263,-1.06865,-1.78396,-1.12658,2.01385,1.16883,-0.888423,1.81263,-1.06865,-1.78396,-1.12658,2.01385,1.16883,-0.888423,1.78024,-1.06469,-1.81524,-1.11705,1.93731,1.11707,-0.916316,0,0,0,0,0,0,0,0,0,0,0,0,0,0,0.531038,-0.454454,0.694237,0.574549,0.175146,0.152571,0.784818,0,0,0,0.7,0,0.56435,0,0,0,0,0,-0.25,0.323845,-0.0395563,0.312755,-0.0953221,0.765394,0.517587,0.278929,1
1.83866,-1.09418,-1.83525,-1.05194,1.97165,1.19333,-0.95357,1.81425,-1.07025,-1.78717,-1.12192,2.01121,1.17036,-0.892495,1.78024,-1.06469,-1.81524,-1.11705,1.93731,1.11707,-0.916316,0,0,0,0,0,0,0,0,0,0,0,0,0,0,0.531038,-0.454454,0.694237,0.574549,0.175146,0.152571,0.784818,0,0,0,-0.442967,-1.31623,0.125606,16.1243,-24.8864,12.5764,1.78907,-2.76126,1.14542,0.584182,-0.294905,-0.200124,0.651046,0.34342,0.76263,-0.372544,1
1.83601,-1.08487,-1.83539,-1.05309,1.96478,1.19415,-0.950722,1.8206,-1.07605,-1.8,-1.10333,2.00023,1.17654,-0.908603,1.78024,-1.06469,-1.81524,-1.11705,1.93731,1.11707,-0.916316,0,0,0,0,0,0,0,0,0,0,0,0,0,0,0.531038,-0.454454,0.694237,0.574549,0.175146,0.152571,0.784818,0,0,0,-0.434513,-1.32385,0.135185,0.844791,-0.761942,0.957207,3.07236,-4.6838,2.17832,0.557722,-0.201767,-0.20156,0.639562,0.274704,0.770823,-0.344058,1
1.83601,-1.08351,-1.83386,-1.05228,1.96062,1.19384,-0.952857,1.8297,-1.08321,-1.81917,-1.07558,1.98243,1.18591,-0.932455,1.78024,-1.06469,-1.81524,-1.11705,1.93731,1.11707,-0.916316,0,0,0,0,0,0,0,0,0,0,0,0,0,0,0.531038,-0.454454,0.694237,0.574549,0.175146,0.152571,0.784818,0,0,0,-0.426739,-1.33689,0.145798,0.790432,-1.32518,1.07906,3.81239,-5.79832,2.82559,0.557683,-0.188172,-0.1862,0.647682,0.233127,0.767678,-0.365414,1
1.83598,-1.08357,-1.83178,-1.05226,1.9614,1.19376,-0.953108,1.83521,-1.08576,-1.83153,-1.05714,1.96831,1.19226,-0.948223,1.78024,-1.06469,-1.81524,-1.11705,1.93731,1.11707,-0.916316,0,0,0,0,0,0,0,0,0,0,0,0,0,0,0.531038,-0.454454,0.694237,0.574549,0.175146,0.152571,0.784818,0,0,0,-0.416393,-1.34867,0.157264,1.02458,-1.16674,1.13554,4.00896,-6.04488,3.05845,0.557389,-0.18877,-0.165476,0.647898,0.240945,0.766922,-0.367922,1
1.83633,-1.08412,-1.83261,-1.0519,1.96175,1.19366,-0.953716,1.83619,-1.08457,-1.83373,-1.05243,1.96261,1.19385,-0.952484,1.78024,-1.06469,-1.81524,-1.11705,1.93731,1.11707,-0.916316,0,0,0,0,0,0,0,0,0,0,0,0,0,0,0.531038,-0.454454,0.694237,0.574549,0.175146,0.152571,0.784818,0,0,0,-0.406228,-1.35955,0.16837,1.02273,-1.09492,1.11734,3.62318,-5.37176,2.83211,0.560881,-0.194225,-0.173743,0.651531,0.244444,0.765933,-0.374004,1
1.83731,-1.08616,-1.83836,-1.05065,1.9639,1.19336,-0.955963,1.83616,-1.08394,-1.83314,-1.05212,1.96166,1.19375,-0.953227,1.78024,-1.06469,-1.81524,-1.11705,1.93731,1.11707,-0.916316,0,0,0,0,0,0,0,0,0,0,0,0,0,0,0.531038,-0.454454,0.694237,0.574549,0.175146,0.152571,0.784818,0,0,0,-0.397662,-1.36991,0.17886,0.889483,-1.07573,1.08926,2.60162,-3.73449,2.10029,0.570709,-0.214662,-0.231222,0.664014,0.265934,0.762905,-0.396478,1
1.84077,-1.08857,-1.84901,-1.04791,1.96977,1.19267,-0.959536,1.83675,-1.08473,-1.83494,-1.05145,1.96263,1.19356,-0.954436,1.78024,-1.06469,-1.81524,-1.11705,1.93731,1.11707,-0.916316,0,0,0,0,0,0,0,0,0,0,0,0,0,0,0.531038,-0.454454,0.694237,0.574549,0.175146,0.152571,0.784818,0,0,0,-0.387895,-1.37963,0.185508,0.944213,-0.939269,0.64273,0.926538,-1.08918,0.784382,0.605296,-0.238717,-0.33771,0.691418,0.324608,0.756066,-0.432201,1
1.83956,-1.087,-1.85184,-1.0477,1.96569,1.19261,-0.961043,1.83799,-1.08614,-1.84002,-1.05019,1.96478,1.19324,-0.956434,1.78024,-1.06469,-1.81524,-1.11705,1.93731,1.11707,-0.916316,0,0,0,0,0,0,0,0,0,0,0,0,0,0,0.531038,-0.454454,0.694237,0.574549,0.175146,0.152571,0.784818,0,0,0,-0.382477,-1.38943,0.19362,0.533404,-0.964725,0.798648,0.901888,-1.08371,0.736864,0.593136,-0.223041,-0.366063,0.693518,0.283842,0.755392,-0.447273,1
1.83581,-1.08482,-1.85596,-1.04728,1.96263,1.19238,-0.963125,1.83902,-1.08706,-1.84646,-1.04875,1.96633,1.19287,-0.95888,1.78024,-1.06469,-1.81524,-1.11705,1.93731,1.11707,-0.916316,0,0,0,0,0,0,0,0,0,0,0,0,0,0,0.531038,-0.454454,0.694237,0.574549,0.175146,0.152571,0.784818,0,0,0,-0.372281,-1.39306,0.202391,1.02494,-0.365266,0.881668,0.891223,-0.964672,0.677259,0.555638,-0.201224,-0.407264,0.697644,0.253203,0.753102,-0.468091,1
1.83542,-1.08493,-1.85635,-1.04702,1.96439,1.19213,-0.96411,1.83852,-1.08666,-1.8516,-1.04779,1.96575,1.19258,-0.961061,1.78024,-1.06469,-1.81524,-1.11705,1.93731,1.11707,-0.916316,0,0,0,0,0,0,0,0,0,0,0,0,0,0,0.531038,-0.454454,0.694237,0.574549,0.175146,0.152571,0.784818,0,0,0,-0.36361,-1.39905,0.210393,0.902518,-0.62356,0.832902,0.862245,-0.848842,0.614963,0.551752,-0.202322,-0.411137,0.700262,0.270814,0.750582,-0.47794,1
1.83732,-1.08611,-1.85557,-1.04711,1.96684,1.19176,-0.964324,1.83705,-1.0857,-1.85457,-1.04735,1.96454,1.19235,-0.962701,1.78024,-1.06469,-1.81524,-1.11705,1.93731,1.11707,-0.916316,0,0,0,0,0,0,0,0,0,0,0,0,0,0,0.531038,-0.454454,0.694237,0.574549,0.175146,0.152571,0.784818,0,0,0,-0.36361,-1.39905,0.210393,0,0,0,0.755604,-0.679306,0.485776,0.570775,-0.214193,-0.403313,0.699391,0.295369,0.746919,-0.480082,1
1.8378,-1.09203,-1.85456,-1.04742,1.97104,1.19149,-0.962595,1.8364,-1.08577,-1.85566,-1.04718,1.96506,1.19209,-0.963631,1.78024,-1.06469,-1.81524,-1.11705,1.93731,1.11707,-0.916316,0,0,0,0,0,0,0,0,0,0,0,0,0,0,0.531038,-0.454454,0.694237,0.574549,0.175146,0.152571,0.784818,0,0,0,-0.36361,-1.39905,0.210393,0,0,0,0.605676,-0.48531,0.325499,0.575547,-0.273383,-0.393288,0.696292,0.33738,0.744174,-0.462797,1
1.8373,-1.09728,-1.85077,-1.04831,1.9767,1.19093,-0.960244,1.83687,-1.08791,-1.85524,-1.04725,1.96763,1.19177,-0.963508,1.78024,-1.06469,-1.81524,-1.11705,1.93731,1.11707,-0.916316,0,0,0,0,0,0,0,0,0,0,0,0,0,0,0.531038,-0.454454,0.694237,0.574549,0.175146,0.152571,0.784818,0,0,0,-0.36361,-1.39905,0.210393,0,0,0,0.425914,-0.298239,0.164998,0.570532,-0.325866,-0.355354,0.68734,0.393919,0.738589,-0.439285,1
1.83602,-1.1002,-1.84669,-1.04931,1.98146,1.19006,-0.956802,1.83729,-1.09193,-1.85349,-1.04766,1.97164,1.19137,-0.962172,1.78024,-1.06469,-1.81524,-1.11705,1.93731,1.11707,-0.916316,0,0,0,0,0,0,0,0,0,0,0,0,0,0,0.531038,-0.454454,0.694237,0.574549,0.175146,0.152571,0.784818,0,0,0,-0.36361,-1.39905,0.210393,0,0,0,0.264069,-0.1459,-0.0131441,0.557773,-0.355012,-0.314523,0.677392,0.441569,0.729932,-0.404865,1
1.83452,-1.10196,-1.84453,-1.04981,1.98509,1.18931,-0.954453,1.83693,-1.09629,-1.85061,-1.04836,1.97638,1.1908,-0.959864,1.78024,-1.06469,-1.81524,-1.11705,1.93731,1.11707,-0.916316,0,0,0,0,0,0,0,0,0,0,0,0,0,0,0.531038,-0.454454,0.694237,0.574549,0.175146,0.152571,0.784818,0,0,0,-0.36361,-1.39905,0.210393,0,0,0,0.0928934,-0.0641806,-0.164271,0.542739,-0.37267,-0.292918,0.672421,0.477797,0.722389,-0.381373,1
1.83284,-1.10341,-1.8419,-1.05037,1.98833,1.1886,-0.952562,1.83588,-1.0996,-1.84736,-1.04913,1.98096,1.19009,-0.957172,1.78024,-1.06469,-1.81524,-1.11705,1.93731,1.11707,-0.916316,0,0,0,0,0,0,0,0,0,0,0,0,0,0,0.531038,-0.454454,0.694237,0.574549,0.175146,0.152571,0.784818,0,0,0,-0.36361,-1.39905,0.210393,0,0,0,-4.25747e-07,-1.70299e-06,-0.25,0.525929,-0.38719,-0.266597,0.666835,0.510243,0.715302,-0.362465,1
1.83242,-1.10327,-1.83903,-1.0507,1.99002,1.18828,-0.952438,1.83451,-1.10167,-1.84446,-1.04978,1.98478,1.18936,-0.954804,1.78024,-1.06469,-1.81524,-1.11705,1.93731,1.11707,-0.916316,0,0,0,0,0,0,0,0,0,0,0,0,0,0,0.531038,-0.454454,0.694237,0.574549,0.175146,0.152571,0.784818,0,0,0,-0.36361,-1.39905,0.210393,0,0,0,-4.25747e-07,-1.70299e-06,-0.25,0.521777,-0.385738,-0.237935,0.663471,0.527118,0.712166,-0.361226,1
1.83219,-1.10372,-1.83682,-1.05118,1.99141,1.18809,-0.952108,1.83331,-1.10283,-1.84182,-1.05029,1.9877,1.18876,-0.953241,1.78024,-1.06469,-1.81524,-1.11705,1.93731,1.11707,-0.916316,0,0,0,0,0,0,0,0,0,0,0,0,0,0,0.531038,-0.454454,0.694237,0.574549,0.175146,0.152571,0.784818,0,0,0,-0.36361,-1.39905,0.210393,0,0,0,-4.25747e-07,-1.70299e-06,-0.25,0.519444,-0.39026,-0.215874,0.658725,0.541036,0.710209,-0.357921,1
1.83219,-1.10401,-1.83462,-1.05157,1.9926,1.18794,-0.951731,1.83258,-1.10338,-1.83926,-1.05073,1.9898,1.18836,-0.952468,1.78024,-1.06469,-1.81524,-1.11705,1.93731,1.11707,-0.916316,0,0,0,0,0,0,0,0,0,0,0,0,0,0,0.531038,-0.454454,0.694237,0.574549,0.175146,0.152571,0.784818,0,0,0,-0.36361,-1.39905,0.210393,0,0,0,-4.25747e-07,-1.70299e-06,-0.25,0.519494,-0.3932,-0.193823,0.654833,0.552931,0.708713,-0.354153,1
1.83208,-1.10431,-1.83279,-1.05182,1.99353,1.1877,-0.951392,1.83228,-1.1037,-1.83689,-1.05114,1.9913,1.18811,-0.95208,1.78024,-1.06469,-1.81524,-1.11705,1.93731,1.11707,-0.916316,0,0,0,0,0,0,0,0,0,0,0,0,0,0,0.531038,-0.454454,0.694237,0.574549,0.175146,0.152571,0.784818,0,0,0,-0.36361,-1.39905,0.210393,0,0,0,-4.25747e-07,-1.70299e-06,-0.25,0.518377,-0.396113,-0.175537,0.652261,0.562229,0.706316,-0.350766,1
1.83213,-1.1046,-1.83124,-1.05203,1.99433,1.18752,-0.951091,1.83217,-1.104,-1.83478,-1.05151,1.99248,1.18791,-0.951745,1.78024,-1.06469,-1.81524,-1.11705,1.93731,1.11707,-0.916316,0,0,0,0,0,0,0,0,0,0,0,0,0,0,0.531038,-0.454454,0.694237,0.574549,0.175146,0.152571,0.784818,0,0,0,-0.36361,-1.39905,0.210393,0,0,0,-4.25747e-07,-1.70299e-06,-0.25,0.51884,-0.399089,-0.160044,0.650193,0.57025,0.704551,-0.347755,1
1.83205,-1.10481,-1.82999,-1.05212,1.99493,1.18735,-0.950973,1.83212,-1.1043,-1.83294,-1.05179,1.99345,1.18772,-0.95142,1.78024,-1.06469,-1.81524,-1.11705,1.93731,1.11707,-0.916316,0,0,0,0,0,0,0,0,0,0,0,0,0,0,0.531038,-0.454454,0.694237,0.574549,0.175146,0.152571,0.784818,0,0,0,-0.36361,-1.39905,0.210393,0,0,0,-4.25747e-07,-1.70299e-06,-0.25,0.518049,-0.401194,-0.147579,0.649246,0.576221,0.702806,-0.34657,1
1.832,-1.1049,-1.82892,-1.0522,1.99537,1.18721,-0.950927,1.83209,-1.10456,-1.83138,-1.05198,1.99424,1.18753,-0.951167,1.78024,-1.06469,-1.81524,-1.11705,1.93731,1.11707,-0.916316,0,0,0,0,0,0,0,0,0,0,0,0,0,0,0.531038,-0.454454,0.694237,0.574549,0.175146,0.152571,0.784818,0,0,0,-0.36361,-1.39905,0.210393,0,0,0,-4.25747e-07,-1.70299e-06,-0.25,0.517526,-0.402058,-0.136877,0.648474,0.580652,0.701403,-0.346112,1
1.83187,-1.10491,-1.828,-1.05224,1.99572,1.18707,-0.950923,1.83205,-1.10476,-1.83009,-1.05211,1.99485,1.18736,-0.951014,1.78024,-1.06469,-1.81524,-1.11705,1.93731,1.11707,-0.916316,0,0,0,0,0,0,0,0,0,0,0,0,0,0,0.531038,-0.454454,0.694237,0.574549,0.175146,0.152571,0.784818,0,0,0,-0.36361,-1.39905,0.210393,0,0,0,-4.25747e-07,-1.70299e-06,-0.25,0.516303,-0.402116,-0.127636,0.648089,0.58414,0.699991,-0.346077,1
1.83174,-1.1049,-1.82721,-1.05227,1.99601,1.18695,-0.950941,1.83197,-1.10486,-1.829,-1.05219,1.99532,1.18721,-0.950949,1.78024,-1.06469,-1.81524,-1.11705,1.93731,1.11707,-0.916316,0,0,0,0,0,0,0,0,0,0,0,0,0,0,0.531038,-0.454454,0.694237,0.574549,0.175146,0.152571,0.784818,0,0,0,-0.36361,-1.39905,0.210393,0,0,0,-4.25747e-07,-1.70299e-06,-0.25,0.514981,-0.402031,-0.119778,0.64777,0.587086,0.69878,-0.346255,1
1.83161,-1.10489,-1.8266,-1.0523,1.99624,1.18686,-0.95097,1.83187,-1.1049,-1.82807,-1.05223,1.99569,1.18708,-0.950935,1.78024,-1.06469,-1.81524,-1.11705,1.93731,1.11707,-0.916316,0,0,0,0,0,0,0,0,0,0,0,0,0,0,0.531038,-0.454454,0.694237,0.574549,0.175146,0.152571,0.784818,0,0,0,-0.36361,-1.39905,0.210393,0,0,0,-4.25747e-07,-1.70299e-06,-0.25,0.513704,-0.401952,-0.113684,0.647534,0.589319,0.697911,-0.346539,1
1.83152,-1.10483,-1.82609,-1.05235,1.99644,1.18678,-0.950888,1.83174,-1.10489,-1.82729,-1.05227,1.99598,1.18696,-0.95094,1.78024,-1.06469,-1.81524,-1.11705,1.93731,1.11707,-0.916316,0,0,0,0,0,0,0,0,0,0,0,0,0,0,0.531038,-0.454454,0.694237,0.574549,0.175146,0.152571,0.784818,0,0,0,-0.36361,-1.39905,0.210393,0,0,0,-4.25747e-07,-1.70299e-06,-0.25,0.512808,-0.401364,-0.108519,0.647008,0.59139,0.69715,-0.345722,1
1.83143,-1.10479,-1.82565,-1.0524,1.99662,1.18671,-0.950796,1.83163,-1.10487,-1.82666,-1.05231,1.99623,1.18687,-0.950928,1.78024,-1.06469,-1.81524,-1.11705,1.93731,1.11707,-0.916316,0,0,0,0,0,0,0,0,0,0,0,0,0,0,0.531038,-0.454454,0.694237,0.574549,0.175146,0.152571,0.784818,0,0,0,-0.36361,-1.39905,0.210393,0,0,0,-4.25747e-07,-1.70299e-06,-0.25,0.511897,-0.400942,-0.104162,0.646495,0.593179,0.696466,-0.344808,1
1.83136,-1.10478,-1.82534,-1.05245,1.99677,1.18667,-0.950699,1.83153,-1.10484,-1.82613,-1.05235,1.99643,1.18679,-0.950877,1.78024,-1.06469,-1.81524,-1.11705,1.93731,1.11707,-0.916316,0,0,0,0,0,0,0,0,0,0,0,0,0,0,0.531038,-0.454454,0.694237,0.574549,0.175146,0.152571,0.784818,0,0,0,-0.36361,-1.39905,0.210393,0,0,0,-4.25747e-07,-1.70299e-06,-0.25,0.511179,-0.400822,-0.101071,0.646,0.594593,0.696018,-0.343831,1
1.83134,-1.10479,-1.82509,-1.05249,1.99688,1.18664,-0.950605,1.83144,-1.1048,-1.82571,-1.0524,1.99661,1.18672,-0.950794,1.78024,-1.06469,-1.81524,-1.11705,1.93731,1.11707,-0.916316,0,0,0,0,0,0,0,0,0,0,0,0,0,0,0.531038,-0.454454,0.694237,0.574549,0.175146,0.152571,0.784818,0,0,0,-0.36361,-1.39905,0.210393,0,0,0,-4.25747e-07,-1.70299e-06,-0.25,0.510933,-0.400972,-0.0985804,0.64557,0.595696,0.695688,-0.342897,1
1.83131,-1.1048,-1.82491,-1.05252,1.99695,1.18661,-0.950533,1.83138,-1.10479,-1.82538,-1.05245,1.99675,1.18668,-0.950701,1.78024,-1.06469,-1.81524,-1.11705,1.93731,1.11707,-0.916316,0,0,0,0,0,0,0,0,0,0,0,0,0,0,0.531038,-0.454454,0.694237,0.574549,0.175146,0.152571,0.784818,0,0,0,-0.36361,-1.39905,0.210393,0,0,0,-4.25747e-07,-1.70299e-06,-0.25,0.510706,-0.40107,-0.096758,0.645261,0.59648,0.695422,-0.34217,1
1.83129,-1.10481,-1.82479,-1.05254,1.99701,1.18659,-0.950483,1.83134,-1.10479,-1.82513,-1.05249,1.99686,1.18664,-0.950615,1.78024,-1.06469,-1.81524,-1.11705,1.93731,1.11707,-0.916316,0,0,0,0,0,0,0,0,0,0,0,0,0,0,0.531038,-0.454454,0.694237,0.574549,0.175146,0.152571,0.784818,0,0,0,-0.36361,-1.39905,0.210393,0,0,0,-4.25747e-07,-1.70299e-06,-0.25,0.510465,-0.401161,-0.0955489,0.645062,0.597008,0.695237,-0.341669,1
1.83127,-1.10481,-1.82471,-1.05255,1.99704,1.18658,-0.950452,1.83131,-1.1048,-1.82494,-1.05252,1.99694,1.18661,-0.950544,1.78024,-1.06469,-1.81524,-1.11705,1.93731,1.11707,-0.916316,0,0,0,0,0,0,0,0,0,0,0,0,0,0,0.531038,-0.454454,0.694237,0.574549,0.175146,0.152571,0.784818,0,0,0,-0.36361,-1.39905,0.210393,0,0,0,-4.25747e-07,-1.70299e-06,-0.25,0.510254,-0.401209,-0.094776,0.644949,0.597345,0.695115,-0.341367,1
1.83125,-1.10482,-1.82466,-1.05256,1.99706,1.18657,-0.950434,1.83129,-1.10481,-1.82481,-1.05254,1.997,1.18659,-0.950492,1.78024,-1.06469,-1.81524,-1.11705,1.93731,1.11707,-0.916316,0,0,0,0,0,0,0,0,0,0,0,0,0,0,0.531038,-0.454454,0.694237,0.574549,0.175146,0.152571,0.784818,0,0,0,-0.36361,-1.39905,0.210393,0,0,0,-4.25747e-07,-1.70299e-06,-0.25,0.51011,-0.401232,-0.0942722,0.644873,0.597568,0.695032,-0.34118,1
1.83124,-1.10482,-1.82463,-1.05257,1.99708,1.18657,-0.950422,1.83127,-1.10481,-1.82473,-1.05255,1.99703,1.18658,-0.950458,1.78024,-1.06469,-1.81524,-1.11705,1.93731,1.11707,-0.916316,0,0,0,0,0,0,0,0,0,0,0,0,0,0,0.531038,-0.454454,0.694237,0.574549,0.175146,0.152571,0.784818,0,0,0,-0.36361,-1.39905,0.210393,0,0,0,-4.25747e-07,-1.70299e-06,-0.25,0.510016,-0.401239,-0.0939361,0.644823,0.597713,0.694977,-0.34106,1
1.83124,-1.10482,-1.82461,-1.05257,1.99709,1.18656,-0.950414,1.83126,-1.10482,-1.82467,-1.05256,1.99706,1.18657,-0.950437,1.78024,-1.06469,-1.81524,-1.11705,1.93731,1.11707,-0.916316,0,0,0,0,0,0,0,0,0,0,0,0,0,0,0.531038,-0.454454,0.694237,0.574549,0.175146,0.152571,0.784818,0,0,0,-0.36361,-1.39905,0.210393,0,0,0,-4.25747e-07,-1.70299e-06,-0.25,0.509952,-0.401244,-0.0937167,0.644789,0.597808,0.69494,-0.340981,1
1.83123,-1.10482,-1.82459,-1.05257,1.99709,1.18656,-0.950409,1.83125,-1.10482,-1.82464,-1.05257,1.99707,1.18657,-0.950424,1.78024,-1.06469,-1.81524,-1.11705,1.93731,1.11707,-0.916316,0,0,0,0,0,0,0,0,0,0,0,0,0,0,0.531038,-0.454454,0.694237,0.574549,0.175146,0.152571,0.784818,0,0,0,-0.36361,-1.39905,0.210393,0,0,0,-4.25747e-07,-1.70299e-06,-0.25,0.509911,-0.401248,-0.0935715,0.644767,0.597871,0.694916,-0.340929,1
1.83123,-1.10482,-1.82458,-1.05257,1.9971,1.18656,-0.950405,1.83124,-1.10482,-1.82461,-1.05257,1.99709,1.18656,-0.950415,1.78024,-1.06469,-1.81524,-1.11705,1.93731,1.11707,-0.916316,0,0,0,0,0,0,0,0,0,0,0,0,0,0,0.531038,-0.454454,0.694237,0.574549,0.175146,0.152571,0.784818,0,0,0,-0.36361,-1.39905,0.210393,0,0,0,-4.25747e-07,-1.70299e-06,-0.25,0.509883,-0.40125,-0.0934757,0.644753,0.597913,0.6949,-0.340895,1
1.83123,-1.10482,-1.82458,-1.05257,1.9971,1.18656,-0.950403,1.83123,-1.10482,-1.8246,-1.05257,1.99709,1.18656,-0.950409,1.78024,-1.06469,-1.81524,-1.11705,1.93731,1.11707,-0.916316,0,0,0,0,0,0,0,0,0,0,0,0,0,0,0.531038,-0.454454,0.694237,0.574549,0.175146,0.152571,0.784818,0,0,0,-0.36361,-1.39905,0.210393,0,0,0,-4.25747e-07,-1.70299e-06,-0.25,0.509865,-0.401252,-0.0934126,0.644743,0.59794,0.694889,-0.340872,1
1.83123,-1.10482,-1.82457,-1.05257,1.9971,1.18656,-0.950401,1.83123,-1.10482,-1.82459,-1.05257,1.9971,1.18656,-0.950406,1.78024,-1.06469,-1.81524,-1.11705,1.93731,1.11707,-0.916316,0,0,0,0,0,0,0,0,0,0,0,0,0,0,0.531038,-0.454454,0.694237,0.574549,0.175146,0.152571,0.784818,0,0,0,-0.36361,-1.39905,0.210393,0,0,0,-4.25747e-07,-1.70299e-06,-0.25,0.509853,-0.401253,-0.0933708,0.644737,0.597958,0.694882,-0.340857,1
1.83123,-1.10482,-1.82457,-1.05258,1.9971,1.18656,-0.9504,1.83123,-1.10482,-1.82458,-1.05257,1.9971,1.18656,-0.950403,1.78024,-1.06469,-1.81524,-1.11705,1.93731,1.11707,-0.916316,0,0,0,0,0,0,0,0,0,0,0,0,0,0,0.531038,-0.454454,0.694237,0.574549,0.175146,0.152571,0.784818,0,0,0,-0.36361,-1.39905,0.210393,0,0,0,-4.25747e-07,-1.70299e-06,-0.25,0.509845,-0.401253,-0.0933435,0.644733,0.59797,0.694878,-0.340847,1
1.83123,-1.10482,-1.82457,-1.05258,1.9971,1.18656,-0.9504,1.83123,-1.10482,-1.82457,-1.05257,1.9971,1.18656,-0.950402,1.78024,-1.06469,-1.81524,-1.11705,1.93731,1.11707,-0.916316,0,0,0,0,0,0,0,0,0,0,0,0,0,0,0.531038,-0.454454,0.694237,0.574549,0.175146,0.152571,0.784818,0,0,0,-0.36361,-1.39905,0.210393,0,0,0,-4.25747e-07,-1.70299e-06,-0.25,0.50984,-0.401254,-0.0933251,0.64473,0.597978,0.694875,-0.340841,1
1.83123,-1.10482,-1.82457,-1.05258,1.9971,1.18656,-0.950399,1.83123,-1.10482,-1.82457,-1.05258,1.9971,1.18656,-0.950401,1.78024,-1.06469,-1.81524,-1.11705,1.93731,1.11707,-0.916316,0,0,0,0,0,0,0,0,0,0,0,0,0,0,0.531038,-0.454454,0.694237,0.574549,0.175146,0.152571,0.784818,0,0,0,-0.36361,-1.39905,0.210393,0,0,0,-4.25747e-07,-1.70299e-06,-0.25,0.509836,-0.401254,-0.0933132,0.644728,0.597983,0.694873,-0.340836,1
1.83123,-1.10482,-1.82457,-1.05258,1.9971,1.18655,-0.950399,1.83123,-1.10482,-1.82457,-1.05258,1.9971,1.18656,-0.9504,1.78024,-1.06469,-1.81524,-1.11705,1.93731,1.11707,-0.916316,0,0,0,0,0,0,0,0,0,0,0,0,0,0,0.531038,-0.454454,0.694237,0.574549,0.175146,0.152571,0.784818,0,0,0,-0.36361,-1.39905,0.210393,0,0,0,-4.25747e-07,-1.70299e-06,-0.25,0.509834,-0.401254,-0.0933051,0.644727,0.597987,0.694872,-0.340834,1
1.83123,-1.10482,-1.82457,-1.05258,1.9971,1.18655,-0.950399,1.83123,-1.10482,-1.82457,-1.05258,1.9971,1.18656,-0.950399,1.78024,-1.06469,-1.81524,-1.11705,1.93731,1.11707,-0.916316,0,0,0,0,0,0,0,0,0,0,0,0,0,0,0.531038,-0.454454,0.694237,0.574549,0.175146,0.152571,0.784818,0,0,0,-0.36361,-1.39905,0.210393,0,0,0,-4.25747e-07,-1.70299e-06,-0.25,0.509833,-0.401254,-0.0933,0.644726,0.597989,0.694871,-0.340832,1
1.83123,-1.10482,-1.82457,-1.05258,1.99711,1.18655,-0.950399,1.83123,-1.10482,-1.82457,-1.05258,1.9971,1.18655,-0.950399,1.78024,-1.06469,-1.81524,-1.11705,1.93731,1.11707,-0.916316,0,0,0,0,0,0,0,0,0,0,0,0,0,0,0.531038,-0.454454,0.694237,0.574549,0.175146,0.152571,0.784818,0,0,0,-0.36361,-1.39905,0.210393,0,0,0,-4.25747e-07,-1.70299e-06,-0.25,0.509832,-0.401255,-0.0932967,0.644726,0.59799,0.69487,-0.34083,1
1.83123,-1.10482,-1.82457,-1.05258,1.99711,1.18655,-0.950399,1.83123,-1.10482,-1.82457,-1.05258,1.9971,1.18655,-0.950399,1.78024,-1.06469,-1.81524,-1.11705,1.93731,1.11707,-0.916316,0,0,0,0,0,0,0,0,0,0,0,0,0,0,0.531038,-0.454454,0.694237,0.574549,0.175146,0.152571,0.784818,0,0,0,-0.36361,-1.39905,0.210393,0,0,0,-4.25747e-07,-1.70299e-06,-0.25,0.509831,-0.401255,-0.0932944,0.644725,0.597991,0.69487,-0.34083,1
1.83123,-1.10482,-1.82457,-1.05258,1.99711,1.18655,-0.950399,1.83123,-1.10482,-1.82457,-1.05258,1.9971,1.18655,-0.950399,1.78024,-1.06469,-1.81524,-1.11705,1.93731,1.11707,-0.916316,0,0,0,0,0,0,0,0,0,0,0,0,0,0,0.531038,-0.454454,0.694237,0.574549,0.175146,0.152571,0.784818,0,0,0,-0.36361,-1.39905,0.210393,0,0,0,-4.25747e-07,-1.70299e-06,-0.25,0.509831,-0.401255,-0.0932929,0.644725,0.597992,0.694869,-0.340829,1
1.83123,-1.10482,-1.82457,-1.05258,1.99711,1.18655,-0.950399,1.83123,-1.10482,-1.82457,-1.05258,1.99711,1.18655,-0.950399,1.78024,-1.06469,-1.81524,-1.11705,1.93731,1.11707,-0.916316,0,0,0,0,0,0,0,0,0,0,0,0,0,0,0.531038,-0.454454,0.694237,0.574549,0.175146,0.152571,0.784818,0,0,0,-0.36361,-1.39905,0.210393,0,0,0,-4.25747e-07,-1.70299e-06,-0.25,0.50983,-0.401254,-0.093292,0.644725,0.597992,0.694869,-0.340829,1
1.83123,-1.10482,-1.82457,-1.05258,1.99711,1.18655,-0.950399,1.83123,-1.10482,-1.82457,-1.05258,1.99711,1.18655,-0.950399,1.78024,-1.06469,-1.81524,-1.11705,1.93731,1.11707,-0.916316,0,0,0,0,0,0,0,0,0,0,0,0,0,0,0.531038,-0.454454,0.694237,0.574549,0.175146,0.152571,0.784818,0,0,0,-0.36361,-1.39905,0.210393,0,0,0,-4.25747e-07,-1.70299e-06,-0.25,0.50983,-0.401255,-0.0932914,0.644725,0.597993,0.694869,-0.340829,1
1.83123,-1.10482,-1.82457,-1.05258,1.99711,1.18655,-0.950399,1.83123,-1.10482,-1.82457,-1.05258,1.99711,1.18655,-0.950399,1.78024,-1.06469,-1.81524,-1.11705,1.93731,1.11707,-0.916316,0,0,0,0,0,0,0,0,0,0,0,0,0,0,0.531038,-0.454454,0.694237,0.574549,0.175146,0.152571,0.784818,0,0,0,-0.36361,-1.39905,0.210393,0,0,0,-4.25747e-07,-1.70299e-06,-0.25,0.50983,-0.401255,-0.0932909,0.644725,0.597993,0.694869,-0.340828,1
1.83123,-1.10482,-1.82457,-1.05258,1.99711,1.18655,-0.950399,1.83123,-1.10482,-1.82457,-1.05258,1.99711,1.18655,-0.950399,1.78024,-1.06469,-1.81524,-1.11705,1.93731,1.11707,-0.916316,0,0,0,0,0,0,0,0,0,0,0,0,0,0,0.531038,-0.454454,0.694237,0.574549,0.175146,0.152571,0.784818,0,0,0,-0.36361,-1.39905,0.210393,0,0,0,-4.25747e-07,-1.70299e-06,-0.25,0.50983,-0.401255,-0.0932905,0.644725,0.597993,0.694869,-0.340828,1
1.83123,-1.10482,-1.82457,-1.05258,1.99711,1.18655,-0.950399,1.83123,-1.10482,-1.82457,-1.05258,1.99711,1.18655,-0.950399,1.78024,-1.06469,-1.81524,-1.11705,1.93731,1.11707,-0.916316,0,0,0,0,0,0,0,0,0,0,0,0,0,0,0.531038,-0.454454,0.694237,0.574549,0.175146,0.152571,0.784818,0,0,0,-0.36361,-1.39905,0.210393,0,0,0,-4.25747e-07,-1.70299e-06,-0.25,0.50983,-0.401255,-0.0932902,0.644725,0.597993,0.694869,-0.340828,1
1.83123,-1.10482,-1.82457,-1.05258,1.99711,1.18655,-0.950399,1.83123,-1.10482,-1.82457,-1.05258,1.99711,1.18655,-0.950399,1.78024,-1.06469,-1.81524,-1.11705,1.93731,1.11707,-0.916316,0,0,0,0,0,0,0,0,0,0,0,0,0,0,0.531038,-0.454454,0.694237,0.574549,0.175146,0.152571,0.784818,0,0,0,-0.36361,-1.39905,0.210393,0,0,0,-4.25747e-07,-1.70299e-06,-0.25,0.50983,-0.401255,-0.0932903,0.644725,0.597993,0.694869,-0.340828,1
1.83123,-1.10482,-1.82456,-1.05258,1.99711,1.18655,-0.950399,1.83123,-1.10482,-1.82457,-1.05258,1.99711,1.18655,-0.950399,1.78024,-1.06469,-1.81524,-1.11705,1.93731,1.11707,-0.916316,0,0,0,0,0,0,0,0,0,0,0,0,0,0,0.531038,-0.454454,0.694237,0.574549,0.175146,0.152571,0.784818,0,0,0,-0.36361,-1.39905,0.210393,0,0,0,-4.25747e-07,-1.70299e-06,-0.25,0.50983,-0.401255,-0.0932901,0.644725,0.597993,0.694869,-0.340828,1
1.83123,-1.10482,-1.82456,-1.05258,1.99711,1.18655,-0.950399,1.83123,-1.10482,-1.82457,-1.05258,1.99711,1.18655,-0.950399,1.78024,-1.06469,-1.81524,-1.11705,1.93731,1.11707,-0.916316,0,0,0,0,0,0,0,0,0,0,0,0,0,0,0.531038,-0.454454,0.694237,0.574549,0.175146,0.152571,0.784818,0,0,0,-0.36361,-1.39905,0.210393,0,0,0,-4.25747e-07,-1.70299e-06,-0.25,0.50983,-0.401255,-0.09329,0.644725,0.597993,0.694869,-0.340828,1
1.83123,-1.10482,-1.82456,-1.05258,1.99711,1.18655,-0.950399,1.83123,-1.10482,-1.82456,-1.05258,1.99711,1.18655,-0.950399,1.78024,-1.06469,-1.81524,-1.11705,1.93731,1.11707,-0.916316,0,0,0,0,0,0,0,0,0,0,0,0,0,0,0.531038,-0.454454,0.694237,0.574549,0.175146,0.152571,0.784818,0,0,0,-0.36361,-1.39905,0.210393,0,0,0,-4.25747e-07,-1.70299e-06,-0.25,0.50983,-0.401255,-0.0932902,0.644725,0.597993,0.694869,-0.340828,1
1.83123,-1.10482,-1.82456,-1.05258,1.99711,1.18655,-0.950399,1.83123,-1.10482,-1.82456,-1.05258,1.99711,1.18655,-0.950399,1.78024,-1.06469,-1.81524,-1.11705,1.93731,1.11707,-0.916316,0,0,0,0,0,0,0,0,0,0,0,0,0,0,0.531038,-0.454454,0.694237,0.574549,0.175146,0.152571,0.784818,0,0,0,-0.36361,-1.39905,0.210393,0,0,0,-4.25747e-07,-1.70299e-06,-0.25,0.50983,-0.401255,-0.0932901,0.644725,0.597993,0.694869,-0.340828,1
1.83123,-1.10482,-1.82456,-1.05258,1.99711,1.18655,-0.950399,1.83123,-1.10482,-1.82456,-1.05258,1.99711,1.18655,-0.950399,1.78024,-1.06469,-1.81524,-1.11705,1.93731,1.11707,-0.916316,0,0,0,0,0,0,0,0,0,0,0,0,0,0,0.531038,-0.454454,0.694237,0.574549,0.175146,0.152571,0.784818,0,0,0,-0.36361,-1.39905,0.210393,0,0,0,-4.25747e-07,-1.70299e-06,-0.25,0.50983,-0.401255,-0.0932902,0.644725,0.597993,0.694869,-0.340828,1
1.83123,-1.10482,-1.82456,-1.05258,1.99711,1.18655,-0.950399,1.83123,-1.10482,-1.82456,-1.05258,1.99711,1.18655,-0.950399,1.78024,-1.06469,-1.81524,-1.11705,1.93731,1.11707,-0.916316,0,0,0,0,0,0,0,0,0,0,0,0,0,0,0.531038,-0.454454,0.694237,0.574549,0.175146,0.152571,0.784818,0,0,0,-0.36361,-1.39905,0.210393,0,0,0,-4.25747e-07,-1.70299e-06,-0.25,0.50983,-0.401255,-0.09329,0.644725,0.597993,0.694869,-0.340828,1
1.83123,-1.10482,-1.82456,-1.05258,1.99711,1.18655,-0.950399,1.83123,-1.10482,-1.82456,-1.05258,1.99711,1.18655,-0.950399,1.78024,-1.06469,-1.81524,-1.11705,1.93731,1.11707,-0.916316,0,0,0,0,0,0,0,0,0,0,0,0,0,0,0.531038,-0.454454,0.694237,0.574549,0.175146,0.152571,0.784818,0,0,0,-0.36361,-1.39905,0.210393,0,0,0,-4.25747e-07,-1.70299e-06,-0.25,0.50983,-0.401255,-0.0932901,0.644724,0.597993,0.694869,-0.340828,1
1.83123,-1.10482,-1.82456,-1.05258,1.99711,1.18655,-0.950399,1.83123,-1.10482,-1.82456,-1.05258,1.99711,1.18655,-0.950399,1.78024,-1.06469,-1.81524,-1.11705,1.93731,1.11707,-0.916316,0,0,0,0,0,0,0,0,0,0,0,0,0,0,0.531038,-0.454454,0.694237,0.574549,0.175146,0.152571,0.784818,0,0,0,-0.36361,-1.39905,0.210393,0,0,0,-4.25747e-07,-1.70299e-06,-0.25,0.50983,-0.401254,-0.0932901,0.644724,0.597993,0.694869,-0.340828,1
1.83123,-1.10482,-1.82456,-1.05258,1.99711,1.18655,-0.950399,1.83123,-1.10482,-1.82456,-1.05258,1.99711,1.18655,-0.950399,1.78024,-1.06469,-1.81524,-1.11705,1.93731,1.11707,-0.916316,0,0,0,0,0,0,0,0,0,0,0,0,0,0,0.531038,-0.454454,0.694237,0.574549,0.175146,0.152571,0.784818,0,0,0,-0.36361,-1.39905,0.210393,0,0,0,-4.25747e-07,-1.70299e-06,-0.25,0.50983,-0.401255,-0.09329,0.644725,0.597993,0.694869,-0.340828,1
1.83123,-1.10482,-1.82456,-1.05258,1.99711,1.18655,-0.950399,1.83123,-1.10482,-1.82456,-1.05258,1.99711,1.18655,-0.950399,1.78024,-1.06469,-1.81524,-1.11705,1.93731,1.11707,-0.916316,0,0,0,0,0,0,0,0,0,0,0,0,0,0,0.531038,-0.454454,0.694237,0.574549,0.175146,0.152571,0.784818,0,0,0,-0.36361,-1.39905,0.210393,0,0,0,-4.25747e-07,-1.70299e-06,-0.25,0.50983,-0.401255,-0.09329,0.644724,0.597993,0.694869,-0.340828,1
1.83123,-1.10482,-1.82456,-1.05258,1.99711,1.18655,-0.950399,1.83123,-1.10482,-1.82456,-1.05258,1.99711,1.18655,-0.950399,1.78024,-1.06469,-1.81524,-1.11705,1.93731,1.11707,-0.916316,0,0,0,0,0,0,0,0,0,0,0,0,0,0,0.531038,-0.454454,0.694237,0.574549,0.175146,0.152571,0.784818,0,0,0,-0.36361,-1.39905,0.210393,0,0,0,-4.25747e-07,-1.70299e-06,-0.25,0.50983,-0.401255,-0.0932898,0.644725,0.597993,0.694869,-0.340828,1
1.83123,-1.10482,-1.82456,-1.05258,1.99711,1.18655,-0.950399,1.83123,-1.10482,-1.82456,-1.05258,1.99711,1.18655,-0.950399,1.78024,-1.06469,-1.81524,-1.11705,1.93731,1.11707,-0.916316,0,0,0,0,0,0,0,0,0,0,0,0,0,0,0.531038,-0.454454,0.694237,0.574549,0.175146,0.152571,0.784818,0,0,0,-0.36361,-1.39905,0.210393,0,0,0,-4.25747e-07,-1.70299e-06,-0.25,0.50983,-0.401255,-0.0932899,0.644725,0.597993,0.694869,-0.340828,1
1.83123,-1.10482,-1.82456,-1.05258,1.99711,1.18655,-0.950399,1.83123,-1.10482,-1.82456,-1.05258,1.99711,1.18655,-0.950399,1.78024,-1.06469,-1.81524,-1.11705,1.93731,1.11707,-0.916316,0,0,0,0,0,0,0,0,0,0,0,0,0,0,0.531038,-0.454454,0.694237,0.574549,0.175146,0.152571,0.784818,0,0,0,-0.36361,-1.39905,0.210393,0,0,0,-4.25747e-07,-1.70299e-06,-0.25,0.50983,-0.401255,-0.0932899,0.644725,0.597993,0.694869,-0.340828,1
1.83123,-1.10482,-1.82456,-1.05258,1.99711,1.18655,-0.950399,1.83123,-1.10482,-1.82456,-1.05258,1.99711,1.18655,-0.950399,1.78024,-1.06469,-1.81524,-1.11705,1.93731,1.11707,-0.916316,0,0,0,0,0,0,0,0,0,0,0,0,0,0,0.531038,-0.454454,0.694237,0.574549,0.175146,0.152571,0.784818,0,0,0,-0.36361,-1.39905,0.210393,0,0,0,-4.25747e-07,-1.70299e-06,-0.25,0.50983,-0.401255,-0.09329,0.644724,0.597993,0.694869,-0.340828,1
1.83123,-1.10482,-1.82456,-1.05258,1.99711,1.18655,-0.950399,1.83123,-1.10482,-1.82456,-1.05258,1.99711,1.18655,-0.950399,1.78024,-1.06469,-1.81524,-1.11705,1.93731,1.11707,-0.916316,0,0,0,0,0,0,0,0,0,0,0,0,0,0,0.531038,-0.454454,0.694237,0.574549,0.175146,0.152571,0.784818,0,0,0,-0.36361,-1.39905,0.210393,0,0,0,-4.25747e-07,-1.70299e-06,-0.25,0.50983,-0.401255,-0.0932899,0.644724,0.597993,0.694869,-0.340828,1
1.83123,-1.10482,-1.82456,-1.05258,1.99711,1.18655,-0.950399,1.83123,-1.10482,-1.82456,-1.05258,1.99711,1.18655,-0.950399,1.78024,-1.06469,-1.81524,-1.11705,1.93731,1.11707,-0.916316,0,0,0,0,0,0,0,0,0,0,0,0,0,0,0.531038,-0.454454,0.694237,0.574549,0.175146,0.152571,0.784818,0,0,0,-0.36361,-1.39905,0.210393,0,0,0,-4.25747e-07,-1.70299e-06,-0.25,0.50983,-0.401255,-0.09329,0.644724,0.597993,0.694869,-0.340828,1
1.83123,-1.10482,-1.82456,-1.05258,1.99711,1.18655,-0.950399,1.83123,-1.10482,-1.82456,-1.05258,1.99711,1.18655,-0.950399,1.78024,-1.06469,-1.81524,-1.11705,1.93731,1.11707,-0.916316,0,0,0,0,0,0,0,0,0,0,0,0,0,0,0.531038,-0.454454,0.694237,0.574549,0.175146,0.152571,0.784818,0,0,0,-0.36361,-1.39905,0.210393,0,0,0,-4.25747e-07,-1.70299e-06,-0.25,0.50983,-0.401255,-0.09329,0.644724,0.597993,0.694869,-0.340828,1
1.83123,-1.10482,-1.82456,-1.05258,1.99711,1.18655,-0.950399,1.83123,-1.10482,-1.82456,-1.05258,1.99711,1.18655,-0.950399,1.78024,-1.06469,-1.81524,-1.11705,1.93731,1.11707,-0.916316,0,0,0,0,0,0,0,0,0,0,0,0,0,0,0.531038,-0.454454,0.694237,0.574549,0.175146,0.152571,0.784818,0,0,0,-0.36361,-1.39905,0.210393,0,0,0,-4.25747e-07,-1.70299e-06,-0.25,0.50983,-0.401255,-0.0932898,0.644724,0.597993,0.694869,-0.340828,1
1.83123,-1.10482,-1.82456,-1.05258,1.99711,1.18655,-0.950399,1.83123,-1.10482,-1.82456,-1.05258,1.99711,1.18655,-0.950399,1.78024,-1.06469,-1.81524,-1.11705,1.93731,1.11707,-0.916316,0,0,0,0,0,0,0,0,0,0,0,0,0,0,0.531038,-0.454454,0.694237,0.574549,0.175146,0.152571,0.784818,0,0,0,-0.36361,-1.39905,0.210393,0,0,0,-4.25747e-07,-1.70299e-06,-0.25,0.50983,-0.401255,-0.09329,0.644725,0.597993,0.694869,-0.340828,1
1.83123,-1.10482,-1.82456,-1.05258,1.99711,1.18655,-0.950399,1.83123,-1.10482,-1.82456,-1.05258,1.99711,1.18655,-0.950399,1.78024,-1.06469,-1.81524,-1.11705,1.93731,1.11707,-0.916316,0,0,0,0,0,0,0,0,0,0,0,0,0,0,0.531038,-0.454454,0.694237,0.574549,0.175146,0.152571,0.784818,0,0,0,-0.36361,-1.39905,0.210393,0,0,0,-4.25747e-07,-1.70299e-06,-0.25,0.50983,-0.401255,-0.09329,0.644724,0.597993,0.694869,-0.340828,1
1.83123,-1.10482,-1.82456,-1.05258,1.99711,1.18655,-0.950399,1.83123,-1.10482,-1.82456,-1.05258,1.99711,1.18655,-0.950399,1.78024,-1.06469,-1.81524,-1.11705,1.93731,1.11707,-0.916316,0,0,0,0,0,0,0,0,0,0,0,0,0,0,0.531038,-0.454454,0.694237,0.574549,0.175146,0.152571,0.784818,0,0,0,-0.36361,-1.39905,0.210393,0,0,0,-4.25747e-07,-1.70299e-06,-0.25,0.50983,-0.401255,-0.0932898,0.644725,0.597993,0.694869,-0.340828,1
1.83123,-1.10482,-1.82456,-1.05258,1.99711,1.18655,-0.950399,1.83123,-1.10482,-1.82456,-1.05258,1.99711,1.18655,-0.950399,1.78024,-1.06469,-1.81524,-1.11705,1.93731,1.11707,-0.916316,0,0,0,0,0,0,0,0,0,0,0,0,0,0,0.531038,-0.454454,0.694237,0.574549,0.175146,0.152571,0.784818,0,0,0,-0.36361,-1.39905,0.210393,0,0,0,-4.25747e-07,-1.70299e-06,-0.25,0.50983,-0.401255,-0.0932899,0.644724,0.597993,0.694869,-0.340828,1
1.83123,-1.10482,-1.82456,-1.05258,1.99711,1.18655,-0.950399,1.83123,-1.10482,-1.82456,-1.05258,1.99711,1.18655,-0.950399,1.78024,-1.06469,-1.81524,-1.11705,1.93731,1.11707,-0.916316,0,0,0,0,0,0,0,0,0,0,0,0,0,0,0.531038,-0.454454,0.694237,0.574549,0.175146,0.152571,0.784818,0,0,0,-0.36361,-1.39905,0.210393,0,0,0,-4.25747e-07,-1.70299e-06,-0.25,0.50983,-0.401255,-0.0932899,0.644724,0.597993,0.694869,-0.340828,1
1.83123,-1.10482,-1.82456,-1.05258,1.99711,1.18655,-0.950398,1.83123,-1.10482,-1.82456,-1.05258,1.99711,1.18655,-0.950399,1.78024,-1.06469,-1.81524,-1.11705,1.93731,1.11707,-0.916316,0,0,0,0,0,0,0,0,0,0,0,0,0,0,0.531038,-0.454454,0.694237,0.574549,0.175146,0.152571,0.784818,0,0,0,-0.36361,-1.39905,0.210393,0,0,0,-4.25747e-07,-1.70299e-06,-0.25,0.50983,-0.401255,-0.0932899,0.644725,0.597993,0.694869,-0.340828,1
1.83123,-1.10482,-1.82456,-1.05258,1.99711,1.18655,-0.950399,1.83123,-1.10482,-1.82456,-1.05258,1.99711,1.18655,-0.950399,1.78024,-1.06469,-1.81524,-1.11705,1.93731,1.11707,-0.916316,0,0,0,0,0,0,0,0,0,0,0,0,0,0,0.531038,-0.454454,0.694237,0.574549,0.175146,0.152571,0.784818,0,0,0,-0.36361,-1.39905,0.210393,0,0,0,-4.25747e-07,-1.70299e-06,-0.25,0.50983,-0.401255,-0.09329,0.644725,0.597993,0.694869,-0.340828,1
1.83123,-1.10482,-1.82456,-1.05258,1.99711,1.18655,-0.950399,1.83123,-1.10482,-1.82456,-1.05258,1.99711,1.18655,-0.950399,1.78024,-1.06469,-1.81524,-1.11705,1.93731,1.11707,-0.916316,0,0,0,0,0,0,0,0,0,0,0,0,0,0,0.531038,-0.454454,0.694237,0.574549,0.175146,0.152571,0.784818,0,0,0,-0.36361,-1.39905,0.210393,0,0,0,-4.25747e-07,-1.70299e-06,-0.25,0.50983,-0.401255,-0.09329,0.644725,0.597993,0.694869,-0.340828,1
1.83123,-1.10482,-1.82456,-1.05258,1.99711,1.18655,-0.950399,1.83123,-1.10482,-1.82456,-1.05258,1.99711,1.18655,-0.950399,1.78024,-1.06469,-1.81524,-1.11705,1.93731,1.11707,-0.916316,0,0,0,0,0,0,0,0,0,0,0,0,0,0,0.531038,-0.454454,0.694237,0.574549,0.175146,0.152571,0.784818,0,0,0,-0.36361,-1.39905,0.210393,0,0,0,-4.25747e-07,-1.70299e-06,-0.25,0.50983,-0.401255,-0.0932901,0.644724,0.597993,0.694869,-0.340828,1
1.83123,-1.10482,-1.82456,-1.05258,1.99711,1.18655,-0.950399,1.83123,-1.10482,-1.82456,-1.05258,1.99711,1.18655,-0.950399,1.78024,-1.06469,-1.81524,-1.11705,1.93731,1.11707,-0.916316,0,0,0,0,0,0,0,0,0,0,0,0,0,0,0.531038,-0.454454,0.694237,0.574549,0.175146,0.152571,0.784818,0,0,0,-0.36361,-1.39905,0.210393,0,0,0,-4.25747e-07,-1.70299e-06,-0.25,0.50983,-0.401255,-0.09329,0.644725,0.597993,0.694869,-0.340828,1
1.83123,-1.10482,-1.82456,-1.05258,1.99711,1.18655,-0.950399,1.83123,-1.10482,-1.82456,-1.05258,1.99711,1.18655,-0.950399,1.78024,-1.06469,-1.81524,-1.11705,1.93731,1.11707,-0.916316,0,0,0,0,0,0,0,0,0,0,0,0,0,0,0.531038,-0.454454,0.694237,0.574549,0.175146,0.152571,0.784818,0,0,0,-0.36361,-1.39905,0.210393,0,0,0,-4.25747e-07,-1.70299e-06,-0.25,0.50983,-0.401255,-0.09329,0.644725,0.597993,0.694869,-0.340828,1
1.83123,-1.10482,-1.82456,-1.05258,1.99711,1.18655,-0.950399,1.83123,-1.10482,-1.82456,-1.05258,1.99711,1.18655,-0.950399,1.78024,-1.06469,-1.81524,-1.11705,1.93731,1.11707,-0.916316,0,0,0,0,0,0,0,0,0,0,0,0,0,0,0.531038,-0.454454,0.694237,0.574549,0.175146,0.152571,0.784818,0,0,0,-0.36361,-1.39905,0.210393,0,0,0,-4.25747e-07,-1.70299e-06,-0.25,0.50983,-0.401255,-0.09329,0.644724,0.597993,0.694869,-0.340828,1
1.83123,-1.10482,-1.82456,-1.05258,1.99711,1.18655,-0.950399,1.83123,-1.10482,-1.82456,-1.05258,1.99711,1.18655,-0.950399,1.78024,-1.06469,-1.81524,-1.11705,1.93731,1.11707,-0.916316,0,0,0,0,0,0,0,0,0,0,0,0,0,0,0.531038,-0.454454,0.694237,0.574549,0.175146,0.152571,0.784818,0,0,0,-0.36361,-1.39905,0.210393,0,0,0,-4.25747e-07,-1.70299e-06,-0.25,0.50983,-0.401255,-0.0932899,0.644724,0.597993,0.694869,-0.340828,1
1.83123,-1.10482,-1.82456,-1.05258,1.99711,1.18655,-0.950399,1.83123,-1.10482,-1.82456,-1.05258,1.99711,1.18655,-0.950399,1.78024,-1.06469,-1.81524,-1.11705,1.93731,1.11707,-0.916316,0,0,0,0,0,0,0,0,0,0,0,0,0,0,0.531038,-0.454454,0.694237,0.574549,0.175146,0.152571,0.784818,0,0,0,-0.36361,-1.39905,0.210393,0,0,0,-4.25747e-07,-1.70299e-06,-0.25,0.50983,-0.401254,-0.09329,0.644725,0.597993,0.694869,-0.340828,1
1.83123,-1.10482,-1.82456,-1.05258,1.99711,1.18655,-0.950399,1.83123,-1.10482,-1.82456,-1.05258,1.99711,1.18655,-0.950399,1.78024,-1.06469,-1.81524,-1.11705,1.93731,1.11707,-0.916316,0,0,0,0,0,0,0,0,0,0,0,0,0,0,0.531038,-0.454454,0.694237,0.574549,0.175146,0.152571,0.784818,0,0,0,-0.36361,-1.39905,0.210393,0,0,0,-4.25747e-07,-1.70299e-06,-0.25,0.50983,-0.401255,-0.09329,0.644725,0.597993,0.694869,-0.340828,1
1.83123,-1.10482,-1.82456,-1.05258,1.99711,1.18655,-0.950399,1.83123,-1.10482,-1.82456,-1.05258,1.99711,1.18655,-0.950399,1.78024,-1.06469,-1.81524,-1.11705,1.93731,1.11707,-0.916316,0,0,0,0,0,0,0,0,0,0,0,0,0,0,0.531038,-0.454454,0.694237,0.574549,0.175146,0.152571,0.784818,0,0,0,-0.36361,-1.39905,0.210393,0,0,0,-4.25747e-07,-1.70299e-06,-0.25,0.50983,-0.401255,-0.09329,0.644724,0.597993,0.694869,-0.340828,1
1.83123,-1.10482,-1.82456,-1.05258,1.99711,1.18655,-0.950399,1.83123,-1.10482,-1.82456,-1.05258,1.99711,1.18655,-0.950399,1.78024,-1.06469,-1.81524,-1.11705,1.93731,1.11707,-0.916316,0,0,0,0,0,0,0,0,0,0,0,0,0,0,0.531038,-0.454454,0.694237,0.574549,0.175146,0.152571,0.784818,0,0,0,-0.36361,-1.39905,0.210393,0,0,0,-4.25747e-07,-1.70299e-06,-0.25,0.50983,-0.401255,-0.0932899,0.644725,0.597993,0.694869,-0.340828,1
1.83123,-1.10482,-1.82456,-1.05258,1.99711,1.18655,-0.950399,1.83123,-1.10482,-1.82456,-1.05258,1.99711,1.18655,-0.950399,1.78024,-1.06469,-1.81524,-1.11705,1.93731,1.11707,-0.916316,0,0,0,0,0,0,0,0,0,0,0,0,0,0,0.531038,-0.454454,0.694237,0.574549,0.175146,0.152571,0.784818,0,0,0,-0.36361,-1.39905,0.210393,0,0,0,-4.25747e-07,-1.70299e-06,-0.25,0.50983,-0.401255,-0.09329,0.644724,0.597993,0.694869,-0.340828,1
1.83123,-1.10482,-1.82456,-1.05258,1.99711,1.18655,-0.950399,1.83123,-1.10482,-1.82456,-1.05258,1.99711,1.18655,-0.950399,1.78024,-1.06469,-1.81524,-1.11705,1.93731,1.11707,-0.916316,0,0,0,0,0,0,0,0,0,0,0,0,0,0,0.531038,-0.454454,0.694237,0.574549,0.175146,0.152571,0.784818,0,0,0,-0.36361,-1.39905,0.210393,0,0,0,-4.25747e-07,-1.70299e-06,-0.25,0.50983,-0.401255,-0.0932899,0.644725,0.597993,0.694869,-0.340828,1
1.83123,-1.10482,-1.82456,-1.05258,1.99711,1.18655,-0.950399,1.83123,-1.10482,-1.82456,-1.05258,1.99711,1.18655,-0.950399,1.78024,-1.06469,-1.81524,-1.11705,1.93731,1.11707,-0.916316,0,0,0,0,0,0,0,0,0,0,0,0,0,0,0.531038,-0.454454,0.694237,0.574549,0.175146,0.152571,0.784818,0,0,0,-0.36361,-1.39905,0.210393,0,0,0,-4.25747e-07,-1.70299e-06,-0.25,0.50983,-0.401255,-0.09329,0.644724,0.597993,0.694869,-0.340828,1
1.83123,-1.10482,-1.82456,-1.05258,1.99711,1.18655,-0.950399,1.83123,-1.10482,-1.82456,-1.05258,1.99711,1.18655,-0.950399,1.78024,-1.06469,-1.81524,-1.11705,1.93731,1.11707,-0.916316,0,0,0,0,0,0,0,0,0,0,0,0,0,0,0.531038,-0.454454,0.694237,0.574549,0.175146,0.152571,0.784818,0,0,0,-0.36361,-1.39905,0.210393,0,0,0,-4.25747e-07,-1.70299e-06,-0.25,0.50983,-0.401255,-0.0932899,0.644725,0.597993,0.694869,-0.340828,1
1.83123,-1.10482,-1.82456,-1.05258,1.99711,1.18655,-0.950399,1.83123,-1.10482,-1.82456,-1.05258,1.99711,1.18655,-0.950399,1.78024,-1.06469,-1.81524,-1.11705,1.93731,1.11707,-0.916316,0,0,0,0,0,0,0,0,0,0,0,0,0,0,0.531038,-0.454454,0.694237,0.574549,0.175146,0.152571,0.784818,0,0,0,-0.36361,-1.39905,0.210393,0,0,0,-4.25747e-07,-1.70299e-06,-0.25,0.50983,-0.401255,-0.09329,0.644724,0.597993,0.694869,-0.340828,1
1.83123,-1.10482,-1.82456,-1.05258,1.99711,1.18655,-0.950399,1.83123,-1.10482,-1.82456,-1.05258,1.99711,1.18655,-0.950399,1.78024,-1.06469,-1.81524,-1.11705,1.93731,1.11707,-0.916316,0,0,0,0,0,0,0,0,0,0,0,0,0,0,0.531038,-0.454454,0.694237,0.574549,0.175146,0.152571,0.784818,0,0,0,-0.36361,-1.39905,0.210393,0,0,0,-4.25747e-07,-1.70299e-06,-0.25,0.50983,-0.401255,-0.0932899,0.644725,0.597993,0.694869,-0.340828,1
1.83123,-1.10482,-1.82456,-1.05258,1.99711,1.18655,-0.950399,1.83123,-1.10482,-1.82456,-1.05258,1.99711,1.18655,-0.950399,1.78024,-1.06469,-1.81524,-1.11705,1.93731,1.11707,-0.916316,0,0,0,0,0,0,0,0,0,0,0,0,0,0,0.531038,-0.454454,0.694237,0.574549,0.175146,0.152571,0.784818,0,0,0,-0.36361,-1.39905,0.210393,0,0,0,-4.25747e-07,-1.70299e-06,-0.25,0.50983,-0.401255,-0.0932898,0.644724,0.597993,0.694869,-0.340828,1
1.83123,-1.10482,-1.82456,-1.05258,1.99711,1.18655,-0.950399,1.83123,-1.10482,-1.82456,-1.05258,1.99711,1.18655,-0.950399,1.78024,-1.06469,-1.81524,-1.11705,1.93731,1.11707,-0.916316,0,0,0,0,0,0,0,0,0,0,0,0,0,0,0.531038,-0.454454,0.694237,0.574549,0.175146,0.152571,0.784818,0,0,0,-0.36361,-1.39905,0.210393,0,0,0,-4.25747e-07,-1.70299e-06,-0.25,0.50983,-0.401255,-0.09329,0.644725,0.597993,0.694869,-0.340828,1
1.83123,-1.10482,-1.82456,-1.05258,1.99711,1.18655,-0.950399,1.83123,-1.10482,-1.82456,-1.05258,1.99711,1.18655,-0.950399,1.78024,-1.06469,-1.81524,-1.11705,1.93731,1.11707,-0.916316,0,0,0,0,0,0,0,0,0,0,0,0,0,0,0.531038,-0.454454,0.694237,0.574549,0.175146,0.152571,0.784818,0,0,0,-0.36361,-1.39905,0.210393,0,0,0,-4.25747e-07,-1.70299e-06,-0.25,0.50983,-0.401255,-0.0932899,0.644724,0.597993,0.694869,-0.340828,1
1.83123,-1.10482,-1.82456,-1.05258,1.99711,1.18655,-0.950399,1.83123,-1.10482,-1.82456,-1.05258,1.99711,1.18655,-0.950399,1.78024,-1.06469,-1.81524,-1.11705,1.93731,1.11707,-0.916316,0,0,0,0,0,0,0,0,0,0,0,0,0,0,0.531038,-0.454454,0.694237,0.574549,0.175146,0.152571,0.784818,0,0,0,-0.36361,-1.39905,0.210393,0,0,0,-4.25747e-07,-1.70299e-06,-0.25,0.50983,-0.401255,-0.0932899,0.644725,0.597993,0.694869,-0.340828,1
1.83123,-1.10482,-1.82456,-1.05258,1.99711,1.18655,-0.950399,1.83123,-1.10482,-1.82456,-1.05258,1.99711,1.18655,-0.950399,1.78024,-1.06469,-1.81524,-1.11705,1.93731,1.11707,-0.916316,0,0,0,0,0,0,0,0,0,0,0,0,0,0,0.531038,-0.454454,0.694237,0.574549,0.175146,0.152571,0.784818,0,0,0,-0.36361,-1.39905,0.210393,0,0,0,-4.25747e-07,-1.70299e-06,-0.25,0.50983,-0.401255,-0.0932898,0.644724,0.597993,0.694869,-0.340828,1
1.83123,-1.10482,-1.82456,-1.05258,1.99711,1.18655,-0.950399,1.83123,-1.10482,-1.82456,-1.05258,1.99711,1.18655,-0.950399,1.78024,-1.06469,-1.81524,-1.11705,1.93731,1.11707,-0.916316,0,0,0,0,0,0,0,0,0,0,0,0,0,0,0.531038,-0.454454,0.694237,0.574549,0.175146,0.152571,0.784818,0,0,0,-0.36361,-1.39905,0.210393,0,0,0,-4.25747e-07,-1.70299e-06,-0.25,0.50983,-0.401255,-0.0932898,0.644725,0.597993,0.694869,-0.340828,1
1.83123,-1.10482,-1.82456,-1.05258,1.99711,1.18655,-0.950398,1.83123,-1.10482,-1.82456,-1.05258,1.99711,1.18655,-0.950399,1.78024,-1.06469,-1.81524,-1.11705,1.93731,1.11707,-0.916316,0,0,0,0,0,0,0,0,0,0,0,0,0,0,0.531038,-0.454454,0.694237,0.574549,0.175146,0.152571,0.784818,0,0,0,-0.36361,-1.39905,0.210393,0,0,0,-4.25747e-07,-1.70299e-06,-0.25,0.50983,-0.401255,-0.0932898,0.644724,0.597993,0.694869,-0.340828,1
1.83123,-1.10482,-1.82456,-1.05258,1.99711,1.18655,-0.950399,1.83123,-1.10482,-1.82456,-1.05258,1.99711,1.18655,-0.950399,1.78024,-1.06469,-1.81524,-1.11705,1.93731,1.11707,-0.916316,0,0,0,0,0,0,0,0,0,0,0,0,0,0,0.531038,-0.454454,0.694237,0.574549,0.175146,0.152571,0.784818,0,0,0,-0.36361,-1.39905,0.210393,0,0,0,-4.25747e-07,-1.70299e-06,-0.25,0.50983,-0.401255,-0.09329,0.644724,0.597993,0.694869,-0.340828,1
1.83123,-1.10482,-1.82456,-1.05258,1.99711,1.18655,-0.950399,1.83123,-1.10482,-1.82456,-1.05258,1.99711,1.18655,-0.950399,1.78024,-1.06469,-1.81524,-1.11705,1.93731,1.11707,-0.916316,0,0,0,0,0,0,0,0,0,0,0,0,0,0,0.531038,-0.454454,0.694237,0.574549,0.175146,0.152571,0.784818,0,0,0,-0.36361,-1.39905,0.210393,0,0,0,-4.25747e-07,-1.70299e-06,-0.25,0.50983,-0.401255,-0.09329,0.644725,0.597993,0.694869,-0.340828,1
1.83123,-1.10482,-1.82456,-1.05258,1.99711,1.18655,-0.950399,1.83123,-1.10482,-1.82456,-1.05258,1.99711,1.18655,-0.950399,1.78024,-1.06469,-1.81524,-1.11705,1.93731,1.11707,-0.916316,0,0,0,0,0,0,0,0,0,0,0,0,0,0,0.531038,-0.454454,0.694237,0.574549,0.175146,0.152571,0.784818,0,0,0,-0.36361,-1.39905,0.210393,0,0,0,-4.25747e-07,-1.70299e-06,-0.25,0.50983,-0.401255,-0.09329,0.644725,0.597993,0.694869,-0.340828,1
1.83123,-1.10482,-1.82456,-1.05258,1.99711,1.18655,-0.950399,1.83123,-1.10482,-1.82456,-1.05258,1.99711,1.18655,-0.950399,1.78024,-1.06469,-1.81524,-1.11705,1.93731,1.11707,-0.916316,0,0,0,0,0,0,0,0,0,0,0,0,0,0,0.531038,-0.454454,0.694237,0.574549,0.175146,0.152571,0.784818,0,0,0,-0.36361,-1.39905,0.210393,0,0,0,-4.25747e-07,-1.70299e-06,-0.25,0.50983,-0.401255,-0.0932898,0.644724,0.597993,0.694869,-0.340828,1
1.83123,-1.10482,-1.82456,-1.05258,1.99711,1.18655,-0.950399,1.83123,-1.10482,-1.82456,-1.05258,1.99711,1.18655,-0.950399,1.78024,-1.06469,-1.81524,-1.11705,1.93731,1.11707,-0.916316,0,0,0,0,0,0,0,0,0,0,0,0,0,0,0.531038,-0.454454,0.694237,0.574549,0.175146,0.152571,0.784818,0,0,0,-0.36361,-1.39905,0.210393,0,0,0,-4.25747e-07,-1.70299e-06,-0.25,0.50983,-0.401255,-0.09329,0.644725,0.597993,0.694869,-0.340828,1
1.83123,-1.10482,-1.82456,-1.05258,1.99711,1.18655,-0.950399,1.83123,-1.10482,-1.82456,-1.05258,1.99711,1.18655,-0.950399,1.78024,-1.06469,-1.81524,-1.11705,1.93731,1.11707,-0.916316,0,0,0,0,0,0,0,0,0,0,0,0,0,0,0.531038,-0.454454,0.694237,0.574549,0.175146,0.152571,0.784818,0,0,0,-0.36361,-1.39905,0.210393,0,0,0,-4.25747e-07,-1.70299e-06,-0.25,0.50983,-0.401255,-0.0932899,0.644724,0.597993,0.694869,-0.340828,1
1.83123,-1.10482,-1.82456,-1.05258,1.99711,1.18655,-0.950399,1.83123,-1.10482,-1.82456,-1.05258,1.99711,1.18655,-0.950399,1.78024,-1.06469,-1.81524,-1.11705,1.93731,1.11707,-0.916316,0,0,0,0,0,0,0,0,0,0,0,0,0,0,0.531038,-0.454454,0.694237,0.574549,0.175146,0.152571,0.784818,0,0,0,-0.36361,-1.39905,0.210393,0,0,0,-4.25747e-07,-1.70299e-06,-0.25,0.50983,-0.401255,-0.0932899,0.644724,0.597993,0.694869,-0.340828,1
1.83123,-1.10482,-1.82456,-1.05258,1.99711,1.18655,-0.950399,1.83123,-1.10482,-1.82456,-1.05258,1.99711,1.18655,-0.950399,1.78024,-1.06469,-1.81524,-1.11705,1.93731,1.11707,-0.916316,0,0,0,0,0,0,0,0,0,0,0,0,0,0,0.531038,-0.454454,0.694237,0.574549,0.175146,0.152571,0.784818,0,0,0,-0.36361,-1.39905,0.210393,0,0,0,-4.25747e-07,-1.70299e-06,-0.25,0.50983,-0.401255,-0.0932899,0.644724,0.597993,0.694869,-0.340828,1
1.83123,-1.10482,-1.82456,-1.05258,1.99711,1.18655,-0.950399,1.83123,-1.10482,-1.82456,-1.05258,1.99711,1.18655,-0.950399,1.78024,-1.06469,-1.81524,-1.11705,1.93731,1.11707,-0.916316,0,0,0,0,0,0,0,0,0,0,0,0,0,0,0.531038,-0.454454,0.694237,0.574549,0.175146,0.152571,0.784818,0,0,0,-0.36361,-1.39905,0.210393,0,0,0,-4.25747e-07,-1.70299e-06,-0.25,0.50983,-0.401255,-0.0932899,0.644724,0.597993,0.694869,-0.340828,1
1.83123,-1.10482,-1.82456,-1.05258,1.99711,1.18655,-0.950399,1.83123,-1.10482,-1.82456,-1.05258,1.99711,1.18655,-0.950399,1.78024,-1.06469,-1.81524,-1.11705,1.93731,1.11707,-0.916316,0,0,0,0,0,0,0,0,0,0,0,0,0,0,0.531038,-0.454454,0.694237,0.574549,0.175146,0.152571,0.784818,0,0,0,-0.36361,-1.39905,0.210393,0,0,0,-4.25747e-07,-1.70299e-06,-0.25,0.50983,-0.401255,-0.09329,0.644724,0.597993,0.694869,-0.340828,1
1.83123,-1.10482,-1.82456,-1.05258,1.99711,1.18655,-0.950399,1.83123,-1.10482,-1.82456,-1.05258,1.99711,1.18655,-0.950399,1.78024,-1.06469,-1.81524,-1.11705,1.93731,1.11707,-0.916316,0,0,0,0,0,0,0,0,0,0,0,0,0,0,0.531038,-0.454454,0.694237,0.574549,0.175146,0.152571,0.784818,0,0,0,-0.36361,-1.39905,0.210393,0,0,0,-4.25747e-07,-1.70299e-06,-0.25,0.50983,-0.401255,-0.0932899,0.644725,0.597993,0.694869,-0.340828,1
1.83123,-1.10482,-1.82456,-1.05258,1.99711,1.18655,-0.950399,1.83123,-1.10482,-1.82456,-1.05258,1.99711,1.18655,-0.950399,1.78024,-1.06469,-1.81524,-1.11705,1.93731,1.11707,-0.916316,0,0,0,0,0,0,0,0,0,0,0,0,0,0,0.531038,-0.454454,0.694237,0.574549,0.175146,0.152571,0.784818,0,0,0,-0.36361,-1.39905,0.210393,0,0,0,-4.25747e-07,-1.70299e-06,-0.25,0.50983,-0.401255,-0.0932899,0.644725,0.597993,0.694869,-0.340828,1
1.83123,-1.10482,-1.82456,-1.05258,1.99711,1.18655,-0.950399,1.83123,-1.10482,-1.82456,-1.05258,1.99711,1.18655,-0.950399,1.78024,-1.06469,-1.81524,-1.11705,1.93731,1.11707,-0.916316,0,0,0,0,0,0,0,0,0,0,0,0,0,0,0.531038,-0.454454,0.694237,0.574549,0.175146,0.152571,0.784818,0,0,0,-0.36361,-1.39905,0.210393,0,0,0,-4.25747e-07,-1.70299e-06,-0.25,0.50983,-0.401255,-0.0932899,0.644724,0.597993,0.694869,-0.340828,1
1.83123,-1.10482,-1.82456,-1.05258,1.99711,1.18655,-0.950399,1.83123,-1.10482,-1.82456,-1.05258,1.99711,1.18655,-0.950399,1.78024,-1.06469,-1.81524,-1.11705,1.93731,1.11707,-0.916316,0,0,0,0,0,0,0,0,0,0,0,0,0,0,0.531038,-0.454454,0.694237,0.574549,0.175146,0.152571,0.784818,0,0,0,-0.36361,-1.39905,0.210393,0,0,0,-4.25747e-07,-1.70299e-06,-0.25,0.50983,-0.401255,-0.0932899,0.644724,0.597993,0.694869,-0.340828,1
1.83123,-1.10482,-1.82456,-1.05258,1.99711,1.18655,-0.950399,1.83123,-1.10482,-1.82456,-1.05258,1.99711,1.18655,-0.950399,1.78024,-1.06469,-1.81524,-1.11705,1.93731,1.11707,-0.916316,0,0,0,0,0,0,0,0,0,0,0,0,0,0,0.531038,-0.454454,0.694237,0.574549,0.175146,0.152571,0.784818,0,0,0,-0.36361,-1.39905,0.210393,0,0,0,-4.25747e-07,-1.70299e-06,-0.25,0.50983,-0.401255,-0.0932899,0.644725,0.597993,0.694869,-0.340828,1
1.83123,-1.10482,-1.82456,-1.05258,1.99711,1.18655,-0.950399,1.83123,-1.10482,-1.82456,-1.05258,1.99711,1.18655,-0.950399,1.78024,-1.06469,-1.81524,-1.11705,1.93731,1.11707,-0.916316,0,0,0,0,0,0,0,0,0,0,0,0,0,0,0.531038,-0.454454,0.694237,0.574549,0.175146,0.152571,0.784818,0,0,0,-0.36361,-1.39905,0.210393,0,0,0,-4.25747e-07,-1.70299e-06,-0.25,0.50983,-0.401255,-0.0932901,0.644724,0.597993,0.694869,-0.340828,1
1.83123,-1.10482,-1.82456,-1.05258,1.99711,1.18655,-0.950399,1.83123,-1.10482,-1.82456,-1.05258,1.99711,1.18655,-0.950399,1.78024,-1.06469,-1.81524,-1.11705,1.93731,1.11707,-0.916316,0,0,0,0,0,0,0,0,0,0,0,0,0,0,0.531038,-0.454454,0.694237,0.574549,0.175146,0.152571,0.784818,0,0,0,-0.36361,-1.39905,0.210393,0,0,0,-4.25747e-07,-1.70299e-06,-0.25,0.50983,-0.401255,-0.0932899,0.644725,0.597993,0.694869,-0.340828,1
1.83123,-1.10482,-1.82456,-1.05258,1.99711,1.18655,-0.950399,1.83123,-1.10482,-1.82456,-1.05258,1.99711,1.18655,-0.950399,1.78024,-1.06469,-1.81524,-1.11705,1.93731,1.11707,-0.916316,0,0,0,0,0,0,0,0,0,0,0,0,0,0,0.531038,-0.454454,0.694237,0.574549,0.175146,0.152571,0.784818,0,0,0,-0.36361,-1.39905,0.210393,0,0,0,-4.25747e-07,-1.70299e-06,-0.25,0.50983,-0.401255,-0.0932902,0.644725,0.597993,0.694869,-0.340828,1
1.83123,-1.10482,-1.82456,-1.05258,1.99711,1.18655,-0.950399,1.83123,-1.10482,-1.82456,-1.05258,1.99711,1.18655,-0.950399,1.78024,-1.06469,-1.81524,-1.11705,1.93731,1.11707,-0.916316,0,0,0,0,0,0,0,0,0,0,0,0,0,0,0.531038,-0.454454,0.694237,0.574549,0.175146,0.152571,0.784818,0,0,0,-0.36361,-1.39905,0.210393,0,0,0,-4.25747e-07,-1.70299e-06,-0.25,0.50983,-0.401255,-0.0932899,0.644725,0.597993,0.694869,-0.340828,1
1.83123,-1.10482,-1.82456,-1.05258,1.99711,1.18655,-0.950399,1.83123,-1.10482,-1.82456,-1.05258,1.99711,1.18655,-0.950399,1.78024,-1.06469,-1.81524,-1.11705,1.93731,1.11707,-0.916316,0,0,0,0,0,0,0,0,0,0,0,0,0,0,0.531038,-0.454454,0.694237,0.574549,0.175146,0.152571,0.784818,0,0,0,-0.36361,-1.39905,0.210393,0,0,0,-4.25747e-07,-1.70299e-06,-0.25,0.50983,-0.401255,-0.09329,0.644724,0.597993,0.694869,-0.340828,1
1.83123,-1.10482,-1.82456,-1.05258,1.99711,1.18655,-0.950399,1.83123,-1.10482,-1.82456,-1.05258,1.99711,1.18655,-0.950399,1.78024,-1.06469,-1.81524,-1.11705,1.93731,1.11707,-0.916316,0,0,0,0,0,0,0,0,0,0,0,0,0,0,0.531038,-0.454454,0.694237,0.574549,0.175146,0.152571,0.784818,0,0,0,-0.36361,-1.39905,0.210393,0,0,0,-4.25747e-07,-1.70299e-06,-0.25,0.50983,-0.401255,-0.0932899,0.644724,0.597993,0.694869,-0.340828,1
1.83123,-1.10482,-1.82456,-1.05258,1.99711,1.18655,-0.950399,1.83123,-1.10482,-1.82456,-1.05258,1.99711,1.18655,-0.950399,1.78024,-1.06469,-1.81524,-1.11705,1.93731,1.11707,-0.916316,0,0,0,0,0,0,0,0,0,0,0,0,0,0,0.531038,-0.454454,0.694237,0.574549,0.175146,0.152571,0.784818,0,0,0,-0.36361,-1.39905,0.210393,0,0,0,-4.25747e-07,-1.70299e-06,-0.25,0.50983,-0.401255,-0.0932899,0.644724,0.597993,0.694869,-0.340828,1
1.83123,-1.10482,-1.82456,-1.05258,1.99711,1.18655,-0.950399,1.83123,-1.10482,-1.82456,-1.05258,1.99711,1.18655,-0.950399,1.78024,-1.06469,-1.81524,-1.11705,1.93731,1.11707,-0.916316,0,0,0,0,0,0,0,0,0,0,0,0,0,0,0.531038,-0.454454,0.694237,0.574549,0.175146,0.152571,0.784818,0,0,0,-0.36361,-1.39905,0.210393,0,0,0,-4.25747e-07,-1.70299e-06,-0.25,0.50983,-0.401255,-0.0932901,0.644724,0.597993,0.694869,-0.340828,1
1.83123,-1.10482,-1.82456,-1.05258,1.99711,1.18655,-0.950399,1.83123,-1.10482,-1.82456,-1.05258,1.99711,1.18655,-0.950399,1.78024,-1.06469,-1.81524,-1.11705,1.93731,1.11707,-0.916316,0,0,0,0,0,0,0,0,0,0,0,0,0,0,0.531038,-0.454454,0.694237,0.574549,0.175146,0.152571,0.784818,0,0,0,-0.36361,-1.39905,0.210393,0,0,0,-4.25747e-07,-1.70299e-06,-0.25,0.50983,-0.401255,-0.09329,0.644725,0.597993,0.694869,-0.340828,1
1.83123,-1.10482,-1.82456,-1.05258,1.99711,1.18655,-0.950399,1.83123,-1.10482,-1.82456,-1.05258,1.99711,1.18655,-0.950399,1.78024,-1.06469,-1.81524,-1.11705,1.93731,1.11707,-0.916316,0,0,0,0,0,0,0,0,0,0,0,0,0,0,0.531038,-0.454454,0.694237,0.574549,0.175146,0.152571,0.784818,0,0,0,-0.36361,-1.39905,0.210393,0,0,0,-4.25747e-07,-1.70299e-06,-0.25,0.50983,-0.401255,-0.09329,0.644725,0.597993,0.694869,-0.340828,1
1.83123,-1.10482,-1.82456,-1.05258,1.99711,1.18655,-0.950399,1.83123,-1.10482,-1.82456,-1.05258,1.99711,1.18655,-0.950399,1.78024,-1.06469,-1.81524,-1.11705,1.93731,1.11707,-0.916316,0,0,0,0,0,0,0,0,0,0,0,0,0,0,0.531038,-0.454454,0.694237,0.574549,0.175146,0.152571,0.784818,0,0,0,-0.36361,-1.39905,0.210393,0,0,0,-4.25747e-07,-1.70299e-06,-0.25,0.50983,-0.401255,-0.09329,0.644725,0.597993,0.694869,-0.340828,1
1.83123,-1.10482,-1.82456,-1.05258,1.99711,1.18655,-0.950399,1.83123,-1.10482,-1.82456,-1.05258,1.99711,1.18655,-0.950399,1.78024,-1.06469,-1.81524,-1.11705,1.93731,1.11707,-0.916316,0,0,0,0,0,0,0,0,0,0,0,0,0,0,0.531038,-0.454454,0.694237,0.574549,0.175146,0.152571,0.784818,0,0,0,-0.36361,-1.39905,0.210393,0,0,0,-4.25747e-07,-1.70299e-06,-0.25,0.50983,-0.401255,-0.0932898,0.644724,0.597993,0.694869,-0.340828,1
1.83123,-1.10482,-1.82456,-1.05258,1.99711,1.18655,-0.950399,1.83123,-1.10482,-1.82456,-1.05258,1.99711,1.18655,-0.950399,1.78024,-1.06469,-1.81524,-1.11705,1.93731,1.11707,-0.916316,0,0,0,0,0,0,0,0,0,0,0,0,0,0,0.531038,-0.454454,0.694237,0.574549,0.175146,0.152571,0.784818,0,0,0,-0.36361,-1.39905,0.210393,0,0,0,-4.25747e-07,-1.70299e-06,-0.25,0.50983,-0.401255,-0.09329,0.644724,0.597993,0.694869,-0.340828,1
1.83123,-1.10482,-1.82456,-1.05258,1.99711,1.18655,-0.950398,1.83123,-1.10482,-1.82456,-1.05258,1.99711,1.18655,-0.950399,1.78024,-1.06469,-1.81524,-1.11705,1.93731,1.11707,-0.916316,0,0,0,0,0,0,0,0,0,0,0,0,0,0,0.531038,-0.454454,0.694237,0.574549,0.175146,0.152571,0.784818,0,0,0,-0.36361,-1.39905,0.210393,0,0,0,-4.25747e-07,-1.70299e-06,-0.25,0.50983,-0.401254,-0.0932901,0.644724,0.597993,0.694869,-0.340828,1
1.83123,-1.10482,-1.82456,-1.05258,1.99711,1.18655,-0.950399,1.83123,-1.10482,-1.82456,-1.05258,1.99711,1.18655,-0.950399,1.78024,-1.06469,-1.81524,-1.11705,1.93731,1.11707,-0.916316,0,0,0,0,0,0,0,0,0,0,0,0,0,0,0.531038,-0.454454,0.694237,0.574549,0.175146,0.152571,0.784818,0,0,0,-0.36361,-1.39905,0.210393,0,0,0,-4.25747e-07,-1.70299e-06,-0.25,0.50983,-0.401255,-0.0932901,0.644725,0.597993,0.694869,-0.340828,1
1.83123,-1.10482,-1.82456,-1.05258,1.99711,1.18655,-0.950399,1.83123,-1.10482,-1.82456,-1.05258,1.99711,1.18655,-0.950399,1.78024,-1.06469,-1.81524,-1.11705,1.93731,1.11707,-0.916316,0,0,0,0,0,0,0,0,0,0,0,0,0,0,0.531038,-0.454454,0.694237,0.574549,0.175146,0.152571,0.784818,0,0,0,-0.36361,-1.39905,0.210393,0,0,0,-4.25747e-07,-1.70299e-06,-0.25,0.50983,-0.401255,-0.0932901,0.644725,0.597993,0.694869,-0.340828,1
1.83123,-1.10482,-1.82456,-1.05258,1.99711,1.18655,-0.950399,1.83123,-1.10482,-1.82456,-1.05258,1.99711,1.18655,-0.950399,1.78024,-1.06469,-1.81524,-1.11705,1.93731,1.11707,-0.916316,0,0,0,0,0,0,0,0,0,0,0,0,0,0,0.531038,-0.454454,0.694237,0.574549,0.175146,0.152571,0.784818,0,0,0,-0.36361,-1.39905,0.210393,0,0,0,-4.25747e-07,-1.70299e-06,-0.25,0.50983,-0.401254,-0.0932901,0.644724,0.597993,0.694869,-0.340828,1
1.83123,-1.10482,-1.82456,-1.05258,1.99711,1.18655,-0.950399,1.83123,-1.10482,-1.82456,-1.05258,1.99711,1.18655,-0.950399,1.78024,-1.06469,-1.81524,-1.11705,1.93731,1.11707,-0.916316,0,0,0,0,0,0,0,0,0,0,0,0,0,0,0.531038,-0.454454,0.694237,0.574549,0.175146,0.152571,0.784818,0,0,0,-0.36361,-1.39905,0.210393,0,0,0,-4.25747e-07,-1.70299e-06,-0.25,0.50983,-0.401255,-0.0932901,0.644724,0.597993,0.694869,-0.340828,1
1.83123,-1.10482,-1.82456,-1.05258,1.99711,1.18655,-0.950399,1.83123,-1.10482,-1.82456,-1.05258,1.99711,1.18655,-0.950399,1.78024,-1.06469,-1.81524,-1.11705,1.93731,1.11707,-0.916316,0,0,0,0,0,0,0,0,0,0,0,0,0,0,0.531038,-0.454454,0.694237,0.574549,0.175146,0.152571,0.784818,0,0,0,-0.36361,-1.39905,0.210393,0,0,0,-4.25747e-07,-1.70299e-06,-0.25,0.50983,-0.401255,-0.09329,0.644725,0.597993,0.694869,-0.340828,1
1.83123,-1.10482,-1.82456,-1.05258,1.99711,1.18655,-0.950399,1.83123,-1.10482,-1.82456,-1.05258,1.99711,1.18655,-0.950399,1.78024,-1.06469,-1.81524,-1.11705,1.93731,1.11707,-0.916316,0,0,0,0,0,0,0,0,0,0,0,0,0,0,0.531038,-0.454454,0.694237,0.574549,0.175146,0.152571,0.784818,0,0,0,-0.36361,-1.39905,0.210393,0,0,0,-4.25747e-07,-1.70299e-06,-0.25,0.50983,-0.401255,-0.0932899,0.644725,0.597993,0.694869,-0.340828,1
1.83123,-1.10482,-1.82456,-1.05258,1.99711,1.18655,-0.950399,1.83123,-1.10482,-1.82456,-1.05258,1.99711,1.18655,-0.950399,1.78024,-1.06469,-1.81524,-1.11705,1.93731,1.11707,-0.916316,0,0,0,0,0,0,0,0,0,0,0,0,0,0,0.531038,-0.454454,0.694237,0.574549,0.175146,0.152571,0.784818,0,0,0,-0.36361,-1.39905,0.210393,0,0,0,-4.25747e-07,-1.70299e-06,-0.25,0.50983,-0.401255,-0.09329,0.644724,0.597993,0.694869,-0.340828,1
1.83123,-1.10482,-1.82456,-1.05258,1.99711,1.18655,-0.950399,1.83123,-1.10482,-1.82456,-1.05258,1.99711,1.18655,-0.950399,1.78024,-1.06469,-1.81524,-1.11705,1.93731,1.11707,-0.916316,0,0,0,0,0,0,0,0,0,0,0,0,0,0,0.531038,-0.454454,0.694237,0.574549,0.175146,0.152571,0.784818,0,0,0,-0.36361,-1.39905,0.210393,0,0,0,-4.25747e-07,-1.70299e-06,-0.25,0.50983,-0.401255,-0.0932899,0.644725,0.597993,0.694869,-0.340828,1
1.83123,-1.10482,-1.82456,-1.05258,1.99711,1.18655,-0.950399,1.83123,-1.10482,-1.82456,-1.05258,1.99711,1.18655,-0.950399,1.78024,-1.06469,-1.81524,-1.11705,1.93731,1.11707,-0.916316,0,0,0,0,0,0,0,0,0,0,0,0,0,0,0.531038,-0.454454,0.694237,0.574549,0.175146,0.152571,0.784818,0,0,0,-0.36361,-1.39905,0.210393,0,0,0,-4.25747e-07,-1.70299e-06,-0.25,0.50983,-0.401255,-0.09329,0.644725,0.597993,0.694869,-0.340828,1
1.83123,-1.10482,-1.82456,-1.05258,1.99711,1.18655,-0.950399,1.83123,-1.10482,-1.82456,-1.05258,1.99711,1.18655,-0.950399,1.78024,-1.06469,-1.81524,-1.11705,1.93731,1.11707,-0.916316,0,0,0,0,0,0,0,0,0,0,0,0,0,0,0.531038,-0.454454,0.694237,0.574549,0.175146,0.152571,0.784818,0,0,0,-0.36361,-1.39905,0.210393,0,0,0,-4.25747e-07,-1.70299e-06,-0.25,0.50983,-0.401255,-0.09329,0.644724,0.597993,0.694869,-0.340828,1
1.83123,-1.10482,-1.82456,-1.05258,1.99711,1.18655,-0.950399,1.83123,-1.10482,-1.82456,-1.05258,1.99711,1.18655,-0.950399,1.78024,-1.06469,-1.81524,-1.11705,1.93731,1.11707,-0.916316,0,0,0,0,0,0,0,0,0,0,0,0,0,0,0.531038,-0.454454,0.694237,0.574549,0.175146,0.152571,0.784818,0,0,0,-0.36361,-1.39905,0.210393,0,0,0,-4.25747e-07,-1.70299e-06,-0.25,0.50983,-0.401255,-0.0932899,0.644724,0.597993,0.694869,-0.340828,1
1.83123,-1.10482,-1.82456,-1.05258,1.99711,1.18655,-0.950399,1.83123,-1.10482,-1.82456,-1.05258,1.99711,1.18655,-0.950399,1.78024,-1.06469,-1.81524,-1.11705,1.93731,1.11707,-0.916316,0,0,0,0,0,0,0,0,0,0,0,0,0,0,0.531038,-0.454454,0.694237,0.574549,0.175146,0.152571,0.784818,0,0,0,-0.36361,-1.39905,0.210393,0,0,0,-4.25747e-07,-1.70299e-06,-0.25,0.50983,-0.401255,-0.0932899,0.644725,0.597993,0.694869,-0.340828,1
1.83123,-1.10482,-1.82456,-1.05258,1.99711,1.18655,-0.950399,1.83123,-1.10482,-1.82456,-1.05258,1.99711,1.18655,-0.950399,1.78024,-1.06469,-1.81524,-1.11705,1.93731,1.11707,-0.916316,0,0,0,0,0,0,0,0,0,0,0,0,0,0,0.531038,-0.454454,0.694237,0.574549,0.175146,0.152571,0.784818,0,0,0,-0.36361,-1.39905,0.210393,0,0,0,-4.25747e-07,-1.70299e-06,-0.25,0.50983,-0.401254,-0.0932899,0.644724,0.597993,0.694869,-0.340828,1
1.83123,-1.10482,-1.82456,-1.05258,1.99711,1.18655,-0.950399,1.83123,-1.10482,-1.82456,-1.05258,1.99711,1.18655,-0.950399,1.78024,-1.06469,-1.81524,-1.11705,1.93731,1.11707,-0.916316,0,0,0,0,0,0,0,0,0,0,0,0,0,0,0.531038,-0.454454,0.694237,0.574549,0.175146,0.152571,0.784818,0,0,0,-0.36361,-1.39905,0.210393,0,0,0,-4.25747e-07,-1.70299e-06,-0.25,0.50983,-0.401255,-0.0932899,0.644725,0.597993,0.694869,-0.340828,1
1.83123,-1.10482,-1.82456,-1.05258,1.99711,1.18655,-0.950399,1.83123,-1.10482,-1.82456,-1.05258,1.99711,1.18655,-0.950399,1.78024,-1.06469,-1.81524,-1.11705,1.93731,1.11707,-0.916316,0,0,0,0,0,0,0,0,0,0,0,0,0,0,0.531038,-0.454454,0.694237,0.574549,0.175146,0.152571,0.784818,0,0,0,-0.36361,-1.39905,0.210393,0,0,0,-4.25747e-07,-1.70299e-06,-0.25,0.50983,-0.401255,-0.0932899,0.644725,0.597993,0.694869,-0.340828,1
1.83123,-1.10482,-1.82456,-1.05258,1.99711,1.18655,-0.950399,1.83123,-1.10482,-1.82456,-1.05258,1.99711,1.18655,-0.950399,1.78024,-1.06469,-1.81524,-1.11705,1.93731,1.11707,-0.916316,0,0,0,0,0,0,0,0,0,0,0,0,0,0,0.531038,-0.454454,0.694237,0.574549,0.175146,0.152571,0.784818,0,0,0,-0.36361,-1.39905,0.210393,0,0,0,-4.25747e-07,-1.70299e-06,-0.25,0.50983,-0.401255,-0.0932899,0.644724,0.597993,0.694869,-0.340828,1
1.83123,-1.10482,-1.82456,-1.05258,1.99711,1.18655,-0.950399,1.83123,-1.10482,-1.82456,-1.05258,1.99711,1.18655,-0.950399,1.78024,-1.06469,-1.81524,-1.11705,1.93731,1.11707,-0.916316,0,0,0,0,0,0,0,0,0,0,0,0,0,0,0.531038,-0.454454,0.694237,0.574549,0.175146,0.152571,0.784818,0,0,0,-0.36361,-1.39905,0.210393,0,0,0,-4.25747e-07,-1.70299e-06,-0.25,0.50983,-0.401255,-0.09329,0.644725,0.597993,0.694869,-0.340828,1
1.83123,-1.10482,-1.82456,-1.05258,1.99711,1.18655,-0.950399,1.83123,-1.10482,-1.82456,-1.05258,1.99711,1.18655,-0.950399,1.78024,-1.06469,-1.81524,-1.11705,1.93731,1.11707,-0.916316,0,0,0,0,0,0,0,0,0,0,0,0,0,0,0.531038,-0.454454,0.694237,0.574549,0.175146,0.152571,0.784818,0,0,0,-0.36361,-1.39905,0.210393,0,0,0,-4.25747e-07,-1.70299e-06,-0.25,0.50983,-0.401255,-0.0932902,0.644725,0.597993,0.694869,-0.340828,1
1.83123,-1.10482,-1.82456,-1.05258,1.99711,1.18655,-0.950399,1.83123,-1.10482,-1.82456,-1.05258,1.99711,1.18655,-0.950399,1.78024,-1.06469,-1.81524,-1.11705,1.93731,1.11707,-0.916316,0,0,0,0,0,0,0,0,0,0,0,0,0,0,0.531038,-0.454454,0.694237,0.574549,0.175146,0.152571,0.784818,0,0,0,-0.36361,-1.39905,0.210393,0,0,0,-4.25747e-07,-1.70299e-06,-0.25,0.50983,-0.401255,-0.09329,0.644725,0.597993,0.694869,-0.340828,1
1.83123,-1.10482,-1.82456,-1.05258,1.99711,1.18655,-0.950399,1.83123,-1.10482,-1.82456,-1.05258,1.99711,1.18655,-0.950399,1.78024,-1.06469,-1.81524,-1.11705,1.93731,1.11707,-0.916316,0,0,0,0,0,0,0,0,0,0,0,0,0,0,0.531038,-0.454454,0.694237,0.574549,0.175146,0.152571,0.784818,0,0,0,-0.36361,-1.39905,0.210393,0,0,0,-4.25747e-07,-1.70299e-06,-0.25,0.50983,-0.401255,-0.0932899,0.644725,0.597993,0.694869,-0.340828,1
1.83123,-1.10482,-1.82456,-1.05258,1.99711,1.18655,-0.950399,1.83123,-1.10482,-1.82456,-1.05258,1.99711,1.18655,-0.950399,1.78024,-1.06469,-1.81524,-1.11705,1.93731,1.11707,-0.916316,0,0,0,0,0,0,0,0,0,0,0,0,0,0,0.531038,-0.454454,0.694237,0.574549,0.175146,0.152571,0.784818,0,0,0,-0.36361,-1.39905,0.210393,0,0,0,-4.25747e-07,-1.70299e-06,-0.25,0.50983,-0.401255,-0.09329,0.644725,0.597993,0.694869,-0.340828,1
1.83123,-1.10482,-1.82456,-1.05258,1.99711,1.18655,-0.950399,1.83123,-1.10482,-1.82456,-1.05258,1.99711,1.18655,-0.950399,1.78024,-1.06469,-1.81524,-1.11705,1.93731,1.11707,-0.916316,0,0,0,0,0,0,0,0,0,0,0,0,0,0,0.531038,-0.454454,0.694237,0.574549,0.175146,0.152571,0.784818,0,0,0,-0.36361,-1.39905,0.210393,0,0,0,-4.25747e-07,-1.70299e-06,-0.25,0.50983,-0.401255,-0.09329,0.644724,0.597993,0.694869,-0.340828,1
1.83123,-1.10482,-1.82457,-1.05258,1.99711,1.18655,-0.950399,1.83123,-1.10482,-1.82456,-1.05258,1.99711,1.18655,-0.950399,1.78024,-1.06469,-1.81524,-1.11705,1.93731,1.11707,-0.916316,0,0,0,0,0,0,0,0,0,0,0,0,0,0,0.531038,-0.454454,0.694237,0.574549,0.175146,0.152571,0.784818,0,0,0,-0.36361,-1.39905,0.210393,0,0,0,-4.25747e-07,-1.70299e-06,-0.25,0.50983,-0.401255,-0.0932902,0.644725,0.597993,0.694869,-0.340828,1
1.83123,-1.10482,-1.82456,-1.05258,1.99711,1.18655,-0.950399,1.83123,-1.10482,-1.82456,-1.05258,1.99711,1.18655,-0.950399,1.78024,-1.06469,-1.81524,-1.11705,1.93731,1.11707,-0.916316,0,0,0,0,0,0,0,0,0,0,0,0,0,0,0.531038,-0.454454,0.694237,0.574549,0.175146,0.152571,0.784818,0,0,0,-0.36361,-1.39905,0.210393,0,0,0,-4.25747e-07,-1.70299e-06,-0.25,0.50983,-0.401255,-0.0932901,0.644725,0.597993,0.694869,-0.340828,1
1.83123,-1.10482,-1.82457,-1.05258,1.99711,1.18655,-0.950399,1.83123,-1.10482,-1.82456,-1.05258,1.99711,1.18655,-0.950399,1.78024,-1.06469,-1.81524,-1.11705,1.93731,1.11707,-0.916316,0,0,0,0,0,0,0,0,0,0,0,0,0,0,0.531038,-0.454454,0.694237,0.574549,0.175146,0.152571,0.784818,0,0,0,-0.36361,-1.39905,0.210393,0,0,0,-4.25747e-07,-1.70299e-06,-0.25,0.50983,-0.401255,-0.0932902,0.644725,0.597993,0.694869,-0.340828,1
1.83123,-1.10482,-1.82456,-1.05258,1.99711,1.18655,-0.950399,1.83123,-1.10482,-1.82456,-1.05258,1.99711,1.18655,-0.950399,1.78024,-1.06469,-1.81524,-1.11705,1.93731,1.11707,-0.916316,0,0,0,0,0,0,0,0,0,0,0,0,0,0,0.531038,-0.454454,0.694237,0.574549,0.175146,0.152571,0.784818,0,0,0,-0.36361,-1.39905,0.210393,0,0,0,-4.25747e-07,-1.70299e-06,-0.25,0.50983,-0.401255,-0.0932901,0.644725,0.597993,0.694869,-0.340828,1
1.83123,-1.10482,-1.82456,-1.05258,1.99711,1.18655,-0.950399,1.83123,-1.10482,-1.82456,-1.05258,1.99711,1.18655,-0.950399,1.78024,-1.06469,-1.81524,-1.11705,1.93731,1.11707,-0.916316,0,0,0,0,0,0,0,0,0,0,0,0,0,0,0.531038,-0.454454,0.694237,0.574549,0.175146,0.152571,0.784818,0,0,0,-0.36361,-1.39905,0.210393,0,0,0,-4.25747e-07,-1.70299e-06,-0.25,0.50983,-0.401255,-0.09329,0.644725,0.597993,0.694869,-0.340828,1
1.83123,-1.10482,-1.82456,-1.05258,1.99711,1.18655,-0.950399,1.83123,-1.10482,-1.82456,-1.05258,1.99711,1.18655,-0.950399,1.78024,-1.06469,-1.81524,-1.11705,1.93731,1.11707,-0.916316,0,0,0,0,0,0,0,0,0,0,0,0,0,0,0.531038,-0.454454,0.694237,0.574549,0.175146,0.152571,0.784818,0,0,0,-0.36361,-1.39905,0.210393,0,0,0,-4.25747e-07,-1.70299e-06,-0.25,0.50983,-0.401255,-0.09329,0.644724,0.597993,0.694869,-0.340828,1
1.83123,-1.10482,-1.82456,-1.05258,1.99711,1.18655,-0.950399,1.83123,-1.10482,-1.82456,-1.05258,1.99711,1.18655,-0.950399,1.78024,-1.06469,-1.81524,-1.11705,1.93731,1.11707,-0.916316,0,0,0,0,0,0,0,0,0,0,0,0,0,0,0.531038,-0.454454,0.694237,0.574549,0.175146,0.152571,0.784818,0,0,0,-0.36361,-1.39905,0.210393,0,0,0,-4.25747e-07,-1.70299e-06,-0.25,0.50983,-0.401255,-0.0932902,0.644725,0.597993,0.694869,-0.340828,1
1.83123,-1.10482,-1.82456,-1.05258,1.99711,1.18655,-0.950399,1.83123,-1.10482,-1.82456,-1.05258,1.99711,1.18655,-0.950399,1.78024,-1.06469,-1.81524,-1.11705,1.93731,1.11707,-0.916316,0,0,0,0,0,0,0,0,0,0,0,0,0,0,0.531038,-0.454454,0.694237,0.574549,0.175146,0.152571,0.784818,0,0,0,-0.36361,-1.39905,0.210393,0,0,0,-4.25747e-07,-1.70299e-06,-0.25,0.50983,-0.401255,-0.09329,0.644725,0.597993,0.694869,-0.340828,1
1.83123,-1.10482,-1.82456,-1.05258,1.99711,1.18655,-0.950399,1.83123,-1.10482,-1.82456,-1.05258,1.99711,1.18655,-0.950399,1.78024,-1.06469,-1.81524,-1.11705,1.93731,1.11707,-0.916316,0,0,0,0,0,0,0,0,0,0,0,0,0,0,0.531038,-0.454454,0.694237,0.574549,0.175146,0.152571,0.784818,0,0,0,-0.36361,-1.39905,0.210393,0,0,0,-4.25747e-07,-1.70299e-06,-0.25,0.50983,-0.401255,-0.0932899,0.644725,0.597993,0.694869,-0.340828,1
1.83123,-1.10482,-1.82456,-1.05258,1.99711,1.18655,-0.950399,1.83123,-1.10482,-1.82456,-1.05258,1.99711,1.18655,-0.950399,1.78024,-1.06469,-1.81524,-1.11705,1.93731,1.11707,-0.916316,0,0,0,0,0,0,0,0,0,0,0,0,0,0,0.531038,-0.454454,0.694237,0.574549,0.175146,0.152571,0.784818,0,0,0,-0.36361,-1.39905,0.210393,0,0,0,-4.25747e-07,-1.70299e-06,-0.25,0.50983,-0.401255,-0.0932899,0.644725,0.597993,0.694869,-0.340828,1
1.83123,-1.10482,-1.82456,-1.05258,1.99711,1.18655,-0.950399,1.83123,-1.10482,-1.82456,-1.05258,1.99711,1.18655,-0.950399,1.78024,-1.06469,-1.81524,-1.11705,1.93731,1.11707,-0.916316,0,0,0,0,0,0,0,0,0,0,0,0,0,0,0.531038,-0.454454,0.694237,0.574549,0.175146,0.152571,0.784818,0,0,0,-0.36361,-1.39905,0.210393,0,0,0,-4.25747e-07,-1.70299e-06,-0.25,0.50983,-0.401255,-0.09329,0.644725,0.597993,0.694869,-0.340828,1
1.83123,-1.10482,-1.82456,-1.05258,1.99711,1.18655,-0.950399,1.83123,-1.10482,-1.82456,-1.05258,1.99711,1.18655,-0.950399,1.78024,-1.06469,-1.81524,-1.11705,1.93731,1.11707,-0.916316,0,0,0,0,0,0,0,0,0,0,0,0,0,0,0.531038,-0.454454,0.694237,0.574549,0.175146,0.152571,0.784818,0,0,0,-0.36361,-1.39905,0.210393,0,0,0,-4.25747e-07,-1.70299e-06,-0.25,0.50983,-0.401255,-0.0932899,0.644724,0.597993,0.694869,-0.340828,1
1.83123,-1.10482,-1.82456,-1.05258,1.99711,1.18655,-0.950399,1.83123,-1.10482,-1.82456,-1.05258,1.99711,1.18655,-0.950399,1.78024,-1.06469,-1.81524,-1.11705,1.93731,1.11707,-0.916316,0,0,0,0,0,0,0,0,0,0,0,0,0,0,0.531038,-0.454454,0.694237,0.574549,0.175146,0.152571,0.784818,0,0,0,-0.36361,-1.39905,0.210393,0,0,0,-4.25747e-07,-1.70299e-06,-0.25,0.50983,-0.401255,-0.0932898,0.644724,0.597993,0.694869,-0.340828,1
1.83123,-1.10482,-1.82456,-1.05258,1.99711,1.18655,-0.950399,1.83123,-1.10482,-1.82456,-1.05258,1.99711,1.18655,-0.950399,1.78024,-1.06469,-1.81524,-1.11705,1.93731,1.11707,-0.916316,0,0,0,0,0,0,0,0,0,0,0,0,0,0,0.531038,-0.454454,0.694237,0.574549,0.175146,0.152571,0.784818,0,0,0,-0.36361,-1.39905,0.210393,0,0,0,-4.25747e-07,-1.70299e-06,-0.25,0.50983,-0.401255,-0.0932897,0.644724,0.597993,0.694869,-0.340828,1
1.83123,-1.10482,-1.82456,-1.05258,1.99711,1.18655,-0.950399,1.83123,-1.10482,-1.82456,-1.05258,1.99711,1.18655,-0.950399,1.78024,-1.06469,-1.81524,-1.11705,1.93731,1.11707,-0.916316,0,0,0,0,0,0,0,0,0,0,0,0,0,0,0.531038,-0.454454,0.694237,0.574549,0.175146,0.152571,0.784818,0,0,0,-0.36361,-1.39905,0.210393,0,0,0,-4.25747e-07,-1.70299e-06,-0.25,0.50983,-0.401255,-0.0932898,0.644724,0.597993,0.694869,-0.340828,1
1.83123,-1.10482,-1.82456,-1.05258,1.99711,1.18655,-0.950399,1.83123,-1.10482,-1.82456,-1.05258,1.99711,1.18655,-0.950399,1.78024,-1.06469,-1.81524,-1.11705,1.93731,1.11707,-0.916316,0,0,0,0,0,0,0,0,0,0,0,0,0,0,0.531038,-0.454454,0.694237,0.574549,0.175146,0.152571,0.784818,0,0,0,-0.36361,-1.39905,0.210393,0,0,0,-4.25747e-07,-1.70299e-06,-0.25,0.50983,-0.401255,-0.0932899,0.644725,0.597993,0.694869,-0.340828,1
1.83123,-1.10482,-1.82456,-1.05258,1.99711,1.18655,-0.950399,1.83123,-1.10482,-1.82456,-1.05258,1.99711,1.18655,-0.950399,1.78024,-1.06469,-1.81524,-1.11705,1.93731,1.11707,-0.916316,0,0,0,0,0,0,0,0,0,0,0,0,0,0,0.531038,-0.454454,0.694237,0.574549,0.175146,0.152571,0.784818,0,0,0,-0.36361,-1.39905,0.210393,0,0,0,-4.25747e-07,-1.70299e-06,-0.25,0.50983,-0.401255,-0.09329,0.644725,0.597993,0.694869,-0.340828,1
1.83123,-1.10482,-1.82456,-1.05258,1.99711,1.18655,-0.950399,1.83123,-1.10482,-1.82456,-1.05258,1.99711,1.18655,-0.950399,1.78024,-1.06469,-1.81524,-1.11705,1.93731,1.11707,-0.916316,0,0,0,0,0,0,0,0,0,0,0,0,0,0,0.531038,-0.454454,0.694237,0.574549,0.175146,0.152571,0.784818,0,0,0,-0.36361,-1.39905,0.210393,0,0,0,-4.25747e-07,-1.70299e-06,-0.25,0.50983,-0.401255,-0.09329,0.644725,0.597993,0.694869,-0.340828,1
1.83123,-1.10482,-1.82456,-1.05258,1.99711,1.18655,-0.950399,1.83123,-1.10482,-1.82456,-1.05258,1.99711,1.18655,-0.950399,1.78024,-1.06469,-1.81524,-1.11705,1.93731,1.11707,-0.916316,0,0,0,0,0,0,0,0,0,0,0,0,0,0,0.531038,-0.454454,0.694237,0.574549,0.175146,0.152571,0.784818,0,0,0,-0.36361,-1.39905,0.210393,0,0,0,-4.25747e-07,-1.70299e-06,-0.25,0.50983,-0.401255,-0.09329,0.644724,0.597993,0.694869,-0.340828,1
1.83123,-1.10482,-1.82456,-1.05258,1.99711,1.18655,-0.950399,1.83123,-1.10482,-1.82456,-1.05258,1.99711,1.18655,-0.950399,1.78024,-1.06469,-1.81524,-1.11705,1.93731,1.11707,-0.916316,0,0,0,0,0,0,0,0,0,0,0,0,0,0,0.531038,-0.454454,0.694237,0.574549,0.175146,0.152571,0.784818,0,0,0,-0.36361,-1.39905,0.210393,0,0,0,-4.25747e-07,-1.70299e-06,-0.25,0.50983,-0.401255,-0.0932899,0.644724,0.597993,0.694869,-0.340828,1
1.83123,-1.10482,-1.82456,-1.05258,1.99711,1.18655,-0.950399,1.83123,-1.10482,-1.82456,-1.05258,1.99711,1.18655,-0.950399,1.78024,-1.06469,-1.81524,-1.11705,1.93731,1.11707,-0.916316,0,0,0,0,0,0,0,0,0,0,0,0,0,0,0.531038,-0.454454,0.694237,0.574549,0.175146,0.152571,0.784818,0,0,0,-0.36361,-1.39905,0.210393,0,0,0,-4.25747e-07,-1.70299e-06,-0.25,0.50983,-0.401255,-0.09329,0.644724,0.597993,0.694869,-0.340828,1
1.83123,-1.10482,-1.82456,-1.05258,1.99711,1.18655,-0.950399,1.83123,-1.10482,-1.82456,-1.05258,1.99711,1.18655,-0.950399,1.78024,-1.06469,-1.81524,-1.11705,1.93731,1.11707,-0.916316,0,0,0,0,0,0,0,0,0,0,0,0,0,0,0.531038,-0.454454,0.694237,0.574549,0.175146,0.152571,0.784818,0,0,0,-0.36361,-1.39905,0.210393,0,0,0,-4.25747e-07,-1.70299e-06,-0.25,0.50983,-0.401255,-0.0932899,0.644724,0.597993,0.694869,-0.340828,1
1.83123,-1.10482,-1.82456,-1.05258,1.99711,1.18655,-0.950399,1.83123,-1.10482,-1.82456,-1.05258,1.99711,1.18655,-0.950399,1.78024,-1.06469,-1.81524,-1.11705,1.93731,1.11707,-0.916316,0,0,0,0,0,0,0,0,0,0,0,0,0,0,0.531038,-0.454454,0.694237,0.574549,0.175146,0.152571,0.784818,0,0,0,-0.36361,-1.39905,0.210393,0,0,0,-4.25747e-07,-1.70299e-06,-0.25,0.50983,-0.401255,-0.09329,0.644724,0.597993,0.694869,-0.340828,1
1.83123,-1.10482,-1.82456,-1.05258,1.99711,1.18655,-0.950399,1.83123,-1.10482,-1.82456,-1.05258,1.99711,1.18655,-0.950399,1.78024,-1.06469,-1.81524,-1.11705,1.93731,1.11707,-0.916316,0,0,0,0,0,0,0,0,0,0,0,0,0,0,0.531038,-0.454454,0.694237,0.574549,0.175146,0.152571,0.784818,0,0,0,-0.36361,-1.39905,0.210393,0,0,0,-4.25747e-07,-1.70299e-06,-0.25,0.50983,-0.401255,-0.0932898,0.644724,0.597993,0.694869,-0.340828,1
1.83123,-1.10482,-1.82456,-1.05258,1.99711,1.18655,-0.950399,1.83123,-1.10482,-1.82456,-1.05258,1.99711,1.18655,-0.950399,1.78024,-1.06469,-1.81524,-1.11705,1.93731,1.11707,-0.916316,0,0,0,0,0,0,0,0,0,0,0,0,0,0,0.531038,-0.454454,0.694237,0.574549,0.175146,0.152571,0.784818,0,0,0,-0.36361,-1.39905,0.210393,0,0,0,-4.25747e-07,-1.70299e-06,-0.25,0.50983,-0.401255,-0.09329,0.644725,0.597993,0.694869,-0.340828,1
1.83123,-1.10482,-1.82456,-1.05258,1.99711,1.18655,-0.950399,1.83123,-1.10482,-1.82456,-1.05258,1.99711,1.18655,-0.950399,1.78024,-1.06469,-1.81524,-1.11705,1.93731,1.11707,-0.916316,0,0,0,0,0,0,0,0,0,0,0,0,0,0,0.531038,-0.454454,0.694237,0.574549,0.175146,0.152571,0.784818,0,0,0,-0.36361,-1.39905,0.210393,0,0,0,-4.25747e-07,-1.70299e-06,-0.25,0.50983,-0.401255,-0.0932899,0.644724,0.597993,0.694869,-0.340828,1
1.83123,-1.10482,-1.82456,-1.05258,1.99711,1.18655,-0.950399,1.83123,-1.10482,-1.82456,-1.05258,1.99711,1.18655,-0.950399,1.78024,-1.06469,-1.81524,-1.11705,1.93731,1.11707,-0.916316,0,0,0,0,0,0,0,0,0,0,0,0,0,0,0.531038,-0.454454,0.694237,0.574549,0.175146,0.152571,0.784818,0,0,0,-0.36361,-1.39905,0.210393,0,0,0,-4.25747e-07,-1.70299e-06,-0.25,0.50983,-0.401255,-0.0932899,0.644724,0.597993,0.694869,-0.340828,1
1.83123,-1.10482,-1.82456,-1.05258,1.99711,1.18655,-0.950399,1.83123,-1.10482,-1.82456,-1.05258,1.99711,1.18655,-0.950399,1.78024,-1.06469,-1.81524,-1.11705,1.93731,1.11707,-0.916316,0,0,0,0,0,0,0,0,0,0,0,0,0,0,0.531038,-0.454454,0.694237,0.574549,0.175146,0.152571,0.784818,0,0,0,-0.36361,-1.39905,0.210393,0,0,0,-4.25747e-07,-1.70299e-06,-0.25,0.50983,-0.401255,-0.0932898,0.644725,0.597993,0.694869,-0.340828,1
1.83123,-1.10482,-1.82456,-1.05258,1.99711,1.18655,-0.950399,1.83123,-1.10482,-1.82456,-1.05258,1.99711,1.18655,-0.950399,1.78024,-1.06469,-1.81524,-1.11705,1.93731,1.11707,-0.916316,0,0,0,0,0,0,0,0,0,0,0,0,0,0,0.531038,-0.454454,0.694237,0.574549,0.175146,0.152571,0.784818,0,0,0,-0.36361,-1.39905,0.210393,0,0,0,-4.25747e-07,-1.70299e-06,-0.25,0.50983,-0.401255,-0.0932899,0.644725,0.597993,0.694869,-0.340828,1
1.83123,-1.10482,-1.82456,-1.05258,1.99711,1.18655,-0.950399,1.83123,-1.10482,-1.82456,-1.05258,1.99711,1.18655,-0.950399,1.78024,-1.06469,-1.81524,-1.11705,1.93731,1.11707,-0.916316,0,0,0,0,0,0,0,0,0,0,0,0,0,0,0.531038,-0.454454,0.694237,0.574549,0.175146,0.152571,0.784818,0,0,0,-0.36361,-1.39905,0.210393,0,0,0,-4.25747e-07,-1.70299e-06,-0.25,0.50983,-0.401255,-0.0932899,0.644725,0.597993,0.694869,-0.340828,1
1.83123,-1.10482,-1.82456,-1.05258,1.99711,1.18655,-0.950399,1.83123,-1.10482,-1.82456,-1.05258,1.99711,1.18655,-0.950399,1.78024,-1.06469,-1.81524,-1.11705,1.93731,1.11707,-0.916316,0,0,0,0,0,0,0,0,0,0,0,0,0,0,0.531038,-0.454454,0.694237,0.574549,0.175146,0.152571,0.784818,0,0,0,-0.36361,-1.39905,0.210393,0,0,0,-4.25747e-07,-1.70299e-06,-0.25,0.50983,-0.401255,-0.0932901,0.644724,0.597993,0.694869,-0.340828,1
1.83123,-1.10482,-1.82456,-1.05258,1.99711,1.18655,-0.950399,1.83123,-1.10482,-1.82456,-1.05258,1.99711,1.18655,-0.950399,1.78024,-1.06469,-1.81524,-1.11705,1.93731,1.11707,-0.916316,0,0,0,0,0,0,0,0,0,0,0,0,0,0,0.531038,-0.454454,0.694237,0.574549,0.175146,0.152571,0.784818,0,0,0,-0.36361,-1.39905,0.210393,0,0,0,-4.25747e-07,-1.70299e-06,-0.25,0.50983,-0.401255,-0.0932899,0.644724,0.597993,0.694869,-0.340828,1
1.83123,-1.10482,-1.82456,-1.05258,1.99711,1.18655,-0.950399,1.83123,-1.10482,-1.82456,-1.05258,1.99711,1.18655,-0.950399,1.78024,-1.06469,-1.81524,-1.11705,1.93731,1.11707,-0.916316,0,0,0,0,0,0,0,0,0,0,0,0,0,0,0.531038,-0.454454,0.694237,0.574549,0.175146,0.152571,0.784818,0,0,0,-0.36361,-1.39905,0.210393,0,0,0,-4.25747e-07,-1.70299e-06,-0.25,0.50983,-0.401255,-0.09329,0.644725,0.597993,0.694869,-0.340828,1
1.84698,-1.11485,-1.76967,-1.06391,2.00565,1.18553,-0.947227,1.83221,-1.10545,-1.82113,-1.05328,1.99764,1.18649,-0.9502,1.78024,-1.06469,-1.81524,-1.11705,1.93731,1.11707,-0.916316,0,0,0,0,0,0,0,0,0,0,0,0,0,0,0.531038,-0.454454,0.694237,0.574549,0.175146,0.152571,0.784818,0,0,0,-0.0388241,-1.46857,0.13096,31.8258,-6.81221,-7.78363,3.47985,-0.744855,-1.10107,0.66741,-0.501604,0.455635,0.531416,0.683445,0.684664,-0.309113,1
1.84729,-1.11532,-1.76242,-1.07358,2.00842,1.18292,-0.944231,1.83617,-1.10798,-1.80696,-1.05672,1.99995,1.18607,-0.94922,1.78024,-1.06469,-1.81524,-1.11705,1.93731,1.11707,-0.916316,0,0,0,0,0,0,0,0,0,0,0,0,0,0,0.531038,-0.454454,0.694237,0.574549,0.175146,0.152571,0.784818,0,0,0,-0.0257898,-1.47044,0.129873,1.3217,-0.190108,-0.1102,5.93941,-1.26151,-1.68009,0.670481,-0.506232,0.528129,0.434677,0.711129,0.658474,-0.279153,1
1.84706,-1.11645,-1.76079,-1.07964,2.00995,1.18365,-0.942269,1.84214,-1.11193,-1.78446,-1.06377,2.00394,1.18508,-0.947159,1.78024,-1.06469,-1.81524,-1.11705,1.93731,1.11707,-0.916316,0,0,0,0,0,0,0,0,0,0,0,0,0,0,0.531038,-0.454454,0.694237,0.574549,0.175146,0.152571,0.784818,0,0,0,-0.0095542,-1.4703,0.129518,1.55921,0.0140473,-0.0341165,7.36642,-1.52162,-1.97535,0.668124,-0.51759,0.54444,0.374114,0.726437,0.665796,-0.259537,1
1.84656,-1.11611,-1.7599,-1.08023,2.01033,1.18331,-0.94162,1.84611,-1.11488,-1.76755,-1.07178,2.00752,1.184,-0.944712,1.78024,-1.06469,-1.81524,-1.11705,1.93731,1.11707,-0.916316,0,0,0,0,0,0,0,0,0,0,0,0,0,0,0.531038,-0.454454,0.694237,0.574549,0.175146,0.152571,0.784818,0,0,0,0.00615997,-1.47124,0.128847,1.60955,-0.0968028,-0.0686887,7.6973,-1.53739,-1.98895,0.663167,-0.514201,0.553399,0.368173,0.730267,0.66241,-0.253038,1
1.84579,-1.11495,-1.76088,-1.07843,2.01032,1.18318,-0.941394,1.84691,-1.11589,-1.76154,-1.07721,2.00942,1.18347,-0.942852,1.78024,-1.06469,-1.81524,-1.11705,1.93731,1.11707,-0.916316,0,0,0,0,0,0,0,0,0,0,0,0,0,0,0.531038,-0.454454,0.694237,0.574549,0.175146,0.152571,0.784818,0,0,0,0.0187182,-1.4741,0.127608,1.32954,-0.302052,-0.131205,6.84213,-1.32591,-1.7246,0.655503,-0.50253,0.543538,0.386194,0.730179,0.661122,-0.250784,1
1.84336,-1.11155,-1.76648,-1.07452,2.00942,1.18328,-0.938734,1.84634,-1.11557,-1.76094,-1.07886,2.01006,1.18333,-0.941709,1.78024,-1.06469,-1.81524,-1.11705,1.93731,1.11707,-0.916316,0,0,0,0,0,0,0,0,0,0,0,0,0,0,0.531038,-0.454454,0.694237,0.574549,0.175146,0.152571,0.784818,0,0,0,0.0312646,-1.47709,0.123267,1.24583,-0.296831,-0.431011,4.75593,-0.878424,-1.21109,0.631211,-0.468573,0.487517,0.425327,0.721142,0.662118,-0.224183,1
1.82426,-1.10252,-1.78764,-1.06161,2.00595,1.18049,-0.935593,1.84411,-1.11371,-1.7637,-1.07693,2.0098,1.1831,-0.940478,1.78024,-1.06469,-1.81524,-1.11705,1.93731,1.11707,-0.916316,0,0,0,0,0,0,0,0,0,0,0,0,0,0,0.531038,-0.454454,0.694237,0.574549,0.175146,0.152571,0.784818,0,0,0,0.0481843,-1.47555,0.122511,1.60584,0.145737,-0.0717712,1.44074,-0.13579,-0.394527,0.440205,-0.378296,0.275995,0.554387,0.686403,0.634233,-0.192772,1
1.82194,-1.10097,-1.78955,-1.06064,2.00621,1.18286,-0.938387,1.83806,-1.10977,-1.7714,-1.07176,2.00863,1.18253,-0.938772,1.78024,-1.06469,-1.81524,-1.11705,1.93731,1.11707,-0.916316,0,0,0,0,0,0,0,0,0,0,0,0,0,0,0.531038,-0.454454,0.694237,0.574549,0.175146,0.152571,0.784818,0,0,0,0.0597045,-1.47681,0.121565,1.15601,-0.126668,-0.0948874,1.41809,-0.126605,-0.408985,0.41698,-0.362791,0.256849,0.564077,0.689026,0.657938,-0.220716,1
1.823,-1.10113,-1.792,-1.05841,2.00597,1.18277,-0.941204,1.82972,-1.10508,-1.78143,-1.06545,2.00716,1.18209,-0.93779,1.78024,-1.06469,-1.81524,-1.11705,1.93731,1.11707,-0.916316,0,0,0,0,0,0,0,0,0,0,0,0,0,0,0.531038,-0.454454,0.694237,0.574549,0.175146,0.152571,0.784818,0,0,0,0.0752059,-1.47752,0.121337,1.52425,-0.0693112,-0.0224942,1.39584,-0.122321,-0.407869,0.427583,-0.364336,0.232339,0.586347,0.686639,0.656974,-0.248884,1
1.82384,-1.10106,-1.79179,-1.05817,2.00574,1.18276,-0.940815,1.82424,-1.10207,-1.78838,-1.06104,2.00625,1.18226,-0.938566,1.78024,-1.06469,-1.81524,-1.11705,1.93731,1.11707,-0.916316,0,0,0,0,0,0,0,0,0,0,0,0,0,0,0.531038,-0.454454,0.694237,0.574549,0.175146,0.152571,0.784818,0,0,0,0.0902628,-1.47908,0.121014,1.53029,-0.158521,-0.0327758,1.40616,-0.107392,-0.384796,0.435994,-0.363644,0.234444,0.588762,0.68431,0.656957,-0.244995,1
1.82446,-1.09979,-1.79042,-1.05841,2.00609,1.18232,-0.940126,1.82312,-1.10108,-1.79097,-1.05911,2.00598,1.18262,-0.939985,1.78024,-1.06469,-1.81524,-1.11705,1.93731,1.11707,-0.916316,0,0,0,0,0,0,0,0,0,0,0,0,0,0,0.531038,-0.454454,0.694237,0.574549,0.175146,0.152571,0.784818,0,0,0,0.105965,-1.47979,0.121069,1.53172,-0.0696901,0.00532589,1.45271,-0.082268,-0.340349,0.442215,-0.351005,0.248118,0.586358,0.687876,0.652534,-0.238107,1
1.82427,-1.09872,-1.78906,-1.05886,2.00641,1.18206,-0.939977,1.8237,-1.10061,-1.79119,-1.05849,2.00596,1.18262,-0.940536,1.78024,-1.06469,-1.81524,-1.11705,1.93731,1.11707,-0.916316,0,0,0,0,0,0,0,0,0,0,0,0,0,0,0.531038,-0.454454,0.694237,0.574549,0.175146,0.152571,0.784818,0,0,0,0.122426,-1.47946,0.1214,1.59667,0.0323763,0.0320814,1.49859,-0.0637991,-0.282282,0.440282,-0.340287,0.261799,0.581905,0.691065,0.649915,-0.236616,1
1.8285,-1.1052,-1.79506,-1.05675,2.00421,1.18466,-0.944732,1.82442,-1.10026,-1.79081,-1.05836,2.00596,1.18254,-0.940617,1.78024,-1.06469,-1.81524,-1.11705,1.93731,1.11707,-0.916316,0,0,0,0,0,0,0,0,0,0,0,0,0,0,0.531038,-0.454454,0.694237,0.574549,0.175146,0.152571,0.784818,0,0,0,0.126873,-1.49677,0.117077,0.47576,-1.85256,-0.462559,1.40095,-0.254391,-0.310369,0.482602,-0.405088,0.201787,0.603006,0.669078,0.675874,-0.284161,1
1.83303,-1.10752,-1.79686,-1.05651,2.00254,1.18578,-0.944834,1.8259,-1.10131,-1.79156,-1.05803,2.0055,1.18305,-0.941559,1.78024,-1.06469,-1.81524,-1.11705,1.93731,1.11707,-0.916316,0,0,0,0,0,0,0,0,0,0,0,0,0,0,0.531038,-0.454454,0.694237,0.574549,0.175146,0.152571,0.784818,0,0,0,0.142993,-1.4934,0.116038,1.54417,0.32297,-0.0994987,1.37629,-0.316613,-0.338279,0.527887,-0.428277,0.183746,0.605421,0.652348,0.687139,-0.285187,1
1.83787,-1.10923,-1.79624,-1.05588,2.00144,1.18629,-0.94309,1.82891,-1.10408,-1.79379,-1.05726,2.00429,1.18424,-0.943178,1.78024,-1.06469,-1.81524,-1.11705,1.93731,1.11707,-0.916316,0,0,0,0,0,0,0,0,0,0,0,0,0,0,0.531038,-0.454454,0.694237,0.574549,0.175146,0.152571,0.784818,0,0,0,0.157037,-1.49317,0.113666,1.44078,0.023211,-0.2433,1.32808,-0.330697,-0.381989,0.576321,-0.445368,0.189999,0.611719,0.641311,0.692187,-0.267742,1
1.8379,-1.10795,-1.79019,-1.05602,2.00262,1.18499,-0.939043,1.83287,-1.10685,-1.79535,-1.05653,2.00293,1.18534,-0.943707,1.78024,-1.06469,-1.81524,-1.11705,1.93731,1.11707,-0.916316,0,0,0,0,0,0,0,0,0,0,0,0,0,0,0.531038,-0.454454,0.694237,0.574549,0.175146,0.152571,0.784818,0,0,0,0.186424,-1.48837,0.121796,3.0976,0.506857,0.856992,1.46855,-0.244902,-0.313647,0.576603,-0.432586,0.250463,0.610271,0.653191,0.679252,-0.227272,1
1.83409,-1.10245,-1.78407,-1.05782,2.00544,1.18264,-0.934708,1.83585,-1.10781,-1.79405,-1.05625,2.00243,1.18551,-0.942093,1.78024,-1.06469,-1.81524,-1.11705,1.93731,1.11707,-0.916316,0,0,0,0,0,0,0,0,0,0,0,0,0,0,0.531038,-0.454454,0.694237,0.574549,0.175146,0.152571,0.784818,0,0,0,0.207503,-1.48533,0.124703,2.11831,0.30525,0.292127,1.65276,-0.110093,-0.220407,0.538516,-0.377562,0.311697,0.592254,0.681306,0.655732,-0.183926,1
1.82638,-1.09639,-1.78225,-1.06114,2.00754,1.18022,-0.933919,1.83592,-1.10615,-1.79009,-1.05679,2.00333,1.18448,-0.939013,1.78024,-1.06469,-1.81524,-1.11705,1.93731,1.11707,-0.916316,0,0,0,0,0,0,0,0,0,0,0,0,0,0,0.531038,-0.454454,0.694237,0.574549,0.175146,0.152571,0.784818,0,0,0,0.224603,-1.48392,0.124724,1.56925,0.129551,0.00190629,1.82579,0.0519565,-0.139339,0.46138,-0.316997,0.32981,0.559057,0.702324,0.631494,-0.176036,1
1.81839,-1.08709,-1.77982,-1.06606,2.00912,1.17902,-0.931955,1.83237,-1.10178,-1.78564,-1.0586,2.00524,1.18262,-0.935946,1.78024,-1.06469,-1.81524,-1.11705,1.93731,1.11707,-0.916316,0,0,0,0,0,0,0,0,0,0,0,0,0,0,0.531038,-0.454454,0.694237,0.574549,0.175146,0.152571,0.784818,0,0,0,0.242643,-1.48221,0.125292,1.92498,0.18233,0.0606391,2.00356,0.251811,-0.0605119,0.381467,-0.223976,0.354148,0.509895,0.718131,0.619524,-0.156393,1
1.81364,-1.08432,-1.7809,-1.06728,2.00936,1.17976,-0.935525,1.82624,-1.09555,-1.78251,-1.06161,2.00721,1.18079,-0.934046,1.78024,-1.06469,-1.81524,-1.11705,1.93731,1.11707,-0.916316,0,0,0,0,0,0,0,0,0,0,0,0,0,0,0.531038,-0.454454,0.694237,0.574549,0.175146,0.152571,0.784818,0,0,0,0.264305,-1.47839,0.127412,2.10406,0.370735,0.20592,2.0476,0.255035,-0.0346306,0.333991,-0.196293,0.343364,0.497725,0.720506,0.626941,-0.19209,1
1.80911,-1.08323,-1.78267,-1.06705,2.00919,1.18046,-0.937726,1.8196,-1.08944,-1.78114,-1.06468,2.00856,1.17982,-0.933871,1.78024,-1.06469,-1.81524,-1.11705,1.93731,1.11707,-0.916316,0,0,0,0,0,0,0,0,0,0,0,0,0,0,0.531038,-0.454454,0.694237,0.574549,0.175146,0.152571,0.784818,0,0,0,0.279675,-1.47718,0.127848,1.56734,0.123535,0.044481,1.99577,0.253764,-0.055828,0.288626,-0.185323,0.325661,0.500016,0.718884,0.633874,-0.2141,1
1.80684,-1.08385,-1.78446,-1.06609,2.00895,1.18067,-0.939656,1.81407,-1.08547,-1.78138,-1.06646,2.00912,1.17983,-0.93534,1.78024,-1.06469,-1.81524,-1.11705,1.93731,1.11707,-0.916316,0,0,0,0,0,0,0,0,0,0,0,0,0,0,0.531038,-0.454454,0.694237,0.574549,0.175146,0.152571,0.784818,0,0,0,0.298262,-1.47422,0.129982,1.85338,0.295173,0.212706,1.85558,0.229509,-0.130231,0.26598,-0.191578,0.307789,0.509578,0.716401,0.636018,-0.2334,1
1.8059,-1.08187,-1.78437,-1.06609,2.00886,1.18058,-0.939787,1.81005,-1.08381,-1.7826,-1.06674,2.00915,1.18025,-0.937426,1.78024,-1.06469,-1.81524,-1.11705,1.93731,1.11707,-0.916316,0,0,0,0,0,0,0,0,0,0,0,0,0,0,0.531038,-0.454454,0.694237,0.574549,0.175146,0.152571,0.784818,0,0,0,0.316899,-1.47098,0.132753,1.88811,0.328651,0.28079,1.8305,0.241004,-0.117064,0.25659,-0.171781,0.308696,0.509618,0.715525,0.635117,-0.234715,1
1.80535,-1.07982,-1.78409,-1.06657,2.00894,1.1803,-0.939474,1.8075,-1.08298,-1.78374,-1.06643,2.00901,1.18051,-0.938937,1.78024,-1.06469,-1.81524,-1.11705,1.93731,1.11707,-0.916316,0,0,0,0,0,0,0,0,0,0,0,0,0,0,0.531038,-0.454454,0.694237,0.574549,0.175146,0.152571,0.784818,0,0,0,0.335102,-1.46781,0.135881,1.71804,0.2987,0.295178,1.8356,0.267696,-0.0679926,0.251083,-0.15131,0.311504,0.504826,0.716306,0.632365,-0.231586,1
1.80411,-1.07857,-1.78423,-1.06702,2.00899,1.18024,-0.939493,1.80609,-1.08173,-1.7842,-1.06633,2.00893,1.1805,-0.939529,1.78024,-1.06469,-1.81524,-1.11705,1.93731,1.11707,-0.916316,0,0,0,0,0,0,0,0,0,0,0,0,0,0,0.531038,-0.454454,0.694237,0.574549,0.175146,0.152571,0.784818,0,0,0,0.353752,-1.46382,0.139765,1.94698,0.416416,0.405533,1.8291,0.29473,-0.0169238,0.238683,-0.138807,0.31007,0.500253,0.716811,0.631692,-0.231771,1
1.8028,-1.07736,-1.78426,-1.06739,2.00903,1.18023,-0.939479,1.80511,-1.08012,-1.78423,-1.06658,2.00894,1.18037,-0.939569,1.78024,-1.06469,-1.81524,-1.11705,1.93731,1.11707,-0.916316,0,0,0,0,0,0,0,0,0,0,0,0,0,0,0.531038,-0.454454,0.694237,0.574549,0.175146,0.152571,0.784818,0,0,0,0.372125,-1.45993,0.143903,1.86733,0.395379,0.420558,1.81592,0.316085,0.0328786,0.225582,-0.126686,0.309724,0.496601,0.717279,0.631615,-0.231634,1
1.80161,-1.07574,-1.78383,-1.06841,2.00916,1.18003,-0.938607,1.80405,-1.07861,-1.78419,-1.06703,2.00899,1.18026,-0.939448,1.78024,-1.06469,-1.81524,-1.11705,1.93731,1.11707,-0.916316,0,0,0,0,0,0,0,0,0,0,0,0,0,0,0.531038,-0.454454,0.694237,0.574549,0.175146,0.152571,0.784818,0,0,0,0.390432,-1.45584,0.148671,1.86132,0.415559,0.484756,1.84589,0.356194,0.0975812,0.213709,-0.110436,0.31403,0.486341,0.718571,0.629624,-0.222914,1
