Afshin1997/kuka_rl_ros2/src/catch_and_throw/output_files/tm/nn_ema1.00_jvws1_simball_D11H12M27S38/recorded_data.csv
pure_target_joint_0,pure_target_joint_1,pure_target_joint_2,pure_target_joint_3,pure_target_joint_4,pure_target_joint_5,pure_target_joint_6,target_joint_0,target_joint_1,target_joint_2,target_joint_3,target_joint_4,target_joint_5,target_joint_6,pos_joint_0,pos_joint_1,pos_joint_2,pos_joint_3,pos_joint_4,pos_joint_5,pos_joint_6,vel_joint_0,vel_joint_1,vel_joint_2,vel_joint_3,vel_joint_4,vel_joint_5,vel_joint_6,vel_smooth_joint_0,vel_smooth_joint_1,vel_smooth_joint_2,vel_smooth_joint_3,vel_smooth_joint_4,vel_smooth_joint_5,vel_smooth_joint_6,ee_pos_x,ee_pos_y,ee_pos_z,ee_or_w,ee_or_x,ee_or_y,ee_or_z,ee_vel_x,ee_vel_y,ee_vel_z,ball_pos_x,ball_pos_y,ball_pos_z,ball_raw_vx,ball_raw_vy,ball_raw_vz,ball_ema_vx,ball_ema_vy,ball_ema_vz,action_0,action_1,action_2,action_3,action_4,action_5,action_6,command_published
1.82818,-1.01571,-1.83968,-1.043,1.96262,1.16461,-0.879728,1.82818,-1.01571,-1.83968,-1.043,1.96262,1.16461,-0.879728,1.78257,-1.07703,-1.82189,-1.12224,1.93478,1.11262,-0.916339,4.79323e-05,1.19776e-05,2.39552e-05,0,-1.91642e-05,0,0,4.79323e-05,1.19776e-05,2.39552e-05,0,-1.91642e-05,0,0,0.539835,-0.456378,0.692047,0.571351,0.184156,0.153242,0.784959,2.0735e-05,3.47735e-05,1.4848e-05,0.7,0,0.56435,0,0,0,0,0,0,0.456075,0.61322,-0.177876,0.792448,0.278473,0.519965,0.366114,1
1.82818,-1.01571,-1.83968,-1.043,1.96262,1.16461,-0.879728,1.82818,-1.01571,-1.83968,-1.043,1.96262,1.16461,-0.879728,1.78257,-1.07703,-1.82189,-1.12224,1.93478,1.11262,-0.916339,4.79323e-05,1.19776e-05,2.39552e-05,0,-1.91642e-05,0,0,4.79323e-05,1.19776e-05,2.39552e-05,0,-1.91642e-05,0,0,0.539835,-0.456378,0.692047,0.571351,0.184156,0.153242,0.784959,2.0735e-05,3.47735e-05,1.4848e-05,0.7,0,0.56435,0,0,0,0,0,0,0.456075,0.61322,-0.177876,0.792448,0.278473,0.519965,0.366114,1
1.82818,-1.01571,-1.83968,-1.043,1.96262,1.16462,-0.879729,1.82818,-1.01571,-1.83968,-1.043,1.96262,1.16462,-0.879729,1.78257,-1.07703,-1.82189,-1.12224,1.93478,1.11262,-0.916339,-2.39541e-05,-1.1977e-05,2.39541e-05,1.1977e-05,0,1.1977e-05,0,-2.39541e-05,-1.1977e-05,2.39541e-05,1.1977e-05,0,1.1977e-05,0,0.539835,-0.456379,0.692047,0.571351,0.184156,0.153242,0.784959,-1.43972e-05,-1.51892e-05,5.4177e-06,0.7,0,0.56435,0,0,0,0,0,0,0.456067,0.613211,-0.177879,0.792446,0.278463,0.519985,0.366103,1
1.82444,-1.01376,-1.83575,-1.04263,1.96109,1.16503,-0.881624,1.82444,-1.01376,-1.83575,-1.04263,1.96109,1.16503,-0.881624,1.78257,-1.07703,-1.82189,-1.12224,1.93478,1.11262,-0.916339,2.39541e-05,-2.39759e-05,1.19989e-05,-2.39759e-05,-1.91633e-05,-7.19059e-05,-3.5953e-05,2.39541e-05,-2.39759e-05,1.19989e-05,-2.39759e-05,-1.91633e-05,-7.19059e-05,-3.5953e-05,0.539835,-0.456379,0.692047,0.571351,0.184157,0.153243,0.784959,2.388e-05,1.4994e-05,-1.89938e-05,0.7,0,0.56435,0,0,0,0,0,0,0.418667,0.632707,-0.138562,0.79614,0.263175,0.524092,0.347148,1
1.82059,-1.01186,-1.8291,-1.04236,1.96061,1.16563,-0.883178,1.82059,-1.01186,-1.8291,-1.04236,1.96061,1.16563,-0.883178,1.78259,-1.07705,-1.82195,-1.12229,1.93477,1.11258,-0.916339,0.00272036,-0.00303194,-0.0102343,-0.00890407,-0.00070946,-0.00714242,2.39759e-05,0.00272036,-0.00303194,-0.0102343,-0.00890407,-0.00070946,-0.00714242,2.39759e-05,0.539861,-0.456371,0.692005,0.571333,0.184201,0.153267,0.784957,0.00405258,0.00154335,-0.00786926,0.7,0,0.56435,0,0,0,0,0,0,0.380029,0.651874,-0.0715508,0.7993,0.258397,0.530523,0.331609,1
1.81173,-1.00979,-1.82391,-1.04198,1.95945,1.16575,-0.884744,1.81173,-1.00979,-1.82391,-1.04198,1.95945,1.16575,-0.884744,1.78262,-1.07706,-1.82185,-1.12214,1.9348,1.11254,-0.916339,-0.00075499,0.00378693,0.0315298,0.0293127,0.00356643,0.000275647,0,-0.00075499,0.00378693,0.0315298,0.0293127,0.00356643,0.000275647,0,0.539848,-0.456399,0.692069,0.571358,0.184169,0.153208,0.784958,-0.00668496,-0.00424088,0.0204598,0.7,0,0.56435,0,0,0,0,0,0,0.291105,0.672713,-0.0205779,0.801606,0.246419,0.532052,0.315945,1
1.79564,-1.00844,-1.8234,-1.04132,1.95733,1.16664,-0.886519,1.79564,-1.00844,-1.8234,-1.04132,1.95733,1.16664,-0.886519,1.78244,-1.07705,-1.82154,-1.12174,1.9348,1.11252,-0.91634,-0.0205525,0.00481754,0.0384445,0.0561328,-0.00111213,-0.000539273,-0.000119836,-0.0205525,0.00481754,0.0384445,0.0561328,-0.00111213,-0.000539273,-0.000119836,0.539669,-0.456586,0.692289,0.571543,0.184021,0.153049,0.784889,-0.0200568,-0.021998,0.0297342,0.7,0,0.56435,0,0,0,0,0,0,0.13201,0.686089,-0.0186043,0.804225,0.225302,0.541173,0.29821,1
1.77224,-1.00686,-1.82026,-1.03994,1.95662,1.16714,-0.889706,1.77224,-1.00686,-1.82026,-1.03994,1.95662,1.16714,-0.889706,1.78247,-1.07687,-1.82106,-1.12055,1.93479,1.11249,-0.916357,0.0124513,0.0230212,0.0422554,0.149847,0.00128467,-0.00207323,-0.00182156,0.0124513,0.0230212,0.0422554,0.149847,0.00128467,-0.00207323,-0.00182156,0.539421,-0.456859,0.692872,0.571953,0.183599,0.152793,0.784739,-0.020782,-0.0328182,0.0634272,0.7,0,0.56435,0,0,0,0,0,0,-0.102315,0.700097,0.00804683,0.80605,0.218342,0.54651,0.266506,1
1.75315,-1.00534,-1.81315,-1.0371,1.95643,1.16826,-0.895908,1.75315,-1.00534,-1.81315,-1.0371,1.95643,1.16826,-0.895908,1.78274,-1.07643,-1.82088,-1.11791,1.93502,1.11251,-0.91654,0.0301876,0.0533286,0.00854457,0.308179,0.0366038,0.00262448,-0.0296842,0.0301876,0.0533286,0.00854457,0.308179,0.0366038,0.00262448,-0.0296842,0.539013,-0.457544,0.693854,0.572942,0.182919,0.152384,0.784256,-0.0396471,-0.0811569,0.106829,0.7,0,0.56435,0,0,0,0,0,0,-0.295919,0.710892,0.0772993,0.808114,0.214064,0.557526,0.206326,1
1.73559,-1.00266,-1.8015,-1.03242,1.9612,1.16931,-0.90179,1.73559,-1.00266,-1.8015,-1.03242,1.9612,1.16931,-0.90179,1.78299,-1.07551,-1.82075,-1.11362,1.93605,1.11258,-0.917598,0.0211527,0.105943,0.0194629,0.468283,0.12857,0.00710683,-0.134538,0.0211527,0.105943,0.0194629,0.468283,0.12857,0.00710683,-0.134538,0.538216,-0.458814,0.695524,0.57492,0.18183,0.151573,0.783218,-0.0771973,-0.134356,0.180354,0.7,0,0.56435,0,0,0,0,0,0,-0.473982,0.728527,0.192433,0.812028,0.251463,0.567292,0.158084,1
1.73129,-1.00023,-1.79652,-1.02766,1.96321,1.17021,-0.903042,1.73129,-1.00023,-1.79652,-1.02766,1.96321,1.17021,-0.903042,1.78333,-1.07419,-1.82044,-1.10875,1.93764,1.11258,-0.919235,0.0435038,0.140387,0.0406395,0.47418,0.158982,0.00233699,-0.182356,0.0435038,0.140387,0.0406395,0.47418,0.158982,0.00233699,-0.182356,0.537281,-0.460162,0.697644,0.577286,0.180502,0.150558,0.781979,-0.0727066,-0.113316,0.20911,0.7,0,0.56435,0,0,0,0,0,0,-0.520372,0.739635,0.239283,0.810954,0.25566,0.576226,0.161934,1
1.72612,-0.996613,-1.77987,-1.02254,1.97285,1.17227,-0.905192,1.72612,-0.996613,-1.77987,-1.02254,1.97285,1.17227,-0.905192,1.78333,-1.07202,-1.81932,-1.10351,1.94016,1.1126,-0.922176,-0.0332331,0.245587,0.138973,0.551516,0.295989,0.00198944,-0.330018,-0.0332331,0.245587,0.138973,0.551516,0.295989,0.00198944,-0.330018,0.535921,-0.461506,0.700676,0.580338,0.178596,0.149175,0.780422,-0.138481,-0.142981,0.324205,0.7,0,0.56435,0,0,0,0,0,0,-0.572082,0.75409,0.39451,0.809712,0.326938,0.59661,0.16984,1
1.71925,-0.993469,-1.76981,-1.01591,1.98036,1.17505,-0.907843,1.71925,-0.993469,-1.76981,-1.01591,1.98036,1.17505,-0.907843,1.78209,-1.06928,-1.81703,-1.09708,1.94444,1.11262,-0.926172,-0.142005,0.277861,0.267219,0.662313,0.46406,0.00230103,-0.416294,-0.142005,0.277861,0.267219,0.662313,0.46406,0.00230103,-0.416294,0.533508,-0.463771,0.704816,0.584488,0.176187,0.146618,0.778354,-0.224422,-0.219224,0.417152,0.7,0,0.56435,0,0,0,0,0,0,-0.628349,0.758057,0.472243,0.811654,0.359276,0.624303,0.183293,1
1.7156,-0.990347,-1.76177,-1.00822,1.98749,1.17741,-0.908281,1.7156,-0.990347,-1.76177,-1.00822,1.98749,1.17741,-0.908281,1.7805,-1.06629,-1.81306,-1.08922,1.94999,1.11262,-0.930622,-0.166549,0.306073,0.437447,0.837718,0.583119,0.000683117,-0.452991,-0.166549,0.306073,0.437447,0.837718,0.583119,0.000683117,-0.452991,0.530385,-0.4665,0.710097,0.589146,0.173099,0.142829,0.776237,-0.284866,-0.262154,0.535669,0.7,0,0.56435,0,0,0,0,0,0,-0.648977,0.759446,0.512966,0.810032,0.374979,0.647896,0.223411,1
1.71116,-0.986945,-1.75272,-0.997909,1.99587,1.17932,-0.908344,1.71116,-0.986945,-1.75272,-0.997909,1.99587,1.17932,-0.908344,1.77853,-1.06288,-1.80742,-1.07884,1.95658,1.11259,-0.935249,-0.20587,0.350547,0.612649,1.10574,0.683444,-0.00183364,-0.462411,-0.20587,0.350547,0.612649,1.10574,0.683444,-0.00183364,-0.462411,0.526276,-0.469991,0.716871,0.594639,0.169064,0.137755,0.773851,-0.373896,-0.334763,0.684822,0.7,0,0.56435,0,0,0,0,0,0,-0.673762,0.759379,0.546958,0.809345,0.392853,0.667259,0.269049,1
1.70931,-0.982822,-1.74239,-0.986295,2.00379,1.1808,-0.91047,1.70931,-0.982822,-1.74239,-0.986295,2.00379,1.1808,-0.91047,1.77617,-1.05898,-1.79976,-1.06685,1.96388,1.11258,-0.939632,-0.249757,0.404106,0.81424,1.22561,0.744133,-0.00243285,-0.42756,-0.249757,0.404106,0.81424,1.22561,0.744133,-0.00243285,-0.42756,0.521268,-0.47375,0.725044,0.600409,0.164061,0.131559,0.771547,-0.445071,-0.343374,0.80979,0.7,0,0.56435,0,0,0,0,0,0,-0.668625,0.761536,0.573734,0.805528,0.399085,0.682209,0.291622,1
1.70561,-0.977813,-1.72899,-0.97302,2.00944,1.18254,-0.912556,1.70561,-0.977813,-1.72899,-0.97302,2.00944,1.18254,-0.912556,1.77284,-1.05435,-1.79018,-1.05328,1.97168,1.11262,-0.943471,-0.369866,0.487662,1.00739,1.39067,0.790346,0.00497357,-0.367481,-0.369866,0.487662,1.00739,1.39067,0.790346,0.00497357,-0.367481,0.515034,-0.477927,0.734662,0.606548,0.158052,0.124348,0.769192,-0.568856,-0.391621,0.95648,0.7,0,0.56435,0,0,0,0,0,0,-0.672253,0.765333,0.61188,0.802565,0.377632,0.699236,0.309142,1
1.70232,-0.972217,-1.71475,-0.959201,2.01334,1.18427,-0.915221,1.70232,-0.972217,-1.71475,-0.959201,2.01334,1.18427,-0.915221,1.76828,-1.04893,-1.77861,-1.03884,1.97985,1.11276,-0.946527,-0.47696,0.562002,1.21092,1.47985,0.827584,0.0215002,-0.284021,-0.47696,0.562002,1.21092,1.47985,0.827584,0.0215002,-0.284021,0.507522,-0.482295,0.745567,0.612764,0.151095,0.116258,0.766926,-0.678796,-0.402311,1.08012,0.7,0,0.56435,0,0,0,0,0,0,-0.659634,0.76712,0.638575,0.796406,0.3349,0.715134,0.313064,1
1.69882,-0.965556,-1.70019,-0.945212,2.01767,1.18577,-0.918377,1.69882,-0.965556,-1.70019,-0.945212,2.01767,1.18577,-0.918377,1.76264,-1.04249,-1.7656,-1.02405,1.98816,1.11317,-0.948814,-0.589998,0.662001,1.31719,1.48028,0.833567,0.04487,-0.209238,-0.589998,0.662001,1.31719,1.48028,0.833567,0.04487,-0.209238,0.498889,-0.486504,0.757538,0.618901,0.143216,0.107716,0.764754,-0.77293,-0.385569,1.16191,0.7,0,0.56435,0,0,0,0,0,0,-0.638213,0.769354,0.654091,0.788395,0.295077,0.725941,0.304374,1
1.69399,-0.957633,-1.68437,-0.930727,2.01977,1.18759,-0.922762,1.69399,-0.957633,-1.68437,-0.930727,2.01977,1.18759,-0.922762,1.7558,-1.03475,-1.75157,-1.00864,1.99656,1.11402,-0.950418,-0.72619,0.821683,1.41951,1.53391,0.836136,0.0926284,-0.144893,-0.72619,0.821683,1.41951,1.53391,0.836136,0.0926284,-0.144893,0.48898,-0.490577,0.770624,0.625189,0.134294,0.0989036,0.762445,-0.899224,-0.367243,1.28643,0.7,0,0.56435,0,0,0,0,0,0,-0.618106,0.771173,0.67199,0.779119,0.232015,0.735693,0.276554,1
1.68488,-0.949427,-1.6698,-0.91591,2.02017,1.18976,-0.924497,1.68488,-0.949427,-1.6698,-0.91591,2.02017,1.18976,-0.924497,1.74749,-1.02618,-1.73689,-0.992793,2.00507,1.11552,-0.951314,-0.862011,0.873204,1.49916,1.58674,0.853164,0.177671,-0.0714517,-0.862011,0.873204,1.49916,1.58674,0.853164,0.177671,-0.0714517,0.477713,-0.494739,0.78436,0.631636,0.124528,0.0897786,0.759913,-1.02397,-0.383919,1.34013,0.7,0,0.56435,0,0,0,0,0,0,-0.626143,0.767558,0.67087,0.768837,0.150958,0.742374,0.268168,1
1.67645,-0.93976,-1.65459,-0.902039,2.03203,1.19165,-0.928045,1.67645,-0.93976,-1.65459,-0.902039,2.03203,1.19165,-0.928045,1.73821,-1.0165,-1.72198,-0.977078,2.01353,1.1176,-0.951505,-0.94642,1.00091,1.49356,1.60036,0.851992,0.222746,-0.00255257,-0.94642,1.00091,1.49356,1.60036,0.851992,0.222746,-0.00255257,0.465518,-0.498411,0.798592,0.637929,0.114019,0.080815,0.757308,-1.10877,-0.34236,1.39715,0.7,0,0.56435,0,0,0,0,0,0,-0.617632,0.767431,0.673923,0.750387,0.184977,0.740564,0.234602,1
1.66473,-0.928931,-1.63989,-0.887826,2.04157,1.19412,-0.928622,1.66473,-0.928931,-1.63989,-0.887826,2.04157,1.19412,-0.928622,1.72757,-1.00565,-1.70718,-0.961085,2.02196,1.12029,-0.951369,-1.09943,1.08989,1.46326,1.61475,0.847908,0.281407,0.0167895,-1.09943,1.08989,1.46326,1.61475,0.847908,0.281407,0.0167895,0.452122,-0.501846,0.813316,0.644533,0.102724,0.0720781,0.754208,-1.22433,-0.34115,1.42323,0.7,0,0.56435,0,0,0,0,0,0,-0.628441,0.767226,0.672916,0.732588,0.196194,0.73825,0.227471,1
1.65382,-0.917234,-1.62652,-0.873718,2.04534,1.19714,-0.928473,1.65382,-0.917234,-1.62652,-0.873718,2.04534,1.19714,-0.928473,1.71615,-0.994036,-1.69238,-0.945509,2.03038,1.1236,-0.951098,-1.15516,1.21172,1.47074,1.53451,0.831744,0.33482,0.0300917,-1.15516,1.21172,1.47074,1.53451,0.831744,0.33482,0.0300917,0.438042,-0.504632,0.828156,0.650987,0.0908581,0.0636048,0.750942,-1.26873,-0.239003,1.45628,0.7,0,0.56435,0,0,0,0,0,0,-0.623267,0.768016,0.658639,0.717917,0.149589,0.735373,0.226251,1
1.64055,-0.905116,-1.61351,-0.859109,2.04899,1.20097,-0.926746,1.64055,-0.905116,-1.61351,-0.859109,2.04899,1.20097,-0.926746,1.70356,-0.981548,-1.67787,-0.929849,2.03888,1.12762,-0.950756,-1.29082,1.25714,1.44639,1.54648,0.850861,0.424795,0.0357242,-1.29082,1.25714,1.44639,1.54648,0.850861,0.424795,0.0357242,0.422971,-0.507034,0.843171,0.657668,0.0783392,0.0553956,0.747173,-1.37322,-0.231445,1.45638,0.7,0,0.56435,0,0,0,0,0,0,-0.630093,0.764315,0.643607,0.707396,0.101176,0.733513,0.240102,1
1.62683,-0.89189,-1.59976,-0.845275,2.05757,1.20509,-0.926533,1.62683,-0.89189,-1.59976,-0.845275,2.05757,1.20509,-0.926533,1.69007,-0.968073,-1.66356,-0.914601,2.04734,1.13205,-0.950149,-1.38268,1.36151,1.44033,1.53554,0.849499,0.467925,0.0696148,-1.38268,1.36151,1.44033,1.53554,0.849499,0.467925,0.0696148,0.407269,-0.50862,0.858316,0.6642,0.0653128,0.0476812,0.743168,-1.44526,-0.162118,1.48622,0.7,0,0.56435,0,0,0,0,0,0,-0.632389,0.761824,0.638013,0.693257,0.10232,0.730438,0.236165,1
1.61252,-0.878303,-1.58647,-0.832128,2.0649,1.21016,-0.92654,1.61252,-0.878303,-1.58647,-0.832128,2.0649,1.21016,-0.92654,1.67552,-0.954165,-1.64943,-0.899674,2.05593,1.13708,-0.949167,-1.47428,1.42569,1.39563,1.47079,0.854101,0.500402,0.109126,-1.47428,1.42569,1.39563,1.47079,0.854101,0.500402,0.109126,0.39086,-0.509707,0.87329,0.67058,0.0518931,0.0401946,0.738927,-1.49101,-0.0974532,1.47017,0.7,0,0.56435,0,0,0,0,0,0,-0.630018,0.758616,0.629546,0.675466,0.0897002,0.730801,0.226273,1
1.59787,-0.864756,-1.57289,-0.819403,2.06988,1.21568,-0.925609,1.59787,-0.864756,-1.57289,-0.819403,2.06988,1.21568,-0.925609,1.66011,-0.939646,-1.63543,-0.884854,2.06465,1.14255,-0.947781,-1.54484,1.4445,1.40464,1.47143,0.88246,0.569094,0.14503,-1.54484,1.4445,1.40464,1.47143,0.88246,0.569094,0.14503,0.373822,-0.510122,0.88823,0.676771,0.0380188,0.0330003,0.73447,-1.54945,-0.0498835,1.45625,0.7,0,0.56435,0,0,0,0,0,0,-0.622429,0.748894,0.625381,0.654512,0.0522934,0.731289,0.221725,1
1.58142,-0.850388,-1.55856,-0.806965,2.0727,1.22109,-0.924093,1.58142,-0.850388,-1.55856,-0.806965,2.0727,1.22109,-0.924093,1.64399,-0.924516,-1.62165,-0.870553,2.07336,1.14823,-0.946117,-1.63031,1.50447,1.38265,1.45488,0.884837,0.582492,0.174426,-1.63031,1.50447,1.38265,1.45488,0.884837,0.582492,0.174426,0.356483,-0.509659,0.903001,0.682656,0.0239064,0.0263414,0.729873,-1.5973,0.0151037,1.45064,0.7,0,0.56435,0,0,0,0,0,0,-0.625649,0.741276,0.630901,0.635878,-0.00667242,0.728584,0.220244,1
1.56488,-0.834996,-1.54552,-0.795006,2.07625,1.22669,-0.923169,1.56488,-0.834996,-1.54552,-0.795006,2.07625,1.22669,-0.923169,1.62734,-0.909142,-1.60811,-0.856712,2.08217,1.15415,-0.944224,-1.69497,1.57066,1.32569,1.36779,0.871665,0.568507,0.194835,-1.69497,1.57066,1.32569,1.36779,0.871665,0.568507,0.194835,0.33898,-0.50845,0.917405,0.688185,0.00967119,0.0200684,0.725193,-1.59969,0.105502,1.42461,0.7,0,0.56435,0,0,0,0,0,0,-0.624637,0.741464,0.625916,0.617056,-0.0592096,0.725396,0.210546,1
1.55007,-0.820246,-1.53307,-0.784863,2.07323,1.23275,-0.920797,1.55007,-0.820246,-1.53307,-0.784863,2.07323,1.23275,-0.920797,1.61041,-0.8937,-1.59459,-0.843356,2.09108,1.1604,-0.942144,-1.7084,1.57258,1.32817,1.30517,0.881309,0.605273,0.211385,-1.7084,1.57258,1.32817,1.30517,0.881309,0.605273,0.211385,0.321458,-0.506459,0.931391,0.693236,-0.00470453,0.0140829,0.720557,-1.58927,0.185557,1.38379,0.7,0,0.56435,0,0,0,0,0,0,-0.603413,0.734538,0.615277,0.584925,-0.17856,0.723495,0.213469,1
1.52418,-0.814025,-1.53068,-0.770658,2.10615,1.23327,-0.905242,1.52418,-0.814025,-1.53068,-0.770658,2.10615,1.23327,-0.905242,1.60171,-0.885873,-1.58799,-0.836848,2.09553,1.1635,-0.941058,-1.73978,1.56555,1.32104,1.30161,0.889232,0.619312,0.217172,-1.73978,1.56555,1.32104,1.30161,0.889232,0.619312,0.217172,0.312682,-0.505201,0.938236,0.695679,-0.0118652,0.0113028,0.718166,0,0,0,0.7,0,0.56435,0,0,0,0,0,0,-0.775315,0.718478,0.573073,0.661894,0.106187,0.697691,0.358163,1
1.52419,-0.814433,-1.53019,-0.770788,2.10784,1.23331,-0.904227,1.52419,-0.814433,-1.53019,-0.770788,2.10784,1.23331,-0.904227,1.60171,-0.885873,-1.58799,-0.836848,2.09553,1.1635,-0.941058,-1.73978,1.56555,1.32104,1.30161,0.889232,0.619312,0.217172,-1.73978,1.56555,1.32104,1.30161,0.889232,0.619312,0.217172,0.312682,-0.505201,0.938236,0.695679,-0.0118652,0.0113028,0.718166,0,0,0,0.7,0,0.56435,0,0,0,0,0,0,-0.775252,0.714398,0.577961,0.660592,0.12311,0.698173,0.368315,1
1.5242,-0.814843,-1.52975,-0.770949,2.10939,1.23334,-0.903271,1.5242,-0.814843,-1.52975,-0.770949,2.10939,1.23334,-0.903271,1.60171,-0.885873,-1.58799,-0.836848,2.09553,1.1635,-0.941058,-1.73978,1.56555,1.32104,1.30161,0.889232,0.619312,0.217172,-1.73978,1.56555,1.32104,1.30161,0.889232,0.619312,0.217172,0.312682,-0.505201,0.938236,0.695679,-0.0118652,0.0113028,0.718166,0,0,0,0.7,0,0.56435,0,0,0,0,0,0,-0.775156,0.710295,0.582445,0.658984,0.138577,0.698408,0.37787,1
1.52422,-0.815278,-1.52933,-0.771116,2.11072,1.23336,-0.902407,1.52422,-0.815278,-1.52933,-0.771116,2.11072,1.23336,-0.902407,1.60171,-0.885873,-1.58799,-0.836848,2.09553,1.1635,-0.941058,-1.73978,1.56555,1.32104,1.30161,0.889232,0.619312,0.217172,-1.73978,1.56555,1.32104,1.30161,0.889232,0.619312,0.217172,0.312682,-0.505201,0.938236,0.695679,-0.0118652,0.0113028,0.718166,0,0,0,0.7,0,0.56435,0,0,0,0,0,0,-0.77494,0.705943,0.586557,0.657319,0.151961,0.698643,0.386508,1
1.52425,-0.815744,-1.52895,-0.771295,2.11189,1.23338,-0.901624,1.52425,-0.815744,-1.52895,-0.771295,2.11189,1.23338,-0.901624,1.60171,-0.885873,-1.58799,-0.836848,2.09553,1.1635,-0.941058,-1.73978,1.56555,1.32104,1.30161,0.889232,0.619312,0.217172,-1.73978,1.56555,1.32104,1.30161,0.889232,0.619312,0.217172,0.312682,-0.505201,0.938236,0.695679,-0.0118652,0.0113028,0.718166,0,0,0,0.7,0,0.56435,0,0,0,0,0,0,-0.774586,0.701288,0.590372,0.655525,0.163646,0.698878,0.394345,1
1.52431,-0.816231,-1.52852,-0.771425,2.11262,1.23339,-0.900972,1.52431,-0.816231,-1.52852,-0.771425,2.11262,1.23339,-0.900972,1.60171,-0.885873,-1.58799,-0.836848,2.09553,1.1635,-0.941058,-1.73978,1.56555,1.32104,1.30161,0.889232,0.619312,0.217172,-1.73978,1.56555,1.32104,1.30161,0.889232,0.619312,0.217172,0.312682,-0.505201,0.938236,0.695679,-0.0118652,0.0113028,0.718166,0,0,0,0.7,0,0.56435,0,0,0,0,0,0,-0.774034,0.696412,0.594681,0.654222,0.170961,0.698931,0.400861,1
1.52439,-0.816767,-1.52805,-0.7715,2.11287,1.23338,-0.900453,1.52439,-0.816767,-1.52805,-0.7715,2.11287,1.23338,-0.900453,1.60171,-0.885873,-1.58799,-0.836848,2.09553,1.1635,-0.941058,-1.73978,1.56555,1.32104,1.30161,0.889232,0.619312,0.217172,-1.73978,1.56555,1.32104,1.30161,0.889232,0.619312,0.217172,0.312682,-0.505201,0.938236,0.695679,-0.0118652,0.0113028,0.718166,0,0,0,0.7,0,0.56435,0,0,0,0,0,0,-0.773232,0.691058,0.599395,0.653476,0.173401,0.698795,0.406051,1
1.52448,-0.81734,-1.52762,-0.77159,2.11302,1.23336,-0.899987,1.52448,-0.81734,-1.52762,-0.77159,2.11302,1.23336,-0.899987,1.60171,-0.885873,-1.58799,-0.836848,2.09553,1.1635,-0.941058,-1.73978,1.56555,1.32104,1.30161,0.889232,0.619312,0.217172,-1.73978,1.56555,1.32104,1.30161,0.889232,0.619312,0.217172,0.312682,-0.505201,0.938236,0.695679,-0.0118652,0.0113028,0.718166,0,0,0,0.7,0,0.56435,0,0,0,0,0,0,-0.772292,0.685326,0.603743,0.652581,0.174876,0.698674,0.410713,1
1.52461,-0.817994,-1.52728,-0.771711,2.11308,1.23337,-0.899666,1.52461,-0.817994,-1.52728,-0.771711,2.11308,1.23337,-0.899666,1.60171,-0.885873,-1.58799,-0.836848,2.09553,1.1635,-0.941058,-1.73978,1.56555,1.32104,1.30161,0.889232,0.619312,0.217172,-1.73978,1.56555,1.32104,1.30161,0.889232,0.619312,0.217172,0.312682,-0.505201,0.938236,0.695679,-0.0118652,0.0113028,0.718166,0,0,0,0.7,0,0.56435,0,0,0,0,0,0,-0.771075,0.678788,0.60711,0.651364,0.175473,0.698767,0.413927,1
1.52475,-0.818729,-1.52704,-0.771854,2.11289,1.23341,-0.899372,1.52475,-0.818729,-1.52704,-0.771854,2.11289,1.23341,-0.899372,1.60171,-0.885873,-1.58799,-0.836848,2.09553,1.1635,-0.941058,-1.73978,1.56555,1.32104,1.30161,0.889232,0.619312,0.217172,-1.73978,1.56555,1.32104,1.30161,0.889232,0.619312,0.217172,0.312682,-0.505201,0.938236,0.695679,-0.0118652,0.0113028,0.718166,0,0,0,0.7,0,0.56435,0,0,0,0,0,0,-0.769622,0.67144,0.609534,0.649936,0.173647,0.699149,0.416859,1
1.52498,-0.81958,-1.52702,-0.771838,2.11228,1.23353,-0.899243,1.52498,-0.81958,-1.52702,-0.771838,2.11228,1.23353,-0.899243,1.60171,-0.885873,-1.58799,-0.836848,2.09553,1.1635,-0.941058,-1.73978,1.56555,1.32104,1.30161,0.889232,0.619312,0.217172,-1.73978,1.56555,1.32104,1.30161,0.889232,0.619312,0.217172,0.312682,-0.505201,0.938236,0.695679,-0.0118652,0.0113028,0.718166,0,0,0,0.7,0,0.56435,0,0,0,0,0,0,-0.767319,0.662927,0.609672,0.650095,0.167569,0.700338,0.418156,1
1.52523,-0.820526,-1.52711,-0.771788,2.11148,1.23366,-0.899168,1.52523,-0.820526,-1.52711,-0.771788,2.11148,1.23366,-0.899168,1.60171,-0.885873,-1.58799,-0.836848,2.09553,1.1635,-0.941058,-1.73978,1.56555,1.32104,1.30161,0.889232,0.619312,0.217172,-1.73978,1.56555,1.32104,1.30161,0.889232,0.619312,0.217172,0.312682,-0.505201,0.938236,0.695679,-0.0118652,0.0113028,0.718166,0,0,0,0.7,0,0.56435,0,0,0,0,0,0,-0.764837,0.653463,0.608841,0.650597,0.159472,0.70162,0.418899,1
1.52549,-0.821539,-1.5272,-0.771761,2.11059,1.23378,-0.899157,1.52549,-0.821539,-1.5272,-0.771761,2.11059,1.23378,-0.899157,1.60171,-0.885873,-1.58799,-0.836848,2.09553,1.1635,-0.941058,-1.73978,1.56555,1.32104,1.30161,0.889232,0.619312,0.217172,-1.73978,1.56555,1.32104,1.30161,0.889232,0.619312,0.217172,0.312682,-0.505201,0.938236,0.695679,-0.0118652,0.0113028,0.718166,0,0,0,0.7,0,0.56435,0,0,0,0,0,0,-0.762227,0.643334,0.607861,0.650871,0.150659,0.702837,0.419015,1
1.52576,-0.822633,-1.52731,-0.771756,2.10958,1.2339,-0.899207,1.52576,-0.822633,-1.52731,-0.771756,2.10958,1.2339,-0.899207,1.60171,-0.885873,-1.58799,-0.836848,2.09553,1.1635,-0.941058,-1.73978,1.56555,1.32104,1.30161,0.889232,0.619312,0.217172,-1.73978,1.56555,1.32104,1.30161,0.889232,0.619312,0.217172,0.312682,-0.505201,0.938236,0.695679,-0.0118652,0.0113028,0.718166,0,0,0,0.7,0,0.56435,0,0,0,0,0,0,-0.759484,0.632394,0.606775,0.650912,0.140547,0.704017,0.418515,1
1.52606,-0.823831,-1.52743,-0.771774,2.10843,1.23402,-0.899317,1.52606,-0.823831,-1.52743,-0.771774,2.10843,1.23402,-0.899317,1.60171,-0.885873,-1.58799,-0.836848,2.09553,1.1635,-0.941058,-1.73978,1.56555,1.32104,1.30161,0.889232,0.619312,0.217172,-1.73978,1.56555,1.32104,1.30161,0.889232,0.619312,0.217172,0.312682,-0.505201,0.938236,0.695679,-0.0118652,0.0113028,0.718166,0,0,0,0.7,0,0.56435,0,0,0,0,0,0,-0.756525,0.620417,0.605573,0.650733,0.129039,0.705209,0.417411,1
1.52638,-0.825116,-1.52757,-0.7718,2.10721,1.23413,-0.899486,1.52638,-0.825116,-1.52757,-0.7718,2.10721,1.23413,-0.899486,1.60171,-0.885873,-1.58799,-0.836848,2.09553,1.1635,-0.941058,-1.73978,1.56555,1.32104,1.30161,0.889232,0.619312,0.217172,-1.73978,1.56555,1.32104,1.30161,0.889232,0.619312,0.217172,0.312682,-0.505201,0.938236,0.695679,-0.0118652,0.0113028,0.718166,0,0,0,0.7,0,0.56435,0,0,0,0,0,0,-0.753332,0.607561,0.604167,0.650481,0.116837,0.706375,0.41572,1
1.5267,-0.826142,-1.52773,-0.771711,2.10645,1.23422,-0.899781,1.5267,-0.826142,-1.52773,-0.771711,2.10645,1.23422,-0.899781,1.60171,-0.885873,-1.58799,-0.836848,2.09553,1.1635,-0.941058,-1.73978,1.56555,1.32104,1.30161,0.889232,0.619312,0.217172,-1.73978,1.56555,1.32104,1.30161,0.889232,0.619312,0.217172,0.312682,-0.505201,0.938236,0.695679,-0.0118652,0.0113028,0.718166,0,0,0,0.7,0,0.56435,0,0,0,0,0,0,-0.750134,0.597307,0.602589,0.651363,0.109262,0.707189,0.412772,1
1.52706,-0.827249,-1.52789,-0.771653,2.10575,1.2343,-0.900149,1.52706,-0.827249,-1.52789,-0.771653,2.10575,1.2343,-0.900149,1.60171,-0.885873,-1.58799,-0.836848,2.09553,1.1635,-0.941058,-1.73978,1.56555,1.32104,1.30161,0.889232,0.619312,0.217172,-1.73978,1.56555,1.32104,1.30161,0.889232,0.619312,0.217172,0.312682,-0.505201,0.938236,0.695679,-0.0118652,0.0113028,0.718166,0,0,0,0.7,0,0.56435,0,0,0,0,0,0,-0.746535,0.586233,0.600973,0.651949,0.102233,0.708053,0.409095,1
1.52745,-0.828453,-1.52808,-0.771608,2.10497,1.23439,-0.900576,1.52745,-0.828453,-1.52808,-0.771608,2.10497,1.23439,-0.900576,1.60171,-0.885873,-1.58799,-0.836848,2.09553,1.1635,-0.941058,-1.73978,1.56555,1.32104,1.30161,0.889232,0.619312,0.217172,-1.73978,1.56555,1.32104,1.30161,0.889232,0.619312,0.217172,0.312682,-0.505201,0.938236,0.695679,-0.0118652,0.0113028,0.718166,0,0,0,0.7,0,0.56435,0,0,0,0,0,0,-0.742642,0.574195,0.599131,0.652394,0.0944044,0.708916,0.404821,1
1.52787,-0.829761,-1.52828,-0.771573,2.10411,1.23447,-0.901062,1.52787,-0.829761,-1.52828,-0.771573,2.10411,1.23447,-0.901062,1.60171,-0.885873,-1.58799,-0.836848,2.09553,1.1635,-0.941058,-1.73978,1.56555,1.32104,1.30161,0.889232,0.619312,0.217172,-1.73978,1.56555,1.32104,1.30161,0.889232,0.619312,0.217172,0.312682,-0.505201,0.938236,0.695679,-0.0118652,0.0113028,0.718166,0,0,0,0.7,0,0.56435,0,0,0,0,0,0,-0.738413,0.561112,0.597144,0.652749,0.0858415,0.709773,0.399963,1
1.52833,-0.831191,-1.5285,-0.77155,2.10317,1.23456,-0.901612,1.52833,-0.831191,-1.5285,-0.77155,2.10317,1.23456,-0.901612,1.60171,-0.885873,-1.58799,-0.836848,2.09553,1.1635,-0.941058,-1.73978,1.56555,1.32104,1.30161,0.889232,0.619312,0.217172,-1.73978,1.56555,1.32104,1.30161,0.889232,0.619312,0.217172,0.312682,-0.505201,0.938236,0.695679,-0.0118652,0.0113028,0.718166,0,0,0,0.7,0,0.56435,0,0,0,0,0,0,-0.733832,0.546817,0.594934,0.652973,0.0764221,0.710621,0.39446,1
1.52884,-0.832792,-1.52873,-0.771545,2.10214,1.23465,-0.902269,1.52884,-0.832792,-1.52873,-0.771545,2.10214,1.23465,-0.902269,1.60171,-0.885873,-1.58799,-0.836848,2.09553,1.1635,-0.941058,-1.73978,1.56555,1.32104,1.30161,0.889232,0.619312,0.217172,-1.73978,1.56555,1.32104,1.30161,0.889232,0.619312,0.217172,0.312682,-0.505201,0.938236,0.695679,-0.0118652,0.0113028,0.718166,0,0,0,0.7,0,0.56435,0,0,0,0,0,0,-0.728706,0.530811,0.592582,0.653025,0.0660842,0.711507,0.387889,1
1.52941,-0.834571,-1.52899,-0.771555,2.10098,1.23474,-0.903025,1.52941,-0.834571,-1.52899,-0.771555,2.10098,1.23474,-0.903025,1.60171,-0.885873,-1.58799,-0.836848,2.09553,1.1635,-0.941058,-1.73978,1.56555,1.32104,1.30161,0.889232,0.619312,0.217172,-1.73978,1.56555,1.32104,1.30161,0.889232,0.619312,0.217172,0.312682,-0.505201,0.938236,0.695679,-0.0118652,0.0113028,0.718166,0,0,0,0.7,0,0.56435,0,0,0,0,0,0,-0.723076,0.513015,0.59002,0.652928,0.0545305,0.712394,0.380334,1
1.52997,-0.836574,-1.52939,-0.771546,2.09911,1.23484,-0.903778,1.52997,-0.836574,-1.52939,-0.771546,2.09911,1.23484,-0.903778,1.60171,-0.885873,-1.58799,-0.836848,2.09553,1.1635,-0.941058,-1.73978,1.56555,1.32104,1.30161,0.889232,0.619312,0.217172,-1.73978,1.56555,1.32104,1.30161,0.889232,0.619312,0.217172,0.312682,-0.505201,0.938236,0.695679,-0.0118652,0.0113028,0.718166,0,0,0,0.7,0,0.56435,0,0,0,0,0,0,-0.717397,0.492987,0.586037,0.653019,0.0358643,0.713411,0.372802,1
1.53054,-0.839439,-1.52994,-0.771462,2.09626,1.235,-0.904519,1.53054,-0.839439,-1.52994,-0.771462,2.09626,1.235,-0.904519,1.60171,-0.885873,-1.58799,-0.836848,2.09553,1.1635,-0.941058,-1.73978,1.56555,1.32104,1.30161,0.889232,0.619312,0.217172,-1.73978,1.56555,1.32104,1.30161,0.889232,0.619312,0.217172,0.312682,-0.505201,0.938236,0.695679,-0.0118652,0.0113028,0.718166,0,0,0,0.7,0,0.56435,0,0,0,0,0,0,-0.711724,0.464341,0.580523,0.653861,0.00735434,0.715031,0.365396,1
1.53136,-0.842349,-1.53041,-0.771704,2.09317,1.23515,-0.905315,1.53136,-0.842349,-1.53041,-0.771704,2.09317,1.23515,-0.905315,1.60171,-0.885873,-1.58799,-0.836848,2.09553,1.1635,-0.941058,-1.73978,1.56555,1.32104,1.30161,0.889232,0.619312,0.217172,-1.73978,1.56555,1.32104,1.30161,0.889232,0.619312,0.217172,0.312682,-0.505201,0.938236,0.695679,-0.0118652,0.0113028,0.718166,0,0,0,0.7,0,0.56435,0,0,0,0,0,0,-0.703542,0.435238,0.575757,0.651432,-0.0235975,0.716495,0.357428,1
1.53224,-0.845514,-1.53086,-0.77205,2.09021,1.23527,-0.906233,1.53224,-0.845514,-1.53086,-0.77205,2.09021,1.23527,-0.906233,1.60171,-0.885873,-1.58799,-0.836848,2.09553,1.1635,-0.941058,-1.73978,1.56555,1.32104,1.30161,0.889232,0.619312,0.217172,-1.73978,1.56555,1.32104,1.30161,0.889232,0.619312,0.217172,0.312682,-0.505201,0.938236,0.695679,-0.0118652,0.0113028,0.718166,0,0,0,0.7,0,0.56435,0,0,0,0,0,0,-0.69471,0.403589,0.571295,0.647978,-0.053172,0.717764,0.348253,1
1.53321,-0.849097,-1.53129,-0.772459,2.08737,1.23538,-0.907294,1.53321,-0.849097,-1.53129,-0.772459,2.08737,1.23538,-0.907294,1.60171,-0.885873,-1.58799,-0.836848,2.09553,1.1635,-0.941058,-1.73978,1.56555,1.32104,1.30161,0.889232,0.619312,0.217172,-1.73978,1.56555,1.32104,1.30161,0.889232,0.619312,0.217172,0.312682,-0.505201,0.938236,0.695679,-0.0118652,0.0113028,0.718166,0,0,0,0.7,0,0.56435,0,0,0,0,0,0,-0.685,0.367757,0.567038,0.643888,-0.0815971,0.7188,0.337642,1
1.53426,-0.853657,-1.5318,-0.772965,2.08493,1.2355,-0.908496,1.53426,-0.853657,-1.5318,-0.772965,2.08493,1.2355,-0.908496,1.60171,-0.885873,-1.58799,-0.836848,2.09553,1.1635,-0.941058,-1.73978,1.56555,1.32104,1.30161,0.889232,0.619312,0.217172,-1.73978,1.56555,1.32104,1.30161,0.889232,0.619312,0.217172,0.312682,-0.505201,0.938236,0.695679,-0.0118652,0.0113028,0.718166,0,0,0,0.7,0,0.56435,0,0,0,0,0,0,-0.67452,0.322155,0.56192,0.638828,-0.106016,0.720002,0.325625,1
1.53543,-0.858717,-1.53237,-0.773539,2.08235,1.23563,-0.909829,1.53543,-0.858717,-1.53237,-0.773539,2.08235,1.23563,-0.909829,1.60171,-0.885873,-1.58799,-0.836848,2.09553,1.1635,-0.941058,-1.73978,1.56555,1.32104,1.30161,0.889232,0.619312,0.217172,-1.73978,1.56555,1.32104,1.30161,0.889232,0.619312,0.217172,0.312682,-0.505201,0.938236,0.695679,-0.0118652,0.0113028,0.718166,0,0,0,0.7,0,0.56435,0,0,0,0,0,0,-0.662846,0.271559,0.556239,0.633086,-0.131788,0.721381,0.312297,1
1.53668,-0.864435,-1.533,-0.774208,2.07961,1.23576,-0.911269,1.53668,-0.864435,-1.533,-0.774208,2.07961,1.23576,-0.911269,1.60171,-0.885873,-1.58799,-0.836848,2.09553,1.1635,-0.941058,-1.73978,1.56555,1.32104,1.30161,0.889232,0.619312,0.217172,-1.73978,1.56555,1.32104,1.30161,0.889232,0.619312,0.217172,0.312682,-0.505201,0.938236,0.695679,-0.0118652,0.0113028,0.718166,0,0,0,0.7,0,0.56435,0,0,0,0,0,0,-0.650323,0.214372,0.549901,0.626397,-0.15923,0.722662,0.297896,1
1.53817,-0.871816,-1.53392,-0.774989,2.07734,1.23585,-0.912645,1.53817,-0.871816,-1.53392,-0.774989,2.07734,1.23585,-0.912645,1.60171,-0.885873,-1.58799,-0.836848,2.09553,1.1635,-0.941058,-1.73978,1.56555,1.32104,1.30161,0.889232,0.619312,0.217172,-1.73978,1.56555,1.32104,1.30161,0.889232,0.619312,0.217172,0.312682,-0.505201,0.938236,0.695679,-0.0118652,0.0113028,0.718166,0,0,0,0.7,0,0.56435,0,0,0,0,0,0,-0.635423,0.140568,0.540719,0.618588,-0.181851,0.723575,0.284132,1
1.54004,-0.882424,-1.5352,-0.775859,2.07561,1.23595,-0.913557,1.54004,-0.882424,-1.5352,-0.775859,2.07561,1.23595,-0.913557,1.60171,-0.885873,-1.58799,-0.836848,2.09553,1.1635,-0.941058,-1.73978,1.56555,1.32104,1.30161,0.889232,0.619312,0.217172,-1.73978,1.56555,1.32104,1.30161,0.889232,0.619312,0.217172,0.312682,-0.505201,0.938236,0.695679,-0.0118652,0.0113028,0.718166,0,0,0,0.7,0,0.56435,0,0,0,0,0,0,-0.616754,0.0344819,0.527884,0.609883,-0.199181,0.724555,0.275015,1
1.5422,-0.894252,-1.53646,-0.776739,2.07408,1.23601,-0.914563,1.5422,-0.894252,-1.53646,-0.776739,2.07408,1.23601,-0.914563,1.60171,-0.885873,-1.58799,-0.836848,2.09553,1.1635,-0.941058,-1.73978,1.56555,1.32104,1.30161,0.889232,0.619312,0.217172,-1.73978,1.56555,1.32104,1.30161,0.889232,0.619312,0.217172,0.312682,-0.505201,0.938236,0.695679,-0.0118652,0.0113028,0.718166,0,0,0,0.7,0,0.56435,0,0,0,0,0,0,-0.595097,-0.083798,0.515296,0.601088,-0.214455,0.725138,0.264955,1
1.54448,-0.903303,-1.53772,-0.777692,2.07284,1.23605,-0.915579,1.54448,-0.903303,-1.53772,-0.777692,2.07284,1.23605,-0.915579,1.60171,-0.885873,-1.58799,-0.836848,2.09553,1.1635,-0.941058,-1.73978,1.56555,1.32104,1.30161,0.889232,0.619312,0.217172,-1.73978,1.56555,1.32104,1.30161,0.889232,0.619312,0.217172,0.312682,-0.505201,0.938236,0.695679,-0.0118652,0.0113028,0.718166,0,0,0,0.7,0,0.56435,0,0,0,0,0,0,-0.572378,-0.174304,0.502736,0.59156,-0.226845,0.725506,0.254789,1
1.54707,-0.910765,-1.53907,-0.778726,2.07165,1.23608,-0.91666,1.54707,-0.910765,-1.53907,-0.778726,2.07165,1.23608,-0.91666,1.60171,-0.885873,-1.58799,-0.836848,2.09553,1.1635,-0.941058,-1.73978,1.56555,1.32104,1.30161,0.889232,0.619312,0.217172,-1.73978,1.56555,1.32104,1.30161,0.889232,0.619312,0.217172,0.312682,-0.505201,0.938236,0.695679,-0.0118652,0.0113028,0.718166,0,0,0,0.7,0,0.56435,0,0,0,0,0,0,-0.546405,-0.248923,0.489231,0.581216,-0.238828,0.725826,0.243982,1
1.55,-0.917252,-1.54057,-0.779785,2.07031,1.23612,-0.91756,1.55,-0.917252,-1.54057,-0.779785,2.07031,1.23612,-0.91756,1.60171,-0.885873,-1.58799,-0.836848,2.09553,1.1635,-0.941058,-1.73978,1.56555,1.32104,1.30161,0.889232,0.619312,0.217172,-1.73978,1.56555,1.32104,1.30161,0.889232,0.619312,0.217172,0.312682,-0.505201,0.938236,0.695679,-0.0118652,0.0113028,0.718166,0,0,0,0.7,0,0.56435,0,0,0,0,0,0,-0.517129,-0.313797,0.474181,0.570622,-0.252175,0.726221,0.234979,1
1.55346,-0.922727,-1.54216,-0.780985,2.06895,1.23615,-0.918545,1.55346,-0.922727,-1.54216,-0.780985,2.06895,1.23615,-0.918545,1.60171,-0.885873,-1.58799,-0.836848,2.09553,1.1635,-0.941058,-1.73978,1.56555,1.32104,1.30161,0.889232,0.619312,0.217172,-1.73978,1.56555,1.32104,1.30161,0.889232,0.619312,0.217172,0.312682,-0.505201,0.938236,0.695679,-0.0118652,0.0113028,0.718166,0,0,0,0.7,0,0.56435,0,0,0,0,0,0,-0.482527,-0.36854,0.458296,0.558627,-0.265738,0.726524,0.225133,1
1.55763,-0.927343,-1.54373,-0.782355,2.06762,1.23617,-0.919842,1.55763,-0.927343,-1.54373,-0.782355,2.06762,1.23617,-0.919842,1.60171,-0.885873,-1.58799,-0.836848,2.09553,1.1635,-0.941058,-1.73978,1.56555,1.32104,1.30161,0.889232,0.619312,0.217172,-1.73978,1.56555,1.32104,1.30161,0.889232,0.619312,0.217172,0.312682,-0.505201,0.938236,0.695679,-0.0118652,0.0113028,0.718166,0,0,0,0.7,0,0.56435,0,0,0,0,0,0,-0.440864,-0.414704,0.442592,0.544931,-0.279064,0.726753,0.212167,1
1.56247,-0.931264,-1.54534,-0.783822,2.06618,1.23617,-0.921439,1.56247,-0.931264,-1.54534,-0.783822,2.06618,1.23617,-0.921439,1.60171,-0.885873,-1.58799,-0.836848,2.09553,1.1635,-0.941058,-1.73978,1.56555,1.32104,1.30161,0.889232,0.619312,0.217172,-1.73978,1.56555,1.32104,1.30161,0.889232,0.619312,0.217172,0.312682,-0.505201,0.938236,0.695679,-0.0118652,0.0113028,0.718166,0,0,0,0.7,0,0.56435,0,0,0,0,0,0,-0.392388,-0.453915,0.426505,0.530252,-0.29344,0.726783,0.196193,1
1.56818,-0.93428,-1.54665,-0.785419,2.0653,1.23614,-0.922986,1.56818,-0.93428,-1.54665,-0.785419,2.0653,1.23614,-0.922986,1.60171,-0.885873,-1.58799,-0.836848,2.09553,1.1635,-0.941058,-1.73978,1.56555,1.32104,1.30161,0.889232,0.619312,0.217172,-1.73978,1.56555,1.32104,1.30161,0.889232,0.619312,0.217172,0.312682,-0.505201,0.938236,0.695679,-0.0118652,0.0113028,0.718166,0,0,0,0.7,0,0.56435,0,0,0,0,0,0,-0.335352,-0.484074,0.413347,0.514282,-0.302291,0.726485,0.180722,1
1.57532,-0.93669,-1.54791,-0.787545,2.06497,1.23601,-0.92433,1.57532,-0.93669,-1.54791,-0.787545,2.06497,1.23601,-0.92433,1.60171,-0.885873,-1.58799,-0.836848,2.09553,1.1635,-0.941058,-1.73978,1.56555,1.32104,1.30161,0.889232,0.619312,0.217172,-1.73978,1.56555,1.32104,1.30161,0.889232,0.619312,0.217172,0.312682,-0.505201,0.938236,0.695679,-0.0118652,0.0113028,0.718166,0,0,0,0.7,0,0.56435,0,0,0,0,0,0,-0.263948,-0.50817,0.400843,0.493026,-0.305595,0.72518,0.167278,1
1.58449,-0.938885,-1.54923,-0.790251,2.06461,1.23584,-0.925631,1.58449,-0.938885,-1.54923,-0.790251,2.06461,1.23584,-0.925631,1.60171,-0.885873,-1.58799,-0.836848,2.09553,1.1635,-0.941058,-1.73978,1.56555,1.32104,1.30161,0.889232,0.619312,0.217172,-1.73978,1.56555,1.32104,1.30161,0.889232,0.619312,0.217172,0.312682,-0.505201,0.938236,0.695679,-0.0118652,0.0113028,0.718166,0,0,0,0.7,0,0.56435,0,0,0,0,0,0,-0.172266,-0.530129,0.387575,0.465967,-0.309153,0.72339,0.154274,1
1.59619,-0.940901,-1.55071,-0.793273,2.0641,1.23566,-0.926995,1.59619,-0.940901,-1.55071,-0.793273,2.0641,1.23566,-0.926995,1.60171,-0.885873,-1.58799,-0.836848,2.09553,1.1635,-0.941058,-1.73978,1.56555,1.32104,1.30161,0.889232,0.619312,0.217172,-1.73978,1.56555,1.32104,1.30161,0.889232,0.619312,0.217172,0.312682,-0.505201,0.938236,0.695679,-0.0118652,0.0113028,0.718166,0,0,0,0.7,0,0.56435,0,0,0,0,0,0,-0.055189,-0.550281,0.372828,0.435748,-0.314305,0.721614,0.140636,1
1.60846,-0.942825,-1.55251,-0.796076,2.06319,1.23549,-0.928006,1.60846,-0.942825,-1.55251,-0.796076,2.06319,1.23549,-0.928006,1.60171,-0.885873,-1.58799,-0.836848,2.09553,1.1635,-0.941058,-1.73978,1.56555,1.32104,1.30161,0.889232,0.619312,0.217172,-1.73978,1.56555,1.32104,1.30161,0.889232,0.619312,0.217172,0.312682,-0.505201,0.938236,0.695679,-0.0118652,0.0113028,0.718166,0,0,0,0.7,0,0.56435,0,0,0,0,0,0,0.0675116,-0.569523,0.354788,0.407712,-0.323341,0.719924,0.130525,1
1.61724,-0.944642,-1.55478,-0.798715,2.06216,1.23527,-0.927297,1.61724,-0.944642,-1.55478,-0.798715,2.06216,1.23527,-0.927297,1.60171,-0.885873,-1.58799,-0.836848,2.09553,1.1635,-0.941058,-1.73978,1.56555,1.32104,1.30161,0.889232,0.619312,0.217172,-1.73978,1.56555,1.32104,1.30161,0.889232,0.619312,0.217172,0.312682,-0.505201,0.938236,0.695679,-0.0118652,0.0113028,0.718166,0,0,0,0.7,0,0.56435,0,0,0,0,0,0,0.155247,-0.58769,0.332048,0.381331,-0.333664,0.717714,0.137615,1
1.62384,-0.946238,-1.55736,-0.801174,2.06096,1.23505,-0.926477,1.62384,-0.946238,-1.55736,-0.801174,2.06096,1.23505,-0.926477,1.60171,-0.885873,-1.58799,-0.836848,2.09553,1.1635,-0.941058,-1.73978,1.56555,1.32104,1.30161,0.889232,0.619312,0.217172,-1.73978,1.56555,1.32104,1.30161,0.889232,0.619312,0.217172,0.312682,-0.505201,0.938236,0.695679,-0.0118652,0.0113028,0.718166,0,0,0,0.7,0,0.56435,0,0,0,0,0,0,0.221229,-0.603652,0.306295,0.356738,-0.345703,0.715577,0.145816,1
1.62898,-0.947768,-1.56079,-0.803637,2.05953,1.23484,-0.925378,1.62898,-0.947768,-1.56079,-0.803637,2.05953,1.23484,-0.925378,1.60171,-0.885873,-1.58799,-0.836848,2.09553,1.1635,-0.941058,-1.73978,1.56555,1.32104,1.30161,0.889232,0.619312,0.217172,-1.73978,1.56555,1.32104,1.30161,0.889232,0.619312,0.217172,0.312682,-0.505201,0.938236,0.695679,-0.0118652,0.0113028,0.718166,0,0,0,0.7,0,0.56435,0,0,0,0,0,0,0.272716,-0.61895,0.271993,0.33211,-0.359973,0.713419,0.156807,1
1.63195,-0.949183,-1.56457,-0.80621,2.0582,1.2344,-0.924434,1.63195,-0.949183,-1.56457,-0.80621,2.0582,1.2344,-0.924434,1.60171,-0.885873,-1.58799,-0.836848,2.09553,1.1635,-0.941058,-1.73978,1.56555,1.32104,1.30161,0.889232,0.619312,0.217172,-1.73978,1.56555,1.32104,1.30161,0.889232,0.619312,0.217172,0.312682,-0.505201,0.938236,0.695679,-0.0118652,0.0113028,0.718166,0,0,0,0.07423,-0.355236,0.995941,-168.02,-95.3813,115.883,-168.02,-95.3813,115.883,0.302403,-0.633107,0.234212,0.306379,-0.373256,0.709,0.166246,1
1.63428,-0.950587,-1.56919,-0.809197,2.05698,1.23384,-0.923608,1.63428,-0.950587,-1.56919,-0.809197,2.05698,1.23384,-0.923608,1.60171,-0.885873,-1.58799,-0.836848,2.09553,1.1635,-0.941058,-1.73978,1.56555,1.32104,1.30161,0.889232,0.619312,0.217172,-1.73978,1.56555,1.32104,1.30161,0.889232,0.619312,0.217172,0.312682,-0.505201,0.938236,0.695679,-0.0118652,0.0113028,0.718166,0,0,0,0.07423,-0.355236,0.995941,0,0,0,0,0,0,0.325695,-0.647144,0.188021,0.276506,-0.385524,0.703478,0.174503,1
1.63631,-0.951893,-1.5736,-0.812752,2.05603,1.23323,-0.922753,1.63631,-0.951893,-1.5736,-0.812752,2.05603,1.23323,-0.922753,1.60171,-0.885873,-1.58799,-0.836848,2.09553,1.1635,-0.941058,-1.73978,1.56555,1.32104,1.30161,0.889232,0.619312,0.217172,-1.73978,1.56555,1.32104,1.30161,0.889232,0.619312,0.217172,0.312682,-0.505201,0.938236,0.695679,-0.0118652,0.0113028,0.718166,0,0,0,0.07423,-0.355236,0.995941,0,0,0,0,0,0,0.345969,-0.660208,0.143847,0.240957,-0.395015,0.697369,0.183055,1
1.6378,-0.953094,-1.57628,-0.817957,2.05527,1.23267,-0.92179,1.6378,-0.953094,-1.57628,-0.817957,2.05527,1.23267,-0.92179,1.60171,-0.885873,-1.58799,-0.836848,2.09553,1.1635,-0.941058,-1.73978,1.56555,1.32104,1.30161,0.889232,0.619312,0.217172,-1.73978,1.56555,1.32104,1.30161,0.889232,0.619312,0.217172,0.312682,-0.505201,0.938236,0.695679,-0.0118652,0.0113028,0.718166,0,0,0,0.07423,-0.355236,0.995941,0,0,0,0,0,0,0.360845,-0.672214,0.117089,0.188904,-0.402622,0.69175,0.192681,1
1.63868,-0.954136,-1.57791,-0.826156,2.05447,1.23211,-0.920856,1.63868,-0.954136,-1.57791,-0.826156,2.05447,1.23211,-0.920856,1.60171,-0.885873,-1.58799,-0.836848,2.09553,1.1635,-0.941058,-1.73978,1.56555,1.32104,1.30161,0.889232,0.619312,0.217172,-1.73978,1.56555,1.32104,1.30161,0.889232,0.619312,0.217172,0.312682,-0.505201,0.938236,0.695679,-0.0118652,0.0113028,0.718166,0,0,0,0.07423,-0.355236,0.995941,0,0,0,0,0,0,0.369679,-0.682631,0.100837,0.106913,-0.410562,0.686177,0.202025,1
1.63982,-0.955218,-1.58014,-0.836963,2.05365,1.23154,-0.919317,1.63982,-0.955218,-1.58014,-0.836963,2.05365,1.23154,-0.919317,1.60171,-0.885873,-1.58799,-0.836848,2.09553,1.1635,-0.941058,-1.73978,1.56555,1.32104,1.30161,0.889232,0.619312,0.217172,-1.73978,1.56555,1.32104,1.30161,0.889232,0.619312,0.217172,0.312682,-0.505201,0.938236,0.695679,-0.0118652,0.0113028,0.718166,0,0,0,0.07423,-0.355236,0.995941,0,0,0,0,0,0,0.381081,-0.693451,0.0784548,-0.0011518,-0.418795,0.68043,0.21741,1
1.64053,-0.956287,-1.58272,-0.846609,2.05299,1.23093,-0.917172,1.64053,-0.956287,-1.58272,-0.846609,2.05299,1.23093,-0.917172,1.60171,-0.885873,-1.58799,-0.836848,2.09553,1.1635,-0.941058,-1.73978,1.56555,1.32104,1.30161,0.889232,0.619312,0.217172,-1.73978,1.56555,1.32104,1.30161,0.889232,0.619312,0.217172,0.312682,-0.505201,0.938236,0.695679,-0.0118652,0.0113028,0.718166,0,0,0,0.07423,-0.355236,0.995941,0,0,0,0,0,0,0.388177,-0.70414,0.0527138,-0.097618,-0.42536,0.674375,0.238859,1
1.64055,-0.957302,-1.58965,-0.853728,2.05218,1.23025,-0.916333,1.64055,-0.957302,-1.58965,-0.853728,2.05218,1.23025,-0.916333,1.60171,-0.885873,-1.58799,-0.836848,2.09553,1.1635,-0.941058,-1.73978,1.56555,1.32104,1.30161,0.889232,0.619312,0.217172,-1.73978,1.56555,1.32104,1.30161,0.889232,0.619312,0.217172,0.312682,-0.505201,0.938236,0.695679,-0.0118652,0.0113028,0.718166,0,0,0,0.07423,-0.355236,0.995941,0,0,0,0,0,0,0.388358,-0.714292,-0.0166083,-0.168801,-0.43345,0.667514,0.247249,1
1.63929,-0.958235,-1.60146,-0.861173,2.05157,1.22963,-0.916071,1.63929,-0.958235,-1.60146,-0.861173,2.05157,1.22963,-0.916071,1.60171,-0.885873,-1.58799,-0.836848,2.09553,1.1635,-0.941058,-1.73978,1.56555,1.32104,1.30161,0.889232,0.619312,0.217172,-1.73978,1.56555,1.32104,1.30161,0.889232,0.619312,0.217172,0.312682,-0.505201,0.938236,0.695679,-0.0118652,0.0113028,0.718166,0,0,0,0.07423,-0.355236,0.995941,0,0,0,0,0,0,0.375733,-0.72362,-0.134751,-0.243257,-0.439564,0.66132,0.24987,1
1.63799,-0.95907,-1.6115,-0.867027,2.05076,1.22901,-0.915877,1.63799,-0.95907,-1.6115,-0.867027,2.05076,1.22901,-0.915877,1.60171,-0.885873,-1.58799,-0.836848,2.09553,1.1635,-0.941058,-1.73978,1.56555,1.32104,1.30161,0.889232,0.619312,0.217172,-1.73978,1.56555,1.32104,1.30161,0.889232,0.619312,0.217172,0.312682,-0.505201,0.938236,0.695679,-0.0118652,0.0113028,0.718166,0,0,0,0.07423,-0.355236,0.995941,0,0,0,0,0,0,0.362815,-0.731972,-0.235108,-0.301794,-0.447648,0.655158,0.251815,1
1.63637,-0.959866,-1.61948,-0.871943,2.05038,1.22824,-0.916262,1.63637,-0.959866,-1.61948,-0.871943,2.05038,1.22824,-0.916262,1.60171,-0.885873,-1.58799,-0.836848,2.09553,1.1635,-0.941058,-1.73978,1.56555,1.32104,1.30161,0.889232,0.619312,0.217172,-1.73978,1.56555,1.32104,1.30161,0.889232,0.619312,0.217172,0.312682,-0.505201,0.938236,0.695679,-0.0118652,0.0113028,0.718166,0,0,0,0.07423,-0.355236,0.995941,0,0,0,0,0,0,0.346602,-0.739932,-0.314949,-0.35095,-0.45146,0.647393,0.247967,1
1.6345,-0.960594,-1.62621,-0.876557,2.05013,1.22726,-0.916642,1.6345,-0.960594,-1.62621,-0.876557,2.05013,1.22726,-0.916642,1.60171,-0.885873,-1.58799,-0.836848,2.09553,1.1635,-0.941058,-1.73978,1.56555,1.32104,1.30161,0.889232,0.619312,0.217172,-1.73978,1.56555,1.32104,1.30161,0.889232,0.619312,0.217172,0.312682,-0.505201,0.938236,0.695679,-0.0118652,0.0113028,0.718166,0,0,0,0.07423,-0.355236,0.995941,0,0,0,0,0,0,0.327912,-0.747218,-0.382237,-0.397096,-0.453946,0.637661,0.244163,1
1.63258,-0.961262,-1.63155,-0.880696,2.05012,1.22627,-0.91723,1.63258,-0.961262,-1.63155,-0.880696,2.05012,1.22627,-0.91723,1.60171,-0.885873,-1.58799,-0.836848,2.09553,1.1635,-0.941058,-1.73978,1.56555,1.32104,1.30161,0.889232,0.619312,0.217172,-1.73978,1.56555,1.32104,1.30161,0.889232,0.619312,0.217172,0.312682,-0.505201,0.938236,0.695679,-0.0118652,0.0113028,0.718166,0,0,0,0.07423,-0.355236,0.995941,0,0,0,0,0,0,0.308683,-0.753893,-0.435599,-0.438484,-0.454057,0.627728,0.238282,1
1.62952,-0.961888,-1.6352,-0.884626,2.04988,1.22544,-0.9183,1.62952,-0.961888,-1.6352,-0.884626,2.04988,1.22544,-0.9183,1.60171,-0.885873,-1.58799,-0.836848,2.09553,1.1635,-0.941058,-1.73978,1.56555,1.32104,1.30161,0.889232,0.619312,0.217172,-1.73978,1.56555,1.32104,1.30161,0.889232,0.619312,0.217172,0.312682,-0.505201,0.938236,0.695679,-0.0118652,0.0113028,0.718166,0,0,0,0.07423,-0.355236,0.995941,0,0,0,0,0,0,0.278083,-0.760152,-0.472151,-0.477787,-0.456515,0.619479,0.227586,1
1.62578,-0.96255,-1.63859,-0.888116,2.05025,1.22496,-0.919748,1.62578,-0.96255,-1.63859,-0.888116,2.05025,1.22496,-0.919748,1.60171,-0.885873,-1.58799,-0.836848,2.09553,1.1635,-0.941058,-1.73978,1.56555,1.32104,1.30161,0.889232,0.619312,0.217172,-1.73978,1.56555,1.32104,1.30161,0.889232,0.619312,0.217172,0.312682,-0.505201,0.938236,0.695679,-0.0118652,0.0113028,0.718166,0,0,0,0.07423,-0.355236,0.995941,0,0,0,0,0,0,0.2407,-0.766777,-0.506014,-0.512684,-0.45279,0.614648,0.213106,1
1.61945,-0.963214,-1.64104,-0.890961,2.05085,1.22482,-0.921521,1.61945,-0.963214,-1.64104,-0.890961,2.05085,1.22482,-0.921521,1.60171,-0.885873,-1.58799,-0.836848,2.09553,1.1635,-0.941058,-1.73978,1.56555,1.32104,1.30161,0.889232,0.619312,0.217172,-1.73978,1.56555,1.32104,1.30161,0.889232,0.619312,0.217172,0.312682,-0.505201,0.938236,0.695679,-0.0118652,0.0113028,0.718166,0,0,0,0.07423,-0.355236,0.995941,0,0,0,0,0,0,0.177351,-0.773413,-0.53049,-0.541135,-0.446828,0.613218,0.195372,1
1.61106,-0.963829,-1.64291,-0.893258,2.05126,1.22482,-0.923067,1.61106,-0.963829,-1.64291,-0.893258,2.05126,1.22482,-0.923067,1.60171,-0.885873,-1.58799,-0.836848,2.09553,1.1635,-0.941058,-1.73978,1.56555,1.32104,1.30161,0.889232,0.619312,0.217172,-1.73978,1.56555,1.32104,1.30161,0.889232,0.619312,0.217172,0.312682,-0.505201,0.938236,0.695679,-0.0118652,0.0113028,0.718166,0,0,0,0.07423,-0.355236,0.995941,0,0,0,0,0,0,0.093514,-0.779563,-0.549226,-0.5641,-0.442689,0.613275,0.179915,1
1.60069,-0.964358,-1.64459,-0.895211,2.05245,1.2245,-0.922776,1.60069,-0.964358,-1.64459,-0.895211,2.05245,1.2245,-0.922776,1.60171,-0.885873,-1.58799,-0.836848,2.09553,1.1635,-0.941058,-1.73978,1.56555,1.32104,1.30161,0.889232,0.619312,0.217172,-1.73978,1.56555,1.32104,1.30161,0.889232,0.619312,0.217172,0.312682,-0.505201,0.938236,0.695679,-0.0118652,0.0113028,0.718166,0,0,0,0.07423,-0.355236,0.995941,0,0,0,0,0,0,-0.0102038,-0.784854,-0.566031,-0.583629,-0.430747,0.61008,0.182824,1
1.59318,-0.964706,-1.6462,-0.897124,2.05366,1.22399,-0.922551,1.59318,-0.964706,-1.6462,-0.897124,2.05366,1.22399,-0.922551,1.60171,-0.885873,-1.58799,-0.836848,2.09553,1.1635,-0.941058,-1.73978,1.56555,1.32104,1.30161,0.889232,0.619312,0.217172,-1.73978,1.56555,1.32104,1.30161,0.889232,0.619312,0.217172,0.312682,-0.505201,0.938236,0.695679,-0.0118652,0.0113028,0.718166,0,0,0,0.07423,-0.355236,0.995941,0,0,0,0,0,0,-0.0853474,-0.78833,-0.582154,-0.602761,-0.418638,0.604925,0.185068,1
