Afshin1997/kuka_rl_ros2/src/catch_and_throw/output_files/tm/nn_ema7.00_jvws3_realball_D22H08M58S34/recorded_data.csv
pure_target_joint_0,pure_target_joint_1,pure_target_joint_2,pure_target_joint_3,pure_target_joint_4,pure_target_joint_5,pure_target_joint_6,target_joint_0,target_joint_1,target_joint_2,target_joint_3,target_joint_4,target_joint_5,target_joint_6,pos_joint_0,pos_joint_1,pos_joint_2,pos_joint_3,pos_joint_4,pos_joint_5,pos_joint_6,vel_joint_0,vel_joint_1,vel_joint_2,vel_joint_3,vel_joint_4,vel_joint_5,vel_joint_6,vel_smooth_joint_0,vel_smooth_joint_1,vel_smooth_joint_2,vel_smooth_joint_3,vel_smooth_joint_4,vel_smooth_joint_5,vel_smooth_joint_6,ee_pos_x,ee_pos_y,ee_pos_z,ee_or_w,ee_or_x,ee_or_y,ee_or_z,ee_vel_x,ee_vel_y,ee_vel_z,ball_pos_x,ball_pos_y,ball_pos_z,ball_raw_vx,ball_raw_vy,ball_raw_vz,ball_ema_vx,ball_ema_vy,ball_ema_vz,action_0,action_1,action_2,action_3,action_4,action_5,action_6,command_published
1.79576,-1.05734,-1.84511,-1.06887,1.95703,1.18457,-0.852942,1.7821,-1.07526,-1.82293,-1.11883,1.93847,1.12098,-0.912378,1.7812,-1.07624,-1.82131,-1.12214,1.93723,1.11672,-0.91634,2.39771e-05,0,0,-1.19776e-05,0,-4.79323e-05,-3.59547e-05,7.99235e-06,3.99981e-06,0,3.99254e-06,-6.3997e-06,-3.59547e-05,-3.99254e-06,0.533753,-0.457185,0.68425,0.571872,0.182241,0.151506,0.785364,-7.64002e-07,3.57737e-06,6.65513e-06,2.99472,-0.508188,0.380583,-3.50439,-0.0749123,5.08801,-3.49148,-0.0581022,5.20662,0.145575,0.188982,-0.238043,0.532713,0.197989,0.678499,0.633979,1
1.74751,-1.04949,-1.8509,-1.06156,1.93835,1.18399,-0.853105,1.78273,-1.06999,-1.82921,-1.10505,1.94225,1.1379,-0.896539,1.7812,-1.07624,-1.82131,-1.12214,1.93723,1.11672,-0.91634,1.19776e-05,-3.59547e-05,-4.79323e-05,-4.79541e-05,3.83284e-05,-2.39771e-05,0,1.19849e-05,-3.99254e-06,-1.59774e-05,-1.19922e-05,6.37643e-06,-3.59547e-05,-3.99254e-06,0.533753,-0.457185,0.68425,0.571872,0.182242,0.151506,0.785364,-5.56343e-07,-1.2185e-05,4.17227e-06,2.96002,-0.509631,0.430653,-3.30996,-0.137597,4.7749,-3.48788,-0.0629187,5.0777,-0.336911,0.26749,-0.295931,0.605854,0.0111551,0.672694,0.632355,1
1.76967,-1.04448,-1.83783,-1.06623,1.92449,1.18434,-0.856242,1.77751,-1.06055,-1.83871,-1.08353,1.94414,1.16321,-0.873001,1.7813,-1.07636,-1.82176,-1.12249,1.93726,1.11677,-0.916286,0.0172098,-0.0200741,-0.072806,-0.0505867,0.00557999,0.00997112,0.0107261,0.00574857,-0.00670334,-0.0242846,-0.0168822,0.00187277,0.00329974,0.0035634,0.533786,-0.457165,0.684179,0.571837,0.182295,0.15154,0.78537,0.00576117,0.0038722,-0.013522,2.9257,-0.510242,0.480833,-3.48723,-0.0621344,5.09987,-3.47048,-0.0652028,4.96823,-0.116366,0.318856,-0.160772,0.562594,-0.127703,0.675783,0.600446,1
1.81369,-1.05217,-1.8224,-1.06878,1.94449,1.18372,-0.853729,1.77135,-1.05205,-1.84256,-1.06879,1.93987,1.18,-0.85784,1.78148,-1.07655,-1.82267,-1.12233,1.93748,1.11724,-0.915805,0.0121403,-0.0197265,-0.101844,0.0342637,0.0286861,0.0670774,0.068875,0.00978736,-0.0132789,-0.0582328,-0.00545697,0.0114348,0.0256748,0.0265337,0.533968,-0.457171,0.683741,0.571665,0.182581,0.15166,0.785406,0.0123702,-0.00779564,-0.036679,2.89089,-0.511096,0.529669,-3.43038,-0.0841249,4.81261,-3.46892,-0.0736462,4.87077,0.322058,0.243812,0.00272282,0.535439,0.0700946,0.66477,0.62076,1
1.77491,-1.03608,-1.8452,-1.06076,1.91832,1.19004,-0.847338,1.77709,-1.04793,-1.83816,-1.06552,1.9346,1.18447,-0.854067,1.78148,-1.07692,-1.82486,-1.12047,1.9383,1.12035,-0.912663,0.00608814,-0.0329215,-0.237593,0.238648,0.0938819,0.406982,0.400283,0.0118127,-0.0242407,-0.137415,0.0741083,0.042716,0.161344,0.159961,0.533753,-0.457844,0.683326,0.571575,0.182561,0.151289,0.785548,-0.0372924,-0.0990445,-0.0499726,2.85615,-0.511653,0.577143,-3.49151,-0.0559785,4.77066,-3.47858,-0.0815596,4.76631,-0.0657534,0.408342,-0.203454,0.597099,-0.19977,0.696925,0.653251,1
1.75122,-1.0175,-1.81209,-1.05451,1.94801,1.19033,-0.840723,1.78495,-1.04389,-1.83309,-1.0648,1.93279,1.18588,-0.851908,1.78175,-1.07707,-1.82836,-1.11541,1.9393,1.12832,-0.904734,0.0388059,-0.0112535,-0.384811,0.580986,0.0877075,0.925385,0.920267,0.0190115,-0.0213005,-0.241416,0.284632,0.0700919,0.466482,0.463142,0.532642,-0.459466,0.683382,0.571155,0.181001,0.149743,0.78651,-0.119696,-0.193471,0.0161476,2.82195,-0.512415,0.624143,-3.42385,-0.0762742,4.70532,-3.46699,-0.0833728,4.66766,-0.305378,0.595701,0.162682,0.608958,0.0871295,0.620034,0.640105,1
1.7484,-1.00987,-1.80345,-1.04809,1.95171,1.20483,-0.829491,1.7767,-1.03434,-1.82815,-1.06075,1.93476,1.1891,-0.846723,1.78296,-1.07705,-1.83261,-1.10769,1.93937,1.14037,-0.892579,0.149044,0.00378693,-0.429409,0.818983,-0.0155887,1.26161,1.27776,0.0646461,-0.0134627,-0.350604,0.546206,0.0553336,0.864659,0.866105,0.529486,-0.462853,0.684875,0.569322,0.174504,0.145958,0.790011,-0.177317,-0.232935,0.108891,2.78797,-0.513911,0.669534,-3.45054,-0.151883,4.60967,-3.44981,-0.0862347,4.57194,-0.345667,0.671798,0.291564,0.596012,0.123389,0.644605,0.630879,1
1.74635,-1.00954,-1.79749,-1.04158,1.97588,1.21608,-0.81895,1.76003,-1.02191,-1.81794,-1.05455,1.94304,1.19508,-0.839021,1.78507,-1.07698,-1.83695,-1.09952,1.93868,1.15154,-0.88193,0.223956,0.0142729,-0.420169,0.802098,-0.0909822,1.05111,0.971898,0.137269,0.00226878,-0.411463,0.734022,-0.00628779,1.07937,1.05664,0.527754,-0.464698,0.686067,0.568332,0.169651,0.144099,0.792119,-0.117652,-0.181947,0.101362,2.75343,-0.514848,0.715006,-3.5699,-0.0968859,4.69948,-3.44346,-0.0868078,4.48192,-0.387189,0.674397,0.39462,0.579377,0.371951,0.645317,0.629804,1
1.74908,-1.00853,-1.80172,-1.03346,1.97028,1.22829,-0.812888,1.75029,-1.01325,-1.80662,-1.04794,1.9559,1.20456,-0.829742,1.78695,-1.07616,-1.83946,-1.09281,1.93718,1.16178,-0.872417,0.156055,0.0991312,-0.208772,0.626197,-0.160278,1.03102,0.984374,0.176352,0.0390637,-0.352784,0.749093,-0.0889497,1.11458,1.07801,0.526146,-0.465441,0.687897,0.567116,0.164429,0.142859,0.794314,-0.131901,-0.081804,0.178057,2.71874,-0.515184,0.758767,-3.52983,-0.0341483,4.45312,-3.44283,-0.0878045,4.38167,-0.37875,0.676202,0.377411,0.593546,0.331039,0.665055,0.59529,1
1.76058,-1.00692,-1.79538,-1.03087,1.97808,1.23774,-0.80255,1.74874,-1.0097,-1.80082,-1.04131,1.96684,1.21606,-0.820406,1.78713,-1.07512,-1.84044,-1.08678,1.93584,1.1718,-0.86205,-0.02386,0.106286,-0.0577986,0.6241,-0.113685,0.969969,1.03326,0.118717,0.0732299,-0.228913,0.684132,-0.121648,1.01737,0.996509,0.523739,-0.466497,0.690213,0.565727,0.159041,0.141184,0.796697,-0.219458,-0.148015,0.230805,2.68362,-0.516625,0.802081,-3.45026,-0.141631,4.2554,-3.44695,-0.0931489,4.29052,-0.265516,0.682037,0.450584,0.559103,0.422475,0.659321,0.595,1
1.75704,-1.00529,-1.79767,-1.02295,1.97431,1.24689,-0.795001,1.75172,-1.00826,-1.79893,-1.0351,1.97272,1.22729,-0.811738,1.78672,-1.07409,-1.83954,-1.0801,1.93578,1.18059,-0.852466,-0.039583,0.101061,0.135994,0.687711,0.0321745,0.840698,0.927941,0.0308707,0.102159,-0.0435257,0.646003,-0.0805961,0.947227,0.981857,0.52233,-0.467212,0.691664,0.565184,0.156335,0.139978,0.79783,-0.234353,-0.156647,0.268778,2.65019,-0.517048,0.843478,-3.31451,-0.0418713,4.10343,-3.44205,-0.0924179,4.19326,-0.296815,0.688007,0.418706,0.571489,0.38525,0.663005,0.574656,1
1.76474,-1.00278,-1.79155,-1.01725,1.98128,1.25383,-0.78786,1.75619,-1.00682,-1.79743,-1.02935,1.97525,1.23731,-0.803354,1.78609,-1.07307,-1.83733,-1.07266,1.9371,1.18767,-0.844222,-0.0720355,0.105507,0.249422,0.76285,0.180699,0.666224,0.795674,-0.0451595,0.104284,0.109206,0.691554,0.0330629,0.82563,0.918957,0.519394,-0.468868,0.695052,0.564456,0.151052,0.136925,0.79989,-0.248756,-0.182835,0.328114,2.615,-0.518084,0.883856,-3.60646,-0.106196,4.13853,-3.45083,-0.0894917,4.08608,-0.213487,0.702933,0.45784,0.554018,0.441764,0.661584,0.563621,1
1.76707,-1.00061,-1.79114,-1.00995,1.98232,1.26101,-0.780912,1.75998,-1.00498,-1.79541,-1.02335,1.97725,1.24606,-0.79534,1.78508,-1.07171,-1.83357,-1.06493,1.94139,1.194,-0.836297,-0.111499,0.147846,0.413914,0.764612,0.514217,0.628846,0.799234,-0.0743724,0.118138,0.266443,0.738391,0.242363,0.711923,0.84095,0.516118,-0.471009,0.699098,0.564177,0.146039,0.132772,0.801716,-0.286458,-0.217324,0.404415,2.58071,-0.518711,0.92433,-3.23137,-0.0591006,3.81476,-3.45426,-0.0811994,3.98856,-0.180117,0.710989,0.424342,0.549823,0.40932,0.670172,0.553851,1
1.77108,-0.997555,-1.78195,-1.00377,1.99465,1.26548,-0.7713,1.76353,-1.0028,-1.79262,-1.01686,1.98043,1.25361,-0.787791,1.78347,-1.06994,-1.82869,-1.05738,1.94886,1.20092,-0.827982,-0.17946,0.185164,0.50891,0.744167,0.810767,0.71676,0.84252,-0.120998,0.146172,0.390749,0.75721,0.501894,0.67061,0.812476,0.510053,-0.474726,0.706583,0.563141,0.138055,0.123184,0.805381,-0.370215,-0.242267,0.495724,2.54551,-0.519477,0.962925,-3.48809,-0.0758655,3.82414,-3.45871,-0.0799933,3.88092,-0.123813,0.723896,0.467452,0.536078,0.457828,0.645613,0.566815,1
1.7636,-0.993941,-1.77769,-0.995668,1.99942,1.27227,-0.762256,1.76665,-1.00026,-1.78851,-1.01015,1.98571,1.26015,-0.779961,1.78146,-1.0675,-1.82339,-1.05031,1.95781,1.20895,-0.819323,-0.204458,0.267817,0.531548,0.692493,0.905603,0.826473,0.873079,-0.165139,0.200276,0.484791,0.733757,0.743529,0.724026,0.838277,0.507725,-0.475982,0.709332,0.562636,0.135076,0.119441,0.806802,-0.39059,-0.231177,0.518377,2.50972,-0.519827,0.999339,-3.70425,-0.0362608,3.76876,-3.47416,-0.0760547,3.76521,-0.178609,0.735629,0.45702,0.546448,0.416088,0.633129,0.57067,1
1.757,-0.990113,-1.77189,-0.988631,2.0122,1.27986,-0.754599,1.76693,-0.997277,-1.78315,-1.00319,1.99302,1.26623,-0.771433,1.77929,-1.06387,-1.81828,-1.04369,1.96639,1.2178,-0.810512,-0.219498,0.396908,0.502379,0.655378,0.833278,0.900582,0.882091,-0.201139,0.283297,0.514279,0.697346,0.849883,0.814605,0.865896,0.502873,-0.478085,0.715165,0.561465,0.128557,0.112185,0.809719,-0.412583,-0.180392,0.564877,2.47767,-0.520782,1.03611,-3.08082,-0.0917889,3.53465,-3.45816,-0.0693594,3.65317,-0.222907,0.737517,0.463921,0.550609,0.458157,0.620585,0.559127,1
1.74758,-0.98514,-1.76917,-0.98278,2.01704,1.28949,-0.745919,1.76304,-0.993754,-1.77761,-0.996021,2.00145,1.27284,-0.762748,1.77698,-1.05899,-1.81353,-1.03749,1.97364,1.22724,-0.801724,-0.233172,0.516856,0.466116,0.61063,0.686805,0.956811,0.876698,-0.219043,0.39386,0.500014,0.652834,0.808562,0.894622,0.877289,0.497851,-0.479479,0.72147,0.560324,0.121231,0.105946,0.812475,-0.425463,-0.116952,0.611226,2.44254,-0.521353,1.07117,-3.70914,-0.0602936,3.70152,-3.45928,-0.0693841,3.545,-0.294033,0.73851,0.443669,0.547115,0.43399,0.622542,0.558049,1
1.74068,-0.979539,-1.76588,-0.975715,2.02426,1.2987,-0.738514,1.75615,-0.989631,-1.77291,-0.989066,2.00987,1.28065,-0.754382,1.77455,-1.05317,-1.80887,-1.03147,1.97966,1.23686,-0.793106,-0.249961,0.596957,0.46729,0.603572,0.578182,0.959076,0.856469,-0.23421,0.503574,0.478595,0.623193,0.699422,0.938823,0.871753,0.492744,-0.48012,0.72817,0.559269,0.113192,0.100937,0.814996,-0.433894,-0.055162,0.654644,2.40893,-0.52197,1.10581,-3.24915,-0.0596773,3.34885,-3.43715,-0.0651721,3.43833,-0.338713,0.73631,0.429947,0.55751,0.445975,0.618358,0.545916,1
1.73221,-0.973223,-1.76342,-0.968671,2.02961,1.30758,-0.729721,1.74825,-0.984788,-1.7692,-0.9824,2.01732,1.28944,-0.746247,1.77177,-1.04705,-1.80414,-1.02514,1.98515,1.24626,-0.784602,-0.286201,0.615424,0.475595,0.643862,0.543707,0.929919,0.848524,-0.256445,0.576412,0.469667,0.619355,0.602898,0.948602,0.860564,0.487462,-0.480456,0.735155,0.558415,0.104773,0.096632,0.817226,-0.45683,-0.0467004,0.678232,2.37516,-0.521468,1.13823,-3.42694,0.0509879,3.29069,-3.41786,-0.0527995,3.31898,-0.395637,0.73823,0.407172,0.56471,0.444508,0.61318,0.548805,1
1.72441,-0.966529,-1.75997,-0.961473,2.03626,1.31536,-0.721637,1.74029,-0.979208,-1.76609,-0.975637,2.02379,1.29848,-0.738118,1.76886,-1.04087,-1.79924,-1.01827,1.99076,1.25524,-0.776153,-0.290421,0.622596,0.490467,0.695438,0.567088,0.884134,0.843495,-0.275528,0.611659,0.477784,0.647624,0.562993,0.924376,0.849496,0.481919,-0.480943,0.742268,0.557804,0.0962693,0.0924593,0.819169,-0.481327,-0.0658169,0.691502,2.34126,-0.522185,1.17025,-3.48259,-0.073654,3.28798,-3.39506,-0.0449815,3.21233,-0.444489,0.74344,0.39271,0.568007,0.454926,0.601252,0.545153,1
1.71863,-0.959692,-1.75694,-0.953961,2.04259,1.32298,-0.713736,1.73249,-0.973028,-1.76313,-0.968595,2.02996,1.30714,-0.729912,1.76639,-1.03451,-1.79419,-1.01107,1.99687,1.26372,-0.767714,-0.226531,0.638715,0.51555,0.726669,0.624422,0.842068,0.844897,-0.267718,0.625578,0.493871,0.688656,0.578406,0.885374,0.845638,0.476308,-0.481428,0.749519,0.557208,0.0877898,0.0882356,0.820991,-0.479078,-0.0542833,0.7078,2.30723,-0.522225,1.20223,-3.29348,-0.00389405,3.09543,-3.38456,-0.0361272,3.12142,-0.477606,0.748207,0.372462,0.571123,0.457183,0.592621,0.539774,1
1.71586,-0.953268,-1.75294,-0.945472,2.05082,1.33088,-0.705904,1.7254,-0.966478,-1.76,-0.961285,2.03634,1.31525,-0.721755,1.76461,-1.02831,-1.78888,-1.00352,2.00376,1.27218,-0.75928,-0.169078,0.61501,0.530842,0.770413,0.708103,0.847893,0.841325,-0.228677,0.62544,0.512286,0.73084,0.633205,0.858032,0.843239,0.470882,-0.481612,0.756892,0.556231,0.0792294,0.0837329,0.822994,-0.455693,-0.022093,0.715835,2.27296,-0.522519,1.23265,-3.515,-0.0301959,3.12088,-3.4015,-0.0256147,3.02207,-0.487442,0.750397,0.359368,0.58052,0.470636,0.587079,0.533755,1
1.7148,-0.946921,-1.7485,-0.937784,2.05657,1.33943,-0.696494,1.71999,-0.959843,-1.75657,-0.953625,2.04313,1.32312,-0.713675,1.76279,-1.02235,-1.78363,-0.995552,2.01128,1.28086,-0.750967,-0.189643,0.595547,0.516749,0.801597,0.760547,0.873851,0.828742,-0.195084,0.616424,0.521047,0.766226,0.697691,0.854604,0.838321,0.465396,-0.481898,0.764194,0.555143,0.0705555,0.0787574,0.825007,-0.47011,-0.0427649,0.706218,2.2403,-0.522757,1.26286,-3.30551,-0.0240401,3.05701,-3.38068,-0.0216731,2.93838,-0.479881,0.754315,0.351365,0.577674,0.452851,0.585756,0.544731,1
1.71326,-0.940545,-1.74414,-0.929545,2.06201,1.34832,-0.687199,1.71666,-0.953321,-1.75272,-0.945677,2.04999,1.33117,-0.705324,1.76072,-1.01611,-1.77857,-0.987409,2.01895,1.28993,-0.74272,-0.211131,0.638571,0.506466,0.817932,0.769176,0.914611,0.823193,-0.189951,0.616376,0.518019,0.796647,0.745942,0.878785,0.831087,0.459616,-0.482359,0.771417,0.554201,0.0617018,0.0736707,0.826818,-0.498809,-0.0517299,0.706192,2.20546,-0.523952,1.29019,-3.3507,-0.114923,2.62853,-3.3873,-0.0316386,2.83859,-0.474608,0.755611,0.344264,0.57864,0.430586,0.58393,0.55521,1
1.71108,-0.934095,-1.74073,-0.921256,2.06552,1.35805,-0.678287,1.71469,-0.94691,-1.74856,-0.937624,2.05618,1.33965,-0.696462,1.75852,-1.00963,-1.77371,-0.979096,2.02654,1.29915,-0.734564,-0.223308,0.645163,0.47883,0.820436,0.75468,0.927207,0.812455,-0.208027,0.626427,0.500681,0.813322,0.761468,0.905223,0.821463,0.453565,-0.482706,0.77881,0.553381,0.052478,0.0687811,0.828423,-0.521658,-0.0439204,0.724448,2.17192,-0.524345,1.31826,-3.30506,-0.038749,2.76558,-3.38666,-0.0453532,2.75211,-0.474399,0.755347,0.329805,0.578391,0.389831,0.589025,0.562774,1
1.70921,-0.927889,-1.73704,-0.913696,2.0707,1.36787,-0.669357,1.71301,-0.940531,-1.74448,-0.929537,2.06137,1.34866,-0.687348,1.7564,-1.00336,-1.76922,-0.971227,2.03385,1.30842,-0.726453,-0.209897,0.624214,0.437938,0.771671,0.722715,0.92336,0.8114,-0.214779,0.635983,0.474411,0.803346,0.748857,0.921726,0.815683,0.447503,-0.482962,0.785944,0.552523,0.0432553,0.0641491,0.829899,-0.514089,-0.03221,0.687988,2.13814,-0.525847,1.34472,-3.43394,-0.152666,2.68984,-3.38384,-0.0594974,2.65359,-0.471867,0.754687,0.321792,0.57531,0.368485,0.594445,0.570955,1
1.70666,-0.921371,-1.73496,-0.905993,2.07421,1.37741,-0.660669,1.71111,-0.934162,-1.74078,-0.921518,2.06592,1.35812,-0.678319,1.7541,-0.996773,-1.76504,-0.963341,2.04088,1.31729,-0.718342,-0.239978,0.672739,0.413238,0.802819,0.699148,0.875421,0.810034,-0.224394,0.647372,0.443335,0.798309,0.725514,0.908662,0.811296,0.441601,-0.483039,0.792763,0.551519,0.0342534,0.0599262,0.831301,-0.507762,-0.0169306,0.671275,2.10311,-0.526903,1.36994,-3.512,-0.105886,2.52954,-3.39417,-0.0795611,2.54524,-0.474427,0.754014,0.300893,0.573477,0.333323,0.601171,0.57673,1
1.70357,-0.914508,-1.73092,-0.898815,2.0797,1.38568,-0.651776,1.70894,-0.927766,-1.7375,-0.913721,2.0703,1.36769,-0.669434,1.75152,-0.990088,-1.76084,-0.955621,2.04766,1.32594,-0.710194,-0.260496,0.6597,0.419446,0.755828,0.670309,0.857097,0.816422,-0.23679,0.652218,0.423541,0.776773,0.697391,0.885293,0.812618,0.435485,-0.483058,0.799732,0.550697,0.0252077,0.0560746,0.832438,-0.531163,-0.0122488,0.685858,2.07071,-0.526743,1.39486,-3.25506,0.0161141,2.5031,-3.38725,-0.0816303,2.44752,-0.479517,0.755799,0.299264,0.568059,0.32045,0.597437,0.584183,1
1.69827,-0.908128,-1.72998,-0.890974,2.08514,1.39376,-0.643254,1.70628,-0.921253,-1.73452,-0.90614,2.07485,1.3769,-0.66063,1.7486,-0.983792,-1.7568,-0.948311,2.05405,1.33434,-0.70193,-0.308434,0.622812,0.398509,0.727796,0.626148,0.833823,0.831522,-0.269636,0.65175,0.410398,0.762148,0.665202,0.855447,0.819326,0.429436,-0.48302,0.806346,0.549687,0.0164197,0.0524497,0.833561,-0.523897,-0.0135385,0.641348,2.03432,-0.52842,1.41764,-3.58654,-0.165364,2.24568,-3.41507,-0.0897471,2.34062,-0.503326,0.756644,0.268217,0.573365,0.310882,0.594224,0.586758,1
1.69014,-0.901358,-1.72676,-0.88364,2.09393,1.39998,-0.634825,1.70253,-0.914643,-1.73181,-0.898631,2.08001,1.38541,-0.651908,1.74506,-0.977261,-1.7528,-0.940811,2.05992,1.34261,-0.693454,-0.3656,0.665884,0.406096,0.746324,0.571786,0.829389,0.853657,-0.31151,0.649465,0.408017,0.743316,0.622748,0.840103,0.833867,0.423182,-0.48317,0.812724,0.548822,0.00779673,0.0491522,0.834457,-0.559189,-0.0346845,0.637048,2.00211,-0.52789,1.44036,-3.18321,0.0524366,2.24491,-3.40234,-0.0744973,2.24795,-0.549221,0.75904,0.2604,0.571716,0.340062,0.573709,0.58629,1
1.6821,-0.894781,-1.72765,-0.875347,2.1,1.40735,-0.627192,1.69708,-0.908024,-1.72957,-0.891063,2.08622,1.39312,-0.643362,1.74137,-0.970607,-1.74867,-0.933725,2.06518,1.35096,-0.684712,-0.371388,0.657423,0.410158,0.69213,0.509045,0.840546,0.87928,-0.348474,0.648706,0.404921,0.722083,0.568993,0.834586,0.85482,0.416702,-0.483085,0.819256,0.547937,-0.00106663,0.0463291,0.835235,-0.568551,-0.0018444,0.648141,1.96862,-0.52947,1.46262,-3.40889,-0.160874,2.26596,-3.39553,-0.0749222,2.15035,-0.592697,0.758266,0.210198,0.583784,0.348112,0.563814,0.575198,1
1.67397,-0.888657,-1.72963,-0.867258,2.10737,1.4136,-0.619771,1.68999,-0.901434,-1.72823,-0.883325,2.0932,1.40022,-0.635143,1.73736,-0.96424,-1.74505,-0.926789,2.06964,1.35921,-0.676256,-0.412847,0.631986,0.349632,0.702583,0.429236,0.816383,0.832873,-0.383278,0.651764,0.388629,0.713679,0.503356,0.828773,0.85527,0.410334,-0.482841,0.825436,0.546931,-0.00979918,0.0439955,0.835963,-0.562374,-0.00265498,0.603911,1.93422,-0.530648,1.48245,-3.5034,-0.119897,2.0189,-3.39057,-0.0738693,2.05023,-0.63396,0.755826,0.154239,0.595304,0.377278,0.543935,0.564846,1
1.66469,-0.881803,-1.73797,-0.859361,2.11169,1.41768,-0.611612,1.682,-0.894917,-1.72871,-0.875375,2.10012,1.40686,-0.627275,1.73276,-0.957518,-1.74153,-0.919407,2.07386,1.36758,-0.667811,-0.474708,0.6842,0.352604,0.737744,0.422986,0.847817,0.851807,-0.419648,0.657869,0.370798,0.710819,0.453756,0.834915,0.854653,0.403735,-0.482782,0.831477,0.546453,-0.0184615,0.0421402,0.836225,-0.602849,-0.0210834,0.613804,1.9012,-0.52871,1.50062,-3.36806,0.197687,1.85404,-3.37296,-0.051002,1.93643,-0.680707,0.757145,0.0356831,0.600465,0.378351,0.501036,0.561991,1
1.65722,-0.874732,-1.74014,-0.85379,2.11487,1.42298,-0.601276,1.67364,-0.888398,-1.7317,-0.867488,2.10624,1.41279,-0.619371,1.72779,-0.950763,-1.73804,-0.912191,2.07832,1.37638,-0.659026,-0.503709,0.668585,0.345342,0.722476,0.454451,0.89193,0.885578,-0.463755,0.66159,0.349192,0.720934,0.435557,0.852043,0.856753,0.396738,-0.482636,0.837672,0.546019,-0.0274791,0.0404778,0.836343,-0.629971,-0.0119098,0.616761,1.86747,-0.529535,1.51859,-3.44371,-0.0842426,1.83434,-3.37098,-0.0418378,1.81873,-0.705655,0.76031,-0.0209773,0.584004,0.365533,0.465956,0.577497,1
1.64948,-0.868171,-1.74543,-0.846396,2.12056,1.42877,-0.591394,1.66528,-0.881708,-1.73625,-0.860131,2.11123,1.41803,-0.610778,1.72249,-0.944202,-1.7349,-0.904591,2.08332,1.38549,-0.650046,-0.536689,0.655342,0.298293,0.779939,0.518454,0.911319,0.899839,-0.505036,0.669376,0.332079,0.74672,0.465297,0.883689,0.879075,0.389513,-0.482638,0.843644,0.545517,-0.0365967,0.0387162,0.836405,-0.655766,-0.035656,0.594579,1.83422,-0.529983,1.53588,-3.04114,-0.0409287,1.58118,-3.34647,-0.0257748,1.7113,-0.730135,0.760314,-0.105231,0.581957,0.372422,0.432868,0.586517,1
1.64312,-0.861452,-1.74561,-0.840752,2.12761,1.43646,-0.580592,1.65732,-0.8749,-1.7406,-0.853361,2.11582,1.42336,-0.601253,1.71687,-0.937343,-1.73263,-0.89668,2.08887,1.39429,-0.641094,-0.569214,0.696735,0.201666,0.794704,0.573715,0.868034,0.890132,-0.536537,0.673554,0.281767,0.765707,0.51554,0.890428,0.89185,0.378165,-0.483128,0.852439,0.545329,-0.0500939,0.0361249,0.835944,-0.690694,-0.0640224,0.589031,1.80047,-0.530221,1.55195,-3.54989,-0.0250304,1.6902,-3.35877,-0.0246589,1.59787,-0.737486,0.758909,-0.129814,0.559279,0.387322,0.421772,0.605022,1
1.6369,-0.854455,-1.74847,-0.8329,2.1342,1.44497,-0.571226,1.64999,-0.868126,-1.74387,-0.8468,2.1212,1.42957,-0.591167,1.71106,-0.930289,-1.73146,-0.888735,2.09507,1.40285,-0.63239,-0.583834,0.712362,0.0995027,0.796645,0.635667,0.856781,0.863947,-0.563246,0.688146,0.19982,0.790429,0.575945,0.878711,0.884639,0.374366,-0.483369,0.855266,0.545443,-0.0543797,0.035392,0.835633,-0.690974,-0.0747743,0.571046,1.76672,-0.530727,1.56656,-3.34111,-0.0501152,1.44644,-3.35777,-0.0149578,1.48592,-0.741541,0.758342,-0.170164,0.558347,0.391259,0.421265,0.611648,1
1.63107,-0.846948,-1.75045,-0.826911,2.14227,1.45206,-0.561034,1.64329,-0.861306,-1.74624,-0.84015,2.12761,1.4368,-0.581021,1.70502,-0.922994,-1.73139,-0.880457,2.10162,1.41089,-0.623813,-0.612668,0.735671,-0.0297322,0.824712,0.65929,0.786171,0.854983,-0.588572,0.714923,0.0904788,0.805353,0.622891,0.836995,0.869687,0.366693,-0.483901,0.860877,0.545906,-0.0628188,0.0340596,0.834793,-0.705203,-0.0867369,0.566823,1.73363,-0.530686,1.58041,-3.38467,0.00418269,1.41686,-3.34903,-0.0172662,1.3897,-0.739576,0.760453,-0.190569,0.535453,0.406508,0.411761,0.627784,1
1.6257,-0.839514,-1.75321,-0.820579,2.14997,1.46192,-0.552266,1.63709,-0.854251,-1.74836,-0.833439,2.1347,1.44466,-0.571095,1.69892,-0.915233,-1.73272,-0.872358,2.10801,1.41804,-0.615311,-0.607215,0.787118,-0.162167,0.80211,0.630548,0.69707,0.851244,-0.601239,0.74505,-0.0307987,0.807822,0.641835,0.780007,0.856725,0.359112,-0.484514,0.866315,0.546795,-0.0706062,0.0333328,0.833618,-0.69367,-0.0852939,0.549691,1.70147,-0.53134,1.59425,-3.0635,-0.0622906,1.31844,-3.33701,-0.0390564,1.30429,-0.732251,0.757186,-0.204847,0.517794,0.419587,0.438741,0.630445,1
1.61953,-0.832254,-1.75858,-0.813737,2.15933,1.47008,-0.543531,1.63122,-0.846955,-1.75085,-0.826867,2.14233,1.45291,-0.561519,1.69271,-0.90748,-1.73509,-0.864335,2.11417,1.42469,-0.606604,-0.632201,0.768303,-0.257667,0.805813,0.609283,0.655354,0.87677,-0.617361,0.763697,-0.149855,0.810878,0.63304,0.712865,0.860999,0.351845,-0.484952,0.871583,0.547836,-0.0777533,0.033365,0.832296,-0.673761,-0.0775035,0.527344,1.66828,-0.531953,1.60658,-3.40122,-0.0628162,1.26379,-3.32103,-0.037261,1.21135,-0.731734,0.752259,-0.234918,0.505981,0.45162,0.453842,0.630733,1
1.61281,-0.825023,-1.76427,-0.809121,2.1681,1.47687,-0.534569,1.62539,-0.839586,-1.75426,-0.820505,2.15053,1.46137,-0.552353,1.6861,-0.899784,-1.73815,-0.85658,2.12007,1.43092,-0.597617,-0.666224,0.777579,-0.318689,0.763282,0.586044,0.616347,0.907077,-0.635213,0.777667,-0.246174,0.790401,0.608625,0.656257,0.878364,0.344599,-0.485591,0.876526,0.549094,-0.0843813,0.0338373,0.830801,-0.680975,-0.0988372,0.495791,1.63505,-0.532826,1.6175,-3.18885,-0.0837444,1.04762,-3.31123,-0.0450228,1.11368,-0.732883,0.747603,-0.261139,0.474585,0.48033,0.459489,0.630479,1
1.60622,-0.81744,-1.77101,-0.804649,2.17447,1.48406,-0.525351,1.61928,-0.832254,-1.75893,-0.814549,2.15906,1.46948,-0.543432,1.67937,-0.891889,-1.74145,-0.849178,2.12594,1.43715,-0.58823,-0.680065,0.784577,-0.336785,0.728001,0.592007,0.629481,0.948422,-0.659497,0.77682,-0.30438,0.765699,0.595778,0.633727,0.910756,0.33387,-0.486189,0.88375,0.550729,-0.093875,0.035318,0.828636,-0.676045,-0.0678794,0.484068,1.60098,-0.534078,1.62825,-3.43773,-0.126348,1.08487,-3.31127,-0.0608397,1.02489,-0.731498,0.744493,-0.295576,0.445283,0.485293,0.469097,0.628798,1
1.59852,-0.809927,-1.77827,-0.80164,2.18191,1.488,-0.515219,1.61275,-0.824897,-1.76472,-0.809406,2.16723,1.47673,-0.534402,1.67219,-0.884451,-1.74509,-0.841878,2.13208,1.44358,-0.578542,-0.727941,0.731416,-0.365534,0.717012,0.623204,0.651519,0.973037,-0.69141,0.764524,-0.340336,0.736098,0.600418,0.632449,0.942845,0.326537,-0.486812,0.888204,0.551802,-0.100047,0.0363248,0.827155,-0.69773,-0.0999444,0.446355,1.56749,-0.534835,1.63764,-3.56538,-0.0806418,0.99945,-3.31928,-0.0735492,0.936327,-0.736706,0.745239,-0.331802,0.402377,0.498273,0.444193,0.633225,1
1.59196,-0.802457,-1.78385,-0.801528,2.18679,1.49454,-0.505048,1.60588,-0.817447,-1.77116,-0.805388,2.17456,1.48303,-0.52499,1.66504,-0.877059,-1.74858,-0.834979,2.13865,1.45036,-0.568722,-0.70782,0.745258,-0.342897,0.677776,0.669011,0.689185,0.983559,-0.705275,0.753751,-0.348405,0.707596,0.628074,0.656728,0.968339,0.319236,-0.487217,0.892558,0.552543,-0.106339,0.0372285,0.825834,-0.686815,-0.0621312,0.44847,1.53422,-0.535493,1.64615,-3.604,-0.0712294,0.921689,-3.33389,-0.0840549,0.841642,-0.730769,0.746017,-0.352735,0.33451,0.481419,0.441765,0.636735,1
1.58466,-0.795125,-1.79004,-0.799754,2.19334,1.50006,-0.494777,1.59883,-0.809956,-1.77771,-0.802714,2.18112,1.48871,-0.515141,1.65783,-0.869798,-1.75234,-0.828343,2.14571,1.45762,-0.558937,-0.733225,0.714541,-0.396064,0.666927,0.715543,0.739433,0.973359,-0.722995,0.730405,-0.368165,0.687238,0.669253,0.693379,0.976651,0.315607,-0.487346,0.89468,0.552821,-0.109527,0.037656,0.825212,-0.685535,-0.0594644,0.43666,1.50103,-0.535563,1.65354,-3.0836,-0.0064898,0.686524,-3.34647,-0.077704,0.739766,-0.731696,0.746729,-0.376939,0.285888,0.476327,0.424366,0.641598,1
1.5775,-0.788073,-1.79512,-0.804387,2.20192,1.50694,-0.485025,1.59176,-0.802529,-1.7839,-0.801487,2.18738,1.4944,-0.505041,1.65032,-0.862847,-1.75655,-0.821682,2.15335,1.46531,-0.549341,-0.750375,0.699501,-0.425019,0.65674,0.77978,0.774212,0.954915,-0.730473,0.719767,-0.387993,0.667148,0.721445,0.734277,0.970611,0.308126,-0.487901,0.89864,0.553668,-0.115894,0.0384347,0.823737,-0.715597,-0.0974211,0.400895,1.46742,-0.536149,1.65973,-3.15471,-0.0550083,0.581276,-3.34781,-0.0695569,0.640764,-0.728155,0.747738,-0.385711,0.172948,0.485717,0.416375,0.643168,1
1.5744,-0.784594,-1.79907,-0.816848,2.20685,1.51134,-0.48051,1.58492,-0.795462,-1.78959,-0.802542,2.19398,1.50035,-0.495293,1.64666,-0.859234,-1.75871,-0.818577,2.15739,1.46918,-0.544577,-0.731824,0.722572,-0.430895,0.620972,0.806664,0.775445,0.95276,-0.738475,0.712205,-0.417326,0.648213,0.767329,0.76303,0.960345,0.30068,-0.488285,0.90251,0.554408,-0.122295,0.0391611,0.822279,-0.695468,-0.0575957,0.402008,1.43402,-0.536592,1.66514,-3.47382,-0.0461746,0.562987,-3.34522,-0.0577497,0.542084,-0.722544,0.746402,-0.403645,0.0172914,0.494687,0.421567,0.640676,1
1.56389,-0.774124,-1.81003,-0.827101,2.22094,1.52312,-0.467036,1.57857,-0.788994,-1.79507,-0.807585,2.20125,1.50656,-0.486461,1.63553,-0.848423,-1.76625,-0.809959,2.16975,1.48076,-0.530405,-0.759807,0.705049,-0.547561,0.559785,0.827143,0.760861,0.945123,-0.747335,0.709041,-0.467825,0.612499,0.804529,0.770173,0.950933,0.293477,-0.488424,0.906231,0.555023,-0.128481,0.0401165,0.820873,-0.680815,-0.0504592,0.377276,1.40128,-0.536767,1.67056,-3.28092,-0.0174931,0.542711,-3.33159,-0.0437106,0.448262,-0.716431,0.74299,-0.437787,-0.171416,0.511905,0.423585,0.633686,1
1.55752,-0.768098,-1.81936,-0.830462,2.23054,1.53325,-0.459517,1.57213,-0.782473,-1.80153,-0.816079,2.20978,1.51385,-0.47785,1.6279,-0.841276,-1.77198,-0.804863,2.17786,1.48803,-0.520896,-0.760658,0.725651,-0.575233,0.482689,0.803826,0.710107,0.952134,-0.750763,0.717758,-0.517896,0.554482,0.812544,0.748805,0.950006,0.286359,-0.488743,0.909604,0.555836,-0.134155,0.0413537,0.819353,-0.675771,-0.0636442,0.346232,1.36838,-0.538525,1.67465,-3.21665,-0.171913,0.399529,-3.32219,-0.0523188,0.3623,-0.703769,0.731781,-0.473885,-0.255995,0.526712,0.452202,0.613788,1
1.55254,-0.762072,-1.82839,-0.827292,2.23944,1.54419,-0.452489,1.56507,-0.775353,-1.80984,-0.82397,2.21979,1.52301,-0.46874,1.62027,-0.833842,-1.77799,-0.801175,2.1856,1.49495,-0.5113,-0.769922,0.74213,-0.613919,0.323187,0.764152,0.68132,0.962405,-0.763462,0.724277,-0.578904,0.45522,0.798374,0.717429,0.953221,0.279712,-0.488631,0.912888,0.556347,-0.13934,0.0430867,0.81805,-0.623909,-0.00986675,0.338131,1.33477,-0.537946,1.67481,-3.46942,0.0597618,0.016528,-3.32063,-0.0496626,0.246493,-0.677304,0.717702,-0.503981,-0.261176,0.538468,0.492402,0.588117,1
1.54711,-0.756358,-1.83738,-0.82606,2.24714,1.55506,-0.444393,1.55827,-0.768395,-1.81914,-0.827703,2.22992,1.53345,-0.460006,1.61221,-0.826566,-1.78438,-0.799145,2.19311,1.50163,-0.5017,-0.817992,0.72492,-0.635587,0.165039,0.750097,0.661282,0.957072,-0.782857,0.7309,-0.608247,0.323638,0.772692,0.684236,0.957204,0.273641,-0.488293,0.915745,0.556562,-0.143726,0.0453368,0.817023,-0.57881,-0.00140679,0.283611,1.30157,-0.537915,1.67537,-3.36876,0.00323558,0.0572849,-3.31892,-0.0449462,0.125531,-0.651012,0.702078,-0.529953,-0.269155,0.54031,0.534321,0.573064,1
1.54186,-0.750761,-1.8455,-0.831252,2.25404,1.56502,-0.436191,1.55247,-0.762196,-1.8283,-0.828012,2.2389,1.54416,-0.452112,1.60392,-0.819073,-1.7906,-0.799128,2.20059,1.5081,-0.492216,-0.832373,0.759399,-0.620714,-0.0522285,0.749004,0.644623,0.944464,-0.806762,0.74215,-0.623407,0.145332,0.754418,0.662409,0.954647,0.268023,-0.487777,0.91822,0.556471,-0.147442,0.0478206,0.81628,-0.531622,0.0312557,0.251694,1.26822,-0.538272,1.67565,-3.24765,-0.0348367,0.0272751,-3.31788,-0.0364104,0.00877783,-0.620602,0.68312,-0.54896,-0.321237,0.534482,0.569184,0.56025,1
1.53614,-0.746049,-1.854,-0.83883,2.26097,1.5749,-0.428955,1.54712,-0.756477,-1.83707,-0.828739,2.24677,1.55471,-0.444347,1.59503,-0.811606,-1.79722,-0.801041,2.20833,1.51485,-0.482914,-0.910045,0.737468,-0.675759,-0.230295,0.790844,0.686234,0.923575,-0.85347,0.740596,-0.64402,-0.0391614,0.763315,0.664046,0.941704,0.26301,-0.486868,0.920355,0.555916,-0.150534,0.0505899,0.815928,-0.485379,0.0585111,0.20845,1.23513,-0.538523,1.67523,-3.35332,-0.0254404,-0.0425698,-3.3201,-0.0292599,-0.102969,-0.588925,0.655572,-0.567824,-0.377892,0.526422,0.600525,0.539589,1
1.5308,-0.740297,-1.86174,-0.84713,2.27038,1.58209,-0.42252,1.54172,-0.751035,-1.84554,-0.832593,2.25416,1.56476,-0.436597,1.5859,-0.804231,-1.80391,-0.804586,2.2167,1.52235,-0.473859,-0.905467,0.745953,-0.664853,-0.39169,0.855311,0.767573,0.900984,-0.882628,0.747606,-0.653776,-0.224738,0.798387,0.699477,0.923008,0.255973,-0.48558,0.922546,0.554759,-0.154436,0.054614,0.815726,-0.440192,0.0746796,0.140473,1.2031,-0.538711,1.67357,-3.16052,-0.01847,-0.163806,-3.31289,-0.0219737,-0.210545,-0.551003,0.639337,-0.578332,-0.425431,0.53682,0.59736,0.513386,1
1.52351,-0.732117,-1.87003,-0.854635,2.28021,1.58724,-0.416196,1.53613,-0.745563,-1.85377,-0.8392,2.26193,1.57376,-0.429323,1.57668,-0.796566,-1.81098,-0.809089,2.22524,1.53022,-0.465367,-0.934793,0.764157,-0.729762,-0.452631,0.851975,0.795377,0.829041,-0.916768,0.749192,-0.690125,-0.358205,0.83271,0.749728,0.884534,0.251646,-0.484438,0.92373,0.553925,-0.156836,0.0574382,0.815641,-0.43312,0.0769722,0.119789,1.17075,-0.539127,1.67084,-3.45289,-0.0444044,-0.291351,-3.29535,-0.0140752,-0.300085,-0.531609,0.644487,-0.590563,-0.455458,0.549635,0.57013,0.491712,1
1.51588,-0.7247,-1.87861,-0.861084,2.29,1.59236,-0.410345,1.53007,-0.739369,-1.86192,-0.846811,2.27069,1.58115,-0.422641,1.56754,-0.789201,-1.81869,-0.813722,2.23391,1.53894,-0.457243,-0.887706,0.730936,-0.775063,-0.469602,0.870767,0.905802,0.811951,-0.909322,0.747015,-0.723226,-0.437974,0.859351,0.822917,0.847326,0.247356,-0.483462,0.924547,0.553328,-0.159294,0.0602965,0.815363,-0.413294,0.0730622,0.0838784,1.13885,-0.539488,1.66836,-3.13688,-0.0355767,-0.243891,-3.26625,-0.0267433,-0.35884,-0.516516,0.64501,-0.599208,-0.473617,0.560958,0.534179,0.468973,1
1.50606,-0.719024,-1.88866,-0.865032,2.29921,1.59858,-0.405109,1.52313,-0.73236,-1.87027,-0.854033,2.28018,1.58717,-0.416419,1.55949,-0.781866,-1.82676,-0.818503,2.24275,1.54877,-0.449027,-0.792583,0.739446,-0.835197,-0.474205,0.883438,0.996621,0.823106,-0.871694,0.744846,-0.780007,-0.465479,0.868726,0.899267,0.821366,0.243528,-0.482178,0.925165,0.552249,-0.162118,0.0631692,0.815321,-0.371642,0.0977398,0.0694592,1.10672,-0.540196,1.66366,-3.25879,-0.0717479,-0.477283,-3.2417,-0.0352817,-0.443265,-0.534252,0.628419,-0.619005,-0.465294,0.564575,0.498093,0.439175,1
1.49635,-0.71376,-1.90014,-0.868748,2.30833,1.60351,-0.402582,1.51505,-0.725426,-1.87927,-0.860065,2.28977,1.59269,-0.410775,1.55181,-0.774417,-1.83585,-0.823305,2.25156,1.55925,-0.440903,-0.748362,0.743293,-0.916437,-0.491821,0.877992,1.06642,0.806891,-0.80955,0.737891,-0.842232,-0.478543,0.877399,0.989613,0.813983,0.239883,-0.480845,0.925585,0.551303,-0.164932,0.0663894,0.815141,-0.347922,0.103495,0.0466824,1.07358,-0.541074,1.6571,-3.38468,-0.0897326,-0.669105,-3.23208,-0.0447448,-0.550009,-0.55463,0.606577,-0.642854,-0.454424,0.567645,0.442652,0.383205,1
1.49024,-0.708388,-1.91148,-0.86809,2.31652,1.60836,-0.40256,1.50619,-0.719281,-1.88928,-0.864515,2.29908,1.59816,-0.40632,1.54519,-0.767,-1.84475,-0.82888,2.26012,1.56991,-0.433036,-0.641129,0.732447,-0.886573,-0.572929,0.852318,1.05834,0.778657,-0.727358,0.738395,-0.879402,-0.512985,0.871249,1.04046,0.802885,0.236998,-0.479141,0.925807,0.549803,-0.167608,0.0696059,0.81534,-0.268093,0.137648,0.0247364,1.04002,-0.541869,1.65072,-3.19411,-0.0755895,-0.607768,-3.24427,-0.0565439,-0.655928,-0.549484,0.586118,-0.667377,-0.392108,0.56398,0.384536,0.304756,1
1.48286,-0.704114,-1.92176,-0.868588,2.32528,1.61421,-0.40017,1.49763,-0.713814,-1.90011,-0.867166,2.30801,1.60346,-0.403543,1.53848,-0.75979,-1.85403,-0.834606,2.26858,1.58015,-0.425562,-0.684176,0.720763,-0.938727,-0.568459,0.844878,1.00941,0.733621,-0.691222,0.732167,-0.913912,-0.544403,0.858396,1.04472,0.773057,0.235627,-0.478376,0.925817,0.549139,-0.168758,0.0712139,0.815411,-0.272506,0.120252,0.0120198,1.0069,-0.542697,1.64336,-3.32431,-0.0831585,-0.737988,-3.26908,-0.0679642,-0.757576,-0.556228,0.556756,-0.677351,-0.339817,0.567051,0.34063,0.253915,1
1.47721,-0.698197,-1.93115,-0.876163,2.33407,1.62252,-0.396844,1.4901,-0.70869,-1.91102,-0.868693,2.31668,1.60888,-0.40177,1.53185,-0.752596,-1.86302,-0.840684,2.27725,1.58948,-0.418654,-0.649135,0.716736,-0.880425,-0.627564,0.870917,0.904393,0.675847,-0.658147,0.723315,-0.901908,-0.58965,0.856038,0.990713,0.729375,0.232822,-0.477008,0.925826,0.548165,-0.170739,0.0743566,0.815374,-0.276243,0.106446,0.0103267,0.974567,-0.542748,1.63543,-3.12332,-0.00492925,-0.766291,-3.28268,-0.0676972,-0.85412,-0.546348,0.543992,-0.68124,-0.354784,0.568217,0.330465,0.218104,1
1.46989,-0.694784,-1.94081,-0.884027,2.34259,1.63545,-0.394692,1.48333,-0.703723,-1.92138,-0.871332,2.32531,1.61548,-0.399744,1.52536,-0.745943,-1.87195,-0.847236,2.28617,1.59773,-0.412358,-0.660148,0.648727,-0.910301,-0.657799,0.897646,0.801391,0.612272,-0.664486,0.695409,-0.909818,-0.61794,0.871147,0.905064,0.673913,0.230458,-0.475711,0.925717,0.547087,-0.172102,0.0769939,0.815567,-0.230995,0.0953333,-0.0143463,0.942264,-0.542559,1.62544,-3.20483,0.0187754,-0.991639,-3.28835,-0.0569258,-0.960538,-0.554761,0.511593,-0.6886,-0.367914,0.564266,0.377158,0.176662,1
1.46523,-0.689167,-1.95078,-0.89565,2.3504,1.65052,-0.394775,1.47686,-0.698896,-1.93121,-0.876949,2.33393,1.62454,-0.397365,1.51866,-0.739343,-1.88137,-0.853628,2.29525,1.6049,-0.406907,-0.661802,0.671353,-0.938691,-0.632633,0.91055,0.692145,0.51954,-0.657028,0.678939,-0.909806,-0.639332,0.893038,0.79931,0.602553,0.228091,-0.47503,0.925299,0.546665,-0.172625,0.079278,0.81552,-0.249216,0.0398444,-0.0386544,0.909555,-0.5432,1.61394,-3.32356,-0.0651435,-1.16831,-3.28418,-0.0459335,-1.06343,-0.534321,0.501767,-0.69407,-0.420222,0.551547,0.456152,0.121323,1
1.46285,-0.685193,-1.96068,-0.903858,2.35762,1.66288,-0.399828,1.47093,-0.694217,-1.94094,-0.885241,2.34227,1.63637,-0.395914,1.51239,-0.732644,-1.8908,-0.859667,2.30431,1.61125,-0.402588,-0.622279,0.658674,-0.955468,-0.598574,0.903935,0.611193,0.401906,-0.648076,0.659585,-0.93482,-0.629669,0.904044,0.701576,0.511239,0.225809,-0.474306,0.925107,0.546755,-0.172869,0.0814432,0.815195,-0.233822,0.059473,-0.00995648,0.877569,-0.543725,1.60401,-3.21113,-0.0527176,-0.996932,-3.26278,-0.0374168,-1.14558,-0.49535,0.474512,-0.698805,-0.441914,0.53307,0.516277,0.0276002,1
1.46376,-0.686639,-1.97081,-0.9073,2.36457,1.67354,-0.404983,1.46646,-0.689984,-1.95079,-0.894306,2.35012,1.64953,-0.396785,1.50642,-0.726408,-1.90079,-0.865362,2.31327,1.61708,-0.39934,-0.583594,0.625526,-1.0071,-0.557793,0.890455,0.563401,0.300414,-0.622558,0.651851,-0.967085,-0.596333,0.901647,0.622247,0.407287,0.222588,-0.473778,0.924596,0.548109,-0.172517,0.0842843,0.814071,-0.223447,0.0126577,-0.0352432,0.845043,-0.542562,1.59306,-3.20268,0.114579,-1.07843,-3.24495,-0.0163806,-1.22566,-0.426563,0.397694,-0.700188,-0.419382,0.513042,0.564665,-0.0564233,1
1.45816,-0.687514,-1.98185,-0.903833,2.36748,1.68127,-0.409969,1.46382,-0.687292,-1.96082,-0.901426,2.35723,1.66189,-0.400166,1.50101,-0.719847,-1.91108,-0.870724,2.32194,1.62261,-0.396881,-0.532998,0.660615,-1.03888,-0.526431,0.862634,0.548817,0.228941,-0.579624,0.648272,-1.00048,-0.560933,0.885675,0.574471,0.31042,0.220661,-0.473301,0.924379,0.549492,-0.172186,0.0863094,0.812995,-0.207721,0.0342345,-0.0172838,0.811344,-0.547031,1.5804,-3.60231,-0.477753,-1.3531,-3.25141,-0.0492637,-1.30384,-0.428488,0.32333,-0.707753,-0.331082,0.455414,0.586554,-0.130883,1
1.45222,-0.687412,-1.99295,-0.907805,2.37091,1.68831,-0.414514,1.4615,-0.686702,-1.97117,-0.904876,2.36307,1.67229,-0.404898,1.49577,-0.713497,-1.9215,-0.875961,2.33052,1.62869,-0.395027,-0.518869,0.628558,-1.03588,-0.520427,0.854849,0.627336,0.170436,-0.545154,0.638233,-1.02728,-0.534884,0.869313,0.579851,0.233264,0.218677,-0.472892,0.924027,0.55115,-0.172085,0.0882809,0.811681,-0.214072,0.0254935,-0.0351301,0.778954,-0.543912,1.56256,-3.26783,0.314631,-1.79962,-3.26139,-0.0421328,-1.42705,-0.435453,0.260851,-0.714552,-0.318439,0.403899,0.59624,-0.194866,1
1.44611,-0.686713,-2.00349,-0.914985,2.37581,1.69582,-0.418139,1.45762,-0.687074,-1.9819,-0.906391,2.36751,1.68086,-0.409736,1.4906,-0.707504,-1.93183,-0.881618,2.33894,1.63582,-0.394024,-0.523195,0.588028,-1.0419,-0.578837,0.837764,0.74497,0.0736174,-0.525021,0.625734,-1.03888,-0.541898,0.851749,0.640374,0.157665,0.216701,-0.472532,0.923343,0.553004,-0.172297,0.0901438,0.81017,-0.213147,0.0136543,-0.0770884,0.746455,-0.545677,1.54847,-3.0916,-0.167854,-1.34039,-3.26733,-0.0502965,-1.52595,-0.44488,0.207909,-0.716551,-0.333672,0.36863,0.599961,-0.24115,1
1.43375,-0.681535,-2.01401,-0.922798,2.38428,1.7018,-0.417931,1.45175,-0.686847,-1.99274,-0.909513,2.37171,1.68835,-0.413902,1.48522,-0.701625,-1.94214,-0.887688,2.34722,1.64438,-0.394197,-0.53748,0.594823,-1.02,-0.6209,0.818552,0.887663,-0.0397867,-0.526515,0.603803,-1.03259,-0.573388,0.837055,0.753323,0.0680888,0.214563,-0.472113,0.922405,0.555265,-0.173045,0.0920508,0.808246,-0.221536,0.0319265,-0.0894163,0.714553,-0.545669,1.53167,-3.3054,0.000790487,-1.74131,-3.26187,-0.0452169,-1.63713,-0.514669,0.200905,-0.718711,-0.351103,0.370591,0.574246,-0.237342,1
1.4221,-0.678221,-2.02419,-0.933131,2.39588,1.70579,-0.416501,1.4438,-0.685112,-2.00343,-0.915581,2.37743,1.69515,-0.416568,1.4797,-0.695961,-1.9524,-0.894058,2.35504,1.65419,-0.395276,-0.560456,0.546183,-1.0321,-0.637253,0.770288,1.00997,-0.129996,-0.540377,0.576345,-1.03133,-0.61233,0.808868,0.880868,-0.0320551,0.212317,-0.471661,0.9212,0.557839,-0.174231,0.0941008,0.80598,-0.240974,0.0111205,-0.126257,0.683086,-0.545211,1.51461,-3.09995,0.0451549,-1.68038,-3.24757,-0.0332768,-1.76042,-0.576069,0.177404,-0.71791,-0.390736,0.408473,0.516007,-0.212251,1
1.41412,-0.683571,-2.03383,-0.944667,2.40694,1.70729,-0.420353,1.43385,-0.682495,-2.01385,-0.923858,2.38564,1.7008,-0.417564,1.47407,-0.691067,-1.96258,-0.900125,2.36219,1.66497,-0.397512,-0.558694,0.474719,-1.00959,-0.603529,0.691612,1.08648,-0.258302,-0.55221,0.538575,-1.02056,-0.620561,0.760151,0.994705,-0.142695,0.211055,-0.471572,0.920454,0.55937,-0.174995,0.0951112,0.804634,-0.259365,-0.00669026,-0.141428,0.651284,-0.54518,1.49608,-3.21082,0.00307516,-1.87089,-3.22212,-0.0213317,-1.86935,-0.599496,0.0749558,-0.71246,-0.445422,0.447469,0.423196,-0.228412,1
1.40808,-0.692589,-2.04346,-0.952527,2.41412,1.71064,-0.429399,1.42364,-0.681816,-2.02397,-0.93351,2.39563,1.70485,-0.41873,1.46861,-0.686641,-1.97286,-0.905866,2.36824,1.67579,-0.400957,-0.543606,0.43028,-1.03498,-0.565286,0.577271,1.0812,-0.369183,-0.554252,0.483727,-1.02556,-0.602022,0.679724,1.05922,-0.252494,0.208573,-0.471474,0.918813,0.562837,-0.176577,0.0972204,0.801613,-0.255553,-0.0193466,-0.159397,0.619564,-0.545679,1.47693,-3.06943,-0.0482343,-1.8527,-3.19304,0.0070938,-1.95441,-0.605302,-0.0594844,-0.705961,-0.466612,0.458796,0.348465,-0.284416,1
1.40235,-0.695686,-2.05358,-0.956839,2.4097,1.72024,-0.437323,1.41509,-0.685118,-2.03382,-0.943142,2.40472,1.70822,-0.422561,1.4635,-0.682424,-1.98308,-0.911129,2.37343,1.68632,-0.405129,-0.50015,0.425067,-1.01564,-0.519098,0.49892,1.03261,-0.427835,-0.53415,0.443355,-1.02007,-0.562637,0.589268,1.06676,-0.351774,0.20612,-0.471513,0.917051,0.566843,-0.178071,0.0995834,0.798162,-0.255395,-0.0311472,-0.165792,0.58779,-0.54657,1.45762,-3.19418,-0.089551,-1.94131,-3.18051,-0.0267395,-2.01247,-0.611485,-0.132613,-0.704986,-0.457096,0.362643,0.339269,-0.321946,1
1.39595,-0.697674,-2.06545,-0.966918,2.39718,1.73143,-0.44462,1.40828,-0.690529,-2.04375,-0.951327,2.40902,1.7132,-0.429264,1.45856,-0.678448,-1.99335,-0.91619,2.37833,1.69601,-0.409334,-0.498532,0.382678,-1.03043,-0.507017,0.4952,0.949522,-0.412148,-0.514096,0.412675,-1.02702,-0.530467,0.523797,1.02111,-0.403055,0.203838,-0.471497,0.915402,0.57098,-0.179377,0.102085,0.794597,-0.240717,-0.0305759,-0.157467,0.555255,-0.547155,1.43551,-3.17598,-0.0571716,-2.15803,-3.18089,-0.0239436,-2.12372,-0.626112,-0.192259,-0.720954,-0.507284,0.188437,0.354185,-0.352851,1
1.38997,-0.697115,-2.07626,-0.975733,2.40514,1.74269,-0.448114,1.40214,-0.694741,-2.0542,-0.958701,2.40721,1.72123,-0.43678,1.45355,-0.674978,-2.00342,-0.92159,2.3838,1.70461,-0.41304,-0.50015,0.337808,-0.99873,-0.553829,0.568335,0.822941,-0.355149,-0.499611,0.381851,-1.01493,-0.526648,0.520819,0.935024,-0.398378,0.201537,-0.471908,0.913569,0.575136,-0.180125,0.104216,0.791146,-0.24536,-0.0723193,-0.183336,0.522509,-0.54743,1.4124,-3.3477,-0.0281279,-2.36272,-3.19746,-0.0377217,-2.23013,-0.635753,-0.221373,-0.728389,-0.541426,0.213331,0.380727,-0.350736,1
1.38598,-0.687896,-2.08585,-0.978594,2.42117,1.75193,-0.449647,1.39619,-0.696108,-2.06508,-0.966432,2.40486,1.73143,-0.443032,1.44823,-0.672181,-2.01356,-0.927676,2.39026,1.7118,-0.416425,-0.544061,0.252742,-1.01852,-0.626359,0.674163,0.683058,-0.335758,-0.514248,0.324409,-1.01589,-0.562402,0.579233,0.818507,-0.367685,0.199314,-0.472818,0.911511,0.579116,-0.180027,0.105569,0.78808,-0.24177,-0.119221,-0.214959,0.49142,-0.547875,1.38964,-3.21532,-0.0459683,-2.35366,-3.20306,-0.0498891,-2.33451,-0.62249,-0.157149,-0.722853,-0.509179,0.309131,0.40125,-0.332217,1
1.38573,-0.673099,-2.09588,-0.985726,2.43157,1.76619,-0.453053,1.39098,-0.693359,-2.07576,-0.973688,2.40909,1.74225,-0.447258,1.44265,-0.670062,-2.02347,-0.934335,2.39743,1.71774,-0.420139,-0.562014,0.200633,-0.983114,-0.673626,0.726895,0.563141,-0.386357,-0.535408,0.263727,-1.00012,-0.617938,0.656464,0.689713,-0.359088,0.195853,-0.475596,0.907656,0.585524,-0.178079,0.105822,0.783742,-0.251032,-0.201699,-0.27259,0.46,-0.547248,1.36625,-3.12851,0.0624416,-2.32973,-3.19793,-0.0409118,-2.42602,-0.569131,-0.0303635,-0.724058,-0.513912,0.341397,0.484432,-0.329133,1
1.38274,-0.679194,-2.1061,-0.9959,2.43514,1.77741,-0.458529,1.38734,-0.686569,-2.08595,-0.980014,2.41914,1.75349,-0.450356,1.43667,-0.668646,-2.03333,-0.941469,2.40412,1.72285,-0.424669,-0.607471,0.115147,-0.984169,-0.726454,0.636656,0.502954,-0.477044,-0.571182,0.189507,-0.995267,-0.67548,0.679238,0.583051,-0.39972,0.194687,-0.476766,0.906219,0.587881,-0.177051,0.105672,0.782229,-0.256715,-0.225834,-0.294582,0.428548,-0.547588,1.34164,-3.1128,-0.0336592,-2.43523,-3.18737,-0.027869,-2.51603,-0.539277,-0.105481,-0.727703,-0.544315,0.31021,0.545546,-0.338601,1
1.38112,-0.690608,-2.11589,-1.01038,2.42955,1.7853,-0.469222,1.38502,-0.680917,-2.09595,-0.987403,2.42809,1.76515,-0.454272,1.4307,-0.668077,-2.04277,-0.949109,2.40866,1.72813,-0.430126,-0.590166,0.0413945,-0.934517,-0.775207,0.38711,0.534186,-0.5664,-0.58655,0.119058,-0.967267,-0.725096,0.583554,0.533427,-0.4766,0.192436,-0.479403,0.902906,0.592909,-0.17458,0.105502,0.779006,-0.246018,-0.256227,-0.352382,0.396829,-0.548129,1.31513,-3.08198,-0.0526219,-2.57613,-3.17431,-0.0191514,-2.61207,-0.49584,-0.225306,-0.731266,-0.612715,0.208897,0.571707,-0.39096,1
1.37509,-0.702806,-2.12595,-1.0247,2.41239,1.79119,-0.479921,1.38281,-0.682543,-2.10597,-0.997695,2.43056,1.77584,-0.460615,1.42474,-0.668165,-2.05226,-0.95697,2.4113,1.73421,-0.436079,-0.602857,-0.023226,-0.957132,-0.781247,0.233324,0.63192,-0.599214,-0.600165,0.0444386,-0.958606,-0.760969,0.41903,0.556354,-0.547553,0.190516,-0.482041,0.899111,0.598036,-0.171861,0.10603,0.775612,-0.223984,-0.261392,-0.400803,0.365119,-0.548043,1.28827,-3.15889,0.00855626,-2.67513,-3.15943,-0.0134856,-2.69382,-0.496468,-0.346405,-0.736907,-0.677306,0.0109796,0.569763,-0.43842,1
1.35831,-0.713844,-2.1362,-1.03711,2.40896,1.78827,-0.489143,1.37888,-0.691162,-2.11598,-1.01047,2.4255,1.78379,-0.469458,1.41873,-0.66838,-2.06179,-0.964993,2.41364,1.74147,-0.441904,-0.593378,-0.0181326,-0.946957,-0.809938,0.246977,0.754761,-0.572381,-0.595467,1.19849e-05,-0.946202,-0.788797,0.289137,0.640289,-0.579332,0.188442,-0.484762,0.894949,0.603277,-0.169319,0.107019,0.771968,-0.246049,-0.266601,-0.426818,0.33331,-0.548605,1.26127,-3.17281,-0.056047,-2.69372,-3.15489,-0.016943,-2.77593,-0.604186,-0.454644,-0.74412,-0.721188,-0.0468192,0.467981,-0.472388,1
1.34402,-0.726515,-2.14651,-1.04437,2.39877,1.77989,-0.49512,1.37094,-0.702522,-2.12604,-1.02365,2.4164,1.78742,-0.479164,1.41288,-0.668777,-2.07139,-0.973294,2.41691,1.75001,-0.447306,-0.584697,-0.0557373,-0.967668,-0.825646,0.363257,0.883433,-0.529978,-0.593644,-0.0323653,-0.957252,-0.80561,0.281186,0.756705,-0.567191,0.186277,-0.487304,0.890632,0.608123,-0.167306,0.1079,0.768474,-0.248898,-0.251902,-0.443438,0.301298,-0.549162,1.23213,-3.2633,-0.05672,-2.96987,-3.16848,-0.025114,-2.87804,-0.688651,-0.577379,-0.751199,-0.710746,-0.181314,0.29882,-0.478139,1
1.33535,-0.724076,-2.15599,-1.05358,2.39022,1.7801,-0.49562,1.35892,-0.71344,-2.13618,-1.03518,2.40739,1.78621,-0.487491,1.40715,-0.669549,-2.08121,-0.981485,2.42132,1.75965,-0.452501,-0.565882,-0.0808317,-0.987609,-0.828103,0.456847,0.981569,-0.518462,-0.581319,-0.0515672,-0.967411,-0.821229,0.355694,0.873255,-0.540274,0.183702,-0.49007,0.886027,0.612827,-0.165861,0.108162,0.765006,-0.290023,-0.27717,-0.468431,0.268649,-0.549582,1.20099,-3.25039,-0.0418642,-3.1004,-3.18597,-0.0379562,-2.99512,-0.71798,-0.545279,-0.747803,-0.720938,-0.310973,0.204509,-0.431193,1
1.32927,-0.730732,-2.16596,-1.06187,2.40072,1.78235,-0.502175,1.34644,-0.721519,-2.14623,-1.04472,2.40015,1.7829,-0.493242,1.40147,-0.670554,-2.09165,-0.990179,2.42517,1.76979,-0.457991,-0.572377,-0.108095,-1.06199,-0.876135,0.342453,1.02058,-0.564121,-0.574319,-0.0815548,-1.00576,-0.843295,0.387519,0.96186,-0.53752,0.181015,-0.492921,0.881134,0.617483,-0.164593,0.108184,0.761525,-0.288296,-0.284316,-0.505678,0.237147,-0.55136,1.17009,-3.11971,-0.176083,-3.05986,-3.19422,-0.0547916,-3.10374,-0.722012,-0.601781,-0.743166,-0.716948,-0.244509,0.125663,-0.441839,1
1.32456,-0.738841,-2.17614,-1.07108,2.41355,1.77642,-0.512121,1.33676,-0.726633,-2.15614,-1.05341,2.39761,1.78089,-0.49776,1.39579,-0.671641,-2.10223,-0.999063,2.42649,1.77975,-0.464345,-0.562898,-0.107664,-1.05332,-0.895597,0.0542825,0.969921,-0.662305,-0.567053,-0.0988636,-1.03431,-0.866611,0.284528,0.990689,-0.581629,0.178424,-0.495791,0.875887,0.622445,-0.162928,0.108961,0.757723,-0.282579,-0.280249,-0.531367,0.206049,-0.551832,1.13874,-3.20687,-0.0486496,-3.23333,-3.18909,-0.0668526,-3.19929,-0.71226,-0.672004,-0.739093,-0.720167,-0.129394,-0.0332632,-0.47776,1
1.32111,-0.742485,-2.18625,-1.08125,2.42055,1.77964,-0.520935,1.33002,-0.731566,-2.16607,-1.06222,2.40242,1.77998,-0.503755,1.38998,-0.673144,-2.11309,-1.00876,2.42477,1.78785,-0.471731,-0.591708,-0.169597,-1.10005,-0.992655,-0.247138,0.754521,-0.76152,-0.575661,-0.128452,-1.07179,-0.921462,0.049866,0.915007,-0.662649,0.175511,-0.500061,0.867493,0.630506,-0.158192,0.112118,0.751576,-0.225264,-0.304917,-0.598447,0.175641,-0.550935,1.10564,-2.88158,0.0850528,-3.13684,-3.16825,-0.0618769,-3.3036,-0.688732,-0.693415,-0.731557,-0.724928,-0.0421797,-0.0821102,-0.49204,1
1.31535,-0.74485,-2.19727,-1.09235,2.41209,1.78991,-0.528358,1.32497,-0.737178,-2.17618,-1.07156,2.41054,1.77978,-0.511822,1.38388,-0.674901,-2.12398,-1.01888,2.42013,1.79323,-0.479677,-0.618731,-0.171215,-1.08291,-1.01209,-0.531071,0.458134,-0.801295,-0.591112,-0.149492,-1.07876,-0.966781,-0.241309,0.727526,-0.741707,0.174798,-0.501645,0.864502,0.633394,-0.155635,0.113619,0.749453,-0.207336,-0.311056,-0.607384,0.144871,-0.550304,1.07172,-3.23678,0.0663187,-3.56837,-3.14012,-0.0389001,-3.4068,-0.685307,-0.699488,-0.732896,-0.734654,-0.0803205,-0.0332302,-0.486817,1
1.31168,-0.743292,-2.20859,-1.10509,2.39996,1.82489,-0.535771,1.32045,-0.741481,-2.18661,-1.08176,2.41416,1.7844,-0.520342,1.37727,-0.676742,-2.13484,-1.02951,2.41358,1.79576,-0.487549,-0.670322,-0.193121,-1.07911,-1.08032,-0.681609,0.190473,-0.777279,-0.62692,-0.177978,-1.08736,-1.02835,-0.486606,0.46771,-0.780031,0.173639,-0.504918,0.858575,0.639334,-0.149167,0.117218,0.745159,-0.191209,-0.324388,-0.609507,0.113899,-0.55034,1.03647,-3.12466,-0.00359594,-3.55583,-3.11164,-0.0162572,-3.50001,-0.655912,-0.665497,-0.737536,-0.755794,-0.136223,0.291252,-0.482223,1
1.30637,-0.741037,-2.21983,-1.11721,2.39172,1.84309,-0.54171,1.31589,-0.743255,-2.19743,-1.09298,2.40999,1.79857,-0.528175,1.37071,-0.678708,-2.14518,-1.04044,2.40747,1.79613,-0.494935,-0.655354,-0.19825,-1.03426,-1.09823,-0.566505,-0.00798132,-0.724753,-0.648136,-0.187529,-1.06543,-1.06355,-0.593062,0.213542,-0.767776,0.172719,-0.508507,0.852501,0.645165,-0.141177,0.120762,0.741112,-0.171873,-0.339162,-0.618141,0.0828911,-0.551893,1.0014,-3.02155,-0.151378,-3.41769,-3.0891,-0.0120137,-3.58235,-0.643331,-0.623294,-0.746459,-0.767774,-0.157539,0.469551,-0.467749,1
1.30262,-0.739206,-2.23017,-1.1292,2.41241,1.84374,-0.54873,1.31129,-0.742812,-2.20852,-1.10495,2.403,1.81904,-0.535285,1.36406,-0.681179,-2.15561,-1.05177,2.40408,1.79553,-0.501977,-0.664103,-0.263144,-1.03797,-1.14398,-0.261346,-0.0669903,-0.700078,-0.66326,-0.218172,-1.05045,-1.10751,-0.503153,0.0385004,-0.734037,0.171668,-0.512519,0.846352,0.650868,-0.132452,0.12309,0.737344,-0.19979,-0.384187,-0.643983,0.0512904,-0.552258,0.964873,-3.03633,-0.0350382,-3.50936,-3.09152,-0.0079304,-3.67684,-0.614363,-0.580276,-0.745627,-0.77436,0.0833075,0.482175,-0.467527,1
1.30076,-0.742002,-2.23945,-1.14118,2.43594,1.83302,-0.560234,1.30697,-0.741442,-2.21942,-1.11712,2.40299,1.83475,-0.542304,1.35754,-0.683951,-2.16568,-1.06295,2.4035,1.7951,-0.509065,-0.652119,-0.285997,-0.999545,-1.12438,0.00506204,-0.0284499,-0.714052,-0.657192,-0.24913,-1.02392,-1.1222,-0.274263,-0.0344738,-0.712961,0.170121,-0.517032,0.839975,0.656588,-0.123777,0.123617,0.733683,-0.236919,-0.406756,-0.651485,0.0201799,-0.552445,0.926302,-3.16751,-0.0190555,-3.9271,-3.10102,-0.0216948,-3.78271,-0.567731,-0.580513,-0.737726,-0.782367,0.324394,0.379241,-0.511689,1
1.29837,-0.749643,-2.24839,-1.15277,2.44393,1.83136,-0.569402,1.3034,-0.741271,-2.2297,-1.12917,2.41431,1.83895,-0.550333,1.35121,-0.68748,-2.17541,-1.0741,2.40418,1.7958,-0.516374,-0.621751,-0.375577,-0.957458,-1.10004,0.0738211,0.106106,-0.736462,-0.645991,-0.308239,-0.998323,-1.1228,-0.0608209,0.00355524,-0.716864,0.168107,-0.52174,0.833424,0.662302,-0.115683,0.122818,0.729992,-0.268784,-0.424357,-0.6877,-0.0108706,-0.553023,0.88817,-3.18616,-0.0593388,-3.91285,-3.11259,-0.0445234,-3.87439,-0.528398,-0.62163,-0.729791,-0.786758,0.397443,0.355589,-0.530274,1
1.29078,-0.758756,-2.25751,-1.16297,2.44075,1.83567,-0.577281,1.30036,-0.7442,-2.23927,-1.14095,2.42959,1.83608,-0.559558,1.34511,-0.691767,-2.18506,-1.08477,2.40424,1.79854,-0.523866,-0.613902,-0.453616,-0.980059,-1.06673,-0.024754,0.345282,-0.752616,-0.629257,-0.37173,-0.979021,-1.09705,0.018043,0.140979,-0.734376,0.165822,-0.526451,0.82657,0.667836,-0.108462,0.121619,0.726251,-0.284307,-0.416898,-0.7073,-0.0415966,-0.553476,0.849424,-3.00498,-0.0442327,-3.78933,-3.11305,-0.0551202,-3.95919,-0.543313,-0.669892,-0.724469,-0.782077,0.365105,0.371317,-0.534155,1
1.28117,-0.768047,-2.2668,-1.17244,2.43259,1.83909,-0.585598,1.29626,-0.750509,-2.24845,-1.15218,2.43846,1.83411,-0.5688,1.3389,-0.696874,-2.19495,-1.09509,2.40367,1.80463,-0.531444,-0.615783,-0.518617,-0.979832,-1.01171,-0.0560657,0.700474,-0.756715,-0.617145,-0.44927,-0.97245,-1.05949,-0.00233287,0.383954,-0.748597,0.163055,-0.531123,0.8191,0.673301,-0.102212,0.120855,0.722228,-0.340051,-0.424863,-0.776951,-0.0719513,-0.553621,0.809161,-3.03677,-0.0145796,-4.02802,-3.10245,-0.049196,-4.04492,-0.577308,-0.711725,-0.71847,-0.773452,0.289136,0.344674,-0.541533,1
1.27257,-0.776985,-2.2759,-1.18115,2.42513,1.83736,-0.594,1.28976,-0.758893,-2.25757,-1.16256,2.43823,1.83539,-0.57737,1.33305,-0.702282,-2.20459,-1.10545,2.40437,1.81366,-0.538995,-0.578828,-0.558119,-0.972999,-1.05741,0.120785,0.961998,-0.756367,-0.602838,-0.510118,-0.97763,-1.04528,0.0133217,0.669251,-0.755233,0.157994,-0.537475,0.807403,0.68094,-0.0959665,0.119413,0.716137,-0.380457,-0.38456,-0.815051,-0.102541,-0.553823,0.767071,-3.04179,-0.0200927,-4.18539,-3.0877,-0.0340998,-4.14743,-0.604823,-0.747032,-0.713124,-0.757028,0.207554,0.236952,-0.550048,1
1.26624,-0.78553,-2.28524,-1.19018,2.42911,1.83535,-0.601895,1.28156,-0.767901,-2.26676,-1.17213,2.43325,1.83709,-0.585626,1.3273,-0.708535,-2.21472,-1.11629,2.40779,1.82338,-0.546736,-0.570967,-0.641723,-1.01989,-1.08505,0.423792,0.954028,-0.781283,-0.588526,-0.57282,-0.990909,-1.05139,0.162837,0.872166,-0.764788,0.156062,-0.539722,0.803193,0.683509,-0.094144,0.118273,0.714118,-0.40709,-0.409815,-0.853538,-0.133136,-0.55395,0.725085,-3.09614,-0.0128296,-4.24886,-3.07072,-0.0301131,-4.23871,-0.610551,-0.769951,-0.705267,-0.738886,0.213202,0.119671,-0.551594,1
1.26217,-0.793172,-2.29506,-1.20079,2.44349,1.84312,-0.609153,1.27363,-0.776759,-2.27601,-1.18132,2.43011,1.83754,-0.593776,1.32178,-0.715096,-2.22503,-1.12773,2.41427,1.8315,-0.554822,-0.548184,-0.662516,-1.0349,-1.16222,0.720778,0.761449,-0.817284,-0.565993,-0.620786,-1.00926,-1.10156,0.421785,0.892491,-0.784978,0.151939,-0.5446,0.794569,0.688941,-0.0901708,0.114546,0.710006,-0.425744,-0.442921,-0.884648,-0.164399,-0.553823,0.682105,-3.17851,0.0129685,-4.36975,-3.06861,-0.0226229,-4.32541,-0.596118,-0.780753,-0.700291,-0.730578,0.292167,0.116132,-0.543312,1
1.25994,-0.799981,-2.30534,-1.21237,2.45681,1.85911,-0.616085,1.26734,-0.785115,-2.28547,-1.19085,2.43366,1.83951,-0.601604,1.31608,-0.721814,-2.23535,-1.13926,2.42266,1.83751,-0.563154,-0.575677,-0.672032,-1.02308,-1.14975,0.854487,0.548112,-0.838629,-0.564942,-0.658757,-1.02596,-1.13234,0.666352,0.75453,-0.812399,0.147625,-0.549934,0.78576,0.69478,-0.0852609,0.10911,0.705767,-0.450901,-0.474106,-0.900584,-0.19558,-0.555356,0.638234,-3.22933,-0.158771,-4.54359,-3.07471,-0.0286422,-4.42329,-0.561422,-0.781665,-0.699888,-0.731011,0.341514,0.215906,-0.52931,1
1.25714,-0.806101,-2.31589,-1.22465,2.46579,1.86547,-0.624304,1.26296,-0.79276,-2.29528,-1.2013,2.44347,1.84621,-0.609071,1.31032,-0.728876,-2.2455,-1.15097,2.42981,1.84155,-0.571741,-0.578625,-0.723913,-1.0219,-1.16807,0.648104,0.358889,-0.863233,-0.567495,-0.686154,-1.02663,-1.16001,0.741123,0.55615,-0.839715,0.143239,-0.555477,0.77695,0.700896,-0.0794011,0.103091,0.701293,-0.441939,-0.477404,-0.909274,-0.225838,-0.555849,0.593415,-3.03697,-0.0494753,-4.49847,-3.078,-0.0378102,-4.51731,-0.531864,-0.772247,-0.703908,-0.736837,0.359825,0.239213,-0.525627,1
1.25336,-0.81184,-2.32626,-1.23677,2.47365,1.86806,-0.631448,1.25978,-0.799646,-2.30546,-1.21268,2.45505,1.85577,-0.61648,1.3043,-0.736356,-2.25579,-1.16203,2.4341,1.84384,-0.580424,-0.606645,-0.747654,-1.02541,-1.09721,0.364329,0.186263,-0.868974,-0.586982,-0.714533,-1.02346,-1.13834,0.622307,0.364421,-0.856945,0.139045,-0.561175,0.767827,0.707082,-0.0722408,0.0978311,0.696595,-0.446741,-0.492025,-0.933078,-0.254816,-0.556411,0.547857,-2.71594,-0.0527364,-4.26993,-3.06297,-0.0493769,-4.60026,-0.509441,-0.754836,-0.704729,-0.747457,0.395546,0.242227,-0.510237,1
1.24636,-0.818023,-2.33619,-1.24809,2.47756,1.86467,-0.638175,1.25653,-0.805943,-2.31581,-1.22458,2.46485,1.86308,-0.623955,1.29821,-0.743933,-2.26594,-1.17289,2.43648,1.84504,-0.589119,-0.613248,-0.765703,-1.01608,-1.07169,0.206709,0.0981173,-0.868602,-0.599506,-0.745757,-1.02113,-1.11232,0.406381,0.214423,-0.866936,0.135024,-0.56677,0.7587,0.713204,-0.0641772,0.0935896,0.691709,-0.430113,-0.47304,-0.932817,-0.28738,-0.555738,0.499931,-3.27601,0.0677041,-4.82146,-3.06898,-0.0453302,-4.69488,-0.518536,-0.740898,-0.702425,-0.751937,0.41082,0.196324,-0.490562,1
1.24,-0.825317,-2.34547,-1.25871,2.4814,1.86123,-0.644509,1.25213,-0.812052,-2.32604,-1.23642,2.4721,1.86558,-0.6312,1.29227,-0.751942,-2.27586,-1.18347,2.43857,1.84604,-0.597638,-0.576024,-0.810537,-0.980514,-1.06562,0.223449,0.106291,-0.845999,-0.598639,-0.774632,-1.00734,-1.07817,0.264829,0.130224,-0.861192,0.130975,-0.57231,0.749479,0.719221,-0.0557335,0.0897091,0.686707,-0.44482,-0.471433,-0.941958,-0.315903,-0.555093,0.451524,-2.93016,0.066288,-4.97268,-3.04821,-0.0296976,-4.80502,-0.522702,-0.733745,-0.696064,-0.752448,0.428322,0.151855,-0.468717,1
1.2345,-0.833604,-2.35493,-1.26896,2.48563,1.86251,-0.6515,1.24645,-0.818529,-2.33593,-1.24775,2.47731,1.86457,-0.638043,1.28679,-0.759957,-2.28577,-1.19387,2.44175,1.84781,-0.605926,-0.554572,-0.800231,-1.00785,-1.02009,0.361089,0.206409,-0.823349,-0.581281,-0.792157,-1.00148,-1.05246,0.263749,0.136939,-0.845983,0.124891,-0.580269,0.735449,0.727692,-0.0436858,0.0831079,0.679448,-0.418685,-0.442162,-0.950778,-0.344296,-0.555723,0.401558,-2.81734,-0.0625582,-4.95817,-3.00671,-0.018096,-4.92338,-0.522839,-0.736471,-0.691566,-0.75089,0.438872,0.146992,-0.455734,1
1.22842,-0.842717,-2.36477,-1.27913,2.49097,1.86712,-0.657943,1.24033,-0.82581,-2.34552,-1.25852,2.48161,1.8632,-0.644697,1.2812,-0.768126,-2.29594,-1.20453,2.4469,1.85095,-0.613932,-0.54484,-0.820964,-1.00249,-1.08145,0.570885,0.341403,-0.792536,-0.558479,-0.810577,-0.996952,-1.05572,0.385141,0.218034,-0.820628,0.122549,-0.58287,0.73068,0.73056,-0.0399866,0.0805829,0.676897,-0.488189,-0.436593,-0.967554,-0.37504,-0.555989,0.353289,-3.05006,-0.0263548,-4.78848,-2.98708,-0.00118528,-5.01743,-0.527798,-0.745913,-0.688259,-0.74603,0.440738,0.161681,-0.440109,1
1.22386,-0.851549,-2.37433,-1.28945,2.49892,1.87084,-0.666312,1.23443,-0.833958,-2.35506,-1.26892,2.48624,1.864,-0.651456,1.27612,-0.776214,-2.30573,-1.21517,2.45399,1.85489,-0.621648,-0.508323,-0.804293,-0.985823,-1.04455,0.751362,0.4054,-0.766362,-0.535912,-0.808496,-0.998722,-1.04869,0.561112,0.317738,-0.794082,0.117915,-0.587823,0.721081,0.735977,-0.0331429,0.0746884,0.672058,-0.466518,-0.399924,-0.969372,-0.404605,-0.5566,0.301687,-2.95708,-0.0611082,-5.16136,-2.97738,-0.00498125,-5.11676,-0.522586,-0.753347,-0.686017,-0.742798,0.449304,0.159442,-0.446637,1
1.2186,-0.860216,-2.38437,-1.30015,2.50702,1.8745,-0.674299,1.22891,-0.842653,-2.36472,-1.27921,2.49203,1.86699,-0.658607,1.27082,-0.784396,-2.31582,-1.22609,2.46229,1.85893,-0.629139,-0.52829,-0.819981,-1.01087,-1.11064,0.845417,0.39217,-0.740631,-0.527151,-0.815079,-0.999729,-1.07888,0.722555,0.379658,-0.76651,0.112899,-0.592636,0.711544,0.741452,-0.0267618,0.0681348,0.667001,-0.515993,-0.395149,-0.977077,-0.435534,-0.556903,0.252093,-3.28378,-0.0321095,-5.26544,-2.98479,-0.014618,-5.18577,-0.522231,-0.758204,-0.685451,-0.740595,0.447313,0.155684,-0.451606,1
1.21401,-0.86815,-2.3941,-1.31104,2.51512,1.87668,-0.681653,1.22374,-0.851424,-2.37447,-1.28962,2.49914,1.87067,-0.66625,1.26561,-0.792488,-2.32578,-1.23685,2.47041,1.86203,-0.635971,-0.528181,-0.810187,-0.995063,-1.06622,0.796233,0.275164,-0.6659,-0.521598,-0.811487,-0.997252,-1.0738,0.797671,0.357578,-0.724298,0.105259,-0.599703,0.69699,0.749323,-0.016462,0.0578161,0.65947,-0.504016,-0.375945,-0.977383,-0.461753,-0.559201,0.196584,-2.4639,-0.21601,-5.2164,-2.93817,-0.0531575,-5.28133,-0.51607,-0.756618,-0.683196,-0.741853,0.447122,0.146479,-0.456817,1
1.20899,-0.875973,-2.40422,-1.32211,2.52267,1.88047,-0.687843,1.21878,-0.859924,-2.38431,-1.30026,2.507,1.87404,-0.673965,1.26006,-0.80078,-2.33578,-1.24767,2.47785,1.86423,-0.642593,-0.558141,-0.8305,-0.995339,-1.08349,0.728413,0.204566,-0.666655,-0.538204,-0.820223,-1.00042,-1.08679,0.790021,0.290633,-0.691062,0.100046,-0.604364,0.687143,0.754427,-0.00886925,0.0511078,0.654331,-0.52528,-0.365645,-0.99549,-0.49799,-0.557157,0.146743,-3.73827,0.210927,-5.14171,-3.00595,-0.0502093,-5.34102,-0.51064,-0.751926,-0.684417,-0.744458,0.448225,0.162453,-0.452497,1
1.2378,-0.892202,-2.33386,-1.34682,2.57598,1.84175,-0.645574,1.216,-0.868588,-2.38919,-1.31197,2.51778,1.87453,-0.678148,1.21414,-0.880049,-2.39169,-1.30717,2.50708,1.87194,-0.676225,0.0890048,0.197412,0.0732459,0.0322488,-0.00230092,0.000203741,0.00070706,0.0917411,0.210338,0.0790102,0.0329199,-0.00317014,0.000131828,0.0006671,0.0584156,-0.636356,0.61178,0.783408,0.0461177,0.00386222,0.619783,0.0861583,0.0530471,0.145837,-0.317634,-0.176096,0.619994,76.7218,39.7856,38.4123,8.22202,4.26369,3.86652,0.236622,-0.121534,0.578347,-0.396538,0.688922,-0.301839,0.306502,1
1.25294,-0.894928,-2.33084,-1.34067,2.5758,1.84007,-0.646049,1.2208,-0.878275,-2.37827,-1.32531,2.53645,1.86695,-0.67227,1.21499,-0.878226,-2.39096,-1.30687,2.50706,1.87194,-0.676216,0.082857,0.176787,0.0719037,0.0287255,-0.002857,0.000371507,0.000970708,0.0878583,0.195702,0.074648,0.0315258,-0.00279307,0.000191749,0.000818904,0.0596537,-0.63547,0.613775,0.782933,0.0448577,0.00499422,0.620467,0.0822421,0.0493259,0.132769,-0.317634,-0.176096,0.619994,0,0,0,13.7034,7.10615,6.61086,0.379491,-0.167021,0.601195,-0.338019,0.687462,-0.318671,0.30167,1
1.25167,-0.889785,-2.32926,-1.33561,2.57663,1.84412,-0.641664,1.23376,-0.887172,-2.35417,-1.33617,2.55884,1.85334,-0.658271,1.21578,-0.876591,-2.39039,-1.30668,2.50709,1.87195,-0.676231,0.0756547,0.157373,0.0479957,0.0105579,0.00893525,0.0011265,-0.00405058,0.0825055,0.177191,0.0643818,0.0238441,0.00125911,0.000567248,-0.000790936,0.0600422,-0.635199,0.614378,0.78278,0.0444742,0.005335,0.620684,0.0770387,0.0452417,0.120112,-0.317634,-0.176096,0.619994,0,0,0,16.444,8.52738,7.98303,0.358889,-0.13194,0.611242,-0.289246,0.695353,-0.278276,0.345672,1
1.25264,-0.888613,-2.3292,-1.33651,2.57784,1.84453,-0.642003,1.24607,-0.891381,-2.33568,-1.33952,2.57286,1.84431,-0.647193,1.21637,-0.875406,-2.3904,-1.30734,2.50818,1.87192,-0.676415,0.0577866,0.112038,-0.00281624,-0.0879023,0.155619,-0.00778958,-0.0166337,0.0720994,0.148733,0.0390277,-0.0162063,0.053899,-0.00209719,-0.0065712,0.0606344,-0.634777,0.615189,0.782598,0.0440423,0.00571685,0.620941,0.0487197,0.0324415,0.0579269,-0.317634,-0.176096,0.619994,0,0,0,16.444,8.52738,7.98303,0.362721,-0.132066,0.611978,-0.291666,0.696628,-0.273877,0.344122,1
1.25405,-0.888109,-2.32831,-1.33767,2.58178,1.84649,-0.641827,1.25151,-0.890824,-2.32987,-1.33793,2.57701,1.84321,-0.643099,1.21718,-0.874243,-2.38925,-1.30953,2.51194,1.87141,-0.676077,0.0834922,0.113164,0.154605,-0.270334,0.462983,-0.0676854,0.0457547,0.0723112,0.127525,0.0665948,-0.115893,0.209179,-0.0247828,0.00835681,0.0611813,-0.634493,0.615533,0.782342,0.0439684,0.00487995,0.621276,0.0774721,0.0369047,0.0320504,-0.317634,-0.176096,0.619994,0,0,0,13.7034,7.10615,6.61086,0.368728,-0.138659,0.609424,-0.281382,0.698482,-0.249176,0.342503,1
1.25533,-0.886322,-2.32465,-1.33672,2.59077,1.85046,-0.641045,1.25294,-0.889031,-2.32881,-1.33685,2.57921,1.84501,-0.642067,1.21766,-0.873481,-2.38629,-1.31372,2.51982,1.86959,-0.674353,0.0361333,0.0608574,0.356599,-0.463477,0.907852,-0.231098,0.227802,0.0591374,0.0953533,0.169463,-0.273905,0.508818,-0.102191,0.0856409,0.0619852,-0.634284,0.615526,0.781531,0.0441605,0.00164565,0.622299,0.102423,0.0371048,-0.0149675,-0.317634,-0.176096,0.619994,0,0,0,8.22202,4.26369,3.86652,0.376673,-0.128407,0.616409,-0.229978,0.709516,-0.191276,0.333079,1
1.2559,-0.868086,-2.33298,-1.30422,2.60961,1.91477,-0.70688,1.25399,-0.886641,-2.32797,-1.33492,2.58446,1.85111,-0.645731,1.21775,-0.873513,-2.38021,-1.31946,2.53236,1.86552,-0.670064,-0.000119842,-0.0287748,0.693928,-0.603133,1.36108,-0.460373,0.494733,0.0398352,0.0484157,0.401711,-0.445648,0.910637,-0.253052,0.256097,0.0627654,-0.634466,0.615086,0.779824,0.0448579,-0.00501736,0.624369,0.129212,0.0174522,-0.0509609,-0.317634,-0.176096,0.619994,0,0,0,-2.12874e-07,0,-0.25,0.381531,0.0542733,0.472286,0.152387,0.772504,0.49251,-0.368157,1
1.24653,-0.829646,-2.3307,-1.3179,2.62708,1.91281,-0.715277,1.25444,-0.878811,-2.32831,-1.32764,2.5947,1.86907,-0.662398,1.21747,-0.874804,-2.37107,-1.32572,2.548,1.8599,-0.663597,-0.0362772,-0.165818,0.978105,-0.621433,1.60708,-0.580075,0.683298,-8.7887e-05,-0.0445784,0.676211,-0.562681,1.292,-0.423849,0.468611,0.0636818,-0.635082,0.614357,0.776868,0.0457466,-0.0151244,0.627817,0.160307,-0.00728129,-0.0780468,-0.317634,-0.176096,0.619994,0,0,0,-2.12874e-07,0,-0.25,0.290666,0.451579,0.403714,0.0782498,0.790873,0.529066,-0.516793,1
1.25248,-0.828435,-2.32357,-1.35378,2.64217,1.91207,-0.706857,1.25309,-0.861808,-2.32945,-1.32095,2.60956,1.89376,-0.688453,1.21703,-0.877403,-2.36042,-1.33108,2.56359,1.85438,-0.656604,-0.0358217,-0.287509,1.08347,-0.510565,1.52056,-0.525378,0.69086,-0.0240729,-0.1607,0.918502,-0.578377,1.49624,-0.521942,0.622963,0.0645538,-0.636042,0.613367,0.773096,0.0463098,-0.0270719,0.632017,0.159245,-0.0333647,-0.0975999,-0.317634,-0.176096,0.619994,0,0,0,-2.12874e-07,0,-0.25,0.354444,0.489681,0.368507,-0.227033,0.785824,0.57689,-0.50253,1
1.26289,-0.836902,-2.31593,-1.36354,2.65545,1.90104,-0.685777,1.25193,-0.842949,-2.32819,-1.32748,2.62599,1.90848,-0.704589,1.21766,-0.880979,-2.34961,-1.33513,2.57654,1.85052,-0.65088,0.0935871,-0.370238,1.05771,-0.359703,1.2174,-0.321149,0.508647,0.00716275,-0.274521,1.03976,-0.497234,1.44834,-0.475534,0.627601,0.0657149,-0.637006,0.612213,0.768998,0.0462054,-0.0386216,0.636408,0.213709,-0.0305613,-0.113068,-0.317634,-0.176096,0.619994,0,0,0,-2.12874e-07,0,-0.25,0.452334,0.440766,0.336741,-0.284174,0.789136,0.505192,-0.348963,1
1.25794,-0.864349,-2.32239,-1.33004,2.66578,1.8905,-0.651838,1.25415,-0.835578,-2.32396,-1.34267,2.64116,1.90832,-0.700254,1.21927,-0.884818,-2.34074,-1.33719,2.58676,1.85032,-0.649088,0.189943,-0.384655,0.828514,-0.164548,0.972875,0.0837119,0.0625592,0.0825694,-0.347467,0.989898,-0.344939,1.23694,-0.254272,0.420689,0.0679768,-0.63784,0.610602,0.76448,0.0437714,-0.0520637,0.641049,0.213643,-0.0176324,-0.100468,-0.317634,-0.176096,0.619994,0,0,0,-2.12874e-07,0,-0.25,0.386699,0.204692,0.183454,0.0714972,0.790176,0.401802,-0.0275083,1
1.20407,-0.889427,-2.33795,-1.33897,2.67405,1.91082,-0.63512,1.25435,-0.844477,-2.32176,-1.34834,2.6541,1.90251,-0.68124,1.22241,-0.888206,-2.33414,-1.33737,2.59575,1.85432,-0.651865,0.355257,-0.32049,0.60257,0.0302969,0.890805,0.514951,-0.395273,0.212929,-0.358461,0.829597,-0.164651,1.02703,0.0925045,0.0586443,0.068726,-0.637879,0.61022,0.763858,0.0421219,-0.055423,0.641619,0.212078,0.00808057,-0.0728539,-0.317634,-0.176096,0.619994,0,0,0,-2.12874e-07,0,-0.25,-0.183437,-0.012215,-0.0380891,-0.0160507,0.782996,0.564935,0.167452,1
1.20609,-0.893384,-2.35264,-1.36145,2.68005,1.92354,-0.662263,1.24213,-0.863327,-2.32663,-1.3441,2.66468,1.90163,-0.660234,1.22695,-0.890905,-2.32975,-1.33687,2.60507,1.86317,-0.66003,0.483312,-0.254024,0.386201,0.044918,0.958282,0.998191,-0.956041,0.342837,-0.319723,0.605762,-0.0297776,0.940654,0.532285,-0.429585,0.0701668,-0.637486,0.609779,0.764147,0.0372555,-0.0609149,0.641078,0.207332,0.0504472,-0.039984,-0.317634,-0.176096,0.619994,0,0,0,-2.12874e-07,0,-0.25,-0.20853,-0.0247873,-0.228819,-0.245831,0.749758,0.603641,-0.0223364,1
1.28277,-0.937456,-2.29467,-1.30852,2.68816,1.86054,-0.682051,1.22664,-0.883866,-2.33365,-1.34199,2.6732,1.90517,-0.652185,1.2324,-0.892732,-2.32669,-1.337,2.61588,1.87525,-0.671984,0.55752,-0.160221,0.281684,-0.0421496,1.12714,1.25484,-1.22994,0.465363,-0.244912,0.423485,0.0110218,0.992076,0.92266,-0.860417,0.0715754,-0.636449,0.60933,0.766363,0.0309039,-0.0657045,0.638292,0.214875,0.10028,-0.0410743,-0.317634,-0.176096,0.619994,0,0,0,-2.12874e-07,0,-0.25,0.503701,-0.447238,0.320185,0.284806,0.722744,-0.147093,-0.100672,1
1.29712,-0.911248,-2.30963,-1.26832,2.69738,1.91585,-0.71005,1.23369,-0.902715,-2.3299,-1.33482,2.68077,1.90206,-0.662759,1.23772,-0.893801,-2.32455,-1.33854,2.62843,1.88703,-0.681469,0.515694,-0.0898959,0.192316,-0.187929,1.29065,1.12104,-0.811748,0.518842,-0.168047,0.286734,-0.0617203,1.12536,1.12469,-0.999241,0.0735918,-0.634436,0.608359,0.769791,0.0214117,-0.0737196,0.633663,0.194009,0.117059,-0.0772857,-0.317634,-0.176096,0.619994,0,0,0,-2.12874e-07,0,-0.25,0.594012,-0.174474,0.149203,0.702157,0.689506,0.288211,-0.28581,1
1.27583,-0.935574,-2.31769,-1.27546,2.71492,1.87851,-0.726,1.26183,-0.916767,-2.31705,-1.31154,2.68923,1.89438,-0.683917,1.24218,-0.89409,-2.32344,-1.34098,2.64172,1.89613,-0.685407,0.419147,-0.0104745,0.0686354,-0.250069,1.33475,0.840774,-0.249146,0.497454,-0.0868638,0.180878,-0.160049,1.25085,1.07222,-0.76361,0.0744903,-0.63347,0.607482,0.770372,0.0169012,-0.0796086,0.63238,0.134437,0.0885631,-0.0836782,-0.317634,-0.176096,0.619994,0,0,0,-2.12874e-07,0,-0.25,0.336483,-0.414844,0.0575886,0.655276,0.732005,-0.176181,-0.405931,1
1.2561,-0.880696,-2.30537,-1.28382,2.73096,1.92509,-0.728163,1.27996,-0.920856,-2.31033,-1.28694,2.70047,1.89375,-0.705183,1.24609,-0.893614,-2.32396,-1.34289,2.65473,1.90245,-0.683901,0.398833,0.0675448,-0.0843111,-0.183567,1.29149,0.568893,0.27393,0.444558,-0.0109419,0.05888,-0.207188,1.30563,0.84357,-0.262321,0.0746893,-0.633185,0.607116,0.770244,0.0151397,-0.0823532,0.632229,0.0961879,0.0635644,-0.0669464,-0.317634,-0.176096,0.619994,0,0,0,-2.12874e-07,0,-0.25,0.100174,0.129184,0.1859,0.590755,0.762371,0.226429,-0.442616,1
1.20917,-0.859619,-2.30308,-1.27801,2.73855,1.86557,-0.7216,1.27249,-0.911143,-2.31024,-1.27799,2.71435,1.89756,-0.719531,1.25044,-0.892427,-2.32523,-1.34416,2.66695,1.906,-0.679132,0.439128,0.137947,-0.127893,-0.0991672,1.19657,0.293391,0.489401,0.419036,0.0650059,-0.0478562,-0.177601,1.27427,0.567686,0.171395,0.0753275,-0.632836,0.606581,0.768956,0.0125094,-0.0874123,0.633174,0.121675,0.0396116,-0.0384477,-0.317634,-0.176096,0.619994,0,0,0,-2.12874e-07,0,-0.25,-0.412611,0.328085,0.221464,0.66149,0.716009,-0.404342,-0.424678,1
1.24162,-0.920848,-2.29337,-1.31646,2.74874,1.91767,-0.715092,1.25096,-0.893565,-2.30739,-1.28135,2.72786,1.89752,-0.724033,1.25421,-0.890962,-2.32594,-1.34404,2.67802,1.90653,-0.676577,0.348997,0.142393,-0.0452154,0.0459704,1.07261,-0.0210318,0.156498,0.395653,0.115962,-0.0858064,-0.0789212,1.18689,0.280417,0.30661,0.0762152,-0.63277,0.60669,0.767497,0.0107586,-0.091832,0.63435,0.121632,0.00969642,0.0353731,-0.317634,-0.176096,0.619994,0,0,0,-2.12874e-07,0,-0.25,-0.12591,-0.298867,0.325774,0.275839,0.707178,0.111386,-0.385151,1
1.23694,-0.846023,-2.33268,-1.38381,2.75931,1.95803,-0.719567,1.23492,-0.884093,-2.30399,-1.29552,2.73902,1.90006,-0.721762,1.25704,-0.889635,-2.32495,-1.34165,2.68787,1.90515,-0.678275,0.265085,0.129487,0.156582,0.311031,0.956837,-0.157517,-0.278291,0.35107,0.136609,-0.00550862,0.0859449,1.07534,0.0382807,0.122536,0.0767756,-0.633127,0.607511,0.767341,0.00960735,-0.0959058,0.633954,0.0793088,-0.030089,0.114168,-0.317634,-0.176096,0.619994,0,0,0,-2.12874e-07,0,-0.25,-0.201021,0.436129,-0.0773415,-0.421562,0.71446,0.528765,-0.412922,1
1.26276,-0.865862,-2.3035,-1.31233,2.77268,1.9675,-0.735828,1.23457,-0.880888,-2.30701,-1.32138,2.74922,1.91831,-0.719951,1.25923,-0.888626,-2.32221,-1.33601,2.69712,1.90364,-0.684757,0.205872,0.0912218,0.298101,0.649806,0.926561,-0.14503,-0.769382,0.273318,0.121034,0.136489,0.335603,0.985336,-0.10786,-0.297058,0.0769012,-0.633654,0.609543,0.76872,0.00743911,-0.0996248,0.631735,0.036966,-0.0553347,0.239136,-0.317634,-0.176096,0.619994,0,0,0,-2.12874e-07,0,-0.25,0.0352596,0.227644,0.187021,0.236822,0.755665,0.638586,-0.510718,1
1.28397,-0.933798,-2.33673,-1.30012,2.78033,1.91565,-0.731294,1.24577,-0.876025,-2.31396,-1.33726,2.76003,1.94188,-0.723374,1.26126,-0.88799,-2.31877,-1.32759,2.70682,1.90243,-0.695005,0.209036,0.0574391,0.361795,0.88716,0.987784,-0.106741,-1.08497,0.226664,0.0927158,0.272159,0.615999,0.957061,-0.136429,-0.71088,0.0757673,-0.634865,0.614311,0.773986,0.00169238,-0.105099,0.624417,-0.0427261,-0.100186,0.354273,-0.317634,-0.176096,0.619994,0,0,0,-2.12874e-07,0,-0.25,0.227075,-0.458082,-0.179592,0.274692,0.735078,0.132173,-0.362886,1
1.21825,-0.884366,-2.34732,-1.26226,2.79072,1.92901,-0.750839,1.2575,-0.882479,-2.32121,-1.32428,2.77088,1.94665,-0.730272,1.26362,-0.887554,-2.31467,-1.31881,2.71736,1.90165,-0.705955,0.236012,0.0406136,0.416047,0.859549,1.07917,-0.0601834,-1.06958,0.216973,0.0630915,0.358648,0.798838,0.997838,-0.103985,-0.974643,0.0753643,-0.635283,0.616066,0.775968,-0.000570179,-0.107158,0.621603,-0.0248252,-0.0963498,0.358176,-0.317634,-0.176096,0.619994,0,0,0,-2.12874e-07,0,-0.25,-0.453625,0.0318799,-0.326463,0.565539,0.733634,0.273618,-0.448843,1
1.23238,-0.847028,-2.347,-1.27946,2.79539,1.93103,-0.755001,1.25607,-0.893547,-2.33146,-1.29765,2.78064,1.93556,-0.738063,1.26505,-0.887002,-2.31126,-1.31194,2.72886,1.90245,-0.714736,0.104584,0.0588052,0.302067,0.602469,1.17069,0.136437,-0.806855,0.183211,0.052286,0.35997,0.783059,1.07921,-0.0101624,-0.987134,0.0743567,-0.636,0.619275,0.779558,-0.00522965,-0.111724,0.616263,-0.0593753,-0.0770284,0.314866,-0.317634,-0.176096,0.619994,0,0,0,-2.12874e-07,0,-0.25,-0.326692,0.399741,-0.357395,0.324809,0.665283,0.285752,-0.402651,1
1.20039,-0.859366,-2.36025,-1.2562,2.80152,1.89899,-0.74777,1.23988,-0.88467,-2.34266,-1.27877,2.78884,1.9267,-0.745863,1.26519,-0.885968,-2.30917,-1.30905,2.74101,1.90622,-0.721108,-0.013434,0.124262,0.18236,0.195722,1.22227,0.470166,-0.590305,0.109054,0.0745601,0.300158,0.55258,1.15737,0.18214,-0.822247,0.0725934,-0.636351,0.621325,0.7826,-0.00960792,-0.116624,0.611428,-0.128599,-0.0268502,0.180321,-0.317634,-0.176096,0.619994,0,0,0,-2.12874e-07,0,-0.25,-0.648044,0.266028,-0.510831,0.528469,0.605139,-0.072303,-0.266618,1
1.20694,-0.875027,-2.34487,-1.27574,2.81,1.8686,-0.708603,1.22249,-0.86662,-2.34962,-1.2704,2.79573,1.91765,-0.747771,1.26392,-0.884186,-2.30864,-1.30942,2.75334,1.91364,-0.726318,-0.166146,0.187884,0.0029001,-0.099263,1.23325,0.825982,-0.502918,-0.0249985,0.12365,0.162442,0.232976,1.20874,0.477528,-0.63336,0.0703078,-0.635925,0.622362,0.785278,-0.014164,-0.121359,0.606967,-0.189534,0.0498841,0.0920404,-0.317634,-0.176096,0.619994,0,0,0,-2.12874e-07,0,-0.25,-0.569817,0.0915936,-0.362316,0.336779,0.566682,-0.450453,0.177151,1
1.24394,-0.918271,-2.26613,-1.28145,2.82897,1.87337,-0.707457,1.21386,-0.865441,-2.3464,-1.26886,2.80315,1.89968,-0.737458,1.26191,-0.882286,-2.31006,-1.31075,2.76537,1.92221,-0.731185,-0.19716,0.183127,-0.191312,-0.118689,1.18925,0.823933,-0.487819,-0.12558,0.165091,-0.0020173,-0.00741007,1.21492,0.706694,-0.527014,0.067098,-0.635047,0.622558,0.788326,-0.0188861,-0.125535,0.602019,-0.283315,0.0737435,0.0148258,-0.317634,-0.176096,0.619994,0,0,0,-2.12874e-07,0,-0.25,-0.179697,-0.359854,0.439262,0.292982,0.636065,-0.488395,0.237281,1
1.24522,-0.89777,-2.32786,-1.24534,2.84498,1.95832,-0.777501,1.21853,-0.881594,-2.3281,-1.27062,2.8139,1.8869,-0.725314,1.2611,-0.88134,-2.31361,-1.31078,2.77641,1.92838,-0.736346,-0.0318054,0.0582779,-0.410271,0.0535323,1.07679,0.541279,-0.527545,-0.131704,0.143096,-0.199561,-0.0548066,1.16643,0.730398,-0.506094,0.063715,-0.634571,0.622257,0.791733,-0.0225414,-0.129136,0.596636,-0.283274,0.0172876,-0.0375004,-0.317634,-0.176096,0.619994,0,0,0,-2.12874e-07,0,-0.25,-0.158789,-0.164296,-0.142498,0.654347,0.685689,0.299341,-0.411545,1
1.25274,-0.922565,-2.31915,-1.24354,2.84786,1.95235,-0.802063,1.23284,-0.898922,-2.31044,-1.26705,2.8277,1.89995,-0.733687,1.26181,-0.881663,-2.31948,-1.30805,2.78613,1.9312,-0.741609,0.0984481,-0.0529451,-0.643095,0.351441,0.941037,0.197723,-0.514579,-0.0435057,0.0628199,-0.414892,0.0954282,1.06903,0.520978,-0.509981,0.0594146,-0.635737,0.620985,0.797274,-0.024789,-0.133414,0.588168,-0.259557,-0.129861,-0.0816475,-0.317634,-0.176096,0.619994,0,0,0,-2.12874e-07,0,-0.25,-0.0907877,-0.409023,0.00327311,0.645061,0.617329,0.211469,-0.604543,1
1.25393,-0.883333,-2.35094,-1.27361,2.86533,1.98168,-0.755847,1.24493,-0.90677,-2.31276,-1.25759,2.83973,1.93144,-0.760471,1.26338,-0.8825,-2.3263,-1.30272,2.79452,1.93032,-0.744569,0.172245,-0.0898796,-0.668465,0.585212,0.811438,-0.184253,-0.210342,0.0796294,-0.0281823,-0.573943,0.330062,0.943089,0.184916,-0.417489,0.0568292,-0.637593,0.620456,0.800445,-0.0248047,-0.135377,0.583391,-0.252657,-0.167856,-0.0641706,-0.317634,-0.176096,0.619994,0,0,0,-2.12874e-07,0,-0.25,-0.0944674,-0.00832447,-0.246461,0.291103,0.708195,0.513547,-0.11278,1
1.27619,-0.902624,-2.34203,-1.28036,2.87318,1.98797,-0.764094,1.25207,-0.905044,-2.32739,-1.25618,2.84613,1.95846,-0.776083,1.2649,-0.883406,-2.33082,-1.29606,2.80214,1.9257,-0.744147,0.124196,-0.0881821,-0.371592,0.675819,0.755408,-0.552846,0.115974,0.13163,-0.0770023,-0.56105,0.537491,0.835961,-0.179792,-0.202982,0.0547658,-0.639821,0.620776,0.802051,-0.0243632,-0.137673,0.580661,-0.187254,-0.215054,0.0577641,-0.317634,-0.176096,0.619994,0,0,0,-2.12874e-07,0,-0.25,0.112887,-0.192183,-0.112183,0.156957,0.710475,0.622688,-0.19947,1
1.26573,-0.885913,-2.31582,-1.30071,2.88405,1.97483,-0.749742,1.25939,-0.899027,-2.33713,-1.26771,2.84806,1.97403,-0.770435,1.2643,-0.884376,-2.33202,-1.28942,2.81012,1.91911,-0.742763,-0.123009,-0.0999988,-0.0251196,0.66272,0.823039,-0.644935,0.118659,0.0578106,-0.0926869,-0.355059,0.64125,0.796629,-0.460678,0.0080969,0.0535528,-0.641019,0.621145,0.802566,-0.0240443,-0.139225,0.579591,-0.223632,-0.221704,0.0809524,-0.317634,-0.176096,0.619994,0,0,0,-2.12874e-07,0,-0.25,0.014266,-0.0153754,0.162012,-0.11298,0.739284,0.557149,-0.0697978,1
1.26765,-0.894516,-2.3163,-1.30596,2.89368,1.97419,-0.757195,1.26601,-0.894363,-2.33467,-1.28306,2.84838,1.98002,-0.760386,1.26138,-0.885987,-2.32967,-1.28255,2.81936,1.91522,-0.743589,-0.343416,-0.193934,0.307127,0.688774,0.958858,-0.280342,-0.164188,-0.114077,-0.127371,-0.0298614,0.675771,0.845768,-0.492708,0.0234817,0.0502702,-0.643168,0.622282,0.803804,-0.0247513,-0.14334,0.576836,-0.322713,-0.193652,0.136049,-0.317634,-0.176096,0.619994,0,0,0,-2.12874e-07,0,-0.25,0.0627062,-0.0852896,0.133774,-0.234104,0.743235,0.5897,-0.136052,1
1.27103,-0.890117,-2.31526,-1.30875,2.90562,1.96897,-0.748801,1.26842,-0.892343,-2.32465,-1.29574,2.84842,1.97801,-0.755516,1.25711,-0.889178,-2.32641,-1.27547,2.82961,1.91637,-0.748364,-0.443415,-0.355725,0.297408,0.706536,1.03895,0.249925,-0.580854,-0.30328,-0.216552,0.193139,0.68601,0.940283,-0.225117,-0.208794,0.0455971,-0.644897,0.623179,0.806129,-0.0279452,-0.14873,0.572062,-0.443787,-0.17013,0.0847478,-0.317634,-0.176096,0.619994,0,0,0,-2.12874e-07,0,-0.25,0.139219,-0.00939201,0.111473,-0.332788,0.760106,0.52599,-0.00437569,1
1.23099,-0.921077,-2.32935,-1.26968,2.91174,1.92936,-0.737408,1.26626,-0.893433,-2.31834,-1.30148,2.84842,1.9711,-0.752428,1.25358,-0.892729,-2.32489,-1.26957,2.83966,1.9229,-0.755782,-0.305545,-0.330893,0.101293,0.534905,0.976844,0.788138,-0.755864,-0.364126,-0.293517,0.235276,0.643405,0.991551,0.252574,-0.500302,0.0399602,-0.646212,0.623021,0.810008,-0.032801,-0.154217,0.564826,-0.49619,-0.134133,-0.0258246,-0.317634,-0.176096,0.619994,0,0,0,-2.12874e-07,0,-0.25,-0.225937,-0.283488,-0.044596,-0.00111824,0.720773,0.0646065,0.183736,1
1.24839,-0.919558,-2.30923,-1.25961,2.91828,1.90325,-0.781484,1.25843,-0.900534,-2.3187,-1.29471,2.84842,1.95663,-0.750153,1.25136,-0.894884,-2.32529,-1.26616,2.84792,1.93424,-0.761349,-0.206409,-0.183112,-0.0816865,0.256481,0.765686,1.23878,-0.474144,-0.318457,-0.28991,0.105672,0.499307,0.927161,0.758948,-0.60362,0.0351732,-0.646407,0.622373,0.813922,-0.0388306,-0.15821,0.557667,-0.393722,-0.0243168,-0.0517386,-0.317634,-0.176096,0.619994,0,0,0,-2.12874e-07,0,-0.25,-0.0297025,-0.246737,0.160552,0.0654936,0.703538,-0.309915,-0.201352,1
1.25614,-0.942518,-2.35142,-1.21041,2.92246,1.91211,-0.797287,1.24921,-0.912637,-2.32136,-1.27549,2.84842,1.93446,-0.756255,1.24948,-0.895992,-2.32576,-1.26642,2.85355,1.94749,-0.763768,-0.187006,-0.09288,-0.0159394,-0.113901,0.49497,1.32464,-0.169929,-0.232987,-0.202295,0.00122242,0.225828,0.745834,1.11719,-0.466645,0.0301915,-0.644644,0.620759,0.817529,-0.0483054,-0.160982,0.550815,-0.287167,0.0786277,-0.100346,-0.317634,-0.176096,0.619994,0,0,0,-2.12874e-07,0,-0.25,0.0665775,-0.465252,-0.256628,0.560129,0.689134,-0.353805,-0.335188,1
1.25421,-0.950211,-2.34847,-1.20861,2.92546,1.9218,-0.81706,1.24776,-0.925754,-2.32764,-1.24971,2.84842,1.91726,-0.774597,1.24699,-0.896832,-2.3252,-1.26989,2.85676,1.95922,-0.763984,-0.272492,-0.0859889,0.0793016,-0.414041,0.262183,1.08342,0.0292183,-0.221969,-0.12066,-0.00610811,-0.0904871,0.507613,1.21561,-0.204951,0.0290987,-0.643812,0.619987,0.818053,-0.0508498,-0.161574,0.549634,-0.184821,0.132175,-0.146973,-0.317634,-0.176096,0.619994,0,0,0,-2.12874e-07,0,-0.25,0.0721311,-0.533783,-0.232663,0.612853,0.68694,-0.374124,-0.530752,1
1.20356,-0.941435,-2.35668,-1.20962,2.9147,1.96402,-0.823101,1.24886,-0.937293,-2.33909,-1.22591,2.84842,1.91664,-0.796151,1.24385,-0.897721,-2.32362,-1.27522,2.85784,1.96631,-0.76266,-0.322947,-0.0924726,0.176184,-0.556178,0.0625688,0.587469,0.158411,-0.260815,-0.0904472,0.0798489,-0.361373,0.273241,0.99851,0.00590038,0.0274399,-0.642398,0.618114,0.818315,-0.0539266,-0.162694,0.54862,-0.126843,0.117479,-0.186859,-0.317634,-0.176096,0.619994,0,0,0,-2.12874e-07,0,-0.25,-0.402863,-0.437142,-0.330587,0.655939,0.568676,-0.0228907,-0.60441,1
1.19512,-0.932867,-2.37129,-1.24031,2.86779,1.98222,-0.821403,1.23797,-0.943094,-2.35023,-1.21448,2.84842,1.93255,-0.811675,1.24057,-0.899121,-2.32223,-1.28048,2.85745,1.96887,-0.761137,-0.325643,-0.15967,0.110461,-0.48626,-0.0644288,0.137019,0.123477,-0.307027,-0.11271,0.121982,-0.485493,0.0867743,0.602638,0.103702,0.0264027,-0.641584,0.616055,0.817873,-0.0543702,-0.163835,0.548896,-0.0879357,0.0709819,-0.210408,-0.317634,-0.176096,0.619994,0,0,0,-2.12874e-07,0,-0.25,-0.454469,-0.337465,-0.490664,0.401763,0.103441,0.133545,-0.602663,1
1.2036,-0.887393,-2.36519,-1.25506,2.89173,1.99774,-0.803692,1.2174,-0.938177,-2.35848,-1.21993,2.84842,1.95688,-0.81834,1.23816,-0.901277,-2.32227,-1.28301,2.85623,1.96624,-0.761786,-0.196666,-0.229683,-0.0434918,-0.161,-0.138771,-0.399648,-0.132057,-0.281752,-0.160609,0.0810513,-0.401146,-0.046877,0.10828,0.0499435,0.0253801,-0.641798,0.6139,0.817842,-0.0525085,-0.164847,0.548819,-0.106787,-0.0309902,-0.211401,-0.317634,-0.176096,0.619994,0,0,0,-2.12874e-07,0,-0.25,-0.345598,0.138844,-0.429116,0.279514,0.354993,0.315033,-0.419062,1
1.23974,-0.907082,-2.36348,-1.27851,2.89878,1.99196,-0.763797,1.20583,-0.923113,-2.3642,-1.23673,2.84842,1.97838,-0.813528,1.23744,-0.903937,-2.32441,-1.28112,2.85454,1.95903,-0.765916,-0.0368764,-0.282943,-0.277058,0.314917,-0.171599,-0.814816,-0.52219,-0.186395,-0.224099,-0.0700296,-0.110781,-0.124933,-0.359148,-0.176924,0.024147,-0.64441,0.611678,0.819821,-0.0463989,-0.165569,0.546194,-0.113558,-0.204619,-0.117522,-0.317634,-0.176096,0.619994,0,0,0,-2.12874e-07,0,-0.25,0.0229522,-0.0314517,-0.390679,0.0260533,0.442367,0.329215,0.0211963,1
1.22996,-0.914343,-2.37367,-1.26977,2.90989,1.99986,-0.763453,1.21216,-0.908746,-2.36629,-1.25532,2.84842,1.99044,-0.796844,1.23814,-0.907031,-2.32887,-1.27436,2.85281,1.95115,-0.774503,0.108682,-0.317671,-0.491821,0.789191,-0.174199,-0.732783,-0.967009,-0.04162,-0.276765,-0.27079,0.314369,-0.161523,-0.649082,-0.540419,0.0235242,-0.645734,0.611314,0.821389,-0.044229,-0.165394,0.544067,-0.145012,-0.242411,-0.0776964,-0.317634,-0.176096,0.619994,0,0,0,-2.12874e-07,0,-0.25,-0.0818248,-0.0731214,-0.448042,0.0458807,0.570854,0.487105,0.110496,1
1.25962,-0.923634,-2.37975,-1.25327,2.9112,1.99892,-0.781881,1.22671,-0.906621,-2.36796,-1.2665,2.84842,1.99521,-0.778415,1.24067,-0.91064,-2.33484,-1.26387,2.85113,1.94728,-0.786449,0.300366,-0.376931,-0.63153,1.10624,-0.165455,-0.260052,-1.25266,0.124057,-0.325848,-0.466803,0.736782,-0.170418,-0.60255,-0.913952,0.0220034,-0.648349,0.611146,0.825769,-0.041581,-0.164198,0.537973,-0.171817,-0.258144,-0.00702411,-0.317634,-0.176096,0.619994,0,0,0,-2.12874e-07,0,-0.25,0.18953,-0.12994,-0.449125,0.105984,0.600721,0.516458,0.0456795,1
1.25718,-0.930443,-2.39271,-1.2364,2.90394,1.99139,-0.807191,1.23987,-0.914172,-2.3733,-1.26483,2.84842,1.99699,-0.773395,1.24467,-0.914654,-2.34235,-1.25244,2.84966,1.94867,-0.798738,0.423896,-0.399101,-0.778753,1.12456,-0.137269,0.264042,-1.17982,0.277648,-0.364568,-0.634035,1.00666,-0.158974,-0.242931,-1.13316,0.0205066,-0.650511,0.611074,0.831033,-0.0415197,-0.162077,0.530463,-0.158306,-0.228351,-0.0215969,-0.317634,-0.176096,0.619994,0,0,0,-2.12874e-07,0,-0.25,0.125139,-0.157894,-0.503675,0.160416,0.542869,0.427186,-0.0845231,1
1.22739,-0.922354,-2.40672,-1.22982,2.89686,1.97304,-0.816878,1.24834,-0.921899,-2.38214,-1.25329,2.84842,1.99522,-0.784659,1.24925,-0.918324,-2.34996,-1.24349,2.84871,1.95489,-0.806342,0.46125,-0.350806,-0.745018,0.794859,-0.0806089,0.723339,-0.601355,0.395171,-0.375613,-0.718434,1.00855,-0.127778,0.242443,-1.01128,0.0192888,-0.651872,0.61056,0.835751,-0.0434921,-0.159394,0.523662,-0.110816,-0.15021,-0.0729322,-0.317634,-0.176096,0.619994,0,0,0,-2.12874e-07,0,-0.25,-0.218546,-0.0402918,-0.567509,0.136698,0.481489,0.181533,-0.105363,1
1.20776,-0.921159,-2.40828,-1.23253,2.86055,1.92318,-0.823352,1.24556,-0.925132,-2.39276,-1.24082,2.84842,1.98495,-0.801562,1.25284,-0.921408,-2.35684,-1.23874,2.84827,1.96421,-0.807664,0.305016,-0.299155,-0.67206,0.363341,-0.0318869,0.984026,0.020121,0.396721,-0.349688,-0.731944,0.760921,-0.0832549,0.657136,-0.587018,0.0186922,-0.652219,0.609327,0.838452,-0.0467033,-0.156831,0.519828,-0.0543275,-0.0530445,-0.14617,-0.317634,-0.176096,0.619994,0,0,0,-2.12874e-07,0,-0.25,-0.450742,0.00248758,-0.514391,0.0620692,0.122866,-0.410373,-0.156877,1
1.22746,-0.957816,-2.36575,-1.23486,2.87463,1.94281,-0.856136,1.23195,-0.926374,-2.39936,-1.23392,2.84842,1.96489,-0.816341,1.25387,-0.924353,-2.36321,-1.23822,2.84814,1.9748,-0.803903,0.0419318,-0.29532,-0.618132,-0.0333513,-0.0018024,1.05894,0.480293,0.269399,-0.315094,-0.678403,0.37495,-0.0380994,0.922101,-0.033647,0.0176626,-0.651914,0.60706,0.839576,-0.04999,-0.154656,0.518357,-0.125997,0.00781648,-0.261508,-0.317634,-0.176096,0.619994,0,0,0,-2.12874e-07,0,-0.25,-0.264131,-0.334635,-0.0253459,0.0335929,0.264989,-0.319916,-0.522327,1
1.23007,-0.970744,-2.33857,-1.18466,2.88415,1.98088,-0.83725,1.22208,-0.934301,-2.39192,-1.22969,2.84842,1.94842,-0.829788,1.2533,-0.927132,-2.36867,-1.24027,2.84823,1.98392,-0.797876,-0.0840914,-0.275535,-0.534808,-0.233843,0.00981725,0.843754,0.588831,0.0876187,-0.290004,-0.608333,0.0320491,-0.00795734,0.962239,0.363082,0.0159748,-0.651407,0.603885,0.839681,-0.052461,-0.153122,0.518398,-0.170127,0.0308424,-0.330866,-0.317634,-0.176096,0.619994,0,0,0,-2.12874e-07,0,-0.25,-0.232252,-0.436122,0.301017,0.556118,0.359174,-0.0303172,-0.393738,1
1.2418,-0.972813,-2.34893,-1.18636,2.90511,1.98424,-0.822594,1.22408,-0.950605,-2.3711,-1.21838,2.84842,1.9519,-0.838669,1.25178,-0.930307,-2.37448,-1.24225,2.84827,1.98946,-0.794877,-0.158979,-0.337588,-0.601247,-0.173432,0.000191737,0.452921,0.186722,-0.0670462,-0.302814,-0.584729,-0.146875,0.00273553,0.785204,0.418615,0.0139795,-0.651239,0.600435,0.839896,-0.0532613,-0.152143,0.518257,-0.222897,-0.00823609,-0.353315,-0.317634,-0.176096,0.619994,0,0,0,-2.12874e-07,0,-0.25,-0.0997969,-0.425053,0.25548,0.558901,0.568424,-0.0522303,-0.277169,1
1.26683,-0.960468,-2.35458,-1.20306,2.90957,2.00266,-0.822713,1.23325,-0.964288,-2.35331,-1.20178,2.84842,1.96996,-0.83653,1.25086,-0.933877,-2.38107,-1.24288,2.84818,1.99039,-0.796275,-0.0622926,-0.354545,-0.681276,-0.0270118,-0.00951046,-0.044784,-0.235269,-0.101788,-0.322556,-0.605777,-0.144762,0.000166175,0.417297,0.180095,0.011677,-0.651946,0.596789,0.841402,-0.051781,-0.151543,0.516135,-0.235617,-0.0839237,-0.365629,-0.317634,-0.176096,0.619994,0,0,0,-2.12874e-07,0,-0.25,0.159745,-0.265908,0.264942,0.398173,0.613898,0.122648,-0.264379,1
1.25578,-0.943129,-2.39783,-1.21821,2.91557,2.0319,-0.81541,1.2451,-0.966417,-2.35186,-1.19513,2.84842,1.98706,-0.827935,1.25093,-0.936817,-2.38751,-1.24263,2.84797,1.98674,-0.801527,0.0244712,-0.264318,-0.598191,0.0399425,-0.0283013,-0.466919,-0.626054,-0.0656001,-0.318817,-0.626904,-0.0535004,-0.01254,-0.0195938,-0.224867,0.00945378,-0.654402,0.592241,0.845108,-0.0454329,-0.15109,0.510784,-0.172727,-0.143981,-0.319104,-0.317634,-0.176096,0.619994,0,0,0,-2.12874e-07,0,-0.25,0.048495,-0.0631212,-0.103185,0.244251,0.675909,0.451595,-0.138827,1
1.25103,-0.942197,-2.41532,-1.22941,2.9173,2.04035,-0.81638,1.25453,-0.958719,-2.36677,-1.20317,2.84842,1.99918,-0.82137,1.25078,-0.93868,-2.39078,-1.24167,2.84767,1.97979,-0.810347,-0.0512194,-0.175349,-0.240086,0.112338,-0.0302763,-0.740848,-0.953515,-0.0296802,-0.264737,-0.506518,0.0417561,-0.022696,-0.417517,-0.604946,0.00915544,-0.655315,0.591412,0.846473,-0.0428699,-0.151214,0.508704,-0.0787452,-0.149991,-0.169348,-0.317634,-0.176096,0.619994,0,0,0,-2.12874e-07,0,-0.25,0.00249594,-0.0351718,-0.245418,0.122611,0.696364,0.605572,-0.0603279,1
1.27131,-0.966179,-2.41543,-1.23447,2.91438,2.03104,-0.799974,1.25745,-0.950526,-2.38943,-1.21625,2.84842,2.00698,-0.816962,1.24867,-0.940719,-2.39025,-1.23925,2.84746,1.97382,-0.820438,-0.262461,-0.2177,0.156558,0.299587,-0.0165283,-0.519948,-1.00016,-0.0964029,-0.219123,-0.22724,0.150622,-0.0250353,-0.575905,-0.859908,0.00721347,-0.657766,0.59043,0.850906,-0.0373982,-0.152796,0.501212,-0.185013,-0.126816,-0.0130927,-0.317634,-0.176096,0.619994,0,0,0,-2.12874e-07,0,-0.25,0.226363,-0.254593,-0.251764,0.0477496,0.669235,0.572182,0.204636,1
1.26073,-0.940765,-2.39968,-1.23511,2.91824,2.01552,-0.796746,1.25888,-0.949478,-2.4062,-1.22659,2.84842,2.01013,-0.811205,1.24511,-0.943507,-2.38578,-1.23439,2.84737,1.97172,-0.82794,-0.378525,-0.302355,0.534292,0.551489,-0.0046402,-0.102187,-0.649806,-0.230735,-0.231802,0.150255,0.321138,-0.0171482,-0.454328,-0.867826,0.00604348,-0.658313,0.590594,0.85217,-0.037375,-0.153633,0.498805,-0.22037,-0.108704,0.0372193,-0.317634,-0.176096,0.619994,0,0,0,-2.12874e-07,0,-0.25,0.156297,0.0274152,-0.13894,-0.00721713,0.708713,0.438034,0.311937,1
1.22935,-0.945785,-2.40846,-1.25845,2.91584,1.9986,-0.799764,1.26,-0.951115,-2.40993,-1.23385,2.84842,2.00987,-0.80422,1.24093,-0.947323,-2.37992,-1.22774,2.84745,1.97352,-0.83137,-0.421987,-0.408421,0.562362,0.687971,0.0130008,0.261263,-0.246294,-0.354324,-0.309492,0.417737,0.513016,-0.00272256,-0.120291,-0.632085,0.00310403,-0.659007,0.59136,0.853944,-0.0402063,-0.155548,0.494943,-0.285407,-0.0823368,0.0877214,-0.317634,-0.176096,0.619994,0,0,0,-2.12874e-07,0,-0.25,-0.115816,0.0153778,-0.285334,-0.307097,0.683934,0.250811,0.316059,1
1.21997,-0.929679,-2.40565,-1.25434,2.91313,2.00842,-0.809665,1.25238,-0.94777,-2.40716,-1.24163,2.84842,2.00748,-0.800342,1.23764,-0.95109,-2.37612,-1.22138,2.84772,1.97831,-0.831342,-0.285411,-0.344927,0.310519,0.615537,0.0299325,0.541125,0.0720869,-0.361974,-0.351901,0.469058,0.618333,0.0127644,0.2334,-0.274671,-0.000420102,-0.659407,0.59171,0.855093,-0.0448936,-0.15713,0.492047,-0.318011,-0.0641573,0.026434,-0.317634,-0.176096,0.619994,0,0,0,-2.12874e-07,0,-0.25,-0.176731,0.214114,-0.29533,-0.329561,0.654069,0.301089,0.216768,1
1.21714,-0.957348,-2.37614,-1.22616,2.9116,1.99397,-0.848596,1.23671,-0.942501,-2.40398,-1.24807,2.84842,2.00452,-0.80455,1.23563,-0.953253,-2.3763,-1.21717,2.84804,1.98533,-0.829118,-0.179564,-0.18123,-0.14059,0.336106,0.0318309,0.737731,0.266248,-0.295654,-0.311526,0.244097,0.546538,0.0249214,0.513373,0.0306804,-0.00475692,-0.658986,0.59165,0.85614,-0.0522897,-0.156868,0.489574,-0.256141,0.0136695,-0.0410022,-0.317634,-0.176096,0.619994,0,0,0,-2.12874e-07,0,-0.25,-0.184891,-0.0409521,0.00156701,-0.0898934,0.635605,0.0863444,-0.194775,1
1.24743,-0.945192,-2.35411,-1.20613,2.91046,2.01263,-0.858367,1.22587,-0.942285,-2.39538,-1.24411,2.84842,2.00263,-0.819159,1.23474,-0.953981,-2.38096,-1.21616,2.84841,1.99306,-0.824976,-0.0533071,-0.0377393,-0.564723,0.0323942,0.0392517,0.768735,0.46295,-0.172761,-0.187965,-0.131598,0.328012,0.0336717,0.68253,0.267095,-0.00594392,-0.658641,0.591218,0.856455,-0.0540757,-0.156015,0.489101,-0.234244,0.0336291,-0.0876732,-0.317634,-0.176096,0.619994,0,0,0,-2.12874e-07,0,-0.25,0.126897,0.0878918,0.268579,0.100339,0.620432,0.195644,-0.333906,1
1.24777,-0.985259,-2.36241,-1.19583,2.90798,2.01614,-0.859558,1.2281,-0.948413,-2.37917,-1.22832,2.84842,2.00308,-0.838939,1.23536,-0.953764,-2.38828,-1.21777,2.8488,1.9998,-0.819341,0.0980214,0.0354382,-0.762659,-0.226795,0.0353016,0.631716,0.585636,-0.0449499,-0.061177,-0.489324,0.047235,0.0354614,0.712728,0.438278,-0.00791409,-0.65752,0.588969,0.856743,-0.0565521,-0.152261,0.4895,-0.14684,0.0529208,-0.155315,-0.317634,-0.176096,0.619994,0,0,0,-2.12874e-07,0,-0.25,0.124174,-0.314948,0.258679,0.219403,0.591857,0.163468,-0.402168,1
1.21417,-0.944792,-2.35725,-1.20798,2.90838,2.02956,-0.848087,1.23615,-0.957253,-2.36511,-1.21169,2.84842,2.00632,-0.852535,1.23697,-0.953211,-2.39543,-1.22185,2.8491,2.0046,-0.814237,0.168071,0.0593473,-0.681068,-0.459391,0.0276699,0.434822,0.460661,0.0709284,0.0190154,-0.669483,-0.217931,0.0340744,0.611758,0.503082,-0.00763388,-0.656905,0.586826,0.856322,-0.0557237,-0.150191,0.490968,0.0321418,0.0632069,-0.226442,-0.317634,-0.176096,0.619994,0,0,0,-2.12874e-07,0,-0.25,-0.227928,0.0841978,0.381869,0.138707,0.592814,0.249653,-0.338505,1
1.24251,-0.959818,-2.37467,-1.24578,2.90774,2.04471,-0.849316,1.23704,-0.961791,-2.36067,-1.20646,2.84842,2.00958,-0.855067,1.23787,-0.953033,-2.40064,-1.22725,2.84938,2.0077,-0.812326,0.0538584,-0.00605219,-0.462459,-0.544529,0.0292039,0.272744,0.0923647,0.10665,0.0295778,-0.635395,-0.410238,0.0307251,0.446427,0.379554,-0.00715597,-0.656461,0.584403,0.85626,-0.0537123,-0.149277,0.49158,0.0210467,0.0513885,-0.25206,-0.317634,-0.176096,0.619994,0,0,0,-2.12874e-07,0,-0.25,0.0464243,-0.0678406,0.259725,-0.185311,0.583571,0.370066,-0.369904,1
1.23832,-0.930897,-2.38328,-1.25472,2.9202,2.05677,-0.816213,1.23325,-0.957822,-2.36432,-1.2172,2.84842,2.01062,-0.849913,1.23777,-0.953704,-2.40252,-1.23147,2.84953,2.00952,-0.814367,-0.0174015,-0.0930239,-0.092101,-0.384847,0.00849462,0.163493,-0.299277,0.0681759,-0.0132429,-0.411876,-0.462922,0.0217895,0.290353,0.0845827,-0.00692728,-0.656249,0.582383,0.856802,-0.0519474,-0.149593,0.490728,0.0269136,0.0301474,-0.190025,-0.317634,-0.176096,0.619994,0,0,0,-2.12874e-07,0,-0.25,0.00546343,0.228069,0.192427,-0.232507,0.706738,0.472464,-0.0184538,1
1.24471,-0.933217,-2.41792,-1.26138,2.92204,2.07231,-0.815169,1.23485,-0.948758,-2.3744,-1.23642,2.84842,2.01062,-0.839239,1.23738,-0.955748,-2.40101,-1.23331,2.84953,2.01067,-0.820514,-0.0495201,-0.239942,0.227778,-0.0982611,-0.000939604,0.104984,-0.719023,-0.00435438,-0.113006,-0.108927,-0.342546,0.012253,0.180407,-0.308645,-0.00675271,-0.656348,0.580811,0.857935,-0.0510116,-0.151091,0.488382,0.0175962,-0.011049,-0.136418,-0.317634,-0.176096,0.619994,0,0,0,-2.12874e-07,0,-0.25,0.0732375,0.225311,-0.169081,-0.280636,0.725073,0.616384,0.0534519,1
1.23805,-0.947319,-2.4297,-1.24587,2.92138,2.0727,-0.810263,1.23944,-0.940602,-2.39106,-1.25068,2.84842,2.01062,-0.825848,1.23698,-0.959086,-2.39653,-1.23227,2.84946,2.01172,-0.829891,-0.0290145,-0.36222,0.520068,0.164536,-0.00951092,0.103402,-0.986578,-0.0319787,-0.231729,0.218582,-0.106191,-0.000651966,0.12396,-0.668293,-0.00674267,-0.656503,0.580244,0.858733,-0.0510292,-0.152185,0.486635,0.0190603,-0.0272241,-0.107498,-0.317634,-0.176096,0.619994,0,0,0,-2.12874e-07,0,-0.25,0.0106802,0.11767,-0.331657,-0.136052,0.7192,0.609814,0.19628,1
1.22569,-0.948607,-2.4374,-1.26234,2.91534,2.05381,-0.806023,1.24012,-0.938787,-2.41072,-1.25492,2.84842,2.01062,-0.815766,1.23705,-0.963379,-2.39032,-1.22979,2.84938,2.01266,-0.839175,0.0165986,-0.449503,0.631273,0.246606,-0.00559916,0.0878945,-0.874151,-0.0206453,-0.350555,0.459706,0.104293,-0.00534989,0.0987605,-0.859917,-0.00628081,-0.657265,0.578934,0.860761,-0.052323,-0.156557,0.4815,0.0717434,-0.0587846,-0.0889797,-0.317634,-0.176096,0.619994,0,0,0,-2.12874e-07,0,-0.25,-0.1136,0.147721,-0.470871,-0.325504,0.65965,0.411488,0.331513,1
1.2138,-0.949842,-2.43652,-1.27443,2.90566,2.04585,-0.819494,1.23513,-0.943247,-2.4262,-1.2562,2.84842,2.01062,-0.811378,1.23734,-0.967572,-2.38513,-1.22805,2.84943,2.01319,-0.844681,0.0358577,-0.381168,0.47515,0.150837,0.00525399,0.0403159,-0.439772,0.00781391,-0.39763,0.542164,0.187326,-0.00328536,0.0772043,-0.766834,-0.00606601,-0.657606,0.578281,0.861065,-0.0526065,-0.158111,0.480418,0.0683338,-0.0625468,-0.121522,-0.317634,-0.176096,0.619994,0,0,0,-2.12874e-07,0,-0.25,-0.235465,0.177297,-0.513864,-0.463788,0.562346,0.326594,0.251868,1
1.21542,-0.94528,-2.42715,-1.26326,2.90115,2.03702,-0.848623,1.22635,-0.947424,-2.4334,-1.26124,2.84842,2.01062,-0.813685,1.23803,-0.969526,-2.38141,-1.22816,2.84943,2.01323,-0.846306,0.0723951,-0.139397,0.31537,-0.079861,0.000651935,0.00390676,-0.0674457,0.0416171,-0.323356,0.473931,0.105861,0.000102257,0.0440391,-0.460456,-0.00534997,-0.65806,0.577396,0.860966,-0.0529698,-0.160493,0.479765,0.108741,-0.0258192,-0.0591641,-0.317634,-0.176096,0.619994,0,0,0,-2.12874e-07,0,-0.25,-0.226043,0.242463,-0.457353,-0.350915,0.517235,0.237859,-0.0231637,1
1.22041,-0.944308,-2.42052,-1.24348,2.9027,2.05555,-0.872202,1.21911,-0.947889,-2.43297,-1.2649,2.84842,2.01062,-0.826126,1.23828,-0.969776,-2.38096,-1.23088,2.84941,2.01307,-0.844389,0.00929956,0.00307989,-0.0521422,-0.329451,-0.00550304,-0.0178921,0.277668,0.0391841,-0.172495,0.246126,-0.0861582,0.000134296,0.00877688,-0.0765165,-0.00433411,-0.658076,0.57676,0.860159,-0.0525605,-0.161745,0.480835,0.0949306,0.0165174,-0.0693497,-0.317634,-0.176096,0.619994,0,0,0,-2.12874e-07,0,-0.25,-0.178683,0.254687,-0.395565,-0.126039,0.532903,0.424821,-0.278123,1
1.2182,-0.955222,-2.40969,-1.21267,2.90432,2.06538,-0.870903,1.21708,-0.947007,-2.42738,-1.25789,2.84842,2.01062,-0.845965,1.23859,-0.969198,-2.38423,-1.23581,2.84931,2.01278,-0.838988,0.0459465,0.0774043,-0.423884,-0.540824,-0.0117539,-0.0330517,0.619115,0.042547,-0.0196377,-0.0535523,-0.316712,-0.00553499,-0.015679,0.276446,-0.00337592,-0.657878,0.574584,0.858449,-0.0493683,-0.161356,0.484348,0.0505994,0.0328022,-0.149431,-0.317634,-0.176096,0.619994,0,0,0,-2.12874e-07,0,-0.25,-0.203967,0.139754,-0.254626,0.231393,0.550152,0.525989,-0.319155,1
1.2276,-0.964484,-2.376,-1.21547,2.90658,2.06862,-0.864692,1.21865,-0.948886,-2.41769,-1.24091,2.84842,2.01062,-0.862219,1.23943,-0.967692,-2.39134,-1.24226,2.84915,2.01231,-0.831782,0.0921925,0.177003,-0.801499,-0.677129,-0.0187141,-0.0511595,0.723184,0.0491462,0.0858291,-0.425842,-0.515801,-0.0119903,-0.0340344,0.539989,-0.00305201,-0.657801,0.573529,0.857793,-0.0476146,-0.160642,0.48592,0.0380014,0.0409656,-0.218162,-0.317634,-0.176096,0.619994,0,0,0,-2.12874e-07,0,-0.25,-0.118262,0.0320734,0.153417,0.267855,0.574311,0.563097,-0.329101,1
