Afshin1997/kuka_rl_ros2/src/catch_and_throw/output_files/ft/idealpd_3/ft_received_joint_vel_np.csv
joint_0,joint_1,joint_2,joint_3,joint_4,joint_5,joint_6
2.994330494665575770e-05,0.000000000000000000e+00,0.000000000000000000e+00,-5.994115137575306562e-05,0.000000000000000000e+00,0.000000000000000000e+00,0.000000000000000000e+00
0.000000000000000000e+00,0.000000000000000000e+00,0.000000000000000000e+00,5.994115137575306562e-05,0.000000000000000000e+00,0.000000000000000000e+00,0.000000000000000000e+00
2.994330494665575770e-05,0.000000000000000000e+00,0.000000000000000000e+00,-5.994115137575306562e-05,0.000000000000000000e+00,0.000000000000000000e+00,0.000000000000000000e+00
-5.988660989331151541e-05,2.994330494535471510e-05,5.988660989331151541e-05,2.097122177024957068e-04,-4.790928787024029134e-05,8.988445637791997456e-04,2.995966740249045301e-04
1.198277613245757323e-04,4.194244353905715247e-04,1.737747976071624123e-03,8.988445632240882333e-05,2.540588522781384029e-03,2.007346803667431345e-03,-3.594832839182160455e-04
1.498037911884519957e-03,1.468094606945345194e-03,9.227828452473829657e-03,-8.778460712122182485e-03,1.572332214738736411e-02,4.793655867807444793e-04,-5.153248235245655451e-03
4.883540324629453977e-03,3.775038084671941858e-03,2.648515320258226780e-02,-2.915157996430384202e-02,4.400612084420885139e-02,8.988445637791997456e-05,-7.220481648806398312e-03
8.179267363961351123e-03,5.812328193273343796e-03,4.667855808360155123e-02,-4.823653714680631310e-02,7.991077237590182847e-02,-2.366884629123600092e-03,-2.936134672393286849e-03
9.827021800579149868e-03,6.950882821203218515e-03,7.100653887459618119e-02,-6.450507833533070112e-02,1.175892020243152203e-01,-2.157172411476615537e-03,-2.486712390448175825e-03
1.039632638533127817e-02,5.632559280523358539e-03,9.413607842800875147e-02,-7.846673058775621712e-02,1.531104919860748481e-01,1.887519042342855613e-03,-1.042626969027793393e-02
9.377654060227502697e-03,1.348212304085960947e-03,1.171457902200412349e-01,-9.105011814780628043e-02,1.813452941286097797e-01,-3.115903585093615646e-03,-2.498711529064223669e-02
7.520132864424766694e-03,-6.291693780093770075e-03,1.388971741642652802e-01,-1.016861545973801739e-01,2.071353263241038078e-01,-1.797634585964935638e-03,-3.894876754306775268e-02
5.392903757839295764e-03,-1.722732690366405445e-02,1.579520789588562124e-01,-1.129513276998395099e-01,2.337403400130000364e-01,-1.468040065399911498e-03,-4.404202008523316891e-02
4.913483629520598583e-03,-3.196794141685152524e-02,1.763778471003396575e-01,-1.288304422994990261e-01,2.669605878916625485e-01,-6.291911946454398219e-04,-4.494081010752992711e-02
8.089382907638942299e-03,-4.829642375676564819e-02,1.977696386775695814e-01,-1.545665220046288368e-01,3.095764667218059429e-01,-2.636537998257360016e-03,-5.000417388634215143e-02
1.489038557944688534e-02,-6.687196296451566879e-02,2.242847897265809465e-01,-1.836582153590393673e-01,3.564588029035808958e-01,-2.756365759637446899e-03,-6.222813270406746256e-02
2.408832526845650079e-02,-8.667588671503118070e-02,2.562526766020090108e-01,-2.109523286689674038e-01,3.981638816646926315e-01,-4.583943650493527144e-03,-8.074367621890843338e-02
3.469430933000783313e-02,-1.082175584416172481e-01,2.895388870179926855e-01,-2.320745214186015204e-01,4.331578203936592431e-01,-7.160595038913086796e-03,-9.719209540326456676e-02
4.536028908441736007e-02,-1.317665769718593394e-01,3.196192548509113607e-01,-2.517885607128400594e-01,4.683435708071614911e-01,-8.598691799366342536e-03,-1.045324048133400296e-01
5.674528994831229411e-02,-1.520798096141406375e-01,3.452955024876303014e-01,-2.726710979398250245e-01,4.972973613341924448e-01,-1.372188764653392568e-02,-1.082475017465389655e-01
6.522415398635406092e-02,-1.754490592316327868e-01,3.596465813289206892e-01,-2.803709451753011450e-01,5.091377622327142305e-01,-1.501026788236492493e-02,-1.021655201841609184e-01
7.451192359020364364e-02,-2.003162922194765827e-01,3.565306777437715624e-01,-2.711131188765092404e-01,4.963866485315771016e-01,-1.557946338393012553e-02,-1.048020581824182784e-01
8.335027091227464879e-02,-2.310259057886172307e-01,3.434379267502896127e-01,-2.604771369685288107e-01,4.559278221214491111e-01,-1.135505755894827828e-02,-1.216398494141568420e-01
9.788117320769229579e-02,-2.579005401216562521e-01,3.338505604724151254e-01,-2.709034066588067446e-01,4.103399093778881124e-01,-1.075586421084295807e-02,-1.371594807296760976e-01
1.190932504137598436e-01,-2.772250437438124604e-01,3.368465817545907015e-01,-2.998752722518371883e-01,3.787973592408455659e-01,-6.201809323702622834e-03,-1.537875597437121655e-01
1.474958114220936700e-01,-2.872918301501172222e-01,3.547030998528599710e-01,-3.370562939722931972e-01,3.636013883262512181e-01,-1.587922368262439932e-03,-1.669103085837342348e-01
1.785050216653316646e-01,-2.905575593430233527e-01,3.865212156619612927e-01,-3.774731561222433029e-01,3.735722797986174015e-01,-1.258382389290879644e-03,-1.777859460143638159e-01
2.101733664080507324e-01,-2.919357149520546701e-01,4.258594643353763587e-01,-4.045873914363395940e-01,4.169071470133678403e-01,1.887519042342855613e-03,-1.919573104842697830e-01
2.364188095465014072e-01,-2.952912740597968266e-01,4.636996205553689521e-01,-4.173806002972790807e-01,4.738083712219065546e-01,7.010769431103902605e-03,-2.031326536720001741e-01
2.568518699501143310e-01,-2.959205197959609013e-01,4.910835637801369558e-01,-4.300539268554670613e-01,5.352154246885953981e-01,7.550076169371422452e-03,-2.166148312544580179e-01
2.691956565292197290e-01,-2.937632928429610990e-01,5.067529116206115347e-01,-4.382031963728882928e-01,5.981087132781448545e-01,1.402153886215229406e-02,-2.250038108361218647e-01
2.789927895663346646e-01,-2.947819651680314568e-01,5.212538706110825260e-01,-4.543219664951969605e-01,6.612416355739059171e-01,2.285994072576125191e-02,-2.374075385666030158e-01
2.899882547582888215e-01,-3.036503103365155165e-01,5.409679099052100426e-01,-4.811067163718041328e-01,7.124381638622390156e-01,2.010352042458585231e-02,-2.510994283667633553e-01
3.080245417693139309e-01,-3.183609270032187188e-01,5.702393721723764131e-01,-5.086404306628988792e-01,7.643059457801415491e-01,2.151167388009245229e-02,-2.603872525120953796e-01
3.317533292123142630e-01,-3.337007348645469329e-01,6.046640826746774167e-01,-5.256281020438180462e-01,8.167489009525130683e-01,2.726411546344342796e-02,-2.699147321801875776e-01
3.540439653533233866e-01,-3.519167907883357094e-01,6.436427935226918251e-01,-5.459713325327575362e-01,8.531329944291288214e-01,3.118892461445588182e-02,-2.825580608918354386e-01
3.794205617744794701e-01,-3.692339476068359216e-01,6.803144518099379923e-01,-5.700296599546739174e-01,8.776766870072227888e-01,3.574297950154070591e-02,-2.926547906030307900e-01
4.030594102195639294e-01,-3.850831189014690126e-01,7.132711222467280621e-01,-5.973836598744952653e-01,9.062950252524126782e-01,5.446828977551110285e-02,-3.045191025122795381e-01
4.270578510316425103e-01,-4.031492946759140938e-01,7.437709690567562149e-01,-6.173673525378120530e-01,9.268599780057895643e-01,7.406250130836955492e-02,-3.113801554185391396e-01
4.491388294964870909e-01,-4.209758694692575243e-01,7.728926057160023788e-01,-6.457999113925749768e-01,9.405219790424856896e-01,8.679576901787777743e-02,-3.230647529566255116e-01
4.701111420967740706e-01,-4.426073711106797703e-01,7.977898365504332290e-01,-6.590125446890304772e-01,9.513556740294859537e-01,1.027647135323217498e-01,-3.301653523025693815e-01
4.944391774294731867e-01,-4.673548308787422445e-01,8.255033742957662568e-01,-6.676711230981791090e-01,9.641069622635667358e-01,1.199021559795676595e-01,-3.386442708820380787e-01
5.152917168100290546e-01,-4.995624278182350664e-01,8.485430293926343737e-01,-6.810634707657969855e-01,9.667433693620886004e-01,1.249955176049755146e-01,-3.477822148781894995e-01
5.323692181058992112e-01,-5.341069115403981327e-01,8.685267765975446252e-01,-7.007176234500311907e-01,9.732149629546604785e-01,1.305680811924947449e-01,-3.577590622865223224e-01
5.474393725980464254e-01,-5.620002727400476017e-01,8.796121262457656798e-01,-7.213604506128845628e-01,9.830420392967775811e-01,1.512409607433706782e-01,-3.607251402638622650e-01
5.581353501989960719e-01,-5.882157180319754763e-01,8.888100659347752952e-01,-7.432616601649177923e-01,9.828502276122419445e-01,1.762579647974216179e-01,-3.698032521916028159e-01
5.672432963486073731e-01,-6.147907011494063712e-01,8.930344717598126536e-01,-7.722634145214124501e-01,9.783442238210371400e-01,1.942043673521798297e-01,-3.752859858642265678e-01
5.757821015380248930e-01,-6.406167743939691350e-01,8.978581254746043072e-01,-7.977000066355932617e-01,9.881233036088676869e-01,2.179331547951246506e-01,-3.832255431641673482e-01
5.887550247702377781e-01,-6.643754506003678451e-01,9.087338174466053076e-01,-8.109125853903442760e-01,9.888902885476502647e-01,2.540355630390456199e-01,-3.902363125951602285e-01
6.071507950652366148e-01,-6.823817397649204475e-01,9.299458946526728553e-01,-8.199606449300622657e-01,9.805013635075798817e-01,2.682069820506005620e-01,-3.958389831122399727e-01
6.319880847481251784e-01,-6.903812382161416128e-01,9.592173569198392258e-01,-8.262523932516252501e-01,9.775292423277459619e-01,2.660198117926393380e-01,-4.015614268492173622e-01
6.597016224934582063e-01,-6.927781206917810186e-01,9.949003952699486675e-01,-8.408132388522115974e-01,9.822749670914676656e-01,2.980776376659277638e-01,-4.093511585411269138e-01
6.910103748692386638e-01,-6.967927597575553911e-01,1.027886954470313974e+00,-8.650512806452903547e-01,9.758994538741072589e-01,3.162936390481152493e-01,-4.137853311254602318e-01
7.177352381360080358e-01,-6.983807366673592254e-01,1.059854895887113457e+00,-8.891396059138578778e-01,9.727834302976079428e-01,3.181812126319960576e-01,-4.195377181672732547e-01
7.408048910794162722e-01,-7.032043358405071221e-01,1.083613626635115956e+00,-8.992662789299998849e-01,9.659764716896113157e-01,3.366368695368882058e-01,-4.231330418806855675e-01
7.578224512238551647e-01,-7.111738909867832970e-01,1.097245629825271962e+00,-9.106512797939503301e-01,9.623332714132626364e-01,3.617438125889105294e-01,-4.276869876846944862e-01
7.683086620655643628e-01,-7.232479696552031045e-01,1.099912165670069442e+00,-9.346796639110310778e-01,9.579230861979093348e-01,3.715409456261364873e-01,-4.316418492237295013e-01
7.717241623246828830e-01,-7.367601450840831623e-01,1.093680358499882210e+00,-9.674565108936938884e-01,9.559576709293748920e-01,4.014415445462993226e-01,-4.351471793977434999e-01
7.731622590851916499e-01,-7.504222006623136876e-01,1.080887204180425165e+00,-9.942712040752477165e-01,9.506845949329711942e-01,4.175004280586591676e-01,-4.390720430901273730e-01
7.787948729072180498e-01,-7.645935651323064741e-01,1.078190779572274494e+00,-1.010689625413174753e+00,9.481439191436624725e-01,4.361359084178451084e-01,-4.437758690436499620e-01
7.888316069255552065e-01,-7.802929108191303254e-01,1.086699532373724963e+00,-1.013655703390403673e+00,9.412889639813792897e-01,4.579172356670713206e-01,-4.468917180870946027e-01
8.054297971760715491e-01,-7.931160084434992763e-01,1.102818357037405050e+00,-1.010180261979742866e+00,9.369266880538962283e-01,4.656470807491430719e-01,-4.512660040614235868e-01
8.270014122076507768e-01,-7.978497231602744710e-01,1.122382570723834405e+00,-1.011049163238686432e+00,9.324205969962751084e-01,4.729274490078427817e-01,-4.559698300148351535e-01
8.488426260667703005e-01,-7.990182756346871917e-01,1.149496915121006602e+00,-1.017640453692791880e+00,9.292568386647381828e-01,4.986636377960484978e-01,-4.601342946883857365e-01
8.709535478365060257e-01,-8.009356834404318670e-01,1.171248244523748205e+00,-1.014015241215915353e+00,9.190462262199661225e-01,5.033074680563798253e-01,-4.634599104912373591e-01
8.893793159780449820e-01,-8.073472595233818216e-01,1.188954937014319313e+00,-1.015273569063612769e+00,9.158344713341426413e-01,5.045059092942394408e-01,-4.657070219006298473e-01
9.049887226669217632e-01,-8.161257202354936791e-01,1.201987801397796929e+00,-1.021715088451502496e+00,9.053363158953997569e-01,5.214635828287850217e-01,-4.725080245724377903e-01
9.185908370937245770e-01,-8.242749897529738634e-01,1.208249551873041838e+00,-1.037594203051162012e+00,9.057197647315273770e-01,5.504055051169243207e-01,-4.721484867469261104e-01
9.307248569135895266e-01,-8.323044315091433498e-01,1.212713667762210790e+00,-1.063000742777209240e+00,9.045692436900898414e-01,5.442935257080061540e-01,-4.772417938307960128e-01
9.399826832124924536e-01,-8.403937598751922700e-01,1.216608533608165565e+00,-1.083224090963064157e+00,9.006385004195482935e-01,5.599629280899076633e-01,-4.799682162853757816e-01
9.503190684463924676e-01,-8.486629116955419772e-01,1.214271646825526574e+00,-1.077651472834006974e+00,8.917701334345551345e-01,5.805757574062764270e-01,-4.844622754796024111e-01
9.537945098569977631e-01,-8.568421245179688173e-01,1.213163090044044878e+00,-1.069861741142097422e+00,8.910031484955505121e-01,5.865678545122765541e-01,-4.878777757386654201e-01
9.527159509220561873e-01,-8.695753376859599593e-01,1.199381206704486225e+00,-1.066356301884896496e+00,8.867846876983165316e-01,5.883954869447260982e-01,-4.903046015193313067e-01
9.502890705999078591e-01,-8.809004519399754596e-01,1.184550762276526115e+00,-1.059435471451819488e+00,8.834291176823549918e-01,6.214120439915760130e-01,-4.914730994521887553e-01
9.478323560558887806e-01,-8.859937590237898508e-01,1.170349454501562469e+00,-1.039092186421397557e+00,8.708697283993371840e-01,6.149405267572571887e-01,-4.771219660694159259e-01
9.522065874887353232e-01,-8.866528389818231215e-01,1.160582319310821120e+00,-1.031272511424541349e+00,8.403817934614643548e-01,5.877962935965652669e-01,-4.568985633419675452e-01
9.709918934557304482e-01,-8.866229502184144184e-01,1.181884226431728635e+00,-1.047211567175576619e+00,8.186663196665389108e-01,5.898335837051793540e-01,-4.463224680439914493e-01
1.000293299027843474e+00,-8.831774521127557787e-01,1.226585435558091852e+00,-1.081036975246640885e+00,8.154066554928451893e-01,5.871671024019753382e-01,-4.567487922756408025e-01
1.033429629294424501e+00,-8.807506263321731588e-01,1.269159361036442668e+00,-1.108391029708166720e+00,8.195772070020979072e-01,5.850698711419299869e-01,-4.737963502666753257e-01
1.056828876758453273e+00,-8.815595864395466830e-01,1.296753071020506631e+00,-1.113424341098956383e+00,8.227409653336348327e-01,6.016680068509638879e-01,-4.868591034136171558e-01
1.062191837211345913e+00,-8.803611452017218175e-01,1.294356188544787400e+00,-1.099792337908689355e+00,8.302670868590711351e-01,6.095775663042535264e-01,-4.989931777750200581e-01
1.050357359524023426e+00,-8.795222963309464737e-01,1.266163339754267092e+00,-1.097515283194461233e+00,8.449837903614643153e-01,6.438824490453409766e-01,-5.057642371419923677e-01
1.024681220970380391e+00,-8.802413174404111196e-01,1.219664496041827917e+00,-1.096286953193192915e+00,8.472367486237475376e-01,6.627875827736606773e-01,-5.129547754858521103e-01
1.002360532441348706e+00,-8.945025663667712790e-01,1.178199127344958796e+00,-1.085111664546944965e+00,8.595565042007757839e-01,6.803444496563115784e-01,-5.158609668531877190e-01
9.968478554637227873e-01,-9.155048768135706228e-01,1.170888761239829989e+00,-1.074565512553915525e+00,8.645899464914119648e-01,7.016463567771635823e-01,-5.180181392646643346e-01
1.010180261979798377e+00,-9.274591822622108017e-01,1.193299225142108178e+00,-1.074176031423346167e+00,8.703902864543033857e-01,6.864564290652297451e-01,-5.190667548946592547e-01
1.038193396399267332e+00,-9.226354740059852233e-01,1.237191419619532162e+00,-1.091433301632083186e+00,8.763344415475549098e-01,6.731239680075051801e-01,-5.187371603740942305e-01
1.071509550120197662e+00,-9.143664312687149742e-01,1.287285532503901209e+00,-1.119386549441547807e+00,8.726912412709841860e-01,6.825015675262502413e-01,-5.205347949600591662e-01
1.096167125431868339e+00,-9.079847984907115643e-01,1.318804051638755581e+00,-1.124899280960711678e+00,8.702944678785629051e-01,6.754309114852530271e-01,-5.213138117625693013e-01
1.106743166188361993e+00,-8.997456445168500183e-01,1.321860014072528955e+00,-1.112495607771823991e+00,8.728350564012332669e-01,6.722850645952127557e-01,-5.201153159831717332e-01
1.096976030997731666e+00,-8.953714130840451091e-01,1.298940132195336439e+00,-1.092332091654268922e+00,8.666991768899734438e-01,6.886136014767063607e-01,-5.236806963916373903e-01
1.076842512726661205e+00,-8.980678376922096584e-01,1.256366206717096645e+00,-1.068153991012454895e+00,8.649253987731420068e-01,6.975717220183974554e-01,-5.251187386106082045e-01
1.057128473432478177e+00,-9.042097604060397309e-01,1.220113972865255469e+00,-1.051975279738770475e+00,8.687604980006646826e-01,7.011371024269741348e-01,-5.229017341308317413e-01
1.050177645152861050e+00,-9.202985872233115927e-01,1.211754936588538278e+00,-1.065008089580876671e+00,8.661239163691991649e-01,6.990698144718754392e-01,-5.234709296323414307e-01
1.057517954562936513e+00,-9.418702022548421926e-01,1.215529974673223990e+00,-1.073966319205643671e+00,8.573513679599464865e-01,6.790261806571828984e-01,-5.084906595966831588e-01
1.073696665836565423e+00,-9.518470496632375211e-01,1.233566207142655635e+00,-1.083793341006389355e+00,8.433060053534280343e-01,6.540690086714318063e-01,-4.815860819585848773e-01
1.089575780436169428e+00,-9.413608933630731590e-01,1.253609840957459198e+00,-1.104885644992559257e+00,8.208714559074792305e-01,6.434630246099359852e-01,-4.699014298791270861e-01
1.102009396930114793e+00,-9.235343185697366675e-01,1.266612762036101181e+00,-1.119056954920982783e+00,8.046687790814743835e-01,6.469982980888966395e-01,-4.786499472863026128e-01
1.105634609406935809e+00,-9.133477589436458377e-01,1.271076823383676668e+00,-1.110368378665294031e+00,8.072094548707831052e-01,6.699481778125737641e-01,-4.931508517352911625e-01
1.103836974821026384e+00,-9.107711075552610280e-01,1.260201185953158109e+00,-1.086519818002451565e+00,8.209673617498580711e-01,6.889131436091933125e-01,-5.070226195311722250e-01
1.095208394258251339e+00,-9.149656246168549334e-01,1.247827456068995033e+00,-1.046192840308934890e+00,8.305067205649496742e-01,6.813631219813598427e-01,-5.160706790708902147e-01
1.086040397874132868e+00,-9.242833375256859219e-01,1.234165455032409930e+00,-1.014914085779694553e+00,8.368824083152537341e-01,6.943060473670881194e-01,-5.231413896533698704e-01
1.080018357463186085e+00,-9.276388966334216946e-01,1.228113362233385075e+00,-1.012786802131571129e+00,8.507362210365965183e-01,6.910703160206699280e-01,-5.274556799348406599e-01
1.076962340487930270e+00,-9.250024131766745317e-01,1.230899780381045083e+00,-1.042238087853086803e+00,8.558653946364458420e-01,6.912201416284236011e-01,-5.313206024758487800e-01
1.082984435440470516e+00,-9.197293371801181783e-01,1.243153573420752167e+00,-1.092751625172749819e+00,8.634873347376226249e-01,7.006577368401378791e-01,-5.283844678034554931e-01
1.090983933891676028e+00,-9.197293371801181783e-01,1.258283723605813087e+00,-1.121903205136942638e+00,8.737938530247735258e-01,6.892427381297583366e-01,-5.323392748010080666e-01
1.097635165497323761e+00,-9.241635097643613461e-01,1.268530169841741717e+00,-1.113753935619521407e+00,8.746566565395186288e-01,6.903212970646999125e-01,-5.284444089549422685e-01
1.101919512473681362e+00,-9.294365857609176995e-01,1.269309186644251852e+00,-1.084782070026379941e+00,8.699588410636671654e-01,6.942761040621414637e-01,-5.298225645639087489e-01
1.099852224518638177e+00,-9.295863568271889310e-01,1.261699223864987118e+00,-1.051975279738770475e+00,8.714449016536951476e-01,6.755207959416309471e-01,-5.279949866731081798e-01
1.092931394085450147e+00,-9.286575689584977145e-01,1.249235609524612656e+00,-1.024231744147008349e+00,8.747525623816754248e-01,6.939765073880610480e-01,-5.302720413873363015e-01
1.085411206679542939e+00,-9.289272223276107132e-01,1.228083418928549442e+00,-1.008742165219400633e+00,8.703422899000168300e-01,6.985904488850946947e-01,-5.270362009578422047e-01
1.076363147139824950e+00,-9.255117220684505597e-01,1.220922878431007774e+00,-1.012607087760408753e+00,8.703423771664331454e-01,6.934372006497935281e-01,-5.247592553266899884e-01
1.075014934835694103e+00,-9.198192216364892149e-01,1.219215128301587292e+00,-1.024111970927110704e+00,8.661239163690881426e-01,6.943659885185193836e-01,-5.228118496743983101e-01
1.082684838766390101e+00,-9.146959712477281679e-01,1.234854532836893171e+00,-1.046851974808471475e+00,8.663156407873184861e-01,7.209110283309949629e-01,-5.174188913749100394e-01
1.092122433978104379e+00,-9.097225464667901829e-01,1.253010647609298367e+00,-1.066296415275114207e+00,8.609946555028225035e-01,6.936169695625493681e-01,-5.119061598558571902e-01
1.103058012560109713e+00,-9.188604359213065065e-01,1.269608783318276757e+00,-1.072078800163356327e+00,8.649733953275395848e-01,6.786666973732091712e-01,-5.057043505319880339e-01
1.111806529967285240e+00,-9.362675862792657622e-01,1.275061573686064875e+00,-1.052394704174175466e+00,8.622409951202225642e-01,6.952647785407051195e-01,-4.988732954722685520e-01
1.106892937254633225e+00,-9.439973768198273163e-01,1.263916282886357045e+00,-1.028516145664903902e+00,8.642064103886459847e-01,6.969126420604543348e-01,-4.944391774294176756e-01
1.091583127239836859e+00,-9.363874140405764601e-01,1.234554936162868266e+00,-1.012247549934897073e+00,8.614261008934587238e-01,6.959838541917284793e-01,-4.817957941762873730e-01
1.071569491271628927e+00,-9.232946630470945104e-01,1.200789360159992825e+00,-1.001521683570594234e+00,8.544752398887967004e-01,7.217199884383407316e-01,-4.700213121819896145e-01
1.057188414583909442e+00,-9.154749335086309614e-01,1.182633299929292114e+00,-9.870207791216056847e-01,8.526536397505113385e-01,7.158177757887185244e-01,-4.555503510379477206e-01
1.054491935434220817e+00,-9.154749335086309614e-01,1.185090014473200171e+00,-9.883989347305721651e-01,8.519345640995990010e-01,6.985305077336079194e-01,-4.408396798296632113e-01
1.064348955081340087e+00,-9.245230475898591482e-01,1.207920011893959256e+00,-9.947505696621394833e-01,8.564406551572201209e-01,6.884937191738438322e-01,-4.210657539256423831e-01
1.079718760789050158e+00,-9.296163001321217090e-01,1.238839283139281378e+00,-1.005806030547007346e+00,8.610425647908037661e-01,6.803444496563115784e-01,-4.051566960211472335e-01
1.093560530738557635e+00,-9.254817787635039039e-01,1.258793032497651510e+00,-1.019498029430132569e+00,8.590292402342880607e-01,6.603607569930503018e-01,-3.857122555545045017e-01
1.096256955346708306e+00,-9.181714126583334634e-01,1.260440841475696239e+00,-1.032500895967292109e+00,8.569200971022539193e-01,6.689593942508786917e-01,-3.692639454533352961e-01
1.091073763806515995e+00,-9.138870111403685215e-01,1.244921264701659425e+00,-1.027946895621800749e+00,8.513593035788247221e-01,6.683901987492024688e-01,-3.517370218755200284e-01
1.076183432768607062e+00,-9.166733747464350657e-01,1.218346281584237190e+00,-1.010929280935712882e+00,8.576390854867499414e-01,6.845089688714556253e-01,-3.290867933676278057e-01
1.061472761560378064e+00,-9.224857029397209862e-01,1.187097361276867602e+00,-9.872304913393081804e-01,8.542355189162798013e-01,6.958040852789726394e-01,-3.099420041166034423e-01
1.043376587939459643e+00,-9.259910876552729375e-01,1.167383376524333549e+00,-9.519668774244927079e-01,8.541397003405393207e-01,6.947854674954068166e-01,-2.946920807116448771e-01
1.037294551835488132e+00,-9.269798166753884239e-01,1.159803302508422007e+00,-9.252121253944256551e-01,8.499691488311755805e-01,6.904710681309711440e-01,-2.723115601143133446e-01
1.043286703483081723e+00,-9.234743774182985199e-01,1.176970742802208036e+00,-9.308746825213987108e-01,8.513113942908434595e-01,6.956842575176480636e-01,-2.544850398624731724e-01
1.059555299213088553e+00,-9.205382972874986969e-01,1.206871341722370872e+00,-9.521766441837886674e-01,8.473805637539966185e-01,6.786966406781558270e-01,-2.395047152851104144e-01
1.077501647226197790e+00,-9.139170089868392521e-01,1.236112915226184050e+00,-9.783022050192657915e-01,8.561051156089627412e-01,6.732138524639386112e-01,-2.174537892083439061e-01
1.088467223654743243e+00,-9.061571660582690146e-01,1.249864746177720143e+00,-9.792909340394784223e-01,8.518866548116177384e-01,6.647948750357346448e-01,-1.985785987849153500e-01
1.085890626807861636e+00,-8.975885266469252333e-01,1.244621668027523498e+00,-9.635616450477391126e-01,8.473805637541076408e-01,6.741725836375556113e-01,-1.798232906644603446e-01
1.072108743468302983e+00,-9.002848967135657077e-01,1.221342357408117252e+00,-9.409114710812183091e-01,8.434976425050200177e-01,6.723749490515906757e-01,-1.652325017590383638e-01
1.049758166175918106e+00,-9.188006038529650255e-01,1.185179898929522579e+00,-9.220662785043298726e-01,8.493939755768176170e-01,6.798950273744774897e-01,-1.484545971373041340e-01
1.026239145492158222e+00,-9.395632042355772651e-01,1.151504261924674033e+00,-9.071458950783428676e-01,8.550504131431546639e-01,6.976317177113666723e-01,-1.356613882762536250e-01
1.008832049675723042e+00,-9.471732215563521962e-01,1.131131033589416468e+00,-8.937834907157826692e-01,8.552422248278013228e-01,6.915496816075061837e-01,-1.210406560659960107e-01
1.005476490567980274e+00,-9.371663763014792536e-01,1.133617800521458108e+00,-8.851548556114696709e-01,8.504965000639685968e-01,6.901115848469974168e-01,-1.013865579232442471e-01
1.019078550453245136e+00,-9.223958184833430662e-01,1.164686897374589414e+00,-8.892894315216670620e-01,8.494897941526691199e-01,6.882840069561413365e-01,-8.655605895369067326e-02
1.046073067089148267e+00,-9.086739308367675072e-01,1.207920011893959256e+00,-9.016031657126943877e-01,8.499212395433053402e-01,6.815728341990623385e-01,-7.097659556976054773e-02
1.069681917687748118e+00,-9.035506259064685075e-01,1.243632993549015353e+00,-9.125387988362931857e-01,8.483872696654071177e-01,6.570051433437695820e-01,-5.560678986193945406e-02
1.077202050552172885e+00,-9.038801658854817012e-01,1.246359361462112680e+00,-8.977682410181153649e-01,8.376973025420175745e-01,6.267450065980395557e-01,-3.679159513159113715e-02
1.062910858320775809e+00,-9.067864117944246516e-01,1.214211705674150821e+00,-8.658602407527471456e-01,8.162695462740066077e-01,6.250073131635058843e-01,-2.843255885476292377e-02
1.034418412856119573e+00,-9.098123763816162723e-01,1.163518453983214407e+00,-8.438093146758696150e-01,8.016008393260110054e-01,6.310592968794548341e-01,-2.714428770222987453e-02
1.002480414744266746e+00,-9.224857029397209862e-01,1.115731339118131160e+00,-8.485130860877432291e-01,7.980534576251807621e-01,6.341153138546551382e-01,-2.034317594723500378e-02
9.829161465163549494e-01,-9.370465485401546779e-01,1.091822782762541522e+00,-8.567821833665445475e-01,8.064424699318895051e-01,6.456201424798746480e-01,-9.587420819467951105e-03
9.806990874949850223e-01,-9.404919921042753650e-01,1.099342915626855266e+00,-8.542954709760408605e-01,8.204400105169540325e-01,6.641357950776805019e-01,-4.284346976413111463e-03
9.954995886179984765e-01,-9.290171613255265859e-01,1.129363396849991652e+00,-8.338923538774301036e-01,8.275347739180594075e-01,6.623980471016643889e-01,-8.988445632240882333e-05
1.015123797997397048e+00,-9.107411642503143723e-01,1.172836166892010645e+00,-8.089651251965701562e-01,8.291165658174115549e-01,6.535596997796488949e-01,4.344288127788864529e-03
1.038163398552782724e+00,-8.991164533222323341e-01,1.208758860764769238e+00,-7.919175672057021664e-01,8.359716082462220754e-01,6.453505436522788408e-01,3.295672497904966747e-03
1.049218913979133028e+00,-8.894991437393279243e-01,1.225386994320287748e+00,-7.838282388396011768e-01,8.491062580499031398e-01,6.524511429982227106e-01,1.677806824584848755e-03
1.042867224506194290e+00,-8.836568176995851509e-01,1.212863493369908952e+00,-7.735517402156499855e-01,8.524619153325030396e-01,6.479570838041071035e-01,-2.097667591849372570e-04
1.020306989537478337e+00,-8.845856055682693730e-01,1.181105318712405428e+00,-7.598597958740072045e-01,8.588375158162797618e-01,6.522114874755735592e-01,-3.775038084685711226e-03
9.943610885316811476e-01,-8.973188187362673984e-01,1.142336265540611073e+00,-7.359212962133043767e-01,8.625765346684799439e-01,6.532301598006218235e-01,-5.033365932383127017e-03
9.752761858906611181e-01,-9.183511815710893034e-01,1.122502453026696934e+00,-7.156679501809093402e-01,8.760948078415653484e-01,6.500842583690435994e-01,-6.860943823294718413e-03
9.686250088265513369e-01,-9.397130298433864493e-01,1.118997013769496007e+00,-7.011370478853806709e-01,8.741293925730309056e-01,6.360927173533759138e-01,-9.887017493603877938e-03
9.732388957820470310e-01,-9.466638581230452099e-01,1.131400741500088181e+00,-6.907407760416428566e-01,8.815116117018018116e-01,6.061021248936482309e-01,-1.563940453530587860e-02
9.844441277331306139e-01,-9.336310482809806466e-01,1.153841148707424047e+00,-6.667723330760488842e-01,8.840522874909995110e-01,5.871671024019753382e-01,-2.193109831549744371e-02
9.977466454859085232e-01,-9.128383955103458458e-01,1.174034608129814750e+00,-6.340853160081150186e-01,8.757592682931969463e-01,5.858188900978444913e-01,-3.115898130956473722e-02
1.005626316175844970e+00,-8.998954701246592025e-01,1.185839033429170186e+00,-5.936985062462429852e-01,8.683289653436121469e-01,5.435145634471449938e-01,-4.248409556339982629e-02
1.006375280590110499e+00,-8.986970288868273427e-01,1.185599377906521035e+00,-5.465705258808073452e-01,8.729788715313713254e-01,5.159209080046189833e-01,-5.237105851552126268e-02
9.991547989414151232e-01,-9.111007020758121744e-01,1.172985992499819830e+00,-4.981542743627276337e-01,8.745608379636671259e-01,5.181079691795043018e-01,-6.058026918442926956e-02
9.840546466027833006e-01,-9.270996444367129996e-01,1.149137377295494922e+00,-4.674447153351080075e-01,8.759509054448999521e-01,4.898252359324950511e-01,-7.277417561413201952e-02
9.615243003975315617e-01,-9.364772984969682579e-01,1.118997013769607030e+00,-4.526441596705010895e-01,8.803611779266695692e-01,4.564491956016714092e-01,-8.221182536738425028e-02
9.447164524708506761e-01,-9.392636075614968494e-01,1.095837530911358826e+00,-4.577974079057467449e-01,8.780122265554801686e-01,4.790394284167054373e-01,-9.596365631892034287e-02
9.359679896051575909e-01,-9.403721643429646670e-01,1.084422532200868261e+00,-4.648980072516906148e-01,8.770056079105970070e-01,4.585164290152321520e-01,-1.087868084848064854e-01
9.367169540196451649e-01,-9.448962213835648827e-01,1.085920570112808292e+00,-4.661264463359793275e-01,8.790189324670016902e-01,4.156129090163163120e-01,-1.199620971310544348e-01
9.451359314477381091e-01,-9.490906839036278297e-01,1.090025202718059028e+00,-4.533032941700376739e-01,8.779164079796286657e-01,4.151634867344267121e-01,-1.286206755403140889e-01
9.512478017735803704e-01,-9.466638581230452099e-01,1.086429879004646715e+00,-4.234925797062527586e-01,8.718283504899337899e-01,4.055461771515500580e-01,-1.439605379430775045e-01
9.515175096841410607e-01,-9.383348742343505799e-01,1.064768434058227520e+00,-3.878694279659811173e-01,8.704861922965712040e-01,3.662079830196729446e-01,-1.547762342223313325e-01
9.475327593818638761e-01,-9.319831847613008202e-01,1.027497473339855638e+00,-3.611745625457518649e-01,8.640146859705266635e-01,3.700728510191431120e-01,-1.652924429105251392e-01
9.427689922770765563e-01,-9.275490667185748439e-01,9.817477031249799424e-01,-3.406815609907076770e-01,8.563447493149523027e-01,3.738179457988821675e-01,-1.729024056896788508e-01
9.333314516069002309e-01,-9.268599343725397732e-01,9.280583756102744886e-01,-3.295062723444597275e-01,8.617616404417161036e-01,3.535346019200025225e-01,-1.761081937312614087e-01
9.267401066112013197e-01,-9.284179134358555574e-01,8.668489697728487542e-01,-3.244429085656475031e-01,8.544752398887967004e-01,3.368765796010753100e-01,-1.793439250775685778e-01
9.220362806579007753e-01,-9.288073945662861375e-01,8.057893350016387402e-01,-3.135372732885333136e-01,8.517428396814796798e-01,3.417301766207025970e-01,-1.820702929907769274e-01
9.215869129174381058e-01,-9.264405099371486596e-01,7.414040298859836398e-01,-2.884003869315643342e-01,8.495856127285206227e-01,3.308245413436439186e-01,-1.794038662290553532e-01
9.285377411972772776e-01,-9.245829341997524597e-01,6.827113342855462008e-01,-2.656603285086656108e-01,8.462780392667346163e-01,3.142263510930165538e-01,-1.768572126871204020e-01
9.398628554511123667e-01,-9.202985872233115927e-01,6.260259854885541486e-01,-2.448376778915739571e-01,8.354922535677156148e-01,2.855541367156044785e-01,-1.688277709309682351e-01
9.506786062719596586e-01,-9.058875672306732074e-01,5.723366034323662532e-01,-2.221875584665911063e-01,8.327598533602875719e-01,2.687162909423834734e-01,-1.630153881961859952e-01
9.593971258324840434e-01,-8.867427779797321108e-01,5.173290069186986528e-01,-1.932156383320227100e-01,8.249940108624453927e-01,2.605070802734199553e-01,-1.522296352219898452e-01
9.616141848539649928e-01,-8.701146444242136013e-01,4.562993699938067138e-01,-1.584913856971237323e-01,8.140644100330662880e-01,2.382164441324663429e-01,-1.477954626376565272e-01
9.558018566606651945e-01,-8.512395085423785090e-01,3.842442154891045902e-01,-1.287705011480677619e-01,8.059152059655128042e-01,2.116713497784528109e-01,-1.381780985132419204e-01
9.436678368408557560e-01,-8.269114732097349041e-01,3.111404453545185689e-01,-1.043226925956375339e-01,8.006899519902299645e-01,2.055294816061259411e-01,-1.261939043012416661e-01
9.315338170209352953e-01,-7.988085088754537377e-01,2.377969651554678876e-01,-8.685565562777108894e-02,7.910067780448892805e-01,1.983688865672683654e-01,-1.128614432436281234e-01
9.221861062655989372e-01,-7.712747945843867470e-01,1.716740211469280908e-01,-7.094659772322042812e-02,7.791184678584972545e-01,1.761980236460458649e-01,-1.013865033816507832e-01
9.201487616155024085e-01,-7.453888347299097994e-01,1.232278263240127458e-01,-5.231117190562795116e-02,7.736535801774468979e-01,1.540572131128459255e-01,-8.376974988921759291e-02
9.299758379576195111e-01,-7.207013161133202228e-01,9.099023153791296892e-02,-2.486723298783521940e-02,7.690996670982608308e-01,1.278717111258820260e-01,-7.409249915479865223e-02
9.447763936223374515e-01,-6.969425853653454794e-01,6.681202181313405930e-02,3.205788041471535621e-03,7.598477640103906694e-01,9.680255973121276725e-02,-6.477473170451997220e-02
9.574197223338742901e-01,-6.760601026798984670e-01,3.607251948045675505e-02,3.304650035179657053e-02,7.520340994912055876e-01,5.824332786019681407e-02,-5.551690540550602293e-02
9.643406073085447616e-01,-6.654840073818113488e-01,-2.067287955043184411e-03,6.423542496625245235e-02,7.490140690233904053e-01,3.014030898440545059e-02,-4.272375108616000006e-02
9.602060859399408344e-01,-6.577541622997118420e-01,-5.710482777376846286e-02,9.587382640402486444e-02,7.471924688852160656e-01,1.662813355551850947e-02,-3.112903800450705916e-02
9.448062823856906434e-01,-6.461295059131677565e-01,-1.268829821058359286e-01,1.232277717824192820e-01,7.444600686777880227e-01,3.625212476876527035e-03,-1.875530812056602770e-02
9.200289883957157855e-01,-6.282429899683861230e-01,-2.093644063007049638e-01,1.492935005495965584e-01,7.361189656591715647e-01,-3.625212476876527035e-03,-4.434172584222295654e-03
8.949219908020999981e-01,-6.095176796943879705e-01,-2.857937922381426077e-01,1.722732144950889221e-01,7.303187129626964591e-01,-2.576596846826095799e-03,7.100653887426311428e-03
8.799417207663307039e-01,-5.984622733510303050e-01,-3.424791955767281237e-01,1.963615397636009341e-01,7.341056411028779038e-01,-1.225390212272747803e-02,1.486044227450022959e-02
8.788031661384199111e-01,-5.895938736410200054e-01,-3.760350048201965834e-01,2.106826752998336438e-01,7.290243767907877981e-01,-3.115898130945371491e-02,1.860553705423928506e-02
8.859937590238731175e-01,-5.807255830140578556e-01,-3.965580042217808909e-01,2.269812143348426403e-01,7.243265613151583793e-01,-4.410190669518199158e-02,2.324936731468163487e-02
8.978881233209223822e-01,-5.665542185440686218e-01,-4.120176398443309296e-01,2.422610810446923502e-01,7.179029642768730568e-01,-6.417553835635914083e-02,2.600578761580152332e-02
9.082843951647712188e-01,-5.507350450959236365e-01,-4.349674650265811238e-01,2.628440215977079220e-01,7.101372963119745307e-01,-7.744805826254141934e-02,3.049984680991713049e-02
9.099022608379803145e-01,-5.383613697534372911e-01,-4.678041986190262236e-01,2.898384836920175900e-01,6.954205928094703282e-01,-8.248142419498005751e-02,3.319632595955024357e-02
9.066065883401863701e-01,-5.305416402149598643e-01,-5.155314268742161588e-01,3.167430613300048492e-01,6.835801919110595648e-01,-8.706542238701153735e-02,3.822963735045092903e-02
8.948920474972643646e-01,-5.334178337358663757e-01,-5.737447568878728532e-01,3.461942925098715484e-01,6.737531155689424622e-01,-8.005459841436968205e-02,4.335294228074992873e-02
8.769157016376150082e-01,-5.413573910356961338e-01,-6.407365476137627525e-01,3.789711394925898702e-01,6.596596691416101166e-01,-7.010769431098351490e-02,5.189169292874051820e-02
8.533367398023683492e-01,-5.454320803359447023e-01,-7.068895440103251104e-01,4.050068704133380493e-01,6.494491439633653940e-01,-6.396582613860113398e-02,6.477473170451997220e-02
8.311659314227393125e-01,-5.460611624474864811e-01,-7.682187776092419540e-01,4.291251389867412058e-01,6.411560374989244693e-01,-5.527724988291238262e-02,8.098338628304002640e-02
8.151369912153816344e-01,-5.403387732521580666e-01,-8.159459513227274030e-01,4.398210620460973885e-01,6.298908098548716694e-01,-4.413190454166660004e-02,9.248826944985300003e-02
8.105829908697792519e-01,-5.279949866730526686e-01,-8.492920483486043892e-01,4.395813519819657955e-01,6.187215753195030032e-01,-4.622913580171195136e-02,1.060603860301156942e-01
8.151370457569750982e-01,-5.118162753993960035e-01,-8.660100663605563298e-01,4.393416964593166441e-01,6.134484993229882832e-01,-5.497765320883196694e-02,1.169960191537144922e-01
8.269115277512728568e-01,-4.936601606270463183e-01,-8.734702035319008573e-01,4.500376195186728268e-01,6.109078235336795615e-01,-6.420548166130579659e-02,1.334143859500480644e-01
8.409630099183162955e-01,-4.730772746156519659e-01,-8.787432795285265996e-01,4.687629297927542460e-01,5.996906797103296327e-01,-7.478152241779945086e-02,1.446495612060783031e-01
8.512694518473251648e-01,-4.498279073009980866e-01,-8.877614503047803751e-01,4.971655998841084667e-01,5.884253647998605175e-01,-9.800100096901687152e-02,1.566038666548363878e-01
8.535165087152352115e-01,-4.269679665752923459e-01,-9.087637607516629856e-01,5.254483331311732286e-01,5.753866208383362491e-01,-1.032141358142113496e-01,1.726926934719763551e-01
8.518686451954859962e-01,-4.063550827173856295e-01,-9.416005488857015493e-01,5.430351978603087382e-01,5.613890802532717217e-01,-1.031841925092091827e-01,1.879126735720992869e-01
8.429704112635771907e-01,-3.898768293112142569e-01,-9.828562599064616379e-01,5.498961416836034566e-01,5.453780405790809027e-01,-1.044425203569621097e-01,2.003462355243401660e-01
8.302071457075843597e-01,-3.745070236033931632e-01,-1.029384992382142983e+00,5.578956401348089678e-01,5.307574174517881715e-01,-9.845042325090647140e-02,2.092445785394358992e-01
8.155564701922690674e-01,-3.617438125889105294e-01,-1.072618052360141405e+00,5.677227164769260703e-01,5.185333931841951127e-01,-8.245148089003340175e-02,2.200603293600611465e-01
8.039917004156738045e-01,-3.521864441574651394e-01,-1.112974973358604736e+00,5.821936230794855227e-01,5.073641586488264466e-01,-7.403250346188494646e-02,2.309060780273375357e-01
7.976999520939997979e-01,-3.426289666429160885e-01,-1.142785742364038626e+00,5.858188900979000024e-01,4.956675728805537418e-01,-7.496134587209324351e-02,2.414821187838311900e-01
7.992579311573155820e-01,-3.361575039500797057e-01,-1.161750762702196127e+00,5.942377584429170412e-01,4.919284667618262219e-01,-7.532088369760492341e-02,2.514589661921640129e-01
8.099238563702426674e-01,-3.261806565416913717e-01,-1.169240897720080774e+00,6.078698707162599746e-01,4.970576403616755456e-01,-7.181544444051501941e-02,2.582600779471588837e-01
8.235559686434745785e-01,-3.135073299835866578e-01,-1.172206975697420717e+00,6.277037377716565558e-01,4.940376971604987233e-01,-8.137286741355387321e-02,2.685065787246809776e-01
8.379369907897116221e-01,-2.975982720790637526e-01,-1.173255645868898078e+00,6.539791242150538864e-01,4.898672329175512985e-01,-9.125988490704672884e-02,2.751278124838441030e-01
8.520184708031841581e-01,-2.818989263922433430e-01,-1.178918148454499715e+00,6.850782189146142898e-01,4.938938820302496424e-01,-9.527457851443710268e-02,2.831872520864253673e-01
8.584300468862382516e-01,-2.704539843768893892e-01,-1.191711302773845738e+00,7.127618133550561730e-01,4.980164369851047823e-01,-9.650296305713235157e-02,2.876813112805409745e-01
8.585498746476183385e-01,-2.644019461194579979e-01,-1.219874262801012854e+00,7.275323166316405299e-01,5.040564979207351470e-01,-1.020456924228363427e-01,2.965196586025564685e-01
8.523180674773200849e-01,-2.611662147730120509e-01,-1.251272954174820207e+00,7.322061992800499297e-01,5.172870535667950520e-01,-9.958892333733482261e-02,2.974185031663356682e-01
8.461462014586196290e-01,-2.579304834265938595e-01,-1.280664189661662178e+00,7.317567769982158410e-01,5.333939118168373739e-01,-9.173925049388298447e-02,3.027515203142261413e-01
8.391054341809756068e-01,-2.496613861478202967e-01,-1.306670031818946143e+00,7.260043354148093542e-01,5.472955465595230606e-01,-8.703542454052692889e-02,3.078447728566136021e-01
8.370082574624682081e-01,-2.349806582444824432e-01,-1.322189554051500515e+00,7.220195851124211472e-01,5.596153894029676223e-01,-9.027115588694512027e-02,3.146458300700150090e-01
8.380568185509806867e-01,-2.180529825564492263e-01,-1.330009283589950186e+00,7.192632193528392115e-01,5.767767755859853906e-01,-8.553738662864240894e-02,3.164734079608155781e-01
8.434197790039288378e-01,-1.982790021108626899e-01,-1.333814264979693576e+00,7.304085101525470414e-01,5.921165616306067747e-01,-8.242153758508674599e-02,3.198289670687248787e-01
8.480936616523937488e-01,-1.784750783603850088e-01,-1.336001380696005825e+00,7.534482197910641332e-01,6.061620987700688801e-01,-8.931242471332812016e-02,3.217464839574413205e-01
8.527674897592651959e-01,-1.578921378073971926e-01,-1.341544110061598793e+00,7.774466606031427141e-01,6.213101603965709430e-01,-9.776134544642323121e-02,3.203683283483638178e-01
8.598681436466915073e-01,-1.379983841420795443e-01,-1.337259763085296704e+00,7.981493743758893977e-01,6.374649279347055497e-01,-1.011767911640037987e-01,3.214468327418229521e-01
8.684068942945710745e-01,-1.175652146553629596e-01,-1.329410035700306913e+00,8.077666839587660519e-01,6.521814569041550769e-01,-1.121124242876025967e-01,3.203383305019347205e-01
8.807805696371406867e-01,-9.919944220687648695e-02,-1.316437167009687492e+00,8.051901416534779088e-01,6.637823113629925942e-01,-1.315868080591364730e-01,3.105711953111933710e-01
8.905777026743111335e-01,-8.152269302133530182e-02,-1.303913611517826254e+00,8.062087594369882204e-01,6.837719163291788860e-01,-1.372792539495182318e-01,3.075751194875353534e-01
8.954313542354208622e-01,-6.483467285589572526e-02,-1.299898917910491392e+00,7.970408175944077023e-01,6.961875777484749506e-01,-1.315268669076496977e-01,3.008040601205630438e-01
8.900383959360436137e-01,-5.270059849452057854e-02,-1.312392475555923532e+00,7.823002576228255123e-01,7.071651751321406110e-01,-1.359011528820341930e-01,2.979278665995455100e-01
8.732904891607384812e-01,-4.491086680255551578e-02,-1.337799015281970760e+00,7.654923551545511629e-01,7.205395459084495968e-01,-1.297891189316335847e-01,2.926847339079774457e-01
8.561530467134925715e-01,-4.446149906220386860e-02,-1.364254225179606372e+00,7.553657366797805750e-01,7.401457020382862240e-01,-1.133708066768379652e-01,2.942426584298107883e-01
8.415622032664771268e-01,-4.841625151807971150e-02,-1.377466803934468409e+00,7.378087607141647908e-01,7.512671145522009652e-01,-1.112135797238789081e-01,2.893291202586967259e-01
8.372778562901750377e-01,-4.598948027903504432e-02,-1.377796343913439969e+00,7.189336793738121401e-01,7.644496736439743145e-01,-1.252051752810845464e-01,2.889097503648851983e-01
8.443785647190837906e-01,-3.772032845869577322e-02,-1.357992474704472485e+00,7.110240653789290377e-01,7.754273582941673126e-01,-1.259542487785925147e-01,2.866026978041169571e-01
8.611564147993355789e-01,-2.603573092072042350e-02,-1.328691014590765995e+00,7.129415277262740602e-01,7.792142864343487574e-01,-1.189733681108973151e-01,2.889995802796141433e-01
8.780841450288789929e-01,-1.426124892636715380e-02,-1.299419497782228206e+00,7.172858158541739471e-01,7.880825661529256010e-01,-1.375189640137053360e-01,2.851047144337703898e-01
8.895890281958029888e-01,-6.950828279672638388e-03,-1.283360723352888755e+00,7.261241631760784188e-01,7.950335144240039398e-01,-1.400956154021248956e-01,2.885202146928333988e-01
8.933940095853243335e-01,-6.531403844267646974e-03,-1.279076321834882179e+00,7.277121400859343225e-01,8.003544997084999224e-01,-1.268230409542936421e-01,2.872319435403003496e-01
8.898586815647702153e-01,-1.024650077752209398e-02,-1.281263437551416473e+00,7.248957786333276587e-01,8.094145038451960872e-01,-1.457281746826133428e-01,2.868124645633018943e-01
8.825482609181589666e-01,-1.342234551404697385e-02,-1.287675013634248522e+00,7.144995067895898444e-01,8.196251162900791698e-01,-1.509113662228056540e-01,2.822284663711593922e-01
8.752378948130301595e-01,-1.240367318897095394e-02,-1.292258957284797560e+00,6.899018726292949211e-01,8.248502829987236495e-01,-1.465970213999079341e-01,2.797417539808222386e-01
8.680773543155995142e-01,-5.572672670622891289e-03,-1.290041898263538656e+00,6.588027779297345177e-01,8.326159509636221756e-01,-1.529187130264175742e-01,2.741691358516540333e-01
8.655606440786112188e-01,2.966077977284431455e-03,-1.287225591352414433e+00,6.256963909681001468e-01,8.433539146412982745e-01,-1.539673286564680055e-01,2.681769842041159535e-01
8.658002996012603703e-01,8.628635104312998294e-03,-1.276050302706166484e+00,6.019676035250443036e-01,8.457985973219228626e-01,-1.487841371163312054e-01,2.641922339017277466e-01
8.689462010329496167e-01,1.321263329634447814e-02,-1.262837669409822006e+00,5.943576407457795696e-01,8.494418848646878573e-01,-1.606785014134914924e-01,2.590989268179688665e-01
8.797020107020880886e-01,1.809617362091842097e-02,-1.238479799855363161e+00,5.826430453613751226e-01,8.504485907760983565e-01,-1.698164999511253548e-01,2.544850398624731724e-01
8.945625075181817820e-01,2.238052059738704358e-02,-1.206302091679267718e+00,5.718272945406388530e-01,8.573034586720762462e-01,-1.854259066400021361e-01,2.514590207337574768e-01
9.132278766408319370e-01,2.753376883260494346e-02,-1.175203051521189757e+00,5.625095816317315922e-01,8.598442217275792387e-01,-1.936051194624255345e-01,2.494216760836609481e-01
9.298260668914037907e-01,3.490407608919277038e-02,-1.145961532558970042e+00,5.553789298978761835e-01,8.567761947055885230e-01,-2.076567107127114120e-01,2.463656591084051328e-01
9.410911854523806852e-01,4.053663536973672876e-02,-1.125138991024954294e+00,5.498961416836589677e-01,8.594605983585079656e-01,-2.204498104905194822e-01,2.432198667599028141e-01
9.460347214699238449e-01,4.233426995567390883e-02,-1.118397820421446198e+00,5.417768700125558112e-01,8.592210519189347195e-01,-2.256928886406051049e-01,2.405533309151053345e-01
9.372562607579126848e-01,3.550326943735360175e-02,-1.124569686440146654e+00,5.192764671123617504e-01,8.580225343228775614e-01,-2.226369262069982646e-01,2.435194634339277187e-01
9.226654718524907040e-01,2.399838627056838369e-02,-1.143115282343010186e+00,4.986935265594016897e-01,8.609946555029335258e-01,-2.231462896402636176e-01,2.424708478040438209e-01
9.084042774676337473e-01,9.467538516633178247e-03,-1.155758665596251511e+00,4.787698295891651412e-01,8.665553617597243630e-01,-2.188918859687416507e-01,2.398941964155687501e-01
9.025319535813647320e-01,-4.134521368631682847e-03,-1.151863799750185713e+00,4.557600632556502163e-01,8.689042258644974481e-01,-2.282095988775934003e-01,2.367184062205263118e-01
9.093929519462529143e-01,-1.042626969025017836e-02,-1.126187552113355750e+00,4.327802947685643886e-01,8.700547469060460060e-01,-2.440587156306572858e-01,2.344114627428339759e-01
9.321330103690961266e-01,-7.759788387046162583e-03,-1.084722128875004188e+00,4.155530224063674893e-01,8.704861050301548886e-01,-2.538259053629365880e-01,2.335425614840014319e-01
9.618838382230432416e-01,-9.587857151827083868e-04,-1.032530893813832229e+00,3.982956976562590512e-01,8.680893316375115631e-01,-2.667688307486093535e-01,2.290185589850501913e-01
9.882192203592987667e-01,3.655210323361135494e-03,-9.877398002310355807e-01,3.894872936393012353e-01,8.615220067356155198e-01,-2.940329462120527815e-01,2.259026553997900422e-01
1.004487761547934177e+00,4.524057040600215629e-03,-9.619437793744189946e-01,3.837349065973771900e-01,8.600838554337908448e-01,-2.963698875362852370e-01,2.256629453356584492e-01
1.006285396133788090e+00,-1.258327847697415791e-03,-9.584083968124934572e-01,3.710915233442468875e-01,8.596524100430436022e-01,-2.924450783853838054e-01,2.282994833340268315e-01
9.906759349034288675e-01,-1.279320886096724230e-02,-9.765345682798409754e-01,3.464339480324651888e-01,8.576389982202226037e-01,-3.021822157295850353e-01,2.295877544865598807e-01
9.701829333482736573e-01,-2.873215552889885060e-02,-1.004517759394363274e+00,3.227950995875472628e-01,8.575432669108984385e-01,-3.012834257073437882e-01,2.261123676176035602e-01
9.520867597274662586e-01,-4.901549940775073999e-02,-1.018689069322786800e+00,2.897485992355841589e-01,8.559612132124083672e-01,-2.898384291504796373e-01,2.249439242262285532e-01
9.460347214699238449e-01,-6.842988748631539941e-02,-1.013116396652136153e+00,2.546048676238532593e-01,8.572076400961137210e-01,-3.003846356851580524e-01,2.298574078557491518e-01
9.554123755302068588e-01,-8.544755671380244166e-02,-9.862118190142599161e-01,2.333628471128390558e-01,8.585019762679113597e-01,-3.233942929355970719e-01,2.333329038078924000e-01
9.793508206493717339e-01,-9.641307860078218717e-02,-9.412110677552432136e-01,2.172140791441012908e-01,8.518386582572201604e-01,-3.254016942808024559e-01,2.358795028082338874e-01
1.005686202785738281e+00,-1.034837891832895984e-01,-8.916862594557928290e-01,1.970805608729753189e-01,8.470450242057392387e-01,-3.361575039500519502e-01,2.369880050481221190e-01
1.027617301101124703e+00,-1.092361762251581325e-01,-8.518686997369684377e-01,1.853360221837352384e-01,8.458945904306069963e-01,-3.636313316312533850e-01,2.428603289343911342e-01
1.040889875548955956e+00,-1.183442314578175836e-01,-8.314055869453884640e-01,1.831489064672009448e-01,8.359236116917134751e-01,-3.647398884127350804e-01,2.465155392578077809e-01
1.039272009875746861e+00,-1.306580201904106175e-01,-8.344016627691575039e-01,1.788945573373279530e-01,8.309861625099834725e-01,-3.681553886718536006e-01,2.489123126502290617e-01
1.023332954124822614e+00,-1.451888679443735786e-01,-8.540258176069626117e-01,1.626858482171034126e-01,8.302191775710898725e-01,-3.584781379375456822e-01,2.524177519074299880e-01
1.001671454636809955e+00,-1.618469993463766965e-01,-8.844357799604463111e-01,1.297591756266314178e-01,8.305068078315880342e-01,-3.476922758802736269e-01,2.551441198205273153e-01
9.826165498422190225e-01,-1.774564060352812334e-01,-9.018728736234216115e-01,1.010270200978435895e-01,8.291165658174115549e-01,-3.558116566343416665e-01,2.584398468599147236e-01
9.762649149107627267e-01,-1.904293292674663629e-01,-8.956110686065832382e-01,8.038419293487919504e-02,8.260966226161237103e-01,-3.616839259790172179e-01,2.627840804462211466e-01
9.880693947516006048e-01,-1.969007919603027457e-01,-8.578607968431350983e-01,7.391273024215383458e-02,8.112361039833704268e-01,-3.404717942314672285e-01,2.490921361045783655e-01
1.014374779041427033e+00,-1.969607331117340099e-01,-8.021041268316819739e-01,6.690190626945646812e-02,7.834807437860913382e-01,-3.427787922506975171e-01,2.363588683951256542e-01
1.040979705463795923e+00,-1.973802120886491984e-01,-7.518303541178550375e-01,4.425173230293566462e-02,7.609982850520502495e-01,-3.620734071094755535e-01,2.411225809583195101e-01
1.061712471624565168e+00,-2.005260044371792727e-01,-7.189636226787587958e-01,2.333930631259750754e-02,7.520820087789648056e-01,-3.751961559494976228e-01,2.573911766883263397e-01
1.065936877449491504e+00,-2.088251541040031523e-01,-7.086272374449142930e-01,1.411142331853021403e-02,7.498768725382465306e-01,-3.833753142303275574e-01,2.749780414175173604e-01
1.059315589148956960e+00,-2.197307348395516335e-01,-7.201021227651871470e-01,1.006673186476625403e-02,7.549582241166419294e-01,-3.973669643291266595e-01,2.921754250162500455e-01
1.040710106636200116e+00,-2.335126181790825317e-01,-7.476058937512242153e-01,2.306998019285799728e-03,7.629157910324924075e-01,-4.050668115647138023e-01,3.046090415101954108e-01
1.020636474974967456e+00,-2.497213272992238053e-01,-7.786749906043555214e-01,-1.186442099232465353e-02,7.686202251533380547e-01,-4.016812546105419379e-01,3.140465821802607138e-01
1.003319318156559170e+00,-2.652408495317781778e-01,-7.947938152681466306e-01,-3.157840574485870633e-02,7.767216071994376136e-01,-3.907156781819964841e-01,3.191698871105597135e-01
9.989450867237126275e-01,-2.790526761762557317e-01,-7.934755462690734618e-01,-5.231117190562795116e-02,7.832410228134634167e-01,-4.049169859569046181e-01,3.267199632799311360e-01
1.006255452828952457e+00,-2.884303302365109900e-01,-7.689377987185608276e-01,-7.184538774540616402e-02,7.808441621544037758e-01,-4.071640428247591537e-01,3.308844279535927413e-01
1.025130588710676527e+00,-2.943325428861609527e-01,-7.317268336932691852e-01,-9.191901940663882442e-02,7.764339769391614965e-01,-4.255298698148113345e-01,3.356481950582690388e-01
1.045533705809287284e+00,-3.008340034254819439e-01,-6.943060473670881194e-01,-1.108840397449073478e-01,7.757149012881381367e-01,-4.331698304405606770e-01,3.397827164269839884e-01
1.059615240364575328e+00,-3.100918297244126265e-01,-6.731239680075606913e-01,-1.308677324081131133e-01,7.691954856738902890e-01,-4.350572949413100687e-01,3.425690800329395103e-01
1.062820973864453400e+00,-3.195593682410180492e-01,-6.700679510323048760e-01,-1.398259620328801134e-01,7.650249341648596157e-01,-4.378436585474321241e-01,3.491903137922136580e-01
1.051675628523152106e+00,-3.329217726036615144e-01,-6.879844102820609208e-01,-1.410243487293127984e-01,7.625322549298374497e-01,-4.422778311316544197e-01,3.526957530491925397e-01
1.029564761295009845e+00,-3.449659079671485440e-01,-7.164769102881995977e-01,-1.426722122489509914e-01,7.530408054026160869e-01,-4.294846768122528857e-01,3.572198100898482664e-01
1.005716200632167379e+00,-3.553622343524520666e-01,-7.472762992307702135e-01,-1.552256565041654213e-01,7.513629331279414458e-01,-4.200470816005941188e-01,3.634815060234997119e-01
9.908257059696445879e-01,-3.650694283917066407e-01,-7.562045855505905578e-01,-1.764377882517154106e-01,7.497331446744137651e-01,-4.137553332789201121e-01,3.659083863455370178e-01
9.885487603383813493e-01,-3.763945426457360188e-01,-7.454487758814520859e-01,-2.042411013704059641e-01,7.416317626283142062e-01,-4.217248884251789676e-01,3.716607733874610631e-01
9.993046245492243074e-01,-3.821170409241680943e-01,-7.168963347236045891e-01,-2.266217310509244243e-01,7.319964107042054025e-01,-4.317616769850540770e-01,3.777128116448924544e-01
1.015663050194071104e+00,-3.866410434232581128e-01,-6.829210465032486965e-01,-2.350705427008881188e-01,7.275863127553794385e-01,-4.379634863087011887e-01,3.798399862098289503e-01
1.029654645751332254e+00,-3.914946404428853999e-01,-6.570650844951453351e-01,-2.400440220233779343e-01,7.145953035487817573e-01,-4.243014852720605745e-01,3.824465809031396546e-01
1.034148704945447861e+00,-3.967677164394556311e-01,-6.507134495636890392e-01,-2.501706950395199414e-01,7.072610809744084293e-01,-4.415288121757399153e-01,3.872102934664445328e-01
1.030823089142596238e+00,-4.086920785831282821e-01,-6.599113347112162131e-01,-2.634132716409220976e-01,7.012209327725837937e-01,-4.432365623053269310e-01,3.884686758557354125e-01
1.014944029084641208e+00,-4.260391787065942459e-01,-6.819923131760052826e-01,-2.734500602006306735e-01,6.957082230698574676e-01,-4.123771776698981206e-01,3.951198529197341713e-01
9.938817229449004031e-01,-4.416486399370367355e-01,-7.089268341189391975e-01,-2.801312351111695520e-01,6.930717287048082653e-01,-4.126168331924917609e-01,3.968875987423459151e-01
9.718007990214827529e-01,-4.524344474527985938e-01,-7.336142981940740881e-01,-2.960702908623158436e-01,6.893326225860807455e-01,-4.312523680932711656e-01,4.029096391532371868e-01
9.630822794609583681e-01,-4.607335425780845206e-01,-7.372395652124330567e-01,-3.194994270895312738e-01,6.773483192910045858e-01,-3.999135633295236580e-01,4.063850805638979935e-01
9.680857020882838171e-01,-4.633400827299127833e-01,-7.213604506127735405e-01,-3.410710421212215238e-01,6.696305606139763000e-01,-3.920339471811251641e-01,4.102200052583659939e-01
9.846538399508331096e-01,-4.634000238813162920e-01,-6.872053934796618080e-01,-3.578190034378980755e-01,6.719315154306571003e-01,-4.259492942502163260e-01,4.152234278859134875e-01
1.002120931460237507e+00,-4.650478328594720434e-01,-6.530503908879214947e-01,-3.727093890174559832e-01,6.614333599921362605e-01,-4.260691765530788544e-01,4.185490436886540877e-01
1.016831493585446111e+00,-4.631603138171291878e-01,-6.277037377716565558e-01,-3.729490990815875762e-01,6.459497588169327287e-01,-4.133958499949463850e-01,4.217548317301256233e-01
1.020606531670131822e+00,-4.608833681858937048e-01,-6.203634283615810929e-01,-3.752260447129618370e-01,6.454224075842507347e-01,-4.201669093618631834e-01,4.282862355744487814e-01
1.013625760085457017e+00,-4.637295638603433634e-01,-6.348642782690872011e-01,-3.841543310326711591e-01,6.411080409445268913e-01,-4.278068699876125258e-01,4.334993704195877484e-01
9.908557038160736852e-01,-4.717889489214421861e-01,-6.661431418812924221e-01,-3.975766765468291553e-01,6.328630183012329269e-01,-4.082725996062408491e-01,4.364954462433567883e-01
9.646402585241631300e-01,-4.784701783735190173e-01,-6.983807366673921990e-01,-4.068345028458431045e-01,6.283089306891032066e-01,-3.900266003774577328e-01,4.409595621325257397e-01
9.434880679280999161e-01,-4.857805990202412882e-01,-7.221693561787478899e-01,-4.166015834948799679e-01,6.272543154897114448e-01,-3.978762732209095709e-01,4.427871400234373311e-01
9.336309937394426939e-01,-4.937500450834242383e-01,-7.257347365872135470e-01,-4.362557361791141730e-01,6.087985931351180824e-01,-3.807387762320146862e-01,4.443151212402129957e-01
9.370765463866392864e-01,-5.006409867532035651e-01,-7.119527987060614294e-01,-4.542321365803569932e-01,5.869873880306464287e-01,-3.843041566405913656e-01,4.476107937381179624e-01
9.510980307072536277e-01,-5.018094846860610136e-01,-6.834304099365695606e-01,-4.601043513834390808e-01,5.715516088773409109e-01,-3.952996763740279640e-01,4.486594639097063464e-01
9.670070886118597997e-01,-5.045358525991860965e-01,-6.573646811692812619e-01,-4.658567384252521038e-01,5.376602819020526169e-01,-3.834352553818143328e-01,4.509663528458052184e-01
9.783322028658059111e-01,-5.056743526855866921e-01,-6.386992575051486654e-01,-4.675945409430282140e-01,4.904424061717982397e-01,-3.749265025803083518e-01,4.529737541910661136e-01
9.815979320587642221e-01,-5.068129073134974849e-01,-6.388191398079001715e-01,-4.667855262939779593e-01,4.514218183304663512e-01,-3.758252926025495988e-01,4.573779289288593120e-01
9.753660703469835269e-01,-5.116065631817212633e-01,-6.495449516308315907e-01,-4.657669085104121365e-01,4.030534215584413715e-01,-3.506284105526114026e-01,4.577674646008000892e-01
9.570002978984692987e-01,-5.214635828287572661e-01,-6.725247746593998599e-01,-4.743955436148361571e-01,3.435157902513807926e-01,-3.324724048632821116e-01,4.591755635147132253e-01
9.334213360633336620e-01,-5.287440056290226842e-01,-6.989499321690129108e-01,-4.814362563507756931e-01,2.816772913942777734e-01,-3.102116574857372022e-01,4.586662546229858251e-01
9.113104142934869145e-01,-5.344664493658890514e-01,-7.175554692232521958e-01,-4.964165809282494735e-01,2.256389579666784329e-01,-2.949617340807786370e-01,4.603740047526283519e-01
8.976484132567907892e-01,-5.352454116267779671e-01,-7.199822950038070601e-01,-5.214036416772982463e-01,1.689296327094247374e-01,-2.768955037648068718e-01,4.619319292743506722e-01
8.896189715006386223e-01,-5.315303692350892284e-01,-7.109940675324999404e-01,-5.506751584860580806e-01,1.078580315243549137e-01,-2.745286191356277605e-01,4.624712360126181920e-01
8.888998958497262848e-01,-5.242498918933413687e-01,-6.888532569993000010e-01,-5.643071616762140863e-01,5.181978536361597776e-02,-2.562526766019534996e-01,4.654073706850114789e-01
8.902181648487994536e-01,-5.136139099853609391e-01,-6.655140052282959573e-01,-5.681121976074399171e-01,-5.656524832753362375e-03,-2.333628471128390558e-01,4.652276017722556389e-01
8.886902381735062306e-01,-5.027682158597057693e-01,-6.451407768930383924e-01,-5.685316220427338862e-01,-6.030461624595417902e-02,-2.191614847963929691e-01,4.666956963791379920e-01
8.822486642440230398e-01,-4.901547759114943670e-01,-6.343250260724131451e-01,-5.713179856489114528e-01,-1.085771071756003181e-01,-2.088850407138687082e-01,4.687329864877520791e-01
8.685866632073269145e-01,-4.796386763064042214e-01,-6.327670470089863386e-01,-5.767407781701594516e-01,-1.551717258303497715e-01,-1.700861533202036036e-01,4.693921209873996858e-01
8.455469535689763561e-01,-4.644785828162856234e-01,-6.397179298301969297e-01,-5.862083712282473158e-01,-2.009035409704651443e-01,-1.466269647048545899e-01,4.728975057028961260e-01
8.157662369514540046e-01,-4.535430042342525336e-01,-6.532001619541372150e-01,-5.972638321132262007e-01,-2.481214167007195215e-01,-1.287405578431211062e-01,4.743056591584027260e-01
7.893409703588760706e-01,-4.489290627372466425e-01,-6.631171227526877487e-01,-6.067313160883491818e-01,-2.937094167105858133e-01,-9.680255973121276725e-02,4.765527160262017503e-01
7.659417774363852516e-01,-4.484796404553847982e-01,-6.633268895118726860e-01,-6.121842155391021834e-01,-3.334969894912553912e-01,-6.615294185507991642e-02,4.788896573504342058e-01
7.489241627504084065e-01,-4.464423503467984666e-01,-6.558067021059654778e-01,-6.225804328413575561e-01,-3.715588679757964030e-01,-5.332978968913826279e-02,4.774814493534451643e-01
7.332547603685624082e-01,-4.446746590657524312e-01,-6.417552744804044806e-01,-6.285126978791133467e-01,-4.052106485117334955e-01,-3.175817465761454628e-02,4.799382729804291259e-01
7.213305073079379071e-01,-4.391619275465608041e-01,-6.271644310333890360e-01,-6.275239688589007159e-01,-4.392937871713353815e-01,-5.303019301516886941e-03,4.796086784599751240e-01
7.094361430106665978e-01,-4.308328891163282215e-01,-6.115849676494589104e-01,-6.172774680814896442e-01,-4.635497622227369163e-01,9.377654060227502697e-03,4.810467752203173575e-01
6.964632743200471765e-01,-4.262189476193500859e-01,-6.021174291328534878e-01,-6.021773702842292408e-01,-4.875661908343431605e-01,2.151167388009245229e-02,4.828444098063933154e-01
6.777977961144321384e-01,-4.232229263370912431e-01,-5.980727376790895278e-01,-5.857888922513598828e-01,-5.003653883561831606e-01,3.151851913502090596e-02,4.855408889560264285e-01
6.580537589738755244e-01,-4.169011801689603836e-01,-6.019676035250443036e-01,-5.752128514948662286e-01,-5.096651134655072468e-01,4.380231002110157590e-02,4.847918700000564129e-01
6.319880847480696673e-01,-4.079130617807291692e-01,-6.104165242580839035e-01,-5.696101809777864844e-01,-5.098089285957563277e-01,5.494770990388531118e-02,4.830541220240958111e-01
6.031960426093885275e-01,-3.963782353089972954e-01,-6.217115861241184760e-01,-5.639776216971870149e-01,-5.075079737790755274e-01,6.741126970277733221e-02,4.859603133914314199e-01
5.774897971260184448e-01,-3.865811568133648013e-01,-6.289621201609474355e-01,-5.530420431152371918e-01,-4.950443158053818848e-01,7.451192359020364364e-02,4.839230232828173328e-01
5.534015809407488717e-01,-3.751661581029575032e-01,-6.297110845753239872e-01,-5.393799875369476027e-01,-4.734728316735381526e-01,7.612978926346825048e-02,4.856307188708663958e-01
5.321295080417121071e-01,-3.617738104353951378e-01,-6.288122945531382513e-01,-5.183476792436914060e-01,-4.419301942699682684e-01,8.344015536859705762e-02,4.852712355869481797e-01
5.122058110713645362e-01,-3.442168890112062840e-01,-6.241683552097310184e-01,-4.935403328656939870e-01,-4.138392945240987331e-01,9.335711616709208016e-02,4.890762169764695244e-01
4.910536204751903000e-01,-3.268097931947711032e-01,-6.139817955835846774e-01,-4.523445629964206738e-01,-3.883368053225755290e-01,9.368665614611915160e-02,4.872186957807222996e-01
4.721784300519837885e-01,-3.049685793356515795e-01,-6.037352948059515612e-01,-4.113585598863878090e-01,-3.680115735418265643e-01,1.073187138778686212e-01,4.893158724992296982e-01
4.523445629963651626e-01,-2.791725039375803075e-01,-5.850399278369833311e-01,-3.710915233442468875e-01,-3.452415718137036293e-01,1.190633071088131878e-01,4.883271980206105312e-01
4.299340990940869744e-01,-2.513091951259482926e-01,-5.639776216972425260e-01,-3.364870439290790216e-01,-3.334969894912553912e-01,1.242763874124142021e-01,4.933306206479359801e-01
4.068943894557364160e-01,-2.201801571214134778e-01,-5.408180842974008584e-01,-3.064066760961048352e-01,-3.218004037230937087e-01,1.384777497289157999e-01,4.935703307122896177e-01
3.799898118176381345e-01,-1.934853462426944226e-01,-5.167897547219135745e-01,-2.767157348520510318e-01,-3.153768939512247016e-01,1.495630993771368544e-01,4.976748542343534254e-01
3.496697339204768440e-01,-1.683783486491063908e-01,-4.927014294534570737e-01,-2.554737143410923395e-01,-3.074672363232444638e-01,1.521397507656119252e-01,4.972854276453775313e-01
3.180613303291890404e-01,-1.489339627240848785e-01,-4.688228709441855102e-01,-2.318947525058456804e-01,-3.013793533661601742e-01,1.633749260216421639e-01,4.987534677108884651e-01
2.813895629588669678e-01,-1.337739237755042332e-01,-4.480003294100587397e-01,-2.066679816925542923e-01,-3.013313568118736185e-01,1.816209252504252802e-01,4.975850243195134581e-01
2.412724065661286943e-01,-1.207110615454309865e-01,-4.269379687288354930e-01,-1.843473477050605602e-01,-3.047827454036866612e-01,1.933954617862609915e-01,4.988134088622642182e-01
2.021139813469519098e-01,-1.068394028325980738e-01,-4.035088870428804597e-01,-1.793738683825707447e-01,-3.065565235205180983e-01,1.993276177409408767e-01,4.979745054499717938e-01
1.620566570225134839e-01,-9.665273412343133863e-02,-3.766941393198441901e-01,-1.776661182529837291e-01,-3.149933578487917885e-01,2.144277155380347466e-01,4.987534677108884651e-01
1.234974251516085531e-01,-8.667594125655320170e-02,-3.426589644893729414e-01,-1.642737705854213637e-01,-3.231426491825395431e-01,2.235357707706664421e-01,5.007009279046625849e-01
8.688565347425569740e-02,-7.603990480709033051e-02,-3.117096953976217222e-01,-1.429118677716001429e-01,-3.351747744992916722e-01,2.325239437005466314e-01,4.995624278182342337e-01
5.243099966689701574e-02,-6.594317509581171244e-02,-2.807604263058705030e-01,-1.187637104347327721e-01,-3.463920055890579164e-01,2.425906755652573743e-01,4.995024866667474583e-01
1.722732690367934083e-02,-5.368932751464994269e-02,-2.529270607991573883e-01,-1.058506738124687097e-01,-3.632179394901235980e-01,2.562826199069001554e-01,4.992628311442093292e-01
-1.671801801195194059e-02,-4.206461658656790448e-02,-2.273107543138142006e-01,-1.014464445331375586e-01,-3.752979740945239229e-01,2.682369253555472177e-01,5.001316233198549455e-01
-4.898550156118286480e-02,-2.900186343954280765e-02,-2.023236935646544055e-01,-1.010869067076813899e-01,-3.920759114413030488e-01,2.725512156369069849e-01,4.980344466014585691e-01
-7.801730830581110610e-02,-1.566934784033580108e-02,-1.742806158403498173e-01,-9.973874894514400680e-02,-4.104836372416098556e-01,2.816892141745408473e-01,5.030678125337306739e-01
-1.086369828769973012e-01,-2.726422454663035566e-03,-1.453686368571016629e-01,-1.019258101199738142e-01,-4.326784657151527824e-01,2.921154838648187813e-01,5.034272958177599122e-01
-1.407846932066636469e-01,1.006673186476625403e-02,-1.218496161733417793e-01,-1.045623481182311743e-01,-4.517094485905204237e-01,3.002647533822955239e-01,5.048654471196956095e-01
-1.732918868201371865e-01,2.306965294340823647e-02,-1.002180599903867986e-01,-1.083673840494570051e-01,-4.701650836789195154e-01,3.152150801131736735e-01,5.075019851180639918e-01
-2.048703471065893567e-01,3.658182837232293316e-02,-8.068378960901512187e-02,-1.116330587007663411e-01,-4.893877909726285225e-01,3.208176960887709761e-01,5.090299117933572148e-01
-2.339320426144597675e-01,5.132244288549858702e-02,-5.914217242397601382e-02,-1.145691933731596279e-01,-5.095692076233504508e-01,3.280381777375218633e-01,5.119661010072329432e-01
-2.619452315755221861e-01,6.962838326562970082e-02,-3.463436817852105776e-02,-1.145991366780507725e-01,-5.247652658042500917e-01,3.372960585780182541e-01,5.119960443120685767e-01
-2.851346577386060233e-01,8.829375238825210026e-02,-4.853651561220750921e-03,-1.187337125883036748e-01,-5.444673277763545371e-01,3.438573511856946041e-01,5.179282548083419258e-01
-3.059572538142152354e-01,1.082475017465667211e-01,2.217086292122250057e-02,-1.259541942369990508e-01,-5.653198235238132696e-01,3.519467340932780353e-01,5.180480825696109903e-01
-3.254316375858046229e-01,1.304782512776547776e-01,4.766723256210969595e-02,-1.364104617738171044e-01,-5.805158817044908659e-01,3.566805033515807466e-01,5.193363537222550619e-01
-3.436476389679921084e-01,1.508214817664277341e-01,6.941861650644476356e-02,-1.429118677716001429e-01,-5.966705619762091573e-01,3.611745625456963538e-01,5.239203519142865417e-01
-3.608450225667247935e-01,1.680787519750537307e-01,9.458550070984284019e-02,-1.509712528326989656e-01,-6.114830840546758850e-01,3.755855825383624946e-01,5.255682154340357570e-01
-3.778925805575372721e-01,1.840477510309801445e-01,1.195726160005960992e-01,-1.557949610889175496e-01,-6.240905571581745193e-01,3.740875991680159274e-01,5.245195452624473731e-01
-3.946704851794935465e-01,2.004661178272859612e-01,1.441103090094042471e-01,-1.642138294339900995e-01,-6.383756407373208930e-01,3.786715428185094545e-01,5.315902558449270288e-01
-4.129164298665166655e-01,2.130495599290127551e-01,1.674196174754616351e-01,-1.747299835806459534e-01,-6.518460046223140125e-01,3.996439645019278508e-01,5.327886970828421553e-01
-4.310126580291395726e-01,2.246442730106101848e-01,1.877029068128033273e-01,-1.893507703324970315e-01,-6.636384089664382202e-01,3.999435066344148026e-01,5.315003713886046199e-01
-4.497380228446479222e-01,2.334826748741358760e-01,2.059788493464775883e-01,-1.982790021108349343e-01,-6.680965907361890999e-01,3.977564454595849952e-01,5.350656972555878355e-01
-4.631303705121547765e-01,2.404035598488896142e-01,2.250936952925552959e-01,-2.056493093675060280e-01,-6.758623459675039413e-01,4.210357560791577747e-01,5.367434495386902427e-01
-4.793390250907858530e-01,2.513690817358416041e-01,2.450474446508144055e-01,-2.072671750406596125e-01,-6.877986527082935453e-01,4.303834668344386216e-01,5.365337373209877470e-01
-4.942294652118262022e-01,2.653307885296662949e-01,2.651809629218293551e-01,-2.128098498648256509e-01,-6.917293959787240709e-01,4.278967544439904458e-01,5.417468721661267139e-01
-5.085206029015187923e-01,2.767157348520510318e-01,2.849548888259612056e-01,-2.188918859687971619e-01,-6.937428078013230248e-01,4.316717925286206459e-01,5.440538701853014913e-01
-5.235608140887748618e-01,2.855241388690921145e-01,3.068860416829410909e-01,-2.300371767684494806e-01,-7.017003747176175921e-01,4.554305232766231448e-01,5.463907569680515053e-01
-5.399792354267018979e-01,2.954710975140995011e-01,3.288770811498142876e-01,-2.387556963291959100e-01,-7.017961932933580727e-01,4.558200044070259693e-01,5.489074672050398007e-01
-5.578955855932710151e-01,3.061969093368643868e-01,3.482615804649702440e-01,-2.500508672782508768e-01,-6.990637930859300297e-01,4.484796404553570426e-01,5.535513520069645921e-01
-5.762614671248611486e-01,3.163535801995742691e-01,3.661180985632395135e-01,-2.663494063132043621e-01,-7.034260690133020688e-01,4.628007759916452635e-01,5.565773711356802878e-01
-5.972338342666860811e-01,3.281580600404121473e-01,3.849332932936988527e-01,-2.770453293726160560e-01,-7.020359142657639495e-01,4.817658508713962284e-01,5.602025836125568148e-01
-6.176070626020546683e-01,3.428087355556719285e-01,4.051566960211472335e-01,-2.805806573930591519e-01,-6.900996075251963902e-01,4.628907149895611362e-01,5.623298127190867746e-01
-6.361825472681603699e-01,3.505985217891749439e-01,4.293947378143370130e-01,-2.924750216903304612e-01,-6.872233921875192664e-01,4.660964484894947191e-01,5.631087749798924236e-01
-6.552974477557205191e-01,3.526657552027634424e-01,4.539924265161143779e-01,-3.043693314459527954e-01,-6.779236670781951801e-01,4.752344470270730703e-01,5.655056029141292129e-01
-6.729741423997515071e-01,3.603357136749418821e-01,4.787997183525183331e-01,-3.040397914669812351e-01,-6.488737961760637774e-01,4.568985633420230563e-01,5.663445063263106150e-01
-6.909205449543431854e-01,3.668071218262403121e-01,5.017196002297108492e-01,-3.014331967736150197e-01,-6.161329902423240412e-01,4.482399849327078911e-01,5.645468717404567016e-01
-7.100952775103142045e-01,3.706720989088418960e-01,5.241900052834758128e-01,-3.043094448361149951e-01,-5.907264068829576331e-01,4.451839679575630981e-01,5.652060062399932860e-01
-7.276521443929651056e-01,3.758252926025218432e-01,5.500759105963037854e-01,-2.993959066650009326e-01,-5.386189912590655382e-01,4.255898109662425988e-01,5.593936780466934877e-01
-7.433215467748111038e-01,3.775929838835678787e-01,5.746735447565987087e-01,-3.015230812299929397e-01,-4.758216957780891931e-01,4.063850805638424823e-01,5.541804886600720792e-01
-7.613578337859472356e-01,3.757054102996870704e-01,5.995408322859718808e-01,-3.142563489395566734e-01,-4.115862489955102177e-01,3.990447166122290668e-01,5.413274477307217225e-01
-7.796637196244571300e-01,3.821769275340614058e-01,6.200937204509093803e-01,-3.184508114595918649e-01,-3.446663112929293504e-01,3.695934854323623675e-01,5.295529111948305001e-01
-8.012652779609830134e-01,3.896371192470271527e-01,6.358530072891888096e-01,-3.174321391344880894e-01,-2.718980370735035734e-01,3.541937909611325708e-01,5.127450632680385922e-01
-8.237656263196946327e-01,3.911651004638583284e-01,6.482267371732408634e-01,-3.274689822359011515e-01,-2.055534471583353451e-01,3.533248897023000268e-01,4.981842722092677533e-01
-8.433598923940355263e-01,3.893974637244057568e-01,6.586829501683544308e-01,-3.422694288174321642e-01,-1.397360339434605692e-01,3.242032530429428405e-01,4.759834114415051332e-01
-8.617256648425497545e-01,3.873600645326880088e-01,6.755807370930622113e-01,-3.533848308537312910e-01,-7.214510441078125780e-02,2.997553899490301710e-01,4.565090822115092095e-01
-8.753577771157816656e-01,3.840944444228888699e-01,6.926582383889323680e-01,-3.642605228258988248e-01,-1.294292538567276551e-02,2.894490025615592543e-01,4.337390804837193414e-01
-8.848852022423914221e-01,3.836449675994890729e-01,7.186939693096805470e-01,-3.742374247757696004e-01,4.764923385414121526e-02,2.687162909423834734e-01,4.116581565604127135e-01
-8.866528935232986797e-01,3.831057154027317502e-01,7.462277381422577349e-01,-3.846935832295117486e-01,1.035916614393617152e-01,2.380366752197105029e-01,3.886783335319554666e-01
-8.863532423077913336e-01,3.841543310327821814e-01,7.790045851249205455e-01,-4.015614268491618510e-01,1.614035984502937282e-01,2.176035602745596265e-01,3.687246387150677762e-01
-8.834171621769915106e-01,3.832555410105686899e-01,8.069577783929027248e-01,-4.126468310390318806e-01,2.180170178656126723e-01,1.940845395907997428e-01,3.440371746399328856e-01
-8.819490675699981352e-01,3.816376207958216416e-01,8.287091077957553509e-01,-4.302636390731695570e-01,2.755892339041388084e-01,1.666106573681158665e-01,3.216865428059545451e-01
-8.832673365690713041e-01,3.765443682535174474e-01,8.460263736972395421e-01,-4.456333902393971869e-01,3.276007436860961519e-01,1.418632521415497116e-01,2.945123117990000594e-01
-8.866228956768695824e-01,3.698331409549837634e-01,8.535464520200708449e-01,-4.678341964655663432e-01,3.761608648757963635e-01,1.270627510184807463e-01,2.645817150321860822e-01
-8.933940095853243335e-01,3.628823672168490777e-01,8.575012590175123961e-01,-4.962367574739001697e-01,4.230431137910439787e-01,1.080677873753765894e-01,2.343215782864005448e-01
-8.974686443440349493e-01,3.557217176364257938e-01,8.602875680820964988e-01,-5.300323313231491973e-01,4.691104684795277535e-01,8.844357799603352888e-02,2.072072338893393706e-01
-8.994759911478134029e-01,3.474526748991346725e-01,8.668190264679020984e-01,-5.583450078751606149e-01,5.119181589945398514e-01,7.568036698157865061e-02,1.796735195981336020e-01
-8.927948162371635021e-01,3.398126597319028885e-01,8.809303952449498709e-01,-5.882457158785103779e-01,5.538629587278354194e-01,6.022073135891758966e-02,1.531583685491222369e-01
-8.819490675699981352e-01,3.311541358641811872e-01,8.995359322991891560e-01,-6.135024299967484218e-01,5.931711768298875143e-01,3.685148174142893751e-02,1.219694439346108439e-01
-8.650812784918304743e-01,3.254315830442111590e-01,9.245529908947780484e-01,-6.344747971385733543e-01,6.265832363931966853e-01,2.396844296564948351e-02,9.455555740500720674e-02
-8.439290878956562381e-01,3.191399438056408133e-01,9.486113183168054519e-01,-6.502340839768527836e-01,6.579818841336848578e-01,1.360211442680281380e-02,6.639259737761804558e-02
-8.224773551670505611e-01,3.126983698762131336e-01,9.697634543713862243e-01,-6.549079666253176946e-01,6.838199128835764640e-01,-3.055962433717862581e-03,4.293346330386249576e-02
-8.031527970032703578e-01,3.018826190555046196e-01,9.761750304544403178e-01,-6.628474693834984777e-01,7.064940087690985138e-01,-1.557979063315784174e-03,1.794640255470270063e-02
-7.894308548151984795e-01,2.863630422814122944e-01,9.779427217353475754e-01,-6.723150079001594115e-01,7.342973655208862027e-01,-4.464115889168951412e-03,-4.254403671466455705e-03
-7.749000070612632740e-01,2.665891163773914663e-01,9.647900295904898726e-01,-6.863664900673138725e-01,7.601354815374161689e-01,-3.834979236116975443e-03,-2.079265277066255635e-02
-7.629157583076695559e-01,2.453170980199204099e-01,9.488510283809370449e-01,-7.086272374448587819e-01,7.836244716497020590e-01,4.374285974384495290e-03,-3.166829020129213745e-02
-7.506917994899442448e-01,2.262621386838192805e-01,9.281782033716545754e-01,-7.303785668476003856e-01,7.982452693098274210e-01,3.055962433662351430e-03,-4.110588541295090437e-02
-7.340637750173906184e-01,2.082858473657633880e-01,9.077750862730438186e-01,-7.494035828787826148e-01,8.217822559766219115e-01,5.422847062841462673e-03,-5.084307729863457581e-02
-7.115034309658208045e-01,1.895904258551461830e-01,8.906975304355801981e-01,-7.666009119359773472e-01,8.383204723507731160e-01,6.052038257431391344e-03,-5.959154016432766099e-02
-6.855275866549659369e-01,1.699662710173688307e-01,8.738896825088993126e-01,-7.917078549879996707e-01,8.492021638921709581e-01,5.332962606463542699e-03,-6.881942315828393220e-02
-6.552974477557205191e-01,1.513907318096141541e-01,8.530970297382367562e-01,-8.110623564566155075e-01,8.630559766136247646e-01,1.288325694182024250e-03,-7.490140472066197930e-02
-6.229699685134093556e-01,1.369197706655722602e-01,8.305966813796361592e-01,-8.235259707970454812e-01,8.768617927803479262e-01,8.388979581663846830e-03,-8.394951880186241056e-02
-5.930992583564886900e-01,1.212803115886174066e-01,7.999769522667454780e-01,-8.308063935972276326e-01,8.816554268320508925e-01,1.060603860303377388e-02,-8.682571232287994434e-02
-5.643671573692943255e-01,1.081876151366734096e-01,7.627659872413428133e-01,-8.387758942020040465e-01,8.865450539923269702e-01,9.886962952010414085e-03,-9.572400079627119140e-02
-5.350356994090477158e-01,9.332717286217317998e-02,7.224090662429905052e-01,-8.397945665270523108e-01,8.938793638331166136e-01,1.668802016541182098e-02,-1.040230413800191656e-01
-5.038467747946473452e-01,7.472163580793389492e-02,6.810035841557926517e-01,-8.403937598751576310e-01,9.031790889422186552e-01,2.306965294340823647e-02,-1.155878656982078923e-01
-4.716092345502520544e-01,5.326984853770699857e-02,6.349542172670030737e-01,-8.439890290471430134e-01,9.027477308183318172e-01,2.339919292243530791e-02,-1.253250575838915637e-01
-4.388023897210491242e-01,3.400523152544132621e-02,5.933689117256779610e-01,-8.472547582399903021e-01,9.066784740885402982e-01,2.666492211533810774e-02,-1.439904267065417187e-01
-4.070142172170054806e-01,1.887519042337304498e-02,5.496564861610098163e-01,-8.461162581536729732e-01,9.101299499469917009e-01,3.409511598184700176e-02,-1.588808668275820679e-01
-3.781322360802974458e-01,1.141494416884158980e-02,5.068427960768229212e-01,-8.457567203281057822e-01,9.067264706430488985e-01,4.640890471441228016e-02,-1.736514246456488664e-01
-3.479619837908343172e-01,1.548963346914566941e-02,4.654972551414449100e-01,-8.446481635466795979e-01,9.006864097074185338e-01,5.057342392955632704e-02,-1.866842344877550630e-01
-3.166531768736824404e-01,1.785646355673131680e-02,4.308029458113260546e-01,-8.579806246044041629e-01,8.985771793090790993e-01,6.354634716171370101e-02,-1.972303864808955254e-01
-2.814495586518361847e-01,1.057609529808711812e-02,4.036886014141538581e-01,-8.766460482684812483e-01,8.973787489792162120e-01,6.444519172549290076e-02,-2.066979249975009481e-01
-2.463956569549452524e-01,-8.389034123201799531e-04,3.761848304280057675e-01,-8.893193748265582066e-01,8.958927756559376121e-01,6.438525057400612539e-02,-2.181428670128271463e-01
-2.148171966684930823e-01,-7.909559453317394073e-03,3.446363679882047393e-01,-8.942927996075655805e-01,8.871202272466849337e-01,6.875948200685266798e-02,-2.283294266388624649e-01
-1.886916358329049359e-01,-8.718519560663162693e-03,3.069459282928344024e-01,-8.947721651943463250e-01,8.826142234554801291e-01,7.421227237464078641e-02,-2.370180028946622386e-01
-1.627457893685901880e-01,-1.036638308038462242e-02,2.700945010929434176e-01,-8.875517380870778794e-01,8.722118865926997699e-01,8.248142419498005751e-02,-2.458564047581601741e-01
-1.322159447122439602e-01,-2.076265492415019231e-02,2.349207716345613761e-01,-8.891396059138578778e-01,8.620971799899734833e-01,8.955213477745971318e-02,-2.561328488406289239e-01
-9.928932666314338462e-02,-3.891876969652763307e-02,2.041212736091368996e-01,-8.905777026743111335e-01,8.538999793679113992e-01,7.750799941402819471e-02,-2.640424082939185624e-01
-6.534398174773414780e-02,-6.156894366299292543e-02,1.776961160994128264e-01,-8.880310491323761823e-01,8.413405028186993206e-01,8.062384845758385765e-02,-2.731205202216591132e-01
-3.184805911393695510e-02,-8.329038430235358170e-02,1.516303873322355500e-01,-8.783837417030149197e-01,8.235559468268149885e-01,7.439209582893457906e-02,-2.805507140881680073e-01
-4.494059194226629472e-03,-1.027946568372406499e-01,1.197823282182985949e-01,-8.682870665333020099e-01,7.975261936588040612e-01,6.537392505262529241e-02,-2.897785425406418369e-01
2.175132940274160376e-02,-1.213103639766677233e-01,8.514790549818407328e-02,-8.702644700320227855e-01,7.660316400761590927e-01,6.854976978915017227e-02,-2.962200619284205416e-01
4.829642375681064692e-02,-1.420430210543055516e-01,4.958474945093716002e-02,-8.827579731358059512e-01,7.366943134465842036e-01,6.615294185502440527e-02,-3.031110035982553796e-01
7.493140256720209891e-02,-1.638542916085061751e-01,1.788646140332694756e-02,-8.950118752585334292e-01,7.018441898476446283e-01,6.216813701115375679e-02,-3.084739640512035308e-01
1.011468478591126541e-01,-1.845870032276819561e-01,-1.279315431945704518e-02,-9.037603926657089559e-01,6.683362244421786613e-01,6.495450061722030100e-02,-3.113501575722210646e-01
1.277218855180173307e-01,-2.004661723688239139e-01,-3.954796089111756174e-02,-9.023521846686644032e-01,6.345886253305010882e-01,6.303703826998630078e-02,-3.085638485075259396e-01
1.555551964832480039e-01,-2.117612342348307308e-01,-6.609300070370416336e-02,-8.913567194767102464e-01,6.071688046815904016e-01,6.926884544017353207e-02,-3.098521196602810335e-01
1.848866544432725689e-01,-2.231462896402358620e-01,-9.200884932147879169e-02,-8.742492203344109925e-01,5.776396663670357867e-01,7.541071361244489069e-02,-3.026016947064169571e-01
2.169743690799696978e-01,-2.350405993959414630e-01,-1.178648658709535724e-01,-8.583101645833757232e-01,5.523289015836319038e-01,7.241469233015829232e-02,-2.950815618421032127e-01
2.487026549741200299e-01,-2.483430626071259084e-01,-1.444099056834291517e-01,-8.357498750732328396e-01,5.318599419390501737e-01,7.535077246101362647e-02,-2.817191574795430142e-01
2.805806573931146630e-01,-2.590090969031011436e-01,-1.723930967979514506e-01,-8.091748919558661157e-01,5.166638837579284882e-01,8.140286526003848167e-02,-2.744387346792498406e-01
3.103914263984375310e-01,-2.664991773794755936e-01,-2.004661178273137168e-01,-7.757388559320177457e-01,5.007968337469304032e-01,7.762782717535277044e-02,-2.584697901648613794e-01
3.378951973845856216e-01,-2.713228856356941776e-01,-2.277302332908126559e-01,-7.523097197046357820e-01,4.908258550082589267e-01,7.969511513039595485e-02,-2.427405011731220696e-01
3.676161364751795446e-01,-2.750978691788419361e-01,-2.514290228872173572e-01,-7.329851615409666010e-01,4.810947717746039132e-01,7.472163580790613935e-02,-2.272208698573807695e-01
3.947004284844402022e-01,-2.803110040239531475e-01,-2.718621378324792559e-01,-7.153982968117755803e-01,4.688708347737602367e-01,7.292400122199671486e-02,-2.158658668400814662e-01
4.217248884251789676e-01,-2.843856387827192744e-01,-2.938831751457815500e-01,-6.892127948248116809e-01,4.575576978413931073e-01,6.839994418134098808e-02,-1.948335040051762945e-01
4.465621781081230424e-01,-2.871720023887858186e-01,-3.185107526110231291e-01,-6.598513935597294378e-01,4.446146851895260710e-01,6.177871042223337383e-02,-1.748498658835639930e-01
4.697816021177469992e-01,-2.917859438857917098e-01,-3.428386788606463398e-01,-6.327970448555264582e-01,4.351232356620826636e-01,6.315686603131087651e-02,-1.532183097004979899e-01
4.925516583871303311e-01,-2.988565999267889239e-01,-3.663278107809420092e-01,-6.047839104360575035e-01,4.315280319400205400e-01,6.591323179083730111e-02,-1.360509239483054245e-01
5.142431011799786233e-01,-3.056876004451092310e-01,-3.901464281388378197e-01,-5.693405821501351660e-01,4.261110535466183791e-01,6.195842479345126108e-02,-1.192730193264601724e-01
5.368333339951236738e-01,-3.167730046349515050e-01,-4.079730029320494111e-01,-5.294929700434547470e-01,4.195917251992309360e-01,6.052032803299800534e-02,-1.097754829634256524e-01
5.592737957438309593e-01,-3.298058690185678987e-01,-4.263687186856213174e-01,-4.968660032100280510e-01,4.174824075342531415e-01,5.914217242397601382e-02,-9.898967544763603854e-02
5.781789294720951489e-01,-3.416702900108092855e-01,-4.437159278921631866e-01,-4.709201022041753504e-01,4.234266498936989365e-01,5.791373333963178993e-02,-8.793426910425061749e-02
5.936985062462429852e-01,-3.501790428122597554e-01,-4.624113494027248805e-01,-4.560297166247284650e-01,4.251523441898275024e-01,5.518736542658997379e-02,-8.050402069625928192e-02
6.065815450220224392e-01,-3.560513121569630623e-01,-4.794588528520549175e-01,-4.523146196914740180e-01,4.306172318708778590e-01,5.557684655693728715e-02,-7.142596331011219490e-02
6.178766614296504756e-01,-3.636313316312811406e-01,-4.897952926276039065e-01,-4.365852761581967556e-01,4.437038851203833900e-01,4.203467328162124872e-02,-6.123940368396585399e-02
6.306099291389921646e-01,-3.744171391470152432e-01,-5.012401801013366409e-01,-4.234925797061972474e-01,4.555443732852104688e-01,3.550326943735360175e-02,-5.482782760102278274e-02
6.424443522848877208e-01,-3.858920790088538055e-01,-5.122058110713645362e-01,-4.119576986930106877e-01,4.658028950179637917e-01,1.947438377147836519e-02,-5.309013416654462247e-02
6.517920084986306151e-01,-3.979361598307751269e-01,-5.258078709566849085e-01,-4.052465804774696423e-01,4.799441634666390399e-01,9.257771757420485415e-03,-5.377921197102786266e-02
6.572748512544412947e-01,-4.071940406712437621e-01,-5.430052000138241297e-01,-3.964980630702941156e-01,4.940376971604987233e-01,5.033420473921079719e-03,-5.599627099239778971e-02
6.589526035375437019e-01,-4.172007768430407992e-01,-5.620901026548441592e-01,-3.975467332418824995e-01,5.048714794138042805e-01,-1.408153455506599983e-03,-6.081992470707842102e-02
6.604206436029436134e-01,-4.314021391595423971e-01,-5.771603116886403484e-01,-3.970373698085616354e-01,5.186292990264629310e-01,-1.276321101451038942e-02,-6.345651724681822259e-02
6.615591982309654284e-01,-4.477006781944681268e-01,-5.893841614232897541e-01,-3.992544288299315625e-01,5.401529611368527384e-01,-1.444101783909523817e-02,-6.624277176991988370e-02
6.641657383825716465e-01,-4.674147720301891074e-01,-6.011886412641276323e-01,-4.056360616079279779e-01,5.553969286058446642e-01,-1.779657694683800528e-02,-7.028746322368384369e-02
6.633567782753369002e-01,-4.828444098063378043e-01,-6.186856215369962442e-01,-4.141748122558630563e-01,5.692506540604380660e-01,-2.271006057641411502e-02,-7.636949932765535465e-02
6.627276416222294131e-01,-4.964465242331128625e-01,-6.352837572459746340e-01,-4.130962533209214804e-01,5.839193610086557129e-01,-2.124207505249664507e-02,-8.071373291396177763e-02
6.634167194267126533e-01,-5.072323317489024763e-01,-6.493652372595581923e-01,-4.068344483041941295e-01,5.995947738681728367e-01,-2.004357927315458809e-02,-8.928248140827044210e-02
6.651844107077309332e-01,-5.222425450896739374e-01,-6.579938178223887491e-01,-4.040481392396655380e-01,6.091821292377730401e-01,-2.411826857345866770e-02,-9.176919379894066253e-02
6.732138524638831001e-01,-5.366236217773656669e-01,-6.642856206855451973e-01,-4.070142717584879222e-01,6.175710542779544454e-01,-3.091932578680456345e-02,-9.806094212039262459e-02
6.835502376978386252e-01,-5.477390238136925493e-01,-6.665026797069151243e-01,-4.050068704133380493e-01,6.218375116293639593e-01,-3.076950017905089041e-02,-9.934921327314771844e-02
6.939465095415764395e-01,-5.597232180257205592e-01,-6.691092198586323647e-01,-3.982657543513123954e-01,6.324793949321616537e-01,-3.178811796256120203e-02,-1.067495183761923983e-01
7.021257769055377906e-01,-5.722467189760160888e-01,-6.741725836375556113e-01,-3.829259464900314214e-01,6.401494188539302854e-01,-3.816975074055761752e-02,-1.109739242012297566e-01
7.114734876608741487e-01,-5.819240242518897155e-01,-6.851980466759943766e-01,-3.700728510191431120e-01,6.512227475472531779e-01,-5.219134414430337543e-02,-1.261639064548125688e-01
7.201620639165629001e-01,-5.881557768805389941e-01,-6.961935664093754639e-01,-3.608749658716714492e-01,6.637343148085950162e-01,-5.368932751464994269e-02,-1.378785018392170159e-01
7.292400667612275456e-01,-5.923202960956552854e-01,-7.031444492305860550e-01,-3.541637931145924512e-01,6.755268064193575839e-01,-6.213819370620710103e-02,-1.472262125944423516e-01
7.398161620593146637e-01,-5.925300628548957338e-01,-7.108442964662842201e-01,-3.537144253742963151e-01,6.851141617887357427e-01,-7.130613554878761917e-02,-1.584015012406903011e-01
7.467071037290384794e-01,-5.880658924241888297e-01,-7.171060469413070848e-01,-3.477222737267582353e-01,6.934551775410469077e-01,-8.029430847855678621e-02,-1.696366764968315621e-01
7.566839511374823246e-01,-5.824632764485915271e-01,-7.227686040683911628e-01,-3.312739636254780073e-01,7.047683144731919924e-01,-7.957523282753342642e-02,-1.752992336238046178e-01
7.663013152618969315e-01,-5.770704272322346728e-01,-7.276222010880184499e-01,-3.191998304155618804e-01,7.163689943991968789e-01,-8.949219362608396011e-02,-1.843773455515451687e-01
7.765777593443656812e-01,-5.744937758438706243e-01,-7.289704679336317383e-01,-3.044891592072773712e-01,7.225049611767619950e-01,-9.173925049388298447e-02,-1.937549450703457410e-01
7.926665861616166708e-01,-5.758419881479459601e-01,-7.283412767390418097e-01,-2.860934434538719984e-01,7.294078256270264404e-01,-9.734186646948028709e-02,-2.037917336300543170e-01
8.096242596961067406e-01,-5.799765640581155957e-01,-7.223191817865570741e-01,-2.591288701228600111e-01,7.406251439834310446e-01,-1.019258646615117669e-01,-2.103531353208065724e-01
8.287691034887245678e-01,-5.869873334892194983e-01,-7.143796244867273160e-01,-2.238653107497490247e-01,7.455146838770687623e-01,-1.095657707457231567e-01,-2.194610814704178736e-01
8.453072980462161823e-01,-5.933090251157846495e-01,-7.059307582950591353e-01,-1.787746750344099134e-01,7.487743480509845284e-01,-1.115431742443884211e-01,-2.267715021171401446e-01
8.576809733887857945e-01,-6.009489857415062364e-01,-7.016464113187570462e-01,-1.331747304273434018e-01,7.529928088481074866e-01,-1.197823282182985949e-01,-2.374973684814429831e-01
8.659201819041228987e-01,-6.094277952380100505e-01,-6.997289489714120236e-01,-9.137971266842681572e-02,7.559169334736548507e-01,-1.159772922871282752e-01,-2.444182534562244768e-01
8.658602407527471456e-01,-6.214119894500658159e-01,-7.052716237956335732e-01,-6.390588498722538091e-02,7.651209272734327271e-01,-1.218196728683951235e-01,-2.506800584728408055e-01
8.575612001688881492e-01,-6.304002169213729356e-01,-7.127917566600583399e-01,-4.281363554248240888e-02,7.704418252916234167e-01,-1.233775973901729550e-01,-2.583499078619988509e-01
8.390156042662466618e-01,-6.379202952442597496e-01,-7.249557197847034118e-01,-2.031323264228834802e-02,7.751396407671418132e-01,-1.126217331793855081e-01,-2.684166942682475465e-01
8.174139913881273145e-01,-6.399575853528738367e-01,-7.347827961269315367e-01,1.438096760453255740e-03,7.788308375982211373e-01,-1.026748836174817825e-01,-2.712329466378893272e-01
7.959622586595216376e-01,-6.398078142866026052e-01,-7.373593929738131436e-01,2.369878959651572359e-02,7.853981624998951361e-01,-9.602359747035160709e-02,-2.791425606325503850e-01
7.799633162984820345e-01,-6.377704696364505654e-01,-7.276521443929651056e-01,3.858922971750056163e-02,7.818987773537955377e-01,-8.910271249562562446e-02,-2.860035589974385672e-01
7.677394120223501872e-01,-6.321079670509877069e-01,-7.086272374448032707e-01,6.129929029385916550e-02,7.840080077523570168e-01,-9.170925264739837601e-02,-2.921753704747676039e-01
7.551859132256533158e-01,-6.218614117319276602e-01,-6.863665446088518252e-01,9.155948158118265567e-02,7.837682867799511399e-01,-9.263804051612423152e-02,-2.954710975140439899e-01
7.402056431896619770e-01,-6.113752554317564147e-01,-6.666225074681841889e-01,1.243063852588988105e-01,7.841038263280974974e-01,-8.817397916843772165e-02,-3.036203124900938022e-01
7.179449503537105315e-01,-6.000201433312701838e-01,-6.515523529759814636e-01,1.527988307235550458e-01,7.808441621546258204e-01,-9.566405964483992719e-02,-3.102715986371684664e-01
6.918493328230690409e-01,-5.918109872039001296e-01,-6.394782197660653367e-01,1.768572126871759131e-01,7.832889321013336570e-01,-1.001881166854401428e-01,-3.157243890048455626e-01
6.606304103622395729e-01,-5.919308149652247053e-01,-6.315986036177223539e-01,1.938748273730972471e-01,7.810838831268096527e-01,-9.326723171071416019e-02,-3.172224269168966160e-01
6.245878341866184513e-01,-5.948370063326158252e-01,-6.285426411839489802e-01,2.108324463661048753e-01,7.848229019793429018e-01,-9.254815605974631154e-02,-3.253417531293711917e-01
5.831823520995316201e-01,-5.982225632868709564e-01,-6.274340844025783070e-01,2.297975212458558403e-01,7.829533925529652549e-01,-8.748484682241652877e-02,-3.276187533021168719e-01
5.431849689265799697e-01,-6.036753536546035637e-01,-6.253368531425884669e-01,2.478337537153985082e-01,7.788787468860913776e-01,-7.987488404315179480e-02,-3.323225792555284386e-01
5.030378692288950404e-01,-6.094877363894413147e-01,-6.186256803855094688e-01,2.601175991429616197e-01,7.712088102302949721e-01,-7.708852043708525059e-02,-3.391535252322830374e-01
4.678940830754596547e-01,-6.147907556909582016e-01,-6.073605618244215520e-01,2.701543877028367291e-01,7.633472364232396501e-01,-7.987482950166935325e-02,-3.407714454470855969e-01
4.335293137244233819e-01,-6.217415839706030845e-01,-5.916312182911998008e-01,2.856140778670357427e-01,7.516505633884396076e-01,-7.205515450470212357e-02,-3.418500043820271728e-01
4.008723490447341220e-01,-6.256065065116667157e-01,-5.760816982121053087e-01,3.119194076153242179e-01,7.423508382793375660e-01,-7.633955602265318774e-02,-3.475725026604870038e-01
3.651293695431379049e-01,-6.261457587083685272e-01,-5.613410836988741437e-01,3.301354089975672146e-01,7.250455496996544014e-01,-7.295394452694337062e-02,-3.511377739858767555e-01
3.320229280399100702e-01,-6.209326784047675130e-01,-5.475592003594265123e-01,3.455651558568195725e-01,7.137325000339256320e-01,-7.085671326684250815e-02,-3.568602722643365865e-01
2.973586165564423567e-01,-6.105662953243828905e-01,-5.320696214318187955e-01,3.612943903070209295e-01,7.023714538141323516e-01,-7.541076815403835454e-02,-3.601259469157014337e-01
2.628140237511678023e-01,-6.021174291328534878e-01,-5.157411390918076322e-01,3.687546365615523847e-01,6.883260039411975839e-01,-6.579340402951272537e-02,-3.620134659580998004e-01
2.289885611383990494e-01,-5.937583928561362967e-01,-4.972254864941128005e-01,3.727992734738339031e-01,6.721232398487764215e-01,-6.651242513905364362e-02,-3.648297728691130004e-01
1.966611364376813498e-01,-5.859686611641434784e-01,-4.814362563507756931e-01,3.780722949288106705e-01,6.584133295242100559e-01,-7.115630994092292383e-02,-3.704923299960860561e-01
1.634948083245602035e-01,-5.780591017108260843e-01,-4.704107933124479501e-01,3.788813095777499029e-01,6.385194558675699739e-01,-5.198157738506292702e-02,-3.720502545178083764e-01
1.317665224302988491e-01,-5.706288533028069931e-01,-4.622016371850223848e-01,3.850531210550234285e-01,6.151742808853111200e-01,-4.814665269048390428e-02,-3.754657547770934301e-01
1.024351735533501895e-01,-5.664044474777973903e-01,-4.558499477119726251e-01,3.969175420472370597e-01,5.921165616304957524e-01,-4.332294443432083142e-02,-3.759751182103032718e-01
7.762782717524174814e-02,-5.658351974346109703e-01,-4.503372161928087536e-01,4.196875437750269278e-01,5.702573599719595876e-01,-3.337609487236159467e-02,-3.785517150571848788e-01
5.479788429618714929e-02,-5.663145084799092732e-01,-4.436260434357297555e-01,4.443151212402685069e-01,5.495485920885556652e-01,-2.900180889797709938e-02,-3.789711394925898702e-01
3.673165398010436178e-02,-5.645768695868857989e-01,-4.354767739181975017e-01,4.659167341182768318e-01,5.337294513649837313e-01,-2.118213390112089201e-02,-3.814279085780913903e-01
1.959421153274742977e-02,-5.628690649157885861e-01,-4.264886009884838458e-01,4.818556807862361957e-01,5.236627413169880896e-01,-2.657503765896018777e-02,-3.859220223138004613e-01
6.022040411002294036e-03,-5.617305648293602349e-01,-4.125568920411160079e-01,4.948286585599315224e-01,5.163283442097821307e-01,-3.882888524014971310e-02,-3.976965043082092421e-01
-7.580019474318078210e-03,-5.613710815454420189e-01,-3.938615796136302194e-01,4.954278519080368426e-01,5.111031775011376510e-01,-4.269375323961988045e-02,-4.124370642797359210e-01
-2.013351827101494962e-02,-5.585847179393199635e-01,-3.645001783484369540e-01,4.904843704320871467e-01,4.949484972296414043e-01,-4.706809375554232844e-02,-4.300838701604137171e-01
-3.490402154771032883e-02,-5.528622742024535963e-01,-3.244729064121321116e-01,4.801479851981316216e-01,4.597628340823334270e-01,-3.325621256949906623e-02,-4.494983127804053069e-01
-5.126250173403956722e-02,-5.475891982058556096e-01,-2.803709451754121673e-01,4.580370634283958964e-01,3.992664061520656560e-01,-2.477734853151281058e-02,-4.752943881786153568e-01
-7.304388352480373214e-02,-5.471996625339148324e-01,-2.417817154578560945e-01,4.408696776761478198e-01,3.223756642436459430e-01,-1.863548035913042966e-02,-4.945889484956333959e-01
-9.629325083948536701e-02,-5.543003709628790965e-01,-2.162254046655931461e-01,4.383529674392150355e-01,2.376711705498468774e-01,-1.225390212272747803e-02,-5.173290069186986528e-01
-1.188235970446260836e-01,-5.674830064127667217e-01,-2.001065800018020369e-01,4.449743102813430440e-01,1.517202499721204134e-01,-2.606540151828262708e-03,-5.358147162114468287e-01
-1.397959641864510161e-01,-5.843807933374189911e-01,-1.925265605274839587e-01,4.428170833283839869e-01,6.854972615588650342e-02,2.606540151828262708e-03,-5.546599087884462875e-01
