Afshin1997/kuka_rl_ros2/src/catch_and_throw/output_files/ft/idealpd_3/ft_received_joint_pos_np.csv
joint_0,joint_1,joint_2,joint_3,joint_4,joint_5,joint_6
7.863992048179837546e-01,1.596778168880125031e-03,1.326349236304782631e+00,1.223014657937054439e+00,1.605604745876195949e+00,-9.073654542255483735e-01,1.570744852731506880e+00
7.863992048179837546e-01,1.596778168880125031e-03,1.326349236304782631e+00,1.223014777819357191e+00,1.605604745876195949e+00,-9.073654542255483735e-01,1.570744852731506880e+00
7.863992647045936479e-01,1.596778168880125031e-03,1.326349236304782631e+00,1.223014657937054439e+00,1.605604745876195949e+00,-9.073654542255483735e-01,1.570744852731506880e+00
7.863991449313738613e-01,1.596838055490015741e-03,1.326349356078002417e+00,1.223015077361489844e+00,1.605604650057620209e+00,-9.073636565364208151e-01,1.570745451924854930e+00
7.863993845868965105e-01,1.597676904360796884e-03,1.326352831573954560e+00,1.223015257130402489e+00,1.605609731234665771e+00,-9.073596418428134802e-01,1.570744732958287093e+00
7.864023806627202795e-01,1.600613093574687574e-03,1.326371287230859508e+00,1.222997700208978245e+00,1.605641177878960546e+00,-9.073586831116399187e-01,1.570734426461816602e+00
7.864121477433695384e-01,1.608163169744031458e-03,1.326424257537264673e+00,1.222939397049049637e+00,1.605729190120648964e+00,-9.073585033427271629e-01,1.570719985498518989e+00
7.864285062780974611e-01,1.619787826130578146e-03,1.326517614653431876e+00,1.222842923974756024e+00,1.605889011665400767e+00,-9.073632371119854101e-01,1.570714113229174203e+00
7.864481603216986194e-01,1.633689591772984583e-03,1.326659627731181068e+00,1.222713913818085363e+00,1.606124190069449398e+00,-9.073675514568083633e-01,1.570709139804393306e+00
7.864689529744692820e-01,1.644954710334031300e-03,1.326847899888037086e+00,1.222556980356909850e+00,1.606430411053421548e+00,-9.073637764187236776e-01,1.570688287265012750e+00
7.864877082825897370e-01,1.647651134942203222e-03,1.327082191468477168e+00,1.222374880120614238e+00,1.606793101641678767e+00,-9.073700082258938648e-01,1.570638313034431466e+00
7.865027485483185865e-01,1.635067747382015681e-03,1.327359985816805699e+00,1.222171507811419477e+00,1.607207372294326975e+00,-9.073736034950657947e-01,1.570560415499345330e+00
7.865135343558342651e-01,1.600613093574687574e-03,1.327675889974723411e+00,1.221945605156019798e+00,1.607674852974352975e+00,-9.073765395751965945e-01,1.570472331459174864e+00
7.865233613230933063e-01,1.536677210740984524e-03,1.328028645668924090e+00,1.221687944271420800e+00,1.608208774150136300e+00,-9.073777979575858854e-01,1.570382449838959804e+00
7.865395400889085842e-01,1.440084363227453219e-03,1.328424184946279230e+00,1.221378811227411543e+00,1.608827927083579912e+00,-9.073830710335824001e-01,1.570282441491187120e+00
7.865693208600674780e-01,1.306340437298421885e-03,1.328872754525732391e+00,1.221011494796693464e+00,1.609540844689387074e+00,-9.073885837651016750e-01,1.570157985225778985e+00
7.866174975106043910e-01,1.132988663868359511e-03,1.329385259878936409e+00,1.220589590139355529e+00,1.610337172452716459e+00,-9.073977516524026621e-01,1.569996497873341168e+00
7.866868861292644066e-01,9.165535469851250183e-04,1.329964337652972395e+00,1.220125441096518326e+00,1.611203488093503777e+00,-9.074120728424804883e-01,1.569802113682534639e+00
7.867776067074332413e-01,6.530203930414063117e-04,1.330603576162674218e+00,1.219621863975092646e+00,1.612140175235118100e+00,-9.074292702260792209e-01,1.569593048872907959e+00
7.868910972873298659e-01,3.488607738131250038e-04,1.331294167167649478e+00,1.219076521779212996e+00,1.613134769957786485e+00,-9.074567140013722888e-01,1.569376553869414881e+00
7.870215455953025740e-01,-2.037344650140625188e-06,1.332013460330307320e+00,1.218515779888862394e+00,1.614153045482251914e+00,-9.074867345371370186e-01,1.569172222829046559e+00
7.871705694424829813e-01,-4.026699290890937760e-04,1.332726521685794863e+00,1.217973553651109375e+00,1.615145818779315068e+00,-9.075178934639048789e-01,1.568962618712681722e+00
7.873372699843075306e-01,-8.647217406663282270e-04,1.333413397539295442e+00,1.217452599377172318e+00,1.616057674423557966e+00,-9.075406035790227754e-01,1.568719339013853409e+00
7.875330323307229152e-01,-1.380522820909640741e-03,1.334081098660240272e+00,1.216910792563854704e+00,1.616878354242313742e+00,-9.075621153074444614e-01,1.568445020052394057e+00
7.877712188315504349e-01,-1.934972908397265693e-03,1.334754791823749454e+00,1.216311042019351030e+00,1.617635948960795433e+00,-9.075745189260918666e-01,1.568137444932906632e+00
7.880662104543946223e-01,-2.509556568697500142e-03,1.335464198023455173e+00,1.215636929431406443e+00,1.618363151737447936e+00,-9.075776947708283915e-01,1.567803624315739164e+00
7.884232204977252856e-01,-3.090671687383546914e-03,1.336237240454779096e+00,1.214881983119161957e+00,1.619110296297045171e+00,-9.075802115356069732e-01,1.567448052423710436e+00
7.888435672305413870e-01,-3.674543117287656317e-03,1.337088959383449849e+00,1.214072808336289278e+00,1.619944110591071906e+00,-9.075764364975222875e-01,1.567064137802741897e+00
7.893164048496343899e-01,-4.265125665407249952e-03,1.338016358624560587e+00,1.213238047135694719e+00,1.620891727333515719e+00,-9.075624149586600797e-01,1.566657872495397896e+00
7.898301085895346185e-01,-4.856966704999171776e-03,1.338998525752120861e+00,1.212377939281983785e+00,1.621962158182892910e+00,-9.075473148063213369e-01,1.566224642832888980e+00
7.903684999025930580e-01,-5.444493290685093953e-03,1.340012031575362084e+00,1.211501532889238009e+00,1.623158375609449200e+00,-9.075192717285970323e-01,1.565774635211216737e+00
7.909264854817257273e-01,-6.034057221021156894e-03,1.341054539316584249e+00,1.210592888956247615e+00,1.624480858880597012e+00,-9.074735518471455098e-01,1.565299820134083530e+00
7.915064619912423050e-01,-6.641357841694187948e-03,1.342136475136394669e+00,1.209630675523504006e+00,1.625905735208321490e+00,-9.074333448062963381e-01,1.564797621277350004e+00
7.921225110747809328e-01,-7.278079695700625379e-03,1.343276953880739422e+00,1.208613394662178209e+00,1.627434347099881773e+00,-9.073903214585361532e-01,1.564276846772325813e+00
7.927860177332055613e-01,-7.945481165429719300e-03,1.344486282046088776e+00,1.207562138458090573e+00,1.629067844901786799e+00,-9.073357932276092663e-01,1.563737017307965438e+00
7.934941056639122081e-01,-8.649314747006390733e-03,1.345773567633134160e+00,1.206470195793025058e+00,1.630774110890645057e+00,-9.072734153783803546e-01,1.563171901186181767e+00
7.942529467874611671e-01,-9.387782642220062618e-03,1.347134196536754036e+00,1.205330136473115710e+00,1.632529464264659502e+00,-9.072019294193772732e-01,1.562586591604975705e+00
7.950590656079002949e-01,-1.015794888002300063e-02,1.348560738781247492e+00,1.204135369153366719e+00,1.634342054315164328e+00,-9.070929928398262510e-01,1.561977553399951146e+00
7.959131813099635799e-01,-1.096424746937482882e-02,1.350048280719361005e+00,1.202900634448291095e+00,1.636195774271175907e+00,-9.069448678372095118e-01,1.561354793089114068e+00
7.968114589689565541e-01,-1.180619920831334387e-02,1.351594065930793009e+00,1.201609034625505945e+00,1.638076818229260878e+00,-9.067712762991737563e-01,1.560708663583200817e+00
7.977516812531501023e-01,-1.269141395053470338e-02,1.353189645603893876e+00,1.200291009536127884e+00,1.639979529577319850e+00,-9.065657468721091128e-01,1.560048332878595678e+00
7.987405596080090486e-01,-1.362612361229218784e-02,1.354840652352485408e+00,1.198955667289931526e+00,1.641907743501846983e+00,-9.063259425601499775e-01,1.559371044336831602e+00
7.997711430416291067e-01,-1.462524846792865804e-02,1.356537738411270677e+00,1.197593540348399932e+00,1.643841230240571161e+00,-9.060759515249400264e-01,1.558675479907075223e+00
8.008358814778409052e-01,-1.569346229100945442e-02,1.358274791964465766e+00,1.196192105101499870e+00,1.645787660166480482e+00,-9.058148153625550369e-01,1.557959961782502178e+00
8.019307602230369980e-01,-1.681746283648954954e-02,1.360034016216957298e+00,1.194749384200274100e+00,1.647753744245074037e+00,-9.055123334410682956e-01,1.557238511501974454e+00
8.030470309234349902e-01,-1.799389427255350046e-02,1.361811636348826848e+00,1.193262860879944265e+00,1.649719444700298521e+00,-9.051598175114734524e-01,1.556498904997591248e+00
8.041815175161322049e-01,-1.922347567485231321e-02,1.363597705292346474e+00,1.191718334050901440e+00,1.651676133147940595e+00,-9.047714087767690927e-01,1.555748333025862795e+00
8.053330817192082547e-01,-2.050470922364025159e-02,1.365393421543295682e+00,1.190122934037630253e+00,1.653652379755158330e+00,-9.043355424671788434e-01,1.554981881939534460e+00
8.065105917687487302e-01,-2.183346012484098722e-02,1.367210889178188893e+00,1.188501108866849565e+00,1.655630160332253631e+00,-9.038274713411007522e-01,1.554201409314344140e+00
8.077248933588792035e-01,-2.319822360437082814e-02,1.369070780967494239e+00,1.186861187576989440e+00,1.657591163059268791e+00,-9.032910573769995510e-01,1.553409731348119660e+00
8.089888695283754538e-01,-2.457898608080311131e-02,1.370989215681333917e+00,1.185208682790486190e+00,1.659546221543924283e+00,-9.027590177534142724e-01,1.552606608494421225e+00
8.103082727733623702e-01,-2.596454232218667335e-02,1.372979016471873814e+00,1.183527056312781767e+00,1.661510771478107218e+00,-9.021628624780824168e-01,1.551787906177338972e+00
8.116902935231008476e-01,-2.735812784170178411e-02,1.375034790380814442e+00,1.181796953751491186e+00,1.663462570385855432e+00,-9.015302751999861863e-01,1.550960335515088051e+00
8.131257639993728636e-01,-2.875488931503650258e-02,1.377154500172588669e+00,1.180018674539663470e+00,1.665408137246450648e+00,-9.008939127747221942e-01,1.550121260078753505e+00
8.146073737815316962e-01,-3.016129798671751683e-02,1.379321727425858901e+00,1.178220141981803470e+00,1.667340090189829871e+00,-9.002206390356484178e-01,1.549274993994992133e+00
8.161230186839794065e-01,-3.158364576869108348e-02,1.381516218685509445e+00,1.176398839422215570e+00,1.669264756732656396e+00,-8.994971514104705967e-01,1.548419620019622744e+00
8.176596360081105352e-01,-3.303014170800148974e-02,1.383716043016849584e+00,1.174529480094393508e+00,1.671180602905052215e+00,-8.987540695192183238e-01,1.547556336321175285e+00
8.192030843327599010e-01,-3.450366199816965601e-02,1.385903403733849348e+00,1.172594567072606120e+00,1.673092518246910965e+00,-8.979511864301257251e-01,1.546686041962379798e+00
8.207494088509302843e-01,-3.600450639949428350e-02,1.388065178142210199e+00,1.170606024664455624e+00,1.674993887436776907e+00,-8.971161855740084068e-01,1.545807897876199544e+00
8.223069985967447204e-01,-3.753369352975889639e-02,1.390221559701354748e+00,1.168584645413629275e+00,1.676890175275064232e+00,-8.962439137571727166e-01,1.544920346138112244e+00
8.238846618105958308e-01,-3.909427935139715704e-02,1.392394958766102198e+00,1.166557334006848468e+00,1.678772753203026991e+00,-8.953280792858385739e-01,1.544026562701938055e+00
8.254955214049479739e-01,-4.068051136828415570e-02,1.394600595480177008e+00,1.164536973482888982e+00,1.680646606579134783e+00,-8.943967851243402878e-01,1.543124030693815207e+00
8.271495242293632755e-01,-4.227621081460470470e-02,1.396845360621624677e+00,1.162514875156411609e+00,1.682511447773127333e+00,-8.934509302263246022e-01,1.542212091033785537e+00
8.288472094814968161e-01,-4.387424736587407920e-02,1.399144354451866690e+00,1.160479594249026025e+00,1.684369961450456810e+00,-8.924536029507325052e-01,1.541291822444408766e+00
8.305891165771698281e-01,-4.547611873275494293e-02,1.401486850940914186e+00,1.158451563766594195e+00,1.686208053902896742e+00,-8.914469880146197456e-01,1.540364902623426291e+00
8.323678752091259181e-01,-4.709081325180170668e-02,1.403864760814942825e+00,1.156421016628466969e+00,1.688039722845565027e+00,-8.904379761960312667e-01,1.539433488579625031e+00
8.341778526544597616e-01,-4.872306469227269399e-02,1.406268736417738419e+00,1.154377586451563964e+00,1.689850395477355827e+00,-8.893950490303736967e-01,1.538488472530480156e+00
8.360150343286472108e-01,-5.037161467177864171e-02,1.408685235521484502e+00,1.152302398045461640e+00,1.691661835006818881e+00,-8.882942380201398480e-01,1.537544175556986303e+00
8.378764840424743898e-01,-5.203622353479692847e-02,1.411110662857008924e+00,1.150176396559907221e+00,1.693470973494199061e+00,-8.872056509687238357e-01,1.536589691969324711e+00
8.397564494088993747e-01,-5.371701105454731312e-02,1.413543879924225255e+00,1.148009948377981093e+00,1.695272250495038158e+00,-8.860857251125440204e-01,1.535629755536753960e+00
8.416570875457921597e-01,-5.541433687793839713e-02,1.415972423217876308e+00,1.145854645432313079e+00,1.697055790761907268e+00,-8.849245735977314675e-01,1.534660830985794755e+00
8.435646765655061552e-01,-5.712802112697433488e-02,1.418398749397964398e+00,1.143714921950028884e+00,1.698837797058898369e+00,-8.837514378887069144e-01,1.533685075434317424e+00
8.454701084673502676e-01,-5.886717180234625479e-02,1.420797511811373370e+00,1.141582209346259091e+00,1.700611366434295002e+00,-8.825746469148174622e-01,1.532704466231278762e+00
8.473706866085500833e-01,-6.062897270622620571e-02,1.423166613335926423e+00,1.139463338403355452e+00,1.702378224669659712e+00,-8.813318228268343102e-01,1.531721520032374384e+00
8.492663513206618608e-01,-6.240096022427378541e-02,1.425507312244929548e+00,1.137385154030512657e+00,1.704119964126458386e+00,-8.801019417733197958e-01,1.530767276100235552e+00
8.511707644956393315e-01,-6.417426590223743177e-02,1.427828476883551190e+00,1.135322609007663575e+00,1.705800727713381315e+00,-8.789263491861266653e-01,1.529853478973551617e+00
8.531127482825507924e-01,-6.594751180267426072e-02,1.430192245336414647e+00,1.133228185873312421e+00,1.707438060352714393e+00,-8.777466820187163066e-01,1.528960834037463634e+00
8.551133348806064793e-01,-6.771386670689977239e-02,1.432645416207530831e+00,1.131066111922819140e+00,1.709068873663700083e+00,-8.765723478139123559e-01,1.528047336452912353e+00
8.571801941391953283e-01,-6.947536795956411881e-02,1.435183734929603716e+00,1.128849329863402806e+00,1.710708028077704279e+00,-8.754022080716284959e-01,1.527099743752379002e+00
8.592938518927122349e-01,-7.123848713244321229e-02,1.437777241071644729e+00,1.126622481181204893e+00,1.712353510008371549e+00,-8.741988720579265681e-01,1.526126025545551768e+00
8.614182355671349267e-01,-7.299920942284665593e-02,1.440365953448734304e+00,1.124422896505387515e+00,1.714014044182089691e+00,-8.729797169253180611e-01,1.525128039190001727e+00
8.635189502861829736e-01,-7.475825401550854898e-02,1.442898280128242838e+00,1.122227865938998592e+00,1.715704011762812620e+00,-8.716919520272273791e-01,1.524116510715717743e+00
8.655683127281237343e-01,-7.651873665038937122e-02,1.445337609120326494e+00,1.120035292032612206e+00,1.717398485260060115e+00,-8.703663768616800578e-01,1.523090601164746039e+00
8.675730337930064318e-01,-7.830774178312291389e-02,1.447694007375016412e+00,1.117865068703518316e+00,1.719117598268461666e+00,-8.690056879623674346e-01,1.522058879231039663e+00
8.695667295039338773e-01,-8.013875153675005525e-02,1.450035784897496072e+00,1.115715937678410485e+00,1.720846778161444490e+00,-8.676023952488131075e-01,1.521022842952510334e+00
8.715870900278934741e-01,-8.199366990127447685e-02,1.452422383347780288e+00,1.113567585615563793e+00,1.722587558734353097e+00,-8.662294823906826480e-01,1.519984709442721016e+00
8.736634768206920088e-01,-8.383894084928644741e-02,1.454896766187019352e+00,1.111384719012299627e+00,1.724340227617448207e+00,-8.648832344546676376e-01,1.518947235121972827e+00
8.758064959209324041e-01,-8.566767371182387736e-02,1.457471337252027155e+00,1.109145945913416531e+00,1.726085610099990175e+00,-8.635182313196151371e-01,1.517906165532052709e+00
8.779988301717961408e-01,-8.748364330880530060e-02,1.460108945355304666e+00,1.106896147351495108e+00,1.727826199035747301e+00,-8.621673694966446311e-01,1.516863537908527571e+00
8.802123165041728647e-01,-8.928313459783900063e-02,1.462752665383449724e+00,1.104671156135951460e+00,1.729571869148549768e+00,-8.608227993674542056e-01,1.515823307276561227e+00
8.824062685661683281e-01,-9.107387742400709085e-02,1.465350545647840397e+00,1.102486491952642922e+00,1.731305267502329714e+00,-8.594455721645007928e-01,1.514775945883777952e+00
8.845599535916216505e-01,-9.287001309939151017e-02,1.467863278061274590e+00,1.100350183970618012e+00,1.733035118299875998e+00,-8.580504287204639979e-01,1.513725708406556736e+00
8.866742105384866068e-01,-9.467843262020358974e-02,1.470303506007005101e+00,1.098246233411140471e+00,1.734772639295877328e+00,-8.566481545156100497e-01,1.512679904938295072e+00
8.887745658287923289e-01,-9.651902979465021293e-02,1.472727015880182178e+00,1.096116217231978718e+00,1.736504887128615726e+00,-8.552500148866662988e-01,1.511632963079030390e+00
8.908896017379182020e-01,-9.840277019915989742e-02,1.475158075829528626e+00,1.093968284593567430e+00,1.738219589864535619e+00,-8.538919625253519330e-01,1.510615981759837023e+00
8.930369950695913328e-01,-1.003064642984863725e-01,1.477625208243813937e+00,1.091800697911554652e+00,1.739906201875242475e+00,-8.525838245080090694e-01,1.509652809595919853e+00
8.952161466304636717e-01,-1.021891860852125189e-01,1.480132427925728855e+00,1.089590926621569533e+00,1.741547944787057434e+00,-8.512968984587891974e-01,1.508713006736161599e+00
8.974201654243239012e-01,-1.040362547223519923e-01,1.482665653449801058e+00,1.087352812711727568e+00,1.743157282345220382e+00,-8.500029018626114041e-01,1.507755706841588994e+00
8.996314346431377729e-01,-1.058629502402392841e-01,1.485207807096568411e+00,1.085132075954396980e+00,1.744771701254961949e+00,-8.486630055069862566e-01,1.506769405138118412e+00
9.018391085927798256e-01,-1.076844924553498062e-01,1.487728209468474727e+00,1.082959036318392076e+00,1.746413635978461665e+00,-8.472851792197678700e-01,1.505755359899056067e+00
9.040295253812963283e-01,-1.095144237045835162e-01,1.490223864380612717e+00,1.080866650637774207e+00,1.748074649419591564e+00,-8.459224529758051503e-01,1.504723218540914287e+00
9.062016061770445940e-01,-1.113629903796348880e-01,1.492692195290677537e+00,1.078836822466214818e+00,1.749748414236222072e+00,-8.445338408810709740e-01,1.503676935761607547e+00
9.083616428919709662e-01,-1.132182681729017315e-01,1.495148422015144307e+00,1.076811248861951675e+00,1.751449886678295265e+00,-8.431517002490296342e-01,1.502622024401737866e+00
9.105155675729468268e-01,-1.150682729992550807e-01,1.497610221575906397e+00,1.074726772686245502e+00,1.753161617467568156e+00,-8.417692599657727870e-01,1.501559383196786168e+00
9.126815364438277678e-01,-1.169077316736153171e-01,1.500096528722747902e+00,1.072541269435900002e+00,1.754888592137043402e+00,-8.403679444920925112e-01,1.500502614261179257e+00
9.148635043116111198e-01,-1.187471903479755536e-01,1.502613096169959528e+00,1.070297463025626117e+00,1.756636179843092949e+00,-8.389894590158329946e-01,1.499437935711577241e+00
9.170587746426057674e-01,-1.205955173675042763e-01,1.505150156509643011e+00,1.068069955154387074e+00,1.758385493156171986e+00,-8.376088164217035947e-01,1.498381046893667357e+00
9.192626136675531301e-01,-1.224543905390261117e-01,1.507688774882931515e+00,1.065900391014334314e+00,1.760125410838299320e+00,-8.362202642135793118e-01,1.497321401764539539e+00
9.214623181165904064e-01,-1.243135632526804896e-01,1.510212173330661489e+00,1.063796440454856773e+00,1.761868300641606710e+00,-8.348692226216960499e-01,1.496265411791193323e+00
9.236481809047613067e-01,-1.261708783905974851e-01,1.512710644549710715e+00,1.061747976966562756e+00,1.763617805766370061e+00,-8.334812696069199278e-01,1.495204867708418650e+00
9.258190033181203926e-01,-1.280287328352527065e-01,1.515166811387567813e+00,1.059730492636123955e+00,1.765358490346170095e+00,-8.320840887091497384e-01,1.494150795306502966e+00
9.279717296124000425e-01,-1.298797562793896077e-01,1.517608657144429829e+00,1.057705278460603138e+00,1.767099175100502961e+00,-8.306972143078501514e-01,1.493101276795849586e+00
9.301217594820714307e-01,-1.317193947226625861e-01,1.520047087401033004e+00,1.055657054518748916e+00,1.768831422933241138e+00,-8.293084823308131126e-01,1.492055653096500789e+00
9.322871291596042109e-01,-1.335487866651580424e-01,1.522516796466706790e+00,1.053563350569131973e+00,1.770564054214815775e+00,-8.278666602741511227e-01,1.491020815313750969e+00
9.344713740275604197e-01,-1.353682317580916228e-01,1.525022817761925387e+00,1.051430757738581745e+00,1.772286043525821420e+00,-8.264794263350260239e-01,1.489997002994039255e+00
9.366774900526806391e-01,-1.372059526299342358e-01,1.527562035328561940e+00,1.049286600138255032e+00,1.774015990316476499e+00,-8.251220929402796056e-01,1.488985594292975279e+00
9.389011031126152096e-01,-1.390784878024927673e-01,1.530112158475934070e+00,1.047181810729906681e+00,1.775740472306716944e+00,-8.237315633831981954e-01,1.487987847702030741e+00
9.411148889871244760e-01,-1.409664825561324220e-01,1.532639991041706784e+00,1.045124778438576874e+00,1.777468885127494236e+00,-8.223377380990772867e-01,1.486998969347171906e+00
9.432980552416041498e-01,-1.428392573842135749e-01,1.535109100914032521e+00,1.043100283338707079e+00,1.779191737329281153e+00,-8.209457703906938297e-01,1.486035377758819331e+00
9.454411942241474076e-01,-1.446858467103077639e-01,1.537510679634352506e+00,1.041097239971565891e+00,1.780900687809058747e+00,-8.195023304138171483e-01,1.485095335134455352e+00
9.475555710533152265e-01,-1.465167965773250258e-01,1.539875946234211090e+00,1.039123198413322680e+00,1.782605995088559769e+00,-8.180706948622397112e-01,1.484184234432379457e+00
9.496645549241836681e-01,-1.483477464443422877e-01,1.542246126263157491e+00,1.037146400543861535e+00,1.784309864216758967e+00,-8.166736338467724954e-01,1.483302555072720130e+00
9.517932528343463483e-01,-1.501967925395220060e-01,1.544661966286945409e+00,1.035156899404537256e+00,1.786022745527073408e+00,-8.152966464084248077e-01,1.482460423564868846e+00
9.539526903559244486e-01,-1.520560251397862495e-01,1.547139644853223972e+00,1.033145287343443242e+00,1.787744830656655015e+00,-8.139359575091121846e-01,1.481650110172826551e+00
9.561398114174015639e-01,-1.539069886973132573e-01,1.549657230918219275e+00,1.031106291284582976e+00,1.789462889137123591e+00,-8.126152359951260840e-01,1.480878685661717542e+00
9.583323253280949805e-01,-1.557433315226299242e-01,1.552178112601170668e+00,1.029041289492648392e+00,1.791176729331328099e+00,-8.112773172066243266e-01,1.480140157770810871e+00
9.605144728557080125e-01,-1.575711055449106612e-01,1.554667955130573986e+00,1.026985395701404791e+00,1.792879447938485749e+00,-8.099405368091259216e-01,1.479436683727059831e+00
9.626668397212452266e-01,-1.594044522944035314e-01,1.557104647693742461e+00,1.024963537139533365e+00,1.794594726109459248e+00,-8.085715188713830104e-01,1.478778510140324576e+00
9.647897852443659827e-01,-1.612494237002829733e-01,1.559478842416296196e+00,1.022989076156854749e+00,1.796303197147291808e+00,-8.071799107008250651e-01,1.478158626132091369e+00
9.668765384202449020e-01,-1.631014058755935192e-01,1.561813609169344863e+00,1.021085142402005763e+00,1.798011476547972887e+00,-8.057903397658342515e-01,1.477569241970668079e+00
9.689511275239158783e-01,-1.649553655089442961e-01,1.564133215774361707e+00,1.019234718151216912e+00,1.799711414845635238e+00,-8.044093976295723092e-01,1.477024618850439452e+00
9.710377009308820417e-01,-1.668023142637808931e-01,1.566487157259966123e+00,1.017372968786174114e+00,1.801414037634216925e+00,-8.030180291145370131e-01,1.476515648770714506e+00
9.731568115293082188e-01,-1.686433908583558905e-01,1.568900899943410865e+00,1.015468615497806537e+00,1.803108798761724918e+00,-8.016606358331807014e-01,1.476036639340144285e+00
9.753118148237606144e-01,-1.704712248763295690e-01,1.571373125773863233e+00,1.013512011087768006e+00,1.804821008992942843e+00,-8.003142081282528242e-01,1.475601731761727597e+00
9.774887492710701009e-01,-1.722835392084461070e-01,1.573872855266218673e+00,1.011553429219689049e+00,1.806524782302566079e+00,-7.989846183781813549e-01,1.475204574564157767e+00
9.796605305246858242e-01,-1.740787162617399575e-01,1.576362098602273720e+00,1.009626305929593570e+00,1.808219543430074294e+00,-7.976362732109062437e-01,1.474844927982828846e+00
9.818047480116224301e-01,-1.758792860551670889e-01,1.578804783317089955e+00,1.007744482987431134e+00,1.809906538715084334e+00,-7.962915233128030623e-01,1.474514462979310769e+00
9.839042643439742664e-01,-1.777168872628730190e-01,1.581175143114949000e+00,1.005900350430422474e+00,1.811605326666237969e+00,-7.949317332580541073e-01,1.474217553785036161e+00
9.859567426349585828e-01,-1.795960136713441735e-01,1.583478151638798348e+00,1.004086058640265788e+00,1.813315427492524279e+00,-7.935364698226313740e-01,1.473946231008483654e+00
9.879744067343100289e-01,-1.814903601144568779e-01,1.585740413705977181e+00,1.002298491658834223e+00,1.815025911942179881e+00,-7.921533704594163616e-01,1.473704149696351662e+00
9.899853597154459894e-01,-1.833646928670598364e-01,1.588007649307020097e+00,1.000528181947611284e+00,1.816726904942307819e+00,-7.907731472897223668e-01,1.473501376580505173e+00
9.920235168163524797e-01,-1.852094845040265225e-01,1.590337023101769276e+00,9.987496030845679496e-01,1.818425884530613157e+00,-7.893965792758100841e-01,1.473328264462597792e+00
9.941156629505307762e-01,-1.870268323657000575e-01,1.592752863125557194e+00,9.969463967531425608e-01,1.820125727009699768e+00,-7.880334336074119594e-01,1.473186311271458271e+00
9.962550267859062725e-01,-1.888339336175129946e-01,1.595240129112655225e+00,9.951213191554699744e-01,1.821822501549030582e+00,-7.867194233207244203e-01,1.473075097691734392e+00
9.984094308870106182e-01,-1.906416939492839580e-01,1.597732847835579451e+00,9.933257826734337437e-01,1.823497896154114617e+00,-7.854659333075283412e-01,1.473001514501471210e+00
1.000535252603652170e+00,-1.924552667728728073e-01,1.600161271246927752e+00,9.915940621919282494e-01,1.825130435246662630e+00,-7.842159186812013294e-01,1.472944649383761684e+00
1.002604089429364409e+00,-1.942748915256360398e-01,1.602488308154894181e+00,9.899064435625765102e-01,1.826733636925314652e+00,-7.829538000874424197e-01,1.472890360808357224e+00
1.004609050258852943e+00,-1.961198629315154818e-01,1.604719770833130443e+00,9.882094173904010237e-01,1.828329743840565014e+00,-7.816855694597331095e-01,1.472849674456462754e+00
1.006574882551885652e+00,-1.979939560285957911e-01,1.606903416398655526e+00,9.864958530236679346e-01,1.829942628780428793e+00,-7.803943291747733602e-01,1.472830499614823818e+00
1.008536280726875622e+00,-1.998749400128043419e-01,1.609102102229909237e+00,9.847872620817158529e-01,1.831583508801462701e+00,-7.790660575846179992e-01,1.472821930920870992e+00
1.010527279904111619e+00,-2.017329743354553950e-01,1.611360829023609220e+00,9.831194773739609927e-01,1.833238578349298820e+00,-7.777412614904146704e-01,1.472821751151958347e+00
1.012557527500106413e+00,-2.035544566639560238e-01,1.613706501357393241e+00,9.815015471235678524e-01,1.834896811480933643e+00,-7.764341420908553726e-01,1.472830439728213925e+00
1.014633854297211979e+00,-2.053526895706004884e-01,1.616124019078922780e+00,9.799177119891564480e-01,1.836568754697426087e+00,-7.751434410035508149e-01,1.472837031073209735e+00
1.016732292125170245e+00,-2.071316878580791443e-01,1.618574793067563355e+00,9.783500555114772457e-01,1.838266967213525893e+00,-7.738385387175543695e-01,1.472840386686858904e+00
1.018818026574182634e+00,-2.088990014934783146e-01,1.621000520054303173e+00,9.768029520310459457e-01,1.839971891044190899e+00,-7.725426245499461553e-01,1.472839967153340535e+00
1.020858640553257590e+00,-2.106681727046148533e-01,1.623362730691727984e+00,9.752832324392979313e-01,1.841689566075823459e+00,-7.712382015749950082e-01,1.472832417077171163e+00
1.022847362730320953e+00,-2.124628103420873881e-01,1.625647403222809206e+00,9.738113898468713225e-01,1.843414719145160419e+00,-7.699317412553937645e-01,1.472822350345306397e+00
1.024797915102102275e+00,-2.142995127052295667e-01,1.627892408128862600e+00,9.723800539465095039e-01,1.845166908760843549e+00,-7.686315727386556773e-01,1.472808628457659808e+00
1.026735165119755377e+00,-2.161789387649163396e-01,1.630130402156401592e+00,9.709777798507387425e-01,1.846915167545989611e+00,-7.673593873039489255e-01,1.472788854422672600e+00
1.028681642911319472e+00,-2.180722664811624301e-01,1.632393203639401769e+00,9.695962982986554568e-01,1.848678190769393215e+00,-7.661471830541616290e-01,1.472757575613601988e+00
1.030650531166785733e+00,-2.199395285777243914e-01,1.634700885936816617e+00,9.682627536325033590e-01,1.850446295344375214e+00,-7.649728488493576783e-01,1.472713713416970993e+00
1.032646024457757550e+00,-2.217652053687450830e-01,1.637048955153076246e+00,9.669945830004871290e-01,1.852197813880961608e+00,-7.638012110691619894e-01,1.472651395454351864e+00
1.034657277090109240e+00,-2.235649963089944015e-01,1.639420633219934587e+00,9.658071859879946430e-01,1.853934471811648832e+00,-7.627141819422676994e-01,1.472566427263225064e+00
1.036670027651289461e+00,-2.253623903667680561e-01,1.641791831975747629e+00,9.647140449362330283e-01,1.855680429554711575e+00,-7.616823401262584614e-01,1.472461685146194021e+00
1.038668337249172291e+00,-2.271845917709196805e-01,1.644137803960747268e+00,9.637177363875075731e-01,1.857429551230638909e+00,-7.606461241878994528e-01,1.472340524607825163e+00
1.040636446542377858e+00,-2.290387910597931065e-01,1.646436078715338258e+00,9.627828469568373571e-01,1.859181453041528709e+00,-7.596664737160344627e-01,1.472194976256596899e+00
1.042559495143172921e+00,-2.309117456567870430e-01,1.648674072742877472e+00,9.618775586374963549e-01,1.860942175397382048e+00,-7.587535753248311199e-01,1.472030552605862130e+00
1.044448928048114622e+00,-2.327902728719100367e-01,1.650865747804700190e+00,9.609619638216848614e-01,1.862698199850493008e+00,-7.577954964679977090e-01,1.471838625293224290e+00
1.046320864027324937e+00,-2.346710172005959660e-01,1.653034592869101926e+00,9.600321678071814802e-01,1.864452211066314202e+00,-7.568784636099672447e-01,1.471621051676254677e+00
1.048194297935364228e+00,-2.365608096433630958e-01,1.655206434009327543e+00,9.590999149145095215e-01,1.866210248931248206e+00,-7.560472377919346121e-01,1.471381127481992568e+00
1.050084569798259704e+00,-2.384589910111703515e-01,1.657386484414763661e+00,9.581933083261694462e-01,1.867966081747207463e+00,-7.552169108184657587e-01,1.471123886130911940e+00
1.051987065401806865e+00,-2.403523187274164419e-01,1.659559344172772954e+00,9.573463231667569406e-01,1.869709738448187331e+00,-7.544058184641626585e-01,1.470835965055025785e+00
1.053890100421175147e+00,-2.422289884758851430e-01,1.661688881040889409e+00,9.565705843108249784e-01,1.871450710832780473e+00,-7.536734024981233127e-01,1.470526412586581122e+00
1.055785165939938874e+00,-2.440929548454077447e-01,1.663743875987569121e+00,9.558482351857334747e-01,1.873178740204721526e+00,-7.529332567960850264e-01,1.470195827700760072e+00
1.057670703924493028e+00,-2.459480529788448944e-01,1.665707371393819081e+00,9.551668720637520593e-01,1.874891429703351431e+00,-7.521856209044872621e-01,1.469850022889380714e+00
1.059537366827706828e+00,-2.478017728475899739e-01,1.667563488145039630e+00,9.545078595190631399e-01,1.876614952984234863e+00,-7.514785517006472571e-01,1.469497806501918191e+00
1.061390847040929231e+00,-2.496586086744616850e-01,1.669297186084585327e+00,9.538589737019318449e-01,1.878323903464012457e+00,-7.508047985414451064e-01,1.469139118651763054e+00
1.063234919602245032e+00,-2.515162234635942573e-01,1.670908764754588605e+00,9.532318991553547782e-01,1.880027389143375416e+00,-7.501213381882037012e-01,1.468774978065781500e+00
1.065078093428079908e+00,-2.533691044834685546e-01,1.672391572814360572e+00,9.526550983814916496e-01,1.881726560368832457e+00,-7.494596891055164134e-01,1.468416170333323389e+00
1.066935168910474463e+00,-2.552182703518680595e-01,1.673756995482931664e+00,9.521237777244743183e-01,1.883419116447365926e+00,-7.488312364033303803e-01,1.468062455907949149e+00
1.068814894621376688e+00,-2.570588675263146827e-01,1.675009047453908773e+00,9.516341023686911704e-01,1.885090100954501358e+00,-7.482601281298991713e-01,1.467724800366087212e+00
1.070716251833920607e+00,-2.588706426607760291e-01,1.676153720660773505e+00,9.511897272517579882e-01,1.886755620661221933e+00,-7.477226955480144044e-01,1.467398769589694840e+00
1.072635046085585575e+00,-2.606441282167354934e-01,1.677188378674610902e+00,9.508032959750939428e-01,1.888405608682946824e+00,-7.472016813874675645e-01,1.467094310319250861e+00
1.074558274455293505e+00,-2.623843575055839206e-01,1.678100977414598516e+00,9.504863132036996953e-01,1.890033737503012956e+00,-7.467252484992026318e-01,1.466798719393975547e+00
1.076469878168614835e+00,-2.640868365226686776e-01,1.678869465845576725e+00,9.502287722014035598e-01,1.891645567914943982e+00,-7.463019057996457262e-01,1.466522363196949064e+00
1.078357213842296547e+00,-2.657406594690881474e-01,1.679491746736285762e+00,9.500201268162122847e-01,1.893246947818924442e+00,-7.458908468364334743e-01,1.466269975388346580e+00
1.080220281476338418e+00,-2.673382764868390549e-01,1.679967340666596698e+00,9.498464155049567426e-01,1.894828961375014220e+00,-7.454941090632989376e-01,1.466044252501859324e+00
1.082064653688869615e+00,-2.688808260760078284e-01,1.680310688708890554e+00,9.497045223095103017e-01,1.896387198310731215e+00,-7.451417130160068458e-01,1.465841479495096022e+00
1.083904951212100620e+00,-2.703716037454676480e-01,1.680557144361538580e+00,9.495998999656990458e-01,1.897934505471086108e+00,-7.448335985897811540e-01,1.465673939995317587e+00
1.085764902888015859e+00,-2.718130063776942884e-01,1.680739124824614406e+00,9.495501654997233754e-01,1.899472704805282630e+00,-7.445778551675293899e-01,1.465525754997007990e+00
1.087654455675260534e+00,-2.732068915484249794e-01,1.680872748868240674e+00,9.495565770758063184e-01,1.900992400333303411e+00,-7.443842500480669644e-01,1.465396205533598950e+00
1.089569295119928283e+00,-2.745590117537847763e-01,1.680944893907201587e+00,9.496226700765099116e-01,1.902496468532285823e+00,-7.442677633923465708e-01,1.465285171722787938e+00
1.091497976334545372e+00,-2.758899797685483990e-01,1.680940759331291501e+00,9.497511409264424165e-01,1.903994496670332603e+00,-7.442074827743777599e-01,1.465199724220615618e+00
1.093418388506425254e+00,-2.772054880931478227e-01,1.680826549675743964e+00,9.499428885792504662e-01,1.905488881608103036e+00,-7.441742265072667228e-01,1.465137466144606604e+00
1.095308001071196635e+00,-2.784977471049741582e-01,1.680572783711532292e+00,9.501893441228153048e-01,1.906977801745458612e+00,-7.441669760823129698e-01,1.465099955528365472e+00
1.097148059047988067e+00,-2.797542330849109304e-01,1.680154054898930882e+00,9.504879311239144979e-01,1.908450039676776955e+00,-7.441742265072667228e-01,1.465091087183197027e+00
1.098937903029592267e+00,-2.809732684442997064e-01,1.679582467314454597e+00,9.508324775529046757e-01,1.909910677102702348e+00,-7.441793797009603750e-01,1.465105288490971880e+00
1.100697786471124928e+00,-2.821701929910017670e-01,1.678897508923301141e+00,9.512252006324318776e-01,1.911378888384908104e+00,-7.442038875052058300e-01,1.465135009375520880e+00
1.102455392803401768e+00,-2.833493807382838070e-01,1.678145438913660747e+00,9.516465659830315449e-01,1.912836937138489679e+00,-7.442662054678247374e-01,1.465172220449629359e+00
1.104227380321449514e+00,-2.845108319043119227e-01,1.677352322905217186e+00,9.521005284117012302e-01,1.914285590261119996e+00,-7.443544092812151014e-01,1.465218719184258722e+00
1.106023156568091359e+00,-2.856439403414000600e-01,1.676528287625528524e+00,9.525850505737906149e-01,1.915721396189673742e+00,-7.444827603579278197e-01,1.465270730759490325e+00
1.107839725358420901e+00,-2.867454104315919072e-01,1.675658352695475362e+00,9.531107386169860307e-01,1.917141670782297691e+00,-7.446376564744529025e-01,1.465331730453110159e+00
1.109659529880096862e+00,-2.878221331710987818e-01,1.674722744298237309e+00,9.536904155843700659e-01,1.918532511967916632e+00,-7.448026193228428626e-01,1.465398123105029260e+00
1.111472743056777235e+00,-2.888832164515287015e-01,1.673691681444488877e+00,9.543239017070300756e-01,1.919899672351738751e+00,-7.449767501676168857e-01,1.465474582379730162e+00
1.113262527151771764e+00,-2.899500521190004343e-01,1.672544191930713131e+00,9.550162902920498187e-01,1.921247178582876636e+00,-7.451368593644456251e-01,1.465561288264291662e+00
1.115016358555046994e+00,-2.910327669010718266e-01,1.671262718835485606e+00,9.557742325710349984e-01,1.922566497921159856e+00,-7.452770747530675921e-01,1.465665071650149143e+00
1.116723032034651730e+00,-2.921236310617437160e-01,1.669848939747464955e+00,9.565842463118616745e-01,1.923865396209086587e+00,-7.454050064053447944e-01,1.465794621113558183e+00
1.118385363897497209e+00,-2.932157533866386889e-01,1.668312502192246471e+00,9.574424965898351569e-01,1.925147708284084436e+00,-7.455155609051106191e-01,1.465956587886124263e+00
1.120015637879927972e+00,-2.942964309331430051e-01,1.666680610289601017e+00,9.583221387139273517e-01,1.926407489903794179e+00,-7.456038247141939523e-01,1.466141564425023969e+00
1.121636803861667531e+00,-2.953524209064891104e-01,1.664982026192903808e+00,9.592013014178912833e-01,1.927644933054433185e+00,-7.456962829857973762e-01,1.466353685197084200e+00
1.123267077953181481e+00,-2.963760534572879024e-01,1.663250006060182695e+00,9.600799848108099166e-01,1.928871830053079162e+00,-7.458062382922150402e-01,1.466587677235391629e+00
1.124920901008684027e+00,-2.973633737785419950e-01,1.661503065653118894e+00,9.609800600498472622e-01,1.930093645700146521e+00,-7.459346492555376518e-01,1.466854506007291725e+00
1.126602827028520659e+00,-2.983095283277732990e-01,1.659745579094061840e+00,9.619175859094327707e-01,1.931293027059567180e+00,-7.460842123003732507e-01,1.467143805129703882e+00
1.128305365932215309e+00,-2.992091841423752951e-01,1.657970056193452280e+00,9.629119171092009877e-01,1.932469877789166901e+00,-7.462802143023112844e-01,1.467457012863013555e+00
1.130012398949645780e+00,-3.000631200755258798e-01,1.656152528671948954e+00,9.639628137754633341e-01,1.933620651030843574e+00,-7.464866425739397071e-01,1.467802398249957507e+00
1.131716136240036752e+00,-3.008758302409606511e-01,1.654269327574177550e+00,9.650488841711839516e-01,1.934743429191350117e+00,-7.466930109589581255e-01,1.468178223597101706e+00
1.133402077062563906e+00,-3.016555838995830796e-01,1.652303615054364627e+00,9.661486764545511585e-01,1.935834185272508279e+00,-7.469018959996720497e-01,1.468578916068150386e+00
1.135062491353979075e+00,-3.024045979467898659e-01,1.650244845069600341e+00,9.672644677348207765e-01,1.936895700107411855e+00,-7.470987968461738626e-01,1.468997405225229258e+00
1.136693604294363613e+00,-3.031280855719676870e-01,1.648099608964880058e+00,9.683999131677746286e-01,1.937932766893780245e+00,-7.472636998079539294e-01,1.469437525883949380e+00
1.138301587695194961e+00,-3.038324584602826173e-01,1.645873659018162849e+00,9.695643004139335996e-01,1.938947495211077898e+00,-7.474117648148776993e-01,1.469899338040004055e+00
1.139896987599382960e+00,-3.045177163935684495e-01,1.643588087533434772e+00,9.707359381941293996e-01,1.939938830356839006e+00,-7.475616875066218858e-01,1.470382302277571718e+00
1.141495503461697592e+00,-3.051900314014686089e-01,1.641264586008030379e+00,9.719244137110152337e-01,1.940922687290362658e+00,-7.477123292740170957e-01,1.470885220209956046e+00
1.143115351174438077e+00,-3.058423927145519916e-01,1.638926104212590218e+00,9.731401534524477537e-01,1.941916802571086009e+00,-7.478559601628981257e-01,1.471401740365850364e+00
1.144762463111725026e+00,-3.064694073745191649e-01,1.636581690261195376e+00,9.743955609279910668e-01,1.942904877965407007e+00,-7.480187058977252335e-01,1.471938753523299726e+00
1.146438337093304449e+00,-3.070646039186772924e-01,1.634235178969457580e+00,9.757035191764211746e-01,1.943884612431242109e+00,-7.482012256675393269e-01,1.472489009148267414e+00
1.148142374034910818e+00,-3.076284017714617791e-01,1.631877342672548581e+00,9.770736756142504031e-01,1.944872400195302609e+00,-7.483917748245682011e-01,1.473055383652440264e+00
1.149859234128683294e+00,-3.081693097402155579e-01,1.629493920067000889e+00,9.784991992409605155e-01,1.945868433069272818e+00,-7.485847807506824658e-01,1.473630746275001346e+00
1.151576333877978531e+00,-3.086981136324544739e-01,1.627054171541398864e+00,9.799542638742237965e-01,1.946876546065114288e+00,-7.487888721355281385e-01,1.474223785592206459e+00
1.153280970012933171e+00,-3.092204460620004980e-01,1.624551625633049223e+00,9.814186762727838964e-01,1.947911120172247879e+00,-7.489880499822028082e-01,1.474818622598539131e+00
1.154973262415850410e+00,-3.097363070288536857e-01,1.621990297253725899e+00,9.828821898267803281e-01,1.948977907995881553e+00,-7.491715284831905741e-01,1.475424125639167583e+00
1.156651473284212361e+00,-3.102356298011493263e-01,1.619376957190088007e+00,9.843341984976099468e-01,1.950072499089000599e+00,-7.493455993322716280e-01,1.476039815184880810e+00
1.158325489799137298e+00,-3.107055911176382912e-01,1.616732578081985006e+00,9.857782376678347891e-01,1.951191729867806535e+00,-7.495261416440455182e-01,1.476669106845020840e+00
1.160001603436239259e+00,-3.111416970827511896e-01,1.614072559514805105e+00,9.872167641065404675e-01,1.952345283418978505e+00,-7.496972164173028030e-01,1.477302053660942471e+00
1.161688442994247117e+00,-3.115382550869729150e-01,1.611404930984845718e+00,9.886775811268455616e-01,1.953529516542239719e+00,-7.498620594924729765e-01,1.477941711595079921e+00
1.163384630317551904e+00,-3.118952052436936850e-01,1.608732928223453706e+00,9.901844775664276899e-01,1.954741840739779857e+00,-7.500406843418996328e-01,1.478585204562994804e+00
1.165090165297070435e+00,-3.122109895193084794e-01,1.606049840003330509e+00,9.917393708876339753e-01,1.955984461060572999e+00,-7.502362070327924792e-01,1.479225941219691531e+00
1.166809901584363818e+00,-3.124869862875926385e-01,1.603375320477159915e+00,9.933356696363857541e-01,1.957259390916442410e+00,-7.504385606151204868e-01,1.479868834885175177e+00
1.168546715372952960e+00,-3.127221167169033644e-01,1.600716500405759302e+00,9.949512030043032862e-01,1.958563753830250720e+00,-7.506627854636956920e-01,1.480509511546179047e+00
1.170308276512227241e+00,-3.129205156013171174e-01,1.598083626071739927e+00,9.965615832876102420e-01,1.959891318452976705e+00,-7.509259590798139650e-01,1.481130653936801433e+00
1.172089431917575864e+00,-3.130835609873597880e-01,1.595475798848704274e+00,9.981740008064842185e-01,1.961258862285635063e+00,-7.512005175877130014e-01,1.481745804175776504e+00
1.173880294626046705e+00,-3.132132303330715795e-01,1.592876001012883291e+00,9.997680824416730339e-01,1.962651237441132013e+00,-7.514635713215283008e-01,1.482347412296017630e+00
1.175660371417918793e+00,-3.133186315300606206e-01,1.590251216061771444e+00,1.001332682956918685e+00,1.964065567791396294e+00,-7.517353736272923692e-01,1.482943268029216721e+00
1.177406952396240269e+00,-3.134084532636657316e-01,1.587575618031207503e+00,1.002863667667227787e+00,1.965506646883213193e+00,-7.519949518651556364e-01,1.483528637497032676e+00
1.179119258489667255e+00,-3.134973762617901394e-01,1.584847109580848290e+00,1.004374399140587348e+00,1.966986938287289766e+00,-7.522216934785093123e-01,1.484117122813892298e+00
1.180802382896200209e+00,-3.135942087648262988e-01,1.582092175972979353e+00,1.005850016662015678e+00,1.968489472516394168e+00,-7.524441206379570701e-01,1.484695781054409691e+00
1.182476938608780559e+00,-3.136861877253843689e-01,1.579336583285152473e+00,1.007287884020763302e+00,1.970018371863682116e+00,-7.526945309885192392e-01,1.485273600555139462e+00
1.184165695738218727e+00,-3.137616283823017604e-01,1.576620598335743528e+00,1.008709932151521160e+00,1.971569226580270451e+00,-7.529464394860764243e-01,1.485846805950747695e+00
1.185888008567817398e+00,-3.138136998441432013e-01,1.573963216306561996e+00,1.010135815206973708e+00,1.973127655153139148e+00,-7.531843862222982189e-01,1.486424805111306924e+00
1.187644176857875156e+00,-3.138422223419959356e-01,1.571364377310997540e+00,1.011570386838682056e+00,1.974703820285445000e+00,-7.534594241503256296e-01,1.486995014540174465e+00
1.189423354914266762e+00,-3.138561239985552809e-01,1.568797655864291762e+00,1.013022635165034213e+00,1.976293887314293007e+00,-7.537396153811298793e-01,1.487572054969560131e+00
1.191210142933437410e+00,-3.138691868062438162e-01,1.566239503220621998e+00,1.014478059445206082e+00,1.977894596313710007e+00,-7.539932614630384666e-01,1.488146518856640732e+00
1.192989860296566951e+00,-3.138896798077988604e-01,1.563676976345519165e+00,1.015927851002472737e+00,1.979513425321400399e+00,-7.542847178124036933e-01,1.488720143785767336e+00
1.194754956818403269e+00,-3.139165244988269543e-01,1.561101626318250668e+00,1.017356850016051917e+00,1.981152675553980558e+00,-7.545865405448493046e-01,1.489284600718509655e+00
1.196505432608029329e+00,-3.139413318452048962e-01,1.558517108403681073e+00,1.018736653761310507e+00,1.982802376119978005e+00,-7.548797345876491205e-01,1.489844084226471299e+00
1.198241587316660528e+00,-3.139524771905461420e-01,1.555937024607153996e+00,1.020054259317169976e+00,1.984467608021905249e+00,-7.551855720137019556e-01,1.490392422498174607e+00
1.199972708604817750e+00,-3.139465450345915731e-01,1.553362573424449167e+00,1.021305652099106176e+00,1.986154315851187846e+00,-7.554935066710148917e-01,1.490928776466582839e+00
1.201704309204020271e+00,-3.139292877643829471e-01,1.550810472819036834e+00,1.022509587306156265e+00,1.987845913045831692e+00,-7.557910749452475541e-01,1.491457160934386295e+00
1.203442201606086170e+00,-3.139028624977902582e-01,1.548284797480217190e+00,1.023698302587647824e+00,1.989544796815561067e+00,-7.561124319480745370e-01,1.491975358788022232e+00
1.205201605627490347e+00,-3.138666701505484213e-01,1.545807837880506463e+00,1.024863588678370574e+00,1.991245693997113264e+00,-7.564520649479767878e-01,1.492484328867747179e+00
1.206990730642526710e+00,-3.138219091093536472e-01,1.543395233697147928e+00,1.026007243267451852e+00,1.992960300914457417e+00,-7.568229167612567920e-01,1.492987246909214694e+00
1.208817186395808374e+00,-3.137668415716884374e-01,1.541044827594105548e+00,1.027132262430715315e+00,1.994679989357912575e+00,-7.572101270001816431e-01,1.493486090261382015e+00
1.210676838529591182e+00,-3.136970334195100518e-01,1.538752904528987608e+00,1.028243020290511067e+00,1.996393541747323752e+00,-7.576254404216070659e-01,1.493978821579598826e+00
1.212559020900495943e+00,-3.136159601487705784e-01,1.536502626546937700e+00,1.029342812573878385e+00,1.998112462944040768e+00,-7.580663400425881049e-01,1.494465261313118631e+00
1.214451090343435791e+00,-3.135312916088592305e-01,1.534265830906094807e+00,1.030426366313903497e+00,1.999830905047878638e+00,-7.585177258198693151e-01,1.494946367974948842e+00
1.216325602864951616e+00,-3.134602850699845233e-01,1.532016691533214514e+00,1.031464919248128220e+00,2.001546950116524393e+00,-7.589629996722833116e-01,1.495433406901816697e+00
1.218170933808656597e+00,-3.134122882974433866e-01,1.529730460968528494e+00,1.032462306301247024e+00,2.003268939427530260e+00,-7.594092922515638389e-01,1.495918348597424785e+00
1.219987742363591865e+00,-3.133933532204101202e-01,1.527418943637335991e+00,1.033419845960425354e+00,2.005002050151049708e+00,-7.598470760235013222e-01,1.496398136990255923e+00
1.221792806270754594e+00,-3.134016222631473836e-01,1.525115216037835619e+00,1.034331366086936654e+00,2.006739858602778703e+00,-7.603034952212565090e-01,1.496871573802696975e+00
1.223611592174647100e+00,-3.134224748025278839e-01,1.522862840933608908e+00,1.035196926676473783e+00,2.008479968096590795e+00,-7.607916126525178235e-01,1.497340396728182643e+00
1.225475858195385293e+00,-3.134379943793019763e-01,1.520693396675858899e+00,1.036028032721286518e+00,2.010220940306651105e+00,-7.612992644632436967e-01,1.497807481851150646e+00
1.227399625871831379e+00,-3.134399119507323417e-01,1.518628334888231235e+00,1.036824624116599036e+00,2.011957118969926128e+00,-7.618328021247409154e-01,1.498265518969120746e+00
1.229376064312549977e+00,-3.134326015300856194e-01,1.516652855287769164e+00,1.037603598703877639e+00,2.013680162983397359e+00,-7.624208680171650210e-01,1.498717324279920327e+00
1.231385039835645845e+00,-3.134235534160044190e-01,1.514728967729020326e+00,1.038371068517072393e+00,2.015400330694264941e+00,-7.630136077922375915e-01,1.499168650170591643e+00
1.233397610627913421e+00,-3.134260700716998138e-01,1.512812150935395339e+00,1.039113251563760887e+00,2.017119635514351028e+00,-7.635984979490083591e-01,1.499625249137259697e+00
1.235378962497720279e+00,-3.134516564894217483e-01,1.510859081798835657e+00,1.039806119459825817e+00,2.018834913510791473e+00,-7.642028623804675291e-01,1.500084424646232817e+00
1.237319328364416826e+00,-3.135091208004795460e-01,1.508850046280046930e+00,1.040451709659000912e+00,2.020550000044613270e+00,-7.648054292318822167e-01,1.500536649381468024e+00
1.239223501883871759e+00,-3.136071517992950475e-01,1.506812668141401357e+00,1.041031206857472080e+00,2.022261922471038087e+00,-7.653851060901831760e-01,1.500986537229920481e+00
1.241115571326811606e+00,-3.137440115742676783e-01,1.504786435348097084e+00,1.041540416592719787e+00,2.023976337751230314e+00,-7.659858753615534921e-01,1.501446252045631979e+00
1.243026396077872020e+00,-3.139149066876952832e-01,1.502814011710068565e+00,1.042007142286945465e+00,2.025693341703766137e+00,-7.666326639474246862e-01,1.501912917853247764e+00
1.244985097719170763e+00,-3.141077328448968475e-01,1.500931589574558078e+00,1.042441570445233667e+00,2.027397019020280577e+00,-7.672834673359862911e-01,1.502384676858864232e+00
1.246996470124742240e+00,-3.143147004232634267e-01,1.499148217055646493e+00,1.042835731566979618e+00,2.029091109068692056e+00,-7.679557823438863950e-01,1.502858652868960476e+00
1.249051704726944489e+00,-3.145331727757137430e-01,1.497444479656172556e+00,1.043206403611347088e+00,2.030782898249553270e+00,-7.686830450071489018e-01,1.503344373526829258e+00
1.251133484478042401e+00,-3.147698612386293782e-01,1.495781668482281779e+00,1.043572701424281490e+00,2.032454745472936697e+00,-7.694125247839743720e-01,1.503837404605344874e+00
1.253212028497793895e+00,-3.150311772790101994e-01,1.494112865156743464e+00,1.043930490538956146e+00,2.034116717797956664e+00,-7.701488355613180792e-01,1.504335229230645332e+00
1.255258694406043540e+00,-3.153215550148989466e-01,1.492404813521529539e+00,1.044255862235390353e+00,2.035777156153098844e+00,-7.708657918371931705e-01,1.504840064734460192e+00
1.257262037315317160e+00,-3.156452490135916999e-01,1.490635941961608646e+00,1.044515380586643616e+00,2.037438169768762020e+00,-7.715611763889537178e-01,1.505350352974101247e+00
1.259227270415001598e+00,-3.160001618256622624e-01,1.488832196214361803e+00,1.044717434626839303e+00,2.039096402900396843e+00,-7.722727997022224011e-01,1.505867232667821076e+00
1.261179800244823124e+00,-3.163810204841971951e-01,1.487040974077148636e+00,1.044878203012709061e+00,2.040748596145629090e+00,-7.729961675541804356e-01,1.506392800828713519e+00
1.263155939034326325e+00,-3.167748220681178006e-01,1.485325252483462366e+00,1.045026028473193369e+00,2.042371068353595831e+00,-7.736771111426433700e-01,1.506890985100922675e+00
1.265184688592409179e+00,-3.171687435343412687e-01,1.483721044229799002e+00,1.045159832285732282e+00,2.043938029841168014e+00,-7.743626687271447651e-01,1.507363702837712927e+00
1.267266648003336771e+00,-3.175635039585185670e-01,1.482217383521563292e+00,1.045248335750338153e+00,2.045460026411272114e+00,-7.750868155413637162e-01,1.507845947999629566e+00
1.269390072946585901e+00,-3.179645559673929256e-01,1.480779456276205774e+00,1.045295014362963348e+00,2.046964190428830044e+00,-7.758372078532627114e-01,1.508360730353006218e+00
1.271521946701484884e+00,-3.183822062756009319e-01,1.479362201801315946e+00,1.045323237209600409e+00,2.048463944173906537e+00,-7.766039584817233665e-01,1.508910686435841253e+00
1.273640577879782798e+00,-3.188216677452800352e-01,1.477921997555785572e+00,1.045343370673329941e+00,2.049973860622139821e+00,-7.773986924103816198e-01,1.509495037285873753e+00
1.275721998093055198e+00,-3.192886929816382002e-01,1.476426785768283123e+00,1.045347984669368513e+00,2.051499692204204806e+00,-7.782088260335110474e-01,1.510104255368894144e+00
1.277763271043005133e+00,-3.197881356362366478e-01,1.474869435787074412e+00,1.045324255827383864e+00,2.053036932654511482e+00,-7.790121885427321313e-01,1.510732348533254665e+00
1.279769909679318252e+00,-3.203186173353002042e-01,1.473279848156538119e+00,1.045261099015894146e+00,2.054590375868910357e+00,-7.797936198990961243e-01,1.511370688307475785e+00
1.281767799852765677e+00,-3.208767226876527157e-01,1.471692897063999972e+00,1.045156476672082890e+00,2.056156857914537284e+00,-7.806034538710099335e-01,1.512024128234035647e+00
1.283780310758423582e+00,-3.214535833481257376e-01,1.470155021466562850e+00,1.045012785896592078e+00,2.057718546238846091e+00,-7.814177819566594518e-01,1.512685897089942832e+00
1.285830571935844935e+00,-3.220422484338980595e-01,1.468691567799176312e+00,1.044828947857778800e+00,2.059271414192724414e+00,-7.822688416962890745e-01,1.513357193480059371e+00
1.287921639347463509e+00,-3.226439164407490234e-01,1.467302955704442136e+00,1.044607179778288986e+00,2.060822843995300691e+00,-7.831351813571701959e-01,1.514036758912913339e+00
1.290040869828192660e+00,-3.232641001001978487e-01,1.465956707768427014e+00,1.044345444313472759e+00,2.062361234966648471e+00,-7.840052959470528160e-01,1.514721897072979218e+00
1.292166511775921567e+00,-3.239032188366798848e-01,1.464616571866362404e+00,1.044065792389406999e+00,2.063891284834978190e+00,-7.848809832641476802e-01,1.515420277700563645e+00
1.294269863032967871e+00,-3.245690623818872078e-01,1.463240603045798283e+00,1.043783743691948374e+00,2.065416349344837865e+00,-7.857655389264109891e-01,1.516125669206662030e+00
1.296328992555557891e+00,-3.252589941978215049e-01,1.461807649225221883e+00,1.043498399267450472e+00,2.066922430955643097e+00,-7.866245082800354949e-01,1.516840108826841726e+00
1.298340424956822226e+00,-3.259697186665264090e-01,1.460313096626760343e+00,1.043187947954442141e+00,2.068425156821898980e+00,-7.874646024432366831e-01,1.517567071838888726e+00
1.300322076368761515e+00,-3.266998575233098223e-01,1.458800687455659162e+00,1.042835072377938710e+00,2.069924623111247808e+00,-7.882921131097945233e-01,1.518298888611579800e+00
1.302299173889438277e+00,-3.274526466086012944e-01,1.457309789903896258e+00,1.042426590175197898e+00,2.071407886636504436e+00,-7.891355628866448813e-01,1.519042210158354722e+00
1.304297783138536726e+00,-3.282168806904496305e-01,1.455875997234449049e+00,1.041973346713096049e+00,2.072871879457912847e+00,-7.899990862406149894e-01,1.519797635781644507e+00
1.306329109238924868e+00,-3.289901627772961468e-01,1.454510155141442551e+00,1.041503205627694273e+00,2.074327052083423606e+00,-7.908750132132323918e-01,1.520557315754064165e+00
1.308388418530427533e+00,-3.297731520581819176e-01,1.453196024972452260e+00,1.041023117583647517e+00,2.075756242690521169e+00,-7.917236161837765129e-01,1.521322208915870444e+00
1.310456715940318428e+00,-3.305666874910608288e-01,1.451894598073324882e+00,1.040522776193568477e+00,2.077170764852469986e+00,-7.926066738081279928e-01,1.522096629502803333e+00
1.312518362118603621e+00,-3.313840716482270854e-01,1.450574775403902450e+00,1.039995949650286633e+00,2.078573206718015154e+00,-7.934931469327386466e-01,1.522873566854514804e+00
1.314548250176772903e+00,-3.322361500056402739e-01,1.449210790777550439e+00,1.039449049529885372e+00,2.079964623164154869e+00,-7.943179012880784429e-01,1.523663806560354272e+00
1.316536013622662704e+00,-3.331194472855143474e-01,1.447792937109312561e+00,1.038888787059663033e+00,2.081350766621564485e+00,-7.951431349544634264e-01,1.524457581757838964e+00
1.318479615220705670e+00,-3.340243161804199445e-01,1.446325708512924413e+00,1.038296646477938401e+00,2.082729431866736647e+00,-7.960056396906499687e-01,1.525263401036145439e+00
1.320405779779627586e+00,-3.349457832655761136e-01,1.444851229382499547e+00,1.037657647623759338e+00,2.084084128505318656e+00,-7.968054668173090160e-01,1.526076171197273235e+00
1.322341951183804154e+00,-3.358724634310359392e-01,1.443408508481274000e+00,1.036975505539516895e+00,2.085423389626546609e+00,-7.975895347116712664e-01,1.526896611207789967e+00
1.324311258863705820e+00,-3.367992634787985717e-01,1.442034097694314676e+00,1.036259867532641099e+00,2.086767252657407923e+00,-7.984414333001716990e-01,1.527727058063561794e+00
1.326315500726626295e+00,-3.377293591445175158e-01,1.440727996912538833e+00,1.035514448754606187e+00,2.088090119377392195e+00,-7.992935716532778567e-01,1.528564156150939102e+00
1.328349163713797187e+00,-3.386556797721517742e-01,1.439472589436995520e+00,1.034768550556443012e+00,2.089382018895026061e+00,-8.001203633532677495e-01,1.529407665814399353e+00
1.330390376777137451e+00,-3.395774465085235616e-01,1.438231862580272358e+00,1.034018098467017088e+00,2.090672863710194562e+00,-8.009606971719914759e-01,1.530264238285548251e+00
1.332417628297308365e+00,-3.405049056362442483e-01,1.436962134023734183e+00,1.033249789804951746e+00,2.091955079792083616e+00,-8.018163109119667009e-01,1.531131237026387426e+00
1.334399339704940513e+00,-3.414484835340871327e-01,1.435629847739971598e+00,1.032454636451858088e+00,2.093220805828686082e+00,-8.026328561111791826e-01,1.532004227918874140e+00
1.336328620221988839e+00,-3.424054238908341707e-01,1.434233086266636814e+00,1.031640967446166401e+00,2.094477423690064288e+00,-8.034129093119340981e-01,1.532886147043139191e+00
1.338215596357845039e+00,-3.433769850888746533e-01,1.432788747554279318e+00,1.030807764279176642e+00,2.095731932321043711e+00,-8.042086618583759172e-01,1.533771721323186066e+00
1.340082858345323924e+00,-3.443644851790415018e-01,1.431337278081104891e+00,1.029935252806818413e+00,2.096949529507313947e+00,-8.049701394108399466e-01,1.534660351565666492e+00
1.341957011438097203e+00,-3.453657671525479089e-01,1.429913372483692768e+00,1.029026788533657699e+00,2.098123504283375240e+00,-8.057387477241211293e-01,1.535555573153142728e+00
1.343859207499511710e+00,-3.463693861219200310e-01,1.428546511663819629e+00,1.028106579830890821e+00,2.099266607501129922e+00,-8.065293470768691853e-01,1.536452892080962140e+00
1.345793221676735429e+00,-3.473784578271184031e-01,1.427231782301481067e+00,1.027174866354040317e+00,2.100341928064934027e+00,-8.072962175876328139e-01,1.537354824786653751e+00
1.347749886082467041e+00,-3.483898065324895765e-01,1.425954383786470769e+00,1.026239677272154260e+00,2.101322812877277624e+00,-8.080460705927934306e-01,1.538260772295035883e+00
1.349713081946584570e+00,-3.494034323471165715e-01,1.424676745506854969e+00,1.025306106219566304e+00,2.102225656513938556e+00,-8.087977211779985298e-01,1.539175528152893602e+00
1.351663814087278537e+00,-3.504266454734800140e-01,1.423377655603593306e+00,1.024374572402545480e+00,2.103031763357055439e+00,-8.094989779991037526e-01,1.540091063082095202e+00
1.353577814683075475e+00,-3.514695726391375286e-01,1.422032606054274506e+00,1.023425781315315808e+00,2.103718794937558201e+00,-8.101639228088303168e-01,1.541009414209124628e+00
1.355444657355202143e+00,-3.525270606503955739e-01,1.420634706189936480e+00,1.022462908802614256e+00,2.104282149520346756e+00,-8.107843461238017913e-01,1.541926746718370600e+00
1.357267278183789116e+00,-3.535959935491273520e-01,1.419199595251489976e+00,1.021470075640757758e+00,2.104733427436280113e+00,-8.113742695919633485e-01,1.542847494727875857e+00
1.359062575010302698e+00,-3.546664843723809080e-01,1.417759630661482362e+00,1.020427268357403161e+00,2.105071286701698963e+00,-8.119280605994929623e-01,1.543771358586424558e+00
1.360841812953303975e+00,-3.557295451108510864e-01,1.416337642526417362e+00,1.019325918040431045e+00,2.105287002764747673e+00,-8.124771178377642178e-01,1.544696301058449794e+00
1.362619612745003428e+00,-3.567780448946377692e-01,1.414959936012418762e+00,1.018197303717078617e+00,2.105390642335474904e+00,-8.129896231909681248e-01,1.545627115799819817e+00
1.364400049074701027e+00,-3.578052727146084910e-01,1.413628908001962170e+00,1.017061079321863737e+00,2.105379329285809398e+00,-8.134563488851938029e-01,1.546557571003364329e+00
1.366177429551048039e+00,-3.588108091463279026e-01,1.412338626448176093e+00,1.015924016077778269e+00,2.105258720053317489e+00,-8.138946718547865888e-01,1.547490962396122605e+00
1.367941926879536085e+00,-3.597911186981508913e-01,1.411069976396031267e+00,1.014781380106480446e+00,2.105041565838966289e+00,-8.143124419362143263e-01,1.548428428369098109e+00
1.369679100205950739e+00,-3.607503960507636998e-01,1.409804442302013294e+00,1.013627898550140127e+00,2.104731222387305589e+00,-8.146526142428547335e-01,1.549367212611072908e+00
1.371370194113088692e+00,-3.616793532163962710e-01,1.408525006442352900e+00,1.012455481807683633e+00,2.104329415305364659e+00,-8.149458681722644426e-01,1.550313007622478700e+00
1.373001726586991600e+00,-3.625864392248647761e-01,1.407218606118444626e+00,1.011260954143457180e+00,2.103833172471963220e+00,-8.152033492879506849e-01,1.551261618940795506e+00
1.374580408527709352e+00,-3.634842973503392694e-01,1.405892371872939250e+00,1.010047491511280482e+00,2.103245753638542048e+00,-8.153969544074131104e-01,1.552214724372847909e+00
1.376112292082582123e+00,-3.643812566312500389e-01,1.404565718093915505e+00,1.008823123080202278e+00,2.102578759659559537e+00,-8.155292602911232702e-01,1.553172503687548778e+00
1.377610140408082939e+00,-3.652741413319436359e-01,1.403254104689703574e+00,1.007577962214519562e+00,2.101835641923607945e+00,-8.156359198705015467e-01,1.554127466586255668e+00
1.379076649928820064e+00,-3.661634906500751407e-01,1.401970594140742765e+00,1.006320936818761336e+00,2.101025220626584478e+00,-8.156994362198167758e-01,1.555087343132216526e+00
1.380519310943435940e+00,-3.670418145051682624e-01,1.400716265278675987e+00,1.005065888881043534e+00,2.100146633052241807e+00,-8.157100422584198096e-01,1.556046560489136477e+00
1.381938183229457273e+00,-3.679034802834009188e-01,1.399493095343377069e+00,1.003831333944880555e+00,2.099219533527796333e+00,-8.156912869502993546e-01,1.557008654039577111e+00
1.383331109778097368e+00,-3.687559181786396190e-01,1.398288860485111362e+00,1.002626979204312097e+00,2.098244401146127647e+00,-8.156482636025391697e-01,1.557974342859189898e+00
1.384686705370326232e+00,-3.696023640313138015e-01,1.397092715009753183e+00,1.001455401419809377e+00,2.097243670369415280e+00,-8.155852265642691279e-01,1.558945424637101951e+00
1.386002812888273983e+00,-3.704361663916517222e-01,1.395888779802703095e+00,1.000304975716819644e+00,2.096224340142484266e+00,-8.154976219442269247e-01,1.559915008377102064e+00
1.387266789057770122e+00,-3.712519925152131806e-01,1.394667946754186927e+00,9.991657553548640713e-01,2.095204722285292753e+00,-8.153877265244191541e-01,1.560881116621150255e+00
1.388473181142988899e+00,-3.720447489858311751e-01,1.393424523581938690e+00,9.980378001114696973e-01,2.094189706337734602e+00,-8.152529039850135995e-01,1.561853037247933118e+00
1.389628160737240936e+00,-3.728179112994579048e-01,1.392166599341616795e+00,9.969317160252392229e-01,2.093199617706123838e+00,-8.151038801378331922e-01,1.562820883294498753e+00
1.390734963899122434e+00,-3.735682436156638198e-01,1.390907177172466147e+00,9.958529560501653277e-01,2.092252672042776762e+00,-8.149516205593062557e-01,1.563792144732240486e+00
1.391799222915205858e+00,-3.742917912365346100e-01,1.389649552583359871e+00,9.948162606916779449e-01,2.091368811654236826e+00,-8.147847402485690615e-01,1.564762687203414382e+00
1.392823634537348587e+00,-3.749802250145570226e-01,1.388401215872940409e+00,9.938291800259465569e-01,2.090541133065188628e+00,-8.145980260162348774e-01,1.565740839637367321e+00
1.393805741778298968e+00,-3.756338446009465648e-01,1.387173252281773239e+00,9.929244908999537156e-01,2.089764459454543477e+00,-8.144106527039426391e-01,1.566715277028928766e+00
1.394750098638402935e+00,-3.762437817596178680e-01,1.385965781692161336e+00,9.921017737801809400e-01,2.089028436307459824e+00,-8.141960152761869018e-01,1.567693908773927225e+00
1.395654787764395666e+00,-3.768021267674930286e-01,1.384795701836487369e+00,9.913595907334924462e-01,2.088337953163832417e+00,-8.139578886619692755e-01,1.568670563169968446e+00
1.396514655962583840e+00,-3.773047451577449252e-01,1.383667746593092884e+00,9.906866166456342881e-01,2.087670959184849906e+00,-8.137093358871444471e-01,1.569657224411264318e+00
1.397328444741495312e+00,-3.777451054719877521e-01,1.382586110424498083e+00,9.900738032934420785e-01,2.087027358377403718e+00,-8.134323803876866155e-01,1.570644365072688897e+00
1.398088424365130589e+00,-3.781320761644731410e-01,1.381552530915054255e+00,9.895203718237379764e-01,2.086396604589501269e+00,-8.131332541889323418e-01,1.571639714781157604e+00
1.398787763832971542e+00,-3.784688328617713537e-01,1.380567128056147341e+00,9.890094243950557917e-01,2.085781670116854780e+00,-8.128289746874011179e-01,1.572634285636448359e+00
1.399423886493629920e+00,-3.787667007872195235e-01,1.379629482314258970e+00,9.885456348900441004e-01,2.085178911410122460e+00,-8.125022248353578336e-01,1.573631792571870136e+00
1.399986665619547654e+00,-3.790342486347705320e-01,1.378733481655438853e+00,9.881322989266589918e-01,2.084576248696498713e+00,-8.121389829848569830e-01,1.574626962620509163e+00
1.400469210432679912e+00,-3.792756707578613939e-01,1.377879605717981182e+00,9.877636042312488707e-01,2.083966683205691339e+00,-8.117521920612844610e-01,1.575624589438233691e+00
1.400873438395373816e+00,-3.794893495635265901e-01,1.377072587943895421e+00,9.874048564944837292e-01,2.083353570158650303e+00,-8.113535368258025793e-01,1.576620538449133635e+00
1.401197551709418843e+00,-3.796826550317734528e-01,1.376319199665255733e+00,9.870495242579777617e-01,2.082723583442952719e+00,-8.109246813947265098e-01,1.577618045384555412e+00
1.401444546559722060e+00,-3.798560069142865592e-01,1.375633881736276987e+00,9.867209767168069190e-01,2.082077298144587640e+00,-8.104776098531851769e-01,1.578619447240364737e+00
1.401618317866670571e+00,-3.800080867239007398e-01,1.375010462345481743e+00,9.864351529812637187e-01,2.081406948595589057e+00,-8.100125619657840836e-01,1.579618572096001206e+00
1.401723179866004365e+00,-3.801399730740923633e-01,1.374448941492870002e+00,9.861976255603942532e-01,2.080714164584410941e+00,-8.095273806146535689e-01,1.580617577069334700e+00
1.401757634519811724e+00,-3.802473517291216631e-01,1.373943087371271687e+00,9.859859242127693157e-01,2.079987728705430694e+00,-8.090148153748397686e-01,1.581616102731623119e+00
1.401724198483787820e+00,-3.803314809622947990e-01,1.373488465862644059e+00,9.857830313237030406e-01,2.079237132757241646e+00,-8.084783415241286741e-01,1.582616365978262829e+00
1.401626227480665454e+00,-3.803894846891738846e-01,1.373083818475514750e+00,9.855808575102876778e-01,2.078452980934359040e+00,-8.079332390928548602e-01,1.583612434871465746e+00
1.401470192864053832e+00,-3.804208233848545562e-01,1.372735257243834051e+00,9.853813800123973898e-01,2.077632013659875820e+00,-8.073698606645057785e-01,1.584618570496533208e+00
1.401252918898299837e+00,-3.804262762297638822e-01,1.372444519970119847e+00,9.851775283921574422e-01,2.076766656728445515e+00,-8.067856296967761409e-01,1.585625425088168727e+00
1.400971349511886510e+00,-3.804061427660343497e-01,1.372200820737773164e+00,9.849684036959209799e-01,2.075863237831264474e+00,-8.061851001900115499e-01,1.586635155982408119e+00
1.400624765738246236e+00,-3.803600034601475333e-01,1.372000384617792390e+00,9.847516689278220658e-01,2.074922907663906635e+00,-8.055546700297852025e-01,1.587650159952644247e+00
1.400215025044033057e+00,-3.802868398034028874e-01,1.371839017038574360e+00,9.845284028104205332e-01,2.073944132081961378e+00,-8.049130346376076606e-01,1.588668219776230961e+00
1.399747160958804137e+00,-3.801841949176318902e-01,1.371720732693726408e+00,9.842992644236742139e-01,2.072924993666714677e+00,-8.042569582821326168e-01,1.589692151978245427e+00
1.399223270495653093e+00,-3.800449381511006308e-01,1.371651463957369366e+00,9.840700661503181124e-01,2.071875463135106177e+00,-8.035823661649765803e-01,1.590716144066869564e+00
1.398653001180175881e+00,-3.798683506463241266e-01,1.371641756654246924e+00,9.838325987251415050e-01,2.070786528479553468e+00,-8.028946514626051911e-01,1.591752000576486248e+00
1.398041086672547451e+00,-3.796518556428309932e-01,1.371686098380089369e+00,9.835806903366675069e-01,2.069655888832505841e+00,-8.021907579944186351e-01,1.592788096741625470e+00
1.397390223397375841e+00,-3.793908991402756836e-01,1.371781432845213589e+00,9.833078694131198727e-01,2.068494857069096859e+00,-8.014773969877154736e-01,1.593826769449069980e+00
1.396702928119439857e+00,-3.790892561767428282e-01,1.371920270078226478e+00,9.830220456775766724e-01,2.067301515945144441e+00,-8.007550478626240809e-01,1.594874610152898553e+00
1.395981238074306408e+00,-3.787530986727927207e-01,1.372109441079646164e+00,9.827201031719112745e-01,2.066078549777035089e+00,-8.000038766975473559e-01,1.595925746583766625e+00
1.395225452913191333e+00,-3.783850031707307604e-01,1.372348586311647356e+00,9.824085132497334394e-01,2.064830368662718740e+00,-7.992557014992113240e-01,1.596974785674291519e+00
1.394436111942832346e+00,-3.779840709350761885e-01,1.372636806929666164e+00,9.820800855908654592e-01,2.063553617381244099e+00,-7.984983584135743051e-01,1.598037966185981373e+00
1.393610279083099313e+00,-3.775579718152181630e-01,1.372971646164617088e+00,9.817306256237041673e-01,2.062249925371999471e+00,-7.976990704845704494e-01,1.599103543580147058e+00
1.392748253767041033e+00,-3.771086832691969426e-01,1.373347051978242694e+00,9.813519240830391732e-01,2.060922648554066594e+00,-7.968991834713016198e-01,1.600166544322924267e+00
1.391848777721351738e+00,-3.766417179194486708e-01,1.373759009676935650e+00,9.809553660788175034e-01,2.059586455372594216e+00,-7.961036705803824498e-01,1.601236675717435443e+00
1.390922516980327428e+00,-3.761609107997508916e-01,1.374209197067520760e+00,9.805440674600824913e-01,2.058234730680659208e+00,-7.952615990682241343e-01,1.602310162616512823e+00
1.389963838930145856e+00,-3.756581726362792084e-01,1.374699291956822389e+00,9.801295331100011721e-01,2.056859133375242621e+00,-7.944008321345552570e-01,1.603383230091154799e+00
1.388975379999722204e+00,-3.751275110592198758e-01,1.375229653882666048e+00,9.797039134102715208e-01,2.055475674583285173e+00,-7.935450386256672761e-01,1.604466723835487052e+00
1.387958338793919166e+00,-3.745740795895157738e-01,1.375799563660317970e+00,9.792661296383339264e-01,2.054088188967682527e+00,-7.926816950406100348e-01,1.605554831575857655e+00
1.386911217165741617e+00,-3.740030313117775895e-01,1.376413335743683852e+00,9.788060552847970275e-01,2.052684788218247292e+00,-7.917708339940567885e-01,1.606647613089793758e+00
1.385831258694888213e+00,-3.734120891167493905e-01,1.377071089905983481e+00,9.783285438921386357e-01,2.051281195831660575e+00,-7.908591939852427366e-01,1.607745428024203838e+00
1.384715467523701671e+00,-3.727996952980756618e-01,1.377767613066913421e+00,9.778284421575821339e-01,2.049883068245488715e+00,-7.899622347043320225e-01,1.608852530728217767e+00
1.383562944589451948e+00,-3.721669881376765132e-01,1.378499849264039900e+00,9.772957433449557252e-01,2.048476216107462111e+00,-7.890366331523487320e-01,1.609965685470489127e+00
1.382368476920918576e+00,-3.715106720175956889e-01,1.379269715850627298e+00,9.767416526862104931e-01,2.047072144278930583e+00,-7.880731014506059395e-01,1.611086090637714241e+00
1.381133262795714467e+00,-3.708250545464843451e-01,1.380080029242669593e+00,9.761804913714243748e-01,2.045691945063880191e+00,-7.871473200206268173e-01,1.612210750263152415e+00
1.379860897701178146e+00,-3.701238575029059952e-01,1.380938818718298267e+00,9.755955413280437138e-01,2.044317498279505152e+00,-7.862151271236478278e-01,1.613336967813112199e+00
1.378550302805666705e+00,-3.694185259925004683e-01,1.381846803571330495e+00,9.749868026651518083e-01,2.042961650945348762e+00,-7.852646582295936817e-01,1.614467979018940458e+00
1.377204354520867202e+00,-3.686978545651505845e-01,1.382804403008035532e+00,9.743787230822178458e-01,2.041663903352996634e+00,-7.843508611029096356e-01,1.615600668031593079e+00
1.375822513430958516e+00,-3.679642403214981039e-01,1.383807842208494954e+00,9.737758566886706157e-01,2.040431637372511986e+00,-7.834543811330442198e-01,1.616729761775073992e+00
1.374402322875937887e+00,-3.672228961236804201e-01,1.384856222219061905e+00,9.731672377989983858e-01,2.039250184558746071e+00,-7.825640131971290936e-01,1.617860173787553979e+00
1.372947018587151957e+00,-3.664712455384753764e-01,1.385956374040254513e+00,9.725684459856683839e-01,2.038172946576227940e+00,-7.817128335751966084e-01,1.618978961143647366e+00
1.371460375493602335e+00,-3.657160595707082407e-01,1.387105721129767710e+00,9.719653998232083980e-01,2.037221303184671761e+00,-7.809000634140689234e-01,1.620087322120967510e+00
1.369937659826030441e+00,-3.649646487501088665e-01,1.388304802794339654e+00,9.713368871253292847e-01,2.036398130686680741e+00,-7.801019739808444653e-01,1.621169977016428954e+00
1.368378332386781526e+00,-3.642002948950407437e-01,1.389544990235241473e+00,9.706999855024101009e-01,2.035708798064094882e+00,-7.793627870099797406e-01,1.622229082838818615e+00
1.366775801830859560e+00,-3.634210206565466894e-01,1.390816696249819850e+00,9.700651212241411248e-01,2.035165001989947875e+00,-7.786543994280574754e-01,1.623254572965354692e+00
1.365128270578220171e+00,-3.626386904556189728e-01,1.392113149724166332e+00,9.694101832596693225e-01,2.034753895095631204e+00,-7.779477496486528754e-01,1.624250941509773227e+00
1.363441550793432100e+00,-3.618598955281701612e-01,1.393430515624503041e+00,9.687256444020344581e-01,2.034474423027744283e+00,-7.772993431425669897e-01,1.625202908332656238e+00
1.361718099463747000e+00,-3.610851753991047852e-01,1.394781677098689165e+00,9.680188747403269955e-01,2.034330132818922721e+00,-7.766998323626689293e-01,1.626115926497079256e+00
1.359967383909515437e+00,-3.603169865102590075e-01,1.396166993575467030e+00,9.672903536946751979e-01,2.034304246968151375e+00,-7.761209343575458108e-01,1.626983404658046695e+00
1.358197613505030654e+00,-3.595496965750600293e-01,1.397604381514086391e+00,9.665418788451236587e-01,2.034399545435859658e+00,-7.755835017756610439e-01,1.627806720971167520e+00
1.356424307717984057e+00,-3.587834851442545658e-01,1.399096836990370907e+00,9.657724916786646352e-01,2.034606728758738381e+00,-7.751074284252216229e-01,1.628584077638231431e+00
1.354651601233368474e+00,-3.580151764821890015e-01,1.400654846160620748e+00,9.649693688249663115e-01,2.034929535955638968e+00,-7.746722213046725036e-01,1.629321526915661567e+00
1.352884766909014491e+00,-3.572486654001678641e-01,1.402268761717406553e+00,9.641440751628882477e-01,2.035365569991370194e+00,-7.742840522254909041e-01,1.630009601264941432e+00
1.351120868773874495e+00,-3.564853901585762208e-01,1.403926179932998064e+00,9.632835478847419086e-01,2.035916748459178471e+00,-7.739508309107546724e-01,1.630652974350553341e+00
1.349354334100736352e+00,-3.557323014220691859e-01,1.405618232680392543e+00,9.623922811042631142e-01,2.036571949946550664e+00,-7.736671044064715730e-01,1.631241998974151342e+00
1.347581088309382613e+00,-3.549926351401592184e-01,1.407325325584432685e+00,9.614566127113319816e-01,2.037324271676302256e+00,-7.734129789044346115e-01,1.631771162404215714e+00
1.345794300290211964e+00,-3.542668704057255202e-01,1.409040328102467710e+00,9.604641391963841812e-01,2.038170357903884344e+00,-7.731968433296838583e-01,1.632239805560788515e+00
1.343999363001523895e+00,-3.535554269704526686e-01,1.410760903238631903e+00,9.594040745337378828e-01,2.039108578840843400e+00,-7.730199561736917913e-01,1.632654220028567194e+00
1.342200411019228268e+00,-3.528605216206543993e-01,1.412494541291567707e+00,9.582873845179875616e-01,2.040132415158832480e+00,-7.728685954397286340e-01,1.633013567067763461e+00
1.340414821386753941e+00,-3.521808963011905935e-01,1.414256402082057607e+00,9.571108930862305408e-01,2.041240141076288150e+00,-7.727481539770107988e-01,1.633319883804861705e+00
1.338650923251613944e+00,-3.515185880294622311e-01,1.416055473946655985e+00,9.558838882262370440e-01,2.042426483429947925e+00,-7.726744510135279409e-01,1.633563822692730927e+00
1.336920760694630284e+00,-3.508677248633738088e-01,1.417904579928445541e+00,9.546149386319598973e-01,2.043679649902734319e+00,-7.726265141275966419e-01,1.633752933807540941e+00
1.335232902518838971e+00,-3.502294449757625272e-01,1.419801802565079152e+00,9.533144704640061917e-01,2.044995613671001689e+00,-7.725993098987430363e-01,1.633885719002296177e+00
1.333587947808504870e+00,-3.496040482360101009e-01,1.421741329473821924e+00,9.520046545307555563e-01,2.046363253496768841e+00,-7.726054218236104720e-01,1.633971585928903902e+00
1.331981642214498329e+00,-3.490002829978990917e-01,1.423693679534730805e+00,9.506789595919885594e-01,2.047776241514307038e+00,-7.726085377817371036e-01,1.634007478734013308e+00
1.330402780504867932e+00,-3.484275569133362671e-01,1.425649564978201500e+00,9.493343295761882406e-01,2.049244836245348811e+00,-7.726174660135154415e-01,1.633998969926670375e+00
1.328852980490745406e+00,-3.478943786805814842e-01,1.427579145037382480e+00,9.479615965960536128e-01,2.050765107208423643e+00,-7.726251359719876755e-01,1.633957384621129050e+00
1.327327148974130067e+00,-3.474037444845416434e-01,1.429476847094144354e+00,9.465443421211638952e-01,2.052332356151723047e+00,-7.726163874000389065e-01,1.633894048040726465e+00
1.325825765375150178e+00,-3.469512202071740048e-01,1.431333203500887663e+00,9.450835849874686945e-01,2.053928846690342702e+00,-7.726102754751715818e-01,1.633811836269900564e+00
1.324357637825115397e+00,-3.465346485124424780e-01,1.433148753673433751e+00,9.435847778217111292e-01,2.055572411202295946e+00,-7.725994297810458988e-01,1.633710150115303295e+00
1.322934630963183755e+00,-3.461554676607321857e-01,1.434930148734304911e+00,9.420515759978391745e-01,2.057249052146997492e+00,-7.725873257045310361e-01,1.633590967034974639e+00
1.321563575789873823e+00,-3.458155351186974480e-01,1.436677928099322710e+00,9.404681602878631752e-01,2.058947456474781834e+00,-7.725766597793181090e-01,1.633453328188658071e+00
1.320252980894362382e+00,-3.455127536550782197e-01,1.438384122158799183e+00,9.388460355749499442e-01,2.060673568428009084e+00,-7.725740831279297449e-01,1.633303525379216747e+00
1.319007040957335564e+00,-3.452389141137470752e-01,1.440045315521558456e+00,9.371989836333558532e-01,2.062427292013569780e+00,-7.725573051687664172e-01,1.633135626341613023e+00
1.317820842440622586e+00,-3.449963534905698403e-01,1.441645269426091946e+00,9.355373708461613980e-01,2.064190602867233881e+00,-7.725360930915603497e-01,1.632961974916967263e+00
1.316692108125883998e+00,-3.447799782602964935e-01,1.443170801400574632e+00,9.338598190577573899e-01,2.065963692975218535e+00,-7.725163191656563288e-01,1.632770526915374720e+00
1.315622036727065902e+00,-3.445933239145721472e-01,1.444615619533060613e+00,9.321802299247032852e-01,2.067751451702884768e+00,-7.724829431253255052e-01,1.632562480832614682e+00
1.314614343177476607e+00,-3.444438806429562794e-01,1.445977626701372198e+00,9.304994424049529700e-01,2.069557809880769206e+00,-7.724368038194386887e-01,1.632331305101218266e+00
1.313671124708376103e+00,-3.443373409458808654e-01,1.447247535135906205e+00,9.288114643468586840e-01,2.071363305342405869e+00,-7.723900054335938181e-01,1.632080654986050483e+00
1.312793519928934005e+00,-3.442693304828299827e-01,1.448434272959357560e+00,9.271169548303787034e-01,2.073176662290582950e+00,-7.723366755893631419e-01,1.631792674132637400e+00
1.311979491494499994e+00,-3.442315801019832366e-01,1.449533585931679580e+00,9.254247223140713574e-01,2.074996922190476933e+00,-7.722684853573994479e-01,1.631474912398982235e+00
1.311223227022339399e+00,-3.442087502136455535e-01,1.450547271523833226e+00,9.237332088734151458e-01,2.076810375131763031e+00,-7.721756675479706233e-01,1.631127609549690938e+00
1.310527303054757731e+00,-3.441777709467072621e-01,1.451478266034116116e+00,9.220439125463217866e-01,2.078611747951177868e+00,-7.720745207001115107e-01,1.630754241080715428e+00
1.309893996701010366e+00,-3.441420580195937995e-01,1.452339871925738768e+00,9.203279512971129783e-01,2.080408902309796026e+00,-7.719474280057880833e-01,1.630359780307753637e+00
1.309331097583706693e+00,-3.441209058289976253e-01,1.453147249128567076e+00,9.185746592005760158e-01,2.082203659807754459e+00,-7.718185376223370975e-01,1.629946384457758635e+00
1.308838306269796803e+00,-3.441225836358222656e-01,1.453899618789423087e+00,9.167960204509228994e-01,2.083995445359066334e+00,-7.716897671211890852e-01,1.629510098723732980e+00
1.308408671876459817e+00,-3.441384027547289004e-01,1.454588891525399497e+00,9.150074348517077683e-01,2.085769685813559704e+00,-7.715522481571753799e-01,1.629053439870455255e+00
1.308031288604794007e+00,-3.441558397938502267e-01,1.455202783381985165e+00,9.132178905213190756e-01,2.087534914260470664e+00,-7.714038236124260983e-01,1.628579403864665931e+00
1.307705797026056826e+00,-3.441765725600109960e-01,1.455742972384171052e+00,9.114427870451449198e-01,2.089279338033656064e+00,-7.712388607640361382e-01,1.628087691055149611e+00
1.307441365136632339e+00,-3.442180978698592964e-01,1.456212813927440175e+00,9.096645078333172041e-01,2.091003532393636011e+00,-7.710597564944812188e-01,1.627575425357468353e+00
1.307242786483306052e+00,-3.442959354092523516e-01,1.456621056474658449e+00,9.078833524279685818e-01,2.092711332352371834e+00,-7.709047404956531624e-01,1.627047340540880516e+00
1.307112098519810583e+00,-3.444190732965783375e-01,1.456976448706857274e+00,9.061072903297038295e-01,2.094394013358009232e+00,-7.707434927987379947e-01,1.626501099500437197e+00
1.307048402401582710e+00,-3.445856540651830446e-01,1.457279709481521746e+00,9.043505228462977996e-01,2.096041125251662862e+00,-7.705947086070801255e-01,1.625939998072260861e+00
1.307039414283194256e+00,-3.447912433788575259e-01,1.457519274137958343e+00,9.026139487132311956e-01,2.097636177638980470e+00,-7.704639607569748749e-01,1.625360440987179578e+00
1.307082916941999740e+00,-3.450338641068108614e-01,1.457689569948954711e+00,9.008734197731671500e-01,2.099168240919132788e+00,-7.703268612173965746e-01,1.624768000863322737e+00
1.307179509789513361e+00,-3.453179501489194725e-01,1.457788739447856585e+00,8.991079038268955381e-01,2.100641629546025957e+00,-7.701945553336865258e-01,1.624161778856126226e+00
1.307329372594647765e+00,-3.456456587321364848e-01,1.457824512370663239e+00,8.973178800763784713e-01,2.102045317925721246e+00,-7.700702190596642183e-01,1.623544830928023819e+00
1.307531666290365990e+00,-3.460148327385918487e-01,1.457798926062024325e+00,8.955103592910470534e-01,2.103381990374605603e+00,-7.699403100584297777e-01,1.622922130612879377e+00
1.307787110061402025e+00,-3.464157650833294966e-01,1.457719830140242090e+00,8.937056549217097245e-01,2.104651167625266606e+00,-7.698142359818898051e-01,1.622305002915864325e+00
1.308098220454368521e+00,-3.468392875517991580e-01,1.457587644138834682e+00,8.919229414827563041e-01,2.105865505234629786e+00,-7.696756982910094580e-01,1.621685298676543763e+00
1.308467993763255066e+00,-3.472855801310796298e-01,1.457403626440191724e+00,8.901744430420874821e-01,2.107020784567363858e+00,-7.695248768637845682e-01,1.621080095287130929e+00
1.308901942501415006e+00,-3.477556613298715127e-01,1.457167896708449817e+00,8.884578227129207306e-01,2.108125442370531122e+00,-7.693800474791242516e-01,1.620489932163446722e+00
1.309399347811363246e+00,-3.482523474550857645e-01,1.456879076897082959e+00,8.867863229627742649e-01,2.109189162254409222e+00,-7.692293459342022244e-01,1.619926493848487636e+00
1.309960509126149475e+00,-3.487703656488919668e-01,1.456534290703487056e+00,8.851679731788625327e-01,2.110222490021925079e+00,-7.690665402036821474e-01,1.619377616379129137e+00
1.310581291978946350e+00,-3.493033640036509180e-01,1.456133358467832428e+00,8.836164954669984972e-01,2.111224083689418940e+00,-7.689112845493314419e-01,1.618860676798799414e+00
1.311257082373715521e+00,-3.498460097749223063e-01,1.455677898001250803e+00,8.821118760275892257e-01,2.112205735399435458e+00,-7.687518943190706500e-01,1.618375195796453170e+00
1.311992314646665880e+00,-3.503962055132799902e-01,1.455175039955476368e+00,8.806459057045072925e-01,2.113167924942984666e+00,-7.686024510474548377e-01,1.617920754056738408e+00
1.312781715503634761e+00,-3.509568275213278965e-01,1.454631315679811410e+00,8.792151091108837413e-01,2.114105666612532186e+00,-7.684566030450108443e-01,1.617489022323058245e+00
1.313625165280485119e+00,-3.515255987988933351e-01,1.454043549329519847e+00,8.778366835212341179e-01,2.115020782008214972e+00,-7.683198031566481623e-01,1.617099355315047893e+00
1.314518289636701365e+00,-3.520999428036709067e-01,1.453406527824297800e+00,8.765169807341146591e-01,2.115910011378594024e+00,-7.681962457358036955e-01,1.616749655583280765e+00
1.315457852840936859e+00,-3.526835146914424901e-01,1.452720850466576508e+00,8.752513866444036061e-01,2.116780257849918190e+00,-7.680699320037410738e-01,1.616443218963879769e+00
1.316442956157711119e+00,-3.532812278912960680e-01,1.451988194845014624e+00,8.740418188235314911e-01,2.117643313913798231e+00,-7.679381055401593992e-01,1.616171117115983158e+00
1.317471442360071077e+00,-3.538926030921862864e-01,1.451207901988736948e+00,8.729031376592312208e-01,2.118495536020891468e+00,-7.678141886905724967e-01,1.615932571077330238e+00
1.318545109028061324e+00,-3.545261491014561894e-01,1.450391955982872849e+00,8.718441517191443113e-01,2.119334719471289930e+00,-7.676931480345065006e-01,1.615713020111403386e+00
1.319663656619548986e+00,-3.551857608394933252e-01,1.449539218545501607e+00,8.708504197127242552e-01,2.120169684286358436e+00,-7.675748636896585486e-01,1.615515040760508114e+00
1.320820014478493176e+00,-3.558691014195149438e-01,1.448651786689717280e+00,8.699085795083159045e-01,2.121016537586145834e+00,-7.674590362229792850e-01,1.615339172222299613e+00
1.322007411490985662e+00,-3.565694595051394633e-01,1.447726963990911830e+00,8.689965200750664476e-01,2.121866842274525489e+00,-7.673486614921261051e-01,1.615178164180907094e+00
1.323220574581029707e+00,-3.572815621294533894e-01,1.446768046285207721e+00,8.680918908356834995e-01,2.122728076738267244e+00,-7.672375077990122305e-01,1.615035312254286870e+00
1.324456327903889008e+00,-3.580088247927159517e-01,1.445788455699952513e+00,8.672187202833671060e-01,2.123615484508508011e+00,-7.671534384524489880e-01,1.614912833446918938e+00
1.325717547762166992e+00,-3.587576590710099822e-01,1.444785975339749839e+00,8.663717351239547115e-01,2.124526573255078432e+00,-7.670824319135742808e-01,1.614803177791716893e+00
1.327002436466736768e+00,-3.595294432290276898e-01,1.443761563717607110e+00,8.655478197265686902e-01,2.125458179045114360e+00,-7.670434831460313241e-01,1.614696997523383803e+00
1.328306020483734029e+00,-3.603253155486892401e-01,1.442709947975693741e+00,8.647373265656137509e-01,2.126418067372047638e+00,-7.670249676025164831e-01,1.614589439099441748e+00
1.329620570186242912e+00,-3.611397036300317276e-01,1.441623937575666092e+00,8.639443304394731626e-01,2.127406142766368635e+00,-7.670149007615686410e-01,1.614477446557456952e+00
1.330938475393317999e+00,-3.619741051837178092e-01,1.440499757370356404e+00,8.631492369729893976e-01,2.128415885725196244e+00,-7.670177170684796542e-01,1.614355806708042795e+00
1.332259316680523886e+00,-3.628369094620368940e-01,1.439345436746979123e+00,8.623551622333722744e-01,2.129453144323249170e+00,-7.670432434905086749e-01,1.614228893673549159e+00
1.333582435076985817e+00,-3.637323108184258302e-01,1.438166668424132544e+00,8.615566533757124112e-01,2.130533450245522875e+00,-7.670721255261868654e-01,1.614096408130009319e+00
1.334910766553750960e+00,-3.646671403624862084e-01,1.436964291141604289e+00,8.607453812524965553e-01,2.131644244102734564e+00,-7.671077186800805414e-01,1.613955833203561951e+00
1.336237480110301634e+00,-3.656328291820988841e-01,1.435726919898530296e+00,8.599170316279848292e-01,2.132782745410855441e+00,-7.671531388012333696e-01,1.613803094204906641e+00
1.337562935393546093e+00,-3.666257222305651098e-01,1.434456352384038347e+00,8.590908391213429862e-01,2.133950584132872752e+00,-7.671956229513383629e-01,1.613641666739078717e+00
1.338889768832399518e+00,-3.676401868940629147e-01,1.433157621909519230e+00,8.582771702247345980e-01,2.135149773680609098e+00,-7.672357101098846721e-01,1.613463101776262176e+00
1.340220137653814980e+00,-3.686846719842422626e-01,1.431841634273874453e+00,8.574690739462552669e-01,2.136368137939084644e+00,-7.672839466470315894e-01,1.613279563388664295e+00
1.341566565358742746e+00,-3.697579192277969939e-01,1.430513063032503362e+00,8.566550454027382910e-01,2.137603280047640553e+00,-7.673457852986051986e-01,1.613083441504423510e+00
1.342933665834138424e+00,-3.708533972754243790e-01,1.429180057673089532e+00,8.558450316619116149e-01,2.138846955070899281e+00,-7.674073242989633004e-01,1.612884743077877214e+00
1.344321558853221577e+00,-3.719728437114758202e-01,1.427841839233372268e+00,8.550485001532089901e-01,2.140111913860763604e+00,-7.674709005348884228e-01,1.612671244041124829e+00
1.345725810407032652e+00,-3.731173371494278523e-01,1.426493494066097156e+00,8.542826482602289273e-01,2.141392212698471464e+00,-7.675472400363695380e-01,1.612449296192722370e+00
1.347148757382354400e+00,-3.742811851979316318e-01,1.425123097972745168e+00,8.535425025581906411e-01,2.142694658193565971e+00,-7.676516227246581447e-01,1.612196968379812745e+00
1.348589081510187526e+00,-3.754574967516927098e-01,1.423730710839926417e+00,8.528207526264472982e-01,2.144022126823183161e+00,-7.677590013796874446e-01,1.611921211376134311e+00
1.350047561643709981e+00,-3.766421373438840203e-01,1.422324421941465245e+00,8.521124250402181133e-01,2.145373180436021876e+00,-7.678832777670998588e-01,1.611626758950945426e+00
1.351527193967828611e+00,-3.778271974695938118e-01,1.420902733348532676e+00,8.514049961894695207e-01,2.146743408759599347e+00,-7.680258900381974341e-01,1.611309955948464046e+00
1.353020608175286688e+00,-3.790033292544421895e-01,1.419468521254650062e+00,8.507095516420160042e-01,2.148130319114681441e+00,-7.681864786551545476e-01,1.610970682595470382e+00
1.354533976077561652e+00,-3.801682558073393725e-01,1.418022984046513280e+00,8.500470037147650482e-01,2.149539855743627825e+00,-7.683456291208096145e-01,1.610620084128222773e+00
1.356066578708085446e+00,-3.813223966618038419e-01,1.416567739644337243e+00,8.494086040539339244e-01,2.150972593732426219e+00,-7.685246135080617824e-01,1.610251329437119683e+00
1.357619734226774177e+00,-3.824713842134915831e-01,1.415109798708469979e+00,8.487996257355193697e-01,2.152417603654779743e+00,-7.687080920090495484e-01,1.609863819546978991e+00
1.359205067399097411e+00,-3.836230681897874750e-01,1.413653116154991896e+00,8.482274388486116257e-01,2.153876419306033796e+00,-7.689027757419885090e-01,1.609456236079718883e+00
1.360824315918489624e+00,-3.847830213179037062e-01,1.412208477791418781e+00,8.477091811083659056e-01,2.155357669594000658e+00,-7.691066274713115325e-01,1.609035529809077270e+00
1.362481854125467073e+00,-3.859569959848821452e-01,1.410779718542445327e+00,8.472614504868664076e-01,2.156848698961754796e+00,-7.693257590128029788e-01,1.608596607646136434e+00
1.364172468721559506e+00,-3.871436140351137145e-01,1.409367857025855209e+00,8.469039011367975878e-01,2.158346247657856765e+00,-7.695488453612917557e-01,1.608143064641902154e+00
1.365887830668337077e+00,-3.883455120065967270e-01,1.407964564203217694e+00,8.466375516759429010e-01,2.159852233275552980e+00,-7.697884100177283528e-01,1.607668069904939268e+00
1.367619671032145323e+00,-3.895643675970727471e-01,1.406565106305274870e+00,8.464547922506060473e-01,2.161364067142500289e+00,-7.700203646023026094e-01,1.607179233398026819e+00
1.369351391513650817e+00,-3.908071915759728787e-01,1.405154563057683603e+00,8.463269804806315966e-01,2.162894308997047155e+00,-7.702640039480393996e-01,1.606677873281081137e+00
1.371066513913988594e+00,-3.920679920098156246e-01,1.403728979544363487e+00,8.462413532095466318e-01,2.164435192647630402e+00,-7.705107591428197455e-01,1.606161173465357139e+00
1.372744545122521087e+00,-3.933438326003041441e-01,1.402279068104794080e+00,8.462007267442620551e-01,2.165985471929164685e+00,-7.707360026091785166e-01,1.605624340076820644e+00
1.374379373105297342e+00,-3.946237477710098918e-01,1.400809502512540217e+00,8.462036029377829616e-01,2.167543133604361127e+00,-7.709413523764134801e-01,1.605081874183544866e+00
1.375971297622616385e+00,-3.959033633995830970e-01,1.399334783726592590e+00,8.462510005169759930e-01,2.169113929929360918e+00,-7.711333995713541833e-01,1.604523589062279765e+00
1.377531224255213349e+00,-3.971789043388559981e-01,1.397879479437806660e+00,8.463281789764109941e-01,2.170677727484068509e+00,-7.713116049963454346e-01,1.603951581944284888e+00
1.379066703079258049e+00,-3.984431202729579735e-01,1.396462224962917054e+00,8.464507775569987125e-01,2.172245743499573223e+00,-7.714950235016402313e-01,1.603367231203335352e+00
1.380577074905709356e+00,-3.996868430964218288e-01,1.395089491873699350e+00,8.466338965201610778e-01,2.173813280073133125e+00,-7.716802995826724798e-01,1.602776289008307264e+00
1.382057486192088680e+00,-4.009095936072853417e-01,1.393756246858762982e+00,8.468825092906788754e-01,2.175381487725789320e+00,-7.718566475410093553e-01,1.602169048383327077e+00
1.383493376092796101e+00,-4.021096338939478820e-01,1.392453142152811019e+00,8.471881069521259855e-01,2.176943176050098572e+00,-7.720479756602990351e-01,1.601548505186052740e+00
1.384877074758442239e+00,-4.032932558683556823e-01,1.391174185713278888e+00,8.475418213775003373e-01,2.178509753914301239e+00,-7.722483518936699154e-01,1.600917056408043049e+00
1.386198335579166718e+00,-4.044771174982861317e-01,1.389910988506043443e+00,8.479295710322465318e-01,2.180071921680554858e+00,-7.724348863570913437e-01,1.600282611554209256e+00
1.387447511247539955e+00,-4.056667915109513634e-01,1.388653903223675545e+00,8.483512359249787416e-01,2.181641567484513544e+00,-7.726199826692108363e-01,1.599631928047950513e+00
1.388613875951739018e+00,-4.068632366375251053e-01,1.387399035054870389e+00,8.488108309674704532e-01,2.183207474269619475e+00,-7.727949523628556694e-01,1.598976690541346279e+00
1.389700245889592178e+00,-4.080705873448343124e-01,1.386148361348585212e+00,8.493064984749012503e-01,2.184765231763391657e+00,-7.729547021309419730e-01,1.598312045382835223e+00
1.390706321628049968e+00,-4.092895628176131950e-01,1.384911109987814193e+00,8.498267336731871735e-01,2.186307649383852247e+00,-7.731088791718161435e-01,1.597633738332370656e+00
1.391642109794200888e+00,-4.105191443289951114e-01,1.383696388864165350e+00,8.503670424485928470e-01,2.187834343856698727e+00,-7.732686288308194822e-01,1.596952195441476485e+00
1.392509168421649735e+00,-4.117626274969363176e-01,1.382513126427582950e+00,8.509382706043269184e-01,2.189337644983475606e+00,-7.734127391398288864e-01,1.596268495432712431e+00
1.393310913119739203e+00,-4.130138405099596510e-01,1.381360963031158740e+00,8.515621094195575669e-01,2.190822346660034281e+00,-7.735654182518741928e-01,1.595573350427391457e+00
1.394041171858825479e+00,-4.142661320273763881e-01,1.380238280863760991e+00,8.522223802375527013e-01,2.192272437759433590e+00,-7.737113261409280796e-01,1.594871074879419703e+00
1.394705217714905299e+00,-4.155079973841859231e-01,1.379143162463042138e+00,8.529135105492663405e-01,2.193699902759501441e+00,-7.738530395674617646e-01,1.594157354334891030e+00
1.395299934948018183e+00,-4.167291299748346889e-01,1.378079023220178501e+00,8.536360993298803823e-01,2.195104645667129706e+00,-7.740038611037698413e-01,1.593437102441059627e+00
1.395825562995520519e+00,-4.179333648331003959e-01,1.377047540941994885e+00,8.543736086030034871e-01,2.196481297675012101e+00,-7.741354479118288667e-01,1.592713075509143428e+00
1.396283540117797317e+00,-4.191208816188126685e-01,1.376053089969006660e+00,8.551192071499511549e-01,2.197825544154709654e+00,-7.742684727621069740e-01,1.591983415963405202e+00
1.396676862390672680e+00,-4.202928189411409554e-01,1.375090217456305108e+00,8.558753517398087762e-01,2.199142370813758074e+00,-7.744107853819888199e-01,1.591242431303413030e+00
1.397003852007321800e+00,-4.214489371445626076e-01,1.374149395869680212e+00,8.566331143589642760e-01,2.200419409725493214e+00,-7.745147485367589457e-01,1.590498330794377413e+00
1.397267385052182398e+00,-4.225901948511682216e-01,1.373224992595310168e+00,8.574032206010743229e-01,2.201649758287263836e+00,-7.746110418421399135e-01,1.589747399284823226e+00
1.397472255399289098e+00,-4.237230037461238163e-01,1.372313292699886222e+00,8.581970556851687970e-01,2.202833991410524828e+00,-7.746976877310085552e-01,1.588995449048402619e+00
1.397627511053639582e+00,-4.248546741409930383e-01,1.371412618267500605e+00,8.590364307727188509e-01,2.203974506130468747e+00,-7.747644399207532784e-01,1.588238345618288250e+00
1.397737106822231956e+00,-4.259873031579528568e-01,1.370525366180629145e+00,8.599250610151993879e-01,2.205073603314645858e+00,-7.748224435385492326e-01,1.587480403339303070e+00
1.397810570130192165e+00,-4.271164568971266284e-01,1.369654412632792750e+00,8.608568944834359415e-01,2.206141062217375826e+00,-7.748648078063514744e-01,1.586717547522146887e+00
1.397849758553257660e+00,-4.282421950269582056e-01,1.368801435430815783e+00,8.618206058450084139e-01,2.207188387700009802e+00,-7.749179578816693947e-01,1.585945703477519286e+00
1.397861802634079664e+00,-4.293656561566169261e-01,1.367976321646733551e+00,8.628102631621282770e-01,2.208221044388429366e+00,-7.749956156521496942e-01,1.585150310468902868e+00
1.397846642595131028e+00,-4.304883983197078101e-01,1.367188598487506290e+00,8.638011188659443507e-01,2.209243250743431641e+00,-7.750810031586289339e-01,1.584325436340343396e+00
1.397806375558588998e+00,-4.316055677555864500e-01,1.366459598130809416e+00,8.647820876068085250e-01,2.210233147737890924e+00,-7.751751393461400186e-01,1.583465268600022569e+00
1.397736567515493578e+00,-4.327112923039913572e-01,1.365810652317985152e+00,8.657423835772047882e-01,2.211152673406055591e+00,-7.752416517712790167e-01,1.582566271974461758e+00
1.397634042512025498e+00,-4.338064707004030685e-01,1.365249910427634328e+00,8.666584577040615800e-01,2.211951206218359722e+00,-7.752912064683420423e-01,1.581615683198104527e+00
1.397487954744975891e+00,-4.349008700254708981e-01,1.364766346996718616e+00,8.675401970594138756e-01,2.212595957546847014e+00,-7.753284774290603032e-01,1.580626505301113260e+00
1.397295368243296920e+00,-4.360094707673966563e-01,1.364333896187387429e+00,8.684169029942923057e-01,2.213071299887946708e+00,-7.753529852333057582e-01,1.579591847287275863e+00
1.397057721049207668e+00,-4.371444367802221898e-01,1.363933683027383825e+00,8.693068516148549918e-01,2.213374740387890949e+00,-7.753581983136094147e-01,1.578520217854852969e+00
1.396778129120834766e+00,-4.383131983668970277e-01,1.363548629906328857e+00,8.701924857815117598e-01,2.213511839840202722e+00,-7.753529852333057582e-01,1.577410898037276077e+00
1.396466299543134282e+00,-4.395140776115134540e-01,1.363196113867650938e+00,8.710611623291755201e-01,2.213488446668665954e+00,-7.753375854297515080e-01,1.576271917330843264e+00
1.396134636152919883e+00,-4.407310756262520779e-01,1.362908432556370286e+00,8.718960434120730518e-01,2.213308395710709142e+00,-7.753205678150655311e-01,1.575095426008169319e+00
1.395788471803714792e+00,-4.419498114435083114e-01,1.362715067092430399e+00,8.726838863445199879e-01,2.212971591147756545e+00,-7.753040296205079285e-01,1.573885978069600178e+00
1.395430622911513430e+00,-4.431690864584196810e-01,1.362631656934908397e+00,8.734215752774727726e-01,2.212465281604306888e+00,-7.752945021953814297e-01,1.572642674561488541e+00
