Afshin1997/kuka_rl_ros2/src/catch_and_throw/output_files/tm/nn_ema7.00_jvws1_realball_D23H17M39S36/recorded_data.csv
pure_target_joint_0,pure_target_joint_1,pure_target_joint_2,pure_target_joint_3,pure_target_joint_4,pure_target_joint_5,pure_target_joint_6,target_joint_0,target_joint_1,target_joint_2,target_joint_3,target_joint_4,target_joint_5,target_joint_6,pos_joint_0,pos_joint_1,pos_joint_2,pos_joint_3,pos_joint_4,pos_joint_5,pos_joint_6,vel_joint_0,vel_joint_1,vel_joint_2,vel_joint_3,vel_joint_4,vel_joint_5,vel_joint_6,vel_smooth_joint_0,vel_smooth_joint_1,vel_smooth_joint_2,vel_smooth_joint_3,vel_smooth_joint_4,vel_smooth_joint_5,vel_smooth_joint_6,ee_pos_x,ee_pos_y,ee_pos_z,ee_or_w,ee_or_x,ee_or_y,ee_or_z,ee_vel_x,ee_vel_y,ee_vel_z,ball_pos_x,ball_pos_y,ball_pos_z,ball_raw_vx,ball_raw_vy,ball_raw_vz,ball_ema_vx,ball_ema_vy,ball_ema_vz,action_0,action_1,action_2,action_3,action_4,action_5,action_6,command_published
1.73125,-1.019,-1.82816,-1.06619,1.975,1.17738,-0.858916,1.768,-1.05329,-1.8184,-1.10426,1.94668,1.13196,-0.901987,1.78025,-1.06472,-1.81514,-1.11695,1.93724,1.11683,-0.916345,0,0,0,0,0,0,0,0,0,0,0,0,0,0,0.531056,-0.454483,0.694263,0.574578,0.175208,0.152586,0.78478,0,0,0,2.94137,-0.480649,0.336833,-3.04716,-0.0311583,5.52896,-3.22786,-0.0296363,5.35045,-0.490014,0.457196,-0.130209,0.50756,0.377632,0.60554,0.574289,1
1.72811,-1.01718,-1.84418,-1.05792,1.96737,1.18215,-0.861803,1.74272,-1.02998,-1.82891,-1.07681,1.96365,1.16343,-0.873995,1.78025,-1.06472,-1.81514,-1.11695,1.93724,1.11683,-0.916345,1.15651e-06,1.03666e-06,-2.02869e-07,-9.69108e-07,-5.9959e-07,-1.036e-06,-2.1959e-07,1.15651e-06,1.03666e-06,-2.02869e-07,-9.69108e-07,-5.9959e-07,-1.036e-06,-2.1959e-07,0.531056,-0.454483,0.694263,0.574578,0.175208,0.152586,0.78478,7.53202e-07,1.23479e-06,2.02141e-07,2.91049,-0.480981,0.39158,-3.08878,-0.0331968,5.47468,-3.16089,-0.0402936,5.38775,-0.521378,0.475394,-0.290354,0.590257,0.301337,0.653239,0.545415,1
1.73366,-1.01385,-1.78736,-1.05509,1.97733,1.17925,-0.857907,1.73029,-1.01681,-1.82597,-1.05928,1.97177,1.18023,-0.860107,1.77862,-1.0632,-1.81558,-1.11526,1.9385,1.11884,-0.914433,-0.326168,0.304323,-0.0866714,0.337845,0.251361,0.403063,0.382262,-0.326168,0.304323,-0.0866714,0.337845,0.251361,0.403063,0.382262,0.529592,-0.455581,0.695544,0.57529,0.174021,0.151759,0.784683,-0.270209,-0.217092,0.244712,2.91049,-0.480981,0.39158,-3.08878,-0.0331968,5.47468,-3.16089,-0.0402936,5.38775,-0.44959,0.493461,0.282138,0.601714,0.388335,0.604037,0.565266,1
1.71058,-0.987952,-1.77568,-1.06038,1.98486,1.1721,-0.845135,1.72651,-1.00821,-1.79865,-1.05712,1.97672,1.17819,-0.855688,1.77262,-1.05763,-1.81768,-1.10887,1.94279,1.12629,-0.907614,-0.918317,0.849448,-0.345068,0.98462,0.640832,1.14077,1.03257,-0.918317,0.849448,-0.345068,0.98462,0.640832,1.14077,1.03257,0.524185,-0.45968,0.700093,0.578135,0.169669,0.149025,0.784069,-0.768682,-0.622989,0.657666,2.87931,-0.481585,0.4454,-3.11801,-0.0603676,5.38207,-3.11978,-0.0462025,5.36549,-0.620338,0.696824,0.419969,0.484893,0.420728,0.458101,0.624784,1
1.70538,-0.976626,-1.76993,-1.05473,1.99348,1.18516,-0.835274,1.71505,-0.991596,-1.77716,-1.05765,1.98513,1.17715,-0.845863,1.76353,-1.04901,-1.82008,-1.09857,1.94906,1.13776,-0.89741,-1.02104,0.988997,-0.180985,1.20667,0.697608,1.30443,1.14566,-1.02104,0.988997,-0.180985,1.20667,0.697608,1.30443,1.14566,0.515668,-0.465635,0.707548,0.582591,0.16237,0.144871,0.783094,-0.905491,-0.649004,0.856746,2.81737,-0.483148,0.548811,-3.09584,-0.0841439,5.1049,-3.0942,-0.0635458,5.19331,-0.581502,0.723811,0.501467,0.438361,0.44422,0.474051,0.621358,1
1.69892,-0.967456,-1.77434,-1.03848,2.00547,1.20246,-0.831312,1.70507,-0.977165,-1.77247,-1.05208,1.99432,1.18622,-0.836749,1.75477,-1.03986,-1.8179,-1.08852,1.95536,1.14804,-0.887551,-0.867926,0.972034,0.591484,0.964322,0.656133,0.925784,0.978588,-0.867926,0.972034,0.591484,0.964322,0.656133,0.925784,0.978588,0.506967,-0.47007,0.716785,0.586217,0.153816,0.14004,0.782994,-0.797067,-0.334933,1.03153,2.78696,-0.483916,0.599093,-3.04046,-0.0767916,5.02822,-3.08859,-0.0609091,5.09566,-0.558486,0.724043,0.435663,0.500399,0.501135,0.544214,0.56239,1
1.68849,-0.957163,-1.76992,-1.02882,2.01479,1.21029,-0.828072,1.69793,-0.967175,-1.77213,-1.04013,2.0048,1.2001,-0.831493,1.74622,-1.02978,-1.81026,-1.08078,1.96179,1.1554,-0.878324,-0.957163,1.17281,1.01643,0.710644,0.716956,0.668224,0.996967,-0.957163,1.17281,1.01643,0.710644,0.716956,0.668224,0.996967,0.498621,-0.472122,0.72765,0.588207,0.144827,0.13492,0.784114,-0.810156,-0.137051,1.20565,2.75647,-0.48448,0.648517,-3.04899,-0.0564158,4.94241,-3.08454,-0.0675789,4.99103,-0.577277,0.726199,0.403396,0.519662,0.530029,0.548952,0.502521,1
1.68052,-0.944907,-1.7595,-1.02373,2.02057,1.21632,-0.816778,1.6891,-0.956672,-1.76842,-1.02996,2.01391,1.20984,-0.826059,1.73714,-1.01837,-1.80141,-1.07429,1.96881,1.16201,-0.869044,-0.985175,1.26554,0.888776,0.682173,0.783442,0.743631,0.991847,-0.985175,1.26554,0.888776,0.682173,0.783442,0.743631,0.991847,0.490077,-0.473131,0.739224,0.58964,0.13558,0.130047,0.785513,-0.836359,-0.108749,1.20103,2.72601,-0.484815,0.697274,-3.04677,-0.0335068,4.87567,-3.07307,-0.0674959,4.88802,-0.566215,0.734641,0.419065,0.50562,0.517575,0.543144,0.52266,1
1.67429,-0.933196,-1.75116,-1.01829,2.02402,1.2253,-0.803677,1.68095,-0.945043,-1.76002,-1.02364,2.01999,1.21706,-0.816326,1.72822,-1.0068,-1.79417,-1.06718,1.97655,1.16987,-0.860318,-0.930406,1.21699,0.676905,0.830917,0.867789,0.928151,0.885293,-0.930406,1.21699,0.676905,0.830917,0.867789,0.928151,0.885293,0.481297,-0.474258,0.750459,0.591536,0.126012,0.125306,0.786451,-0.857436,-0.160782,1.14047,2.69553,-0.485061,0.745365,-3.04754,-0.0245839,4.80915,-3.06021,-0.0599137,4.79509,-0.539347,0.73605,0.430064,0.4889,0.474734,0.554271,0.566412,1
1.66642,-0.921766,-1.74544,-1.01042,2.03061,1.23407,-0.794552,1.67388,-0.933266,-1.75182,-1.01768,2.02481,1.22525,-0.804671,1.71952,-0.995555,-1.7882,-1.0591,1.98478,1.17868,-0.852431,-0.934044,1.19417,0.607508,0.895058,0.894482,0.956991,0.809952,-0.934044,1.19417,0.607508,0.895058,0.894482,0.956991,0.809952,0.472291,-0.475694,0.761284,0.594031,0.116197,0.120532,0.786827,-0.880095,-0.177574,1.11385,2.66482,-0.485307,0.792628,-3.07078,-0.0245929,4.72634,-3.05408,-0.0490227,4.7139,-0.531009,0.737888,0.42763,0.486866,0.458285,0.553897,0.578788,1
1.65679,-0.910411,-1.73927,-1.00206,2.04104,1.24272,-0.78773,1.66598,-0.921785,-1.74533,-1.0103,2.03157,1.23404,-0.795128,1.71087,-0.984343,-1.78217,-1.05102,1.99283,1.18739,-0.844581,-0.918896,1.207,0.680098,0.840831,0.83411,0.911327,0.867777,-0.918896,1.207,0.680098,0.840831,0.83411,0.911327,0.867777,0.463256,-0.476798,0.771994,0.596364,0.106282,0.115992,0.787147,-0.865934,-0.101926,1.118,2.6342,-0.485717,0.838465,-3.0627,-0.0410378,4.58364,-3.05266,-0.0395392,4.63172,-0.540799,0.739321,0.428953,0.489602,0.482092,0.553345,0.568507,1
1.64744,-0.898924,-1.73237,-0.994196,2.05056,1.25039,-0.780389,1.65686,-0.910378,-1.73909,-1.00218,2.04081,1.24248,-0.787601,1.7025,-0.973009,-1.77557,-1.04342,2.00022,1.19585,-0.836008,-0.878955,1.22058,0.729515,0.790543,0.755075,0.902879,0.962422,-0.878955,1.22058,0.729515,0.790543,0.755075,0.902879,0.962422,0.454414,-0.477101,0.782682,0.597934,0.0962143,0.111895,0.787844,-0.840618,-0.0178889,1.1157,2.60362,-0.486242,0.883128,-3.05817,-0.052458,4.46626,-3.05639,-0.0355133,4.54055,-0.550575,0.740844,0.432012,0.492277,0.503389,0.545409,0.556186,1
1.63903,-0.887308,-1.72571,-0.987146,2.05747,1.25824,-0.771289,1.64768,-0.898892,-1.73243,-0.9944,2.04991,1.25044,-0.779949,1.69433,-0.961603,-1.7688,-1.03604,2.00723,1.20433,-0.826949,-0.870818,1.22292,0.720999,0.790721,0.747516,0.912571,0.977309,-0.870818,1.22292,0.720999,0.790721,0.747516,0.912571,0.977309,0.445678,-0.476843,0.793274,0.598995,0.0859941,0.108147,0.788742,-0.842022,0.0133695,1.10322,2.57282,-0.486795,0.926872,-3.07932,-0.0553519,4.3744,-3.06099,-0.0373419,4.4424,-0.55298,0.742957,0.430953,0.488974,0.502415,0.539144,0.556598,1
1.63076,-0.875508,-1.71944,-0.980472,2.06279,1.2662,-0.761373,1.63907,-0.887262,-1.72581,-0.98724,2.05707,1.25827,-0.771085,1.68607,-0.950189,-1.76214,-1.02856,2.01451,1.21284,-0.818039,-0.897139,1.22268,0.70796,0.810218,0.807787,0.910352,0.934833,-0.897139,1.22268,0.70796,0.810218,0.807787,0.910352,0.934833,0.436812,-0.476438,0.803742,0.600027,0.0757074,0.104458,0.789509,-0.865687,0.0145537,1.09369,2.54223,-0.487446,0.969759,-3.0596,-0.0650644,4.28874,-3.06419,-0.0439158,4.33917,-0.553104,0.746814,0.426944,0.480922,0.482778,0.53361,0.566655,1
1.62223,-0.863701,-1.71315,-0.973391,2.06941,1.27422,-0.752242,1.6307,-0.875506,-1.71944,-0.980371,2.06311,1.26622,-0.76157,1.67759,-0.938766,-1.75552,-1.02097,2.02226,1.22126,-0.809456,-0.918702,1.22463,0.709267,0.816107,0.849195,0.896046,0.906207,-0.918702,1.22463,0.709267,0.816107,0.849195,0.896046,0.906207,0.427755,-0.475965,0.814107,0.60113,0.065404,0.100729,0.790075,-0.882245,0.0274984,1.08531,2.51088,-0.488205,1.01118,-3.13435,-0.0759006,4.14172,-3.07328,-0.0528161,4.22893,-0.553592,0.750651,0.423759,0.475808,0.471485,0.529625,0.572137,1
1.61311,-0.852111,-1.70679,-0.965793,2.07776,1.28204,-0.743729,1.62208,-0.863755,-1.71313,-0.973262,2.06984,1.27417,-0.752397,1.66901,-0.927308,-1.7489,-1.01342,2.03008,1.22956,-0.800943,-0.919596,1.22992,0.709303,0.803901,0.828922,0.881858,0.91699,-0.919596,1.22992,0.709303,0.803901,0.828922,0.881858,0.91699,0.418639,-0.47525,0.824348,0.602122,0.0550885,0.0971613,0.790553,-0.88052,0.0618348,1.07224,2.48056,-0.488112,1.05116,-3.03261,0.00924468,3.99858,-3.07436,-0.0521306,4.11305,-0.558998,0.751975,0.421118,0.476221,0.476742,0.524826,0.572139,1
1.60399,-0.840586,-1.70054,-0.957992,2.08578,1.28976,-0.735175,1.61311,-0.852127,-1.70682,-0.965742,2.07767,1.28201,-0.743719,1.66045,-0.915791,-1.74231,-1.006,2.0376,1.23775,-0.792256,-0.913904,1.23724,0.702658,0.787004,0.783739,0.874259,0.942441,-0.913904,1.23724,0.702658,0.787004,0.783739,0.874259,0.942441,0.409585,-0.474155,0.834425,0.602865,0.0447519,0.0939685,0.791025,-0.87231,0.10219,1.05648,2.45015,-0.488918,1.09059,-3.04048,-0.0805408,3.94249,-3.07212,-0.0526905,4.00264,-0.564629,0.752043,0.417792,0.480039,0.481817,0.520085,0.570805,1
1.59526,-0.828879,-1.69417,-0.950718,2.09265,1.29744,-0.726283,1.60409,-0.84054,-1.70051,-0.958124,2.08549,1.28975,-0.735091,1.65191,-0.904215,-1.73579,-0.998681,2.04483,1.24588,-0.783408,-0.916158,1.24267,0.695886,0.780708,0.768065,0.868837,0.95249,-0.916158,1.24267,0.695886,0.780708,0.768065,0.868837,0.95249,0.400586,-0.472707,0.84434,0.603384,0.034391,0.0911343,0.791479,-0.871273,0.132369,1.04271,2.41953,-0.489873,1.12911,-3.06234,-0.0955254,3.85203,-3.06883,-0.0564499,3.89562,-0.566477,0.753362,0.416177,0.479628,0.478142,0.515584,0.571253,1
1.58683,-0.817097,-1.68761,-0.943993,2.09908,1.30514,-0.717025,1.59534,-0.82886,-1.69412,-0.950855,2.09254,1.29744,-0.726192,1.6433,-0.892612,-1.72932,-0.991363,2.05209,1.25396,-0.774546,-0.927376,1.24343,0.691118,0.786898,0.785788,0.861748,0.946823,-0.927376,1.24343,0.691118,0.786898,0.785788,0.861748,0.946823,0.391562,-0.471023,0.854112,0.60378,0.024014,0.0884912,0.79186,-0.87875,0.150508,1.03071,2.38894,-0.490729,1.16622,-3.05924,-0.0856459,3.71152,-3.06352,-0.0620369,3.78628,-0.564742,0.755151,0.41706,0.473694,0.469925,0.511808,0.57521,1
1.57849,-0.805351,-1.68072,-0.937536,2.10617,1.31262,-0.707699,1.58685,-0.817106,-1.68753,-0.94406,2.09925,1.30508,-0.717008,1.6346,-0.881008,-1.72289,-0.983981,2.05949,1.26196,-0.765736,-0.937091,1.24291,0.687303,0.794183,0.798574,0.853504,0.94124,-0.937091,1.24291,0.687303,0.794183,0.798574,0.853504,0.94124,0.382477,-0.469159,0.863748,0.604097,0.0136275,0.0859617,0.792143,-0.884836,0.1691,1.01829,2.3588,-0.49125,1.2025,-3.01361,-0.0520438,3.62742,-3.05429,-0.0650798,3.67947,-0.561096,0.756566,0.421656,0.464448,0.466799,0.506569,0.580376,1
1.57017,-0.793696,-1.67383,-0.93099,2.1137,1.32018,-0.698467,1.57849,-0.805374,-1.68072,-0.937514,2.10628,1.31264,-0.707722,1.62585,-0.869396,-1.71647,-0.976587,2.06689,1.26989,-0.756935,-0.937212,1.24501,0.686509,0.790332,0.787786,0.84629,0.944257,-0.937212,1.24501,0.686509,0.790332,0.787786,0.84629,0.944257,0.37339,-0.467054,0.87324,0.60429,0.0032292,0.0836176,0.792358,-0.881641,0.198324,1.00457,2.32839,-0.491869,1.23819,-3.04115,-0.061965,3.56933,-3.04362,-0.0681468,3.58338,-0.556848,0.756994,0.426396,0.455971,0.468098,0.502934,0.584681,1
1.56165,-0.782003,-1.66732,-0.924288,2.12111,1.32785,-0.689393,1.57012,-0.793687,-1.67393,-0.930951,2.11367,1.32021,-0.698507,1.61714,-0.857757,-1.71004,-0.969288,2.07416,1.27776,-0.748072,-0.930178,1.24855,0.691454,0.774835,0.770577,0.839355,0.954104,-0.930178,1.24855,0.691454,0.774835,0.770577,0.839355,0.954104,0.36438,-0.46462,0.882574,0.604266,-0.00717839,0.0815351,0.792567,-0.871027,0.23509,0.989791,2.2978,-0.492354,1.27271,-3.05891,-0.0484526,3.45175,-3.04474,-0.0714489,3.49011,-0.554865,0.757537,0.427208,0.449998,0.469585,0.500997,0.586793,1
1.55329,-0.770126,-1.66056,-0.917938,2.12856,1.33524,-0.680288,1.56169,-0.781957,-1.66726,-0.924376,2.12112,1.32778,-0.689385,1.6085,-0.846092,-1.70354,-0.962147,2.08133,1.28555,-0.739116,-0.921578,1.25062,0.700851,0.756562,0.766366,0.831915,0.964217,-0.921578,1.25062,0.700851,0.756562,0.766366,0.831915,0.964217,0.355487,-0.461829,0.891746,0.603966,-0.017582,0.0796942,0.792821,-0.859016,0.271186,0.974685,2.26751,-0.492936,1.30589,-3.02849,-0.0582486,3.31838,-3.04256,-0.064852,3.38957,-0.55207,0.759665,0.429846,0.442084,0.47234,0.496842,0.588277,1
1.54516,-0.758262,-1.65359,-0.912023,2.1358,1.34216,-0.670658,1.55335,-0.770129,-1.6605,-0.918047,2.12851,1.33512,-0.680157,1.59993,-0.834417,-1.69696,-0.955151,2.08851,1.29329,-0.730087,-0.915531,1.25098,0.707567,0.743275,0.772679,0.826743,0.969959,-0.915531,1.25098,0.707567,0.743275,0.772679,0.826743,0.969959,0.346701,-0.458717,0.900753,0.603394,-0.0279736,0.078033,0.793123,-0.84952,0.302107,0.959186,2.23717,-0.493448,1.33815,-3.03416,-0.0511527,3.2256,-3.03896,-0.0580128,3.2881,-0.547693,0.761555,0.433792,0.431285,0.472876,0.488641,0.594295,1
1.53706,-0.746428,-1.64661,-0.906335,2.14298,1.34873,-0.66082,1.54517,-0.758269,-1.65358,-0.91208,2.13579,1.34207,-0.670606,1.5914,-0.822733,-1.69035,-0.948262,2.09576,1.30099,-0.721024,-0.912397,1.25239,0.709297,0.733616,0.779068,0.822908,0.971753,-0.912397,1.25239,0.709297,0.733616,0.779068,0.822908,0.971753,0.338003,-0.455321,0.909594,0.602592,-0.0383517,0.0765299,0.793445,-0.841525,0.330103,0.94358,2.20705,-0.493766,1.36952,-3.01266,-0.0318229,3.13705,-3.03499,-0.0520502,3.18889,-0.543333,0.763056,0.437441,0.419264,0.472238,0.477407,0.602039,1
1.52897,-0.734597,-1.63989,-0.90054,2.15008,1.35548,-0.651074,1.53706,-0.746429,-1.64667,-0.906308,2.14296,1.34877,-0.660843,1.5829,-0.811025,-1.68371,-0.941483,2.10304,1.30863,-0.711933,-0.907756,1.25606,0.712832,0.719814,0.782135,0.813788,0.975962,-0.907756,1.25606,0.712832,0.719814,0.782135,0.813788,0.975962,0.329406,-0.451645,0.918268,0.601569,-0.0487008,0.0752023,0.793781,-0.830251,0.360439,0.928221,2.17689,-0.49447,1.40035,-3.01573,-0.070411,3.08354,-3.0323,-0.0519612,3.09166,-0.539386,0.764276,0.43828,0.409434,0.470323,0.468503,0.608586,1
1.52098,-0.722702,-1.63284,-0.895275,2.15765,1.36193,-0.64138,1.52899,-0.734581,-1.63981,-0.900672,2.1502,1.3554,-0.651087,1.57447,-0.799283,-1.67702,-0.934864,2.11034,1.31614,-0.702764,-0.899967,1.25967,0.719944,0.699798,0.781489,0.796553,0.987704,-0.899967,1.25967,0.719944,0.699798,0.781489,0.796553,0.987704,0.320951,-0.447666,0.926775,0.600282,-0.0589808,0.0740716,0.794164,-0.81406,0.392906,0.91199,2.14683,-0.494912,1.43011,-3.00605,-0.0441521,2.97551,-3.02489,-0.0506784,2.99526,-0.534943,0.765804,0.441823,0.395889,0.473045,0.457915,0.613846,1
1.51279,-0.710815,-1.62594,-0.890089,2.16526,1.36809,-0.631595,1.52093,-0.722704,-1.63288,-0.895295,2.15766,1.36185,-0.641357,1.56611,-0.787514,-1.67028,-0.928434,2.11762,1.32347,-0.693473,-0.892106,1.26187,0.725057,0.679549,0.778274,0.777067,1.00217,-0.892106,1.26187,0.725057,0.679549,0.778274,0.777067,1.00217,0.312669,-0.443389,0.935103,0.598705,-0.0691528,0.0731518,0.794619,-0.796474,0.423437,0.894451,2.11686,-0.495404,1.45908,-2.99661,-0.0492036,2.89748,-3.01595,-0.0504383,2.90631,-0.533234,0.766981,0.443362,0.383444,0.476438,0.446155,0.618772,1
1.50457,-0.698866,-1.61911,-0.88515,2.17275,1.37384,-0.621659,1.51278,-0.7108,-1.62596,-0.890151,2.16523,1.36799,-0.631557,1.55782,-0.775726,-1.6635,-0.922185,2.12488,1.33064,-0.684065,-0.885271,1.26371,0.727687,0.660719,0.777501,0.760445,1.01286,-0.885271,1.26371,0.727687,0.660719,0.777501,0.760445,1.01286,0.304566,-0.438835,0.943246,0.596853,-0.0792049,0.0724408,0.795139,-0.779397,0.451675,0.876459,2.08687,-0.495929,1.48702,-2.99928,-0.0525266,2.79334,-3.00991,-0.0501267,2.82085,-0.532476,0.768599,0.443921,0.370348,0.478728,0.431974,0.624056,1
1.49635,-0.686882,-1.61244,-0.880349,2.18014,1.37911,-0.611587,1.50457,-0.698857,-1.61915,-0.885185,2.17273,1.37372,-0.621625,1.54958,-0.763919,-1.65669,-0.916122,2.13217,1.33766,-0.674574,-0.880007,1.26581,0.731241,0.639665,0.78294,0.743212,1.02016,-0.880007,1.26581,0.731241,0.639665,0.78294,0.743212,1.02016,0.296639,-0.434021,0.951202,0.594742,-0.0891312,0.0719174,0.795717,-0.762146,0.4787,0.858372,2.05639,-0.49656,1.51401,-3.0484,-0.0631034,2.69927,-3.00979,-0.0521285,2.73326,-0.53231,0.770379,0.442459,0.35773,0.479773,0.414513,0.629869,1
1.48813,-0.674875,-1.60565,-0.875937,2.18789,1.38419,-0.601526,1.49635,-0.686876,-1.61241,-0.880446,2.18023,1.37906,-0.61159,1.54137,-0.752092,-1.64985,-0.910262,2.13951,1.34449,-0.665014,-0.878206,1.26817,0.733747,0.617647,0.79,0.721755,1.02753,-0.878206,1.26817,0.733747,0.617647,0.79,0.721755,1.02753,0.288888,-0.428967,0.958971,0.592384,-0.0989086,0.0715666,0.796352,-0.745031,0.503466,0.840004,2.0268,-0.497385,1.53958,-2.95815,-0.0825018,2.5566,-3.00604,-0.0573354,2.63712,-0.532476,0.772169,0.441948,0.343249,0.48383,0.397038,0.634879,1
1.4794,-0.662831,-1.59903,-0.871623,2.19606,1.38896,-0.591588,1.488,-0.674866,-1.60569,-0.875962,2.188,1.38411,-0.601557,1.53317,-0.74024,-1.64301,-0.904602,2.1469,1.35109,-0.655377,-0.878564,1.27096,0.732682,0.59637,0.793261,0.695017,1.0366,-0.878564,1.27096,0.732682,0.59637,0.793261,0.695017,1.0366,0.281318,-0.423694,0.966552,0.589798,-0.108502,0.0713998,0.797037,-0.727354,0.526145,0.821364,1.99686,-0.498217,1.56429,-2.99459,-0.0831604,2.47172,-3.00221,-0.0619373,2.53456,-0.537786,0.77409,0.43979,0.329791,0.491565,0.378709,0.637891,1
1.47073,-0.65075,-1.59256,-0.867921,2.20433,1.39338,-0.581688,1.47941,-0.662822,-1.59907,-0.871776,2.19608,1.38887,-0.591598,1.52497,-0.72836,-1.63618,-0.899146,2.15432,1.35742,-0.645653,-0.879071,1.27408,0.729987,0.574306,0.795909,0.664505,1.04616,-0.879071,1.27408,0.729987,0.574306,0.795909,0.664505,1.04616,0.273944,-0.418219,0.973944,0.586999,-0.117877,0.0714315,0.797769,-0.708277,0.547795,0.802567,1.96678,-0.498794,1.58763,-3.00794,-0.0577539,2.33417,-3.0008,-0.0668909,2.42698,-0.542424,0.776101,0.436183,0.31225,0.500089,0.359568,0.639652,1
1.46229,-0.638654,-1.58624,-0.864429,2.21219,1.39753,-0.571788,1.47078,-0.650746,-1.5926,-0.867973,2.20422,1.39331,-0.581688,1.51675,-0.716452,-1.62938,-0.893902,2.16179,1.36347,-0.635852,-0.882879,1.27721,0.727394,0.550981,0.804792,0.633825,1.05328,-0.882879,1.27721,0.727394,0.550981,0.804792,0.633825,1.05328,0.266766,-0.412557,0.981148,0.584,-0.127014,0.0716487,0.798547,-0.689992,0.567413,0.783766,1.93626,-0.499135,1.60997,-3.052,-0.0340432,2.23408,-3.00543,-0.0663561,2.31497,-0.544602,0.777979,0.431407,0.294731,0.503948,0.340555,0.640644,1
1.45358,-0.626525,-1.5804,-0.861129,2.22023,1.40183,-0.561802,1.46222,-0.638646,-1.58636,-0.864477,2.21223,1.39757,-0.571766,1.50846,-0.704513,-1.62261,-0.888886,2.16938,1.36924,-0.626003,-0.892098,1.28044,0.723061,0.525482,0.820087,0.60307,1.05667,-0.892098,1.28044,0.723061,0.525482,0.820087,0.60307,1.05667,0.259775,-0.406734,0.988163,0.580824,-0.135901,0.0720252,0.799366,-0.672911,0.584288,0.764459,1.90577,-0.49999,1.63151,-3.04854,-0.0855595,2.15358,-3.01274,-0.0669352,2.20526,-0.548764,0.779879,0.422124,0.277565,0.508501,0.325901,0.642013,1
1.44478,-0.614387,-1.57476,-0.857983,2.22832,1.40599,-0.551833,1.45356,-0.626523,-1.58045,-0.861168,2.22024,1.40179,-0.561806,1.50009,-0.692545,-1.6159,-0.884128,2.1771,1.37471,-0.616133,-0.900073,1.28372,0.715632,0.496129,0.833029,0.571411,1.0579,-0.900073,1.28372,0.715632,0.496129,0.833029,0.571411,1.0579,0.252983,-0.400764,0.994983,0.577491,-0.144513,0.0725584,0.800222,-0.652798,0.600889,0.743906,1.87546,-0.501071,1.65195,-3.03149,-0.108066,2.04414,-3.01943,-0.0702177,2.09779,-0.553101,0.781579,0.411342,0.261442,0.512173,0.312824,0.643,1
1.43585,-0.602267,-1.56955,-0.854592,2.23621,1.41032,-0.541892,1.44475,-0.614392,-1.57487,-0.857922,2.22827,1.40603,-0.55184,1.49167,-0.680546,-1.60928,-0.879647,2.18491,1.3799,-0.606252,-0.904397,1.28685,0.70386,0.465922,0.839219,0.54265,1.05914,-0.904397,1.28685,0.70386,0.465922,0.839219,0.54265,1.05914,0.24642,-0.394647,1.0016,0.574009,-0.152835,0.0732729,0.801116,-0.629666,0.61757,0.722349,1.84565,-0.502086,1.67113,-2.98039,-0.101525,1.91826,-3.0259,-0.0750278,1.99241,-0.558143,0.782787,0.397256,0.250552,0.512971,0.304193,0.643606,1
1.42624,-0.590098,-1.56489,-0.850925,2.24419,1.41355,-0.531886,1.43568,-0.602255,-1.56969,-0.854523,2.23623,1.41004,-0.541876,1.4832,-0.668519,-1.60279,-0.875437,2.19276,1.38485,-0.596356,-0.910268,1.2898,0.686267,0.438233,0.843883,0.520314,1.0611,-0.910268,1.2898,0.686267,0.438233,0.843883,0.520314,1.0611,0.240095,-0.388393,1.008,0.570397,-0.160872,0.0741898,0.802037,-0.607463,0.631868,0.700282,1.81575,-0.502524,1.68965,-2.99053,-0.0438154,1.85139,-3.02277,-0.0765826,1.88945,-0.569545,0.784211,0.379023,0.24512,0.514278,0.287019,0.644696,1
1.41663,-0.577858,-1.561,-0.847863,2.25224,1.41598,-0.521889,1.42624,-0.59008,-1.56508,-0.851076,2.24421,1.41335,-0.531888,1.47466,-0.656467,-1.5965,-0.871458,2.20066,1.38963,-0.586443,-0.918555,1.29224,0.664283,0.415732,0.847845,0.503833,1.06273,-0.918555,1.29224,0.664283,0.415732,0.847845,0.503833,1.06273,0.233992,-0.382024,1.0142,0.566687,-0.168645,0.0753155,0.802964,-0.587596,0.643304,0.678496,1.78615,-0.503319,1.70737,-2.96,-0.0794113,1.77186,-3.01081,-0.0801695,1.79347,-0.580324,0.786086,0.354994,0.235953,0.51575,0.26355,0.645538,1
1.40692,-0.565536,-1.55845,-0.84608,2.26029,1.41672,-0.51186,1.4166,-0.577838,-1.56134,-0.848183,2.25224,1.41556,-0.521881,1.46602,-0.644395,-1.59043,-0.867642,2.20858,1.39424,-0.576517,-0.93167,1.29421,0.637092,0.402907,0.849121,0.485474,1.0639,-0.93167,1.29421,0.637092,0.402907,0.849121,0.485474,1.0639,0.228082,-0.375573,1.02019,0.562937,-0.176162,0.0766551,0.803861,-0.571618,0.650409,0.658208,1.75628,-0.504166,1.72422,-2.98665,-0.0847936,1.68489,-2.99602,-0.0828747,1.70048,-0.591012,0.788582,0.319779,0.215619,0.517035,0.224804,0.646566,1
1.39705,-0.553183,-1.55646,-0.847759,2.26985,1.41687,-0.501812,1.40688,-0.565528,-1.55859,-0.846946,2.26067,1.41657,-0.511855,1.45722,-0.632301,-1.58466,-0.863923,2.21652,1.39861,-0.566578,-0.951507,1.2967,0.60139,0.394546,0.850461,0.452861,1.06541,-0.951507,1.2967,0.60139,0.394546,0.850461,0.452861,1.06541,0.222344,-0.369085,1.02599,0.559217,-0.183383,0.0782188,0.804692,-0.557193,0.652407,0.63878,1.72605,-0.505058,1.73994,-3.0237,-0.0891209,1.57249,-2.98943,-0.0808039,1.60733,-0.601725,0.791187,0.282004,0.161637,0.53338,0.182595,0.647664,1
1.3864,-0.540979,-1.55695,-0.851638,2.27948,1.41468,-0.491855,1.39685,-0.55322,-1.55708,-0.848309,2.26987,1.41628,-0.501835,1.44824,-0.620179,-1.5793,-0.860345,2.22447,1.40256,-0.556625,-0.971644,1.30038,0.551693,0.373527,0.852928,0.399078,1.06706,-0.971644,1.30038,0.551693,0.373527,0.852928,0.399078,1.06706,0.216821,-0.362599,1.0316,0.555581,-0.190178,0.0800303,0.805455,-0.534895,0.651454,0.616368,1.69625,-0.505607,1.75455,-2.97934,-0.0549197,1.46122,-2.9868,-0.0756877,1.51422,-0.618399,0.791999,0.223446,0.0870665,0.550136,0.121157,0.647694,1
1.377,-0.528977,-1.55944,-0.861459,2.28961,1.41286,-0.482207,1.38671,-0.541029,-1.55745,-0.853124,2.2796,1.41477,-0.491932,1.43908,-0.608017,-1.57447,-0.857158,2.23249,1.40593,-0.546655,-0.989138,1.30499,0.487631,0.313651,0.865372,0.326859,1.06885,-0.989138,1.30499,0.487631,0.313651,0.865372,0.326859,1.06885,0.211649,-0.35614,1.03696,0.552018,-0.196338,0.0821138,0.806216,-0.495391,0.649669,0.585383,1.66679,-0.506297,1.76823,-2.94617,-0.0690341,1.3679,-2.9846,-0.0733456,1.42027,-0.620808,0.790407,0.150293,-0.0430149,0.571148,0.0692687,0.644481,1
1.36832,-0.517157,-1.56335,-0.872021,2.29993,1.41177,-0.472961,1.37718,-0.529022,-1.5598,-0.861644,2.28965,1.41304,-0.482308,1.42974,-0.595819,-1.57032,-0.854801,2.24072,1.40853,-0.536673,-1.01019,1.30838,0.406613,0.199398,0.895331,0.237953,1.07001,-1.01019,1.30838,0.406613,0.199398,0.895331,0.237953,1.07001,0.207017,-0.349744,1.04199,0.54848,-0.201592,0.0844754,0.80709,-0.436282,0.643685,0.541712,1.63709,-0.507107,1.78101,-2.97039,-0.0809669,1.27738,-2.9812,-0.0755187,1.32193,-0.614195,0.786623,0.0697467,-0.172201,0.592104,0.0323952,0.637119,1
1.35822,-0.505587,-1.57342,-0.879939,2.31035,1.41174,-0.464172,1.36797,-0.517219,-1.56489,-0.87136,2.29995,1.41204,-0.473075,1.42022,-0.58361,-1.56708,-0.853829,2.24926,1.41026,-0.526696,-1.02914,1.3078,0.295737,0.0216533,0.93205,0.138558,1.06774,-1.02914,1.3078,0.295737,0.0216533,0.93205,0.138558,1.06774,0.203159,-0.343474,1.04656,0.544931,-0.205621,0.0871414,0.808193,-0.351482,0.630727,0.480208,1.60814,-0.507878,1.79325,-2.89489,-0.0771463,1.22474,-2.97029,-0.0742844,1.22689,-0.619948,0.780231,-0.0634144,-0.261103,0.610886,0.0148024,0.625248,1
1.3521,-0.494745,-1.57478,-0.889404,2.32081,1.42757,-0.455819,1.35922,-0.505769,-1.57124,-0.880326,2.31036,1.41571,-0.464281,1.41062,-0.571429,-1.565,-0.854788,2.25814,1.41115,-0.516775,-1.02714,1.30247,0.159865,-0.210595,0.967992,0.0580909,1.05864,-1.02714,1.30247,0.159865,-0.210595,0.967992,0.0580909,1.05864,0.200336,-0.337381,1.05051,0.541318,-0.208177,0.090155,0.809635,-0.240568,0.615402,0.401526,1.5786,-0.508807,1.80434,-2.95409,-0.0928283,1.10819,-2.95728,-0.0752206,1.1337,-0.585203,0.766843,-0.0977406,-0.346164,0.626687,0.164243,0.609564,1
1.34895,-0.483939,-1.57191,-0.88995,2.32987,1.44994,-0.446821,1.35285,-0.494754,-1.57372,-0.887174,2.32046,1.42921,-0.455658,1.40109,-0.559319,-1.56439,-0.857785,2.26734,1.41149,-0.50698,-1.01716,1.29303,-0.0154977,-0.416939,1.0016,0.0168817,1.04136,-1.01716,1.29303,-0.0154977,-0.416939,1.0016,0.0168817,1.04136,0.198618,-0.331547,1.05376,0.537705,-0.209259,0.0935295,0.811379,-0.138685,0.585116,0.320118,1.54902,-0.509502,1.81481,-2.95762,-0.0695169,1.04789,-2.94656,-0.0761185,1.04716,-0.521312,0.753795,-0.0751977,-0.321645,0.625284,0.384567,0.601592,1
1.33897,-0.473136,-1.58521,-0.891461,2.33804,1.45774,-0.438653,1.34725,-0.48394,-1.57595,-0.890191,2.32965,1.4463,-0.447029,1.39169,-0.547332,-1.56536,-0.862352,2.27683,1.41211,-0.497383,-0.997322,1.27656,-0.180783,-0.552032,1.02971,0.110425,1.01671,-0.997322,1.27656,-0.180783,-0.552032,1.02971,0.110425,1.01671,0.197744,-0.326021,1.05632,0.534207,-0.20939,0.0972045,0.813222,-0.0742553,0.553489,0.247047,1.5193,-0.510298,1.82401,-2.97157,-0.0796556,0.920081,-2.94597,-0.0792269,0.960279,-0.5272,0.741955,-0.198484,-0.291088,0.612131,0.456314,0.5873,1
1.33764,-0.463262,-1.59545,-0.90091,2.34346,1.471,-0.430485,1.34114,-0.473368,-1.58444,-0.893445,2.33736,1.45911,-0.438653,1.38277,-0.535536,-1.56715,-0.867731,2.28651,1.4148,-0.488009,-0.919141,1.25258,-0.201806,-0.597179,1.04273,0.442445,0.993622,-0.919141,1.25258,-0.201806,-0.597179,1.04273,0.442445,0.993622,0.197225,-0.320524,1.05831,0.530502,-0.209907,0.100975,0.815052,-0.0535951,0.571231,0.199322,1.48941,-0.511374,1.83203,-2.98977,-0.107533,0.801551,-2.95296,-0.0829858,0.867761,-0.451293,0.722742,-0.283018,-0.33179,0.569552,0.562,0.575238,1
1.33511,-0.453417,-1.60758,-0.900322,2.33878,1.4855,-0.423549,1.33734,-0.463269,-1.59592,-0.898401,2.34094,1.47131,-0.430793,1.37459,-0.523961,-1.56908,-0.872965,2.29617,1.42066,-0.47882,-0.839829,1.2292,-0.210971,-0.529093,1.02827,0.787589,0.976432,-0.839829,1.2292,-0.210971,-0.529093,1.02827,0.787589,0.976432,0.196585,-0.314814,1.05993,0.526395,-0.211873,0.104719,0.816733,-0.0739042,0.58714,0.178403,1.45986,-0.512355,1.83922,-2.95486,-0.0981033,0.718617,-2.9587,-0.0865204,0.770953,-0.394807,0.705439,-0.385046,-0.273573,0.426149,0.648454,0.552713,1
1.32136,-0.441797,-1.62058,-0.89477,2.33029,1.49529,-0.415522,1.33231,-0.452973,-1.6078,-0.899081,2.33783,1.48432,-0.423276,1.36698,-0.512608,-1.57192,-0.877679,2.30552,1.42874,-0.469804,-0.793816,1.20519,-0.384691,-0.484247,0.97794,0.932843,0.956764,-0.793816,1.20519,-0.384691,-0.484247,0.97794,0.932843,0.956764,0.195827,-0.309183,1.06123,0.522409,-0.214747,0.108665,0.818024,-0.0703209,0.546674,0.140998,1.43024,-0.513128,1.84519,-2.96211,-0.0773132,0.597298,-2.96711,-0.0882736,0.667099,-0.456165,0.708111,-0.486584,-0.170907,0.247772,0.665501,0.542821,1
1.31626,-0.431122,-1.63032,-0.888705,2.31855,1.50521,-0.409178,1.32352,-0.442033,-1.61976,-0.894642,2.32948,1.49532,-0.415943,1.36005,-0.501511,-1.57656,-0.882257,2.31391,1.43791,-0.461016,-0.697536,1.17456,-0.59477,-0.495836,0.830296,1.02597,0.928265,-0.697536,1.17456,-0.59477,-0.495836,0.830296,1.02597,0.928265,0.195373,-0.303857,1.06208,0.518934,-0.217593,0.113224,0.818866,-0.0208016,0.511019,0.0862098,1.40062,-0.513608,1.84989,-2.96131,-0.0480533,0.47003,-2.96761,-0.0846927,0.559346,-0.437947,0.703894,-0.537625,-0.0644768,0.0464236,0.673032,0.518377,1
1.30161,-0.421337,-1.64064,-0.846244,2.30528,1.51449,-0.403196,1.31387,-0.431344,-1.63046,-0.879606,2.31817,1.50505,-0.409269,1.35374,-0.490637,-1.58295,-0.88636,2.32021,1.44794,-0.452504,-0.658244,1.15679,-0.763143,-0.390717,0.541203,1.11741,0.897707,-0.658244,1.15679,-0.763143,-0.390717,0.541203,1.11741,0.897707,0.195199,-0.298716,1.06256,0.51623,-0.220401,0.11888,0.819022,-0.0216401,0.488689,0.0662574,1.37079,-0.514165,1.85375,-2.98314,-0.055629,0.386155,-2.96862,-0.0798664,0.449004,-0.521321,0.693002,-0.576852,0.401153,-0.149292,0.66546,0.493089,1
1.28568,-0.413684,-1.64476,-0.830402,2.34798,1.51664,-0.394621,1.30129,-0.42187,-1.63909,-0.852899,2.31927,1.51271,-0.402548,1.34724,-0.47982,-1.59072,-0.88893,2.32348,1.45845,-0.444264,-0.728494,1.16058,-0.892058,-0.175418,0.184335,1.13253,0.869856,-0.728494,1.16058,-0.892058,-0.175418,0.184335,1.13253,0.869856,0.19481,-0.293657,1.06301,0.514837,-0.223414,0.12607,0.818007,-0.081263,0.465822,0.0872092,1.34171,-0.515683,1.85718,-2.90823,-0.151807,0.342381,-2.96159,-0.0821037,0.34856,-0.615646,0.661365,-0.540409,0.585286,0.244988,0.581933,0.496429,1
1.27374,-0.407112,-1.65493,-0.839222,2.36255,1.52492,-0.38035,1.28668,-0.413954,-1.64627,-0.836567,2.34095,1.51817,-0.393197,1.34006,-0.469006,-1.59936,-0.888348,2.32346,1.46891,-0.436337,-0.804403,1.15669,-0.955194,0.268491,-0.162652,1.11002,0.83134,-0.804403,1.15669,-0.955194,0.268491,-0.162652,1.11002,0.83134,0.193541,-0.28865,1.06391,0.515185,-0.227078,0.134771,0.815388,-0.219502,0.44628,0.172859,1.31173,-0.51669,1.85901,-2.99826,-0.10075,0.183511,-2.95992,-0.0844381,0.247924,-0.663202,0.618946,-0.555644,0.491265,0.390921,0.560145,0.55987,1
1.25959,-0.400724,-1.67142,-0.854007,2.362,1.5272,-0.377011,1.27319,-0.407158,-1.65651,-0.840713,2.35877,1.52342,-0.383083,1.33188,-0.458385,-1.60824,-0.88262,2.32229,1.47891,-0.428715,-0.93954,1.12147,-0.947447,0.912812,-0.0928272,1.03804,0.803671,-0.93954,1.12147,-0.947447,0.912812,-0.0928272,1.03804,0.803671,0.190347,-0.283988,1.06585,0.517368,-0.232169,0.143718,0.811032,-0.478859,0.377778,0.322315,1.28248,-0.517462,1.85998,-2.92507,-0.0772178,0.0965834,-2.95741,-0.0875788,0.147161,-0.722847,0.576608,-0.63178,0.286126,0.397022,0.482903,0.517044,1
1.25031,-0.385889,-1.68178,-0.895674,2.36937,1.52533,-0.369821,1.26081,-0.398612,-1.66988,-0.860728,2.36398,1.52616,-0.376048,1.32233,-0.448256,-1.61686,-0.87306,2.32443,1.48804,-0.420967,-1.09503,1.05351,-0.903204,1.12076,0.507329,0.925579,0.852888,-1.09503,1.05351,-0.903204,1.12076,0.507329,0.925579,0.852888,0.185089,-0.280239,1.06871,0.520445,-0.238302,0.150851,0.805973,-0.643115,0.269168,0.379792,1.25328,-0.518521,1.86004,-2.92015,-0.105876,0.00631809,-2.95087,-0.0943346,0.0499308,-0.720167,0.623672,-0.64915,-0.226144,0.449425,0.37297,0.511459,1
1.24736,-0.371782,-1.68652,-0.921157,2.38389,1.53711,-0.36213,1.2519,-0.386071,-1.68037,-0.891628,2.37116,1.52874,-0.369696,1.31167,-0.438827,-1.62553,-0.864542,2.33091,1.49622,-0.412719,-1.18196,0.972625,-0.951278,0.731852,0.855781,0.835265,0.910196,-1.18196,0.972625,-0.951278,0.731852,0.855781,0.835265,0.910196,0.179466,-0.277592,1.07137,0.523174,-0.243592,0.156019,0.80163,-0.565582,0.175171,0.27411,1.22378,-0.518887,1.85904,-2.94976,-0.0365794,-0.0999212,-2.94573,-0.0940306,-0.0470443,-0.643157,0.67045,-0.609841,-0.566145,0.529873,0.408857,0.505899,1
1.23958,-0.361386,-1.69716,-0.91672,2.39553,1.54711,-0.355549,1.24615,-0.37271,-1.68799,-0.913677,2.38317,1.53667,-0.362407,1.30046,-0.429819,-1.63501,-0.861285,2.33852,1.50335,-0.404418,-1.21778,0.958418,-1.07101,0.0171056,0.781776,0.700693,0.871285,-1.21778,0.958418,-1.07101,0.0171056,0.781776,0.700693,0.871285,0.175618,-0.275669,1.07277,0.525305,-0.246082,0.161033,0.798477,-0.310262,0.136865,0.0927345,1.19497,-0.519669,1.85733,-2.88091,-0.0782311,-0.171399,-2.93496,-0.0884043,-0.144707,-0.608863,0.684329,-0.621509,-0.55435,0.570098,0.437658,0.488684,1
1.23786,-0.349891,-1.70757,-0.918996,2.40321,1.54929,-0.354291,1.24109,-0.361111,-1.6971,-0.918398,2.39454,1.54516,-0.35688,1.28942,-0.420394,-1.64507,-0.86526,2.34581,1.50936,-0.396522,-1.15251,1.05413,-1.08407,-0.809832,0.778601,0.595262,0.82388,-1.15251,1.05413,-1.08407,-0.809832,0.778601,0.595262,0.82388,0.174756,-0.273747,1.07266,0.526408,-0.245115,0.166735,0.796877,0.019724,0.191191,-0.0804738,1.16613,-0.520567,1.85485,-2.88409,-0.0897527,-0.247455,-2.92487,-0.0786956,-0.240269,-0.51559,0.705024,-0.624934,-0.537365,0.574017,0.399306,0.422306,1
1.23614,-0.339307,-1.71765,-0.930021,2.413,1.55059,-0.351543,1.23786,-0.350119,-1.70749,-0.921183,2.40374,1.54907,-0.353919,1.27933,-0.410085,-1.65486,-0.874748,2.35371,1.51523,-0.388885,-1.01899,1.14789,-1.01757,-1.19559,0.904995,0.658269,0.813173,-1.01899,1.14789,-1.01757,-1.19559,0.904995,0.658269,0.813173,0.176257,-0.271302,1.0715,0.525946,-0.242186,0.172538,0.796842,0.189404,0.269363,-0.153143,1.13731,-0.521458,1.85125,-2.88203,-0.089103,-0.35975,-2.90809,-0.0773549,-0.329397,-0.43191,0.707783,-0.627852,-0.552729,0.592968,0.353595,0.373418,1
1.22306,-0.328923,-1.72827,-0.942013,2.42128,1.55223,-0.346378,1.2333,-0.339357,-1.71778,-0.930263,2.41262,1.55068,-0.350939,1.27041,-0.399252,-1.66431,-0.885051,2.36254,1.52169,-0.381569,-0.900433,1.1714,-1.0072,-1.02416,0.982782,0.720732,0.758249,-0.900433,1.1714,-1.0072,-1.02416,0.982782,0.720732,0.758249,0.178268,-0.268412,1.07022,0.524704,-0.239483,0.177899,0.797299,0.156811,0.298195,-0.114083,1.10811,-0.522198,1.84668,-2.91984,-0.074017,-0.457144,-2.90246,-0.0777138,-0.420142,-0.473551,0.703295,-0.639616,-0.569614,0.587357,0.305399,0.351911,1
1.21573,-0.318858,-1.73842,-0.951158,2.4308,1.56117,-0.341806,1.22449,-0.329003,-1.72815,-0.941301,2.42159,1.55405,-0.346526,1.26269,-0.38831,-1.67384,-0.893709,2.37172,1.52804,-0.375039,-0.762735,1.17294,-1.03333,-0.843784,0.983366,0.645854,0.648647,-0.762735,1.17294,-1.03333,-0.843784,0.983366,0.645854,0.648647,0.179996,-0.26535,1.06929,0.523672,-0.237505,0.18278,0.797465,0.141062,0.307716,-0.0726954,1.07926,-0.522839,1.84107,-2.88525,-0.0641346,-0.561261,-2.89663,-0.0763046,-0.513197,-0.469666,0.694526,-0.64581,-0.574487,0.59079,0.33123,0.332327,1
1.21647,-0.309281,-1.74803,-0.956877,2.44021,1.57467,-0.336271,1.21774,-0.31898,-1.73829,-0.950301,2.43077,1.56231,-0.341565,1.25592,-0.377386,-1.68357,-0.901746,2.38086,1.53348,-0.369393,-0.694598,1.16796,-1.05066,-0.875813,0.975527,0.528055,0.566783,-0.694598,1.16796,-1.05066,-0.875813,0.975527,0.528055,0.566783,0.181838,-0.262335,1.06851,0.522997,-0.235399,0.187309,0.797482,0.177213,0.294336,-0.0819082,1.05022,-0.52361,1.83485,-2.90332,-0.0770867,-0.622046,-2.89323,-0.0790758,-0.604474,-0.394497,0.681054,-0.644593,-0.55131,0.593544,0.411838,0.331218,1
1.20844,-0.299156,-1.75835,-0.963098,2.4493,1.58098,-0.332834,1.21428,-0.309144,-1.74821,-0.957002,2.44013,1.57287,-0.336796,1.24912,-0.366557,-1.69346,-0.910302,2.38995,1.53821,-0.364219,-0.756379,1.15337,-1.06561,-0.952038,0.971807,0.486754,0.543404,-0.756379,1.15337,-1.06561,-0.952038,0.971807,0.486754,0.543404,0.183894,-0.259618,1.06757,0.522659,-0.232688,0.191653,0.797467,0.18047,0.252923,-0.109191,1.02057,-0.524766,1.82767,-2.96578,-0.115591,-0.718021,-2.90382,-0.0812811,-0.696992,-0.40678,0.674008,-0.648923,-0.527952,0.593497,0.427746,0.313853,1
1.19582,-0.289396,-1.76929,-0.97279,2.45808,1.58375,-0.329323,1.20729,-0.299247,-1.7585,-0.963965,2.44922,1.5801,-0.332816,1.2421,-0.355889,-1.70343,-0.919204,2.39903,1.54324,-0.359162,-0.748122,1.13358,-1.0706,-0.955059,0.974776,0.585507,0.54043,-0.748122,1.13358,-1.0706,-0.955059,0.974776,0.585507,0.54043,0.185899,-0.257174,1.06644,0.522487,-0.229882,0.195907,0.797359,0.166256,0.236244,-0.126232,0.991131,-0.525721,1.81957,-2.94345,-0.0955284,-0.810254,-2.91557,-0.0839029,-0.788775,-0.462856,0.66493,-0.658607,-0.535852,0.590445,0.405093,0.298387,1
1.1893,-0.282877,-1.78017,-0.982491,2.46842,1.58602,-0.329988,1.19735,-0.290206,-1.76927,-0.972792,2.45847,1.58363,-0.330367,1.23559,-0.345407,-1.71341,-0.927825,2.40817,1.54939,-0.354154,-0.654538,1.11373,-1.0687,-0.896111,0.981678,0.721214,0.533103,-0.654538,1.11373,-1.0687,-0.896111,0.981678,0.721214,0.533103,0.187724,-0.254748,1.0652,0.522138,-0.227699,0.200029,0.797191,0.152852,0.244536,-0.127708,0.962194,-0.527019,1.81049,-2.89373,-0.129735,-0.907218,-2.92139,-0.0916311,-0.878255,-0.462886,0.625298,-0.667548,-0.546667,0.602557,0.36629,0.241656,1
1.18803,-0.276371,-1.79048,-0.98916,2.47731,1.59627,-0.329278,1.19061,-0.28288,-1.78003,-0.981733,2.46806,1.58801,-0.329644,1.22936,-0.335077,-1.72343,-0.936003,2.41732,1.55619,-0.34931,-0.677812,1.10048,-1.07726,-0.858832,0.979784,0.734365,0.506604,-0.677812,1.10048,-1.07726,-0.858832,0.979784,0.734365,0.506604,0.189318,-0.252378,1.06394,0.52183,-0.22599,0.204025,0.796866,0.125454,0.223721,-0.126133,0.933152,-0.528047,1.80032,-2.90415,-0.102854,-1.01771,-2.92174,-0.100065,-0.969745,-0.413365,0.587067,-0.6705,-0.531574,0.599846,0.40087,0.200319,1
1.18021,-0.270139,-1.80117,-0.994654,2.48494,1.60851,-0.326802,1.18639,-0.276439,-1.79057,-0.988867,2.47699,1.59677,-0.328836,1.22255,-0.324969,-1.73358,-0.944127,2.42648,1.5626,-0.344885,-0.774237,1.0677,-1.09625,-0.880402,0.982502,0.645856,0.445894,-0.774237,1.0677,-1.09625,-0.880402,0.982502,0.645856,0.445894,0.190685,-0.250424,1.06265,0.522129,-0.224021,0.207847,0.796238,0.0984311,0.162094,-0.137821,0.904153,-0.529186,1.78915,-2.89992,-0.113887,-1.11651,-2.9208,-0.10774,-1.06426,-0.423416,0.548307,-0.675917,-0.505271,0.584554,0.459166,0.180833,1
1.17238,-0.263998,-1.8119,-1.00163,2.49293,1.61743,-0.324889,1.18021,-0.270161,-1.80118,-0.995026,2.48503,1.60768,-0.326943,1.21539,-0.315355,-1.74388,-0.952441,2.43571,1.56841,-0.341181,-0.761124,0.997405,-1.1101,-0.89966,0.993615,0.602198,0.354322,-0.761124,0.997405,-1.1101,-0.89966,0.993615,0.602198,0.354322,0.191906,-0.249078,1.06123,0.523098,-0.221627,0.211254,0.795375,0.0865929,0.10202,-0.157467,0.875131,-0.529981,1.77684,-2.9022,-0.0794351,-1.23134,-2.91458,-0.108132,-1.16541,-0.430165,0.513565,-0.680162,-0.491923,0.572233,0.49024,0.162916,1
1.16505,-0.263047,-1.82307,-1.0092,2.50161,1.62064,-0.332528,1.1725,-0.265295,-1.81201,-1.00178,2.4931,1.616,-0.327277,1.20867,-0.306427,-1.75427,-0.960671,2.44494,1.57445,-0.338206,-0.684329,0.921023,-1.11509,-0.866004,0.98458,0.685624,0.287774,-0.684329,0.921023,-1.11509,-0.866004,0.98458,0.685624,0.287774,0.192946,-0.248184,1.05967,0.524362,-0.21939,0.214184,0.794379,0.0658733,0.0687998,-0.170811,0.846056,-0.530814,1.76331,-2.90756,-0.0833929,-1.35283,-2.90561,-0.102967,-1.27098,-0.436236,0.433796,-0.687987,-0.485274,0.566709,0.461949,0.0567789,1
1.15398,-0.269512,-1.83409,-1.01663,2.51104,1.61788,-0.350011,1.16411,-0.264901,-1.82303,-1.00917,2.5018,1.61915,-0.334989,1.20231,-0.298138,-1.7647,-0.968498,2.45397,1.58145,-0.335625,-0.678922,0.859275,-1.12035,-0.814768,0.953802,0.805823,0.266682,-0.678922,0.859275,-1.12035,-0.814768,0.953802,0.805823,0.266682,0.193636,-0.247578,1.058,0.525755,-0.217743,0.216887,0.793177,0.0227596,0.038166,-0.178685,0.817114,-0.532128,1.74879,-2.89413,-0.131351,-1.4523,-2.90125,-0.102658,-1.37923,-0.483325,0.286259,-0.69383,-0.481354,0.570647,0.364371,-0.143856,1
1.1441,-0.287259,-1.84369,-1.01893,2.52025,1.61917,-0.35836,1.15428,-0.272333,-1.83373,-1.01535,2.51098,1.6189,-0.347727,1.19579,-0.290538,-1.77521,-0.97599,2.46276,1.58907,-0.333512,-0.715299,0.775284,-1.13022,-0.792113,0.931726,0.827119,0.191503,-0.715299,0.775284,-1.13022,-0.792113,0.931726,0.827119,0.191503,0.193893,-0.247417,1.05622,0.527559,-0.216445,0.219391,0.791644,-0.0225753,-0.0249155,-0.191501,0.787874,-0.533433,1.73303,-2.92403,-0.13051,-1.57601,-2.90405,-0.103687,-1.49037,-0.516955,0.0327819,-0.684839,-0.429438,0.574846,0.300978,-0.248479,1
1.14062,-0.293835,-1.8526,-1.01369,2.52981,1.62398,-0.360713,1.1457,-0.284467,-1.84352,-1.01705,2.52034,1.62005,-0.356861,1.18889,-0.284212,-1.78582,-0.983383,2.47146,1.59619,-0.332989,-0.76092,0.593108,-1.14277,-0.791903,0.931667,0.705287,-0.0614268,-0.76092,0.593108,-1.14277,-0.791903,0.931667,0.705287,-0.0614268,0.193676,-0.248286,1.05429,0.53051,-0.214928,0.221124,0.789601,-0.081138,-0.165164,-0.217912,0.760206,-0.533235,1.71678,-2.76683,0.0197649,-1.62454,-2.89077,-0.0935908,-1.5961,-0.48263,-0.0962274,-0.667812,-0.303083,0.583515,0.277963,-0.277237,1
1.12996,-0.306751,-1.86429,-1.00317,2.53865,1.63744,-0.364734,1.13882,-0.29542,-1.8533,-1.01237,2.52963,1.62614,-0.36113,1.18142,-0.280402,-1.79649,-0.990613,2.48022,1.60186,-0.335182,-0.833729,0.247836,-1.14375,-0.75974,0.944743,0.523243,-0.385322,-0.833729,0.247836,-1.14375,-0.75974,0.944743,0.523243,-0.385322,0.192645,-0.251106,1.05213,0.5354,-0.212819,0.221215,0.786841,-0.196431,-0.4095,-0.259345,0.731604,-0.534023,1.69945,-2.86016,-0.0787616,-1.73286,-2.87743,-0.0844257,-1.69819,-0.514649,-0.26349,-0.677959,-0.125573,0.584318,0.35581,-0.295524,1
1.12289,-0.309755,-1.87562,-0.992373,2.54433,1.65572,-0.368044,1.13086,-0.304273,-1.8642,-1.0031,2.53786,1.63865,-0.364556,1.17353,-0.280012,-1.80705,-0.996987,2.48911,1.60625,-0.339516,-0.854879,-0.136816,-1.12006,-0.616144,0.95902,0.424025,-0.532739,-0.854879,-0.136816,-1.12006,-0.616144,0.95902,0.424025,-0.532739,0.190334,-0.256269,1.04976,0.542057,-0.21041,0.219289,0.783463,-0.346466,-0.638846,-0.281363,0.70281,-0.535036,1.68136,-2.87942,-0.101274,-1.80897,-2.86705,-0.0810368,-1.79338,-0.50645,-0.297434,-0.685727,0.0461445,0.552186,0.494778,-0.285285,1
1.11675,-0.317539,-1.88604,-0.990259,2.54942,1.66566,-0.375941,1.12312,-0.31095,-1.87539,-0.994544,2.54419,1.65364,-0.369191,1.1657,-0.282577,-1.81742,-1.00135,2.49811,1.61049,-0.344395,-0.825436,-0.394451,-1.10205,-0.33851,0.968168,0.480834,-0.514005,-0.825436,-0.394451,-1.10205,-0.33851,0.968168,0.480834,-0.514005,0.186512,-0.263038,1.04746,0.549535,-0.208657,0.215887,0.779658,-0.498913,-0.748259,-0.255128,0.674027,-0.535551,1.66288,-2.8783,-0.051564,-1.84808,-2.86059,-0.0736296,-1.87751,-0.489508,-0.349621,-0.686219,0.110915,0.513132,0.55171,-0.315468,1
1.11169,-0.334726,-1.8958,-1.00462,2.55597,1.66979,-0.388213,1.11702,-0.31989,-1.88588,-0.994379,2.54979,1.66421,-0.377035,1.15796,-0.286947,-1.82779,-1.00286,2.50704,1.61604,-0.34901,-0.832482,-0.532135,-1.11849,-0.00755982,0.946711,0.694217,-0.477492,-0.832482,-0.532135,-1.11849,-0.00755982,0.946711,0.694217,-0.477492,0.181117,-0.270367,1.04548,0.557299,-0.208556,0.211994,0.77523,-0.655915,-0.773335,-0.207062,0.645608,-0.536745,1.6426,-2.84188,-0.119406,-2.028,-2.85574,-0.0710343,-1.96521,-0.462654,-0.477787,-0.680176,-0.017694,0.48928,0.537487,-0.392034,1
1.10481,-0.346426,-1.90465,-1.01089,2.56676,1.66778,-0.39689,1.11124,-0.333354,-1.89557,-1.0026,2.55703,1.66826,-0.387314,1.15019,-0.292142,-1.83833,-1.00178,2.51554,1.62366,-0.353491,-0.831555,-0.577669,-1.13852,0.222166,0.879747,0.920817,-0.482221,-0.831555,-0.577669,-1.13852,0.222166,0.879747,0.920817,-0.482221,0.174452,-0.277552,1.04377,0.565226,-0.210335,0.208384,0.76997,-0.753831,-0.74324,-0.17463,0.617096,-0.537927,1.62181,-2.85125,-0.118184,-2.0792,-2.85396,-0.0786828,-2.05206,-0.453831,-0.542841,-0.663271,-0.0911297,0.512176,0.441227,-0.433991,1
1.09732,-0.356946,-1.91444,-1.01328,2.57795,1.6725,-0.402808,1.10466,-0.346131,-1.90489,-1.00992,2.56686,1.66946,-0.3962,1.14265,-0.298006,-1.84893,-0.999957,2.52341,1.63252,-0.358437,-0.787262,-0.672095,-1.13459,0.171341,0.810203,0.973406,-0.5712,-0.787262,-0.672095,-1.13459,0.171341,0.810203,0.973406,-0.5712,0.167292,-0.284701,1.04194,0.573272,-0.212918,0.204952,0.764212,-0.760771,-0.773154,-0.221512,0.588391,-0.538783,1.60008,-2.87046,-0.0855803,-2.17299,-2.86308,-0.0934341,-2.14339,-0.453323,-0.589398,-0.655063,-0.133221,0.545459,0.39983,-0.443718,1
1.0938,-0.368256,-1.92505,-1.02082,2.584,1.68952,-0.409297,1.09831,-0.357144,-1.91465,-1.01457,2.57666,1.67558,-0.402951,1.13551,-0.305237,-1.85941,-0.999665,2.53093,1.64093,-0.364427,-0.745568,-0.863537,-1.11082,-0.0901118,0.80169,0.839233,-0.702919,-0.745568,-0.863537,-1.11082,-0.0901118,0.80169,0.839233,-0.702919,0.160269,-0.292704,1.03939,0.581563,-0.214639,0.200758,0.758559,-0.731705,-0.901959,-0.336425,0.559742,-0.540021,1.57712,-2.86486,-0.123745,-2.29644,-2.86198,-0.0995117,-2.23803,-0.417087,-0.630187,-0.656438,-0.211556,0.530703,0.48594,-0.4487,1
1.08981,-0.378021,-1.93602,-1.03499,2.59028,1.70249,-0.41573,1.09368,-0.36787,-1.92514,-1.02248,2.58406,1.68851,-0.409283,1.1286,-0.313926,-1.86963,-1.00137,2.53872,1.64788,-0.371298,-0.735405,-0.989095,-1.0827,-0.262649,0.86417,0.662781,-0.764803,-0.735405,-0.989095,-1.0827,-0.262649,0.86417,0.662781,-0.764803,0.153438,-0.301862,1.03607,0.590142,-0.214889,0.195291,0.75327,-0.723457,-0.992858,-0.410082,0.531103,-0.540925,1.55374,-2.86396,-0.090456,-2.33783,-2.86038,-0.1023,-2.33189,-0.38797,-0.64095,-0.663864,-0.336177,0.51554,0.546096,-0.44432,1
1.07895,-0.388919,-1.94689,-1.04513,2.59629,1.70975,-0.42227,1.08809,-0.378304,-1.936,-1.03398,2.59021,1.70107,-0.415757,1.12181,-0.323396,-1.87969,-1.00411,2.54702,1.65406,-0.378385,-0.721569,-1.03648,-1.07343,-0.32108,0.910456,0.660805,-0.754461,-0.721569,-1.03648,-1.07343,-0.32108,0.910456,0.660805,-0.754461,0.146575,-0.311589,1.03228,0.598746,-0.214396,0.188992,0.748211,-0.735116,-1.01092,-0.449053,0.50197,-0.542241,1.5293,-2.91327,-0.131577,-2.4435,-2.86619,-0.109004,-2.42558,-0.428584,-0.655237,-0.67196,-0.410163,0.492673,0.55694,-0.438845,1
1.06544,-0.402056,-1.95825,-1.05862,2.60415,1.71291,-0.432253,1.07829,-0.389479,-1.94701,-1.04597,2.59675,1.70873,-0.423131,1.11535,-0.333211,-1.88978,-1.00776,2.55537,1.66113,-0.385334,-0.665513,-1.06446,-1.08606,-0.451866,0.880944,0.84095,-0.73555,-0.665513,-1.06446,-1.08606,-0.451866,0.880944,0.84095,-0.73555,0.139735,-0.32137,1.02797,0.606983,-0.213899,0.182542,0.743302,-0.715073,-1.00423,-0.520923,0.473562,-0.543179,1.50355,-2.84082,-0.0938058,-2.57492,-2.87028,-0.107392,-2.51609,-0.499103,-0.688451,-0.684744,-0.508587,0.487756,0.517789,-0.469199,1
1.05467,-0.414487,-1.96962,-1.07049,2.61144,1.717,-0.441827,1.06613,-0.40188,-1.95825,-1.05822,2.604,1.71314,-0.432151,1.10922,-0.343213,-1.90001,-1.01295,2.56332,1.6696,-0.392147,-0.648995,-1.07773,-1.10516,-0.645843,0.825847,0.966233,-0.725101,-0.648995,-1.07773,-1.10516,-0.645843,0.825847,0.966233,-0.725101,0.133143,-0.33113,1.0229,0.614781,-0.213285,0.176258,0.738571,-0.682408,-1.0063,-0.605926,0.44576,-0.544206,1.47717,-2.78017,-0.102729,-2.63838,-2.86228,-0.106604,-2.60996,-0.545536,-0.712738,-0.696039,-0.575419,0.481173,0.473931,-0.496793,1
1.04411,-0.425735,-1.98041,-1.08039,2.61387,1.72488,-0.449574,1.05472,-0.414191,-1.96947,-1.07,2.61022,1.71795,-0.44137,1.10267,-0.353422,-1.91042,-1.01977,2.57087,1.67844,-0.398997,-0.748738,-1.10739,-1.12385,-0.804456,0.79474,0.930064,-0.741222,-0.748738,-1.10739,-1.12385,-0.804456,0.79474,0.930064,-0.741222,0.126653,-0.341113,1.01714,0.62262,-0.211973,0.170022,0.733829,-0.698827,-1.04289,-0.675315,0.417677,-0.545443,1.44962,-2.80837,-0.123686,-2.755,-2.84875,-0.109305,-2.70521,-0.585536,-0.723128,-0.699934,-0.606125,0.43002,0.464419,-0.505772,1
1.03518,-0.436892,-1.99118,-1.09173,2.61157,1.73646,-0.456578,1.04452,-0.425712,-1.98041,-1.08075,2.61269,1.72581,-0.449388,1.09499,-0.364034,-1.92101,-1.02791,2.57827,1.68656,-0.406195,-0.886435,-1.16233,-1.14377,-0.930677,0.79038,0.816467,-0.797158,-0.886435,-1.16233,-1.14377,-0.930677,0.79038,0.816467,-0.797158,0.11991,-0.351608,1.01081,0.631047,-0.209584,0.163521,0.728776,-0.747487,-1.09968,-0.738785,0.389367,-0.546964,1.42136,-2.83099,-0.152117,-2.82625,-2.83639,-0.113688,-2.79873,-0.598078,-0.728581,-0.701701,-0.638119,0.333004,0.49906,-0.503825,1
1.02677,-0.448727,-2.00233,-1.10369,2.60735,1.7472,-0.465054,1.03531,-0.437061,-1.99128,-1.09188,2.61109,1.73625,-0.456946,1.0863,-0.375078,-1.93176,-1.03701,2.58549,1.6938,-0.413873,-0.969714,-1.20125,-1.15828,-1.01306,0.759537,0.741499,-0.844498,-0.969714,-1.20125,-1.15828,-1.01306,0.759537,0.741499,-0.844498,0.112814,-0.362541,1.00398,0.640099,-0.206227,0.156715,0.723315,-0.785215,-1.12496,-0.789586,0.360881,-0.548412,1.39214,-2.84853,-0.144726,-2.92205,-2.8277,-0.122035,-2.8951,-0.595267,-0.736484,-0.705683,-0.666783,0.218592,0.533935,-0.51181,1
1.01603,-0.460949,-2.01411,-1.11658,2.59491,1.7546,-0.474737,1.02619,-0.448824,-2.00249,-1.10392,2.6053,1.74636,-0.465356,1.07709,-0.386332,-1.94259,-1.04664,2.59197,1.70085,-0.421774,-1.0004,-1.20944,-1.16147,-1.04747,0.636402,0.766506,-0.848086,-1.0004,-1.20944,-1.16147,-1.04747,0.636402,0.766506,-0.848086,0.105507,-0.373485,0.996755,0.649399,-0.202368,0.150066,0.717501,-0.801512,-1.10169,-0.824856,0.332585,-0.549316,1.3617,-2.82965,-0.0904024,-3.044,-2.82111,-0.123025,-2.99094,-0.610587,-0.746167,-0.715191,-0.699392,0.0294057,0.537509,-0.529626,1
1.00243,-0.471581,-2.02601,-1.12912,2.56977,1.7567,-0.483144,1.01532,-0.460551,-2.01414,-1.11649,2.59173,1.75328,-0.474418,1.06777,-0.39763,-1.95343,-1.0566,2.5969,1.70844,-0.429643,-0.996921,-1.21102,-1.16222,-1.08359,0.435719,0.854079,-0.838537,-0.996921,-1.21102,-1.16222,-1.08359,0.435719,0.854079,-0.838537,0.0981941,-0.384084,0.989164,0.658603,-0.19835,0.144128,0.711426,-0.796324,-1.05929,-0.862861,0.303869,-0.550244,1.33003,-2.87161,-0.0928879,-3.16652,-2.82938,-0.122799,-3.08927,-0.653373,-0.739506,-0.725789,-0.725188,-0.271328,0.482608,-0.535007,1
0.990279,-0.481086,-2.0368,-1.14,2.56477,1.7553,-0.489365,1.0028,-0.471299,-2.02573,-1.12871,2.57481,1.75583,-0.482597,1.05849,-0.408995,-1.96433,-1.06697,2.59966,1.7167,-0.437548,-0.992033,-1.22322,-1.17184,-1.13485,0.173123,0.911055,-0.854043,-0.992033,-1.22322,-1.17184,-1.13485,0.173123,0.911055,-0.854043,0.0910368,-0.394286,0.981157,0.66766,-0.194089,0.139183,0.705115,-0.781873,-1.02482,-0.908217,0.275427,-0.551025,1.29747,-2.84415,-0.078094,-3.25607,-2.8407,-0.115755,-3.19262,-0.682122,-0.720905,-0.724669,-0.730306,-0.348878,0.385975,-0.518176,1
0.978136,-0.495167,-2.04812,-1.15011,2.57964,1.75083,-0.498275,0.990282,-0.48223,-2.03693,-1.13981,2.56974,1.75453,-0.490037,1.04902,-0.420455,-1.97536,-1.07783,2.59925,1.72499,-0.445665,-1.03492,-1.23146,-1.19085,-1.1875,-0.230942,0.868638,-0.883061,-1.03492,-1.23146,-1.19085,-1.1875,-0.230942,0.868638,-0.883061,0.0841438,-0.404162,0.972729,0.676779,-0.189065,0.135588,0.698455,-0.765877,-0.996182,-0.950339,0.247665,-0.551651,1.26373,-2.77622,-0.0625312,-3.37427,-2.83902,-0.102064,-3.2984,-0.708801,-0.747125,-0.727527,-0.722769,-0.196109,0.258357,-0.526095,1
0.969688,-0.508693,-2.05932,-1.16272,2.59811,1.75411,-0.50839,0.97906,-0.495028,-2.04809,-1.15073,2.58054,1.75276,-0.498576,1.03897,-0.43185,-1.98654,-1.08906,2.59513,1.73236,-0.4539,-1.11119,-1.21161,-1.20363,-1.21757,-0.624296,0.720709,-0.881413,-1.11119,-1.21161,-1.20363,-1.21757,-0.624296,0.720709,-0.881413,0.0775396,-0.413735,0.96402,0.686092,-0.182758,0.133582,0.6914,-0.756157,-0.963192,-0.969685,0.22023,-0.552779,1.22941,-2.74345,-0.112796,-3.43194,-2.82499,-0.0915395,-3.40317,-0.692861,-0.768424,-0.727764,-0.736617,0.0298082,0.217442,-0.544901,1
0.960263,-0.51946,-2.07046,-1.17552,2.59755,1.76273,-0.517308,0.969444,-0.508003,-2.05931,-1.16277,2.59336,1.75544,-0.50809,1.02832,-0.443109,-1.99777,-1.10039,2.58941,1.73802,-0.462022,-1.16821,-1.20154,-1.20266,-1.21056,-0.604037,0.507128,-0.86045,-1.16821,-1.20154,-1.20266,-1.21056,-0.604037,0.507128,-0.86045,0.0709002,-0.423171,0.955245,0.695549,-0.175272,0.13211,0.684133,-0.791056,-0.954766,-0.969253,0.192022,-0.55411,1.19426,-2.82082,-0.133115,-3.51481,-2.81246,-0.0908115,-3.50181,-0.680547,-0.763509,-0.726882,-0.751241,0.0814617,0.247112,-0.55286,1
0.954429,-0.530666,-2.08186,-1.18764,2.60439,1.77932,-0.526256,0.961161,-0.51957,-2.07053,-1.17535,2.5994,1.76472,-0.517315,1.01737,-0.454536,-2.00899,-1.11164,2.58596,1.74189,-0.470121,-1.17668,-1.24369,-1.20083,-1.20064,-0.166284,0.334051,-0.873957,-1.17668,-1.24369,-1.20083,-1.20064,-0.166284,0.334051,-0.873957,0.0636372,-0.432839,0.946448,0.705121,-0.167302,0.129156,0.676856,-0.870778,-0.982494,-0.981919,0.163935,-0.555129,1.15806,-2.80876,-0.101906,-3.61983,-2.803,-0.0961576,-3.59467,-0.629419,-0.7613,-0.728683,-0.759924,0.184312,0.374304,-0.561347,1
0.946789,-0.543267,-2.09284,-1.19858,2.61419,1.78407,-0.533821,0.953977,-0.531015,-2.08176,-1.18734,2.60513,1.77636,-0.52591,1.00657,-0.466326,-2.0202,-1.12296,2.58632,1.74495,-0.478459,-1.14027,-1.28006,-1.20105,-1.22265,0.216179,0.322325,-0.910082,-1.14027,-1.28006,-1.20105,-1.22265,0.216179,0.322325,-0.910082,0.055595,-0.442769,0.937469,0.7147,-0.159536,0.123979,0.669612,-0.923905,-0.985331,-1.01344,0.136207,-0.556346,1.12104,-2.77272,-0.121695,-3.70188,-2.79147,-0.103464,-3.68303,-0.597808,-0.769405,-0.726416,-0.75615,0.278761,0.391235,-0.553615,1
0.936088,-0.555101,-2.10377,-1.20974,2.61321,1.78366,-0.542971,0.946024,-0.543075,-2.09283,-1.19863,2.61149,1.78278,-0.534217,0.99624,-0.478224,-2.03141,-1.13453,2.58887,1.74879,-0.487051,-1.07743,-1.2699,-1.20132,-1.25376,0.32343,0.489281,-0.929519,-1.07743,-1.2699,-1.20132,-1.25376,0.32343,0.489281,-0.929519,0.0471867,-0.452477,0.928189,0.723995,-0.152424,0.117675,0.662383,-0.924441,-0.932242,-1.04411,0.108138,-0.557452,1.08356,-2.80693,-0.110644,-3.74869,-2.78956,-0.110789,-3.76592,-0.601528,-0.768771,-0.72355,-0.752155,0.243352,0.348693,-0.559199,1
0.926228,-0.565753,-2.11423,-1.22114,2.60782,1.7836,-0.550146,0.936298,-0.554805,-2.10365,-1.2098,2.61211,1.78375,-0.542477,0.986566,-0.490023,-2.04263,-1.14627,2.59225,1.7543,-0.495717,-1.00092,-1.25902,-1.20175,-1.26146,0.395584,0.67756,-0.92735,-1.00092,-1.25902,-1.20175,-1.26146,0.395584,0.67756,-0.92735,0.0387229,-0.46162,0.918625,0.732797,-0.146195,0.111149,0.655196,-0.916919,-0.872158,-1.06723,0.0804401,-0.558194,1.04495,-2.76981,-0.0742078,-3.86076,-2.79169,-0.111478,-3.84735,-0.603375,-0.757303,-0.716043,-0.748668,0.155677,0.293003,-0.544294,1
0.920547,-0.576586,-2.12492,-1.23268,2.60811,1.79248,-0.557077,0.927273,-0.565798,-2.11429,-1.22117,2.60924,1.78584,-0.550085,0.977408,-0.501816,-2.05383,-1.15798,2.5963,1.76064,-0.504326,-0.963939,-1.26723,-1.19789,-1.2486,0.46673,0.680117,-0.91806,-0.963939,-1.26723,-1.19789,-1.2486,0.46673,0.680117,-0.91806,0.0301789,-0.470329,0.908868,0.741227,-0.140498,0.104354,0.648038,-0.925737,-0.840008,-1.08153,0.0523141,-0.560105,1.00557,-2.8126,-0.191087,-3.93808,-2.79539,-0.115972,-3.93089,-0.568611,-0.747708,-0.710943,-0.746985,0.118092,0.318465,-0.527502,1
0.911416,-0.5892,-2.13634,-1.24413,2.61962,1.79364,-0.566957,0.919685,-0.577031,-2.1251,-1.23265,2.61091,1.79055,-0.557814,0.968314,-0.513631,-2.06496,-1.16957,2.60016,1.76627,-0.512855,-0.983319,-1.26462,-1.18839,-1.23562,0.367007,0.536852,-0.909829,-0.983319,-1.26462,-1.18839,-1.23562,0.367007,0.536852,-0.909829,0.0215701,-0.47879,0.899018,0.749532,-0.134492,0.0974681,0.640792,-0.930098,-0.812862,-1.08663,0.0225209,-0.562173,0.964959,-2.97932,-0.206816,-4.06098,-2.81254,-0.128542,-4.01782,-0.568983,-0.755686,-0.713804,-0.745561,0.194655,0.273754,-0.541019,1
0.9012,-0.601049,-2.14744,-1.25577,2.63033,1.78498,-0.576883,0.911145,-0.589009,-2.13626,-1.24417,2.61942,1.79119,-0.566968,0.959156,-0.525327,-2.07599,-1.18108,2.60274,1.77089,-0.521229,-0.979239,-1.24302,-1.17622,-1.23137,0.199432,0.459021,-0.886272,-0.979239,-1.24302,-1.17622,-1.23137,0.199432,0.459021,-0.886272,0.0130915,-0.48693,0.889125,0.757679,-0.127847,0.0910128,0.633479,-0.909248,-0.768201,-1.08929,-0.00209831,-0.561538,0.923072,-2.46192,0.0635326,-4.18872,-2.79034,-0.11977,-4.11119,-0.579555,-0.75722,-0.714483,-0.74685,0.27588,0.14087,-0.556536,1
0.893045,-0.612055,-2.15797,-1.26743,2.63407,1.78386,-0.584665,0.901715,-0.600838,-2.1473,-1.25577,2.62859,1.78686,-0.576347,0.950222,-0.53688,-2.08695,-1.19257,2.60458,1.77523,-0.52943,-0.937918,-1.23318,-1.17187,-1.23103,0.194501,0.470531,-0.871795,-0.937918,-1.23318,-1.17187,-1.23103,0.194501,0.470531,-0.871795,0.00478363,-0.494673,0.879153,0.765518,-0.120976,0.0848549,0.626216,-0.89533,-0.727104,-1.09982,-0.0300005,-0.563155,0.880907,-2.79022,-0.161731,-4.21655,-2.77506,-0.116354,-4.20491,-0.571766,-0.751742,-0.710236,-0.7486,0.294885,0.0862425,-0.552359,1
0.887622,-0.622748,-2.16872,-1.27886,2.638,1.78907,-0.591661,0.893728,-0.611977,-2.15803,-1.26737,2.63412,1.78544,-0.584469,0.941496,-0.548453,-2.09792,-1.20407,2.60729,1.77913,-0.537702,-0.9322,-1.24561,-1.17768,-1.2318,0.372663,0.370491,-0.898864,-0.9322,-1.24561,-1.17768,-1.2318,0.372663,0.370491,-0.898864,-0.00365787,-0.502226,0.869051,0.773227,-0.114043,0.0781258,0.618878,-0.923747,-0.716491,-1.11585,-0.0577945,-0.564226,0.837506,-2.7794,-0.107062,-4.3401,-2.76104,-0.113128,-4.30264,-0.538734,-0.74295,-0.707981,-0.747878,0.307128,0.0994176,-0.539585,1
0.883952,-0.633816,-2.17937,-1.29012,2.64701,1.79532,-0.597948,0.88806,-0.622842,-2.16869,-1.27882,2.63927,1.78933,-0.591484,0.932698,-0.560107,-2.10892,-1.21558,2.61152,1.78155,-0.546224,-0.951584,-1.25101,-1.17889,-1.2345,0.52415,0.163309,-0.925187,-0.951584,-1.25101,-1.17889,-1.2345,0.52415,0.163309,-0.925187,-0.0124397,-0.509803,0.858831,0.781035,-0.106669,0.0703206,0.611278,-0.954342,-0.712705,-1.12684,-0.112594,-0.566544,0.747241,-2.69063,-0.14841,-4.55892,-2.73871,-0.0992043,-4.50289,-0.487459,-0.737087,-0.704554,-0.745442,0.354876,0.137763,-0.51724,1
0.875912,-0.644837,-2.19034,-1.302,2.6538,1.79825,-0.605707,0.882859,-0.633804,-2.17945,-1.29028,2.64646,1.79449,-0.598316,0.923935,-0.571712,-2.11988,-1.22711,2.6165,1.78268,-0.554792,-0.927704,-1.23661,-1.17145,-1.23647,0.541069,0.0847903,-0.911454,-0.927704,-1.23661,-1.17145,-1.23647,0.541069,0.0847903,-0.911454,-0.0213395,-0.517269,0.848523,0.788761,-0.0988246,0.0618958,0.603539,-0.943601,-0.680775,-1.13348,-0.140956,-0.567377,0.700844,-2.83621,-0.0832915,-4.63964,-2.73968,-0.0983102,-4.6003,-0.48023,-0.731242,-0.704601,-0.748861,0.373019,0.155706,-0.509153,1
0.866513,-0.656332,-2.20097,-1.31362,2.65802,1.79689,-0.615063,0.875572,-0.644955,-2.19026,-1.30194,2.65316,1.79718,-0.606106,0.915673,-0.583165,-2.13078,-1.23864,2.62156,1.78388,-0.563101,-0.848047,-1.21855,-1.16434,-1.23389,0.54378,0.167254,-0.871707,-0.848047,-1.21855,-1.16434,-1.23389,0.54378,0.167254,-0.871707,-0.030036,-0.524342,0.838124,0.796051,-0.0910651,0.0534391,0.595948,-0.905506,-0.630531,-1.14077,-0.169165,-0.566849,0.655327,-2.82081,0.0527382,-4.55174,-2.77825,-0.0953393,-4.67723,-0.491596,-0.731664,-0.701855,-0.749788,0.364574,0.130057,-0.51962,1
0.858254,-0.668115,-2.21142,-1.32507,2.6635,1.79715,-0.623355,0.866798,-0.656404,-2.20093,-1.31358,2.65834,1.79729,-0.614797,0.908118,-0.594485,-2.14164,-1.25015,2.62692,1.78592,-0.571064,-0.775761,-1.20757,-1.16136,-1.2323,0.599949,0.263126,-0.836965,-0.775761,-1.20757,-1.16136,-1.2323,0.599949,0.263126,-0.836965,-0.038481,-0.530939,0.827613,0.802815,-0.0837809,0.0449892,0.588595,-0.878373,-0.585166,-1.15088,-0.19588,-0.569028,0.605743,-2.67153,-0.217831,-4.95837,-2.77017,-0.0899336,-4.77798,-0.498642,-0.736293,-0.697873,-0.749233,0.365768,0.112243,-0.522912,1
0.851135,-0.679465,-2.22189,-1.33653,2.67038,1.79844,-0.629898,0.858539,-0.668006,-2.21143,-1.32507,2.66385,1.79741,-0.622918,0.900871,-0.605741,-2.15247,-1.26168,2.63267,1.78841,-0.578874,-0.776983,-1.20435,-1.16043,-1.23647,0.629317,0.269268,-0.836365,-0.776983,-1.20435,-1.16043,-1.23647,0.629317,0.269268,-0.836365,-0.0468825,-0.537154,0.816969,0.809274,-0.0767705,0.0364126,0.581254,-0.884693,-0.550643,-1.16382,-0.223244,-0.56989,0.556461,-2.73647,-0.0862062,-4.92821,-2.7618,-0.0901171,-4.87579,-0.497359,-0.737238,-0.694173,-0.748519,0.377126,0.100266,-0.510244,1
0.844376,-0.690487,-2.23233,-1.3481,2.67755,1.80152,-0.635866,0.851225,-0.679383,-2.22188,-1.33656,2.67045,1.79889,-0.629754,0.893415,-0.617011,-2.16328,-1.27323,2.63845,1.7906,-0.586799,-0.817481,-1.20984,-1.15609,-1.23917,0.610743,0.20543,-0.859891,-0.817481,-1.20984,-1.15609,-1.23917,0.610743,0.20543,-0.859891,-0.055435,-0.543097,0.80618,0.815669,-0.0696071,0.0277133,0.573647,-0.905815,-0.522957,-1.17794,-0.250633,-0.570861,0.506098,-2.73886,-0.0971079,-5.03632,-2.75378,-0.0919508,-4.97449,-0.490393,-0.734759,-0.690511,-0.748703,0.390961,0.109141,-0.49067,1
0.837174,-0.70165,-2.24284,-1.35969,2.68414,1.80474,-0.642628,0.844265,-0.690522,-2.23235,-1.34811,2.6774,1.80155,-0.636065,0.885701,-0.628345,-2.17404,-1.28479,2.64413,1.79228,-0.594838,-0.834204,-1.21808,-1.14834,-1.23727,0.605761,0.15735,-0.862401,-0.834204,-1.21808,-1.14834,-1.23727,0.605761,0.15735,-0.862401,-0.0641454,-0.5488,0.795243,0.822,-0.0621761,0.0188946,0.565767,-0.916305,-0.494476,-1.19141,-0.278525,-0.572267,0.454883,-2.78916,-0.140595,-5.12151,-2.75437,-0.0970623,-5.07654,-0.485271,-0.73305,-0.688055,-0.749033,0.400093,0.124627,-0.477905,1
0.829241,-0.713072,-2.25326,-1.3713,2.69068,1.80582,-0.650271,0.836991,-0.701715,-2.24282,-1.3597,2.68413,1.80421,-0.642848,0.877977,-0.639717,-2.18472,-1.29633,2.64991,1.79375,-0.602727,-0.821614,-1.21824,-1.14139,-1.23551,0.630981,0.157645,-0.830088,-0.821614,-1.21824,-1.14139,-1.23551,0.630981,0.157645,-0.830088,-0.0729107,-0.554216,0.784173,0.828109,-0.0546762,0.00993243,0.557806,-0.9127,-0.460056,-1.2018,-0.306194,-0.5733,0.403035,-2.7669,-0.103343,-5.18472,-2.74709,-0.108708,-5.17843,-0.48736,-0.733552,-0.685386,-0.749676,0.407763,0.120671,-0.47544,1
0.82116,-0.724608,-2.2636,-1.38285,2.69737,1.80571,-0.657834,0.829204,-0.7131,-2.25324,-1.37128,2.69072,1.80552,-0.650251,0.870402,-0.651057,-2.19535,-1.30786,2.65594,1.79538,-0.610284,-0.802718,-1.21206,-1.13636,-1.2359,0.659213,0.189544,-0.791791,-0.802718,-1.21206,-1.13636,-1.2359,0.659213,0.189544,-0.791791,-0.0816523,-0.559279,0.772991,0.833898,-0.0473084,0.000860167,0.549886,-0.904068,-0.42086,-1.20999,-0.333164,-0.573918,0.35002,-2.69698,-0.0617206,-5.30153,-2.74252,-0.114736,-5.28183,-0.492417,-0.735501,-0.682481,-0.74986,0.414302,0.103224,-0.475502,1
0.813381,-0.736085,-2.27384,-1.39435,2.70424,1.80674,-0.664455,0.821236,-0.724593,-2.26357,-1.38284,2.69742,1.80599,-0.657598,0.862938,-0.662355,-2.20594,-1.31941,2.66217,1.79727,-0.617594,-0.796887,-1.20882,-1.13268,-1.23732,0.674374,0.213045,-0.775622,-0.796887,-1.20882,-1.13268,-1.23732,0.674374,0.213045,-0.775622,-0.0903718,-0.563968,0.761702,0.839405,-0.0401021,-0.00827478,0.541961,-0.90079,-0.382564,-1.21924,-0.359635,-0.575189,0.295889,-2.64717,-0.127107,-5.41312,-2.73809,-0.10349,-5.36252,-0.495571,-0.737292,-0.679017,-0.749394,0.420723,0.0946991,-0.468616,1
0.806384,-0.747465,-2.28406,-1.40585,2.71145,1.80958,-0.670709,0.813577,-0.736061,-2.27383,-1.39435,2.70433,1.80719,-0.664363,0.855453,-0.673653,-2.21649,-1.33096,2.6685,1.79917,-0.624856,-0.806168,-1.21153,-1.12861,-1.23835,0.682288,0.195122,-0.779947,-0.806168,-1.21153,-1.12861,-1.23835,0.682288,0.195122,-0.779947,-0.0991224,-0.568322,0.750295,0.844723,-0.0329211,-0.0174943,0.533904,-0.904737,-0.349364,-1.23021,-0.384699,-0.575717,0.243006,-2.50636,-0.0528097,-5.28828,-2.70359,-0.0992379,-5.43444,-0.490687,-0.738127,-0.675674,-0.748865,0.42952,0.104122,-0.458533,1
0.799581,-0.758824,-2.29425,-1.41738,2.71895,1.81338,-0.676789,0.806433,-0.74746,-2.28405,-1.40586,2.71152,1.80982,-0.670666,0.847869,-0.684986,-2.227,-1.34252,2.67491,1.80081,-0.632145,-0.817967,-1.21641,-1.12327,-1.23815,0.691035,0.159153,-0.781733,-0.817967,-1.21641,-1.12327,-1.23815,0.691035,0.159153,-0.781733,-0.107937,-0.572384,0.738761,0.849885,-0.0256372,-0.0268508,0.525659,-0.909453,-0.318244,-1.24119,-0.412551,-0.575896,0.187207,-2.78522,-0.0179648,-5.57996,-2.68409,-0.0853355,-5.51276,-0.48288,-0.738373,-0.672536,-0.748586,0.440307,0.125734,-0.44644,1
0.792278,-0.770298,-2.30443,-1.4289,2.72624,1.81618,-0.683279,0.799456,-0.758853,-2.29425,-1.41738,2.7189,1.81313,-0.676892,0.84023,-0.696356,-2.23745,-1.35407,2.68143,1.80226,-0.639371,-0.818594,-1.21942,-1.11729,-1.23695,0.703282,0.151522,-0.767564,-0.818594,-1.21942,-1.11729,-1.23695,0.703282,0.151522,-0.767564,-0.116789,-0.576143,0.727107,0.854849,-0.0182928,-0.0363388,0.517279,-0.90751,-0.284032,-1.25054,-0.439688,-0.57686,0.131684,-2.7137,-0.0963211,-5.55223,-2.6705,-0.0741758,-5.58667,-0.479528,-0.739418,-0.669725,-0.748279,0.448163,0.139252,-0.439077,1
