Afshin1997/kuka_rl_ros2/src/catch_and_throw/output_files/tm/nn_ema5.00_jvws3_realball_D22H17M07S54/recorded_data.csv
pure_target_joint_0,pure_target_joint_1,pure_target_joint_2,pure_target_joint_3,pure_target_joint_4,pure_target_joint_5,pure_target_joint_6,target_joint_0,target_joint_1,target_joint_2,target_joint_3,target_joint_4,target_joint_5,target_joint_6,pos_joint_0,pos_joint_1,pos_joint_2,pos_joint_3,pos_joint_4,pos_joint_5,pos_joint_6,vel_joint_0,vel_joint_1,vel_joint_2,vel_joint_3,vel_joint_4,vel_joint_5,vel_joint_6,vel_smooth_joint_0,vel_smooth_joint_1,vel_smooth_joint_2,vel_smooth_joint_3,vel_smooth_joint_4,vel_smooth_joint_5,vel_smooth_joint_6,ee_pos_x,ee_pos_y,ee_pos_z,ee_or_w,ee_or_x,ee_or_y,ee_or_z,ee_vel_x,ee_vel_y,ee_vel_z,ball_pos_x,ball_pos_y,ball_pos_z,ball_raw_vx,ball_raw_vy,ball_raw_vz,ball_ema_vx,ball_ema_vy,ball_ema_vz,action_0,action_1,action_2,action_3,action_4,action_5,action_6,command_published
1.7424,-1.03829,-1.84293,-1.07137,1.95907,1.18252,-0.856266,1.77077,-1.05808,-1.82202,-1.10567,1.94268,1.1333,-0.901349,1.78023,-1.06467,-1.81505,-1.1171,1.93722,1.11689,-0.916377,0,0,0,0,0,0,0,0,0,0,0,0,0,0,0.531054,-0.454396,0.694289,0.574535,0.175155,0.152605,0.78482,0,0,0,2.96281,-0.47118,0.146303,-3.2816,-0.165089,5.18519,-3.45925,-0.145107,4.71871,-0.378334,0.263777,-0.278825,0.45733,0.218436,0.656313,0.601104,1
1.75634,-1.03428,-1.83469,-1.07873,1.96267,1.18154,-0.858732,1.75534,-1.04389,-1.8339,-1.08464,1.9545,1.16587,-0.87191,1.78023,-1.06467,-1.81505,-1.1171,1.93722,1.11689,-0.916377,0,0,0,0,0,0,0,0,0,0,0,0,0,0,0.531054,-0.454396,0.694289,0.574535,0.175155,0.152605,0.78482,0,0,0,2.93012,-0.472596,0.200939,-3.25679,-0.141034,5.44257,-3.39664,-0.158613,5.05418,-0.238863,0.303861,-0.196333,0.38375,0.254446,0.646482,0.576442,1
1.75541,-1.03952,-1.83347,-1.06633,1.94895,1.183,-0.856568,1.75262,-1.0366,-1.83644,-1.07379,1.95834,1.18215,-0.857575,1.78023,-1.06467,-1.81505,-1.1171,1.93722,1.11689,-0.916377,-3.94202e-07,2.38755e-07,1.66846e-06,-1.24187e-06,6.76315e-07,-4.57716e-07,-5.54403e-07,-1.31401e-07,7.95852e-08,5.56155e-07,-4.13957e-07,2.25438e-07,-1.52572e-07,-1.84801e-07,0.531054,-0.454396,0.694289,0.574535,0.175155,0.152605,0.78482,-5.36575e-08,5.39559e-07,4.16634e-07,2.89827,-0.473867,0.257342,-3.22741,-0.128865,5.7164,-3.31095,-0.153206,5.33136,-0.248169,0.25149,-0.184197,0.507753,0.11727,0.661102,0.598087,1
1.73453,-1.02567,-1.84163,-1.0519,1.93817,1.18658,-0.852162,1.75042,-1.03475,-1.83581,-1.06582,1.94968,1.18353,-0.856008,1.77755,-1.0628,-1.81703,-1.11386,1.93877,1.12154,-0.912117,-0.24582,0.171386,-0.181162,0.297143,0.141925,0.426431,0.390559,-0.0819401,0.0571287,-0.0603869,0.0990473,0.0473087,0.142144,0.130186,0.528544,-0.456677,0.69577,0.575625,0.173133,0.151273,0.784728,-0.213138,-0.207562,0.12705,2.86636,-0.475508,0.312317,-3.30005,-0.169647,5.68493,-3.24364,-0.147097,5.48812,-0.430218,0.371303,-0.246013,0.619617,-0.00602386,0.650381,0.599546,1
1.73672,-1.00212,-1.79712,-1.04401,1.96341,1.19696,-0.840055,1.7403,-1.02325,-1.82846,-1.05354,1.94717,1.18828,-0.850237,1.77125,-1.05744,-1.82181,-1.10558,1.94323,1.13411,-0.900719,-0.577152,0.491618,-0.438537,0.759393,0.408941,1.15203,1.04494,-0.274324,0.221001,-0.206566,0.352178,0.183622,0.526152,0.478501,0.522129,-0.461887,0.700048,0.577965,0.167336,0.147774,0.784932,-0.542888,-0.473746,0.368801,2.83546,-0.478075,0.366491,-2.94211,-0.244446,5.15769,-3.18463,-0.167027,5.51753,-0.345357,0.553227,0.246872,0.615706,0.201782,0.628571,0.606645,1
1.71249,-0.983867,-1.79307,-1.03963,1.97624,1.2053,-0.824577,1.73011,-1.00344,-1.80724,-1.04489,1.9603,1.19645,-0.839212,1.76597,-1.05153,-1.82596,-1.09657,1.94751,1.14772,-0.888489,-0.484174,0.541708,-0.380307,0.826228,0.392614,1.24862,1.12131,-0.435715,0.40157,-0.333335,0.627588,0.314493,0.942358,0.852271,0.515719,-0.466271,0.705115,0.5798,0.160337,0.144291,0.785687,-0.534625,-0.404786,0.438443,2.80722,-0.479284,0.421445,-2.83466,-0.121303,5.51579,-3.08617,-0.175843,5.5016,-0.534791,0.676641,0.328918,0.569421,0.287227,0.575768,0.639126,1
1.71158,-0.980638,-1.78785,-1.02878,1.98491,1.21876,-0.818077,1.71832,-0.987622,-1.79278,-1.03801,1.9752,1.20658,-0.826821,1.76156,-1.04677,-1.82875,-1.08785,1.94813,1.15787,-0.879282,-0.404103,0.436132,-0.256134,0.799089,0.0564101,0.930537,0.844183,-0.488476,0.489819,-0.358326,0.794903,0.285988,1.11039,1.00348,0.510357,-0.469814,0.709621,0.58218,0.154117,0.142695,0.785463,-0.450304,-0.335901,0.394014,2.7773,-0.480874,0.474794,-2.99989,-0.159444,5.34925,-3.01094,-0.177897,5.44032,-0.499845,0.661364,0.409002,0.590746,0.3678,0.608847,0.612047,1
1.70963,-0.974144,-1.79024,-1.01888,1.98392,1.22756,-0.810378,1.71132,-0.979822,-1.78975,-1.02902,1.98249,1.21759,-0.817777,1.75554,-1.0401,-1.82867,-1.07813,1.94786,1.16649,-0.871048,-0.552771,0.611502,0.00751879,0.891896,-0.0248128,0.790237,0.754864,-0.480349,0.529781,-0.209641,0.839071,0.141404,0.989797,0.906785,0.50387,-0.473116,0.716344,0.585676,0.146683,0.141456,0.784511,-0.548321,-0.317636,0.595233,2.74537,-0.482322,0.526365,-3.22395,-0.146196,5.20774,-3.00137,-0.164267,5.36399,-0.459064,0.659602,0.384294,0.592497,0.360667,0.610636,0.606707,1
1.69918,-0.959125,-1.77769,-1.013,1.99382,1.23459,-0.800788,1.7075,-0.972013,-1.78651,-1.01988,1.98664,1.22712,-0.809905,1.74652,-1.02728,-1.82038,-1.06765,1.95367,1.17654,-0.860122,-1.02277,1.43856,1.00099,1.07497,0.780732,1.08961,1.20784,-0.659882,0.828731,0.250791,0.921986,0.270776,0.936795,0.93563,0.494085,-0.474788,0.729775,0.588356,0.13466,0.136658,0.785511,-0.981178,-0.172015,1.45424,2.71475,-0.483801,0.577227,-3.13455,-0.151422,5.20675,-3.03257,-0.144891,5.26393,-0.473372,0.681578,0.426834,0.546473,0.40149,0.580517,0.593332,1
1.68069,-0.943727,-1.77028,-1.00425,2.00754,1.24214,-0.792344,1.69717,-0.959031,-1.77898,-1.01228,1.99478,1.23472,-0.801075,1.73745,-1.01484,-1.81209,-1.05787,1.96089,1.18675,-0.849294,-0.947776,1.27027,0.810092,1.04645,0.783459,1.11887,1.14314,-0.841107,1.10678,0.6062,1.00444,0.513126,0.999572,1.03528,0.484207,-0.476213,0.742719,0.590504,0.122867,0.131395,0.78673,-0.936817,-0.185542,1.27975,2.68535,-0.485022,0.626538,-2.90594,-0.120682,4.87415,-3.06273,-0.144029,5.1262,-0.567615,0.711156,0.418116,0.536135,0.466467,0.553978,0.569494,1
1.66928,-0.932604,-1.76601,-0.994778,2.01793,1.25082,-0.788261,1.68246,-0.944796,-1.77106,-1.00407,2.00671,1.24242,-0.793435,1.73004,-1.00492,-1.80576,-1.04969,1.96702,1.19549,-0.84036,-0.679111,0.910188,0.580456,0.749811,0.561373,0.801704,0.819096,-0.88322,1.20634,0.797179,0.957077,0.708521,1.00339,1.05669,0.475984,-0.47735,0.752978,0.592175,0.113145,0.127124,0.787633,-0.678423,-0.112495,0.909585,2.65506,-0.486549,0.675322,-3.02466,-0.152516,4.87127,-3.0449,-0.140505,5.0123,-0.607614,0.723114,0.397507,0.549097,0.509146,0.553284,0.520985,1
1.66574,-0.92409,-1.76225,-0.98682,2.02144,1.26204,-0.778468,1.67125,-0.933256,-1.76614,-0.995157,2.01621,1.25146,-0.786834,1.72365,-0.995589,-1.8003,-1.04124,1.97258,1.20446,-0.831727,-0.585771,0.855123,0.500297,0.774609,0.510108,0.821923,0.791495,-0.737553,1.01186,0.630282,0.856955,0.618313,0.914165,0.917911,0.468227,-0.478184,0.762581,0.593671,0.103515,0.123305,0.788439,-0.637532,-0.0885617,0.852639,2.62484,-0.487774,0.72362,-3.02656,-0.12265,4.83748,-3.00744,-0.136524,4.92606,-0.579178,0.714985,0.380478,0.544186,0.488567,0.575839,0.532584,1
1.66049,-0.914236,-1.76024,-0.97792,2.02354,1.27229,-0.768513,1.66531,-0.923755,-1.76269,-0.986584,2.02109,1.2618,-0.778428,1.71615,-0.985225,-1.79426,-1.03303,1.97887,1.21303,-0.823038,-0.688347,0.95017,0.554246,0.752602,0.576894,0.786629,0.796671,-0.651077,0.90516,0.545,0.759007,0.549458,0.803419,0.802421,0.459809,-0.478815,0.772785,0.595277,0.0936273,0.119501,0.789049,-0.696122,-0.0696479,0.908614,2.59381,-0.489509,0.77054,-3.03743,-0.169757,4.59141,-3.02402,-0.141672,4.83708,-0.556542,0.709895,0.340107,0.551103,0.446693,0.592575,0.545253,1
1.65023,-0.901952,-1.75333,-0.9698,2.03014,1.28016,-0.758708,1.65924,-0.913629,-1.75902,-0.978115,2.02467,1.2717,-0.76855,1.7066,-0.973765,-1.78768,-1.02482,1.98676,1.22137,-0.814646,-0.875539,1.05079,0.602793,0.752685,0.723475,0.763868,0.769413,-0.716552,0.952029,0.552445,0.759965,0.603492,0.790807,0.78586,0.450156,-0.479771,0.783679,0.597516,0.0834733,0.115287,0.789123,-0.805791,-0.0947246,0.971775,2.56426,-0.490345,0.81662,-3.01193,-0.0852956,4.69752,-3.03443,-0.136061,4.75382,-0.563654,0.718126,0.343462,0.550209,0.433788,0.587924,0.55938,1
1.63832,-0.889669,-1.74898,-0.961429,2.03773,1.28824,-0.750291,1.64982,-0.901952,-1.75397,-0.969737,2.03039,1.28021,-0.759055,1.69658,-0.962282,-1.78157,-1.01641,1.99511,1.2299,-0.806762,-0.918783,1.05285,0.559986,0.770998,0.765355,0.782047,0.722867,-0.827556,1.01794,0.572342,0.758762,0.688575,0.777515,0.762984,0.440142,-0.480813,0.794385,0.600101,0.0732575,0.111123,0.788774,-0.838393,-0.102545,0.956497,2.53222,-0.493029,0.860361,-3.21553,-0.269292,4.38976,-3.06271,-0.155302,4.63078,-0.582548,0.726133,0.325932,0.549836,0.42617,0.583453,0.564714,1
1.62812,-0.878614,-1.74518,-0.952434,2.04526,1.29721,-0.742603,1.63875,-0.889976,-1.74912,-0.961273,2.03771,1.28846,-0.750473,1.68771,-0.951361,-1.77622,-1.00796,2.00247,1.23894,-0.79873,-0.812603,1.00135,0.490821,0.775247,0.675147,0.829157,0.736439,-0.868975,1.035,0.5512,0.76631,0.721326,0.791691,0.742906,0.430716,-0.481282,0.804434,0.602206,0.0629723,0.10759,0.788547,-0.786203,-0.0566075,0.899531,2.5031,-0.493377,0.904581,-2.89104,-0.0346078,4.39077,-3.05069,-0.147266,4.51743,-0.595925,0.727467,0.310378,0.555231,0.427851,0.582737,0.561273,1
1.6206,-0.86824,-1.74067,-0.943596,2.04974,1.3071,-0.733834,1.62879,-0.878784,-1.745,-0.952473,2.0445,1.29744,-0.742333,1.67964,-0.940665,-1.77134,-0.999498,2.00876,1.24822,-0.790175,-0.740107,0.980689,0.447071,0.775615,0.576776,0.851378,0.784396,-0.823831,1.01163,0.499293,0.773953,0.672426,0.820861,0.7479,0.421725,-0.481167,0.814077,0.603802,0.0526072,0.104771,0.788466,-0.748197,-0.00963605,0.86544,2.47114,-0.495494,0.948113,-3.15494,-0.208924,4.29669,-3.06489,-0.150024,4.43107,-0.590461,0.724245,0.306753,0.559022,0.409764,0.588807,0.563409,1
1.61251,-0.857214,-1.73561,-0.935472,2.05519,1.31579,-0.724219,1.62046,-0.868077,-1.74053,-0.943774,2.04998,1.3068,-0.733623,1.67119,-0.929691,-1.76642,-0.991062,2.01489,1.25729,-0.781354,-0.775106,1.00617,0.451477,0.773495,0.562017,0.831397,0.808839,-0.775939,0.996068,0.463123,0.774786,0.604647,0.837311,0.776558,0.412548,-0.480791,0.823747,0.605305,0.0421912,0.102291,0.788266,-0.766122,0.012131,0.870036,2.44136,-0.496305,0.989959,-2.93171,-0.0799099,4.11998,-3.06876,-0.143856,4.3443,-0.586744,0.724774,0.308085,0.555895,0.403001,0.584986,0.57135,1
1.60388,-0.845746,-1.72811,-0.928018,2.06259,1.32409,-0.715,1.61238,-0.857103,-1.735,-0.93564,2.05568,1.31569,-0.724318,1.66199,-0.918433,-1.76152,-0.982617,2.02136,1.26613,-0.7726,-0.843112,1.03223,0.449662,0.774231,0.593102,0.810161,0.802603,-0.786108,1.00636,0.449403,0.774447,0.577298,0.830978,0.798613,0.402982,-0.480373,0.833444,0.606972,0.0317874,0.0999375,0.787773,-0.802228,0.0160484,0.874484,2.41233,-0.498609,1.02943,-2.93475,-0.23285,3.9891,-3.01528,-0.140897,4.2351,-0.581179,0.726876,0.33406,0.545994,0.412261,0.579575,0.576,1
1.59509,-0.834462,-1.72331,-0.919987,2.06866,1.33308,-0.705723,1.60384,-0.845792,-1.72878,-0.927874,2.06226,1.32426,-0.714985,1.65258,-0.907194,-1.75684,-0.974072,2.02792,1.275,-0.76402,-0.862963,1.0305,0.42917,0.783475,0.601265,0.813891,0.786665,-0.82706,1.02297,0.443436,0.777067,0.585461,0.818483,0.799369,0.393274,-0.479838,0.842973,0.608716,0.0213577,0.09776,0.787053,-0.815605,0.0255751,0.861036,2.38108,-0.500411,1.0692,-3.14084,-0.18113,3.99785,-3.02866,-0.17184,4.10557,-0.574964,0.727319,0.33529,0.54085,0.407357,0.580737,0.58297,1
1.58716,-0.823351,-1.71699,-0.912246,2.07552,1.34202,-0.696844,1.5953,-0.834505,-1.72293,-0.92006,2.06885,1.33307,-0.705823,1.64348,-0.896106,-1.75221,-0.965484,2.03417,1.28402,-0.755403,-0.834932,1.01667,0.423707,0.78747,0.573442,0.826469,0.790056,-0.847002,1.02647,0.43418,0.781725,0.589269,0.81684,0.793108,0.383707,-0.478936,0.852285,0.610218,0.0108238,0.0958612,0.786338,-0.80303,0.056092,0.843327,2.35152,-0.501709,1.1079,-2.95816,-0.129907,3.87277,-2.99526,-0.165371,3.98818,-0.563152,0.727547,0.352259,0.532381,0.413423,0.580019,0.585597,1
1.57894,-0.812242,-1.71195,-0.904344,2.0816,1.35081,-0.687788,1.58709,-0.823351,-1.71731,-0.912206,2.07532,1.34198,-0.6968,1.63466,-0.88505,-1.74733,-0.957024,2.04027,1.293,-0.746592,-0.808313,1.0137,0.44739,0.775678,0.558927,0.82324,0.807937,-0.835403,1.02029,0.433423,0.782208,0.577878,0.8212,0.794886,0.374307,-0.477556,0.861484,0.611298,0.000199258,0.0941636,0.785778,-0.787549,0.0974843,0.834864,2.3216,-0.502512,1.14484,-2.94835,-0.0791316,3.64048,-3.00323,-0.155138,3.88228,-0.557245,0.72808,0.353824,0.526797,0.413295,0.578136,0.588033,1
1.56878,-0.798137,-1.70055,-0.899365,2.08703,1.35593,-0.675852,1.57845,-0.811493,-1.71036,-0.905075,2.08144,1.34989,-0.687068,1.62461,-0.872189,-1.74118,-0.947561,2.04752,1.30321,-0.736226,-1.06318,1.36689,0.66196,0.997562,0.774016,1.08291,1.10281,-0.902141,1.13242,0.511019,0.85357,0.635462,0.910874,0.900268,0.363561,-0.475386,0.872053,0.61201,-0.0121575,0.0922844,0.785353,-1.03726,0.196795,1.11305,2.2913,-0.503374,1.18175,-3.04389,-0.0865921,3.70804,-3.01523,-0.116311,3.80284,-0.558334,0.740517,0.406263,0.481958,0.395122,0.527204,0.60374,1
1.55781,-0.786917,-1.69816,-0.889001,2.09906,1.36563,-0.669812,1.56858,-0.798858,-1.7028,-0.898019,2.08868,1.35708,-0.677326,1.6163,-0.861506,-1.736,-0.939765,2.05356,1.31167,-0.727607,-0.7618,0.979419,0.474315,0.714785,0.554607,0.775942,0.790198,-0.877764,1.12,0.527889,0.829341,0.629183,0.894032,0.900315,0.354681,-0.47328,0.880688,0.612395,-0.0224546,0.090889,0.784989,-0.742337,0.161926,0.787404,2.26134,-0.50436,1.21745,-2.99453,-0.0985018,3.56812,-2.99694,-0.0956213,3.70353,-0.584906,0.745895,0.378462,0.50764,0.454949,0.539534,0.577957,1
1.54993,-0.775905,-1.69271,-0.881903,2.10395,1.37445,-0.661346,1.55858,-0.786969,-1.69739,-0.889818,2.09727,1.36541,-0.669205,1.60802,-0.850691,-1.7307,-0.931953,2.05973,1.32027,-0.718874,-0.75937,0.991633,0.485882,0.716259,0.565476,0.787705,0.800672,-0.86145,1.11265,0.540719,0.809535,0.631366,0.882187,0.897893,0.345782,-0.470832,0.889291,0.612546,-0.0329275,0.08962,0.784647,-0.743169,0.191677,0.786287,2.23127,-0.505984,1.25194,-3.14641,-0.169904,3.60771,-3.00769,-0.103965,3.60686,-0.58086,0.74786,0.379937,0.500501,0.442188,0.541825,0.575288,1
1.54549,-0.763079,-1.68295,-0.878413,2.10484,1.38257,-0.647791,1.55079,-0.775451,-1.69163,-0.882805,2.10295,1.37427,-0.660073,1.59812,-0.83764,-1.72378,-0.923251,2.067,1.32977,-0.708363,-1.0717,1.40666,0.760771,0.915184,0.786446,0.990522,1.12574,-0.864289,1.1259,0.573656,0.782076,0.635509,0.851389,0.905538,0.335437,-0.467328,0.899446,0.612218,-0.0451563,0.0883825,0.784435,-1.00843,0.33671,1.09055,2.20161,-0.507779,1.28525,-2.89148,-0.175011,3.24849,-3.00025,-0.131426,3.51016,-0.526362,0.745604,0.408272,0.448381,0.37846,0.528017,0.60572,1
1.53407,-0.751777,-1.68062,-0.866319,2.11645,1.3916,-0.641037,1.54374,-0.76346,-1.68481,-0.876262,2.10752,1.3828,-0.649491,1.58975,-0.826646,-1.71783,-0.916098,2.07314,1.33751,-0.699565,-0.767904,1.00791,0.545116,0.655758,0.563513,0.70974,0.806631,-0.866324,1.1354,0.597256,0.7624,0.638478,0.829322,0.911016,0.326824,-0.464106,0.907832,0.611754,-0.0553334,0.0875117,0.784243,-0.719497,0.261223,0.770113,2.17154,-0.509233,1.31802,-2.97643,-0.143977,3.24389,-2.99246,-0.151367,3.4034,-0.556816,0.748694,0.372085,0.497793,0.433093,0.540884,0.58528,1
1.52446,-0.740172,-1.67403,-0.859818,2.12337,1.40001,-0.632765,1.53452,-0.751701,-1.67956,-0.867717,2.11528,1.39144,-0.640657,1.58091,-0.815399,-1.71204,-0.908649,2.07998,1.34542,-0.690959,-0.809899,1.0312,0.531161,0.683019,0.627173,0.725127,0.78903,-0.883166,1.14859,0.612349,0.75132,0.659044,0.808463,0.907135,0.31787,-0.460818,0.916242,0.611457,-0.0656919,0.0865789,0.783779,-0.749352,0.26747,0.773945,2.14104,-0.510421,1.35058,-3.08664,-0.1202,3.29379,-3.00329,-0.15372,3.32332,-0.564583,0.752273,0.380118,0.488303,0.433854,0.545947,0.581936,1
1.5197,-0.729553,-1.67115,-0.853188,2.12366,1.40956,-0.621759,1.52567,-0.740418,-1.67496,-0.859786,2.12171,1.4003,-0.632081,1.57238,-0.804075,-1.70625,-0.901323,2.08649,1.3536,-0.682204,-0.78284,1.03822,0.530341,0.671663,0.596919,0.749954,0.802693,-0.786881,1.02578,0.535539,0.670147,0.595868,0.728274,0.799452,0.30914,-0.457065,0.924488,0.610814,-0.0761987,0.0860146,0.783391,-0.729184,0.306953,0.76119,2.11125,-0.51143,1.38103,-2.93715,-0.0994329,3.00219,-3.00613,-0.135342,3.23503,-0.526705,0.745216,0.351019,0.481351,0.37163,0.559665,0.604446,1
1.51252,-0.718158,-1.66472,-0.84599,2.12999,1.4174,-0.612368,1.5191,-0.729359,-1.67026,-0.853046,2.12517,1.40913,-0.622163,1.56426,-0.792562,-1.70017,-0.894219,2.09245,1.36187,-0.672931,-0.744125,1.05557,0.557352,0.651321,0.546508,0.758858,0.850189,-0.778955,1.04166,0.539618,0.668668,0.5902,0.744646,0.813971,0.300747,-0.452661,0.932658,0.609553,-0.0868497,0.0859178,0.783276,-0.69888,0.362859,0.75646,2.08212,-0.51299,1.41074,-2.94434,-0.157691,3.00439,-2.99272,-0.126178,3.13984,-0.517405,0.744043,0.35455,0.482289,0.375359,0.555225,0.605627,1
1.50287,-0.706422,-1.65857,-0.839809,2.13455,1.42475,-0.602581,1.5119,-0.718073,-1.66479,-0.846244,2.12955,1.41728,-0.612269,1.55583,-0.780979,-1.69433,-0.886706,2.09892,1.37026,-0.663782,-0.772942,1.06195,0.535879,0.688761,0.593189,0.768498,0.838767,-0.766636,1.05191,0.541191,0.670582,0.578872,0.759103,0.83055,0.292098,-0.448262,0.940752,0.608439,-0.0975978,0.0857933,0.782889,-0.721653,0.362832,0.751321,2.05219,-0.514054,1.43858,-2.9548,-0.105101,2.74818,-2.97612,-0.122099,3.01282,-0.529615,0.745568,0.357632,0.468972,0.356291,0.544927,0.612009,1
1.49454,-0.692495,-1.64713,-0.836616,2.14168,1.43036,-0.591307,1.5032,-0.705875,-1.65725,-0.840556,2.13519,1.42431,-0.602209,1.54627,-0.767784,-1.68812,-0.878041,2.10592,1.38013,-0.653273,-0.985651,1.39371,0.647627,0.906589,0.698351,1.05207,1.12842,-0.83424,1.17041,0.580286,0.74889,0.612682,0.85981,0.939124,0.282359,-0.442992,0.949682,0.607092,-0.10989,0.0861458,0.782268,-0.920486,0.512452,0.952752,2.02307,-0.514913,1.46559,-2.9391,-0.0866965,2.72624,-2.94984,-0.116082,2.87589,-0.517283,0.752882,0.409851,0.414242,0.357648,0.502351,0.619666,1
1.48259,-0.681518,-1.6466,-0.825222,2.14962,1.43874,-0.582517,1.49363,-0.693233,-1.64986,-0.834566,2.14188,1.43105,-0.591928,1.53857,-0.756891,-1.68306,-0.870955,2.11137,1.38835,-0.644454,-0.70625,0.998636,0.464045,0.649599,0.50039,0.753845,0.808546,-0.821615,1.15143,0.549184,0.748316,0.59731,0.858139,0.925243,0.27453,-0.438331,0.956852,0.605725,-0.120024,0.0867808,0.781768,-0.653975,0.38406,0.671097,1.99338,-0.516267,1.49281,-3.02717,-0.137988,2.77493,-2.94792,-0.115976,2.78426,-0.559801,0.753731,0.364536,0.457331,0.382514,0.503935,0.619377,1
1.47396,-0.670151,-1.64345,-0.817372,2.15441,1.44756,-0.573873,1.48342,-0.681421,-1.64595,-0.826108,2.14884,1.43885,-0.582553,1.53101,-0.745888,-1.67788,-0.863951,2.11652,1.39655,-0.635331,-0.69301,1.00888,0.474744,0.642232,0.472366,0.751772,0.836481,-0.794971,1.13374,0.528805,0.732807,0.557036,0.852564,0.924481,0.266891,-0.433302,0.963918,0.604022,-0.130166,0.0877529,0.781354,-0.637729,0.415958,0.663645,1.96335,-0.517935,1.51825,-2.89308,-0.160768,2.45015,-2.96371,-0.121045,2.69239,-0.570512,0.757365,0.344253,0.465786,0.378887,0.510078,0.614575,1
1.4703,-0.660137,-1.64193,-0.812525,2.1502,1.46049,-0.56318,1.4752,-0.670489,-1.64386,-0.818123,2.15216,1.44859,-0.573361,1.52313,-0.734545,-1.67203,-0.857319,2.12182,1.40442,-0.625942,-0.722762,1.03992,0.53621,0.608008,0.48522,0.721579,0.860813,-0.707341,1.01581,0.491666,0.63328,0.485992,0.742398,0.83528,0.259288,-0.42782,0.971037,0.601918,-0.140283,0.0888707,0.781101,-0.63425,0.457384,0.669865,1.93876,-0.518752,1.54689,-2.49876,-0.0830042,2.91098,-2.866,-0.124189,2.69279,-0.528255,0.744077,0.300982,0.447938,0.283841,0.560727,0.627617,1
1.45945,-0.648547,-1.63751,-0.804831,2.15878,1.46643,-0.553627,1.4685,-0.659743,-1.64121,-0.811813,2.1534,1.45874,-0.563465,1.51477,-0.722834,-1.66575,-0.850869,2.12751,1.41197,-0.6163,-0.76645,1.07368,0.576215,0.591336,0.52154,0.692218,0.884009,-0.727407,1.04083,0.529056,0.613858,0.493042,0.721856,0.860435,0.251603,-0.422007,0.978214,0.599559,-0.15036,0.0900753,0.780902,-0.641663,0.488243,0.676425,1.90453,-0.520035,1.56741,-3.58405,-0.134328,2.14914,-2.91692,-0.127292,2.57718,-0.553142,0.742875,0.282302,0.460386,0.312782,0.544621,0.626729,1
1.44878,-0.636485,-1.63266,-0.7989,2.1659,1.47332,-0.543558,1.4595,-0.648429,-1.6374,-0.805272,2.15842,1.46667,-0.553498,1.50588,-0.711095,-1.66013,-0.84385,2.13355,1.41959,-0.606734,-0.8147,1.07632,0.514518,0.643526,0.554349,0.698645,0.877059,-0.767971,1.06331,0.542314,0.61429,0.52037,0.704147,0.87396,0.243622,-0.416367,0.985244,0.597592,-0.160393,0.0914186,0.780257,-0.670313,0.47246,0.66489,1.87409,-0.521559,1.58898,-2.91503,-0.14593,2.06543,-2.97384,-0.12684,2.41508,-0.570982,0.746095,0.27475,0.449505,0.323487,0.537289,0.631761,1
1.43756,-0.624893,-1.63532,-0.790018,2.16845,1.48142,-0.533965,1.44864,-0.636603,-1.63454,-0.798162,2.16476,1.47362,-0.543677,1.49718,-0.699585,-1.65552,-0.836557,2.13883,1.42781,-0.597274,-0.797379,1.05537,0.422947,0.668675,0.48372,0.753669,0.867389,-0.792843,1.06846,0.50456,0.634512,0.51987,0.714844,0.876152,0.235835,-0.410721,0.991851,0.595846,-0.170402,0.0933984,0.779235,-0.656466,0.46914,0.62892,1.84384,-0.523015,1.61027,-3.03345,-0.145995,2.13436,-3.03678,-0.129656,2.26136,-0.59627,0.746915,0.201963,0.465395,0.296189,0.536066,0.633085,1
1.4281,-0.613636,-1.6409,-0.782991,2.16515,1.49265,-0.524877,1.438,-0.624977,-1.63605,-0.790482,2.16699,1.4822,-0.534091,1.48905,-0.688291,-1.65146,-0.829543,2.14296,1.43658,-0.58769,-0.745439,1.03551,0.37199,0.643117,0.378749,0.803987,0.878706,-0.785839,1.05573,0.436485,0.651772,0.472273,0.752101,0.874384,0.228597,-0.404789,0.998,0.593861,-0.180319,0.096137,0.778185,-0.610281,0.490794,0.589759,1.81384,-0.524368,1.6307,-3.0193,-0.136155,2.05597,-3.10529,-0.142108,2.10465,-0.60957,0.746552,0.105675,0.465519,0.221925,0.560668,0.628135,1
1.42017,-0.602761,-1.63567,-0.776879,2.16924,1.50276,-0.514893,1.42848,-0.613731,-1.6382,-0.78322,2.167,1.49237,-0.524653,1.48067,-0.676991,-1.64748,-0.822663,2.14734,1.44511,-0.577998,-0.768204,1.03603,0.365386,0.630836,0.401788,0.782066,0.888675,-0.770341,1.0423,0.386774,0.647543,0.421419,0.779907,0.878257,0.221427,-0.398794,1.00398,0.591785,-0.189992,0.0989783,0.777108,-0.605754,0.497527,0.575608,1.78437,-0.525922,1.65057,-2.97461,-0.156929,2.00593,-3.00581,-0.145839,2.08028,-0.605056,0.742302,0.1181,0.457837,0.218974,0.576498,0.631044,1
1.41243,-0.592173,-1.63527,-0.770052,2.16982,1.5129,-0.504744,1.42021,-0.602833,-1.63688,-0.7767,2.16836,1.50276,-0.514852,1.47159,-0.665542,-1.64381,-0.815718,2.15228,1.45319,-0.568269,-0.83253,1.04973,0.3363,0.636797,0.452688,0.741079,0.892022,-0.782058,1.04042,0.357892,0.636917,0.411075,0.775711,0.886467,0.214107,-0.392866,1.00988,0.589921,-0.199336,0.101905,0.775805,-0.62215,0.493106,0.568631,1.75442,-0.527695,1.66814,-2.96964,-0.175748,1.7418,-2.98816,-0.151799,1.9861,-0.591687,0.733691,0.0854059,0.456656,0.175439,0.597069,0.635248,1
1.40129,-0.577957,-1.62084,-0.768005,2.1822,1.51992,-0.492594,1.41158,-0.591266,-1.63176,-0.771247,2.17277,1.51212,-0.504244,1.46061,-0.652317,-1.64194,-0.807449,2.15645,1.46297,-0.557132,-1.16546,1.39962,0.135806,0.878871,0.382601,1.06613,1.1781,-0.922066,1.16179,0.279164,0.715501,0.412359,0.86309,0.986265,0.205896,-0.386188,1.01613,0.58869,-0.20957,0.1068,0.773381,-0.813335,0.626228,0.689508,1.72532,-0.52944,1.68512,-2.8993,-0.173832,1.69183,-2.9646,-0.161768,1.87138,-0.59322,0.743599,0.21097,0.394438,0.257551,0.569404,0.645376,1
1.38899,-0.567554,-1.63685,-0.753612,2.18567,1.52947,-0.48432,1.401,-0.57891,-1.62845,-0.764919,2.17997,1.52055,-0.493563,1.4515,-0.641379,-1.64088,-0.800581,2.15944,1.47131,-0.547925,-0.835092,1.00287,0.097309,0.629739,0.274146,0.763912,0.844144,-0.944362,1.15074,0.189805,0.715136,0.369812,0.857039,0.971421,0.199299,-0.380515,1.02106,0.587733,-0.217922,0.111354,0.771155,-0.572376,0.463504,0.484594,1.69549,-0.530488,1.70118,-2.89887,-0.101859,1.56103,-2.95747,-0.157572,1.75513,-0.625089,0.738252,0.0402719,0.469686,0.262278,0.581674,0.636053,1
1.3768,-0.556358,-1.64876,-0.751538,2.1895,1.53793,-0.476038,1.38902,-0.567356,-1.63583,-0.756692,2.18576,1.5292,-0.484318,1.44263,-0.630452,-1.63974,-0.793812,2.16197,1.48022,-0.53855,-0.813165,1.00185,0.104048,0.620672,0.231929,0.817632,0.859593,-0.937907,1.13478,0.112388,0.709761,0.296225,0.882557,0.960612,0.192938,-0.37451,1.02581,0.586451,-0.226451,0.116284,0.768943,-0.551077,0.491187,0.469561,1.66571,-0.531151,1.71668,-2.96433,-0.0660716,1.5425,-2.96241,-0.132507,1.65252,-0.658279,0.740942,-0.0901571,0.422732,0.275346,0.577026,0.625121,1
1.37267,-0.547916,-1.6532,-0.752281,2.17705,1.55316,-0.467197,1.37882,-0.557047,-1.64689,-0.752243,2.18543,1.53962,-0.475898,1.43383,-0.619344,-1.63748,-0.787415,2.16503,1.48926,-0.528825,-0.80716,1.01848,0.207438,0.586465,0.280779,0.828933,0.891634,-0.818472,1.00773,0.136265,0.612292,0.262285,0.803492,0.865124,0.186703,-0.368012,1.03058,0.584393,-0.23522,0.121005,0.767147,-0.535468,0.537593,0.473153,1.6371,-0.532589,1.73089,-2.93752,-0.147557,1.45929,-2.94248,-0.114994,1.57063,-0.611598,0.714288,-0.157222,0.351339,0.120191,0.638937,0.616284,1
1.3635,-0.538024,-1.64907,-0.739281,2.19486,1.56015,-0.458243,1.37141,-0.547553,-1.65106,-0.748846,2.18462,1.5511,-0.467169,1.42452,-0.607883,-1.63492,-0.781038,2.16927,1.49813,-0.518829,-0.853302,1.05091,0.234686,0.584698,0.388389,0.813142,0.916489,-0.824542,1.02375,0.182058,0.597278,0.300366,0.819902,0.889239,0.180315,-0.361308,1.03541,0.582076,-0.244001,0.125496,0.765442,-0.547382,0.558919,0.480025,1.60785,-0.534278,1.74433,-2.96783,-0.171441,1.36421,-2.93324,-0.117781,1.48141,-0.610263,0.698588,-0.141492,0.417577,0.255934,0.620123,0.605859,1
1.35312,-0.527358,-1.66148,-0.736519,2.19134,1.5707,-0.449238,1.3632,-0.53783,-1.65321,-0.74184,2.18953,1.56104,-0.45823,1.41446,-0.596395,-1.63518,-0.774137,2.17394,1.50694,-0.509046,-0.92276,1.05332,-0.0235093,0.632774,0.42868,0.807379,0.896983,-0.861074,1.0409,0.139538,0.601312,0.365949,0.816485,0.901702,0.173838,-0.355229,1.03987,0.580917,-0.252014,0.130622,0.762865,-0.566235,0.501175,0.44651,1.57769,-0.536187,1.75694,-3.09112,-0.195621,1.29207,-2.93459,-0.145254,1.39179,-0.613397,0.690364,-0.263059,0.376182,0.173978,0.637636,0.598079,1
1.3403,-0.514398,-1.66548,-0.730468,2.19761,1.57984,-0.439291,1.35251,-0.526784,-1.65938,-0.735697,2.19379,1.57035,-0.449003,1.40322,-0.583783,-1.63914,-0.767409,2.17707,1.51797,-0.49831,-1.15378,1.31417,-0.432403,0.673356,0.27357,1.2018,1.12958,-0.976615,1.13947,-0.0737419,0.630276,0.363546,0.940773,0.981018,0.167603,-0.348768,1.04383,0.580496,-0.259857,0.138411,0.759171,-0.617893,0.600951,0.449599,1.54833,-0.537069,1.76902,-2.85713,-0.0857882,1.17489,-2.9418,-0.15433,1.30732,-0.629208,0.693857,-0.263381,0.36941,0.205379,0.618712,0.590188,1
1.32999,-0.507881,-1.67687,-0.716635,2.20788,1.58923,-0.431321,1.34093,-0.516009,-1.66733,-0.728522,2.19861,1.5799,-0.439785,1.3942,-0.573513,-1.64252,-0.762147,2.17921,1.52736,-0.489482,-0.826721,0.941643,-0.30983,0.482481,0.196021,0.861126,0.80938,-0.967754,1.10304,-0.255247,0.596204,0.299424,0.956768,0.945315,0.162816,-0.343297,1.04685,0.579954,-0.266195,0.145163,0.756123,-0.43248,0.440814,0.315825,1.5193,-0.538198,1.77954,-2.92397,-0.11374,1.06003,-2.95128,-0.14009,1.21981,-0.642073,0.656322,-0.343567,0.455121,0.286687,0.618778,0.581616,1
1.32099,-0.498746,-1.69129,-0.71768,2.20752,1.59569,-0.425825,1.33032,-0.507226,-1.67763,-0.720354,2.20522,1.5885,-0.431939,1.38541,-0.563398,-1.64555,-0.756391,2.18214,1.5369,-0.480623,-0.805842,0.927379,-0.277816,0.527756,0.268106,0.875349,0.812215,-0.928782,1.06106,-0.340016,0.561198,0.245899,0.979424,0.917059,0.157882,-0.337797,1.04988,0.57916,-0.272816,0.151479,0.753126,-0.442063,0.44574,0.318711,1.48989,-0.539232,1.78871,-2.89114,-0.101715,0.901866,-2.94314,-0.119196,1.11357,-0.644184,0.64652,-0.457387,0.387103,0.253857,0.587905,0.547985,1
1.31518,-0.490622,-1.70409,-0.725433,2.20142,1.60445,-0.422262,1.32179,-0.498999,-1.69088,-0.719357,2.20608,1.59627,-0.426308,1.37609,-0.553019,-1.64947,-0.750525,2.18544,1.54638,-0.47166,-0.85517,0.951573,-0.35946,0.537828,0.30283,0.869146,0.821801,-0.829244,0.940198,-0.315702,0.516022,0.255653,0.868541,0.814465,0.152925,-0.332312,1.05285,0.578653,-0.279132,0.158141,0.749825,-0.448744,0.444255,0.313497,1.46159,-0.541088,1.79837,-2.82517,-0.18519,0.963906,-2.90633,-0.11965,1.02552,-0.60904,0.623978,-0.546205,0.250919,0.15978,0.58064,0.493983,1
1.30378,-0.482427,-1.71355,-0.734465,2.20463,1.6122,-0.415855,1.31379,-0.490604,-1.70325,-0.725753,2.20375,1.6042,-0.421551,1.36612,-0.542528,-1.65453,-0.744288,2.18917,1.55589,-0.462624,-0.913736,0.961891,-0.464158,0.571823,0.342333,0.871118,0.828406,-0.858249,0.946947,-0.367144,0.545803,0.304423,0.871871,0.820807,0.147805,-0.326997,1.05573,0.578617,-0.28516,0.165122,0.74607,-0.4686,0.428607,0.306102,1.43254,-0.542175,1.80542,-2.89253,-0.108307,0.702409,-2.89275,-0.131031,0.916431,-0.623347,0.601013,-0.590177,0.0982258,0.154558,0.563185,0.467696,1
1.29149,-0.47048,-1.72197,-0.754689,2.21927,1.61756,-0.405817,1.30356,-0.481489,-1.71329,-0.737263,2.20749,1.6116,-0.414947,1.35597,-0.532521,-1.66108,-0.737503,2.19372,1.56513,-0.453926,-0.930391,0.917468,-0.600276,0.622009,0.417149,0.847634,0.797492,-0.899766,0.943644,-0.474631,0.57722,0.354104,0.862633,0.815899,0.14252,-0.322316,1.05839,0.579263,-0.290723,0.171918,0.741875,-0.488565,0.373893,0.285604,1.40345,-0.542971,1.81085,-2.97323,-0.0813518,0.554215,-2.89043,-0.124898,0.793219,-0.644763,0.620408,-0.608882,-0.171858,0.255498,0.524303,0.481095,1
1.27834,-0.461788,-1.73555,-0.768967,2.2348,1.62119,-0.400037,1.29128,-0.471294,-1.72326,-0.753202,2.21949,1.61713,-0.406881,1.34505,-0.52173,-1.67143,-0.733341,2.19687,1.57517,-0.445367,-1.13413,1.12897,-1.15441,0.275248,0.249476,1.05274,0.863844,-0.992751,1.00278,-0.739614,0.489693,0.33632,0.923831,0.829914,0.138607,-0.317639,1.06019,0.58058,-0.294531,0.181021,0.737163,-0.371829,0.408711,0.194412,1.3744,-0.543901,1.81661,-2.80779,-0.0898789,0.557051,-2.89125,-0.112213,0.682697,-0.667128,0.599422,-0.641263,-0.356254,0.379329,0.460165,0.453302,1
1.27129,-0.455776,-1.74748,-0.770639,2.24228,1.62127,-0.400442,1.27987,-0.462458,-1.73514,-0.765815,2.23279,1.6203,-0.401583,1.33619,-0.512907,-1.68045,-0.73119,2.19882,1.5834,-0.438616,-0.812637,0.808943,-0.827169,0.197224,0.178757,0.754322,0.618972,-0.959051,0.951794,-0.860618,0.364827,0.281794,0.884899,0.760103,0.136096,-0.313823,1.06132,0.581603,-0.296924,0.188977,0.733391,-0.260858,0.297114,0.136989,1.34501,-0.545329,1.82149,-2.99445,-0.14545,0.497395,-2.91291,-0.102075,0.574281,-0.649044,0.57131,-0.670341,-0.39449,0.434671,0.378691,0.381735,1
1.26467,-0.451132,-1.7581,-0.766052,2.24215,1.62364,-0.406584,1.27139,-0.456118,-1.74715,-0.769074,2.24038,1.62184,-0.401876,1.32694,-0.504001,-1.68976,-0.732912,2.20127,1.5914,-0.431906,-0.847996,0.816532,-0.853498,-0.15783,0.225306,0.732961,0.61514,-0.931586,0.918149,-0.945025,0.104881,0.217847,0.846675,0.699319,0.134924,-0.31022,1.06172,0.581977,-0.297734,0.197064,0.730632,-0.145539,0.281887,0.0643833,1.31582,-0.546331,1.82538,-2.86947,-0.0985391,0.381878,-2.91885,-0.10669,0.505507,-0.622736,0.528686,-0.683402,-0.331404,0.408771,0.322435,0.253219,1
1.25947,-0.446445,-1.76809,-0.767677,2.24087,1.6396,-0.409779,1.26502,-0.451121,-1.75794,-0.767605,2.24187,1.62704,-0.405848,1.31683,-0.494729,-1.69925,-0.738663,2.20644,1.59869,-0.424813,-0.926834,0.850036,-0.870678,-0.52735,0.473489,0.668781,0.650392,-0.862489,0.825171,-0.850449,-0.162652,0.292518,0.718688,0.628168,0.134749,-0.307008,1.06158,0.581544,-0.296922,0.2044,0.729291,-0.0564808,0.255813,0.00453252,1.2866,-0.547591,1.82768,-2.99633,-0.129128,0.236792,-2.92288,-0.116683,0.424449,-0.57363,0.482846,-0.688391,-0.290134,0.344344,0.409124,0.150335,1
1.25005,-0.433519,-1.77823,-0.773478,2.24469,1.65085,-0.399889,1.25841,-0.444385,-1.76813,-0.768721,2.24215,1.63843,-0.406508,1.30635,-0.485581,-1.70943,-0.74636,2.21391,1.60482,-0.418228,-0.960733,0.838719,-0.932621,-0.705665,0.684829,0.561701,0.603722,-0.911854,0.835096,-0.885599,-0.463615,0.461208,0.654481,0.623084,0.134977,-0.304545,1.06113,0.581271,-0.294857,0.210655,0.728566,-0.0217831,0.196881,-0.0322765,1.25754,-0.549178,1.82993,-2.97852,-0.162728,0.23018,-2.92137,-0.128154,0.328374,-0.56302,0.520626,-0.688052,-0.271178,0.307802,0.460373,0.183385,1
1.24068,-0.421027,-1.78906,-0.795866,2.25296,1.65956,-0.385581,1.25006,-0.433627,-1.7784,-0.777625,2.2458,1.65022,-0.398785,1.29644,-0.477229,-1.72012,-0.752799,2.22141,1.60964,-0.413593,-0.908546,0.765743,-0.980522,-0.590327,0.687982,0.442496,0.424962,-0.932038,0.818166,-0.927941,-0.607781,0.615433,0.557659,0.559692,0.134917,-0.302818,1.06077,0.582287,-0.292529,0.216033,0.727117,-0.0500349,0.134943,-0.027365,1.22842,-0.55062,1.83082,-2.89304,-0.143202,0.0886228,-2.9147,-0.134286,0.232196,-0.557639,0.562024,-0.689347,-0.430668,0.31548,0.499114,0.280118,1
1.23719,-0.415047,-1.79914,-0.808237,2.26648,1.66652,-0.38096,1.24215,-0.422655,-1.78887,-0.793361,2.25427,1.65912,-0.388003,1.28754,-0.469828,-1.73084,-0.756996,2.22721,1.61457,-0.411397,-0.816622,0.67854,-0.982973,-0.384804,0.531564,0.452084,0.201291,-0.8953,0.761,-0.965372,-0.560265,0.634791,0.485427,0.409992,0.134407,-0.301401,1.06049,0.584575,-0.290965,0.221178,0.724356,-0.0911996,0.105245,-0.0153988,1.19916,-0.55182,1.83047,-2.82414,-0.115887,-0.0336448,-2.91494,-0.140066,0.13334,-0.503462,0.54781,-0.682939,-0.512406,0.392663,0.519418,0.304369,1
1.23133,-0.418638,-1.81052,-0.807857,2.27488,1.67169,-0.391141,1.2366,-0.41744,-1.79946,-0.805049,2.2652,1.66607,-0.384661,1.27928,-0.462616,-1.74141,-0.76032,2.23144,1.62134,-0.410011,-0.75688,0.661262,-0.969062,-0.304726,0.388194,0.619868,0.127067,-0.827349,0.701848,-0.977519,-0.426619,0.535913,0.504816,0.251107,0.133794,-0.299671,1.06008,0.586897,-0.290461,0.226887,0.720906,-0.0987119,0.127506,-0.0207645,1.17008,-0.552603,1.82866,-2.93844,-0.0791107,-0.183544,-2.91407,-0.126668,0.0248885,-0.479499,0.439783,-0.691069,-0.475376,0.434378,0.503569,0.188705,1
1.22016,-0.424141,-1.82223,-0.801093,2.27421,1.67392,-0.414688,1.23,-0.419116,-1.8106,-0.806261,2.27261,1.67096,-0.394482,1.271,-0.454399,-1.7519,-0.765225,2.23551,1.62952,-0.406829,-0.759375,0.753404,-0.961381,-0.449748,0.373174,0.750612,0.291774,-0.777626,0.697735,-0.971138,-0.379759,0.430977,0.607522,0.206711,0.133814,-0.297238,1.05941,0.587857,-0.289944,0.233536,0.718204,-0.04096,0.187697,-0.0399764,1.14042,-0.554489,1.82529,-3.00889,-0.191317,-0.34103,-2.92583,-0.126058,-0.114353,-0.508384,0.302576,-0.703366,-0.358677,0.386993,0.443957,-0.0785901,1
1.20899,-0.421854,-1.83267,-0.78134,2.27083,1.67735,-0.426927,1.22016,-0.422193,-1.82192,-0.797846,2.27353,1.67422,-0.411861,1.26282,-0.4454,-1.76238,-0.773201,2.24083,1.63791,-0.401492,-0.749794,0.825039,-0.960929,-0.731287,0.48751,0.769268,0.489302,-0.75535,0.746568,-0.963791,-0.495254,0.416293,0.71325,0.302714,0.134866,-0.294639,1.05831,0.587196,-0.288393,0.240276,0.717145,0.0531659,0.206408,-0.0847484,1.11145,-0.555904,1.82153,-2.8507,-0.139169,-0.370344,-2.92687,-0.132372,-0.237601,-0.538328,0.235468,-0.702968,-0.0813938,0.299954,0.394373,-0.254349,1
1.20899,-0.411297,-1.84232,-0.770829,2.27234,1.6878,-0.426304,1.21178,-0.419786,-1.83248,-0.78365,2.27205,1.6791,-0.423712,1.25539,-0.437474,-1.77289,-0.782229,2.24774,1.64589,-0.396721,-0.681556,0.726711,-0.963829,-0.827757,0.633322,0.731835,0.437469,-0.730241,0.768385,-0.962046,-0.669597,0.498002,0.750572,0.406181,0.136026,-0.293022,1.05681,0.586486,-0.28638,0.245539,0.716751,0.0679663,0.126043,-0.128583,1.0829,-0.556913,1.81713,-2.87122,-0.10152,-0.442714,-2.91164,-0.134864,-0.338151,-0.464005,0.261771,-0.69432,0.114001,0.246043,0.419036,-0.295829,1
1.20683,-0.412776,-1.85303,-0.798356,2.30022,1.68159,-0.430573,1.20845,-0.414306,-1.84259,-0.780338,2.27893,1.68363,-0.427527,1.24819,-0.43227,-1.78358,-0.789041,2.25479,1.653,-0.396086,-0.659756,0.477148,-0.980159,-0.624613,0.646511,0.651343,0.0581828,-0.697035,0.676299,-0.968306,-0.727886,0.589114,0.717482,0.328318,0.135918,-0.293241,1.05518,0.588277,-0.28479,0.248786,0.714794,-0.0453474,-0.0333626,-0.144214,1.05447,-0.557743,1.81219,-2.74032,-0.0800333,-0.475924,-2.88744,-0.127043,-0.410955,-0.413614,0.194946,-0.694458,-0.0931482,0.454292,0.285938,-0.344866,1
1.19516,-0.447325,-1.86255,-0.801504,2.32121,1.66012,-0.439124,1.20445,-0.421044,-1.85273,-0.792261,2.2985,1.67777,-0.431644,1.24025,-0.429414,-1.79445,-0.791537,2.2601,1.65901,-0.400558,-0.728569,0.261909,-0.996359,-0.228837,0.487171,0.551562,-0.40999,-0.68996,0.488589,-0.980116,-0.560402,0.589001,0.644913,0.0285538,0.133931,-0.294791,1.05393,0.593656,-0.284146,0.251058,0.709791,-0.221512,-0.153643,-0.108807,1.02573,-0.558389,1.80618,-3.03629,-0.0681586,-0.634908,-2.86359,-0.0963819,-0.475659,-0.450841,-0.179114,-0.681,-0.0996743,0.611092,0.0110277,-0.385663,1
1.18691,-0.447678,-1.87168,-0.77485,2.32381,1.67336,-0.440147,1.19602,-0.438776,-1.86245,-0.794054,2.31661,1.6688,-0.437242,1.23218,-0.426685,-1.80523,-0.789301,2.26349,1.66471,-0.407121,-0.739821,0.250226,-0.988411,0.204978,0.310567,0.522156,-0.601777,-0.709382,0.329761,-0.98831,-0.216157,0.481417,0.57502,-0.317862,0.130609,-0.295818,1.0536,0.600709,-0.28508,0.253846,0.702453,-0.344925,-0.112587,-0.0139914,0.996687,-0.560173,1.79857,-2.88937,-0.177581,-0.757214,-2.86693,-0.100148,-0.568678,-0.452657,-0.209934,-0.664575,0.144516,0.603187,0.0864888,-0.330255,1
1.17294,-0.417853,-1.88443,-0.753734,2.32546,1.70543,-0.437547,1.18548,-0.440134,-1.87259,-0.776234,2.32357,1.67806,-0.439241,1.22545,-0.423176,-1.81582,-0.786761,2.26787,1.67007,-0.412906,-0.616725,0.321733,-0.970991,0.232956,0.401361,0.491894,-0.530359,-0.695038,0.277956,-0.985254,0.0696988,0.3997,0.521871,-0.514042,0.127636,-0.296113,1.05363,0.606793,-0.286393,0.256385,0.695735,-0.306067,-0.0450381,0.0197775,0.968476,-0.561375,1.79156,-2.91404,-0.124124,-0.724613,-2.86624,-0.113537,-0.647664,-0.525076,0.0532313,-0.686124,0.330269,0.57596,0.353532,-0.246418,1
1.17018,-0.406012,-1.89457,-0.757844,2.33593,1.71044,-0.440191,1.17574,-0.422349,-1.88378,-0.76004,2.32767,1.69866,-0.438858,1.2195,-0.422571,-1.82628,-0.78832,2.27655,1.67226,-0.418217,-0.545759,0.0554182,-0.959395,-0.142965,0.796111,0.200155,-0.487011,-0.634102,0.209126,-0.972932,0.098323,0.50268,0.404735,-0.539716,0.125088,-0.299253,1.05268,0.612588,-0.28504,0.255173,0.691646,-0.259564,-0.277996,-0.0979805,0.939595,-0.562612,1.78181,-2.98569,-0.127915,-1.00751,-2.87001,-0.127243,-0.753882,-0.49317,0.165597,-0.682866,0.304763,0.593833,0.381878,-0.219739,1
1.17343,-0.418556,-1.90528,-0.763727,2.34801,1.71853,-0.44147,1.17168,-0.412108,-1.89471,-0.758287,2.33634,1.71121,-0.43985,1.21122,-0.427373,-1.83809,-0.78721,2.28898,1.6727,-0.423917,-0.93377,-0.462853,-1.25129,0.398106,1.25497,0.194647,-0.555854,-0.698751,-0.0285672,-1.06056,0.162699,0.817481,0.295565,-0.524408,0.11916,-0.30663,1.05124,0.621188,-0.282954,0.250282,0.686602,-0.749513,-0.677449,-0.125914,0.91155,-0.563675,1.77231,-2.84958,-0.10799,-0.964984,-2.85442,-0.130119,-0.844963,-0.377898,0.0881717,-0.671941,0.234828,0.590382,0.458356,-0.175532,1
1.15706,-0.436912,-1.91893,-0.761262,2.34234,1.73293,-0.455624,1.16853,-0.420009,-1.90602,-0.76164,2.34357,1.72011,-0.444689,1.20243,-0.42826,-1.84959,-0.781612,2.29941,1.67738,-0.428202,-0.968048,0.214423,-1.24021,0.782489,1.02493,0.771959,-0.386524,-0.815859,-0.0643372,-1.1503,0.345877,1.02534,0.38892,-0.476463,0.112497,-0.310138,1.05115,0.628648,-0.284655,0.248917,0.679569,-0.72829,-0.134572,0.0942251,0.883253,-0.564799,1.76079,-2.62373,-0.104186,-1.06805,-2.83793,-0.11551,-0.947962,-0.45373,-0.0865235,-0.693453,0.203502,0.429234,0.555501,-0.274222,1
1.14406,-0.44618,-1.93167,-0.753414,2.33635,1.74259,-0.465416,1.1579,-0.43464,-1.9187,-0.759916,2.34226,1.73175,-0.454534,1.19424,-0.425012,-1.86096,-0.775228,2.30875,1.68534,-0.431375,-0.818283,0.468077,-1.22438,0.614509,1.00056,0.938425,-0.30741,-0.9067,0.0732158,-1.23863,0.598368,1.09349,0.63501,-0.416596,0.106722,-0.310131,1.05185,0.634239,-0.288636,0.250442,0.672093,-0.569561,0.0579712,0.112643,0.855097,-0.565544,1.74762,-2.88441,-0.0763461,-1.34977,-2.831,-0.105245,-1.08891,-0.501801,-0.211681,-0.707119,0.218145,0.275999,0.572475,-0.340407,1
1.13636,-0.459638,-1.94079,-0.751979,2.36649,1.73359,-0.472951,1.14539,-0.447228,-1.93077,-0.755017,2.34538,1.73793,-0.464852,1.18736,-0.422567,-1.87226,-0.770941,2.31768,1.69404,-0.43452,-0.683275,0.0927933,-1.22442,0.337367,0.939163,0.945642,-0.368848,-0.823202,0.258431,-1.22967,0.578122,0.98822,0.885342,-0.354261,0.101801,-0.310553,1.0518,0.639005,-0.29216,0.251728,0.665544,-0.530376,-0.183281,-0.0573972,0.825646,-0.567513,1.7338,-2.98318,-0.199493,-1.40009,-2.84353,-0.116713,-1.20723,-0.510005,-0.370704,-0.685294,0.189612,0.488098,0.395537,-0.384307,1
1.16743,-0.459072,-1.94764,-0.74494,2.38996,1.71122,-0.481164,1.14605,-0.456132,-1.94022,-0.750578,2.36483,1.73025,-0.47312,1.18039,-0.424088,-1.88378,-0.76804,2.32482,1.70322,-0.438914,-0.815764,-0.382755,-1.26689,0.294656,0.63256,1.03485,-0.566568,-0.77244,0.0593718,-1.23857,0.415511,0.857429,0.972972,-0.414275,0.0964331,-0.313579,1.05031,0.644724,-0.294494,0.252083,0.658831,-0.662625,-0.478522,-0.222517,0.797557,-0.568634,1.71993,-2.80759,-0.112037,-1.38587,-2.85594,-0.126333,-1.31762,-0.129667,-0.349842,-0.63863,0.230993,0.651437,0.0800421,-0.422495,1
1.14544,-0.483945,-1.95854,-0.72943,2.39619,1.72083,-0.488047,1.15416,-0.465432,-1.94865,-0.742822,2.38565,1.71922,-0.480831,1.1721,-0.429012,-1.89553,-0.764985,2.33024,1.71225,-0.444926,-0.968789,-0.660712,-1.27803,0.361533,0.549143,0.931186,-0.722739,-0.822609,-0.316892,-1.25645,0.331185,0.706955,0.970558,-0.552718,0.0898953,-0.31878,1.04789,0.652121,-0.295914,0.251807,0.650973,-0.801962,-0.649261,-0.285252,0.769366,-0.56959,1.70513,-2.67008,-0.0905168,-1.4023,-2.85315,-0.12673,-1.39025,-0.266597,-0.549329,-0.630098,0.355549,0.659482,0.0857935,-0.431211,1
1.12044,-0.490766,-1.973,-0.728117,2.39322,1.75667,-0.496348,1.14468,-0.479432,-1.95943,-0.732979,2.39389,1.72739,-0.488401,1.16463,-0.435542,-1.90697,-0.761478,2.33752,1.71835,-0.451844,-0.67369,-0.746811,-1.20613,0.395343,0.990408,0.431544,-0.771736,-0.819414,-0.596759,-1.25035,0.350511,0.724037,0.799193,-0.687014,0.0828911,-0.325081,1.04553,0.660175,-0.296562,0.249315,0.643476,-0.76057,-0.698069,-0.246326,0.742388,-0.570962,1.69172,-2.69891,-0.137225,-1.34085,-2.81699,-0.12912,-1.40464,-0.441911,-0.552232,-0.660295,0.333606,0.557015,0.383174,-0.445043,1
1.1141,-0.483164,-1.9849,-0.740827,2.39177,1.77105,-0.499512,1.1251,-0.48716,-1.97236,-0.731623,2.3936,1.75131,-0.495064,1.15936,-0.441379,-1.9164,-0.758388,2.34526,1.72173,-0.457875,-0.48272,-0.535113,-0.864226,0.283276,0.709658,0.309215,-0.552973,-0.7084,-0.647545,-1.11613,0.346717,0.749736,0.557315,-0.682483,0.0770012,-0.330613,1.04372,0.666909,-0.296824,0.245889,0.637704,-0.550101,-0.490888,-0.180933,0.712589,-0.572179,1.67301,-2.97718,-0.121627,-1.86985,-2.81282,-0.116587,-1.49787,-0.452596,-0.417853,-0.685083,0.175606,0.465097,0.493281,-0.416375,1
1.11191,-0.479363,-1.99481,-0.740868,2.4072,1.77243,-0.503078,1.11514,-0.484114,-1.9844,-0.73766,2.39599,1.7678,-0.499613,1.15789,-0.448197,-1.92554,-0.753976,2.35671,1.72101,-0.464382,-0.13513,-0.625122,-0.83834,0.404544,1.0498,-0.0651629,-0.596626,-0.430513,-0.635682,-0.969564,0.361055,0.91662,0.225199,-0.640445,0.0713582,-0.336758,1.04248,0.67338,-0.296878,0.239133,0.633434,-0.504673,-0.533353,-0.142704,0.683902,-0.573332,1.65428,-2.77006,-0.111329,-1.80865,-2.84086,-0.119845,-1.63427,-0.459824,-0.311653,-0.692664,0.131076,0.504897,0.514161,-0.386956,1
1.12148,-0.479992,-2.00393,-0.733802,2.41915,1.77652,-0.510508,1.11485,-0.48047,-1.99461,-0.739091,2.40633,1.77311,-0.504044,1.15415,-0.457051,-1.93515,-0.748024,2.36725,1.72282,-0.471191,-0.34318,-0.811774,-0.880782,0.545688,0.966339,0.165683,-0.624242,-0.320343,-0.657336,-0.861116,0.411169,0.908598,0.136578,-0.59128,0.0638652,-0.343784,1.04054,0.680838,-0.29768,0.232834,0.627403,-0.679263,-0.617316,-0.202776,0.656139,-0.574542,1.63646,-2.78872,-0.121587,-1.78977,-2.84938,-0.122751,-1.74779,-0.326689,-0.229409,-0.687845,0.142222,0.518956,0.536955,-0.393171,1
1.10074,-0.50551,-2.01538,-0.750137,2.4224,1.78327,-0.519783,1.1139,-0.486214,-2.00451,-0.739652,2.41697,1.77718,-0.510969,1.14591,-0.465586,-1.9457,-0.743375,2.37472,1.7309,-0.477958,-0.754798,-0.782512,-0.967175,0.426253,0.684847,0.74031,-0.620442,-0.411036,-0.739803,-0.895432,0.458828,0.900327,0.280277,-0.61377,0.0553082,-0.350276,1.03742,0.688669,-0.299412,0.229929,0.619048,-0.79816,-0.58434,-0.292317,0.6276,-0.575738,1.61655,-2.89205,-0.12119,-2.01744,-2.86024,-0.119168,-1.86893,-0.451733,-0.399242,-0.696837,-0.0676183,0.476815,0.523718,-0.418246,1
1.08601,-0.524256,-2.02658,-0.773323,2.41618,1.79367,-0.529206,1.10224,-0.503817,-2.01532,-0.751849,2.42003,1.78418,-0.51982,1.13719,-0.470838,-1.95667,-0.741755,2.38075,1.74136,-0.484097,-0.799848,-0.481533,-1.006,0.148521,0.552808,0.959158,-0.562789,-0.632609,-0.69194,-0.951319,0.373487,0.734665,0.621717,-0.602491,0.0483906,-0.354806,1.03423,0.695202,-0.301134,0.229591,0.610983,-0.658528,-0.417348,-0.287029,0.59928,-0.577015,1.59536,-2.89482,-0.130487,-2.1657,-2.82919,-0.12078,-1.93014,-0.511745,-0.534173,-0.699106,-0.315684,0.354349,0.523171,-0.451089,1
1.07391,-0.529361,-2.03779,-0.786197,2.4243,1.78949,-0.535789,1.08667,-0.520846,-2.02658,-0.770745,2.41977,1.79003,-0.528496,1.13086,-0.473569,-1.96742,-0.741,2.388,1.75036,-0.489751,-0.58063,-0.250333,-0.986143,0.069223,0.664798,0.82517,-0.518427,-0.711759,-0.504793,-0.986439,0.214666,0.634151,0.841546,-0.56722,0.0431432,-0.357849,1.03182,0.700399,-0.302874,0.229178,0.604307,-0.498009,-0.282842,-0.214558,0.571007,-0.577632,1.57315,-2.84887,-0.0621787,-2.23838,-2.82649,-0.110725,-2.03351,-0.569487,-0.557923,-0.703681,-0.451968,0.362997,0.39134,-0.460383,1
1.06631,-0.53256,-2.04764,-0.79052,2.44688,1.77197,-0.542442,1.07504,-0.528884,-2.03745,-0.784059,2.42792,1.78616,-0.535807,1.12605,-0.477153,-1.97794,-0.740618,2.39621,1.75796,-0.495766,-0.440682,-0.328653,-0.963895,0.0350281,0.752992,0.697175,-0.551449,-0.607053,-0.353506,-0.985346,0.0842573,0.656866,0.827168,-0.544222,0.038186,-0.3615,1.02927,0.705474,-0.30418,0.227401,0.598389,-0.463741,-0.331354,-0.235407,0.543029,-0.578426,1.54947,-2.76194,-0.078429,-2.3371,-2.82814,-0.0966167,-2.1737,-0.597407,-0.554065,-0.697042,-0.499024,0.506672,0.140048,-0.466763,1
1.06512,-0.542452,-2.05635,-0.790893,2.46045,1.78495,-0.546384,1.06791,-0.534233,-2.04736,-0.789532,2.44463,1.77959,-0.541764,1.1193,-0.484712,-1.98853,-0.743802,2.40297,1.76539,-0.502584,-0.618728,-0.692978,-0.971481,-0.291908,0.619067,0.681442,-0.625151,-0.54668,-0.423988,-0.97384,-0.0625523,0.678952,0.734596,-0.565009,0.0324847,-0.368236,1.02467,0.711859,-0.302904,0.224511,0.592537,-0.542704,-0.595847,-0.441927,0.51405,-0.579987,1.52487,-2.83373,-0.152617,-2.40631,-2.83353,-0.0990927,-2.29258,-0.54185,-0.577404,-0.678154,-0.470914,0.574844,0.19554,-0.438,1
1.05354,-0.561033,-2.06743,-0.802649,2.46283,1.80827,-0.553438,1.06252,-0.544624,-2.05694,-0.793739,2.45765,1.78753,-0.547162,1.11005,-0.494954,-1.99932,-0.751439,2.40773,1.77238,-0.509929,-0.848089,-0.939103,-0.988869,-0.700243,0.436678,0.640191,-0.673425,-0.635833,-0.653578,-0.974748,-0.319041,0.602912,0.672936,-0.616675,0.0264376,-0.377404,1.01816,0.719401,-0.298608,0.221265,0.586803,-0.591671,-0.799962,-0.635103,0.485764,-0.581452,1.49999,-2.80635,-0.145348,-2.46772,-2.83989,-0.112299,-2.39021,-0.565108,-0.660781,-0.68106,-0.512099,0.55101,0.358966,-0.435085,1
1.04181,-0.572143,-2.08033,-0.819734,2.45974,1.81869,-0.563636,1.0535,-0.559165,-2.06788,-0.803981,2.46146,1.80505,-0.554224,1.10013,-0.504573,-2.01013,-0.760686,2.41345,1.77628,-0.517265,-0.910056,-0.88182,-0.991036,-0.847775,0.524673,0.358113,-0.672534,-0.792291,-0.837967,-0.983795,-0.613308,0.526806,0.559915,-0.657037,0.0205411,-0.386743,1.01175,0.727353,-0.292597,0.217223,0.581514,-0.581205,-0.803581,-0.637011,0.457711,-0.58238,1.47457,-2.82724,-0.0934585,-2.56205,-2.83856,-0.125207,-2.46633,-0.58318,-0.675702,-0.701979,-0.590485,0.462933,0.424039,-0.463708,1
1.03137,-0.576251,-2.09232,-0.830392,2.45364,1.82867,-0.567948,1.04213,-0.570392,-2.0801,-0.818127,2.45899,1.81858,-0.562164,1.09099,-0.51298,-2.02068,-0.768863,2.42229,1.77722,-0.52421,-0.837244,-0.770864,-0.967531,-0.749707,0.810267,0.0860344,-0.636735,-0.865129,-0.863929,-0.982478,-0.765908,0.590539,0.361446,-0.660898,0.0144965,-0.395409,1.00628,0.735162,-0.286638,0.211674,0.576688,-0.582135,-0.736593,-0.554334,0.429772,-0.583815,1.44783,-2.93671,-0.150843,-2.81053,-2.82852,-0.131686,-2.53576,-0.596256,-0.632706,-0.716387,-0.61529,0.313545,0.514515,-0.437386,1
1.02289,-0.579494,-2.10305,-0.840159,2.45033,1.8376,-0.57176,1.03186,-0.576035,-2.092,-0.830169,2.45434,1.82841,-0.567823,1.08292,-0.52195,-2.03096,-0.775914,2.43231,1.78014,-0.530716,-0.740028,-0.822444,-0.942418,-0.646539,0.919134,0.268039,-0.596552,-0.829109,-0.825043,-0.966995,-0.748007,0.751358,0.237395,-0.635273,0.00796951,-0.403786,1.00057,0.742273,-0.282222,0.205587,0.571941,-0.612103,-0.714692,-0.56989,0.402176,-0.584953,1.41994,-2.74557,-0.113267,-2.77554,-2.79739,-0.122941,-2.62021,-0.600359,-0.575438,-0.720905,-0.642449,0.180147,0.574603,-0.410436,1
1.01339,-0.597182,-2.11352,-0.851131,2.46243,1.84137,-0.58253,1.02263,-0.583105,-2.10298,-0.84046,2.45418,1.83631,-0.573499,1.07458,-0.5325,-2.04143,-0.783871,2.44058,1.7872,-0.53738,-0.764677,-0.967234,-0.959612,-0.729479,0.757636,0.647191,-0.610989,-0.780649,-0.853514,-0.95652,-0.708575,0.829012,0.333755,-0.614758,0.00100113,-0.412541,0.993448,0.749076,-0.278552,0.200259,0.566736,-0.653289,-0.753773,-0.693097,0.374701,-0.585447,1.39124,-2.72031,-0.0489472,-2.84157,-2.77661,-0.105641,-2.72151,-0.61189,-0.646826,-0.720914,-0.672604,0.218572,0.541682,-0.451504,1
1.00691,-0.615222,-2.12443,-0.864673,2.47197,1.84231,-0.598285,1.01415,-0.59727,-2.11363,-0.851774,2.46179,1.84066,-0.583776,1.06538,-0.543241,-2.05239,-0.793581,2.4458,1.7961,-0.544405,-0.84344,-0.984858,-1.00515,-0.890362,0.478592,0.815502,-0.644168,-0.782715,-0.924846,-0.969061,-0.75546,0.718454,0.576911,-0.617236,-0.00573825,-0.421278,0.985395,0.755944,-0.274197,0.196486,0.561032,-0.64609,-0.753048,-0.776437,0.347419,-0.586818,1.3621,-2.85935,-0.143653,-3.05322,-2.75656,-0.1051,-2.81533,-0.58476,-0.719807,-0.720386,-0.710922,0.261708,0.462132,-0.5388,1
0.990004,-0.627692,-2.13587,-0.876268,2.46648,1.83846,-0.60729,1.0043,-0.613829,-2.12456,-0.864186,2.46821,1.84111,-0.596598,1.05588,-0.552537,-2.06362,-0.803953,2.44822,1.80526,-0.551044,-0.871363,-0.852334,-1.02964,-0.950951,0.222047,0.839806,-0.608638,-0.826493,-0.934809,-0.998134,-0.856931,0.486092,0.7675,-0.621265,-0.0117553,-0.429027,0.977466,0.762474,-0.269291,0.19466,0.555179,-0.593363,-0.667659,-0.759903,0.320285,-0.588372,1.33187,-2.77921,-0.159207,-3.09642,-2.73732,-0.109807,-2.89752,-0.658761,-0.751549,-0.722535,-0.723149,0.18258,0.332029,-0.562461,1
0.978173,-0.640112,-2.14841,-0.889457,2.44463,1.85206,-0.615365,0.991272,-0.627679,-2.13615,-0.876666,2.46239,1.84282,-0.607058,1.04515,-0.563377,-2.07641,-0.816038,2.45108,1.81473,-0.558987,-1.12472,-1.22941,-1.34996,-1.29623,0.388622,0.940779,-0.899192,-0.946509,-1.0222,-1.12825,-1.04585,0.363087,0.865363,-0.717333,-0.0187802,-0.437921,0.968218,0.770081,-0.263187,0.192066,0.548469,-0.821451,-0.928529,-1.05863,0.292411,-0.589385,1.29964,-2.88808,-0.104921,-3.33957,-2.73947,-0.117891,-2.99952,-0.66979,-0.767354,-0.719981,-0.734185,-0.0644239,0.373322,-0.563786,1
0.969366,-0.650803,-2.16021,-0.901398,2.43173,1.86762,-0.620452,0.978929,-0.63968,-2.14822,-0.889145,2.44687,1.85255,-0.614618,1.03485,-0.575527,-2.08864,-0.828074,2.4551,1.82215,-0.567982,-1.1081,-1.38936,-1.30297,-1.30991,0.475586,0.687871,-1.03797,-1.03473,-1.15703,-1.22752,-1.1857,0.362085,0.822819,-0.8486,-0.026332,-0.447453,0.958584,0.778173,-0.256485,0.187599,0.541728,-0.87746,-0.998223,-1.1236,0.264655,-0.590622,1.26691,-2.60159,-0.115954,-3.06833,-2.751,-0.129166,-3.11123,-0.654857,-0.752764,-0.715658,-0.733237,-0.233735,0.454688,-0.5247,1
0.963194,-0.663253,-2.17055,-0.911953,2.4385,1.87725,-0.626456,0.970025,-0.651243,-2.15984,-0.901051,2.43665,1.86614,-0.620681,1.02419,-0.58851,-2.1006,-0.840227,2.45792,1.82779,-0.5777,-1.1941,-1.42077,-1.28931,-1.32178,0.161998,0.545376,-1.0649,-1.14231,-1.34651,-1.31408,-1.30931,0.342069,0.724675,-1.00069,-0.03422,-0.457296,0.948561,0.786755,-0.248654,0.182777,0.534585,-0.903845,-0.982524,-1.15594,0.237325,-0.591407,1.23318,-2.73722,-0.0785547,-3.37789,-2.75817,-0.114266,-3.22817,-0.609977,-0.74743,-0.699512,-0.717263,-0.194217,0.494646,-0.487564,1
0.94922,-0.678759,-2.18258,-0.924223,2.45354,1.87259,-0.640642,0.961244,-0.664017,-2.17097,-0.912382,2.44057,1.87368,-0.628501,1.01297,-0.601456,-2.11253,-0.852472,2.45681,1.83354,-0.587182,-1.23459,-1.3865,-1.2947,-1.33024,-0.360473,0.689445,-0.995179,-1.17893,-1.39888,-1.29566,-1.32065,0.0923703,0.640897,-1.03268,-0.0419227,-0.466673,0.938218,0.795173,-0.239969,0.179768,0.527066,-0.874859,-0.904912,-1.18476,0.209877,-0.592362,1.19914,-2.5872,-0.0900982,-3.20862,-2.75903,-0.100014,-3.31933,-0.637448,-0.773034,-0.700493,-0.717509,-0.0326713,0.390462,-0.534594,1
0.934893,-0.693402,-2.19468,-0.936419,2.46266,1.86261,-0.652706,0.949132,-0.678544,-2.1826,-0.924204,2.45206,1.87126,-0.640111,1.00195,-0.614066,-2.12443,-0.864695,2.45242,1.84102,-0.59589,-1.15802,-1.3485,-1.28445,-1.31874,-0.57212,0.911201,-0.899247,-1.19557,-1.38526,-1.28949,-1.32359,-0.256865,0.715341,-0.986442,-0.0491638,-0.475247,0.927586,0.802786,-0.231386,0.17867,0.519685,-0.826111,-0.824671,-1.20241,0.182448,-0.593245,1.16414,-2.84985,-0.0917067,-3.63606,-2.74704,-0.0946009,-3.38766,-0.670568,-0.793357,-0.702515,-0.717232,0.102437,0.215916,-0.568154,1
0.923337,-0.702817,-2.20523,-0.948051,2.45313,1.83976,-0.66048,0.935586,-0.692095,-2.19429,-0.936278,2.458,1.85939,-0.651633,0.9929,-0.624605,-2.13447,-0.875001,2.44795,1.84814,-0.602918,-0.829757,-0.966246,-0.92035,-0.944917,-0.409942,0.652904,-0.644338,-1.07412,-1.23375,-1.1665,-1.19796,-0.447512,0.751183,-0.846255,-0.0551768,-0.482065,0.918421,0.808769,-0.224343,0.178216,0.513616,-0.602433,-0.568846,-0.872987,0.155387,-0.593562,1.12757,-2.60937,-0.0305239,-3.52631,-2.73413,-0.0771725,-3.47705,-0.695632,-0.782119,-0.707558,-0.730502,0.0518314,-0.0837783,-0.575624,1
0.915144,-0.713397,-2.21511,-0.958281,2.44617,1.85161,-0.664238,0.924178,-0.703108,-2.20506,-0.947701,2.45377,1.84843,-0.659476,0.983927,-0.635777,-2.14482,-0.885597,2.44586,1.85538,-0.61017,-0.822778,-1.02436,-0.948714,-0.971546,-0.191863,0.663811,-0.664936,-0.936852,-1.11304,-1.05117,-1.0784,-0.391309,0.742639,-0.736174,-0.0618364,-0.489076,0.90878,0.814856,-0.217519,0.176337,0.507544,-0.650623,-0.580472,-0.919503,0.128306,-0.596243,1.09092,-2.702,-0.267534,-3.65744,-2.72528,-0.10872,-3.56095,-0.687829,-0.776202,-0.702909,-0.726842,0.00314763,-0.0376932,-0.540678,1
0.907578,-0.728612,-2.22724,-0.970769,2.47048,1.87765,-0.670668,0.915301,-0.714556,-2.21567,-0.958846,2.45399,1.85516,-0.664906,0.971984,-0.64998,-2.15732,-0.898395,2.44853,1.85806,-0.620426,-1.32026,-1.52762,-1.34104,-1.37413,0.343607,0.0483814,-1.13197,-0.990932,-1.17274,-1.07004,-1.09687,-0.0860661,0.455032,-0.81375,-0.07148,-0.498408,0.897272,0.823787,-0.207541,0.170103,0.499367,-1.09711,-0.901466,-1.29302,0.10081,-0.597438,1.05276,-2.82593,-0.122851,-3.92176,-2.72275,-0.131496,-3.65989,-0.644061,-0.786319,-0.699186,-0.723743,0.219569,0.19595,-0.502421,1
0.901429,-0.739327,-2.23933,-0.983621,2.47988,1.88193,-0.684443,0.907932,-0.727487,-2.22723,-0.97086,2.46675,1.87221,-0.672504,0.961666,-0.661919,-2.1678,-0.909133,2.45121,1.85844,-0.629272,-0.945963,-1.09454,-0.960852,-0.984563,0.246193,0.0346651,-0.811056,-1.02967,-1.21551,-1.08354,-1.11008,0.132646,0.248953,-0.869322,-0.0799072,-0.506183,0.88758,0.831502,-0.19841,0.164215,0.492211,-0.797474,-0.617403,-0.941663,0.0736854,-0.598131,1.01295,-2.64847,-0.0676257,-3.88659,-2.72103,-0.136484,-3.77197,-0.602372,-0.774084,-0.715243,-0.744878,0.28669,0.234916,-0.55171,1
0.897283,-0.750611,-2.25086,-0.997557,2.48999,1.89262,-0.691201,0.90193,-0.739469,-2.23919,-0.983892,2.48006,1.88353,-0.682689,0.949677,-0.675352,-2.17999,-0.921777,2.45197,1.85663,-0.638668,-1.24686,-1.42197,-1.29408,-1.34453,0.0731948,-0.0535165,-0.951693,-1.17103,-1.34804,-1.19866,-1.23441,0.220998,0.00984332,-0.964908,-0.0892814,-0.514981,0.876372,0.840146,-0.186247,0.158148,0.484207,-1.02487,-0.779761,-1.26993,0.0463185,-0.598958,0.972097,-2.72894,-0.082485,-4.07391,-2.72758,-0.126809,-3.88913,-0.523939,-0.752587,-0.708624,-0.7578,0.380196,0.359838,-0.525333,1
0.887142,-0.759224,-2.26129,-1.00915,2.4902,1.88795,-0.702363,0.895784,-0.749943,-2.25058,-0.99697,2.48752,1.88878,-0.692302,0.939932,-0.686465,-2.19011,-0.932285,2.45254,1.85621,-0.646106,-0.893415,-1.01889,-0.92725,-0.9634,0.0524463,-0.0383463,-0.681918,-1.02875,-1.17847,-1.06073,-1.0975,0.123945,-0.0190659,-0.814889,-0.0970988,-0.521835,0.866814,0.846856,-0.176597,0.153271,0.477656,-0.743298,-0.532834,-0.923115,0.0262696,-0.606253,0.937048,-2.12958,-0.774906,-3.72295,-2.58565,-0.215408,-3.88396,-0.527902,-0.727586,-0.711864,-0.768612,0.376614,0.317336,-0.56257,1
0.885843,-0.770859,-2.27079,-1.01873,2.49984,1.87397,-0.712731,0.889352,-0.759979,-2.26106,-1.00865,2.49256,1.88562,-0.702164,0.930861,-0.698093,-2.20063,-0.94322,2.45657,1.86075,-0.653589,-0.831663,-1.06615,-0.964804,-1.00255,0.369346,0.415723,-0.686095,-0.990646,-1.169,-1.06205,-1.1035,0.164996,0.107953,-0.773235,-0.10546,-0.528091,0.856391,0.852969,-0.169526,0.14742,0.471139,-0.773212,-0.489371,-0.995408,0.0298623,-0.627798,0.919573,0.365067,-2.18917,-1.7756,-1.89312,-0.688415,-3.42273,-0.450184,-0.727658,-0.7016,-0.755148,0.432682,0.132223,-0.591421,1
0.882811,-0.788972,-2.27234,-1.00658,2.48863,1.90452,-0.717834,0.88541,-0.772479,-2.2688,-1.0133,2.49463,1.8851,-0.711415,0.92266,-0.709822,-2.21156,-0.954749,2.46323,1.86721,-0.661838,-0.751913,-1.07533,-1.0021,-1.05705,0.610424,0.592098,-0.756303,-0.825664,-1.05346,-0.964717,-1.00767,0.344072,0.323158,-0.708105,-0.113871,-0.534039,0.845469,0.858907,-0.163604,0.140475,0.464521,-0.763671,-0.464085,-1.03922,0.034952,-0.651448,0.902271,0.4649,-2.16029,-1.5804,-0.939231,-1.35475,-2.73886,-0.398492,-0.791498,-0.607828,-0.518322,0.254032,0.373108,-0.559963,1
0.950376,-0.787847,-2.22358,-0.935415,2.51192,1.9376,-0.71721,0.90046,-0.784163,-2.25976,-0.991828,2.49726,1.90515,-0.716402,0.915042,-0.721195,-2.22262,-0.966717,2.47011,1.87332,-0.670474,-0.69849,-1.04272,-1.01418,-1.09731,0.631211,0.560602,-0.791751,-0.760689,-1.0614,-0.993695,-1.05231,0.536994,0.522807,-0.744716,-0.12189,-0.539732,0.834467,0.864709,-0.157498,0.133321,0.457928,-0.725099,-0.439055,-1.04589,0.0403242,-0.675105,0.883624,0.555148,-2.44458,-1.92699,-0.0330632,-1.97488,-2.11723,0.353341,-0.666523,-0.00956792,0.313023,0.418075,0.642816,-0.467366,1
0.966875,-0.802107,-2.25655,-0.929067,2.52858,1.94011,-0.723394,0.937609,-0.791693,-2.24401,-0.95162,2.51026,1.92996,-0.718912,0.907759,-0.732189,-2.23352,-0.978603,2.47648,1.87681,-0.679457,-0.667648,-1.00798,-0.998939,-1.0897,0.583354,0.319661,-0.823627,-0.706017,-1.04201,-1.00507,-1.08135,0.60833,0.490787,-0.79056,-0.129539,-0.545393,0.823727,0.870584,-0.150293,0.125926,0.451264,-0.692245,-0.428744,-1.02351,0.0451002,-0.698111,0.863878,0.483988,-2.33142,-2.00091,0.481232,-2.31023,-1.82288,0.591153,-0.699175,-0.23036,0.495362,0.521012,0.633063,-0.439376,1
0.951721,-0.81696,-2.27219,-1.00178,2.52584,1.94253,-0.691291,0.958961,-0.802255,-2.25222,-0.948833,2.52373,1.94009,-0.713823,0.901424,-0.74361,-2.24352,-0.988438,2.48162,1.87916,-0.688516,-0.580862,-1.0471,-0.917085,-0.901737,0.47177,0.215561,-0.830566,-0.649,-1.0326,-0.976736,-1.02958,0.562112,0.365274,-0.815315,-0.13689,-0.550861,0.813409,0.876202,-0.143305,0.118772,0.444552,-0.662991,-0.414741,-0.981809,0.0499292,-0.721276,0.843259,0.479595,-2.30062,-2.04788,0.502819,-2.33619,-1.91022,0.502968,-0.733496,-0.286655,-0.133437,0.442127,0.63372,-0.0277539,1
0.950113,-0.830543,-2.29097,-1.02102,2.53,1.94586,-0.717801,0.955107,-0.816642,-2.27297,-0.988412,2.52756,1.94276,-0.705944,0.901151,-0.755105,-2.24812,-0.989399,2.48605,1.88653,-0.696421,-0.0250532,-1.05394,-0.422166,-0.0881016,0.406328,0.675553,-0.724754,-0.424521,-1.03634,-0.779396,-0.693178,0.487151,0.403591,-0.792983,-0.141715,-0.554488,0.806055,0.879312,-0.143663,0.113253,0.439709,-0.407901,-0.310518,-0.686887,0.0550758,-0.744238,0.821282,0.521831,-2.3282,-2.22831,0.498527,-2.31751,-2.02344,0.489626,-0.754378,-0.428475,-0.316176,0.439477,0.593324,-0.2138,1
0.975435,-0.840491,-2.28867,-1.00618,2.53088,1.96349,-0.737036,0.956846,-0.829634,-2.2857,-1.0125,2.52918,1.94944,-0.715982,0.911486,-0.765477,-2.24696,-0.97869,2.49292,1.89884,-0.702796,0.947537,-0.950904,0.10685,0.98187,0.629184,1.12878,-0.584539,0.113874,-1.01732,-0.4108,-0.00265618,0.502427,0.673296,-0.713286,-0.142068,-0.556319,0.803217,0.879073,-0.153529,0.10861,0.438022,0.0356977,-0.220273,-0.249894,0.0604134,-0.767544,0.799423,0.534753,-2.33497,-2.18998,0.50154,-2.31006,-2.10999,0.639493,-0.750139,-0.417064,-0.27488,0.379586,0.646512,-0.342391,1
0.998246,-0.849747,-2.28419,-0.988452,2.53621,1.97854,-0.747253,0.974807,-0.840318,-2.28812,-1.00546,2.53199,1.96284,-0.734781,0.924944,-0.775902,-2.24845,-0.970226,2.50165,1.91053,-0.705922,1.23388,-0.955846,-0.136668,0.775973,0.80077,1.07211,-0.286564,0.718786,-0.986898,-0.150661,0.55658,0.612094,0.958812,-0.531952,-0.140869,-0.559298,0.799235,0.87786,-0.161651,0.102996,0.438887,0.185117,-0.310124,-0.358439,0.0644796,-0.79011,0.775139,0.406852,-2.25786,-2.42974,0.49243,-2.30266,-2.21315,0.733029,-0.738443,-0.35744,-0.182254,0.345574,0.680051,-0.413313,1
1.00695,-0.861366,-2.28581,-1.00067,2.55094,1.98722,-0.746381,0.99472,-0.850338,-2.28571,-0.995939,2.53856,1.97695,-0.744481,0.933494,-0.787451,-2.2554,-0.975381,2.509,1.91967,-0.705928,0.783946,-1.05881,-0.637371,-0.472633,0.673433,0.837549,-0.000583388,0.988453,-0.988519,-0.222397,0.428403,0.701129,1.01281,-0.290562,-0.14047,-0.564627,0.790009,0.877427,-0.160898,0.0961029,0.441586,0.0929184,-0.455362,-0.862255,0.0690593,-0.812815,0.751194,0.459803,-2.27953,-2.40412,0.47664,-2.2895,-2.30273,0.734579,-0.739152,-0.304068,-0.252931,0.419463,0.675556,-0.404522,1
1.01216,-0.873478,-2.29751,-1.02303,2.56056,1.99503,-0.742487,1.00608,-0.861489,-2.28833,-1.00321,2.54966,1.987,-0.745625,0.940113,-0.799409,-2.26399,-0.985903,2.51472,1.92811,-0.708778,0.606895,-1.09632,-0.78741,-0.964652,0.524535,0.773641,-0.261293,0.874905,-1.03699,-0.520483,-0.220437,0.666246,0.894433,-0.182813,-0.140044,-0.570596,0.778731,0.878008,-0.156932,0.0888387,0.443376,0.0840455,-0.486414,-1.05874,0.0741963,-0.835595,0.725949,0.513959,-2.27919,-2.52571,0.468868,-2.27984,-2.38894,0.720422,-0.74069,-0.335162,-0.371274,0.458429,0.669287,-0.337088,1
1.02122,-0.88296,-2.3095,-1.03516,2.56415,2.00436,-0.740312,1.01312,-0.87282,-2.29758,-1.02047,2.55905,1.99541,-0.742917,0.949948,-0.811005,-2.27083,-0.991445,2.51961,1.93795,-0.716149,0.90172,-1.06326,-0.627263,-0.508202,0.448941,0.902881,-0.675837,0.764187,-1.0728,-0.684015,-0.648495,0.54897,0.838024,-0.312571,-0.138155,-0.575761,0.769172,0.878681,-0.156141,0.08241,0.443563,0.222308,-0.439961,-0.890056,0.0792374,-0.858825,0.699929,0.50541,-2.32898,-2.60877,0.473647,-2.28046,-2.48178,0.712715,-0.719551,-0.386659,-0.437171,0.445411,0.664081,-0.241629,1
1.03509,-0.895051,-2.31695,-1.03511,2.56825,2.01567,-0.749911,1.02242,-0.883612,-2.30836,-1.03212,2.56428,2.0036,-0.743256,0.96264,-0.822155,-2.27505,-0.992719,2.52498,1.94901,-0.72418,1.16365,-1.02228,-0.386849,-0.116787,0.492393,1.01348,-0.736351,0.890755,-1.06062,-0.600507,-0.52988,0.488623,0.896668,-0.557827,-0.134908,-0.580179,0.761362,0.878588,-0.158528,0.0762078,0.444008,0.357495,-0.39574,-0.720415,0.0840227,-0.882825,0.673649,0.46508,-2.33252,-2.55409,0.492643,-2.31439,-2.54245,0.724508,-0.728967,-0.418975,-0.423871,0.432635,0.666666,-0.257309,1
1.04982,-0.906712,-2.32086,-1.03877,2.5767,2.02711,-0.761772,1.0353,-0.894944,-2.31606,-1.03604,2.56934,2.00906,-0.750477,0.974953,-0.833305,-2.27881,-0.995692,2.53198,1.95978,-0.730259,1.12896,-1.02233,-0.345123,-0.272602,0.641431,0.987595,-0.55737,1.06478,-1.03596,-0.453078,-0.299197,0.527588,0.967986,-0.656519,-0.131574,-0.584666,0.753108,0.878081,-0.160416,0.0689375,0.445519,0.372835,-0.393924,-0.762872,0.0890922,-0.905547,0.645077,0.515944,-2.31253,-2.90792,0.498923,-2.32695,-2.64534,0.748636,-0.734076,-0.420466,-0.430732,0.447222,0.673361,-0.315122,1
1.06082,-0.917825,-2.32534,-1.04378,2.58484,2.03767,-0.766503,1.04889,-0.906575,-2.321,-1.0391,2.57662,2.01062,-0.759989,0.985772,-0.844506,-2.28413,-1.00272,2.53965,1.96988,-0.733847,0.992018,-1.02704,-0.487716,-0.6441,0.703686,0.92619,-0.328975,1.09488,-1.02389,-0.406563,-0.344497,0.612503,0.975756,-0.540899,-0.128474,-0.589502,0.74341,0.877448,-0.159868,0.0610673,0.448105,0.348113,-0.404642,-0.901175,0.0942378,-0.929036,0.615859,0.510509,-2.33041,-2.89882,0.499378,-2.33603,-2.75033,0.75053,-0.733193,-0.412019,-0.410603,0.45181,0.677925,-0.326561,1
1.07007,-0.929081,-2.33221,-1.05091,2.59277,2.0475,-0.767923,1.06038,-0.917861,-2.32594,-1.04431,2.58479,2.01062,-0.765675,0.996161,-0.855592,-2.291,-1.01105,2.54663,1.97944,-0.736514,0.952544,-1.0164,-0.629715,-0.764077,0.640013,0.876295,-0.244531,1.02451,-1.02192,-0.487518,-0.56026,0.66171,0.930027,-0.376959,-0.125288,-0.594408,0.733127,0.876862,-0.157829,0.0536832,0.450912,0.346888,-0.400992,-0.957111,0.099012,-0.951892,0.585515,0.454889,-2.17777,-2.8911,0.497644,-2.32346,-2.86617,0.739108,-0.734892,-0.412125,-0.398574,0.461359,0.680671,-0.314088,1
1.08059,-0.939399,-2.33926,-1.05949,2.59927,2.05607,-0.767413,1.07039,-0.928846,-2.33226,-1.05127,2.59241,2.01062,-0.767441,1.00726,-0.866747,-2.29811,-1.01813,2.55307,1.98783,-0.740472,1.01736,-1.02279,-0.651375,-0.649365,0.590064,0.769884,-0.362889,0.987307,-1.02208,-0.589602,-0.685847,0.644588,0.857456,-0.312132,-0.121726,-0.599345,0.723126,0.876574,-0.155455,0.0464988,0.453088,0.377781,-0.402282,-0.930982,0.103942,-0.975423,0.555146,0.489821,-2.33777,-3.0172,0.497591,-2.31543,-2.96568,0.733317,-0.72652,-0.411586,-0.413609,0.461985,0.68234,-0.269413,1
1.09204,-0.950561,-2.34661,-1.0687,2.60709,2.06204,-0.771349,1.08082,-0.93961,-2.33934,-1.05965,2.5996,2.01062,-0.768525,1.01906,-0.878037,-2.3046,-1.02408,2.55975,1.99429,-0.746005,1.082,-1.03518,-0.59507,-0.545044,0.612114,0.592339,-0.507267,1.0173,-1.02479,-0.625387,-0.652829,0.614064,0.746173,-0.371562,-0.117756,-0.604427,0.713516,0.876598,-0.152732,0.038772,0.454692,0.41723,-0.41157,-0.89557,0.109641,-0.998047,0.523003,0.586668,-2.32893,-3.30891,0.508027,-2.31387,-3.04862,0.72986,-0.72524,-0.420167,-0.446253,0.473394,0.677458,-0.253448,1
1.10357,-0.962062,-2.35291,-1.07559,2.61406,2.06614,-0.776625,1.09206,-0.950646,-2.34635,-1.06812,2.60687,2.01062,-0.771684,1.03077,-0.889326,-2.31065,-1.02981,2.56684,1.99892,-0.751581,1.07412,-1.03506,-0.554657,-0.525784,0.650792,0.42443,-0.511254,1.05782,-1.03101,-0.600368,-0.573397,0.617657,0.595551,-0.46047,-0.113684,-0.609598,0.70407,0.876709,-0.149306,0.0305449,0.456241,0.427218,-0.412912,-0.881482,0.114582,-1.02093,0.490629,0.48556,-2.24936,-3.18186,0.513169,-2.29949,-3.12973,0.72793,-0.727367,-0.42261,-0.457741,0.472136,0.67218,-0.250448,1
1.11471,-0.973522,-2.35903,-1.08081,2.62062,2.06965,-0.781291,1.10347,-0.962052,-2.35286,-1.07517,2.61395,2.01062,-0.776473,1.042,-0.900529,-2.31677,-1.0359,2.57409,2.00224,-0.756077,1.02967,-1.02717,-0.561703,-0.557758,0.664507,0.304117,-0.412214,1.06193,-1.03247,-0.570477,-0.542862,0.642471,0.440295,-0.476912,-0.10967,-0.614775,0.69456,0.876715,-0.144992,0.0222011,0.458099,0.419478,-0.406392,-0.888179,0.119281,-1.04376,0.455948,0.491951,-2.38928,-3.63052,0.511772,-2.29238,-3.23651,0.727092,-0.729937,-0.4226,-0.449125,0.465241,0.674076,-0.252141,1
1.12558,-0.984394,-2.36616,-1.08659,2.62714,2.07286,-0.783414,1.11464,-0.973375,-2.35928,-1.08095,2.62061,2.01062,-0.780655,1.05301,-0.911607,-2.32317,-1.04263,2.58132,2.00462,-0.759605,1.00897,-1.01575,-0.586544,-0.617396,0.662939,0.217909,-0.323542,1.03759,-1.02599,-0.567635,-0.566979,0.659412,0.315485,-0.41567,-0.105504,-0.619937,0.68487,0.87654,-0.139791,0.0138573,0.460374,0.430182,-0.397943,-0.905366,0.124782,-1.06705,0.421836,0.581615,-2.46254,-3.60689,0.513184,-2.28956,-3.33675,0.725683,-0.72787,-0.429938,-0.439584,0.458151,0.682418,-0.238083,1
1.13876,-0.996424,-2.37309,-1.09554,2.63704,2.07331,-0.787585,1.12616,-0.984684,-2.36611,-1.08738,2.62798,2.01062,-0.783926,1.06583,-0.924424,-2.33074,-1.05094,2.58965,2.00632,-0.763764,1.3654,-1.36487,-0.802512,-0.879015,0.881509,0.156139,-0.460969,1.13468,-1.13593,-0.650253,-0.684723,0.736318,0.226055,-0.398909,-0.100333,-0.625912,0.673441,0.876295,-0.132863,0.00407568,0.463074,0.614009,-0.526726,-1.23712,0.13009,-1.08844,0.384018,0.504076,-2.03157,-3.5911,0.510976,-2.26901,-3.46762,0.729339,-0.719999,-0.423492,-0.446039,0.473842,0.669894,-0.238203,1
1.15131,-1.00861,-2.37972,-1.10434,2.646,2.07437,-0.790095,1.1386,-0.996462,-2.37302,-1.0955,2.6368,2.01062,-0.78717,1.07821,-0.936829,-2.338,-1.05869,2.59756,2.00754,-0.768009,1.32131,-1.32565,-0.772115,-0.807207,0.835885,0.111878,-0.458713,1.23189,-1.23542,-0.72039,-0.767872,0.793444,0.161976,-0.414408,-0.0951742,-0.631514,0.6624,0.876047,-0.12589,-0.00525145,0.465474,0.604762,-0.489744,-1.19262,0.13434,-1.11126,0.348239,0.428407,-2.2998,-3.60641,0.503263,-2.25331,-3.56709,0.730986,-0.717762,-0.417246,-0.456426,0.484428,0.668301,-0.220864,1
1.16355,-1.02054,-2.38599,-1.11183,2.65427,2.07532,-0.792654,1.15124,-1.00854,-2.37963,-1.10401,2.64583,2.01062,-0.790107,1.09031,-0.948925,-2.34508,-1.06599,2.60523,2.00841,-0.772096,1.30026,-1.29702,-0.762867,-0.775892,0.825344,0.0801606,-0.429083,1.32899,-1.32918,-0.779164,-0.820704,0.847579,0.116059,-0.449589,-0.0900048,-0.636803,0.651639,0.875736,-0.118867,-0.0142037,0.467713,0.607545,-0.459837,-1.1703,0.138778,-1.13362,0.311496,0.445626,-2.24591,-3.68956,0.485527,-2.23943,-3.625,0.732469,-0.716109,-0.409134,-0.458362,0.490398,0.669104,-0.205587,1
1.17557,-1.03249,-2.394,-1.11834,2.6616,2.07673,-0.795998,1.1635,-1.02054,-2.38643,-1.11158,2.65403,2.01062,-0.792851,1.10238,-0.960869,-2.3521,-1.0733,2.61303,2.00904,-0.775947,1.31385,-1.29098,-0.758595,-0.805279,0.862252,0.0574376,-0.407049,1.31181,-1.30455,-0.764526,-0.796126,0.84116,0.0831589,-0.431615,-0.0846693,-0.641875,0.6409,0.875286,-0.111646,-0.0230855,0.469976,0.635141,-0.437919,-1.18083,0.143402,-1.15613,0.272316,0.443694,-2.15949,-3.7596,0.459286,-2.23345,-3.71561,0.731888,-0.716245,-0.418957,-0.450417,0.485681,0.676908,-0.200509,1
1.18465,-1.04387,-2.40187,-1.12134,2.66652,2.07879,-0.800171,1.17484,-1.03235,-2.39396,-1.11746,2.661,2.01062,-0.796205,1.11265,-0.970959,-2.35803,-1.07959,2.61977,2.00949,-0.779128,0.941415,-0.925028,-0.543557,-0.577008,0.617831,0.0411558,-0.291664,1.18518,-1.17101,-0.68834,-0.719393,0.768476,0.0595847,-0.375932,-0.0799919,-0.646014,0.631735,0.874802,-0.105362,-0.0305999,0.471894,0.463694,-0.298477,-0.849902,0.148902,-1.17953,0.234107,0.558096,-2.37431,-3.87714,0.466857,-2.27043,-3.75746,0.72005,-0.729097,-0.438415,-0.417428,0.46748,0.69296,-0.210431,1
1.19532,-1.0542,-2.4096,-1.12547,2.67186,2.08014,-0.802852,1.18505,-1.04361,-2.40184,-1.12162,2.66662,2.01062,-0.799798,1.12359,-0.981613,-2.36415,-1.08651,2.62716,2.00981,-0.782241,1.00286,-0.976782,-0.561413,-0.634571,0.67724,0.0294894,-0.285341,1.08604,-1.06426,-0.621188,-0.672286,0.719108,0.0426943,-0.328018,-0.0748328,-0.650245,0.621942,0.874111,-0.098508,-0.0386708,0.474058,0.509809,-0.299167,-0.906644,0.153657,-1.20281,0.194901,0.48842,-2.39134,-4.02689,0.487581,-2.29008,-3.84066,0.717314,-0.725896,-0.454519,-0.389509,0.446985,0.703271,-0.206116,1
1.20621,-1.065,-2.41781,-1.13019,2.67783,2.08107,-0.805716,1.19538,-1.05432,-2.40972,-1.12561,2.67202,2.01062,-0.802898,1.1349,-0.992648,-2.37047,-1.09362,2.63478,2.01004,-0.785248,1.03726,-1.01177,-0.57886,-0.651496,0.698537,0.0211301,-0.275748,0.993847,-0.971193,-0.561277,-0.621025,0.664536,0.0305918,-0.284251,-0.0693779,-0.654444,0.611762,0.87327,-0.0912618,-0.0469112,0.47631,0.536397,-0.291696,-0.940844,0.158703,-1.22518,0.153245,0.496839,-2.20275,-4.10214,0.501043,-2.29789,-3.93918,0.71312,-0.723541,-0.47341,-0.365707,0.430568,0.710305,-0.204681,1
1.2171,-1.07643,-2.42524,-1.13676,2.6855,2.08097,-0.809526,1.20621,-1.06516,-2.41762,-1.13065,2.67826,2.01062,-0.805953,1.14622,-1.0039,-2.37713,-1.10038,2.64221,2.01021,-0.788354,1.03793,-1.03178,-0.610689,-0.619608,0.681452,0.0151404,-0.284775,1.02602,-1.00678,-0.583654,-0.635225,0.685743,0.02192,-0.281955,-0.0639174,-0.658518,0.601426,0.872459,-0.0837842,-0.0548953,0.478312,0.533561,-0.27942,-0.953649,0.161834,-1.24701,0.111391,0.312886,-2.18124,-4.18172,0.46665,-2.27413,-4.02714,0.70881,-0.725256,-0.481155,-0.363807,0.432954,0.70765,-0.211715,1
