Afshin1997/kuka_rl_ros2/src/catch_and_throw/input_files/idealpd/env_0_data.csv
torque0,torque1,torque2,torque3,torque4,torque5,torque6,action0,action1,action2,action3,action4,action5,action6,set_target_0,set_target_1,set_target_2,set_target_3,set_target_4,set_target_5,set_target_6,joint_pos_0,joint_pos_1,joint_pos_2,joint_pos_3,joint_pos_4,joint_pos_5,joint_pos_6,joint_vel_0,joint_vel_1,joint_vel_2,joint_vel_3,joint_vel_4,joint_vel_5,joint_vel_6,joint_vel_disc_0,joint_vel_disc_1,joint_vel_disc_2,joint_vel_disc_3,joint_vel_disc_4,joint_vel_disc_5,joint_vel_disc_6,tennisball_pos_0,tennisball_pos_1,tennisball_pos_2,tennisball_lin_vel_0,tennisball_lin_vel_1,tennisball_lin_vel_2,end_effector_pos_0,end_effector_pos_1,end_effector_pos_2,end_effector_rot_0,end_effector_rot_1,end_effector_rot_2,end_effector_rot_3,end_effector_lin_vel_0,end_effector_lin_vel_1,end_effector_lin_vel_2,obs_task_0,obs_task_1,obs_task_2,obs_task_3,obs_task_4,obs_task_5,obs_task_6,to_final_target_0,to_final_target_1,to_final_target_2,joint_acc_0,joint_acc_1,joint_acc_2,joint_acc_3,joint_acc_4,joint_acc_5,joint_acc_6,joint_acc_disc_0,joint_acc_disc_1,joint_acc_disc_2,joint_acc_disc_3,joint_acc_disc_4,joint_acc_disc_5,joint_acc_disc_6
0,0,0,0,0,0,0,0,0,0,0,0,0,0,0.7853982,0,1.3264502,1.2217305,1.6057029,-0.9075712,1.5707964,0.7853982,0,1.3264502,1.2217305,1.6057029,-0.9075712,1.5707964,0,0,0,0,0,0,0,0,0,0,0,0,0,0,2.8164282,-0.4505477,0.28472835,-2.975023,0.1365772,5.4054074,0.33434677,-0.33252597,0.9089085,0.77467585,-0.054232832,0.61539257,-0.13501088,0,0,0,1,0,0,0,0,0,0,0,0,0,0,0,0,0,0,0,0,0,0,0,0,0,0,0
3.615577,21.96801,3.6275613,-25.453629,0.20146132,1.590431,-0.4046017,-0.05739136,0.23195629,-0.18185431,0.14764872,-0.44695038,0.9233149,0.59169114,0.7785112,0.027834754,1.3046277,1.2394483,1.5520688,-0.79677343,1.6417993,0.78534144,0.00022625586,1.3262728,1.2218707,1.6052537,-0.9074415,1.5709003,-0.011365368,0.045251172,-0.03547846,0.02812122,-0.08977224,0.025944926,0.020821039,-0.011348724,0.045251172,-0.035476685,0.028038025,-0.08983612,0.025939941,0.0207901,2.8015528,-0.44986486,0.31150782,-2.975023,0.1365772,5.355893,0.3343811,-0.3325646,0.908802,0.77447045,-0.054171167,0.6156099,-0.13522388,0.0068947505,-0.007709615,-0.021365922,1,0,0,0,0,0,0,0,0,0,-2.2730737,9.050235,-7.095692,5.624244,-17.954449,5.1889853,4.164208,-2.2697449,9.050235,-7.095337,5.607605,-17.967224,5.1879883,4.15802
-7.1133647,3.0579267,-6.9107656,-35.0157,1.6989719,2.865371,-0.7016248,-0.08099909,0.096522726,-0.17303453,-0.054416627,-0.62131184,0.9179539,0.33397996,0.77562153,0.011808982,1.3055087,1.2153406,1.5306963,-0.79728705,1.6109779,0.785206,0.0005462369,1.3259276,1.2219574,1.6042037,-0.90717494,1.5710529,-0.027113857,0.063996226,-0.06903226,0.017285226,-0.20992999,0.053313516,0.030526834,-0.02708435,0.0639962,-0.06904602,0.017356873,-0.20999908,0.053310394,0.030517578,2.7866774,-0.44918203,0.33803973,-2.975023,0.1365772,5.306379,0.33438015,-0.33267665,0.90865993,0.77406925,-0.05409348,0.6160065,-0.13574499,-0.0004369773,-0.022447474,-0.028322442,1,0,0,0,0,0,0,0,0,0,-3.149698,3.7490108,-6.7107596,-2.167199,-24.03155,5.473718,1.941159,-3.1471252,3.7490063,-6.713867,-2.1362305,-24.032593,5.4740906,1.9454956
3.5029848,6.8996477,3.6063213,-50.601685,5.788477,0.9103015,0.0602333,-0.08892458,-0.076585844,0.27520877,-0.23863068,-0.039937012,0.92348504,0.38797572,0.77453506,-0.008644065,1.3589526,1.1933217,1.5994112,-0.79635674,1.61761,0.78499097,0.0007631526,1.3258733,1.2217934,1.6031756,-0.90677774,1.571257,-0.042971246,0.043383155,-0.010907545,-0.032895457,-0.20556068,0.07945672,0.040884893,-0.04301071,0.043383148,-0.010871887,-0.032806396,-0.20561218,0.07944107,0.04081726,2.771802,-0.4484992,0.36432403,-2.975023,0.1365772,5.2568645,0.3343792,-0.33274174,0.90863913,0.77375376,-0.054052554,0.6162952,-0.13624837,0.00017429351,-0.012969367,-0.004098776,1,0,0,0,0,0,0,0,0,0,-3.1714778,-4.122614,11.624943,-10.036137,0.8738607,5.22864,2.071612,-3.1852722,-4.122611,11.634827,-10.032654,0.8773804,5.2261353,2.0599365
9.534496,16.906582,9.958678,-31.262703,2.867615,0.15140238,0.14375055,-0.29872823,0.023927229,0.4619954,0.08239609,-0.13140857,0.92289525,-0.30798838,0.7491436,0.0036344198,1.3813127,1.231681,1.5874066,-0.7960303,1.5342984,0.7845027,0.000962919,1.326312,1.2216971,1.6021552,-0.90625656,1.5714096,-0.097627684,0.0399533,0.08769934,-0.019235685,-0.20408896,0.10418897,0.030423379,-0.09765625,0.039953273,0.08773804,-0.019264221,-0.2040863,0.1042366,0.030517578,2.7569265,-0.44781637,0.39036077,-2.975023,0.1365772,5.2073503,0.33444977,-0.3327682,0.90859276,0.77344966,-0.054020844,0.61657953,-0.13670026,0.013877762,-0.005340935,-0.009284066,1,0,0,0,0,0,0,0,0,0,-10.931288,-0.68597126,19.721376,2.7319543,0.29434562,4.9464507,-2.092303,-10.929108,-0.68597496,19.721985,2.708435,0.30517578,4.9591064,-2.0599365
-14.086997,-24.449839,-13.186891,-9.937698,0.6017777,3.1228502,0.057647794,-0.37307835,-0.15078464,0.37225053,0.29597455,-0.5704205,0.9042054,-0.49883568,0.7397333,-0.017131237,1.370982,1.2572141,1.5337048,-0.7977519,1.5115494,0.7836792,0.0009887331,1.3271188,1.2219079,1.6007123,-0.90562093,1.5714792,-0.16471788,0.00516279,0.16143005,0.04223162,-0.2885369,0.12712835,0.01387756,-0.16469955,0.0051628333,0.1613617,0.042152405,-0.28858185,0.12712479,0.013923645,2.7420511,-0.44713354,0.41614994,-2.975023,0.1365772,5.157836,0.33449268,-0.33292913,0.90836614,0.7730244,-0.05389101,0.61701375,-0.13719717,0.00876437,-0.0321328,-0.04537972,1,0,0,0,0,0,0,0,0,0,-13.418039,-6.9581017,14.746141,12.293461,-16.88959,4.5878754,-3.3091636,-13.408661,-6.9580884,14.724731,12.283325,-16.899109,4.5776367,-3.3187866
-22.395348,-41.43238,-21.318123,-32.880497,4.8222356,3.8998954,0.044300113,-0.44781414,-0.32627612,0.557021,-0.06865341,-0.33702868,0.91520363,-0.73721105,0.7299415,-0.0381644,1.3939613,1.2136694,1.5602689,-0.7957965,1.4830139,0.78248185,0.00067215983,1.3284129,1.2220623,1.5990758,-0.90487564,1.5714325,-0.23944005,-0.06331463,0.25875545,0.030973956,-0.32736713,0.14908266,-0.009396949,-0.23946762,-0.06331466,0.2588272,0.030899048,-0.32730103,0.1490593,-0.009346008,2.7271757,-0.4464507,0.44169155,-2.975023,0.1365772,5.1083217,0.33443308,-0.33320355,0.90814817,0.7726353,-0.053723108,0.61739767,-0.1377262,-0.01209893,-0.055021144,-0.04363963,1,0,0,0,0,0,0,0,0,0,-14.944434,-13.695484,19.46508,-2.2515326,-7.766044,4.3908625,-4.654902,-14.953613,-13.695499,19.493103,-2.2506714,-7.7438354,4.386902,-4.6539307
-34.26204,-66.05753,-33.039696,-13.385308,3.0486197,5.290763,0.29772505,-0.45875502,-0.46952972,0.5353464,0.23771636,-0.54933095,0.90022284,-0.7576033,0.72743124,-0.055671405,1.3926544,1.2505883,1.533156,-0.7968489,1.4805201,0.7809426,-0.000104141975,1.3301266,1.22242,1.5970922,-0.90402925,1.5712694,-0.30782625,-0.15526037,0.34271795,0.07154558,-0.39671487,0.16928005,-0.032569453,-0.30784607,-0.15526037,0.34275055,0.071525574,-0.39672852,0.16927719,-0.03261566,2.7123003,-0.44576788,0.46698558,-2.975023,0.1365772,5.0588074,0.33423424,-0.33369112,0.90780604,0.7722285,-0.05341702,0.61781716,-0.13824461,-0.03961916,-0.09763378,-0.06848375,1,0,0,0,0,0,0,0,0,0,-13.677239,-18.389147,16.7925,8.114325,-13.869548,4.0394783,-4.634501,-13.67569,-18.389141,16.784668,8.125305,-13.885498,4.043579,-4.6539307
-35.65365,-69.17906,-34.42366,-10.167986,3.7229884,5.380094,0.7273932,-0.49686265,-0.4985102,0.55556196,0.32861558,-0.20377144,0.8914925,-0.7328647,0.7213191,-0.059925366,1.3967941,1.2618538,1.5726396,-0.7970502,1.4833256,0.7790715,-0.0013252418,1.332219,1.2230752,1.5951247,-0.9030899,1.5709985,-0.37418854,-0.24421994,0.41856274,0.131115,-0.39357793,0.18791068,-0.05422916,-0.3742218,-0.24421994,0.4184723,0.13103485,-0.39348602,0.18787384,-0.0541687,2.697425,-0.44508505,0.49203205,-2.975023,0.1365772,5.009293,0.33389378,-0.3343959,0.90733534,0.77189004,-0.05289172,0.6181966,-0.13864037,-0.06814913,-0.14082485,-0.09409083,1,0,0,0,0,0,0,0,0,0,-13.272458,-17.791916,15.168959,11.913885,0.62738657,3.7261248,-4.331941,-13.2751465,-17.791916,15.144348,11.901855,0.64849854,3.7193298,-4.310608
-38.68058,-70.906586,-37.24541,-16.042536,4.8456907,5.7653317,0.7983719,-0.6212159,-0.5221879,0.5910563,0.2876489,-0.08104146,0.89150554,-0.4935845,0.7045256,-0.063987784,1.4031458,1.257593,1.5853997,-0.7961092,1.5117685,0.7767908,-0.002956274,1.3346738,1.223963,1.5933375,-0.90206325,1.5706581,-0.45609736,-0.32620645,0.49097097,0.17749663,-0.3574229,0.20531411,-0.068178535,-0.45614243,-0.32620645,0.49095154,0.17757416,-0.35743713,0.20532608,-0.068092346,2.6825495,-0.44440222,0.5168309,-2.975023,0.1365772,4.959779,0.33338356,-0.33531547,0.90678424,0.77166367,-0.052117586,0.6184831,-0.13891517,-0.10222785,-0.183855,-0.11012522,1,0,0,0,0,0,0,0,0,0,-16.381763,-16.3973,14.481646,9.276324,7.231009,3.4806876,-2.789875,-16.384125,-16.3973,14.49585,9.307861,7.209778,3.490448,-2.784729
-40.7929,-74.34456,-39.386078,-8.603347,3.3205194,6.0373816,0.6812322,-0.63694775,-0.59284496,0.5847659,0.41179866,-0.3758926,0.86074615,-0.23150785,0.7003571,-0.07409766,1.4048457,1.2733788,1.5482304,-0.7987737,1.5428772,0.7741272,-0.0050099287,1.3374385,1.2251656,1.5914445,-0.90095985,1.570289,-0.532685,-0.4107308,0.5528678,0.24044809,-0.37866187,0.22063442,-0.073833324,-0.5327225,-0.41073096,0.55294037,0.24051666,-0.3786087,0.22068024,-0.07381439,2.667674,-0.4437194,0.54138225,-2.975023,0.1365772,4.9102645,0.33270168,-0.33648062,0.90608484,0.7714608,-0.051090986,0.6187783,-0.13910963,-0.13655117,-0.23284984,-0.13974261,1,0,0,0,0,0,0,0,0,0,-15.317524,-16.904873,12.379372,12.590292,-4.2477965,3.0640602,-1.1309578,-15.3160095,-16.904903,12.397766,12.588501,-4.234314,3.0708313,-1.1444092
-32.92632,-60.589287,-31.64571,-13.093337,3.1427855,5.000308,0.44764185,-0.6625661,-0.6054687,0.6771797,0.38070488,-0.42416188,0.83859414,-0.6182193,0.69461924,-0.07766617,1.4187,1.2708502,1.5405451,-0.80032855,1.4961027,0.7711074,-0.007446887,1.3405579,1.2266228,1.5893779,-0.89978874,1.569836,-0.60391474,-0.48739177,0.62387896,0.2913827,-0.41333035,0.234194,-0.090691365,-0.60396194,-0.48739165,0.62389374,0.29144287,-0.41332245,0.23422241,-0.09059906,2.6527987,-0.44303656,0.565686,-2.975023,0.1365772,4.86075,0.33188248,-0.3378408,0.9052567,0.77126116,-0.049896047,0.61909115,-0.13925736,-0.16389613,-0.2715228,-0.16539614,1,0,0,0,0,0,0,0,0,0,-14.245951,-15.332192,14.202225,10.186922,-6.933695,2.711916,-3.3716083,-14.247894,-15.332138,14.190674,10.185242,-6.942749,2.708435,-3.3569336
-29.327951,-53.08379,-28.116644,-16.6584,3.109855,4.515414,0.29603037,-0.6738049,-0.6247318,0.6831079,0.37196347,-0.49693537,0.76031595,-0.64531064,0.6902508,-0.082414694,1.4225309,1.2712585,1.5297456,-0.80855083,1.4923987,0.76776904,-0.010232674,1.3439997,1.228286,1.5870824,-0.8985661,1.5692934,-0.6676627,-0.5571574,0.68845356,0.3325975,-0.45906407,0.24451002,-0.10845487,-0.6676674,-0.5571574,0.6883621,0.3326416,-0.45909882,0.2445221,-0.10852814,2.6379232,-0.44235373,0.5897422,-2.975023,0.1365772,4.811236,0.33093977,-0.33936858,0.90431684,0.7710482,-0.048578184,0.6194319,-0.13938735,-0.1888946,-0.3048085,-0.18780759,1,0,0,0,0,0,0,0,0,0,-12.749588,-13.953125,12.91492,8.242959,-9.146744,2.0632057,-3.5527005,-12.741089,-13.95315,12.893677,8.239746,-9.155273,2.0599365,-3.5858154
-27.054405,-47.429153,-25.724333,-25.213615,4.225394,4.198914,0.26551875,-0.7163986,-0.6439579,0.7216045,0.29551554,-0.39480165,0.8124801,-0.6429707,0.6818012,-0.08750762,1.4305923,1.2637479,1.5397062,-0.80106854,1.492137,0.7641155,-0.013337726,1.3477582,1.2300484,1.584681,-0.8972882,1.5686649,-0.73069745,-0.6210107,0.75176936,0.35246155,-0.48020038,0.25554064,-0.12564617,-0.73070526,-0.62101036,0.7516861,0.35247803,-0.4802704,0.25558472,-0.12569427,2.6230478,-0.4416709,0.6135508,-2.975023,0.1365772,4.7617216,0.3298707,-0.34103155,0.90332717,0.7708647,-0.047159266,0.6197433,-0.13950501,-0.21439111,-0.33149746,-0.19770078,1,0,0,0,0,0,0,0,0,0,-12.606955,-12.770664,12.663162,3.9728105,-4.2272625,2.2061229,-3.438261,-12.607574,-12.770594,12.664795,3.9672852,-4.234314,2.2125244,-3.4332275
-25.457333,-44.34498,-24.096886,-25.021166,4.3997183,3.9368162,0.38221994,-0.74186987,-0.66295487,0.7411614,0.35135314,-0.29617375,0.79905164,-0.6671444,0.67509115,-0.092892304,1.4366975,1.2722108,1.5491402,-0.80140203,1.4886075,0.76016253,-0.0167366,1.3518132,1.2319386,1.5823007,-0.8959607,1.5679506,-0.79063755,-0.67977524,0.81093585,0.37796533,-0.47616518,0.26552054,-0.14291595,-0.790596,-0.67977494,0.81100464,0.3780365,-0.47607422,0.26550293,-0.14286041,2.6081724,-0.44098806,0.63711184,-2.975023,0.1365772,4.7122073,0.328681,-0.3428161,0.90228915,0.77073747,-0.04562412,0.62000066,-0.1395755,-0.23851967,-0.3557078,-0.20731542,1,0,0,0,0,0,0,0,0,0,-11.98802,-11.752903,11.833298,5.1007566,0.8070409,1.9959807,-3.4539552,-11.978149,-11.752915,11.8637085,5.1116943,0.8392334,1.9836426,-3.4332275
-22.063826,-38.62682,-20.815395,-21.312037,4.0392447,3.4479668,0.5593394,-0.745007,-0.6610668,0.74394965,0.45019737,-0.19466224,0.7211336,-0.55803555,0.6707617,-0.09606461,1.4410871,1.2859623,1.5589412,-0.80942464,1.5009863,0.75594634,-0.02038728,1.3561276,1.2340395,1.5800529,-0.8945979,1.5671686,-0.84322435,-0.73013604,0.8628245,0.42015967,-0.44952187,0.2725368,-0.15639874,-0.84323883,-0.73013604,0.8628845,0.4201889,-0.44956207,0.27256012,-0.15640259,2.593297,-0.44030523,0.6604253,-2.975023,0.1365772,4.662693,0.3273921,-0.34470868,0.90117675,0.7706777,-0.043947723,0.62020314,-0.13954397,-0.25838012,-0.3769992,-0.22210295,1,0,0,0,0,0,0,0,0,0,-10.517359,-10.07216,10.377729,8.438868,5.328661,1.4032543,-2.696559,-10.528564,-10.07222,10.375977,8.430481,5.302429,1.411438,-2.708435
-20.177567,-35.93406,-18.998047,-19.855309,3.2609153,2.8346655,0.39863753,-0.7310393,-0.7056694,0.7382724,0.468938,-0.41714492,-0.2409116,-0.40083098,0.6682216,-0.10506761,1.4447203,1.290312,1.5299954,-0.9235073,1.5190688,0.7515189,-0.024296138,1.3606585,1.2363532,1.5777211,-0.8933443,1.5663446,-0.8855274,-0.78177154,0.90627086,0.46272755,-0.4664355,0.25069526,-0.16472326,-0.8854866,-0.78177154,0.90618134,0.46272278,-0.46634674,0.25072098,-0.16479492,2.5784216,-0.4396224,0.6834912,-2.975023,0.1365772,4.6131787,0.32601213,-0.34669137,0.89996123,0.7706244,-0.0422107,0.6204209,-0.13940623,-0.2767288,-0.3947945,-0.2426362,1,0,0,0,0,0,0,0,0,0,-8.460606,-10.327101,8.689272,8.513576,-3.3827245,-4.368311,-1.6649038,-8.449554,-10.327101,8.659363,8.506775,-3.3569336,-4.3678284,-1.6784668
-18.279144,-31.287884,-16.837166,-26.848318,3.9939961,2.4583328,0.36397427,-0.7500726,-0.719727,0.7535284,0.39411294,-0.3941018,-0.49873605,-0.00979745,0.66151017,-0.11066337,1.451082,1.2836467,1.5304289,-0.9531926,1.565169,0.74689454,-0.028445158,1.3653897,1.2387803,1.5753112,-0.89223945,1.5655388,-0.9248712,-0.82980335,0.946278,0.48537883,-0.48193434,0.2209307,-0.16117136,-0.92487335,-0.82980394,0.94623566,0.48542023,-0.481987,0.22096634,-0.16117096,2.5635462,-0.43893957,0.7063095,-2.975023,0.1365772,4.5636644,0.32453728,-0.3487358,0.89868885,0.7705935,-0.0404442,0.6206327,-0.13915774,-0.2955688,-0.40672484,-0.25397524,1,0,0,0,0,0,0,0,0,0,-7.868767,-9.606361,8.001423,4.530257,-3.0997694,-5.9529123,0.7103801,-7.87735,-9.606481,8.010864,4.5394897,-3.1280518,-5.9509277,0.7247925
-15.762853,-24.574764,-13.884391,-36.40824,4.90903,2.164208,0.25284746,-0.7695974,-0.72093344,0.77326435,0.2814516,-0.39866406,-0.40899667,0.28256968,0.65454286,-0.11495717,1.4581814,1.2725544,1.5274715,-0.94131905,1.5994471,0.74208134,-0.03280302,1.3703135,1.2411845,1.5728307,-0.8912648,1.5647949,-0.96266043,-0.87157243,0.98478144,0.48074928,-0.49602517,0.1949017,-0.14884432,-0.96263885,-0.8715726,0.9847641,0.4808426,-0.49610138,0.19493103,-0.1487732,2.5486708,-0.43825674,0.7288802,-2.975023,0.1365772,4.51415,0.32296896,-0.35081053,0.8974253,0.7706029,-0.0386779,0.62080646,-0.13883224,-0.314604,-0.41258308,-0.25225434,1,0,0,0,0,0,0,0,0,0,-7.557845,-8.353817,7.7006936,-0.9259105,-2.8181672,-5.205798,2.465409,-7.5531006,-8.353734,7.7056885,-0.91552734,-2.822876,-5.207062,2.4795532
-13.38463,-18.943092,-11.155076,-41.87067,5.3188233,1.7980282,0.16602533,-0.77129894,-0.7240621,0.77431846,0.21708247,-0.4234558,-0.59777826,0.4827545,0.64952546,-0.11969047,1.4632317,1.2672343,1.5220159,-0.9629982,1.6227255,0.7371022,-0.03734254,1.3754061,1.2434886,1.5702662,-0.8904408,1.5641397,-0.99578863,-0.9079053,1.0185307,0.46077913,-0.5129162,0.16480465,-0.13094929,-0.9958267,-0.9079039,1.0185242,0.46081543,-0.51288605,0.16479492,-0.13103485,2.5337954,-0.4375739,0.7512034,-2.975023,0.1365772,4.464636,0.3213086,-0.35289264,0.8962037,0.770656,-0.03694307,0.62093306,-0.13844353,-0.33292708,-0.4137052,-0.24365242,1,0,0,0,0,0,0,0,0,0,-6.6256404,-7.266569,6.7498565,-3.9940298,-3.3782065,-6.0194106,3.5790057,-6.6375732,-7.266259,6.752014,-4.005432,-3.3569336,-6.0272217,3.5476685
-13.219791,-17.198168,-10.649324,-44.55322,5.328009,1.7508309,0.014371242,-0.7816262,-0.74082303,0.77198714,0.16883144,-0.51294494,-0.6798649,0.45437366,0.6433071,-0.1262413,1.4680446,1.2637483,1.5087129,-0.9720246,1.6186645,0.73197144,-0.04205375,1.3806418,1.2456486,1.5675387,-0.8897728,1.5635666,-1.0261378,-0.94224066,1.047042,0.43206728,-0.5454509,0.13361518,-0.114574544,-1.0261536,-0.94224215,1.0471344,0.43201447,-0.5455017,0.13360977,-0.11463165,2.51892,-0.43689108,0.773279,-2.975023,0.1365772,4.4151216,0.31955385,-0.35497642,0.89503765,0.77073354,-0.035269648,0.62102544,-0.13803373,-0.35193157,-0.41390848,-0.23252894,1,0,0,0,0,0,0,0,0,0,-6.069839,-6.867075,5.702257,-5.742371,-6.5069437,-6.237894,3.2749488,-6.0653687,-6.867647,5.722046,-5.760193,-6.5231323,-6.23703,3.2806396
-12.044655,-12.701812,-8.668228,-55.4999,6.3759303,1.5590949,-0.16926806,-0.7774847,-0.74773824,0.7682433,-0.015834738,-0.5585066,-0.7609534,0.7003171,0.6386733,-0.13178234,1.472831,1.2437484,1.500518,-0.9810872,1.6476046,0.7267143,-0.0469205,1.3859948,1.2474988,1.5646148,-0.88926494,1.5631069,-1.051469,-0.9733497,1.0706372,0.37005585,-0.58476907,0.10156853,-0.09186897,-1.0514259,-0.9733498,1.0705948,0.37002563,-0.5847931,0.101566315,-0.091934204,2.5040445,-0.43620825,0.79510707,-2.975023,0.1365772,4.3656073,0.31769514,-0.35703516,0.8940003,0.77084875,-0.03370521,0.6210543,-0.13765043,-0.37275743,-0.40879217,-0.20662184,1,0,0,0,0,0,0,0,0,0,-5.066228,-6.221807,4.719043,-12.402285,-7.863629,-6.409331,4.5411153,-5.054474,-6.221533,4.6920776,-12.397766,-7.8582764,-6.4086914,4.5394897
-11.269599,-9.204209,-7.0430565,-64.65841,7.383577,1.4524174,-0.29867908,-0.7738663,-0.7532426,0.7648603,-0.17063388,-0.5485352,-0.7216362,0.7394012,0.63385034,-0.13730961,1.4777781,1.2270226,1.4987905,-0.9758613,1.6518351,0.72135323,-0.051926546,1.391445,1.2489073,1.5615239,-0.8889035,1.5627636,-1.0722477,-1.0012085,1.0900216,0.28171775,-0.6182169,0.07225121,-0.06873922,-1.072216,-1.001209,1.0900497,0.2817154,-0.6181717,0.07228851,-0.06866455,2.4891691,-0.43552542,0.8166875,-2.975023,0.1365772,4.316093,0.31572437,-0.35904908,0.89315766,0.7710269,-0.032282148,0.6209792,-0.13733216,-0.39516994,-0.3997499,-0.16765782,1,0,0,0,0,0,0,0,0,0,-4.155755,-5.5717707,3.8768768,-17.667622,-6.6895604,-5.863464,4.6259494,-4.15802,-5.571842,3.8909912,-17.662048,-6.67572,-5.8555603,4.6539307
-10.883183,-7.912382,-6.3738475,-63.338966,7.231152,1.4186208,-0.26588887,-0.77597874,-0.75569797,0.7573561,-0.18110411,-0.54122204,-0.7132147,0.7547021,0.6282358,-0.1426103,1.4823278,1.2271749,1.4965773,-0.9744893,1.6533278,0.71590203,-0.05705469,1.3969706,1.2499039,1.5582957,-0.8886794,1.5625328,-1.0902278,-1.0256306,1.1050297,0.19934379,-0.64559394,0.044783633,-0.046101995,-1.0902405,-1.025629,1.1051178,0.19931793,-0.6456375,0.044822693,-0.046157837,2.4742937,-0.4348426,0.83802044,-2.975023,0.1365772,4.2665787,0.31364727,-0.3610201,0.8924996,0.7712681,-0.030986767,0.6208024,-0.13707508,-0.41678545,-0.39117715,-0.13059123,1,0,0,0,0,0,0,0,0,0,-3.5960197,-4.88441,3.0016184,-16.474792,-5.475414,-5.493515,4.5274453,-3.604889,-4.8840046,3.0136108,-16.479492,-5.493164,-5.493164,4.501343
-10.806078,-8.628519,-6.3080616,-58.226273,6.80712,1.4063263,-0.13679725,-0.7722839,-0.7730131,0.7597836,-0.14742555,-0.4995769,-0.6890189,0.6859999,0.62322795,-0.14981626,1.4881446,1.2322129,1.4983464,-0.97136164,1.6448528,0.7103779,-0.06230425,1.4025611,1.2505782,1.5549912,-0.8885821,1.5624002,-1.1048441,-1.0499138,1.1180922,0.13482426,-0.6609582,0.019498466,-0.026466861,-1.1048317,-1.049912,1.1180878,0.13484955,-0.6608963,0.019454956,-0.026512146,2.4594183,-0.43415976,0.85910577,-2.975023,0.1365772,4.2170644,0.31147003,-0.3629563,0.89199245,0.771577,-0.029787578,0.6205276,-0.1368465,-0.43683928,-0.38432494,-0.10031958,1,0,0,0,0,0,0,0,0,0,-2.9232502,-4.856634,2.6124954,-12.903905,-3.072846,-5.0570335,3.9270267,-2.9182434,-4.8565865,2.5939941,-12.893677,-3.0517578,-5.0735474,3.9291382
-10.749988,-7.7612906,-5.8149805,-58.90329,6.899159,1.3768837,-0.14107814,-0.77941906,-0.7788992,0.7604557,-0.20488526,-0.49063107,-0.71559083,0.6758709,0.6168476,-0.15577215,1.4938158,1.225992,1.4961156,-0.97445303,1.6435047,0.70478505,-0.06766557,1.4082078,1.2509263,1.5516343,-0.88860786,1.5623592,-1.1185472,-1.0722693,1.1294187,0.069667086,-0.67135817,-0.005176856,-0.008128335,-1.1185646,-1.0722637,1.1293411,0.069618225,-0.6713867,-0.0051498413,-0.008201599,2.444543,-0.43347692,0.8799435,-2.975023,0.1365772,4.16755,0.30919313,-0.36485553,0.89164066,0.77195823,-0.028683424,0.62014866,-0.13665,-0.45693606,-0.37698025,-0.06914749,1,0,0,0,0,0,0,0,0,0,-2.7406216,-4.4711113,2.2653103,-13.031435,-2.0799994,-4.9350643,3.6677055,-2.746582,-4.4703484,2.2506714,-13.046265,-2.0980835,-4.9209595,3.6621094
-10.568263,-8.304786,-5.8114614,-53.12899,6.168715,1.3537843,-0.072286606,-0.76139736,-0.7968114,0.7457591,-0.15867668,-0.5322605,-0.7758122,0.73386747,0.6134174,-0.16328293,1.4976989,1.2318851,1.487763,-0.9817053,1.6504233,0.69915074,-0.07314085,1.4138888,1.251035,1.5481935,-0.8887595,1.5624145,-1.1268785,-1.0950522,1.1362824,0.021769587,-0.68817616,-0.030332798,0.011064265,-1.1268616,-1.0950565,1.1362076,0.021743774,-0.6881714,-0.030326843,0.011062622,2.4296675,-0.4327941,0.9005337,-2.975023,0.1365772,4.118036,0.30682516,-0.36672783,0.89140123,0.7723924,-0.027655033,0.61969554,-0.13646486,-0.4753478,-0.3717053,-0.04669444,1,0,0,0,0,0,0,0,0,0,-1.6662598,-4.5565844,1.3727427,-9.5795,-3.3635974,-5.0311885,3.8385198,-1.6593933,-4.558563,1.373291,-9.57489,-3.3569336,-5.0354004,3.8528442
-9.898331,-6.841223,-4.987744,-50.885094,5.921551,1.2970053,-0.026683144,-0.77724403,-0.7956006,0.75699174,-0.15673678,-0.5007061,-0.70647913,0.6930454,0.60588145,-0.16861293,1.5047278,1.2322266,1.4881088,-0.97353697,1.6455799,0.6934683,-0.07871478,1.419609,1.2509482,1.5447049,-0.8890203,1.5625557,-1.1365266,-1.1147882,1.143941,-0.017411802,-0.6977068,-0.05218312,0.028219923,-1.1364937,-1.1147857,1.1440277,-0.017356873,-0.69770813,-0.052165985,0.02822876,2.414792,-0.43211126,0.92087626,-2.975023,0.1365772,4.0685215,0.3043723,-0.36857486,0.89125806,0.77287847,-0.02668561,0.61917156,-0.13628356,-0.49233598,-0.36664057,-0.027347498,1,0,0,0,0,0,0,0,0,0,-1.9296169,-3.9471865,1.5317202,-7.836278,-1.9061327,-4.3700647,3.4311316,-1.9264221,-3.9458275,1.5640259,-7.8201294,-1.9073486,-4.3678284,3.4332275
-8.713268,-5.6082034,-4.3017435,-42.962303,4.8653555,1.1923378,0.04198854,-0.7783026,-0.7963229,0.75329405,-0.061773445,-0.5332866,-0.7346684,0.61951214,0.60007197,-0.17427352,1.5100043,1.2435354,1.4807105,-0.97718054,1.6368971,0.68774194,-0.084373765,1.4253596,1.250788,1.5411468,-0.88938797,1.5627674,-1.145299,-1.131797,1.1500378,-0.031994443,-0.71160513,-0.0735631,0.042313732,-1.1452675,-1.1317968,1.1501312,-0.032043457,-0.7116318,-0.07352829,0.04234314,2.3999166,-0.43142843,0.9409713,-2.975023,0.1365772,4.019007,0.30185413,-0.3704059,0.8911528,0.77338904,-0.02575159,0.6186167,-0.13608631,-0.5060194,-0.36358356,-0.019837677,1,0,0,0,0,0,0,0,0,0,-1.7544746,-3.4017563,1.2193441,-2.9165282,-2.7796626,-4.2759953,2.8187618,-1.7547607,-3.4022331,1.2207031,-2.937317,-2.784729,-4.272461,2.822876
-7.9076614,-4.682809,-3.484993,-40.47607,4.761019,1.0936661,0.14337298,-0.78303504,-0.8021276,0.76431465,-0.034836184,-0.44906828,-0.6837198,0.51078045,0.5937777,-0.18062907,1.5170773,1.2466077,1.4872586,-0.97143435,1.624061,0.68197316,-0.09011101,1.4311465,1.2506058,1.5376067,-0.88984954,1.5630296,-1.1537356,-1.1474522,1.1573077,-0.036355663,-0.70797694,-0.092288196,0.0523574,-1.1537552,-1.147449,1.1573792,-0.03643036,-0.7080078,-0.092315674,0.052452087,2.3850412,-0.4307456,0.96081877,-2.975023,0.1365772,3.9694927,0.29927397,-0.37222123,0.8910713,0.7739394,-0.024832247,0.61801845,-0.13584723,-0.5180427,-0.3603117,-0.01503257,1,0,0,0,0,0,0,0,0,0,-1.687336,-3.1310558,1.4539957,-0.87224394,0.72563887,-3.7450194,2.008734,-1.6975403,-3.130436,1.449585,-0.8773804,0.7247925,-3.7574768,2.0217896
-6.8414116,-4.7249794,-3.3945394,-30.112368,3.5566742,1.0194411,0.28305706,-0.78629357,-0.8100614,0.767487,0.12297959,-0.44926545,-0.668888,0.3659844,0.58761793,-0.18731838,1.523245,1.2653633,1.4836949,-0.9701161,1.6069478,0.6761648,-0.095923536,1.4369687,1.2505648,1.5340934,-0.89039695,1.5633167,-1.1616559,-1.1625098,1.1644334,-0.0081442455,-0.7026698,-0.10943878,0.057414975,-1.1616707,-1.1625051,1.1644363,-0.008201599,-0.70266724,-0.10948181,0.057411194,2.3701658,-0.43006277,0.9804187,-2.975023,0.1365772,3.9199781,0.29665422,-0.3740356,0.8909396,0.7745063,-0.023889933,0.61741537,-0.13552718,-0.52627116,-0.36000735,-0.025010267,1,0,0,0,0,0,0,0,0,0,-1.584053,-3.0115128,1.4251232,5.642284,1.0614276,-3.4301162,1.0115147,-1.5830994,-3.0112267,1.411438,5.645752,1.0681152,-3.4332275,0.9918213
-6.4754133,-5.6185737,-4.0406013,-20.619259,2.495452,1.027666,0.39082494,-0.78848195,-0.817374,0.75551146,0.27524722,-0.42039597,-0.68434244,0.06632082,0.58154696,-0.19400841,1.5276301,1.2835945,1.4836459,-0.972518,1.5712752,0.6703202,-0.10180866,1.4428099,1.2508156,1.5306325,-0.89102685,1.5635818,-1.1688797,-1.1770198,1.1683221,0.05020245,-0.69211835,-0.12601015,0.05304463,-1.1689186,-1.1770248,1.168251,0.05016327,-0.6921768,-0.12598038,0.053024292,2.3552904,-0.42937994,0.999771,-2.975023,0.1365772,3.8704636,0.29400682,-0.37586427,0.890691,0.7750712,-0.022891866,0.6168379,-0.1350977,-0.53164864,-0.3628895,-0.048430707,1,0,0,0,0,0,0,0,0,0,-1.4447689,-2.902007,0.77774525,11.669339,2.1102905,-3.3142745,-0.87406933,-1.449585,-2.9039383,0.76293945,11.672974,2.0980835,-3.2997131,-0.8773804
-5.424591,-4.7569776,-3.822119,-13.81149,1.353958,0.97010684,0.33370703,-0.7814632,-0.8265177,0.74504566,0.38918725,-0.5266408,-0.69642437,-0.1585239,0.57654464,-0.20099078,1.5322154,1.2975181,1.4674356,-0.97459775,1.544559,0.6644518,-0.10776573,1.448656,1.2514508,1.5271192,-0.89173687,1.5637897,-1.1736815,-1.1914135,1.1692928,0.12706837,-0.70268774,-0.14196782,0.041624244,-1.173687,-1.1914134,1.1692047,0.12702942,-0.70266724,-0.1420021,0.0415802,2.340415,-0.4286971,1.0188757,-2.975023,0.1365772,3.820949,0.2913475,-0.37771845,0.8902704,0.77558887,-0.021840045,0.6163405,-0.13457063,-0.5340703,-0.3678216,-0.082765795,1,0,0,0,0,0,0,0,0,0,-0.96035004,-2.8787374,0.19414425,15.373184,-2.1138787,-3.1915336,-2.2840767,-0.9536743,-2.8777122,0.19073486,15.37323,-2.0980835,-3.2043457,-2.2888184
-5.0241747,-3.5469737,-3.3591242,-13.731345,1.0563793,0.92043716,0.25442737,-0.77902645,-0.8343618,0.73341197,0.41589692,-0.62266463,-0.7713144,-0.019654814,0.5709686,-0.20788914,1.5366654,1.3013585,1.4523994,-0.9842946,1.5614312,0.65856665,-0.11379325,1.4544934,1.2524588,1.5234542,-0.8925327,1.5639614,-1.1770309,-1.2055056,1.1675273,0.20165762,-0.73293644,-0.15917572,0.034281928,-1.1770248,-1.205504,1.1674881,0.20160675,-0.7329941,-0.15916824,0.034332275,2.3255396,-0.42801428,1.0377328,-2.975023,0.1365772,3.7714345,0.2886777,-0.37959695,0.88967234,0.7760334,-0.020747652,0.6159505,-0.13396475,-0.5360146,-0.37253237,-0.118294686,1,0,0,0,0,0,0,0,0,0,-0.6698847,-2.8184175,-0.35309792,14.9178505,-6.0497403,-3.4415812,-1.4684632,-0.667572,-2.8181076,-0.34332275,14.915466,-6.0653687,-3.4332275,-1.449585
-3.2864878,-0.3848349,-1.652186,-12.900784,0.88954943,0.7437274,0.20507368,-0.79354715,-0.8279921,0.74995553,0.4880321,-0.588508,-0.6541047,-0.46825457,0.563341,-0.21315229,1.5444881,1.3110226,1.4528332,-0.9710253,1.5077709,0.6526539,-0.11987602,1.4603375,1.2538607,1.5196795,-0.8933929,1.564032,-1.1825365,-1.2165494,1.1688639,0.28046834,-0.7548947,-0.17200458,0.014105814,-1.1825562,-1.2165546,1.1688232,0.28038025,-0.7549286,-0.17204285,0.01411438,2.3106642,-0.42733145,1.0563425,-2.975023,0.1365772,3.72192,0.28600788,-0.38149333,0.8888924,0.7764071,-0.019623607,0.6156617,-0.1332952,-0.5357758,-0.37593153,-0.15464468,1,0,0,0,0,0,0,0,0,0,-1.1011124,-2.2087574,0.2673149,15.762144,-4.3916464,-2.5657713,-4.035223,-1.1062622,-2.2101402,0.2670288,15.7547,-4.386902,-2.5749207,-4.043579
-3.2281845,0.6739366,-0.94719744,-16.331614,1.2316918,0.6670969,0.11821759,-0.79364616,-0.8369453,0.74583805,0.48210856,-0.6130769,-0.7257474,-0.59522426,0.5574163,-0.22030945,1.5498381,1.3117137,1.4461104,-0.9804826,1.4926051,0.6467158,-0.12601382,1.4661855,1.255604,1.5157924,-0.89432275,1.5639843,-1.1875749,-1.2275604,1.1696101,0.34860745,-0.77748394,-0.18594752,-0.009626462,-1.1876106,-1.2275591,1.1695862,0.34866333,-0.7774353,-0.18596649,-0.009536743,2.2957888,-0.42664862,1.0747045,-2.975023,0.1365772,3.6724055,0.2833352,-0.3833995,0.8879543,0.7767151,-0.018490845,0.615462,-0.13258268,-0.5363354,-0.3775379,-0.18616553,1,0,0,0,0,0,0,0,0,0,-1.0076761,-2.202201,0.14925003,13.627821,-4.5178533,-2.7885885,-4.746455,-1.0108948,-2.2008896,0.15258789,13.656616,-4.501343,-2.784729,-4.7302246
-2.193091,3.7622766,1.2040159,-22.410633,1.882832,0.49522746,0.06652681,-0.7904585,-0.83816665,0.7575104,0.43634102,-0.6295245,-0.6586495,-0.39075077,0.5518608,-0.22659382,1.5570867,1.3079649,1.4402494,-0.9733607,1.5170941,0.64075965,-0.1322009,1.4720477,1.2575934,1.5117917,-0.8953084,1.5638517,-1.1912335,-1.2374184,1.1724497,0.39782017,-0.80022633,-0.19713748,-0.026490605,-1.1912346,-1.2374163,1.1724472,0.39787292,-0.80013275,-0.19712448,-0.026512146,2.2809134,-0.4259658,1.092819,-2.975023,0.1365772,3.622891,0.28065777,-0.38529754,0.88690376,0.7769738,-0.017368553,0.6153273,-0.13184197,-0.5371854,-0.37574646,-0.20871435,1,0,0,0,0,0,0,0,0,0,-0.73173046,-1.9716024,0.56791306,9.842545,-4.548478,-2.2379904,-3.3728287,-0.7247925,-1.9714355,0.5722046,9.841919,-4.5394897,-2.231598,-3.3950806
-1.7497692,6.544348,3.1309717,-29.815022,2.8310008,0.456015,0.0033432469,-0.8042024,-0.8332689,0.7818647,0.3752634,-0.5702794,-0.3382477,-0.4824325,0.5442554,-0.23219316,1.5658715,1.302625,1.4433582,-0.93589807,1.5059599,0.63477534,-0.13842565,1.4779471,1.2597258,1.50775,-0.89629877,1.5636266,-1.1968714,-1.2449387,1.1799096,0.4264861,-0.8084217,-0.19808353,-0.044970274,-1.1968613,-1.2449503,1.1798859,0.42648315,-0.80833435,-0.19807816,-0.045013428,2.266038,-0.42528296,1.1106858,-2.975023,0.1365772,3.5733764,0.27796984,-0.3871734,0.8857989,0.7772164,-0.016264556,0.61520904,-0.13110317,-0.53909147,-0.37107506,-0.2196021,1,0,0,0,0,0,0,0,0,0,-1.1275768,-1.5040636,1.4919758,5.733186,-1.6390681,-0.18921196,-3.6959338,-1.1253357,-1.5068054,1.4877319,5.722046,-1.6403198,-0.19073486,-3.7002563
-1.2998044,7.362094,3.7706075,-29.42675,2.7584732,0.28609616,-0.012101144,-0.8047239,-0.8389398,0.7803899,0.41346547,-0.58762586,-0.59558874,-0.5887302,0.5382085,-0.23909843,1.5715939,1.3093417,1.4372349,-0.9677694,1.492979,0.6287648,-0.14468724,1.4838809,1.262008,1.5036645,-0.89732826,1.5632976,-1.2021072,-1.2523198,1.1866945,0.45635083,-0.8170494,-0.20593464,-0.06575195,-1.2021065,-1.2523174,1.1867523,0.45642853,-0.81710815,-0.20589828,-0.06580353,2.2511625,-0.42460012,1.1283051,-2.975023,0.1365772,3.523862,0.27527332,-0.38902187,0.88463527,0.77744,-0.015195152,0.61511177,-0.13035953,-0.5406263,-0.36542225,-0.23121643,1,0,0,0,0,0,0,0,0,0,-1.0471582,-1.4762163,1.3569832,5.9729457,-1.7255425,-1.5702218,-4.156335,-1.0490417,-1.4734268,1.373291,5.9890747,-1.7547607,-1.5640259,-4.15802
-0.7884557,8.272431,4.368639,-28.725182,2.6716237,0.1946345,0.084991425,-0.7989664,-0.841091,0.77317053,0.43769428,-0.61820817,-0.68479455,-0.08402679,0.5328888,-0.24561815,1.5766613,1.3145312,1.4294795,-0.97950363,1.5532144,0.6227376,-0.15098304,1.4898366,1.2644446,1.4995122,-0.89840925,1.5629438,-1.2054677,-1.2591699,1.1911092,0.48729023,-0.8305051,-0.21622829,-0.0707925,-1.2054443,-1.25916,1.1911392,0.48732758,-0.8304596,-0.21619797,-0.070762634,2.236287,-0.4239173,1.1456769,-2.975023,0.1365772,3.4743474,0.27257252,-0.39083982,0.8834085,0.77764213,-0.014143857,0.61504585,-0.12958072,-0.5415293,-0.3593723,-0.24389707,1,0,0,0,0,0,0,0,0,0,-0.672102,-1.3700247,0.8829355,6.18788,-2.6911378,-2.0587296,-1.0081112,-0.667572,-1.3685226,0.8773804,6.1798096,-2.670288,-2.0599365,-0.9918213
-1.1897097,8.444416,4.682495,-31.282974,2.9556296,0.18843538,0.13404009,-0.7874108,-0.84806675,0.75922024,0.4071405,-0.66713387,-0.77614874,0.5112483,0.5282483,-0.25275105,1.580943,1.3133014,1.4194561,-0.9915471,1.6242936,0.616708,-0.15731531,1.4957961,1.2669871,1.4952512,-0.8995527,1.5626568,-1.2058748,-1.2664479,1.1919172,0.5084823,-0.8522716,-0.22868298,-0.057349492,-1.2059212,-1.2664557,1.1919022,0.50849915,-0.85220337,-0.2286911,-0.057411194,2.2214117,-0.42323446,1.162801,-2.975023,0.1365772,3.4248328,0.26986074,-0.3926258,0.8821351,0.7778235,-0.013103888,0.6150132,-0.12875423,-0.5434945,-0.35264534,-0.25314814,1,0,0,0,0,0,0,0,0,0,-0.081419945,-1.4555931,0.16160011,4.238409,-4.3533087,-2.4909377,2.6886024,-0.09536743,-1.4591217,0.15258789,4.234314,-4.348755,-2.4986267,2.670288
-1.6825418,8.988779,4.954034,-33.708153,3.2187092,0.22024858,0.11665408,-0.7890129,-0.84452283,0.74750996,0.3867425,-0.68139,-0.79984915,0.69038737,0.5220264,-0.25865805,1.5854973,1.3133962,1.4134843,-0.9955346,1.6455033,0.6106774,-0.1636762,1.5017451,1.2695963,1.4908757,-0.9007586,1.5624641,-1.2061309,-1.2721746,1.1898705,0.52179664,-0.875056,-0.2411911,-0.03844186,-1.2061119,-1.2721777,1.1898041,0.5218506,-0.87509155,-0.24118423,-0.038528442,2.2065363,-0.42255163,1.1796776,-2.975023,0.1365772,3.3753183,0.26713467,-0.39437652,0.8808321,0.7779865,-0.01207569,0.61500853,-0.1278884,-0.5465395,-0.3455776,-0.25904027,1,0,0,0,0,0,0,0,0,0,-0.05121231,-1.145339,-0.40934086,2.6628733,-4.5568824,-2.5016248,3.7815266,-0.038146973,-1.1444092,-0.4196167,2.670288,-4.5776367,-2.4986267,3.7765503
-3.3030834,10.008579,6.354094,-46.259647,4.708105,0.24733698,-0.061185874,-0.7911622,-0.8436387,0.7534971,0.20325767,-0.6744863,-0.8094928,0.77754074,0.51573795,-0.26491284,1.5921648,1.2939873,1.4099374,-0.99789774,1.655769,0.604644,-0.17006022,1.5076894,1.2720807,1.4864068,-0.9020246,1.5623754,-1.2067064,-1.2768102,1.1888692,0.49676943,-0.8937125,-0.25323954,-0.017658202,-1.2066841,-1.276803,1.1888504,0.49686432,-0.89378357,-0.25320053,-0.017738342,2.191661,-0.4218688,1.1963066,-2.975023,0.1365772,3.3258038,0.26437044,-0.39607525,0.8795901,0.7781638,-0.011103192,0.614979,-0.12703747,-0.5539378,-0.3350049,-0.24674258,1,0,0,0,0,0,0,0,0,0,-0.11510849,-0.9271145,-0.20024776,-5.005443,-3.7312984,-2.4096875,4.1567316,-0.11444092,-0.9250641,-0.19073486,-4.9972534,-3.7384033,-2.4032593,4.15802
-5.5837364,10.23601,7.2729616,-59.012882,6.183645,0.37896883,-0.2792063,-0.7797594,-0.8424293,0.7393665,0.0063703144,-0.6847577,-0.81499827,0.79567623,0.5110729,-0.27115172,1.5964134,1.2728451,1.4042358,-0.9998244,1.6578566,0.59861916,-0.17646271,1.5136164,1.2742398,1.4818492,-0.9033483,1.5623897,-1.2050142,-1.2804893,1.1853613,0.43185446,-0.91159534,-0.26473165,0.0028121779,-1.2049675,-1.2804985,1.1854172,0.43182373,-0.9115219,-0.26474,0.002861023,2.1767855,-0.42118597,1.2126881,-2.975023,0.1365772,3.2762892,0.26154327,-0.39770913,0.87850124,0.778383,-0.010232473,0.6148749,-0.1262696,-0.56643265,-0.32206488,-0.2162167,1,0,0,0,0,0,0,0,0,0,0.33843517,-0.73583126,-0.70159435,-12.982994,-3.5765648,-2.2984207,4.094076,0.34332275,-0.7390976,-0.6866455,-13.008118,-3.5476685,-2.3078918,4.119873
-6.19292,11.725158,9.173105,-67.627205,7.311488,0.31928188,-0.3724903,-0.785641,-0.8392442,0.76531607,-0.13852867,-0.6337329,-0.78036225,0.77339906,0.50434226,-0.277172,1.6054543,1.2576163,1.4058013,-0.9969918,1.6551976,0.5925972,-0.1828776,1.5195512,1.2759497,1.477262,-0.90472114,1.5624985,-1.2043787,-1.2829663,1.1869962,0.34206438,-0.91747123,-0.27454302,0.021804255,-1.2043953,-1.282978,1.186943,0.3419876,-0.9174347,-0.27456284,0.021743774,2.16191,-0.42050314,1.228822,-2.975023,0.1365772,3.2267747,0.25864267,-0.39926386,0.87763023,0.7786774,-0.009492105,0.61464834,-0.12561367,-0.5812417,-0.30635947,-0.17260559,1,0,0,0,0,0,0,0,0,0,0.12710094,-0.49538612,0.32699108,-17.958015,-1.1751771,-1.9622743,3.7984154,0.11444092,-0.49591064,0.30517578,-17.967224,-1.1825562,-1.9645691,3.7765503
-5.474915,11.855032,9.059833,-61.980118,6.7063537,0.2985202,-0.27227783,-0.7845306,-0.83896714,0.76325494,-0.08922014,-0.6241774,-0.7797475,0.76148874,0.49845353,-0.28355366,1.6111418,1.2652433,1.4023607,-0.99829084,1.6538771,0.58657855,-0.18930227,1.5254945,1.2773011,1.4726634,-0.90613973,1.5626968,-1.2037373,-1.2849227,1.1886325,0.27024993,-0.9196477,-0.28371105,0.039709713,-1.2037277,-1.2849331,1.1886597,0.2702713,-0.9197235,-0.2837181,0.03967285,2.1470346,-0.4198203,1.2447083,-2.975023,0.1365772,3.1772602,0.25567818,-0.40074825,0.87693834,0.77903825,-0.008856357,0.61431694,-0.12504232,-0.59406257,-0.29242662,-0.13690443,1,0,0,0,0,0,0,0,0,0,0.12829304,-0.39129257,0.32725334,-14.362889,-0.43529272,-1.8336058,3.581092,0.1335144,-0.39100647,0.34332275,-14.343262,-0.45776367,-1.8310547,3.5858154
-7.336455,10.16856,8.50132,-65.30481,7.15024,0.4554975,-0.33269864,-0.77879447,-0.84718424,0.7557148,-0.20221461,-0.626869,-0.8123515,0.75394595,0.4931232,-0.29096437,1.6161802,1.2530353,1.3974391,-1.0036219,1.6531703,0.5805685,-0.19574302,1.5314378,1.2782404,1.4680533,-0.907606,1.56298,-1.2020439,-1.2881628,1.1885806,0.1879502,-0.92192984,-0.29328644,0.05668811,-1.2020111,-1.2881517,1.1886597,0.18787384,-0.9220123,-0.29325485,0.056648254,2.1321592,-0.41913748,1.260347,-2.975023,0.1365772,3.1277456,0.25263834,-0.40216327,0.87644756,0.77947336,-0.0083348,0.6138671,-0.12457513,-0.6094104,-0.2788408,-0.096669786,1,0,0,0,0,0,0,0,0,0,0.3386736,-0.6480217,-0.010371208,-16.459948,-0.45642853,-1.9150794,3.3956795,0.34332275,-0.64373016,0,-16.479492,-0.45776367,-1.9073486,3.3950806
-8.403709,10.315094,9.283694,-70.420456,7.844602,0.501356,-0.39617166,-0.77785873,-0.8449181,0.76426077,-0.3265124,-0.58798873,-0.78928834,0.7169018,0.48722544,-0.2971332,1.623149,1.239059,1.3974947,-1.0023206,1.6490083,0.5745675,-0.20219666,1.5373877,1.2786944,1.46347,-0.90911424,1.5633396,-1.2002467,-1.2907149,1.1899512,0.0907055,-0.9167263,-0.3016786,0.071942255,-1.2001991,-1.2907267,1.1899948,0.090789795,-0.91667175,-0.3016472,0.07190704,2.1172838,-0.41845465,1.2757381,-2.975023,0.1365772,3.078231,0.24951172,-0.40350437,0.8761955,0.7800017,-0.007940747,0.6132698,-0.12423476,-0.6268306,-0.26417276,-0.04880234,1,0,0,0,0,0,0,0,0,0,0.35943985,-0.5104065,0.27410984,-19.448938,1.040709,-1.678431,3.0508287,0.36239624,-0.51498413,0.2670288,-19.41681,1.0681152,-1.6784668,3.0517578
-8.73317,10.261848,9.305401,-69.43077,7.7431445,0.53999126,-0.394956,-0.7844002,-0.8435136,0.7708443,-0.36242628,-0.58037907,-0.7679052,0.6640338,0.48043948,-0.30341828,1.629889,1.2352033,1.3938245,-1.0012629,1.6430236,0.56856793,-0.20865959,1.543351,1.2786801,1.458919,-0.9106587,1.5637649,-1.199937,-1.2925868,1.1925769,-0.0029262265,-0.9101871,-0.30893153,0.08509725,-1.199913,-1.2925863,1.1926651,-0.002861023,-0.91018677,-0.3088951,0.08506775,2.1024084,-0.41777182,1.2908818,-2.975023,0.1365772,3.0287166,0.24629831,-0.40477443,0.8761759,0.7806207,-0.0076695806,0.612528,-0.124024,-0.64440423,-0.2501626,-0.002520316,1,0,0,0,0,0,0,0,0,0,0.061941147,-0.3743887,0.52514076,-18.726345,1.3078332,-1.4505863,2.6309996,0.05722046,-0.37193298,0.5340576,-18.730164,1.2969971,-1.449585,2.632141
-5.054312,11.029975,8.396011,-50.646698,5.676611,0.33010644,-0.05442533,-0.78232354,-0.8442789,0.7676321,-0.121122845,-0.52295554,-0.7984524,0.5759266,0.47468913,-0.30997306,1.6354669,1.2641454,1.3961644,-1.006473,1.6328762,0.56257075,-0.21513098,1.549323,1.2784941,1.4544511,-0.9122418,1.5642408,-1.1994511,-1.2942812,1.1943864,-0.037209276,-0.8935773,-0.31662872,0.09519379,-1.1994362,-1.2942791,1.1943817,-0.0371933,-0.89359283,-0.31661987,0.0951767,2.087533,-0.417089,1.3057778,-2.975023,0.1365772,2.979202,0.24303627,-0.40599108,0.8762562,0.78130054,-0.0074463785,0.61170095,-0.12383837,-0.6543214,-0.23977657,0.017454041,1,0,0,0,0,0,0,0,0,0,0.09717941,-0.33888817,0.36189556,-6.85661,3.3219695,-1.539439,2.0193071,0.09536743,-0.33855438,0.34332275,-6.866455,3.3187866,-1.5449524,2.0217896
-3.1369772,10.878891,7.364673,-39.10904,4.225317,0.27475423,0.10105269,-0.76425606,-0.8547127,0.7492197,-0.010335277,-0.57500386,-0.8383304,0.6726227,0.47086003,-0.3176965,1.6392293,1.2772539,1.3854506,-1.0128415,1.6449555,0.5565936,-0.22161978,1.5552844,1.2783034,1.4500108,-0.9138669,1.5647787,-1.1954759,-1.2977673,1.1922563,-0.038060218,-0.8881083,-0.32505885,0.1075983,-1.1954308,-1.29776,1.1922836,-0.038146973,-0.8880615,-0.3250122,0.10757446,2.0726576,-0.41640615,1.3204262,-2.975023,0.1365772,2.9296875,0.23974943,-0.40716982,0.87635285,0.78200483,-0.0072350814,0.6108453,-0.12362823,-0.6596288,-0.23226386,0.02053685,1,0,0,0,0,0,0,0,0,0,0.7950306,-0.69720745,-0.42600632,-0.1701884,1.0937929,-1.6860247,2.4809017,0.8010864,-0.69618225,-0.4196167,-0.19073486,1.1062622,-1.6784668,2.4795532
-0.004996538,12.630658,6.963873,-25.901684,2.5125287,0.12151033,0.2536055,-0.7646499,-0.8513776,0.74170053,0.170919,-0.6077498,-0.83983874,0.618875,0.4648356,-0.3237851,1.6442884,1.2988137,1.3770808,-1.0146475,1.6390437,0.5506355,-0.2281217,1.5612267,1.2783072,1.4455552,-0.915532,1.565368,-1.1916183,-1.3003889,1.1884321,0.0006781962,-0.8911512,-0.33304843,0.1179367,-1.191616,-1.3003826,1.1884689,0.00076293945,-0.8911133,-0.33302307,0.117874146,2.0577822,-0.41572332,1.3348271,-2.975023,0.1365772,2.880173,0.23646736,-0.408324,0.876369,0.7826913,-0.006995861,0.610026,-0.12334378,-0.6587312,-0.22737795,0.0044937367,1,0,0,0,0,0,0,0,0,0,0.7715225,-0.52433014,-0.7648468,7.747683,-0.60857534,-1.5979171,2.0676806,0.76293945,-0.5245209,-0.76293945,7.7819824,-0.61035156,-1.6021729,2.0599365
-0.51514274,12.628654,6.9524097,-26.919937,2.5759065,0.18600947,0.21449956,-0.7620746,-0.85286933,0.7315827,0.14928913,-0.6269466,-0.84227914,0.6650787,0.45918655,-0.33046603,1.6490166,1.2962219,1.3703216,-1.0166055,1.6451775,0.544697,-0.23463601,1.5671414,1.2784836,1.4410625,-0.9172348,1.5660127,-1.1877384,-1.3028591,1.1828914,0.035280783,-0.8985137,-0.34056312,0.12893572,-1.187706,-1.3028622,1.1829376,0.03528595,-0.89855194,-0.3405571,0.12893677,2.0429068,-0.4150405,1.3489803,-2.975023,0.1365772,2.8306584,0.2331872,-0.40945458,0.8763114,0.7833564,-0.006733288,0.60924435,-0.122998804,-0.6583073,-0.22267303,-0.010217077,1,0,0,0,0,0,0,0,0,0,0.77598095,-0.49402714,-1.1081457,6.9205174,-1.472497,-1.5029371,2.1998048,0.78201294,-0.49591064,-1.1062622,6.904602,-1.4877319,-1.5068054,2.2125244
-1.616434,12.957041,8.065571,-33.242813,3.3403695,0.1943537,0.09440618,-0.7641957,-0.85588986,0.744214,0.07561233,-0.6164681,-0.8389125,0.55146164,0.4529935,-0.3373428,1.656447,1.2875571,1.3670863,-1.0179043,1.6321881,0.53877324,-0.24116391,1.5730428,1.2787364,1.4365458,-0.9189719,1.5666927,-1.1847271,-1.3055829,1.1802769,0.050614033,-0.9033509,-0.3474572,0.13601078,-1.1847496,-1.3055801,1.1802673,0.05054474,-0.9033203,-0.34742355,0.13599396,2.0280313,-0.41435766,1.3628861,-2.975023,0.1365772,2.781144,0.22989607,-0.41055346,0.8762274,0.784017,-0.0064761317,0.60847145,-0.122628756,-0.6601924,-0.21618383,-0.015617029,1,0,0,0,0,0,0,0,0,0,0.6022692,-0.5447626,-0.5228996,3.06665,-0.967443,-1.3788164,1.4150113,0.5912781,-0.54359436,-0.5340576,3.0517578,-0.9536743,-1.373291,1.411438
-0.78469324,13.190357,7.540722,-28.203247,2.679209,0.19035023,0.14866835,-0.75892854,-0.8582509,0.7272411,0.17246166,-0.6478832,-0.85683715,0.5700915,0.4477018,-0.344154,1.6603117,1.2994318,1.3587998,-1.0217924,1.6351037,0.5328676,-0.24770612,1.5789183,1.2791388,1.4319787,-0.9207438,1.567408,-1.1811657,-1.3084503,1.1750472,0.0804186,-0.91333693,-0.35439053,0.14307816,-1.1811256,-1.3084412,1.1751175,0.08049011,-0.91342926,-0.35438538,0.14305115,2.013156,-0.41367483,1.3765442,-2.975023,0.1365772,2.7316294,0.22660446,-0.41162753,0.87607896,0.78465486,-0.0062092757,0.60773456,-0.12221676,-0.6602851,-0.21126717,-0.028447807,1,0,0,0,0,0,0,0,0,0,0.7122755,-0.57349205,-1.0459423,5.9609137,-1.9972086,-1.3866663,1.4134765,0.7247925,-0.5722046,-1.0299683,5.9890747,-2.0217896,-1.3923645,1.411438
0.3794694,13.513868,6.9672866,-22.144928,1.964222,0.15216637,0.22256127,-0.76047844,-0.8608475,0.717953,0.27951527,-0.6431481,-0.8593245,0.42438337,0.44161022,-0.35100782,1.6650727,1.3126806,1.3548009,-1.0238627,1.6183339,0.5269763,-0.25426355,1.5847596,1.2797844,1.4273705,-0.92254865,1.5681356,-1.178257,-1.3114771,1.1683407,0.12907633,-0.92171234,-0.36093423,0.14546205,-1.1782646,-1.311487,1.168251,0.1291275,-0.92163086,-0.36096573,0.1455307,1.9982805,-0.412992,1.3899548,-2.975023,0.1365772,2.6821148,0.2233243,-0.41268516,0.87582386,0.78525776,-0.005912648,0.607054,-0.121740565,-0.6578484,-0.20776594,-0.049774084,1,0,0,0,0,0,0,0,0,0,0.58174133,-0.6053448,-1.3412952,9.731546,-1.6750813,-1.3087392,0.47677755,0.5722046,-0.60915947,-1.373291,9.727478,-1.6403198,-1.3160706,0.49591064
1.5666656,14.827748,7.6520824,-19.774952,1.7462538,0.014811933,0.21268693,-0.7706265,-0.8611401,0.73163795,0.34727222,-0.59300655,-0.8395293,-0.05644642,0.4345011,-0.35760036,1.6725562,1.3214571,1.3562098,-1.0232922,1.561362,0.52108735,-0.2608346,1.5905846,1.28072,1.4227757,-0.92438066,1.5688022,-1.1777534,-1.3141971,1.1649404,0.1870624,-0.9189046,-0.36641723,0.13326529,-1.1777878,-1.3142109,1.1650085,0.1871109,-0.9189606,-0.36640167,0.13332367,1.9834051,-0.41230917,1.4031178,-2.975023,0.1365772,2.6326003,0.2200656,-0.41372132,0.8754494,0.7858312,-0.0055940878,0.60642296,-0.12119888,-0.6534558,-0.20365202,-0.07365095,1,0,0,0,0,0,0,0,0,0,0.10070801,-0.5439997,-0.68006516,11.597213,0.5615473,-1.0966003,-2.439353,0.09536743,-0.54478645,-0.64849854,11.59668,0.5340576,-1.0871887,-2.4414062
3.6473987,16.01578,7.082267,-11.697366,0.65484095,-0.061321378,0.2637656,-0.76298743,-0.8613145,0.7059073,0.50068563,-0.6283847,-0.8619192,-0.27542222,0.42952886,-0.36419234,1.6752934,1.3408023,1.3473696,-1.0278109,1.5357516,0.515207,-0.26741734,1.5963715,1.2820637,1.4181666,-0.9262413,1.5693744,-1.1760999,-1.3165638,1.157395,0.26865834,-0.92176735,-0.3720874,0.114417985,-1.1760712,-1.3165474,1.1573792,0.26874542,-0.9218216,-0.37212372,0.11444092,1.9685297,-0.41162634,1.4160331,-2.975023,0.1365772,2.5830858,0.21684933,-0.41474676,0.8748972,0.7863477,-0.005238255,0.60588115,-0.12057253,-0.64520276,-0.20134333,-0.10913779,1,0,0,0,0,0,0,0,0,0,0.3307104,-0.47335625,-1.5090704,16.31919,-0.5725503,-1.134032,-3.7694602,0.34332275,-0.46730042,-1.5258789,16.326904,-0.5722046,-1.1444092,-3.7765503
3.442873,16.185703,7.1873465,-12.061024,0.72913265,-0.05669576,0.23841801,-0.7749283,-0.862642,0.7077294,0.5380823,-0.6039744,-0.83337325,-0.4857114,0.4222156,-0.37093437,1.6812991,1.3466336,1.3456898,-1.0262461,1.5110891,0.5093228,-0.27401152,1.602125,1.2838137,1.4135671,-0.92812383,1.5698236,-1.1767992,-1.3188419,1.1506101,0.3500854,-0.9199445,-0.3764882,0.0898474,-1.1768341,-1.3188362,1.1507034,0.34999847,-0.91991425,-0.37651062,0.08983612,1.9536543,-0.4109435,1.428701,-2.975023,0.1365772,2.5335712,0.21367025,-0.4157598,0.87417215,0.7868126,-0.0048489417,0.6054197,-0.11987195,-0.637075,-0.1988022,-0.1437766,1,0,0,0,0,0,0,0,0,0,-0.13985634,-0.4556179,-1.3569832,16.285414,0.36456585,-0.8801639,-4.914117,-0.15258789,-0.45776367,-1.335144,16.25061,0.38146973,-0.8773804,-4.9209595
3.1683,16.843954,7.8113265,-13.944346,0.8768842,-0.07904351,0.16544333,-0.78457624,-0.86318314,0.71121544,0.5609403,-0.62558025,-0.82830745,-0.6076863,0.41517368,-0.3775935,1.6874709,1.3511266,1.3384974,-1.0275208,1.4969013,0.5034248,-0.2806162,1.6078528,1.2859414,1.4089589,-0.93002546,1.5701364,-1.1795621,-1.3209275,1.145463,0.42554,-0.92169255,-0.38029718,0.062489707,-1.1795998,-1.3209343,1.1455536,0.42552948,-0.92163086,-0.38032532,0.062561035,1.9387789,-0.41026068,1.4411213,-2.975023,0.1365772,2.4840567,0.2105298,-0.41675735,0.8732868,0.7872244,-0.0044399872,0.6050365,-0.11911655,-0.62954193,-0.19550738,-0.1757747,1,0,0,0,0,0,0,0,0,0,-0.55258274,-0.4171133,-1.0294199,15.090919,-0.34960508,-0.76179504,-5.4715385,-0.5531311,-0.4196167,-1.0299683,15.106201,-0.34332275,-0.76293945,-5.455017
2.280004,17.117815,9.001135,-19.3747,1.6038643,-0.07806355,0.12639537,-0.7737696,-0.86647195,0.7059224,0.52346593,-0.6091191,-0.8397957,-0.48223218,0.41057247,-0.38459283,1.6925635,1.3487573,1.3358647,-1.0308009,1.5122685,0.49752432,-0.28723302,1.6135539,1.288358,1.4043574,-0.9319457,1.5703357,-1.1801013,-1.3233609,1.1401265,0.48335296,-0.9202319,-0.38406655,0.03992886,-1.1801004,-1.3233662,1.140213,0.48332214,-0.9202957,-0.38404465,0.039863586,1.9239035,-0.40957785,1.453294,-2.975023,0.1365772,2.4345422,0.20741415,-0.41773129,0.872283,0.78760177,-0.004025318,0.6047043,-0.11832055,-0.6239664,-0.19064938,-0.19939636,1,0,0,0,0,0,0,0,0,0,-0.10783672,-0.48668385,-1.0673046,11.562592,0.29213428,-0.7538736,-4.5121694,-0.1001358,-0.4863739,-1.0681152,11.558533,0.2670288,-0.74386597,-4.5394897
1.3569335,17.677187,10.10842,-24.159351,2.1311784,-0.06617218,0.055800006,-0.7775716,-0.86548054,0.70887554,0.49161026,-0.6336582,-0.83328116,-0.3544943,0.40421572,-0.3910907,1.6986189,1.3473512,1.3283185,-1.0319394,1.5277964,0.49161917,-0.29385963,1.619234,1.2909844,1.3997416,-0.9338821,1.5704473,-1.1810104,-1.3253338,1.1360083,0.5253708,-0.92314905,-0.38730723,0.02240084,-1.1810303,-1.3253212,1.1360168,0.5252838,-0.92315674,-0.38728714,0.022315979,1.909028,-0.40889502,1.4652191,-2.975023,0.1365772,2.3850276,0.20431757,-0.4186766,0.87119484,0.78795105,-0.0036190706,0.6044107,-0.117506035,-0.6202645,-0.18464279,-0.21618232,1,0,0,0,0,0,0,0,0,0,-0.18181801,-0.39458275,-0.8236408,8.4035635,-0.5834341,-0.64813495,-3.5056043,-0.18596649,-0.39100647,-0.8392334,8.392334,-0.5722046,-0.64849854,-3.5095215
2.412782,18.717888,10.556908,-22.284784,1.9577891,-0.12228453,0.2353204,-0.7597445,-0.86615825,0.68788344,0.54537934,-0.65827405,-0.86612844,0.42256594,0.4004498,-0.39779863,1.70178,1.3564299,1.3207488,-1.0378175,1.6211553,0.48572737,-0.3004953,1.6248759,1.2938368,1.3950868,-0.9358381,1.5705913,-1.1783744,-1.3271289,1.1284754,0.57050306,-0.93089914,-0.3911901,0.028810125,-1.17836,-1.3271332,1.1283875,0.570488,-0.93097687,-0.3911972,0.028800964,1.8941526,-0.40821218,1.4768968,-2.975023,0.1365772,2.335513,0.20124531,-0.41959357,0.87001145,0.78826934,-0.0031869707,0.6041694,-0.11662185,-0.61518806,-0.17887329,-0.23518522,1,0,0,0,0,0,0,0,0,0,0.52719116,-0.3590107,-1.506567,9.026456,-1.5500188,-0.776577,1.2818571,0.5340576,-0.36239624,-1.5258789,9.0408325,-1.5640259,-0.78201294,1.2969971
0.91486824,18.995522,12.006841,-28.605862,2.7876484,-0.14299172,0.1689247,-0.78453684,-0.8655396,0.71941864,0.48131776,-0.63797367,-0.8271209,0.47961494,0.39158297,-0.40436006,1.7112062,1.3515949,1.31853,-1.0350926,1.6281451,0.47982532,-0.30713812,1.630514,1.2968256,1.3904157,-0.937806,1.5707802,-1.1804268,-1.328554,1.1275965,0.5978286,-0.93420017,-0.39362463,0.037676435,-1.1804104,-1.3285637,1.1276245,0.59776306,-0.93421936,-0.3935814,0.037765503,1.8792772,-0.40752935,1.4883268,-2.975023,0.1365772,2.2859986,0.19818401,-0.42047167,0.86878043,0.78857714,-0.0027450798,0.6039488,-0.11569128,-0.61274296,-0.17103927,-0.24478585,1,0,0,0,0,0,0,0,0,0,-0.41048527,-0.2850294,-0.17578602,5.465114,-0.6602049,-0.48690438,1.773262,-0.41007996,-0.2861023,-0.15258789,5.455017,-0.64849854,-0.47683716,1.7929077
0.14570737,19.362907,13.00465,-32.588547,3.309605,-0.12175816,0.1349124,-0.7708584,-0.8633734,0.7071336,0.44069657,-0.6354953,-0.8586193,0.63933355,0.3873223,-0.41074294,1.71537,1.3497093,1.3141563,-1.0408403,1.6475002,0.4739247,-0.31378475,1.6361407,1.2998831,1.385736,-0.9397892,1.5710348,-1.1801449,-1.3293262,1.1252776,0.611533,-0.935975,-0.39665666,0.05088927,-1.1801243,-1.3293266,1.1253357,0.611496,-0.935936,-0.39663315,0.05092621,1.8644018,-0.40684652,1.4995092,-2.975023,0.1365772,2.236484,0.19512606,-0.42130685,0.86753154,0.78888524,-0.0023033572,0.6037323,-0.114725985,-0.6118652,-0.16241597,-0.24827923,1,0,0,0,0,0,0,0,0,0,0.056385994,-0.15442371,-0.46377182,2.740872,-0.3549695,-0.60640574,2.6425667,0.05722046,-0.15258789,-0.45776367,2.746582,-0.34332275,-0.61035156,2.632141
-0.30018163,19.13178,12.817331,-32.73168,3.2867582,-0.053436995,0.11496319,-0.766716,-0.8642654,0.6929491,0.4492864,-0.6586691,-0.86423486,0.68744564,0.3819188,-0.4174966,1.7192945,1.3537974,1.3066957,-1.0434973,1.6535282,0.46803075,-0.3204352,1.6417426,1.3030007,1.3810267,-0.9417871,1.57136,-1.1787925,-1.3300878,1.1202823,0.6234662,-0.94183916,-0.39961135,0.06507311,-1.1787891,-1.3300896,1.1203766,0.62351227,-0.94184875,-0.39958954,0.06504059,1.8495264,-0.4061637,1.510444,-2.975023,0.1365772,2.1869695,0.19207144,-0.4221027,0.86626446,0.78918797,-0.0018609103,0.6035258,-0.113733605,-0.61152047,-0.15453362,-0.2518217,1,0,0,0,0,0,0,0,0,0,0.27048588,-0.15232563,-0.9990692,2.3866415,-1.1728287,-0.5909383,2.8367684,0.2670288,-0.15258789,-0.9918213,2.4032593,-1.1825562,-0.5912781,2.822876
-1.3192074,18.664356,13.279392,-35.809723,3.7124536,-0.003469348,0.07281922,-0.759124,-0.868024,0.6897442,0.4057839,-0.6512274,-0.8766,0.71275747,0.37693587,-0.42459807,1.7245119,1.3516947,1.3028795,-1.0469791,1.6568909,0.46215087,-0.32709256,1.6473178,1.3061268,1.3762965,-0.94380033,1.5717567,-1.1759946,-1.3314805,1.1149417,0.6252102,-0.94602704,-0.40266052,0.07935282,-1.1759758,-1.3314724,1.115036,0.6252289,-0.9460449,-0.4026413,0.0793457,1.834651,-0.40548086,1.5211313,-2.975023,0.1365772,2.137455,0.18900967,-0.42285776,0.86500293,0.7894956,-0.0014280401,0.6033133,-0.112727985,-0.61277694,-0.1463141,-0.25076187,1,0,0,0,0,0,0,0,0,0,0.5595684,-0.27854443,-1.0681152,0.34880638,-0.8375764,-0.609833,2.8559418,0.56266785,-0.27656555,-1.0681152,0.34332275,-0.8392334,-0.61035156,2.861023
-2.0459943,19.478691,14.246236,-38.7425,4.077374,0.012415409,0.030018881,-0.7721441,-0.8571613,0.69619423,0.3693682,-0.63998497,-0.8455288,0.76096,0.36949357,-0.4299519,1.7308611,1.350451,1.2994983,-1.0452638,1.6630719,0.45627147,-0.33374587,1.6528748,1.3092186,1.3715596,-0.9458231,1.5722288,-1.1758932,-1.330662,1.1114693,0.6183783,-0.94730973,-0.4045413,0.0943788,-1.1758804,-1.3306618,1.111412,0.6183624,-0.94738007,-0.40454865,0.09441376,1.8197756,-0.40479803,1.531571,-2.975023,0.1365772,2.0879405,0.18593502,-0.42356896,0.8637687,0.7898146,-0.0010093469,0.6030829,-0.11172639,-0.6152158,-0.13747942,-0.24530801,1,0,0,0,0,0,0,0,0,0,0.020289421,0.1636982,-0.6944895,-1.3663888,-0.2565384,-0.37615895,3.005196,0.019073486,0.16212463,-0.7247925,-1.373291,-0.2670288,-0.38146973,3.0136108
-5.1473665,17.937096,15.256536,-47.729176,5.212705,0.16486466,-0.1320017,-0.7657082,-0.8628703,0.7025728,0.22413574,-0.6408465,-0.8602449,0.72663444,0.3643865,-0.4372903,1.7371836,1.3361149,1.2946581,-1.0490525,1.6594249,0.45039707,-0.34039965,1.6584243,1.312134,1.366818,-0.9478563,1.5727676,-1.1748939,-1.3307756,1.1098949,0.5831315,-0.9482948,-0.4066024,0.10774026,-1.1748791,-1.3307571,1.1098862,0.5830765,-0.94833374,-0.40664673,0.1077652,1.8049002,-0.4041152,1.5417632,-2.975023,0.1365772,2.038426,0.18282318,-0.4242313,0.86262536,0.79016536,-0.0006390733,0.6027985,-0.11077991,-0.62251073,-0.12762186,-0.22712299,1,0,0,0,0,0,0,0,0,0,0.1998663,-0.02272129,-0.31487942,-7.049358,-0.1970172,-0.41221976,2.6722922,0.2002716,-0.019073486,-0.30517578,-7.05719,-0.19073486,-0.4196167,2.670288
-3.4900353,19.935799,16.405745,-45.6479,4.929234,0.023629308,-0.11244396,-0.75480986,-0.85967994,0.7057243,0.24538559,-0.6494984,-0.86782604,0.74100417,0.3598199,-0.44356126,1.7431111,1.3415803,1.2888782,-1.0519954,1.6616881,0.44453818,-0.34705153,1.6639708,1.3148987,1.3620629,-0.94990003,1.5733722,-1.1717919,-1.3303677,1.1093719,0.55296993,-0.9509626,-0.4087124,0.12090808,-1.1717796,-1.3303757,1.109314,0.55294037,-0.951004,-0.4087448,0.1209259,1.7900248,-0.40343237,1.5517077,-2.975023,0.1365772,1.9889115,0.1796875,-0.4248414,0.861561,0.7905417,-0.00031826497,0.6024704,-0.10987715,-0.62758875,-0.11743903,-0.21135391,1,0,0,0,0,0,0,0,0,0,0.620389,0.08158684,-0.10459423,-6.032312,-0.53355694,-0.42199492,2.6335642,0.6198883,0.076293945,-0.11444092,-6.0272217,-0.5340576,-0.4196167,2.632141
-0.5600914,20.760126,15.246152,-35.89339,3.7524447,-0.10010606,0.037699573,-0.74087644,-0.8688573,0.6877475,0.37313697,-0.6548244,-0.88435787,0.68027204,0.35563302,-0.4513144,1.7465005,1.3596752,1.283484,-1.056023,1.6550049,0.43870765,-0.3537101,1.6694983,1.3176596,1.3572898,-0.9519557,1.5740312,-1.166113,-1.3317275,1.1055228,0.5521656,-0.95470065,-0.4111183,0.1317521,-1.1661053,-1.3317108,1.1054993,0.5521774,-0.954628,-0.411129,0.13179779,1.7751493,-0.40274954,1.5614047,-2.975023,0.1365772,1.9393971,0.17654943,-0.4254079,0.86050785,0.7909245,-0.000018314187,0.60213333,-0.10896695,-0.6278646,-0.108960375,-0.20920774,1,0,0,0,0,0,0,0,0,0,1.1357784,-0.27196407,-0.76982975,-0.16086102,-0.74760914,-0.48118234,2.1688044,1.1348724,-0.2670288,-0.76293945,-0.15258789,-0.7247925,-0.47683716,2.1743774
-0.23609845,21.359573,15.312798,-34.681442,3.632898,-0.09445566,0.06818109,-0.73963946,-0.8627619,0.67923814,0.37092376,-0.6434224,-0.8828581,0.7272376,0.3499509,-0.4572415,1.7510068,1.3621705,1.2800791,-1.0578986,1.6612997,0.43290478,-0.36036983,1.6749991,1.3204329,1.35251,-0.9540218,1.5747484,-1.1605859,-1.3319461,1.1000754,0.55474746,-0.95592713,-0.41326967,0.14337067,-1.160574,-1.3319492,1.1001587,0.554657,-0.95596313,-0.41322708,0.14343262,1.7602739,-0.4020667,1.5708541,-2.975023,0.1365772,1.8898827,0.17341328,-0.4259343,0.8594583,0.79131234,0.00026914795,0.6017902,-0.10804243,-0.6274121,-0.100762635,-0.20847644,1,0,0,0,0,0,0,0,0,0,1.1054277,-0.043725967,-1.0894775,0.51636696,-0.24529696,-0.430274,2.3237138,1.1062622,-0.047683716,-1.0681152,0.49591064,-0.2670288,-0.4196167,2.3269653
-0.7441801,20.935196,15.0091915,-33.882687,3.6263528,-0.09937161,0.10229169,-0.7622572,-0.8642185,0.6923854,0.39653093,-0.61384857,-0.8618477,0.6926927,0.3414339,-0.46407604,1.7580854,1.3680166,1.2788482,-1.0574435,1.6578715,0.42710382,-0.36703125,1.6804875,1.3232453,1.347755,-0.9560946,1.5755161,-1.1601725,-1.3322753,1.0976496,0.56241626,-0.9509773,-0.41458082,0.15346727,-1.1601925,-1.332283,1.0976791,0.5624771,-0.951004,-0.41456223,0.15354156,1.7453985,-0.40138388,1.580056,-2.975023,0.1365772,1.8403683,0.17027903,-0.42641902,0.85840696,0.7917096,0.00055415626,0.6014364,-0.10709738,-0.62733066,-0.09259895,-0.20881416,1,0,0,0,0,0,0,0,0,0,0.08268356,-0.06582737,-0.48515797,1.5337586,0.9899616,-0.26223063,2.019319,0.076293945,-0.0667572,-0.49591064,1.5640259,0.9918213,-0.2670288,2.0217896
-1.0381976,20.644596,14.95664,-34.109028,3.6446023,-0.05025834,0.083457135,-0.7476919,-0.8680626,0.67802733,0.38666227,-0.6289124,-0.88016003,0.7074082,0.3373808,-0.47119877,1.7618508,1.3696448,1.2722855,-1.0617138,1.660405,0.42131573,-0.3736979,1.685953,1.3260844,1.3430114,-0.95817554,1.5763334,-1.1576229,-1.3333174,1.0930918,0.56786215,-0.94880956,-0.41621438,0.16344014,-1.1576176,-1.3333321,1.0931015,0.5678177,-0.9487152,-0.41618347,0.16345978,1.7305231,-0.40070105,1.5890102,-2.975023,0.1365772,1.7908539,0.16714239,-0.4268651,0.857356,0.79211485,0.0008335027,0.6010726,-0.106136926,-0.62760353,-0.08485502,-0.20883568,1,0,0,0,0,0,0,0,0,0,0.5099058,-0.20842552,-0.91154575,1.0891795,0.43355227,-0.32671094,1.9945741,0.51498413,-0.20980835,-0.91552734,1.0681152,0.45776367,-0.32424927,1.9836426
-0.31786317,22.270111,16.315063,-34.455235,3.6647215,-0.16415876,0.0571832,-0.74957204,-0.86487406,0.6924825,0.38423568,-0.6280291,-0.8685292,0.66957754,0.33136708,-0.4774828,1.769051,1.3721926,1.2676479,-1.062399,1.6566827,0.41553837,-0.38036647,1.6914109,1.3289435,1.3382754,-0.9602622,1.5771927,-1.1554867,-1.3336931,1.0916457,0.5718615,-0.9471159,-0.4173329,0.17182256,-1.1554718,-1.3337135,1.0915756,0.5718231,-0.94718933,-0.41732788,0.17185211,1.7156477,-0.40001822,1.5977169,-2.975023,0.1365772,1.7413394,0.16400862,-0.4272678,0.8563097,0.79252744,0.0010980942,0.6006989,-0.10516585,-0.62695765,-0.07613048,-0.20779328,1,0,0,0,0,0,0,0,0,0,0.4272461,-0.075149536,-0.28922558,0.7998705,0.3387332,-0.22370219,1.676485,0.42915344,-0.076293945,-0.30517578,0.8010864,0.30517578,-0.22888184,1.6784668
-1.2329589,21.275818,16.06539,-35.719574,3.789342,-0.058950067,0.004452668,-0.7345819,-0.8732551,0.6781478,0.35781798,-0.65393144,-0.8807882,0.6499947,0.32738855,-0.48515707,1.7727886,1.3718816,1.2598037,-1.0659567,1.655192,0.40978462,-0.38704434,1.6968507,1.331794,1.3335214,-0.9623555,1.5780882,-1.1507618,-1.3355612,1.0879717,0.5700644,-0.95078135,-0.41862056,0.17917614,-1.1507511,-1.3355732,1.0879517,0.5701065,-0.9508133,-0.41866302,0.17910004,1.7007723,-0.39933538,1.606176,-2.975023,0.1365772,1.691825,0.16087198,-0.42763066,0.8552761,0.792945,0.0013389041,0.60031545,-0.10420004,-0.6275665,-0.06811354,-0.20525831,1,0,0,0,0,0,0,0,0,0,0.94497204,-0.3736019,-0.73480606,-0.359416,-0.73308945,-0.2575338,1.4707148,0.9441376,-0.37193298,-0.7247925,-0.34332275,-0.7247925,-0.2670288,1.449585
-2.8258388,20.918287,17.008297,-40.647736,4.463048,0.053708255,-0.060350634,-0.7231258,-0.86926913,0.6734401,0.2747878,-0.63590485,-0.88050467,0.7170889,0.32300952,-0.49135664,1.7776635,1.3647685,1.2572128,-1.068016,1.6641388,0.40406424,-0.39372745,1.7022685,1.334552,1.3287654,-0.96445405,1.5790285,-1.144083,-1.3366016,1.0835614,0.551643,-0.9511761,-0.4197415,0.18813714,-1.1440754,-1.3366222,1.0835648,0.5516052,-0.95119476,-0.41971207,0.18806458,1.6858969,-0.39865255,1.6143875,-2.975023,0.1365772,1.6423106,0.15771961,-0.42795157,0.8542924,0.793382,0.0015446766,0.5998994,-0.10326311,-0.630678,-0.05985059,-0.195363,1,0,0,0,0,0,0,0,0,0,1.3357639,-0.20809174,-0.8820534,-3.6842823,-0.07895231,-0.22419095,1.7922014,1.335144,-0.20980835,-0.8773804,-3.7002563,-0.076293945,-0.20980835,1.7929077
-0.6386691,21.995348,15.872173,-34.045986,3.61156,0.06609452,0.04428643,-0.6993743,-0.8663907,0.6311908,0.36400467,-0.65188766,-0.89124936,0.78362477,0.32013932,-0.49769434,1.7780113,1.3782326,1.2505388,-1.071404,1.6730635,0.39839727,-0.40041175,1.7076253,1.3373063,1.3239942,-0.9665593,1.5800222,-1.1333886,-1.3368437,1.0713779,0.55083376,-0.95432484,-0.4210303,0.19878128,-1.1333942,-1.3368607,1.0713577,0.5508423,-0.9542465,-0.4210472,0.19874573,1.6710215,-0.39796972,1.6223515,-2.975023,0.1365772,1.5927962,0.15456772,-0.42824173,0.853311,0.79381967,0.0017407918,0.59948087,-0.10232237,-0.63051146,-0.053650264,-0.19481863,1,0,0,0,0,0,0,0,0,0,2.138877,-0.048422813,-2.4367094,-0.16185045,-0.6297469,-0.2577603,2.1288276,2.1362305,-0.047683716,-2.4414062,-0.15258789,-0.61035156,-0.2670288,2.1362305
0.22079188,22.597754,15.91654,-31.342796,3.3418703,-0.04458952,0.09690489,-0.70964634,-0.8700809,0.6430299,0.40329477,-0.6301254,-0.8911989,0.7176395,0.3132397,-0.5048215,1.7847888,1.3857017,1.2483791,-1.0735031,1.666139,0.39276963,-0.4071001,1.7129353,1.3401062,1.3192277,-0.96867025,1.5810579,-1.1255392,-1.3376666,1.0620421,0.5600088,-0.95321614,-0.42218366,0.20707238,-1.1255264,-1.3376713,1.0620117,0.55999756,-0.95329285,-0.42219162,0.20713806,1.656146,-0.3972869,1.630068,-2.975023,0.1365772,1.5432818,0.15142393,-0.42849827,0.85231614,0.7942581,0.001934582,0.5990626,-0.10136115,-0.62881887,-0.047101915,-0.1976935,1,0,0,0,0,0,0,0,0,0,1.569891,-0.16458035,-1.8671513,1.8350124,0.2217412,-0.23066998,1.6582191,1.5735626,-0.16212463,-1.8692017,1.8310547,0.19073486,-0.22888184,1.6784668
-0.50881755,22.592287,16.47887,-32.580482,3.5397706,-0.09181929,0.073450066,-0.7262729,-0.8709965,0.66025317,0.39385813,-0.616253,-0.8857006,0.6571219,0.3056169,-0.5116197,1.7921658,1.3873693,1.2452773,-1.0749543,1.6599126,0.38715822,-0.41379324,1.7182235,1.3429434,1.3144822,-0.9707855,1.5821232,-1.122272,-1.3386328,1.0575852,0.56744426,-0.9490236,-0.42301303,0.21306765,-1.1222839,-1.338625,1.0576248,0.5674362,-0.9490967,-0.42304993,0.21305084,1.6412706,-0.39660406,1.6375368,-2.975023,0.1365772,1.4937674,0.14828539,-0.42871737,0.8513163,0.79470307,0.0021202317,0.598636,-0.10038649,-0.62794846,-0.039670978,-0.19862337,1,0,0,0,0,0,0,0,0,0,0.6534338,-0.19323826,-0.89137554,1.4870882,0.8385062,-0.16587377,1.1990547,0.64849854,-0.19073486,-0.8773804,1.4877319,0.8392334,-0.17166138,1.1825562
-2.1810863,21.28492,16.060368,-35.406433,3.8533082,0.13525355,0.007967509,-0.7030537,-0.8713884,0.62697303,0.33886886,-0.642343,-0.89383924,0.73216283,0.30279177,-0.51835984,1.7934602,1.3836077,1.237401,-1.0780462,1.6699827,0.3815809,-0.42049113,1.7234629,1.3457587,1.309732,-0.97290504,1.5832275,-1.1154845,-1.3395684,1.047825,0.5630415,-0.9500394,-0.42392114,0.22087786,-1.1154652,-1.3395786,1.0478973,0.5630493,-0.95005035,-0.42390823,0.22087097,1.6263952,-0.39592123,1.644758,-2.975023,0.1365772,1.444253,0.14513826,-0.42890573,0.8503296,0.7951537,0.0022927807,0.5981977,-0.09942292,-0.62949795,-0.033567723,-0.19604522,1,0,0,0,0,0,0,0,0,0,1.3575077,-0.1871109,-1.9520521,-0.88055134,-0.20315647,-0.18162131,1.562041,1.3637543,-0.19073486,-1.9454956,-0.8773804,-0.19073486,-0.17166138,1.5640259
0.04650718,23.831272,17.021303,-31.914488,3.407237,-0.05706513,0.05794,-0.70393497,-0.86601776,0.63409954,0.39751014,-0.6353623,-0.8940765,0.71511453,0.2971087,-0.5244132,1.7995548,1.3934599,1.2334884,-1.0801942,1.6690413,0.37603456,-0.42718783,1.7286633,1.3486044,1.3049808,-0.9750284,1.5843672,-1.1092823,-1.3393353,1.0399982,0.5691264,-0.950262,-0.42471313,0.22793484,-1.1092663,-1.3393402,1.0400772,0.56915283,-0.9502411,-0.42467117,0.22792816,1.6115198,-0.3952384,1.6517317,-2.975023,0.1365772,1.3947386,0.14199924,-0.4290607,0.8493354,0.7956032,0.002457293,0.59776,-0.098450184,-0.6279034,-0.026811592,-0.19760661,1,0,0,0,0,0,0,0,0,0,1.2404442,0.046610832,-1.565361,1.2169838,-0.04452467,-0.15839934,1.4113963,1.2397766,0.047683716,-1.5640259,1.2207031,-0.038146973,-0.15258789,1.411438
-0.79768676,22.107365,15.328508,-30.379658,3.2141125,0.10294658,0.07216372,-0.6987488,-0.87363017,0.60452884,0.4161976,-0.6495532,-0.898745,0.70288014,0.2921847,-0.53202343,1.8012068,1.3985481,1.2270343,-1.0828778,1.6687127,0.37051994,-0.43389,1.7338017,1.3515017,1.3002152,-0.97715604,1.5855383,-1.102936,-1.3404572,1.0276388,0.57940054,-0.9531313,-0.4255059,0.2342701,-1.1029243,-1.3404369,1.0276794,0.5794525,-0.9531021,-0.42552948,0.23422241,1.5966444,-0.39455557,1.6584579,-2.975023,0.1365772,1.3452241,0.13886404,-0.42919016,0.84831846,0.7960447,0.0026243103,0.597332,-0.09746906,-0.62715393,-0.021805461,-0.20212251,1,0,0,0,0,0,0,0,0,0,1.2692451,-0.22437572,-2.4718761,2.0548224,-0.5738616,-0.15855432,1.2670517,1.2683868,-0.2193451,-2.4795532,2.0599365,-0.5722046,-0.17166138,1.2588501
1.0932045,24.732306,16.718483,-27.411034,2.887268,-0.19475067,0.12426195,-0.72459,-0.8684348,0.63773817,0.48289597,-0.6200758,-0.8911406,0.6156785,0.28356913,-0.5381022,1.8103303,1.4094492,1.2258061,-1.0840929,1.6594197,0.36500794,-0.4405929,1.7389153,1.3545115,1.295464,-0.9792856,1.5867265,-1.1023976,-1.340595,1.0227233,0.6018689,-0.9502194,-0.42594844,0.23769654,-1.1023998,-1.34058,1.0227203,0.6019592,-0.9502411,-0.42591095,0.23765564,1.581769,-0.39387274,1.6649364,-2.975023,0.1365772,1.2957097,0.13574696,-0.42928505,0.8472632,0.79647833,0.002796392,0.5969173,-0.09645767,-0.62347996,-0.014842509,-0.20978592,1,0,0,0,0,0,0,0,0,0,0.10769367,-0.027561188,-0.98309517,4.4936776,0.58238506,-0.08850694,0.6852895,0.104904175,-0.02861023,-0.9918213,4.501343,0.5722046,-0.076293945,0.6866455
0.98291576,24.860678,17.090256,-27.706966,2.9921567,-0.21642166,0.13702591,-0.72176844,-0.87110627,0.6338488,0.48572776,-0.6059831,-0.89549434,0.6410151,0.2783957,-0.54512566,1.8149772,1.4127989,1.2227461,-1.0867449,1.6636484,0.35949737,-0.44729844,1.744008,1.3576291,1.2907434,-0.98141754,1.5879339,-1.1021097,-1.341109,1.0186065,0.6235672,-0.9441666,-0.42635974,0.24154966,-1.1021137,-1.3411045,1.0185242,0.62351227,-0.9441376,-0.4263878,0.24147034,1.5668936,-0.3931899,1.6711674,-2.975023,0.1365772,1.2461953,0.13264656,-0.429343,0.84617466,0.79691,0.0029731342,0.5965081,-0.09541238,-0.6199049,-0.0075291237,-0.21650977,1,0,0,0,0,0,0,0,0,0,0.057578087,-0.10280609,-0.8233547,4.339659,1.2105584,-0.08226037,0.7706225,0.05722046,-0.104904175,-0.8392334,4.310608,1.2207031,-0.09536743,0.76293945
2.0395076,25.990011,17.829481,-27.14024,2.9134483,-0.25036913,0.1308357,-0.69837564,-0.87267524,0.62170315,0.49457824,-0.61560297,-0.89894295,0.63990295,0.27569228,-0.5520195,1.8186123,1.4169785,1.216871,-1.0892907,1.6647222,0.35401064,-0.454008,1.749072,1.3608496,1.2860417,-0.9835514,1.5891603,-1.0973406,-1.341905,1.0127447,0.6441294,-0.94031316,-0.42673573,0.24519219,-1.0973454,-1.3419151,1.0128021,0.64411163,-0.9403229,-0.42676926,0.24528503,1.5520182,-0.39250708,1.6771507,-2.975023,0.1365772,1.1966809,0.12957048,-0.42936444,0.84505194,0.7973379,0.003149326,0.59610736,-0.094330445,-0.61509174,-0.00022201546,-0.22329976,1,0,0,0,0,0,0,0,0,0,0.95381737,-0.15919209,-1.1723757,4.1124344,0.77068806,-0.07519722,0.72850585,0.9536743,-0.16212463,-1.1444092,4.119873,0.76293945,-0.076293945,0.76293945
2.614521,26.831161,18.151283,-26.13767,2.8300529,-0.2877801,0.15909141,-0.69895494,-0.86970246,0.6171461,0.52323276,-0.5967974,-0.89511055,0.65668195,0.27013606,-0.5583723,1.8231295,1.4236375,1.214426,-1.0909647,1.6679622,0.34854704,-0.4607183,1.7541045,1.3641875,1.2813745,-0.9856857,1.5904058,-1.0927235,-1.3420519,1.0065148,0.66752315,-0.9335428,-0.42686406,0.24913648,-1.09272,-1.3420582,1.0065079,0.667572,-0.9334564,-0.42686462,0.24909973,1.5371428,-0.39182425,1.6828866,-2.975023,0.1365772,1.1471665,0.12652206,-0.42934918,0.843891,0.79776317,0.0033292808,0.5957146,-0.09320377,-0.60943884,0.0071274354,-0.23096566,1,0,0,0,0,0,0,0,0,0,0.923419,-0.029373169,-1.2459755,4.67875,1.3540745,-0.02566576,0.78885853,0.9250641,-0.02861023,-1.2588501,4.6920776,1.373291,-0.019073486,0.76293945
-0.71957755,25.073296,18.725697,-31.790693,3.581384,-0.18373096,0.05114063,-0.72821826,-0.8701267,0.64047503,0.46118674,-0.5810449,-0.8880247,0.56886834,0.26116085,-0.5651335,1.8309615,1.4195299,1.2116491,-1.0922487,1.6586701,0.3430751,-0.46742907,1.7591323,1.3675683,1.2767539,-0.9878191,1.591657,-1.0943997,-1.3421738,1.0055293,0.67623127,-0.92415506,-0.42665285,0.25029963,-1.094389,-1.3421535,1.0055542,0.6761551,-0.9241104,-0.4266739,0.25024414,1.5222673,-0.3911414,1.6883749,-2.975023,0.1365772,1.0976521,0.1234808,-0.42929363,0.84272933,0.7981979,0.0034975766,0.5953072,-0.09207163,-0.60812217,0.01518797,-0.23114164,1,0,0,0,0,0,0,0,0,0,-0.33524036,-0.02439022,-0.19710064,1.7416239,1.8775463,0.04224181,0.23263097,-0.333786,-0.019073486,-0.19073486,1.7166138,1.8692017,0.038146973,0.22888184
0.85082686,25.018133,17.098452,-28.054968,3.025537,0.01724422,0.08724324,-0.66860443,-0.87372065,0.5682178,0.49906155,-0.62448585,-0.90983903,0.6495968,0.26284257,-0.5722755,1.8273184,1.4274557,1.2018156,-1.0969998,1.6696087,0.33764964,-0.4741439,1.7640885,1.3710148,1.2721334,-0.9899539,1.5929254,-1.0850714,-1.342971,0.991275,0.68935084,-0.9241018,-0.4269687,0.25368068,-1.0850906,-1.3429642,0.9912491,0.6893158,-0.9241104,-0.42696,0.25367737,1.5073919,-0.39045858,1.6936156,-2.975023,0.1365772,1.0481377,0.120453835,-0.42921376,0.8415387,0.79862505,0.0036672612,0.5949098,-0.09092301,-0.6050822,0.020188252,-0.23686455,1,0,0,0,0,0,0,0,0,0,1.8656492,-0.1594305,-2.8508544,2.6239157,0.01064539,-0.063169,0.67620873,1.8596649,-0.16212463,-2.861023,2.632141,0,-0.05722046,0.6866455
0.88488334,26.125244,18.42192,-28.665335,3.1792998,-0.1322124,0.1024158,-0.6935838,-0.87074035,0.6000406,0.50674677,-0.5919898,-0.89893806,0.68140155,0.2544196,-0.5786327,1.8360934,1.4318244,1.2010946,-1.0978265,1.6746936,0.33224756,-0.48085967,1.7690047,1.3745291,1.2675385,-0.9920882,1.5942148,-1.0803952,-1.3431726,0.9833279,0.7028706,-0.9188747,-0.4268896,0.25794077,-1.0804176,-1.3431549,0.9832382,0.702858,-0.9189606,-0.42686462,0.25787354,1.4925165,-0.38977575,1.6986086,-2.975023,0.1365772,0.99862325,0.117443085,-0.429101,0.84032726,0.79905194,0.0038363396,0.594513,-0.08975216,-0.6017433,0.026728742,-0.24096678,1,0,0,0,0,0,0,0,0,0,0.93524456,-0.04031658,-1.5894175,2.7039528,1.0454297,0.015819073,0.8520186,0.93460083,-0.038146973,-1.6021729,2.708435,1.0299683,0.019073486,0.8392334
0.8332713,25.574823,17.055946,-25.851496,2.8060439,-0.09293318,0.1404334,-0.7034493,-0.8724805,0.5791009,0.5660472,-0.59670293,-0.8947385,0.6442415,0.24783364,-0.58555734,1.8384968,1.4424548,1.1959342,-1.0994568,1.6715238,0.32685357,-0.4875776,1.7738703,1.3781607,1.2629657,-0.9942211,1.5955194,-1.0788134,-1.3436054,0.9731044,0.72624993,-0.9145517,-0.426576,0.26094612,-1.0787964,-1.3435841,0.9731293,0.72631836,-0.91457367,-0.42657852,0.2609253,1.4776411,-0.38909292,1.7033542,-2.975023,0.1365772,0.94910884,0.11445141,-0.42895937,0.83907247,0.79947037,0.0040187687,0.59412944,-0.088550106,-0.59808075,0.032306496,-0.24968202,1,0,0,0,0,0,0,0,0,0,0.3163576,-0.086569786,-2.0447016,4.675865,0.86460114,0.06272197,0.6010711,0.32424927,-0.08583069,-2.0217896,4.6920776,0.8773804,0.05722046,0.61035156
0.9813981,26.558456,18.40053,-26.800524,3.0162961,-0.21079534,0.13211307,-0.70740575,-0.8713818,0.5942275,0.5644218,-0.5623051,-0.9029801,0.57931256,0.24196488,-0.5921434,1.8451777,1.4458914,1.195489,-1.1025786,1.6650369,0.32146055,-0.49429646,1.7787045,1.3818982,1.2584453,-0.99635303,1.5968288,-1.078591,-1.3437961,0.96683234,0.7475813,-0.9041334,-0.42640468,0.2618164,-1.0786057,-1.3437748,0.966835,0.7474899,-0.90408325,-0.4263878,0.26187897,1.4627657,-0.3884101,1.7078522,-2.975023,0.1365772,0.8995944,0.11147785,-0.42878413,0.8377865,0.7998901,0.0042069783,0.5937455,-0.08731744,-0.59414977,0.03925209,-0.2560116,1,0,0,0,0,0,0,0,0,0,0.044488907,-0.038146973,-1.2544155,4.266274,2.0836592,0.03426075,0.17405748,0.038146973,-0.038146973,-1.2588501,4.234314,2.0980835,0.038146973,0.19073486
0.66290665,26.831366,19.38114,-29.590616,3.3635423,-0.09806383,0.074789695,-0.67471844,-0.8704516,0.5737252,0.51169336,-0.5777888,-0.9053618,0.65718687,0.24049434,-0.59875065,1.8475516,1.4433013,1.1891106,-1.1049964,1.6756912,0.31609946,-0.5010151,1.7834939,1.3856766,1.2539592,-0.998484,1.5981525,-1.0722201,-1.343747,0.9578416,0.7556851,-0.8972485,-0.4262069,0.26482108,-1.072216,-1.3437331,0.9578705,0.7556915,-0.8972168,-0.42619705,0.26474,1.4478903,-0.38772726,1.7121027,-2.975023,0.1365772,0.85008,0.10851908,-0.428576,0.8364911,0.80031437,0.0043879566,0.59335434,-0.08607125,-0.5911602,0.045707416,-0.25782067,1,0,0,0,0,0,0,0,0,0,1.2741804,0.009822845,-1.7981529,1.6207576,1.3769746,0.039559603,0.600934,1.2779236,0.00834465,-1.7929077,1.6403198,1.373291,0.038146973,0.5722046
-0.41344106,25.658463,18.963852,-29.99806,3.4412732,-0.06821543,0.06575081,-0.6876693,-0.8789829,0.57802975,0.525827,-0.5744183,-0.90202034,0.63504213,0.23357916,-0.60649306,1.8528575,1.4487759,1.185029,-1.1067264,1.6743575,0.31075746,-0.50774187,1.788246,1.3894961,1.2495036,-1.0006132,1.5994886,-1.068398,-1.3453275,0.950471,0.7638668,-0.89103603,-0.4258343,0.26714763,-1.0684013,-1.3453484,0.9504318,0.7638931,-0.8911133,-0.42583942,0.26721954,1.4330149,-0.38704443,1.7161055,-2.975023,0.1365772,0.8005656,0.105568886,-0.42833662,0.83518684,0.8007444,0.0045632296,0.5929535,-0.08481561,-0.58945924,0.05197472,-0.25952756,1,0,0,0,0,0,0,0,0,0,0.76441765,-0.31609535,-1.4741182,1.6363382,1.2424946,0.07451773,0.46530962,0.76293945,-0.32305717,-1.4877319,1.6403198,1.2207031,0.071525574,0.49591064
-0.5497941,26.048933,19.349411,-30.032085,3.5088453,-0.09885675,0.0818304,-0.69302076,-0.87569433,0.57814896,0.5345161,-0.54827917,-0.90195626,0.6479854,0.22759497,-0.61282516,1.8576239,1.4536381,1.1837101,-1.108848,1.6772468,0.30542523,-0.5144734,1.7929677,1.3933594,1.2451005,-1.0027399,1.6008371,-1.0664262,-1.3462691,0.9442465,0.77270496,-0.88061184,-0.42537782,0.2697337,-1.0664463,-1.346302,0.9443283,0.77266693,-0.88062286,-0.42533875,0.2696991,1.4181395,-0.3863616,1.7198607,-2.975023,0.1365772,0.7510512,0.1026268,-0.42806387,0.83387727,0.80118465,0.0047347634,0.59253734,-0.08354745,-0.5878026,0.05859692,-0.26076782,1,0,0,0,0,0,0,0,0,0,0.39436817,-0.18832684,-1.2449026,1.7676353,2.0848393,0.091296434,0.51721334,0.39100647,-0.19073486,-1.2207031,1.7547607,2.0980835,0.1001358,0.49591064
-0.39669195,28.400646,22.728363,-32.821907,4.00309,-0.3888815,0.04052873,-0.7133306,-0.87090635,0.63297844,0.5103847,-0.49062166,-0.8880048,0.5294245,0.21982555,-0.61898214,1.8689251,1.4546056,1.1862259,-1.1093005,1.664368,0.30008084,-0.52120394,1.797716,1.397239,1.2408013,-1.0048618,1.6021808,-1.0688874,-1.3460716,0.94960964,0.77581954,-0.8597589,-0.42443445,0.26872984,-1.0688782,-1.3461113,0.9496689,0.7759094,-0.85983276,-0.42438507,0.26874542,1.403264,-0.38567877,1.7233684,-2.975023,0.1365772,0.7015368,0.09969568,-0.42774153,0.8325908,0.80165374,0.0048812344,0.59208006,-0.082271814,-0.58574164,0.068587676,-0.25598714,1,0,0,0,0,0,0,0,0,0,-0.492239,0.03950596,1.0726333,0.6229162,4.1705847,0.18867254,-0.20077229,-0.4863739,0.038146973,1.0681152,0.64849854,4.15802,0.19073486,-0.19073486
0.055195026,27.776817,21.021286,-30.712101,3.5324218,-0.16564476,0.0017162189,-0.6785331,-0.8753229,0.5794432,0.5197698,-0.56604165,-0.90761447,0.525158,0.21865687,-0.6262427,1.8672493,1.4596113,1.1728764,-1.1137756,1.6651998,0.2947567,-0.5279369,1.8024424,1.4011376,1.236526,-1.0069818,1.6035188,-1.0648346,-1.3466063,0.9453032,0.77966636,-0.8549701,-0.42398223,0.26753682,-1.064825,-1.3465881,0.945282,0.7797241,-0.8550644,-0.4240036,0.267601,1.3883886,-0.38499594,1.7266285,-2.975023,0.1365772,0.65202236,0.09677458,-0.42738295,0.83130753,0.8021277,0.005004125,0.5916119,-0.08100179,-0.5833773,0.0757819,-0.25539473,1,0,0,0,0,0,0,0,0,0,0.81055164,-0.10693073,-0.8612871,0.76936483,0.9577632,0.09044409,-0.23860335,0.81062317,-0.09536743,-0.8773804,0.76293945,0.9536743,0.076293945,-0.22888184
0.33691874,27.78749,20.309286,-28.859943,3.2862544,-0.13310218,0.04296139,-0.68234646,-0.87517834,0.5707748,0.54885375,-0.56198394,-0.9010111,0.60470283,0.21287513,-0.6329583,1.8709354,1.467,1.1690879,-1.1151031,1.6760832,0.2894507,-0.5346727,1.8071355,1.405081,1.232266,-1.009098,1.6048626,-1.0612236,-1.3471316,0.93862325,0.7887641,-0.85204065,-0.42329234,0.2687761,-1.0612011,-1.3471603,0.93860626,0.78868866,-0.85201263,-0.42324066,0.26874542,1.3735132,-0.3843131,1.7296411,-2.975023,0.1365772,0.60250795,0.093868256,-0.42699218,0.8300128,0.80260056,0.005115896,0.59114265,-0.07972755,-0.5804597,0.08220163,-0.25769386,1,0,0,0,0,0,0,0,0,0,0.7221937,-0.10507107,-1.3359904,1.819551,0.5858898,0.13797879,0.247854,0.7247925,-0.11444092,-1.335144,1.7929077,0.61035156,0.15258789,0.22888184
-0.6634598,26.991177,20.241198,-29.931751,3.51936,-0.082710385,0.041100174,-0.6856633,-0.87726647,0.56890327,0.5389187,-0.53004634,-0.9020224,0.556836,0.20717111,-0.6399447,1.8754039,1.4697512,1.1686604,-1.1173408,1.6716828,0.28415686,-0.5414128,1.8117961,1.4090579,1.2280488,-1.0112104,1.6062063,-1.0587738,-1.3479978,0.93212277,0.7954458,-0.8435038,-0.42255998,0.26868957,-1.0587692,-1.3480186,0.9321213,0.7953644,-0.84342957,-0.42247772,0.26874542,1.3586378,-0.38363028,1.732406,-2.975023,0.1365772,0.55299354,0.09097099,-0.4265697,0.8287152,0.80308115,0.005218378,0.5906595,-0.07845223,-0.5788185,0.08852732,-0.2583619,1,0,0,0,0,0,0,0,0,0,0.48997402,-0.17323494,-1.3000965,1.3363361,1.707375,0.14647245,-0.017303228,0.4863739,-0.17166138,-1.2969971,1.335144,1.7166138,0.15258789,0
0.19032979,27.646854,19.828268,-28.220903,3.2339506,-0.025072038,0.061127968,-0.66928416,-0.8746815,0.54289633,0.5560568,-0.5585902,-0.90893376,0.6602053,0.20384276,-0.6463745,1.8769436,1.4757847,1.161018,-1.1202825,1.6854309,0.27888876,-0.5481543,1.8164033,1.4130795,1.223844,-1.01332,1.6075643,-1.0536014,-1.3482842,0.9213989,0.8043327,-0.84091514,-0.42197973,0.27161494,-1.0536194,-1.3483047,0.9214401,0.8043289,-0.84095,-0.42190552,0.27160645,1.3437624,-0.38294744,1.7349234,-2.975023,0.1365772,0.5034791,0.088086605,-0.42612028,0.8274013,0.80355805,0.005317781,0.5901786,-0.07717035,-0.5761486,0.09379624,-0.26152876,1,0,0,0,0,0,0,0,0,0,1.0344744,-0.057291985,-2.1447778,1.7773747,0.51772594,0.11605024,0.58507323,1.0299683,-0.05722046,-2.1362305,1.7929077,0.49591064,0.11444092,0.5722046
1.1105151,30.179909,22.81684,-28.400875,3.4861314,-0.4266423,0.10043077,-0.7005077,-0.8729874,0.6026234,0.5841241,-0.4703757,-0.8962627,0.5642388,0.19482784,-0.6529128,1.8887181,1.4831744,1.1673989,-1.1208715,1.675273,0.2736147,-0.55489486,1.821019,1.4171689,1.2197328,-1.0154247,1.6089233,-1.0548116,-1.3481287,0.9230999,0.81783,-0.82224727,-0.42098424,0.2717329,-1.0548115,-1.348114,0.92315674,0.8178711,-0.822258,-0.42095184,0.27179718,1.328887,-0.3822646,1.7371932,-2.975023,0.1365772,0.45396468,0.08522415,-0.42562604,0.8260855,0.8040532,0.0054043746,0.5896731,-0.07586134,-0.5716798,0.102881536,-0.2619312,1,0,0,0,0,0,0,0,0,0,-0.24204254,0.031113625,0.34019947,2.6994705,3.7335753,0.1990974,0.023591518,-0.23841858,0.038146973,0.34332275,2.708435,3.7384033,0.19073486,0.038146973
1.1990688,29.339016,21.647802,-28.242443,3.450143,-0.17672575,0.09894291,-0.65848315,-0.87499624,0.5496334,0.56538004,-0.48948678,-0.9090819,0.62808025,0.19459674,-0.6598944,1.886975,1.4850144,1.1609943,-1.1245146,1.6842929,0.26837212,-0.5616364,1.8255986,1.4213011,1.2156949,-1.0175257,1.6102918,-1.0485055,-1.3483214,0.91582036,0.8265451,-0.8076427,-0.42028224,0.27361554,-1.0485172,-1.3483047,0.9159088,0.82645416,-0.8075714,-0.4201889,0.27370453,1.3140116,-0.38158178,1.7392155,-2.975023,0.1365772,0.40445024,0.08238125,-0.4250977,0.8247656,0.80456203,0.0054836837,0.58914775,-0.07452976,-0.56776613,0.10953254,-0.2628144,1,0,0,0,0,0,0,0,0,0,1.2612104,-0.038552284,-1.455903,1.7430186,2.9209137,0.14039874,0.3765285,1.2588501,-0.038146973,-1.449585,1.7166138,2.937317,0.15258789,0.38146973
-1.9529939,27.339,22.073334,-33.398273,4.184175,0.0055957437,0.024087027,-0.6697925,-0.8746987,0.56001806,0.49503675,-0.46263337,-0.8994501,0.65436894,0.18799701,-0.6666002,1.8928008,1.4807055,1.1601789,-1.1254597,1.6888161,0.26315075,-0.56837887,1.8301505,1.425401,1.2117438,-1.0196218,1.6116737,-1.0442561,-1.3484751,0.91032904,0.81987387,-0.7901939,-0.41926238,0.27628127,-1.0442734,-1.3484955,0.9103775,0.8199692,-0.79021454,-0.41923523,0.27637482,1.2991362,-0.38089895,1.7409902,-2.975023,0.1365772,0.3549358,0.079536915,-0.42453814,0.82347476,0.8050981,0.0055486895,0.58858067,-0.07320535,-0.56814605,0.11583724,-0.2569388,1,0,0,0,0,0,0,0,0,0,0.8498907,-0.030732155,-1.0982633,-1.33425,3.4897566,0.20397305,0.53314567,0.84877014,-0.038146973,-1.1062622,-1.2969971,3.4713745,0.19073486,0.5340576
-0.10673569,29.26226,22.81196,-30.817749,3.7989564,-0.15281558,0.03487239,-0.6619335,-0.8755684,0.5641519,0.5350645,-0.47709218,-0.9060791,0.6268749,0.18371874,-0.6734471,1.8978487,1.4896088,1.1544927,-1.1283513,1.6868987,0.25795442,-0.5751228,1.8346833,1.4295008,1.2078567,-1.0217142,1.6130642,-1.03928,-1.3487687,0.90653795,0.8199288,-0.77748084,-0.4184079,0.27809426,-1.0392666,-1.3487816,0.9065628,0.8199692,-0.7774353,-0.4184723,0.27809143,1.2842607,-0.38021612,1.7425172,-2.975023,0.1365772,0.30542135,0.076702595,-0.42394376,0.8221989,0.8056512,0.00559463,0.5879866,-0.07187855,-0.5659606,0.12278988,-0.25399113,1,0,0,0,0,0,0,0,0,0,0.99520683,-0.058722496,-0.75821877,0.0109910965,2.542615,0.17089844,0.3625989,1.001358,-0.05722046,-0.76293945,0,2.5558472,0.15258789,0.34332275
0.67179596,30.922283,24.740536,-31.117136,4.000547,-0.3438302,0.05234327,-0.6636068,-0.87368256,0.58936983,0.5324981,-0.4128051,-0.89988434,0.5668789,0.1783216,-0.67996466,1.9054077,1.4934006,1.1583201,-1.1297003,1.6810896,0.2527786,-0.5818662,1.8392247,1.4336026,1.2040839,-1.0238008,1.6144546,-1.0351726,-1.3486661,0.9083265,0.8203124,-0.7545116,-0.41734052,0.2780569,-1.0351658,-1.3486862,0.9082794,0.82035065,-0.7545471,-0.41732788,0.27809143,1.2693853,-0.3795333,1.7437968,-2.975023,0.1365772,0.2559069,0.073884964,-0.4233048,0.8209491,0.80623573,0.0056134937,0.58734727,-0.070538074,-0.56261414,0.13159065,-0.24869515,1,0,0,0,0,0,0,0,0,0,0.82149506,0.02052784,0.35771132,0.07671118,4.593849,0.21347404,-0.0074744225,0.8201599,0.019073486,0.34332275,0.076293945,4.5776367,0.22888184,0
0.51681006,29.68863,21.85468,-28.23201,3.3815558,-0.07881117,0.028671063,-0.6528639,-0.87320065,0.53421676,0.56119746,-0.48466182,-0.9122902,0.5263035,0.17443493,-0.6866503,1.9033307,1.5009463,1.1459244,-1.1332756,1.677611,0.24763048,-0.5886082,1.8437241,1.4377339,1.2003474,-1.0258837,1.6158384,-1.0296168,-1.3484275,0.8998412,0.82628536,-0.7472103,-0.41658953,0.27679792,-1.0296226,-1.3484001,0.8998871,0.8262634,-0.7472992,-0.41656494,0.2767563,1.2545099,-0.37885046,1.7448288,-2.975023,0.1365772,0.20639247,0.07108307,-0.42263818,0.8196944,0.80682325,0.005618527,0.5866995,-0.069198266,-0.5594983,0.1371849,-0.24977525,1,0,0,0,0,0,0,0,0,0,1.1111498,0.047707558,-1.6970634,1.1945963,1.4602542,0.15019774,-0.25179386,1.1086464,0.05722046,-1.6784668,1.1825562,1.449585,0.15258789,-0.2670288
2.3859513,30.94389,22.591717,-27.70654,3.4824874,-0.049431443,0.092436686,-0.607078,-0.87327385,0.5180202,0.54638517,-0.43281734,-0.9125701,0.6459769,0.17478111,-0.6934011,1.9058865,1.5033001,1.1484094,-1.1353921,1.6933557,0.24255204,-0.59534925,1.8481644,1.4418805,1.1966834,-1.0279627,1.6172336,-1.015685,-1.3482102,0.8879809,0.82932854,-0.7327276,-0.41582924,0.2790897,-1.015687,-1.3482094,0.8880615,0.8293152,-0.73280334,-0.415802,0.2790451,1.2396345,-0.37816763,1.7456132,-2.975023,0.1365772,0.15687802,0.068305016,-0.42194605,0.81843966,0.807426,0.0056126714,0.5860291,-0.06783569,-0.55471975,0.1422419,-0.24971259,1,0,0,0,0,0,0,0,0,0,2.786374,0.043463707,-2.3720622,0.60863495,2.8965473,0.15205741,0.45835376,2.7871132,0.038146973,-2.3651123,0.61035156,2.89917,0.15258789,0.45776367
0.5341771,29.257307,21.561033,-28.755026,3.6600683,0.096137404,0.09697996,-0.62018955,-0.8724677,0.50385284,0.54091245,-0.41422454,-0.9119562,0.6771635,0.1681293,-0.70004535,1.9086268,1.5067899,1.1469765,-1.1373974,1.6984932,0.23752701,-0.6020884,1.8525361,1.4460337,1.1931052,-1.0300379,1.618646,-1.0050141,-1.3478674,0.87441003,0.8305596,-0.7155736,-0.41503832,0.28238696,-1.0050058,-1.3478279,0.8743286,0.8306503,-0.7156372,-0.41503906,0.28247833,1.2247591,-0.3774848,1.74615,-2.975023,0.1365772,0.10736359,0.06553841,-0.42123342,0.8171882,0.8080469,0.005606993,0.58533084,-0.06645692,-0.55229074,0.14630039,-0.24911247,1,0,0,0,0,0,0,0,0,0,2.13418,0.06856918,-2.714169,0.24621487,3.4307957,0.15818477,0.65945387,2.1362305,0.076293945,-2.746582,0.2670288,3.4332275,0.15258789,0.6866455
1.2033939,30.07365,22.35291,-28.316608,3.7247698,0.0075632334,0.1264275,-0.6092815,-0.87354374,0.5070509,0.55101323,-0.3704985,-0.90716475,0.6588344,0.16441324,-0.70691365,1.9133822,1.5121553,1.1486454,-1.1388977,1.6977061,0.23255706,-0.60882705,1.8568505,1.4502003,1.1896462,-1.0321083,1.6200708,-0.99398977,-1.3477534,0.86294395,0.8333743,-0.6917743,-0.41409713,0.28504917,-0.9939909,-1.3477325,0.8628845,0.8333206,-0.69179535,-0.4140854,0.2849579,1.2098837,-0.37680197,1.7464392,-2.975023,0.1365772,0.057849154,0.06278896,-0.42049646,0.815943,0.80869526,0.0055998387,0.58459294,-0.06505099,-0.54901433,0.1510839,-0.24794671,1,0,0,0,0,0,0,0,0,0,2.2048593,0.022792816,-2.2932172,0.562942,4.75986,0.18823743,0.53244233,2.2029877,0.019073486,-2.2888184,0.5340576,4.7683716,0.19073486,0.49591064
1.1290023,30.580914,23.25225,-29.090624,3.816204,-0.026252806,0.10091949,-0.6020594,-0.8742906,0.511574,0.5343374,-0.3748647,-0.90751636,0.7035155,0.16030993,-0.7137419,1.9182394,1.5143209,1.1446625,-1.1410103,1.7044927,0.22764242,-0.6155662,1.861121,1.4543641,1.1862912,-1.034174,1.6215156,-0.98291916,-1.347828,0.85407543,0.8327806,-0.6710284,-0.4131544,0.28887177,-0.9829283,-1.3478279,0.8541107,0.8327484,-0.67100525,-0.4131317,0.28896332,1.1950083,-0.37611914,1.746481,-2.975023,0.1365772,0.008334719,0.060054302,-0.4197328,0.81471115,0.8093698,0.0055838204,0.5838164,-0.06362185,-0.54584795,0.15631059,-0.24524975,1,0,0,0,0,0,0,0,0,0,2.2141218,-0.014925003,-1.7737031,-0.11874437,4.1491866,0.18854737,0.764519,2.2125244,-0.019073486,-1.7547607,-0.11444092,4.15802,0.19073486,0.8010864
0.2594753,31.085657,24.992634,-30.47884,4.1913085,-0.23198587,0.10971692,-0.62601346,-0.87336385,0.5466758,0.53793955,-0.29170403,-0.9114756,0.63062227,0.1525208,-0.7203699,1.9267222,1.5189168,1.1512867,-1.143551,1.6971903,0.22275293,-0.62230486,1.8653888,1.4585268,1.183105,-1.0362358,1.6229681,-0.9779054,-1.3477298,0.853456,0.8325567,-0.637176,-0.41232574,0.2904557,-0.97789764,-1.3477325,0.8535385,0.8325577,-0.6372452,-0.41236877,0.2904892,1.1801329,-0.3754363,1.7462751,-2.975023,0.1365772,-0.041179717,0.057332993,-0.418931,0.8135097,0.81008816,0.0055522034,0.5829765,-0.062165525,-0.54325956,0.16391093,-0.23925169,1,0,0,0,0,0,0,0,0,0,1.0027528,0.01964569,-0.12388229,-0.04477501,6.7704797,0.16573071,0.31678677,1.0061264,0.019073486,-0.11444092,-0.038146973,6.752014,0.15258789,0.30517578
0.86901426,30.743385,23.531437,-28.159573,3.8893151,-0.13643259,0.15182906,-0.6103794,-0.87542754,0.51335275,0.56844795,-0.27959862,-0.90563667,0.62191284,0.1495074,-0.72735614,1.9269911,1.5267406,1.1495532,-1.1449122,1.6975976,0.2178967,-0.62904495,1.8696259,1.4627182,1.1800866,-1.0382919,1.6244262,-0.9712561,-1.3480148,0.8474345,0.8383465,-0.60368824,-0.4113024,0.2916263,-0.97124577,-1.3480186,0.847435,0.8382797,-0.60367584,-0.41122437,0.2916336,1.1652575,-0.37475348,1.7458216,-2.975023,0.1365772,-0.09069415,0.05462885,-0.41809845,0.81231993,0.8108458,0.005517833,0.58208036,-0.060671225,-0.5400616,0.17008941,-0.23689742,1,0,0,0,0,0,0,0,0,0,1.3298631,-0.057005882,-1.2042999,1.1579514,6.6975474,0.20467043,0.23412108,1.3303757,-0.05722046,-1.2207031,1.1444092,6.713867,0.22888184,0.22888184
1.0725379,29.438694,20.621838,-27.015293,3.4186656,0.317878,0.09208454,-0.5634966,-0.87458456,0.44037917,0.5409042,-0.37737972,-0.91497797,0.698378,0.15027711,-0.7339951,1.9224714,1.5276268,1.134801,-1.1480893,1.7082316,0.21311605,-0.6357855,1.873762,1.4669125,1.1771188,-1.0403442,1.6259016,-0.956136,-1.3481426,0.82728,0.83880544,-0.59352577,-0.41052708,0.29498607,-0.95613,-1.348114,0.8272171,0.8388519,-0.5935669,-0.41046143,0.29506683,1.150382,-0.37407064,1.7451205,-2.975023,0.1365772,-0.14020859,0.051935196,-0.41725802,0.81112117,0.8116107,0.0054891757,0.581169,-0.05916497,-0.5376172,0.171552,-0.23869398,1,0,0,0,0,0,0,0,0,0,3.0240178,-0.025558472,-4.030907,0.09179115,2.0324945,0.15506148,0.67195296,3.0231476,-0.019073486,-4.043579,0.11444092,2.0217896,0.15258789,0.6866455
2.1419353,30.117218,21.093845,-25.989222,3.4629037,0.23410428,0.14983061,-0.55062413,-0.878554,0.44125146,0.56139004,-0.30467802,-0.9177802,0.67689466,0.14704116,-0.741212,1.9267122,1.5342793,1.1405574,-1.1504779,1.7071289,0.2084192,-0.6425304,1.8778027,1.4711249,1.1742511,-1.0423937,1.6273903,-0.9393645,-1.349003,0.8080695,0.84252656,-0.5734585,-0.40986833,0.29766217,-0.9393692,-1.3489723,0.8081436,0.8424759,-0.57353973,-0.40988922,0.29773712,1.1355066,-0.3733878,1.7441719,-2.975023,0.1365772,-0.18972301,0.049260616,-0.41640735,0.8099133,0.81239533,0.0054670516,0.5802268,-0.057625115,-0.5339738,0.17349912,-0.24054085,1,0,0,0,0,0,0,0,0,0,3.354299,-0.17206669,-3.8420916,0.7442236,4.013455,0.1317501,0.5352199,3.3521652,-0.17166138,-3.8146973,0.7247925,4.005432,0.11444092,0.5340576
-1.010529,29.76745,25.360332,-30.048046,5.194982,-0.42442143,0.3849442,-0.64061075,-0.8763716,0.5425973,0.61085314,0.13957131,-0.9047113,0.39733067,0.13154592,-0.74769497,1.9429144,1.5444273,1.1909996,-1.150959,1.6750699,0.20370913,-0.6492776,1.8818587,1.475404,1.1719098,-1.0444374,1.6288503,-0.9420048,-1.3494236,0.81110984,0.8557857,-0.4683114,-0.40884015,0.29194623,-0.94201565,-1.3494492,0.8111954,0.85582733,-0.4682541,-0.4087448,0.29201508,1.1206312,-0.37270498,1.7429757,-2.975023,0.1365772,-0.23923746,0.046591282,-0.41550732,0.8087554,0.8133093,0.0054653143,0.57910645,-0.055978782,-0.532835,0.18337421,-0.23063764,1,0,0,0,0,0,0,0,0,0,-0.5280614,-0.08413792,0.60806274,2.6518345,21.029419,0.20563602,-1.1431873,-0.52928925,-0.09536743,0.61035156,2.670288,21.057129,0.22888184,-1.1444092
-1.5928268,27.170992,22.809223,-30.00489,5.56053,-0.103143334,0.5019808,-0.6018458,-0.87959784,0.47243276,0.61270064,0.280509,-0.911905,0.3508402,0.13148764,-0.75482935,1.9385506,1.5489281,1.2055709,-1.153866,1.6709511,0.199013,-0.65602964,1.8858727,1.479749,1.170217,-1.0464773,1.6302742,-0.93922615,-1.3503563,0.80287385,0.8689529,-0.3384647,-0.40796375,0.28472692,-0.93922615,-1.3504028,0.80280304,0.86898804,-0.33855438,-0.40798187,0.28476715,1.1057558,-0.37202215,1.741532,-2.975023,0.1365772,-0.2887519,0.04391718,-0.41457224,0.80764776,0.81438106,0.005510524,0.5777675,-0.054200564,-0.53383887,0.19044928,-0.22048298,1,0,0,0,0,0,0,0,0,0,0.55572987,-0.1865387,-1.6471982,2.6334286,25.969337,0.17527938,-1.4438629,0.5578995,-0.19073486,-1.6784668,2.632141,25.939941,0.15258789,-1.449585
-3.6305046,26.652954,24.973042,-33.673885,6.44069,-0.27066717,0.41169426,-0.63067514,-0.8792785,0.51755613,0.59905773,0.51535904,-0.9042981,-0.38005206,0.12333198,-0.76154304,1.9479795,1.5516359,1.2320601,-1.154993,1.5846679,0.19430435,-0.6627855,1.8898877,1.4841378,1.1693349,-1.0485115,1.6315559,-0.9417254,-1.351161,0.80300033,0.87779444,-0.17640871,-0.40686476,0.25625998,-0.94172955,-1.3511658,0.8029938,0.87776184,-0.17642975,-0.40683746,0.25634766,1.0908804,-0.37133932,1.7398406,-2.975023,0.1365772,-0.33826634,0.041224957,-0.41358852,0.80662787,0.81565297,0.005573229,0.5761444,-0.052312713,-0.53726983,0.20008111,-0.20298564,1,0,0,0,0,0,0,0,0,0,-0.49984455,-0.16093254,0.025296211,1.7683148,32.4112,0.21979809,-5.693388,-0.500679,-0.15258789,0.038146973,1.7547607,32.424927,0.22888184,-5.683899
-1.2548207,27.6563,23.592405,-30.470673,6.006237,-0.12978625,0.4179408,-0.59164155,-0.8747809,0.46360877,0.63426805,0.607472,-0.91298324,-0.65417564,0.12330736,-0.7677592,1.9455208,1.5602499,1.2422315,-1.1580695,1.5530548,0.18961942,-0.66954035,1.8938559,1.4885972,1.16927,-1.0505419,1.6326565,-0.9369934,-1.3509641,0.79365396,0.89184815,-0.013057861,-0.40599176,0.22010593,-0.936985,-1.350975,0.79364777,0.8918762,-0.012969971,-0.40607452,0.22010803,1.076005,-0.3706565,1.7379017,-2.975023,0.1365772,-0.3877808,0.038526535,-0.41256762,0.8056748,0.8171182,0.005654764,0.5742426,-0.050311156,-0.53863436,0.20742878,-0.18963996,1,0,0,0,0,0,0,0,0,0,0.9463906,0.03938675,-1.8692732,2.8107405,32.67017,0.17459989,-7.230809,0.94890594,0.038146973,-1.8692017,2.822876,32.691956,0.15258789,-7.247925
-1.6170675,26.15384,21.487,-29.605677,5.8013997,0.09483969,0.41165534,-0.5806428,-0.8801986,0.42726353,0.6411487,0.6770109,-0.9173877,-0.69968,0.119942285,-0.7751642,1.9451276,1.565535,1.2505113,-1.1606284,1.5486948,0.18497038,-0.67629904,1.8977422,1.4931281,1.1699862,-1.0525684,1.6335768,-0.9298169,-1.3517181,0.7771862,0.90614337,0.14314955,-0.4052629,0.1840143,-0.9298086,-1.351738,0.77724457,0.90618134,0.14324188,-0.40531158,0.18405914,1.0611296,-0.36997366,1.7357153,-2.975023,0.1365772,-0.43729523,0.03581667,-0.41152287,0.8047745,0.8187643,0.005765048,0.57207364,-0.048203014,-0.5411362,0.21228829,-0.17908475,1,0,0,0,0,0,0,0,0,0,1.4353037,-0.15079975,-3.29355,2.859044,31.241482,0.14577508,-7.218325,1.4352798,-0.15258789,-3.2806396,2.861023,31.24237,0.15258789,-7.209778
-2.947672,24.030035,17.993227,-27.806355,5.2655478,0.39260107,0.37952685,-0.5906802,-0.87946284,0.372089,0.67240703,0.6935995,-0.91573215,-0.75946707,0.11408876,-0.7818346,1.9423928,1.5738169,1.2532182,-1.1624563,1.5424407,0.18034434,-0.6830606,1.9014977,1.4977515,1.1713948,-1.0545912,1.6343168,-0.9251983,-1.3523481,0.75115424,0.9247449,0.28178674,-0.4044957,0.14793405,-0.92520714,-1.3523102,0.7511139,0.9246826,0.2817154,-0.40454865,0.14801025,1.0462542,-0.36929083,1.7332813,-2.975023,0.1365772,-0.48680967,0.033085346,-0.41046953,0.8038962,0.82056075,0.0059225084,0.5696735,-0.046010274,-0.54538316,0.21386631,-0.17466177,1,0,0,0,0,0,0,0,0,0,0.923717,-0.12600422,-5.206394,3.7203074,27.727436,0.15344024,-7.216051,0.9202957,-0.11444092,-5.2261353,3.7002563,27.694702,0.15258789,-7.209778
-3.7812,21.864994,14.266083,-25.89118,4.7599435,0.73945427,0.3748679,-0.58496076,-0.8807976,0.3021771,0.698096,0.7133783,-0.9206618,-0.75170267,0.110149056,-0.7887563,1.9377589,1.581523,1.2570002,-1.1650705,1.5441124,0.1757425,-0.6898264,1.9050654,1.5024846,1.1734176,-1.0566111,1.6348861,-0.920377,-1.3531381,0.7136095,0.9465402,0.40446255,-0.40388897,0.11381927,-0.92036724,-1.3531685,0.7135391,0.9466171,0.40454865,-0.40397644,0.11386871,1.0313787,-0.368608,1.7305996,-2.975023,0.1365772,-0.5363241,0.03032589,-0.4094267,0.8030098,0.82248145,0.0061507905,0.5670738,-0.043746356,-0.55109537,0.21168895,-0.17629069,1,0,0,0,0,0,0,0,0,0,0.9642601,-0.15799999,-7.5089455,4.3590546,24.535162,0.121343136,-6.8229556,0.96797943,-0.17166138,-7.5149536,4.386902,24.56665,0.11444092,-6.828308
-8.781389,10.637646,-0.011958599,-24.624119,4.2673473,2.3769445,0.43749157,-0.54396677,-0.8787746,0.03721068,0.68989056,0.7214401,-0.92235583,-0.6923362,0.110466495,-0.7952794,1.9095306,1.5852715,1.2599903,-1.1672938,1.5518059,0.1712017,-0.6965937,1.9082049,1.5073063,1.1759734,-1.0586281,1.635302,-0.90816903,-1.3534611,0.6278874,0.9644063,0.51120985,-0.40336245,0.08315727,-0.9081602,-1.3534546,0.62789917,0.96435547,0.51116943,-0.40340424,0.0831604,1.0165033,-0.36792517,1.7276704,-2.975023,0.1365772,-0.5858385,0.027490139,-0.40847206,0.80205095,0.82449514,0.0065484405,0.564311,-0.041448426,-0.5665191,0.19408125,-0.19079562,1,0,0,0,0,0,0,0,0,0,2.441597,-0.064611435,-17.144417,3.573227,21.34946,0.105303526,-6.1324,2.4414062,-0.05722046,-17.12799,3.5476685,21.324158,0.11444092,-6.1416626
-7.3408456,15.570646,6.8636312,-27.461164,4.6340685,1.7817204,0.32303935,-0.5467648,-0.87937623,0.124385215,0.6505784,0.76424223,-0.92000777,-0.67557424,0.10558993,-0.80211884,1.9231311,1.5853758,1.2676824,-1.169029,1.5542331,0.1667161,-0.7033629,1.9110249,1.5121653,1.179028,-1.0606422,1.6355747,-0.89711446,-1.3537986,0.5639842,0.9718787,0.6109393,-0.40289134,0.054497432,-0.8971214,-1.353836,0.564003,0.9717941,0.61092377,-0.40283203,0.05455017,1.0016279,-0.36724234,1.7244936,-2.975023,0.1365772,-0.6353529,0.024588585,-0.40757632,0.8010609,0.8266041,0.007061309,0.5613774,-0.039128233,-0.579145,0.18227787,-0.19715391,1,0,0,0,0,0,0,0,0,0,2.210915,-0.0674963,-12.7806425,1.4944792,19.945896,0.09422302,-5.731968,2.207756,-0.076293945,-12.779236,1.4877319,19.950867,0.11444092,-5.722046
-7.045444,12.268768,0.06999922,-24.149904,3.9610527,2.5280566,0.39547276,-0.4988284,-0.8760581,-0.060603034,0.6729911,0.75116545,-0.93324083,-0.51410055,0.10685669,-0.80848986,1.9037526,1.5929242,1.2691679,-1.1726311,1.5738826,0.16232467,-0.71013016,1.9133996,1.5170729,1.1825013,-1.0626564,1.6357349,-0.87828237,-1.3534586,0.4750052,0.98149514,0.6947321,-0.40290752,0.03199523,-0.87828636,-1.3534546,0.4749298,0.9815216,0.6946564,-0.40283203,0.032043457,0.986753,-0.3665595,1.7210693,-2.975023,0.1365772,-0.6848673,0.021618366,-0.40677762,0.7999924,0.8287807,0.007739897,0.5583094,-0.036784355,-0.5934862,0.16266754,-0.21285085,1,0,0,0,0,0,0,0,0,0,3.7664175,0.06799698,-17.795801,1.9232869,16.75856,-0.0032365322,-4.5004406,3.7670135,0.076293945,-17.814636,1.9454956,16.746521,0,-4.501343
