Afshin1997/kuka_rl_ros2/src/catch_and_throw/input_files/idealpd/ft_idealpd_noise.csv
torque0,torque1,torque2,torque3,torque4,torque5,torque6,action0,action1,action2,action3,action4,action5,action6,set_target_0,set_target_1,set_target_2,set_target_3,set_target_4,set_target_5,set_target_6,joint_pos_0,joint_pos_1,joint_pos_2,joint_pos_3,joint_pos_4,joint_pos_5,joint_pos_6,joint_vel_0,joint_vel_1,joint_vel_2,joint_vel_3,joint_vel_4,joint_vel_5,joint_vel_6,joint_vel_disc_0,joint_vel_disc_1,joint_vel_disc_2,joint_vel_disc_3,joint_vel_disc_4,joint_vel_disc_5,joint_vel_disc_6,tennisball_pos_0,tennisball_pos_1,tennisball_pos_2,tennisball_lin_vel_0,tennisball_lin_vel_1,tennisball_lin_vel_2,end_effector_pos_0,end_effector_pos_1,end_effector_pos_2,end_effector_rot_0,end_effector_rot_1,end_effector_rot_2,end_effector_rot_3,end_effector_lin_vel_0,end_effector_lin_vel_1,end_effector_lin_vel_2,obs_task_0,obs_task_1,obs_task_2,obs_task_3,obs_task_4,obs_task_5,obs_task_6,to_final_target_0,to_final_target_1,to_final_target_2,joint_acc_0,joint_acc_1,joint_acc_2,joint_acc_3,joint_acc_4,joint_acc_5,joint_acc_6,joint_acc_disc_0,joint_acc_disc_1,joint_acc_disc_2,joint_acc_disc_3,joint_acc_disc_4,joint_acc_disc_5,joint_acc_disc_6
0,0,0,0,0,0,0,0,0,0,0,0,0,0,0.7853982,0,1.3264502,1.2217305,1.6057029,-0.9075712,1.5707964,0.7853982,0,1.3264502,1.2217305,1.6057029,-0.9075712,1.5707964,0,0,0,0,0,0,0,0,0,0,0,0,0,0,3.121149,-0.57599974,0.58067644,-3.1493757,0.14876764,4.7592316,0.33081388,-0.32899427,0.9088952,0.7746776,-0.054232508,0.61539066,-0.1350104,0,0,0,1,0,0,0,0,0,0,-3.7711492,0.17599973,-0.030676425,0,0,0,0,0,0,0,0,0,0,0,0,0,0
27.48748,40.577637,27.055521,-43.0971,3.461618,-2.4427123,-0.044659685,0.5109174,-0.15052858,0.6443625,-0.64096,0.23808773,0.5567404,-0.37441418,0.8364899,-0.015052858,1.3908864,1.1576345,1.6295116,-0.8518972,1.533355,0.7858121,-0.00012192782,1.3269719,1.2212117,1.605762,-0.907503,1.5707506,0.08276936,-0.024385564,0.10438577,-0.10383545,0.011904453,0.013640029,-0.009173138,0.08277893,-0.024385564,0.10433197,-0.103759766,0.0118255615,0.013637543,-0.009155273,3.105402,-0.5752559,0.60422736,-3.1493757,0.14876764,4.7101817,0.33102512,-0.32866597,0.9091388,0.7748552,-0.05461506,0.61518127,-0.13479109,0.042252913,0.06564959,0.048734087,1,0,0,0,0,0,0,-3.755402,0.17525586,-0.054227352,16.553871,-4.877113,20.877153,-20.76709,2.3808906,2.728006,-1.8346276,16.555786,-4.877113,20.866394,-20.751953,2.3651123,2.7275085,-1.8310547
5.2186685,-10.509584,4.769659,-39.762016,4.5067124,-0.5682682,0.41710556,0.4464263,-0.6716474,0.6558915,-0.6625487,0.5821187,0.59304464,-0.4346707,0.8304547,-0.06728667,1.3925611,1.1549568,1.6639739,-0.84819853,1.5272835,0.7865874,-0.00078787614,1.3280247,1.220156,1.605967,-0.90736234,1.5706514,0.1550781,-0.13318968,0.21064663,-0.21116745,0.04099999,0.028180951,-0.01980785,0.15506744,-0.13318966,0.21057129,-0.2111435,0.041007996,0.028133392,-0.019836426,3.089655,-0.574512,0.627533,-3.1493757,0.14876764,4.661132,0.33125734,-0.32818818,0.90964395,0.77533394,-0.05522439,0.6146367,-0.13427252,0.04670999,0.09552903,0.10105133,1,0,0,0,0,0,0,-3.739655,0.174512,-0.07753301,14.461748,-21.760822,21.252172,-21.466402,5.8191075,2.9081843,-2.1269422,14.457703,-21.76082,21.247864,-21.476746,5.836487,2.89917,-2.1362305
-6.9517527,-30.515108,-7.2261786,-35.822136,4.3949037,0.65767866,0.48669702,0.31457293,-0.754296,0.6051645,-0.6422633,0.6250267,0.60887855,-0.35141584,0.8180447,-0.07621748,1.3885412,1.1559296,1.6684697,-0.84647447,1.5355098,0.7875654,-0.0020494103,1.329502,1.2186453,1.6063237,-0.90715015,1.5705112,0.1955908,-0.25230676,0.29554233,-0.30214015,0.07138859,0.042447846,-0.027945489,0.1955986,-0.25230682,0.2954483,-0.30212402,0.07133484,0.042438507,-0.028038025,3.0739079,-0.57376814,0.6505934,-3.1493757,0.14876764,4.612082,0.3314085,-0.32768178,0.9103753,0.77609915,-0.05593259,0.613771,-0.13351658,0.030289752,0.10133605,0.14624876,1,0,0,0,0,0,0,-3.723908,0.17376813,-0.10059339,8.102539,-23.823416,16.97914,-18.194538,6.0777197,2.853379,-1.627528,8.106232,-23.823431,16.975403,-18.196106,6.0653687,2.861023,-1.6403198
-6.6012955,-27.109852,-6.817212,-33.669994,4.033365,0.7015637,0.4547555,0.36916482,-0.74742025,0.58120114,-0.6369135,0.63510996,0.6089348,-0.33711267,0.8244819,-0.076791435,1.3876221,1.154954,1.6698347,-0.8462567,1.5367999,0.7887446,-0.0038323994,1.3313178,1.2167513,1.6068244,-0.90687025,1.5703348,0.23584011,-0.3565977,0.36316276,-0.3787167,0.100213684,0.056007568,-0.03520368,0.23584366,-0.35659784,0.36315918,-0.37879944,0.1001358,0.055980682,-0.03528595,3.0581608,-0.5730243,0.67340857,-3.1493757,0.14876764,4.563032,0.33148384,-0.32715702,0.91129905,0.77711457,-0.056714844,0.61262244,-0.1325519,0.014725262,0.1050578,0.18480887,1,0,0,0,0,0,0,-3.7081609,0.17302427,-0.123408556,8.049864,-20.858187,13.524085,-15.315312,5.7650194,2.7119443,-1.4516383,8.049011,-20.858204,13.542175,-15.335083,5.760193,2.708435,-1.449585
-6.2967496,-23.657625,-6.417404,-32.099224,3.7145665,0.7444696,0.4059403,0.37024325,-0.7509032,0.57194006,-0.63861436,0.63371,0.6095497,-0.323816,0.82576895,-0.07892272,1.3885118,1.1528898,1.6701953,-0.84591526,1.5379531,0.7901003,-0.006064608,1.3334111,1.2145312,1.6074586,-0.90652597,1.5701259,0.27115786,-0.4464414,0.41858214,-0.44410607,0.12682411,0.068882264,-0.041729983,0.2711296,-0.44644177,0.41866302,-0.44403076,0.12683868,0.068855286,-0.041770935,3.0424137,-0.5722804,0.69597846,-3.1493757,0.14876764,4.5139823,0.33148527,-0.32662153,0.9123892,0.77834576,-0.05755137,0.61122584,-0.13141021,-0.0002648562,0.10710923,0.21806182,1,0,0,0,0,0,0,-3.6924138,0.1722804,-0.14597845,7.06355,-17.968744,11.083878,-13.077873,5.3220854,2.5749393,-1.3052605,7.05719,-17.968786,11.100769,-13.046265,5.340576,2.5749207,-1.2969971
-5.477436,-19.696106,-5.506453,-30.710234,3.4234118,0.7264439,0.36375666,0.38488418,-0.74988395,0.563037,-0.63654315,0.63298464,0.6114761,-0.31686774,0.8285887,-0.081053,1.3897148,1.1508769,1.670757,-0.84537834,1.5384392,0.791619,-0.008679494,1.3357314,1.2120335,1.6082158,-0.9061202,1.5698875,0.30377534,-0.5229772,0.4640246,-0.49949947,0.15136285,0.081141256,-0.04772723,0.30374527,-0.52297723,0.46405792,-0.4995346,0.15144348,0.081157684,-0.047683716,3.0266666,-0.57153654,0.71830314,-3.1493757,0.14876764,4.4649324,0.3314185,-0.32607794,0.9136215,0.7797624,-0.05842874,0.60961175,-0.13011572,-0.013733247,0.10866131,0.24653511,1,0,0,0,0,0,0,-3.6766667,0.17153654,-0.16830313,6.5234957,-15.307152,9.088492,-11.07868,4.907748,2.4517984,-1.1994495,6.5231323,-15.307093,9.0789795,-11.100769,4.9209595,2.4604797,-1.1825562
-5.877218,-18.060112,-5.7857046,-29.080988,3.1506605,0.81990504,0.3306096,0.36059612,-0.75449413,0.56086737,-0.6228118,0.63057786,0.6086824,-0.31914464,0.8276786,-0.08412891,1.3918182,1.1497524,1.6712736,-0.8452519,1.537973,0.79325885,-0.01162418,1.3382424,1.2093117,1.6090856,-0.9056567,1.5696205,0.32801136,-0.5889375,0.5021188,-0.5444498,0.17389548,0.09270119,-0.05345964,0.3279686,-0.5889371,0.5022049,-0.5443573,0.1739502,0.09269714,-0.05340576,3.0109196,-0.5707927,0.74038255,-3.1493757,0.14876764,4.4158826,0.331285,-0.3255396,0.9149709,0.7813354,-0.05932577,0.60780984,-0.12869585,-0.027653277,0.107547015,0.27001366,1,0,0,0,0,0,0,-3.6609197,0.17079267,-0.19038254,4.8472047,-13.19207,7.6188445,-8.9900675,4.5065255,2.3119867,-1.146482,4.8446655,-13.191975,7.6293945,-8.964539,4.501343,2.3078918,-1.1444092
-4.834494,-14.549739,-4.649907,-28.345282,2.9651353,0.7527002,0.299473,0.37808034,-0.75727195,0.5675095,-0.6307552,0.6374367,0.6063146,-0.32530424,0.8310669,-0.087351374,1.3949933,1.1462362,1.6728293,-0.84502524,1.5370901,0.7950136,-0.014852695,1.3409203,1.2063935,1.6100612,-0.90513885,1.5693249,0.3509706,-0.6457029,0.5355657,-0.5836943,0.19503397,0.10359993,-0.059050906,0.35095215,-0.6457031,0.5355835,-0.5836487,0.19512177,0.10356903,-0.059127808,2.9951725,-0.5700488,0.7622167,-3.1493757,0.14876764,4.3668327,0.33109188,-0.32500243,0.916424,0.7830453,-0.060240354,0.60583854,-0.12716474,-0.039744824,0.10717695,0.2907024,1,0,0,0,0,0,0,-3.6451726,0.1700488,-0.21221668,4.5918465,-11.353075,6.6893697,-7.8488946,4.227698,2.1797478,-1.1182532,4.59671,-11.353195,6.67572,-7.8582764,4.234314,2.1743774,-1.1444092
-4.8456383,-12.781436,-4.552316,-27.27636,2.7659209,0.79353815,0.27169994,0.36693585,-0.7579731,0.56217545,-0.62231237,0.63294756,0.60913485,-0.31975502,0.8317072,-0.09065001,1.3971379,1.1441623,1.6733559,-0.84422535,1.5373493,0.79685897,-0.01832404,1.3437375,1.2033141,1.6111331,-0.90456903,1.5690035,0.3690722,-0.69426954,0.56333905,-0.61592376,0.21435952,0.114002004,-0.06422377,0.36907196,-0.69426894,0.5634308,-0.6158829,0.21438599,0.11396408,-0.06427765,2.9794254,-0.56930494,0.7838056,-3.1493757,0.14876764,4.317783,0.33083963,-0.32447362,0.9179632,0.78487045,-0.061159186,0.60371965,-0.12554042,-0.05172709,0.10540579,0.3079585,1,0,0,0,0,0,0,-3.6294255,0.16930494,-0.2338056,3.6203206,-9.713327,5.554676,-6.4458966,3.8651109,2.0804152,-1.034572,3.6239624,-9.713173,5.569458,-6.4468384,3.8528442,2.07901,-1.0299683
-4.660415,-10.759948,-4.248352,-26.653261,2.610244,0.8084313,0.23846215,0.3521378,-0.75528526,0.56720346,-0.62409145,0.6366849,0.6108512,-0.32560912,0.83207273,-0.093852565,1.4004579,1.1409049,1.6748016,-0.8434839,1.5364425,0.7987682,-0.022000276,1.3466758,1.2000964,1.6122947,-0.9039496,1.5686573,0.38188058,-0.73524714,0.58771884,-0.6434914,0.23237856,0.1239128,-0.069258094,0.3818512,-0.73524714,0.5876541,-0.6435394,0.23231506,0.12388229,-0.069236755,2.9636784,-0.5685611,0.80514926,-3.1493757,0.14876764,4.268733,0.3305297,-0.32395673,0.9195773,0.786793,-0.062074505,0.6014703,-0.123842865,-0.06338715,0.10298452,0.32289764,1,0,0,0,0,0,0,-3.6136785,0.16856107,-0.25514925,2.5616765,-8.195519,4.875958,-5.513525,3.603807,1.9821584,-1.0068655,2.5558472,-8.195639,4.8446655,-5.531311,3.5858154,1.9836426,-0.9918213
-3.726183,-8.083298,-3.2289248,-25.856579,2.4592621,0.7364681,0.22681904,0.3614516,-0.7555638,0.5781984,-0.6168306,0.6366239,0.6061384,-0.32659578,0.8349134,-0.09755666,1.4044956,1.1384133,1.6759571,-0.84333575,1.5359977,0.80073804,-0.025851019,1.3497275,1.1967671,1.6135402,-0.9032835,1.5682873,0.39391553,-0.7701496,0.6103681,-0.6658217,0.24903615,0.13319774,-0.07406266,0.39396286,-0.77014863,0.61035156,-0.6658554,0.24909973,0.1332283,-0.07400513,2.9479313,-0.5678172,0.8262477,-3.1493757,0.14876764,4.219683,0.3301711,-0.32344747,0.9212536,0.7887993,-0.06298542,0.5991046,-0.12207434,-0.07322089,0.10131749,0.3352683,1,0,0,0,0,0,0,-3.5979314,0.1678172,-0.27624768,2.4069905,-6.9804907,4.5298457,-4.466057,3.3315182,1.8569887,-0.9609133,2.4223328,-6.9803,4.5394897,-4.463196,3.3569336,1.8692017,-0.9536743
-3.3485208,-6.674249,-2.7695541,-25.05424,2.337786,0.7142313,0.2236391,0.36580446,-0.76309913,0.58550936,-0.6090062,0.6375353,0.61182255,-0.32607126,0.8373185,-0.10216093,1.4082785,1.1358665,1.6772937,-0.8421012,1.5356802,0.80276316,-0.029856555,1.3528832,1.1933501,1.6148629,-0.902573,1.5678943,0.40504622,-0.8011087,0.63114685,-0.68340015,0.26447538,0.14213516,-0.07861024,0.40502548,-0.8011073,0.63114166,-0.683403,0.26454926,0.14209747,-0.07858276,2.9321842,-0.56707335,0.84710085,-3.1493757,0.14876764,4.1706333,0.3297696,-0.32294703,0.92298007,0.7908775,-0.06388704,0.59663546,-0.12023861,-0.08217357,0.09949321,0.3453218,1,0,0,0,0,0,0,-3.5821843,0.16707334,-0.29710084,2.226138,-6.191826,4.155755,-3.5156965,3.0878453,1.7874837,-0.9095162,2.2125244,-6.1917305,4.15802,-3.5095215,3.0899048,1.7738342,-0.91552734
-3.0718193,-4.854666,-2.3923783,-24.58084,2.2127898,0.7131956,0.19700472,0.3618729,-0.7535285,0.57758135,-0.60506046,0.635984,0.6112502,-0.32730448,0.83895046,-0.1052094,1.4106413,1.132844,1.6784613,-0.84144795,1.5351639,0.8048331,-0.033987157,1.3561219,1.1898625,1.6162562,-0.90182006,1.5674795,0.41401446,-0.82611907,0.647779,-0.6975282,0.27865425,0.15059975,-0.08295396,0.41399002,-0.8261204,0.6477356,-0.6975174,0.27866364,0.15058517,-0.082969666,2.9164371,-0.5663295,0.86770874,-3.1493757,0.14876764,4.1215835,0.32932615,-0.32245684,0.9247477,0.7930136,-0.06477501,0.5940765,-0.11834977,-0.090614505,0.097375736,0.3536086,1,0,0,0,0,0,0,-3.5664372,0.16632947,-0.31770873,1.7936468,-5.0020695,3.326428,-2.8256059,2.8357744,1.692918,-0.86874366,1.7929077,-5.002618,3.3187866,-2.822876,2.822876,1.6975403,-0.8773804
-2.8992536,-3.687487,-2.1243129,-24.220125,2.127743,0.7096771,0.18163913,0.36404765,-0.7551966,0.57706815,-0.60417724,0.6348574,0.6102005,-0.32697657,0.8412379,-0.109506816,1.4138287,1.1294447,1.679742,-0.8408,1.5347818,0.80694264,-0.03822466,1.3594302,1.1863158,1.6177144,-0.9010271,1.5670446,0.4219419,-0.84749824,0.66170627,-0.70930254,0.29168847,0.15860309,-0.08706481,0.42190552,-0.84750056,0.66165924,-0.70934296,0.2916336,0.15859604,-0.0869751,2.90069,-0.5655856,0.8880714,-3.1493757,0.14876764,4.0725336,0.32884312,-0.32197833,0.92655104,0.79519886,-0.06564659,0.59143627,-0.11641482,-0.098710336,0.09504443,0.360633,1,0,0,0,0,0,0,-3.5506902,0.1655856,-0.3380714,1.5854895,-4.2758346,2.7854562,-2.3548722,2.606845,1.6006678,-0.8221701,1.5830994,-4.276037,2.784729,-2.3651123,2.5939941,1.6021729,-0.8010864
-2.9438658,-3.0005665,-2.0729048,-23.75699,2.0452023,0.72586054,0.17144825,0.35722703,-0.75648296,0.5786576,-0.5980901,0.6345992,0.6106695,-0.32535645,0.8426653,-0.11387296,1.4172959,1.1265068,1.6811743,-0.83996016,1.534509,0.8090808,-0.04255434,1.3627995,1.1827242,1.6192327,-0.90019596,1.5665897,0.42763552,-0.8659336,0.6737981,-0.7183126,0.30371594,0.16620094,-0.09092075,0.42762756,-0.8659363,0.6738663,-0.7183075,0.3036499,0.16622543,-0.09098053,2.884943,-0.56484175,0.9081888,-3.1493757,0.14876764,4.0234838,0.32831955,-0.3215139,0.92838204,0.7974242,-0.06649707,0.58872396,-0.11444127,-0.106769875,0.09206378,0.36623344,1,0,0,0,0,0,0,-3.534943,0.16484174,-0.3581888,1.1387229,-3.6870718,2.418363,-1.8020153,2.4054945,1.5195698,-0.77118725,1.1444092,-3.6871433,2.4414062,-1.7929077,2.4032593,1.5258789,-0.8010864
-2.3329496,-1.4796307,-1.3899369,-23.371834,1.9735649,0.6720356,0.16899766,0.371183,-0.7577785,0.58287394,-0.5937521,0.63397354,0.61143225,-0.32420334,0.8461991,-0.11833219,1.4210869,1.1233491,1.6826301,-0.83905274,1.5341694,0.8112537,-0.046963774,1.3662232,1.1790984,1.6208062,-0.89932907,1.5661167,0.4345934,-0.8818846,0.6848167,-0.7251304,0.31479886,0.17342375,-0.09455189,0.4345894,-0.8818865,0.68473816,-0.72517395,0.31471252,0.17337799,-0.09460449,2.869196,-0.5640979,0.928061,-3.1493757,0.14876764,3.9744337,0.32776213,-0.32106113,0.93023586,0.7996837,-0.067327455,0.5859462,-0.112428166,-0.11363496,0.08975077,0.37068716,1,0,0,0,0,0,0,-3.519196,0.16409788,-0.378061,1.3915777,-3.1901956,2.2037268,-1.3635516,2.2165835,1.4445633,-0.72622895,1.3923645,-3.1900406,2.1743774,-1.373291,2.2125244,1.4305115,-0.7247925
-2.46973,-1.0176446,-1.4144844,-23.265385,1.9285812,0.6916193,0.15356258,0.36241612,-0.7591524,0.5840675,-0.59603083,0.63290924,0.6132737,-0.32654402,0.8474953,-0.12287901,1.4246299,1.1194953,1.6840972,-0.8380017,1.5334623,0.813451,-0.051442437,1.3696955,1.175442,1.6224313,-0.89842737,1.5656265,0.43941057,-0.8957348,0.6944889,-0.73118824,0.32498252,0.18031682,-0.09804416,0.43945312,-0.89573264,0.69446564,-0.73127747,0.3250122,0.18033981,-0.09803772,2.8534489,-0.563354,0.9476879,-3.1493757,0.14876764,3.9253836,0.32716942,-0.32062173,0.9321094,0.8019713,-0.06813567,0.583108,-0.11038324,-0.12078335,0.08693941,0.37463802,1,0,0,0,0,0,0,-3.503449,0.16335401,-0.3976879,0.9634316,-2.7700424,1.934433,-1.2115717,2.0367324,1.3786137,-0.6984532,0.9727478,-2.7692318,1.9454956,-1.2207031,2.0599365,1.3923645,-0.6866455
-2.5007517,-0.29658628,-1.3321269,-23.153574,1.8787189,0.70216894,0.13756306,0.3542115,-0.75574785,0.58396244,-0.595739,0.63571024,0.6115475,-0.32641476,0.8488721,-0.12701723,1.4280918,1.1158681,1.6860023,-0.83727264,1.532985,0.81566113,-0.055977546,1.3732098,1.1717598,1.624104,-0.89749324,1.5651201,0.44202185,-0.90702343,0.7027728,-0.7363339,0.3345276,0.186816,-0.1013558,0.44202805,-0.90702176,0.702858,-0.7364273,0.33454895,0.1868248,-0.10128021,2.8377018,-0.56261015,0.96706957,-3.1493757,0.14876764,3.8763335,0.3265419,-0.32019734,0.9340003,0.8042814,-0.0689193,0.5802151,-0.10831453,-0.12802385,0.08380208,0.37803957,1,0,0,0,0,0,0,-3.487702,0.16261014,-0.41706955,0.5222559,-2.2577286,1.6567826,-1.0291338,1.9090176,1.2998372,-0.6623283,0.51498413,-2.257824,1.6784668,-1.0299683,1.9073486,1.2969971,-0.64849854
-1.8712125,1.0675993,-0.6286776,-22.951548,1.8342885,0.64009833,0.13686137,0.36932895,-0.75788814,0.59094554,-0.59446096,0.63282955,0.61431026,-0.3292346,0.852594,-0.13176636,1.4323044,1.1123137,1.687387,-0.8360622,1.5321966,0.8178937,-0.060562126,1.3767642,1.1680577,1.6258197,-0.8965281,1.5645975,0.4464702,-0.9169139,0.7109606,-0.74050385,0.3432037,0.1930405,-0.10456797,0.44651031,-0.91691613,0.71086884,-0.74043274,0.34313202,0.19302368,-0.104522705,2.8219547,-0.5618663,0.986206,-3.1493757,0.14876764,3.8272834,0.3258829,-0.31978464,0.9359049,0.8066098,-0.06968189,0.57727146,-0.10621946,-0.13410334,0.08159987,0.38086683,1,0,0,0,0,0,0,-3.4719548,0.16186628,-0.43620598,0.88967085,-1.9780993,1.6375661,-0.8339882,1.7352164,1.2448996,-0.64243376,0.89645386,-1.9788742,1.6021729,-0.8010864,1.7166138,1.2397766,-0.64849854
-1.8790331,1.6881433,-0.53222656,-22.806902,1.7878473,0.64676315,0.12430929,0.3626815,-0.7543541,0.5891234,-0.5928001,0.6323971,0.6152361,-0.3323073,0.85416186,-0.13599753,1.4356766,1.1087776,1.6890594,-0.8350045,1.5313667,0.8201415,-0.06518618,1.3803529,1.1643393,1.6275754,-0.89553344,1.5640587,0.44951767,-0.9248092,0.71779466,-0.7437561,0.35118723,0.19896887,-0.10769666,0.44956207,-0.92481077,0.7177353,-0.74367523,0.35114288,0.19893646,-0.1077652,2.8062077,-0.5611224,1.0050972,-3.1493757,0.14876764,3.7782333,0.3251953,-0.31938338,0.9378212,0.808952,-0.0704227,0.5742818,-0.10410379,-0.1401886,0.07911241,0.38314295,1,0,0,0,0,0,0,-3.4562078,0.16112241,-0.45509714,0.60949326,-1.5790582,1.366806,-0.65045357,1.5967071,1.1856735,-0.6257385,0.61035156,-1.578927,1.373291,-0.64849854,1.6021729,1.1825562,-0.64849854
-2.4639304,1.1717737,-0.9975781,-22.710472,1.7659941,0.70540744,0.11476197,0.3512675,-0.75812984,0.5847414,-0.5931221,0.63299984,0.6154413,-0.32661998,0.85526824,-0.14099917,1.438827,1.1050271,1.6908754,-0.8339893,1.5313966,0.82239217,-0.06984655,1.3839673,1.1606066,1.6293683,-0.8945106,1.5635065,0.45015162,-0.93206924,0.7229083,-0.74655616,0.35859707,0.20459749,-0.1105271,0.45013428,-0.9320736,0.72288513,-0.74653625,0.35858154,0.20456314,-0.110435486,2.7904606,-0.56037855,1.023743,-3.1493757,0.14876764,3.7291832,0.324471,-0.31900096,0.93974715,0.81130445,-0.0711355,0.57124925,-0.10197562,-0.14729245,0.075379096,0.38505936,1,0,0,0,0,0,0,-3.4404607,0.16037855,-0.47374302,0.126791,-1.4520049,1.0227323,-0.5600095,1.4819682,1.1257231,-0.56608766,0.11444092,-1.4525652,1.0299683,-0.5722046,1.4877319,1.1253357,-0.5340576
-1.9690379,2.4630842,-0.39547133,-22.82417,1.7459577,0.6529557,0.10545595,0.35994676,-0.75527954,0.5893054,-0.5995401,0.6324206,0.6108078,-0.32775378,0.8583868,-0.1453745,1.4428978,1.1006526,1.6926104,-0.8334299,1.5307311,0.8246514,-0.074535884,1.3876065,1.1568568,1.6311955,-0.8934616,1.56294,0.45180774,-0.93787265,0.7278947,-0.74998766,0.36541432,0.20982149,-0.11322621,0.4518509,-0.93786716,0.72784424,-0.7499695,0.365448,0.20980835,-0.11329651,2.7747135,-0.5596347,1.0421437,-3.1493757,0.14876764,3.680133,0.3237152,-0.31863213,0.9416835,0.8136649,-0.07182552,0.56817544,-0.0998356,-0.15364362,0.07259674,0.38713163,1,0,0,0,0,0,0,-3.4247136,0.15963468,-0.4921437,0.331223,-1.1606812,0.9972811,-0.6862998,1.3634503,1.0448009,-0.5398229,0.34332275,-1.1587143,0.9918213,-0.6866455,1.373291,1.0490417,-0.5722046
-2.5122805,1.996656,-0.79434997,-22.96617,1.7456561,0.701655,0.091830656,0.3470439,-0.7592396,0.5863554,-0.60683024,0.63153225,0.61267006,-0.3266887,0.8593558,-0.15045986,1.4462421,1.0961738,1.6943488,-0.83219457,1.5302712,0.8269078,-0.07925288,1.3912648,1.153086,1.6330543,-0.89238775,1.5623611,0.45130205,-0.9434024,0.73175335,-0.7542399,0.3716638,0.21481428,-0.115767956,0.4512787,-0.9433985,0.73165894,-0.75416565,0.37174225,0.21476746,-0.11577606,2.7589664,-0.5588908,1.0602992,-3.1493757,0.14876764,3.631083,0.32292223,-0.31828213,0.9436315,0.8160317,-0.0724899,0.5650609,-0.09769132,-0.1610773,0.068870775,0.38941246,1,0,0,0,0,0,0,-3.4089665,0.15889081,-0.51029915,-0.10113716,-1.1059523,0.7717252,-0.850451,1.2498975,0.9985566,-0.50834864,-0.11444092,-1.1062622,0.76293945,-0.8392334,1.2588501,0.9918213,-0.49591064
-2.6136932,2.0728416,-0.81729376,-22.637167,1.7074474,0.71227163,0.093040444,0.34593734,-0.76068985,0.5845237,-0.60010475,0.6323419,0.6097549,-0.32771534,0.8615016,-0.15532187,1.4497172,1.0930755,1.6962885,-0.83141226,1.5295895,0.8291599,-0.08399508,1.3949383,1.1493008,1.6349416,-0.89129055,1.5617698,0.45040157,-0.948437,0.73468906,-0.7569703,0.3774708,0.21947727,-0.11819406,0.45042038,-0.948441,0.7347107,-0.7570267,0.3774643,0.21944046,-0.118255615,2.7432194,-0.55814695,1.0782093,-3.1493757,0.14876764,3.582033,0.3220935,-0.31795216,0.9455868,0.8184018,-0.07312659,0.5619094,-0.09554404,-0.1685331,0.064638846,0.3908693,1,0,0,0,0,0,0,-3.3932195,0.15814695,-0.52820927,-0.18009543,-1.0069132,0.5871415,-0.5460739,1.1613965,0.9325981,-0.48522055,-0.17166138,-1.0085106,0.61035156,-0.5722046,1.1444092,0.93460083,-0.49591064
-2.1384027,3.230509,-0.2679844,-22.452894,1.6685299,0.6678775,0.09135792,0.35304406,-0.75667566,0.584795,-0.59830785,0.6371762,0.613272,-0.33588448,0.86446434,-0.15966265,1.4534179,1.08947,1.6986592,-0.8299633,1.5281814,0.83141345,-0.088755704,1.3986243,1.1455061,1.6368566,-0.89017045,1.5611662,0.45072508,-0.95212424,0.7371871,-0.7588811,0.38307658,0.22398204,-0.120698236,0.45070648,-0.9521246,0.73719025,-0.758934,0.3829956,0.2240181,-0.12073517,2.7274723,-0.5574031,1.0958742,-3.1493757,0.14876764,3.5329828,0.3212304,-0.31764007,0.94754773,0.82077307,-0.07373723,0.5587238,-0.09339199,-0.175081,0.061063882,0.39187905,1,0,0,0,0,0,0,-3.3774724,0.15740308,-0.5458742,0.06470084,-0.7374525,0.49960613,-0.38216114,1.1211574,0.900954,-0.5008355,0.05722046,-0.7367134,0.49591064,-0.38146973,1.1062622,0.91552734,-0.49591064
-1.8958557,4.036646,0.07218206,-22.326275,1.6367484,0.64229226,0.087995365,0.34653077,-0.75375694,0.592221,-0.5963142,0.6382355,0.613553,-0.33792368,0.8660665,-0.1641314,1.4578464,1.0858747,1.7006801,-0.82881516,1.5273738,0.8336641,-0.0935292,1.4023265,1.1417058,1.6387982,-0.8890289,1.5605501,0.450102,-0.9547033,0.7405026,-0.7601089,0.3883327,0.22826347,-0.123130456,0.45013428,-0.9546995,0.74043274,-0.76007843,0.38833618,0.22830963,-0.12321472,2.7117252,-0.5566592,1.1132939,-3.1493757,0.14876764,3.4839327,0.32033873,-0.31734443,0.94951165,0.8231425,-0.07432293,0.5555073,-0.09123587,-0.18116641,0.057818655,0.39253467,1,0,0,0,0,0,0,-3.3617253,0.15665922,-0.5632939,-0.12461543,-0.5158067,0.6631017,-0.24555922,1.0512233,0.8562863,-0.48644394,-0.11444092,-0.51498413,0.64849854,-0.22888184,1.0681152,0.8583069,-0.49591064
-2.7227902,3.2082424,-0.5701175,-22.624943,1.6476575,0.7162255,0.06706861,0.32677042,-0.75503457,0.58395857,-0.60699075,0.63496274,0.6123549,-0.33409908,0.8663412,-0.16903266,1.4607223,1.0810066,1.7022945,-0.8277934,1.5271401,0.83589524,-0.09831432,1.4060372,1.137892,1.6407638,-0.88786733,1.5599235,0.44624206,-0.9570251,0.74216646,-0.76282614,0.3930361,0.23229013,-0.12534708,0.4462242,-0.9570241,0.74214935,-0.7627487,0.39310455,0.23231506,-0.1253128,2.6959782,-0.55591536,1.1304682,-3.1493757,0.14876764,3.4348826,0.319407,-0.3170719,0.9514817,0.82550937,-0.07487943,0.55225956,-0.08908717,-0.18887284,0.05322191,0.39367226,1,0,0,0,0,0,0,-3.3459783,0.15591535,-0.58046824,-0.77198744,-0.46436787,0.33277273,-0.5434513,0.9406805,0.80533326,-0.44332445,-0.78201294,-0.46491623,0.34332275,-0.5340576,0.9536743,0.8010864,-0.4196167
-2.2238944,3.978904,-0.048600554,-22.19669,1.6087632,0.66742146,0.08022276,0.34313756,-0.75777453,0.5873898,-0.5978742,0.63337964,0.618167,-0.34030813,0.870209,-0.17409179,1.4647762,1.0781046,1.7041017,-0.82605064,1.5258927,0.83812064,-0.10311166,1.4097575,1.1340725,1.6427503,-0.8866862,1.5592855,0.44510633,-0.95946646,0.74397653,-0.76392245,0.39728495,0.23624742,-0.1275935,0.4450798,-0.9594679,0.7440567,-0.7638931,0.39730072,0.23622513,-0.12760162,2.680231,-0.5551715,1.1473974,-3.1493757,0.14876764,3.3858325,0.31844378,-0.31681824,0.9534529,0.827872,-0.075409375,0.5489835,-0.08693861,-0.19548267,0.049206626,0.39397758,1,0,0,0,0,0,0,-3.3302312,0.15517148,-0.5973974,-0.22714734,-0.48826933,0.36201477,-0.21926165,0.8497715,0.7914573,-0.4492849,-0.22888184,-0.4887581,0.38146973,-0.22888184,0.8392334,0.78201294,-0.45776367
-1.7444263,4.9665737,0.47458267,-21.88911,1.5683724,0.62164503,0.085808896,0.35021463,-0.7551329,0.58818275,-0.5924448,0.6331695,0.61486775,-0.34099984,0.8731421,-0.17862496,1.4685757,1.074828,1.7060672,-0.8251994,1.5251856,0.8403489,-0.107917584,1.4134864,1.1302531,1.6447558,-0.8854865,1.558637,0.44561026,-0.9611869,0.745698,-0.76380306,0.40118793,0.23992631,-0.12975359,0.445652,-0.9611845,0.7457733,-0.7638931,0.40111542,0.23994446,-0.1296997,2.664484,-0.5544276,1.1640813,-3.1493757,0.14876764,3.3367825,0.31745052,-0.3165822,0.9554236,0.8302286,-0.07591499,0.54568166,-0.08478611,-0.2011011,0.045805365,0.39366153,1,0,0,0,0,0,0,-3.3144841,0.15442762,-0.6140813,0.100785494,-0.3440857,0.34428835,0.02387762,0.78059435,0.7357776,-0.43201745,0.11444092,-0.34332275,0.34332275,0,0.76293945,0.74386597,-0.4196167
-1.5777426,5.5103073,0.7269068,-21.790043,1.5487696,0.6036433,0.0851112,0.3513368,-0.75414324,0.5892767,-0.5917594,0.6368549,0.61842847,-0.3458862,0.87548256,-0.1833319,1.472414,1.0710771,1.7084414,-0.8236436,1.5240484,0.842581,-0.112729765,1.4172229,1.1264355,1.6467805,-0.8842691,1.5579771,0.44644013,-0.962439,0.74735594,-0.7634286,0.40498003,0.24349985,-0.13192113,0.44641495,-0.9624362,0.7472992,-0.76351166,0.4049301,0.24347305,-0.13198853,2.648737,-0.55368376,1.1805199,-3.1493757,0.14876764,3.2877324,0.31643248,-0.31636143,0.95739174,0.8325782,-0.07639691,0.54235536,-0.08262936,-0.20639259,0.042609107,0.39317203,1,0,0,0,0,0,0,-3.298737,0.15368375,-0.6305199,0.1659751,-0.25042295,0.33159256,0.074887276,0.7584214,0.7147074,-0.43350756,0.15258789,-0.2503395,0.30517578,0.076293945,0.76293945,0.705719,-0.45776367
-1.9128932,5.2143273,0.51971984,-21.902214,1.552502,0.63054013,0.07724382,0.3511468,-0.75671405,0.5814381,-0.5976754,0.6342087,0.61786854,-0.3431433,0.8776957,-0.18840116,1.4753667,1.066668,1.7102014,-0.8224823,1.5236628,0.84481686,-0.11754922,1.4209603,1.1226151,1.6488223,-0.8830346,1.5573076,0.44716725,-0.9638913,0.7475275,-0.76401263,0.4083714,0.24687645,-0.13391855,0.4471779,-0.96389055,0.7474899,-0.76408386,0.40836334,0.24690628,-0.13389587,2.63299,-0.5529399,1.1967133,-3.1493757,0.14876764,3.2386823,0.3153839,-0.31615973,0.9593584,0.83492035,-0.07685356,0.5390043,-0.08047183,-0.21233602,0.038830698,0.39292127,1,0,0,0,0,0,0,-3.28299,0.15293989,-0.6467133,0.14542341,-0.29046535,0.034308434,-0.11680126,0.67827106,0.6753206,-0.39948523,0.15258789,-0.29087067,0.038146973,-0.11444092,0.6866455,0.6866455,-0.38146973
-1.6238612,5.969235,0.88286936,-21.715462,1.5226249,0.6000246,0.078733206,0.3503007,-0.75374573,0.588373,-0.5925232,0.6339865,0.61685705,-0.34544742,0.87984693,-0.19292378,1.4797976,1.0633628,1.7122209,-0.8213489,1.5227629,0.84705514,-0.122372724,1.4247035,1.1187956,1.6508794,-0.8817843,1.5566286,0.44766134,-0.96470505,0.7486296,-0.7638102,0.41148326,0.25005427,-0.13585995,0.44765472,-0.9647012,0.74863434,-0.7638931,0.4114151,0.2500534,-0.13580322,2.6172428,-0.552196,1.2126615,-3.1493757,0.14876764,3.1896322,0.31430864,-0.31597495,0.9613222,0.8372534,-0.07728651,0.53563106,-0.07831214,-0.21769577,0.03545137,0.39228272,1,0,0,0,0,0,0,-3.267243,0.15219602,-0.6626615,0.09881854,-0.16274452,0.2204299,0.040483475,0.6223738,0.6355643,-0.38827956,0.09536743,-0.16212463,0.22888184,0.038146973,0.61035156,0.62942505,-0.38146973
-1.7187095,6.11632,0.8817879,-21.58393,1.5012848,0.6081497,0.07615392,0.3448854,-0.75218487,0.5867741,-0.58950466,0.63661444,0.6164576,-0.34592026,0.8815437,-0.19759122,1.4833809,1.0598452,1.7145408,-0.8201386,1.5220366,0.849291,-0.12719811,1.4284505,1.11498,1.6529517,-0.8805193,1.55594,0.44718197,-0.96508265,0.74944836,-0.76304686,0.41448516,0.25305307,-0.13771936,0.4471779,-0.9650782,0.7493973,-0.7631302,0.41446686,0.2530098,-0.13771057,2.6014957,-0.55145216,1.2283645,-3.1493757,0.14876764,3.140582,0.31320667,-0.31580806,0.9632816,0.8395763,-0.07769484,0.5322369,-0.07615177,-0.22314775,0.03176056,0.3913314,1,0,0,0,0,0,0,-3.2514958,0.15145215,-0.67836446,-0.09587407,-0.075519085,0.16374588,0.15267134,0.6003797,0.5997598,-0.37188232,-0.09536743,-0.075399876,0.15258789,0.15258789,0.61035156,0.5912781,-0.38146973
-1.6668215,6.401042,1.0614281,-21.733315,1.5084529,0.5914393,0.07233569,0.34745845,-0.75489956,0.59171003,-0.59653956,0.633109,0.6209883,-0.3522073,0.8840369,-0.20268807,1.4876214,1.055326,1.7162626,-0.8184204,1.5207193,0.85152644,-0.13202704,1.4322051,1.1111624,1.6550374,-0.87923944,1.555242,0.4470595,-0.9657979,0.750922,-0.76344746,0.41709697,0.25600767,-0.1396392,0.44708252,-0.965786,0.75092316,-0.76351166,0.41713715,0.2559662,-0.13961792,2.5857487,-0.5507083,1.2438221,-3.1493757,0.14876764,3.091532,0.31207657,-0.31565785,0.9652386,0.84188926,-0.078080535,0.5288206,-0.0739909,-0.22863354,0.028356064,0.39081588,1,0,0,0,0,0,0,-3.2357488,0.15070829,-0.6938221,-0.024491549,-0.14305115,0.29473305,-0.08012056,0.5223632,0.59092045,-0.38396716,-0.019073486,-0.14156103,0.30517578,-0.076293945,0.5340576,0.5912781,-0.38146973
-1.7118335,6.5015793,1.041924,-21.245625,1.4601098,0.6031014,0.07817507,0.34087226,-0.7522687,0.59013176,-0.5811793,0.6337396,0.6181911,-0.34925985,0.8856137,-0.2072539,1.4912182,1.0530444,1.7184113,-0.8174203,1.520316,0.8537561,-0.13685729,1.4359654,1.1073554,1.6571355,-0.8779458,1.5545353,0.44593015,-0.9660394,0.7520436,-0.761456,0.41952565,0.258748,-0.14139298,0.4459381,-0.96604824,0.75206757,-0.7614136,0.4196167,0.25873184,-0.14133453,2.5700016,-0.5499644,1.2590345,-3.1493757,0.14876764,3.042482,0.3109212,-0.31552815,0.967187,0.8441898,-0.07843987,0.52538675,-0.07182874,-0.23389633,0.024390735,0.38917905,1,0,0,0,0,0,0,-3.2200017,0.14996442,-0.7090345,-0.2258718,-0.048303604,0.22431612,0.39829016,0.48573613,0.5480647,-0.35075545,-0.22888184,-0.052452087,0.22888184,0.4196167,0.49591064,0.5531311,-0.34332275
-1.8287212,6.5515623,1.052027,-21.357016,1.464806,0.60646725,0.073627904,0.3408601,-0.75385225,0.5892407,-0.58709836,0.6349576,0.6212196,-0.34919062,0.8878421,-0.21224251,1.4948895,1.0486455,1.7206312,-0.8158238,1.5196162,0.8559801,-0.14168955,1.4397296,1.103553,1.659245,-0.87663877,1.55382,0.4448109,-0.96644837,0.7528282,-0.7603755,0.42182752,0.26141655,-0.14305176,0.4447937,-0.96645355,0.7528305,-0.7604599,0.42190552,0.26140213,-0.14305115,2.5542545,-0.54922056,1.2740017,-3.1493757,0.14876764,2.9934318,0.30973577,-0.31541777,0.9691293,0.84647834,-0.07877355,0.52193433,-0.06966714,-0.23942746,0.020311987,0.38785076,1,0,0,0,0,0,0,-3.2042546,0.14922056,-0.7240017,-0.2238512,-0.08178949,0.15691519,0.2161026,0.46037436,0.5337119,-0.33175647,-0.22888184,-0.08106232,0.15258789,0.19073486,0.45776367,0.5340576,-0.34332275
-2.2733006,6.3703837,0.84415233,-21.884373,1.4938143,0.6321604,0.05308216,0.3309879,-0.7527257,0.5843442,-0.60257965,0.6342567,0.62007535,-0.34437314,0.8890789,-0.21696213,1.4981639,1.0432951,1.7226707,-0.8146312,1.5193827,0.8581912,-0.14652278,1.4434928,1.0997431,1.661365,-0.87531936,1.5530971,0.44223675,-0.9666418,0.7526748,-0.76206744,0.4239198,0.26392058,-0.14450823,0.44221878,-0.9666443,0.7526398,-0.7619858,0.4240036,0.26388168,-0.14457703,2.5385075,-0.5484767,1.2887236,-3.1493757,0.14876764,2.9443817,0.30851936,-0.31533074,0.9710701,0.8487554,-0.07908214,0.5184611,-0.06751557,-0.24606319,0.015850497,0.38757592,1,0,0,0,0,0,0,-3.1885076,0.14847669,-0.7387236,-0.51482916,-0.038683414,-0.03067255,-0.3383875,0.4184544,0.5008042,-0.29129386,-0.51498413,-0.038146973,-0.038146973,-0.30517578,0.4196167,0.49591064,-0.30517578
-2.2157688,6.577312,0.89789176,-21.349936,1.4408565,0.6371314,0.05935078,0.3300391,-0.75052786,0.58005786,-0.5868723,0.6311131,0.6200724,-0.34610417,0.8911951,-0.22157556,1.5014986,1.0410559,1.7244763,-0.8133121,1.5184867,0.8603894,-0.15135492,1.4472512,1.0959361,1.6634936,-0.87398803,1.5523676,0.43965322,-0.96642816,0.75173074,-0.7613351,0.42569378,0.26629257,-0.14592215,0.43964386,-0.9664297,0.7516861,-0.7614136,0.4257202,0.26626587,-0.14591217,2.5227604,-0.54773283,1.3032002,-3.1493757,0.14876764,2.8953316,0.307271,-0.31526732,0.973004,0.85101825,-0.07936267,0.5149717,-0.065372065,-0.25224853,0.010951149,0.38611573,1,0,0,0,0,0,0,-3.1727605,0.14773282,-0.75320023,-0.5167067,0.04272461,-0.1888156,0.14647245,0.35479665,0.47439933,-0.2827853,-0.51498413,0.042915344,-0.19073486,0.11444092,0.34332275,0.47683716,-0.2670288
-1.4822075,8.02615,1.6721698,-21.209534,1.4171319,0.5637187,0.06692622,0.34246075,-0.74655557,0.5853073,-0.58760905,0.6367766,0.6215915,-0.3447639,0.8946355,-0.22601047,1.5057819,1.0371752,1.7271713,-0.81182885,1.5178912,0.8625867,-0.15618266,1.4510096,1.0921338,1.6656318,-0.87264526,1.5516313,0.4394066,-0.9655471,0.7516607,-0.76052994,0.42760336,0.2685791,-0.14722803,0.43945312,-0.96554756,0.7516861,-0.7604599,0.42762756,0.2685547,-0.14724731,2.5070133,-0.54698896,1.3174317,-3.1493757,0.14876764,2.8462815,0.3059988,-0.31522155,0.9749304,0.85326684,-0.07962041,0.5114668,-0.06322942,-0.25714985,0.0073790275,0.38465822,1,0,0,0,0,0,0,-3.1570134,0.14698896,-0.7674317,-0.049322844,0.17621517,-0.0140070915,0.16102791,0.38191676,0.45730472,-0.26117563,-0.038146973,0.17642975,0,0.19073486,0.38146973,0.45776367,-0.2670288
-1.5958047,7.9158263,1.6138324,-21.000532,1.3980056,0.57472,0.06788181,0.34133658,-0.74845594,0.5811249,-0.5832745,0.6330233,0.62051123,-0.35307637,0.89672035,-0.23102826,1.5091221,1.0338063,1.728934,-0.81059414,1.5163237,0.864783,-0.16100766,1.4547652,1.0883381,1.6677775,-0.8712915,1.5508884,0.4393023,-0.9650009,0.7510332,-0.7590949,0.42920431,0.27072152,-0.14867194,0.4392624,-0.9649992,0.7511139,-0.75912476,0.42915344,0.27074814,-0.14858246,2.4912663,-0.5462451,1.3314178,-3.1493757,0.14876764,2.7972314,0.3047018,-0.31519556,0.9768479,0.8555003,-0.07985395,0.50794744,-0.061088633,-0.26210916,0.0033773314,0.3827975,1,0,0,0,0,0,0,-3.1412663,0.14624509,-0.7814178,-0.020861626,0.10923147,-0.12550354,0.2870083,0.3201902,0.42848587,-0.28878152,-0.038146973,0.10967255,-0.11444092,0.2670288,0.30517578,0.4386902,-0.2670288
-1.146518,8.660315,2.1058655,-20.885378,1.3918399,0.52400184,0.078446746,0.35448202,-0.7508447,0.58838403,-0.58383644,0.6354083,0.6190781,-0.35559058,0.9002312,-0.23609212,1.5136036,1.0299544,1.7313184,-0.8093837,1.5153294,0.8669898,-0.16583242,1.4585227,1.0845492,1.6699319,-0.86992776,1.5501379,0.44135138,-0.96495295,0.7515815,-0.75787127,0.43079033,0.2727158,-0.15011193,0.44136047,-0.9649515,0.75149536,-0.7577896,0.43087006,0.27275085,-0.15010834,2.4755192,-0.54550123,1.3451587,-3.1493757,0.14876764,2.7481813,0.30338144,-0.31518602,0.9787566,0.8577201,-0.08006678,0.5044119,-0.05894245,-0.2663159,0.00022154668,0.38102224,1,0,0,0,0,0,0,-3.1255193,0.14550123,-0.7951587,0.4098177,0.009596348,0.109660625,0.24472475,0.317204,0.3988564,-0.28799772,0.4196167,0.009536743,0.076293945,0.2670288,0.34332275,0.4005432,-0.30517578
-1.061144,9.07161,2.2360973,-20.706379,1.3605705,0.52146554,0.074292935,0.3598191,-0.74700326,0.5785165,-0.58079547,0.6274948,0.6186695,-0.3578162,0.9029717,-0.24053274,1.5163743,1.0264696,1.7326814,-0.8080608,1.5143563,0.8692114,-0.1706542,1.4622754,1.0807679,1.672091,-0.86855495,1.5493797,0.44428906,-0.9643517,0.7506031,-0.75632334,0.43187314,0.2745919,-0.15154117,0.44431686,-0.96435547,0.7505417,-0.75626373,0.43182373,0.27456284,-0.15163422,2.459772,-0.54475737,1.3586544,-3.1493757,0.14876764,2.6991313,0.3020439,-0.31519222,0.98065484,0.8599239,-0.08026042,0.5008629,-0.056792237,-0.27025092,-0.0030516228,0.378919,1,0,0,0,0,0,0,-3.1097722,0.14475736,-0.80865437,0.5875349,0.12024641,-0.19568205,0.30958652,0.21656156,0.3752172,-0.28584898,0.5912781,0.11920929,-0.19073486,0.30517578,0.19073486,0.36239624,-0.30517578
-1.3796604,8.497443,1.9649395,-20.437708,1.3506423,0.55261755,0.08171504,0.35483915,-0.7520644,0.5795652,-0.5726621,0.6343006,0.6193053,-0.3570847,0.9046953,-0.24586064,1.520232,1.0235016,1.7355211,-0.8066244,1.5136713,0.871442,-0.17547704,1.4660243,1.0769999,1.6742568,-0.8671731,1.5486149,0.44615534,-0.9645764,0.74974656,-0.75362605,0.4331755,0.27638483,-0.15287791,0.44612885,-0.96457005,0.74977875,-0.75359344,0.43315887,0.27637482,-0.15296936,2.444025,-0.5440135,1.3719047,-3.1493757,0.14876764,2.6500812,0.30068445,-0.31521916,0.98253983,0.8621119,-0.08042925,0.49730146,-0.05463711,-0.27454633,-0.007180354,0.37626213,1,0,0,0,0,0,0,-3.0940251,0.1440135,-0.8219047,0.3732562,-0.044941902,-0.17130375,0.5394578,0.2604723,0.3585875,-0.2673477,0.36239624,-0.042915344,-0.15258789,0.5340576,0.2670288,0.36239624,-0.2670288
-0.732229,9.934646,2.6478293,-20.264275,1.3166485,0.49093735,0.084929675,0.36358777,-0.7451093,0.5853553,-0.56911147,0.63430214,0.62227,-0.3587893,0.9078008,-0.24998797,1.5245599,1.0200888,1.737687,-0.80494606,1.512736,0.87368745,-0.18029584,1.4697741,1.0732472,1.6764293,-0.86578214,1.5478443,0.4490662,-0.9637495,0.7499481,-0.7505458,0.43441054,0.27816087,-0.15418206,0.44908524,-0.9637594,0.7499695,-0.7505417,0.43449402,0.2781868,-0.15411377,2.428278,-0.54326963,1.3849099,-3.1493757,0.14876764,2.601031,0.29930878,-0.31526065,0.98441154,0.86428356,-0.08057789,0.49372828,-0.05247289,-0.2776884,-0.010182119,0.37350896,1,0,0,0,0,0,0,-3.078278,0.14326963,-0.83490986,0.5821705,0.16537905,0.04030466,0.61604977,0.24700761,0.35520792,-0.26082993,0.5912781,0.16212463,0.038146973,0.61035156,0.2670288,0.36239624,-0.22888184
-1.0001236,9.453761,2.3527927,-19.778849,1.2783695,0.5316894,0.08935723,0.36222458,-0.74698436,0.5753362,-0.5540622,0.633173,0.62172395,-0.36402974,0.9099099,-0.25499427,1.5273077,1.017841,1.7397466,-0.8036097,1.5114413,0.87594527,-0.1851119,1.4735173,1.0695202,1.6786065,-0.8643831,1.5470661,0.45152766,-0.9631994,0.7486224,-0.7453641,0.43549505,0.27983415,-0.15554975,0.4515648,-0.96321106,0.74863434,-0.74539185,0.4354477,0.27980804,-0.15563965,2.412531,-0.54252577,1.3976698,-3.1493757,0.14876764,2.551981,0.2979164,-0.31532264,0.9862644,0.86643624,-0.08070113,0.49014834,-0.050300993,-0.28090712,-0.0142905675,0.36968702,1,0,0,0,0,0,0,-3.062531,0.14252576,-0.8476698,0.49229264,0.110030174,-0.26513338,1.036334,0.2169013,0.33465624,-0.27353764,0.49591064,0.10967255,-0.2670288,1.0299683,0.19073486,0.32424927,-0.30517578
-0.75400746,10.187436,2.7124312,-19.865616,1.2761211,0.4978176,0.088694476,0.36589313,-0.74491084,0.58191645,-0.55697256,0.6346062,0.6226998,-0.3594514,0.9125346,-0.25960296,1.531709,1.013823,1.7420671,-0.8021131,1.5111209,0.87821645,-0.18992402,1.4772586,1.0658152,1.6807895,-0.86297596,1.5462822,0.4542108,-0.9624154,0.74833864,-0.7410385,0.43655735,0.2814419,-0.15675014,0.45423508,-0.9624243,0.74825287,-0.74100494,0.4365921,0.2814293,-0.15678406,2.3967838,-0.5417819,1.4101845,-3.1493757,0.14876764,2.5029309,0.29651022,-0.31540155,0.9881,0.86857045,-0.080801934,0.48656026,-0.048119664,-0.28380615,-0.01776018,0.36626804,1,0,0,0,0,0,0,-3.046784,0.1417819,-0.8601845,0.5366266,0.15679598,-0.056755543,0.86512566,0.21246076,0.32154918,-0.24007857,0.5340576,0.15735626,-0.076293945,0.8773804,0.22888184,0.32424927,-0.22888184
-0.8827469,10.346416,2.7133474,-20.023134,1.2726828,0.5056433,0.07662824,0.3715146,-0.74274683,0.5700188,-0.5618983,0.6243701,0.6208069,-0.3544909,0.9153679,-0.2641987,1.5342604,1.0096254,1.7432265,-0.8008953,1.510833,0.88050383,-0.19473077,1.4809903,1.0621245,1.6829743,-0.8615612,1.5454935,0.45749202,-0.96134996,0.74629533,-0.73815984,0.43704072,0.28292316,-0.15775506,0.45747757,-0.9613514,0.7463455,-0.7381439,0.43697357,0.28295517,-0.15773773,2.3810368,-0.54103804,1.4224539,-3.1493757,0.14876764,2.4538808,0.2950878,-0.31549954,0.9899205,0.8706859,-0.08088073,0.48296413,-0.04593347,-0.28701174,-0.021428164,0.3632322,1,0,0,0,0,0,0,-3.0310369,0.14103803,-0.87245387,0.65624714,0.2130866,-0.40866137,0.5757332,0.09667277,0.29625297,-0.20098388,0.64849854,0.21457672,-0.38146973,0.5722046,0.076293945,0.30517578,-0.19073486
-0.8168272,10.4990225,2.7936687,-19.655949,1.2467365,0.49984014,0.086401805,0.36392108,-0.7437061,0.5818864,-0.54658943,0.63272464,0.6213235,-0.36664596,0.9168959,-0.26910138,1.539179,1.0074656,1.7462468,-0.7994288,1.5088289,0.8827998,-0.19953348,1.4847211,1.0584576,1.685164,-0.8601397,1.5446981,0.45920643,-0.9605391,0.7462228,-0.733354,0.4378613,0.28433704,-0.15900216,0.45919418,-0.9605408,0.7461548,-0.73337555,0.43792725,0.2842903,-0.15907288,2.3652897,-0.5402942,1.434478,-3.1493757,0.14876764,2.4048307,0.29365063,-0.31561542,0.99172276,0.8727823,-0.08093661,0.47936127,-0.043739088,-0.28989705,-0.025207087,0.35950983,1,0,0,0,0,0,0,-3.0152898,0.14029416,-0.88447803,0.34288168,0.16217232,-0.014507771,0.9611726,0.16411543,0.28277636,-0.24941862,0.34332275,0.16212463,-0.038146973,0.9536743,0.19073486,0.2670288,-0.2670288
-0.2846806,11.251524,3.189273,-18.997679,1.1941038,0.46833473,0.10455437,0.377522,-0.74273056,0.58221495,-0.52896273,0.633896,0.6221219,-0.37086648,0.920552,-0.27380654,1.5429425,1.0055614,1.7485535,-0.79792756,1.5076115,0.8851134,-0.20433201,1.4884537,1.054827,1.6873574,-0.8587111,1.543897,0.4627155,-0.9597055,0.74644357,-0.72605324,0.43871325,0.2856951,-0.16030663,0.46272278,-0.9597063,0.74653625,-0.7261276,0.4386902,0.28572083,-0.16021729,2.3495426,-0.5395503,1.446257,-3.1493757,0.14876764,2.3557806,0.29220533,-0.3157487,0.9935011,0.8748577,-0.08096877,0.4757555,-0.04152857,-0.2914911,-0.02862722,0.3547527,1,0,0,0,0,0,0,-2.9995427,0.1395503,-0.896257,0.7018149,0.16672611,0.04415512,1.4601469,0.1703918,0.2716124,-0.2608955,0.705719,0.166893,0.076293945,1.449585,0.15258789,0.2861023,-0.22888184
-0.33375692,11.429304,3.2623734,-19.23339,1.204605,0.46599066,0.09567855,0.39152953,-0.7431405,0.5695141,-0.5394766,0.6266079,0.6153235,-0.3636889,0.9242664,-0.27864605,1.5454051,1.0008793,1.7500182,-0.79717875,1.5075282,0.8874547,-0.2091272,1.4921769,1.0512221,1.6895528,-0.8572768,1.5430902,0.46827736,-0.9590403,0.7446306,-0.72105676,0.4391338,0.2868206,-0.16137137,0.4682541,-0.95903873,0.7446289,-0.7209778,0.43907166,0.28686523,-0.1613617,2.3337955,-0.53880644,1.4577906,-3.1493757,0.14876764,2.3067305,0.2907505,-0.31589913,0.99525934,0.876913,-0.08097994,0.47214496,-0.03930459,-0.29332834,-0.03203161,0.3507037,1,0,0,0,0,0,0,-2.9837956,0.13880643,-0.9077906,1.1123717,0.13303757,-0.3625989,0.9992957,0.084108114,0.22509694,-0.21294653,1.1062622,0.1335144,-0.38146973,1.0299683,0.076293945,0.22888184,-0.22888184
-0.4892369,11.743543,3.290629,-19.417622,1.1997018,0.46970597,0.08292148,0.38241157,-0.73789436,0.5707261,-0.5390154,0.6250571,0.6186271,-0.3583492,0.92569584,-0.28291664,1.5492495,0.99732053,1.7520585,-0.7954141,1.5072553,0.8898141,-0.21391536,1.4958915,1.0476372,1.69175,-0.8558372,1.5422786,0.4719173,-0.9576304,0.74296564,-0.71689886,0.43942305,0.2879564,-0.16225037,0.47187805,-0.95763206,0.7429123,-0.71697235,0.43945312,0.28791428,-0.16231537,2.3180485,-0.5380626,1.469079,-3.1493757,0.14876764,2.2576804,0.2892847,-0.31606674,0.9969992,0.8789479,-0.080970325,0.46852967,-0.037072346,-0.29552922,-0.0355327,0.34699076,1,0,0,0,0,0,0,-2.9680486,0.13806257,-0.919079,0.7279873,0.28197765,-0.3329873,0.83158016,0.05785227,0.22715926,-0.17580092,0.7247925,0.28133392,-0.34332275,0.8010864,0.076293945,0.20980835,-0.19073486
0.022621274,12.360265,3.649015,-18.772924,1.1544566,0.4394214,0.103326775,0.39814144,-0.73981583,0.5738925,-0.5207418,0.6252507,0.61901385,-0.3639731,0.92962825,-0.28789693,1.5532807,0.99556303,1.7542751,-0.79393584,1.5058813,0.8922011,-0.2186984,1.4996022,1.0440848,1.6939483,-0.85439193,1.5414623,0.4774082,-0.9566159,0.74205416,-0.7104295,0.4396951,0.28904516,-0.16321197,0.47740936,-0.95660686,0.74214935,-0.71048737,0.43964386,0.2890587,-0.16326904,2.3023014,-0.5373187,1.4801222,-3.1493757,0.14876764,2.2086303,0.28781223,-0.31624937,0.99871606,0.8809612,-0.080940165,0.46491233,-0.03482295,-0.29651493,-0.038687006,0.34232765,1,0,0,0,0,0,0,-2.9523015,0.1373187,-0.9301222,1.0981798,0.20289421,-0.18229485,1.2938738,0.05440712,0.21775365,-0.19232035,1.1062622,0.20503998,-0.15258789,1.2969971,0.038146973,0.22888184,-0.19073486
-0.32959294,12.2544,3.415158,-18.765734,1.1340439,0.47563073,0.088807866,0.3894234,-0.7335735,0.5613845,-0.5170833,0.62514377,0.6162417,-0.36241534,0.93114346,-0.29205576,1.5557406,0.99237645,1.7564627,-0.79276776,1.5052208,0.8946063,-0.22347225,1.5032986,1.0405657,1.6961484,-0.8529419,1.5406421,0.48102987,-0.9547674,0.7393323,-0.70387226,0.43993482,0.2900142,-0.16409019,0.48103333,-0.95477104,0.73928833,-0.70381165,0.44002533,0.29001236,-0.16403198,2.2865543,-0.53657484,1.4909201,-3.1493757,0.14876764,2.1595802,0.286335,-0.31645298,1.0004084,0.8829512,-0.0808852,0.4612962,-0.03256348,-0.2979642,-0.042649914,0.3374897,1,0,0,0,0,0,0,-2.9365544,0.13657483,-0.94092005,0.7243335,0.36970377,-0.5443692,1.3114452,0.047945976,0.19381046,-0.17564297,0.7247925,0.3671646,-0.5722046,1.335144,0.076293945,0.19073486,-0.15258789
-0.056313753,12.685716,3.6585174,-18.550882,1.1198618,0.45658603,0.09775291,0.40676308,-0.73500216,0.5579075,-0.5123528,0.625508,0.61621106,-0.35568342,0.9352826,-0.29697245,1.5590894,0.9893305,1.7586992,-0.79132074,1.5050738,0.89704007,-0.2282386,1.5069798,1.0370791,1.6983495,-0.85148704,1.5398182,0.4867635,-0.9532795,0.7361433,-0.6973658,0.44017932,0.29092583,-0.16475797,0.48675537,-0.953269,0.7362366,-0.69732666,0.44021606,0.29096603,-0.16479492,2.2708073,-0.535831,1.5014727,-3.1493757,0.14876764,2.1105301,0.2848525,-0.31667376,1.0020769,0.8849185,-0.08080779,0.45768088,-0.03029045,-0.29886317,-0.046360064,0.33257246,1,0,0,0,0,0,0,-2.9208074,0.13583097,-0.9514727,1.1467278,0.29758215,-0.63780546,1.3012886,0.04889965,0.18232465,-0.13355613,1.1444092,0.3004074,-0.61035156,1.2969971,0.038146973,0.19073486,-0.15258789
0.9575161,14.2636,4.5164022,-18.077375,1.0827588,0.37308198,0.1202079,0.4333825,-0.7339141,0.56529623,-0.5024644,0.6246368,0.6176093,-0.35603797,0.9403783,-0.30163002,1.5635095,0.9868327,1.7608131,-0.78972614,1.5042144,0.899522,-0.23299779,1.5106524,1.0336287,1.7005515,-0.8500279,1.5389913,0.49635264,-0.95184666,0.73451155,-0.69009864,0.4403535,0.29182446,-0.16539854,0.49638748,-0.9518385,0.73451996,-0.69007874,0.4404068,0.29182434,-0.16536713,2.2550602,-0.5350871,1.5117801,-3.1493757,0.14876764,2.06148,0.28337336,-0.3169067,1.0037192,0.88686293,-0.08071298,0.4540662,-0.027990658,-0.29793867,-0.048535746,0.32744598,1,0,0,0,0,0,0,-2.9050603,0.1350871,-0.96178013,1.9178271,0.2865672,-0.32634735,1.4534354,0.034838915,0.17972589,-0.12811422,1.9264221,0.2861023,-0.34332275,1.449585,0.038146973,0.17166138,-0.11444092
1.6186026,15.189886,5.071227,-17.881662,1.0736499,0.3221002,0.13390706,0.47061998,-0.7366562,0.55713516,-0.5054101,0.6221103,0.6183864,-0.35669556,0.946584,-0.3066634,1.566366,0.9830877,1.7627625,-0.7881893,1.5033218,0.90207833,-0.23775305,1.5143117,1.0302079,1.7027535,-0.8485645,1.5381616,0.51125276,-0.95104724,0.7319423,-0.6841258,0.44038782,0.29269528,-0.16602004,0.5112648,-0.9510517,0.7318497,-0.68416595,0.4404068,0.29268265,-0.16593933,2.2393131,-0.53434324,1.5218422,-3.1493757,0.14876764,2.01243,0.28190374,-0.31714535,1.005338,0.8887854,-0.08060596,0.45044962,-0.025655774,-0.29596537,-0.049801216,0.32267788,1,0,0,0,0,0,0,-2.8893132,0.13434324,-0.9718422,2.9800236,0.1598835,-0.51385164,1.1945724,0.0068604946,0.17416477,-0.124299526,2.9754639,0.15735626,-0.5340576,1.1825562,0,0.17166138,-0.11444092
2.1644084,15.941652,5.523412,-17.633307,1.064742,0.27965736,0.15078631,0.49916345,-0.7395429,0.5579835,-0.5025554,0.62557805,0.61870855,-0.35258472,0.95199466,-0.31170735,1.5701101,0.97995234,1.7653114,-0.78669363,1.5029032,0.9047262,-0.24250747,1.5179604,1.0268147,1.7049565,-0.8470968,1.5373291,0.5295628,-0.9508956,0.7297266,-0.6786037,0.44058198,0.29353198,-0.16651534,0.52957535,-0.9508848,0.7297516,-0.67863464,0.44059753,0.29354095,-0.16651154,2.223566,-0.5335994,1.5316591,-3.1493757,0.14876764,1.96338,0.2804494,-0.3173859,1.0069339,0.89068764,-0.080490164,0.44682777,-0.023276763,-0.29311115,-0.05035706,0.31804743,1,0,0,0,0,0,0,-2.8735662,0.13359937,-0.9816591,3.662002,0.030326843,-0.4431367,1.1044145,0.038832426,0.16734004,-0.09905994,3.6621094,0.0333786,-0.4196167,1.1062622,0.038146973,0.17166138,-0.11444092
2.8343766,17.344517,6.1616473,-17.56937,1.0431895,0.22370814,0.15118974,0.53237814,-0.73461324,0.5510549,-0.5073405,0.6224146,0.6179872,-0.36156845,0.957964,-0.3159688,1.5730659,0.97608066,1.767198,-0.7852981,1.5011722,0.9074833,-0.24725772,1.5215939,1.0234416,1.7071595,-0.8456253,1.5364927,0.55137825,-0.9500443,0.72672457,-0.67460185,0.4406173,0.2943093,-0.16720548,0.5514145,-0.95005035,0.7266998,-0.6746292,0.44059753,0.2943039,-0.16727448,2.207819,-0.5328555,1.5412308,-3.1493757,0.14876764,1.91433,0.27901268,-0.3176241,1.0085094,0.8925687,-0.080371164,0.44320062,-0.020850854,-0.2892655,-0.04980703,0.3139461,1,0,0,0,0,0,0,-2.857819,0.1328555,-0.9912308,4.3630958,0.17026663,-0.6004095,0.80037117,0.0070631504,0.15546083,-0.13802946,4.3678284,0.166893,-0.61035156,0.8010864,0,0.15258789,-0.15258789
3.4236684,17.823084,6.4535923,-16.829739,1.0037782,0.20484176,0.17947799,0.5670329,-0.73952866,0.54899526,-0.4911701,0.62539554,0.6230731,-0.35301286,0.96418655,-0.3212106,1.5764935,0.9743245,1.7696991,-0.783318,1.5011914,0.91036576,-0.25200775,1.5252122,1.020098,1.7093635,-0.8441495,1.5356544,0.5764999,-0.95001,0.7236533,-0.66867733,0.44078773,0.29516968,-0.1676608,0.5764961,-0.95000565,0.7236481,-0.66871643,0.44078827,0.2951622,-0.16765594,2.192072,-0.53211164,1.5505573,-3.1493757,0.14876764,1.86528,0.27760267,-0.31785893,1.0100602,0.8944283,-0.080247924,0.43956906,-0.018366175,-0.28409842,-0.04910588,0.3089669,1,0,0,0,0,0,0,-2.842072,0.13211164,-1.0005572,5.024326,0.006854534,-0.6142497,1.1849046,0.034087896,0.17207861,-0.09106398,5.016327,0.008940697,-0.61035156,1.1825562,0.038146973,0.17166138,-0.076293945
2.9781425,17.320642,6.0515985,-16.629728,0.98052025,0.257097,0.17352341,0.56401753,-0.73732936,0.5435681,-0.47950238,0.6246457,0.62349063,-0.34455097,0.9667675,-0.3257407,1.579569,0.9721477,1.771828,-0.7818004,1.5011994,0.91335744,-0.25675634,1.5288123,1.0167916,1.7115684,-0.84266937,1.5348152,0.59838027,-0.9497244,0.72008723,-0.6613672,0.44092014,0.29600364,-0.16787532,0.59833527,-0.94971657,0.7200241,-0.6612778,0.440979,0.2960205,-0.16784668,2.1763248,-0.5313678,1.5596384,-3.1493757,0.14876764,1.81623,0.2762146,-0.31809616,1.0115825,0.8962642,-0.08011395,0.4359377,-0.015827894,-0.27941123,-0.049603317,0.3033614,1,0,0,0,0,0,0,-2.826325,0.13136777,-1.0096383,4.3760777,0.05712509,-0.71321726,1.4620304,0.026482344,0.16679168,-0.042903423,4.3678284,0.057816505,-0.7247925,1.4877319,0.038146973,0.17166138,-0.038146973
2.8077216,17.209177,5.9312563,-16.63242,0.9769128,0.27667892,0.16853033,0.5831205,-0.7381069,0.534437,-0.4795884,0.6224328,0.61883026,-0.33921334,0.9716695,-0.33056703,1.582256,0.96883273,1.7738116,-0.78078634,1.5008938,0.9164583,-0.2615042,1.5323895,1.0135176,1.7137733,-0.8411859,1.533975,0.6201943,-0.94957006,0.71542615,-0.6548159,0.44092804,0.29668164,-0.16794409,0.6201744,-0.9495735,0.7154465,-0.6547928,0.440979,0.29668808,-0.16803741,2.1605778,-0.5306239,1.5684743,-3.1493757,0.14876764,1.7671801,0.2748499,-0.31833768,1.0130777,0.8980764,-0.079968914,0.43230575,-0.013239525,-0.27501285,-0.050580677,0.2978864,1,0,0,0,0,0,0,-2.8105779,0.1306239,-1.0184743,4.3628097,0.030863285,-0.93221664,1.3102531,0.0015795231,0.13560057,-0.013753772,4.3678284,0.02861023,-0.91552734,1.2969971,0,0.1335144,-0.038146973
2.511321,17.03586,5.7619276,-16.695885,0.9781542,0.29854798,0.16354546,0.58719635,-0.7377299,0.5330847,-0.47548774,0.6263241,0.6178789,-0.32665136,0.97517794,-0.3352772,1.585698,0.96596885,1.7764057,-0.779398,1.5013099,0.9196579,-0.26625112,1.5359448,1.0102751,1.7159791,-0.8396996,1.5331367,0.6399161,-0.9493909,0.7110026,-0.6485375,0.44111675,0.29729465,-0.16769943,0.63991547,-0.9493828,0.7110596,-0.64849854,0.44116974,0.29726028,-0.16765594,2.1448307,-0.52988005,1.577065,-3.1493757,0.14876764,1.7181301,0.27350235,-0.31858635,1.0145463,0.89986473,-0.07981051,0.42867374,-0.010603513,-0.27114764,-0.05208958,0.29251513,1,0,0,0,0,0,0,-2.7948308,0.12988004,-1.027065,3.9443612,0.035834312,-0.88471174,1.2556791,0.03774166,0.122600794,0.048932433,3.9482117,0.038146973,-0.8773804,1.2588501,0.038146973,0.11444092,0.076293945
2.6811297,17.100433,5.7941523,-16.23017,0.9491192,0.3017236,0.17496914,0.60403925,-0.7419173,0.5362657,-0.45990363,0.6228472,0.62491316,-0.34089792,0.9800618,-0.34044284,1.5895714,0.9642848,1.7782638,-0.7772083,1.4990469,0.92295617,-0.27100065,1.539483,1.0070727,1.718185,-0.8382095,1.5322975,0.65961426,-0.9499079,0.7076706,-0.6405516,0.44113117,0.2980474,-0.16779782,0.6596565,-0.9499073,0.70762634,-0.6404877,0.44116974,0.29802322,-0.16784668,2.1290836,-0.5291362,1.5854104,-3.1493757,0.14876764,1.6690801,0.27217817,-0.3188436,1.0159847,0.9016282,-0.07963648,0.42504337,-0.007917238,-0.26674458,-0.05382315,0.28646857,1,0,0,0,0,0,0,-2.7790837,0.12913617,-1.0354104,3.9396286,-0.10340214,-0.66639185,1.597178,0.0028848648,0.15054941,-0.019678473,3.9482117,-0.104904175,-0.6866455,1.6021729,0,0.15258789,-0.038146973
2.2112823,16.435654,5.3144183,-15.980029,0.92255914,0.3648423,0.16775282,0.6055094,-0.74080986,0.5205858,-0.44681254,0.6205818,0.62052673,-0.3252588,0.9835071,-0.34508163,1.5915415,0.96239144,1.7802432,-0.77615684,1.4997716,0.9263417,-0.2757521,1.5429944,1.003916,1.7203898,-0.83671606,1.5314602,0.67706263,-0.9502693,0.70235085,-0.6312381,0.4410186,0.29866463,-0.16753559,0.67710876,-0.9502888,0.70228577,-0.6313324,0.440979,0.2986908,-0.16746521,2.1133366,-0.5283923,1.5935105,-3.1493757,0.14876764,1.6200302,0.2708726,-0.31911707,1.0173893,0.90336484,-0.07944059,0.42141932,-0.0051863887,-0.26276132,-0.056987155,0.27965763,1,0,0,0,0,0,0,-2.7633367,0.12839231,-1.0435104,3.4896731,-0.07227659,-1.0639548,1.8627048,-0.022512674,0.12344718,0.052446127,3.490448,-0.076293945,-1.0681152,1.8310547,-0.038146973,0.1335144,0.076293945
2.305294,17.25147,5.591283,-16.166903,0.913265,0.33826917,0.15591447,0.6115638,-0.7360029,0.52537686,-0.44704792,0.61627525,0.6189803,-0.33099884,0.9874981,-0.3493524,1.5955321,0.95921123,1.7820174,-0.774818,1.4983603,0.9298069,-0.28050092,1.5464858,1.0008013,1.7225928,-0.8352202,1.5306228,0.69300413,-0.9497857,0.6982394,-0.6229722,0.4406904,0.2992064,-0.16740845,0.6930351,-0.94976425,0.69828033,-0.62294006,0.44059753,0.29916763,-0.16746521,2.0975895,-0.52764845,1.6013654,-3.1493757,0.14876764,1.5709802,0.26958752,-0.31940246,1.0187627,0.9050743,-0.079226,0.41780126,-0.0024140696,-0.25877848,-0.05959526,0.27341518,1,0,0,0,0,0,0,-2.7475896,0.12764844,-1.0513654,3.1883001,0.0967145,-0.82229376,1.6531825,-0.065642595,0.108355284,0.025427341,3.1852722,0.104904175,-0.8010864,1.6784668,-0.076293945,0.09536743,0
2.913133,17.89243,5.805545,-15.139328,0.83968335,0.33297002,0.18206657,0.62672853,-0.735413,0.52553564,-0.41216135,0.6251635,0.6240593,-0.3279701,0.99247974,-0.35404223,1.5990393,0.9595852,1.7851092,-0.7728143,1.4978259,0.9333531,-0.28524664,1.54996,0.9977505,1.7247968,-0.83372104,1.5297865,0.70920295,-0.94915843,0.6948261,-0.6102082,0.4408198,0.2998398,-0.16722925,0.7092476,-0.94914436,0.6948471,-0.6101608,0.44078827,0.2998352,-0.16727448,2.0818424,-0.5269046,1.608975,-3.1493757,0.14876764,1.5219302,0.2683301,-0.31970143,1.0200969,0.90675354,-0.07898859,0.41419628,0.00040843454,-0.2531242,-0.062211923,0.26552832,1,0,0,0,0,0,0,-2.7318425,0.12690458,-1.058975,3.2397628,0.12545586,-0.682652,2.5527954,0.025880337,0.12667775,0.035840273,3.2424927,0.12397766,-0.6866455,2.5558472,0.038146973,0.1335144,0.038146973
2.9330645,17.585026,5.5735464,-14.470647,0.79496795,0.3721617,0.19377968,0.63699466,-0.73749983,0.5157009,-0.38816535,0.6250108,0.62400603,-0.31721023,0.9970526,-0.35899663,1.6015301,0.958934,1.7872978,-0.77132046,1.4980655,0.9369785,-0.2899914,1.5534114,0.99477744,1.7270017,-0.832219,1.528953,0.7250579,-0.9489351,0.6903237,-0.59461445,0.4409682,0.30044824,-0.1667908,0.7250786,-0.9489536,0.6902695,-0.59461594,0.440979,0.3004074,-0.16670227,2.0660954,-0.5261607,1.6163394,-3.1493757,0.14876764,1.4728802,0.26710272,-0.32001758,1.0213853,0.9084007,-0.07872209,0.4106096,0.0032830902,-0.24685468,-0.06575875,0.25639617,1,0,0,0,0,0,0,-2.7160954,0.12616071,-1.0663395,3.170991,0.04466772,-0.90048313,3.1187534,0.029677153,0.12168884,0.08769035,3.1661987,0.038146973,-0.91552734,3.1089783,0.038146973,0.11444092,0.11444092
3.1025724,18.039293,5.7563515,-14.406918,0.7842011,0.35641852,0.19417255,0.65069693,-0.7378466,0.51700234,-0.38082072,0.6194864,0.62177217,-0.31593487,1.0020483,-0.3637761,1.6051116,0.9566954,1.7889503,-0.77004176,1.4973595,0.940684,-0.2947357,1.5568436,0.9918802,1.7292056,-0.8307141,1.5281214,0.7410897,-0.94884586,0.68646395,-0.5794413,0.44082716,0.3009688,-0.16633548,0.7411003,-0.94885826,0.6864548,-0.5794525,0.44078827,0.3009796,-0.1663208,2.0503483,-0.52541685,1.6234586,-3.1493757,0.14876764,1.4238303,0.26590776,-0.32035065,1.0226293,0.9100153,-0.07842893,0.40704104,0.0062110806,-0.24031298,-0.0690252,0.24747352,1,0,0,0,0,0,0,-2.7003484,0.12541685,-1.0734587,3.2063603,0.01784563,-0.7719517,3.0346274,-0.028204918,0.10411143,0.09106398,3.2043457,0.019073486,-0.76293945,3.0326843,-0.038146973,0.11444092,0.076293945
3.1177785,18.176147,5.767244,-14.293086,0.77419543,0.36181515,0.1955152,0.66130394,-0.73870623,0.51304996,-0.3685989,0.6213075,0.6238398,-0.30614486,1.0068144,-0.36860633,1.6081486,0.9550203,1.7913363,-0.7683301,1.4975069,0.9444682,-0.29948023,1.5602559,0.98905873,1.7314095,-0.82920635,1.5272926,0.7568448,-0.9489197,0.68253994,-0.5642471,0.44076377,0.30151153,-0.16567326,0.75683594,-0.94890594,0.68244934,-0.5642891,0.44078827,0.30155182,-0.1657486,2.0346012,-0.524673,1.6303325,-3.1493757,0.14876764,1.3747803,0.2647462,-0.32070088,1.0238287,0.91159743,-0.078107476,0.40349066,0.009191735,-0.233696,-0.07246922,0.23853658,1,0,0,0,0,0,0,-2.6846013,0.12467298,-1.0803325,3.1510234,-0.014770031,-0.78480244,3.0388474,-0.012677908,0.10854602,0.1324445,3.1471252,-0.009536743,-0.8010864,3.0326843,0,0.11444092,0.11444092
3.0518332,18.56807,5.9242187,-14.67341,0.79237723,0.34420598,0.18381861,0.6740431,-0.7385741,0.5113994,-0.37298092,0.6191742,0.6220304,-0.3082,1.0118725,-0.37333763,1.6113958,0.95176065,1.793327,-0.7670033,1.4964726,0.94833153,-0.30422524,1.56365,0.98630023,1.7336125,-0.8276962,1.5264667,0.7726448,-0.948984,0.67882866,-0.55167353,0.4406071,0.30198145,-0.16508508,0.77266693,-0.9490013,0.6788254,-0.5517006,0.44059753,0.30202866,-0.16517639,2.0188541,-0.5239291,1.6369611,-3.1493757,0.14876764,1.3257303,0.26361418,-0.32106662,1.0249885,0.91314834,-0.07776166,0.39995477,0.0122221885,-0.22756046,-0.07559226,0.23063375,1,0,0,0,0,0,0,-2.6688542,0.12392911,-1.086961,3.1599998,-0.012862682,-0.74225664,2.514708,-0.03133416,0.093984604,0.11763573,3.1661987,-0.019073486,-0.7247925,2.5177002,-0.038146973,0.09536743,0.11444092
2.8578682,18.218086,5.663577,-14.332747,0.76617056,0.37948227,0.18523535,0.67392236,-0.7400825,0.5072851,-0.34922147,0.6204655,0.62030333,-0.30364215,1.0157238,-0.3782335,1.6143786,0.9513781,1.7956591,-0.7656659,1.4961026,0.95226353,-0.30897167,1.5670251,0.9836142,1.7358155,-0.82618415,1.5256447,0.78644246,-0.94928646,0.67495483,-0.5371617,0.44051498,0.3023806,-0.16441782,0.78639984,-0.9492874,0.6750107,-0.53720474,0.44059753,0.30241013,-0.16441345,2.003107,-0.52318525,1.6433445,-3.1493757,0.14876764,1.2766804,0.26251268,-0.32145166,1.0261052,0.9146664,-0.07738659,0.39643726,0.015301496,-0.22140472,-0.07956641,0.221939,1,0,0,0,0,0,0,-2.6531072,0.12318525,-1.0933444,2.7595282,-0.060486794,-0.774765,2.9023647,-0.018423796,0.0798285,0.13345182,2.746582,-0.05722046,-0.76293945,2.89917,0,0.076293945,0.15258789
2.1731327,18.294382,5.559288,-15.275021,0.8046678,0.38739753,0.14778095,0.6698815,-0.733845,0.49723998,-0.36638868,0.61915374,0.61741805,-0.2930533,1.0192517,-0.38235617,1.616749,0.94697535,1.7977309,-0.7644423,1.4963393,0.9562513,-0.31371453,1.5703744,0.9809792,1.7380176,-0.8246707,1.5248274,0.7975906,-0.94856626,0.6699096,-0.5270174,0.4403706,0.30268517,-0.16352384,0.79755783,-0.94857216,0.66986084,-0.5270004,0.4404068,0.30269623,-0.16345978,1.98736,-0.5224414,1.6494827,-3.1493757,0.14876764,1.2276304,0.2614336,-0.32185793,1.027186,0.9161533,-0.07698427,0.3929342,0.018415283,-0.2169307,-0.08374147,0.21488675,1,0,0,0,0,0,0,-2.63736,0.12244138,-1.0994828,2.229631,0.14404058,-1.009047,2.0288587,-0.02887845,0.060915947,0.17879605,2.231598,0.14305115,-1.0299683,2.040863,-0.038146973,0.05722046,0.19073486
2.3404365,18.036339,5.453561,-14.657274,0.77757347,0.40701455,0.1674052,0.6836441,-0.74125975,0.49669605,-0.34053627,0.6210881,0.62425894,-0.28564292,1.0246158,-0.3878405,1.620044,0.9469256,1.8001263,-0.76224476,1.496263,0.9602973,-0.31845954,1.5737008,0.97840667,1.7402196,-0.8231548,1.5240148,0.80923796,-0.9490111,0.6652563,-0.5145117,0.44032302,0.30313802,-0.16248916,0.80919266,-0.9490013,0.6652832,-0.5145073,0.4404068,0.30317307,-0.1625061,1.9716129,-0.5216975,1.6553756,-3.1493757,0.14876764,1.1785804,0.26037884,-0.32228804,1.028227,0.91760826,-0.07655097,0.3894481,0.021568246,-0.21180314,-0.0884571,0.20684494,1,0,0,0,0,0,0,-2.621613,0.121697515,-1.1053755,2.3294687,-0.08896589,-0.930655,2.501142,-0.009512901,0.09056926,0.2069354,2.3269653,-0.08583069,-0.91552734,2.4986267,0,0.09536743,0.19073486
2.5784943,18.861198,5.7884297,-14.65789,0.7658664,0.37152508,0.16638374,0.6877315,-0.7389191,0.50425786,-0.33405513,0.622515,0.6271069,-0.29604867,1.0290704,-0.39235145,1.6241266,0.9450011,1.802471,-0.7604441,1.4944099,0.9643981,-0.32320526,1.5770129,0.97589564,1.7424216,-0.82163656,1.5232061,0.8201413,-0.9491667,0.6624763,-0.50224197,0.44036025,0.3036459,-0.16176029,0.8201599,-0.94914436,0.6624222,-0.5022049,0.4404068,0.3036499,-0.16174316,1.9558659,-0.52095366,1.6610233,-3.1493757,0.14876764,1.1295304,0.25935078,-0.32273817,1.0292296,0.9190312,-0.07608963,0.3859777,0.024762757,-0.20639396,-0.09246267,0.19916327,1,0,0,0,0,0,0,-2.605866,0.12095365,-1.1110232,2.1806717,-0.031125546,-0.55600405,2.453947,0.00744462,0.101578236,0.14577508,2.193451,-0.02861023,-0.5722046,2.4604797,0,0.09536743,0.15258789
2.342437,18.51819,5.488136,-14.340327,0.7337692,0.41362882,0.1613744,0.685459,-0.7385673,0.49242347,-0.31324807,0.6224888,0.6228538,-0.29263115,1.032944,-0.397062,1.6262553,0.94457084,1.8046705,-0.7593512,1.493943,0.9685442,-0.32795122,1.580305,0.9734547,1.7446237,-0.8201164,1.5224012,0.82921064,-0.94921124,0.65835524,-0.48817587,0.44039607,0.30402562,-0.16099837,0.8292198,-0.94919205,0.65841675,-0.48818588,0.4404068,0.30403137,-0.16098022,1.9401188,-0.5202098,1.6664257,-3.1493757,0.14876764,1.0804805,0.25835133,-0.32321262,1.0301899,0.9204204,-0.07559556,0.38252822,0.027994178,-0.20095746,-0.09742781,0.19065805,1,0,0,0,0,0,0,-2.590119,0.12020978,-1.1164258,1.8138647,-0.008904934,-0.824213,2.81322,0.0071644783,0.07594228,0.15238225,1.8119812,-0.009536743,-0.8010864,2.8038025,0,0.076293945,0.15258789
2.266358,19.260887,5.707657,-14.708886,0.7331493,0.39227745,0.14285861,0.6871221,-0.7322455,0.48911068,-0.31623855,0.6214311,0.6259477,-0.2882421,1.0372564,-0.40117577,1.6292161,0.9418309,1.8067667,-0.7575216,1.493577,0.97272986,-0.33269218,1.5835751,0.97107387,1.7468257,-0.81859434,1.5216001,0.83716756,-0.94821346,0.6540572,-0.47614455,0.4403792,0.30445683,-0.16017035,0.8371353,-0.9481907,0.65402985,-0.4761696,0.4404068,0.30441284,-0.16021729,1.9243717,-0.5194659,1.6715828,-3.1493757,0.14876764,1.0314305,0.2573743,-0.32370996,1.031112,0.9217765,-0.075071335,0.37909818,0.031255588,-0.19588684,-0.101958536,0.18303047,1,0,0,0,0,0,0,-2.5743718,0.11946592,-1.1215827,1.5913844,0.19955635,-0.85960627,2.4062634,-0.003373623,0.08624196,0.16560555,1.5830994,0.2002716,-0.8773804,2.4032593,0,0.076293945,0.15258789
1.662054,18.313456,5.204266,-14.746063,0.7341253,0.44966507,0.13006975,0.68379366,-0.7360837,0.4749762,-0.30532673,0.6168703,0.6251656,-0.28538555,1.0411092,-0.40630054,1.6310728,0.9405412,1.8085127,-0.75607777,1.4930615,0.976947,-0.33743122,1.5868148,0.9687531,1.7490268,-0.8170699,1.5208038,0.8434438,-0.9478314,0.6479734,-0.46411216,0.44013456,0.3048494,-0.15931319,0.84342957,-0.9478092,0.64792633,-0.4641533,0.44021606,0.30488968,-0.15926361,1.9086246,-0.51872206,1.6764947,-3.1493757,0.14876764,0.9823805,0.25641966,-0.32423759,1.0319941,0.9230993,-0.07451165,0.37568966,0.034540378,-0.19160879,-0.10786778,0.17508572,1,0,0,0,0,0,0,-2.5586247,0.11872205,-1.1264946,1.25525,0.076413155,-1.2167573,2.406478,-0.048929453,0.07851124,0.1714319,1.2588501,0.076293945,-1.2207031,2.4032593,-0.038146973,0.09536743,0.19073486
1.6328365,18.814257,5.4016347,-15.000942,0.73935664,0.42573726,0.12029724,0.68693715,-0.7343268,0.47620675,-0.30604106,0.6146766,0.6263313,-0.2910269,1.0456407,-0.4108639,1.6344354,0.938149,1.8104944,-0.75443673,1.4917011,0.98119324,-0.34216765,1.5900277,0.9664848,1.751226,-0.81554353,1.5200104,0.8492321,-0.94729084,0.64264125,-0.4537098,0.4397805,0.30525073,-0.15863477,0.849247,-0.9472847,0.64258575,-0.45366287,0.4398346,0.30527115,-0.1586914,1.8928776,-0.5179782,1.6811614,-3.1493757,0.14876764,0.93333054,0.25548506,-0.3247924,1.03284,0.9243896,-0.07392002,0.3723001,0.03784556,-0.1876173,-0.113373585,0.16784732,1,0,0,0,0,0,0,-2.5428777,0.117978185,-1.1311615,1.1576533,0.108110905,-1.0664344,2.0804703,-0.07081032,0.080269575,0.13568401,1.1634827,0.104904175,-1.0681152,2.0980835,-0.076293945,0.076293945,0.11444092
1.0930684,18.950544,5.5335407,-16.03498,0.80584466,0.39299226,0.09712414,0.6851049,-0.7357266,0.48019418,-0.32862446,0.6172597,0.62741643,-0.29600188,1.0497037,-0.4157403,1.6380471,0.93362236,1.8129519,-0.7528019,1.4904102,0.98546284,-0.34690288,1.5932215,0.9642422,1.7534242,-0.81401527,1.5192198,0.85393053,-0.9470251,0.63872355,-0.44848013,0.43956938,0.30565435,-0.15812783,0.85392,-0.9470463,0.63877106,-0.44851303,0.43964386,0.30565262,-0.1581192,1.8771305,-0.5172343,1.6855828,-3.1493757,0.14876764,0.88428056,0.25455904,-0.3253727,1.0336607,0.9256515,-0.07330214,0.36891934,0.041164197,-0.18542063,-0.1184786,0.1626809,1,0,0,0,0,0,0,-2.5271306,0.11723432,-1.1355827,0.93969107,0.0531435,-0.7835388,1.0459363,-0.04222393,0.08072257,0.1013875,0.93460083,0.047683716,-0.76293945,1.0299683,-0.038146973,0.076293945,0.11444092
0.67596936,18.633905,5.2701244,-16.185797,0.80275106,0.42816842,0.0799711,0.6859055,-0.7333302,0.45933223,-0.32760122,0.61589605,0.6278729,-0.28410634,1.0540534,-0.4202359,1.6391548,0.9314821,1.8150138,-0.751228,1.4908091,0.98975295,-0.351635,1.596382,0.96202016,1.7556205,-0.8124851,1.518433,0.8580259,-0.94643724,0.63209873,-0.44440672,0.43931666,0.30604964,-0.1573591,0.8580208,-0.9464264,0.63209534,-0.44441223,0.4392624,0.3060341,-0.15735626,1.8613834,-0.51649046,1.6897589,-3.1493757,0.14876764,0.8352306,0.25364208,-0.3259833,1.0344555,0.92688507,-0.072655156,0.36554882,0.044488154,-0.18385814,-0.124503,0.15758073,1,0,0,0,0,0,0,-2.5113835,0.11649045,-1.1397588,0.8190751,0.11757612,-1.3249636,0.81468225,-0.05054474,0.0790596,0.1537472,0.8201599,0.12397766,-1.335144,0.8201599,-0.076293945,0.076293945,0.15258789
1.5234116,19.036476,5.3183966,-14.61329,0.6964822,0.4459306,0.11376766,0.6910177,-0.7353839,0.46038345,-0.27831596,0.6155793,0.62812376,-0.298577,1.0588547,-0.4251734,1.6424204,0.93418854,1.8171784,-0.7496727,1.4885752,0.994065,-0.3563662,1.5995129,0.9598553,1.7578158,-0.810953,1.5176481,0.8623606,-0.9462122,0.6261246,-0.43299803,0.43906155,0.30643153,-0.15697423,0.8624077,-0.94623566,0.62618256,-0.43296814,0.43907166,0.30641556,-0.15697479,1.8456364,-0.5157466,1.6936898,-3.1493757,0.14876764,0.7861806,0.2527461,-0.32662487,1.0352114,0.92808574,-0.07197305,0.36220032,0.04782936,-0.17971475,-0.13073675,0.14978114,1,0,0,0,0,0,0,-2.4956365,0.11574659,-1.1436899,0.86693764,0.045013428,-1.1948228,2.2817373,-0.051021576,0.07637739,0.07697344,0.8773804,0.038146973,-1.1825562,2.2888184,-0.038146973,0.076293945,0.076293945
1.6658417,19.840538,5.648603,-14.749524,0.6959525,0.40685743,0.112750515,0.6915678,-0.7327121,0.46342218,-0.28135473,0.6199326,0.6239755,-0.28791168,1.0632218,-0.4296374,1.6458552,0.93171984,1.8198091,-0.7485555,1.4888569,0.9983961,-0.36109427,1.60262,0.95774245,1.7600112,-0.8094195,1.5168661,0.8662681,-0.94563234,0.6214833,-0.42259857,0.43905118,0.30669183,-0.15636805,0.8662224,-0.94561577,0.6214142,-0.4225731,0.43907166,0.30670166,-0.15640259,1.8298893,-0.5150027,1.6973755,-3.1493757,0.14876764,0.73713064,0.2518692,-0.32729435,1.0359313,0.92925406,-0.07125912,0.35887167,0.051187515,-0.17555302,-0.13619947,0.14262041,1,0,0,0,0,0,0,-2.4798894,0.11500272,-1.1473756,0.78150034,0.1159668,-0.9282589,2.0798922,-0.0020742416,0.052058697,0.12123585,0.76293945,0.12397766,-0.9536743,2.07901,0,0.05722046,0.11444092
1.3603427,19.679026,5.6517735,-15.143532,0.7305964,0.3964882,0.107471965,0.6922929,-0.7382727,0.46684673,-0.2857122,0.6224648,0.6336033,-0.29591772,1.0676254,-0.43492153,1.6493046,0.9291712,1.8222576,-0.7460592,1.4872743,1.0027448,-0.36582425,1.6057109,0.9556706,1.7622075,-0.8078836,1.516086,0.86974037,-0.94597733,0.6181411,-0.41434723,0.43918115,0.3071683,-0.15597932,0.86973906,-0.94599724,0.6181717,-0.4143715,0.4392624,0.3071785,-0.15602112,1.8141422,-0.51425886,1.7008159,-3.1493757,0.14876764,0.68808067,0.2510085,-0.32799125,1.03662,0.9303923,-0.07051462,0.35555667,0.05456252,-0.17230429,-0.14170673,0.13630868,1,0,0,0,0,0,0,-2.4641423,0.114258856,-1.150816,0.6944537,-0.06899834,-0.66844225,1.6502678,0.025993586,0.095295906,0.07774532,0.7033348,-0.076293945,-0.64849854,1.6403198,0.038146973,0.09536743,0.076293945
1.2794191,20.003054,5.6880546,-15.165195,0.7122573,0.3949073,0.096073106,0.69077486,-0.7345047,0.45803812,-0.27991503,0.61572844,0.6244403,-0.29102257,1.0718223,-0.43927473,1.6515146,0.92767906,1.8237803,-0.7454396,1.4869838,1.0071069,-0.37055328,1.6087807,0.9536383,1.7644019,-0.8063468,1.5153087,0.87248623,-0.94579,0.6139723,-0.40646675,0.43897417,0.30740526,-0.15550077,0.87242126,-0.9458065,0.6139755,-0.406456,0.43888092,0.30736923,-0.15544891,1.7983952,-0.513515,1.7040111,-3.1493757,0.14876764,0.6390307,0.25016356,-0.32871628,1.0372775,0.93150014,-0.06974036,0.35225794,0.057949275,-0.1691363,-0.14729577,0.1300489,1,0,0,0,0,0,0,-2.4483953,0.11351499,-1.154011,0.54917336,0.03746748,-0.8337617,1.5760958,-0.041395426,0.047391653,0.09571016,0.5364418,0.038146973,-0.8392334,1.5830994,-0.076293945,0.038146973,0.11444092
1.1835234,20.47141,5.7768755,-15.324521,0.70094705,0.38992673,0.08167326,0.691683,-0.72961646,0.44674638,-0.28186682,0.6136501,0.6252569,-0.27847666,1.0762752,-0.44351494,1.6534554,0.92545164,1.8257669,-0.7438211,1.4874611,1.0114814,-0.37527707,1.611823,0.95163846,1.7665954,-0.8048085,1.5145353,0.8749363,-0.94476277,0.6083824,-0.399936,0.43865013,0.30763787,-0.15473543,0.8749008,-0.94475746,0.6084442,-0.399971,0.4386902,0.30765533,-0.15468597,1.7826481,-0.5127711,1.706961,-3.1493757,0.14876764,0.5899807,0.2493329,-0.3294692,1.0379056,0.9325777,-0.06893686,0.34897497,0.061342444,-0.16617335,-0.15287364,0.124182895,1,0,0,0,0,0,0,-2.4326482,0.11277112,-1.156961,0.49000978,0.20544529,-1.1179805,1.3061523,-0.06480813,0.046521425,0.15306771,0.49591064,0.20980835,-1.1062622,1.2969971,-0.038146973,0.05722046,0.15258789
1.1840744,20.217861,5.5968237,-14.908052,0.6732421,0.41752195,0.08456472,0.69222623,-0.7326324,0.43902248,-0.26491916,0.6139898,0.6286574,-0.29052812,1.080704,-0.44854033,1.6557252,0.9251465,1.8279943,-0.74194276,1.4854825,1.0158674,-0.37999824,1.6148337,0.9496801,1.7687869,-0.8032688,1.5137638,0.8771364,-0.9442482,0.6020697,-0.39165726,0.43837008,0.30794346,-0.1542949,0.87718964,-0.94423294,0.60214996,-0.39167404,0.43830872,0.30794144,-0.1543045,1.766901,-0.51202726,1.7096657,-3.1493757,0.14876764,0.54093075,0.24851894,-0.3302529,1.0385002,0.933624,-0.068101324,0.34571207,0.064742155,-0.16280141,-0.15908384,0.117499895,1,0,0,0,0,0,0,-2.416901,0.11202726,-1.1596656,0.44002533,0.10291338,-1.2625456,1.6557455,-0.056010485,0.061118603,0.088107586,0.45776367,0.104904175,-1.2588501,1.6593933,-0.076293945,0.05722046,0.076293945
0.25185874,20.214172,5.8611484,-16.789206,0.80977,0.34978414,0.05502919,0.69797856,-0.73786056,0.44692636,-0.32282546,0.61676484,0.6312224,-0.2799001,1.0856652,-0.4537843,1.6595263,0.91739756,1.8304634,-0.7401465,1.4857738,1.0202676,-0.3847218,1.6178225,0.9477122,1.7709785,-0.8017272,1.5129961,0.8799563,-0.94471276,0.5977339,-0.39357656,0.4382425,0.30829677,-0.15363309,0.88005066,-0.9447098,0.59776306,-0.3935814,0.43830872,0.3083229,-0.15354156,1.751154,-0.5112834,1.7121251,-3.1493757,0.14876764,0.49188074,0.24770498,-0.33106494,1.0390805,0.9346468,-0.067242675,0.3424476,0.06814162,-0.16271521,-0.1646436,0.11460114,1,0,0,0,0,0,0,-2.401154,0.11128339,-1.1621251,0.56397915,-0.09291172,-0.8671522,-0.38385987,-0.025516748,0.07066131,0.13236105,0.5722046,-0.09536743,-0.8773804,-0.38146973,0,0.076293945,0.15258789
1.034492,21.654661,6.2909904,-15.963343,0.7245732,0.32044005,0.06246882,0.69838136,-0.7291252,0.44606268,-0.2939923,0.61823094,0.63487256,-0.30984423,1.0901058,-0.4576343,1.6624289,0.91831297,1.8328016,-0.73823994,1.4820117,1.0246803,-0.38944104,1.6207932,0.94575286,1.77317,-0.80018365,1.5122274,0.8825531,-0.9438283,0.5940511,-0.39187035,0.43821463,0.3087247,-0.15372367,0.8825302,-0.9438515,0.5941391,-0.39186478,0.43830872,0.30870438,-0.1537323,1.7354069,-0.51053953,1.7143393,-3.1493757,0.14876764,0.44283074,0.2468996,-0.3319006,1.039641,0.93564326,-0.066361755,0.33918938,0.07154218,-0.16086724,-0.16940098,0.110623926,1,0,0,0,0,0,0,-2.385407,0.110539526,-1.1643393,0.5193591,0.17689466,-0.73655844,0.34124255,-0.0055730343,0.08558631,-0.018116832,0.49591064,0.17166138,-0.7247925,0.34332275,0,0.076293945,-0.038146973
0.56140995,20.913122,5.841256,-15.799924,0.70374036,0.37385303,0.051004775,0.6885,-0.7305818,0.43065313,-0.28717983,0.6091761,0.6291195,-0.29935178,1.0935303,-0.46249923,1.6638585,0.91703486,1.8340876,-0.7372717,1.4822923,1.0290958,-0.39415672,1.6237353,0.9438088,1.7753587,-0.7986387,1.5114597,0.8831887,-0.9431198,0.5884244,-0.38882023,0.43773413,0.30899227,-0.15359528,0.8831024,-0.9431362,0.58841705,-0.38881302,0.4377365,0.30899048,-0.15354156,1.7196598,-0.50979567,1.7163081,-3.1493757,0.14876764,0.39378074,0.24610233,-0.33276653,1.0401775,0.9366121,-0.06545395,0.33594292,0.07493816,-0.15928607,-0.17540975,0.105823375,1,0,0,0,0,0,0,-2.36966,0.10979566,-1.1663082,0.12712479,0.14169216,-1.1253476,0.61002374,-0.09610057,0.05351305,0.025677681,0.11444092,0.14305115,-1.1444092,0.61035156,-0.11444092,0.05722046,0.038146973
1.1966383,22.24883,6.3472366,-15.446775,0.6572956,0.32283545,0.05530276,0.697821,-0.7259585,0.4342377,-0.28299126,0.5920666,0.6192275,-0.30232507,1.0988779,-0.4667526,1.6671591,0.91550964,1.8345653,-0.736716,1.4812272,1.0335208,-0.3988655,1.6266545,0.9418824,1.7775407,-0.79709375,1.510692,0.88502204,-0.9417706,0.58383477,-0.385308,0.43639812,0.3089978,-0.15353076,0.88500977,-0.9417534,0.5838394,-0.38528442,0.43640137,0.30899048,-0.15354156,1.7039127,-0.5090518,1.7180318,-3.1493757,0.14876764,0.34473073,0.24531841,-0.3336568,1.0406902,0.93755233,-0.064523816,0.3327102,0.078332946,-0.15663348,-0.18026206,0.101024576,1,0,0,0,0,0,0,-2.3539128,0.109051794,-1.1680317,0.36666393,0.26984215,-0.91792345,0.7024467,-0.26720166,0.0011086464,0.012904406,0.38146973,0.27656555,-0.91552734,0.705719,-0.2670288,0,0
0.42131102,21.744051,6.176963,-16.3311,0.71667093,0.32856435,0.031680252,0.6990071,-0.72795314,0.42035145,-0.31184906,0.594371,0.6229947,-0.29190278,1.1034216,-0.4716608,1.6686896,0.91069746,1.8369778,-0.73479426,1.4815017,1.0379554,-0.40356973,1.6295432,0.9399483,1.779717,-0.7955483,1.5099262,0.8869755,-0.9408347,0.5777163,-0.38685524,0.43521795,0.30908087,-0.15322106,0.8869171,-0.9408474,0.5777359,-0.3868103,0.43525696,0.30908585,-0.1531601,1.6881657,-0.50830793,1.7195102,-3.1493757,0.14876764,0.29568073,0.24453783,-0.3345747,1.041186,0.9384677,-0.063571915,0.329483,0.081717856,-0.15586877,-0.18577676,0.09771595,1,0,0,0,0,0,0,-2.3381658,0.10830793,-1.1695101,0.39069653,0.18718243,-1.2236953,-0.30944943,-0.2360344,0.016611814,0.061941147,0.38146973,0.18119812,-1.2207031,-0.30517578,-0.22888184,0.019073486,0.076293945
1.2042699,22.486435,6.2840805,-15.12699,0.6204943,0.34218138,0.0485933,0.7020784,-0.7234611,0.41300204,-0.27663106,0.58843946,0.62465304,-0.30056956,1.1081632,-0.47591585,1.6708434,0.9122852,1.8385609,-0.733083,1.4798692,1.0424014,-0.40826634,1.6323985,0.9380324,1.7818866,-0.7940024,1.5091604,0.88918626,-0.93934536,0.5709839,-0.38314182,0.43383488,0.3092038,-0.15312341,0.88920593,-0.9393215,0.5710602,-0.38318634,0.4339218,0.3091812,-0.1531601,1.6724186,-0.50756407,1.7207433,-3.1493757,0.14876764,0.24663073,0.24377155,-0.33551955,1.0416563,0.93935424,-0.0625956,0.3262722,0.085098706,-0.15289994,-0.19120556,0.09248481,1,0,0,0,0,0,0,-2.3224187,0.10756406,-1.1707432,0.44214725,0.29786825,-1.3464808,0.7426858,-0.27661324,0.024586916,0.019529462,0.45776367,0.30517578,-1.335144,0.7247925,-0.2670288,0.019073486,0
1.8398358,23.126131,6.4497156,-14.1624775,0.55523825,0.3365476,0.07287436,0.6985024,-0.7233008,0.41930613,-0.24749239,0.59147173,0.62598586,-0.29978845,1.1122516,-0.48059642,1.674329,0.91328317,1.8410337,-0.7314038,1.4791815,1.0468541,-0.41295603,1.635229,0.93615985,1.7840505,-0.79245555,1.5083956,0.8905774,-0.93794435,0.56604165,-0.37451565,0.43268389,0.30935377,-0.15302597,0.8905411,-0.9379387,0.5661011,-0.3745079,0.4327774,0.30937195,-0.15296936,1.6566715,-0.5068202,1.7217312,-3.1493757,0.14876764,0.19758072,0.24302864,-0.33648944,1.042093,0.940209,-0.06159192,0.32308534,0.088483654,-0.14823508,-0.19619006,0.08582009,1,0,0,0,0,0,0,-2.3066716,0.106820196,-1.1717312,0.27822256,0.28020144,-0.98844767,1.7252326,-0.2301991,0.029993057,0.019487739,0.2670288,0.27656555,-0.9918213,1.7356873,-0.22888184,0.038146973,0.038146973
2.0572715,22.864485,6.3172183,-13.496247,0.527748,0.35619682,0.09429524,0.6976095,-0.7293537,0.42063338,-0.22406973,0.59245133,0.62409467,-0.28929698,1.116615,-0.4858914,1.6772923,0.91375285,1.8432956,-0.7300461,1.4794658,1.0513116,-0.41764453,1.6380395,0.9343469,1.7862086,-0.7909082,1.5076326,0.8915356,-0.9377162,0.56215537,-0.36255184,0.431676,0.30945176,-0.15267308,0.89149475,-0.9377003,0.56209564,-0.36258698,0.431633,0.30946732,-0.15258789,1.6409245,-0.50607634,1.7224739,-3.1493757,0.14876764,0.14853072,0.24231243,-0.33748603,1.042491,0.9410304,-0.06055698,0.31992626,0.09187941,-0.14273417,-0.20148826,0.07800773,1,0,0,0,0,0,0,-2.2909245,0.10607633,-1.1724739,0.19164085,0.045633316,-0.7772565,2.392763,-0.20157695,0.019598007,0.07057786,0.19073486,0.047683716,-0.8010864,2.3841858,-0.22888184,0.019073486,0.076293945
1.134526,22.628353,6.253108,-14.659384,0.5855632,0.34280995,0.0564271,0.69449013,-0.72760797,0.40868464,-0.2549157,0.5771644,0.61812454,-0.28246906,1.1207607,-0.49040532,1.678908,0.9088553,1.8439251,-0.72909576,1.4793857,1.055771,-0.42233136,1.6408242,0.93256354,1.7883582,-0.78936136,1.5068716,0.8918206,-0.9373794,0.5569578,-0.3566788,0.42998442,0.3093929,-0.1521645,0.8918762,-0.9373665,0.5569458,-0.3566742,0.42991638,0.30937195,-0.15220642,1.6251774,-0.50533247,1.7229713,-3.1493757,0.14876764,0.09948072,0.24161339,-0.33851123,1.0428591,0.94182235,-0.05949513,0.31678653,0.09527387,-0.13946193,-0.20716664,0.07209556,1,0,0,0,0,0,0,-2.2751775,0.105332464,-1.1729712,0.057005882,0.06735325,-1.0395169,1.1746049,-0.33831596,-0.011771917,0.10171533,0.076293945,0.0667572,-1.0299683,1.1825562,-0.34332275,-0.019073486,0.076293945
1.5258842,22.74319,6.229283,-14.009016,0.545795,0.35697147,0.069189645,0.7018692,-0.7307021,0.40217677,-0.23244785,0.5717527,0.6139851,-0.28017896,1.125958,-0.49540156,1.6810418,0.90931875,1.8455335,-0.72796285,1.4788537,1.060237,-0.42701915,1.6435803,0.9308202,1.7904983,-0.78781545,1.5061134,0.8931811,-0.9375741,0.5512102,-0.34866813,0.42810285,0.30922696,-0.15161948,0.89321136,-0.9375572,0.55122375,-0.34866333,0.42800903,0.3091812,-0.15163422,1.6094303,-0.5045886,1.7232234,-3.1493757,0.14876764,0.05043072,0.24093485,-0.33956552,1.0431929,0.9425837,-0.05840446,0.3136702,0.09867036,-0.1351467,-0.21303855,0.0652335,1,0,0,0,0,0,0,-2.2594304,0.1045886,-1.1732235,0.2720952,-0.038933754,-1.1495113,1.6021371,-0.37631392,-0.033187866,0.109004974,0.2670288,-0.038146973,-1.1444092,1.6021729,-0.38146973,-0.038146973,0.11444092
1.2005212,22.647453,6.1609354,-14.254663,0.5580298,0.3617595,0.059436336,0.69867545,-0.73107296,0.39423257,-0.23667397,0.57492375,0.62161314,-0.27465698,1.1301045,-0.5001264,1.6830035,0.90715283,1.8479906,-0.7256541,1.4786477,1.0647069,-0.4317086,1.646304,0.9291098,1.7926307,-0.78626907,1.505359,0.8939761,-0.93787086,0.54482424,-0.3420872,0.42650056,0.30925143,-0.15095931,0.8939743,-0.937891,0.54473877,-0.34208298,0.42648315,0.30927658,-0.15087128,1.5936832,-0.50384474,1.7232304,-3.1493757,0.14876764,0.0013807192,0.24027443,-0.34065223,1.0434943,0.9433156,-0.0572833,0.310575,0.102065705,-0.13145413,-0.21926776,0.058760166,1,0,0,0,0,0,0,-2.2436833,0.10384473,-1.1732304,0.15900135,-0.059354305,-1.2771964,1.3161838,-0.3204584,0.0048935413,0.13203323,0.15258789,-0.0667572,-1.2969971,1.3160706,-0.30517578,0.019073486,0.15258789
2.0009875,23.636568,6.5108395,-13.47861,0.50486326,0.33435225,0.080854654,0.7061216,-0.7316436,0.39931342,-0.2133213,0.57246566,0.61998785,-0.2791747,1.1353191,-0.504873,1.6862353,0.90777767,1.8498772,-0.7242703,1.4774415,1.0691863,-0.43639973,1.6490039,0.9274461,1.7947555,-0.7847227,1.5046066,0.8958095,-0.9382361,0.539982,-0.33273274,0.42490938,0.30924425,-0.15043889,0.89588165,-0.9382248,0.5399704,-0.33273697,0.42495728,0.30927658,-0.1504898,1.5779362,-0.5031009,1.7229921,-3.1493757,0.14876764,-0.04766928,0.23963976,-0.34176517,1.04376,0.9440161,-0.056133438,0.3075045,0.10546854,-0.12619665,-0.22462505,0.051556952,1,0,0,0,0,0,0,-2.2279363,0.103100866,-1.172992,0.36667585,-0.07305145,-0.96844435,1.8708944,-0.31823516,-0.0014364719,0.10408461,0.38146973,-0.0667572,-0.9536743,1.8692017,-0.30517578,0,0.076293945
5.1158442,26.108986,7.061951,-9.319841,0.22532284,0.34643686,0.17840695,0.6949149,-0.7268334,0.42455345,-0.07374552,0.58787805,0.6279367,-0.3027992,1.1386778,-0.5090831,1.6914592,0.9200716,1.8535433,-0.721929,1.4743267,1.0736648,-0.4410887,1.6517037,0.92593837,1.7968764,-0.78317535,1.5038542,0.8957314,-0.93778014,0.54004544,-0.30159622,0.42419598,0.30942604,-0.15053643,0.8956909,-0.93779564,0.5399704,-0.30155182,0.42419434,0.30946732,-0.1504898,1.5621891,-0.502357,1.7225084,-3.1493757,0.14876764,-0.09671928,0.23907089,-0.34289408,1.0439582,0.9446705,-0.054944128,0.30449414,0.108913265,-0.113034576,-0.22785965,0.038012903,1,0,0,0,0,0,0,-2.2121892,0.102357,-1.1725085,-0.015616417,0.09119511,0.012683868,6.2273026,-0.1426816,0.036358833,-0.0195086,-0.038146973,0.08583069,0,6.23703,-0.15258789,0.038146973,0
7.470916,26.72218,6.8087316,-5.43259,-0.024778523,0.450333,0.26037675,0.68906814,-0.72899175,0.41862348,0.056442674,0.5754891,0.61643267,-0.25301456,1.1425716,-0.5139879,1.6935661,0.9315826,1.8544253,-0.7215321,1.4785527,1.0781375,-0.44577697,1.6544026,0.9246857,1.7989917,-0.7816285,1.5031074,0.89446616,-0.93763167,0.5397482,-0.2505475,0.4229711,0.30932432,-0.14943872,0.8945465,-0.9376526,0.53977966,-0.25053024,0.42304993,0.30937195,-0.1493454,1.546442,-0.50161314,1.7217796,-3.1493757,0.14876764,-0.14576928,0.23860407,-0.3440385,1.0440553,0.94526476,-0.053700313,0.30158058,0.11242747,-0.092845924,-0.23091944,0.017877951,1,0,0,0,0,0,0,-2.1964421,0.101613134,-1.1717796,-0.25304556,0.029695034,-0.059449673,10.209745,-0.24497509,-0.020343065,0.21954179,-0.22888184,0.02861023,-0.038146973,10.204315,-0.22888184,-0.019073486,0.22888184
7.416076,26.95504,6.8437424,-5.362988,-0.048556276,0.44361144,0.25499338,0.67842484,-0.7296824,0.42125836,0.086798154,0.5459699,0.60646313,-0.21628547,1.14598,-0.5187452,1.6965284,0.9333655,1.8535887,-0.7209822,1.4814789,1.082595,-0.45046523,1.6571025,0.92369294,1.8010936,-0.78008354,1.5023702,0.8915015,-0.93764883,0.53987634,-0.19851156,0.42032582,0.30896655,-0.14745066,0.89149475,-0.9376526,0.5399704,-0.198555,0.42037964,0.30899048,-0.14743805,1.530695,-0.5008693,1.7208055,-3.1493757,0.14876764,-0.19481929,0.2382369,-0.3451972,1.0440514,0.94579786,-0.05240229,0.29876825,0.11600764,-0.07247599,-0.23358548,-0.002336592,1,0,0,0,0,0,0,-2.180695,0.10086927,-1.1708055,-0.5929351,-0.0034332275,0.025629997,10.407188,-0.5290568,-0.071555376,0.39761364,-0.61035156,0,0.038146973,10.39505,-0.5340576,-0.076293945,0.38146973
5.3349905,26.048811,6.764678,-8.206161,0.12535244,0.39643627,0.18626769,0.67915946,-0.7333897,0.40799642,0.034403607,0.53121793,0.60069793,-0.18963434,1.1505109,-0.5238042,1.6979021,0.9271333,1.8542154,-0.72001374,1.4834068,1.0870391,-0.4551566,1.6597918,0.92288613,1.8031783,-0.77854097,1.5016454,0.8888007,-0.93828446,0.5378789,-0.1613932,0.41702536,0.30846983,-0.1448753,0.88882446,-0.9382725,0.5378723,-0.1613617,0.4169464,0.30851364,-0.1449585,1.5149479,-0.5001254,1.7195861,-3.1493757,0.14876764,-0.24386929,0.2379446,-0.34637475,1.0439689,0.94627994,-0.05105947,0.29603332,0.119629905,-0.0575288,-0.23703341,-0.017860778,1,0,0,0,0,0,0,-2.164948,0.1001254,-1.1695862,-0.54016113,-0.12712479,-0.39949417,7.423672,-0.66009164,-0.09934306,0.51507056,-0.5340576,-0.12397766,-0.4196167,7.4386597,-0.6866455,-0.09536743,0.49591064
5.2767434,26.29902,6.9209485,-8.475861,0.14687842,0.3726387,0.18279274,0.68204767,-0.73647827,0.40919778,0.061322574,0.5422117,0.6042371,-0.20383535,1.1552439,-0.5288044,1.7007116,0.9290184,1.8573995,-0.71811724,1.481262,1.0914737,-0.45985368,1.6624717,0.92225385,1.8052506,-0.7770008,1.5009321,0.8869529,-0.93942046,0.5360512,-0.12646367,0.41446316,0.30807662,-0.14274804,0.8869171,-0.9394169,0.53596497,-0.12645721,0.41446686,0.3080368,-0.14266968,1.4992008,-0.49938154,1.7181215,-3.1493757,0.14876764,-0.29291928,0.23772335,-0.34756875,1.0438126,0.9467128,-0.04967391,0.29336932,0.12329507,-0.043141916,-0.2402938,-0.03259749,1,0,0,0,0,0,0,-2.149201,0.099381536,-1.1681216,-0.36956072,-0.22720098,-0.36553144,6.9859056,-0.512439,-0.07864237,0.425452,-0.38146973,-0.22888184,-0.38146973,6.980896,-0.49591064,-0.09536743,0.45776367
4.6533556,25.966732,6.822064,-9.185702,0.19337206,0.37158322,0.1654233,0.6812397,-0.7386937,0.39588445,0.0647581,0.5473054,0.59954035,-0.17348228,1.1595976,-0.53372306,1.7020601,0.92872965,1.8599812,-0.71704674,1.4835839,1.0959007,-0.46455792,1.6651334,0.9217756,1.8073125,-0.775463,1.5002321,0.88531107,-0.940837,0.5323302,-0.09566461,0.41239765,0.30758965,-0.140005,0.88539124,-0.9408474,0.532341,-0.095653534,0.41236877,0.30755997,-0.13999939,1.4834538,-0.49863768,1.7164117,-3.1493757,0.14876764,-0.34196928,0.23756647,-0.34878254,1.0435883,0.94709915,-0.048246175,0.29077032,0.1269963,-0.030246083,-0.24409313,-0.046190824,1,0,0,0,0,0,0,-2.1334538,0.09863767,-1.1664116,-0.328362,-0.2833128,-0.74419975,6.1598105,-0.4131019,-0.09739399,0.5486071,-0.30517578,-0.2861023,-0.7247925,6.160736,-0.4196167,-0.09536743,0.5340576
5.685314,27.279509,7.199508,-8.153786,0.11248956,0.3531435,0.1856306,0.6829132,-0.7360309,0.39829698,0.11864786,0.54824597,0.60646623,-0.174953,1.164192,-0.538161,1.7049631,0.93364036,1.8621371,-0.71481633,1.4827368,1.1003219,-0.4692662,1.6677798,0.9214728,1.8093648,-0.7739266,1.4995455,0.8841812,-0.9416779,0.5292397,-0.060534045,0.4105541,0.3072939,-0.1374159,0.8842468,-0.941658,0.52928925,-0.06055832,0.41046143,0.30727386,-0.1373291,1.4677067,-0.4978938,1.7144566,-3.1493757,0.14876764,-0.39101928,0.23748493,-0.35000968,1.0432903,0.9474355,-0.0467758,0.28824416,0.13074125,-0.015183364,-0.24675412,-0.06089055,1,0,0,0,0,0,0,-2.1177068,0.097893804,-1.1644566,-0.22597313,-0.16818047,-0.61810017,7.0261135,-0.36870837,-0.05915165,0.5178213,-0.22888184,-0.16212463,-0.61035156,7.019043,-0.38146973,-0.05722046,0.5340576
7.5828257,28.355488,7.4341373,-5.697529,-0.029968724,0.3676191,0.25217244,0.67892563,-0.74267673,0.4169167,0.22055577,0.5526979,0.60813284,-0.17107703,1.1682144,-0.54353386,1.7094715,0.94352835,1.8646346,-0.7131133,1.4824377,1.1047345,-0.47398332,1.6704282,0.9214089,1.8114104,-0.7723912,1.4988712,0.88259804,-0.9434151,0.5296214,-0.012776341,0.40908143,0.30706045,-0.13486919,0.8825302,-0.9434223,0.5296707,-0.012779236,0.40912628,0.30708313,-0.13484955,1.4519596,-0.49714994,1.7122562,-3.1493757,0.14876764,-0.4400693,0.23750067,-0.35124445,1.042901,0.9477132,-0.04525692,0.28580844,0.13455428,0.004408412,-0.24799314,-0.07915354,1,0,0,0,0,0,0,-2.1019597,0.09714994,-1.1622562,-0.3166318,-0.34743547,0.07634163,9.55154,-0.29453635,-0.04668832,0.50934255,-0.34332275,-0.3528595,0.076293945,9.555817,-0.2670288,-0.038146973,0.49591064
7.7852883,29.420835,7.8417096,-5.7350335,-0.050364524,0.31742054,0.2501685,0.6735465,-0.7399691,0.4217674,0.2469271,0.5393931,0.6016051,-0.14215873,1.1720892,-0.54798025,1.7126049,0.9461016,1.8653498,-0.7122307,1.4846554,1.1091357,-0.4787064,1.6730841,0.92158294,1.8134456,-0.7708577,1.4982122,0.8802883,-0.94461143,0.53117234,0.03483053,0.4070786,0.30667883,-0.13175376,0.8802414,-0.9446144,0.5311966,0.034809113,0.4070282,0.30670166,-0.13179779,1.4362125,-0.49640608,1.7098106,-3.1493757,0.14876764,-0.4891193,0.23761463,-0.35247922,1.0424228,0.9479316,-0.04369369,0.2834646,0.13843486,0.024103925,-0.24798949,-0.096871905,1,0,0,0,0,0,0,-2.0862126,0.09640607,-1.1598105,-0.46194792,-0.23926497,0.31018257,9.521374,-0.40056705,-0.07632375,0.6230861,-0.45776367,-0.23841858,0.30517578,9.51767,-0.4196167,-0.076293945,0.61035156
6.5783153,29.073462,7.946135,-7.415868,0.061676458,0.2651995,0.21950448,0.6730875,-0.745787,0.42244843,0.2304992,0.5501268,0.6029953,-0.1331305,1.1764445,-0.5532851,1.7153289,0.9446328,1.8684583,-0.7105582,1.4848992,1.1135265,-0.483439,1.6757478,0.92195153,1.815474,-0.7693261,1.4975694,0.8781211,-0.94652766,0.5327843,0.0737549,0.40570784,0.3063384,-0.12854774,0.8781433,-0.94652176,0.5327225,0.073719025,0.40569305,0.3063202,-0.1285553,1.4204655,-0.4956622,1.7071198,-3.1493757,0.14876764,-0.53816926,0.23781013,-0.3537171,1.0418696,0.94809693,-0.042091034,0.28119463,0.14237328,0.0404264,-0.2482103,-0.11169702,1,0,0,0,0,0,0,-2.0704656,0.09566221,-1.1571198,-0.43344498,-0.38324594,0.3223896,7.784874,-0.27415156,-0.068086386,0.6412029,-0.4196167,-0.38146973,0.30517578,7.7819824,-0.2670288,-0.076293945,0.64849854
6.52561,30.031326,8.389495,-7.9366674,0.08147439,0.20561296,0.20909147,0.6754493,-0.7434846,0.42652172,0.24612582,0.56255484,0.6115887,-0.14111157,1.1810714,-0.5577875,1.7183999,0.94656414,1.8717295,-0.7081672,1.4834583,1.1179096,-0.48817852,1.6784219,0.9224975,1.8174996,-0.76779497,1.496941,0.87662524,-0.94792056,0.53486294,0.10921394,0.40510663,0.30622533,-0.12569441,0.87661743,-0.9479046,0.53482056,0.10919571,0.40512085,0.30622482,-0.12569427,1.4047184,-0.49491835,1.7041837,-3.1493757,0.14876764,-0.58721924,0.23808193,-0.35495234,1.0412498,0.9482108,-0.040453915,0.27899134,0.14636782,0.055892017,-0.24758744,-0.12506236,1,0,0,0,0,0,0,-2.0547185,0.09491834,-1.1541836,-0.29916763,-0.2785802,0.41573048,7.0918083,-0.12024045,-0.022614002,0.5706668,-0.30517578,-0.27656555,0.4196167,7.095337,-0.11444092,-0.019073486,0.5722046
6.579692,31.169699,8.946612,-8.493374,0.10494434,0.13002382,0.20275219,0.6830155,-0.7423301,0.4334431,0.25033617,0.56693405,0.61151516,-0.13233112,1.1862111,-0.56241155,1.7217661,0.9475311,1.8741931,-0.70664346,1.4837079,1.1222926,-0.49292305,1.6811112,0.9231999,1.8195233,-0.7662643,1.4963268,0.8766199,-0.9488859,0.53786975,0.1404516,0.40481892,0.30612743,-0.12279188,0.87661743,-0.94890594,0.5378723,0.14047623,0.40473938,0.30612946,-0.12283325,1.3889713,-0.49417448,1.7010024,-3.1493757,0.14876764,-0.6362692,0.23842716,-0.35617948,1.0405715,0.9482753,-0.03878871,0.2768465,0.15041713,0.070479244,-0.24582781,-0.13667957,1,0,0,0,0,0,0,-2.0389714,0.094174474,-1.1510024,-0.0010728836,-0.19307137,0.6013632,6.247531,-0.057542324,-0.019580126,0.580506,0,-0.2002716,0.61035156,6.2561035,-0.076293945,-0.019073486,0.5722046
6.0856857,30.79706,8.749292,-8.864999,0.11966779,0.14926274,0.18318641,0.6819482,-0.74292266,0.4161441,0.26375946,0.5724007,0.60950696,-0.11754071,1.1904875,-0.5672153,1.7227256,0.94957584,1.8767633,-0.7053136,1.4845728,1.1266757,-0.49767187,1.6838006,0.92404675,1.821548,-0.7647346,1.4957289,0.87663424,-0.9497728,0.537809,0.1693932,0.40484548,0.3059836,-0.11967377,0.87661743,-0.94976425,0.5378723,0.16937256,0.4049301,0.30593872,-0.11959076,1.3732243,-0.4934306,1.6975758,-3.1493757,0.14876764,-0.6853192,0.23884058,-0.3574028,1.0398368,0.94829166,-0.03709369,0.27475816,0.15451469,0.08419191,-0.24486992,-0.14795046,1,0,0,0,0,0,0,-2.0232244,0.09343061,-1.1475759,0.0028729439,-0.1773715,-0.012147427,5.7883205,0.005310774,-0.028765202,0.62362105,0,-0.17166138,0,5.7792664,0.038146973,-0.038146973,0.64849854
7.60088,32.807514,9.454854,-7.531807,0.02334819,0.09425386,0.21864605,0.6837108,-0.74082154,0.44131666,0.32677755,0.58340615,0.62092,-0.15205121,1.1950468,-0.57175404,1.7279322,0.9567245,1.8798887,-0.7026426,1.4805237,1.1310607,-0.5024227,1.686508,0.9250696,1.8235755,-0.763204,1.4951414,0.87693423,-0.95019305,0.54144114,0.20460175,0.4054498,0.30612272,-0.117547296,0.8769989,-0.9501636,0.5414963,0.20456314,0.40550232,0.30612946,-0.117492676,1.3574772,-0.49268675,1.6939039,-3.1493757,0.14876764,-0.73436916,0.23933697,-0.35860944,1.0390396,0.948255,-0.035371263,0.2727347,0.15867296,0.10061755,-0.24159001,-0.16035995,1,0,0,0,0,0,0,-2.0074773,0.09268674,-1.143904,0.059998035,-0.08405447,0.72642565,7.041711,0.1208663,0.027823448,0.42529553,0.076293945,-0.079870224,0.7247925,7.0381165,0.11444092,0.038146973,0.4196167
6.6107597,32.321037,9.51762,-8.784854,0.111194074,0.04682277,0.20193829,0.68434614,-0.7492874,0.44802257,0.31020677,0.5735602,0.6109497,-0.11971544,1.1994953,-0.57735145,1.7313104,0.9560903,1.8809315,-0.702109,1.4831698,1.1354476,-0.507182,1.6892384,0.92623687,1.825603,-0.7616738,1.4945673,0.87733746,-0.95187634,0.54615897,0.23348425,0.4055495,0.3060255,-0.11479492,0.8773804,-0.95186234,0.5460739,0.23345947,0.40550232,0.3060341,-0.11482239,1.3417301,-0.49194288,1.6899868,-3.1493757,0.14876764,-0.78341913,0.23990059,-0.35980225,1.0381906,0.9481691,-0.033625744,0.27076226,0.16288736,0.11434821,-0.23854832,-0.17070794,1,0,0,0,0,0,0,-1.9917301,0.09194288,-1.1399868,0.080645084,-0.33665895,0.94356537,5.7765007,0.019937754,-0.019443035,0.5504757,0.076293945,-0.33974648,0.91552734,5.7792664,0,-0.019073486,0.5340576
5.629334,32.175777,9.535516,-9.957699,0.16905476,0.022230644,0.16794081,0.6836819,-0.74690646,0.43752503,0.29928565,0.5823868,0.6142579,-0.10954753,1.2038158,-0.58187264,1.732991,0.95616543,1.8838416,-0.700248,1.4836125,1.1398355,-0.5119475,1.6919822,0.92751765,1.8276334,-0.76014364,1.4940075,0.8775853,-0.9531234,0.54871875,0.25616285,0.4060509,0.3059988,-0.11190244,0.8775711,-0.9531021,0.5487442,0.25615692,0.40607452,0.3060341,-0.111961365,1.325983,-0.49119902,1.6858245,-3.1493757,0.14876764,-0.8324691,0.24052191,-0.36098385,1.0372987,0.94803834,-0.03185911,0.2688317,0.1671458,0.12575445,-0.2361384,-0.17926615,1,0,0,0,0,0,0,-1.975983,0.09119901,-1.1358244,0.049567223,-0.24940968,0.5119562,4.53572,0.100278854,-0.005340576,0.57849586,0.038146973,-0.24795532,0.5340576,4.5394897,0.11444092,0,0.5722046
6.9308367,33.8858,10.1109705,-8.815931,0.08113572,-0.018692704,0.19197965,0.68814546,-0.7449535,0.45513904,0.3524087,0.58967304,0.62146205,-0.15332258,1.20865,-0.5864429,1.737496,0.96275854,1.8866007,-0.69799745,1.4786752,1.1442281,-0.51671684,1.6947497,0.9289367,1.8296676,-0.758613,1.4934562,0.8785082,-0.95383984,0.55355453,0.28380603,0.40691704,0.30615216,-0.11021834,0.8785248,-0.95386505,0.5535126,0.28381348,0.40683746,0.30612946,-0.11024475,1.310236,-0.49045515,1.6814169,-3.1493757,0.14876764,-0.8815191,0.24121046,-0.36214495,1.0363588,0.94785833,-0.030073842,0.2669502,0.17145742,0.13945739,-0.23186778,-0.18878195,1,0,0,0,0,0,0,-1.960236,0.090455145,-1.1314168,0.18458366,-0.14328957,0.9671569,5.528635,0.17322898,0.03067255,0.3368199,0.19073486,-0.15258789,0.9536743,5.531311,0.15258789,0.019073486,0.34332275
4.820977,32.620407,9.900839,-11.105295,0.22386329,-0.05369456,0.14334837,0.6835234,-0.7504018,0.44709346,0.30177507,0.5840088,0.6142384,-0.10265096,1.2125804,-0.591757,1.739459,0.95911425,1.8880684,-0.69718915,1.4831911,1.1486217,-0.5214933,1.6975335,0.93043876,1.8317046,-0.75708234,1.4929193,0.8786586,-0.9552825,0.5567499,0.3003861,0.40746036,0.3061275,-0.10743896,0.8787155,-0.95529556,0.55675507,0.3004074,0.40740967,0.30612946,-0.10738373,1.2944889,-0.48971128,1.676764,-3.1493757,0.14876764,-0.93056905,0.24194574,-0.36329293,1.0353869,0.9476371,-0.028273059,0.2650983,0.17580512,0.14843985,-0.22919628,-0.19516405,1,0,0,0,0,0,0,-1.9444889,0.08971128,-1.126764,0.030076504,-0.28853416,0.6390691,3.316015,0.10866523,-0.0049352646,0.5558759,0.038146973,-0.2861023,0.64849854,3.3187866,0.11444092,0,0.5722046
4.483162,32.96924,10.078701,-11.7243,0.24883294,-0.08177915,0.12422487,0.69231516,-0.7475661,0.43978164,0.29521838,0.59314126,0.6195663,-0.10200453,1.2178532,-0.59624994,1.7415117,0.9599606,1.8910187,-0.6951257,1.4827188,1.1530219,-0.5262741,1.7003239,0.9320009,1.8337464,-0.7555512,1.4923958,0.88011307,-0.95616955,0.55815965,0.31241888,0.408407,0.30622792,-0.10473187,0.88005066,-0.95615387,0.5580902,0.3124237,0.40836334,0.30622482,-0.10471344,1.2787418,-0.48896742,1.6718659,-3.1493757,0.14876764,-0.979619,0.24271965,-0.364429,1.0343893,0.947377,-0.026459206,0.2632703,0.18018162,0.15628855,-0.22672933,-0.20026559,1,0,0,0,0,0,0,-1.9287418,0.08896741,-1.121866,0.2908945,-0.17740726,0.2819538,2.4065554,0.1893282,0.020086765,0.5414173,0.2670288,-0.17166138,0.2670288,2.4032593,0.19073486,0.019073486,0.5340576
6.0672903,34.38394,10.393991,-9.953844,0.12129387,-0.07386526,0.15356775,0.69359726,-0.7453287,0.44829088,0.35999942,0.5974595,0.6299383,-0.14527962,1.2223817,-0.60080695,1.7451531,0.9680008,1.8934923,-0.6925574,1.4778678,1.1574308,-0.53105676,1.7031268,0.93366504,1.835794,-0.7540182,1.4918798,0.8817513,-0.9565137,0.56053907,0.33285514,0.4095296,0.30658177,-0.1032285,0.8817673,-0.95653534,0.56056976,0.33283234,0.40950775,0.3066063,-0.10318756,1.2629948,-0.48822355,1.6667225,-3.1493757,0.14876764,-1.028669,0.24354982,-0.365546,1.0333548,0.94707185,-0.024629975,0.2614803,0.18459786,0.16756791,-0.22274497,-0.20765115,1,0,0,0,0,0,0,-1.9129947,0.08822355,-1.1167226,0.32764673,-0.068831444,0.47588348,4.0872517,0.22451878,0.070768595,0.30067414,0.34332275,-0.076293945,0.49591064,4.081726,0.22888184,0.076293945,0.30517578
5.4454165,35.186512,10.906637,-10.868924,0.15402028,-0.16849807,0.1385506,0.6827488,-0.74426883,0.470228,0.34883928,0.58463806,0.6174757,-0.13434228,1.2257056,-0.60548365,1.7501496,0.96854895,1.8942578,-0.69227064,1.4784456,1.1618377,-0.53583944,1.7059582,0.935415,1.8378434,-0.75248516,1.4913715,0.8814639,-0.95657796,0.5663037,0.34996894,0.40994442,0.3066248,-0.10159244,0.8813858,-0.95653534,0.5662918,0.34999847,0.40988922,0.3066063,-0.10166168,1.2472477,-0.4874797,1.6613339,-3.1493757,0.14876764,-1.077719,0.24442625,-0.3666377,1.0322921,0.9467236,-0.022793377,0.25972098,0.18904972,0.17694506,-0.21772806,-0.21323107,1,0,0,0,0,0,0,-1.8972477,0.08747968,-1.1113338,-0.05748272,-0.012850761,1.1529207,3.422761,0.082963705,0.008606911,0.3272131,-0.076293945,0,1.1444092,3.4332275,0.076293945,0,0.30517578
