Afshin1997/kuka_rl_ros2/src/catch_and_throw/input_files/idealpd/ft_idealpd2.csv
torque0,torque1,torque2,torque3,torque4,torque5,torque6,action0,action1,action2,action3,action4,action5,action6,set_target_0,set_target_1,set_target_2,set_target_3,set_target_4,set_target_5,set_target_6,joint_pos_0,joint_pos_1,joint_pos_2,joint_pos_3,joint_pos_4,joint_pos_5,joint_pos_6,joint_vel_0,joint_vel_1,joint_vel_2,joint_vel_3,joint_vel_4,joint_vel_5,joint_vel_6,tennisball_pos_0,tennisball_pos_1,tennisball_pos_2,tennisball_lin_vel_0,tennisball_lin_vel_1,tennisball_lin_vel_2,end_effector_pos_0,end_effector_pos_1,end_effector_pos_2,end_effector_rot_0,end_effector_rot_1,end_effector_rot_2,end_effector_rot_3,end_effector_lin_vel_0,end_effector_lin_vel_1,end_effector_lin_vel_2,obs_task_0,obs_task_1,obs_task_2,obs_task_3,obs_task_4,obs_task_5,obs_task_6,to_final_target_0,to_final_target_1,to_final_target_2,joint_acc_0,joint_acc_1,joint_acc_2,joint_acc_3,joint_acc_4,joint_acc_5,joint_acc_6
0,0,0,0,0,0,0,0,0,0,0,0,0,0,0.7853982,0,1.3264502,1.2217305,1.6057029,-0.9075712,1.5707964,0.7853982,0,1.3264502,1.2217305,1.6057029,-0.9075712,1.5707964,0,0,0,0,0,0,0,3.0116863,-0.44871545,0.42810175,-3.0279498,-0.00026048522,5.3680773,0.33081388,-0.32899427,0.9088952,0.7746776,-0.054232508,0.61539066,-0.1350104,0,0,0,1,0,0,0,0,0,0,-3.6616864,0.048715442,0.12189826,0,0,0,0,0,0,0
0,0,0,0,0,0,0,0,0,0,0,0,0,0,0.7853982,0,1.3264502,1.2217305,1.6057029,-0.9075712,1.5707964,0.7853982,0,1.3264502,1.2217305,1.6057029,-0.9075712,1.5707964,0,0,0,0,0,0,0,3.0116863,-0.44871545,0.42810175,-3.0279498,-0.00026048522,5.3680773,0.33081388,-0.32899427,0.9088952,0.7746776,-0.054232508,0.61539066,-0.1350104,0,0,0,1,0,0,0,0,0,0,-3.6616864,0.048715442,0.12189826,0,0,0,0,0,0,0
0,0,0,0,0,0,0,0,0,0,0,0,0,0,0.7853982,0,1.3264502,1.2217305,1.6057029,-0.9075712,1.5707964,0.7853982,0,1.3264502,1.2217305,1.6057029,-0.9075712,1.5707964,0,0,0,0,0,0,0,3.0116863,-0.44871545,0.42810175,-3.0279498,-0.00026048522,5.3680773,0.33081388,-0.32899427,0.9088952,0.7746776,-0.054232508,0.61539066,-0.1350104,0,0,0,1,0,0,0,0,0,0,-3.6616864,0.048715442,0.12189826,0,0,0,0,0,0,0
-13.547169,-23.359915,-12.704536,-56.004295,5.2535434,1.1674716,-0.33780402,-0.5848848,-0.23405075,0.65073,-0.59455174,0.06460488,-0.6901882,0.20079598,0.7269097,-0.023405075,1.3915232,1.1622753,1.6121633,-0.97659004,1.590876,0.78284425,-0.001068979,1.3293399,1.2191517,1.6061988,-0.9080223,1.5706133,-0.33902103,-0.14242788,0.38364854,-0.3435628,0.066204496,-0.06014468,-0.024233976,2.9814072,-0.44871783,0.48103565,-3.0279498,-0.00026048522,5.2684956,0.33026218,-0.3288617,0.91009974,0.77541816,-0.054922216,0.6143567,-0.13518897,-0.073519655,0.017601764,0.16048124,1,0,0,0,0,0,0,-3.6314073,0.048717827,0.06896436,-33.42587,-14.211994,37.864197,-34.321003,6.641648,-5.9867043,-2.411503
-10.290832,-43.462185,-10.237311,-47.979855,5.9732766,0.26836953,0.6224007,-0.091183454,-0.5271083,0.6305829,-0.48899907,0.12922896,-0.65505004,0.3058406,0.7737259,-0.05377981,1.3923981,1.1702518,1.6191217,-0.9735273,1.6011974,0.77911156,-0.0049610767,1.3360537,1.2134316,1.6072421,-0.90910184,1.5706037,-0.37926623,-0.47127283,0.7621758,-0.6476522,0.1168542,-0.12310552,0.0068348106,2.951128,-0.44872022,0.53297377,-3.0279498,-0.00026048522,5.168914,0.32913303,-0.32842302,0.9127748,0.7775798,-0.05656859,0.61167204,-0.13426459,-0.1264543,0.05281565,0.3030825,1,0,0,0,0,0,0,-3.601128,0.04872021,0.017026246,-2.3637354,-32.82529,36.308624,-30.255688,4.9685793,-6.0424953,3.143047
-17.819414,-55.269558,-18.136383,-39.16326,4.302801,1.0952436,0.24089731,0.093625344,-0.5857411,0.34072453,-0.5164244,-0.41548586,-0.6284118,0.3308539,0.7884741,-0.06353518,1.3701261,1.1617892,1.5656935,-0.971943,1.6036891,0.7765729,-0.012133564,1.3443736,1.2052128,1.6070514,-0.9107536,1.570949,-0.20261653,-0.7988998,0.84606266,-0.8795506,-0.06475026,-0.17898853,0.044260133,2.9208488,-0.4487226,0.583916,-3.0279498,-0.00026048522,5.069332,0.32732487,-0.3279674,0.9164539,0.7807006,-0.05903823,0.60787,-0.13234414,-0.20076717,0.043568477,0.38981897,1,0,0,0,0,0,0,-3.570849,0.048722595,-0.033915997,20.520582,-32.66034,5.6191087,-23.128628,-18.292492,-5.527997,3.90478
-22.339611,-52.55893,-22.110193,-30.968235,3.0553794,1.8345745,0.061906856,-0.13827403,-0.6006203,0.46751586,-0.53104675,-0.4051196,-0.61308473,0.2608401,0.7627455,-0.0721956,1.3911252,1.1521082,1.5665394,-0.9720621,1.597033,0.7750451,-0.021910287,1.353094,1.1954281,1.6049647,-0.9128984,1.5716013,-0.12506472,-1.0368819,0.8694265,-1.0116723,-0.2567103,-0.22693534,0.07288373,2.8905697,-0.448725,0.6338625,-3.0279498,-0.00026048522,4.9697504,0.3246975,-0.32786536,0.920645,0.78421193,-0.061903685,0.60353696,-0.13008735,-0.2868369,-0.00066784053,0.42944607,1,0,0,0,0,0,0,-3.5405698,0.04872498,-0.08386248,11.070815,-23.683823,-1.0241032,-13.254309,-19.240612,-4.975596,3.0848272
-16.404068,-29.66135,-15.74843,-19.636044,1.5832957,1.6836131,0.12130998,-0.26253933,-0.55195487,0.5452483,-0.43045846,-0.2960409,-0.6177067,0.32365975,0.74879116,-0.077105775,1.4076188,1.1523823,1.5753607,-0.9746691,1.6039672,0.77334946,-0.03298074,1.3620337,1.1854489,1.6015506,-0.9154695,1.5725435,-0.176631,-1.1302643,0.89381534,-0.99339586,-0.36944196,-0.26788923,0.10175525,2.8602905,-0.44872737,0.6828131,-3.0279498,-0.00026048522,4.8701687,0.3214326,-0.328238,0.9247832,0.7876923,-0.064662464,0.5991889,-0.12779738,-0.3443507,-0.049783044,0.4089233,1,0,0,0,0,0,0,-3.5102906,0.048727363,-0.1328131,-2.8070836,-9.287715,-0.054895878,1.7934918,-11.212063,-4.331651,3.0008838
-22.178802,-30.922863,-20.958,-16.497622,0.95384365,2.467609,-0.045116078,-0.4103713,-0.6015788,0.5394958,-0.44259578,-0.41444924,-0.6052833,0.3589504,0.7323123,-0.09313862,1.4159833,1.1411893,1.5601057,-0.97599787,1.6084385,0.7701823,-0.044534028,1.3710784,1.1760094,1.5970607,-0.9183868,1.5737623,-0.3554226,-1.1635228,0.8989831,-0.92748183,-0.4746754,-0.30039418,0.12872775,2.8300114,-0.44872975,0.73076797,-3.0279498,-0.00026048522,4.770587,0.3174653,-0.32932067,0.928563,0.7908391,-0.06687933,0.5951768,-0.12595735,-0.41908458,-0.12838298,0.36789155,1,0,0,0,0,0,0,-3.4800115,0.048729748,-0.18076795,-15.476686,-3.276515,-2.1351457,6.5992,-10.285801,-3.4551382,2.6996717
-24.730936,-33.766983,-23.134052,-14.9155855,1.0095658,2.7380185,0.07297525,-0.50819254,-0.65995556,0.5732137,-0.40920037,-0.36930126,-0.61387014,0.42167684,0.71936303,-0.11052959,1.4283998,1.1350894,1.5601306,-0.9797738,1.61593,0.76481694,-0.056354403,1.3802699,1.1674359,1.5919356,-0.92158735,1.5752672,-0.58860767,-1.1880726,0.91649413,-0.8337408,-0.52416897,-0.32709134,0.1573576,2.7997322,-0.44873214,0.77772695,-3.0279498,-0.00026048522,4.6710052,0.31268883,-0.33126307,0.93189037,0.7936488,-0.06825622,0.59153533,-0.124694295,-0.50212395,-0.21648541,0.3210273,1,0,0,0,0,0,0,-3.4497323,0.04873213,-0.22772694,-20.83372,-2.4139643,-1.0020852,9.397054,-4.664099,-2.801323,2.810979
-21.878868,-28.520184,-20.117771,-13.111667,1.0255567,2.4593544,0.23819995,-0.5991779,-0.66731495,0.6044388,-0.32811895,-0.29923585,-0.6157613,0.45182785,0.70489913,-0.1230859,1.4407138,1.134624,1.5620121,-0.9831635,1.62045,0.75707215,-0.06832945,1.3897628,1.1600392,1.5867496,-0.9250177,1.5770506,-0.82874846,-1.2006128,0.95168614,-0.708282,-0.5159997,-0.34860578,0.18498679,2.769453,-0.44873452,0.8236902,-3.0279498,-0.00026048522,4.5714235,0.30715656,-0.3340206,0.9346981,0.796221,-0.068664886,0.58820486,-0.12382307,-0.575062,-0.29496157,0.26747838,1,0,0,0,0,0,0,-3.4194531,0.048734516,-0.27369016,-21.694136,-1.2416363,0.95449686,12.563229,1.0517001,-2.2263527,2.6986778
-16.282959,-16.142931,-13.450691,-23.89783,1.8642985,1.7975615,0.049378633,-0.6193547,-0.66841906,0.59199023,-0.43977895,-0.2827264,-0.6557017,0.4570831,0.69513667,-0.13517135,1.4489617,1.1160613,1.5584769,-0.9905879,1.6227589,0.7474658,-0.080363154,1.3994521,1.1531346,1.5818248,-0.92867696,1.5790895,-0.9930437,-1.2041409,0.9620281,-0.68504286,-0.48400047,-0.37281463,0.21055801,2.739174,-0.4487369,0.8686575,-3.0279498,-0.00026048522,4.471842,0.30094814,-0.3372805,0.937325,0.79873633,-0.06843604,0.58491766,-0.12332049,-0.64101154,-0.33485055,0.26136094,1,0,0,0,0,0,0,-3.389174,0.0487369,-0.31865752,-12.962521,-0.30462742,-2.7194023,2.1300673,3.3780873,-2.758205,2.6387362
-11.169215,-6.661951,-7.5649714,-29.099976,2.3323743,1.2113857,0.0037781298,-0.64763075,-0.67574036,0.5984604,-0.45389757,-0.23651442,-0.657494,0.4592392,0.6827027,-0.1479372,1.4592981,1.1077448,1.5581733,-0.99442637,1.6250135,0.73671883,-0.09242523,1.4091834,1.1460812,1.5773673,-0.9325651,1.5813631,-1.08965,-1.2066729,0.96359277,-0.7132794,-0.43242413,-0.39596835,0.2336109,2.7088947,-0.4487393,0.9126291,-3.0279498,-0.00026048522,4.37226,0.29416704,-0.34073544,0.94007045,0.80135506,-0.06791598,0.5814303,-0.12311061,-0.69550294,-0.3465498,0.27935746,1,0,0,0,0,0,0,-3.3588948,0.048739284,-0.36262912,-5.987048,-0.18880367,-3.823638,-3.1627893,5.274749,-2.8482199,2.5031657
-5.9790435,3.1372664,-1.828357,-31.492208,2.3481574,0.6651598,-0.100024804,-0.6490602,-0.66996264,0.5911466,-0.4717003,-0.28339046,-0.6690545,0.4566311,0.67181283,-0.1594215,1.4682981,1.0989112,1.5490283,-0.99947053,1.6270262,0.725475,-0.104470015,1.4188575,1.1385262,1.5732284,-0.9366764,1.5838426,-1.1245474,-1.2035451,0.95634526,-0.77086055,-0.4075293,-0.4185132,0.25351,2.6786156,-0.44874167,0.95560485,-3.0279498,-0.00026048522,4.2726784,0.2869668,-0.34414458,0.94306546,0.80409527,-0.06740558,0.5776869,-0.123146,-0.733701,-0.33615673,0.30645603,1,0,0,0,0,0,0,-3.3286157,0.04874167,-0.40560484,-0.07061958,0.37703514,-4.4427276,-6.1960936,2.546811,-2.9296756,2.2545843
-3.1198273,6.9942746,1.0518018,-28.975357,2.205826,0.38260633,-0.0016289279,-0.66727483,-0.6750441,0.6036017,-0.44348022,-0.23164639,-0.67573917,0.46053255,0.65874755,-0.17197442,1.4792176,1.0941782,1.5500637,-1.0042503,1.6298959,0.7140643,-0.11650109,1.4285411,1.1305668,1.5693927,-0.94099367,1.5864996,-1.1372962,-1.2028153,0.9622224,-0.8054991,-0.3756581,-0.4383749,0.27066067,2.6483364,-0.44874406,0.99758476,-3.0279498,-0.00026048522,4.1730967,0.27947998,-0.34739947,0.94626325,0.80696005,-0.06700085,0.57369995,-0.12326696,-0.7592971,-0.31870645,0.3242677,1,0,0,0,0,0,0,-3.2983365,0.048744053,-0.44758475,1.5079498,0.11589527,-2.4523258,-3.8918614,3.1818748,-2.6462615,1.9914985
-2.4865701,7.5727005,1.7700957,-27.036665,2.0480037,0.32581753,0.032603182,-0.6700734,-0.6805934,0.5953082,-0.4459484,-0.22768556,-0.67837435,0.4629429,0.64705694,-0.18456043,1.4880719,1.085972,1.5466242,-1.0088311,1.6327939,0.7026202,-0.12855609,1.4382838,1.1223843,1.5658183,-0.9454874,1.5893091,-1.1389943,-1.2062887,0.9697878,-0.8240182,-0.35144234,-0.45513183,0.28516182,2.6180573,-0.44874644,1.0385689,-3.0279498,-0.00026048522,4.073515,0.27177286,-0.35048532,0.94957864,0.809931,-0.06669879,0.56951,-0.123375125,-0.78034776,-0.30171996,0.33401087,1,0,0,0,0,0,0,-3.2680573,0.048746437,-0.48856884,2.1568775,-0.31728745,-1.7997146,-2.269268,2.3854911,-2.3115396,1.7243564
-2.4400215,7.324352,1.8907745,-25.109293,1.93808,0.33170158,0.0851735,-0.67291445,-0.6846072,0.5952992,-0.43949097,-0.19384284,-0.68067867,0.45775816,0.63532877,-0.1970168,1.4978137,1.0784352,1.546434,-1.0135553,1.6350849,0.6911723,-0.14066894,1.4481181,1.1141541,1.5625243,-0.95012605,1.5922407,-1.1402444,-1.2128663,0.98084897,-0.82414365,-0.32240096,-0.4688571,0.29660437,2.587778,-0.44874883,1.0785571,-3.0279498,-0.00026048522,3.9739332,0.26387167,-0.35341978,0.9529363,0.81300056,-0.06645856,0.56514066,-0.12340673,-0.7993086,-0.2870633,0.33624506,1,0,0,0,0,0,0,-3.2377782,0.04874882,-0.5285571,1.842618,-0.6392479,-1.0694146,-0.4093051,2.8472006,-1.9708574,1.4119089
-2.3284562,8.646836,2.4646683,-25.624237,1.8283184,0.31655747,-0.010580733,-0.6572318,-0.68505645,0.5849991,-0.46799994,-0.2525176,-0.6824073,0.45887724,0.6254491,-0.20917459,1.506618,1.0673541,1.5372726,-1.0183668,1.6381284,0.6797864,-0.15284331,1.4580077,1.1058438,1.5592875,-0.95488584,1.5952696,-1.1320403,-1.2189002,0.98502916,-0.83450806,-0.324235,-0.4804683,0.3060403,2.557499,-0.4487512,1.1175495,-3.0279498,-0.00026048522,3.8743515,0.25578737,-0.35620213,0.95632166,0.81611115,-0.06632023,0.56064904,-0.12343764,-0.81731606,-0.27151808,0.3389681,1,0,0,0,0,0,0,-3.207499,0.048751205,-0.5675495,2.6388884,-0.5861044,-1.597476,-1.4562368,-0.2479732,-1.7780304,1.2128174
-2.5250547,8.219117,2.3903158,-23.990948,1.915648,0.3519655,0.12261645,-0.6700445,-0.68813175,0.5965897,-0.43776968,-0.1139816,-0.67615503,0.4536748,0.61278194,-0.22165649,1.5176667,1.0620668,1.5478894,-1.0225013,1.640637,0.66841096,-0.16507776,1.4679812,1.0975869,1.5563884,-0.9597391,1.5983766,-1.1340554,-1.2249281,0.99571747,-0.82404786,-0.27868238,-0.488934,0.3133011,2.5272198,-0.4487536,1.1555462,-3.0279498,-0.00026048522,3.7747698,0.2475214,-0.35884356,0.95970696,0.8193172,-0.066212595,0.55597913,-0.12337869,-0.83563995,-0.25780421,0.33798143,1,0,0,0,0,0,0,-3.1772199,0.04875359,-0.6055462,1.3848782,-0.5951643,-0.70233345,0.65231323,4.4733105,-1.4147758,0.99980235
-3.0529323,7.9154344,2.1856296,-23.956064,1.8055376,0.40396878,0.054802157,-0.6487448,-0.6953402,0.57796365,-0.45068178,-0.17401525,-0.6822155,0.45423496,0.6035365,-0.23461178,1.5257776,1.0525187,1.5389868,-1.0279607,1.6438001,0.6570918,-0.17739017,1.47797,1.0893948,1.5537543,-0.9646696,1.6015486,-1.1265439,-1.2333227,0.9945611,-0.8189415,-0.2587807,-0.49625102,0.31920373,2.4969406,-0.44875598,1.1925471,-3.0279498,-0.00026048522,3.675188,0.2390647,-0.36136532,0.96307135,0.82259613,-0.06612804,0.55115265,-0.12326151,-0.8550391,-0.24632463,0.3354227,1,0,0,0,0,0,0,-3.1469407,0.048755974,-0.6425471,2.1778107,-0.8332491,-1.715517,0.10826588,1.9063354,-1.2941718,0.85888505
-4.04617,7.168571,1.7348417,-24.209667,1.9197254,0.4801761,0.079221524,-0.66083926,-0.6979074,0.5784982,-0.44810653,-0.09240421,-0.68651265,0.44996408,0.5910079,-0.24718091,1.5358198,1.0445842,1.544514,-1.0333209,1.6465449,0.64578503,-0.1897827,1.4879302,1.0812523,1.5514922,-0.9696659,1.6047682,-1.1275108,-1.2412188,0.9913461,-0.8141936,-0.21570341,-0.5025472,0.3237198,2.4666615,-0.44875836,1.2285521,-3.0279498,-0.00026048522,3.5756063,0.23038101,-0.36378288,0.96642566,0.8259673,-0.0660385,0.5461332,-0.12310736,-0.8789114,-0.23618788,0.33483058,1,0,0,0,0,0,0,-3.1166615,0.048758358,-0.6785521,1.2766123,-0.78332424,-1.8688917,0.06253719,4.223138,-1.1780679,0.73348284
-3.3594763,9.737306,2.9180987,-24.585125,1.900148,0.40934306,0.042031437,-0.64865094,-0.6954725,0.57622725,-0.45475075,-0.084922306,-0.6807437,0.44585901,0.5809199,-0.25932994,1.5455528,1.0357772,1.543,-1.0377402,1.6493541,0.6345059,-0.20222266,1.4978484,1.073108,1.5496249,-0.9747127,1.6080221,-1.1238215,-1.2449152,0.9873484,-0.8159686,-0.17722625,-0.50717014,0.3269527,2.4363823,-0.44876075,1.2635612,-3.0279498,-0.00026048522,3.4760246,0.22147512,-0.36607552,0.96978873,0.8294293,-0.06596794,0.54090744,-0.1229404,-0.90031004,-0.22256036,0.33608666,1,0,0,0,0,0,0,-3.0863824,0.048760742,-0.71356124,1.6445398,-0.36838055,-1.8317819,-0.59969425,3.7477522,-1.0092378,0.60831904
-2.3230836,12.429752,4.3417587,-24.685867,1.9037795,0.30503926,0.032700956,-0.63196945,-0.69668376,0.5756657,-0.45991248,-0.057387374,-0.68515545,0.44046628,0.571309,-0.27189103,1.5554149,1.0271167,1.5438862,-1.0432283,1.6520687,0.6233317,-0.21468456,1.5077399,1.0649083,1.5481467,-0.97980154,1.6113008,-1.1113558,-1.2466301,0.9854835,-0.8227219,-0.1384027,-0.5112028,0.3290334,2.4061031,-0.44876313,1.2975746,-3.0279498,-0.00026048522,3.376443,0.21238422,-0.36819983,0.97317946,0.8329808,-0.065969,0.535465,-0.1227524,-0.9178764,-0.20463254,0.33915246,1,0,0,0,0,0,0,-3.0561032,0.048763126,-0.7475746,2.402091,-0.17666817,-1.4719129,-1.099205,3.7583768,-0.9393215,0.4978478
-2.8151631,10.774019,3.8312328,-23.196285,2.074461,0.3635821,0.18844299,-0.63685936,-0.7066192,0.57605886,-0.4302792,0.11230936,-0.68049884,0.42676276,0.5596458,-0.28534648,1.5653458,1.0218804,1.5593777,-1.0478514,1.6539772,0.61224526,-0.22719796,1.5176333,1.056781,1.5474811,-0.98491895,1.6145853,-1.1043693,-1.2529598,0.98690695,-0.8105906,-0.04292209,-0.5134605,0.32939076,2.375824,-0.44876552,1.3305923,-3.0279498,-0.00026048522,3.2768612,0.20310068,-0.37016344,0.97658575,0.83671945,-0.06597532,0.5296862,-0.12239345,-0.93802977,-0.18908538,0.33999592,1,0,0,0,0,0,0,-3.025824,0.04876551,-0.78059226,1.7100811,-0.64468384,-0.98723173,0.81886053,9.408772,-0.701952,0.337404
-5.3870955,7.7829943,1.649122,-23.635635,1.695774,0.62588805,-0.050862074,-0.61348397,-0.7093279,0.50995415,-0.46175712,-0.07109347,-0.6905947,0.4214723,0.5508969,-0.29813075,1.5686288,1.0106053,1.5403717,-1.0539784,1.6567326,0.60130566,-0.23978122,1.5272425,1.0486424,1.5471416,-0.9900621,1.6178659,-1.0873762,-1.2601539,0.94880146,-0.8163823,-0.031347062,-0.5161444,0.32852823,2.3455448,-0.4487679,1.362614,-3.0279498,-0.00026048522,3.1772795,0.19355822,-0.37205482,0.97995764,0.8405061,-0.065973684,0.5237253,-0.12210093,-0.96537393,-0.18448183,0.33494273,1,0,0,0,0,0,0,-2.995545,0.048767895,-0.812614,2.6186466,-0.7249594,-4.856169,-0.99174976,1.056344,-0.7450819,0.18128157
-4.6655693,9.049077,2.495018,-22.087755,1.9331653,0.5423984,0.15929244,-0.64277685,-0.70853454,0.5479865,-0.41458437,0.18954502,-0.68224627,0.41049498,0.53702796,-0.31063467,1.5820411,1.0071839,1.5660961,-1.0582868,1.6589154,0.59037274,-0.25241992,1.5366515,1.0406487,1.5475268,-0.9952196,1.6211294,-1.0923533,-1.2651913,0.93513334,-0.79489833,0.061436404,-0.51706606,0.32668728,2.3152657,-0.44877028,1.3936399,-3.0279498,-0.00026048522,3.0776978,0.1837554,-0.3738737,0.9832734,0.8444154,-0.06589301,0.5174904,-0.12175488,-0.99122185,-0.17625453,0.32889113,1,0,0,0,0,0,0,-2.9652658,0.04877028,-0.8436399,0.36365986,-0.5233526,-2.340424,1.7686367,9.147914,-0.5160451,0.10211468
-5.096058,8.195862,2.0145512,-21.63276,1.6770847,0.60979044,0.044822298,-0.6018407,-0.72162247,0.49989706,-0.43010232,0.07465406,-0.68865085,0.4087109,0.5301887,-0.32458216,1.5866412,0.99763846,1.5549922,-1.0640846,1.6620005,0.5795371,-0.26515242,1.545782,1.0328,1.5484271,-1.0003875,1.6243738,-1.0782362,-1.2759857,0.90292555,-0.7826506,0.0991082,-0.5180643,0.3244837,2.2849865,-0.44877267,1.42367,-3.0279498,-0.00026048522,2.978116,0.1736927,-0.3756454,0.9864941,0.8483971,-0.06574275,0.51104116,-0.1213967,-1.0169386,-0.17248067,0.3180374,1,0,0,0,0,0,0,-2.9349866,0.048772663,-0.87367004,2.13871,-1.1011362,-4.0384293,0.8514166,3.6372094,-0.50308704,0.042247772
-1.4652982,16.526878,5.953123,-21.52748,1.5991353,0.27691132,0.028483748,-0.5812971,-0.7073014,0.51592684,-0.4323114,0.110859975,-0.6847771,0.39992863,0.52140737,-0.33588257,1.5973747,0.9895688,1.5595131,-1.0688653,1.6643666,0.5689332,-0.27791163,1.5547255,1.0250275,1.5496573,-1.0055603,1.6275896,-1.0523659,-1.2760628,0.8891471,-0.77676237,0.13052799,-0.51846033,0.3215207,2.2547073,-0.44877505,1.4527043,-3.0279498,-0.00026048522,2.8785343,0.1634841,-0.37728906,0.98963517,0.8524065,-0.06564197,0.5044282,-0.121022195,-1.0280423,-0.1565533,0.310887,1,0,0,0,0,0,0,-2.9047074,0.048775047,-0.9027043,3.2295465,-0.0467062,-2.056396,0.22494793,2.9691205,-0.44115782,-0.046253204
-0.83989525,16.547838,5.8457513,-18.8738,1.4845886,0.29384983,0.131435,-0.5817002,-0.7148419,0.5042679,-0.3816091,0.19777559,-0.68058765,0.38252023,0.51076317,-0.3493958,1.6051524,0.9868666,1.5694349,-1.073619,1.6658416,0.5585534,-0.29068324,1.5635566,1.0175145,1.5513549,-1.0107311,1.6307653,-1.0315417,-1.2776889,0.8793361,-0.7437205,0.1822126,-0.51780504,0.3168803,2.2244282,-0.44877744,1.4807428,-3.0279498,-0.00026048522,2.7789526,0.1531887,-0.37880158,0.99264294,0.8564601,-0.06556624,0.49764776,-0.12051524,-1.0354221,-0.1444552,0.29520866,1,0,0,0,0,0,0,-2.8744283,0.04877743,-0.9307428,2.5868893,-0.21350384,-1.509893,2.9940605,4.988307,-0.28783083,-0.2348721
-1.4509231,17.870747,6.1458945,-20.294497,1.2980639,0.30425385,-0.05069962,-0.5647317,-0.7135635,0.48524535,-0.41517,0.06523342,-0.68907046,0.38639042,0.5020802,-0.3620396,1.612081,0.97599745,1.5578783,-1.0796381,1.6694044,0.54840153,-0.3034577,1.5722483,1.010154,1.553102,-1.0159019,1.6338991,-1.008024,-1.2775502,0.8640852,-0.7345962,0.17173226,-0.5180704,0.31286457,2.194149,-0.44877982,1.5077854,-3.0279498,-0.00026048522,2.6793709,0.14281607,-0.38019252,0.99551064,0.8604585,-0.06556553,0.49082077,-0.12003057,-1.0433453,-0.13205451,0.28172567,1,0,0,0,0,0,0,-2.844149,0.048779815,-0.9577854,2.876854,-0.033903122,-2.0638585,0.57520866,-1.2177229,-0.39402246,-0.18802881
0.44041157,23.656855,9.008894,-20.991405,1.4975545,0.056918323,0.013788328,-0.5646494,-0.70228755,0.52448153,-0.4060073,0.18872096,-0.68598896,0.38567784,0.4919366,-0.37368646,1.6246965,0.9695533,1.5719742,-1.0845008,1.6724669,0.53842705,-0.31617543,1.5810031,1.0028584,1.5550151,-1.0210727,1.6369966,-0.99202174,-1.2700139,0.87733954,-0.7289023,0.19723807,-0.51803696,0.30952656,2.1638699,-0.4487822,1.5338323,-3.0279498,-0.00026048522,2.5797892,0.1324091,-0.38136983,0.99830896,0.8644357,-0.065724745,0.48388627,-0.11952081,-1.0449215,-0.10792502,0.27678683,1,0,0,0,0,0,0,-2.81387,0.0487822,-0.9838323,2.1537185,0.6975174,0.7902622,0.22414923,2.3479402,-0.36273003,-0.10217428
2.2223508,24.781322,9.857847,-18.634558,1.5192068,-0.025642663,0.16116154,-0.53333956,-0.71305925,0.5337362,-0.36630422,0.269948,-0.6874381,0.37201747,0.4850931,-0.38748136,1.6343766,0.966228,1.5820099,-1.0898166,1.6741984,0.52869385,-0.32886788,1.5899771,0.9957695,1.5574164,-1.0262417,1.6400541,-0.96575123,-1.2692016,0.9028677,-0.70323545,0.25360012,-0.5176955,0.30534634,2.1335907,-0.4487846,1.5588833,-3.0279498,-0.00026048522,2.4802074,0.12203407,-0.38230205,1.001032,0.86847746,-0.06605451,0.47673658,-0.1187681,-1.0401727,-0.08324955,0.26838094,1,0,0,0,0,0,0,-2.7835908,0.048784584,-1.0088832,3.0489326,0.01590252,2.1787047,2.2712588,5.409613,-0.28727055,-0.19338131
-0.7206335,21.91668,7.9287343,-19.889633,1.3739433,0.20140955,0.000032283366,-0.54265237,-0.70765996,0.5035657,-0.38598704,0.1731592,-0.69140524,0.37411553,0.47442862,-0.39963388,1.6403338,0.9571708,1.5747323,-1.0953822,1.6774657,0.5191352,-0.34154126,1.5990466,0.98882675,1.5600581,-1.0314106,1.6430753,-0.9510991,-1.2668895,0.9066417,-0.692436,0.2669761,-0.517797,0.301797,2.1033115,-0.44878697,1.5829386,-3.0279498,-0.00026048522,2.3806257,0.111632824,-0.38304234,1.0036616,0.87251294,-0.066525534,0.46945572,-0.11792717,-1.0451655,-0.06595853,0.25866827,1,0,0,0,0,0,0,-2.7533116,0.048786968,-1.0329385,1.9287586,0.17693043,-0.066530704,0.7550359,1.1503637,-0.33695698,-0.13818145
1.1722419,24.349224,8.761316,-17.04111,1.2311888,0.13548318,0.11438525,-0.53110725,-0.7026213,0.5269726,-0.3292075,0.2623757,-0.6875061,0.35852957,0.46602446,-0.4118034,1.6517439,0.955906,1.5862957,-1.1001612,1.6789283,0.5097081,-0.35417506,1.6082114,0.98220634,1.5629973,-1.0365776,1.6460527,-0.93871814,-1.2624501,0.9185393,-0.6528487,0.3022723,-0.5172494,0.29701152,2.0730324,-0.44878936,1.6059979,-3.0279498,-0.00026048522,2.281044,0.10124588,-0.38361597,1.0061407,0.87653273,-0.06709225,0.4620749,-0.11694332,-1.0415229,-0.049583886,0.24174543,1,0,0,0,0,0,0,-2.7230325,0.048789352,-1.0559978,1.597929,0.37589073,0.8624792,3.6872864,3.3331573,-0.24389029,-0.28615594
0.88935256,24.345665,8.762518,-17.287407,1.2463335,0.17104027,0.09100685,-0.5116465,-0.70587504,0.5255853,-0.33463582,0.2663245,-0.6819907,0.34818017,0.45854345,-0.42476258,1.6607699,0.94874275,1.5896298,-1.1047766,1.6808708,0.5004489,-0.36678454,1.617464,0.9759178,1.5662494,-1.041735,1.6489786,-0.9205015,-1.2606759,0.9265333,-0.62179923,0.33242738,-0.51601034,0.2916996,2.0427532,-0.44879174,1.6280615,-3.0279498,-0.00026048522,2.1814623,0.09088278,-0.38403177,1.0084662,0.8805414,-0.06775498,0.45458424,-0.11579771,-1.0393289,-0.03398552,0.2269426,1,0,0,0,0,0,0,-2.6927533,0.048791736,-1.0780616,2.1600246,0.11296272,0.50200224,2.8306007,2.8206944,-0.16120672,-0.33789873
1.1873908,23.018496,7.393595,-13.069241,0.93945706,0.28006616,0.22223209,-0.5463194,-0.70237076,0.5330246,-0.22901274,0.33228916,-0.6881912,0.33902127,0.44581693,-0.4370216,1.6707664,0.9530165,1.5994782,-1.1105542,1.6828808,0.49117154,-0.37937114,1.626808,0.9703531,1.5699401,-1.0468811,1.6518472,-0.9292927,-1.2582355,0.9362298,-0.5353369,0.38087794,-0.51517034,0.28571874,2.012474,-0.44879413,1.6491293,-3.0279498,-0.00026048522,2.0818806,0.08057165,-0.38436532,1.0105139,0.88453025,-0.06837921,0.44703844,-0.114398725,-1.0329015,-0.02820567,0.1947882,1,0,0,0,0,0,0,-2.6624742,0.04879412,-1.0991292,-0.61347485,0.16567707,0.7111311,8.43997,4.6750727,-0.17678738,-0.44101477
1.4831109,24.650255,7.735059,-12.57798,0.80565065,0.28757244,0.19449359,-0.54100084,-0.6959619,0.53199196,-0.20613533,0.32190478,-0.6798491,0.3374182,0.43707144,-0.44896734,1.6800072,0.9497396,1.6021305,-1.114866,1.6855891,0.48178595,-0.39190957,1.6362208,0.96567345,1.5740199,-1.0520138,1.6546587,-0.9407754,-1.2526418,0.9423138,-0.4461386,0.4165403,-0.5136088,0.28011808,1.9821949,-0.4487965,1.6692013,-3.0279498,-0.00026048522,1.9822989,0.07034397,-0.38464928,1.0122299,0.88846594,-0.068913035,0.43950748,-0.11274883,-1.0235587,-0.023473885,0.16141976,1,0,0,0,0,0,0,-2.632195,0.048796505,-1.1192012,-0.8966327,0.48089027,0.36016703,8.719254,3.4095466,-0.10256767,-0.41868687
1.6755924,21.509315,5.997995,-8.52014,0.6344121,0.4082823,0.37803346,-0.57564425,-0.7083477,0.54494774,-0.077523984,0.42477247,-0.68831885,0.35117307,0.42422152,-0.46274436,1.6907156,0.957921,1.6164972,-1.1208457,1.689776,0.4721257,-0.4044566,1.6457347,0.96230125,1.5786738,-1.0571369,1.65743,-0.9738102,-1.2556946,0.9535139,-0.30129865,0.4811919,-0.5127141,0.27650926,1.9519157,-0.4487989,1.6882774,-3.0279498,-0.00026048522,1.8827171,0.060223103,-0.38495946,1.0134944,0.8923713,-0.069219396,0.4320059,-0.11069324,-1.012205,-0.028540052,0.11242163,1,0,0,0,0,0,0,-2.6019158,0.04879889,-1.1382773,-3.1051993,-0.39420128,0.894022,14.343113,6.3213944,-0.13518333,-0.23566484
3.8421097,26.737814,7.945886,-8.263006,0.55505097,0.3149268,0.35923988,-0.55082256,-0.69246167,0.53153,-0.046812933,0.44551522,-0.68589175,0.3531882,0.41704345,-0.47370276,1.6988877,0.95761997,1.6232253,-1.1257261,1.6927489,0.4622771,-0.41697213,1.655281,0.96028996,1.5839553,-1.0622524,1.6601709,-0.9879846,-1.2504717,0.9545091,-0.16821583,0.5433126,-0.51179725,0.27368975,1.9216366,-0.44880128,1.7063577,-3.0279498,-0.00026048522,1.7831354,0.050276756,-0.38529778,1.0143028,0.8962474,-0.069300905,0.4245416,-0.10817757,-0.99229443,-0.03041041,0.068355344,1,0,0,0,0,0,0,-2.5716367,0.048801273,-1.1563578,-1.263535,0.4366398,-0.067949295,13.170422,6.0761333,-0.13588667,-0.17355084
6.541007,30.056713,8.184341,-4.086622,0.07564792,0.34946936,0.4165206,-0.56983846,-0.67866004,0.51321816,0.08819874,0.46405315,-0.6896987,0.3373418,0.40529326,-0.48483813,1.7066028,0.96910983,1.6303606,-1.1312222,1.6939051,0.45226592,-0.42936894,1.664728,0.9599018,1.5897937,-1.0673622,1.6628736,-1.0052311,-1.2364128,0.9411303,0.0040107463,0.59698254,-0.51140344,0.26931772,1.8913574,-0.44880366,1.7234422,-3.0279498,-0.00026048522,1.6835537,0.0406332,-0.38571596,1.014568,0.9000408,-0.06909225,0.41724643,-0.10515814,-0.95823205,-0.04039618,0.010874342,1,0,0,0,0,0,0,-2.5413575,0.048803657,-1.1734421,-1.650846,1.311183,-1.4443636,17.137691,5.2529097,-0.1888752,-0.37728548
8.43621,34.568073,10.122876,-4.463757,0.13488054,0.25867325,0.411806,-0.54838043,-0.66960186,0.5077895,0.13500965,0.53249604,-0.6914112,0.31806663,0.3974279,-0.49632913,1.715507,0.9734028,1.6430433,-1.1365033,1.6946803,0.44223136,-0.44159028,1.6740092,0.9610977,1.5962443,-1.0724701,1.6655191,-1.0026999,-1.2176465,0.9234841,0.15782036,0.66067374,-0.5113682,0.26333463,1.8610783,-0.44880605,1.7395309,-3.0279498,-0.00026048522,1.583972,0.031370163,-0.3862021,1.0143216,0.90375787,-0.06863286,0.41010845,-0.10159829,-0.9183974,-0.045959283,-0.037782665,1,0,0,0,0,0,0,-2.5110784,0.04880604,-1.1895308,0.30415058,1.7966986,-1.8450141,15.292375,6.2767386,-0.23245811,-0.5436957
9.456276,39.49149,11.881513,-5.604824,0.14239985,0.21354723,0.32996044,-0.5384876,-0.6426645,0.47911575,0.1861419,0.58117074,-0.692258,0.25510737,0.38838258,-0.50585675,1.7219207,0.9797119,1.6543614,-1.1416959,1.6910299,0.43231076,-0.4535279,1.6830062,0.963645,1.6033626,-1.0775799,1.6680616,-0.98837113,-1.1860137,0.8914014,0.28665358,0.7285869,-0.5117256,0.25143015,1.8307991,-0.44880843,1.7546238,-3.0279498,-0.00026048522,1.4843903,0.022528172,-0.3867166,1.0136571,0.90739787,-0.06800397,0.40309575,-0.09756187,-0.875095,-0.047969334,-0.07699261,1,0,0,0,0,0,0,-2.4807992,0.048808426,-1.2046237,1.4762282,3.1019926,-3.2872915,12.78294,6.734228,-0.29449463,-1.1463046
8.802705,41.064957,12.811518,-8.365916,0.32257712,0.21999663,0.21386518,-0.5136552,-0.62841564,0.45182404,0.20533858,0.60863006,-0.69506305,0.21454607,0.38094524,-0.51636946,1.7281885,0.98417884,1.6642256,-1.1470861,1.6895162,0.42265624,-0.46512744,1.6915969,0.96715355,1.6111159,-1.0826954,1.670461,-0.9576955,-1.1513902,0.8480801,0.3718633,0.7906524,-0.51239586,0.23622902,1.80052,-0.44881082,1.7687207,-3.0279498,-0.00026048522,1.3848085,0.014077187,-0.38722253,1.0126977,0.9109604,-0.06730446,0.3961539,-0.09318363,-0.83678037,-0.046293743,-0.102968775,1,0,0,0,0,0,0,-2.45052,0.04881081,-1.2187207,3.1118631,3.4237862,-4.410243,8.403015,6.181109,-0.32656193,-1.475659
5.876337,41.801857,14.082774,-14.055347,0.74459934,0.1488029,0.033093736,-0.49972662,-0.6113412,0.44560403,0.17655806,0.628475,-0.7032307,0.19226861,0.37268358,-0.52626157,1.7361573,0.98480934,1.6739634,-1.1530185,1.689688,0.41334647,-0.47637412,1.6997966,0.9710226,1.6194091,-1.0878242,1.6727041,-0.9217593,-1.1157738,0.810344,0.3913555,0.8423032,-0.5138457,0.22036138,1.7702408,-0.4488132,1.781822,-3.0279498,-0.00026048522,1.2852268,0.0059075356,-0.3876295,1.0116386,0.9144562,-0.06670035,0.38917705,-0.08866827,-0.8119012,-0.033923324,-0.10734683,1,0,0,0,0,0,0,-2.4202409,0.048813194,-1.231822,3.6925077,3.5482883,-3.8995028,1.7882347,5.174029,-0.403893,-1.5275627
5.357846,41.70873,14.389143,-14.788235,0.77722895,0.12424564,-0.0018685982,-0.4881964,-0.6000853,0.44327217,0.21665765,0.6434983,-0.69467205,0.14398819,0.36452684,-0.5363827,1.7441238,0.99268836,1.683759,-1.1572914,1.6871029,0.4043805,-0.4872999,1.7077159,0.9750223,1.6281314,-1.0929588,1.674764,-0.8878455,-1.0849125,0.78527313,0.40229368,0.8823438,-0.5142651,0.2015993,1.7399616,-0.44881558,1.7939274,-3.0279498,-0.00026048522,1.1856451,-0.002029419,-0.38789845,1.0105594,0.91788554,-0.06627177,0.38212672,-0.084103286,-0.78914493,-0.01995742,-0.1086407,1,0,0,0,0,0,0,-2.3899617,0.04881558,-1.2439275,3.4990072,3.0771255,-2.6430845,0.9356737,4.0299177,-0.29218197,-1.823771
3.0828538,45.327877,16.736532,-19.033875,1.012186,-0.104177624,-0.12370556,-0.500413,-0.5693814,0.4711627,0.1820893,0.65053004,-0.69847643,0.1463867,0.3543392,-0.54423803,1.7548321,0.99323124,1.6931844,-1.1628065,1.6894027,0.39560956,-0.49786517,1.7156123,0.9788723,1.6371646,-1.098101,1.6766561,-0.8728793,-1.0470642,0.790501,0.3786308,0.91050667,-0.5151148,0.18527184,1.7096825,-0.44881797,1.805037,-3.0279498,-0.00026048522,1.0860634,-0.009782314,-0.38791704,1.0095879,0.92123914,-0.066148154,0.37497526,-0.07960144,-0.7718039,0.008464939,-0.09383078,1,0,0,0,0,0,0,-2.3596826,0.048817962,-1.2550371,1.6800046,3.7905693,0.30465126,-2.5624275,2.884841,-0.35967827,-1.5801281
2.6823182,46.547894,18.035046,-19.665522,1.0985738,-0.28408313,-0.09092317,-0.5035852,-0.5622067,0.51769286,0.19716638,0.67621577,-0.69732624,0.13352627,0.34525102,-0.55408585,1.7673815,0.9985889,1.7047862,-1.1678337,1.6900088,0.38688534,-0.5081021,1.723852,0.982522,1.6464686,-1.1032509,1.6783937,-0.8715741,-1.0159256,0.8341588,0.35973716,0.9371739,-0.51586384,0.17023665,1.6794033,-0.44882035,1.8151507,-3.0279498,-0.00026048522,0.98648167,-0.017357826,-0.3875909,1.0087944,0.9245293,-0.066431396,0.36767748,-0.07513699,-0.7541767,0.044616804,-0.07505132,1,0,0,0,0,0,0,-2.3294034,0.048820347,-1.2651508,0.34976006,3.1234264,4.1008234,-2.0938993,2.7599692,-0.36031008,-1.4514089
8.787669,53.663567,20.266006,-14.262576,0.58090997,-0.4049235,0.033929095,-0.46364504,-0.5329252,0.5338568,0.25109807,0.68955755,-0.69205266,0.02315135,0.34052083,-0.56139463,1.7772378,1.0076318,1.7154244,-1.1724561,1.6807089,0.3783061,-0.517986,1.7326125,0.9862776,1.6560149,-1.1084064,1.6799158,-0.85285395,-0.979141,0.88929695,0.38027805,0.9607877,-0.5164593,0.14604174,1.6491241,-0.44882274,1.8242687,-3.0279498,-0.00026048522,0.88689995,-0.024571419,-0.38692307,1.0081198,0.92773896,-0.06714291,0.36030224,-0.07053053,-0.71182215,0.07801555,-0.06537937,1,0,0,0,0,0,0,-2.2991242,0.04882273,-1.2742686,2.0194173,3.6842346,5.306411,1.8980443,2.4864316,-0.39442778,-2.416402
6.486003,55.888622,21.829916,-17.070948,0.7477919,-0.56626415,-0.01211381,-0.49926516,-0.5054005,0.59152347,0.21778768,0.7136122,-0.70320725,0.0614948,0.32837957,-0.568526,1.7917649,1.0080564,1.7273761,-1.1787271,1.6860653,0.3697378,-0.5274579,1.7421016,0.99013233,1.6658149,-1.1135772,1.6812395,-0.85743463,-0.9364871,0.96766686,0.38664335,0.98683125,-0.5182679,0.12791726,1.618845,-0.44882512,1.8323909,-3.0279498,-0.00026048522,0.7873182,-0.03139925,-0.38584232,1.0076189,0.93085885,-0.06834379,0.35285273,-0.065770485,-0.6744134,0.121640876,-0.0454148,1,0,0,0,0,0,0,-2.268845,0.048825115,-1.2823908,-0.250566,4.2868137,7.5504184,0.44372082,2.7687073,-0.53783655,-1.8019646
9.167841,58.8991,22.183651,-12.909863,0.34312558,-0.54618716,0.10646885,-0.50906986,-0.4764097,0.6247604,0.30063406,0.74897045,-0.6973484,0.018990364,0.31883082,-0.5750989,1.8045776,1.0201957,1.7407119,-1.183312,1.6831385,0.36103934,-0.5364606,1.7523917,0.9944124,1.6759315,-1.1187614,1.6823725,-0.87339807,-0.88811356,1.0485346,0.44123372,1.0203677,-0.5197647,0.10842102,1.5885658,-0.4488275,1.8395172,-3.0279498,-0.00026048522,0.6877365,-0.037751675,-0.38436604,1.0072277,0.9338683,-0.06996253,0.34540334,-0.060759407,-0.62333834,0.15982711,-0.037214056,1,0,0,0,0,0,0,-2.238566,0.0488275,-1.2895172,-1.4066219,4.8544526,7.795286,5.2812457,3.531313,-0.54397583,-1.9535959
6.2694073,57.742733,22.192202,-15.881768,0.52180797,-0.52504253,0.03033796,-0.5173992,-0.4512267,0.6584706,0.25948262,0.747842,-0.6991965,0.08845464,0.3092994,-0.58158326,1.8182387,1.0203607,1.7507156,-1.1886811,1.6912179,0.35213965,-0.5449683,1.7634562,0.99901867,1.6863284,-1.123959,1.6833833,-0.89482534,-0.8382119,1.1246868,0.46638334,1.0466698,-0.52113533,0.09872246,1.5582867,-0.4488299,1.8456477,-3.0279498,-0.00026048522,0.5881548,-0.043669224,-0.38248253,1.0069816,0.9367528,-0.07199009,0.33797294,-0.055551186,-0.5825783,0.20124054,-0.02040889,1,0,0,0,0,0,0,-2.2082868,0.048829883,-1.2956476,-1.9401789,5.0279975,7.2956324,2.3122191,2.8398514,-0.52330494,-0.9651303
5.3700123,45.591312,17.0958,-13.644071,0.5548822,-0.0921216,0.11328267,-0.48502973,-0.47951525,0.6565998,0.30361718,0.7432906,-0.6951335,0.08779939,0.30363667,-0.5929198,1.8291162,1.0293804,1.7606574,-1.1934723,1.6921632,0.3432085,-0.55323285,1.7750663,1.003974,1.6969047,-1.1291622,1.684318,-0.8920489,-0.82253575,1.1724359,0.50469106,1.0616763,-0.5209537,0.0918001,1.5280075,-0.44883227,1.8507824,-3.0279498,-0.00026048522,0.4885731,-0.0492754,-0.38033414,1.0067885,0.93952996,-0.07430335,0.33052957,-0.05012671,-0.55462337,0.2226055,-0.018861266,1,0,0,0,0,0,0,-2.1780076,0.048832268,-1.3007824,0.42209625,1.593101,4.5357704,3.6739826,1.6489983,-0.27394295,-0.66997856
11.011934,48.957573,16.81485,-7.1545296,-0.060180753,0.08568388,0.2486332,-0.46785045,-0.4440526,0.66536504,0.39840585,0.75150234,-0.6786412,0.030524129,0.29642344,-0.59763813,1.8416028,1.0438145,1.7720549,-1.1970263,1.6873703,0.33443564,-0.5613057,1.7869967,1.0096731,1.7075953,-1.1343502,1.6851515,-0.8720537,-0.8021828,1.199191,0.5912289,1.0719016,-0.519198,0.08058661,1.4977283,-0.44883466,1.8549212,-3.0279498,-0.00026048522,0.38899145,-0.054445267,-0.37807775,1.0064843,0.9421754,-0.07673666,0.3231877,-0.04434585,-0.5056178,0.2298612,-0.03410675,1,0,0,0,0,0,0,-2.1477284,0.04883465,-1.3049212,2.08807,2.0442963,2.4996996,8.53734,1.1493921,-0.14375448,-1.1250883
19.066942,66.261665,22.72827,-4.0044127,-0.63207036,-0.1124157,0.2652212,-0.41069824,-0.36611322,0.6800795,0.39341867,0.76302785,-0.6835051,0.0041163387,0.2933658,-0.597917,1.8550047,1.049015,1.7838981,-1.2027007,1.6855631,0.32613677,-0.56887215,1.7991217,1.0161238,1.718389,-1.1395286,1.6858572,-0.8156817,-0.7414013,1.2164185,0.6624594,1.0824388,-0.51893735,0.06713284,1.4674492,-0.44883704,1.8580643,-3.0279498,-0.00026048522,0.2894098,-0.05887842,-0.3757062,1.0061054,0.9446343,-0.07934438,0.31609777,-0.03811181,-0.42364183,0.24284418,-0.038776673,1,0,0,0,0,0,0,-2.1174493,0.048837036,-1.3080642,5.6814313,6.109786,1.5841007,7.009375,1.2524605,-0.40279627,-1.4123261
21.714712,68.363304,23.120024,-2.66232,-0.77936476,0.010680348,0.27496338,-0.35818973,-0.3488479,0.6705744,0.4134419,0.7643666,-0.6839137,-0.033200905,0.2903178,-0.60375696,1.8661792,1.0574679,1.7948257,-1.20792,1.6825371,0.31860465,-0.5758006,1.8112925,1.0231848,1.7292666,-1.1447071,1.6864103,-0.7323059,-0.6764418,1.2168409,0.7203326,1.0903715,-0.51885897,0.051155,1.43717,-0.44883943,1.8602115,-3.0279498,-0.00026048522,0.18982813,-0.06245041,-0.37324262,1.0056922,0.94688624,-0.082163915,0.30930534,-0.031394426,-0.3360365,0.25043872,-0.041668452,1,0,0,0,0,0,0,-2.0871701,0.04883942,-1.3102114,8.354878,6.5371156,-0.061178207,5.690038,0.9972811,-0.41527748,-1.6811103
34.54967,80.28917,26.041527,6.6420283,-1.574619,0.12237708,0.524681,-0.22129999,-0.30199915,0.66356355,0.5076615,0.77641994,-0.66318154,-0.10832345,0.29647464,-0.60600054,1.8776488,1.0739509,1.8069086,-1.2110252,1.675578,0.3124215,-0.5819928,1.8233851,1.0310698,1.7402396,-1.1498722,1.6867594,-0.5803614,-0.5999732,1.2066756,0.8111936,1.1003107,-0.51733446,0.02882014,1.4068909,-0.4488418,1.8613629,-3.0279498,-0.00026048522,0.09024647,-0.06484079,-0.37079072,1.0051848,0.9489115,-0.08517917,0.30288714,-0.023890706,-0.20740257,0.24593814,-0.053282592,1,0,0,0,0,0,0,-2.056891,0.048841804,-1.311363,15.17241,7.683158,-1.0593891,9.029018,1.2035847,-0.32154322,-2.3756187
56.221687,149.70499,50.08083,13.512922,-3.7980895,-0.8429203,0.40261784,-0.14716706,0.04567603,0.66035247,0.48025164,0.78400636,-0.67267674,-0.16512474,0.2977048,-0.5774252,1.8894204,1.0790949,1.8186402,-1.2171398,1.6702468,0.30790776,-0.58595246,1.8353423,1.039567,1.7513328,-1.1550525,1.686849,-0.408206,-0.32739758,1.1913471,0.86171687,1.1137433,-0.52133787,0.0016356066,1.3766117,-0.4488442,1.8615185,-3.0279498,-0.00026048522,-0.00933519,-0.06506491,-0.3680675,1.0048945,0.9504811,-0.088684835,0.29745352,-0.015555491,0.03816528,0.28333148,-0.020232944,1,0,0,0,0,0,0,-2.0266118,0.04884419,-1.3115184,17.265654,27.407557,-1.7306566,4.810834,1.8326044,-1.3338685,-2.983055
33.692444,142.59749,51.10622,-8.33319,-2.4726167,-1.1279694,-0.3125145,-0.23956102,0.14855984,0.6532373,0.25819206,0.7921848,-0.7113963,-0.16351129,0.28395167,-0.5710965,1.900666,1.0653862,1.8305513,-1.2261921,1.6704979,0.3043291,-0.5868928,1.8471278,1.047307,1.762569,-1.1602958,1.6866945,-0.3408667,-0.015401392,1.173443,0.7435442,1.128735,-0.52802354,-0.021679336,1.3463326,-0.44884658,1.8606783,-3.0279498,-0.00026048522,-0.10891685,-0.06335497,-0.3646891,1.0053161,0.95152146,-0.09297128,0.29310557,-0.0072233477,0.21425876,0.35759908,0.06347776,1,0,0,0,0,0,0,-1.9963325,0.048846573,-1.3106782,6.7994714,31.438402,-2.0752668,-12.166548,2.0786762,-1.4690161,-2.5013554
24.2801,55.16534,20.056026,-4.4507976,-0.011186153,0.3992216,0.3835336,0.06680093,-0.21164429,0.6815838,0.41738635,0.79969406,-0.69698066,-0.22591312,0.3110092,-0.6080572,1.9152862,1.0890456,1.8425384,-1.2299939,1.6641032,0.30242413,-0.5869958,1.8589114,1.0544672,1.7739329,-1.165562,1.6862882,-0.14003748,-0.008362013,1.1793199,0.7066797,1.1394876,-0.5269942,-0.047193304,1.3160534,-0.44884896,1.8588423,-3.0279498,-0.00026048522,-0.20849851,-0.060739994,-0.3611362,1.0060349,0.9523663,-0.097785,0.2888494,0.0015873951,0.27611807,0.35533035,0.07429091,1,0,0,0,0,0,0,-1.9660534,0.048848957,-1.3088422,20.193598,0.77432,0.43373108,-3.7133098,1.2600899,-0.096571445,-2.680032
32.040043,53.845715,18.986372,2.0997891,-0.2415151,0.57532334,0.6426906,0.22929525,-0.09134747,0.6807648,0.4277608,0.79943985,-0.6945568,-0.34395713,0.32535365,-0.59613055,1.9269879,1.0972433,1.853877,-1.2350177,1.6518925,0.30304688,-0.587259,1.8707923,1.0615072,1.7853675,-1.1708091,1.6855634,0.13029017,-0.03221218,1.1906881,0.70299786,1.145262,-0.52433884,-0.08136419,1.2857742,-0.44885135,1.8560104,-3.0279498,-0.00026048522,-0.30808017,-0.057391167,-0.35769272,1.0067654,0.95312303,-0.102999926,0.28428262,0.011439265,0.35292763,0.34154,0.07203022,1,0,0,0,0,0,0,-1.9357742,0.04885134,-1.3060105,27.211206,-2.3549688,0.98326206,-0.37555695,0.6765604,0.11460781,-3.5687447
-28.20113,-17.177963,-3.6075523,-32.533463,2.7830513,0.8054278,-0.40036237,-0.2798147,-0.15894975,0.65398103,0.35641965,0.80638933,-0.7279839,-0.28526485,0.27506542,-0.60315394,1.9361904,1.0971491,1.8660064,-1.2436075,1.657037,0.30352896,-0.58829564,1.8826674,1.0683336,1.7968574,-1.1760429,1.6845793,0.020218516,-0.12721515,1.1865351,0.67636424,1.1509985,-0.5230696,-0.10390356,1.2554951,-0.44885373,1.8521827,-3.0279498,-0.00026048522,-0.40766183,-0.05472231,-0.3543334,1.007417,0.95388067,-0.10812143,0.2792488,0.021011552,0.23645009,0.3351501,0.062354073,1,0,0,0,0,0,0,-1.905495,0.048853725,-1.3021827,-11.190031,-9.430592,-0.45216084,-2.536261,0.75142384,0.13805628,-2.1749928
-48.019783,-18.718645,-2.3012118,-47.514717,3.2552176,0.4244222,-0.9232414,-0.4277388,-0.06908998,0.65628445,0.2682018,0.7936799,-0.69840115,0.059394054,0.2607551,-0.59520465,1.9482958,1.0951538,1.8762254,-1.245883,1.6905186,0.30155152,-0.5898158,1.8944834,1.0745077,1.8083587,-1.1812462,1.6836656,-0.27112263,-0.15985417,1.179631,0.5976772,1.1509879,-0.5196206,-0.08659225,1.2252159,-0.44885612,1.8473593,-3.0279498,-0.00026048522,-0.5072435,-0.053511143,-0.35084248,1.0081503,0.9546458,-0.11291404,0.27395537,0.029157799,0.08057876,0.3545845,0.07667711,1,0,0,0,0,0,0,-1.8752159,0.04885611,-1.2973592,-29.35217,-3.1346142,-0.8061409,-7.8537583,0.3096819,0.30671358,1.8954382
-43.382313,-36.066273,-9.913643,-39.03741,3.3173995,0.8313564,-0.5233482,-0.36587837,-0.2455817,0.6787335,0.41158524,0.7847296,-0.66250694,0.041262437,0.2649637,-0.614374,1.9623568,1.1156663,1.8868316,-1.2474968,1.6877918,0.29699343,-0.5922906,1.9063338,1.0806246,1.8198142,-1.1863846,1.6829408,-0.51772535,-0.27647263,1.1864381,0.61638415,1.1445209,-0.51146597,-0.06707628,1.1949368,-0.4488585,1.84154,-3.0279498,-0.00026048522,-0.60682523,-0.053860664,-0.34737659,1.0087475,0.9554841,-0.11718555,0.26835588,0.036094587,-0.074867904,0.34443185,0.053726085,1,0,0,0,0,0,0,-1.8449367,0.048858494,-1.2915399,-24.764282,-11.605909,0.5113125,1.9154906,-0.46994686,0.9094119,2.1421208
-10.3029375,-0.5995277,-2.0156906,-14.655968,1.1752934,1.2014922,0.104052275,-0.21715477,-0.2072719,0.6158182,0.52127343,0.7921743,-0.6377425,-0.10308061,0.27527797,-0.6130178,1.9679157,1.132752,1.8990316,-1.2501588,1.6726328,0.29131812,-0.59562844,1.9179763,1.0876112,1.8312182,-1.1914295,1.6822923,-0.5840943,-0.35286412,1.1566837,0.7261206,1.1391053,-0.5022014,-0.06378817,1.1646576,-0.44886088,1.8347249,-3.0279498,-0.00026048522,-0.70640695,-0.05491686,-0.34419322,1.0089355,0.95634085,-0.12085429,0.26264313,0.042719357,-0.11669929,0.31029344,0.0069247917,1,0,0,0,0,0,0,-1.8146576,0.048860878,-1.284725,-6.6223025,-7.6467395,-3.0763865,10.983074,-0.5246639,0.9295106,0.430575
13.707239,38.763287,8.402077,1.953098,-0.8209598,1.3294332,0.43258777,-0.20776016,-0.12534595,0.5614689,0.5958315,0.7908478,-0.65832233,-0.14389847,0.27054211,-0.60816306,1.9741231,1.1471944,1.910303,-1.2572618,1.6679025,0.28570145,-0.59909505,1.9290618,1.0960569,1.8425727,-1.1964134,1.6816229,-0.55407035,-0.3446883,1.0923804,0.8840279,1.1341249,-0.49769044,-0.06800812,1.1343784,-0.44886327,1.826914,-3.0279498,-0.00026048522,-0.80598867,-0.055657864,-0.34138942,1.0086125,0.95707804,-0.123923115,0.25725052,0.049665764,-0.060579307,0.27124846,-0.045414265,1,0,0,0,0,0,0,-1.7843784,0.048863262,-1.2769139,3.0363321,0.8051753,-6.4691067,15.757645,-0.5120754,0.2778709,-0.39767027
22.581764,56.756485,13.87506,6.357499,-1.5315764,1.3574501,0.5022544,-0.19938771,-0.09990539,0.5198797,0.6169615,0.7837867,-0.656795,-0.0800897,0.2657627,-0.60908556,1.9810498,1.1577531,1.9209514,-1.262093,1.6736139,0.28071707,-0.60213345,1.9393634,1.1059523,1.853868,-1.2013649,1.6809477,-0.47974673,-0.2901023,1.0094063,1.0245141,1.1281623,-0.49509236,-0.06737178,1.1040993,-0.44886565,1.8181072,-3.0279498,-0.00026048522,-0.9055704,-0.05556774,-0.3389573,1.0078286,0.9576142,-0.12644792,0.25242755,0.05715175,0.03182464,0.23504837,-0.089258246,1,0,0,0,0,0,0,-1.7540992,0.048865646,-1.2681072,7.4625196,5.4763317,-8.33149,13.997459,-0.57115555,0.012665987,0.048945844
22.859865,69.36952,19.495232,3.391488,-1.7676787,1.133465,0.3250264,-0.21132936,-0.030082108,0.49381718,0.6127219,0.77938485,-0.65700907,-0.12770192,0.25958413,-0.60514164,1.9887451,1.1672244,1.9318064,-1.2670658,1.6681775,0.27640456,-0.60426205,1.9488581,1.116847,1.8651061,-1.2062992,1.6802438,-0.41506836,-0.18684411,0.9293234,1.1109971,1.1227858,-0.4940489,-0.07146532,1.0738201,-0.44886804,1.8083047,-3.0279498,-0.00026048522,-1.0051521,-0.054476738,-0.3367555,1.0067683,0.9579079,-0.12858005,0.24829614,0.06502753,0.1345292,0.21617603,-0.1115378,1,0,0,0,0,0,0,-1.7238201,0.04886803,-1.2583046,6.485182,10.396192,-8.073652,8.569074,-0.41840076,-0.20946264,-0.44204146
14.433514,63.473743,18.83123,-3.783655,-1.3156977,1.0098522,0.08400144,-0.25310975,0.0062558632,0.4501043,0.6224922,0.7735194,-0.66264725,-0.09975413,0.2510936,-0.60363644,1.9938686,1.1790962,1.942458,-1.2725639,1.6702684,0.2723748,-0.60529965,1.9575537,1.128272,1.876287,-1.2112297,1.679521,-0.39898938,-0.07565092,0.8494862,1.1529448,1.1170647,-0.4935796,-0.072600305,1.043541,-0.44887042,1.7975062,-3.0279498,-0.00026048522,-1.1047338,-0.052556515,-0.33467364,1.0055755,0.95797586,-0.13039199,0.2448635,0.07295104,0.21091792,0.2064029,-0.12193712,1,0,0,0,0,0,0,-1.6935409,0.048870414,-1.2475061,1.5896738,11.210932,-8.036518,4.124832,-0.4210949,-0.22210479,-0.13136417
7.2726035,44.455463,12.656058,-8.677754,-0.44799203,1.132942,0.0017624544,-0.21875256,-0.017619314,0.39424038,0.64459056,0.77733356,-0.65797824,-0.11799602,0.25049955,-0.60706156,1.9969778,1.1927311,1.9540204,-1.2770275,1.6677214,0.26848954,-0.6055762,1.9654025,1.1399622,1.8874335,-1.2161468,1.6787771,-0.3851627,-0.011450843,0.7633297,1.1743158,1.1140908,-0.4916138,-0.075122744,1.0132618,-0.4488728,1.785712,-3.0279498,-0.00026048522,-1.2043155,-0.050165653,-0.33275533,1.0042574,0.9578981,-0.13186155,0.24191907,0.080740295,0.24802059,0.18767162,-0.13543724,1,0,0,0,0,0,0,-1.6632618,0.0488728,-1.235712,1.3433337,6.4891667,-8.633447,2.1261215,-0.18773079,0.05491972,-0.26316643
2.1432629,28.364809,7.0035615,-11.842445,0.2282383,1.270666,-0.06227639,-0.19591455,-0.023553194,0.33325794,0.6589021,0.77308816,-0.6569233,-0.18980147,0.24889809,-0.60793155,1.9987283,1.2058524,1.9647423,-1.2818391,1.659797,0.26477545,-0.6055266,1.9723147,1.1517954,1.8985457,-1.2210392,1.677955,-0.3670059,0.010574644,0.66730314,1.1865405,1.1105295,-0.4885678,-0.08454074,0.98298264,-0.4488752,1.772922,-3.0279498,-0.00026048522,-1.3038973,-0.047633648,-0.3311007,1.0027642,0.95775753,-0.13294207,0.23923102,0.08829168,0.25471693,0.15847062,-0.15446627,1,0,0,0,0,0,0,-1.6329826,0.048875183,-1.2229221,1.7715216,2.2439404,-9.593784,1.2580395,-0.2976179,0.26661158,-0.9496242
0.28941125,11.853974,1.77445,-12.856058,0.95610714,1.3109571,0.027941436,-0.12823978,-0.088182084,0.31363085,0.6861811,0.77362317,-0.6446984,-0.29773566,0.2519515,-0.61434484,2.0036778,1.2204134,1.975908,-1.285509,1.6481814,0.26152343,-0.60576123,1.9783953,1.1638117,1.9096293,-1.2258896,1.6769594,-0.31128767,-0.03473458,0.58832705,1.2068901,1.1078817,-0.48362994,-0.10452083,0.9527035,-0.44887757,1.7591362,-3.0279498,-0.00026048522,-1.403479,-0.04522133,-0.32980514,1.0010217,0.9576306,-0.13364452,0.23647332,0.095724,0.2362297,0.1201619,-0.1814017,1,0,0,0,0,0,0,-1.6027035,0.048877567,-1.2091362,5.559647,-4.519884,-7.921517,2.1059752,-0.23343563,0.54278374,-2.0124183
-6.4371195,-0.5516675,-1.4463075,-16.553158,1.504068,1.1503973,-0.024145989,-0.17775354,-0.12626833,0.2990421,0.717694,0.7752532,-0.6376781,-0.3332637,0.24374807,-0.61838806,2.0082996,1.235581,1.9871547,-1.2896574,1.643633,0.25855178,-0.606713,1.9838637,1.1761427,1.9206977,-1.2306846,1.6757482,-0.2924898,-0.11547162,0.5330215,1.2419133,1.1065999,-0.47770742,-0.1267428,0.9224243,-0.44887996,1.7443545,-3.0279498,-0.00026048522,-1.5030607,-0.04318762,-0.32887626,0.99898165,0.9575717,-0.13396038,0.23344287,0.10303094,0.19183703,0.08414612,-0.21201162,1,0,0,0,0,0,0,-1.5724243,0.04887995,-1.1943545,1.8693626,-8.083587,-5.553305,3.5719872,-0.12049675,0.7058263,-2.215506
6.162268,28.630894,10.32748,-10.212226,0.33691296,0.83965284,0.16651067,-0.09528954,-0.049407717,0.330842,0.7388407,0.77278686,-0.59498817,-0.3903026,0.24902283,-0.61165375,2.016948,1.2500267,1.9979764,-1.2901834,1.6367179,0.25603408,-0.6080348,1.9891413,1.1888723,1.9317603,-1.2354015,1.6742872,-0.23824699,-0.1376061,0.52575046,1.2833122,1.1066818,-0.4699415,-0.15256645,0.89214516,-0.44888234,1.728577,-3.0279498,-0.00026048522,-1.6026424,-0.041152,-0.32812953,0.99674416,0.95750105,-0.13406487,0.23025803,0.11045167,0.20701472,0.07205545,-0.22807504,1,0,0,0,0,0,0,-1.5421451,0.048882335,-1.178577,5.4214387,-2.1616697,-0.8443475,4.166651,0.17259121,0.7082224,-2.6101499
-0.01807642,15.14878,7.2821155,-15.704632,1.0999658,0.64245677,0.09189966,-0.0858921,-0.15214136,0.31966746,0.7144564,0.77546716,-0.6220542,-0.4063007,0.24744487,-0.62324893,2.0211082,1.2603179,2.009307,-1.297607,1.6336571,0.2540285,-0.6098725,1.9944552,1.2018194,1.9428344,-1.2400631,1.6725782,-0.18809216,-0.19906475,0.5330339,1.2987106,1.108214,-0.46502307,-0.17700665,0.861866,-0.44888473,1.7118038,-3.0279498,-0.00026048522,-1.7022241,-0.03920889,-0.32748628,0.99438226,0.9574243,-0.13409635,0.22677772,0.118019864,0.18954645,0.062440768,-0.23925006,1,0,0,0,0,0,0,-1.511866,0.04888472,-1.1618037,4.998073,-6.1159134,0.6224394,1.5922546,0.313735,0.4875064,-2.473724
0.08739412,20.942642,9.557354,-15.744065,0.81160057,0.58074677,0.041582365,-0.09540594,-0.1337256,0.3091642,0.73778933,0.77233213,-0.60257655,-0.4350212,0.24448791,-0.62324506,2.0253716,1.2755984,2.0200677,-1.3003207,1.6290761,0.25236005,-0.61214036,1.9998435,1.2149248,1.9539161,-1.2446712,1.6706308,-0.15981117,-0.23596212,0.54050475,1.3145784,1.1087174,-0.45954663,-0.20077573,0.83158684,-0.4488871,1.6940347,-3.0279498,-0.00026048522,-1.8018059,-0.037372112,-0.32689857,0.99193275,0.95733476,-0.13407286,0.22304071,0.12564789,0.18109542,0.058334466,-0.24720916,1,0,0,0,0,0,0,-1.4815868,0.048887104,-1.1440346,2.807036,-3.6500425,0.6493926,1.6231775,0.21920204,0.5142689,-2.4023473
-7.512559,7.0362887,5.017614,-20.641079,1.4650984,0.52485746,-0.07857141,-0.11449365,-0.20728569,0.29789716,0.7329633,0.77882737,-0.605819,-0.42114392,0.24091068,-0.63286895,2.0296333,1.2882211,2.0317988,-1.3052531,1.6285164,0.25075024,-0.614988,2.0052488,1.2281084,1.9650168,-1.2492298,1.6684831,-0.16143912,-0.30106744,0.54005295,1.3199022,1.1109372,-0.45434353,-0.2194979,0.8013077,-0.4488895,1.6752697,-3.0279498,-0.00026048522,-1.9013876,-0.035865307,-0.3263867,0.98939234,0.957272,-0.13395385,0.21898076,0.13316922,0.14023426,0.049603183,-0.25664312,1,0,0,0,0,0,0,-1.4513077,0.048889488,-1.1252697,-0.1891315,-6.5000715,-0.10391474,0.57718754,0.33586025,0.56985617,-1.8792659
-4.233552,12.686557,6.473392,-18.813002,1.1760099,0.61144745,-0.05843784,-0.06685226,-0.20561442,0.28035796,0.73609865,0.7725037,-0.59851265,-0.45997587,0.24406502,-0.6355495,2.0332847,1.3017182,2.0422673,-1.3090811,1.6224855,0.24925919,-0.61836594,2.0105474,1.2413187,1.9761195,-1.2537369,1.6661428,-0.14507335,-0.3500392,0.52608526,1.321566,1.1103805,-0.44937956,-0.23877747,0.7710285,-0.44889188,1.655509,-3.0279498,-0.00026048522,-2.0009692,-0.03466797,-0.3259766,0.9867618,0.957235,-0.13372178,0.21462592,0.14055389,0.11263365,0.039002825,-0.26545566,1,0,0,0,0,0,0,-1.4210285,0.048891872,-1.105509,1.6119808,-4.883313,-1.4503479,0.20344257,0.05645752,0.52441955,-1.9385666
-3.8862038,9.345031,5.368984,-19.19949,1.3676772,0.615491,-0.029477188,-0.027689895,-0.26259547,0.2741841,0.7267749,0.7752809,-0.6051285,-0.4757824,0.2464902,-0.6446255,2.0379658,1.3139962,2.0536475,-1.3142498,1.6185646,0.24809976,-0.62234944,2.0156705,1.2544813,1.9872203,-1.2582039,1.6636213,-0.10632362,-0.41444346,0.5077348,1.3147163,1.110295,-0.44556683,-0.2568243,0.74074936,-0.44889426,1.6347525,-3.0279498,-0.00026048522,-2.100551,-0.033789158,-0.32570076,0.9840421,0.9572237,-0.13340025,0.2099178,0.14785641,0.07937223,0.024849778,-0.27430207,1,0,0,0,0,0,0,-1.3907493,0.048894256,-1.0847526,3.8465009,-6.4380407,-1.8811464,-0.6427288,0.09431839,0.43036342,-1.8161654
-6.046909,3.5520425,2.7403104,-20.109478,1.5912753,0.67420244,-0.065065965,-0.027833866,-0.3131702,0.24447963,0.73193395,0.7751429,-0.59829277,-0.5008531,0.24531637,-0.65366644,2.0401185,1.3276747,2.0647345,-1.3180331,1.613536,0.24729605,-0.62707585,2.0205,1.2675924,1.9983172,-1.2626308,1.6609205,-0.0717909,-0.492086,0.47476453,1.3100749,1.1096342,-0.4413388,-0.27449048,0.7104702,-0.44889665,1.6130002,-3.0279498,-0.00026048522,-2.2001326,-0.03332615,-0.3256185,0.9811987,0.9572589,-0.13294633,0.20479783,0.15504365,0.035367522,0.0037341116,-0.28775883,1,0,0,0,0,0,0,-1.3604702,0.04889664,-1.0630002,3.4279094,-7.7808323,-3.321731,-0.43001175,-0.008106232,0.5176425,-1.7607689
-7.316455,1.7782025,0.67903906,-20.135654,1.5986549,0.8412944,-0.13632916,-0.025810549,-0.33527467,0.18390222,0.73089117,0.77225,-0.59676653,-0.51475066,0.24471499,-0.66060334,2.0388901,1.3406816,2.0755422,-1.3223075,1.6094455,0.24676056,-0.6325242,2.0247648,1.2806635,2.0093951,-1.2670158,1.6580538,-0.047562458,-0.56250334,0.41040763,1.3062954,1.1072658,-0.43715099,-0.29079056,0.68019104,-0.44889903,1.5902519,-3.0279498,-0.00026048522,-2.2997143,-0.033325195,-0.32581663,0.9781814,0.95736223,-0.13225298,0.19931051,0.16199371,-0.011615957,-0.026506672,-0.30650377,1,0,0,0,0,0,0,-1.330191,0.048899025,-1.040252,2.401422,-7.073951,-6.426901,-0.35922527,-0.23725033,0.55119395,-1.6046047
-6.9637895,4.2397285,-0.98883057,-18.154402,1.3281369,1.1573938,-0.20260157,-0.030100608,-0.3365687,0.093438864,0.7474435,0.7628313,-0.5881698,-0.5123516,0.2437505,-0.6661811,2.0341086,1.3554078,2.0856783,-1.3258328,1.6068186,0.2463543,-0.6384885,2.0280378,1.293788,2.0204158,-1.271355,1.6550459,-0.038334258,-0.6078229,0.30008197,1.3144383,1.1005162,-0.4323872,-0.30408314,0.6499119,-0.4489014,1.5665079,-3.0279498,-0.00026048522,-2.399296,-0.0337348,-0.3264091,0.9749045,0.95755035,-0.13113287,0.19363104,0.16854796,-0.05047078,-0.068980046,-0.33478606,1,0,0,0,0,0,0,-1.2999119,0.04890141,-1.0165079,0.91450584,-4.5737743,-10.994744,0.8105993,-0.74584484,0.63767433,-1.2811601
-22.517557,-26.191622,-19.587395,-23.490831,2.5128396,1.983355,-0.6653148,-0.12208082,-0.4072274,-0.20203453,0.7397532,0.75203544,-0.6103159,-0.48887283,0.23414621,-0.6792112,2.0078344,1.3677633,2.0956194,-1.3323866,1.6061586,0.24554153,-0.64505166,2.02898,1.3069658,2.0313258,-1.2756523,1.6519445,-0.095422134,-0.6729128,0.02620239,1.3185798,1.0867094,-0.42719477,-0.3117181,0.6196327,-0.4489038,1.5417681,-3.0279498,-0.00026048522,-2.4988778,-0.034994125,-0.32784534,0.97110075,0.9580002,-0.12904511,0.18786998,0.1740336,-0.15058003,-0.16742665,-0.3957802,1,0,0,0,0,0,0,-1.2696327,0.048903793,-0.99176806,-5.661428,-6.638336,-27.214798,0.3508091,-1.7781258,1.0055244,-0.62007904
-24.81453,-26.082758,-24.535606,-22.315556,2.3842762,2.5361624,-0.89640504,-0.16555755,-0.36779064,-0.4096159,0.74368954,0.7422515,-0.61429834,-0.5096891,0.22898577,-0.6818307,1.9880184,1.3813348,2.105551,-1.3370821,1.6009756,0.24392553,-0.65194577,2.02647,1.3201857,2.0420718,-1.279898,1.6487669,-0.18315028,-0.6953848,-0.34255973,1.3226678,1.0690339,-0.4215849,-0.3191969,0.58935356,-0.44890618,1.5160325,-3.0279498,-0.00026048522,-2.5984595,-0.037252426,-0.3304453,0.9665714,0.9588349,-0.12555508,0.18226205,0.17791037,-0.25028384,-0.28963026,-0.4725332,1,0,0,0,0,0,0,-1.2393535,0.048906177,-0.96603245,-8.621037,-2.3847342,-36.68993,0.28107166,-2.3203611,1.1974812,-0.5875468
-27.869734,-21.48401,-19.21139,-26.404741,2.3750548,1.9105175,-0.9746353,-0.240435,-0.38421634,-0.44388524,0.70151496,0.7269553,-0.6445573,-0.5020545,0.21988203,-0.6903674,1.9820814,1.3903371,2.1147673,-1.3443538,1.5985614,0.24119373,-0.6589839,2.020725,1.3332319,2.0526233,-1.2841133,1.6455282,-0.30232322,-0.7071313,-0.6517796,1.2982593,1.048747,-0.4191843,-0.32517114,0.5590744,-0.44890857,1.489301,-3.0279498,-0.00026048522,-2.6980412,-0.040546417,-0.33405876,0.9614063,0.9600638,-0.1207971,0.17684068,0.18003568,-0.35533297,-0.3839637,-0.5326035,1,0,0,0,0,0,0,-1.2090744,0.04890856,-0.93930095,-11.654502,-1.308167,-30.799234,-2.5954485,-2.5414944,0.92277527,-0.5052984
-17.462526,-0.55723226,-4.201672,-24.580515,1.6617389,1.0020015,-0.6229724,-0.19076374,-0.39982292,-0.40674502,0.67289597,0.71302706,-0.6315146,-0.49656284,0.22211735,-0.6989662,1.9800506,1.4005215,2.123926,-1.3472648,1.5958719,0.2377102,-0.66612405,2.012962,1.3458929,2.0629764,-1.2883114,1.642238,-0.3630423,-0.7166766,-0.81773394,1.2550917,1.0302173,-0.4185929,-0.33022356,0.52879524,-0.44891095,1.4615737,-3.0279498,-0.00026048522,-2.797623,-0.044614792,-0.33824062,0.95587313,0.9615491,-0.11532427,0.17145509,0.1809052,-0.4240778,-0.4277224,-0.5622436,1,0,0,0,0,0,0,-1.1787952,0.048910946,-0.9115737,-5.8809757,-1.0497332,-16.552269,-4.411936,-2.0935059,0.5073428,-0.4951656
-11.01205,9.809048,3.7492678,-22.065853,1.2335191,0.4865129,-0.34492922,-0.1978585,-0.42833266,-0.44412953,0.6836142,0.70404345,-0.6148407,-0.5019829,0.21792434,-0.7089573,1.9685491,1.4142543,2.1333807,-1.3497955,1.5920397,0.23387618,-0.67345494,2.0042112,1.3582201,2.0731654,-1.2925037,1.6389002,-0.38975987,-0.7388232,-0.8942709,1.2249199,1.0149847,-0.41840062,-0.335054,0.49851608,-0.44891334,1.4328506,-3.0279498,-0.00026048522,-2.8972046,-0.049197674,-0.3426597,0.9501307,0.9631592,-0.10954106,0.16595367,0.18106459,-0.47028643,-0.44420406,-0.58065903,1,0,0,0,0,0,0,-1.148516,0.04891333,-0.8828506,-2.543223,-2.291596,-7.655251,-3.0904055,-1.6200781,0.30565858,-0.490278
-1.3099306,25.478188,9.285042,-15.022962,0.31494594,0.6253269,-0.12653412,-0.1884026,-0.38790882,-0.53600514,0.7154134,0.67747116,-0.6030334,-0.49912408,0.21503593,-0.7122458,1.9506106,1.4297614,2.1409125,-1.352807,1.5889877,0.23001309,-0.6807887,1.994791,1.3704977,2.0831714,-1.2966942,1.6355222,-0.38495877,-0.73163104,-0.95796275,1.2285807,0.9956262,-0.41874897,-0.33879068,0.46823692,-0.44891572,1.4031317,-3.0279498,-0.00026048522,-2.9967864,-0.05392742,-0.34720254,0.9441753,0.9647914,-0.10351952,0.16044979,0.18087864,-0.4744912,-0.45488432,-0.6031932,1,0,0,0,0,0,0,-1.1182369,0.048915714,-0.8531317,0.538218,0.69271326,-6.4072847,0.34005642,-1.9375801,0.10442734,-0.3771901
24.009882,52.23997,18.20432,-1.0298128,-1.091479,1.2116836,0.41204384,0.04485853,-0.34940463,-0.5914959,0.7266623,0.65697396,-0.5860455,-0.49971005,0.23449895,-0.7157292,1.9356414,1.4431639,2.1488688,-1.3552988,1.5855513,0.22737093,-0.6878144,1.9847317,1.3829565,2.0929675,-1.3008941,1.6321138,-0.22458364,-0.6925636,-1.0221885,1.2520684,0.975397,-0.42098725,-0.3415996,0.43795776,-0.4489181,1.372417,-3.0279498,-0.00026048522,-3.096368,-0.05810213,-0.35189462,0.9379822,0.96628076,-0.09731326,0.15508354,0.18105416,-0.39917958,-0.47104895,-0.6276409,1,0,0,0,0,0,0,-1.0879577,0.0489181,-0.82241696,15.847489,3.993845,-6.50419,2.434063,-1.7514586,-0.43453574,-0.25410652
29.731018,47.530453,16.310484,1.9947786,-0.87762433,1.3728828,0.65301,0.14905635,-0.42041308,-0.6234294,0.74068236,0.65694845,-0.57885367,-0.46784812,0.24227656,-0.7298557,1.9223888,1.4570247,2.1586623,-1.3587795,1.585329,0.22682615,-0.694781,1.9740543,1.3957281,2.1026034,-1.3051132,1.6287073,0.0014331724,-0.69767296,-1.0833842,1.2855731,0.96062225,-0.42298642,-0.34006658,0.4076786,-0.4489205,1.3407065,-3.0279498,-0.00026048522,-3.1959498,-0.06150484,-0.35683155,0.9314826,0.9675555,-0.09093739,0.14970046,0.1820893,-0.3211015,-0.49850282,-0.66041297,1,0,0,0,0,0,0,-1.0576786,0.048920482,-0.79070646,22.36229,-0.41372776,-6.244397,3.3877134,-1.1721015,-0.45560598,0.24536252
16.222158,37.80404,12.474709,-4.514318,-0.4085642,1.1442976,0.31581444,0.04388434,-0.3879541,-0.6824158,0.7485975,0.65921694,-0.58350575,-0.45179477,0.23121458,-0.7335764,1.9058127,1.4705878,2.1685252,-1.3634638,1.5835278,0.22773595,-0.7017295,1.962656,1.4088221,2.1121325,-1.3093437,1.6253294,0.1205564,-0.69377416,-1.1589658,1.3172019,0.9509934,-0.42320848,-0.33674657,0.37739944,-0.44892287,1.3080001,-3.0279498,-0.00026048522,-3.2955315,-0.06438637,-0.3620243,0.92464125,0.9686792,-0.08427538,0.14430405,0.18366936,-0.27716783,-0.52363014,-0.69514704,1,0,0,0,0,0,0,-1.0273994,0.048922867,-0.7580001,11.831031,0.43680668,-7.6712847,3.152275,-0.81943274,-0.06663203,0.40768385
26.226984,57.773228,20.581978,0.023602486,-1.5206238,1.3068167,0.4032391,0.20058426,-0.28853098,-0.7104633,0.75820875,0.6138313,-0.58392704,-0.4147721,0.24779437,-0.7305826,1.8916097,1.484643,2.1735158,-1.3677363,1.5838522,0.23001881,-0.70818585,1.950531,1.4221983,2.121471,-1.3135818,1.6220106,0.26376462,-0.62918425,-1.2309408,1.3447876,0.92897445,-0.42441264,-0.32999486,0.34712029,-0.44892526,1.274298,-3.0279498,-0.00026048522,-3.3951132,-0.066495895,-0.36740088,0.91752654,0.9696119,-0.077329196,0.13917208,0.18575265,-0.1882997,-0.53979975,-0.72029686,1,0,0,0,0,0,0,-0.99712026,0.04892525,-0.72429794,14.195448,6.5678716,-7.3596716,2.837944,-1.9297361,-0.28452873,0.73053837
21.51919,47.702686,17.978603,-3.3436165,-1.0052395,1.0563129,0.3775426,0.2700412,-0.34865862,-0.72793186,0.7614378,0.59296757,-0.6069245,-0.37462193,0.25702292,-0.7430517,1.8777378,1.498342,2.1807678,-1.3742743,1.5845484,0.23367877,-0.71428365,1.9377937,1.4357786,2.130546,-1.3178447,1.6187872,0.39974293,-0.6031449,-1.2885513,1.3626089,0.90118223,-0.42709965,-0.31960672,0.31684113,-0.44892764,1.2396,-3.0279498,-0.00026048522,-3.494695,-0.06789112,-0.37292933,0.91016006,0.9703466,-0.070165195,0.13426338,0.1883545,-0.12277917,-0.5545764,-0.7454821,1,0,0,0,0,0,0,-0.9668411,0.048927635,-0.68959993,13.499933,2.6790738,-5.918288,1.8114567,-2.5496483,-0.36643147,1.1026204
8.891893,33.237877,13.11772,-9.708862,-0.25064677,0.658597,0.18597005,0.23731188,-0.37024868,-0.7595717,0.77091885,0.57171226,-0.6285365,-0.2813705,0.25740996,-0.7513085,1.8618366,1.5128706,2.1877174,-1.3806984,1.5906501,0.2381887,-0.72035474,1.9245243,1.4495058,2.1393123,-1.322142,1.6157297,0.4680387,-0.6084352,-1.3399991,1.3759066,0.86892116,-0.43027535,-0.30101,0.28656197,-0.44893003,1.2039062,-3.0279498,-0.00026048522,-3.5942767,-0.06894302,-0.37857938,0.90252185,0.97094023,-0.062784776,0.12945148,0.191247,-0.09822144,-0.56566876,-0.7733401,1,0,0,0,0,0,0,-0.93656194,0.04893002,-0.65390617,6.8151474,-0.5153537,-5.251479,1.3021708,-3.127396,-0.25820732,1.9000113
-0.117738664,23.356533,9.453091,-13.829278,0.063661665,0.3845523,0.013164235,0.23817797,-0.3858717,-0.7958879,0.7763754,0.4312535,-0.6362,-0.1718292,0.2620065,-0.7589419,1.8449355,1.5271434,2.1824377,-1.385762,1.5985467,0.24302669,-0.726649,1.9107342,1.463336,2.1473842,-1.326466,1.6129278,0.48919082,-0.6364747,-1.3923444,1.3850629,0.78691673,-0.4327285,-0.27327883,0.2562828,-0.4489324,1.1672165,-3.0279498,-0.00026048522,-3.6938584,-0.06993389,-0.3843174,0.89456743,0.9714328,-0.055188067,0.12480844,0.19415301,-0.09826699,-0.5734341,-0.80618566,1,0,0,0,0,0,0,-0.9062828,0.048932403,-0.6172165,2.1523476,-2.8337955,-5.3040743,0.84724426,-8.194601,-0.07113218,2.7676463
2.9745219,29.277199,12.513173,-11.563686,-1.3307505,0.30359766,-0.08836781,0.29520673,-0.3821655,-0.8085267,0.78681576,-0.15421128,-0.6534189,0.002482663,0.27254736,-0.7648655,1.8298815,1.5420176,2.131963,-1.3918078,1.6131761,0.24811931,-0.7332122,1.8964977,1.4772692,2.1529498,-1.3308262,1.6105112,0.5160002,-0.66291493,-1.4343733,1.395781,0.47980964,-0.43649492,-0.23173796,0.22600365,-0.4489348,1.1295311,-3.0279498,-0.00026048522,-3.79344,-0.07066774,-0.39002395,0.8862401,0.97174805,-0.0475629,0.12116567,0.19688158,-0.063661344,-0.56628346,-0.84498405,1,0,0,0,0,0,0,-0.8760036,0.048934788,-0.57953113,2.6943922,-2.6520967,-4.3135643,1.0210276,-30.66275,-0.20884871,4.01943
-0.09610689,18.722273,9.625192,-13.06584,-1.6072215,0.014219224,-0.091770895,0.33215564,-0.4969769,-0.8080653,0.77435493,-0.6811044,-0.6759773,0.3293134,0.28133488,-0.78290987,1.8156912,1.5547047,2.0848393,-1.3984239,1.6434425,0.25356495,-0.7405202,1.8819809,1.4912195,2.1540065,-1.335236,1.608724,0.55403537,-0.75367016,-1.4577886,1.394415,-0.019020176,-0.4417831,-0.16190267,0.19572449,-0.44893718,1.0908499,-3.0279498,-0.00026048522,-3.8930218,-0.07108879,-0.39560294,0.8774596,0.9718091,-0.040183097,0.11922111,0.19939597,-0.033239886,-0.5511506,-0.8924449,1,0,0,0,0,0,0,-0.84572446,0.04893717,-0.54084986,3.778553,-9.120464,-2.4426699,-0.2570629,-49.883064,-0.32452345,6.7695913
-4.831682,4.7900286,5.390011,-17.966932,-0.44753504,-0.28125668,-0.0139727965,0.38183254,-0.61317056,-0.81462914,0.7096167,-0.7312537,-0.6866496,0.39921352,0.2917482,-0.8018372,1.800518,1.5621812,2.080881,-1.4039009,1.6486454,0.2595545,-0.7492139,1.8673191,1.5048208,2.1504474,-1.339703,1.6076502,0.61369693,-0.90829635,-1.4689316,1.3481934,-0.46850577,-0.44777387,-0.08959532,0.16544533,-0.44893956,1.0511727,-3.0279498,-0.00026048522,-3.9926035,-0.071501255,-0.40107965,0.8682527,0.9716414,-0.033233456,0.1186589,0.20181301,-0.04149669,-0.5421107,-0.9333251,1,0,0,0,0,0,0,-0.8154453,0.048939556,-0.5011727,5.8904767,-15.574121,-1.1406183,-4.822421,-45.0372,-0.4091382,7.107249
-30.966557,-16.774916,-3.6892228,-30.081036,1.5514882,-1.0189729,-0.37540245,0.16888335,-0.69958794,-0.82873005,0.68654066,-0.7185066,-0.6985068,0.397564,0.27644283,-0.8191727,1.7844461,1.5734749,2.0785966,-1.4095536,1.6474066,0.2650591,-0.759669,1.8525581,1.5178423,2.1433635,-1.3442291,1.6072344,0.5297944,-1.092036,-1.478137,1.2856473,-0.78962713,-0.45337397,-0.02592681,0.13516617,-0.44894195,1.0104998,-3.0279498,-0.00026048522,-4.092185,-0.07266474,-0.40646148,0.858659,0.97142386,-0.026638817,0.11877153,0.2037626,-0.137819,-0.5321219,-0.97126055,1,0,0,0,0,0,0,-0.78516614,0.04894194,-0.46049982,-8.277046,-18.603075,-0.85322857,-6.5856934,-32.507706,-0.28266907,6.2795267
-85.33115,-46.749153,-17.19169,-53.294983,4.2544923,-2.5555072,-1.3345871,-0.34147903,-0.76415604,-0.8302098,0.65316105,-0.7356156,-0.6979664,0.44039452,0.23091121,-0.8360846,1.7695372,1.5831584,2.0698018,-1.4140258,1.6512738,0.26721823,-0.7719113,1.837738,1.53016,2.1339564,-1.3487953,1.607406,0.113607064,-1.2696528,-1.4831382,1.2119329,-0.99395394,-0.4563132,0.030997647,0.10488701,-0.44894433,0.9688311,-3.0279498,-0.00026048522,-4.1917667,-0.07590294,-0.41158366,0.84874135,0.9715029,-0.020158492,0.118993476,0.20400083,-0.3815135,-0.5009309,-1.0022303,1,0,0,0,0,0,0,-0.754887,0.048944324,-0.4188311,-40.932808,-18.19315,-0.42750835,-7.955265,-21.393372,0.16357899,5.4969234
-108.665634,-52.34058,-21.50564,-58.060364,5.1866946,-3.147389,-1.6290803,-0.641077,-0.80890554,-0.8362188,0.7203805,-0.68429226,-0.70943475,0.4077893,0.20311053,-0.85280186,1.7541162,1.602198,2.0655272,-1.4197388,1.6481849,0.26396286,-0.7856824,1.8228531,1.5421953,2.123386,-1.3533825,1.6080564,-0.468062,-1.4146638,-1.4908824,1.197735,-1.0823729,-0.45728496,0.0760463,0.07460785,-0.4489467,0.9261666,-3.0279498,-0.00026048522,-4.2913485,-0.08195925,-0.41627002,0.83843875,0.97208405,-0.013428909,0.11895193,0.2017982,-0.6757773,-0.45253396,-1.0435457,1,0,0,0,0,0,0,-0.7246078,0.04894671,-0.37616658,-57.002865,-15.039492,-0.9489775,-2.283144,-10.136938,0.58966875,4.3510356
-96.4784,-32.35642,-12.509026,-51.101307,4.581935,-3.029112,-1.3516968,-0.72878885,-0.8281642,-0.82446516,0.7041326,-0.5626112,-0.70958734,0.2733751,0.19108397,-0.8684988,1.7404065,1.6126086,2.0671248,-1.4243412,1.635394,0.2553593,-0.8005244,1.8079548,1.5541925,2.1127849,-1.3579715,1.6090063,-0.9871564,-1.5091606,-1.4905125,1.1975516,-1.0569062,-0.45683023,0.10139828,0.04432869,-0.4489491,0.88250625,-3.0279498,-0.00026048522,-4.39093,-0.090662956,-0.4203949,0.8278005,0.9731473,-0.006314398,0.11831199,0.19734924,-0.9312802,-0.39167663,-1.0750235,1,0,0,0,0,0,0,-0.69432867,0.048949093,-0.33250624,-50.71695,-9.987044,-0.26934147,-0.9283304,1.2675047,0.8225858,2.5555894
-66.15952,-2.973618,1.2399666,-37.724995,3.0671878,-2.4488046,-0.81553596,-0.7559037,-0.83323973,-0.82474035,0.6852182,-0.48637587,-0.71019363,0.20023625,0.17976892,-0.88384837,1.7254808,1.6227144,2.0641472,-1.428991,1.6290299,0.24284348,-0.81592816,1.7930775,1.566184,2.1029277,-1.3625606,1.6101125,-1.3368074,-1.5521969,-1.4876353,1.1973279,-0.9654951,-0.45727974,0.114223056,0.01404953,-0.44895148,0.8378501,-3.0279498,-0.00026048522,-4.490512,-0.10127592,-0.42391038,0.8169406,0.9745292,0.0011262795,0.11689726,0.19138075,-1.1011541,-0.32769427,-1.0942293,0,1,0,0,0,0,0,-0.6640495,0.048951477,-0.28785008,-34.0858,-4.727316,0.020933151,-0.7423639,8.151174,0.6205201,1.4321282
-31.362242,26.075798,15.262964,-23.14417,1.1671996,-1.7328312,-0.26023853,-0.7501332,-0.8264102,-0.8201143,0.6754386,-0.4907709,-0.71004385,0.18531223,0.16783015,-0.89856917,1.711066,1.6337279,2.0538507,-1.433565,1.6286438,0.22808212,-0.83140355,1.7776906,1.5783168,2.0916824,-1.3667659,1.6122142,-1.5440142,-1.5413083,-1.6416018,1.2425691,-1.5396655,-0.3281331,0.3716404,-0.009700298,-0.44921494,0.8118156,-1.3241266,0.0030645737,0.98990077,-0.112653255,-0.42690706,0.8056969,0.9758725,0.009073236,0.115981385,0.18476683,-1.1140591,-0.29060215,-1.1803304,0,1,0,0,0,0,0,-0.6402997,0.04921493,-0.2618156,-24.677229,1.8830538,-31.684422,8.828521,-124.871376,26.536882,50.906456
35.35025,176,110,-66.4718,-4.461691,-7.8381734,0.17244232,-0.44315222,-0.42357874,0.6957574,-0.5862135,-0.27811813,-0.6955276,0.32786664,0.1837669,-0.8737614,1.8472664,1.5196954,2.0638707,-1.4363186,1.6450008,0.21505964,-0.84287727,1.7621428,1.5833359,2.0740821,-1.378037,1.6199747,-1.223076,-1.0164696,-1.5183699,0.2587979,-1.8157282,-1.4028344,0.90473896,-0.022720814,-0.44914055,0.8219313,-1.3241266,0.0030645728,0.8903192,-0.123300076,-0.42818785,0.79688627,0.9766164,0.0113097355,0.11863831,0.17893435,-1.0461146,-0.059175078,-0.7836693,1,0,0,0,0,0,0,-0.62727916,0.049140543,-0.2719313,31.393742,52.45819,13.481736,-96.961006,-26.96414,-109.02587,52.892982
65.851425,176,110,-61.405777,-4.3360753,-6.8416114,0.64878654,-0.33873773,-0.30453905,0.7364925,-0.6153446,0.500937,-0.7156581,0.22270775,0.18118587,-0.8733312,1.8357921,1.5218015,2.1241758,-1.4496028,1.6422455,0.2069534,-0.8495196,1.7477099,1.5779724,2.0542037,-1.4008679,1.6330382,-0.6748411,-0.5472654,-1.4152392,-0.79880506,-2.04201,-2.5824492,1.4382006,-0.035961628,-0.44911003,0.83008766,-1.3241266,0.0030645728,0.7907375,-0.13300943,-0.42753005,0.79207873,0.97684395,0.0044900523,0.12307235,0.17495379,-0.942859,0.117632225,-0.3840109,1,0,0,0,0,0,0,-0.61403835,0.049110025,-0.28008765,54.317474,46.78011,11.21099,-104.94762,-21.70105,-119.78433,52.753784
-8.055668,96.17052,64.23868,-63.65959,0.7244222,-2.4844642,-1.0866799,-0.6247856,-0.32953757,-0.45591256,-0.7177174,-0.6884274,-0.6455233,0.5153981,0.14447485,-0.88247335,1.7021186,1.5062007,1.985361,-1.4654202,1.684578,0.20070899,-0.8535441,1.7355105,1.5653,2.0353668,-1.4260354,1.6470267,-0.60668504,-0.35532624,-1.1544873,-1.4237177,-1.8341955,-2.4980247,1.3875976,-0.049202442,-0.4490795,0.83724815,-1.3241266,0.0030645728,0.6911558,-0.14280558,-0.42592478,0.7903242,0.97702104,-0.006166232,0.12788506,0.17040335,-0.9879708,0.18135653,-0.11157749,1,0,0,0,0,0,0,-0.60079753,0.049079508,-0.28724813,7.1009874,18.830608,26.213789,-62.56609,19.774866,7.514572,-4.4332266
-0.9644859,130.26349,70.405266,-37.113174,-2.1367452,-0.8951448,-0.93618834,-0.626704,0.25029945,-0.4720808,-0.68917984,-0.57745355,-0.5509065,0.5081988,0.13803858,-0.82851416,1.6883024,1.496382,1.9776214,-1.4811261,1.6978465,0.19384158,-0.85420215,1.725537,1.5492516,2.01941,-1.4490514,1.6599184,-0.71281797,0.029293412,-0.9454175,-1.6642616,-1.520308,-2.237651,1.2566886,-0.062443256,-0.449049,0.8434129,-1.3241266,0.0030645728,0.5915741,-0.15217447,-0.42361093,0.79081124,0.97719306,-0.017247504,0.13327411,0.16442041,-0.91560715,0.25402257,0.09585258,1,0,0,0,0,0,0,-0.5875567,0.04904899,-0.29341286,-10.42912,38.036774,20.79029,-23.817085,30.169868,25.566387,-13.01527
-33.19167,55.127914,22.998034,-28.465054,0.4827671,0.22491542,-1.0790824,-0.7038237,0.029267441,-0.69116944,-0.70588195,-0.747109,-0.6130708,0.21357411,0.123459205,-0.8512754,1.65642,1.4786633,1.944699,-1.5103585,1.6812758,0.18506181,-0.85272586,1.7160364,1.532629,2.0058868,-1.4692426,1.6711832,-0.93244433,0.18627198,-0.95203793,-1.6614478,-1.2985567,-1.9463375,1.0832161,-0.07568407,-0.44901848,0.84858173,-1.3241266,0.0030645728,0.49199238,-0.1615839,-0.42095733,0.7920639,0.97743833,-0.026940225,0.13908882,0.15666132,-0.9450549,0.27583346,0.13040169,1,0,0,0,0,0,0,-0.5743159,0.049018472,-0.29858172,-21.791613,15.486458,-0.8383274,0.31561852,21.441483,29.10595,-17.299389
-21.078148,51.663383,19.835604,-16.535862,-0.32747704,0.59906006,-0.6387142,-0.663576,0.15283178,-0.60929006,-0.7309112,-0.73414403,-0.62451196,0.2686427,0.11870421,-0.8374427,1.6551074,1.4595379,1.9324723,-1.5316938,1.6980475,0.17443049,-0.84998405,1.7062784,1.5168076,1.994023,-1.486752,1.6808649,-1.1066417,0.30295214,-0.9837051,-1.55518,-1.1510859,-1.685563,0.9296443,-0.088924885,-0.44898796,0.85275483,-1.3241266,0.0030645728,0.39241073,-0.17100954,-0.4181459,0.79334426,0.97771865,-0.034703016,0.14529312,0.14748478,-0.937413,0.2904628,0.12422232,1,0,0,0,0,0,0,-0.5610751,0.048987955,-0.30275482,-17.402672,11.487621,-3.1755328,10.754681,14.13188,26.133156,-15.421522
-15.059332,31.003159,8.179926,-9.993997,0.01644969,1.034897,-0.37782788,-0.6595107,0.11663561,-0.67747927,-0.7031376,-0.7459545,-0.6395996,0.16251276,0.10847942,-0.8383205,1.6385305,1.4464937,1.9194275,-1.550712,1.6971163,0.16257751,-0.84679973,1.6957632,1.5023289,1.9830958,-1.5019593,1.6891028,-1.211515,0.3232027,-1.0739268,-1.4118052,-1.0745866,-1.465666,0.7882248,-0.1021657,-0.44895744,0.85593206,-1.3241266,0.0030645728,0.29282907,-0.18042278,-0.41538382,0.794188,0.9779956,-0.04044181,0.15175861,0.1373258,-0.93863595,0.2796572,0.06931817,1,0,0,0,0,0,0,-0.5478343,0.048957437,-0.30593204,-10.486054,1.9348443,-8.969903,14.4311905,7.224846,22.072124,-14.21721
-5.5489492,26.94587,7.0614824,-8.122741,0.024592698,1.1752236,-0.17528355,-0.6315755,0.11971657,-0.70604265,-0.7186395,-0.7516743,-0.653707,0.1957302,0.09941996,-0.8348281,1.625159,1.430465,1.9079283,-1.56733,1.7086757,0.15029323,-0.8437289,1.684281,1.4889984,1.9725748,-1.5152631,1.696118,-1.2340432,0.3014884,-1.1728109,-1.3065356,-1.0457578,-1.2851666,0.6724415,-0.11540651,-0.44892693,0.8581135,-1.3241266,0.0030645728,0.19324741,-0.18982172,-0.4128194,0.79445183,0.9782357,-0.044381328,0.1583516,0.12653007,-0.936604,0.25685957,0.0110382065,1,0,0,0,0,0,0,-0.53459346,0.04892692,-0.30811352,-2.2441626,-2.2209167,-9.818983,10.583401,2.5667906,18.097258,-11.644888
-1.8803259,15.895224,4.4212227,-9.797069,0.6468929,1.0572673,-0.03975293,-0.59098476,0.019442838,-0.7046284,-0.7356109,-0.7581217,-0.65205234,0.21613638,0.09119475,-0.8417846,1.6138182,1.4154373,1.8967626,-1.5804683,1.7177316,0.13829648,-0.8414601,1.6720148,1.476284,1.9621302,-1.5270047,1.7021471,-1.1880827,0.20195727,-1.2442468,-1.2599227,-1.0448904,-1.1372383,0.57980573,-0.12864733,-0.4488964,0.8592991,-1.3241266,0.0030645728,0.09366575,-0.199337,-0.41052246,0.79414564,0.9784328,-0.046953082,0.16477534,0.11538503,-0.95369977,0.22889511,-0.044998463,1,0,0,0,0,0,0,-0.52135265,0.048896402,-0.3092991,4.640484,-9.96826,-7.0682287,4.6131134,-0.1437664,14.797187,-9.24449
-6.2272925,12.221615,3.7048378,-13.848385,1.0939102,0.7873246,-0.10773527,-0.614803,-0.01382747,-0.7375222,-0.73867565,-0.7601745,-0.63909906,0.18684721,0.07681619,-0.8428429,1.5982627,1.4024165,1.8861127,-1.5909146,1.7208319,0.12676275,-0.8403138,1.6591345,1.4637165,1.9516035,-1.5374589,1.707358,-1.1415286,0.0854383,-1.3024279,-1.2561864,-1.0560058,-1.0145395,0.5016084,-0.14188814,-0.4488659,0.8594889,-1.3241266,0.0030645728,-0.00591591,-0.20915985,-0.40844655,0.7933428,0.97859794,-0.048493892,0.17087285,0.10390802,-0.98951113,0.20881446,-0.09253428,1,0,0,0,0,0,0,-0.50811183,0.048865885,-0.3094889,4.738188,-11.683888,-5.7456493,0.24876595,-1.3181686,12.292504,-7.7778697
-1.5924764,5.603764,3.7717285,-13.648778,1.4984962,0.57994604,0.0778315,-0.5174059,-0.16523221,-0.68935496,-0.7515045,-0.74320424,-0.6489768,0.22604696,0.07502215,-0.85683703,1.590199,1.388566,1.8772831,-1.6023566,1.7299627,0.11607412,-0.8408307,1.6461073,1.4509602,1.9410006,-1.5468583,1.7119261,-1.0444604,-0.097500026,-1.302452,-1.2828342,-1.0623113,-0.91523486,0.44233027,-0.15512896,-0.44883537,0.8586829,-1.3241266,0.0030645728,-0.10549757,-0.21939182,-0.4065523,0.79210216,0.9787444,-0.049421493,0.17631419,0.09235934,-1.0325761,0.19147626,-0.13525431,1,0,0,0,0,0,0,-0.49487102,0.048835367,-0.30868286,9.760022,-18.312445,0.13206005,-2.8695345,-0.8189678,9.904194,-5.769789
-0.9441569,9.778413,6.053749,-14.127199,1.4707482,0.44516557,0.092868574,-0.49153847,-0.20417073,-0.7036575,-0.7631641,-0.7055582,-0.66079396,0.23196204,0.06692028,-0.8612478,1.5757415,1.3746438,1.8704448,-1.6129377,1.7351223,0.10635487,-0.8430661,1.6331736,1.4378433,1.9304644,-1.555409,1.7159926,-0.9476442,-0.2657097,-1.2896107,-1.3219907,-1.0514547,-0.83496684,0.3952822,-0.16836977,-0.44880486,0.856881,-1.3241266,0.0030645728,-0.20507923,-0.23003292,-0.40478444,0.79049736,0.97888196,-0.049988873,0.18097247,0.08087164,-1.072603,0.180409,-0.1700053,1,0,0,0,0,0,0,-0.4816302,0.04880485,-0.306881,9.713697,-16.862494,1.450634,-4.128027,0.8822441,8.020508,-4.5296135
-8.743895,1.0622724,0.68015766,-15.286711,1.9324343,0.37170428,0.017289631,-0.49431986,-0.31933576,-0.74460876,-0.7575336,-0.6943292,-0.65747815,0.2023531,0.056922883,-0.87499964,1.5587127,1.36209,1.8610314,-1.6211568,1.7362279,0.09737126,-0.8470868,1.620215,1.424406,1.9200865,-1.5632615,1.7196337,-0.8816825,-0.44770274,-1.2974598,-1.3518476,-1.0337607,-0.7687109,0.35439345,-0.18161058,-0.44877434,0.85408336,-1.3241266,0.0030645728,-0.3046609,-0.24123478,-0.4030969,0.788436,0.97904533,-0.05018625,0.18477088,0.069362186,-1.1340083,0.17340782,-0.2200406,1,0,0,0,0,0,0,-0.4683894,0.04877433,-0.30408335,6.6747785,-18.243385,-0.6408453,-3.2804012,1.5912533,6.663847,-3.9022982
9.732937,9.246085,5.330646,-7.240078,1.1562701,0.6787312,0.33955663,-0.31230527,-0.41214716,-0.7194816,-0.7617724,-0.64957625,-0.67776823,0.2528694,0.066140726,-0.8883015,1.5482669,1.3482288,1.8551289,-1.6310383,1.7449206,0.08963815,-0.8529109,1.6072756,1.4107494,1.9100081,-1.570559,1.7229601,-0.7374582,-0.62726504,-1.2920278,-1.3709408,-0.9997172,-0.7169589,0.32605755,-0.1948514,-0.44874382,0.8502899,-1.3241266,0.0030645728,-0.40424255,-0.25277042,-0.40159607,0.7858654,0.9792349,-0.050119758,0.18761432,0.058205802,-1.1580296,0.15086101,-0.27194166,1,0,0,0,0,0,0,-0.45514858,0.048743814,-0.30028987,14.344347,-17.972015,0.77307224,-2.1238327,3.2626987,5.156946,-2.6009321
0.1667037,6.4008045,2.8101718,-9.473623,1.3754785,0.46097803,0.21671893,-0.36237663,-0.4949884,-0.7283145,-0.7574913,-0.652175,-0.6894954,0.23680583,0.053400487,-0.90240973,1.5344441,1.3350003,1.8447906,-1.6395086,1.7466407,0.08292226,-0.8604506,1.5943533,1.3970032,1.9002272,-1.5774198,1.7260329,-0.6496833,-0.7964109,-1.2915539,-1.3767644,-0.9714222,-0.6756789,0.30189323,-0.20809221,-0.4487133,0.8455006,-1.3241266,0.0030645728,-0.50382423,-0.2646494,-0.40023088,0.78273404,0.97946244,-0.049788732,0.1895503,0.047380935,-1.1956265,0.13988763,-0.33034274,1,0,0,0,0,0,0,-0.44190776,0.048713297,-0.29550058,8.759022,-16.960478,0.24819374,-0.85828304,2.6657462,4.1588783,-2.198565
22.509645,24.250805,10.933605,-0.6156869,0.028945863,0.89788663,0.49474788,-0.16717656,-0.51834214,-0.74036413,-0.7570392,-0.6401995,-0.6835129,0.2618125,0.0662046,-0.91228485,1.520317,1.3212993,1.8362073,-1.645771,1.7522141,0.07766191,-0.86931694,1.5813776,1.3832664,1.8907038,-1.5839238,1.7289149,-0.48549363,-0.91692317,-1.2985449,-1.3729308,-0.9464755,-0.6421007,0.28429365,-0.22133303,-0.44868279,0.8397155,-1.3241266,0.0030645728,-0.60340595,-0.27649498,-0.39913678,0.7790683,0.9796937,-0.049216334,0.19077793,0.03717125,-1.17839,0.10691774,-0.38298216,1,0,0,0,0,0,0,-0.42866695,0.04868278,-0.28971547,16.218931,-12.086749,-0.42386055,0.27780533,2.3604274,3.3378243,-1.574868
25.132105,35.06596,14.9350605,0.055390835,-0.42667782,0.91773236,0.4659927,-0.13133115,-0.53473943,-0.7515944,-0.75624377,-0.6037538,-0.68120885,0.22536238,0.06452879,-0.9227909,1.5062182,1.3076421,1.8303285,-1.6520447,1.7514511,0.07394413,-0.8790177,1.5682741,1.3695984,1.8814741,-1.590136,1.7316176,-0.33456036,-0.9879435,-1.3133056,-1.3648423,-0.9155417,-0.61416405,0.26600006,-0.23457384,-0.44865227,0.83293456,-1.3241266,0.0030645728,-0.7029877,-0.2880516,-0.39837027,0.77495396,0.97990465,-0.048406083,0.19151771,0.027650991,-1.1452037,0.07328476,-0.42593107,1,0,0,0,0,0,0,-0.41542614,0.04865226,-0.28293455,14.887899,-7.169044,-1.2146473,0.7659197,2.9371262,2.7992487,-1.698482
18.618673,49.769737,20.385904,-4.312065,-0.5739148,0.65147084,0.28534076,-0.14089599,-0.4897833,-0.7587032,-0.76819307,-0.53174657,-0.6783394,0.21099542,0.05985453,-0.92799604,1.4924039,1.2927791,1.8282995,-1.65797,1.7527171,0.07131306,-0.888873,1.5550028,1.3559551,1.8727137,-1.5961022,1.734141,-0.23968418,-0.9851126,-1.3310833,-1.3639878,-0.8638119,-0.5903486,0.2479131,-0.24781466,-0.44862175,0.8251578,-1.3241266,0.0030645728,-0.8025694,-0.29924297,-0.39781237,0.77059764,0.9800695,-0.047359444,0.19202864,0.018594405,-1.1072397,0.055632193,-0.4443569,1,0,0,0,0,0,0,-0.40218532,0.048621744,-0.2751578,9.369013,0.14795065,-1.5598774,0.09980202,4.939854,2.4466991,-1.7746657
17.920742,49.980347,20.181377,-4.5807924,-0.513865,0.6375582,0.25953317,-0.06604707,-0.5358171,-0.7657874,-0.76310277,-0.5004779,-0.6798766,0.16665867,0.06470835,-0.9424547,1.4784241,1.2796448,1.8226659,-1.6640899,1.7508068,0.069577254,-0.8986968,1.5415541,1.3423252,1.8645025,-1.6018605,1.736468,-0.15188885,-0.9818754,-1.3488799,-1.3624378,-0.8077607,-0.5706132,0.22787355,-0.26105547,-0.44859123,0.81638527,-1.3241266,0.0030645728,-0.9021511,-0.31007576,-0.3974216,0.7660631,0.98018956,-0.04609653,0.19236751,0.009902932,-1.0720419,0.038511254,-0.46199277,1,0,0,0,0,0,0,-0.3889445,0.048591226,-0.26638526,8.673986,0.1855731,-1.567936,0.16129017,5.3771615,2.0553827,-1.9691348
-6.2601566,43.164024,15.020565,-13.546219,0.51267934,0.18110168,-0.081023015,-0.17046236,-0.52902067,-0.8014279,-0.7596952,-0.41015065,-0.6877059,0.07610246,0.05253102,-0.9515988,1.4614114,1.2663558,1.8234875,-1.6706312,1.7440782,0.06795398,-0.9084166,1.5277983,1.3287163,1.8570219,-1.607449,1.7385451,-0.1655387,-0.96940356,-1.3839221,-1.3607517,-0.7290977,-0.55427945,0.20093222,-0.27429628,-0.4485607,0.8066169,-1.3241266,0.0030645728,-1.0017328,-0.32087708,-0.39697742,0.7613476,0.98028386,-0.044534225,0.19250675,0.0011510932,-1.0794898,0.051007304,-0.48011702,1,0,0,0,0,0,0,-0.3757037,0.04856071,-0.2566169,-1.285404,1.0668755,-3.3768415,0.06248951,7.601607,1.7984986,-2.6915908
8.396233,40.72706,15.090692,-6.7255898,0.056489527,0.477096,0.19107558,-0.01526253,-0.58543646,-0.79398984,-0.74561733,-0.4134146,-0.69489473,0.17989844,0.06642773,-0.96696025,1.4483993,1.2541546,1.8156805,-1.6769385,1.7565349,0.066680826,-0.9182824,1.5137774,1.3151875,1.8502051,-1.6129041,1.7404543,-0.11470709,-0.9928225,-1.4075826,-1.3504989,-0.66649485,-0.5420589,0.18772224,-0.2875371,-0.4485302,0.7958527,-1.3241266,0.0030645728,-1.1013145,-0.33161688,-0.39655733,0.75636154,0.9803676,-0.042708468,0.19235238,-0.0074698203,-1.0685875,0.04352407,-0.5100009,1,0,0,0,0,0,0,-0.36246288,0.04853019,-0.24585271,5.044295,-2.4749637,-2.186656,0.9428501,6.059587,1.3402104,-1.2598574
11.92139,36.23486,13.419362,-4.339664,-0.012927979,0.56267804,0.26958945,0.015534465,-0.62216145,-0.79940087,-0.7358173,-0.40422028,-0.696919,0.1757342,0.06823427,-0.98049855,1.4338373,1.2416058,1.809783,-1.682596,1.7580278,0.06602935,-0.9285811,1.4995753,1.3017998,1.8438898,-1.6182561,1.7422549,-0.048852302,-1.0426046,-1.4237846,-1.3351277,-0.62036765,-0.53261214,0.17792307,-0.3007779,-0.44849968,0.7840927,-1.3241266,0.0030645728,-1.2008963,-0.34223843,-0.3962655,0.7510005,0.98045754,-0.040661283,0.19183692,-0.015752262,-1.0562979,0.028910846,-0.5499789,0,1,0,0,0,0,0,-0.34922206,0.048499674,-0.23409271,6.518087,-5.0884724,-1.4314413,1.4277697,4.4442177,1.0444045,-0.8836031
8.1892395,37.217052,13.387548,-5.7123613,0.15279913,0.46162426,0.22867787,0.0027626902,-0.6188618,-0.81198025,-0.73008585,-0.3151963,-0.68853337,0.19632812,0.066305615,-0.9904673,1.4183773,1.2287912,1.8123702,-1.6871095,1.7618877,0.06588618,-0.93932426,1.4852225,1.2885723,1.838164,-1.6235204,1.7439905,-0.002929704,-1.0853534,-1.4386528,-1.319107,-0.5573929,-0.5239353,0.17249024,-0.31401873,-0.44846916,0.7713369,-1.3241266,0.0030645728,-1.300478,-0.35277843,-0.39607072,0.7452603,0.98056805,-0.038407408,0.19091614,-0.023711154,-1.0493935,0.020449154,-0.58743423,0,1,0,0,0,0,0,-0.33598125,0.048469156,-0.2213369,4.555406,-4.3989897,-1.306057,1.4802217,6.1136246,0.99452734,-0.44790506
5.135779,39.55809,14.17093,-6.9333134,0.19747499,0.32093212,0.20316502,0.008184803,-0.6319718,-0.80703425,-0.7213586,-0.28196877,-0.6886427,0.23896697,0.06670466,-1.0025214,1.4045191,1.2164365,1.809967,-1.6923846,1.7678872,0.06605751,-0.9504321,1.4706576,1.2755442,1.8326951,-1.6285843,1.7457851,0.022449972,-1.1177849,-1.4837441,-1.2937393,-0.5854505,-0.48182824,0.18784018,-0.32690763,-0.44772673,0.76186746,-1.0969106,0.16693643,-0.17716752,-0.36323357,-0.39595222,0.73912185,0.9806705,-0.035800386,0.18978544,-0.031384386,-1.0382428,0.0065084784,-0.636439,0,1,0,0,0,0,0,-0.32309234,0.04772672,-0.21186745,2.2838736,-3.0317068,-8.293819,3.2985926,-12.014842,7.8269186,3.132841
19.686771,67.11858,26.688444,-4.1194677,-0.38688153,0.3311635,0.31358546,0.08177472,-0.5178844,-0.7966653,-0.694067,0.07271739,-0.6450265,0.20286086,0.074234985,-1.0022205,1.3909911,1.2061374,1.8399669,-1.6930869,1.7660712,0.06669791,-0.96122664,1.4558643,1.2628319,1.8282444,-1.633323,1.7476394,0.077579364,-1.0672764,-1.4767412,-1.2633524,-0.39883292,-0.4707065,0.18471926,-0.33785868,-0.44605517,0.75940025,-1.0969106,0.16693643,-0.27674916,-0.37333345,-0.39596224,0.73285854,0.98078275,-0.03288475,0.18838923,-0.038642943,-0.99596584,0.00013120072,-0.6283917,0,1,0,0,0,0,0,-0.3121413,0.046055168,-0.20940024,5.4134965,4.870391,0.94943047,3.1577349,18.382566,1.3189197,-0.2874881
-11.950658,64.57954,23.858894,-17.710966,1.0906407,-0.41797137,-0.063280985,-0.08219955,-0.5274352,-0.776767,-0.7157791,0.18275903,-0.66409814,0.30204982,0.058477953,-1.0139701,1.3781877,1.191254,1.8465203,-1.6997328,1.7778444,0.06704719,-0.9714691,1.4412941,1.2502644,1.8259327,-1.6379826,1.7495296,0.020951645,-1.0107459,-1.4496324,-1.2546648,-0.17656715,-0.4633586,0.19049463,-0.34882784,-0.44438577,0.7558859,-1.0969106,0.16693643,-0.37633082,-0.3833828,-0.39566755,0.72680396,0.9809557,-0.030114619,0.18632592,-0.045841753,-1.0031122,0.04276955,-0.602967,0,1,0,0,0,0,0,-0.30117214,0.04438576,-0.20588589,-5.588614,5.3952456,2.984786,0.8728981,21.834078,1.0352612,0.58639646
-18.478386,58.601913,20.229345,-18.175838,0.9684269,-0.5643135,-0.11945402,-0.094853766,-0.5413934,-0.79765475,-0.6685971,0.039333347,-0.69169086,0.21929902,0.057561815,-1.0256084,1.3615286,1.1834047,1.829866,-1.7071517,1.7714595,0.06664856,-0.98129386,1.4269565,1.2379181,1.8252003,-1.6426251,1.7514083,-0.059823122,-0.9738156,-1.427611,-1.2280533,-0.039984643,-0.46349448,0.18691097,-0.359797,-0.44271636,0.75137573,-1.0969106,0.16693643,-0.47591248,-0.39351988,-0.39489985,0.72087985,0.981138,-0.027436202,0.18380536,-0.053208154,-1.0126141,0.09182943,-0.59347755,0,1,0,0,0,0,0,-0.29020298,0.042716354,-0.20137572,-7.985383,3.4445167,2.473092,2.6147842,13.289547,0.26957393,-0.3757596
-3.6397533,60.32588,21.671022,-11.738655,0.2117894,-0.29163787,0.044649072,-0.028304745,-0.52652675,-0.7866079,-0.63983566,0.092442505,-0.68193954,0.15439549,0.06381808,-1.0339465,1.3482957,1.1739346,1.8344445,-1.710819,1.7668478,0.06582613,-0.990822,1.4128326,1.2259381,1.8255475,-1.6472714,1.7531974,-0.0897104,-0.9464974,-1.4063805,-1.1879659,0.05862855,-0.46437648,0.1763238,-0.37076616,-0.44104695,0.74586976,-1.0969106,0.16693643,-0.57549417,-0.40356493,-0.39381146,0.71499074,0.981303,-0.024821796,0.18099515,-0.060572732,-0.9972713,0.11878141,-0.5916052,0,1,0,0,0,0,0,-0.2792338,0.041046947,-0.19586974,-2.986145,2.5253654,2.404809,4.0191174,9.562767,0.13365746,-1.079315
-2.52427,61.635735,21.842464,-12.660438,0.09631944,-0.20732452,0.0008114353,-0.044240367,-0.50370175,-0.7908074,-0.6772867,0.10344969,-0.6721891,0.19434752,0.061402097,-1.0411922,1.3337519,1.1582094,1.8358924,-1.7144903,1.7726322,0.064826086,-1.0000794,1.3988403,1.214124,1.826585,-1.6519215,1.7549121,-0.1034583,-0.9195339,-1.3957688,-1.179078,0.11770397,-0.46456927,0.16968119,-0.38173532,-0.43937755,0.73936796,-1.0969106,0.16693643,-0.6750759,-0.41345835,-0.3924911,0.709138,0.9814171,-0.022264669,0.17807697,-0.067921214,-0.98208994,0.14093168,-0.5870879,0,1,0,0,0,0,0,-0.26826465,0.03937754,-0.18936795,-1.3799801,2.4899244,1.35777,0.89452267,5.63868,0.19795895,-0.7055819
9.9427805,62.492645,23.110996,-9.431769,-0.48337924,0.082080364,0.04464882,0.023085179,-0.51236004,-0.7784965,-0.7164828,0.009289591,-0.69063234,0.12267642,0.067134604,-1.0513154,1.3209907,1.1424757,1.827514,-1.7209847,1.7671797,0.06411238,-1.0091851,1.3849567,1.202121,1.8277066,-1.6565888,1.7565162,-0.060895555,-0.9081154,-1.3847257,-1.2073117,0.109494396,-0.46708417,0.15697543,-0.3927045,-0.43770814,0.73187035,-1.0969106,0.16693643,-0.7746576,-0.42309237,-0.391109,0.7033197,0.9814387,-0.019797951,0.1753002,-0.07520493,-0.95262575,0.14172366,-0.5835691,0,1,0,0,0,0,0,-0.2572955,0.037708133,-0.18187034,4.1911244,0.96025467,1.4220715,-2.7983189,-1.0286063,-0.08762479,-1.3271123
38.498775,64.28493,26.677423,0.023632288,-1.1476938,0.67218924,0.2897303,0.180593,-0.53131115,-0.7534472,-0.7361963,0.17165591,-0.6939953,0.0747598,0.08217168,-1.0623162,1.309612,1.1285014,1.8448721,-1.7259883,1.7639922,0.064603046,-1.0183327,1.3712677,1.1897023,1.8290932,-1.6612866,1.7579677,0.08509543,-0.91745865,-1.36248,-1.2529604,0.14785126,-0.47043738,0.14113341,-0.40367365,-0.43603873,0.72337687,-1.0969106,0.16693643,-0.8742393,-0.43224907,-0.39002562,0.69753695,0.9814269,-0.017605301,0.17249162,-0.08208433,-0.8988101,0.10140487,-0.57987535,0,1,0,0,0,0,0,-0.24632633,0.036038727,-0.17337686,14.411055,-1.0600209,2.5575638,-4.4686794,3.7223995,-0.22781491,-1.5786558
17.092293,77.038086,28.956524,-9.999949,-0.4695495,0.16880232,0.06885477,0.06536619,-0.42328915,-0.7680126,-0.7510828,0.29298675,-0.68207556,0.24362183,0.07113966,-1.0606617,1.2944664,1.114594,1.8583919,-1.7294941,1.7823299,0.06594192,-1.027106,1.3576229,1.1768297,1.8309914,-1.6659402,1.7594197,0.1497846,-0.8643622,-1.3680654,-1.2973453,0.1937476,-0.45999607,0.14709345,-0.41455698,-0.43387055,0.71651405,-1.0740334,0.25341994,-0.49651965,-0.44099236,-0.38910723,0.69195926,0.98136073,-0.015608645,0.16975486,-0.08871659,-0.861054,0.09081355,-0.55526096,0,1,0,0,0,0,0,-0.235443,0.033870548,-0.16651404,6.384142,5.013573,0.8793831,-4.754758,8.518868,0.10844469,-0.107347965
-18.849686,91.17908,29.369026,-23.419785,0.18468514,-0.6553819,-0.21148786,-0.0934226,-0.295276,-0.8030317,-0.7126032,0.2738701,-0.631615,0.38464543,0.05659966,-1.0566336,1.2773197,1.1055694,1.8583784,-1.7291017,1.7978842,0.066873305,-1.0347468,1.3437561,1.1637796,1.8334749,-1.6704987,1.7610085,0.074313544,-0.73164517,-1.3913004,-1.3069347,0.26525337,-0.45325175,0.16200261,-0.42446375,-0.43161297,0.7116764,-0.9634439,0.2172068,-0.4808898,-0.4495325,-0.38785386,0.6868247,0.98114496,-0.013570366,0.1674343,-0.0955825,-0.84723437,0.13984308,-0.50233567,0,1,0,0,0,0,0,-0.22553623,0.031612962,-0.1616764,-7.5306506,12.940335,-1.8652678,-0.80246925,6.7472486,1.0902762,1.2484223
-40.689323,71.89539,19.361116,-27.778852,0.7406611,-0.9425367,-0.3985035,-0.15253854,-0.36814663,-0.7960472,-0.70610815,0.024152525,-0.642425,0.1401587,0.05161945,-1.0715615,1.2641513,1.0931689,1.8358902,-1.7347412,1.7750244,0.06655399,-1.0415007,1.3296891,1.150781,1.8357712,-1.6749866,1.7625703,-0.06708476,-0.6576344,-1.4102422,-1.2974756,0.21498457,-0.44591004,0.1535648,-0.43370008,-0.42943335,0.7068129,-0.9189935,0.22309546,-0.48648345,-0.45812893,-0.38594508,0.68197334,0.9807017,-0.011296682,0.1657637,-0.10304782,-0.8591224,0.21126491,-0.48145878,0,1,0,0,0,0,0,-0.21629989,0.02943334,-0.1568129,-14.063019,7.0793986,-1.4352322,0.9874821,-5.8663425,1.1405468,-0.99848807
30.681416,63.13792,24.141615,-0.32539403,-1.1488969,0.43871525,0.2765702,0.20473026,-0.43818158,-0.7544244,-0.70450395,0.2435472,-0.67974865,-0.0772985,0.08702701,-1.0853188,1.2542467,1.0803306,1.8601259,-1.7429614,1.7548404,0.06658986,-1.0481287,1.3156797,1.1379389,1.8381051,-1.679467,1.763884,0.026603632,-0.66508704,-1.3965133,-1.2794132,0.23900159,-0.448289,0.12381531,-0.44258213,-0.42727232,0.7019516,-0.8781556,0.21359019,-0.48646083,-0.466372,-0.38409877,0.6771237,0.98018867,-0.00904508,0.16423547,-0.11034017,-0.8085197,0.17972127,-0.48760542,0,1,0,0,0,0,0,-0.20741785,0.027272314,-0.15195161,9.205583,-0.8724451,1.7283201,1.9341469,2.238214,-0.09614825,-3.0305653
46.927273,63.02608,25.808233,4.339694,-1.333074,0.8199295,0.43833402,0.22933343,-0.40605658,-0.76777023,-0.7374693,0.37454176,-0.6769443,0.123612985,0.0895232,-1.0887344,1.2389027,1.0641919,1.8755592,-1.7471614,1.7762452,0.0680043,-1.0549132,1.3017942,1.12511,1.8411187,-1.6839825,1.7650566,0.17905776,-0.6832007,-1.3845892,-1.2836293,0.3218702,-0.45222282,0.115101464,-0.45103025,-0.42526174,0.6971262,-0.83379674,0.19677627,-0.48148125,-0.4740696,-0.38275027,0.6722174,0.97973734,-0.007046224,0.16242284,-0.11697745,-0.75279856,0.12361915,-0.49281904,0,1,0,0,0,0,0,-0.19896972,0.02526173,-0.1471262,15.044653,-1.9106388,1.5240192,-0.27935505,8.192754,-0.25172234,-0.86424947
55.016426,71.67784,29.906199,5.563565,-1.4307487,0.87956667,0.5376846,0.27806222,-0.36489546,-0.7495275,-0.72919893,0.5377565,-0.67185813,0.29150343,0.095810525,-1.0914028,1.2268414,1.0521902,1.8948944,-1.7511683,1.794207,0.0710773,-1.0617186,1.2880971,1.112239,1.8454397,-1.6885332,1.7662942,0.34929255,-0.6801354,-1.3635334,-1.2876186,0.46853945,-0.4553841,0.12661715,-0.45898247,-0.42344117,0.6924915,-0.78253865,0.17704354,-0.45784736,-0.4811535,-0.38201165,0.6673792,0.9794204,-0.005464012,0.16010605,-0.122767076,-0.68953586,0.060089245,-0.4821423,0,1,0,0,0,0,0,-0.19101751,0.023441166,-0.14249146,16.797184,0.18829107,2.4849176,-0.20883083,14.553422,-0.13070107,1.1648744
26.538158,62.893265,22.820618,-2.2756896,-0.418113,0.47252017,0.34585023,0.19883054,-0.37978485,-0.77059823,-0.67712367,0.5958906,-0.6579148,0.34080806,0.09096035,-1.0996971,1.2110373,1.0445266,1.9050287,-1.7543247,1.8003751,0.07512458,-1.068524,1.2744844,1.0995647,1.8512529,-1.6930952,1.767698,0.4227849,-0.6812279,-1.3592583,-1.2605125,0.61826414,-0.4557041,0.14494595,-0.46654892,-0.4217384,0.68792707,-0.748154,0.16799091,-0.45619905,-0.48785543,-0.3816228,0.6625473,0.97923696,-0.004173497,0.15720166,-0.12792614,-0.6597378,0.03406417,-0.48470867,0,1,0,0,0,0,0,-0.18345106,0.02173838,-0.13792706,7.2227597,-0.25196075,0.7874489,2.7987242,14.812195,0.1903832,1.8488139
15.704013,56.933964,18.467106,-3.2155125,-0.32160816,0.33107507,0.33207536,0.21565302,-0.38309273,-0.79261273,-0.6058349,0.6140209,-0.65660036,0.34651607,0.09668988,-1.1068332,1.1952231,1.0389812,1.912655,-1.7587552,1.8023497,0.07955237,-1.0753504,1.2607648,1.0875041,1.8583461,-1.6976554,1.7692795,0.4491577,-0.6835876,-1.3750322,-1.1876869,0.7391917,-0.45540988,0.16266726,-0.47382545,-0.4201007,0.68322855,-0.7210095,0.16233377,-0.47443515,-0.4943061,-0.3814044,0.6575599,0.97916496,-0.002930256,0.15377638,-0.13259052,-0.63609666,0.019431904,-0.5044984,0,1,0,0,0,0,0,-0.17617452,0.020100683,-0.13322854,2.5506496,-0.3660679,-1.2604952,7.3470116,11.937248,0.23492575,1.7728925
3.1166852,52.990017,15.2133465,-6.3822327,-0.07882616,0.12054452,0.23039897,0.20016927,-0.39298517,-0.7889072,-0.57049954,0.6081939,-0.6534626,0.29625112,0.09956929,-1.1146489,1.1818742,1.0304542,1.9191655,-1.7630017,1.7989045,0.08391756,-1.0822493,1.2468853,1.0762832,1.8663155,-1.7022066,1.7709827,0.43212676,-0.6921853,-1.3910357,-1.100038,0.8157074,-0.4544255,0.17276898,-0.48087978,-0.41848636,0.67826027,-0.70027494,0.16114448,-0.5040285,-0.50059223,-0.3812151,0.65231293,0.97916454,-0.0015713363,0.14997163,-0.13690446,-0.62205124,0.020376202,-0.5323504,0,1,0,0,0,0,0,-0.16912019,0.01848635,-0.12826025,-1.7539799,-0.99116564,-1.2889385,8.7928295,7.474065,0.2993524,0.9938836
0.4953966,66.39484,19.395016,-10.953869,-0.20865473,-0.046199873,0.09444845,0.2208497,-0.3433032,-0.78652763,-0.6007632,0.6004352,-0.6553289,0.28200445,0.106002524,-1.1165797,1.1682326,1.0162069,1.926359,-1.7677395,1.7991831,0.08810885,-1.0889956,1.2328835,1.0656402,1.8747516,-1.7067477,1.7727528,0.41456893,-0.6693655,-1.4017992,-1.052083,0.8521417,-0.45303354,0.17809355,-0.48768616,-0.41687799,0.67317605,-0.6741845,0.16070491,-0.5097284,-0.50670433,-0.3809688,0.6469768,0.9791624,-0.000118467,0.14610304,-0.141049,-0.60351145,0.02751331,-0.5349527,0,1,0,0,0,0,0,-0.16231382,0.016877979,-0.12317604,-1.823163,2.109313,-0.67744255,4.8809767,3.4253955,0.38548112,0.43167174
1.8508147,60.069984,17.278036,-10.1345825,-0.22989306,0.053615406,0.050100517,0.23596841,-0.38995242,-0.78719026,-0.5818778,0.57513833,-0.6627184,0.16277133,0.11170569,-1.1279908,1.1541644,1.0074525,1.9322654,-1.7730196,1.7890298,0.092211924,-1.0957114,1.2188148,1.0553424,1.883297,-1.711285,1.7744751,0.40867692,-0.6730062,-1.4073008,-1.0221947,0.85467273,-0.45313781,0.17005114,-0.49425983,-0.4152844,0.6679635,-0.6517894,0.15888654,-0.52486753,-0.5126581,-0.38068938,0.641543,0.9791278,0.0014119782,0.14229476,-0.14511648,-0.5887039,0.029637378,-0.54708654,0,1,0,0,0,0,0,-0.15574014,0.015284389,-0.11796349,-0.6537795,-0.5181432,-0.1784563,3.0283213,0.06771088,0.2117455,-0.883469
1.5582492,69.27821,20.311325,-12.896148,-0.24892446,-0.039687604,-0.011677741,0.23367323,-0.35207155,-0.77925974,-0.594537,0.5966824,-0.6542612,0.19546941,0.11557925,-1.1309185,1.1408889,0.9958887,1.9429653,-1.7767111,1.7940221,0.09629018,-1.102328,1.2047596,1.0451343,1.8918289,-1.715816,1.7761322,0.40725988,-0.65853983,-1.4035182,-1.0199152,0.85197353,-0.45223802,0.16385393,-0.5005827,-0.41370893,0.66273755,-0.6258656,0.15705791,-0.521658,-0.51844835,-0.3803656,0.63612556,0.9790362,0.0029438457,0.13865398,-0.14917915,-0.57191783,0.034781996,-0.54067206,0,1,0,0,0,0,0,-0.14941728,0.013708919,-0.11273754,-0.2268374,1.2668252,0.8205414,0.30913353,-0.48890114,0.34447908,-0.7458538
4.0612564,60.4951,17.537516,-11.082695,-0.12361853,0.12515071,0.012604807,0.25289127,-0.39832243,-0.7853708,-0.59451544,0.6246088,-0.65848005,0.21766323,0.121579304,-1.1421602,1.1262225,0.9856828,1.9542898,-1.781664,1.7978985,0.10046785,-1.1090227,1.190733,1.0348556,1.9004003,-1.7203461,1.7777518,0.4210151,-0.6738526,-1.4012148,-1.0303138,0.8582534,-0.45245475,0.1611471,-0.5066862,-0.41216254,0.6574455,-0.6051863,0.15379296,-0.53154725,-0.5241265,-0.38003373,0.6306713,0.9789031,0.004442367,0.13509071,-0.15322988,-0.56258684,0.03406982,-0.54773647,0,1,0,0,0,0,0,-0.14331377,0.012162536,-0.10744548,1.2989402,-1.68823,0.6239176,-1.0161638,0.45363903,0.21384358,-0.34214854
