Afshin1997/kuka_rl_ros2/src/catch_and_throw/input_files/idealpd/ft_idealpd_6.csv
torque0,torque1,torque2,torque3,torque4,torque5,torque6,action0,action1,action2,action3,action4,action5,action6,set_target_0,set_target_1,set_target_2,set_target_3,set_target_4,set_target_5,set_target_6,joint_pos_0,joint_pos_1,joint_pos_2,joint_pos_3,joint_pos_4,joint_pos_5,joint_pos_6,joint_vel_0,joint_vel_1,joint_vel_2,joint_vel_3,joint_vel_4,joint_vel_5,joint_vel_6,joint_vel_disc_0,joint_vel_disc_1,joint_vel_disc_2,joint_vel_disc_3,joint_vel_disc_4,joint_vel_disc_5,joint_vel_disc_6,tennisball_pos_0,tennisball_pos_1,tennisball_pos_2,tennisball_lin_vel_0,tennisball_lin_vel_1,tennisball_lin_vel_2,end_effector_pos_0,end_effector_pos_1,end_effector_pos_2,end_effector_rot_0,end_effector_rot_1,end_effector_rot_2,end_effector_rot_3,end_effector_lin_vel_0,end_effector_lin_vel_1,end_effector_lin_vel_2,obs_task_0,obs_task_1,obs_task_2,obs_task_3,obs_task_4,to_final_target_0,to_final_target_1,to_final_target_2,joint_acc_0,joint_acc_1,joint_acc_2,joint_acc_3,joint_acc_4,joint_acc_5,joint_acc_6,joint_acc_disc_0,joint_acc_disc_1,joint_acc_disc_2,joint_acc_disc_3,joint_acc_disc_4,joint_acc_disc_5,joint_acc_disc_6,
0,0,0,0,0,0,0,0,0,0,0,0,0,0,0.77214473,0.010991931,1.3424469,1.2048558,1.6196736,-0.926038,1.5548704,0.77214473,0.010991931,1.3424469,1.2048558,1.6196736,-0.926038,1.5548704,0,0,0,0,0,0,0,0,0,0,0,0,0,0,3.4678733,-0.50073576,1.1409113,-3.452576,0.20458178,4.4615684,0.33815563,-0.32181358,0.917081,0.77676797,-0.07378622,0.610125,-0.13760279,0,0,0,1,0,0,0,0,0,-4.1678734,0.34073576,-0.58091134,0,0,0,0,0,0,0,0,0,0,0,0,0,0
-5.7857695,-9.078366,-5.716579,-29.249876,3.8685296,1.8276398,0.2984722,-0.1731178,-0.08110048,0.1768186,0.116064094,0.18593334,-0.16063486,-0.1828051,0.7582953,0.0045038927,1.3565924,1.2141409,1.6345483,-0.9388888,1.540246,0.7720408,0.010943241,1.3425528,1.2049245,1.6197861,-0.9260614,1.5548427,-0.02768658,-0.012984486,0.028328342,0.018472543,0.029957037,-0.006213079,-0.0074061463,-0.0207901,-0.009737909,0.02117157,0.01373291,0.022506714,-0.004673004,-0.005531311,3.4506104,-0.4997127,1.1630325,-3.452576,0.20458178,4.4117846,0.33813968,-0.3218367,0.917062,0.7768008,-0.073752806,0.6100996,-0.13754798,-0.004185444,-0.0062767006,-0.0052044005,1,0,0,0,0,0,-4.1506104,0.3397127,-0.6030325,-5.5328226,-2.596974,5.6631465,3.6936972,5.994972,-1.2417831,-1.4871689,-4.15802,-1.9475818,4.234314,2.746582,4.501343,-0.93460083,-1.1062622
-9.756841,-17.674255,-9.335621,-24.739145,4.006125,2.1492443,0.4913499,-0.31048873,-0.1365149,0.3179465,0.20793104,0.33405614,-0.29222012,-0.32858026,0.7472017,0.000022049062,1.3679885,1.2215589,1.6465106,-0.949439,1.5285563,0.77171654,0.010796361,1.3428856,1.205141,1.6201371,-0.9261358,1.5547559,-0.07730728,-0.034842487,0.07924672,0.051625583,0.083677284,-0.017667733,-0.020773454,-0.06484985,-0.02937615,0.06656647,0.043296814,0.07019043,-0.014877319,-0.017356873,3.4333475,-0.4986899,1.1849048,-3.452576,0.20458178,4.362001,0.3380931,-0.321908,0.9170009,0.7769009,-0.07365117,0.61002296,-0.13737705,-0.0110562155,-0.016861137,-0.01458034,1,0,0,0,0,0,-4.1333475,0.3386899,-0.6249048,-9.911099,-4.3725,10.175268,6.6306324,10.748972,-2.2841125,-2.6839972,-8.811951,-3.927648,9.0789795,5.912781,9.536743,-2.040863,-2.3651123
-11.743511,-22.0785,-11.096931,-21.845127,4.051738,2.2821836,0.6089505,-0.4198349,-0.17249289,0.4308009,0.28119078,0.452018,-0.39899737,-0.44484538,0.73812973,-0.0030030701,1.3773497,1.2276362,1.6562985,-0.95805556,1.5191683,0.771089,0.01052364,1.3435293,1.2055606,1.6208161,-0.9262817,1.5545852,-0.1414782,-0.061114185,0.14532354,0.094566636,0.15319754,-0.032979757,-0.03860066,-0.12550354,-0.05454421,0.12874603,0.08392334,0.13580322,-0.029182434,-0.03414154,3.4160845,-0.49766707,1.2065282,-3.452576,0.20458178,4.312217,0.33800748,-0.32204056,0.91688186,0.7770915,-0.07345923,0.6098771,-0.13704877,-0.019060804,-0.029578589,-0.026763268,1,0,0,0,0,0,-4.1160846,0.33766708,-0.6465282,-12.812972,-5.2569985,13.202458,8.590805,13.907472,-3.0448563,-3.5787225,-12.130737,-5.0336123,12.435913,8.125305,13.122559,-2.861023,-3.3569336
-12.18959,-23.180017,-11.429599,-20.419113,4.0333123,2.2735841,0.6593197,-0.5072485,-0.1952795,0.52120596,0.33972776,0.54593027,-0.48509634,-0.5375613,0.73050916,-0.005098719,1.3852258,1.2327387,1.6644906,-0.9650894,1.5115803,0.7701115,0.010116078,1.3445345,1.2062138,1.6218747,-0.9265139,1.5543134,-0.2134514,-0.08831884,0.2196335,0.14275089,0.2311303,-0.050833926,-0.059533987,-0.19550323,-0.08151233,0.20103455,0.13065338,0.2117157,-0.04644394,-0.054359436,3.3988216,-0.49664426,1.2279027,-3.452576,0.20458178,4.2624335,0.337882,-0.32223678,0.9166969,0.7773843,-0.073170505,0.6096528,-0.13654028,-0.027085189,-0.042713784,-0.040462095,1,0,0,0,0,0,-4.0988216,0.33664426,-0.66790265,-14.365637,-5.4456415,14.845067,9.643036,15.586769,-3.5404592,-4.201019,-13.999939,-5.3936243,14.457703,9.346008,15.182495,-3.452301,-4.043579
-11.705598,-22.271786,-10.911798,-20.059391,3.9831421,2.1837525,0.6625952,-0.577381,-0.2101833,0.5937449,0.3864476,0.62067556,-0.5542125,-0.6114706,0.723921,-0.006698584,1.392034,1.2371297,1.6715287,-0.9708509,1.5053958,0.76876396,0.009576589,1.3459231,1.207115,1.6233338,-0.926841,1.55393,-0.2881528,-0.11443631,0.29701215,0.19277729,0.311871,-0.07015338,-0.082476966,-0.26950836,-0.10789782,0.27770996,0.18024445,0.29182434,-0.06542206,-0.076675415,3.3815587,-0.49562144,1.2490282,-3.452576,0.20458178,4.21265,0.33771905,-0.3224976,0.9164412,0.7777813,-0.07278577,0.60934776,-0.13584433,-0.034530386,-0.055212576,-0.05469751,1,0,0,0,0,0,-4.0815587,0.33562145,-0.6890282,-14.902317,-5.229953,15.452921,10.015381,16.145718,-3.8207471,-4.60352,-14.801025,-5.277097,15.335083,9.918213,16.021729,-3.7956238,-4.463196
-10.8247795,-20.45499,-10.046933,-20.403654,3.9270444,2.066346,0.6362789,-0.6337843,-0.22116353,0.6520336,0.4235716,0.6801517,-0.60952085,-0.67034936,0.7180612,-0.008116493,1.3980857,1.2410008,1.6777459,-0.9756027,1.5003021,0.7670459,0.008913845,1.347696,1.2082642,1.6251916,-0.92726684,1.5534275,-0.362085,-0.13859873,0.37379095,0.24229422,0.3915007,-0.090082794,-0.10657172,-0.34360886,-0.13254881,0.3545761,0.22983551,0.3715515,-0.08516312,-0.10051727,3.3642957,-0.49459863,1.2699049,-3.452576,0.20458178,4.162866,0.33752152,-0.3228166,0.9161146,0.7782795,-0.072311334,0.6089634,-0.134965,-0.04123957,-0.06660881,-0.068778574,1,0,0,0,0,0,-4.064296,0.33459863,-0.70990485,-14.737868,-4.8399806,15.324187,9.91717,15.922153,-3.931415,-4.8342047,-14.820099,-4.930198,15.37323,9.918213,15.945435,-3.9482117,-4.7683716
-9.893721,-18.471855,-9.159936,-21.205345,3.8857117,1.9541378,0.5934488,-0.67919666,-0.23131023,0.69893485,0.45281655,0.72746557,-0.6537113,-0.71721834,0.7127102,-0.009590974,1.4036107,1.2444896,1.6833888,-0.9795637,1.49605,0.7649693,0.008137785,1.3498417,1.2096528,1.6274337,-0.9277923,1.5528018,-0.43292245,-0.16076262,0.4475375,0.28967425,0.4674544,-0.10998399,-0.13116568,-0.41532516,-0.15521199,0.42915344,0.27770996,0.44841766,-0.10509491,-0.12512207,3.3470328,-0.4935758,1.2905326,-3.452576,0.20458178,4.1130824,0.3372925,-0.32318807,0.91572076,0.7788734,-0.07175715,0.60850185,-0.1339124,-0.047334578,-0.0768035,-0.08219935,1,0,0,0,0,0,-4.047033,0.33357581,-0.7305326,-14.105999,-4.4405403,14.705383,9.493053,15.187323,-3.9161353,-4.934475,-14.343262,-4.532635,14.915466,9.57489,15.37323,-3.9863586,-4.9209595
-9.118022,-16.771502,-8.440576,-22.265915,3.8688078,1.8653839,0.54389787,-0.71575093,-0.2426662,0.7367202,0.47555745,0.76508576,-0.6890142,-0.75449646,0.7077092,-0.011275511,1.4087794,1.2476974,1.6886405,-0.98291343,1.4924421,0.76255554,0.0072567426,1.3523394,1.2112664,1.6300362,-0.92841506,1.5520542,-0.4992186,-0.18136974,0.51675385,0.33390394,0.53820634,-0.1293979,-0.15573904,-0.48274994,-0.17620847,0.4995346,0.3227234,0.52051544,-0.124549866,-0.14953613,3.3297698,-0.492553,1.3109114,-3.452576,0.20458178,4.0632987,0.33703467,-0.32360697,0.9152629,0.77955556,-0.07113197,0.60796726,-0.13269894,-0.05308208,-0.08592348,-0.09462531,1,0,0,0,0,0,-4.02977,0.332553,-0.7509114,-13.18239,-4.128802,13.783503,8.865845,14.148736,-3.8104267,-4.930961,-13.484955,-4.199296,14.076233,9.002686,14.419556,-3.8909912,-4.8828125
-8.568315,-15.512702,-7.949554,-23.457497,3.8764331,1.8048395,0.492861,-0.7451301,-0.25591716,0.7672057,0.49300689,0.79498005,-0.7172158,-0.7841115,0.7029451,-0.01321663,1.4137158,1.2507069,1.6936346,-0.98579234,1.4893253,0.7598304,0.006276302,1.3551632,1.213087,1.6329697,-0.9291322,1.5511844,-0.56013495,-0.20100482,0.5805667,0.37439853,0.60289836,-0.14799494,-0.17990234,-0.5450249,-0.1960881,0.56476593,0.36411285,0.58670044,-0.14343262,-0.1739502,3.312507,-0.49153018,1.3310413,-3.452576,0.20458178,4.013515,0.33674827,-0.32406735,0.9147475,0.7803193,-0.07044539,0.60736215,-0.13134052,-0.058773834,-0.094184056,-0.10585265,1,0,0,0,0,0,-4.012507,0.33153018,-0.77104133,-12.088943,-3.9335728,12.684107,8.1213,12.939429,-3.6398292,-4.8496065,-12.454987,-3.9759278,13.046265,8.277893,13.2369995,-3.7765503,-4.8828125
-8.241153,-14.699493,-7.6767364,-24.692041,3.9048333,1.7695138,0.4434599,-0.7686739,-0.27116436,0.7918464,0.5062501,0.8187222,-0.73972404,-0.8076038,0.6983365,-0.015416846,1.4185109,1.253587,1.6984675,-0.98831016,1.4865761,0.75682205,0.005199246,1.3582846,1.2150954,1.6362027,-0.92993855,1.5501974,-0.615308,-0.22022219,0.6385932,0.4109032,0.66119766,-0.1655608,-0.20339695,-0.6016731,-0.21541119,0.6242752,0.40168762,0.6465912,-0.16126633,-0.19741058,3.295244,-0.49050736,1.3509221,-3.452576,0.20458178,3.9637308,0.3364331,-0.32456827,0.9141804,0.78115726,-0.06970494,0.6066901,-0.129852,-0.064661846,-0.1018055,-0.11577858,1,0,0,0,0,0,-3.995244,0.33050737,-0.7909221,-10.920835,-3.8489401,11.505651,7.3254824,11.6642475,-3.4270346,-4.716611,-11.329651,-3.8646162,11.901855,7.5149536,11.978149,-3.566742,-4.6920776
-8.137964,-14.3464575,-7.6192417,-25.897879,3.9511778,1.7579274,0.39857262,-0.7874433,-0.2888956,0.8118144,0.5162728,0.83757883,-0.75766504,-0.82620347,0.69382656,-0.017912403,1.4232297,1.2563972,1.703209,-0.99055177,1.484101,0.7535595,0.004025582,1.361674,1.2172717,1.6397027,-0.93082833,1.5490959,-0.6646608,-0.23957674,0.69076645,0.44342422,0.7131382,-0.18194006,-0.22600257,-0.65250397,-0.23473278,0.6778717,0.43525696,0.69999695,-0.17795563,-0.22029877,3.277981,-0.48948455,1.370554,-3.452576,0.20458178,3.9139466,0.33608726,-0.32510495,0.91356856,0.78206336,-0.06891807,0.60595316,-0.12824905,-0.07097214,-0.109021224,-0.12438331,1,0,0,0,0,0,-3.977981,0.32948455,-0.81055397,-9.7358465,-3.8752317,10.312104,6.5306306,10.395813,-3.183663,-4.539424,-10.166168,-3.8643181,10.719299,6.713867,10.681152,-3.33786,-4.5776367
-8.21877,-14.380188,-7.734912,-27.037014,4.0105014,1.7641215,0.358855,-0.80228615,-0.30903256,0.8280519,0.5239324,0.85256374,-0.77190965,-0.84090024,0.68937665,-0.020697022,1.4279181,1.2591863,1.7079078,-0.9925811,1.4818238,0.75007147,0.0027528869,1.3653036,1.2195967,1.6434401,-0.93179536,1.5478847,-0.7083119,-0.25953197,0.7372428,0.47213042,0.7589757,-0.19704789,-0.2476099,-0.69761276,-0.25453907,0.7259369,0.4650116,0.7474899,-0.19340515,-0.24223328,3.260718,-0.48846173,1.3899369,-3.452576,0.20458178,3.8641624,0.3357076,-0.3256774,0.91291803,0.7830333,-0.068089314,0.6051521,-0.12654491,-0.077872984,-0.11602697,-0.13170283,1,0,0,0,0,0,-3.9607182,0.32846174,-0.8299369,-8.572769,-3.9942682,9.14793,5.7693243,9.178567,-2.923584,-4.3403983,-9.021759,-3.9612591,9.613037,5.9509277,9.498596,-3.0899048,-4.386902
-8.412224,-14.658827,-7.951572,-28.079172,4.075124,1.7796139,0.32483274,-0.81391585,-0.33091432,0.84131455,0.52998626,0.86448747,-0.78310645,-0.85250264,0.6849582,-0.023720257,1.4326088,1.2619957,1.7125992,-0.9944439,1.4796845,0.7463855,0.0013771065,1.369145,1.2220525,1.6473855,-0.93283296,1.5465696,-0.7465175,-0.28036788,0.77832234,0.4973367,0.7991254,-0.21083315,-0.2681177,-0.73719025,-0.27515605,0.76828,0.49114227,0.7890701,-0.20751953,-0.26302338,3.2434552,-0.48743892,1.409071,-3.452576,0.20458178,3.8143783,0.33529094,-0.3262844,0.91223526,0.7840621,-0.067222506,0.6042883,-0.12475293,-0.08544483,-0.122955784,-0.13782658,1,0,0,0,0,0,-3.9434552,0.32743892,-0.84907097,-7.459688,-4.169464,8.042574,5.0706387,8.043933,-2.6537359,-4.1208506,-7.915497,-4.123396,8.468628,5.2261353,8.31604,-2.822876,-4.15802
-8.658956,-15.054414,-8.209889,-29.007929,4.1372557,1.7979536,0.29569855,-0.82291275,-0.35385394,0.8522035,0.5351413,0.8740024,-0.79175234,-0.8616618,0.6805525,-0.02693121,1.4373213,1.2648637,1.7173057,-0.99617314,1.4776367,0.7425279,-0.00010654254,1.3731734,1.2246226,1.651512,-0.93393445,1.5451562,-0.77960926,-0.30218628,0.81434214,0.51944196,0.8340311,-0.22327183,-0.28748128,-0.7715225,-0.2967298,0.80566406,0.51403046,0.82530975,-0.22029877,-0.28266907,3.2261922,-0.4864161,1.4279561,-3.452576,0.20458178,3.764594,0.33483434,-0.32692623,0.91152567,0.78514653,-0.06632186,0.6033622,-0.12288363,-0.093698,-0.1298915,-0.14288609,1,0,0,0,0,0,-3.9261923,0.3264161,-0.8679561,-6.4116716,-4.36517,7.003331,4.4513702,6.9978237,-2.3797214,-3.8922668,-6.866455,-4.3147507,7.4768066,4.5776367,7.247925,-2.5558472,-3.9291382
-8.870616,-15.398486,-8.422406,-29.821468,4.190345,1.8089967,0.2709984,-0.82976115,-0.3769861,0.8611946,0.5398666,0.88161206,-0.7983488,-0.8688791,0.676147,-0.03026543,1.4420689,1.2678119,1.722041,-0.9978024,1.4756459,0.738522,-0.0017026623,1.3773638,1.2272929,1.6557959,-0.93509316,1.5436513,-0.80796504,-0.3249046,0.8457367,0.5388906,0.8642214,-0.2343688,-0.3056916,-0.8011818,-0.31922397,0.838089,0.5340576,0.856781,-0.23174286,-0.3009796,3.2089293,-0.4853933,1.4465923,-3.452576,0.20458178,3.71481,0.33433393,-0.32760406,0.9107944,0.7862832,-0.06538773,0.6023743,-0.120947465,-0.102546126,-0.13682887,-0.1470312,1,0,0,0,0,0,-3.9089293,0.3253933,-0.8865923,-5.438447,-4.5444846,6.0501337,3.9205074,6.057358,-2.1076202,-3.6617994,-5.9318542,-4.4988337,6.4849854,4.005432,6.2942505,-2.2888184,-3.6621094
-9.014724,-15.609644,-8.557163,-30.531242,4.2311764,1.8098559,0.24961399,-0.8348752,-0.3996176,0.86866236,0.5443622,0.8877057,-0.8033142,-0.87454677,0.67173195,-0.033672072,1.4468567,1.2708418,1.7268124,-0.9993583,1.4736876,0.7343907,-0.003414947,1.3816954,1.2300519,1.6602143,-0.9363024,1.5420587,-0.83198476,-0.34830776,0.8728863,0.55610096,0.8902092,-0.24415007,-0.32275587,-0.8262634,-0.34245694,0.86631775,0.55179596,0.8836746,-0.2418518,-0.31852722,3.1916664,-0.48437047,1.4649796,-3.452576,0.20458178,3.6650257,0.3337874,-0.3283155,0.9100451,0.78746897,-0.06442245,0.60132563,-0.118953444,-0.111873254,-0.14373273,-0.1504068,1,0,0,0,0,0,-3.8916664,0.32437047,-0.90497965,-4.544735,-4.6808243,5.172324,3.4727573,5.2193403,-1.8419683,-3.432572,-5.016327,-4.646593,5.645752,3.5476685,5.378723,-2.0217896,-3.5095215
-9.036855,-15.592377,-8.561096,-31.150782,4.2568216,1.7943538,0.23081556,-0.83858365,-0.42124486,0.87490785,0.5487467,0.8925905,-0.8070021,-0.8789783,0.667304,-0.037114535,1.451688,1.2739516,1.7316215,-1.0008626,1.4717405,0.730154,-0.005245726,1.386149,1.23289,1.664749,-0.937556,1.540385,-0.8520364,-0.3721046,0.89621335,0.5714522,0.9124803,-0.25266173,-0.33870903,-0.84733963,-0.3661558,0.8907318,0.56762695,0.9069443,-0.25072098,-0.33473969,3.1744034,-0.48334765,1.483118,-3.452576,0.20458178,3.6152415,0.33319348,-0.32906127,0.9092811,0.7887012,-0.063427344,0.6002166,-0.116907865,-0.12150802,-0.15050916,-0.15314971,1,0,0,0,0,0,-3.8744035,0.32334766,-0.92311805,-3.724146,-4.758954,4.3783426,3.1002998,4.4787645,-1.5868664,-3.2104135,-4.2152405,-4.7397733,4.8828125,3.1661987,4.6539307,-1.7738342,-3.2424927
-8.954748,-15.361683,-8.451641,-31.70452,4.270366,1.7651551,0.21413358,-0.84115684,-0.4415518,0.8801693,0.55301833,0.8965061,-0.80971926,-0.8824159,0.6628614,-0.04056987,1.4565626,1.2771314,1.7364695,-1.0023335,1.4697918,0.72583,-0.0071957777,1.3907057,1.2357987,1.6693829,-0.9388473,1.538636,-0.8685159,-0.39597762,0.9160664,0.5852372,0.9315327,-0.25997058,-0.35355482,-0.86479187,-0.39001033,0.9113312,0.58174133,0.9267807,-0.258255,-0.34980774,3.1571405,-0.48232484,1.5010076,-3.452576,0.20458178,3.5654573,0.33255076,-0.32984114,0.9085054,0.78997636,-0.062403046,0.5990489,-0.11481923,-0.13130692,-0.1570759,-0.1553601,1,0,0,0,0,0,-3.8571405,0.32232484,-0.94100755,-2.9829502,-4.7735333,3.654027,2.7858257,3.8378954,-1.346612,-2.9888988,-3.490448,-4.7709045,4.119873,2.822876,3.9672852,-1.5068054,-3.0136108
-8.7631235,-14.909502,-8.22424,-32.207287,4.27151,1.7218881,0.19851819,-0.84281594,-0.4603538,0.88463366,0.55711585,0.8996427,-0.81173736,-0.88504577,0.65840477,-0.04402408,1.4614764,1.280368,1.7413543,-1.0037863,1.4678323,0.7214355,-0.009264325,1.395351,1.2387713,1.6741008,-0.940171,1.5368164,-0.88176906,-0.41961685,0.93276286,0.59768116,0.947761,-0.26615658,-0.36734337,-0.87890625,-0.4137094,0.9290695,0.59452057,0.94356537,-0.26474,-0.36392212,3.1398776,-0.48130202,1.5186481,-3.452576,0.20458178,3.5156732,0.33185917,-0.33065224,0.90771997,0.79129213,-0.06135063,0.5978238,-0.112692386,-0.14112657,-0.16334203,-0.15712106,1,0,0,0,0,0,-3.8398776,0.32130203,-0.95864815,-2.3106575,-4.7260284,2.9926538,2.5158644,3.2760143,-1.1238337,-2.7772546,-2.822876,-4.7398148,3.5476685,2.5558472,3.3569336,-1.2969971,-2.822876
-8.4543915,-14.2311535,-7.871769,-32.667107,4.2611785,1.6634758,0.18406506,-0.84373164,-0.47750798,0.8884526,0.5610109,0.9021496,-0.81328404,-0.88701844,0.653937,-0.047464963,1.4664272,1.2836522,1.7462727,-1.0052338,1.4658549,0.71698564,-0.011449103,1.4000698,1.2418011,1.6788911,-0.9415219,1.5349319,-0.89212155,-0.4427319,0.94664884,0.6089731,0.96155906,-0.27132437,-0.38011804,-0.8899689,-0.4369557,0.9437561,0.60596466,0.9580612,-0.27017593,-0.3768921,3.1226146,-0.4802792,1.5360398,-3.452576,0.20458178,3.465889,0.3311191,-0.33149314,0.9069277,0.79264593,-0.06027193,0.5965418,-0.11053311,-0.15081644,-0.16920407,-0.1585011,1,0,0,0,0,0,-3.8226147,0.3202792,-0.9760398,-1.7046213,-4.6203732,2.4014473,2.2832155,2.793169,-0.92332363,-2.5743127,-2.2125244,-4.6492577,2.937317,2.2888184,2.89917,-1.0871887,-2.5939941
-8.071905,-13.393283,-7.4372425,-33.099094,4.2430515,1.5956072,0.1703333,-0.84405124,-0.49297893,0.8917409,0.5646314,0.90414214,-0.8145503,-0.8884448,0.64946157,-0.050887417,1.4714091,1.2869717,1.7512224,-1.0066859,1.4638563,0.71249336,-0.013746549,1.4048477,1.2448844,1.6837424,-0.9428952,1.5329874,-0.89987993,-0.46506917,0.9579516,0.6192337,0.9732848,-0.2755749,-0.39191276,-0.8984566,-0.45948923,0.95558167,0.6166458,0.97026825,-0.2746582,-0.3889084,3.1053517,-0.4792564,1.5531826,-3.452576,0.20458178,3.4161048,0.33033153,-0.33236217,0.90612924,0.7940341,-0.059166964,0.59520596,-0.10834642,-0.16028005,-0.1746007,-0.15954208,1,0,0,0,0,0,-3.8053517,0.3192564,-0.9931826,-1.1603832,-4.463911,1.856041,2.0743132,2.3821115,-0.7442355,-2.3781776,-1.6975403,-4.506707,2.3651123,2.1362305,2.4414062,-0.89645386,-2.4032593
-7.6182117,-12.412426,-6.9236436,-33.49833,4.2163005,1.5184081,0.1571782,-0.8438967,-0.50684226,0.89458185,0.5679664,0.9057176,-0.81565106,-0.88941664,0.6449816,-0.054293927,1.4764143,1.2903217,1.7561998,-1.0081472,1.4618341,0.70797056,-0.016152022,1.4096743,1.2480153,1.6886452,-0.9442866,1.5309875,-0.90533537,-0.48642835,0.9669429,0.62857836,0.98320216,-0.27902275,-0.40277603,-0.9045601,-0.4810946,0.96530914,0.62618256,0.98056793,-0.27828217,-0.399971,3.0880888,-0.47823358,1.5700765,-3.452576,0.20458178,3.3663206,0.32949787,-0.333256,0.90532666,0.7954545,-0.05803812,0.5938171,-0.106136605,-0.169421,-0.17947376,-0.16029245,1,0,0,0,0,0,-3.7880888,0.31823358,-1.0100765,-0.6753683,-4.267299,1.3658285,1.8880367,2.023673,-0.5893111,-2.1914601,-1.2207031,-4.3210745,1.9454956,1.9073486,2.0599365,-0.7247925,-2.2125244
-7.099786,-11.308182,-6.337567,-33.890274,4.185133,1.432246,0.14456427,-0.84336054,-0.5191518,0.89704615,0.5709804,0.90695006,-0.8166919,-0.89000654,0.64050174,-0.05768417,1.4814379,1.2936937,1.7612013,-1.009622,1.459787,0.7034287,-0.018660037,1.414538,1.2511901,1.693592,-0.9456923,1.5289361,-0.9087333,-0.5066532,0.9738853,0.6370349,0.9915881,-0.28178492,-0.41274825,-0.9083748,-0.5016029,0.9727478,0.63495636,0.98934174,-0.2811432,-0.4102707,3.0708258,-0.47721076,1.5867214,-3.452576,0.20458178,3.3165364,0.3286203,-0.334172,0.90452117,0.7969039,-0.056886885,0.5923775,-0.103908576,-0.17815676,-0.18375823,-0.16075891,1,0,0,0,0,0,-3.7708259,0.31721076,-1.0267215,-0.24080276,-4.039371,0.929451,1.7071009,1.7208338,-0.45862198,-2.0129561,-0.76293945,-4.101658,1.4877319,1.7547607,1.7547607,-0.5722046,-2.0599365
-6.5589595,-10.150077,-5.7214675,-34.255043,4.149467,1.3426685,0.13259616,-0.8425169,-0.5300002,0.89918786,0.5736369,0.9078976,-0.81775755,-0.8902684,0.63602734,-0.061060056,1.4864731,1.297081,1.7662238,-1.0111129,1.4577147,0.69887584,-0.021264507,1.4194294,1.254404,1.6985759,-0.94710994,1.5268381,-0.91031194,-0.5256323,0.97895205,0.64467776,0.9986727,-0.28398132,-0.42187026,-0.91056824,-0.52089393,0.9782791,0.6427765,0.9967804,-0.28352737,-0.4196167,3.0535629,-0.47618794,1.6031175,-3.452576,0.20458178,3.2667522,0.32770061,-0.33510804,0.9037142,0.79837996,-0.055714786,0.5908886,-0.10166504,-0.18644814,-0.18744396,-0.16097187,1,0,0,0,0,0,-3.753563,0.31618795,-1.0431175,0.14462471,-3.789115,0.52928925,1.5408039,1.4639616,-0.35272837,-1.8425107,-0.4386902,-3.8582087,1.1062622,1.5640259,1.4877319,-0.47683716,-1.8692017
-6.000567,-8.95287,-5.079933,-34.609566,4.111562,1.2498324,0.1210854,-0.8414306,-0.5394911,0.9010524,0.57588816,0.90860575,-0.8189075,-0.89024377,0.6315614,-0.06442379,1.4915136,1.300475,1.7712643,-1.0126226,1.4556186,0.6943211,-0.02395895,1.4243399,1.2576531,1.7035912,-0.94853663,1.5246971,-0.91031486,-0.54329425,0.98235965,0.6515197,1.0046381,-0.2857305,-0.43017146,-0.9109497,-0.5388886,0.9820938,0.6498337,1.0030746,-0.28533936,-0.42819977,3.0363,-0.47516513,1.6192646,-3.452576,0.20458178,3.216968,0.32674107,-0.3360603,0.90290695,0.7998802,-0.05452423,0.5893523,-0.09941057,-0.1942649,-0.19051553,-0.16093685,1,0,0,0,0,0,-3.7363,0.31516513,-1.0592647,0.47962666,-3.524518,0.17414093,1.3768673,1.2433052,-0.27115345,-1.6777754,-0.076293945,-3.5989285,0.76293945,1.411438,1.2588501,-0.36239624,-1.7166138
-5.4246945,-7.726013,-4.414358,-34.945297,4.0707483,1.154045,0.11018039,-0.8401444,-0.5477118,0.902678,0.5777007,0.9091101,-0.82019687,-0.88996536,0.6271095,-0.06777589,1.4965541,1.3038691,1.77632,-1.0141524,1.4534998,0.6897716,-0.026736615,1.4292618,1.2609338,1.7086333,-0.94997096,1.5225189,-0.9089091,-0.5595985,0.9842892,0.65759486,1.0096432,-0.28713483,-0.43769634,-0.90990067,-0.5555332,0.9843826,0.6561279,1.0084152,-0.28686523,-0.43563843,3.019037,-0.4741423,1.6351628,-3.452576,0.20458178,3.1671839,0.3257444,-0.3370254,0.9021009,0.8014023,-0.053316697,0.5877706,-0.097146414,-0.2015739,-0.19296177,-0.1606693,1,0,0,0,0,0,-3.719037,0.31414232,-1.0751629,0.7792711,-3.2518387,-0.14266968,1.2196302,1.0543346,-0.21048784,-1.5219092,0.20980835,-3.3289194,0.45776367,1.2588501,1.0681152,-0.30517578,-1.4877319
-4.858598,-6.5116844,-3.751213,-35.270493,4.0295377,1.0582852,0.099717125,-0.83869624,-0.5547675,0.9040952,0.57904714,0.90943944,-0.82165533,-0.88945776,0.6226759,-0.07111801,1.5015894,1.3072575,1.7813884,-1.0157034,1.4513623,0.68523353,-0.02959068,1.4341894,1.264242,1.7136973,-0.9514115,1.5203054,-0.90630275,-0.57453245,0.98491037,0.6629078,1.0138246,-0.28830528,-0.4444783,-0.90761185,-0.5708128,0.98552704,0.66165924,1.0128021,-0.288105,-0.44269562,3.001774,-0.4731195,1.6508121,-3.452576,0.20458178,3.1173997,0.3247136,-0.33800054,0.901297,0.8029437,-0.052095637,0.58614504,-0.09487606,-0.20837644,-0.19479485,-0.16017011,1,0,0,0,0,0,-3.7017741,0.3131195,-1.0908122,1.0356426,-2.9766083,-0.42378902,1.0632753,0.8925438,-0.17231703,-1.3727546,0.45776367,-3.0559301,0.22888184,1.1062622,0.8773804,-0.24795532,-1.411438
-4.3027005,-5.315732,-3.091618,-35.58499,3.9878964,0.96276677,0.0895316,-0.8371115,-0.5607439,0.9053314,0.57991487,0.9096164,-0.82330203,-0.888742,0.6182646,-0.074450195,1.506616,1.3106352,1.7864666,-1.0172757,1.449206,0.68071216,-0.032514315,1.4391161,1.2675742,1.7187794,-0.95285726,1.5180604,-0.9026668,-0.5881051,0.9843849,0.6674617,1.0172926,-0.28933218,-0.4505776,-0.904274,-0.58472717,0.9853363,0.6664276,1.0164261,-0.28915405,-0.44898987,2.9845111,-0.47209668,1.6662126,-3.452576,0.20458178,3.0676155,0.3236504,-0.33898258,0.90049624,0.80450183,-0.050863024,0.58447784,-0.092602864,-0.2146723,-0.19602735,-0.15944187,1,0,0,0,0,0,-3.6845112,0.3120967,-1.1062126,1.2557507,-2.7032137,-0.67026615,0.90749264,0.7524967,-0.15234947,-1.2354732,0.667572,-2.7828693,-0.038146973,0.9536743,0.7247925,-0.20980835,-1.2588501
-3.7720778,-4.1633873,-2.4508603,-35.888878,3.9473076,0.86927795,0.08003172,-0.8354168,-0.5657393,0.9064074,0.58028793,0.90965885,-0.8251393,-0.8878317,0.61387885,-0.07777345,1.5116287,1.3139973,1.7915522,-1.0188684,1.4470339,0.67621225,-0.035500806,1.4440352,1.2709264,1.7238759,-0.9543078,1.5157878,-0.8981591,-0.6003434,0.982836,0.67125946,1.0201595,-0.2903042,-0.45600277,-0.89998245,-0.59729815,0.9838104,0.67043304,1.0192871,-0.29010773,-0.45452118,2.9672482,-0.47107387,1.681364,-3.452576,0.20458178,3.0178313,0.32255706,-0.33996892,0.8996999,0.80607516,-0.04962032,0.5827703,-0.0903286,-0.22048077,-0.19668736,-0.15848339,1,0,0,0,0,0,-3.6672482,0.31107387,-1.1213641,1.4423609,-2.4352312,-0.8899689,0.752306,0.63467026,-0.15019178,-1.099813,0.8583069,-2.5141954,-0.30517578,0.8010864,0.5722046,-0.19073486,-1.1062622
-3.2567809,-3.044676,-1.8195268,-36.18249,3.9071836,0.7765254,0.07107453,-0.8336348,-0.5698452,0.90734047,0.5801615,0.9095811,-0.82715654,-0.8867372,0.60952145,-0.081088424,1.5166224,1.3173393,1.7966424,-1.0204803,1.4448489,0.6717381,-0.038543653,1.4489437,1.2742947,1.7289847,-0.9557631,1.5134895,-0.89292455,-0.6112898,0.9804292,0.674305,1.0225114,-0.29130015,-0.46079075,-0.8948326,-0.6085694,0.98171234,0.67367554,1.0217667,-0.2910614,-0.45967102,2.9499853,-0.47005105,1.6962664,-3.452576,0.20458178,2.9680471,0.32143697,-0.3409567,0.89890915,0.8076613,-0.04837153,0.58102447,-0.08805571,-0.2258092,-0.19679093,-0.157294,1,0,0,0,0,0,-3.6499853,0.31005105,-1.1362665,1.5979528,-2.175784,-1.074338,0.59797764,0.5338669,-0.16378164,-0.9715557,1.0299683,-2.2542477,-0.4196167,0.64849854,0.49591064,-0.19073486,-1.0299683
-2.7551177,-1.9594367,-1.1963565,-36.465252,3.8675678,0.6843486,0.06273776,-0.83177406,-0.5731233,0.9081477,0.57955873,0.9093946,-0.82933944,-0.885471,0.6051962,-0.084393516,1.5215956,1.3206594,1.8017362,-1.0221102,1.4426517,0.6672916,-0.041636597,1.453838,1.2776755,1.734104,-0.95722365,1.5111701,-0.88710374,-0.6209938,0.97734284,0.6766082,1.0244344,-0.29238766,-0.4649795,-0.8893013,-0.6185889,0.9788513,0.6761551,1.0238647,-0.29211044,-0.4638672,2.9327223,-0.46902823,1.7109199,-3.452576,0.20458178,2.918263,0.32029182,-0.3419428,0.8981255,0.80925924,-0.04711842,0.5792411,-0.085785076,-0.23066461,-0.19635172,-0.15587328,1,0,0,0,0,0,-3.6327224,0.30902824,-1.1509199,1.7236948,-1.9262552,-1.2210608,0.4456997,0.4500389,-0.19077063,-0.8507967,1.1062622,-2.0039082,-0.5722046,0.49591064,0.4196167,-0.20980835,-0.8392334
-2.2986422,-0.9508388,-0.6129397,-36.73404,3.8293424,0.5969183,0.054834194,-0.82985413,-0.57567334,0.9088414,0.5784879,0.9091088,-0.8316611,-0.88404083,0.6009033,-0.087690465,1.5265453,1.3239546,1.8068328,-1.0237565,1.4404469,0.66287607,-0.04477362,1.4587141,1.2810649,1.739231,-0.9586899,1.5088317,-0.8808371,-0.6295155,0.97366256,0.6781835,1.0259628,-0.2936218,-0.46858218,-0.8831024,-0.62740445,0.97522736,0.6778717,1.0253906,-0.29325485,-0.46768188,2.9154594,-0.46800542,1.7253244,-3.452576,0.20458178,2.8684788,0.31912398,-0.34292555,0.89734936,0.81086653,-0.045863546,0.5774223,-0.083519064,-0.23508681,-0.19541946,-0.15422818,1,0,0,0,0,0,-3.6154594,0.30800542,-1.1653244,1.819396,-1.6888618,-1.348424,0.29642582,0.3727436,-0.22848845,-0.7327318,1.2397766,-1.7631054,-0.7247925,0.34332275,0.30517578,-0.22888184,-0.76293945
-1.861472,0.012659788,-0.044838786,-36.9878,3.7911565,0.51113266,0.047340102,-0.8278834,-0.5775841,0.9094323,0.57698816,0.9087329,-0.83409464,-0.8824548,0.5966454,-0.09098035,1.5314687,1.3272239,1.8119296,-1.0254174,1.4382354,0.65849346,-0.047949087,1.4635712,1.284459,1.7443656,-0.96016335,1.5064781,-0.8742069,-0.636923,0.96951205,0.6790533,1.0271308,-0.29504538,-0.47165316,-0.87652206,-0.63509345,0.97141266,0.6788254,1.0269165,-0.29468536,-0.47073364,2.8981965,-0.4669826,1.73948,-3.452576,0.20458178,2.8186946,0.3179357,-0.34390068,0.8965829,0.81248254,-0.04460988,0.5755686,-0.08125764,-0.23908861,-0.19401768,-0.1523658,1,0,0,0,0,0,-3.5981965,0.3069826,-1.1794801,1.8966436,-1.4650822,-1.4488935,0.15177727,0.3021717,-0.27457476,-0.62549114,1.3160706,-1.5377998,-0.76293945,0.19073486,0.30517578,-0.2861023,-0.61035156
-1.4585935,0.9096799,0.49328947,-37.225395,3.7544286,0.4287361,0.040637888,-0.82586795,-0.5789328,0.90993094,0.5751125,0.90827453,-0.83660954,-0.880721,0.59242404,-0.09426371,1.5363656,1.3304679,1.8170276,-1.0270921,1.4360204,0.6541447,-0.051157694,1.4684063,1.287856,1.749504,-0.9616449,1.5041101,-0.8673429,-0.6432907,0.9650252,0.6792516,1.0279998,-0.29669404,-0.47420835,-0.869751,-0.6417215,0.96702576,0.6793976,1.0276794,-0.2963066,-0.47359467,2.8809335,-0.4659598,1.7533867,-3.452576,0.20458178,2.7689104,0.3167293,-0.3448677,0.89582586,0.81410486,-0.043359462,0.57368255,-0.07900288,-0.24269876,-0.19218205,-0.15029433,1,0,0,0,0,0,-3.5809336,0.3059598,-1.1933868,1.946044,-1.256299,-1.5203714,0.01411438,0.24356842,-0.3273487,-0.5214572,1.3542175,-1.3256073,-0.8773804,0.11444092,0.15258789,-0.32424927,-0.5722046
-1.1025051,1.7237296,0.9879061,-37.440853,3.7181137,0.35179663,0.03417786,-0.8238137,-0.5798238,0.9103448,0.5729167,0.90774363,-0.83917844,-0.87884474,0.5882396,-0.0975436,1.5412339,1.3336893,1.8221234,-1.0287791,1.4338025,0.6498303,-0.054394554,1.4732176,1.2912501,1.7546452,-0.963135,1.5017307,-0.86033857,-0.64869976,0.9602617,0.6788238,1.0285517,-0.29858375,-0.47629154,-0.8628845,-0.647372,0.9622574,0.6788254,1.0282516,-0.29802322,-0.47588348,2.8636706,-0.46493697,1.7670445,-3.452576,0.20458178,2.7191262,0.3155057,-0.345824,0.89508104,0.8157332,-0.042115033,0.571764,-0.07675668,-0.2459585,-0.18996751,-0.14803524,1,0,0,0,0,0,-3.5636706,0.30493698,-1.2070446,1.9752979,-1.0638714,-1.578188,-0.11434555,0.18100739,-0.38297176,-0.42608976,1.373291,-1.1301041,-0.9536743,-0.11444092,0.11444092,-0.34332275,-0.45776367
-0.771155,2.4822373,1.4616537,-37.654865,3.6851387,0.27682906,0.028610911,-0.8217341,-0.58031654,0.91068244,0.5704174,0.9071442,-0.84178036,-0.87682664,0.58409154,-0.10081988,1.5460722,1.3368835,1.8272167,-1.0304774,1.4315846,0.64555115,-0.057655167,1.4780041,1.2946404,1.7597884,-0.9646361,1.4993427,-0.85326684,-0.6532319,0.9553418,0.6777667,1.0288774,-0.30073017,-0.47790784,-0.85582733,-0.6521225,0.9572983,0.67806244,1.0286331,-0.30021667,-0.4776001,2.8464077,-0.46391416,1.7804534,-3.452576,0.20458178,2.669342,0.3142669,-0.34676766,0.8943475,0.81736565,-0.040878154,0.569815,-0.07451906,-0.24889228,-0.18739483,-0.14557378,1,0,0,0,0,0,-3.5464077,0.30391416,-1.2204535,1.988411,-0.88779926,-1.6102314,-0.24328232,0.1364708,-0.4413128,-0.33177137,1.411438,-0.95009804,-0.9918213,-0.15258789,0.076293945,-0.4386902,-0.34332275
-0.46465316,3.1837854,1.9109626,-37.82623,3.6499715,0.20510425,0.024030538,-0.8196272,-0.58048284,0.9109498,0.5677099,0.90648526,-0.84438324,-0.8746745,0.57998097,-0.10409379,1.5508801,1.3400573,1.8323072,-1.0321867,1.4293687,0.6413078,-0.06093548,1.4827658,1.298024,1.7649325,-0.9661486,1.496949,-0.84619206,-0.6569695,0.95036596,0.67620164,1.0289882,-0.30314967,-0.47909126,-0.8486748,-0.65606236,0.9523392,0.6767273,1.0288239,-0.3025055,-0.4787445,2.8291447,-0.46289134,1.7936134,-3.452576,0.20458178,2.6195579,0.31301457,-0.34769797,0.8936268,0.8190017,-0.039650645,0.5678365,-0.07229004,-0.2515139,-0.1845003,-0.14295939,1,0,0,0,0,0,-3.5291448,0.30289134,-1.2336135,1.9868135,-0.7283211,-1.6201019,-0.34766197,0.09407997,-0.5024791,-0.24443865,1.4305115,-0.7879734,-0.9918213,-0.2670288,0.038146973,-0.45776367,-0.22888184
-0.19502267,3.8176708,2.3266838,-37.995586,3.6174557,0.1373823,0.019631919,-0.81749123,-0.58035934,0.91115505,0.56483734,0.90577185,-0.8469752,-0.87238896,0.5759085,-0.10736422,1.5556582,1.343211,1.8373942,-1.0339066,1.4271579,0.6370992,-0.06423177,1.4875027,1.3013972,1.7700766,-0.967674,1.4945505,-0.8391884,-0.6599902,0.9454071,0.67412496,1.0288959,-0.30582565,-0.4798757,-0.84171295,-0.6592579,0.94738007,0.6746292,1.0288239,-0.3050804,-0.47969818,2.8118818,-0.46186852,1.8065245,-3.452576,0.20458178,2.5697737,0.3117499,-0.3486128,0.89292026,0.8206403,-0.03843505,0.5658287,-0.07007111,-0.25386024,-0.18132058,-0.14018515,1,0,0,0,0,0,-3.5118818,0.30186853,-1.2465246,1.9693851,-0.5844593,-1.6141891,-0.4526615,0.05378723,-0.55987835,-0.16379356,1.3923645,-0.63910484,-0.9918213,-0.4196167,0,-0.51498413,-0.19073486
0.038422357,4.384803,2.7076826,-38.14443,3.5856402,0.07390973,0.015671324,-0.81533325,-0.57998186,0.911305,0.56183434,0.9050087,-0.8495379,-0.8699708,0.57187253,-0.11063032,1.560407,1.346344,1.8424773,-1.035637,1.4249527,0.63292545,-0.06754078,1.4922158,1.3047589,1.7752188,-0.9692142,1.4921501,-0.83232087,-0.6623657,0.9405164,0.6715946,1.0286142,-0.30876338,-0.48029694,-0.8347511,-0.6618023,0.9426117,0.6723404,1.0284424,-0.3080368,-0.48007965,2.7946188,-0.4608457,1.8191867,-3.452576,0.20458178,2.5199895,0.310475,-0.34950995,0.89222765,0.8222805,-0.037233133,0.56379354,-0.06786131,-0.255964,-0.17789641,-0.13727155,1,0,0,0,0,0,-3.494619,0.3008457,-1.2591867,1.9375801,-0.45497417,-1.5964985,-0.5458355,0.01616478,-0.61792135,-0.09038448,1.3923645,-0.5088806,-0.9536743,-0.45776367,-0.076293945,-0.5912781,-0.076293945
0.25169706,4.90549,3.0676832,-38.259567,3.5524418,0.013570905,0.012655277,-0.8131443,-0.5793805,0.9114059,0.5587868,0.9042028,-0.8520531,-0.86742556,0.5678739,-0.113891214,1.5651282,1.3494618,1.847555,-1.0373784,1.4227561,0.62878555,-0.07085945,1.496904,1.3081063,1.7803591,-0.9707701,1.4897487,-0.82561207,-0.6641636,0.9357468,0.6687098,1.0281575,-0.31194863,-0.48036507,-0.82798004,-0.6637335,0.9376526,0.66947937,1.0280609,-0.31118393,-0.4802704,2.777356,-0.4598229,1.8316,-3.452576,0.20458178,2.4702053,0.30919012,-0.350389,0.8915501,0.82392174,-0.036046263,0.56173134,-0.06566196,-0.25783768,-0.17425853,-0.1342571,1,0,0,0,0,0,-3.477356,0.2998229,-1.2716,1.9000053,-0.33915043,-1.5667439,-0.6189585,-0.018787384,-0.6726146,-0.01910925,1.3542175,-0.3862381,-0.9918213,-0.5722046,-0.076293945,-0.62942505,-0.038146973
0.4291875,5.3638463,3.3934882,-38.367214,3.521616,-0.042434305,0.009908672,-0.8109338,-0.57858676,0.9114624,0.55570674,0.90335697,-0.8545106,-0.86474764,0.56391084,-0.11714639,1.569821,1.3525628,1.8526278,-1.0391309,1.420569,0.62467855,-0.07418521,1.5015694,1.3114384,1.7854975,-0.97234225,1.4873474,-0.8191105,-0.6654438,0.9311218,0.6654933,1.0275688,-0.31535703,-0.48011693,-0.8213997,-0.6651521,0.93307495,0.6664276,1.0276794,-0.31442642,-0.4802704,2.760093,-0.45880008,1.8437643,-3.452576,0.20458178,2.4204211,0.30789688,-0.3512497,0.8908879,0.8255632,-0.03487566,0.55964285,-0.063473105,-0.2595178,-0.17044514,-0.13114296,1,0,0,0,0,0,-3.460093,0.29880008,-1.2837644,1.851821,-0.23531914,-1.5312433,-0.68736076,-0.045251846,-0.7220864,0.044846535,1.3160706,-0.2837181,-0.91552734,-0.61035156,-0.076293945,-0.64849854,0
0.60118926,5.798755,3.7124243,-38.445786,3.4885511,-0.09704059,0.007912822,-0.80869293,-0.577605,0.91148144,0.55265635,0.9024754,-0.85690325,-0.8619428,0.55998313,-0.120393604,1.5744879,1.3556509,1.8576956,-1.0408945,1.418392,0.620603,-0.07751562,1.5062119,1.3147525,1.7906321,-0.973932,1.4849489,-0.81283545,-0.66626203,0.92671967,0.662032,1.0268377,-0.3189737,-0.47956392,-0.81510544,-0.6660819,0.9284973,0.66280365,1.0269165,-0.31795502,-0.47969818,2.74283,-0.45777726,1.8556798,-3.452576,0.20458178,2.370637,0.3065953,-0.3520913,0.89024216,0.8272044,-0.03372302,0.55752873,-0.061295472,-0.2610019,-0.1664695,-0.12796502,1,0,0,0,0,0,-3.44283,0.29777727,-1.2956798,1.7987967,-0.14271736,-1.4790058,-0.7381916,-0.07400513,-0.76818466,0.10647774,1.2588501,-0.18596649,-0.91552734,-0.7247925,-0.15258789,-0.705719,0.11444092
0.7461006,6.1857843,4.004196,-38.510315,3.4559655,-0.14797689,0.006179817,-0.80643225,-0.576469,0.911467,0.54966146,0.90156084,-0.85922104,-0.85901284,0.55608845,-0.12363313,1.5791292,1.3587254,1.862757,-1.0426697,1.4162278,0.616558,-0.08084859,1.5108334,1.3180493,1.795762,-0.9755409,1.4825542,-0.8068051,-0.66666543,0.9225355,0.65836495,1.0259557,-0.3227871,-0.4787184,-0.8090019,-0.6665945,0.92430115,0.6593704,1.0259628,-0.3217697,-0.47893524,2.725567,-0.45675445,1.8673463,-3.452576,0.20458178,2.3208528,0.3052874,-0.35291147,0.8896119,0.82884437,-0.03258893,0.5553906,-0.059127666,-0.26231638,-0.1623628,-0.12473812,1,0,0,0,0,0,-3.4255672,0.29675445,-1.3073463,1.7414331,-0.059580803,-1.4269352,-0.78105927,-0.10457039,-0.81164837,0.16560555,1.2207031,-0.10251999,-0.8392334,-0.6866455,-0.19073486,-0.76293945,0.15258789
0.8841024,6.5476727,4.286349,-38.5425,3.4216404,-0.19689547,0.0052714236,-0.80414057,-0.57521933,0.91142356,0.54679453,0.90061927,-0.86145693,-0.85596555,0.5522268,-0.12686613,1.5837473,1.3617929,1.8678114,-1.0444574,1.4140769,0.6125421,-0.08418222,1.5154349,1.3213271,1.800888,-0.9771693,1.4801652,-0.8010213,-0.66670483,0.9186183,0.6545965,1.02497,-0.32676914,-0.47762093,-0.8031845,-0.66672564,0.9202957,0.6555557,1.0251999,-0.32567978,-0.47779083,2.7083042,-0.45573163,1.8787639,-3.452576,0.20458178,2.2710686,0.30397335,-0.35371113,0.88899827,0.8304832,-0.031474188,0.55322814,-0.056970026,-0.26346016,-0.15814191,-0.1215001,1,0,0,0,0,0,-3.4083042,0.29573163,-1.318764,1.6828299,0.013327599,-1.3640404,-0.80280304,-0.12550354,-0.84905624,0.21641254,1.1634827,-0.026226044,-0.8010864,-0.76293945,-0.15258789,-0.78201294,0.22888184
0.9953243,6.863338,4.542445,-38.575123,3.3897064,-0.24245389,0.0045003593,-0.8018228,-0.57388264,0.91135514,0.5440553,0.89965117,-0.86361206,-0.8527951,0.5483963,-0.13009283,1.5883433,1.3648515,1.8728601,-1.0462582,1.4119416,0.6085543,-0.08751483,1.5200182,1.3245858,1.8060082,-0.9788182,1.477782,-0.7954943,-0.6664252,0.9149576,0.65072423,1.0239005,-0.33089057,-0.4762841,-0.79755783,-0.666523,0.91667175,0.651741,1.0240555,-0.32978058,-0.47664642,2.6910412,-0.4547088,1.8899326,-3.452576,0.20458178,2.2212844,0.30265445,-0.3544891,0.8884004,0.8321199,-0.030380111,0.5510428,-0.054822013,-0.26446322,-0.15383328,-0.11824405,1,0,0,0,0,0,-3.3910413,0.29470882,-1.3299327,1.6219616,0.077199936,-1.3030052,-0.82497597,-0.14281273,-0.88039637,0.26484728,1.1253357,0.04053116,-0.7247925,-0.76293945,-0.22888184,-0.8201599,0.22888184
1.0979495,7.1553497,4.786867,-38.578392,3.355303,-0.28571105,0.0041182227,-0.7994664,-0.572474,0.91126627,0.54149485,0.8986614,-0.86568546,-0.8495061,0.54459697,-0.13331275,1.5929195,1.3679054,1.8779011,-1.048073,1.4098215,0.6045937,-0.090845,1.5245844,1.3278254,1.8111228,-0.98048806,1.4754064,-0.7902197,-0.6658693,0.9115709,0.64683557,1.0227154,-0.33513325,-0.4747358,-0.7921219,-0.6660342,0.9132385,0.64792633,1.0229111,-0.33397675,-0.47512054,2.6737783,-0.453686,1.9008524,-3.452576,0.20458178,2.1715002,0.30133104,-0.35524464,0.887819,0.8337539,-0.029307218,0.548835,-0.052684005,-0.26532778,-0.14945509,-0.11500906,1,0,0,0,0,0,-3.3737783,0.293686,-1.3408525,1.5612602,0.1324892,-1.2376308,-0.8294344,-0.16636848,-0.90773106,0.3075242,1.0871887,0.09775162,-0.6866455,-0.76293945,-0.22888184,-0.8392334,0.30517578
1.1787825,7.407687,5.0083904,-38.571014,3.3223872,-0.32573438,0.004277505,-0.79706746,-0.5710101,0.9111599,0.5391317,0.897652,-0.8676789,-0.84609455,0.5408283,-0.13652581,1.5974772,1.370956,1.8829349,-1.0499023,1.4077189,0.60065836,-0.09417148,1.5291334,1.331045,1.8162316,-0.9821799,1.4730394,-0.78520066,-0.665076,0.9084448,0.642967,1.021465,-0.33947062,-0.47297686,-0.7870674,-0.6652951,0.9098053,0.6439209,1.0217667,-0.33836365,-0.47340393,2.6565154,-0.45266318,1.9115233,-3.452576,0.20458178,2.121716,0.3000031,-0.35597873,0.88725394,0.83538526,-0.028254887,0.5466051,-0.050555825,-0.26607552,-0.14503205,-0.111805156,1,0,0,0,0,0,-3.3565154,0.2926632,-1.3515234,1.499629,0.1799345,-1.1745453,-0.82645416,-0.17995834,-0.9293914,0.35002232,1.0108948,0.14781952,-0.6866455,-0.8010864,-0.22888184,-0.8773804,0.34332275
1.2482015,7.635585,5.217005,-38.55178,3.2892852,-0.36370108,0.0045948885,-0.79463595,-0.569511,0.911038,0.5369653,0.8966247,-0.86959094,-0.84255606,0.5370875,-0.13973236,1.6020164,1.3740022,1.8879616,-1.0517472,1.4056349,0.59674686,-0.097493306,1.5336682,1.3342465,1.8213338,-0.98389363,1.4706819,-0.7804387,-0.66408086,0.9055888,0.639155,1.0201459,-0.34388256,-0.47103477,-0.78229904,-0.6643653,0.9069443,0.64029694,1.0204315,-0.34275055,-0.47149658,2.6392524,-0.45164037,1.9219453,-3.452576,0.20458178,2.0719318,0.29867238,-0.35669136,0.88670427,0.837013,-0.02722412,0.5443545,-0.048436046,-0.26671794,-0.14057902,-0.108644985,1,0,0,0,0,0,-3.3392525,0.29164037,-1.3619454,1.437521,0.22025108,-1.1093616,-0.8160591,-0.19421577,-0.94679594,0.3869772,0.9536743,0.18596649,-0.5722046,-0.7247925,-0.2670288,-0.8773804,0.38146973
1.3269976,7.865128,5.431242,-38.508835,3.2535453,-0.40130535,0.005494781,-0.79215235,-0.56797975,0.9109052,0.5350467,0.8955842,-0.871426,-0.8388979,0.53337467,-0.14293168,1.6065406,1.3770503,1.8929805,-1.0536077,1.40357,0.59285873,-0.10080947,1.5381895,1.3374289,1.8264292,-0.9856293,1.4683349,-0.7759047,-0.6629147,0.90303844,0.6354715,1.0187559,-0.34834146,-0.46892422,-0.77762604,-0.6632328,0.904274,0.63648224,1.0190964,-0.34713745,-0.4693985,2.6219895,-0.45061755,1.9321184,-3.452576,0.20458178,2.0221477,0.29733834,-0.35738015,0.8861702,0.8386371,-0.026215194,0.5420833,-0.046325497,-0.26723757,-0.1360934,-0.10555772,1,0,0,0,0,0,-3.3219895,0.29061756,-1.3721185,1.3807774,0.25439262,-1.0365963,-0.7910967,-0.20890236,-0.9584904,0.42089224,0.93460083,0.22649765,-0.5340576,-0.76293945,-0.2670288,-0.8773804,0.4196167
1.3879285,8.065241,5.627181,-38.46806,3.2197258,-0.4364189,0.0063886307,-0.78961617,-0.56641173,0.910764,0.5333745,0.89452994,-0.87319005,-0.8351139,0.52968943,-0.14612241,1.6110506,1.3800989,1.8979917,-1.0554845,1.4015259,0.58899254,-0.1041192,1.5426995,1.3405942,1.8315171,-0.9873874,1.4659994,-0.7715772,-0.66159946,0.9007435,0.6319077,1.017321,-0.35283297,-0.46665993,-0.77323914,-0.66194534,0.90198517,0.633049,1.0175705,-0.35161972,-0.46710968,2.6047266,-0.44959474,1.9420424,-3.452576,0.20458178,1.9723637,0.2960028,-0.35804725,0.8856513,0.8402569,-0.025227971,0.53979266,-0.04422235,-0.26765737,-0.1315928,-0.102535956,1,0,0,0,0,0,-3.3047266,0.28959474,-1.3820424,1.328516,0.28414726,-0.9739876,-0.76782703,-0.21839142,-0.9671092,0.45182705,0.8773804,0.25749207,-0.45776367,-0.6866455,-0.30517578,-0.89645386,0.45776367
1.4413126,8.247255,5.811832,-38.40286,3.1842442,-0.46924266,0.007702872,-0.7870178,-0.5648187,0.91061664,0.53198594,0.8934665,-0.87488407,-0.8312102,0.52603114,-0.14930469,1.6155487,1.3831531,1.9029944,-1.0573782,1.3995025,0.5851473,-0.10742195,1.5471989,1.3437413,1.8365973,-0.9891684,1.4636753,-0.7674603,-0.6601607,0.8987081,0.62854075,1.0158398,-0.3573425,-0.46425653,-0.76904297,-0.6605506,0.8998871,0.62942505,1.0160446,-0.35619736,-0.46482086,2.5874636,-0.44857192,1.9517174,-3.452576,0.20458178,1.9225798,0.2946648,-0.3586917,0.8851475,0.8418722,-0.024262773,0.53748274,-0.042127624,-0.2679797,-0.12709284,-0.09961314,1,0,0,0,0,0,-3.2874637,0.28857192,-1.3917174,1.2751102,0.30875206,-0.9102106,-0.7290125,-0.22826195,-0.972569,0.479877,0.8392334,0.27894974,-0.4196167,-0.7247925,-0.30517578,-0.91552734,0.45776367
1.4866266,8.41297,5.9874105,-38.33833,3.1499274,-0.5005206,0.009092644,-0.7843638,-0.56320125,0.9104648,0.53087544,0.892394,-0.87651014,-0.8271838,0.52239823,-0.15247804,1.6200361,1.3862113,1.9079888,-1.0592892,1.3975005,0.58132213,-0.11071707,1.5516888,1.3468722,1.8416709,-0.9909713,1.4613636,-0.76352817,-0.6586175,0.89690506,0.6253667,1.0143397,-0.36184838,-0.46172914,-0.76503754,-0.6590247,0.89797974,0.62618256,1.0147095,-0.36058426,-0.4623413,2.5702007,-0.4475491,1.9611435,-3.452576,0.20458178,1.8727958,0.29332602,-0.35931325,0.8846578,0.8434828,-0.023319092,0.53515404,-0.04003982,-0.26821515,-0.12260085,-0.09678363,1,0,0,0,0,0,-3.2702007,0.2875491,-1.4011436,1.2269497,0.32954216,-0.85196495,-0.6908655,-0.23255348,-0.97346306,0.504756,0.8010864,0.30517578,-0.38146973,-0.64849854,-0.2670288,-0.8773804,0.49591064
1.533425,8.57435,6.1598444,-38.24856,3.1132476,-0.530138,0.011003587,-0.7816474,-0.56157166,0.91030973,0.5300448,0.89131427,-0.87807393,-0.8230295,0.51879036,-0.15564281,1.6245136,1.3892758,1.912976,-1.0612172,1.3955212,0.577516,-0.11400415,1.5561701,1.3499888,1.8467368,-0.99279714,1.4590652,-0.7597665,-0.65698415,0.8953331,0.62246233,1.0128213,-0.36632967,-0.4590789,-0.76122284,-0.6574154,0.8962631,0.62332153,1.0131836,-0.3651619,-0.45967102,2.5529377,-0.4465263,1.9703207,-3.452576,0.20458178,1.8230119,0.29198614,-0.35991287,0.88418186,0.84508806,-0.022396438,0.53280735,-0.037958417,-0.26835635,-0.11812646,-0.09408187,1,0,0,0,0,0,-3.2529378,0.2865263,-1.4103208,1.1815071,0.34742355,-0.7937193,-0.63722134,-0.23665428,-0.9699702,0.5293727,0.76293945,0.32186508,-0.34332275,-0.5722046,-0.30517578,-0.91552734,0.5340576
1.5777107,8.726623,6.328559,-38.158524,3.0765862,-0.5590869,0.012814328,-0.7788644,-0.559954,0.91015196,0.52949476,0.8902314,-0.8795758,-0.81874603,0.5152069,-0.15880047,1.6289823,1.3923484,1.9179553,-1.0631632,1.3935655,0.5737285,-0.11728282,1.5606447,1.3530921,1.8517951,-0.9946449,1.4567802,-0.75615674,-0.6552821,0.8939862,0.61982346,1.0112592,-0.37078592,-0.45632026,-0.7575035,-0.65573454,0.894928,0.62065125,1.0116577,-0.3695488,-0.45700073,2.5356748,-0.44550347,1.979249,-3.452576,0.20458178,1.7732279,0.2906463,-0.3604896,0.88371897,0.8466878,-0.021494934,0.5304433,-0.035882633,-0.26840737,-0.11366872,-0.091505796,1,0,0,0,0,0,-3.2356749,0.28550348,-1.419249,1.1399984,0.36103725,-0.7369518,-0.58436394,-0.2459526,-0.96628666,0.5510807,0.74386597,0.3361702,-0.2670288,-0.5340576,-0.30517578,-0.8773804,0.5340576
1.6209128,8.872559,6.4950743,-38.070156,3.0406857,-0.58722353,0.014720416,-0.77600133,-0.5583452,0.90999395,0.5292083,0.8891455,-0.881024,-0.81432635,0.5116484,-0.16195044,1.6334443,1.3954288,1.9229267,-1.0651268,1.3916341,0.56995815,-0.12055279,1.5651137,1.3561829,1.8568448,-0.99651504,1.4545095,-0.75267583,-0.6535253,0.892857,0.61744356,1.0096828,-0.37519032,-0.45346773,-0.7540703,-0.6539941,0.89378357,0.6181717,1.0099411,-0.37403107,-0.4541397,2.5184119,-0.44448066,1.9879284,-3.452576,0.20458178,1.723444,0.28930646,-0.36104393,0.8832682,0.8482815,-0.0206141,0.5280626,-0.033811923,-0.26836985,-0.109228864,-0.08904919,1,0,0,0,0,0,-3.218412,0.28448066,-1.4279284,1.1033058,0.37186146,-0.68187714,-0.5327225,-0.2491951,-0.9571314,0.5698085,0.6866455,0.34809113,-0.22888184,-0.49591064,-0.34332275,-0.89645386,0.5722046
1.6525375,8.998544,6.647979,-37.97571,3.0052474,-0.6133181,0.016740136,-0.77305967,-0.5567635,0.90983593,0.52916646,0.88805914,-0.8824195,-0.80976343,0.5081134,-0.16509387,1.6379006,1.3985163,1.9278895,-1.0671086,1.3897284,0.5662045,-0.12381382,1.5695769,1.3592623,1.8618869,-0.99840665,1.4522531,-0.7493145,-0.65172946,0.89191115,0.6153393,1.0080932,-0.3795429,-0.450521,-0.7507324,-0.65220594,0.89263916,0.6158829,1.0084152,-0.3783226,-0.4512787,2.501149,-0.44345784,1.9963589,-3.452576,0.20458178,1.67366,0.28796658,-0.36157656,0.88282984,0.8498692,-0.019753259,0.5256656,-0.031746846,-0.2682581,-0.10482022,-0.08671926,1,0,0,0,0,0,-3.201149,0.28345785,-1.4363589,1.0685205,0.37949085,-0.6336689,-0.47769547,-0.2523899,-0.94777346,0.5887151,0.667572,0.35762787,-0.22888184,-0.45776367,-0.30517578,-0.8583069,0.5722046
1.6881436,9.123699,6.802427,-37.876625,2.9697099,-0.63890415,0.019003453,-0.7700394,-0.5552149,0.9096781,0.52933675,0.88697135,-0.8837675,-0.8050417,0.50460136,-0.16823101,1.6423512,1.4016093,1.9328445,-1.069108,1.3878498,0.562468,-0.12706581,1.5740362,1.3623322,1.8669213,-1.0003197,1.450012,-0.746034,-0.649909,0.8911379,0.613522,1.006521,-0.3838245,-0.44749388,-0.7472992,-0.65039694,0.8918762,0.6139755,1.0068893,-0.38261414,-0.44822693,2.483886,-0.44243503,2.0045407,-3.452576,0.20458178,1.6238761,0.28662762,-0.36208725,0.8824023,0.85145015,-0.018911919,0.52325284,-0.029685788,-0.26806596,-0.10044088,-0.08451803,1,0,0,0,0,0,-3.183886,0.28243503,-1.4445407,1.0416746,0.3843069,-0.587821,-0.4203081,-0.24924278,-0.9345174,0.60465336,0.6866455,0.3618002,-0.15258789,-0.38146973,-0.30517578,-0.8583069,0.61035156
1.7314296,9.254236,6.962392,-37.771736,2.9329176,-0.6646334,0.021392845,-0.76691955,-0.553693,0.9095217,0.52973163,0.88588405,-0.88507116,-0.8001597,0.5011144,-0.17136124,1.646798,1.4047108,1.9377921,-1.0711254,1.3859992,0.55874723,-0.13030854,1.5784928,1.3653945,1.8719472,-1.0022538,1.4477861,-0.7428184,-0.648076,0.8905525,0.61200494,1.0049424,-0.38803673,-0.4443859,-0.74415207,-0.6485462,0.891304,0.61244965,1.0051727,-0.3868103,-0.44517517,2.466623,-0.4414122,2.0124736,-3.452576,0.20458178,1.5740921,0.28529033,-0.36257625,0.8819854,0.8530245,-0.018090129,0.52082497,-0.027627774,-0.26778615,-0.096083306,-0.082451634,1,0,0,0,0,0,-3.166623,0.2814122,-1.4524736,1.0181427,0.38671494,-0.5390644,-0.36017895,-0.25076866,-0.9214401,0.62066317,0.62942505,0.37014484,-0.11444092,-0.30517578,-0.34332275,-0.8392334,0.61035156
1.7561322,9.358508,7.103548,-37.672173,2.8980029,-0.6879306,0.023529822,-0.7636951,-0.5522113,0.90936685,0.5303263,0.884799,-0.8863337,-0.79510653,0.49765164,-0.17448545,1.6512421,1.4078206,1.9427311,-1.0731604,1.3841776,0.5550427,-0.13354221,1.5829464,1.36845,1.8769654,-1.0042088,1.4455755,-0.7396747,-0.6462408,0.890114,0.6107704,1.0033599,-0.39216852,-0.44120866,-0.7409096,-0.64673424,0.8907318,0.6111145,1.0036469,-0.39100647,-0.4421234,2.4493601,-0.4403894,2.0201576,-3.452576,0.20458178,1.5243082,0.2839546,-0.36304307,0.88157845,0.85459167,-0.01728704,0.51838225,-0.025572093,-0.26744065,-0.09176414,-0.080512896,1,0,0,0,0,0,-3.1493602,0.2803894,-1.4601576,0.99368095,0.38700104,-0.49893856,-0.30362606,-0.25200844,-0.90607405,0.6344557,0.64849854,0.36239624,-0.11444092,-0.2670288,-0.30517578,-0.8392334,0.61035156
1.7854012,9.462978,7.2483234,-37.57763,2.863934,-0.7114506,0.025860557,-0.7603676,-0.5507748,0.9092124,0.5311029,0.88371503,-0.88755655,-0.78986764,0.49421328,-0.1776042,1.6556834,1.4109383,1.9476626,-1.0752133,1.3823861,0.5513534,-0.1367667,1.5873991,1.3715008,1.881976,-1.0061848,1.443382,-0.7365569,-0.6444171,0.8898076,0.60979766,1.0018035,-0.39621553,-0.4379608,-0.7378578,-0.6448984,0.8905411,0.6101608,1.002121,-0.39520264,-0.4386902,2.4320972,-0.43936658,2.0275927,-3.452576,0.20458178,1.4745243,0.28262082,-0.36348796,0.8811805,0.8561517,-0.016502352,0.5159252,-0.023517909,-0.2670264,-0.08747625,-0.07868983,1,0,0,0,0,0,-3.1320972,0.27936658,-1.4675927,0.9784937,0.384593,-0.4618883,-0.25110245,-0.24704933,-0.8897662,0.6484151,0.61035156,0.3671646,-0.038146973,-0.19073486,-0.30517578,-0.8392334,0.6866455
1.8169787,9.568781,7.3939447,-37.48015,2.8290732,-0.7344471,0.02818227,-0.756926,-0.54938835,0.9090593,0.53205943,0.88263416,-0.8887413,-0.7844395,0.4907993,-0.18071777,1.6601238,1.4140656,1.9525868,-1.0772841,1.3806269,0.5476803,-0.13998201,1.5918499,1.3745478,1.886979,-1.0081799,1.4412048,-0.73346937,-0.6426085,0.88964415,0.60909235,1.0002501,-0.4001672,-0.43464014,-0.7346153,-0.6430626,0.8901596,0.6093979,1.0005951,-0.39901733,-0.4354477,2.4148343,-0.43834376,2.0347784,-3.452576,0.20458178,1.4247403,0.28128934,-0.36391258,0.8807912,0.85770404,-0.01573471,0.51345426,-0.021465797,-0.2665419,-0.08321858,-0.07698574,1,0,0,0,0,0,-3.1148343,0.27834377,-1.4747784,0.9627342,0.38144588,-0.42293072,-0.19741058,-0.24671555,-0.8711815,0.66274405,0.64849854,0.3671646,-0.076293945,-0.15258789,-0.30517578,-0.76293945,0.64849854
1.84272,9.663338,7.5329514,-37.388596,2.7952802,-0.75638986,0.030261468,-0.75336665,-0.5480466,0.90890634,0.533166,0.88155234,-0.8898943,-0.77879477,0.487411,-0.18382575,1.6645625,1.4172012,1.9575032,-1.0793715,1.3789012,0.5440225,-0.1431885,1.5963007,1.377591,1.8919743,-1.010195,1.4390438,-0.73037475,-0.6408263,0.8895801,0.60862833,0.99870235,-0.40401444,-0.43127006,-0.73156357,-0.6412983,0.8901596,0.60863495,0.9990692,-0.40302277,-0.4322052,2.3975713,-0.43732095,2.0417151,-3.452576,0.20458178,1.3749564,0.27996048,-0.36431527,0.8804108,0.8592489,-0.014985087,0.5109696,-0.01941427,-0.26599422,-0.07899611,-0.07539089,1,0,0,0,0,0,-3.0975714,0.27732095,-1.4817152,0.95472336,0.37608147,-0.3930092,-0.14894009,-0.24578571,-0.8508563,0.6724119,0.61035156,0.3528595,0,-0.15258789,-0.30517578,-0.8010864,0.64849854
1.8714718,9.758085,7.6745996,-37.297688,2.761544,-0.77871585,0.032568883,-0.7496978,-0.54676247,0.908753,0.53442746,0.88046986,-0.8910134,-0.77293015,0.48404667,-0.1869295,1.669001,1.4203452,1.9624119,-1.0814761,1.3772093,0.5403804,-0.14638618,1.6007515,1.3806342,1.896962,-1.0122283,1.4368999,-0.72728974,-0.63908017,0.8896504,0.60840666,0.99716324,-0.40777397,-0.4278335,-0.72841644,-0.639534,0.8901596,0.60863495,0.99754333,-0.40664673,-0.42877197,2.3803084,-0.43629813,2.048403,-3.452576,0.20458178,1.3251724,0.27863467,-0.36469722,0.880037,0.86078537,-0.014251345,0.50847214,-0.017362935,-0.26538318,-0.07480053,-0.07390237,1,0,0,0,0,0,-3.0803084,0.27629814,-1.4884031,0.9436369,0.36876202,-0.3563404,-0.10018349,-0.24418831,-0.83363056,0.6854534,0.62942505,0.3528595,0,0,-0.30517578,-0.7247925,0.6866455
1.9004056,9.849838,7.8122015,-37.19442,2.7267947,-0.7993122,0.03512118,-0.7458986,-0.54555476,0.90859723,0.53585184,0.87938696,-0.8921033,-0.7668236,0.48070854,-0.19003056,1.6734393,1.4235023,1.967313,-1.0835965,1.375554,0.5367536,-0.14957538,1.6052033,1.3836764,1.9019421,-1.0142806,1.4347742,-0.72417396,-0.63737327,0.88980967,0.60845685,0.9956354,-0.41142365,-0.42432567,-0.7253647,-0.6378412,0.89035034,0.6084442,0.99601746,-0.41046143,-0.425148,2.3630455,-0.43527532,2.054842,-3.452576,0.20458178,1.2753885,0.27731177,-0.36505842,0.87967056,0.862314,-0.013534016,0.5059614,-0.015310725,-0.26470527,-0.07064042,-0.072535746,1,0,0,0,0,0,-3.0630455,0.27527532,-1.494842,0.9407759,0.36079884,-0.3288746,-0.045514107,-0.24213791,-0.8119941,0.6994486,0.61035156,0.33855438,0.038146973,-0.038146973,-0.30517578,-0.76293945,0.7247925
1.9230933,9.9305935,7.9474397,-37.116657,2.69496,-0.8206682,0.037263304,-0.74198467,-0.5444312,0.90843827,0.53742516,0.878302,-0.89316267,-0.76045525,0.47739482,-0.19312988,1.6778784,1.4266704,1.9722062,-1.0857335,1.3739377,0.5331425,-0.15275612,1.609655,1.3867205,1.9069146,-1.016351,1.4326656,-0.7210267,-0.6357196,0.8900625,0.6086984,0.9941214,-0.41498235,-0.42075455,-0.72221756,-0.63614845,0.89035034,0.6088257,0.9944916,-0.4140854,-0.42171478,2.3457825,-0.4342525,2.061032,-3.452576,0.20458178,1.2256045,0.2759925,-0.36539912,0.87931085,0.8638342,-0.012832011,0.5034383,-0.013257313,-0.2639759,-0.066507444,-0.071252644,1,0,0,0,0,0,-3.0457826,0.2742525,-1.5010321,0.9385824,0.35004616,-0.30109882,-0.006914139,-0.2395153,-0.79414845,0.71183443,0.62942505,0.33855438,0,0.076293945,-0.30517578,-0.7247925,0.6866455
1.9487875,10.010866,8.080456,-37.01979,2.6613178,-0.84037495,0.039739758,-0.73794705,-0.54341024,0.9082731,0.539152,0.8772156,-0.8941927,-0.7538004,0.47410673,-0.19622895,1.6823169,1.4298527,1.9770918,-1.0878865,1.3723615,0.52954763,-0.15592888,1.6141087,1.3897666,1.9118794,-1.0184386,1.4305761,-0.71782184,-0.6341261,0.89038914,0.6091858,0.9926239,-0.4184277,-0.41712636,-0.71897507,-0.63455105,0.8907318,0.60920715,0.9929657,-0.41751862,-0.4179001,2.3285196,-0.43322968,2.0669732,-3.452576,0.20458178,1.1758206,0.2746773,-0.36571908,0.8789566,0.8653455,-0.012144994,0.5009033,-0.011201464,-0.26318628,-0.062409263,-0.07007911,1,0,0,0,0,0,-3.0285196,0.2732297,-1.5069733,0.94161034,0.33791065,-0.27718544,0.042629242,-0.2363205,-0.77164173,0.7229924,0.64849854,0.3194809,0.076293945,0.076293945,-0.30517578,-0.6866455,0.76293945
1.9782438,10.091782,8.219645,-36.93954,2.6291468,-0.8613474,0.04224911,-0.73377115,-0.5424748,0.9081031,0.5410326,0.8761248,-0.89519763,-0.7468373,0.47084594,-0.19932686,1.686757,1.4330492,1.9819694,-1.0900544,1.3708291,0.52596897,-0.159094,1.6185642,1.3928155,1.9168366,-1.0205433,1.4285038,-0.7145538,-0.6326069,0.89081925,0.6098658,0.991145,-0.42176643,-0.4134201,-0.7157326,-0.63302517,0.8911133,0.60977936,0.9914398,-0.42095184,-0.41446686,2.3112566,-0.43220687,2.0726655,-3.452576,0.20458178,1.1260366,0.2733663,-0.36601806,0.87860835,0.8668483,-0.011473301,0.49835604,-0.00914333,-0.2623394,-0.058332287,-0.068987034,1,0,0,0,0,0,-3.0112567,0.27220687,-1.5126655,0.9462118,0.32298565,-0.2478838,0.08151531,-0.23269653,-0.7505894,0.738287,0.64849854,0.30517578,0.076293945,0.11444092,-0.30517578,-0.6866455,0.6866455
1.9950817,10.154489,8.343189,-36.85046,2.5971637,-0.8799312,0.044685513,-0.7294598,-0.5416435,0.90792614,0.543056,0.87502986,-0.896177,-0.73953474,0.46761218,-0.20242548,1.6911983,1.43626,1.986839,-1.0922375,1.369341,0.522407,-0.16225186,1.6230227,1.3958682,1.9217862,-1.0226634,1.4264505,-0.71121943,-0.63116586,0.89130443,0.61076415,0.98968685,-0.4250036,-0.40965322,-0.7123947,-0.6315708,0.8916855,0.6105423,0.98991394,-0.4240036,-0.41065216,2.2939937,-0.43118405,2.0781088,-3.452576,0.20458178,1.0762527,0.27205956,-0.366297,0.87826556,0.86834204,-0.010815343,0.4957971,-0.007082366,-0.26144743,-0.054293,-0.067990705,1,0,0,0,0,0,-2.9939938,0.27118406,-1.5181088,0.951457,0.30727386,-0.22826195,0.12559891,-0.22866726,-0.73034763,0.7501483,0.667572,0.29087067,0.11444092,0.15258789,-0.30517578,-0.61035156,0.76293945
2.0181572,10.22163,8.471516,-36.760536,2.5648866,-0.89857703,0.047504865,-0.72499484,-0.54091036,0.9077429,0.5452135,0.8739281,-0.8971359,-0.73185134,0.4644074,-0.20552468,1.6956421,1.4394853,1.9917004,-1.0944343,1.3679024,0.5188622,-0.16540268,1.627483,1.3989266,1.9267291,-1.0247996,1.4244163,-0.707797,-0.62980914,0.8918469,0.61187804,0.9882516,-0.4281323,-0.4057884,-0.7089615,-0.63016415,0.89206696,0.6116867,0.9885788,-0.4272461,-0.40683746,2.2767308,-0.43016124,2.0833032,-3.452576,0.20458178,1.0264688,0.27075765,-0.36655664,0.8779266,0.86982673,-0.010170592,0.49322677,-0.00501658,-0.2605035,-0.05028548,-0.06708952,1,0,0,0,0,0,-2.9767308,0.27016124,-1.5233033,0.96137524,0.2903223,-0.20849705,0.16913414,-0.22399426,-0.7086754,0.76936483,0.6866455,0.28133392,0.076293945,0.22888184,-0.2670288,-0.64849854,0.76293945
2.0326042,10.273834,8.590279,-36.67183,2.5335433,-0.9162756,0.050217114,-0.72038436,-0.54031324,0.90754944,0.54749686,0.87282145,-0.89807117,-0.723736,0.46123144,-0.20862773,1.700087,1.4427264,1.9965549,-1.0966452,1.3665174,0.515335,-0.16854718,1.6319462,1.4019908,1.9316643,-1.0269511,1.4224021,-0.704279,-0.62854886,0.8924212,0.6132027,0.98684037,-0.43117315,-0.4018385,-0.7054329,-0.6289005,0.89263916,0.6128311,0.9870529,-0.43029785,-0.40283203,2.2594678,-0.42913842,2.0882487,-3.452576,0.20458178,0.97668475,0.2694604,-0.3667953,0.8775926,0.87130225,-0.009538837,0.4906451,-0.0029461826,-0.2595201,-0.04631509,-0.066280276,1,0,0,0,0,0,-2.959468,0.26913843,-1.5282488,0.97305775,0.27093887,-0.1941204,0.2117157,-0.21936893,-0.6912112,0.78611374,0.705719,0.2527237,0.11444092,0.22888184,-0.30517578,-0.61035156,0.8010864
2.0521889,10.328689,8.7150955,-36.591858,2.5024028,-0.93456364,0.052938312,-0.71561986,-0.5398468,0.9073461,0.5499008,0.87170756,-0.8989852,-0.71513873,0.45808545,-0.21173492,1.7045339,1.4459828,2.001401,-1.0988699,1.3651911,0.511826,-0.17168584,1.6364123,1.4050626,1.9365929,-1.0291178,1.420408,-0.7006558,-0.6273997,0.8930548,0.61470604,0.98542786,-0.43410605,-0.39778826,-0.7018089,-0.6277323,0.89321136,0.614357,0.9857178,-0.4333496,-0.3988266,2.242205,-0.4281156,2.0929453,-3.452576,0.20458178,0.9269007,0.2681682,-0.36701417,0.8772622,0.8727683,-0.0089198835,0.4880523,-0.0008698802,-0.25849432,-0.042373307,-0.065549195,1,0,0,0,0,0,-2.942205,0.2681156,-1.5329454,0.9870529,0.2486229,-0.17461777,0.2478838,-0.21970272,-0.66963434,0.80587864,0.7247925,0.23365021,0.11444092,0.30517578,-0.2670288,-0.61035156,0.8010864
2.0659733,10.372808,8.831495,-36.50526,2.471685,-0.95148206,0.055907845,-0.7107065,-0.5395399,0.90713,0.5524236,0.8705872,-0.89987624,-0.70599794,0.45496947,-0.21484903,1.7089827,1.4492564,2.00624,-1.101108,1.3639282,0.50833505,-0.17481914,1.6408821,1.4081429,1.9415148,-1.0312979,1.4184349,-0.6969193,-0.62636745,0.8937215,0.6164095,0.98404276,-0.43693766,-0.39363307,-0.69818497,-0.6266594,0.8939743,0.6160736,0.9843826,-0.4360199,-0.39463043,2.224942,-0.4270928,2.097393,-3.452576,0.20458178,0.8771166,0.2668814,-0.3672142,0.876935,0.8742249,-0.008311753,0.48544836,0.0012130574,-0.25743225,-0.03846778,-0.06490393,1,0,0,0,0,0,-2.924942,0.2670928,-1.5373931,1.002717,0.22513866,-0.16040802,0.28836727,-0.2142191,-0.64929724,0.82656145,0.7247925,0.21457672,0.15258789,0.34332275,-0.2670288,-0.5340576,0.8392334
2.0777297,10.410977,8.946857,-36.428158,2.4417877,-0.96840584,0.058834046,-0.70563376,-0.5393954,0.90690166,0.5550511,0.8694576,-0.9007486,-0.6962324,0.45188436,-0.21797077,1.7134342,1.452547,2.0110714,-1.1033578,1.3627362,0.5048632,-0.17794767,1.6453558,1.4112328,1.9464291,-1.0334923,1.4164827,-0.69305843,-0.625465,0.8944206,0.6182781,0.98266006,-0.43966177,-0.3893521,-0.69437027,-0.6257057,0.89473724,0.61798096,0.98285675,-0.43888092,-0.39043427,2.207679,-0.42606997,2.1015918,-3.452576,0.20458178,0.82733256,0.26560017,-0.36739445,0.8766102,0.87567157,-0.00771527,0.48283413,0.0033033653,-0.25633803,-0.034596093,-0.06433178,1,0,0,0,0,0,-2.907679,0.26606998,-1.5415919,1.0208607,0.19910336,-0.14662743,0.32188892,-0.21364689,-0.62766075,0.8512974,0.76293945,0.19073486,0.15258789,0.38146973,-0.30517578,-0.5722046,0.8392334
2.0843155,10.437229,9.055845,-36.351982,2.4127393,-0.9847724,0.061886005,-0.7004045,-0.5394294,0.9066584,0.55779564,0.8683211,-0.9015982,-0.6857763,0.44883084,-0.22110203,1.7178885,1.4558564,2.015895,-1.1056201,1.3616205,0.5014114,-0.18107226,1.6498324,1.4143323,1.9513367,-1.0356991,1.4145525,-0.6890483,-0.6247079,0.89512396,0.62030566,0.981281,-0.4422992,-0.38493446,-0.69036484,-0.62491894,0.89530945,0.6198883,0.9815216,-0.44136047,-0.38604736,2.190416,-0.42504716,2.1055417,-3.452576,0.20458178,0.7775485,0.26432464,-0.36755514,0.8762886,0.8771086,-0.007129197,0.4802088,0.005401886,-0.25522122,-0.030761488,-0.063829646,1,0,0,0,0,0,-2.8904161,0.26504716,-1.5455418,1.0442734,0.16992092,-0.13875961,0.35414696,-0.2128601,-0.6101608,0.8782506,0.8010864,0.15735626,0.11444092,0.38146973,-0.2670288,-0.49591064,0.8773804
2.0834522,10.450609,9.157351,-36.279675,2.3852448,-1.000173,0.06522017,-0.6950395,-0.53963614,0.90639824,0.56063724,0.86717266,-0.9024255,-0.67452186,0.44580823,-0.22424316,1.7223443,1.4591832,2.0207105,-1.1078932,1.3605907,0.49798006,-0.18419364,1.6543118,1.4174422,1.9562377,-1.0379193,1.4126451,-0.6848945,-0.6241074,0.8958298,0.62248254,0.97993165,-0.44483063,-0.38035113,-0.68626404,-0.6242752,0.89588165,0.6219864,0.98018646,-0.44403076,-0.38146973,2.1731532,-0.42402434,2.1092427,-3.452576,0.20458178,0.7277644,0.26305377,-0.36769795,0.8759692,0.87853575,-0.006552681,0.47757256,0.0075091203,-0.25409186,-0.026969682,-0.06338981,1,0,0,0,0,0,-2.8731532,0.26402435,-1.5492427,1.0668278,0.13847351,-0.13148785,0.3844738,-0.20701885,-0.5887985,0.9111047,0.8201599,0.12874603,0.11444092,0.4196167,-0.2670288,-0.5340576,0.91552734
2.0882177,10.468903,9.262995,-36.20146,2.3565216,-1.015868,0.06874857,-0.6895598,-0.54002106,0.9061183,0.56358755,0.86601543,-0.9032244,-0.66240907,0.44281527,-0.22739533,1.7268013,1.4625292,2.025519,-1.1101773,1.3596524,0.4945702,-0.18731263,1.658795,1.4205636,1.9611319,-1.0401528,1.4107606,-0.6806055,-0.6236687,0.89656174,0.62482786,0.97858745,-0.44727683,-0.37558472,-0.6819725,-0.6237984,0.8966446,0.6242752,0.9788513,-0.44670105,-0.3768921,2.1558902,-0.42300153,2.1126947,-3.452576,0.20458178,0.67798036,0.261789,-0.36782146,0.8756518,0.87995297,-0.005986727,0.4749255,0.009626736,-0.25294405,-0.023213664,-0.06302205,1,0,0,0,0,0,-2.8558903,0.26300153,-1.5526948,1.0878563,0.10602474,-0.11968613,0.41866302,-0.20589828,-0.571537,0.94732046,0.8583069,0.09536743,0.15258789,0.45776367,-0.2670288,-0.5340576,0.91552734
2.0911808,10.483008,9.366228,-36.12481,2.328181,-1.0308847,0.07241519,-0.6839749,-0.54056257,0.9058179,0.5666503,0.8648494,-0.90399295,-0.649391,0.4398522,-0.23055764,1.7312604,1.4658957,2.03032,-1.1124722,1.3588094,0.4911825,-0.19043007,1.663282,1.4236983,1.9660195,-1.0423977,1.408901,-0.67617667,-0.62339693,0.89731544,0.6273342,0.9772489,-0.4496185,-0.3706152,-0.6775379,-0.6234884,0.89740753,0.6269455,0.9775162,-0.44898987,-0.37193298,2.1386273,-0.4219787,2.115898,-3.452576,0.20458178,0.6281963,0.26053023,-0.36792564,0.8753359,0.8813598,-0.0054291803,0.472268,0.011756335,-0.25178066,-0.019495135,-0.06272158,1,0,0,0,0,0,-2.8386273,0.26197872,-1.555898,1.1100531,0.07252693,-0.109004974,0.45132637,-0.20480156,-0.5504489,0.9876251,0.8869171,0.06198883,0.15258789,0.5340576,-0.2670288,-0.45776367,0.9918213
2.0815587,10.481089,9.456634,-36.051144,2.301226,-1.0443344,0.07618505,-0.6782954,-0.5412513,0.9054962,0.569811,0.8636731,-0.9047329,-0.63536245,0.43691888,-0.23373018,1.7357217,1.4692832,2.0351133,-1.1147764,1.358072,0.48781747,-0.19354668,1.6677729,1.4268445,1.9709004,-1.0446532,1.4070671,-0.6716187,-0.6232926,0.8980603,0.6299918,0.97591674,-0.45184952,-0.36540568,-0.67300797,-0.62332153,0.8981705,0.6292343,0.97618103,-0.45108795,-0.36678314,2.1213644,-0.4209559,2.1188521,-3.452576,0.20458178,0.57841223,0.25927722,-0.3680117,0.8750216,0.88275665,-0.0048792935,0.4695994,0.0138974,-0.2506165,-0.015827447,-0.06248745,1,0,0,0,0,0,-2.8213644,0.2609559,-1.5588522,1.1303425,0.038909912,-0.104641914,0.48208237,-0.20346642,-0.5280614,1.0352492,0.9059906,0.0333786,0.15258789,0.45776367,-0.2670288,-0.4196167,1.0299683
2.067307,10.474508,9.545182,-35.990795,2.2756188,-1.0581756,0.079779394,-0.6725653,-0.5420575,0.9051535,0.57303804,0.86248076,-0.9054446,-0.62020934,0.43401223,-0.23691128,1.7401851,1.4726875,2.0398989,-1.1170888,1.3574504,0.48447555,-0.19666353,1.6722676,1.430005,1.9757746,-1.0469201,1.4052598,-0.66694194,-0.6233513,0.8987916,0.6327588,0.97459114,-0.45399058,-0.35994074,-0.66838264,-0.6233692,0.8989334,0.63209534,0.9748459,-0.45337677,-0.36144257,2.1041014,-0.41993308,2.1215575,-3.452576,0.20458178,0.5286282,0.25802982,-0.36808038,0.8747079,0.884143,-0.0043370365,0.46692035,0.016052315,-0.24946141,-0.012206862,-0.06230068,1,0,0,0,0,0,-2.8041015,0.25993308,-1.5615575,1.1487961,0.006198883,-0.10147095,0.50439835,-0.20210743,-0.5097389,1.0859847,0.9250641,-0.009536743,0.15258789,0.5722046,-0.2670288,-0.45776367,1.0681152
2.0541227,10.467054,9.629463,-35.910007,2.2484527,-1.0705689,0.08394304,-0.66680014,-0.5430028,0.9047868,0.57633644,0.86127853,-0.90612376,-0.60384434,0.43113154,-0.24010375,1.7446505,1.4761119,2.044677,-1.1194099,1.3569523,0.48115748,-0.19978121,1.676766,1.4331797,1.9806422,-1.0491974,1.4034822,-0.6621535,-0.6235752,0.8995051,0.63570166,0.9732724,-0.45604914,-0.3541882,-0.6636143,-0.6235361,0.89969635,0.63495636,0.97351074,-0.45547485,-0.3555298,2.0868385,-0.41891026,2.124014,-3.452576,0.20458178,0.47884414,0.25678843,-0.36812973,0.87439495,0.8855186,-0.0038011756,0.4642307,0.018222217,-0.24831061,-0.008638436,-0.062190466,1,0,0,0,0,0,-2.7868385,0.25891027,-1.564014,1.1659145,-0.026988983,-0.099253654,0.5400419,-0.20074844,-0.49294233,1.1431694,0.9536743,-0.0333786,0.15258789,0.5722046,-0.2670288,-0.4196167,1.1825562
2.0363634,10.457222,9.713645,-35.850315,2.223186,-1.0832505,0.08793536,-0.6610122,-0.5440669,0.90439665,0.57968634,0.8600613,-0.9067731,-0.58609235,0.4282765,-0.24330656,1.7491177,1.4795547,2.049447,-1.1217393,1.3565948,0.47786373,-0.20290056,1.6812674,1.4363698,1.9855031,-1.0514853,1.4017341,-0.65726054,-0.6239536,0.90019476,0.638749,0.97196037,-0.458006,-0.34810862,-0.65875053,-0.6238699,0.90026855,0.6380081,0.9721756,-0.45757294,-0.349617,2.0695755,-0.41788745,2.1262214,-3.452576,0.20458178,0.42906013,0.25555253,-0.36816263,0.8740825,0.8868836,-0.003271169,0.46153018,0.02040735,-0.24717347,-0.005121581,-0.062127028,1,0,0,0,0,0,-2.7695756,0.25788745,-1.5662215,1.1818647,-0.05800724,-0.09846687,0.56142807,-0.19936562,-0.47225952,1.2082338,0.9727478,-0.0667572,0.11444092,0.61035156,-0.2670288,-0.4196167,1.1825562
2.0107527,10.436642,9.789494,-35.7897,2.1985707,-1.095055,0.09204374,-0.6552275,-0.54525936,0.9039811,0.58307445,0.85882914,-0.9073919,-0.5667456,0.42544553,-0.24652131,1.7535858,1.4830158,2.0542095,-1.1240766,1.3563945,0.47459477,-0.20602253,1.6857725,1.439576,1.9903582,-1.0537827,1.4000175,-0.6522821,-0.6244904,0.9008555,0.6419079,0.97065514,-0.45986852,-0.3416812,-0.6537914,-0.6243944,0.9010315,0.6412506,0.9710312,-0.4594803,-0.34332275,2.0523126,-0.41686463,2.12818,-3.452576,0.20458178,0.37927613,0.25432217,-0.36817718,0.8737703,0.88823783,-0.0027461825,0.45881876,0.02260959,-0.24605972,-0.00166185,-0.06211328,1,0,0,0,0,0,-2.7523127,0.25686464,-1.5681801,1.194191,-0.08985996,-0.09889603,0.5841732,-0.19803047,-0.45300722,1.2774587,0.9918213,-0.104904175,0.15258789,0.64849854,-0.22888184,-0.38146973,1.2588501
1.9889991,10.421669,9.8708,-35.735218,2.1741621,-1.1074171,0.09656081,-0.649439,-0.54656696,0.90354156,0.58649796,0.8575794,-0.9079827,-0.5455759,0.42263967,-0.24974789,1.7580558,1.4864959,2.0589645,-1.1264213,1.3563714,0.4713511,-0.20914772,1.6902806,1.4427975,1.9952058,-1.0560877,1.3983343,-0.64722824,-0.62518066,0.90150774,0.64515764,0.9693556,-0.4616317,-0.33483583,-0.64873695,-0.62503815,0.9016037,0.64430237,0.9695053,-0.46100616,-0.33664703,2.0350497,-0.41584182,2.1298897,-3.452576,0.20458178,0.32949212,0.2530973,-0.36817527,0.8734579,0.8895808,-0.0022247483,0.45609722,0.024828497,-0.24496762,0.0017482733,-0.06213794,1,0,0,0,0,0,-2.7350497,0.25584182,-1.5698898,1.2048244,-0.120687485,-0.09555817,0.60276985,-0.19688606,-0.43284893,1.3607144,1.0108948,-0.12874603,0.11444092,0.61035156,-0.30517578,-0.30517578,1.335144
1.9583651,10.399055,9.94418,-35.6865,2.1504924,-1.1189156,0.101089984,-0.6436587,-0.54796493,0.9030792,0.5899384,0.85630614,-0.9085491,-0.52224904,0.4198584,-0.2529849,1.7625269,1.4899926,2.0637102,-1.1287717,1.3565544,0.4681329,-0.21227685,1.6947914,1.4460362,2.0000474,-1.0584023,1.3966873,-0.6421126,-0.6260122,0.9021208,0.64847577,0.96803397,-0.4633024,-0.32751602,-0.6436348,-0.6258249,0.9021759,0.6477356,0.96833706,-0.4629135,-0.3293991,2.0177867,-0.414819,2.1313505,-3.452576,0.20458178,0.27970812,0.25187787,-0.36815643,0.8731448,0.8909123,-0.0017069401,0.45336467,0.027067529,-0.2439075,0.005100562,-0.062197715,1,0,0,0,0,0,-2.7177868,0.254819,-1.5713506,1.2126923,-0.14908314,-0.09832382,0.61688423,-0.20132065,-0.41394234,1.4552474,1.0204315,-0.15735626,0.11444092,0.6866455,-0.23365021,-0.38146973,1.449585
1.9295925,10.376342,10.017927,-35.630566,2.1271386,-1.1304197,0.106509775,-0.6379097,-0.54948133,0.9025911,0.59340805,0.855015,-0.9090864,-0.4964403,0.41710013,-0.25623536,1.7669988,1.4935088,2.0684485,-1.1311293,1.3569721,0.4649405,-0.21541074,1.6993052,1.4492921,2.0048826,-1.0607245,1.3950794,-0.636951,-0.6269875,0.9027157,0.65189403,0.9667431,-0.4649014,-0.3196521,-0.63848495,-0.6267786,0.9027481,0.6511688,0.96702576,-0.4644394,-0.32157898,2.0005238,-0.4137962,2.1325624,-3.452576,0.20458178,0.22992411,0.2506635,-0.3681214,0.87283206,0.89223254,-0.0011908058,0.4506213,0.029326987,-0.242879,0.008399242,-0.062298894,1,0,0,0,0,0,-2.7005239,0.2537962,-1.5725625,1.217699,-0.17800331,-0.09717941,0.63734055,-0.19512177,-0.3991723,1.5637398,1.0299683,-0.19073486,0.11444092,0.6866455,-0.26226044,-0.30517578,1.5640259
1.8959448,10.349935,10.0898075,-35.587822,2.1045299,-1.1416329,0.11196793,-0.63218397,-0.5510982,0.9020792,0.59689504,0.8537004,-0.9095995,-0.4676451,0.41436577,-0.2594986,1.7714715,1.4970436,2.0731785,-1.1334925,1.3576678,0.4617743,-0.21854988,1.7038227,1.4525651,2.00971,-1.0630543,1.3935125,-0.63175195,-0.6281027,0.9032868,0.65536267,0.96543205,-0.46639565,-0.31116813,-0.63323975,-0.62782764,0.90351105,0.65460205,0.9654999,-0.46596527,-0.31337738,1.9832609,-0.41277337,2.1335254,-3.452576,0.20458178,0.18014011,0.24945447,-0.36806893,0.8725182,0.8935406,-0.00067639037,0.44786763,0.03160844,-0.24188916,0.01164155,-0.06242507,1,0,0,0,0,0,-2.683261,0.25277337,-1.5735254,1.2210608,-0.2061367,-0.0972271,0.6478548,-0.19905567,-0.37772655,1.687336,1.0490417,-0.20980835,0.15258789,0.6866455,-0.30517578,-0.30517578,1.6403198
1.8648248,10.328235,10.163695,-35.54304,2.0819175,-1.1528943,0.11812352,-0.62646204,-0.5527813,0.9015461,0.600408,0.8523624,-0.91008866,-0.4355033,0.41165733,-0.26277238,1.7759464,1.5005977,2.077899,-1.1358614,1.3586723,0.45863384,-0.2216951,1.7083422,1.4558553,2.0145319,-1.0653908,1.3919904,-0.6265205,-0.629345,0.90382946,0.65888655,0.96411896,-0.46780613,-0.30197358,-0.6280899,-0.6290436,0.9038925,0.6580353,0.96435547,-0.46730042,-0.30441284,1.9659979,-0.41175056,2.1342394,-3.452576,0.20458178,0.1303561,0.24824984,-0.36800146,0.8722037,0.89483696,-0.00016195605,0.4451028,0.033913527,-0.24093634,0.014830455,-0.06257723,1,0,0,0,0,0,-2.665998,0.25175056,-1.5742395,1.2236118,-0.23171902,-0.098371506,0.65932274,-0.19938946,-0.36053658,1.8290043,1.0299683,-0.24318695,0.076293945,0.6866455,-0.22888184,-0.2670288,1.7929077
1.8176296,10.28678,10.221291,-35.49961,2.0617006,-1.1624058,0.12515531,-0.6208155,-0.55453324,0.90099114,0.6039162,0.8509981,-0.9105538,-0.3993335,0.4089686,-0.26605776,1.7804215,1.5041685,2.0826118,-1.1382351,1.3600438,0.45551962,-0.22484711,1.7128645,1.4591635,2.019348,-1.067735,1.3905189,-0.6212808,-0.63071233,0.9043132,0.6624656,0.9628328,-0.46912578,-0.29193756,-0.6228447,-0.63040257,0.9044647,0.66165924,0.96321106,-0.4688263,-0.2943039,1.948735,-0.41072774,2.1347046,-3.452576,0.20458178,0.0805721,0.24705003,-0.36791754,0.8718886,0.8961211,0.00035340645,0.4423269,0.036245614,-0.24004017,0.017948769,-0.062755875,1,0,0,0,0,0,-2.648735,0.25072774,-1.5747046,1.2213707,-0.2569437,-0.10559559,0.6707907,-0.19388199,-0.34177303,1.9968748,1.0490417,-0.27179718,0.11444092,0.7247925,-0.22888184,-0.30517578,2.0217896
1.7957054,10.279643,10.303917,-35.451008,2.0380573,-1.1737773,0.13303223,-0.6152336,-0.5563235,0.90041703,0.6074457,0.84961194,-0.910993,-0.35869002,0.40630093,-0.269353,1.7848979,1.5077592,2.0873168,-1.1406144,1.3618237,0.45243162,-0.22800627,1.7173897,1.46249,2.0241563,-1.0700848,1.3891008,-0.61602736,-0.6321875,0.90478677,0.66610366,0.9615182,-0.47036222,-0.28093806,-0.6175995,-0.6318331,0.9050369,0.6652832,0.9616852,-0.4699707,-0.28362274,1.9314721,-0.40970492,2.1349208,-3.452576,0.20458178,0.030788086,0.24585457,-0.36781836,0.8715723,0.8973923,0.0008711071,0.43954048,0.038604975,-0.23917222,0.021022413,-0.0629628,1,0,0,0,0,0,-2.631472,0.24970493,-1.5749209,1.2203932,-0.27866364,-0.103354454,0.68302155,-0.19950867,-0.32470226,2.1891594,1.0490417,-0.2861023,0.11444092,0.7247925,-0.30517578,-0.22888184,2.1362305
1.7646294,10.266271,10.37843,-35.40801,2.0156922,-1.1838665,0.14148703,-0.6097031,-0.5581118,0.8998273,0.6109936,0.84820074,-0.9114094,-0.31279737,0.40365538,-0.27265522,1.7893759,1.5113695,2.0920124,-1.1429975,1.364077,0.44937032,-0.23117319,1.7219168,1.4658345,2.028959,-1.0724404,1.3877409,-0.6107803,-0.63375014,0.90522027,0.6697778,0.96017504,-0.4714949,-0.2688499,-0.6122589,-0.6333828,0.9054184,0.66890717,0.9605408,-0.4711151,-0.27198792,1.9142091,-0.4086821,2.1348882,-3.452576,0.20458178,-0.018995926,0.24466339,-0.3677039,0.87125486,0.89865047,0.0013926788,0.43674332,0.04099444,-0.23834099,0.024040012,-0.06319355,1,0,0,0,0,0,-2.6142092,0.24868211,-1.5748882,1.2154818,-0.29633045,-0.10714531,0.69065094,-0.20508766,-0.30344725,2.4063945,1.0681152,-0.30994415,0.076293945,0.7247925,-0.22888184,-0.22888184,2.3269653
1.7323943,10.251799,10.451808,-35.364513,1.9947823,-1.193877,0.15160663,-0.60426784,-0.55989176,0.8992213,0.61455786,0.8467622,-0.91180176,-0.26054648,0.4010289,-0.27596453,1.7938545,1.5149992,2.0967,-1.1453846,1.3668971,0.44633502,-0.23434821,1.7264458,1.4691981,2.033754,-1.0748017,1.3864467,-0.60555375,-0.6353891,0.905611,0.6734913,0.9588554,-0.47254324,-0.25546387,-0.6070614,-0.63500404,0.90579987,0.67272186,0.9590149,-0.47225952,-0.2588272,1.8969462,-0.4076593,2.1346066,-3.452576,0.20458178,-0.06877994,0.24347593,-0.36757493,0.8709361,0.89989495,0.0019193045,0.4339359,0.043417063,-0.23755284,0.027000714,-0.06344385,1,0,0,0,0,0,-2.5969462,0.2476593,-1.5746067,1.2078762,-0.31177998,-0.111579895,0.6989479,-0.20017624,-0.2860427,2.6654482,1.039505,-0.32424927,0.076293945,0.76293945,-0.30517578,-0.22888184,2.632141
1.709069,10.253103,10.534067,-35.31661,1.9722273,-1.2040075,0.16300209,-0.598925,-0.56164765,0.8986002,0.6181557,0.84530044,-0.9121689,-0.20134951,0.39842102,-0.27928,1.7983338,1.5186505,2.1013782,-1.1477752,1.3703388,0.4433257,-0.23753169,1.7309767,1.4725798,2.0385435,-1.0771677,1.385225,-0.600375,-0.63708395,0.9059835,0.6772501,0.9575058,-0.4734992,-0.24057409,-0.60186386,-0.6366968,0.90618134,0.6763458,0.9578705,-0.4732132,-0.24433136,1.8796833,-0.40663648,2.134076,-3.452576,0.20458178,-0.11856395,0.24229228,-0.36743164,0.87061644,0.9011256,0.0024532413,0.43111718,0.04587604,-0.23679613,0.029912185,-0.06371986,1,0,0,0,0,0,-2.5796833,0.24663648,-1.5740762,1.1948586,-0.32315254,-0.1111269,0.7084608,-0.20592213,-0.26693344,2.9656112,1.039505,-0.33855438,0.076293945,0.7247925,-0.22888184,-0.19073486,2.89917
1.6895528,10.262243,10.6214485,-35.27436,1.9501436,-1.2144057,0.17464928,-0.59369034,-0.56335574,0.89796627,0.6217826,0.843808,-0.91251314,-0.13866507,0.39583048,-0.28260016,1.802814,1.5223224,2.106048,-1.1501688,1.3741318,0.4403419,-0.24072376,1.7355095,1.4759806,2.0433252,-1.0795376,1.3840835,-0.5952397,-0.6388173,0.90633553,0.6810327,0.9561777,-0.47435513,-0.22415382,-0.5967617,-0.6384134,0.9065628,0.6801605,0.9563446,-0.47397614,-0.22830963,1.8624203,-0.40561366,2.1332967,-3.452576,0.20458178,-0.16834795,0.24111265,-0.36727285,0.87029487,0.9023412,0.0029956275,0.42828855,0.048374943,-0.236068,0.03277749,-0.06400912,1,0,0,0,0,0,-2.5624204,0.24561366,-1.5732968,1.1828661,-0.3310442,-0.11134148,0.71361065,-0.20153522,-0.24644136,3.2711864,1.0204315,-0.34332275,0.076293945,0.76293945,-0.30517578,-0.15258789,3.2043457
1.6760474,10.285012,10.712088,-35.220425,1.9249688,-1.2240715,0.18549395,-0.588555,-0.5650027,0.8973204,0.625435,0.8422848,-0.91283476,-0.075772054,0.3932575,-0.28592396,1.8072951,1.5260154,2.110708,-1.1525644,1.3780217,0.43738383,-0.24392453,1.7400442,1.4794005,2.0480993,-1.0819113,1.3830297,-0.5901635,-0.6405694,0.9066661,0.684871,0.9548175,-0.47511628,-0.20629467,-0.59161186,-0.6401539,0.9069443,0.6839752,0.9548187,-0.47473907,-0.21076202,1.8451574,-0.40459085,2.1322684,-3.452576,0.20458178,-0.21813196,0.23993646,-0.36710095,0.86997205,0.90354156,0.0035487777,0.42544985,0.050916325,-0.23535587,0.035598755,-0.06433252,1,0,0,0,0,0,-2.5451574,0.24459085,-1.5722685,1.1677742,-0.3349781,-0.11174679,0.72517395,-0.20766258,-0.22693872,3.5583496,1.0299683,-0.34809113,0.076293945,0.76293945,-0.30517578,-0.15258789,3.5095215
1.6613036,10.311023,10.803999,-35.175465,1.9000493,-1.2340562,0.19499126,-0.5835513,-0.56657165,0.89666307,0.6290941,0.84072447,-0.9131339,-0.014610395,0.39069974,-0.28925025,1.8117772,1.529728,2.1153572,-1.1549621,1.3818609,0.4344508,-0.24713412,1.7445799,1.4828395,2.0528677,-1.0842888,1.3820693,-0.5851539,-0.6423245,0.9069742,0.68874013,0.9534759,-0.4757882,-0.18717824,-0.5866051,-0.6419182,0.907135,0.6877899,0.9536743,-0.475502,-0.19207,1.8278944,-0.40356803,2.1309912,-3.452576,0.20458178,-0.26791596,0.23876365,-0.36691475,0.86964744,0.9047259,0.004113526,0.42260087,0.05350349,-0.23466241,0.038377598,-0.06467615,1,0,0,0,0,0,-2.5278945,0.24356803,-1.5709913,1.1511803,-0.33574104,-0.11236668,0.7317543,-0.20375252,-0.20852089,3.809303,1.001358,-0.3528595,0.038146973,0.76293945,-0.22888184,-0.15258789,3.7384033
1.6360328,10.330395,10.886986,-35.134644,1.8749198,-1.2431244,0.20262301,-0.578764,-0.56808484,0.8959918,0.6327233,0.8391209,-0.9134102,0.043836765,0.38814968,-0.2925809,1.8162593,1.5334573,2.1199973,-1.1573616,1.3855762,0.43154258,-0.25035244,1.7491165,1.4862984,2.0576303,-1.0866702,1.3812091,-0.5802504,-0.6440706,0.9072573,0.6926356,0.9521495,-0.47636485,-0.16702498,-0.58164597,-0.6436646,0.90732574,0.69179535,0.9525299,-0.47626495,-0.17204285,1.8106315,-0.4025452,2.129465,-3.452576,0.20458178,-0.31769997,0.23759378,-0.3667152,0.86932075,0.9058938,0.004691691,0.41974136,0.056139607,-0.23399705,0.041106246,-0.06504121,1,0,0,0,0,0,-2.5106316,0.24254522,-1.5694652,1.1269569,-0.33414364,-0.113749504,0.73742867,-0.20053387,-0.18904209,4.0161967,0.9918213,-0.34928322,0.038146973,0.8010864,-0.22888184,-0.15258789,4.005432
1.6167487,10.363178,10.97748,-35.09523,1.8470328,-1.2525663,0.20838794,-0.5742144,-0.5695467,0.89530635,0.63630915,0.8374709,-0.9136643,0.09894033,0.38560542,-0.29591617,1.820741,1.5372032,2.124628,-1.1597633,1.3891244,0.42865843,-0.25357944,1.7536551,1.4897765,2.0623853,-1.0890534,1.3804529,-0.57547057,-0.64579624,0.9075405,0.69655144,0.9507816,-0.47683972,-0.14605348,-0.5768299,-0.6453991,0.9077072,0.69561005,0.951004,-0.47664642,-0.15125275,1.7933686,-0.4015224,2.12769,-3.452576,0.20458178,-0.36748397,0.23642752,-0.36650157,0.868993,0.9070441,0.005283196,0.41687247,0.058825348,-0.23334815,0.043793753,-0.06542949,1,0,0,0,0,0,-2.4933686,0.2415224,-1.5676901,1.0991812,-0.33020973,-0.11012554,0.7419348,-0.20852089,-0.16818047,4.179305,0.96321106,-0.34689903,0.076293945,0.76293945,-0.30517578,-0.076293945,4.15802
1.5860448,10.38755,11.060947,-35.069798,1.8196065,-1.2618443,0.21199249,-0.56990325,-0.5709394,0.89461046,0.63982594,0.8357635,-0.91390127,0.15044114,0.38306618,-0.2992546,1.8252239,1.5409626,2.1292465,-1.1621655,1.3924881,0.4257974,-0.25681478,1.7581955,1.4932736,2.0671327,-1.0914385,1.3798034,-0.5708438,-0.6474931,0.90782094,0.7004502,0.9493645,-0.47720814,-0.12450443,-0.5722046,-0.647068,0.9080887,0.69942474,0.94947815,-0.4770279,-0.12989044,1.7761056,-0.40049958,2.1256661,-3.452576,0.20458178,-0.41726798,0.23526454,-0.3662746,0.8686629,0.9081761,0.005889278,0.41399455,0.061562154,-0.2327279,0.046436045,-0.065826744,1,0,0,0,0,0,-2.4761057,0.24049959,-1.5656662,1.065731,-0.32463074,-0.10726452,0.738883,-0.21829605,-0.1464963,4.2944727,0.9250641,-0.333786,0.076293945,0.76293945,-0.30517578,-0.076293945,4.272461
1.5405338,10.396938,11.129105,-35.044025,1.7932177,-1.269844,0.21412486,-0.5658746,-0.57228255,0.89390296,0.64325535,0.83399564,-0.91412115,0.19830021,0.38052744,-0.30259737,1.8297077,1.544734,2.1338525,-1.1645682,1.3956674,0.42295903,-0.2600587,1.762736,1.4967908,2.0718725,-1.0938256,1.3792627,-0.5663938,-0.6491552,0.9080699,0.70434505,0.9479447,-0.4774917,-0.102579996,-0.56767464,-0.64878464,0.9080887,0.7034302,0.9479523,-0.47740936,-0.10814667,1.7588427,-0.39947677,2.1233933,-3.452576,0.20458178,-0.46705198,0.23410423,-0.36603546,0.8683305,0.90928936,0.006510154,0.41110754,0.06435003,-0.23215097,0.049020268,-0.066239245,1,0,0,0,0,0,-2.4588428,0.23947677,-1.5633934,1.0275602,-0.3178835,-0.11012554,0.7385254,-0.21867752,-0.1290083,4.3691607,0.9059906,-0.34332275,0,0.8010864,-0.30517578,-0.076293945,4.348755
1.4807932,10.390166,11.18554,-35.02648,1.7677655,-1.2772787,0.21468946,-0.56218666,-0.5736174,0.893179,0.64658356,0.83216566,-0.91432315,0.24268532,0.3779841,-0.30594808,1.8341902,1.5485175,2.1384456,-1.1669714,1.3986775,0.4201421,-0.26331073,1.7672783,1.500328,2.0766065,-1.0962136,1.3788326,-0.5621464,-0.65079045,0.90828395,0.7082203,0.9465126,-0.47768724,-0.08046018,-0.5633831,-0.6504059,0.90847015,0.7074356,0.94680786,-0.4776001,-0.08602142,1.7415798,-0.39845395,2.1208715,-3.452576,0.20458178,-0.516836,0.23294662,-0.36578274,0.8679961,0.9103834,0.007146214,0.4082112,0.06719057,-0.23163335,0.05153829,-0.066661306,1,0,0,0,0,0,-2.4415798,0.23845395,-1.5608716,0.9842634,-0.31268597,-0.113773346,0.7349968,-0.22118092,-0.110948086,4.408035,0.8583069,-0.32424927,0.076293945,0.8010864,-0.22888184,-0.038146973,4.425049
1.4234976,10.3917,11.251297,-35.024723,1.7416629,-1.2863641,0.2137598,-0.55880815,-0.57493126,0.89244366,0.64980996,0.8302642,-0.91451097,0.28369403,0.37543747,-0.30930522,1.8386738,1.5523127,2.1430275,-1.1693745,1.4015281,0.4173457,-0.26657087,1.7718216,1.5038842,2.081333,-1.0986025,1.3785131,-0.5581347,-0.65238917,0.908513,0.7120328,0.9450587,-0.47779155,-0.058307864,-0.5592823,-0.65202713,0.9086609,0.7112503,0.945282,-0.47779083,-0.06389618,1.7243168,-0.39743114,2.118101,-3.452576,0.20458178,-0.56662005,0.23179157,-0.36551833,0.8676593,0.9114571,0.0077972207,0.40530652,0.07008236,-0.23117198,0.05400411,-0.0670722,1,0,0,0,0,0,-2.424317,0.23743114,-1.5581009,0.934577,-0.3055811,-0.107598305,0.72283745,-0.22547245,-0.09222031,4.414254,0.8201599,-0.32424927,0.038146973,0.76293945,-0.30517578,-0.038146973,4.425049
1.339839,10.36186,11.291474,-35.029808,1.7171121,-1.2936475,0.21112189,-0.55576915,-0.5762363,0.89169526,0.6529306,0.8282885,-0.91468394,0.32153288,0.37288418,-0.31266975,1.8431573,1.5561186,2.147596,-1.1717772,1.4042357,0.41456836,-0.26983863,1.7763659,1.5074586,2.0860517,-1.1009915,1.3783042,-0.554377,-0.6539635,0.9087003,0.71576595,0.94351786,-0.47781515,-0.03627644,-0.5554676,-0.653553,0.9088516,0.71487427,0.9437561,-0.47779083,-0.041770935,1.7070539,-0.39640832,2.1150813,-3.452576,0.20458178,-0.6164041,0.2306386,-0.36524153,0.867321,0.9125106,0.008462581,0.40239322,0.07302441,-0.23079482,0.05639617,-0.06747519,1,0,0,0,0,0,-2.407054,0.23640832,-1.5550814,0.8811712,-0.30088425,-0.11279583,0.70734024,-0.24292469,-0.07557869,4.389934,0.76293945,-0.30517578,0.038146973,0.7247925,-0.30517578,0,4.425049
1.253856,10.330979,11.330564,-35.035614,1.692708,-1.3009573,0.2077401,-0.55307,-0.5775297,0.89093614,0.6559443,0.8262309,-0.9148438,0.35641468,0.37032276,-0.316041,1.8476408,1.5599341,2.1521502,-1.174179,1.4068174,0.41180867,-0.2731145,1.7809111,1.511051,2.0907629,-1.1033795,1.3782051,-0.5508976,-0.65551203,0.9088685,0.7194294,0.9419312,-0.47775564,-0.014483748,-0.551939,-0.65517426,0.90904236,0.71849823,0.9422302,-0.4776001,-0.019836426,1.689791,-0.3953855,2.1118128,-3.452576,0.20458178,-0.6661882,0.22948699,-0.36495233,0.86698085,0.91354275,0.0091428105,0.3994715,0.07601634,-0.23050264,0.05871566,-0.06787092,1,0,0,0,0,0,-2.389791,0.2353855,-1.5518129,0.8230686,-0.29592514,-0.11358261,0.6937742,-0.25207996,-0.058448315,4.3420205,0.705719,-0.32424927,0.038146973,0.7247925,-0.30517578,0.038146973,4.386902
1.1586503,10.287247,11.360573,-35.04143,1.6686838,-1.3078449,0.20350686,-0.55071455,-0.5788302,0.8901664,0.65885115,0.82408834,-0.91499174,0.3885814,0.3677515,-0.3194209,1.8521245,1.5637591,2.15669,-1.1765789,1.4092916,0.40906543,-0.276398,1.7854573,1.5146617,2.0954645,-1.1057675,1.3782127,-0.547708,-0.6570497,0.9090141,0.72303236,0.9402844,-0.47762406,0.0069627943,-0.54864883,-0.65670013,0.9092331,0.7221222,0.9403229,-0.4776001,0.0015258789,1.672528,-0.3943627,2.108295,-3.452576,0.20458178,-0.71597224,0.22833645,-0.3646524,0.8666387,0.9145532,0.009836132,0.39654237,0.079055354,-0.23030618,0.06095923,-0.06826263,1,0,0,0,0,0,-2.372528,0.23436269,-1.548295,0.7627249,-0.29399395,-0.11508465,0.6820679,-0.26419163,-0.04339218,4.2726808,0.6580353,-0.30517578,0.038146973,0.7247925,-0.38146973,0,4.272461
1.0623331,10.246411,11.391229,-35.051426,1.6441488,-1.3149272,0.19839892,-0.54868186,-0.5801405,0.8893858,0.66166896,0.82186544,-0.9151255,0.4181953,0.36517087,-0.32280925,1.8566082,1.5675952,2.1612136,-1.1789775,1.4116683,0.40633696,-0.27968913,1.7900034,1.5182904,2.1001585,-1.1081545,1.3783262,-0.54481614,-0.6585649,0.9091326,0.72656083,0.9385636,-0.4774327,0.027976511,-0.54569244,-0.658226,0.9092331,0.72574615,0.938797,-0.47740936,0.022697449,1.6552651,-0.39333987,2.1045282,-3.452576,0.20458178,-0.7657563,0.2271865,-0.36434174,0.86629426,0.91554177,0.01054315,0.3936052,0.08214065,-0.23020373,0.06312942,-0.06864793,1,0,0,0,0,0,-2.3552651,0.23333988,-1.5445282,0.70073605,-0.28970242,-0.11754036,0.667572,-0.27911663,-0.030910969,4.186067,0.5912781,-0.30517578,0,0.7247925,-0.30517578,0.038146973,4.234314
0.9483367,10.181211,11.40678,-35.071045,1.622535,-1.3214517,0.19287284,-0.54700667,-0.58148146,0.88859296,0.66439205,0.81955606,-0.9152459,0.44552654,0.36257643,-0.32620764,1.8610909,1.5714418,2.1657228,-1.1813742,1.4139683,0.40362185,-0.28298765,1.7945496,1.5219363,2.1048448,-1.1105406,1.3785427,-0.5422413,-0.66007656,0.909219,0.7299989,0.93680805,-0.47716662,0.04850793,-0.54302216,-0.6597042,0.9092331,0.7291794,0.9372711,-0.47721863,0.043296814,1.6380022,-0.39231706,2.1005125,-3.452576,0.20458178,-0.8155404,0.22603624,-0.36402082,0.86594826,0.91650796,0.011263131,0.39066,0.08526976,-0.23021851,0.065214105,-0.069016546,1,0,0,0,0,0,-2.3380022,0.23231706,-1.5405126,0.6350994,-0.28922558,-0.1210928,0.6498575,-0.2861023,-0.015330315,4.089467,0.5340576,-0.29563904,0,0.6866455,-0.30517578,0.038146973,4.119873
0.83822155,10.122087,11.428948,-35.094643,1.599276,-1.3289762,0.18655352,-0.54568195,-0.58284265,0.88778967,0.6670314,0.817157,-0.9153523,0.47074795,0.3599673,-0.32961506,1.8655728,1.5752988,2.1702173,-1.1837687,1.4162025,0.40091842,-0.2862938,1.7990967,1.5255984,2.1095197,-1.1129248,1.3788602,-0.5399891,-0.66158813,0.90929556,0.73333293,0.9349483,-0.47683775,0.068489164,-0.54068565,-0.6612301,0.9094238,0.7324219,0.9349823,-0.47683716,0.06351471,1.6207392,-0.39129424,2.096248,-3.452576,0.20458178,-0.86532444,0.22488596,-0.36368918,0.8656006,0.9174511,0.011994446,0.38770843,0.08844108,-0.23034357,0.067225106,-0.069365844,1,0,0,0,0,0,-2.3207393,0.23129424,-1.536248,0.56831837,-0.28944016,-0.12025833,0.6294489,-0.3070593,-0.0020980835,3.9793954,0.46730042,-0.30517578,0.038146973,0.64849854,-0.45776367,0.076293945,4.043579
0.7251145,10.058973,11.447009,-35.114376,1.5757385,-1.3359727,0.17994098,-0.5446557,-0.58419883,0.8869798,0.6696018,0.8146666,-0.9154458,0.4940025,0.35734597,-0.33302972,1.8700551,1.5791665,2.174693,-1.1861604,1.4183804,0.398225,-0.28960758,1.8036448,1.5292777,2.114187,-1.1153071,1.3792751,-0.5380626,-0.663106,0.90935755,0.7365781,0.9329686,-0.47644573,0.08788434,-0.53868294,-0.66275597,0.90961456,0.7358551,0.9334564,-0.4764557,0.082969666,1.6034763,-0.39027143,2.0917344,-3.452576,0.20458178,-0.9151085,0.22373469,-0.363348,0.8652508,0.9183711,0.012737045,0.3847494,0.09165256,-0.23058106,0.06916097,-0.06970349,1,0,0,0,0,0,-2.3034763,0.23027143,-1.5317345,0.50103664,-0.29091835,-0.12047291,0.61204433,-0.3312111,0.011086464,3.8621783,0.4005432,-0.30517578,0.038146973,0.6866455,-0.30517578,0.076293945,3.8909912
0.60192734,9.983574,11.453052,-35.131966,1.554363,-1.3419443,0.17325954,-0.5439529,-0.58558,0.88616085,0.67210513,0.8120844,-0.91552544,0.5154934,0.3547088,-0.33645397,1.8745376,1.5830461,2.1791537,-1.1885492,1.4205146,0.39553994,-0.29292876,1.8081928,1.5329722,2.1188428,-1.1176875,1.3797853,-0.5364628,-0.664628,0.9093742,0.7397501,0.9309585,-0.47600222,0.10665293,-0.537014,-0.66423416,0.90961456,0.73890686,0.9311676,-0.47607422,0.10204315,1.5862134,-0.3892486,2.086972,-3.452576,0.20458178,-0.96489257,0.2225815,-0.36299777,0.86490023,0.9192677,0.013489538,0.38178357,0.09490115,-0.2309433,0.07100932,-0.07003227,1,0,0,0,0,0,-2.2862134,0.22924861,-1.526972,0.43349266,-0.2919674,-0.126791,0.5977869,-0.33752918,0.022053719,3.7369041,0.333786,-0.29563904,0,0.61035156,-0.45776367,0.076293945,3.8146973
0.4772868,9.9088125,11.460893,-35.15794,1.5316168,-1.3483822,0.16585132,-0.5435741,-0.58696944,0.8853334,0.6745503,0.8094077,-0.91558975,0.53536505,0.352054,-0.3398863,1.8790195,1.5869362,2.1835954,-1.1909347,1.4226145,0.39286178,-0.29625756,1.8127409,1.536682,2.1234891,-1.1200659,1.3803861,-0.5351904,-0.66615605,0.9093405,0.742812,0.9287949,-0.47550678,0.12478663,-0.5356312,-0.66576004,0.90961456,0.7419586,0.92926025,-0.47569275,0.120162964,1.5689504,-0.3882258,2.0819607,-3.452576,0.20458178,-1.0146766,0.22142614,-0.36263752,0.86454785,0.9201407,0.014251644,0.3788107,0.09818486,-0.23142761,0.072776064,-0.07034854,1,0,0,0,0,0,-2.2689505,0.2282258,-1.5219607,0.36592484,-0.29342175,-0.13420582,0.57616234,-0.36838055,0.03311634,3.6098778,0.27656555,-0.30517578,0,0.61035156,-0.38146973,0.076293945,3.6239624
0.35501164,9.8335705,11.468432,-35.174248,1.509441,-1.3545789,0.15881793,-0.54352456,-0.5883834,0.88449615,0.67694277,0.80663455,-0.9156379,0.5537747,0.3493798,-0.34332824,1.8835006,1.5908375,2.18802,-1.1933169,1.4246881,0.39018863,-0.29959422,1.817289,1.5404071,2.128124,-1.1224406,1.3810756,-0.53424716,-0.6677012,0.9092785,0.74580836,0.92656696,-0.47495875,0.14225768,-0.5346298,-0.6673336,0.90961456,0.7450104,0.92697144,-0.4749298,0.1379013,1.5516875,-0.38720298,2.0767004,-3.452576,0.20458178,-1.0644605,0.22026801,-0.3622694,0.8641937,0.92098963,0.015022706,0.375832,0.10150153,-0.23203377,0.074462526,-0.07065926,1,0,0,0,0,0,-2.2516875,0.22720298,-1.5167005,0.2980709,-0.2970934,-0.13730526,0.56340694,-0.3815174,0.044238567,3.4774303,0.2002716,-0.31471252,0,0.61035156,-0.45776367,0.15258789,3.5476685
0.23376544,9.762147,11.477663,-35.191063,1.4860253,-1.3607522,0.15154879,-0.5437653,-0.5898142,0.8836511,0.6792868,0.80375856,-0.9156723,0.5708612,0.3466874,-0.34677935,1.887981,1.59475,2.1924248,-1.1956943,1.4267445,0.38751882,-0.30293876,1.8218352,1.5441474,2.1327474,-1.1248124,1.38185,-0.5336349,-0.6692601,0.9091834,0.7487305,0.9242021,-0.47435746,0.1590835,-0.53396225,-0.66890717,0.9092331,0.74806213,0.9246826,-0.4743576,0.15487671,1.5344245,-0.38618016,2.0711913,-3.452576,0.20458178,-1.1142445,0.21910581,-0.36189365,0.86383784,0.9218146,0.015802335,0.37284738,0.104847245,-0.23275596,0.07607321,-0.07096855,1,0,0,0,0,0,-2.2344246,0.22618017,-1.5111914,0.22990704,-0.3001213,-0.1414299,0.5489111,-0.4091978,0.055515766,3.348428,0.1335144,-0.31471252,-0.076293945,0.61035156,-0.45776367,0.11444092,3.3950806
0.109810576,9.686933,11.485408,-35.211708,1.4635986,-1.3674042,0.14419517,-0.5443404,-0.5912939,0.8827912,0.6815845,0.8007834,-0.91568923,0.58676803,0.3439716,-0.35024226,1.8924584,1.5986742,2.19681,-1.1980675,1.4287914,0.38485092,-0.30629092,1.8263813,1.547902,2.1373594,-1.1271813,1.3827055,-0.5333497,-0.6708343,0.9090493,0.7515704,0.9217358,-0.47372875,0.17524731,-0.5335808,-0.67043304,0.9092331,0.75092316,0.9223938,-0.4737854,0.17108917,1.5171616,-0.38515735,2.0654333,-3.452576,0.20458178,-1.1640284,0.21793985,-0.36150956,0.8634806,0.92261523,0.016588675,0.36985686,0.1082208,-0.23360005,0.07760949,-0.07126967,1,0,0,0,0,0,-2.2171617,0.22515735,-1.5054333,0.1625061,-0.30341148,-0.1467228,0.5328417,-0.4297018,0.061666965,3.2160878,0.076293945,-0.30517578,0,0.5722046,-0.45776367,0.11444092,3.2424927
0.0004255948,9.628924,11.510071,-35.23313,1.4392409,-1.3753973,0.13701572,-0.54518235,-0.592791,0.88192195,0.68384975,0.79770124,-0.9156899,0.60156775,0.34123632,-0.3537142,1.8969351,1.60261,2.2011755,-1.2004365,1.4308308,0.3821835,-0.3096512,1.8309275,1.55167,2.141958,-1.1295474,1.38364,-0.5333826,-0.6724271,0.9089242,0.75432205,0.9191493,-0.47305897,0.19076185,-0.5334854,-0.6720543,0.9092331,0.75359344,0.9197235,-0.4732132,0.18692017,1.4998987,-0.38413453,2.0594263,-3.452576,0.20458178,-1.2138124,0.21676974,-0.36111784,0.8631223,0.92339146,0.017380837,0.36686096,0.11162063,-0.23454969,0.079090685,-0.07155559,1,0,0,0,0,0,-2.1998987,0.22413453,-1.4994264,0.097084045,-0.30739307,-0.14259815,0.51555634,-0.45399666,0.07042885,3.086269,0.019073486,-0.32424927,0,0.5340576,-0.5340576,0.11444092,3.1661987
-0.124941885,9.550256,11.514202,-35.2482,1.4164063,-1.3812517,0.12979442,-0.54628915,-0.59430707,0.8810411,0.6860881,0.7945095,-0.91567343,0.61536115,0.33848035,-0.35719576,1.9014108,1.606557,2.2055187,-1.2028012,1.432869,0.37951463,-0.31301957,1.8354717,1.5554513,2.1465433,-1.1319096,1.38465,-0.53373253,-0.6740492,0.90875024,0.75700724,0.91642237,-0.47234637,0.2056436,-0.5337715,-0.67367554,0.9088516,0.75626373,0.9170532,-0.47245026,0.20198822,1.4826357,-0.38311172,2.0531704,-3.452576,0.20458178,-1.2635963,0.21559358,-0.36071992,0.8627622,0.9241432,0.01817878,0.36386004,0.115042105,-0.23562056,0.08049601,-0.07184316,1,0,0,0,0,0,-2.1826358,0.22311172,-1.4931705,0.031781197,-0.31352043,-0.14996529,0.50263405,-0.48234463,0.07971525,2.9597342,-0.05722046,-0.32424927,-0.076293945,0.5340576,-0.5340576,0.15258789,3.0136108
-0.24999452,9.473727,11.51655,-35.25745,1.3936504,-1.3864912,0.12266169,-0.5476908,-0.5958667,0.88014436,0.688293,0.7912054,-0.91564,0.62826955,0.33569938,-0.3606889,1.9058833,1.6105148,2.2098396,-1.2051609,1.4349116,0.37684268,-0.31639606,1.840016,1.559246,2.1511133,-1.134268,1.3857315,-0.5344023,-0.67569435,0.908521,0.75964665,0.9135883,-0.47159055,0.21988776,-0.5343914,-0.6752968,0.9088516,0.758934,0.91400146,-0.47168732,0.21629333,1.4653728,-0.3820889,2.0466657,-3.452576,0.20458178,-1.3133802,0.21441208,-0.3603146,0.8624008,0.9248704,0.018980756,0.36085457,0.118483916,-0.23680931,0.081824884,-0.072140075,1,0,0,0,0,0,-2.1653728,0.2220889,-1.4866657,-0.034046173,-0.31838417,-0.15866756,0.49386024,-0.50406456,0.088989735,2.8322995,-0.12397766,-0.32424927,0,0.5340576,-0.61035156,0.15258789,2.861023
-0.35614625,9.418626,11.539898,-35.26606,1.3685125,-1.3936021,0.11586201,-0.5493217,-0.59744495,0.87923545,0.6904793,0.7877962,-0.91559005,0.6403315,0.33289695,-0.36419165,1.9103549,1.6144843,2.214137,-1.2075152,1.436958,0.37416643,-0.3197809,1.8445584,1.563054,2.15567,-1.1366227,1.3868816,-0.5353708,-0.67736644,0.9082842,0.76223606,0.91062814,-0.4708044,0.2335177,-0.5352497,-0.6769657,0.90847015,0.7616043,0.9113312,-0.47092438,0.23002625,1.4481099,-0.38106608,2.039912,-3.452576,0.20458178,-1.3631642,0.21322416,-0.35990262,0.8620381,0.92557305,0.019787287,0.35784456,0.121943705,-0.23809643,0.08310168,-0.07243918,1,0,0,0,0,0,-2.14811,0.22106609,-1.479912,-0.095534325,-0.3240347,-0.15795231,0.4842043,-0.5295992,0.09564161,2.7095318,-0.17166138,-0.333786,-0.076293945,0.5340576,-0.5340576,0.15258789,2.746582
-0.4809691,9.339083,11.5422,-35.27714,1.346574,-1.3991092,0.109145954,-0.55123246,-0.59907454,0.87830603,0.69264024,0.7842819,-0.9155218,0.6516564,0.33006784,-0.36770684,1.9148228,1.6184652,2.2184124,-1.2098644,1.4390141,0.37148422,-0.3231743,1.8490988,1.5668753,2.1602113,-1.1389735,1.3880975,-0.53663236,-0.6790742,0.90797985,0.7647707,0.90757585,-0.46998635,0.24656062,-0.5364418,-0.6786823,0.9080887,0.7642746,0.9082794,-0.47016144,0.24318695,1.4308469,-0.38004327,2.0329094,-3.452576,0.20458178,-1.4129481,0.21202917,-0.3594849,0.86167324,0.92625093,0.02059723,0.35483065,0.12541923,-0.2395037,0.08430509,-0.072742544,1,0,0,0,0,0,-2.130847,0.22004327,-1.4729095,-0.15590191,-0.33147335,-0.16920567,0.47359467,-0.5482912,0.102734566,2.5921762,-0.23841858,-0.34332275,-0.076293945,0.5340576,-0.61035156,0.15258789,2.632141
-0.5923982,9.277021,11.560751,-35.287994,1.3218616,-1.4059521,0.10241249,-0.5533979,-0.6007501,0.8773556,0.694785,0.7806671,-0.9154346,0.6622975,0.3272124,-0.3712343,1.9192872,1.6224581,2.2226646,-1.2122083,1.4410813,0.36879462,-0.3265763,1.8536373,1.5707082,2.1647356,-1.1413205,1.3893774,-0.5381903,-0.6808192,0.90765464,0.767247,0.9043596,-0.46913612,0.25903293,-0.53792,-0.68039894,0.9077072,0.7665634,0.9048462,-0.4693985,0.2559662,1.413584,-0.37902045,2.025658,-3.452576,0.20458178,-1.4627321,0.2108269,-0.35906196,0.8613069,0.9269043,0.021409124,0.3518132,0.12890823,-0.24101454,0.08545571,-0.073048055,1,0,0,0,0,0,-2.113584,0.21902046,-1.465658,-0.2168417,-0.3391981,-0.17123222,0.46229362,-0.5814314,0.109791756,2.4781227,-0.29563904,-0.34332275,-0.076293945,0.45776367,-0.6866455,0.15258789,2.5558472
