Afshin1997/kuka_rl_ros2/src/catch_and_throw/input_files/idealpd/ft_idealpd_7 (copy).csv
torque0,torque1,torque2,torque3,torque4,torque5,torque6,action0,action1,action2,action3,action4,action5,action6,set_target_0,set_target_1,set_target_2,set_target_3,set_target_4,set_target_5,set_target_6,joint_pos_0,joint_pos_1,joint_pos_2,joint_pos_3,joint_pos_4,joint_pos_5,joint_pos_6,joint_vel_0,joint_vel_1,joint_vel_2,joint_vel_3,joint_vel_4,joint_vel_5,joint_vel_6,joint_vel_disc_0,joint_vel_disc_1,joint_vel_disc_2,joint_vel_disc_3,joint_vel_disc_4,joint_vel_disc_5,joint_vel_disc_6,tennisball_pos_0,tennisball_pos_1,tennisball_pos_2,tennisball_lin_vel_0,tennisball_lin_vel_1,tennisball_lin_vel_2,end_effector_pos_0,end_effector_pos_1,end_effector_pos_2,end_effector_rot_0,end_effector_rot_1,end_effector_rot_2,end_effector_rot_3,end_effector_lin_vel_0,end_effector_lin_vel_1,end_effector_lin_vel_2,obs_task_0,obs_task_1,obs_task_2,obs_task_3,obs_task_4,to_final_target_0,to_final_target_1,to_final_target_2,joint_acc_0,joint_acc_1,joint_acc_2,joint_acc_3,joint_acc_4,joint_acc_5,joint_acc_6,joint_acc_disc_0,joint_acc_disc_1,joint_acc_disc_2,joint_acc_disc_3,joint_acc_disc_4,joint_acc_disc_5,joint_acc_disc_6,
0,0,0,0,0,0,0,0,0,0,0,0,0,0,0.7853982,0,1.3264502,1.2217305,1.6057029,-0.9075712,1.5707964,0.7853982,0,1.3264502,1.2217305,1.6057029,-0.9075712,1.5707964,0,0,0,0,0,0,0,0,0,0,0,0,0,0,2.881216,-0.5203252,0.2058714,-3.0802708,0.25615147,5.1232305,0.33434677,-0.33252597,0.9089085,0.77467585,-0.054232832,0.61539257,-0.13501088,0,0,0,1,0,0,0,0,0,0,0,0,0,0,0,0,0,0,0,0,0,0,0,0,0,0
17.386427,32.90303,16.95374,-33.641586,2.3762648,-0.85756207,0.06123378,0.09628693,0.09853246,0.06557926,0.049590394,-0.01919743,0.07446415,0.08189344,0.7950269,0.009853247,1.3330082,1.2266895,1.6037831,-0.9001248,1.5789857,0.7854945,0.000098448196,1.326516,1.2217791,1.6056857,-0.9075507,1.5708164,0.01925352,0.01968964,0.013200181,0.009731015,-0.0034637058,0.0041178814,0.0039608516,0.019264221,0.01968964,0.013160706,0.009727478,-0.0034332275,0.0041007996,0.004005432,2.8658152,-0.5190444,0.23124097,-3.0802708,0.25615147,5.0739145,0.33444452,-0.33244276,0.90888524,0.77465403,-0.05428798,0.6154271,-0.1349572,0.019527052,0.016654711,-0.0046306546,1,0,0,0,0,0,0,0,0,3.850704,3.937928,2.640036,1.946203,-0.69274116,0.8235763,0.7921703,3.8528442,3.937928,2.632141,1.9454956,-0.6866455,0.8201599,0.8010864
31.704882,55.52773,30.8942,-32.082355,1.3949931,-2.5936198,0.09961151,0.18597338,0.17282277,0.118376404,0.095341414,-0.026424596,0.13008398,0.15533222,0.8040919,0.017380726,1.3383536,1.2313132,1.6030432,-0.8945423,1.5863496,0.7857768,0.0003696538,1.3267001,1.2219222,1.6056437,-0.9074949,1.5708746,0.05644149,0.054241132,0.036844596,0.028586343,-0.008432269,0.011176662,0.011677284,0.05645752,0.054241125,0.03681183,0.02861023,-0.008392334,0.0111579895,0.011634827,2.8504143,-0.5177636,0.25636396,-3.0802708,0.25615147,5.0245986,0.33472013,-0.33220744,0.9088179,0.77459514,-0.0544426,0.6155227,-0.13479644,0.05519996,0.04698987,-0.013453539,1,0,0,0,0,0,0,0,0,7.4375944,6.910299,4.7288833,3.7710655,-0.9937126,1.411756,1.5432864,7.4386597,6.9102974,4.7302246,3.7765503,-0.9918213,1.411438,1.5258789
39.669292,67.80708,38.63367,-32.690224,1.0869117,-3.5675306,0.12500355,0.25479674,0.21888807,0.16325784,0.10420767,-0.022795657,0.17932427,0.21721248,0.81125647,0.02225846,1.3430259,1.232343,1.6033642,-0.8895625,1.5925958,0.78630036,0.0008458638,1.3270377,1.2221615,1.6055827,-0.9073905,1.5709862,0.10468932,0.09524203,0.06746105,0.047801998,-0.012288763,0.020859307,0.022336394,0.10471344,0.09524199,0.06752014,0.04787445,-0.012207031,0.020885468,0.022315979,2.8350134,-0.51648283,0.28124037,-3.0802708,0.25615147,4.9752827,0.335217,-0.33177948,0.9087065,0.774501,-0.05472303,0.615682,-0.13449568,0.09933216,0.08561966,-0.02226172,1,0,0,0,0,0,0,0,0,9.649567,8.20018,6.123291,3.8431308,-0.7712988,1.936529,2.1318219,9.651184,8.200173,6.1416626,3.8528442,-0.76293945,1.9454956,2.1362305
41.350708,68.569496,40.209846,-34.295605,1.4765024,-3.8188677,0.21289146,0.31906724,0.21615347,0.206947,0.094357274,0.02151129,0.22727785,0.2706186,0.8182071,0.022461211,1.3477324,1.2315973,1.6077338,-0.8846627,1.598048,0.78710335,0.0014999876,1.3275546,1.2224734,1.6055493,-0.90722406,1.5711626,0.16056432,0.13082477,0.10338984,0.062348884,-0.0067093307,0.0332869,0.03526348,0.16059875,0.13082476,0.103378296,0.0623703,-0.00667572,0.033283234,0.03528595,2.8196125,-0.51520205,0.3058702,-3.0802708,0.25615147,4.9259667,0.33594084,-0.33114362,0.9085668,0.77439916,-0.055132966,0.61587757,-0.13401924,0.14475194,0.12712555,-0.027909806,1,0,0,0,0,0,0,0,0,11.174999,7.1165485,7.185757,2.909377,1.1158864,2.4855185,2.585417,11.177063,7.1165533,7.171631,2.89917,1.1062622,2.4795532,2.5939941
36.68682,57.074936,35.53383,-36.057503,2.4433374,-3.351434,0.36696807,0.38755074,0.14735514,0.24677855,0.067805216,0.08118606,0.271595,0.32336193,0.8258584,0.016235502,1.3522325,1.2292539,1.613668,-0.88006455,1.6034988,0.7882201,0.0022341944,1.3282698,1.2228177,1.6056056,-0.9069818,1.5714134,0.22334222,0.14684144,0.14297263,0.06886196,0.011212543,0.048480485,0.05012922,0.22335052,0.14684138,0.14305115,0.068855286,0.011253357,0.048446655,0.05016327,2.8042116,-0.51392126,0.33025345,-3.0802708,0.25615147,4.876651,0.336864,-0.3303151,0.90842426,0.7743399,-0.055651963,0.6160563,-0.1333231,0.18456405,0.16568238,-0.028545184,1,0,0,0,0,0,0,0,0,12.555581,3.2033324,7.916559,1.3026155,3.5843744,3.038717,2.9731483,12.550354,3.2033234,7.9345703,1.2969971,3.5858154,3.0326843,2.9754639
31.358795,45.014362,30.209919,-39.062298,3.5587668,-2.7977033,0.4901404,0.45149672,0.076894596,0.28493947,0.018602874,0.14651303,0.31124276,0.37426546,0.8333698,0.009923654,1.3567638,1.2246779,1.6202569,-0.87585753,1.60884,0.7896754,0.0029526688,1.3291959,1.2231352,1.6058125,-0.9066504,1.5717462,0.29102194,0.14369497,0.18526521,0.06356148,0.04132867,0.06625849,0.06648676,0.2910614,0.14369488,0.18520355,0.06351471,0.041389465,0.066280365,0.06656647,2.7888107,-0.5126405,0.3543901,-3.0802708,0.25615147,4.827335,0.33795166,-0.32930994,0.9083128,0.7743742,-0.05626218,0.61616236,-0.13237502,0.21760619,0.20109792,-0.022428297,1,0,0,0,0,0,0,0,0,13.535944,-0.6292939,8.458516,-1.060097,6.0232253,3.5556011,3.2715082,13.542175,-0.6292999,8.430481,-1.0681152,6.0272217,3.566742,3.2806396
27.865128,37.27853,26.712406,-41.184135,4.301846,-2.4302692,0.5690478,0.50791043,0.02936931,0.32001293,-0.016815104,0.20313953,0.3475214,0.42091584,0.84046644,0.0058896,1.3611971,1.2214537,1.6261265,-0.8718983,1.6138378,0.7914812,0.0035961661,1.3303422,1.223387,1.6062131,-0.9062184,1.5721649,0.36111277,0.12869932,0.22920172,0.050430264,0.08017205,0.086391434,0.08377509,0.36115646,0.12869947,0.2292633,0.050354004,0.08010864,0.08640289,0.083732605,2.7734098,-0.5113597,0.37828022,-3.0802708,0.25615147,4.778019,0.33918428,-0.32813835,0.9082546,0.7745341,-0.056951616,0.61615866,-0.13115598,0.24603762,0.23450805,-0.0117076775,1,0,0,0,0,0,0,0,0,14.018166,-2.9991298,8.787301,-2.6262424,7.768676,4.026589,3.4576654,14.019012,-2.999082,8.811951,-2.632141,7.7438354,4.0245056,3.4332275
22.620071,26.411844,21.497337,-43.652596,5.194129,-1.8627255,0.6466083,0.5610641,-0.04821624,0.35573426,-0.07048342,0.2615809,0.3798618,0.4695493,0.8475876,-0.001225458,1.3659157,1.2163386,1.6323712,-0.86823225,1.6191199,0.7936427,0.00408875,1.3317155,1.2235243,1.6068454,-0.9056753,1.5726742,0.4322533,0.09851687,0.27464047,0.027554458,0.12640117,0.10861994,0.101791374,0.43230057,0.09851679,0.2746582,0.02746582,0.12645721,0.108623505,0.10185242,2.758009,-0.5100789,0.40192375,-3.0802708,0.25615147,4.728703,0.3405242,-0.3268175,0.9082772,0.7748558,-0.05770225,0.616003,-0.12965032,0.26785007,0.2643427,0.0043825707,1,0,0,0,0,0,0,0,0,14.228106,-6.0364904,9.08775,-4.5751615,9.245825,4.4457016,3.6032572,14.228821,-6.036535,9.0789795,-4.5776367,9.269714,4.4441223,3.6239624
17.563023,16.320814,16.479042,-46.167694,6.016633,-1.3094915,0.70090526,0.60988647,-0.12516588,0.38958496,-0.1296461,0.31640935,0.40871203,0.5149611,0.85463136,-0.008427838,1.370674,1.2105597,1.6384863,-0.8648041,1.6241703,0.79615897,0.004363442,1.3333205,1.2234995,1.6077361,-0.9050125,1.573275,0.50324494,0.054938614,0.3209909,-0.004991565,0.17807214,0.13259195,0.120124795,0.50325394,0.054938346,0.32100677,-0.0049591064,0.17814636,0.13256073,0.120162964,2.742608,-0.5087981,0.42532068,-3.0802708,0.25615147,4.679387,0.34194136,-0.32536602,0.9084061,0.7753675,-0.058499537,0.61565995,-0.12785068,0.28319642,0.29065847,0.025642436,1,0,0,0,0,0,0,0,0,14.198327,-8.715651,9.270084,-6.5092044,10.334194,4.794401,3.6666842,14.190674,-8.715689,9.269714,-6.4849854,10.33783,4.787445,3.6621094
15.830941,13.463082,14.763361,-48.171856,6.3861504,-1.114473,0.69105244,0.6503302,-0.16009282,0.41878945,-0.17874116,0.3585224,0.43208033,0.553275,0.861192,-0.0116458405,1.3751994,1.2056254,1.6435883,-0.8618045,1.6286025,0.79902047,0.004405981,1.3351563,1.2232802,1.6088939,-0.9042233,1.5739664,0.5722841,0.008508159,0.3671756,-0.043778215,0.23151876,0.15780653,0.13819197,0.57229996,0.008507818,0.3671646,-0.04386902,0.23155212,0.1578331,0.13828278,2.7272072,-0.50751734,0.44847104,-3.0802708,0.25615147,4.630071,0.34342194,-0.32378745,0.9086572,0.77607733,-0.05934107,0.61511433,-0.12576567,0.2956783,0.3161508,0.050086796,1,0,0,0,0,0,0,0,0,13.807833,-9.286091,9.236944,-7.75733,10.689324,5.0429163,3.6134348,13.809204,-9.286106,9.231567,-7.7819824,10.681152,5.054474,3.6239624
12.997561,8.654169,11.992703,-49.134853,6.6838923,-0.78872764,0.6929835,0.6833161,-0.21145737,0.4477876,-0.22100994,0.39739904,0.45585686,0.5887091,0.86735207,-0.016739756,1.379935,1.2011791,1.6486337,-0.85863763,1.6328373,0.80221003,0.0041950736,1.337222,1.2228501,1.6103206,-0.9033021,1.5747455,0.6379263,-0.042181335,0.41308263,-0.086088665,0.285271,0.1842167,0.15573835,0.63791275,-0.042181462,0.4131317,-0.08602142,0.28533936,0.18424988,0.15583038,2.7118063,-0.50623655,0.4713748,-3.0802708,0.25615147,4.580755,0.34494686,-0.3220942,0.909039,0.7769888,-0.06021632,0.6143566,-0.12340262,0.30442485,0.3392474,0.07633128,1,0,0,0,0,0,0,0,0,13.128435,-10.137899,9.181404,-8.4620905,10.750445,5.2820325,3.509277,13.122559,-10.137856,9.19342,-8.430481,10.757446,5.2833557,3.5095215
9.664782,3.1115227,8.747995,-50.13326,6.9906816,-0.40300524,0.68575585,0.71190095,-0.26694486,0.4740588,-0.269726,0.43105182,0.47851092,0.6193348,0.87340015,-0.022499412,1.3846278,1.1958774,1.6534257,-0.855451,1.636679,0.8057081,0.0037073614,1.3395127,1.2221882,1.6120105,-0.902244,1.5756077,0.69959027,-0.097542614,0.45823482,-0.13230494,0.3379819,0.2116265,0.17245758,0.6996155,-0.09754244,0.45814514,-0.13237,0.33798218,0.21162033,0.17242432,2.6964054,-0.50495577,0.494032,-3.0802708,0.25615147,4.5314393,0.34649563,-0.32030082,0.9095614,0.7781048,-0.06111467,0.61337703,-0.12077444,0.3088911,0.35937586,0.10441628,1,0,0,0,0,0,0,0,0,12.332797,-11.072256,9.030437,-9.243255,10.542184,5.4819613,3.3438444,12.340546,-11.072196,9.002686,-9.269714,10.528564,5.4740906,3.3187866
7.0211034,-1.1190991,6.1978927,-51.032406,7.2231617,-0.100142,0.67270464,0.7387789,-0.31803656,0.50136006,-0.31775963,0.46252733,0.50053746,0.6504532,0.879586,-0.028096296,1.3896487,1.1904123,1.6582632,-0.85219026,1.640653,0.80949515,0.0029269485,1.3420275,1.2212794,1.613956,-0.9010447,1.5765499,0.757452,-0.15608247,0.5029012,-0.18185185,0.38907903,0.23981328,0.18837352,0.75740814,-0.15608259,0.50296783,-0.18177032,0.38909912,0.23984909,0.18844604,2.6810045,-0.503675,0.5164426,-3.0802708,0.25615147,4.4821234,0.3480487,-0.31841922,0.9102312,0.7794246,-0.06202792,0.6121694,-0.11789175,0.3098376,0.3771335,0.13401063,1,0,0,0,0,0,0,0,0,11.57235,-11.707971,8.933276,-9.909383,10.219425,5.6373568,3.183189,11.558533,-11.708029,8.964539,-9.880066,10.223389,5.645752,3.2043457
5.3207116,-3.3944597,4.609112,-50.06926,7.1225553,0.1003505,0.6645696,0.75970864,-0.3549021,0.52490747,-0.33696443,0.48832265,0.5160842,0.6718762,0.88546604,-0.03256326,1.3945183,1.187583,1.6627883,-0.8494363,1.6437376,0.8135497,0.0018555216,1.3447598,1.2201378,1.6161437,-0.8997034,1.5775656,0.8109041,-0.21428525,0.5465125,-0.22840044,0.43749303,0.26830336,0.20304734,0.8109093,-0.21428537,0.5464554,-0.22830963,0.43754578,0.2682686,0.20313263,2.6656036,-0.5023942,0.53860664,-3.0802708,0.25615147,4.4328074,0.34959793,-0.31646013,0.91104096,0.78093684,-0.06294501,0.61074096,-0.11476524,0.30883697,0.39259717,0.16208361,1,0,0,0,0,0,0,0,0,10.690414,-11.640557,8.722258,-9.309718,9.682798,5.698016,2.934763,10.700226,-11.640557,8.69751,-9.307861,9.689331,5.683899,2.937317
4.612436,-3.5680838,4.0077286,-49.55064,6.9706497,0.18995237,0.63388747,0.7790619,-0.38112792,0.546126,-0.3630456,0.50960684,0.531547,0.69237125,0.8914559,-0.03625727,1.3993725,1.1838332,1.6671044,-0.8465487,1.6468027,0.81785077,0.0005076901,1.3477029,1.2187731,1.6185565,-0.8982185,1.578648,0.86020195,-0.26956627,0.5886523,-0.27293634,0.4825128,0.29694098,0.21646558,0.86021423,-0.2695663,0.5886078,-0.2729416,0.4825592,0.29697418,0.21648407,2.6502028,-0.5011134,0.5605241,-3.0802708,0.25615147,4.3834915,0.3511386,-0.31443024,0.9119856,0.7826263,-0.06386122,0.60910213,-0.11141109,0.30678833,0.40687162,0.18896453,1,0,0,0,0,0,0,0,0,9.859573,-11.056203,8.427965,-8.907181,9.003955,5.727524,2.6836486,9.860992,-11.056185,8.430481,-8.926392,9.002686,5.7411194,2.670288
3.1275148,-5.212119,2.654659,-49.123295,6.9018583,0.36672544,0.611997,0.79540026,-0.41545135,0.5646729,-0.38994092,0.532821,0.5473638,0.71064854,0.8973908,-0.041037444,1.4041702,1.179779,1.6718386,-0.84348214,1.6497128,0.8223774,-0.0011102383,1.3508481,1.2171929,1.621181,-0.8965901,1.5797914,0.9053575,-0.3235857,0.6290068,-0.31605354,0.52486974,0.3257035,0.2286204,0.905323,-0.3235857,0.6290436,-0.31604767,0.52490234,0.32567978,0.2286911,2.6348019,-0.49983263,0.582195,-3.0802708,0.25615147,4.3341756,0.3526616,-0.31233788,0.9130599,0.78448105,-0.06476839,0.6072598,-0.10784273,0.3028615,0.41923344,0.21500042,1,0,0,0,0,0,0,0,0,9.031105,-10.8038845,8.070898,-8.623439,8.471388,5.752504,2.4309635,9.021759,-10.803879,8.087158,-8.621216,8.468628,5.7411194,2.4414062
0.6143617,-8.935869,0.30250713,-48.46833,6.8922906,0.657844,0.60261613,0.80887717,-0.4607132,0.5825434,-0.41478953,0.5510744,0.5637169,0.7276218,0.9032651,-0.047181558,1.4091024,1.1757139,1.6762885,-0.8402184,1.6525536,0.8271095,-0.0030048823,1.3541859,1.2154047,1.624001,-0.8948177,1.5809892,0.9463924,-0.3789289,0.66765636,-0.35764706,0.5640195,0.35449556,0.23956509,0.9464264,-0.3789288,0.667572,-0.35762787,0.564003,0.35448074,0.23956299,2.619401,-0.49855185,0.6036193,-3.0802708,0.25615147,4.2848597,0.35415077,-0.31019926,0.9142596,0.78649193,-0.065654926,0.60521793,-0.10407218,0.29611745,0.42854425,0.24010272,1,0,0,0,0,0,0,0,0,8.206987,-11.068642,7.729912,-8.318705,7.8299522,5.7584105,2.1889389,8.220673,-11.0686245,7.7056885,-8.31604,7.8201294,5.760193,2.1743774
-0.39388582,-9.601864,-0.55573726,-48.155334,6.7851515,0.77724534,0.5708001,0.8203889,-0.486689,0.59844697,-0.44033086,0.5667087,0.5771726,0.7430531,0.9091484,-0.051673785,1.4140307,1.1713717,1.6806719,-0.83710045,1.6552945,0.83202714,-0.0051643704,1.3577079,1.2134144,1.6270003,-0.89290273,1.5822357,0.98349667,-0.4318977,0.7044692,-0.39811936,0.5997767,0.38295797,0.24935843,0.9835243,-0.43189764,0.70438385,-0.39806366,0.59986115,0.3829956,0.24929047,2.604,-0.49727106,0.624797,-3.0802708,0.25615147,4.2355437,0.35560083,-0.3080213,0.91558045,0.78864527,-0.06651612,0.6029853,-0.10011458,0.28802153,0.4363826,0.2643708,1,0,0,0,0,0,0,0,0,7.42085,-10.59376,7.3625684,-8.09446,7.151437,5.692482,1.9586682,7.419586,-10.593766,7.3623657,-8.087158,7.171631,5.7029724,1.9454956
-1.933846,-11.358826,-1.9278549,-47.86316,6.7273684,0.9554992,0.5445554,0.83116853,-0.52092445,0.6118527,-0.46662396,0.5789979,0.5925518,0.7580254,0.91514397,-0.057256814,1.4188931,1.166752,1.6849002,-0.83364755,1.6580383,0.8371126,-0.0075841215,1.3614043,1.2112248,1.6301599,-0.8908471,1.583526,1.0170672,-0.48395014,0.7392565,-0.43787053,0.6318937,0.4110935,0.25812533,1.0170937,-0.48395023,0.73928833,-0.43792725,0.6319046,0.411129,0.25806427,2.5885992,-0.49599028,0.6457281,-3.0802708,0.25615147,4.186228,0.35700226,-0.30581307,0.91701967,0.79092896,-0.06734701,0.60056865,-0.095984384,0.2780505,0.4422233,0.2879578,1,0,0,0,0,0,0,0,0,6.7141056,-10.410488,6.9574594,-7.9502344,6.423402,5.6271076,1.7533809,6.713867,-10.410518,6.980896,-7.9727173,6.4086914,5.6266785,1.7547607
-2.6647677,-11.533928,-2.4980567,-46.740986,6.4978466,1.0455344,0.5189686,0.8385542,-0.54238796,0.6235815,-0.477283,0.58840835,0.6041054,0.76666486,0.92096806,-0.061822917,1.4237624,1.1634965,1.6890007,-0.8304365,1.6601925,0.8423473,-0.010248383,1.3652638,1.2088549,1.6334605,-0.8886541,1.5848545,1.0469555,-0.5328524,0.7719745,-0.47397676,0.66020846,0.43859175,0.2657036,1.0469437,-0.53285223,0.771904,-0.47397614,0.66013336,0.43859482,0.26569366,2.5731983,-0.4947095,0.66641265,-3.0802708,0.25615147,4.136912,0.3583517,-0.30358386,0.9185655,0.7933262,-0.06814076,0.59798175,-0.09169596,0.26735786,0.44650912,0.30947196,1,0,0,0,0,0,0,0,0,5.9776545,-9.780455,6.5436006,-7.221246,5.662954,5.499649,1.5156507,5.970001,-9.780401,6.5231323,-7.209778,5.645752,5.493164,1.5258789
-3.1632264,-11.307439,-2.8380942,-45.51357,6.2450647,1.1089216,0.49550858,0.84489334,-0.56136066,0.6338902,-0.48541507,0.5968519,0.6152433,0.7741828,0.92683667,-0.06638445,1.4286529,1.1603134,1.6931458,-0.8271298,1.6622728,0.8477141,-0.013139528,1.3692769,1.2063248,1.6368861,-0.8863276,1.5862154,1.0734073,-0.5782289,0.8026272,-0.50604635,0.68508047,0.46533552,0.27217066,1.0733604,-0.5782291,0.8026123,-0.5060196,0.6851196,0.4652977,0.27217865,2.5577974,-0.4934287,0.6868506,-3.0802708,0.25615147,4.087596,0.35964727,-0.3013389,0.9202078,0.7958207,-0.06889272,0.5952385,-0.08726001,0.25627786,0.44945538,0.32875165,1,0,0,0,0,0,0,0,0,5.290365,-9.075296,6.1305404,-6.4139185,4.974401,5.348754,1.2934148,5.2833557,-9.075379,6.1416626,-6.4086914,4.9972534,5.340576,1.2969971
-3.6827142,-11.125997,-3.1906428,-44.691093,6.042715,1.1709303,0.4673249,0.84965634,-0.57973254,0.64296496,-0.4975142,0.60207814,0.624837,0.7824045,0.9326798,-0.07111278,1.4335734,1.1565734,1.697094,-0.82384396,1.6644558,0.8531973,-0.016241511,1.373433,1.2036479,1.6404185,-0.8838719,1.5876039,1.0965828,-0.62039673,0.83130085,-0.53543377,0.70643663,0.491176,0.27770495,1.0966301,-0.6203966,0.83122253,-0.53539276,0.70648193,0.49114227,0.27770996,2.5423965,-0.49214792,0.707042,-3.0802708,0.25615147,4.03828,0.3608842,-0.29908466,0.92193854,0.79839724,-0.06959967,0.59235114,-0.08269082,0.2446878,0.4512132,0.3463872,1,0,0,0,0,0,0,0,0,4.6350956,-8.433569,5.73473,-5.877483,4.271233,5.1680984,1.1068583,4.6539307,-8.433496,5.722046,-5.874634,4.272461,5.168915,1.1062622
-3.937283,-10.498325,-3.2811756,-44.027336,5.8466787,1.2002672,0.43800843,0.8552059,-0.5944262,0.65010715,-0.5089005,0.6066378,0.63459605,0.7892749,0.93871784,-0.07568413,1.4384437,1.1527578,1.7010823,-0.8204123,1.6665314,0.8587825,-0.019537067,1.3777226,1.2008345,1.6440415,-0.88129175,1.5890163,1.117071,-0.6591102,0.85790044,-0.5625795,0.7246178,0.51607496,0.28238985,1.1170387,-0.65911114,0.8579254,-0.56266785,0.72460175,0.5160332,0.28247833,2.5269957,-0.49086714,0.7269868,-3.0802708,0.25615147,3.988964,0.3620634,-0.29682517,0.9237502,0.8010418,-0.07026024,0.5893313,-0.078001,0.23283182,0.4521302,0.36259478,1,0,0,0,0,0,0,0,0,4.0976524,-7.742691,5.319917,-5.4291487,3.636229,4.9797893,0.93697906,4.081726,-7.7429056,5.340576,-5.455017,3.6239624,4.97818,0.9536743
-3.5707924,-8.728598,-2.7685037,-43.022434,5.5688825,1.159984,0.4114031,0.8595578,-0.6004882,0.6564747,-0.5119003,0.61089045,0.64212584,0.79528046,0.94473827,-0.07958589,1.4433701,1.1496445,1.7051306,-0.8170792,1.6685444,0.8644578,-0.023002526,1.3821353,1.1979039,1.6477418,-0.8785924,1.5904478,1.1350257,-0.69309044,0.88259053,-0.58619565,0.7400897,0.5399109,0.28631306,1.1350632,-0.69309175,0.8825302,-0.58612823,0.74005127,0.53987503,0.28629303,2.5115948,-0.48958635,0.7466851,-3.0802708,0.25615147,3.9396482,0.36318874,-0.29456186,0.9256327,0.8037385,-0.070873804,0.5861935,-0.07320089,0.22148317,0.45274302,0.37681323,1,0,0,0,0,0,0,0,0,3.5909414,-6.79605,4.9380183,-4.723227,3.094387,4.7671914,0.7846415,3.604889,-6.7961216,4.9209595,-4.6920776,3.0899048,4.7683716,0.76293945
-4.4181685,-9.360391,-3.4329972,-42.522583,5.462285,1.2540152,0.39204553,0.8620174,-0.6194175,0.6616758,-0.52362674,0.61472,0.65257895,0.8008092,0.9506595,-0.08494428,1.4483029,1.1455412,1.7092137,-0.81333447,1.6705287,0.8702099,-0.026629513,1.3866624,1.1948626,1.6515079,-0.8757781,1.5918955,1.1504332,-0.7253971,0.9053963,-0.60832185,0.75328004,0.5628596,0.2895453,1.1504173,-0.72539747,0.9054184,-0.6082535,0.753212,0.5628586,0.28953552,2.496194,-0.48830557,0.76613677,-3.0802708,0.25615147,3.8903322,0.36425304,-0.29230142,0.92758155,0.80647814,-0.07143647,0.58294487,-0.068300866,0.20929603,0.4520034,0.39004165,1,0,0,0,0,0,0,0,0,3.0814886,-6.461334,4.56115,-4.4252396,2.6380658,4.5897365,0.64644814,3.0708313,-6.4611435,4.5776367,-4.425049,2.632141,4.59671,0.64849854
-4.7948456,-9.252101,-3.652317,-41.60036,5.2869267,1.2941914,0.38052604,0.86546934,-0.6319141,0.6663206,-0.5253471,0.6193053,0.66009885,0.8044766,0.95675683,-0.08982092,1.4532944,1.1423279,1.7134384,-0.8097682,1.6723431,0.8760287,-0.030406525,1.3912953,1.191725,1.6553311,-0.8728546,1.5933565,1.1637706,-0.75540155,0.92653114,-0.6275122,0.76472336,0.58473444,0.29213372,1.1637688,-0.75540245,0.92658997,-0.6275177,0.76465607,0.5846977,0.2922058,2.480793,-0.48702478,0.78534186,-3.0802708,0.25615147,3.8410163,0.3652563,-0.2900493,0.9295883,0.8092502,-0.07194541,0.5795947,-0.0633076,0.19692776,0.45024484,0.4016587,1,0,0,0,0,0,0,0,0,2.6674747,-6.0008883,4.2269707,-3.8380742,2.2886634,4.374969,0.5176842,2.670288,-6.0009956,4.234314,-3.8528442,2.2888184,4.3678284,0.5340576
-5.2438874,-9.29847,-3.920481,-41.2689,5.19106,1.3343437,0.3641032,0.86749643,-0.64593613,0.67168766,-0.53554755,0.62310034,0.6679218,0.80875736,0.96277833,-0.09500014,1.458464,1.1381702,1.7176411,-0.8060624,1.6742322,0.8819043,-0.034324728,1.3960274,1.1884968,1.659204,-0.86982715,1.594827,1.1750747,-0.78364193,0.9463865,-0.64566207,0.7746273,0.6055107,0.29420114,1.1751175,-0.7836405,0.9464264,-0.6456375,0.7745743,0.6054878,0.29411316,2.465392,-0.485744,0.80430037,-3.0802708,0.25615147,3.7917004,0.36619568,-0.2878089,0.9316499,0.8120469,-0.07239895,0.5761489,-0.058228634,0.18411896,0.44766,0.41254106,1,0,0,0,0,0,0,0,0,2.260828,-5.6480765,3.971076,-3.6299706,1.9807935,4.1552544,0.41348338,2.2697449,-5.6476116,3.9672852,-3.6239624,1.9836426,4.15802,0.38146973
-6.117387,-10.301182,-4.629965,-40.433918,5.082203,1.4312599,0.36016896,0.87025905,-0.6638346,0.67391425,-0.5369272,0.62546957,0.67711735,0.81271803,0.9689302,-0.10070819,1.4634188,1.1348041,1.721751,-0.80211544,1.6760988,0.88782805,-0.038380794,1.4008502,1.1851895,1.6631188,-0.86670053,1.5963062,1.1847261,-0.81121397,0.96460825,-0.66141534,0.7829557,0.62528193,0.2958252,1.1847496,-0.81121325,0.9645462,-0.6614685,0.7829666,0.62532425,0.29582977,2.4499912,-0.4844632,0.8230123,-3.0802708,0.25615147,3.7423844,0.36706877,-0.28558898,0.9337591,0.8148606,-0.07279209,0.5726143,-0.053069368,0.1706835,0.4435519,0.42207724,1,0,0,0,0,0,0,0,0,1.9302845,-5.514407,3.6443472,-3.1506538,1.6656756,3.9542437,0.3248155,1.9264221,-5.51455,3.6239624,-3.1661987,1.6784668,3.9672852,0.34332275
-6.600946,-10.628889,-4.969078,-39.456684,4.9341254,1.4834186,0.35756066,0.8726493,-0.6774598,0.67633355,-0.5347254,0.62798727,0.68295896,0.81515384,0.975093,-0.10612677,1.4684836,1.131717,1.7259176,-0.79840463,1.6778216,0.89379233,-0.04256832,1.4057578,1.1818182,1.667069,-0.8634814,1.5977911,1.1928592,-0.83750665,0.9814503,-0.6742381,0.78998244,0.64381635,0.29705,1.1928558,-0.83750486,0.9815216,-0.67424774,0.7900238,0.64382553,0.29697418,2.4345903,-0.48318243,0.84147763,-3.0802708,0.25615147,3.6930685,0.3678751,-0.28339362,0.9359086,0.81768304,-0.07312205,0.5689988,-0.047832042,0.15711237,0.438297,0.43003386,1,0,0,0,0,0,0,0,0,1.6266108,-5.2585363,3.3684134,-2.5645494,1.4053464,3.7068844,0.24495721,1.6212463,-5.258322,3.3950806,-2.5558472,1.411438,3.7002563,0.22888184
-7.075184,-10.865218,-5.289702,-38.703842,4.803495,1.5357293,0.34920546,0.8730898,-0.6899595,0.6773858,-0.5344458,0.6283915,0.6897867,0.8183095,0.98110133,-0.11156427,1.4734963,1.1283736,1.7299081,-0.79450274,1.679622,0.89978856,-0.046880268,1.4107426,1.1783936,1.6710467,-0.86017597,1.5992807,1.1992601,-0.8623876,0.9968926,-0.6848465,0.79554665,0.6611213,0.29797742,1.1992455,-0.8623898,0.99697113,-0.6849289,0.7955551,0.66108704,0.29792786,2.4191895,-0.48190165,0.8596964,-3.0802708,0.25615147,3.6437526,0.3686123,-0.28122997,0.9380915,0.8205068,-0.07338568,0.56530964,-0.042522073,0.1433696,0.4319761,0.43671227,1,0,0,0,0,0,0,0,0,1.2801886,-4.976189,3.0884504,-2.121687,1.1128426,3.4609914,0.1854837,1.2779236,-4.976988,3.0899048,-2.1362305,1.1062622,3.452301,0.19073486
-6.921406,-9.981016,-4.9934387,-38.07842,4.646306,1.5100598,0.33800957,0.8742708,-0.69738984,0.68062776,-0.5332789,0.62916714,0.695423,0.8192711,0.98721564,-0.11661925,1.4788054,1.1250657,1.7339635,-0.7906337,1.6812078,0.9058096,-0.051305376,1.4158,1.174926,1.6750464,-0.8567904,1.6007732,1.2042344,-0.8850221,1.0115466,-0.69349813,0.79994726,0.6771429,0.29859534,1.2042046,-0.8850217,1.011467,-0.69351196,0.799942,0.67710876,0.29850006,2.4037886,-0.48062086,0.87766856,-3.0802708,0.25615147,3.5944366,0.36928368,-0.27909827,0.940302,0.8233235,-0.07358351,0.561555,-0.03714431,0.13002758,0.4253775,0.4422523,1,0,0,0,0,0,0,0,0,0.9948492,-4.5269012,2.930808,-1.7303228,0.8801222,3.2043219,0.12358427,0.9918213,-4.5263767,2.89917,-1.7166138,0.8773804,3.2043457,0.11444092
-7.573187,-10.66564,-5.4905324,-37.454926,4.5552034,1.5816245,0.3318812,0.87458783,-0.7120987,0.6799923,-0.5320222,0.62778574,0.70114285,0.8213034,0.9932684,-0.122515246,1.4837992,1.1217238,1.737825,-0.78667617,1.6829035,0.9118487,-0.055840693,1.4209241,1.1714242,1.6790614,-0.8533305,1.6022686,1.2078246,-0.9070663,1.0248418,-0.700457,0.8030088,0.6919588,0.298999,1.2078285,-0.9070635,1.0248184,-0.7003784,0.8029938,0.6919861,0.29907227,2.3883877,-0.47934008,0.89539415,-3.0802708,0.25615147,3.5451207,0.3698864,-0.27700472,0.9425352,0.82612765,-0.073713094,0.55774045,-0.0317025,0.1163462,0.41757983,0.446764,1,0,0,0,0,0,0,0,0,0.71804523,-4.4088364,2.6590347,-1.3917685,0.6123066,2.9631734,0.08073449,0.7247925,-4.4083595,2.670288,-1.373291,0.61035156,2.9754639,0.11444092
-7.391966,-9.700422,-5.1226425,-37.544285,4.4774227,1.5403578,0.312889,0.8757315,-0.7184622,0.68198556,-0.5392523,0.62720317,0.70667946,0.82354116,0.9994219,-0.12768692,1.4891226,1.1174989,1.7417817,-0.7826626,1.6846226,0.91790026,-0.060476534,1.4261111,1.1678851,1.6830869,-0.84980285,1.6037649,1.2103372,-0.9271658,1.0374606,-0.70772463,0.8050762,0.7055575,0.29928753,1.2103081,-0.92716813,1.0374069,-0.7078171,0.80509186,0.70552826,0.299263,2.3729868,-0.4780593,0.91287315,-3.0802708,0.25615147,3.4958048,0.37042236,-0.27494955,0.9447907,0.82891446,-0.073777966,0.55386907,-0.026202891,0.10282853,0.40984628,0.45116904,1,0,0,0,0,0,0,0,0,0.50251484,-4.019904,2.523756,-1.4535308,0.41347742,2.719748,0.057703257,0.49591064,-4.0209293,2.5177002,-1.4877319,0.4196167,2.708435,0.038146973
-7.1463776,-8.614713,-4.7064066,-37.35574,4.3680964,1.4976877,0.29858634,0.87425077,-0.7231876,0.684207,-0.5406778,0.62770927,0.7126772,0.82530427,1.0053253,-0.1327953,1.4945318,1.1138173,1.7458578,-0.7785351,1.6862953,0.9239575,-0.06520193,1.4313592,1.1643136,1.68712,-0.84621227,1.6052622,1.2114344,-0.9450783,1.0496167,-0.71436405,0.80655175,0.7180944,0.29946244,1.2114525,-0.9450793,1.049614,-0.71430206,0.80661774,0.71811676,0.29945374,2.357586,-0.4767785,0.93010557,-3.0802708,0.25615147,3.4464889,0.37089205,-0.27293086,0.94706607,0.83167845,-0.07378092,0.54994625,-0.020649366,0.08963377,0.40214863,0.45510086,1,0,0,0,0,0,0,0,0,0.21944046,-3.5825014,2.4312258,-1.3278842,0.29511452,2.5073767,0.034981966,0.22888184,-3.5822392,2.4414062,-1.2969971,0.30517578,2.5177002,0.038146973
-7.155526,-8.202652,-4.5837445,-36.74101,4.2437124,1.4926424,0.2939428,0.8745165,-0.73109806,0.6847831,-0.53681326,0.6265271,0.7172095,0.8257321,1.0114092,-0.13831174,1.4998375,1.1106322,1.7497727,-0.7744913,1.6878353,0.93001574,-0.070010535,1.4366645,1.1607172,1.6911559,-0.842564,1.6067594,1.211644,-0.9617151,1.0610591,-0.7192176,0.80725294,0.72962695,0.2994982,1.2116432,-0.96172094,1.061058,-0.71926117,0.80718994,0.7296562,0.29945374,2.342185,-0.47549772,0.94709146,-3.0802708,0.25615147,3.397173,0.37129784,-0.27095222,0.949356,0.8344144,-0.07372136,0.5459775,-0.015044883,0.07673395,0.39402258,0.45802864,1,0,0,0,0,0,0,0,0,0.041937828,-3.3273578,2.2884846,-0.9707093,0.14023781,2.306509,0.0071525574,0.038146973,-3.3283234,2.2888184,-0.9918213,0.11444092,2.3078918,0
-7.4490166,-8.339424,-4.7381682,-36.213757,4.151557,1.5210222,0.28951353,0.8745688,-0.7404103,0.6834072,-0.53418136,0.6242854,0.7200969,0.82743686,1.0174726,-0.14405157,1.5050051,1.1072991,1.7535845,-0.7705543,1.6895031,0.9360711,-0.07489889,1.4420213,1.1571038,1.6951909,-0.83886325,1.6082567,1.2111017,-0.9776661,1.0714241,-0.72265667,0.8070885,0.740113,0.29948255,1.211071,-0.97767115,1.0713577,-0.7226944,0.8069992,0.74014664,0.29945374,2.3267841,-0.47421694,0.96383077,-3.0802708,0.25615147,3.347857,0.37163925,-0.26901793,0.95165664,0.83711773,-0.07359787,0.5419677,-0.009392682,0.06386766,0.38515934,0.460099,1,0,0,0,0,0,0,0,0,-0.10848045,-3.1901956,2.0730019,-0.68781376,-0.032889843,2.0972133,-0.0031292439,-0.11444092,-3.1900406,2.0599365,-0.6866455,-0.038146973,2.0980835,0
-7.0038457,-7.0143323,-4.1332374,-36.07504,4.045041,1.4523816,0.2781338,0.8744581,-0.7426473,0.685498,-0.5356185,0.62347776,0.7257069,0.8291631,1.0235169,-0.14916362,1.510571,1.103542,1.7575387,-0.7662926,1.691173,0.94212073,-0.07985734,1.4474286,1.153475,1.699223,-0.83511484,1.609754,1.2098852,-0.99169487,1.0815032,-0.7257099,0.80650544,0.74971575,0.29946947,1.2099266,-0.99169016,1.0814667,-0.72574615,0.806427,0.7496834,0.29945374,2.3113832,-0.47293615,0.9803235,-3.0802708,0.25615147,3.298541,0.37191963,-0.26712537,0.953966,0.83978444,-0.07341422,0.53792083,-0.00369457,0.05154269,0.3766209,0.46183252,1,0,0,0,0,0,0,0,0,-0.24328232,-2.8057575,2.0158052,-0.6106496,-0.11661053,1.9205451,-0.002616644,-0.22888184,-2.8038025,2.0217896,-0.61035156,-0.11444092,1.9073486,0
-6.590513,-5.785321,-3.5623422,-35.914055,3.9456878,1.3865756,0.2698218,0.8742316,-0.74532026,0.6870811,-0.5357352,0.62370145,0.7298841,0.8308089,1.0295439,-0.15438937,1.5161366,1.0999016,1.7615932,-0.76212645,1.6928349,0.9481613,-0.084877305,1.4528855,1.1498339,1.7032523,-0.83132255,1.6112512,1.2081202,-1.0039889,1.0913055,-0.72830486,0.8058376,0.75849015,0.2994548,1.2081146,-1.0039926,1.0913849,-0.7282257,0.8058548,0.7584572,0.29945374,2.2959824,-0.47165537,0.99656963,-3.0802708,0.25615147,3.2492251,0.37213945,-0.26527333,0.95628285,0.8424114,-0.07317252,0.5338395,0.0020469693,0.03971007,0.36839268,0.46324265,1,0,0,0,0,0,0,0,0,-0.35300255,-2.458799,1.9604683,-0.51898956,-0.13357401,1.75488,-0.0029325485,-0.36239624,-2.4604797,1.9836426,-0.49591064,-0.11444092,1.7547607,0
-6.5822306,-5.421751,-3.4114335,-35.570114,3.865006,1.3735108,0.26714218,0.87381935,-0.7513151,0.6876213,-0.5333821,0.62326026,0.73300326,0.8313987,1.0355432,-0.16000882,1.5216477,1.0964957,1.7655784,-0.75802225,1.6943911,0.9541909,-0.08995473,1.4583882,1.1461842,1.7072778,-0.8274902,1.6127485,1.2058946,-1.0154855,1.1005943,-0.7299818,0.8050273,0.76649433,0.29938233,1.2059212,-1.0154843,1.1005402,-0.7299423,0.80509186,0.76646805,0.29945374,2.2805815,-0.47037458,1.0125692,-3.0802708,0.25615147,3.1999092,0.37230158,-0.26346278,0.95860386,0.8449953,-0.072872706,0.5297274,0.0078309085,0.028097723,0.35990527,0.46411484,1,0,0,0,0,0,0,0,0,-0.4451275,-2.2993326,1.8577576,-0.33538342,-0.16205311,1.6008377,-0.01449585,-0.4386902,-2.298355,1.8310547,-0.34332275,-0.15258789,1.6021729,0
-6.4123898,-4.7576294,-3.1125221,-35.174942,3.76964,1.3432336,0.26544043,0.8731748,-0.7546878,0.6884143,-0.52974576,0.62393373,0.7354735,0.8323665,1.0415084,-0.16542351,1.5272297,1.0932096,1.7696712,-0.75394285,1.6959852,0.96020716,-0.09508424,1.4639357,1.1425316,1.7112994,-0.82362163,1.6142448,1.2032697,-1.0259023,1.1094124,-0.7305579,0.80432063,0.773742,0.29928377,1.2032509,-1.0259032,1.1095047,-0.7305145,0.8043289,0.773716,0.299263,2.2651806,-0.4690938,1.0283221,-3.0802708,0.25615147,3.1505933,0.3724084,-0.2616942,0.9609268,0.8475332,-0.072516456,0.52558756,0.013655488,0.016887538,0.35133612,0.46439442,1,0,0,0,0,0,0,0,0,-0.52497387,-2.0833492,1.7636299,-0.1152277,-0.14133453,1.4495373,-0.019711256,-0.5340576,-2.0837784,1.7929077,-0.11444092,-0.15258789,1.449585,-0.038146973
-5.845051,-3.319851,-2.4006152,-35.010326,3.666783,1.2590082,0.2596817,0.8738058,-0.75489336,0.6907147,-0.5291469,0.62434524,0.7410903,0.8336342,1.0475878,-0.17057358,1.5330071,1.0896169,1.773734,-0.7495126,1.6976082,0.96621007,-0.100257866,1.4695262,1.1388781,1.7153182,-0.8197192,1.6157411,1.2005804,-1.0347213,1.1181166,-0.7307389,0.80372316,0.7804428,0.2991782,1.2005806,-1.0347247,1.1180878,-0.73070526,0.8037567,0.78048706,0.299263,2.2497797,-0.46781301,1.0438285,-3.0802708,0.25615147,3.1012774,0.37246132,-0.2599659,0.96325004,0.8500225,-0.07210537,0.5214224,0.01952087,0.0063203094,0.34329233,0.4644178,1,0,0,0,0,0,0,0,0,-0.5378723,-1.7637968,1.7408371,-0.03619194,-0.11949539,1.3401508,-0.021111965,-0.5340576,-1.7642975,1.7166138,-0.038146973,-0.11444092,1.3542175,0
-5.2388835,-1.7121296,-1.6234267,-35.018406,3.5701778,1.1648023,0.24883127,0.8729669,-0.7532922,0.6934349,-0.53043526,0.6240152,0.7457631,0.8337873,1.0535067,-0.17558709,1.5388696,1.0858346,1.7777197,-0.7451429,1.6991198,0.9721982,-0.10546654,1.4751595,1.1352227,1.7193341,-0.81578577,1.6172365,1.1976582,-1.0417339,1.1267477,-0.7310439,0.8031102,0.78664845,0.29900756,1.1976242,-1.0417342,1.1266708,-0.73108673,0.8031845,0.78668594,0.29907227,2.2343788,-0.46653223,1.0590883,-3.0802708,0.25615147,3.0519614,0.37246466,-0.25827384,0.9655736,0.8524606,-0.07164391,0.51723444,0.025423774,-0.0036701877,0.3359081,0.4644112,1,0,0,0,0,0,0,0,0,-0.58443546,-1.4025211,1.726222,-0.060999393,-0.12259483,1.2411356,-0.03412962,-0.5912781,-1.4019012,1.7166138,-0.076293945,-0.11444092,1.2397766,-0.038146973
-5.2533846,-1.4534273,-1.5266426,-34.563526,3.4831386,1.1616764,0.24758819,0.8727409,-0.75690675,0.6924633,-0.5251924,0.6227408,0.74857104,0.83411634,1.0594723,-0.18115722,1.5444058,1.0827035,1.7816082,-0.74092865,1.7006481,0.9781715,-0.11070757,1.480832,1.131572,1.7233453,-0.8118242,1.61873,1.1947045,-1.0482086,1.1345378,-0.73020166,0.8022807,0.79235667,0.29875317,1.1946678,-1.0482073,1.134491,-0.73013306,0.80223083,0.7923126,0.2986908,2.218978,-0.46525145,1.0741016,-3.0802708,0.25615147,3.0026455,0.37241936,-0.2566197,0.96789354,0.8548446,-0.071132615,0.51302737,0.031363234,-0.013388137,0.32818803,0.4637645,1,0,0,0,0,0,0,0,0,-0.5907297,-1.2949467,1.5580177,0.16844273,-0.16589165,1.1416435,-0.050878525,-0.5912781,-1.2946129,1.5640259,0.19073486,-0.19073486,1.1253357,-0.076293945
-5.1039214,-0.8665962,-1.2188866,-34.483273,3.4244347,1.1233269,0.2432539,0.873781,-0.7590339,0.6932738,-0.52592444,0.6220221,0.7505988,0.8349413,1.0655496,-0.18661097,1.5501593,1.0789796,1.7855475,-0.7367643,1.7022241,0.9841315,-0.115978114,1.4865407,1.1279252,1.7273526,-0.8078364,1.6202224,1.1920215,-1.0541025,1.1418025,-0.7293836,0.8013741,0.79753345,0.29846933,1.1919975,-1.0541081,1.1417389,-0.7293701,0.8014679,0.79755783,0.29850006,2.203577,-0.46397066,1.0888683,-3.0802708,0.25615147,2.9533296,0.37232542,-0.25500298,0.97021055,0.8571735,-0.07057212,0.5088016,0.03733831,-0.022865502,0.3205334,0.46301606,1,0,0,0,0,0,0,0,0,-0.5366087,-1.1787891,1.4529467,0.16361475,-0.18132925,1.0353565,-0.056767464,-0.5340576,-1.180172,1.449585,0.15258789,-0.15258789,1.0490417,-0.038146973
-4.7333813,0.20934772,-0.6859236,-34.43391,3.3462281,1.0573865,0.23594132,0.8737839,-0.7582221,0.6949047,-0.52605116,0.62102836,0.75320804,0.8347534,1.07151,-0.19180033,1.5560311,1.07532,1.7894554,-0.73251563,1.7036978,0.9900786,-0.121272616,1.4922847,1.1242821,1.7313542,-0.80382526,1.621713,1.1894271,-1.0589035,1.1487831,-0.7286542,0.8003915,0.80225796,0.29812515,1.1894226,-1.0589004,1.1487961,-0.7286072,0.8003235,0.80223083,0.2981186,2.1881762,-0.46268988,1.1033883,-3.0802708,0.25615147,2.9040136,0.37218666,-0.25342274,0.97252357,0.85944474,-0.06996556,0.50455964,0.043346833,-0.031946886,0.31323567,0.46220738,1,0,0,0,0,0,0,0,0,-0.51887035,-0.96018314,1.3961077,0.14587641,-0.19651651,0.9449005,-0.068837404,-0.51498413,-0.9584427,1.411438,0.15258789,-0.22888184,0.93460083,-0.076293945
-4.8208327,0.192523,-0.6913309,-33.89711,3.266644,1.0661442,0.23885989,0.8744374,-0.76256835,0.69444317,-0.519472,0.61871254,0.75568885,0.83628523,1.0775224,-0.19752945,1.561729,1.0723349,1.7932255,-0.72825634,1.7053416,0.9960138,-0.12659125,1.4980601,1.1206486,1.7353492,-0.7997922,1.6232017,1.1870633,-1.0637238,1.1550833,-0.72663796,0.7990503,0.8065774,0.2977902,1.1870384,-1.0637269,1.1550903,-0.7266998,0.79898834,0.80661774,0.29773712,2.1727753,-0.4614091,1.1176618,-3.0802708,0.25615147,2.8546977,0.37200356,-0.2518804,0.9748292,0.8616567,-0.069312036,0.500304,0.04938948,-0.04075623,0.3054848,0.4606889,1,0,0,0,0,0,0,0,0,-0.4727602,-0.96406937,1.2600422,0.40324926,-0.26824474,0.8638859,-0.06698966,-0.47683716,-0.96530914,1.2588501,0.38146973,-0.2670288,0.8773804,-0.076293945
-5.086641,-0.11885929,-0.8474088,-33.513916,3.2138224,1.0928273,0.23953518,0.87334543,-0.7673132,0.6945971,-0.51505476,0.61605746,0.75968546,0.8366655,1.0833484,-0.20332256,1.5675198,1.0691432,1.7969549,-0.7238236,1.7068683,1.0019364,-0.13193528,1.5038642,1.1170294,1.7393355,-0.79573953,1.6246885,1.1845561,-1.0687999,1.1608326,-0.7237728,0.79736173,0.8105624,0.29743809,1.1845231,-1.0688066,1.1608124,-0.7238388,0.7972717,0.8105278,0.29735565,2.1573744,-0.4601283,1.1316887,-3.0802708,0.25615147,2.8053818,0.37177706,-0.25037932,0.9771249,0.8638076,-0.06861053,0.49603692,0.055464946,-0.049483795,0.2971101,0.45865622,1,0,0,0,0,0,0,0,0,-0.50144196,-1.0152102,1.149869,0.57302713,-0.337708,0.79699755,-0.07042289,-0.5030632,-1.0159492,1.1444092,0.5722046,-0.34332275,0.78201294,-0.076293945
-5.0951986,0.010520935,-0.788146,-32.986187,3.1341116,1.0948286,0.24295574,0.8737605,-0.7702105,0.69416547,-0.5077138,0.6148996,0.7628438,0.8370421,1.0893124,-0.20895633,1.5732807,1.0662581,1.8008255,-0.7194551,1.7083927,1.0078473,-0.13730411,1.509694,1.1134312,1.7433143,-0.7916688,1.6261743,1.1821705,-1.0737579,1.1660082,-0.71964127,0.79566675,0.8141513,0.29709157,1.1821747,-1.0737658,1.1659622,-0.71964264,0.79574585,0.81415176,0.29716492,2.1419735,-0.45884752,1.1454691,-3.0802708,0.25615147,2.7560658,0.3715086,-0.24892235,0.9794071,0.8658955,-0.067858845,0.4917609,0.061573796,-0.057840087,0.28837752,0.45595667,1,0,0,0,0,0,0,0,0,-0.47712326,-0.9916067,1.0351181,0.8263111,-0.33899546,0.717783,-0.06930232,-0.4696846,-0.9918213,1.0299683,0.8392334,-0.30517578,0.7247925,-0.038146973
-4.531802,1.3653135,-0.16258478,-32.50179,3.0036767,1.0266153,0.23981489,0.87389076,-0.7671303,0.6946626,-0.5003572,0.6133392,0.76547664,0.8359256,1.0952364,-0.21401715,1.5791602,1.0633955,1.8046482,-0.7151211,1.7097669,1.0137467,-0.14269094,1.5155486,1.1098597,1.7472844,-0.7875823,1.6276573,1.1798643,-1.077369,1.1708486,-0.7143772,0.7939667,0.81731564,0.29668683,1.1798859,-1.0773659,1.1709213,-0.71430206,0.79402924,0.8172989,0.2965927,2.1265726,-0.45756674,1.1590028,-3.0802708,0.25615147,2.70675,0.37120104,-0.2475059,0.9816732,0.86791736,-0.06706024,0.48748004,0.06771546,-0.0653704,0.28007272,0.4526796,1,0,0,0,0,0,0,0,0,-0.46124458,-0.72221756,0.9680748,1.0528088,-0.34000874,0.6328702,-0.08094907,-0.45776367,-0.7200241,0.9918213,1.0681152,-0.34332275,0.62942505,-0.11444092
-4.282342,2.095974,0.18099213,-32.176662,2.9184709,0.9890945,0.23848316,0.8736789,-0.7673584,0.6950078,-0.49452317,0.61224335,0.76760864,0.83705294,1.1011146,-0.21942678,1.5850494,1.0604074,1.8085088,-0.7108214,1.7113626,1.0196347,-0.14809255,1.5214251,1.1063178,1.751246,-0.78348196,1.6291393,1.1775925,-1.0803148,1.1753206,-0.7084639,0.7923681,0.8200509,0.2963142,1.177597,-1.0803223,1.1753082,-0.7083893,0.7923126,0.82006454,0.29640198,2.1111717,-0.45628595,1.17229,-3.0802708,0.25615147,2.657434,0.37085867,-0.24612975,0.9839213,0.86987156,-0.066215254,0.4831971,0.07388903,-0.07243477,0.27188027,0.44904655,1,0,0,0,0,0,0,0,0,-0.4543543,-0.58915615,0.89440346,1.1826634,-0.3197193,0.5470514,-0.07452369,-0.45776367,-0.5912781,0.8773804,1.1825562,-0.34332275,0.5531311,-0.038146973
-4.7129498,1.336873,-0.21597052,-31.56861,2.8652894,1.0525447,0.24243194,0.87319887,-0.7734954,0.69230235,-0.48395467,0.6083132,0.77023673,0.8380087,1.1069546,-0.22544208,1.5906553,1.0579222,1.8120773,-0.7064583,1.7129402,1.0255113,-0.1535124,1.5273188,1.102812,1.755198,-0.7793697,1.6306194,1.1753205,-1.083969,1.1787908,-0.7011134,0.79035175,0.8224102,0.29599375,1.1753082,-1.0839701,1.1787415,-0.70114136,0.7904053,0.82244873,0.2960205,2.0957708,-0.45500517,1.1853305,-3.0802708,0.25615147,2.608118,0.37048197,-0.24479961,0.9861473,0.87175626,-0.06532032,0.47891453,0.08009382,-0.07938244,0.26271847,0.444615,1,0,0,0,0,0,0,0,0,-0.45440197,-0.7308483,0.6940365,1.4701009,-0.4032731,0.47186613,-0.064092875,-0.45776367,-0.72956085,0.6866455,1.449585,-0.38146973,0.47683716,-0.076293945
-4.5835404,1.8127642,-0.000019550323,-31.266241,2.7904425,1.0316997,0.23968938,0.87319285,-0.77375466,0.6917083,-0.47761008,0.60541475,0.77249,0.838934,1.1128305,-0.23088786,1.5964897,1.0550511,1.8157395,-0.7021207,1.7145128,1.0313764,-0.1589487,1.5332278,1.0993454,1.7591386,-0.77524793,1.6320976,1.1731005,-1.0872487,1.1817698,-0.6932644,0.78814673,0.8243343,0.2957315,1.1730194,-1.0872602,1.1817932,-0.6933212,0.78811646,0.8243561,0.29563904,2.08037,-0.45372438,1.1981245,-3.0802708,0.25615147,2.5588021,0.3700714,-0.24351525,0.98835,0.87357026,-0.06437765,0.47463435,0.08632825,-0.08592338,0.25350082,0.43984997,1,0,0,0,0,0,0,0,0,-0.44400692,-0.6559372,0.595808,1.5697956,-0.44100285,0.3848195,-0.052446127,-0.45776367,-0.6580353,0.61035156,1.5640259,-0.45776367,0.38146973,-0.076293945
-4.682186,2.0771008,0.17238283,-31.74728,2.7948909,0.9989655,0.22750503,0.87245554,-0.7758457,0.69183356,-0.48205003,0.6020316,0.7756676,0.83998877,1.118622,-0.23653328,1.6024112,1.0511404,1.8193418,-0.6976812,1.7160965,1.03723,-0.16440086,1.5391501,1.0959094,1.7630668,-0.7711185,1.6335758,1.1708019,-1.0904251,1.1845007,-0.6872622,0.7856971,0.8258888,0.29555756,1.1707306,-1.0904312,1.1844635,-0.6872177,0.7856369,0.82588196,0.29563904,2.064969,-0.4524436,1.2106719,-3.0802708,0.25615147,2.5094862,0.36962557,-0.24227595,0.99053216,0.8753142,-0.06338959,0.47035503,0.09258984,-0.09270469,0.24431315,0.43577558,1,0,0,0,0,0,0,0,0,-0.4597187,-0.63529015,0.5461693,1.2004495,-0.48992634,0.31089783,-0.03479123,-0.45776367,-0.6341934,0.5340576,1.2207031,-0.49591064,0.30517578,0
-4.5052032,2.8034334,0.5714917,-32.010574,2.7633014,0.9392191,0.21916941,0.8726777,-0.7760855,0.6927793,-0.4829721,0.59920883,0.7775277,0.84127355,1.1244978,-0.2420094,1.608428,1.0476122,1.8229877,-0.69336575,1.7177031,1.0430732,-0.16986673,1.5450858,1.0924971,1.7669826,-0.7669829,1.635053,1.1686525,-1.0931755,1.1871988,-0.68248636,0.7831251,0.8270846,0.2954995,1.1686325,-1.093173,1.1871338,-0.68244934,0.78315735,0.82712173,0.2954483,2.0495682,-0.45116282,1.2229728,-3.0802708,0.25615147,2.4601703,0.36914682,-0.24108171,0.9926965,0.8769883,-0.062360186,0.46607536,0.09887642,-0.0994333,0.23542508,0.43214273,1,0,0,0,0,0,0,0,0,-0.4298687,-0.55007935,0.53961277,0.95516443,-0.5144,0.23915768,-0.011610985,-0.4196167,-0.54836273,0.5340576,0.9536743,-0.49591064,0.24795532,-0.038146973
-4.551984,2.9927092,0.68379784,-31.9802,2.7342887,0.9225747,0.21791832,0.8713653,-0.7781002,0.69282675,-0.48012272,0.5991134,0.7794239,0.841164,1.1302097,-0.24767675,1.6143684,1.0444849,1.8268939,-0.68904054,1.7191694,1.0489049,-0.17534606,1.5510348,1.0891078,1.7708879,-0.762843,1.6365303,1.1663867,-1.0958703,1.1897178,-0.67794037,0.7809781,0.82799166,0.2954636,1.1663437,-1.0958672,1.1898041,-0.6778717,0.78105927,0.82798004,0.2954483,2.0341673,-0.44988203,1.2350271,-3.0802708,0.25615147,2.4108543,0.36863375,-0.2399311,0.994843,0.8785924,-0.061289903,0.46179473,0.105187505,-0.106118396,0.2263945,0.42855728,1,0,0,0,0,0,0,0,0,-0.4531622,-0.5389452,0.5038023,0.90919733,-0.42940378,0.1814127,-0.0071823597,-0.45776367,-0.538826,0.5340576,0.91552734,-0.4196167,0.17166138,0
-4.155556,3.969595,1.1568565,-31.643463,2.648968,0.86495084,0.22089039,0.87087435,-0.7766328,0.69440496,-0.47381878,0.5998774,0.780369,0.8426306,1.1359923,-0.25300935,1.6204753,1.0417259,1.8308756,-0.6848061,1.7207934,1.0547261,-0.18083541,1.5569962,1.0857441,1.7747846,-0.75870025,1.6380085,1.1641595,-1.0978727,1.1923484,-0.6727504,0.77942264,0.8285876,0.29554722,1.1642456,-1.0978699,1.1922836,-0.67272186,0.77934265,0.82855225,0.29563904,2.0187664,-0.44860125,1.2468348,-3.0802708,0.25615147,2.3615384,0.3680892,-0.23882365,0.9969707,0.88012546,-0.060179792,0.4575148,0.11152433,-0.11225925,0.21770845,0.42469385,1,0,0,0,0,0,0,0,0,-0.44543743,-0.40049553,0.5261183,1.037991,-0.31108856,0.11918545,0.016725063,-0.4196167,-0.4005432,0.49591064,1.0299683,-0.34332275,0.11444092,0.038146973
-3.8935854,4.5300484,1.4115577,-31.025536,2.555686,0.84213096,0.22749844,0.8708417,-0.7773521,0.6949405,-0.46368504,0.5996649,0.78139395,0.843254,1.1418103,-0.2585706,1.6264902,1.0393757,1.834751,-0.6805608,1.7223339,1.0605369,-0.18633358,1.56297,1.0824139,1.7786756,-0.7545556,1.6394867,1.1621236,-1.0996288,1.194829,-0.6661193,0.7782332,0.82890886,0.2956812,1.1621475,-1.0996342,1.1947632,-0.66604614,0.77819824,0.8289337,0.29563904,2.0033655,-0.44732046,1.2583959,-3.0802708,0.25615147,2.3122225,0.36751842,-0.23776007,0.99907553,0.8815855,-0.059029073,0.4532382,0.117888086,-0.117778696,0.20903978,0.42017603,1,0,0,0,0,0,0,0,0,-0.4071951,-0.3512144,0.49612522,1.3262272,-0.23789406,0.06425381,0.026798248,-0.4196167,-0.3528595,0.49591064,1.335144,-0.22888184,0.076293945,0
-4.1717315,4.312522,1.3353457,-31.18529,2.5480292,0.84637266,0.2192241,0.87003094,-0.7807015,0.6939888,-0.46498403,0.5950098,0.7838425,0.84332657,1.14754,-0.26440373,1.6323689,1.0359155,1.8381765,-0.6761713,1.7238194,1.0663371,-0.19184236,1.5689543,1.0791123,1.782558,-0.75041044,1.6409658,1.1600993,-1.1017647,1.1968517,-0.6604129,0.77650434,0.8290231,0.29581955,1.1600494,-1.1017561,1.1968613,-0.6603241,0.7764816,0.8290291,0.29582977,1.9879646,-0.44603968,1.2697104,-3.0802708,0.25615147,2.2629066,0.36691666,-0.23674154,1.0011591,0.88297284,-0.057839207,0.4489642,0.12427633,-0.123482704,0.19999903,0.4159013,1,0,0,0,0,0,0,0,0,-0.4048586,-0.42717457,0.40454865,1.141274,-0.34576654,0.02285242,0.027668476,-0.4196167,-0.42438507,0.4196167,1.1444092,-0.34332275,0.019073486,0.038146973
-3.8610194,4.8184996,1.514327,-30.210518,2.421591,0.8449125,0.22676256,0.8715003,-0.7811348,0.69243836,-0.44879735,0.59270513,0.7853943,0.84347457,1.1534871,-0.26995584,1.6381981,1.0342326,1.8418285,-0.671871,1.7253133,1.0721297,-0.19736104,1.5749463,1.0758507,1.7864308,-0.74626577,1.6424459,1.158543,-1.1037292,1.1983126,-0.6523562,0.77459735,0.82890534,0.29600435,1.1585236,-1.103735,1.1983871,-0.65231323,0.7745743,0.8289337,0.2960205,1.9725637,-0.4447589,1.2807784,-3.0802708,0.25615147,2.2135906,0.36629152,-0.23576808,1.0032165,0.88428485,-0.056609083,0.44469723,0.13069049,-0.12827505,0.19082078,0.41050217,1,0,0,0,0,0,0,0,0,-0.31125546,-0.39291382,0.29218197,1.61134,-0.3813982,-0.023555756,0.03696084,-0.30517578,-0.39577484,0.30517578,1.6021729,-0.38146973,-0.019073486,0.038146973
-4.1707263,4.292841,1.230165,-29.812325,2.3727145,0.89143646,0.2219948,0.8712343,-0.7860218,0.6893085,-0.4417616,0.5846507,0.7869446,0.8432521,1.1592531,-0.27596322,1.6438771,1.0316746,1.844896,-0.6675713,1.7267711,1.0779147,-0.20289283,1.5809411,1.0726321,1.7902884,-0.742123,1.643927,1.1570876,-1.1063694,1.1989132,-0.6436467,0.77149814,0.82852685,0.2962058,1.1569977,-1.1063576,1.1989594,-0.64373016,0.7715225,0.82855225,0.29621124,1.9571629,-0.4434781,1.2915998,-3.0802708,0.25615147,2.1642747,0.36564302,-0.23484397,1.0052444,0.88552,-0.055337433,0.44044065,0.13712762,-0.13287653,0.18092428,0.40458497,1,0,0,0,0,0,0,0,0,-0.29108524,-0.5280256,0.12011528,1.7418981,-0.6198406,-0.0756979,0.04028678,-0.30517578,-0.5245209,0.11444092,1.7166138,-0.61035156,-0.076293945,0.038146973
-4.2641706,4.2592497,1.1890454,-29.518158,2.3217947,0.90381813,0.2192438,0.87127894,-0.7885003,0.68703127,-0.43452606,0.58008176,0.7892349,0.8448395,1.1650426,-0.28174287,1.6496443,1.0291795,1.8482966,-0.66319954,1.728411,1.083693,-0.20843892,1.5869359,1.0694592,1.794128,-0.7379836,1.64541,1.1556835,-1.1092259,1.1989175,-0.63457495,0.7679333,0.8279044,0.29655144,1.1556625,-1.1092186,1.1989594,-0.6345749,0.76789856,0.8278847,0.2965927,1.941762,-0.44219732,1.3021746,-3.0802708,0.25615147,2.1149588,0.36497116,-0.23397088,1.0072412,0.8866777,-0.054024294,0.4361961,0.14358589,-0.13721652,0.17066713,0.39835763,1,0,0,0,0,0,0,0,0,-0.2808094,-0.5712986,0.0008583069,1.8143535,-0.7129669,-0.12449026,0.06912947,-0.2670288,-0.5722046,0,1.8310547,-0.7247925,-0.1335144,0.076293945
-4.0430946,5.2523184,1.7120929,-29.996046,2.2995636,0.8196157,0.2085048,0.87092936,-0.78684324,0.6876771,-0.43836573,0.5786784,0.7905349,0.84532076,1.1707859,-0.28712323,1.6557035,1.0256226,1.8519958,-0.65893006,1.729942,1.0894647,-0.21399586,1.5929307,1.0663216,1.7979512,-0.73384845,1.6468948,1.1542441,-1.1113836,1.1990391,-0.6274422,0.76469994,0.8269954,0.2970051,1.1543274,-1.1113882,1.1989594,-0.6275177,0.76465607,0.82702637,0.29697418,1.9263611,-0.44091654,1.3125027,-3.0802708,0.25615147,2.0656428,0.36427784,-0.23314643,1.0092113,0.8877591,-0.052674446,0.4319608,0.15006311,-0.14162306,0.16094896,0.39293978,1,0,0,0,0,0,0,0,0,-0.28789043,-0.43153763,0.024318695,1.4265537,-0.64667463,-0.18180609,0.09073019,-0.2670288,-0.4339218,0,1.411438,-0.64849854,-0.17166138,0.076293945
-3.6248202,6.0572414,2.0129218,-29.154083,2.1843004,0.79928297,0.21667355,0.8706217,-0.78639215,0.68655103,-0.42191732,0.57837063,0.79128087,0.84601134,1.1765268,-0.29263508,1.6615858,1.0241299,1.8557882,-0.65472037,1.731496,1.0952287,-0.21956114,1.5989255,1.0632298,1.8017612,-0.72971904,1.6483825,1.152807,-1.1130471,1.1989828,-0.6182701,0.76205903,0.8258491,0.29755938,1.1528015,-1.1130571,1.1989594,-0.6183624,0.7619858,0.82588196,0.2975464,1.9109602,-0.43963575,1.3225844,-3.0802708,0.25615147,2.016327,0.36356592,-0.2323699,1.0111501,0.88876224,-0.05128604,0.42773837,0.15656058,-0.14515798,0.15135981,0.38665286,1,0,0,0,0,0,0,0,0,-0.2874136,-0.33271313,-0.011253357,1.8344164,-0.5281806,-0.22925138,0.11085868,-0.30517578,-0.333786,0,1.8310547,-0.5340576,-0.22888184,0.11444092
-3.6444325,6.1325874,1.992888,-28.712433,2.1175325,0.81195843,0.21423444,0.8693892,-0.78851146,0.68437105,-0.4129008,0.5728108,0.7924022,0.8457422,1.1821675,-0.2984123,1.6673626,1.0219398,1.8590423,-0.65047884,1.7329568,1.100985,-0.22513525,1.6049174,1.0601885,1.8055558,-0.7255968,1.6498731,1.1511956,-1.1148329,1.1984793,-0.6082497,0.7589611,0.8244678,0.29815608,1.1512756,-1.1148214,1.1983871,-0.6082535,0.758934,0.82445145,0.2981186,1.8955593,-0.43835497,1.3324194,-3.0802708,0.25615147,1.9670109,0.3628378,-0.23164248,1.0130551,0.88968545,-0.0498594,0.4235321,0.16307767,-0.14829348,0.14148103,0.37988725,1,0,0,0,0,0,0,0,0,-0.3222704,-0.35715103,-0.10070801,2.004075,-0.6195903,-0.27626753,0.11934042,-0.30517578,-0.3528595,-0.11444092,2.0217896,-0.61035156,-0.2861023,0.11444092
-2.9172766,7.3843584,2.480805,-27.567078,1.9642371,0.77343386,0.22621536,0.8693361,-0.7864448,0.6856226,-0.39222553,0.57263535,0.79274845,0.84554964,1.1879187,-0.30377972,1.6734797,1.0209659,1.8628193,-0.64632195,1.734428,1.1067338,-0.23071508,1.6109084,1.0572121,1.8093381,-0.72148263,1.6513675,1.1496694,-1.1159763,1.1981946,-0.5953481,0.75641906,0.82281333,0.29880267,1.1497498,-1.1159658,1.1981964,-0.5952835,0.75645447,0.8228302,0.29888153,1.8801584,-0.43707418,1.3420079,-3.0802708,0.25615147,1.9176948,0.3621006,-0.2309618,1.0149204,0.89052546,-0.048393197,0.41934702,0.16961841,-0.15014362,0.13208668,0.37196997,1,0,0,0,0,0,0,0,0,-0.3052473,-0.2286911,-0.056934357,2.5803208,-0.5084038,-0.33088923,0.12931824,-0.30517578,-0.22888184,-0.038146973,2.5939941,-0.49591064,-0.32424927,0.15258789
-2.4793215,8.586979,3.0493402,-27.53709,1.8956825,0.69504005,0.22203845,0.86994046,-0.78413177,0.68601525,-0.3880523,0.5709326,0.79414594,0.84523046,1.1937279,-0.30912825,1.6795099,1.0184069,1.8664314,-0.642068,1.7358906,1.1124759,-0.23629718,1.6168984,1.0542967,1.8131089,-0.717378,1.6528648,1.1483735,-1.1164225,1.1979555,-0.5829907,0.7542581,0.8209267,0.29947165,1.1484146,-1.1164188,1.1980057,-0.5830765,0.75416565,0.82092285,0.29945374,1.8647575,-0.4357934,1.3513497,-3.0802708,0.25615147,1.8683788,0.36135435,-0.23032475,1.0167482,0.8912827,-0.046891473,0.41518274,0.17618059,-0.15162084,0.12335046,0.36432597,1,0,0,0,0,0,0,0,0,-0.25918484,-0.089240074,-0.047826767,2.4714828,-0.43219328,-0.37732124,0.13379455,-0.2670288,-0.09059906,-0.038146973,2.4414062,-0.45776367,-0.38146973,0.11444092
-2.135463,9.496037,3.4836936,-27.398754,1.8316183,0.6348638,0.22055487,0.8706176,-0.7832272,0.68703693,-0.38016015,0.56891495,0.7943989,0.84521407,1.1995376,-0.3146199,1.6856021,1.0162808,1.8700004,-0.63793814,1.7373862,1.1182122,-0.24187987,1.6228875,1.0514424,1.8168702,-0.7132839,1.6543659,1.1473585,-1.1165402,1.1978029,-0.57083184,0.75233066,0.81879234,0.30015385,1.1472702,-1.116538,1.197815,-0.57086945,0.7522583,0.81882477,0.30021667,1.8493567,-0.43451262,1.360445,-3.0802708,0.25615147,1.8190627,0.36060333,-0.22972941,1.018538,0.8919564,-0.045355584,0.41103983,0.1827647,-0.15275529,0.11505452,0.3567807,1,0,0,0,0,0,0,0,0,-0.20298958,-0.023531914,-0.030517578,2.4317741,-0.38548708,-0.42687654,0.13644099,-0.22888184,-0.023841858,-0.038146973,2.4414062,-0.38146973,-0.4196167,0.15258789
-2.2345984,9.321417,3.3690672,-27.007923,1.7899649,0.65671605,0.22212484,0.87002975,-0.7861191,0.68565136,-0.3682431,0.5654793,0.79530543,0.8456702,1.2052152,-0.3204918,1.6914526,1.014618,1.8734181,-0.63375336,1.738933,1.1239438,-0.24746577,1.6288737,1.0486529,1.820622,-0.7092017,1.6558698,1.1463654,-1.1171864,1.1972351,-0.55795807,0.7503251,0.81648135,0.30087999,1.1463165,-1.1171818,1.1972427,-0.5578995,0.75035095,0.8164406,0.30078888,1.8339558,-0.43323183,1.3692938,-3.0802708,0.25615147,1.7697467,0.35984516,-0.22917795,1.0202882,0.892546,-0.043784905,0.40691918,0.18937065,-0.15361659,0.10636989,0.34885442,1,0,0,0,0,0,0,0,0,-0.19862652,-0.12924671,-0.11355877,2.5747538,-0.40111542,-0.46219826,0.14522672,-0.19073486,-0.12874603,-0.11444092,2.5939941,-0.38146973,-0.47683716,0.11444092
-2.5302658,9.360432,3.4549823,-27.66353,1.7998117,0.6224577,0.20261787,0.86887306,-0.7871617,0.6852187,-0.37235618,0.55680794,0.79768527,0.84636724,1.2108312,-0.32618195,1.6973956,1.0114173,1.8763027,-0.62943316,1.7405065,1.1296697,-0.253056,1.6348561,1.0459149,1.8243575,-0.7051314,1.6573786,1.1452371,-1.1180408,1.196444,-0.54758257,0.7471502,0.81406444,0.3016631,1.1451721,-1.1180431,1.1964798,-0.5475998,0.74710846,0.8140564,0.30174255,1.8185549,-0.43195105,1.377896,-3.0802708,0.25615147,1.7204306,0.35907984,-0.22867012,1.0220035,0.8930536,-0.042183377,0.40281823,0.19599274,-0.15498279,0.09757048,0.34180743,1,0,0,0,0,0,0,0,0,-0.22566319,-0.1708746,-0.15821457,2.0751,-0.6349802,-0.48338175,0.15662313,-0.22888184,-0.17225742,-0.15258789,2.0599365,-0.64849854,-0.47683716,0.19073486
-2.1395478,9.974439,3.6298542,-26.723675,1.6875521,0.62210435,0.20986126,0.86838794,-0.78714454,0.6851057,-0.3520487,0.55425966,0.7983448,0.8471967,1.2165085,-0.33177045,1.7033666,1.01071,1.8797835,-0.62529695,1.7420982,1.1353898,-0.25865,1.6408337,1.0432398,1.8280778,-0.701074,1.6588911,1.1441015,-1.1188132,1.195576,-0.53493446,0.743966,0.81152004,0.30255055,1.1440277,-1.118803,1.1955261,-0.5350113,0.7440567,0.8114815,0.3025055,1.803154,-0.43067026,1.3862516,-3.0802708,0.25615147,1.6711146,0.35831404,-0.22820616,1.0236793,0.8934771,-0.040549677,0.3987417,0.20263146,-0.15542309,0.0888383,0.33379868,1,0,0,0,0,0,0,0,0,-0.22711754,-0.1544714,-0.17361641,2.5296211,-0.63683987,-0.5088806,0.17749071,-0.22888184,-0.15199184,-0.19073486,2.5177002,-0.61035156,-0.51498413,0.15258789
-1.8903885,10.729151,3.9571505,-26.559011,1.6217409,0.578799,0.20495912,0.8680837,-0.78633285,0.68545026,-0.34557274,0.54941666,0.80074173,0.84708893,1.2221981,-0.33728328,1.7093787,1.0086826,1.8830194,-0.6209998,1.7436,1.1411052,-0.26424664,1.6468076,1.0406277,1.8317809,-0.6970295,1.6604084,1.1430186,-1.1193202,1.1946995,-0.52240485,0.74055564,0.8089052,0.30346474,1.143074,-1.1193275,1.1947632,-0.5224228,0.7406235,0.80890656,0.30345917,1.7877531,-0.42938948,1.3943605,-3.0802708,0.25615147,1.6217985,0.35754538,-0.22778416,1.0253148,0.8938158,-0.038885463,0.39469028,0.20928621,-0.15552595,0.08043061,0.3258323,1,0,0,0,0,0,0,0,0,-0.21657944,-0.10139942,-0.17528534,2.5059223,-0.6820679,-0.52297115,0.18283725,-0.19073486,-0.104904175,-0.15258789,2.5177002,-0.6866455,-0.51498413,0.19073486
-1.3025955,11.896185,4.443691,-25.939753,1.5243855,0.5254791,0.21330413,0.86877227,-0.78459483,0.6872523,-0.3308091,0.5501752,0.8027254,0.84676474,1.2279824,-0.34270614,1.7155328,1.0075468,1.8867984,-0.6167569,1.7450849,1.1468158,-0.26984352,1.6527785,1.0380843,1.8354707,-0.6929983,1.6619304,1.1422054,-1.1193917,1.1941125,-0.5086568,0.7380128,0.8062254,0.30440825,1.1421204,-1.1193752,1.194191,-0.5086899,0.7379532,0.80623627,0.30441284,1.7723522,-0.4281087,1.402223,-3.0802708,0.25615147,1.5724825,0.35678053,-0.22740102,1.0269086,0.8940683,-0.037191045,0.3906665,0.21595877,-0.1548582,0.07261408,0.31748164,1,0,0,0,0,0,0,0,0,-0.16264915,-0.014305115,-0.11739731,2.74961,-0.5085707,-0.53595304,0.18870234,-0.19073486,-0.009536743,-0.11444092,2.746582,-0.5340576,-0.5340576,0.19073486
-0.79963344,12.586721,4.5942383,-24.741228,1.3989403,0.53829944,0.22434391,0.8678347,-0.7843008,0.6870363,-0.30685735,0.5479783,0.80360043,0.8474606,1.2335992,-0.3482736,1.7214822,1.0073985,1.8902686,-0.61263824,1.7466764,1.1525226,-0.2754404,1.6587456,1.0356247,1.83915,-0.68898094,1.6634573,1.1413254,-1.1193534,1.1933398,-0.49184847,0.7358368,0.8034232,0.30539584,1.1413574,-1.1193752,1.193428,-0.4919052,0.7358551,0.8034706,0.30536652,1.7569513,-0.4268279,1.4098388,-3.0802708,0.25615147,1.5231664,0.3560238,-0.2270565,1.028455,0.8942317,-0.035464663,0.38667533,0.22265223,-0.15301883,0.06494765,0.30792448,1,0,0,0,0,0,0,0,0,-0.1760006,0.0076532364,-0.15454292,3.3616662,-0.43519735,-0.56043863,0.19751787,-0.15258789,0,-0.15258789,3.3569336,-0.4196167,-0.5531311,0.19073486
-0.6294873,13.230982,4.8669615,-24.64994,1.3468,0.49817476,0.21956694,0.8663269,-0.78325397,0.6882304,-0.29856777,0.5442691,0.8041211,0.8480022,1.2391553,-0.3537658,1.7275686,1.005768,1.8935769,-0.60856885,1.7482575,1.1582236,-0.28103608,1.664709,1.0332482,1.8428187,-0.68497884,1.6649889,1.1402599,-1.1191298,1.1925715,-0.47527343,0.7336933,0.80044657,0.30641243,1.140213,-1.1191368,1.1926651,-0.47531128,0.733757,0.80041885,0.3063202,1.7415504,-0.42554712,1.4172081,-3.0802708,0.25615147,1.4738504,0.3552761,-0.22674942,1.0299544,0.894306,-0.033707593,0.38271695,0.22936493,-0.15096553,0.057565622,0.29850286,1,0,0,0,0,0,0,0,0,-0.21309853,0.044727325,-0.15366077,3.3150077,-0.42870045,-0.5953312,0.2033174,-0.22888184,0.047683716,-0.15258789,3.3187866,-0.4196167,-0.61035156,0.19073486
-0.5032572,13.126947,4.6388617,-23.591787,1.2509382,0.5620843,0.2217349,0.8664329,-0.7857597,0.6843606,-0.27412835,0.53675985,0.80492616,0.8483254,1.244867,-0.35961205,1.733145,1.0058353,1.8964947,-0.6044862,1.7498214,1.1639199,-0.2866332,1.6706628,1.030968,1.8464723,-0.680992,1.6665262,1.1393259,-1.1194382,1.1908019,-0.45613167,0.73073804,0.7973317,0.30744997,1.1392593,-1.1194229,1.1907578,-0.45604706,0.73070526,0.7973671,0.3074646,1.7261496,-0.42426634,1.4243307,-3.0802708,0.25615147,1.4245343,0.3545432,-0.22648144,1.0314004,0.8942886,-0.031916976,0.37879845,0.23609488,-0.14796986,0.049757548,0.28788236,1,0,0,0,0,0,0,0,0,-0.18680096,-0.061678886,-0.35393238,3.8283527,-0.5910516,-0.6229758,0.20750761,-0.19073486,-0.05722046,-0.38146973,3.8528442,-0.61035156,-0.61035156,0.22888184
-0.47647613,12.70469,4.2334585,-22.399656,1.1558138,0.655089,0.22341566,0.8646389,-0.7895008,0.6806929,-0.24701725,0.5271146,0.8051716,0.8493664,1.2503839,-0.36558327,1.7387321,1.0062662,1.8991838,-0.60047483,1.7514628,1.1696105,-0.29223603,1.6766032,1.0287983,1.8501048,-0.67702186,1.6680692,1.1381657,-1.1205676,1.1880444,-0.43387225,0.72659487,0.7940274,0.30856648,1.1381149,-1.1205673,1.1880875,-0.4339218,0.7265091,0.79402924,0.308609,1.7107487,-0.42298555,1.4312068,-3.0802708,0.25615147,1.3752183,0.3538308,-0.22625542,1.0327863,0.8941771,-0.030090645,0.37492648,0.24284136,-0.14392701,0.04133255,0.27581862,1,0,0,0,0,0,0,0,0,-0.23202896,-0.22587776,-0.551486,4.451883,-0.8286357,-0.66086054,0.22330284,-0.22888184,-0.22888184,-0.5340576,4.425049,-0.8392334,-0.667572,0.22888184
0.01117124,14.467304,5.124343,-22.949087,1.115558,0.50687444,0.21567403,0.86476064,-0.7839839,0.6842009,-0.245524,0.52840453,0.8053701,0.84808356,1.2560866,-0.37063444,1.7450233,1.004246,1.9029453,-0.59648484,1.7528776,1.1752963,-0.2978391,1.6825322,1.0267279,1.853723,-0.67306936,1.669618,1.137105,-1.1206021,1.1858573,-0.41400516,0.7236442,0.79048383,0.3096632,1.1371613,-1.120615,1.1857986,-0.4140854,0.7236481,0.79050064,0.30975342,1.6953478,-0.42170477,1.4378363,-3.0802708,0.25615147,1.3259022,0.35313702,-0.22606635,1.0341178,0.8939734,-0.02823288,0.37109601,0.24960385,-0.14004612,0.034122087,0.26496994,1,0,0,0,0,0,0,0,0,-0.21214485,-0.006914139,-0.43742657,3.9734185,-0.59013367,-0.70871115,0.2193451,-0.19073486,-0.009536743,-0.45776367,3.9672852,-0.5722046,-0.705719,0.22888184
-0.25475743,14.785367,5.416953,-23.900019,1.1573337,0.42646572,0.20515293,0.8634534,-0.78436303,0.68467236,-0.24649067,0.5279022,0.80754286,0.84831953,1.2616416,-0.37627542,1.7509995,1.0020789,1.9065132,-0.5923151,1.75445,1.1809764,-0.30344218,1.6884507,1.0247405,1.8573308,-0.669135,1.6711715,1.135945,-1.1205956,1.1837248,-0.39741907,0.7216448,0.7868831,0.31079206,1.1360168,-1.120615,1.1837006,-0.39749146,0.72155,0.7868767,0.3107071,1.6799469,-0.42042398,1.4442192,-3.0802708,0.25615147,1.2765862,0.35245705,-0.22591376,1.0354022,0.8936811,-0.02634791,0.36730078,0.25637844,-0.13703448,0.027039602,0.25551972,1,0,0,0,0,0,0,0,0,-0.23200512,0.0013113022,-0.426507,3.317219,-0.39987564,-0.7201433,0.22577047,-0.22888184,0,-0.4196167,3.3187866,-0.4196167,-0.7247925,0.19073486
-0.020304564,15.220932,5.561681,-23.43771,1.1014739,0.4140547,0.21,0.86339265,-0.78529495,0.6846819,-0.22841974,0.52634573,0.8077826,0.8477115,1.2673156,-0.3819717,1.7569189,1.0018985,1.9099654,-0.58835673,1.7559427,1.1866508,-0.3090462,1.6943587,1.0228407,1.8609319,-0.6652192,1.6727308,1.1349349,-1.120804,1.181545,-0.37999317,0.72012174,0.7831981,0.31191105,1.1348724,-1.1208057,1.1816025,-0.37994385,0.72021484,0.78315735,0.3118515,1.664546,-0.4191432,1.4503555,-3.0802708,0.25615147,1.2272701,0.3517933,-0.22579575,1.0366378,0.893299,-0.024434969,0.36354148,0.26316783,-0.13357955,0.020062087,0.2457624,1,0,0,0,0,0,0,0,0,-0.20201206,-0.041675568,-0.43594837,3.485179,-0.3046155,-0.7369995,0.22379756,-0.22888184,-0.038146973,-0.4196167,3.5095215,-0.2670288,-0.74386597,0.22888184
0.544925,16.108688,5.8234057,-22.513348,0.98971546,0.4043316,0.21516259,0.8638154,-0.7849009,0.6847937,-0.20668623,0.52136797,0.8087947,0.84909344,1.2730323,-0.3875363,1.7628381,1.0021721,1.9130687,-0.58433974,1.7576401,1.1923213,-0.31465095,1.7002553,1.0210383,1.8645234,-0.661322,1.6742967,1.1341974,-1.120972,1.1792965,-0.3605451,0.71830106,0.77947253,0.31312904,1.1341095,-1.1209488,1.1793137,-0.3604889,0.7183075,0.779438,0.31318665,1.6491451,-0.41786242,1.4562453,-3.0802708,0.25615147,1.1779541,0.35115194,-0.22571087,1.0378205,0.8928249,-0.022493713,0.35982323,0.26997218,-0.12913457,0.013519597,0.2352295,1,0,0,0,0,0,0,0,0,-0.14750957,-0.03361702,-0.44970512,3.8896143,-0.3641367,-0.74511766,0.24359822,-0.15258789,-0.02861023,-0.45776367,3.8909912,-0.38146973,-0.74386597,0.2670288
0.88257647,17.055176,6.243214,-22.365282,0.93128884,0.3423496,0.21479182,0.86263967,-0.783757,0.6876616,-0.19501258,0.5199894,0.8100704,0.84902763,1.2785853,-0.39302665,1.7690214,1.0015371,1.9165224,-0.58031493,1.7591995,1.197988,-0.3202557,1.7061423,1.0193322,1.8681073,-0.6574434,1.6758684,1.1334138,-1.1209295,1.1774836,-0.34122074,0.71684456,0.77571386,0.3143552,1.1333466,-1.1209488,1.1774063,-0.34122467,0.7167816,0.7757187,0.31433105,1.6337442,-0.41658163,1.4618886,-3.0802708,0.25615147,1.128638,0.35053396,-0.22565627,1.0389513,0.89225876,-0.020526208,0.35614574,0.2767907,-0.12444716,0.007555039,0.22489159,1,0,0,0,0,0,0,0,0,-0.15671253,0.008511543,-0.36258698,3.8648725,-0.29129982,-0.7517338,0.24523139,-0.15258789,0,-0.38146973,3.8528442,-0.30517578,-0.74386597,0.22888184
1.3082229,17.483564,6.2367344,-21.238388,0.8260213,0.37812212,0.2203503,0.861623,-0.7851189,0.6865636,-0.16720465,0.5147322,0.810209,0.84868294,1.2841504,-0.3987676,1.7747986,1.0026118,1.9195806,-0.5764225,1.7607367,1.203651,-0.32586163,1.7120188,1.0177367,1.8716826,-0.6535839,1.6774458,1.1325854,-1.1211836,1.1753185,-0.3190594,0.7150576,0.77188575,0.31555158,1.1325836,-1.1211872,1.1753082,-0.31909943,0.715065,0.771904,0.31547546,1.6183434,-0.41530085,1.4672852,-3.0802708,0.25615147,1.079322,0.3499441,-0.22563148,1.0400255,0.891598,-0.018530289,0.35251412,0.28362563,-0.118679084,0.0016823286,0.21342573,1,0,0,0,0,0,0,0,0,-0.16567707,-0.05083084,-0.43301582,4.432267,-0.35738945,-0.76562166,0.23927689,-0.15258789,-0.047683716,-0.4196167,4.425049,-0.34332275,-0.76293945,0.22888184
1.3450326,17.18933,5.8927765,-20.326595,0.74520355,0.45745808,0.21378794,0.8602659,-0.7885106,0.6820928,-0.14256687,0.50281686,0.81071484,0.848637,1.2896775,-0.4047127,1.7802281,1.00348,1.9219643,-0.5725124,1.7623094,1.2093091,-0.33147258,1.7178792,1.0162632,1.8752408,-0.6497439,1.6790298,1.1316383,-1.1221683,1.1720183,-0.29467633,0.71161675,0.7679807,0.3167518,1.13163,-1.1221886,1.1720657,-0.29468536,0.7116318,0.7679939,0.3168106,1.6029425,-0.41402006,1.4724352,-3.0802708,0.25615147,1.0300059,0.3493867,-0.22563791,1.0410366,0.89084065,-0.016504558,0.34893557,0.29047275,-0.112044804,-0.004620877,0.20087762,1,0,0,0,0,0,0,0,0,-0.18942356,-0.19693375,-0.660038,4.8766136,-0.6881714,-0.7810116,0.24004579,-0.19073486,-0.2002716,-0.64849854,4.8828125,-0.6866455,-0.78201294,0.2670288
0.9853782,16.819805,5.702533,-20.510818,0.7331429,0.47366723,0.19574071,0.85836244,-0.7912637,0.67892593,-0.13192777,0.4912302,0.81211364,0.8495778,1.2951454,-0.41059893,1.7857717,1.0030705,1.9243639,-0.5685325,1.7639875,1.2149615,-0.33709115,1.7237185,1.0149071,1.8787742,-0.645924,1.6806196,1.1304436,-1.1237295,1.1678425,-0.27128804,0.7066515,0.76402694,0.31803957,1.1304855,-1.1237144,1.1678696,-0.27122498,0.70667267,0.7639885,0.31795502,1.5875416,-0.41273928,1.4773387,-3.0802708,0.25615147,0.98068994,0.34886074,-0.22567892,1.0419858,0.8899893,-0.01444978,0.34541056,0.2973244,-0.10557431,-0.011353303,0.18853594,1,0,0,0,0,0,0,0,0,-0.2389431,-0.31223297,-0.83515644,4.677659,-0.99304914,-0.790751,0.25755167,-0.22888184,-0.30517578,-0.8392334,4.6920776,-0.9918213,-0.8010864,0.22888184
0.8309968,17.503464,6.144208,-21.389997,0.74051845,0.3722945,0.18000901,0.85675085,-0.7897856,0.67970395,-0.1306482,0.48781818,0.81541646,0.8477589,1.3006366,-0.41606972,1.7916889,1.0018423,1.927556,-0.5643823,1.7653955,1.2206073,-0.34271568,1.7295369,1.0136521,1.8822837,-0.6421231,1.682216,1.1290821,-1.1249125,1.1637658,-0.25110108,0.70199966,0.7601462,0.31929895,1.1291504,-1.1249065,1.1636734,-0.25100708,0.7019043,0.7601738,0.31929016,1.5721407,-0.4114585,1.4819956,-3.0802708,0.25615147,0.93137395,0.34836388,-0.22575307,1.0428795,0.8890472,-0.012369537,0.34193322,0.30417693,-0.09986569,-0.0177432,0.1775343,1,0,0,0,0,0,0,0,0,-0.27229786,-0.2366066,-0.81534386,4.037392,-0.9303689,-0.77614784,0.2518773,-0.2670288,-0.23841858,-0.8392334,4.043579,-0.9536743,-0.76293945,0.2670288
-0.2640669,17.487326,6.600254,-24.087336,0.86927927,0.19392288,0.14272808,0.85482246,-0.78933537,0.6796642,-0.15669999,0.48073724,0.8158028,0.8486758,1.3060895,-0.42164922,1.7975034,0.9979821,1.9303575,-0.5605428,1.7670836,1.2262454,-0.34834498,1.7353362,1.0124552,1.8857694,-0.6383418,1.6838192,1.1275465,-1.125841,1.1597943,-0.2394504,0.6970693,0.75625074,0.32067898,1.1276245,-1.1258602,1.1598587,-0.23937225,0.6971359,0.75626373,0.3206253,1.5567398,-0.4101777,1.4864058,-3.0802708,0.25615147,0.88205796,0.3478818,-0.22585988,1.0437348,0.88802373,-0.01027333,0.33848834,0.31102085,-0.096766405,-0.024309283,0.16982983,1,0,0,0,0,0,0,0,0,-0.30710697,-0.18570423,-0.7942915,2.3301363,-0.9860754,-0.7790923,0.27600527,-0.30517578,-0.19073486,-0.76293945,2.3269653,-0.9536743,-0.78201294,0.2670288
0.34720567,18.787004,7.0741625,-23.471073,0.76671004,0.14342415,0.14460537,0.8544743,-0.7874677,0.67944294,-0.13724543,0.47602874,0.8163668,0.8493931,1.3116928,-0.42709175,1.8032805,0.99873066,1.9333723,-0.5567051,1.7687585,1.2318769,-0.3539762,1.7411164,1.0113213,1.8892303,-0.63457954,1.6854299,1.1262051,-1.1262567,1.1560459,-0.22677752,0.6921069,0.75243807,0.32217488,1.1262894,-1.1262417,1.156044,-0.22678375,0.6921768,0.75244904,0.32215118,1.5413389,-0.40889692,1.4905696,-3.0802708,0.25615147,0.832742,0.34741735,-0.22599673,1.0445503,0.88691765,-0.008161804,0.33507812,0.317857,-0.09300355,-0.03020692,0.16180243,1,0,0,0,0,0,0,0,0,-0.26829243,-0.08313656,-0.7496834,2.5345743,-0.99247694,-0.76253414,0.29917955,-0.2670288,-0.076293945,-0.76293945,2.5177002,-0.9918213,-0.76293945,0.30517578
1.3952893,20.25735,7.439044,-21.83455,0.6125723,0.14843315,0.16139552,0.85286146,-0.78596437,0.6800843,-0.10785592,0.47489917,0.8163586,0.84782875,1.317163,-0.43257263,1.8091248,1.0005357,1.9367201,-0.5529437,1.7702128,1.2375007,-0.35960764,1.7468795,1.0102723,1.8926692,-0.6308359,1.6870483,1.1248474,-1.1262687,1.1525984,-0.2098911,0.6878595,0.7486885,0.3236572,1.1247635,-1.1262894,1.1526108,-0.20980835,0.6877899,0.7487297,0.32367706,1.525938,-0.40761614,1.4944867,-3.0802708,0.25615147,0.783426,0.34698057,-0.2261591,1.0453182,0.8857245,-0.006032211,0.33171114,0.32468963,-0.08759985,-0.03517982,0.15234753,1,0,0,0,0,0,0,0,0,-0.27153492,-0.0024080276,-0.68950653,3.3772855,-0.8494854,-0.7499099,0.29646754,-0.30517578,-0.009536743,-0.6866455,3.3950806,-0.8773804,-0.74386597,0.30517578
1.497277,20.624886,7.549258,-21.595554,0.5643653,0.13386136,0.15689783,0.8512146,-0.786912,0.6789268,-0.0978819,0.4672933,0.81697017,0.8483557,1.3226222,-0.43829885,1.8147721,1.0004841,1.9393985,-0.5491389,1.7718838,1.2431178,-0.36524004,1.7526244,1.0093081,1.8960853,-0.62711084,1.6886743,1.1234568,-1.1264572,1.1489848,-0.19281058,0.68316424,0.7449964,0.32519194,1.1234283,-1.1264801,1.1489868,-0.19283295,0.6832123,0.7450104,0.32520294,1.5105371,-0.40633535,1.4981573,-3.0802708,0.25615147,0.73411,0.3465705,-0.22634625,1.0460385,0.884445,-0.0038857749,0.32838786,0.33151653,-0.0819698,-0.039993286,0.14282684,1,0,0,0,0,0,0,0,0,-0.27811527,-0.037693977,-0.72271824,3.4161031,-0.93904734,-0.7384181,0.30694604,-0.2670288,-0.038146973,-0.7247925,3.3950806,-0.91552734,-0.74386597,0.30517578
1.659866,21.0544,7.694063,-21.316122,0.52240455,0.11515105,0.1577107,0.8500333,-0.78760755,0.6784787,-0.08426759,0.46379095,0.8177311,0.8473472,1.3281212,-0.44400078,1.8204722,1.0008813,1.9424644,-0.54533774,1.773409,1.2487283,-0.3708741,1.7583512,1.0084307,1.8994794,-0.6234039,1.690308,1.1221546,-1.1268189,1.1452891,-0.1754276,0.67876214,0.7413704,0.32670778,1.1220932,-1.1268139,1.1453629,-0.17547607,0.6788254,0.7413864,0.32672882,1.4951363,-0.40505457,1.5015812,-3.0802708,0.25615147,0.684794,0.34618998,-0.22655654,1.0467112,0.8830788,-0.0017227791,0.32510865,0.3383387,-0.07609837,-0.04462632,0.13323486,1,0,0,0,0,0,0,0,0,-0.26044846,-0.0723362,-0.7391453,3.4765959,-0.8804202,-0.7252097,0.3031671,-0.2670288,-0.0667572,-0.7247925,3.4713745,-0.8773804,-0.7247925,0.30517578
2.1110184,21.717184,7.836924,-20.49749,0.4416117,0.11887187,0.16329803,0.8484038,-0.78826,0.67843086,-0.06251888,0.4589986,0.8175503,0.84798133,1.3335687,-0.44970012,1.8261943,1.0021788,1.9453793,-0.54164886,1.7751061,1.2543321,-0.3765108,1.764059,1.0076497,1.9028516,-0.6197151,1.6919492,1.1208249,-1.1273263,1.1416134,-0.1561208,0.67442614,0.73776925,0.32828414,1.120758,-1.1273384,1.1415482,-0.15621185,0.6744385,0.73776245,0.3282547,1.4797354,-0.40377378,1.5047586,-3.0802708,0.25615147,0.635478,0.34584093,-0.226789,1.0473325,0.88162476,0.00045832904,0.32187742,0.3451557,-0.06945185,-0.04887633,0.12298118,1,0,0,0,0,0,0,0,0,-0.26593208,-0.10147095,-0.73513985,3.8613586,-0.8671999,-0.72022676,0.3152728,-0.2670288,-0.104904175,-0.76293945,3.8528442,-0.8773804,-0.7247925,0.30517578
1.5896964,21.683771,8.032656,-21.524809,0.47323236,0.03610736,0.14575845,0.8471048,-0.789694,0.6787591,-0.06775367,0.4505889,0.8178934,0.84826,1.3390425,-0.45548022,1.8319348,1.0008743,1.9479104,-0.5379258,1.7767752,1.2599301,-0.3821513,1.7697486,1.0069478,1.906199,-0.6160439,1.6935991,1.1195395,-1.1281198,1.1379893,-0.14034702,0.6694479,0.73420715,0.32989842,1.1196136,-1.1281013,1.1379242,-0.14038086,0.66947937,0.73423386,0.3299713,1.4643345,-0.402493,1.5076894,-3.0802708,0.25615147,0.58616203,0.34552145,-0.22704387,1.047909,0.88008654,0.0026536286,0.3186879,0.35196406,-0.063869454,-0.053286716,0.1140435,1,0,0,0,0,0,0,0,0,-0.25708675,-0.15871525,-0.7248163,3.1547575,-0.9956479,-0.71241856,0.32285452,-0.22888184,-0.15258789,-0.7247925,3.1661987,-0.9918213,-0.705719,0.34332275
1.0350944,22.138706,8.534824,-23.02082,0.50395125,-0.10965502,0.12120127,0.8456127,-0.78813326,0.67997783,-0.07946247,0.44260004,0.81903917,0.8476704,1.3444914,-0.46096462,1.8377464,0.9990015,1.950459,-0.53414,1.7783661,1.2655215,-0.3877942,1.775422,1.0062993,1.9095178,-0.6123899,1.6952566,1.1182581,-1.1285651,1.1346996,-0.129666,0.663825,0.7307673,0.33151945,1.1182785,-1.1285782,1.1346817,-0.1296997,0.6637573,0.7308006,0.3314972,1.4489336,-0.40121222,1.5103736,-3.0802708,0.25615147,0.53684604,0.34522152,-0.22732139,1.0484504,0.87846994,0.004857257,0.3155316,0.35875702,-0.059791464,-0.057640627,0.10705973,1,0,0,0,0,0,0,0,0,-0.25627613,-0.08904934,-0.6579399,2.1362038,-1.1245847,-0.68796873,0.32420754,-0.2670288,-0.09536743,-0.64849854,2.1362305,-1.1444092,-0.6866455,0.30517578
0.59428304,22.71192,9.034281,-24.272326,0.5209828,-0.24353272,0.101408094,0.8444111,-0.78583705,0.6800231,-0.09030746,0.43691075,0.8212261,0.84884405,1.3499626,-0.4663779,1.8434243,0.9972685,1.9532088,-0.5302673,1.780141,1.2711062,-0.3934366,1.7810801,1.0056822,1.912808,-0.60875213,1.6969227,1.1170228,-1.1284688,1.1315764,-0.123413295,0.6579831,0.7275498,0.33322737,1.1169434,-1.1284828,1.13163,-0.12340546,0.6580353,0.72755814,0.3332138,1.4335327,-0.39993143,1.5128112,-3.0802708,0.25615147,0.48753005,0.344934,-0.22761965,1.048965,0.87678033,0.0070645367,0.31240088,0.3655298,-0.056986973,-0.061937857,0.10177283,1,0,0,0,0,0,0,0,0,-0.24707317,0.019264221,-0.62463284,1.2505412,-1.1683702,-0.64350367,0.3415823,-0.2670288,0.019073486,-0.61035156,1.2588501,-1.1444092,-0.64849854,0.34332275
0.19428352,22.438498,8.856426,-24.39546,0.45682243,-0.23066962,0.06385867,0.8406055,-0.7880364,0.6755809,-0.08663974,0.4081186,0.82018304,0.85011274,1.3551668,-0.47224027,1.8486382,0.9970183,1.9536198,-0.5267338,1.7819339,1.2766833,-0.39908046,1.7867192,1.0050929,1.9160447,-0.6051301,1.6985983,1.1153487,-1.1287593,1.1277481,-0.11795596,0.64731365,0.72442865,0.3350395,1.1154175,-1.1287689,1.1278152,-0.117874146,0.6473541,0.724411,0.33512115,1.4181318,-0.39865065,1.5150023,-3.0802708,0.25615147,0.43821406,0.34466124,-0.22794318,1.0494528,0.8750209,0.009271545,0.30930045,0.37227076,-0.05426166,-0.06672762,0.0963899,1,0,0,0,0,0,0,0,0,-0.3348112,-0.058102608,-0.7656574,1.0914669,-2.133894,-0.6242275,0.36242604,-0.30517578,-0.05722046,-0.76293945,1.1062622,-2.1362305,-0.62942505,0.38146973
1.9338698,24.10749,8.989358,-21.360994,0.24527277,-0.12598407,0.09612816,0.8395329,-0.787784,0.6760232,-0.040190704,0.40631503,0.81988347,0.8495755,1.3606366,-0.47785884,1.8543215,1.0010738,1.9566762,-0.52314174,1.7835559,1.2822518,-0.4047255,1.7923402,1.0045722,1.9192309,-0.6015228,1.7002825,1.1137741,-1.129024,1.124187,-0.10412461,0.63718224,0.72144556,0.33690315,1.1137009,-1.1290073,1.1241913,-0.104141235,0.6372452,0.7214546,0.33683777,1.402731,-0.39736986,1.5169468,-3.0802708,0.25615147,0.38889807,0.34441662,-0.22828364,1.0498993,0.8731842,0.011483947,0.30624622,0.37898648,-0.04855753,-0.07020955,0.08807361,1,0,0,0,0,0,0,0,0,-0.3149271,-0.052952766,-0.7122278,2.7662694,-2.0262837,-0.59661865,0.3727317,-0.34332275,-0.047683716,-0.7247925,2.746582,-2.0217896,-0.5912781,0.34332275
2.032544,24.664915,9.240756,-21.324434,0.20937794,-0.17154908,0.09359381,0.83846295,-0.7878027,0.6758368,-0.038519982,0.39740986,0.81941766,0.85102105,1.3660982,-0.48350576,1.8599238,1.0007201,1.958972,-0.519581,1.7853845,1.2878137,-0.41037196,1.797944,1.0041182,1.9223666,-0.5979303,1.7019771,1.1123399,-1.1292835,1.1206886,-0.090782546,0.6270588,0.7185297,0.33887374,1.1123657,-1.1292934,1.120758,-0.090789795,0.62713623,0.71849823,0.33893585,1.38733,-0.39608908,1.5186447,-3.0802708,0.25615147,0.3395821,0.34419966,-0.22864008,1.0503055,0.87127036,0.01370091,0.30323714,0.385678,-0.042885248,-0.07333793,0.08003779,1,0,0,0,0,0,0,0,0,-0.2868414,-0.051903725,-0.699687,2.6684136,-2.0246863,-0.58317184,0.39411783,-0.2670288,-0.05722046,-0.6866455,2.670288,-2.0217896,-0.5912781,0.4196167
1.882805,25.065733,9.509718,-21.699894,0.20777832,-0.23939776,0.09123497,0.8361169,-0.78723717,0.6760131,-0.036409874,0.39361194,0.8185872,0.85084677,1.3714254,-0.4890957,1.8655453,1.0004772,1.9617279,-0.5160716,1.7870618,1.2933679,-0.41601914,1.8035306,1.0037234,1.9254556,-0.5943521,1.7036813,1.1108187,-1.1294261,1.1173091,-0.0789904,0.6178734,0.71566194,0.34087932,1.1108398,-1.1294365,1.1173248,-0.07896423,0.6177902,0.7156372,0.3408432,1.3719292,-0.3948083,1.5200961,-3.0802708,0.25615147,0.2902661,0.34400845,-0.22901273,1.0506749,0.869282,0.015920978,0.3002693,0.39234373,-0.03770898,-0.07638815,0.07268867,1,0,0,0,0,0,0,0,0,-0.3042221,-0.028514862,-0.67589283,2.3584292,-1.8370867,-0.57355165,0.40111542,-0.30517578,-0.02861023,-0.6866455,2.3651123,-1.8692017,-0.5722046,0.38146973
2.5084324,26.15702,9.860206,-20.879099,0.13963921,-0.26580995,0.108085915,0.8338281,-0.78642285,0.67894304,-0.016709918,0.39452356,0.8193506,0.84918696,1.3767507,-0.49466142,1.8714249,1.0020524,1.9649079,-0.5124171,1.7886001,1.2989135,-0.4216661,1.8091038,1.0033972,1.9285083,-0.5907873,1.7053951,1.1091729,-1.129391,1.1146023,-0.06517706,0.61053306,0.7129374,0.34281147,1.1091232,-1.1293888,1.1146545,-0.06523132,0.6105423,0.7129669,0.34275055,1.3565283,-0.3935275,1.5213008,-3.0802708,0.25615147,0.2409501,0.34384727,-0.22939634,1.0510054,0.86721665,0.018145923,0.2973441,0.39898923,-0.03187682,-0.07870728,0.06487749,1,0,0,0,0,0,0,0,0,-0.3291607,0.007033348,-0.5413532,2.762668,-1.4680624,-0.54490566,0.38642883,-0.34332275,0.009536743,-0.5340576,2.746582,-1.449585,-0.5340576,0.38146973
2.1579332,26.880259,10.446004,-21.948786,0.15511417,-0.41264862,0.099760875,0.8313271,-0.783616,0.68205875,-0.026707893,0.39187667,0.8194282,0.8493262,1.3820462,-0.50002766,1.8773097,1.0007265,1.967696,-0.5088445,1.7903277,1.3044505,-0.42731017,1.8146666,1.0031216,1.9315295,-0.5872358,1.7071184,1.1074032,-1.1288022,1.1125498,-0.055072267,0.60427266,0.71030706,0.3447443,1.1074066,-1.1288166,1.1125565,-0.055122375,0.60424805,0.71029663,0.3446579,1.3411274,-0.39224672,1.522259,-3.0802708,0.25615147,0.19163409,0.34370804,-0.22979212,1.0513043,0.86507803,0.020372363,0.29445335,0.40561318,-0.027279954,-0.080778435,0.058668375,1,0,0,0,0,0,0,0,0,-0.35395622,0.117754936,-0.4105091,2.020959,-1.252079,-0.5260706,0.38656592,-0.34332275,0.11444092,-0.4196167,2.0217896,-1.2588501,-0.5340576,0.38146973
0.9952928,26.296753,10.511929,-23.636812,0.19783163,-0.5100436,0.059918575,0.8283328,-0.7839566,0.67918235,-0.044073895,0.3727432,0.8194963,0.84954274,1.3872838,-0.50570583,1.8825848,0.9987142,1.9688039,-0.50528616,1.7920727,1.309978,-0.43295163,1.8202161,1.0028698,1.9345069,-0.5836967,1.7088522,1.105449,-1.128306,1.1099095,-0.050404873,0.59542567,0.7077884,0.34666765,1.1054993,-1.1282921,1.1098862,-0.050354004,0.59547424,0.7078171,0.34675598,1.3257265,-0.39096594,1.5229706,-3.0802708,0.25615147,0.14231808,0.34358215,-0.23020267,1.0515808,0.86287415,0.022595037,0.2915898,0.41220495,-0.024403129,-0.083770156,0.054181617,1,0,0,0,0,0,0,0,0,-0.39083958,0.09922981,-0.52804947,0.9334788,-1.7693996,-0.5037308,0.3846705,-0.38146973,0.104904175,-0.5340576,0.9536743,-1.7547607,-0.49591064,0.4196167
0.63498616,26.77832,10.888489,-24.416676,0.17138451,-0.6109334,0.035899825,0.8271009,-0.781683,0.6790658,-0.052369088,0.35839522,0.8187281,0.8508656,1.392688,-0.51111996,1.8881227,0.9976329,1.9703465,-0.5018239,1.7939388,1.315496,-0.4385888,1.8257521,1.0026257,1.9374299,-0.58017004,1.7105955,1.103647,-1.1274407,1.1072797,-0.04884466,0.5846843,0.70538,0.3486735,1.1035919,-1.1274338,1.1072159,-0.048828125,0.58460236,0.7053375,0.34866333,1.3103256,-0.38968515,1.5234356,-3.0802708,0.25615147,0.09300208,0.3434677,-0.2306292,1.05184,0.8606106,0.024808416,0.28875062,0.4187564,-0.022352226,-0.08680593,0.050749604,1,0,0,0,0,0,0,0,0,-0.36039352,0.17306805,-0.5259752,0.31204224,-2.1482706,-0.48167706,0.40116906,-0.38146973,0.17166138,-0.5340576,0.30517578,-2.1743774,-0.49591064,0.38146973
0.84469193,27.977602,11.486966,-24.547197,0.12442532,-0.71556944,0.036234893,0.8260345,-0.777856,0.6815712,-0.054991294,0.35554212,0.8190197,0.8516384,1.3980994,-0.5163744,1.8939092,0.9971266,1.9729841,-0.49826807,1.7957593,1.3210063,-0.4442181,1.8312787,1.0023835,1.9403033,-0.5766543,1.7123493,1.102055,-1.1258818,1.1053264,-0.04849701,0.5746265,0.70314944,0.3507328,1.102066,-1.1258602,1.1053085,-0.048446655,0.57468414,0.7031441,0.3507614,1.2949247,-0.38840437,1.523654,-3.0802708,0.25615147,0.043686077,0.34336185,-0.23106742,1.0520854,0.8582877,0.02701095,0.28593287,0.42527062,-0.020586748,-0.089247495,0.047971584,1,0,0,0,0,0,0,0,0,-0.318408,0.31177998,-0.39064884,0.06953031,-2.0115614,-0.44611692,0.41186213,-0.30517578,0.31471252,-0.38146973,0.076293945,-1.9836426,-0.4386902,0.4196167
0.13745917,27.011494,11.036041,-24.791782,0.08226347,-0.6716124,-0.0074775014,0.822027,-0.7819217,0.67591023,-0.058277793,0.31832373,0.81866544,0.8529753,1.403209,-0.5224103,1.8988698,0.9965557,1.9721357,-0.49478775,1.7976469,1.3265071,-0.4498443,1.8367909,1.0021384,1.9430966,-0.5731491,1.7141136,1.1000953,-1.1252515,1.1024276,-0.04902982,0.5586582,0.70107514,0.35286587,1.1001587,-1.1252403,1.1024475,-0.04901886,0.5586624,0.701046,0.3528595,1.2795238,-0.38712358,1.5236259,-3.0802708,0.25615147,-0.005629927,0.34326315,-0.2315228,1.052316,0.855912,0.029198913,0.283141,0.43173277,-0.018988894,-0.09263856,0.04497936,1,0,0,0,0,0,0,0,0,-0.3919363,0.1260519,-0.57976246,-0.10656193,-3.1936646,-0.41486025,0.42661428,-0.38146973,0.12397766,-0.5722046,-0.11444092,-3.2043457,-0.4196167,0.4196167
-0.7355293,26.25094,10.8412695,-25.568924,0.09359056,-0.6940141,-0.035533715,0.81694764,-0.7831433,0.673666,-0.069178686,0.29909924,0.81874126,0.8528423,1.4082018,-0.5281586,1.9041575,0.9952205,1.9730066,-0.49127495,1.7993978,1.3319945,-0.4554698,1.842287,1.001879,1.9457974,-0.5696534,1.7158884,1.0974774,-1.1250794,1.0992024,-0.05180864,0.54020387,0.6991788,0.35504732,1.0974884,-1.1250973,1.099205,-0.051879883,0.54016113,0.69913864,0.35495758,1.264123,-0.3858428,1.5233511,-3.0802708,0.25615147,-0.05494593,0.3431692,-0.23200011,1.0525342,0.8534898,0.03137068,0.2803736,0.4381341,-0.018198323,-0.096936025,0.042538643,1,0,0,0,0,0,0,0,0,-0.5235672,0.034427643,-0.64504147,-0.55576414,-3.6908627,-0.37926435,0.43628812,-0.5340576,0.02861023,-0.64849854,-0.5722046,-3.7002563,-0.38146973,0.4196167
-1.3510958,26.367783,11.065874,-26.455307,0.048361227,-0.7795151,-0.0774845,0.8145725,-0.7819861,0.6718223,-0.08606177,0.26538578,0.81826115,0.8536426,1.4134518,-0.5336684,1.9094691,0.9932728,1.972336,-0.48782727,1.8012526,1.3374686,-0.4610936,1.8477668,1.0015891,1.9483829,-0.5661663,1.7176756,1.0947871,-1.1247495,1.0959216,-0.057896513,0.5171588,0.6974456,0.3573555,1.0948181,-1.1247635,1.0959625,-0.0579834,0.5170822,0.697422,0.35743713,1.2487221,-0.38456202,1.5228298,-3.0802708,0.25615147,-0.104261935,0.34307432,-0.23250008,1.0527452,0.85102844,0.033519927,0.27763027,0.44446418,-0.018271917,-0.10154482,0.041039295,1,0,0,0,0,0,0,0,0,-0.53806305,0.06597042,-0.6561518,-1.2175746,-4.6090126,-0.3466487,0.46163797,-0.5340576,0.0667572,-0.64849854,-1.2207031,-4.6157837,-0.34332275,0.49591064
-2.053093,27.006615,11.810404,-28.060726,0.10533042,-0.98324823,-0.07577832,0.81222105,-0.7773767,0.67546403,-0.11490582,0.26786852,0.8189648,0.853554,1.4186907,-0.5388313,1.9153131,0.9900985,1.9751697,-0.4842698,1.803031,1.3429294,-0.46671098,1.8532361,1.0012419,1.9508681,-0.5626863,1.7194742,1.0921315,-1.1234971,1.0938036,-0.06935007,0.49703178,0.69595575,0.3597802,1.0921478,-1.123476,1.0938644,-0.06942749,0.49705505,0.6959915,0.35972595,1.2333212,-0.38328123,1.5220618,-3.0802708,0.25615147,-0.15357794,0.34296894,-0.23302436,1.0529596,0.84853303,0.035644166,0.27489665,0.450725,-0.020229906,-0.10631319,0.04176766,1,0,0,0,0,0,0,0,0,-0.53112507,0.25048256,-0.4235983,-2.2907116,-4.025406,-0.29796362,0.48493743,-0.5340576,0.25749207,-0.4196167,-2.2888184,-4.005432,-0.2861023,0.45776367
-2.2709193,27.719572,12.31684,-28.660006,0.10273193,-1.1000693,-0.07459043,0.8109908,-0.7740135,0.6759708,-0.1320504,0.25935155,0.8191826,0.8551283,1.4240284,-0.5441123,1.9208331,0.9880369,1.9768033,-0.48076805,1.8049871,1.3483777,-0.47231883,1.8586978,1.0008252,1.953259,-0.55921304,1.7212862,1.0897464,-1.1215844,1.092316,-0.083356015,0.47816172,0.6946985,0.36234632,1.0896683,-1.1215687,1.0923386,-0.083351135,0.4781723,0.6946564,0.36239624,1.2179203,-0.38200045,1.5210474,-3.0802708,0.25615147,-0.20289394,0.34285164,-0.23357177,1.0531828,0.846006,0.0377413,0.27216616,0.4569191,-0.022980293,-0.11106263,0.0435341,1,0,0,0,0,0,0,0,0,-0.4770279,0.3825426,-0.29752254,-2.801189,-3.7740111,-0.25144815,0.5132258,-0.49591064,0.38146973,-0.30517578,-2.784729,-3.7765503,-0.2670288,0.5340576
-3.682301,27.318428,12.699951,-30.826012,0.1761552,-1.280833,-0.098397896,0.8076637,-0.77122176,0.67673796,-0.17425999,0.24561569,0.8190185,0.85566986,1.429144,-0.549441,1.9263716,0.98339915,1.9778205,-0.4773112,1.8068532,1.3538136,-0.477915,1.8641547,1.0003045,1.9555545,-0.555745,1.7231115,1.0872182,-1.119253,1.0913935,-0.104169555,0.45903206,0.69364715,0.3649967,1.0871887,-1.1192322,1.0913849,-0.104141235,0.45909882,0.69360733,0.36506653,1.2025194,-0.38071966,1.5197864,-3.0802708,0.25615147,-0.25220996,0.34270716,-0.23414874,1.0534271,0.8434563,0.039807133,0.26942524,0.4630409,-0.028056832,-0.11689787,0.04764891,1,0,0,0,0,0,0,0,0,-0.5056381,0.46627522,-0.18451214,-4.162708,-3.8259327,-0.21027327,0.530076,-0.49591064,0.46730042,-0.19073486,-4.15802,-3.8146973,-0.20980835,0.5340576
-4.418444,27.234709,12.905559,-31.7665,0.17591956,-1.372356,-0.1192674,0.8048413,-0.7690612,0.67624235,-0.20056307,0.2258371,0.8192429,0.8577797,1.4342978,-0.55482113,1.9317789,0.98024815,1.9781382,-0.47382072,1.8088895,1.3592372,-0.4834985,1.8696088,0.9996633,1.9577451,-0.5522808,1.7249502,1.0846219,-1.1166992,1.0908388,-0.1282461,0.4381262,0.6928575,0.36779335,1.0847092,-1.116705,1.0908127,-0.12823343,0.43811798,0.6928444,0.36773682,1.1871185,-0.37943888,1.5182787,-3.0802708,0.25615147,-0.30152595,0.34253216,-0.23475814,1.0536964,0.84089017,0.041838665,0.26666948,0.4690847,-0.03415732,-0.12339992,0.05273913,1,0,0,0,0,0,0,0,0,-0.5192518,0.5107641,-0.110936165,-4.8153086,-4.1811705,-0.15792847,0.55933,-0.49591064,0.5054474,-0.11444092,-4.8184395,-4.196167,-0.15258789,0.5340576
-4.6584735,27.35712,12.957246,-31.79023,0.10927844,-1.3945049,-0.1455939,0.8020908,-0.7680614,0.67535144,-0.21827437,0.19511321,0.8184687,0.85794747,1.4394463,-0.56030464,1.9371439,0.97783583,1.9772564,-0.47043392,1.810745,1.3646474,-0.48906964,1.8750619,0.9988989,1.9598107,-0.5488194,1.7268032,1.0819756,-1.1142061,1.090554,-0.15289922,0.41320905,0.6922868,0.370655,1.0820389,-1.1142254,1.090622,-0.152874,0.4131317,0.6922722,0.37059784,1.1717176,-0.3781581,1.5165246,-3.0802708,0.25615147,-0.35084194,0.34232664,-0.23539996,1.0539913,0.8383121,0.04383234,0.2639021,0.47504428,-0.040303685,-0.1301287,0.057771523,1,0,0,0,0,0,0,0,0,-0.5292654,0.49862862,-0.0569582,-4.9306245,-4.983431,-0.114142895,0.57232976,-0.5340576,0.49591064,-0.038146973,-4.928112,-4.9972534,-0.11444092,0.5722046
-4.611168,27.518812,12.865096,-31.216408,0.035556853,-1.3650237,-0.15987487,0.7975321,-0.76730585,0.67417604,-0.22794531,0.16907294,0.81796646,0.8590933,1.4444005,-0.56580025,1.9424795,0.9761044,1.9767181,-0.46702278,1.8127126,1.3700423,-0.49462885,1.880514,0.9980187,1.9617381,-0.5453595,1.7286714,1.0789205,-1.1118464,1.0904368,-0.17605527,0.38546497,0.6919467,0.37365925,1.0789871,-1.1118412,1.0904312,-0.17604828,0.38547516,0.6919861,0.3736496,1.1563168,-0.3768773,1.5145237,-3.0802708,0.25615147,-0.40015793,0.34209347,-0.2360754,1.054308,0.83572435,0.04578764,0.26112902,0.48091564,-0.045928046,-0.13690284,0.062093142,1,0,0,0,0,0,0,0,0,-0.61101913,0.47192574,-0.023436546,-4.6312094,-5.5488167,-0.06802082,0.6008506,-0.61035156,0.47683716,-0.038146973,-4.634857,-5.531311,-0.05722046,0.61035156
-4.5889025,28.08112,13.029503,-30.983875,-0.054600686,-1.3874651,-0.18465576,0.7952394,-0.76450056,0.6731895,-0.24593276,0.13479342,0.81633925,0.8612764,1.4495662,-0.5710789,1.947833,0.9734254,1.9752175,-0.46372557,1.8147991,1.375422,-0.50017494,1.8859662,0.9970221,1.9635072,-0.5419005,1.7305559,1.0759441,-1.1092043,1.090435,-0.19930652,0.35383275,0.6917659,0.37686467,1.0759354,-1.1092186,1.0904312,-0.19931793,0.35381317,0.69179535,0.3768921,1.1409159,-0.37559652,1.5122764,-3.0802708,0.25615147,-0.44947392,0.34183216,-0.23678374,1.0546459,0.83313155,0.047701307,0.25835449,0.4866921,-0.05136246,-0.14350326,0.06626896,1,0,0,0,0,0,0,0,0,-0.5952835,0.52843094,-0.00035762787,-4.65025,-6.3264427,-0.036156178,0.6410837,-0.61035156,0.5245209,0,-4.6539307,-6.3323975,-0.038146973,0.64849854
-4.1683054,28.79455,13.067993,-30.053524,-0.18940797,-1.3542659,-0.21256505,0.79274154,-0.7631684,0.67198527,-0.25252554,0.09104379,0.81538934,0.86200655,1.4546962,-0.5764918,1.9531647,0.9717695,1.9726115,-0.46036157,1.8167565,1.3807874,-0.5057077,1.8914183,0.99591917,1.9650912,-0.53844154,1.7324566,1.0730646,-1.1065599,1.0904987,-0.22057597,0.3167846,0.6917667,0.380211,1.0730743,-1.1065483,1.0904312,-0.22058487,0.3168106,0.69179535,0.38013458,1.125515,-0.37431574,1.5097824,-3.0802708,0.25615147,-0.4987899,0.34154892,-0.23752165,1.0550003,0.83053744,0.049569454,0.25558922,0.49236625,-0.05587738,-0.14960419,0.06952619,1,0,0,0,0,0,0,0,0,-0.5759001,0.52888393,0.012731552,-4.253891,-7.409632,0.00015497208,0.6692648,-0.5722046,0.5340576,0,-4.2533875,-7.4005127,0,0.64849854
-3.005048,30.857004,13.723363,-28.804234,-0.23634765,-1.3961481,-0.1635221,0.7933659,-0.7552966,0.67472535,-0.257128,0.10234715,0.81533694,0.86145973,1.460124,-0.5812373,1.9588909,0.9702064,1.975326,-0.45690784,1.8186026,1.3861423,-0.5112209,1.8968753,0.99472183,1.9665208,-0.5349816,1.7343744,1.0709084,-1.1026427,1.0913463,-0.23944916,0.28592563,0.69198346,0.38365382,1.0709763,-1.1026382,1.0913849,-0.23946762,0.28591156,0.6919861,0.3835678,1.1101141,-0.37303495,1.5070419,-3.0802708,0.25615147,-0.5481059,0.3412466,-0.23828292,1.05537,0.82793486,0.051397156,0.252831,0.4979544,-0.05956485,-0.1543504,0.07249027,1,0,0,0,0,0,0,0,0,-0.43122768,0.78344345,0.16951561,-3.774637,-6.171793,0.04335642,0.6885648,-0.4196167,0.78201294,0.19073486,-3.7765503,-6.1798096,0.038146973,0.6866455
-3.5011508,30.653746,13.589713,-28.917715,-0.30553523,-1.392811,-0.2036415,0.78667593,-0.75408363,0.6725638,-0.27450097,0.052900426,0.8142053,0.8631223,1.4648099,-0.5866292,1.9641316,0.96727175,1.9718108,-0.45356107,1.8206866,1.3914819,-0.516715,1.902335,0.9934282,1.9677701,-0.53152025,1.7363104,1.0679997,-1.0987973,1.0919303,-0.25876302,0.24992882,0.69231176,0.38723338,1.0679245,-1.0988235,1.0919571,-0.25873184,0.24986267,0.6922722,0.38719177,1.0947132,-0.37175417,1.5040548,-3.0802708,0.25615147,-0.5974219,0.3409257,-0.23906946,1.0557534,0.82533205,0.053180672,0.2500855,0.5034442,-0.06336862,-0.15952714,0.07529741,1,0,0,0,0,0,0,0,0,-0.58174133,0.7690668,0.11680126,-3.8627715,-7.199362,0.06566048,0.7159114,-0.61035156,0.76293945,0.11444092,-3.8528442,-7.209778,0.05722046,0.7247925
-3.8448434,30.394325,13.35037,-28.751663,-0.37735596,-1.358545,-0.24058041,0.78146446,-0.7527835,0.66971374,-0.286344,0.008335516,0.81261545,0.86424947,1.4696283,-0.59199333,1.9693065,0.9647938,1.9686036,-0.4502587,1.8227353,1.3968043,-0.522191,1.9077948,0.9920396,1.9688144,-0.5280565,1.7382654,1.0645325,-1.095176,1.0919826,-0.27774778,0.20888998,0.69272286,0.39095944,1.0644913,-1.0951996,1.0919571,-0.27770996,0.20885468,0.692749,0.39100647,1.0793123,-0.37047338,1.5008211,-3.0802708,0.25615147,-0.6467379,0.34058714,-0.23988438,1.0561486,0.82273495,0.054918468,0.24735859,0.50882703,-0.06697077,-0.16510464,0.07763296,1,0,0,0,0,0,0,0,0,-0.69344044,0.72426796,0.010466576,-3.796953,-8.207768,0.08221865,0.74521303,-0.6866455,0.7247925,0,-3.7956238,-8.201599,0.09536743,0.76293945
-4.6437545,29.400837,12.909699,-29.032858,-0.41912854,-1.3208517,-0.28663316,0.77537984,-0.75406086,0.6659603,-0.30361462,-0.045183674,0.81008506,0.8655603,1.4743423,-0.59759706,1.9743909,0.96167815,1.964296,-0.447048,1.8248215,1.4021068,-0.5276522,1.9132518,0.99055237,1.9696231,-0.52459085,1.7402395,1.060465,-1.0922799,1.09137,-0.29744154,0.16172796,0.6931609,0.39487782,1.0604858,-1.0922432,1.0913849,-0.29745102,0.16174316,0.6931305,0.39482117,1.0639114,-0.3691926,1.4973408,-3.0802708,0.25615147,-0.69605386,0.34022903,-0.24073076,1.0565549,0.8201531,0.056606192,0.24465492,0.51409,-0.07073664,-0.17165998,0.079682134,1,0,0,0,0,0,0,0,0,-0.81350803,0.5792141,-0.12252331,-3.9387524,-9.432403,0.08760691,0.7836759,-0.8010864,0.5912781,-0.11444092,-3.9482117,-9.422302,0.076293945,0.76293945
-4.6138225,29.3592,12.5774975,-28.317184,-0.5262998,-1.2394935,-0.32794288,0.7705089,-0.752916,0.6596321,-0.30870447,-0.101768635,0.8066772,0.8653812,1.4791577,-0.6029438,1.9792149,0.9596819,1.9594462,-0.44392312,1.8267776,1.4073873,-0.53310007,1.9187001,0.988975,1.9701657,-0.5211228,1.7422346,1.0560863,-1.089594,1.0896834,-0.3154561,0.10848008,0.6935755,0.39896813,1.0560989,-1.0895729,1.0896683,-0.31547546,0.10852814,0.69360733,0.39901733,1.0485106,-0.36791182,1.493614,-3.0802708,0.25615147,-0.74536985,0.33985615,-0.24160981,1.0569662,0.81759346,0.058242984,0.24198538,0.51922214,-0.07366093,-0.17829914,0.08071277,1,0,0,0,0,0,0,0,0,-0.8757353,0.5371809,-0.3373146,-3.60291,-10.649577,0.08292198,0.8180618,-0.8773804,0.5340576,-0.34332275,-3.604889,-10.643005,0.09536743,0.8392334
-4.772526,29.329813,12.293314,-27.878843,-0.62005544,-1.176863,-0.370333,0.76362157,-0.75025713,0.6514937,-0.31815213,-0.1586905,0.8023534,0.8680017,1.4837494,-0.6081258,1.9838495,0.95715976,1.9542967,-0.44088748,1.8290348,1.412643,-0.5385336,1.9241332,0.98731226,1.9704156,-0.51765335,1.7442516,1.0510669,-1.0867265,1.0866126,-0.33256474,0.04994777,0.6939078,0.40342754,1.0511398,-1.0867119,1.0866165,-0.33254623,0.049972534,0.69389343,0.40340424,1.0331097,-0.36663103,1.4896405,-3.0802708,0.25615147,-0.79468584,0.33947134,-0.24252367,1.0573791,0.81506425,0.05982584,0.23935868,0.52421224,-0.076025836,-0.18513075,0.0810374,1,0,0,0,0,0,0,0,0,-1.0038853,0.57349205,-0.61416626,-3.4217298,-11.706463,0.06645918,0.8918822,-0.9918213,0.5722046,-0.61035156,-3.414154,-11.711121,0.05722046,0.8773804
-5.031387,29.926065,12.586214,-28.080782,-0.6418813,-1.2398111,-0.37555546,0.75700927,-0.7444261,0.65016985,-0.33638036,-0.1897324,0.80077165,0.8686379,1.4883438,-0.61297625,1.9891502,0.9536742,1.9514424,-0.43757617,1.8311154,1.417871,-0.5439486,1.929551,0.98555845,1.9703765,-0.514182,1.7462925,1.0455154,-1.0830052,1.0836563,-0.35077634,-0.0078385575,0.6942652,0.40818575,1.0456085,-1.0829926,1.0835648,-0.3507614,-0.007820129,0.6942749,0.4081726,1.0177088,-0.36535025,1.4854205,-3.0802708,0.25615147,-0.8440018,0.33907318,-0.24347067,1.0577962,0.8125695,0.061355446,0.2367716,0.52906096,-0.07882873,-0.19197552,0.0818466,1,0,0,0,0,0,0,0,0,-1.1102915,0.7442713,-0.59125423,-3.6423206,-11.557265,0.07147789,0.9516418,-1.1062622,0.74386597,-0.61035156,-3.643036,-11.558533,0.076293945,0.9536743
-4.6352773,30.868523,12.790007,-27.4128,-0.68104935,-1.2408615,-0.36508185,0.7528284,-0.7392532,0.64665014,-0.34286785,-0.21964878,0.8000189,0.8694457,1.4931538,-0.6178739,1.994216,0.95127165,1.9484116,-0.43418008,1.833237,1.4230714,-0.5493416,1.9349536,0.9837188,1.970057,-0.5107087,1.7483591,1.040016,-1.0785829,1.0805608,-0.3678818,-0.063930735,0.69469094,0.41323924,1.0400772,-1.0786057,1.080513,-0.36792755,-0.06389618,0.6946564,0.41332245,1.0023079,-0.36406946,1.4809539,-3.0802708,0.25615147,-0.8933178,0.33866358,-0.24444914,1.0582163,0.8101094,0.062833995,0.23422486,0.53377277,-0.08120227,-0.19836283,0.08240243,1,0,0,0,0,0,0,0,0,-1.0998726,0.8844614,-0.6191015,-3.421092,-11.218435,0.085151196,1.0106981,-1.1062622,0.8773804,-0.61035156,-3.4332275,-11.21521,0.076293945,1.0299683
-5.279629,30.172827,12.436552,-27.588245,-0.67489547,-1.2051811,-0.3830142,0.7440811,-0.7371316,0.6380974,-0.35791716,-0.26220876,0.79621804,0.8712133,1.4974794,-0.6230548,1.9987633,0.9479271,1.9438361,-0.4310869,1.8354805,1.4282403,-0.5547127,1.9403352,0.98179144,1.9694524,-0.5072335,1.7504524,1.0337399,-1.074193,1.0762876,-0.38543934,-0.12093644,0.6949963,0.4185928,1.033783,-1.0742188,1.0763168,-0.38547516,-0.1209259,0.69503784,0.41866302,0.9869065,-0.36278868,1.4762408,-3.0802708,0.25615147,-0.9426338,0.33823872,-0.2454648,1.0586386,0.8076905,0.06426347,0.23171854,0.53834265,-0.0837131,-0.20564708,0.082787566,1,0,0,0,0,0,0,0,0,-1.2552261,0.8779764,-0.85463524,-3.5115063,-11.40114,0.06107092,1.070714,-1.2588501,0.8773804,-0.8392334,-3.5095215,-11.405945,0.076293945,1.0681152
-4.5315924,31.97674,13.036965,-26.873283,-0.71979606,-1.2609813,-0.35958084,0.74357235,-0.7279356,0.63663965,-0.36830682,-0.28201512,0.79527515,0.87180746,1.5025976,-0.62750626,2.0039992,0.9449608,1.9412509,-0.42770597,1.8376331,1.4333816,-0.5600552,1.9456967,0.97977823,1.9685798,-0.5037569,1.7525734,1.0283355,-1.0685118,1.0722628,-0.40268508,-0.17457008,0.6953041,0.42419216,1.0282516,-1.0684967,1.0723114,-0.4026413,-0.1745224,0.69532394,0.42419434,0.97150517,-0.3615079,1.471281,-3.0802708,0.25615147,-0.9919498,0.33780622,-0.24651074,1.0590637,0.8053103,0.065645285,0.22925067,0.54278,-0.085900985,-0.2119127,0.08338807,1,0,0,0,0,0,0,0,0,-1.0808945,1.1362314,-0.80497265,-3.449148,-10.726729,0.061559677,1.11987,-1.1062622,1.1444092,-0.8010864,-3.4332275,-10.719299,0.05722046,1.1062622
-6.1637573,29.360874,11.923181,-27.507124,-0.65069693,-1.1418662,-0.39130333,0.7237708,-0.73072386,0.624393,-0.37859792,-0.3271252,0.78934616,0.872724,1.5057586,-0.63312757,2.008136,0.94191843,1.9358673,-0.42482227,1.8398458,1.4384818,-0.5653748,1.9510287,0.9776806,1.9674315,-0.50028026,1.754723,1.0200545,-1.0639395,1.0664674,-0.41954213,-0.22973858,0.6953389,0.43000183,1.02005,-1.0639191,1.0663986,-0.41952133,-0.22964478,0.69532394,0.42991638,0.9561038,-0.3602271,1.4660747,-3.0802708,0.25615147,-1.0412658,0.33735847,-0.24759912,1.0594884,0.80297816,0.066985056,0.22682133,0.5470749,-0.0884529,-0.22046354,0.08322411,1,0,0,0,0,0,0,0,0,-1.6561985,0.9144783,-1.1590719,-3.3714116,-11.033699,0.0069618225,1.161933,-1.6403198,0.91552734,-1.1825562,-3.376007,-11.024475,0,1.1444092
