Afshin1997/kuka_rl_ros2/src/catch_and_throw/input_files/idealpd/ft_idealpd_4.csv
torque0,torque1,torque2,torque3,torque4,torque5,torque6,action0,action1,action2,action3,action4,action5,action6,set_target_0,set_target_1,set_target_2,set_target_3,set_target_4,set_target_5,set_target_6,joint_pos_0,joint_pos_1,joint_pos_2,joint_pos_3,joint_pos_4,joint_pos_5,joint_pos_6,joint_vel_0,joint_vel_1,joint_vel_2,joint_vel_3,joint_vel_4,joint_vel_5,joint_vel_6,tennisball_pos_0,tennisball_pos_1,tennisball_pos_2,tennisball_lin_vel_0,tennisball_lin_vel_1,tennisball_lin_vel_2,end_effector_pos_0,end_effector_pos_1,end_effector_pos_2,end_effector_rot_0,end_effector_rot_1,end_effector_rot_2,end_effector_rot_3,end_effector_lin_vel_0,end_effector_lin_vel_1,end_effector_lin_vel_2,obs_task_0,obs_task_1,obs_task_2,obs_task_3,obs_task_4,obs_task_5,to_final_target_0,to_final_target_1,to_final_target_2,joint_acc_0,joint_acc_1,joint_acc_2,joint_acc_3,joint_acc_4,joint_acc_5,joint_acc_6
0,0,0,0,0,0,0,0,0,0,0,0,0,0,0.8032421,-0.010867114,1.3246166,1.2141079,1.6203969,-0.911529,1.5628232,0.8032421,-0.010867114,1.3246166,1.2141079,1.6203969,-0.911529,1.5628232,0,0,0,0,0,0,0,3.5847435,-0.51928806,1.0806701,-3.6188145,0.1414954,4.4705973,0.33430624,-0.32952046,0.91372246,0.7828013,-0.059820306,0.6062703,-0.126807,0,0,0,1,0,0,0,0,0,-4.2847433,0.35928807,-0.5206701,0,0,0,0,0,0,0
-23.83028,-20.440928,-22.452955,-24.215267,4.239682,4.1392617,0.63866127,-0.56474125,0.2705485,-0.35643736,0.3581302,0.8203721,-0.80997235,0.9366288,0.7637102,0.00807128,1.2996659,1.239177,1.677823,-0.9682271,1.6283872,0.8030523,-0.010776239,1.3244964,1.214228,1.6206725,-0.9115967,1.5629014,-0.06327804,0.030290093,-0.03982275,0.040044714,0.0920212,-0.02255279,0.026133664,3.5702686,-0.51872253,1.0984344,-3.6188145,0.1414954,4.4312353,0.33424664,-0.3295865,0.91369545,0.7828239,-0.05968503,0.606258,-0.12678969,-0.019983692,-0.021882026,-0.0088898465,1,0,0,0,0,0,-4.2702684,0.35872254,-0.53843445,-15.827158,7.5710697,-9.937009,10.009615,23.009789,-5.6383944,6.52143
-15.1853285,-2.712379,-13.72291,-30.310184,4.200165,3.0699205,0.4588414,-0.72931135,0.42765906,-0.2573112,0.2939468,0.90110785,-0.9000659,0.9587934,0.7520005,0.019159894,1.3064846,1.2348043,1.68375,-0.9746013,1.6300169,0.802575,-0.010521638,1.3242646,1.2144731,1.6213124,-0.91175836,1.5630807,-0.13799837,0.07476784,-0.06382057,0.06840523,0.18284817,-0.046352547,0.051250607,3.5557938,-0.518157,1.1160413,-3.6188145,0.1414954,4.3918734,0.3341236,-0.3297119,0.91364914,0.78287196,-0.05940027,0.6062295,-0.12676272,-0.034095787,-0.034611896,-0.01253127,1,0,0,0,0,0,-4.2557936,0.358157,-0.5560413,-18.715258,11.117435,-5.9506087,7.089637,22.70159,-5.9389486,6.276309
-6.241507,10.994329,-4.942473,-33.53024,3.9929628,1.9243525,0.37238574,-0.7603082,0.4945643,-0.14162841,0.25372797,0.9072826,-0.9044832,0.9648476,0.7493534,0.02409786,1.3143506,1.2322341,1.6848222,-0.9750722,1.63062,0.8018135,-0.010081622,1.3239843,1.2148088,1.622288,-0.91201156,1.5633563,-0.20796105,0.121750474,-0.07191444,0.08907926,0.26418057,-0.068915784,0.07507404,3.541319,-0.5175915,1.1334907,-3.6188145,0.1414954,4.3525114,0.33396626,-0.3298633,0.9135957,0.7829407,-0.05900853,0.606187,-0.12672423,-0.04104608,-0.03875313,-0.013593924,1,0,0,0,0,0,-4.2413187,0.35759148,-0.5734907,-17.562254,11.745277,-1.9409059,5.1670036,20.32712,-5.6268234,5.9581394
-0.08172804,18.582222,1.0328319,-34.200043,3.7637296,1.108179,0.36192727,-0.7681877,0.515164,-0.02837472,0.25182953,0.9125824,-0.8962981,0.96411806,0.7480403,0.025979858,1.321998,1.2324369,1.6861688,-0.9747524,1.6308446,0.8007926,-0.009462531,1.3237134,1.2152199,1.623563,-0.9123506,1.5637244,-0.27110574,0.16578452,-0.06623685,0.107184075,0.33692855,-0.09002788,0.09759016,3.526844,-0.51702595,1.1507827,-3.6188145,0.1414954,4.3131495,0.3337984,-0.33001447,0.91353863,0.7830291,-0.058541004,0.6061319,-0.12665829,-0.042523973,-0.037352454,-0.014337441,1,0,0,0,0,0,-4.226844,0.35702595,-0.5907827,-15.889778,11.01072,1.5296823,4.5223866,18.18545,-5.265977,5.632851
6.463083,27.098324,7.40684,-35.402996,3.5623946,0.2389409,0.34088805,-0.7827507,0.54147494,0.10966429,0.23803285,0.9140154,-0.8997652,0.9626049,0.74600005,0.028440714,1.3313899,1.2318821,1.6875441,-0.97533417,1.6311067,0.79953516,-0.008673209,1.3235093,1.2156919,1.6251042,-0.91277117,1.5641783,-0.32894817,0.20785427,-0.045622867,0.121621236,0.40159932,-0.11019155,0.11892128,3.5123692,-0.5164604,1.1679171,-3.6188145,0.1414954,4.2737875,0.33364058,-0.3301413,0.91348165,0.78313696,-0.05802875,0.606065,-0.12654792,-0.038333658,-0.029915571,-0.014250014,1,0,0,0,0,0,-4.212369,0.35646042,-0.60791713,-14.594822,10.523066,5.287958,3.6026275,16.17509,-5.0334105,5.3357553
7.26007,26.696722,8.086643,-35.796394,3.5784783,0.11518407,0.3272727,-0.780463,0.54063183,0.1445521,0.22941566,0.9198395,-0.9045988,0.9644203,0.74490273,0.02917102,1.3336279,1.231751,1.689493,-0.97609305,1.6316878,0.798066,-0.007729942,1.323393,1.2162136,1.6268847,-0.9132704,1.5647153,-0.38019356,0.24514744,-0.023364212,0.13332042,0.45954528,-0.12959518,0.13930951,3.4978943,-0.5158949,1.1848942,-3.6188145,0.1414954,4.2344255,0.33350134,-0.33023643,0.91342604,0.7832646,-0.057486955,0.60598564,-0.12638485,-0.033374194,-0.021700986,-0.0137090115,1,0,0,0,0,0,-4.197894,0.3558949,-0.6248942,-12.974157,9.331233,5.7251244,2.9166563,14.499127,-4.84433,5.09955
9.880081,29.333687,10.571783,-35.586037,3.4047885,-0.22975671,0.3201298,-0.78716576,0.5534835,0.2176058,0.2367395,0.91898876,-0.9012514,0.967749,0.7429644,0.0310139,1.3386254,1.2327853,1.691214,-0.976358,1.6324577,0.7964071,-0.006645618,1.3233835,1.2167801,1.628876,-0.91384405,1.5653313,-0.4265446,0.2797397,0.0045550764,0.14434125,0.5107819,-0.1481107,0.15886948,3.4834194,-0.51532936,1.2017138,-3.6188145,0.1414954,4.1950636,0.3333912,-0.330292,0.9133716,0.78341025,-0.056928724,0.6058965,-0.12616186,-0.02587429,-0.011412118,-0.013627727,1,0,0,0,0,0,-4.183419,0.35532936,-0.6417138,-11.769935,8.658855,7.155463,2.745077,12.829928,-4.625529,4.8901734
10.397782,28.946768,10.990231,-35.452698,3.3511138,-0.30062234,0.30840668,-0.7945834,0.55916035,0.25698423,0.2400896,0.92298394,-0.89637434,0.96480024,0.74078625,0.03249561,1.3413724,1.2335863,1.6934849,-0.9765903,1.6328673,0.7945751,-0.0054325256,1.3234884,1.2173876,1.6310561,-0.9144892,1.5660228,-0.46861744,0.31113464,0.033689123,0.15427305,0.5565933,-0.16579519,0.17750303,3.4689445,-0.51476383,1.2183759,-3.6188145,0.1414954,4.1557016,0.33331156,-0.33030558,0.91331714,0.7835727,-0.056361273,0.60579896,-0.12587638,-0.017732305,-0.00084902346,-0.01372279,1,0,0,0,0,0,-4.1689444,0.35476384,-0.6583759,-10.71912,7.8617625,7.4754233,2.4716928,11.479318,-4.418857,4.657089
9.593874,26.677986,10.091816,-35.361343,3.3575761,-0.20037341,0.28945506,-0.7904985,0.5595443,0.25982335,0.23957367,0.921059,-0.9030604,0.96623975,0.73924017,0.03373558,1.341676,1.2341577,1.6955302,-0.97770345,1.6336595,0.7925905,-0.004104154,1.3237001,1.2180303,1.6334031,-0.91520447,1.5667866,-0.5055852,0.3390979,0.059784632,0.16278622,0.5969225,-0.1830361,0.19539432,3.4544697,-0.5141983,1.2348807,-3.6188145,0.1414954,4.1163397,0.33326244,-0.33027983,0.9132617,0.7837498,-0.055789102,0.6056949,-0.12552889,-0.0101717785,0.00885577,-0.013881073,1,0,0,0,0,0,-4.1544695,0.3541983,-0.6748807,-9.461268,7.005438,6.7333555,2.1172462,10.112345,-4.3064427,4.4702587
9.981583,25.987293,10.385669,-34.796722,3.2779148,-0.25981224,0.2927511,-0.79696435,0.55817896,0.3039292,0.25069624,0.921237,-0.9040465,0.97089124,0.736803,0.034968376,1.3449751,1.235579,1.6978897,-0.97848773,1.634749,0.7904686,-0.002673667,1.3240224,1.2187065,1.6358979,-0.91598696,1.5676202,-0.53914547,0.36381808,0.08774844,0.17134039,0.6326361,-0.19970128,0.21266225,3.4399948,-0.5136328,1.251228,-3.6188145,0.1414954,4.0769777,0.33324623,-0.33021426,0.91320455,0.783941,-0.055216517,0.60558504,-0.12511757,-0.0019781822,0.018640218,-0.014649341,1,0,0,0,0,0,-4.1399946,0.35363278,-0.691228,-8.618533,6.196439,7.207781,2.1269543,8.963078,-4.163295,4.312403
10.250935,25.737118,10.572857,-34.983196,3.2582123,-0.29184353,0.27284452,-0.8073753,0.5665377,0.33653718,0.24806896,0.92294574,-0.9025711,0.9681652,0.7339523,0.03698397,1.34758,1.2360713,1.7005041,-0.9791669,1.6353917,0.7882203,-0.0011496741,1.3244573,1.2194132,1.6385233,-0.9168338,1.5685204,-0.57012355,0.38674894,0.11608208,0.17837977,0.6644341,-0.2157557,0.22912817,3.42552,-0.51306725,1.2674178,-3.6188145,0.1414954,4.037616,0.33326483,-0.33010912,0.91314405,0.7841438,-0.054647405,0.605472,-0.12464225,0.006514187,0.028566815,-0.015259976,1,0,0,0,0,0,-4.1255198,0.35306725,-0.7074178,-7.988035,5.7508793,7.3133626,1.7478987,7.9889293,-4.01058,4.110336
11.239856,26.246445,11.460425,-34.330406,3.126266,-0.4190023,0.27607483,-0.8108445,0.57211405,0.384881,0.26347455,0.92321867,-0.90122217,0.9667675,0.73146117,0.03889831,1.351399,1.2378564,1.7031486,-0.9799194,1.6361941,0.7858571,0.00046033505,1.3250114,1.2201494,1.6412652,-0.91774315,1.5694846,-0.59795994,0.40777984,0.14642842,0.18608406,0.69260544,-0.23124704,0.24486855,3.411045,-0.5125017,1.2834502,-3.6188145,0.1414954,3.9982536,0.3333192,-0.32996368,0.91307956,0.7843577,-0.0540863,0.6053567,-0.12410007,0.01617224,0.039013032,-0.016668387,1,0,0,0,0,0,-4.111045,0.35250172,-0.72345024,-7.205516,5.2775736,7.8174915,1.91354,7.087409,-3.8712096,3.9263737
11.208855,25.400883,11.34153,-33.795715,3.0603676,-0.4094715,0.2756522,-0.8113561,0.5766099,0.40948847,0.2770087,0.9280859,-0.89777124,0.9658143,0.72906214,0.040823027,1.3536756,1.23954,1.7062311,-0.9805871,1.6370916,0.78339183,0.0021490376,1.3256847,1.220918,1.6441119,-0.91871256,1.5705088,-0.62265646,0.42700243,0.17588738,0.19415823,0.7180734,-0.24614106,0.25993136,3.3965702,-0.5119362,1.2993251,-3.6188145,0.1414954,3.9588912,0.33341265,-0.32977724,0.9130074,0.7845804,-0.05353614,0.6052419,-0.1234893,0.026027467,0.04912173,-0.018645644,1,0,0,0,0,0,-4.09657,0.3519362,-0.7393251,-6.424874,4.8268433,7.5990777,2.006143,6.41483,-3.7217436,3.7553606
10.682616,23.85128,10.739402,-33.78256,3.079164,-0.3432547,0.2660434,-0.8137821,0.57573926,0.43038937,0.27801993,0.92824244,-0.8985712,0.9682734,0.7264271,0.042450786,1.355812,1.2403795,1.7090888,-0.98161256,1.638288,0.780836,0.0039080004,1.3264714,1.2217163,1.6470511,-0.9197406,1.5715922,-0.6447766,0.4440165,0.20415072,0.20116144,0.740618,-0.2605675,0.27443758,3.3820953,-0.51137066,1.3150426,-3.6188145,0.1414954,3.9195287,0.33354425,-0.32955074,0.9129273,0.7848115,-0.052998587,0.6051278,-0.12281005,0.035502125,0.05867525,-0.020564342,1,0,0,0,0,0,-4.082095,0.35137066,-0.7550426,-5.7902927,4.275858,7.308967,1.7389505,5.686044,-3.6034136,3.6153195
9.386951,21.222136,9.378548,-33.227535,3.0680406,-0.17157328,0.26045966,-0.81456965,0.5743592,0.4304234,0.2899221,0.9279156,-0.90112334,0.9710712,0.7238161,0.044113144,1.3566011,1.2420108,1.7120051,-0.98281926,1.6395671,0.7781991,0.0057289484,1.3273612,1.2225431,1.6500733,-0.92082494,1.5727319,-0.6643808,0.45900843,0.22898433,0.2084469,0.76051676,-0.27457505,0.2884118,3.3676205,-0.51080513,1.3306026,-3.6188145,0.1414954,3.8801663,0.33371162,-0.3292911,0.9128383,0.7850497,-0.052470274,0.60501546,-0.12206588,0.044020712,0.06681935,-0.022991005,1,0,0,0,0,0,-4.0676203,0.35080513,-0.77060264,-5.1651893,3.7710068,6.455846,1.8104687,5.024701,-3.497079,3.4821181
10.109728,22.08908,10.020954,-33.244373,2.9978929,-0.24987197,0.2460179,-0.8231662,0.58950454,0.46197253,0.2952445,0.93087435,-0.8966335,0.9712641,0.7205774,0.046994265,1.3596992,1.2432102,1.7152345,-0.9835893,1.6407204,0.7754878,0.0076100263,1.3283521,1.2233967,1.6531699,-0.92196363,1.5739259,-0.6826115,0.4740553,0.25430134,0.21526104,0.7784602,-0.28796712,0.30178085,3.3531456,-0.5102396,1.3460052,-3.6188145,0.1414954,3.8408039,0.33391476,-0.32899737,0.91274,0.7852931,-0.051954314,0.6049063,-0.12125878,0.05324037,0.075408325,-0.025518827,1,0,0,0,0,0,-4.0531454,0.3502396,-0.7860052,-4.8272905,3.7861464,6.580278,1.6918256,4.5397577,-3.3445952,3.3296196
9.513308,20.336994,9.354554,-32.139435,2.899977,-0.16851819,0.25554892,-0.8180519,0.5870679,0.47387362,0.32053283,0.9279895,-0.89540416,0.97055084,0.71822417,0.04870478,1.3615233,1.245834,1.7181292,-0.9846419,1.6418644,0.7727121,0.009545516,1.3294393,1.2242845,1.6563303,-0.9231543,1.5751714,-0.6980166,0.48717833,0.2777834,0.2238898,0.79400337,-0.3008595,0.31455395,3.3386707,-0.5096741,1.3612504,-3.6188145,0.1414954,3.8014414,0.33415556,-0.32867193,0.912627,0.7855393,-0.051448967,0.604804,-0.12038738,0.062272802,0.08302941,-0.029206928,1,0,0,0,0,0,-4.0386705,0.34967408,-0.8012504,-4.114508,3.3056138,6.115898,2.1463258,3.9399562,-3.2189188,3.179565
8.445149,18.239668,8.233811,-32.032787,2.9340444,-0.02931869,0.24614717,-0.82615215,0.5862335,0.48313364,0.3260394,0.9282865,-0.8970301,0.9724533,0.7148815,0.05058186,1.3632586,1.2471073,1.7213104,-0.9859464,1.6432431,0.7698778,0.0115289055,1.3306142,1.2252039,1.6595471,-0.924395,1.5764664,-0.7124254,0.49877018,0.29939616,0.23193021,0.8077792,-0.31332076,0.32681388,3.3241959,-0.50910854,1.376338,-3.6188145,0.1414954,3.762079,0.33442783,-0.3283186,0.9125007,0.7857878,-0.05095291,0.6047079,-0.11945555,0.070426956,0.08962101,-0.032896474,1,0,0,0,0,0,-4.0241957,0.34910855,-0.816338,-3.8713214,2.923399,5.6544538,1.9997059,3.4978685,-3.1101255,3.051698
7.7616487,16.947615,7.4801893,-31.92778,2.9329507,0.068071604,0.23184441,-0.8259764,0.5923572,0.48074618,0.33318058,0.92923814,-0.9016689,0.96929765,0.71205944,0.052993912,1.3642664,1.2485265,1.7245938,-0.9875119,1.6443173,0.7669915,0.013556909,1.3318664,1.2261556,1.6628153,-0.92568487,1.5778092,-0.7250036,0.50977945,0.31803888,0.23965038,0.82006836,-0.3254353,0.33842963,3.309721,-0.508543,1.3912683,-3.6188145,0.1414954,3.7227166,0.33473206,-0.32794166,0.912358,0.7860367,-0.050463703,0.60462004,-0.11846658,0.07801302,0.09547203,-0.036674485,1,0,0,0,0,0,-4.009721,0.34854302,-0.83126825,-3.4185944,2.7783809,4.916772,1.9200965,3.126174,-3.0225663,2.8911083
6.621304,14.533809,6.2828755,-31.78733,2.9890146,0.20885587,0.22901787,-0.8286381,0.58413285,0.48801318,0.33810043,0.9290089,-0.9026184,0.9660864,0.7089868,0.05444621,1.3660274,1.2498226,1.7278459,-0.9888682,1.6454352,0.76405895,0.015622567,1.3331891,1.227136,1.6661284,-0.92702144,1.5791959,-0.7362584,0.5186605,0.33512568,0.24685654,0.830906,-0.3370907,0.34942245,3.2952461,-0.5079775,1.406041,-3.6188145,0.1414954,3.6833541,0.33506298,-0.32754374,0.91220087,0.7862863,-0.04998155,0.60453886,-0.11742379,0.08466488,0.100286536,-0.04042048,1,0,0,0,0,0,-3.9952462,0.3479775,-0.846041,-3.0923483,2.2465584,4.5328584,1.7925575,2.7623472,-2.9060094,2.7356594
6.683356,14.056635,6.291852,-30.965343,2.8985868,0.20576847,0.24226671,-0.83181137,0.58528495,0.5108889,0.36147016,0.9329695,-0.9014307,0.9708715,0.7058321,0.056592513,1.3689513,1.2524389,1.7314363,-0.9901216,1.6471568,0.7610849,0.017721217,1.3345805,1.2281498,1.6694825,-0.9284033,1.5806254,-0.74633574,0.526699,0.35253447,0.25569615,0.8409397,-0.34822965,0.36002216,3.2807713,-0.50741196,1.4206563,-3.6188145,0.1414954,3.6439917,0.33542252,-0.3271277,0.91202706,0.78653604,-0.049503777,0.6044655,-0.11632662,0.09162996,0.104827605,-0.045042567,1,0,0,0,0,0,-3.9807713,0.34741196,-0.8606563,-2.7897058,2.036303,4.605159,2.2008119,2.5620756,-2.777755,2.6365666
7.091094,14.427867,6.6283216,-30.875244,2.8540678,0.16492748,0.23704349,-0.8341639,0.59336126,0.53151584,0.37197027,0.9377339,-0.8950205,0.96702015,0.70269346,0.059256505,1.3717866,1.2541877,1.7351239,-0.9910548,1.6483169,0.7580737,0.019852098,1.3360425,1.2291998,1.6728737,-0.9298281,1.582096,-0.7553022,0.5347655,0.37001458,0.2645474,0.8503583,-0.35871527,0.3699944,3.2662964,-0.5068464,1.4351143,-3.6188145,0.1414954,3.6046293,0.33580923,-0.32669258,0.91183335,0.7867843,-0.049031306,0.6044019,-0.11517311,0.09901698,0.10957086,-0.04980166,1,0,0,0,0,0,-3.9662964,0.34684643,-0.87511426,-2.512574,2.0440516,4.6225934,2.2031813,2.4101434,-2.6153176,2.4791806
5.910161,12.225391,5.3907914,-30.835218,2.8999214,0.3141855,0.22562194,-0.83645064,0.58899105,0.53010327,0.37663385,0.9313483,-0.9025742,0.97080785,0.69952214,0.061081473,1.3731498,1.2555641,1.7380681,-0.9930083,1.6500525,0.75503004,0.022011127,1.3375674,1.2302822,1.6762974,-0.9312939,1.5836047,-0.76328045,0.5414596,0.3851038,0.27275947,0.8579714,-0.36895376,0.37958953,3.2518215,-0.5062809,1.4494146,-3.6188145,0.1414954,3.5652668,0.33622503,-0.32624125,0.9116213,0.7870308,-0.048563216,0.6043471,-0.1139678,0.10537258,0.113253124,-0.054496784,1,0,0,0,0,0,-3.9518216,0.3462809,-0.8894146,-2.2703705,1.701176,4.030123,2.0441263,1.9574164,-2.5519726,2.3856907
4.8624544,10.161222,4.2922063,-30.756594,2.9627059,0.4456159,0.22442365,-0.8423884,0.58303493,0.53560734,0.38300654,0.9360506,-0.9017795,0.9692248,0.69606286,0.06282357,1.37506,1.2570926,1.7418209,-0.99441844,1.6514504,0.7519554,0.024192732,1.3391477,1.231397,1.6797516,-0.9327988,1.5851506,-0.77077943,0.5467544,0.39884827,0.28062108,0.86523026,-0.378699,0.38865882,3.2373466,-0.50571537,1.4635576,-3.6188145,0.1414954,3.5259044,0.33666182,-0.3257792,0.9113908,0.787276,-0.04809554,0.6043003,-0.11271376,0.11083623,0.11601084,-0.059082083,1,0,0,0,0,0,-3.9373467,0.34571537,-0.9035576,-2.1533368,1.3514458,3.6970673,1.9569694,1.8675624,-2.4277267,2.255052
5.008305,9.98598,4.3816223,-30.319443,2.8970942,0.43004233,0.2271616,-0.8433186,0.58410865,0.55316764,0.39898807,0.93367606,-0.9050776,0.97340643,0.69292307,0.06508034,1.3778694,1.2593262,1.745109,-0.99615425,1.6532891,0.74885404,0.02639414,1.3407842,1.2325462,1.6832306,-0.93434185,1.5867308,-0.7772598,0.55159235,0.4127273,0.28926808,0.87139386,-0.3880771,0.3973721,3.2228718,-0.50514984,1.4775431,-3.6188145,0.1414954,3.486542,0.33712244,-0.32530546,0.91114026,0.78751844,-0.04762942,0.60426295,-0.11141076,0.11656891,0.118698336,-0.064176455,1,0,0,0,0,0,-3.9228718,0.34514984,-0.9175431,-1.8935798,1.2375413,3.7254243,2.1531432,1.5943347,-2.3364422,2.165526
3.8283308,7.8330784,3.1248417,-30.669586,3.0071654,0.5791536,0.2145466,-0.8409168,0.57776684,0.54414904,0.3964275,0.9348465,-0.90281963,0.97060275,0.68998986,0.06683782,1.3788747,1.2602961,1.7486699,-0.9975392,1.654673,0.7457303,0.028611194,1.3424674,1.233725,1.6867325,-0.93592066,1.5883445,-0.7825163,0.5551921,0.42381424,0.29654416,0.87697715,-0.39692423,0.40554872,3.208397,-0.5045843,1.4913712,-3.6188145,0.1414954,3.4471796,0.33760118,-0.32482362,0.91087115,0.7877588,-0.047163136,0.60423315,-0.110062644,0.12115187,0.12047355,-0.06869361,1,0,0,0,0,0,-3.908397,0.34458432,-0.93137115,-1.5962719,0.92810386,3.0363648,1.811236,1.4475881,-2.2016463,2.0326076
3.6231987,7.2403126,2.8531666,-30.738892,3.02294,0.60433793,0.20819569,-0.84410936,0.57755655,0.5536334,0.40073025,0.93573534,-0.9091427,0.97044206,0.68664265,0.06904015,1.3812218,1.2617761,1.752234,-0.99956065,1.6562754,0.742587,0.030841406,1.3441936,1.2349313,1.6902554,-0.9375343,1.5899905,-0.7872921,0.5583769,0.43448076,0.30339798,0.88202363,-0.40549272,0.41327542,3.193922,-0.5040188,1.5050418,-3.6188145,0.1414954,3.4078171,0.33809805,-0.32433486,0.9105848,0.7879972,-0.046696056,0.60421056,-0.10867116,0.12554532,0.12207193,-0.073097475,1,0,0,0,0,0,-3.893922,0.3440188,-0.94504184,-1.4780163,0.8246898,2.932608,1.7053186,1.3133286,-2.1323857,1.9206702
3.7606301,7.220905,2.929106,-30.732582,3.00552,0.5918141,0.2027466,-0.8501888,0.5799686,0.57096225,0.4069746,0.93620056,-0.9063252,0.9684064,0.68307376,0.07143921,1.384161,1.2634196,1.7557894,-1.000977,1.657779,0.7394246,0.033084124,1.3459646,1.2361645,1.6937964,-0.9391803,1.5916651,-0.7919551,0.56148636,0.44564527,0.310101,0.88655245,-0.41353384,0.42051712,3.1794472,-0.50345325,1.5185549,-3.6188145,0.1414954,3.3684547,0.338614,-0.3238399,0.91028094,0.788233,-0.04622891,0.60419494,-0.10723831,0.1300936,0.12371984,-0.07752195,1,0,0,0,0,0,-3.8794472,0.34345326,-0.9585549,-1.449108,0.8063316,3.0555277,1.6667842,1.184821,-2.0018666,1.7995535
3.6202521,6.606533,2.7335625,-30.456223,2.9826865,0.60946184,0.20443882,-0.85056007,0.57711613,0.583532,0.41813165,0.93423474,-0.9061463,0.9682555,0.6798854,0.07348225,1.3868117,1.2654337,1.7591928,-1.0026106,1.659443,0.736246,0.0353373,1.3477794,1.2374262,1.6973536,-0.94085735,1.5933675,-0.7958654,0.5639373,0.45670992,0.3172233,0.890349,-0.4211408,0.4273493,3.1649723,-0.5028877,1.5319107,-3.6188145,0.1414954,3.3290923,0.3391471,-0.32333922,0.9099582,0.78846574,-0.04576125,0.6041868,-0.10576383,0.13460673,0.12513603,-0.082220525,1,0,0,0,0,0,-3.8649724,0.34288773,-0.97191066,-1.2576281,0.64176315,3.0273347,1.7716138,1.0020136,-1.8932818,1.6967653
3.075789,5.614046,2.1045587,-30.84197,3.0462296,0.67849725,0.1896857,-0.85097927,0.5769301,0.5806855,0.41504243,0.93239665,-0.9118552,0.9723088,0.67667747,0.07572241,1.3884274,1.2664791,1.7626214,-1.0046872,1.661429,0.73305357,0.037599415,1.3496324,1.2387127,1.7009242,-0.94256395,1.5950965,-0.79915863,0.5661018,0.4660111,0.3231305,0.89350915,-0.42848447,0.43390802,3.1504974,-0.5023222,1.545109,-3.6188145,0.1414954,3.2897298,0.3396964,-0.322834,0.90961814,0.788695,-0.045292612,0.6041857,-0.104251675,0.13852043,0.12617728,-0.086436,1,0,0,0,0,0,-3.8504975,0.3423222,-0.98510903,-1.1097192,0.5705058,2.5922356,1.4675556,0.84212416,-1.8274336,1.6297548
2.908308,4.943521,1.8874136,-30.570303,3.0345032,0.69860953,0.1937992,-0.8533097,0.57270616,0.59504855,0.42560226,0.93311447,-0.9079608,0.9680444,0.6733219,0.07768884,1.3912858,1.2685049,1.7662421,-1.0061212,1.6628596,0.7298492,0.039868057,1.3515235,1.240024,1.7045071,-0.9442987,1.5968503,-0.8020808,0.5675571,0.47564107,0.32950288,0.89639515,-0.43530074,0.43996564,3.1360226,-0.50175667,1.5581498,-3.6188145,0.1414954,3.2503674,0.34026146,-0.3223257,0.9092607,0.7889211,-0.044822466,0.604191,-0.10270158,0.14237827,0.12698133,-0.09088417,1,0,0,0,0,0,-3.8360226,0.34175667,-0.9981498,-1.0128616,0.3932416,2.6703773,1.5836953,0.773549,-1.6958563,1.5043466
2.5571263,4.0157166,1.4519273,-30.837975,3.104758,0.735702,0.1922869,-0.8509739,0.56720036,0.60020614,0.42497241,0.9376701,-0.91011935,0.97039247,0.67028105,0.07957208,1.393538,1.269772,1.770144,-1.008007,1.6647778,0.7266358,0.042140216,1.3534518,1.2413591,1.7081015,-0.94605917,1.5986279,-0.8041922,0.5682387,0.48457882,0.33504313,0.8994684,-0.44177172,0.44572914,3.1215477,-0.50119114,1.5710332,-3.6188145,0.1414954,3.211005,0.34084082,-0.32181358,0.9088865,0.78914434,-0.044350635,0.6042019,-0.10111412,0.1458474,0.12760009,-0.094913475,1,0,0,0,0,0,-3.8215477,0.34119114,-1.0110333,-0.8141696,0.20000337,2.5009809,1.3756602,0.8198022,-1.6090869,1.4315693
2.5837889,3.8404045,1.4218745,-30.583492,3.0583444,0.7364123,0.18964364,-0.8491337,0.5676657,0.60694456,0.43543622,0.93267405,-0.91129607,0.9734334,0.66719645,0.081876814,1.3959379,1.2718396,1.7733887,-1.0098499,1.6667683,0.72341573,0.044415027,1.3554145,1.2427171,1.7117054,-0.9478449,1.6004275,-0.8056171,0.5688995,0.49306118,0.3411011,0.9016443,-0.44787666,0.4512225,3.1070728,-0.5006256,1.5837592,-3.6188145,0.1414954,3.1716425,0.341434,-0.32129955,0.90849525,0.78936493,-0.043877073,0.6042179,-0.099490754,0.1494089,0.12810807,-0.09927234,1,0,0,0,0,0,-3.8070729,0.3406256,-1.0237591,-0.63794845,0.19487737,2.382457,1.5047638,0.5958676,-1.5181153,1.363769
2.1445448,3.0417109,0.9031849,-30.977592,3.1278372,0.7924812,0.17788103,-0.8557727,0.5676296,0.6108329,0.4318992,0.9365864,-0.91091424,0.97116274,0.66351163,0.08414909,1.3981729,1.27295,1.7772665,-1.011609,1.6684089,0.720189,0.046692282,1.3574086,1.2440971,1.7153189,-0.94965357,1.6022481,-0.80742663,0.56948626,0.50086695,0.3460514,0.9040191,-0.45358348,0.4563136,3.092598,-0.5000601,1.5963277,-3.6188145,0.1414954,3.13228,0.34204054,-0.32078528,0.9080879,0.789582,-0.043400254,0.6042392,-0.097834334,0.1524773,0.12833814,-0.10310773,1,0,0,0,0,0,-3.792598,0.34006009,-1.0363276,-0.7383823,0.17675756,2.216637,1.2268572,0.6449818,-1.4198272,1.2648253
1.6505634,1.9068964,0.30850172,-31.51802,3.2299857,0.8426322,0.16705489,-0.85599464,0.56031007,0.61455655,0.42289636,0.9362298,-0.9162528,0.9679775,0.6602694,0.085913986,1.4004276,1.2736999,1.7808551,-1.0137913,1.6700065,0.716956,0.04896924,1.3594323,1.2454914,1.718941,-0.95148414,1.6040877,-0.80886966,0.5691911,0.50806147,0.3494152,0.90609235,-0.45907292,0.46100074,3.078123,-0.49949408,1.6087388,-3.6188145,0.1414954,3.0929177,0.3426571,-0.32026982,0.9076676,0.7897971,-0.04292233,0.60426295,-0.096147686,0.15496068,0.12836184,-0.10622677,1,0,0,0,0,0,-3.7781231,0.33949408,-1.0487387,-0.65353507,-0.043392178,2.069771,0.8300244,0.5691051,-1.3653337,1.1649578
1.4321963,1.324844,0.02998662,-31.454205,3.2388387,0.86962074,0.1675717,-0.8591016,0.55790883,0.62171847,0.42687982,0.9374127,-0.9158731,0.97501636,0.6568189,0.08802286,1.4029527,1.275373,1.7845598,-1.0155953,1.6723388,0.71371734,0.05124429,1.3614846,1.246899,1.7225707,-0.9533357,1.6059455,-0.81028426,0.56866133,0.5150728,0.35284,0.9080729,-0.4641908,0.4655851,3.0636482,-0.49892807,1.6209923,-3.6188145,0.1414954,3.0535553,0.34328318,-0.31975508,0.90723515,0.7900104,-0.04244228,0.6042886,-0.09443206,0.15727189,0.12816618,-0.10936585,1,0,0,0,0,0,-3.7636483,0.33892807,-1.0609922,-0.6434917,-0.10198354,2.0208654,0.84470206,0.54541224,-1.273319,1.1398791
1.3038169,0.8238833,-0.16408122,-31.360477,3.2395306,0.88392556,0.16686009,-0.8570806,0.55425763,0.62709206,0.4318667,0.9376214,-0.9138799,0.9701806,0.6537217,0.09004232,1.4053811,1.2771297,1.7882042,-1.0173073,1.6738582,0.71047485,0.05351618,1.3635637,1.2483219,1.726208,-0.9552068,1.6078204,-0.8111073,0.5677825,0.52173257,0.35643694,0.90986335,-0.46890634,0.46973568,3.0491734,-0.49836206,1.6330885,-3.6188145,0.1414954,3.0141928,0.3439188,-0.31924176,0.9067891,0.7902216,-0.041958973,0.60431635,-0.092687674,0.15949231,0.1278244,-0.11257382,1,0,0,0,0,0,-3.7491734,0.33836207,-1.0730884,-0.49272177,-0.18930434,1.9300579,0.8874982,0.49746034,-1.1729895,1.0317414
0.8376132,-0.20714557,-0.7042192,-31.479704,3.2828836,0.93531704,0.16148983,-0.8583068,0.5476761,0.63029736,0.43094727,0.93406564,-0.91677964,0.972276,0.65039337,0.09185351,1.4076844,1.2784882,1.7915926,-1.0193814,1.6758797,0.7072295,0.055782616,1.3656675,1.2497572,1.729851,-0.95709556,1.6097106,-0.8117941,0.5662646,0.5278664,0.35953194,0.9110632,-0.473368,0.47366735,3.0346985,-0.49779606,1.6450272,-3.6188145,0.1414954,2.9748304,0.34456158,-0.31873083,0.9063314,0.79043084,-0.04147233,0.60434514,-0.09091741,0.16126229,0.1271444,-0.11557372,1,0,0,0,0,0,-3.7346985,0.33779606,-1.0850272,-0.4586577,-0.34907457,1.7983912,0.761792,0.34895536,-1.1096148,0.97781414
0.34103173,-1.2559597,-1.265872,-31.485548,3.3250012,0.9939073,0.16046873,-0.860047,0.54160947,0.6321741,0.43292078,0.9367244,-0.9134018,0.9694458,0.6470262,0.09369528,1.4099196,1.2800616,1.7954217,-1.0210336,1.6775718,0.7039813,0.058041453,1.3677951,1.2512039,1.7334998,-0.959001,1.611616,-0.8124226,0.5642356,0.53339237,0.36251634,0.9124348,-0.47740766,0.47724962,3.0202236,-0.49723005,1.6568084,-3.6188145,0.1414954,2.935468,0.34520912,-0.318223,0.9058624,0.790639,-0.040981192,0.60437405,-0.0891212,0.16258408,0.12605898,-0.11844713,1,0,0,0,0,0,-3.7202237,0.33723006,-1.0968084,-0.441879,-0.47698614,1.6442834,0.7338821,0.3905296,-1.004368,0.8914768
0.28376293,-1.3827381,-1.4021268,-31.641628,3.3278646,1.0032513,0.14950347,-0.8625123,0.5438317,0.63210887,0.43226513,0.9346521,-0.91943645,0.97261286,0.6436054,0.09610967,1.4120427,1.2814624,1.7989254,-1.0233616,1.679699,0.7007307,0.060293615,1.3699428,1.2526621,1.7371523,-0.96092266,1.6135348,-0.8130969,0.56268185,0.5381779,0.36511427,0.91343445,-0.48131365,0.48066622,3.0057487,-0.49666405,1.6684322,-3.6188145,0.1414954,2.8961055,0.3458643,-0.31771994,0.9053818,0.79084474,-0.04048543,0.6044036,-0.08730216,0.16380736,0.12492558,-0.12118877,1,0,0,0,0,0,-3.7057488,0.33666405,-1.1084323,-0.4519224,-0.35792586,1.4570652,0.6362348,0.29745695,-0.9725242,0.85096055
0.4379557,-1.6418152,-1.3016968,-31.443127,3.3202884,0.97372067,0.1602051,-0.8608129,0.53543407,0.64875597,0.43892542,0.9364539,-0.9169496,0.97136813,0.6404738,0.097774,1.4153557,1.2833868,1.8027041,-1.0251092,1.6815306,0.69747865,0.06253725,1.3721124,1.2541317,1.7408097,-0.9628586,1.615467,-0.8133311,0.56035966,0.544164,0.3681912,0.91453886,-0.48485303,0.4838014,2.9912739,-0.49609804,1.6798985,-3.6188145,0.1414954,2.856743,0.34652328,-0.3172214,0.90488976,0.791049,-0.03998467,0.604433,-0.08545945,0.16523625,0.123909146,-0.12410473,1,0,0,0,0,0,-3.691274,0.33609805,-1.1198986,-0.3367364,-0.5501508,1.7521082,0.75598055,0.32413003,-0.8807778,0.7799267
0.185187,-2.0620046,-1.6292036,-31.558998,3.33084,1.0093663,0.14953136,-0.8633106,0.5364966,0.64618367,0.4388779,0.9338655,-0.91728836,0.9754766,0.63704693,0.10009201,1.4173453,1.2848531,1.8061802,-1.0270689,1.6837503,0.6942252,0.064772725,1.374303,1.2556127,1.7444689,-0.96480745,1.6174115,-0.8136773,0.55841446,0.5490977,0.370942,0.91524327,-0.488118,0.48681936,2.976799,-0.49553204,1.6912074,-3.6188145,0.1414954,2.8173807,0.34718704,-0.3167274,0.9043865,0.79125077,-0.039478526,0.60446286,-0.08359506,0.16640179,0.12266097,-0.12689883,1,0,0,0,0,0,-3.676799,0.33553204,-1.1312075,-0.36263463,-0.4558265,1.4865397,0.6735473,0.2233982,-0.81345433,0.7517635
0.5779245,-1.6453738,-1.34466,-31.963955,3.3521912,0.9593359,0.14103776,-0.86140335,0.53773314,0.65356326,0.43356007,0.93652636,-0.91452765,0.9706552,0.633927,0.10241404,1.4200524,1.285962,1.8100258,-1.0288243,1.6853573,0.69097173,0.06700152,1.3765136,1.2571024,1.748132,-0.9667687,1.6193675,-0.81364477,0.5568257,0.55422175,0.3728131,0.91618717,-0.491044,0.4894778,2.9623241,-0.49496603,1.7023588,-3.6188145,0.1414954,2.7780182,0.347857,-0.3162372,0.90387315,0.79145056,-0.03896813,0.6044923,-0.08170966,0.16781902,0.12183149,-0.12929189,1,0,0,0,0,0,-3.6623242,0.33496603,-1.1423588,-0.26920435,-0.3661513,1.533985,0.45259294,0.28452274,-0.73035055,0.66225225
0.4668782,-2.200885,-1.4745188,-31.487967,3.3210106,0.96308017,0.15371114,-0.8641336,0.5305637,0.66809976,0.44517407,0.9370798,-0.9203889,0.97307956,0.6304824,0.10414098,1.4232806,1.2882645,1.8137276,-1.0311959,1.6874831,0.6877178,0.06922209,1.378748,1.2586025,1.7517989,-0.96874183,1.621333,-0.81375843,0.55460817,0.56028104,0.3758003,0.9171004,-0.49388662,0.4920017,2.9478493,-0.49440002,1.7133528,-3.6188145,0.1414954,2.7386558,0.3485322,-0.31575084,0.9033488,0.79164827,-0.0384543,0.6045211,-0.07980203,0.16926946,0.120817475,-0.13216493,1,0,0,0,0,0,-3.6478493,0.33440003,-1.1533527,-0.29706952,-0.52374595,1.759827,0.73163205,0.2763271,-0.7094442,0.6282329
-0.26083747,-3.5901384,-2.2829964,-31.687681,3.39626,1.0470896,0.1469976,-0.8667648,0.52274203,0.6662499,0.44190258,0.93613255,-0.9151892,0.9722886,0.62704426,0.10581404,1.4253856,1.2895356,1.8173281,-1.0328051,1.6893932,0.6844634,0.071431875,1.3810035,1.2601131,1.7554696,-0.970725,1.6233081,-0.81404036,0.5517601,0.56538874,0.37811205,0.9178166,-0.4963326,0.49430752,2.9333744,-0.49383402,1.7241894,-3.6188145,0.1414954,2.6992934,0.34921122,-0.31526995,0.9028141,0.7918447,-0.037934072,0.60454816,-0.07787352,0.17000906,0.11927034,-0.13466834,1,0,0,0,0,0,-3.6333745,0.33383402,-1.1641893,-0.33864376,-0.68151945,1.5214382,0.5626231,0.22554396,-0.6101876,0.57494634
0.19432747,-2.9703808,-1.8589258,-31.335115,3.3208518,0.9935284,0.15080123,-0.8686892,0.5259196,0.67773086,0.45339873,0.9397883,-0.9202448,0.9664762,0.62365514,0.10824625,1.4284446,1.291851,1.8212547,-1.0351422,1.6909614,0.68120706,0.07363224,1.3832818,1.2616361,1.7591441,-0.9727177,1.6252917,-0.8143725,0.549584,0.57112473,0.38148752,0.9188825,-0.4986976,0.49625853,2.9188995,-0.493268,1.7348684,-3.6188145,0.1414954,2.659931,0.34989405,-0.31479502,0.9022677,0.7920389,-0.037407417,0.6045746,-0.07592442,0.1712562,0.11796272,-0.13766003,1,0,0,0,0,0,-3.6188996,0.33326802,-1.1748683,-0.34251806,-0.51349396,1.6697942,0.82775944,0.3136694,-0.5913525,0.48591194
-0.8945667,-5.0264935,-3.0634503,-31.854471,3.4687338,1.1092577,0.14150779,-0.8706174,0.5137401,0.6701197,0.44268018,0.93926185,-0.92563754,0.97198844,0.6202638,0.10959405,1.4301902,1.2926238,1.8248924,-1.0375123,1.6933309,0.6779493,0.075820565,1.3855783,1.2631677,1.7628224,-0.97471946,1.627283,-0.8148007,0.5462846,0.5753325,0.3833108,0.9197767,-0.5009893,0.49820498,2.9044247,-0.492702,1.74539,-3.6188145,0.1414954,2.6205685,0.35058022,-0.31432676,0.9017121,0.7922321,-0.036873907,0.60459816,-0.07395728,0.17136222,0.11598706,-0.13983853,1,0,0,0,0,0,-3.6044247,0.332702,-1.18539,-0.37029383,-0.79444045,1.2914239,0.43979284,0.2683997,-0.57223433,0.486657
-0.5240908,-4.6235294,-2.7466087,-31.68441,3.4134755,1.0678965,0.14151064,-0.8684855,0.51321584,0.6780722,0.4486343,0.93546814,-0.91622055,0.9738366,0.6171553,0.11174567,1.4330434,1.2945721,1.8283051,-1.038855,1.6954515,0.6746911,0.07799661,1.3878919,1.2647079,1.7665026,-0.97672886,1.6292819,-0.8148372,0.54329294,0.57990324,0.3856423,0.92016506,-0.5028023,0.50003123,2.8899498,-0.492136,1.7557542,-3.6188145,0.1414954,2.581206,0.35126638,-0.31386638,0.9011469,0.79242367,-0.036333002,0.60461926,-0.0719734,0.17186023,0.11421316,-0.14230298,1,0,0,0,0,0,-3.5899498,0.332136,-1.1957543,-0.26628372,-0.71752065,1.3758837,0.5663484,0.1426339,-0.4534125,0.45615432
-0.33943006,-4.7863607,-2.6301801,-31.70359,3.426466,1.0283219,0.14664221,-0.8679529,0.5049686,0.69391114,0.4505823,0.9380152,-0.9224492,0.96496034,0.6139344,0.113344416,1.4364656,1.2962487,1.8321637,-1.0413003,1.6968291,0.6714333,0.08015895,1.3902274,1.2662576,1.7701848,-0.9787454,1.6312865,-0.814725,0.5397097,0.58569866,0.38797176,0.9208176,-0.50459576,0.5014425,2.875475,-0.49157,1.7659609,-3.6188145,0.1414954,2.5418437,0.35195637,-0.31341243,0.9005718,0.7926135,-0.035786204,0.60463804,-0.06997035,0.17252134,0.11267597,-0.1447217,1,0,0,0,0,0,-3.575475,0.33157,-1.205961,-0.22587179,-0.86537,1.6785263,0.5657672,0.20962952,-0.44852492,0.35178658
-1.219921,-6.5313663,-3.5808895,-31.79032,3.5138283,1.1212399,0.14708988,-0.87065154,0.4915836,0.6940857,0.44879508,0.93705446,-0.9212053,0.9701085,0.6104877,0.1145698,1.4388134,1.2976733,1.8357786,-1.0432298,1.6991941,0.6681751,0.08230358,1.3925849,1.267816,1.7738688,-0.9807686,1.6332968,-0.81486183,0.53502333,0.59084904,0.38988408,0.9213028,-0.5061506,0.502857,2.861,-0.491004,1.7760103,-3.6188145,0.1414954,2.5024812,0.3526454,-0.3129661,0.8999878,0.79280335,-0.03523212,0.6046524,-0.06794879,0.17235717,0.11050733,-0.146837,1,0,0,0,0,0,-3.561,0.331004,-1.2160103,-0.28568503,-1.1415778,1.5153586,0.46189126,0.16590951,-0.38772818,0.35348532
-1.4838053,-7.175794,-3.9234502,-31.917702,3.5480046,1.1458609,0.14281875,-0.8718776,0.48477438,0.696444,0.44708526,0.93543565,-0.92093587,0.9711325,0.60714364,0.11623779,1.441336,1.299112,1.8393493,-1.0452341,1.7012761,0.6649159,0.08442879,1.3949615,1.26938,1.7775548,-0.98279756,1.635312,-0.81507236,0.53009456,0.59568816,0.39144683,0.9215716,-0.50751036,0.5041521,2.8465252,-0.49043798,1.785902,-3.6188145,0.1414954,2.4631188,0.353333,-0.31252956,0.8993962,0.7929934,-0.03467015,0.6046611,-0.06591078,0.17191856,0.10817337,-0.14875872,1,0,0,0,0,0,-3.5465252,0.330438,-1.2259021,-0.30094382,-1.2022554,1.4342664,0.37430224,0.11119246,-0.339061,0.32418963
-1.6604409,-7.694236,-4.1255865,-31.55959,3.522583,1.161667,0.14904523,-0.8713624,0.47702557,0.70148915,0.4562342,0.93314326,-0.9193905,0.9725095,0.6039206,0.117820576,1.4440657,1.3013164,1.8428748,-1.0471549,1.7033876,0.66165626,0.08653331,1.3973571,1.2709535,1.7812407,-0.9848308,1.6373328,-0.81514424,0.5248439,0.600545,0.39392075,0.92157274,-0.5086488,0.50534165,2.8320503,-0.48987198,1.7956364,-3.6188145,0.1414954,2.4237564,0.3540187,-0.31210232,0.89879566,0.7931831,-0.034098167,0.60466534,-0.0638558,0.1714089,0.10560806,-0.15105262,1,0,0,0,0,0,-3.5320504,0.32987198,-1.2356365,-0.25853512,-1.2831985,1.4317333,0.6023645,0.04342198,-0.28303263,0.29757616
-1.3356237,-7.224535,-3.858824,-31.51899,3.494262,1.1253936,0.14941078,-0.8726728,0.4789094,0.70685905,0.46105626,0.9392214,-0.9184098,0.9738704,0.6005692,0.12005697,1.4468372,1.3032274,1.8469862,-1.0491195,1.7055037,0.6583961,0.08861917,1.3997737,1.2725376,1.7849286,-0.98686785,1.6393574,-0.8153218,0.5203879,0.60547864,0.39671564,0.9222797,-0.50959706,0.50642854,2.8175755,-0.48930597,1.8052133,-3.6188145,0.1414954,2.384394,0.35470438,-0.3116851,0.89818573,0.7933725,-0.03351689,0.6046647,-0.06178343,0.17120372,0.103254884,-0.15344848,1,0,0,0,0,0,-3.5175755,0.32930598,-1.2452133,-0.2788603,-1.0844468,1.4445482,0.6818324,0.22026895,-0.23680924,0.27215478
-1.1362957,-7.471322,-3.8144875,-32.231506,3.5875974,1.0769871,0.14335296,-0.86930007,0.4678893,0.7192924,0.44787666,0.94018465,-0.9208703,0.9701233,0.59754515,0.121371426,1.4501241,1.3038889,1.8507415,-1.0513288,1.7072661,0.65513647,0.09068501,1.4022123,1.2741274,1.7886202,-0.9889087,1.6413859,-0.8151027,0.5151948,0.6112992,0.3977712,0.9230413,-0.51046586,0.5072826,2.8031006,-0.48873997,1.8146328,-3.6188145,0.1414954,2.3450315,0.3553877,-0.31127548,0.8975686,0.7935627,-0.032928295,0.60465735,-0.059693817,0.1709857,0.10136435,-0.15501682,1,0,0,0,0,0,-3.5031006,0.32873997,-1.2546327,-0.18316506,-1.2682377,1.6683637,0.24671851,0.23534892,-0.21719931,0.21386145
-1.5320591,-8.158293,-4.250383,-32.075176,3.584266,1.1224674,0.13954341,-0.8727802,0.4633324,0.7188423,0.45131773,0.93642265,-0.9233164,0.9735039,0.5940418,0.12311828,1.4525312,1.3057196,1.8541698,-1.0535408,1.7095312,0.6518768,0.092730284,1.4046727,1.2757229,1.7923129,-0.9909529,1.6434182,-0.81527215,0.5100673,0.61643565,0.3991515,0.9233164,-0.5112554,0.50811636,2.7886257,-0.48817396,1.8238949,-3.6188145,0.1414954,2.305669,0.35607052,-0.3108747,0.8969448,0.7937532,-0.032332152,0.60464364,-0.057587788,0.17044973,0.09908601,-0.1567338,1,0,0,0,0,0,-3.4886258,0.32817397,-1.2638948,-0.2736151,-1.2521147,1.4910995,0.32788512,0.11286139,-0.19717215,0.20915268
-1.0196055,-7.4506927,-3.8004823,-32.022114,3.5368357,1.0621859,0.1389499,-0.87015533,0.46489835,0.7253572,0.45554918,0.93947023,-0.92171115,0.9698077,0.5909659,0.12527317,1.4554478,1.3076113,1.8580757,-1.0554727,1.7113048,0.64861715,0.09475732,1.4071532,1.277325,1.7960083,-0.993,1.6454524,-0.8151121,0.50568604,0.6217526,0.4009064,0.9239278,-0.5118665,0.50873244,2.7741508,-0.48760796,1.8329995,-3.6188145,0.1414954,2.2663066,0.3567524,-0.3104825,0.89631367,0.7939439,-0.03172836,0.6046237,-0.05546671,0.17038566,0.0971697,-0.15862656,1,0,0,0,0,0,-3.474151,0.32760796,-1.2729995,-0.18590687,-1.0654031,1.5304683,0.42092797,0.19770859,-0.15372036,0.15455483
-1.5348634,-8.589164,-4.3583484,-31.900381,3.572771,1.1111187,0.14243992,-0.8722682,0.45308727,0.73105747,0.45870402,0.93820745,-0.9178364,0.9678448,0.5875584,0.12647343,1.4583273,1.3094343,1.8616829,-1.0572485,1.7132015,0.6453575,0.09676427,1.4096557,1.2789348,1.7997048,-0.99504846,1.6474885,-0.8151914,0.50046736,0.62714213,0.40286773,0.92434686,-0.5122391,0.5091977,2.759676,-0.48704195,1.8419466,-3.6188145,0.1414954,2.2269442,0.35743237,-0.31009865,0.8956745,0.79413426,-0.03111635,0.6045976,-0.05332992,0.16988869,0.094850734,-0.16052635,1,0,0,0,0,0,-3.459676,0.32704195,-1.2819467,-0.24086235,-1.2751817,1.544386,0.47303733,0.14868377,-0.09286403,0.1169145
-1.6718386,-8.701037,-4.5751834,-32.050232,3.5775497,1.1332217,0.12980595,-0.87476665,0.4560465,0.7242361,0.45742136,0.9386578,-0.9174207,0.96802276,0.58412385,0.12868752,1.4603522,1.3109543,1.8654108,-1.0592679,1.71525,0.6420964,0.098753095,1.4121763,1.2805513,1.8034031,-0.9970984,1.6495265,-0.8155462,0.49616084,0.63121235,0.4045175,0.92479,-0.5124898,0.5095798,2.745201,-0.48647594,1.8507364,-3.6188145,0.1414954,2.1875818,0.35810947,-0.3097241,0.8950286,0.79432464,-0.030495139,0.6045651,-0.051180374,0.16922553,0.09238422,-0.16228887,1,0,0,0,0,0,-3.4452012,0.32647595,-1.2907364,-0.30529496,-1.0470747,1.2099444,0.3944486,0.1541674,-0.06335973,0.09712576
-2.021797,-9.922298,-5.028221,-32.356888,3.6741333,1.1409627,0.13401273,-0.8746386,0.437376,0.73698246,0.45084003,0.93663716,-0.92369574,0.96833605,0.5808717,0.12936941,1.463765,1.3121101,1.8689678,-1.0617571,1.71731,0.63883436,0.10071987,1.4147149,1.2821716,1.8071024,-0.99914926,1.6515654,-0.81585604,0.4902418,0.6363055,0.40529785,0.9249748,-0.5128157,0.50989264,2.7307262,-0.48590994,1.8593686,-3.6188145,0.1414954,2.1482193,0.35878372,-0.30936074,0.8943768,0.7945153,-0.02986549,0.6045251,-0.04901861,0.16815431,0.08988434,-0.16355725,1,0,0,0,0,0,-3.4307263,0.32590994,-1.2993686,-0.29376146,-1.4504044,1.4653205,0.17778574,0.08925795,-0.08067488,0.0796318
-2.1229644,-10.194117,-5.187928,-32.34028,3.6890714,1.149431,0.13652441,-0.87614,0.4338744,0.7382873,0.45269266,0.9434546,-0.9217459,0.97278076,0.5775046,0.13109107,1.466395,1.31386,1.8731443,-1.0636715,1.71966,0.6355704,0.102663755,1.4172736,1.2837957,1.8108056,-1.0012012,1.6536063,-0.8163157,0.4845891,0.6410311,0.40626058,0.92592376,-0.5129809,0.5102492,2.7162514,-0.48534393,1.8678434,-3.6188145,0.1414954,2.108857,0.35945368,-0.30900693,0.8937202,0.79470783,-0.029226696,0.6044757,-0.046842486,0.16699032,0.08729315,-0.16479225,1,0,0,0,0,0,-3.4162514,0.32534394,-1.3078434,-0.32588837,-1.3839303,1.3682841,0.22320448,0.27984378,-0.04059076,0.09098648
-2.1771386,-10.450037,-5.238347,-31.89077,3.6312761,1.1471063,0.13962272,-0.87784696,0.42652583,0.7466911,0.46300423,0.93707424,-0.9284041,0.9658795,0.5741211,0.13252056,1.469542,1.316206,1.8764007,-1.0661894,1.7212179,0.63230455,0.104584455,1.4198524,1.2854265,1.8145096,-1.0032535,1.6556472,-0.81692106,0.47874087,0.6462179,0.40833223,0.9260705,-0.5132368,0.5103296,2.7017765,-0.48477793,1.8761607,-3.6188145,0.1414954,2.0694945,0.36011696,-0.30866385,0.8930572,0.79490113,-0.028578192,0.6044182,-0.04465407,0.16589265,0.084554724,-0.16658045,1,0,0,0,0,0,-3.4017766,0.32477793,-1.3161607,-0.35426018,-1.4333277,1.4764069,0.5008578,0.07897615,-0.062316652,0.02118945
-2.1971815,-10.92127,-5.404923,-32.425915,3.7177336,1.1316063,0.13685314,-0.8729338,0.41656587,0.74935305,0.45381865,0.9403136,-0.9217999,0.9702328,0.5711992,0.13374406,1.4723071,1.3171937,1.8803316,-1.0677794,1.7235634,0.62903726,0.10648036,1.4224521,1.287062,1.8182147,-1.0053058,1.657689,-0.8169621,0.47242954,0.6512158,0.4092002,0.92658806,-0.51320577,0.51046515,2.6873016,-0.48421192,1.8843206,-3.6188145,0.1414954,2.030132,0.36077738,-0.30833173,0.89238894,0.7950955,-0.027920589,0.604352,-0.04245178,0.16461559,0.08200831,-0.16769795,1,0,0,0,0,0,-3.3873017,0.32421193,-1.3243206,-0.21377204,-1.5488564,1.4289914,0.20003317,0.1721978,0.0096559515,0.03522634
-2.7431755,-12.022402,-6.028139,-32.56431,3.7778385,1.1819952,0.1318346,-0.87507904,0.4057112,0.74854285,0.45042017,0.9380349,-0.9219234,0.96938133,0.56778175,0.13488014,1.47485,1.3185915,1.883877,-1.0698404,1.7255456,0.625769,0.1083495,1.4250699,1.2887005,1.8219216,-1.0073581,1.6597317,-0.81728685,0.46560383,0.65565056,0.4096553,0.9268095,-0.5130892,0.51050854,2.6728268,-0.48364592,1.8923231,-3.6188145,0.1414954,1.9907696,0.36143064,-0.30801034,0.8917165,0.795292,-0.027252868,0.6042754,-0.040236842,0.16280296,0.07909966,-0.16854645,1,0,0,0,0,0,-3.3728268,0.32364592,-1.3323231,-0.28082725,-1.6777961,1.2847482,0.09720027,0.09682774,0.032156702,0.012814998
-3.196189,-12.858969,-6.5084763,-32.40381,3.796893,1.226681,0.13333964,-0.88019305,0.39708176,0.7500936,0.45364282,0.93886024,-0.92332274,0.97037846,0.5641555,0.13614522,1.4775765,1.3204554,1.8876418,-1.0719907,1.7276583,0.6224979,0.11019069,1.4277049,1.2903417,1.8256295,-1.0094104,1.6617745,-0.81819326,0.45857003,0.65984845,0.41049156,0.9271158,-0.5129309,0.51051587,2.658352,-0.4830799,1.9001681,-3.6188145,0.1414954,1.9514072,0.36207628,-0.30770183,0.8910408,0.79549116,-0.026575316,0.60418767,-0.038011022,0.16062538,0.075802155,-0.1694763,1,0,0,0,0,0,-3.358352,0.3230799,-1.340168,-0.41937825,-1.7303078,1.2195109,0.19285081,0.11676549,0.04357099,0.0040829177
-2.835482,-12.652004,-6.262101,-32.68398,3.810795,1.1679331,0.13167647,-0.8742853,0.3897297,0.7551697,0.449479,0.938406,-0.92516255,0.9720097,0.56129795,0.13747177,1.4805669,1.3218052,1.8913178,-1.0741718,1.7298152,0.6192249,0.112003684,1.4303571,1.2919849,1.8293383,-1.0114617,1.6638173,-0.81840694,0.45149758,0.66425246,0.41083837,0.9273626,-0.5127539,0.51050514,2.643877,-0.4825139,1.9078556,-3.6188145,0.1414954,1.9120448,0.36271286,-0.30740547,0.89036185,0.7956923,-0.025887355,0.6040891,-0.03577439,0.15867548,0.07291787,-0.17016359,1,0,0,0,0,0,-3.343877,0.3225139,-1.3478556,-0.24437903,-1.7397999,1.2686251,0.07052719,0.103205435,0.04830956,-0.0010430812
-3.4151947,-13.840435,-6.892562,-32.65819,3.8613749,1.2205672,0.13144946,-0.8764,0.37601113,0.7564124,0.44937605,0.93650734,-0.9209811,0.9680803,0.5578769,0.13832447,1.4833059,1.3234413,1.8948939,-1.0759304,1.7315829,0.61595047,0.1137861,1.4330264,1.293629,1.8330481,-1.0135121,1.6658581,-0.81890047,0.44367462,0.6684074,0.41120738,0.9273863,-0.51238173,0.51032495,2.6294022,-0.4819479,1.9153857,-3.6188145,0.1414954,1.8726823,0.36334038,-0.30712175,0.8896809,0.7958968,-0.025190169,0.60397804,-0.033527613,0.15620482,0.06961435,-0.17074026,1,0,0,0,0,0,-3.3294022,0.3219479,-1.3553858,-0.30931827,-1.927927,1.2020468,0.07683038,0.046163794,0.09882449,-0.04318356
-3.6861734,-14.396574,-7.2191925,-32.673393,3.883277,1.2422068,0.1283347,-0.87925833,0.36814982,0.7563749,0.44905698,0.9363709,-0.92360157,0.96659446,0.55440235,0.13955659,1.4859726,1.325063,1.898594,-1.0781642,1.7335198,0.61267316,0.11553717,1.435711,1.2952751,1.8367579,-1.0155606,1.667899,-0.8197389,0.43584165,0.6722112,0.41157582,0.9274097,-0.51201975,0.5100526,2.6149273,-0.4813819,1.9227583,-3.6188145,0.1414954,1.8333199,0.36395693,-0.30685163,0.8889975,0.7961044,-0.024481392,0.60385466,-0.03127103,0.15348321,0.06611292,-0.17125219,1,0,0,0,0,0,-3.3149273,0.3213819,-1.3627584,-0.39002296,-1.930788,1.1092423,0.076889984,0.045001503,0.097036354,-0.065743916
-3.2830741,-13.960941,-6.827259,-32.36488,3.828835,1.1872083,0.14022547,-0.87811565,0.3619631,0.76756763,0.45783785,0.94046056,-0.9237836,0.9697808,0.55120504,0.14087458,1.4894408,1.3273238,1.9025902,-1.0802255,1.7357837,0.609393,0.117257476,1.4384137,1.2969259,1.8404686,-1.0176072,1.669938,-0.82043296,0.4281881,0.676958,0.41296285,0.9279118,-0.51160586,0.5098219,2.6004524,-0.4808159,1.9299736,-3.6188145,0.1414954,1.7939575,0.36456442,-0.3065946,0.8883107,0.7963145,-0.023761375,0.6037196,-0.029004214,0.1511979,0.06287546,-0.17218013,1,0,0,0,0,0,-3.3004525,0.3208159,-1.3699737,-0.34731624,-1.8862038,1.3387202,0.33174452,0.16537307,0.110268585,-0.056326386
-3.3407128,-14.222844,-6.9377937,-32.355667,3.8290343,1.1853871,0.13800246,-0.8788055,0.3541716,0.7711753,0.45935664,0.93847394,-0.9203741,0.967341,0.5478766,0.14204949,1.492396,1.3290808,1.9061618,-1.0820334,1.7376518,0.60611,0.11894709,1.4411355,1.2985824,1.8441803,-1.0196519,1.671976,-0.82121825,0.4205144,0.68170667,0.41443244,0.92815554,-0.51103854,0.50947624,2.5859776,-0.48024988,1.9370313,-3.6188145,0.1414954,1.754595,0.36516237,-0.30635095,0.88762015,0.7965274,-0.023029467,0.60357213,-0.026725728,0.14886291,0.05959244,-0.17312774,1,0,0,0,0,0,-3.2859776,0.3202499,-1.3770313,-0.36516783,-1.8914192,1.3344287,0.35268065,0.100761645,0.14933942,-0.08520483
-3.6152582,-14.785797,-7.3284492,-32.75224,3.8952413,1.2040262,0.12738118,-0.8811167,0.34853756,0.766184,0.4518012,0.94045407,-0.9271904,0.9693801,0.5444318,0.14334472,1.4947684,1.3302085,1.9100121,-1.0845553,1.7398325,0.60282266,0.12060666,1.4438735,1.3002418,1.847894,-1.0216947,1.674013,-0.8222771,0.41306555,0.6855028,0.41495648,0.9286127,-0.51061606,0.50915265,2.5715027,-0.47968388,1.9439316,-3.6188145,0.1414954,1.7152326,0.36575174,-0.3061211,0.8869271,0.79674315,-0.022286445,0.6034124,-0.024437863,0.14616595,0.056209102,-0.17357422,1,0,0,0,0,0,-3.2715027,0.31968388,-1.3839316,-0.4303455,-1.8351822,1.0929703,0.116303556,0.15363096,0.113487236,-0.07888674
-4.6951437,-16.954187,-8.392576,-32.30629,3.9656587,1.2975192,0.1435867,-0.8809952,0.32305664,0.768379,0.46163622,0.93953496,-0.92478406,0.96639824,0.541153,0.14322063,1.49766,1.3325564,1.9136614,-1.0864296,1.7416608,0.59953105,0.12223035,1.4466258,1.301907,1.8516095,-1.0237355,1.6760482,-0.8232893,0.4035886,0.68924695,0.41659805,0.9289222,-0.51006454,0.5087123,2.5570278,-0.47911787,1.9506744,-3.6188145,0.1414954,1.6758702,0.36632442,-0.30590796,0.8862319,0.7969632,-0.021529041,0.6032378,-0.022141164,0.14256737,0.052025326,-0.17421457,1,0,0,0,0,0,-3.2570279,0.31911787,-1.3906744,-0.41306016,-2.343565,1.0765194,0.39763746,0.113993876,0.1502931,-0.10836124
-4.678384,-17.351866,-8.485571,-32.664547,4.0291457,1.2727888,0.1443207,-0.88186616,0.30916843,0.7768367,0.45564583,0.94274396,-0.92228407,0.9693579,0.53780043,0.14387214,1.5010045,1.3338021,1.9176016,-1.0882955,1.7439032,0.59623516,0.12381464,1.4493963,1.3035759,1.8553269,-1.0257735,1.6780814,-0.82442886,0.39361283,0.69370157,0.41746715,0.9295771,-0.5093897,0.50831854,2.542553,-0.47855186,1.9572598,-3.6188145,0.1414954,1.6365077,0.36688423,-0.30570936,0.88553566,0.7971885,-0.020758552,0.6030474,-0.01983298,0.1388851,0.04802902,-0.17439076,1,0,0,0,0,0,-3.242553,0.31855187,-1.3972597,-0.441879,-2.468273,1.2508034,0.20496546,0.20068882,0.18200277,-0.09688734
-4.5421653,-17.368406,-8.438883,-32.848522,4.0392685,1.2427373,0.14008987,-0.8796043,0.30006564,0.77887577,0.4531696,0.9417229,-0.92368317,0.96856064,0.53466284,0.14481923,1.5039176,1.3352977,1.9212475,-1.0904313,1.7458806,0.59293497,0.12535936,1.4521838,1.3052477,1.8590462,-1.0278096,1.6801137,-0.82533336,0.38373,0.69806665,0.4180455,0.93006676,-0.5087112,0.50786334,2.528078,-0.47798586,1.9636878,-3.6188145,0.1414954,1.5971453,0.36742926,-0.3055277,0.8848389,0.79741925,-0.019974845,0.60284054,-0.01751418,0.13526157,0.044215403,-0.17441057,1,0,0,0,0,0,-3.2280781,0.31798586,-1.4036877,-0.3789663,-2.4450717,1.2241303,0.13262032,0.16015767,0.18355249,-0.112712376
-4.9551225,-18.208395,-8.79408,-32.254498,4.0171576,1.2754488,0.15525067,-0.8834351,0.2829816,0.78868026,0.46671084,0.9407649,-0.92114776,0.97003967,0.5310945,0.14516807,1.5073915,1.3379174,1.9248998,-1.0922899,1.7480165,0.5896305,0.12686199,1.4549915,1.3069261,1.8627675,-1.0298419,1.682144,-0.8266985,0.37303174,0.7032131,0.42016104,0.93040735,-0.50791246,0.5074159,2.5136032,-0.47741985,1.9699582,-3.6188145,0.1414954,1.5577829,0.36795902,-0.3053615,0.8841404,0.7976559,-0.019176463,0.6026166,-0.015183076,0.1314125,0.039991185,-0.17499535,1,0,0,0,0,0,-3.2136033,0.31741986,-1.4099581,-0.48613545,-2.6499777,1.4131068,0.5180984,0.12138485,0.21639465,-0.111430876
-4.6665306,-17.914925,-8.564159,-32.258057,3.9934595,1.2320051,0.15527605,-0.8802642,0.27521232,0.79222965,0.4701966,0.9412696,-0.92215794,0.9696214,0.528012,0.14612685,1.5104475,1.3398399,1.9286563,-1.094393,1.7500175,0.58632123,0.1283229,1.45782,1.3086141,1.8664896,-1.0318704,1.6841725,-0.8277251,0.36265615,0.7083878,0.4225106,0.93078923,-0.5071018,0.5069189,2.4991283,-0.47685385,1.9760712,-3.6188145,0.1414954,1.5184205,0.36847496,-0.30521178,0.883439,0.79789716,-0.018362977,0.60237694,-0.012839112,0.12780033,0.036009453,-0.17566594,1,0,0,0,0,0,-3.1991284,0.31685385,-1.4160712,-0.39663908,-2.569422,1.4152824,0.5768835,0.1323521,0.21985172,-0.12427568
-4.2827516,-17.570808,-8.295744,-32.670162,4.0047493,1.1719599,0.14602199,-0.8818793,0.26758823,0.8014195,0.4634775,0.9390378,-0.9272158,0.967853,0.52458966,0.14705408,1.5139195,1.3410575,1.9322222,-1.0967755,1.7519222,0.5830072,0.12974316,1.4606706,1.3103088,1.8702128,-1.0338969,1.6861981,-0.8289932,0.35258517,0.71422046,0.42391887,0.9309059,-0.50639606,0.5063391,2.4846535,-0.47628784,1.9820268,-3.6188145,0.1414954,1.479058,0.36897612,-0.30507708,0.8827358,0.7981436,-0.017536806,0.60212076,-0.010482892,0.124434054,0.032451745,-0.17598447,1,0,0,0,0,0,-3.1846535,0.31628785,-1.4220269,-0.4532039,-2.4929194,1.575142,0.3417134,0.06788968,0.19359587,-0.14570354
-5.4162817,-19.917284,-9.453513,-32.503735,4.122342,1.2593907,0.1600598,-0.8803232,0.23730682,0.80405444,0.46867278,0.93833643,-0.92522705,0.96916455,0.5213846,0.14635463,1.5169544,1.3431159,1.9358964,-1.0986629,1.7540396,0.57968843,0.13111633,1.463544,1.3120102,1.8739359,-1.0359197,1.6882218,-0.8301093,0.34024158,0.71989536,0.4258301,0.93094105,-0.5055783,0.50577414,2.4701786,-0.47572184,1.9878249,-3.6188145,0.1414954,1.4396956,0.36946154,-0.3049581,0.8820324,0.79839647,-0.016696623,0.6018458,-0.008113099,0.12002231,0.028175604,-0.1761451,1,0,0,0,0,0,-3.1701787,0.31572184,-1.427825,-0.4111528,-3.062263,1.533389,0.46959516,0.044912096,0.22664665,-0.14200805
-5.747941,-20.71812,-9.920098,-33.063725,4.2284455,1.2759291,0.15078628,-0.88430023,0.22316666,0.8046339,0.45792875,0.9428762,-0.92189753,0.9687901,0.5177874,0.146738,1.5198684,1.3440652,1.9399372,-1.1004525,1.7560371,0.57636344,0.13243955,1.4664394,1.3137153,1.877661,-1.0379386,1.6902426,-0.8317589,0.32769048,0.7252461,0.4264119,0.9315002,-0.50461817,0.5051708,2.4557037,-0.47515583,1.9934657,-3.6188145,0.1414954,1.4003332,0.36992645,-0.30485678,0.88133025,0.79865724,-0.015842026,0.6015502,-0.0057314234,0.11517069,0.023824615,-0.17554353,1,0,0,0,0,0,-3.1557038,0.31515583,-1.4334657,-0.5400776,-3.1142232,1.4478265,0.13786553,0.17541645,0.26375052,-0.15097855
-5.8668776,-21.199963,-10.112974,-33.147175,4.2510834,1.2657983,0.1486601,-0.8796508,0.20694676,0.80438375,0.45774645,0.93905777,-0.924936,0.9655836,0.5147879,0.14692582,1.5227462,1.3457576,1.943395,-1.1026841,1.7578335,0.5730337,0.13371128,1.4693547,1.3154224,1.881387,-1.0399537,1.6922616,-0.8329104,0.31472164,0.73020756,0.4270012,0.93158597,-0.50370944,0.5044555,2.4412289,-0.47458982,1.9989488,-3.6188145,0.1414954,1.3609707,0.37037277,-0.30477333,0.8806313,0.7989266,-0.014973485,0.6012328,-0.0033377297,0.1101445,0.019478314,-0.17485256,1,0,0,0,0,0,-3.141229,0.31458983,-1.4389489,-0.4108548,-3.2190232,1.346141,0.14077125,0.056982037,0.25293228,-0.17938016
-5.5781813,-20.918383,-9.818871,-32.90615,4.2059655,1.2172921,0.15712312,-0.8822298,0.19425647,0.81854534,0.4645936,0.9401231,-0.93301225,0.96588993,0.5112776,0.14730923,1.5266529,1.347944,1.9471956,-1.1052645,1.7598739,0.56969774,0.13493127,1.472293,1.3171343,1.885114,-1.0419669,1.6942767,-0.83443695,0.3017764,0.7364448,0.42838454,0.93180233,-0.50299007,0.5037304,2.426754,-0.47402382,2.0042746,-3.6188145,0.1414954,1.3216083,0.37079954,-0.30470705,0.87993354,0.7992039,-0.014091497,0.60089415,-0.00093134283,0.10543291,0.015349658,-0.17450808,1,0,0,0,0,0,-3.126754,0.31402382,-1.4442747,-0.498116,-3.2134948,1.6589164,0.33988056,0.09030103,0.20667909,-0.18280743
-6.468454,-22.59658,-10.729784,-32.782314,4.2958474,1.290226,0.16597,-0.88227457,0.17083238,0.81632733,0.4695433,0.94438785,-0.92820495,0.96897966,0.5079385,0.14688954,1.5294359,1.3500023,1.9512211,-1.1069412,1.7621052,0.5663556,0.13609594,1.4752551,1.3188528,1.8888438,-1.0439763,1.6962899,-0.8360213,0.2876478,0.74199224,0.43025672,0.93248147,-0.50207543,0.5030803,2.4122791,-0.4734578,2.0094428,-3.6188145,0.1414954,1.2822459,0.37120438,-0.3046577,0.8792377,0.7994901,-0.013194272,0.6005325,0.001489826,0.099901564,0.010612613,-0.17403252,1,0,0,0,0,0,-3.1122792,0.31345782,-1.4494429,-0.50696725,-3.510341,1.4823376,0.4636794,0.20378827,0.2595484,-0.16373394
-6.311952,-22.395498,-10.618996,-32.82982,4.272204,1.2648329,0.15993196,-0.883662,0.1610001,0.8193357,0.47062817,0.94127846,-0.9274982,0.96877605,0.50449926,0.14736594,1.5326086,1.3517967,1.9547333,-1.1089011,1.7641042,0.56300676,0.13720554,1.4782401,1.3205789,1.8925745,-1.0459819,1.6983002,-0.8378326,0.27399305,0.747536,0.43213275,0.9327543,-0.50109845,0.50240624,2.3978043,-0.4728918,2.0144536,-3.6188145,0.1414954,1.2428834,0.37158966,-0.3046279,0.8785433,0.79978496,-0.012281122,0.600148,0.003924516,0.09450326,0.00598507,-0.17360274,1,0,0,0,0,0,-3.0978043,0.3128918,-1.4544537,-0.55712456,-3.3920703,1.4749168,0.46519932,0.1027882,0.2761483,-0.17026065
-6.6532393,-23.392338,-10.999819,-32.82656,4.327246,1.2674568,0.16809586,-0.8834875,0.13605075,0.82907933,0.4734453,0.94000584,-0.9283648,0.9687012,0.50116265,0.1467291,1.5362756,1.3537201,1.958375,-1.1109674,1.7661093,0.5596503,0.13825661,1.481249,1.3223137,1.8963053,-1.0479836,1.7003077,-0.8396716,0.25906476,0.7538316,0.43420395,0.9328672,-0.5001011,0.50171745,2.3833294,-0.4723258,2.0193071,-3.6188145,0.1414954,1.203521,0.3719511,-0.3046167,0.8778511,0.800089,-0.011351466,0.5997399,0.0063728797,0.08875432,0.0012450637,-0.17305887,1,0,0,0,0,0,-3.0833294,0.3123258,-1.4593072,-0.55938953,-3.7110894,1.6588866,0.5155056,0.062257048,0.28455254,-0.17446278
-6.565768,-23.560257,-11.008584,-33.147507,4.3738403,1.2344956,0.16724594,-0.88362575,0.12022815,0.8355277,0.4697069,0.9449019,-0.927022,0.969619,0.4977965,0.14667258,1.5397359,1.3551931,1.9624485,-1.1128752,1.7681811,0.5562862,0.13924772,1.4842845,1.3240551,1.900039,-1.0499816,1.7023124,-0.8415961,0.24402924,0.76044816,0.4357163,0.9335353,-0.49902153,0.5010405,2.3688545,-0.4717598,2.0240033,-3.6188145,0.1414954,1.1641586,0.37228918,-0.30462384,0.8771621,0.8004033,-0.010406677,0.5993064,0.008836254,0.08298223,-0.0032866218,-0.1721316,1,0,0,0,0,0,-3.0688546,0.3117598,-1.4640033,-0.5754232,-3.7379634,1.7336308,0.37670133,0.20176171,0.30666587,-0.17189978
-7.2333636,-24.83358,-11.597145,-32.540756,4.382652,1.2824817,0.18440838,-0.88457185,0.09302114,0.84388095,0.48583978,0.94396645,-0.923606,0.9661025,0.4943662,0.1457592,1.5433562,1.3580638,1.9661167,-1.114634,1.7699395,0.55291355,0.14017457,1.4873477,1.3258079,1.9037745,-1.0519738,1.7043141,-0.8436847,0.22761849,0.7675646,0.43896022,0.9340302,-0.49779797,0.50025475,2.3543797,-0.4711938,2.0285418,-3.6188145,0.1414954,1.1247962,0.37260342,-0.30465102,0.87647545,0.8007283,-0.00944344,0.59884626,0.011315743,0.07671182,-0.0083509,-0.17171763,1,0,0,0,0,0,-3.0543797,0.3111938,-1.4685419,-0.6102025,-4.083134,1.8541216,0.81133837,0.15658139,0.34716722,-0.19967555
-7.3084307,-25.140305,-11.788746,-33.015133,4.4403043,1.2665875,0.17294939,-0.8871129,0.078333125,0.84451264,0.47871688,0.9436735,-0.9322619,0.96909064,0.49081564,0.14565788,1.5464636,1.3593181,1.9698317,-1.1172322,1.7721505,0.5495318,0.14103633,1.4904376,1.3275703,1.907512,-1.0539622,1.706313,-0.84613824,0.2113926,0.7742975,0.44113526,0.934453,-0.49677256,0.49954772,2.3399048,-0.47062778,2.0329227,-3.6188145,0.1414954,1.0854337,0.37289047,-0.30469847,0.8757916,0.8010641,-0.008462603,0.59835935,0.013811149,0.07023995,-0.013318644,-0.17077467,1,0,0,0,0,0,-3.0399048,0.3106278,-1.4729228,-0.6949603,-4.037,1.7517208,0.5450546,0.1387894,0.29964742,-0.17994641
-7.9284267,-26.79475,-12.553668,-33.54032,4.589332,1.281347,0.1714137,-0.8820616,0.046570662,0.84538466,0.47086358,0.9416529,-0.93278307,0.9680674,0.48778751,0.14429627,1.5496145,1.3605307,1.9734277,-1.1192571,1.7740778,0.546142,0.14182788,1.4935533,1.3293384,1.9112504,-1.0559468,1.708309,-0.84806645,0.19341786,0.7807154,0.44228366,0.93461347,-0.495701,0.49880865,2.32543,-0.47006178,2.0371463,-3.6188145,0.1414954,1.0460713,0.3731513,-0.30476594,0.8751139,0.8014124,-0.0074658673,0.5978427,0.016321737,0.0629906,-0.01842162,-0.16903646,1,0,0,0,0,0,-3.02543,0.31006178,-1.4771464,-0.55944914,-4.474647,1.6691087,0.2905875,0.07298588,0.3159493,-0.18829106
-8.87493,-28.875069,-13.517384,-33.464367,4.7106204,1.3327087,0.18588872,-0.8811281,0.0077247308,0.8532815,0.47537017,0.941672,-0.93096995,0.9669788,0.484463,0.14236861,1.553283,1.3626144,1.9771674,-1.1211147,1.7759975,0.54274404,0.14254051,1.4966966,1.3311123,1.9149888,-1.0579267,1.7103013,-0.85001725,0.17309184,0.78767115,0.44391775,0.9347611,-0.49450612,0.49803808,2.310955,-0.46949577,2.0412126,-3.6188145,0.1414954,1.0067089,0.37337875,-0.30485535,0.8744438,0.8017751,-0.006452245,0.5972937,0.018848345,0.054821894,-0.024016706,-0.16707267,1,0,0,0,0,0,-3.010955,0.30949578,-1.4812126,-0.55953854,-5.063757,1.7994343,0.41449067,0.06777047,0.35296378,-0.19638239
-11.166937,-33.752827,-15.869343,-33.61329,5.0455613,1.4751662,0.21447793,-0.8788953,-0.06129193,0.8626461,0.47629496,0.9448648,-0.93462634,0.9679033,0.48122138,0.13825008,1.5570818,1.364453,1.9811293,-1.1233505,1.7780545,0.53933847,0.1431554,1.4998704,1.3328928,1.9187291,-1.0599017,1.7122916,-0.85190195,0.1472935,0.79533404,0.44559932,0.9352421,-0.49330765,0.49729493,2.2964802,-0.46892977,2.0451214,-3.6188145,0.1414954,0.96734655,0.37356758,-0.30497098,0.8737846,0.80215746,-0.0054177516,0.59670436,0.021397099,0.04436361,-0.030761719,-0.16413897,1,0,0,0,0,0,-2.9964802,0.30892977,-1.4851215,-0.5386471,-6.4340453,1.9745528,0.43095645,0.146538,0.3659874,-0.18917023
-14.338337,-39.70207,-19.070036,-33.77101,5.437026,1.7196367,0.23014182,-0.88580537,-0.13572502,0.8609856,0.47460106,0.9437863,-0.93161434,0.9658577,0.4773321,0.13365464,1.5601394,1.3661149,1.9847941,-1.1251147,1.7799016,0.53592193,0.14365071,1.5030729,1.33468,1.9224713,-1.061871,1.7142781,-0.8548524,0.11602248,0.802499,0.44705808,0.9355285,-0.49187353,0.49649513,2.2820053,-0.46836376,2.0488727,-3.6188145,0.1414954,0.92798424,0.37370443,-0.3051195,0.87314004,0.80256516,-0.0043579233,0.5960668,0.023967562,0.030873103,-0.039392553,-0.16006325,1,0,0,0,0,0,-2.9820054,0.30836377,-1.4888728,-0.7967054,-7.8050714,1.8455683,0.3802031,0.091016285,0.43967363,-0.20188092
-16.800613,-44.701233,-21.599134,-34.04859,5.794013,1.8772881,0.2513071,-0.8871263,-0.21305165,0.86487025,0.4724001,0.94633615,-0.9356822,0.9684156,0.4738231,0.12873709,1.5636138,1.367748,1.9887148,-1.1273688,1.7820672,0.5324925,0.14400536,1.5063058,1.3364719,1.9262145,-1.0638337,1.7162617,-0.8582346,0.07956602,0.8099585,0.44828698,0.9360485,-0.49038145,0.49577418,2.2675304,-0.46779776,2.0524664,-3.6188145,0.1414954,0.8886219,0.3737812,-0.30530548,0.8725154,0.80300355,-0.003269395,0.595373,0.02656222,0.01491735,-0.049282737,-0.15486364,1,0,0,0,0,0,-2.9675305,0.30779776,-1.4924664,-0.8950233,-9.103938,1.9126533,0.3276914,0.14430283,0.46846268,-0.18127261
-19.77328,-50.857582,-24.598454,-34.105534,6.199748,2.0622969,0.28460354,-0.8855953,-0.31236625,0.87580484,0.47615257,0.9437855,-0.93426216,0.96417356,0.47050086,0.12213972,1.5676122,1.3698026,1.9922794,-1.129232,1.7837539,0.5290488,0.14419311,1.5095712,1.3382705,1.9299586,-1.0657907,1.7182425,-0.86179507,0.036035176,0.8185915,0.45000008,0.9361915,-0.4886252,0.49494532,2.2530556,-0.46723175,2.0559027,-3.6188145,0.1414954,0.8492596,0.37378454,-0.30553675,0.87191445,0.8034786,-0.0021476957,0.5946139,0.02918502,-0.0039734533,-0.060696132,-0.14863376,1,0,0,0,0,0,-2.9530556,0.30723175,-1.4959028,-0.9296834,-10.875908,2.1999476,0.4548132,0.043630596,0.5528181,-0.20757316
-22.02244,-55.906322,-27.04427,-35.018658,6.6401677,2.1645339,0.30198035,-0.87961566,-0.40544462,0.8790327,0.4628082,0.9511001,-0.9437914,0.9678345,0.4674757,0.11581199,1.5711035,1.3706671,1.9965355,-1.1318561,1.785991,0.52559173,0.1441899,1.5128719,1.3400711,1.9337056,-1.06774,1.7202204,-0.8651574,-0.013080085,0.8275445,0.45024702,0.9371081,-0.48686692,0.4942449,2.2385807,-0.46666574,2.0591817,-3.6188145,0.1414954,0.8098973,0.3737054,-0.30581546,0.8713439,0.80399793,-0.0009914915,0.59377813,0.031841133,-0.02537091,-0.07292292,-0.14055847,1,0,0,0,0,0,-2.9385808,0.30666575,-1.4991817,-0.8645951,-12.274293,2.266973,0.09427964,0.23320316,0.5708634,-0.17455219
-23.502993,-58.533066,-28.432684,-34.62628,6.769053,2.261949,0.3184777,-0.8848145,-0.47761482,0.8855435,0.47417852,0.94882625,-0.9424998,0.9704261,0.46365473,0.11075686,1.5748599,1.3732636,2.0001235,-1.1337149,1.7881503,0.5221175,0.14398235,1.5162116,1.3418773,1.9374554,-1.0696816,1.7221955,-0.86971176,-0.06481882,0.8372709,0.45196152,0.93762213,-0.48476925,0.49365732,2.2241058,-0.46609974,2.0623033,-3.6188145,0.1414954,0.770535,0.37353706,-0.30614638,0.87080544,0.8045642,0.00020257583,0.5928608,0.03453198,-0.04811137,-0.08607223,-0.13256793,1,0,0,0,0,0,-2.924106,0.30609974,-1.5023034,-1.1449753,-12.932894,2.4457273,0.464946,0.128597,0.669077,-0.14586745
-22.576605,-56.87951,-27.543137,-34.7472,6.674859,2.153495,0.30892658,-0.87890077,-0.5129983,0.8845122,0.47718826,0.9514047,-0.94276494,0.9680435,0.46059445,0.108072475,1.5781275,1.3752805,2.0040538,-1.1356752,1.7899586,0.5186256,0.14357334,1.5195895,1.3436912,1.9412081,-1.0716147,1.7241687,-0.87415093,-0.1147601,0.8469022,0.45401946,0.9383384,-0.48238042,0.4930548,2.209631,-0.46553373,2.0652676,-3.6188145,0.1414954,0.7311727,0.37327957,-0.30652785,0.8702975,0.80517596,0.0014344575,0.5918628,0.037257235,-0.070098266,-0.098538585,-0.12481262,1,0,0,0,0,0,-2.909631,0.30553374,-1.5052676,-1.0944008,-12.48408,2.4000106,0.5527734,0.18149613,0.7466077,-0.15072523
-21.131718,-54.221455,-26.154293,-35.118614,6.52967,2.0066967,0.28659967,-0.88076717,-0.5360452,0.8891893,0.4723618,0.95063895,-0.9430938,0.9677426,0.4569719,0.10605018,1.5818328,1.3767565,2.007753,-1.1376313,1.7919106,0.51511323,0.14297348,1.5230075,1.3455118,1.9449627,-1.0735364,1.726139,-0.8793386,-0.16172005,0.8570614,0.45547503,0.93885887,-0.47971588,0.49251834,2.195156,-0.46496773,2.068074,-3.6188145,0.1414954,0.69181037,0.3729372,-0.30695677,0.86982054,0.8058308,0.0027013046,0.59078616,0.040012248,-0.09083479,-0.11001097,-0.117198005,1,0,0,0,0,0,-2.8951561,0.30496773,-1.508074,-1.2590884,-11.73859,2.5086699,0.40383634,0.1361966,0.8178651,-0.13574956
-19.716927,-51.476055,-24.715246,-35.04844,6.3451347,1.871164,0.2774245,-0.88003254,-0.5558712,0.8924919,0.4780754,0.95485836,-0.9436787,0.973141,0.45351094,0.1040625,1.585482,1.3789771,2.011803,-1.139594,1.7942588,0.5115794,0.14219469,1.5264674,1.34734,1.9487212,-1.0754476,1.7281083,-0.88485825,-0.20566973,0.86749023,0.45754927,0.93975985,-0.47680253,0.4922217,2.1806812,-0.46440172,2.070723,-3.6188145,0.1414954,0.65244806,0.37251616,-0.30742908,0.86937225,0.80652547,0.0039999173,0.5896346,0.042797647,-0.1102719,-0.12061779,-0.11019775,1,0,0,0,0,0,-2.8806813,0.30440173,-1.5107231,-1.3217329,-10.986037,2.5548933,0.55983657,0.23472308,0.8811354,-0.07738172
-17.630177,-47.58781,-22.731905,-35.717102,6.135802,1.6771051,0.23821856,-0.8818104,-0.5589299,0.89249563,0.46526843,0.95189285,-0.94559616,0.96935457,0.44985268,0.10306959,1.5889422,1.3799088,2.0153537,-1.1416392,1.795963,0.50802124,0.14125389,1.5299684,1.349172,1.9524815,-1.0773454,1.7300767,-0.89089674,-0.24506097,0.8777227,0.45807526,0.9402043,-0.4737009,0.491904,2.1662064,-0.46383572,2.0732148,-3.6188145,0.1414954,0.61308575,0.37202454,-0.3079393,0.86895144,0.8072557,0.005327415,0.588413,0.045606636,-0.12789938,-0.12983663,-0.10323435,1,0,0,0,0,0,-2.8662064,0.30383572,-1.5132148,-1.4280378,-9.845152,2.4803874,0.17419456,0.12677906,0.92668825,-0.08508562
-15.747734,-43.82322,-20.728546,-35.141273,5.825011,1.5195212,0.2343683,-0.87988925,-0.564088,0.898317,0.48106748,0.95311475,-0.94328904,0.97321105,0.44642898,0.10176773,1.5928506,1.3828467,2.0191996,-1.1433756,1.7982014,0.50443923,0.14016694,1.5335113,1.3510116,1.9562438,-1.0792308,1.7320441,-0.89691895,-0.28063938,0.8883675,0.46040845,0.940706,-0.47033137,0.49178806,2.1517315,-0.4632697,2.0755491,-3.6188145,0.1414954,0.57372344,0.37146616,-0.30848432,0.86855423,0.8080165,0.00668008,0.5871273,0.048438482,-0.1436618,-0.13806239,-0.09763527,1,0,0,0,0,0,-2.8517315,0.3032697,-1.5155492,-1.4093517,-8.891746,2.5672314,0.62613183,0.14498828,0.9898096,-0.03676116
-14.144778,-40.512207,-19.12235,-35.278793,5.618291,1.3843255,0.21080494,-0.8807412,-0.5616106,0.8926451,0.48142627,0.9598939,-0.94635665,0.9712912,0.44278735,0.1008542,1.5959964,1.3847115,2.0234363,-1.1454757,1.8000345,0.50083244,0.13895041,1.5370942,1.3528599,1.9600098,-1.0811019,1.7340106,-0.90315735,-0.311972,0.8980032,0.46260148,0.9418899,-0.46686593,0.4917012,2.1372566,-0.4627037,2.0777261,-3.6188145,0.1414954,0.5343611,0.3708501,-0.30905914,0.86817807,0.8088039,0.008056411,0.585782,0.051289428,-0.15795328,-0.14537649,-0.09248883,1,0,0,0,0,0,-2.8372567,0.3027037,-1.5177262,-1.4448463,-7.8295317,2.2949872,0.59169525,0.3197491,1.0109096,-0.031024216
-12.536946,-37.336685,-17.476343,-35.259857,5.3766875,1.2461472,0.18880275,-0.88305265,-0.5617539,0.89596754,0.48376796,0.95220405,-0.9428404,0.9703004,0.43901876,0.09962763,1.5998119,1.3867236,2.026664,-1.1471007,1.8019316,0.49719965,0.13761896,1.5407163,1.3547167,1.9637778,-1.0829587,1.735977,-0.9096782,-0.33982447,0.9076731,0.46487927,0.9420628,-0.46314895,0.49166793,2.1227818,-0.4621377,2.0797453,-3.6188145,0.1414954,0.4949988,0.3701806,-0.30966115,0.86782056,0.8096138,0.009453634,0.5843828,0.054155488,-0.17071667,-0.15178497,-0.08804015,1,0,0,0,0,0,-2.8227818,0.3021377,-1.5197453,-1.5004872,-6.9587374,2.286732,0.61357015,0.07143616,1.0704993,-0.019833444
-10.82832,-34.431786,-15.848572,-35.74475,5.2169023,1.0703834,0.16755539,-0.87446433,-0.56313866,0.89374775,0.4776646,0.951914,-0.94564044,0.96800834,0.43598714,0.09819925,1.6032786,1.3881532,2.0304117,-1.1491535,1.8037376,0.49354398,0.13618499,1.5443746,1.3565801,1.9675467,-1.0848002,1.7379435,-0.9151449,-0.36472026,0.91666037,0.46628264,0.94218194,-0.4593845,0.49164048,2.108307,-0.4615717,2.081607,-3.6188145,0.1414954,0.4556365,0.36946583,-0.3102846,0.8674807,0.810443,0.010867819,0.5829331,0.057034463,-0.18206812,-0.1569723,-0.08363766,1,0,0,0,0,0,-2.808307,0.3015717,-1.5216072,-1.2189745,-6.218269,2.0957289,0.39628145,0.063568346,1.0793953,-0.020608304
-10.15594,-32.933247,-15.053265,-35.31678,5.0777493,1.006634,0.1714845,-0.87635756,-0.57346815,0.8987084,0.49069893,0.9575058,-0.9466893,0.96940845,0.43219894,0.096042216,1.6072842,1.3909291,2.0345721,-1.1510684,1.8058021,0.4898659,0.13465637,1.5480701,1.3584541,1.9713175,-1.0866265,1.73991,-0.92080003,-0.38799617,0.9257974,0.46904805,0.94290066,-0.45554134,0.4917219,2.093832,-0.4610057,2.0833116,-3.6188145,0.1414954,0.4162742,0.3687067,-0.3109281,0.86715543,0.81128854,0.012298413,0.58143646,0.059926208,-0.19272326,-0.16185796,-0.0799969,1,0,0,0,0,0,-2.793832,0.3010057,-1.5233116,-1.2566446,-5.813509,2.1230278,0.7371902,0.21490453,1.0978429,0.005885958
-9.342881,-31.56036,-14.273664,-35.728157,5.0065966,0.907461,0.1543006,-0.8744658,-0.5834171,0.8996804,0.48546135,0.9546163,-0.94660234,0.96587896,0.4286533,0.093817174,1.6110477,1.3924364,2.0381408,-1.1528887,1.8075216,0.48616588,0.13303906,1.5517999,1.3603357,1.9750903,-1.0884376,1.7418765,-0.92614913,-0.40978613,0.9345637,0.47097674,0.9432147,-0.4515875,0.49176395,2.0793571,-0.46043968,2.0848587,-3.6188145,0.1414954,0.37691188,0.36790657,-0.31158948,0.8668461,0.81214976,0.013742997,0.5798935,0.06282803,-0.20275034,-0.16611859,-0.07623272,1,0,0,0,0,0,-2.7793572,0.3004397,-1.5248587,-1.1644064,-5.4413075,2.013236,0.5296319,0.11715292,1.1255889,-0.005319714
-8.614028,-30.104633,-13.495033,-35.72528,4.8986225,0.8314823,0.14779922,-0.8747095,-0.59031504,0.90127313,0.48856187,0.9552393,-0.9455795,0.9718035,0.4249362,0.091717005,1.614889,1.3945351,2.041957,-1.1546282,1.8099027,0.48244488,0.13133949,1.555565,1.3622259,1.978864,-1.0902324,1.7438449,-0.9314353,-0.42991468,0.9430388,0.47309506,0.943563,-0.44751307,0.49203098,2.0648823,-0.45987368,2.0862484,-3.6188145,0.1414954,0.33754957,0.3670683,-0.31226683,0.86655027,0.8130239,0.015200307,0.57830715,0.065740384,-0.21211694,-0.16994904,-0.07278115,1,0,0,0,0,0,-2.7648823,0.29987368,-1.5262485,-1.136422,-5.0256248,1.9270777,0.577867,0.12832879,1.1546313,0.049799677
-7.7644362,-28.504166,-12.68741,-36.31167,4.828761,0.7389924,0.12244188,-0.87697756,-0.59066117,0.8986094,0.47702903,0.9542594,-0.9454633,0.97059196,0.42105645,0.08999321,1.6184677,1.395618,2.0456622,-1.1564147,1.8117863,0.4787022,0.12956613,1.5593616,1.3641208,1.9826386,-1.092011,1.7458133,-0.93683183,-0.44782957,0.95071363,0.47374442,0.9437712,-0.44335538,0.49230707,2.0504074,-0.45930767,2.0874803,-3.6188145,0.1414954,0.29818726,0.3661952,-0.3129573,0.8662689,0.8139098,0.016667593,0.57667935,0.06865793,-0.22080404,-0.17318128,-0.0690177,1,0,0,0,0,0,-2.7504075,0.29930767,-1.5274804,-1.146674,-4.471108,1.7082392,0.2119541,0.09667873,1.1743902,0.05111098
-6.852658,-26.644243,-11.720245,-36.327984,4.6913366,0.6539657,0.110526994,-0.8789323,-0.58873284,0.8989129,0.47739992,0.9549452,-0.9476057,0.97012746,0.41717693,0.08835483,1.6222855,1.3975388,2.0494847,-1.1583433,1.8137221,0.4749378,0.12772769,1.5631868,1.3660177,1.9864142,-1.0937724,1.7477835,-0.9422495,-0.46352327,0.95797026,0.47442025,0.94404083,-0.43920544,0.4926088,2.0359325,-0.45874166,2.0885549,-3.6188145,0.1414954,0.25882494,0.36529016,-0.3136599,0.86600167,0.8148053,0.018143633,0.5750126,0.071578294,-0.22863539,-0.1759048,-0.06560389,1,0,0,0,0,0,-2.7359326,0.29874167,-1.5285549,-1.1401175,-3.9152203,1.59052,0.21883844,0.11464953,1.1693238,0.05662441
-5.717942,-24.630802,-10.585138,-36.65004,4.570403,0.53790104,0.09513226,-0.8792986,-0.5851162,0.9017254,0.4709334,0.9557187,-0.9479539,0.96858895,0.41338688,0.08676955,1.6263075,1.398983,2.0533144,-1.1601292,1.8155848,0.4711522,0.12583297,1.5670406,1.3679155,1.9901917,-1.0955167,1.7497548,-0.94744456,-0.47705123,0.96506804,0.4743557,0.9443871,-0.4350291,0.4928956,2.0214577,-0.45817566,2.089472,-3.6188145,0.1414954,0.21946263,0.364357,-0.3143716,0.8657479,0.81570864,0.019625245,0.5733096,0.074500374,-0.23547862,-0.17786875,-0.06221413,1,0,0,0,0,0,-2.7214577,0.29817566,-1.5294721,-1.0708569,-3.3726244,1.5353559,0.034466382,0.13801454,1.1724381,0.0513941
-5.184003,-23.522964,-9.968044,-36.484737,4.4653997,0.4811468,0.09288326,-0.87746996,-0.58820766,0.9013947,0.4757881,0.95528734,-0.9460428,0.9703327,0.4097293,0.084658444,1.6301382,1.4012207,2.057062,-1.1617397,1.8176781,0.4673475,0.12388761,1.570922,1.3698143,1.9939702,-1.0972438,1.751727,-0.9521506,-0.48940867,0.9716276,0.47490218,0.94466144,-0.43078157,0.4932562,2.0069828,-0.45760965,2.090232,-3.6188145,0.1414954,0.18010032,0.3633976,-0.31508923,0.8655069,0.8166181,0.02111086,0.57157236,0.0774226,-0.24181144,-0.17955773,-0.059258062,1,0,0,0,0,0,-2.7069829,0.29760966,-1.530232,-0.939995,-3.0797122,1.3909637,0.18715857,0.12174248,1.187682,0.069454305
-5.182781,-23.643974,-9.966424,-36.906227,4.5047736,0.4406052,0.0852815,-0.876663,-0.6005697,0.90028566,0.46860957,0.95771354,-0.94571376,0.96863127,0.4059811,0.08184773,1.633942,1.402617,2.0610101,-1.1634438,1.8195312,0.4635247,0.121892884,1.5748273,1.3717121,1.9977496,-1.0989537,1.7537011,-0.956482,-0.50176394,0.97756493,0.47464812,0.94519645,-0.4265014,0.49358624,1.9925079,-0.45704365,2.0908344,-3.6188145,0.1414954,0.14073801,0.36241102,-0.31581378,0.86527914,0.8175333,0.022599878,0.5698012,0.0803437,-0.24828172,-0.18109792,-0.055866778,1,0,0,0,0,0,-2.692508,0.29704365,-1.5308344,-0.83291525,-3.0787883,1.221299,-0.011757015,0.18844007,1.1975764,0.06178021
-4.393442,-22.046677,-9.10919,-36.92194,4.382446,0.3671278,0.07708961,-0.8789317,-0.59629714,0.9016664,0.4674538,0.9585008,-0.94484425,0.9745538,0.40199947,0.08015208,1.637944,1.4044338,2.0648446,-1.1650928,1.8219199,0.45968473,0.119854346,1.5787555,1.3736099,2.0015326,-1.1006465,1.7556771,-0.96082217,-0.5122525,0.9832242,0.47435474,0.9457807,-0.42219207,0.4941017,1.9780331,-0.45647764,2.091279,-3.6188145,0.1414954,0.1013757,0.361403,-0.31654334,0.8650635,0.81845325,0.024091698,0.5679973,0.083264,-0.25399563,-0.18220967,-0.052759774,1,0,0,0,0,0,-2.678033,0.29647765,-1.5312791,-0.8248984,-2.6113985,1.1401473,-0.021651385,0.20307301,1.201108,0.107556574
-3.6039014,-20.663197,-8.315369,-37.286205,4.2899933,0.27819777,0.05794564,-0.87659,-0.5930467,0.89939654,0.45844975,0.9523755,-0.94418555,0.9694887,0.39832342,0.078341074,1.6417133,1.4057014,2.068199,-1.1667395,1.8235413,0.45582902,0.117778495,1.5827037,1.375503,2.0053167,-1.1023221,1.757655,-0.96458757,-0.5211948,0.9881578,0.47315055,0.94564384,-0.4178749,0.4944753,1.9635582,-0.45591164,2.0915663,-3.6188145,0.1414954,0.062013384,0.36037254,-0.31727552,0.86486155,0.81937695,0.025582828,0.56616247,0.08617957,-0.25904414,-0.1827738,-0.049573097,1,0,0,0,0,0,-2.6635582,0.29591164,-1.5315664,-0.66766137,-2.2238193,0.94351166,-0.24895369,0.026047228,1.2000351,0.07115304
-3.4508111,-20.286375,-8.018597,-36.78489,4.2149744,0.25006047,0.07243371,-0.87393117,-0.60176116,0.9031225,0.47112355,0.9561508,-0.9443601,0.9721424,0.39465386,0.075655214,1.6459223,1.4084816,2.0722473,-1.1684273,1.825705,0.45195997,0.11566694,1.5866729,1.377396,2.009101,-1.1039805,1.7596349,-0.96778965,-0.5301083,0.9931036,0.47356376,0.9459672,-0.41358787,0.49492824,1.9490833,-0.45534563,2.0916963,-3.6188145,0.1414954,0.022651065,0.35932398,-0.31800985,0.86466986,0.820302,0.02707405,0.5642996,0.08909289,-0.2639031,-0.18330675,-0.04703431,1,0,0,0,0,0,-2.6490834,0.29534563,-1.5316963,-0.52377576,-2.216935,0.9427368,0.15476345,0.1412928,1.1904387,0.091269605
-3.283279,-19.808811,-7.7988043,-36.939438,4.174957,0.2207168,0.060092617,-0.8722386,-0.60269755,0.89591324,0.46801427,0.9535948,-0.94184464,0.9697553,0.39090326,0.07347812,1.6493869,1.410157,2.0758526,-1.1699097,1.8275177,0.44807923,0.113522425,1.5906574,1.37929,2.012885,-1.1056218,1.7616156,-0.9705615,-0.5381226,0.9967895,0.47364652,0.9459985,-0.40924817,0.4953132,1.9346085,-0.45477962,2.0916688,-3.6188145,0.1414954,-0.016711254,0.3582549,-0.31874633,0.86448824,0.8212283,0.028565546,0.5624089,0.09200114,-0.26862794,-0.1837576,-0.044477884,1,0,0,0,0,0,-2.6346085,0.29477963,-1.5316689,-0.40513274,-1.9918083,0.61586493,0.07204711,0.06949901,1.2022703,0.07437169
-2.9019604,-19.082695,-7.326604,-36.838966,4.1075873,0.16917667,0.062026024,-0.8723796,-0.60520226,0.8994068,0.47124752,0.95682424,-0.9450261,0.9692951,0.38701266,0.07115827,1.6536158,1.4122773,2.0798628,-1.1717737,1.8294663,0.44418824,0.11134775,1.5946571,1.3811859,2.0166693,-1.1072459,1.7635983,-0.973136,-0.545514,1.0005338,0.47414368,0.9464198,-0.4050305,0.4956866,1.9201336,-0.45421362,2.091484,-3.6188145,0.1414954,-0.056073572,0.35716963,-0.31948423,0.8643159,0.8221547,0.030056434,0.5604919,0.094905205,-0.27299607,-0.18397102,-0.042170502,1,0,0,0,0,0,-2.6201336,0.29421362,-1.5314841,-0.34895536,-1.8358229,0.62260026,0.17538665,0.1682639,1.169294,0.07143616
-2.9164922,-19.113338,-7.2660217,-36.857433,4.097205,0.1418493,0.06305137,-0.8700817,-0.6137432,0.89879715,0.4727578,0.95647866,-0.9447397,0.9724027,0.3832825,0.06838573,1.6575729,1.414279,2.0836227,-1.1733778,1.8316665,0.4402882,0.10914309,1.5986701,1.3830847,2.0204554,-1.1088538,1.765582,-0.9752306,-0.5530285,1.0038364,0.47481802,0.9467868,-0.40082818,0.496148,1.9056587,-0.4536476,2.0911417,-3.6188145,0.1414954,-0.09543589,0.35606527,-0.32022285,0.8641525,0.8230815,0.031546682,0.55854803,0.0978046,-0.2774192,-0.18414797,-0.039898243,1,0,0,0,0,0,-2.6056588,0.29364762,-1.5311418,-0.22050737,-1.8665789,0.50300354,0.21973251,0.1553893,1.1651962,0.09365379
-2.562804,-18.523745,-6.8742585,-37.23644,4.0649514,0.08273983,0.049204156,-0.8745852,-0.6151558,0.90347886,0.46374476,0.95274836,-0.9460995,0.9681265,0.3790672,0.06608219,1.6619136,1.4155468,2.0871477,-1.1750808,1.8333508,0.43637884,0.10691048,1.6026965,1.3849825,2.0242434,-1.1104455,1.7675675,-0.9776345,-0.5598513,1.0073092,0.47447303,0.9467336,-0.39668566,0.49648446,1.8911839,-0.4530816,2.0906417,-3.6188145,0.1414954,-0.1347982,0.35494375,-0.32096076,0.86399937,0.82400846,0.03303461,0.55657744,0.10069928,-0.28156346,-0.1840231,-0.03736315,1,0,0,0,0,0,-2.591184,0.2930816,-1.5306418,-0.28601286,-1.6929208,0.53274626,-0.03457069,0.052362677,1.1491774,0.062078234
-2.1252074,-17.934793,-6.3970213,-37.490032,4.031481,0.011893816,0.046418905,-0.8720153,-0.6189915,0.9073133,0.4585686,0.95354265,-0.94400287,0.968914,0.37533778,0.06358108,1.6662085,1.4170823,2.0909913,-1.1765257,1.8353915,0.43246138,0.104651585,1.6067382,1.3868774,2.0280313,-1.11202,1.769555,-0.9794937,-0.56632984,1.0108113,0.47365636,0.9468156,-0.3925108,0.49684143,1.876709,-0.4525156,2.0899844,-3.6188145,0.1414954,-0.17416051,0.35380793,-0.32169747,0.8638572,0.8249346,0.034518,0.55458146,0.10358879,-0.28538182,-0.18351367,-0.0346675,1,0,0,0,0,0,-2.576709,0.2925156,-1.5299845,-0.1387298,-1.606196,0.52767986,-0.15224515,0.088304274,1.1553167,0.06695091
-1.8980784,-17.257961,-6.089825,-37.559734,3.9738464,-0.0150879845,0.03664694,-0.8727114,-0.6147735,0.9013143,0.455142,0.95367277,-0.9465798,0.9718808,0.37137157,0.061617438,1.6698302,1.4187374,2.0947886,-1.1782806,1.8375866,0.428537,0.102370396,1.6107904,1.3887686,2.0318193,-1.1135783,1.7715443,-0.9812092,-0.5716016,1.0132128,0.47261608,0.94693923,-0.38844734,0.49727777,1.8622341,-0.4519496,2.0891697,-3.6188145,0.1414954,-0.21352282,0.3526578,-0.3224311,0.8637253,0.8258593,0.03599631,0.55256176,0.106471114,-0.288966,-0.18293527,-0.032042187,1,0,0,0,0,0,-2.5622342,0.2919496,-1.5291698,-0.09313225,-1.3041793,0.24205445,-0.20889936,0.09939074,1.1246352,0.087171786
-1.8684381,-17.312393,-6.010292,-37.878754,3.9857454,-0.054682516,0.029612146,-0.87311596,-0.6210913,0.9030686,0.44736153,0.95201606,-0.94395757,0.9673462,0.3674189,0.058894005,1.6740052,1.4200839,2.0984604,-1.1796553,1.8392586,0.4246062,0.10006781,1.6148521,1.390654,2.0356073,-1.1151204,1.7735337,-0.98271704,-0.5769806,1.015458,0.47089002,0.9469023,-0.38434604,0.49757737,1.8477592,-0.4513836,2.0881977,-3.6188145,0.1414954,-0.25288513,0.35149193,-0.32316327,0.8636046,0.826783,0.03746803,0.5505175,0.10934509,-0.29259682,-0.1822289,-0.029112022,1,0,0,0,0,0,-2.5477593,0.2913836,-1.5281978,-0.030159948,-1.3305842,0.19121169,-0.3800541,0.060677525,1.1339335,0.05306303
-1.6427485,-16.98369,-5.686925,-37.71692,3.9427783,-0.09978085,0.03901705,-0.86822605,-0.6269856,0.9053473,0.45143414,0.9568261,-0.9462875,0.96853757,0.3638304,0.056178816,1.6782264,1.4222543,2.102585,-1.1813605,1.8413314,0.42067158,0.097743586,1.6189214,1.3925337,2.0393953,-1.1166463,1.775525,-0.98345107,-0.5824082,1.0176266,0.46988097,0.9474434,-0.3803548,0.49790972,1.8332844,-0.45081758,2.087068,-3.6188145,0.1414954,-0.29224744,0.35031223,-0.3238914,0.863495,0.82770497,0.038933024,0.5484498,0.112211354,-0.29604554,-0.18134299,-0.026416875,1,0,0,0,0,0,-2.5332844,0.2908176,-1.5270681,0.16930698,-1.3426541,0.16504525,-0.20147859,0.20575522,1.1038481,0.0616461
-1.8587148,-17.148664,-5.809433,-37.761635,3.9343107,-0.10085986,0.031783238,-0.8681702,-0.6309688,0.89918655,0.44911188,0.9524795,-0.94865966,0.9704321,0.35989967,0.05357577,1.6818645,1.4239715,2.1060688,-1.1830524,1.8434552,0.4167348,0.09539808,1.6229964,1.3944095,2.0431833,-1.1181569,1.7775182,-0.9840107,-0.5876657,1.0187507,0.46879232,0.9474697,-0.3764649,0.49829498,1.8188095,-0.45025158,2.0857809,-3.6188145,0.1414954,-0.33160976,0.3491187,-0.32461667,0.86339635,0.82862514,0.04039119,0.5463585,0.11507023,-0.2996888,-0.18061604,-0.023739202,1,0,0,0,0,0,-2.5188096,0.29025158,-1.5257809,0.22149085,-1.3002156,-0.10502338,-0.22198258,0.07668137,1.0778158,0.075757496
-1.4381216,-16.315224,-5.2680063,-37.50013,3.839251,-0.14285184,0.036371212,-0.86889833,-0.6310461,0.90511197,0.45394453,0.954287,-0.94566137,0.96783155,0.35591194,0.051224854,1.6863543,1.4261856,2.1099834,-1.1843532,1.8452663,0.41279566,0.09303339,1.6270782,1.3962835,2.0469732,-1.1196513,1.7795123,-0.9845021,-0.59233373,1.0202974,0.46842954,0.947733,-0.37253025,0.49860388,1.8043346,-0.44968557,2.0843363,-3.6188145,0.1414954,-0.37097207,0.3479123,-0.32533884,0.8633068,0.829543,0.041843325,0.54424435,0.11792227,-0.3028782,-0.17969473,-0.021486945,1,0,0,0,0,0,-2.5043347,0.28968558,-1.5243363,0.2427697,-1.1527239,-0.0045299525,-0.041440126,0.13679264,1.0851173,0.056669112
-1.5942799,-16.401447,-5.3744965,-37.96385,3.862226,-0.15551163,0.01795227,-0.87027895,-0.6302025,0.8953731,0.44160482,0.951433,-0.946835,0.9688567,0.35187614,0.048919216,1.6897542,1.4271958,2.1135736,-1.1859298,1.8473322,0.40885484,0.090651885,1.6311618,1.3981518,2.050765,-1.1211305,1.7815074,-0.98494375,-0.5963735,1.0203992,0.46679103,0.94768775,-0.36866677,0.49894038,1.7898598,-0.44911957,2.0827343,-3.6188145,0.1414954,-0.41033438,0.3466921,-0.32605624,0.86322784,0.8304585,0.04328786,0.5421077,0.12076456,-0.30625615,-0.17884359,-0.018778617,1,0,0,0,0,0,-2.4898598,0.28911957,-1.5227344,0.26884672,-0.9952783,-0.37974116,-0.36077198,0.060260292,1.0667889,0.064194195
-1.5806779,-16.649313,-5.2850075,-38.050297,3.8772824,-0.2012901,0.026226586,-0.8653884,-0.64182186,0.89951056,0.44073445,0.9544802,-0.9439709,0.967715,0.34827766,0.045724355,1.6941276,1.4290031,2.1175787,-1.1872084,1.8492475,0.4049145,0.088251665,1.6352464,1.4000143,2.0545568,-1.1225934,1.7835044,-0.98462677,-0.60125166,1.0207641,0.4653013,0.9480266,-0.36476234,0.49924436,1.7753849,-0.44855356,2.080975,-3.6188145,0.1414954,-0.4496967,0.34545803,-0.32677054,0.86316,0.83137167,0.04472479,0.5399484,0.12359759,-0.30971682,-0.1778338,-0.015953936,1,0,0,0,0,0,-2.475385,0.28855357,-1.5209751,0.46682355,-1.2047886,-0.32305714,-0.3237128,0.15705822,1.0763555,0.05637109
-1.6822053,-16.5896,-5.2578993,-37.84222,3.8395123,-0.20284171,0.027072033,-0.86738646,-0.64537954,0.89900315,0.44386536,0.9541465,-0.9442629,0.9664479,0.34419745,0.043075096,1.6981766,1.4310849,2.1213472,-1.1886919,1.8511558,0.4009751,0.08583243,1.6393319,1.401873,2.0583487,-1.1240411,1.7855023,-0.98441607,-0.6059732,1.0208492,0.46439055,0.9483235,-0.36090586,0.49951681,1.76091,-0.44798756,2.0790582,-3.6188145,0.1414954,-0.489059,0.34421015,-0.32748103,0.8631024,0.8322824,0.0461542,0.5377669,0.12642205,-0.31321412,-0.17696056,-0.01341812,1,0,0,0,0,0,-2.46091,0.28798756,-1.5190582,0.44494864,-1.1658965,-0.39798018,-0.1799315,0.146389,1.062557,0.049024817
-1.163934,-15.62777,-4.658204,-37.95426,3.7537613,-0.2594514,0.020720618,-0.8690267,-0.64139044,0.9018141,0.43860283,0.9508396,-0.94543993,0.97260046,0.34014323,0.0409351,1.702459,1.4325752,2.1249075,-1.1902219,1.8535843,0.39703643,0.083397284,1.6434175,1.403726,2.0621405,-1.1254735,1.7875022,-0.9842287,-0.60970706,1.021021,0.46305236,0.94825715,-0.35712638,0.49996656,1.7464352,-0.44742155,2.0769837,-3.6188145,0.1414954,-0.52842134,0.3429489,-0.32818794,0.8630546,0.8331898,0.047575124,0.5355644,0.12923661,-0.31620565,-0.17577459,-0.010935616,1,0,0,0,0,0,-2.4464352,0.28742155,-1.5169837,0.4482269,-0.9185075,-0.38641688,-0.28751788,0.056743618,1.0393559,0.09326636
-0.95688844,-15.211209,-4.3819966,-38.238808,3.730267,-0.29991522,0.009822216,-0.86973107,-0.6392967,0.9000408,0.42987904,0.9521944,-0.9454611,0.964246,0.33615527,0.038646515,1.7064203,1.4338175,2.1287942,-1.1916558,1.8549994,0.3930987,0.0809492,1.647503,1.4055723,2.0659323,-1.1268907,1.789503,-0.98391044,-0.61277515,1.0207094,0.460948,0.94839174,-0.3533978,0.50017315,1.7319603,-0.44685555,2.0747519,-3.6188145,0.1414954,-0.56778365,0.34167862,-0.32888937,0.86301756,0.83409363,0.048986595,0.5333417,0.13204065,-0.31902716,-0.17442968,-0.008215662,1,0,0,0,0,0,-2.4319603,0.28685555,-1.5147519,0.4920065,-0.7516145,-0.5189776,-0.47978756,0.1079142,1.0239481,0.032812353
-1.1097376,-15.484809,-4.4043026,-37.780365,3.693541,-0.30802926,0.026157955,-0.86050224,-0.6503885,0.8975289,0.44108132,0.94957083,-0.9456392,0.9722056,0.33286357,0.03542201,1.71033,1.436448,2.1324022,-1.1930854,1.8575574,0.389166,0.07848616,1.6515857,1.4074148,2.069724,-1.1282935,1.7915047,-0.9823686,-0.6167329,1.0198939,0.4603903,0.9482488,-0.34973133,0.5006089,1.7174854,-0.44628954,2.0723627,-3.6188145,0.1414954,-0.60714597,0.3403945,-0.3295853,0.8629896,0.83499354,0.050388567,0.531099,0.13483556,-0.32198456,-0.17318185,-0.0060330564,1,0,0,0,0,0,-2.4174855,0.28628954,-1.5123627,0.7992982,-0.9746849,-0.64682955,-0.09456276,0.037550922,1.0063498,0.090897076
-1.1496046,-15.423551,-4.3209414,-37.573254,3.66375,-0.31927043,0.030628229,-0.8605849,-0.654803,0.89907646,0.44600272,0.9533818,-0.9464982,0.96488637,0.32892504,0.03264995,1.714521,1.438635,2.1364608,-1.1945484,1.8590468,0.38523972,0.0760072,1.6556646,1.4092563,2.0735178,-1.1296821,1.7935075,-0.9807673,-0.6207321,1.0190614,0.46049973,0.9485849,-0.34613755,0.5008361,1.7030106,-0.44572353,2.069816,-3.6188145,0.1414954,-0.6465083,0.33909893,-0.3302765,0.8629705,0.83588964,0.05178232,0.5288355,0.13762267,-0.3249481,-0.17199263,-0.004096071,1,0,0,0,0,0,-2.4030106,0.28572354,-1.5098162,0.8181929,-0.9852945,-0.6554126,0.07109343,0.15679,0.9859651,0.039547678
-0.9904538,-15.206034,-4.1162043,-38.181297,3.6777284,-0.37112772,0.016581174,-0.86168116,-0.65400195,0.8973352,0.43089867,0.95368916,-0.9479211,0.9691261,0.32492203,0.030227065,1.718478,1.4394193,2.140276,-1.1960366,1.8613462,0.38131964,0.07351388,1.6597387,1.4110941,2.0773134,-1.1310573,1.7955121,-0.9791679,-0.6241803,1.0177819,0.45895985,0.948962,-0.3426263,0.5011904,1.6885357,-0.44515753,2.067112,-3.6188145,0.1414954,-0.6858706,0.3377924,-0.33096266,0.8629602,0.8367819,0.05316689,0.52655166,0.1404016,-0.3278456,-0.1705834,-0.0015339747,1,0,0,0,0,0,-2.3885357,0.28515753,-1.507112,0.8333027,-0.84692234,-0.7833242,-0.34153458,0.16841291,0.96377724,0.07146596
-0.69041383,-14.69998,-3.7323542,-38.33438,3.6314824,-0.4183322,0.012706425,-0.86110413,-0.6535979,0.8990361,0.42510113,0.9530663,-0.9480758,0.9707582,0.32104236,0.02776203,1.7226712,1.4408511,2.144028,-1.1974225,1.8634652,0.37740648,0.0710081,1.663808,1.4129232,2.081109,-1.1324172,1.7975186,-0.97737384,-0.62718415,1.0164878,0.4569948,0.94926494,-0.33917287,0.5015913,1.6740608,-0.44459152,2.0642502,-3.6188145,0.1414954,-0.7252329,0.3364749,-0.33164215,0.8629608,0.8376701,0.054539677,0.52424836,0.14317037,-0.3304744,-0.1689542,0.0011048043,1,0,0,0,0,0,-2.3740609,0.28459153,-1.5042503,0.8912086,-0.73552126,-0.79685444,-0.44870374,0.15076993,0.94607466,0.08314847
-0.87075156,-15.006855,-3.8201122,-38.51503,3.6563625,-0.43751156,0.010802358,-0.86072415,-0.6590938,0.89796543,0.41978303,0.95602024,-0.94880474,0.9681897,0.31715578,0.024871536,1.7266656,1.4423081,2.1480305,-1.1988336,1.8652918,0.37350118,0.06848945,1.6678706,1.4147447,2.0849085,-1.1337638,1.7995261,-0.9754018,-0.63045555,1.0148451,0.45470595,0.94989944,-0.33579198,0.5019178,1.659586,-0.44402552,2.0612311,-3.6188145,0.1414954,-0.7645952,0.33514404,-0.33231544,0.862973,0.83855516,0.05590126,0.521924,0.14592977,-0.3333196,-0.16736604,0.0039679655,1,0,0,0,0,0,-2.359586,0.28402552,-1.5012312,0.94467396,-0.8024871,-0.89311594,-0.5304664,0.2337992,0.9269714,0.06505846
-1.0593611,-15.137536,-3.8693333,-38.10953,3.6144776,-0.4288189,0.018206693,-0.8583333,-0.6655854,0.89634746,0.42770624,0.9543411,-0.94633216,0.9665386,0.31341785,0.02189847,1.7306149,1.4446841,2.1517124,-1.2000071,1.8671838,0.3696047,0.06595673,1.6719257,1.4165596,2.088708,-1.135097,1.8015345,-0.973066,-0.63407785,1.0128517,0.45360664,0.95029944,-0.33239263,0.50220627,1.6451111,-0.4434595,2.0580547,-3.6188145,0.1414954,-0.8039575,0.33380365,-0.33298302,0.8629946,0.839436,0.0572512,0.5195806,0.14867924,-0.33627626,-0.16597651,0.0063397298,1,0,0,0,0,0,-2.3451111,0.2834595,-1.4980547,1.0363756,-0.89079136,-0.98168844,-0.23472308,0.17368792,0.92913204,0.05662441
-0.8872158,-14.824647,-3.612458,-38.35765,3.5929258,-0.4675368,0.012603458,-0.85918206,-0.6657124,0.8971337,0.42002222,0.95538837,-0.94422024,0.9686479,0.30946195,0.019356858,1.734725,1.4459611,2.155585,-1.2011925,1.86934,0.36571753,0.063410714,1.675973,1.4183687,2.0925112,-1.1364169,1.8035449,-0.9707228,-0.6372957,1.0107621,0.45181426,0.95080763,-0.32898444,0.50256354,1.6306362,-0.4428935,2.0547209,-3.6188145,0.1414954,-0.84331983,0.33245134,-0.33364487,0.86302656,0.8403132,0.05859022,0.5172163,0.1514205,-0.33909053,-0.16444069,0.008934706,1,0,0,0,0,0,-2.3306363,0.2828935,-1.4947209,1.0486244,-0.78946346,-1.0165571,-0.40888783,0.20146368,0.9286552,0.073939554
-0.26830864,-13.58237,-2.8738632,-37.92031,3.44902,-0.5051553,0.019094627,-0.85405236,-0.6602589,0.89721483,0.42716372,0.957035,-0.9456412,0.96857363,0.30593386,0.017192591,1.7387781,1.4482702,2.1595037,-1.2026118,1.871345,0.3618418,0.06085476,1.6800109,1.420174,2.0963163,-1.1377234,1.8055562,-0.96771383,-0.6395306,1.0085195,0.4510607,0.95147437,-0.32569128,0.5029232,1.6161613,-0.4423275,2.0512297,-3.6188145,0.1414954,-0.88268214,0.33109045,-0.3342991,0.86306715,0.8411851,0.059918143,0.5148343,0.15415236,-0.34122223,-0.16266318,0.010887568,1,0,0,0,0,0,-2.3161614,0.2823275,-1.4912298,1.2162625,-0.5438625,-1.0566114,-0.15130638,0.24101137,0.89322025,0.07462501
-0.70062065,-14.33423,-3.2029707,-38.005497,3.48007,-0.5099985,0.01669587,-0.8512164,-0.6707392,0.8940362,0.42579904,0.9498223,-0.9496687,0.9672837,0.30225664,0.013903018,1.7425934,1.4499799,2.162804,-1.2042003,1.873266,0.35797942,0.05828714,1.6840383,1.4219755,2.1001196,-1.1390176,1.8075684,-0.9643127,-0.6426786,1.0057138,0.4502762,0.95129,-0.32258242,0.50324845,1.6016865,-0.4417615,2.0475807,-3.6188145,0.1414954,-0.92204446,0.3297186,-0.3349471,0.8631156,0.8420513,0.061234184,0.5124354,0.15687504,-0.343803,-0.16105205,0.012923322,1,0,0,0,0,0,-2.3016865,0.2817615,-1.4875808,1.3210176,-0.77250594,-1.2040137,-0.15999375,0.027775763,0.84719056,0.06669759
-0.6469291,-13.961581,-3.0400796,-38.154236,3.4436479,-0.5178833,0.0052600987,-0.8579181,-0.66654885,0.89434916,0.41890544,0.9485546,-0.93986684,0.9643579,0.29792514,0.011628721,1.7466427,1.4512988,2.1665184,-1.2048082,1.8750734,0.35412824,0.055709418,1.6880542,1.4237722,2.1039228,-1.1402984,1.8095826,-0.96162564,-0.64499295,1.0027925,0.44884112,0.9510154,-0.31925812,0.5034999,1.5872116,-0.4411955,2.0437744,-3.6188145,0.1414954,-0.96140677,0.32833767,-0.33558893,0.8631726,0.8429121,0.062538914,0.51001936,0.15958786,-0.3462582,-0.15949881,0.015055169,1,0,0,0,0,0,-2.2872117,0.2811955,-1.4837744,1.1497735,-0.5641281,-1.2401341,-0.3239065,0.004857778,0.89821213,0.04857778
-0.8674018,-14.308866,-3.14528,-38.03374,3.4479384,-0.5290575,0.012333002,-0.8559871,-0.6740815,0.89365834,0.42193887,0.94994885,-0.9478904,0.9669468,0.29420915,0.008523714,1.7506102,1.453308,2.1704192,-1.2066507,1.8772689,0.350289,0.0531207,1.6920577,1.4255642,2.107726,-1.1415668,1.8115977,-0.95859796,-0.6478808,0.99965125,0.44793734,0.9509554,-0.3162341,0.5038364,1.5727367,-0.44062948,2.0398107,-3.6188145,0.1414954,-1.0007691,0.32694578,-0.33622503,0.86323804,0.8437676,0.06383232,0.507586,0.16229047,-0.34894547,-0.15803047,0.017071232,1,0,0,0,0,0,-2.2727368,0.2806295,-1.4798107,1.2386142,-0.7079541,-1.2987553,-0.19244848,0.057637688,0.82153076,0.0706911
-0.71416676,-14.174841,-2.9031997,-38.180466,3.4375381,-0.5721016,0.015743027,-0.85239714,-0.6784585,0.8956365,0.41861665,0.95443946,-0.9424291,0.9675519,0.2906212,0.0056286044,1.7547523,1.4548674,2.174537,-1.2075368,1.8793263,0.34646308,0.05052,1.6960489,1.4273523,2.1115313,-1.1428227,1.8136138,-0.95505613,-0.6509226,0.99658346,0.44679043,0.9514363,-0.313116,0.50420076,1.5582619,-0.44006348,2.0356896,-3.6188145,0.1414954,-1.0401316,0.32554293,-0.33685446,0.8633119,0.84461784,0.065114096,0.5051347,0.16498354,-0.3515432,-0.1563869,0.01925985,1,0,0,0,0,0,-2.258262,0.28006348,-1.4756896,1.3754963,-0.7463991,-1.2890993,-0.2544373,0.19320844,0.84212416,0.07784366
-0.59782004,-14.029034,-2.6851768,-38.14591,3.401463,-0.60696805,0.018830104,-0.84859455,-0.6834655,0.89728135,0.41899198,0.9535981,-0.9454912,0.96629095,0.28706145,0.0026774146,1.7588586,1.4566817,2.1782832,-1.2090071,1.8812542,0.34265292,0.047906484,1.7000285,1.4291366,2.1153383,-1.1440663,1.8156317,-0.95102465,-0.654173,0.99353445,0.445839,0.9517943,-0.31015527,0.5045402,1.543787,-0.43949747,2.0314112,-3.6188145,0.1414954,-1.079494,0.32413054,-0.33747697,0.86339426,0.8454631,0.0663837,0.502665,0.16766989,-0.3540509,-0.1546138,0.021364918,1,0,0,0,0,0,-2.243787,0.27949747,-1.4714112,1.5037357,-0.798732,-1.2904702,-0.20690261,0.16209482,0.79981977,0.07206201
-0.4471914,-13.626599,-2.4484267,-38.503525,3.3785148,-0.6373892,0.005829416,-0.84778315,-0.67908144,0.89161336,0.40761614,0.9544055,-0.94351184,0.96664315,0.2833081,0.00037078187,1.7624415,1.4576697,2.1821468,-1.2101122,1.8832967,0.3388592,0.04528257,1.703993,1.4309143,2.1191454,-1.1452985,1.8176516,-0.9468562,-0.6565557,0.9896448,0.44374162,0.9522306,-0.30721065,0.5049001,1.5293121,-0.43893147,2.026975,-3.6188145,0.1414954,-1.1188564,0.32270908,-0.33809233,0.8634852,0.8463025,0.06764019,0.50017875,0.17034699,-0.35641325,-0.1527541,0.023808137,1,0,0,0,0,0,-2.2293122,0.27893147,-1.466975,1.549065,-0.58165187,-1.5116333,-0.49498674,0.18203257,0.79204136,0.07721781
-0.6152162,-13.706667,-2.4897351,-38.376747,3.3588498,-0.6378595,0.0057493076,-0.8514353,-0.6817588,0.8927152,0.4083004,0.95486706,-0.9486477,0.96310294,0.27925873,-0.0024405494,1.7664831,1.4594953,2.185986,-1.2117038,1.8850689,0.33508122,0.042649087,1.7079421,1.4326843,2.1229563,-1.1465201,1.8196715,-0.9430727,-0.6589614,0.98578095,0.44197157,0.952686,-0.30449203,0.5051716,1.5148373,-0.43836546,2.0223813,-3.6188145,0.1414954,-1.1582189,0.3212757,-0.3387003,0.8635864,0.84713733,0.06888169,0.49767432,0.17301431,-0.35889292,-0.15103008,0.02608898,1,0,0,0,0,0,-2.2148373,0.27836546,-1.4623814,1.4550089,-0.58788055,-1.5070437,-0.41463968,0.18581747,0.73345,0.05576014
-0.7802563,-13.945995,-2.5516133,-38.507114,3.3611426,-0.65238315,0.00268697,-0.84931415,-0.6866097,0.889287,0.40375257,0.9514966,-0.94532645,0.96601164,0.27562922,-0.005413592,1.7701923,1.460947,2.1895611,-1.212693,1.8872924,0.3313192,0.040005203,1.7118741,1.4344467,2.1267672,-1.1477304,1.8216933,-0.9389602,-0.66162986,0.9814064,0.4399031,0.95272964,-0.30174828,0.50554377,1.5003624,-0.43779945,2.0176303,-3.6188145,0.1414954,-1.1975813,0.3198347,-0.33930182,0.86369675,0.84796655,0.070110336,0.4951534,0.17567113,-0.36154366,-0.14936258,0.028486945,1,0,0,0,0,0,-2.2003624,0.27779946,-1.4576304,1.543641,-0.6538033,-1.6409754,-0.4907548,0.08207559,0.7376521,0.08147954
-0.7751356,-13.981284,-2.4494267,-38.790443,3.3730392,-0.688607,0.00094401836,-0.84910506,-0.6896057,0.88968515,0.39549148,0.95604086,-0.9458322,0.9680522,0.27188185,-0.008267198,1.774152,1.4621311,2.19369,-1.2139386,1.889457,0.3275739,0.03735056,1.715789,1.4361986,2.13058,-1.1489291,1.823717,-0.9347478,-0.6643232,0.9769863,0.43714973,0.953295,-0.29908958,0.50598687,1.4858875,-0.43723345,2.012722,-3.6188145,0.1414954,-1.2369437,0.3183818,-0.33989596,0.86381763,0.8487909,0.071323596,0.49261504,0.17831783,-0.3642469,-0.14759831,0.031222003,1,0,0,0,0,0,-2.1858876,0.27723345,-1.4527221,1.5775262,-0.6600916,-1.6610919,-0.66334003,0.21266936,0.7138997,0.099360935
-0.47814798,-13.512411,-2.0418632,-38.499405,3.2947469,-0.72242,0.0100048445,-0.8438171,-0.69358957,0.8931348,0.4003222,0.95678014,-0.9465703,0.96281564,0.2685067,-0.011200707,1.7783084,1.4642211,2.1975546,-1.215189,1.8911141,0.32384717,0.034684714,1.7196866,1.4379419,2.1343946,-1.1501184,1.8257426,-0.9298956,-0.6671509,0.97288775,0.43524975,0.9538889,-0.2965289,0.50629485,1.4714127,-0.43666744,2.0076563,-3.6188145,0.1414954,-1.2763062,0.31691885,-0.34048295,0.8639485,0.8496101,0.07252166,0.49005955,0.18095568,-0.36665124,-0.145656,0.03357854,1,0,0,0,0,0,-2.1714127,0.27666745,-1.4476564,1.7384886,-0.694096,-1.5818475,-0.45171377,0.21904705,0.6850063,0.06580352
-0.19352,-12.845406,-1.642098,-38.203606,3.1917684,-0.7385051,0.012017205,-0.8412868,-0.6923771,0.89324236,0.40380612,0.95142126,-0.94695294,0.96650124,0.2649571,-0.013781682,1.7822136,1.4662083,2.200994,-1.216405,1.8933977,0.32014072,0.032008972,1.7235671,1.4396785,2.1382093,-1.1512971,1.8277692,-0.9247744,-0.66951656,0.9686863,0.43395337,0.9538272,-0.29406592,0.50672185,1.4569378,-0.43610144,2.0024328,-3.6188145,0.1414954,-1.3156686,0.31544638,-0.34106207,0.86408764,0.850423,0.07370494,0.48748827,0.18358502,-0.36869162,-0.1436371,0.035480738,1,0,0,0,0,0,-2.1569378,0.27610144,-1.4424329,1.8059014,-0.57899946,-1.6076862,-0.30270216,0.054687258,0.65574044,0.09545683
-0.46644828,-13.057316,-1.7902515,-38.14342,3.1825109,-0.7280688,0.008208567,-0.8449601,-0.6952366,0.89256185,0.4034612,0.9484771,-0.94439006,0.96405715,0.2609935,-0.01665759,1.7860465,1.4679208,2.2046027,-1.2174044,1.8952532,0.31645358,0.029323619,1.7274305,1.4414114,2.142024,-1.1524663,1.8297967,-0.92008823,-0.67192906,0.9642825,0.43276063,0.95345217,-0.29161873,0.5070891,1.4424629,-0.43553543,1.9970521,-3.6188145,0.1414954,-1.355031,0.31396627,-0.34163308,0.86423415,0.8512292,0.07487399,0.48490205,0.18620615,-0.3709355,-0.14183459,0.037287816,1,0,0,0,0,0,-2.142463,0.27553543,-1.437052,1.6988217,-0.5912482,-1.6593634,-0.27839836,-0.025004147,0.6499141,0.08115172
