Afshin1997/kuka_rl_ros2/src/catch_and_throw/input_files/idealpd/ft_idealpd2.csv
torque0,torque1,torque2,torque3,torque4,torque5,torque6,action0,action1,action2,action3,action4,action5,action6,set_target_0,set_target_1,set_target_2,set_target_3,set_target_4,set_target_5,set_target_6,joint_pos_0,joint_pos_1,joint_pos_2,joint_pos_3,joint_pos_4,joint_pos_5,joint_pos_6,joint_vel_0,joint_vel_1,joint_vel_2,joint_vel_3,joint_vel_4,joint_vel_5,joint_vel_6,tennisball_pos_0,tennisball_pos_1,tennisball_pos_2,tennisball_lin_vel_0,tennisball_lin_vel_1,tennisball_lin_vel_2,end_effector_pos_0,end_effector_pos_1,end_effector_pos_2,end_effector_rot_0,end_effector_rot_1,end_effector_rot_2,end_effector_rot_3,end_effector_lin_vel_0,end_effector_lin_vel_1,end_effector_lin_vel_2,obs_task_0,obs_task_1,obs_task_2,obs_task_3,obs_task_4,obs_task_5,obs_task_6,to_final_target_0,to_final_target_1,to_final_target_2,joint_acc_0,joint_acc_1,joint_acc_2,joint_acc_3,joint_acc_4,joint_acc_5,joint_acc_6
0,0,0,0,0,0,0,0,0,0,0,0,0,0,1.7802359,-1.0646509,-1.8151424,-1.1170107,1.9373155,1.1170107,-0.91629785,1.7802359,-1.0646509,-1.8151424,-1.1170107,1.9373155,1.1170107,-0.91629785,0,0,0,0,0,0,0,2.9125443,-0.5512123,0.43906718,-2.887864,0.011722549,4.7041903,0.5304184,-0.45449448,0.693097,0.5745483,0.17512383,0.15255436,0.7848268,0,0,0,1,0,0,0,0,0,0,-3.5625443,0.1512123,0.11093283,0,0,0,0,0,0,0
-65.81183,176,85.55612,88.11651,6.6208043,9.881307,-1.7183441,-0.18889658,0.688032,0.3421184,0.78358144,0.5382452,0.29638982,0.10655456,1.7613462,-0.9958477,-1.7809305,-1.0386525,1.99114,1.1466497,-0.9056424,1.7788988,-1.0650533,-1.8070171,-1.112454,1.9335542,1.1141955,-0.9173984,-0.177215,-0.053372543,1.0827172,0.608302,-0.50221163,-0.37489623,-0.14569815,2.8836594,-0.55109787,0.48537183,-2.887864,0.011722549,4.6058884,0.52892303,-0.45508575,0.6967172,0.57627064,0.1726188,0.15150952,0.7843212,-0.1991427,-0.07813942,0.48279622,1,0,0,0,0,0,0,-3.5336595,0.15109786,0.064628184,-17.467653,-5.28514,108.08447,61.07201,-50.446392,-37.402725,-14.273503
-176,117.54276,13.366464,110,10.988999,5.846442,-4.007335,-0.82450324,0.63840204,-0.5843258,0.8253353,0.553612,-0.523111,0.100682355,1.6964486,-1.0012132,-1.8654497,-1.0299206,1.9889153,1.0618844,-0.90733016,1.7749163,-1.0617288,-1.8018787,-1.1031576,1.9366097,1.1144301,-0.92185396,-0.47165272,0.46198863,0.32037583,1.0382158,0.5779546,0.15763721,-0.5449164,2.8547745,-0.5509834,0.5306935,-2.887864,0.011722549,4.5075865,0.5245514,-0.45883942,0.7028578,0.5825107,0.16848268,0.14820144,0.7812368,-0.5176622,-0.4755688,0.6566971,1,0,0,0,0,0,0,-3.5047746,0.15098342,0.01930654,-29.317999,51.8052,-77.344505,43.483627,108.95987,53.643272,-39.76364
-174.76569,176,55.401615,110,9.626816,9.472201,-2.6672802,-0.8400886,0.7709342,0.41882482,0.82514054,0.59042716,-0.26645747,0.23298973,1.6909075,-0.9846354,-1.7599962,-1.0206436,1.9956524,1.0877843,-0.898555,1.7659994,-1.0543817,-1.7966449,-1.0912272,1.9448953,1.1148974,-0.92888635,-1.031314,0.8248413,0.5913367,1.2465353,0.91257054,0.005606967,-0.75619024,2.8258896,-0.550869,0.5750321,-2.887864,0.011722549,4.4092846,0.51670074,-0.46527863,0.7120618,0.5925802,0.16322938,0.1430671,0.77571684,-0.87718505,-0.6974468,1.0075103,1,0,0,0,0,0,0,-3.4758897,0.15086898,-0.025032103,-55.87473,36.048973,27.15717,21.405363,33.559547,-16.456928,-21.186197
-116.63217,176,58.27901,83.48651,6.2961864,8.688264,-1.5987351,-0.8261389,0.7895456,0.5001526,0.8292319,0.60179985,-0.08061229,-0.055491738,1.6833855,-0.97542715,-1.7466297,-1.008304,2.0050752,1.1068362,-0.93443555,1.7528521,-1.043382,-1.7896183,-1.0772673,1.9551015,1.1147333,-0.936037,-1.4092816,1.1906607,0.7403538,1.448002,1.0570393,-0.028991219,-0.70147663,2.7970047,-0.55075455,0.61838764,-2.887864,0.011722549,4.3109827,0.50582886,-0.47294617,0.7244335,0.6048189,0.15650906,0.13710465,0.7687011,-1.1652926,-0.78154886,1.3126473,1,0,0,0,0,0,0,-3.4470048,0.15075454,-0.06838763,-37.80968,36.24885,15.093088,20.84639,14.593554,-5.0178456,5.436766
-47.27539,156.71028,58.677002,47.458633,2.9322748,7.3867183,-0.46325547,-0.82697946,0.78965753,0.67183834,0.8246361,0.5867673,0.14279836,-0.10998131,1.6701541,-0.96441627,-1.7224344,-0.99480367,2.0137782,1.1290132,-0.94703513,1.7372175,-1.0297216,-1.7804077,-1.0620276,1.9656873,1.1144358,-0.94239706,-1.6152892,1.4232078,0.9835202,1.551007,1.0588335,-0.034165192,-0.61489964,2.7681198,-0.5506401,0.66076016,-2.887864,0.011722549,4.212681,0.49280548,-0.48044586,0.73932403,0.6177718,0.1481174,0.13074489,0.76113397,-1.3571898,-0.7244125,1.5461375,1,0,0,0,0,0,0,-3.41812,0.1506401,-0.11076015,-20.724033,22.870613,24.962246,10.822678,0.105428696,-1.784829,8.423638
3.4401453,122.11995,48.6514,17.255299,0.47549075,5.1946545,0.36634654,-0.82853615,0.7942404,0.72104,0.81669676,0.59464276,0.3112621,0.021086985,1.6543639,-0.9502976,-1.7083037,-0.9803579,2.0251515,1.145562,-0.94028836,1.7206236,-1.0146707,-1.768996,-1.0463434,1.9759068,1.114308,-0.9477872,-1.6744839,1.5313771,1.1964434,1.5749592,1.0088816,-0.007827612,-0.5149638,2.739235,-0.55052567,0.7021497,-2.887864,0.011722549,4.114379,0.47859955,-0.48687744,0.7557592,0.63034564,0.13830532,0.124162614,0.7537371,-1.4526873,-0.59586054,1.6728555,1,0,0,0,0,0,0,-3.389235,0.15052566,-0.15214968,-6.0707808,10.492492,22.114325,2.61209,-5.1826477,1.9543148,9.613848
32.00563,92.48805,37.89641,-1.8449278,-0.93158305,3.2723527,0.82946515,-0.8226288,0.80753756,0.75046957,0.8052819,0.59934574,0.34424946,0.1213512,1.6383607,-0.933917,-1.693949,-0.96581525,2.0358415,1.1487329,-0.9356521,1.7041193,-0.9991715,-1.7558868,-1.0308233,1.9855561,1.1145083,-0.9521913,-1.6428521,1.5553705,1.3518219,1.5443377,0.94955426,0.028468857,-0.41710082,2.71035,-0.5504112,0.7425562,-2.887864,0.011722549,4.016077,0.46395874,-0.49188232,0.7728248,0.6419024,0.12752767,0.117485866,0.7469237,-1.4774241,-0.4448995,1.7130883,1,0,0,0,0,0,0,-3.3603501,0.15041122,-0.1925562,3.0202866,2.1385193,16.41059,-3.1093597,-6.1846375,3.4337242,9.309077
39.4719,69.509735,27.712185,-9.62037,-1.392134,1.8588107,0.92544746,-0.8183298,0.810644,0.7569828,0.797704,0.5949239,0.35399175,0.16911285,1.6222863,-0.9181071,-1.6801885,-0.95105296,2.0450485,1.1499075,-0.93528,1.6882044,-0.98377824,-1.7417781,-1.0157686,1.9946771,1.1150748,-0.9556827,-1.5747818,1.5333338,1.4332451,1.49178,0.89893013,0.066240914,-0.32810396,2.6814651,-0.5502968,0.78197974,-2.887864,0.011722549,3.9177747,0.4493637,-0.49549484,0.7898564,0.65224165,0.11623186,0.110823356,0.740803,-1.4642503,-0.30907756,1.6936458,1,0,0,0,0,0,0,-3.3314652,0.15029678,-0.23197973,6.681609,-2.3954153,8.9172125,-5.4674864,-5.293417,3.8720682,8.427668
35.362667,56.8348,21.029238,-9.947964,-1.3253369,1.114369,0.82035154,-0.81515074,0.8128901,0.7634077,0.78398025,0.5809173,0.37154463,0.19433054,1.6066893,-0.90248924,-1.6654373,-0.9373706,2.0527687,1.1522292,-0.9362496,1.6729609,-0.9687102,-1.7272766,-1.0012633,2.0033731,1.1160017,-0.95836633,-1.5077763,1.4975543,1.4578302,1.4358158,0.85934347,0.10239487,-0.24988613,2.6525803,-0.55018234,0.82042027,-2.887864,0.011722549,3.8194723,0.43495178,-0.49793243,0.80648595,0.66143763,0.10472437,0.10426912,0.7352965,-1.4395918,-0.1983662,1.6454631,1,0,0,0,0,0,0,-3.3025804,0.15018234,-0.27042025,6.5838814,-3.715372,3.090024,-5.8653355,-4.1230917,3.8338885,7.413024
26.98787,51.428493,17.275517,-6.6389933,-1.0539334,0.82485163,0.6194892,-0.80806935,0.8133437,0.7559219,0.77531415,0.55943817,0.42557022,0.20545375,1.5921539,-0.88737583,-1.6516844,-0.92373186,2.0593169,1.1585587,-0.937821,1.6582686,-0.95396733,-1.7128341,-0.9872358,2.0117273,1.1172949,-0.96035284,-1.4569218,1.4661801,1.4412876,1.3908168,0.826799,0.13906527,-0.18263847,2.6236954,-0.5500679,0.8578777,-2.887864,0.011722549,3.72117,0.42076874,-0.4994316,0.8225748,0.6696946,0.09315124,0.0979072,0.730237,-1.4179591,-0.1112748,1.5888219,1,0,0,0,0,0,0,-3.2736955,0.1500679,-0.30787766,4.9740553,-3.2336712,-1.1693239,-4.7596693,-3.3353806,3.9104567,6.3970385
18.17686,51.784,16.233051,-2.3065128,-0.7333852,0.8487819,0.45235643,-0.8136514,0.8169931,0.7566834,0.7546675,0.54630154,0.4181512,0.25218156,1.5769035,-0.872268,-1.6371658,-0.91176903,2.0663574,1.1591101,-0.9351347,1.6438814,-0.93943524,-1.6986606,-0.9736097,2.0198069,1.1189104,-0.96171373,-1.4331052,1.4486775,1.4105117,1.3525748,0.8015515,0.16962287,-0.121450506,2.5948105,-0.54995346,0.8943521,-2.887864,0.011722549,3.6228676,0.4067154,-0.5001564,0.8381335,0.6772149,0.08156575,0.09179616,0.72546566,-1.4065214,-0.039568488,1.5367602,1,0,0,0,0,0,0,-3.2448106,0.14995345,-0.34435207,2.2653103,-1.8255949,-2.6885748,-4.040551,-2.5409698,3.267202,5.8578057
12.887384,53.938553,16.465305,0.794858,-0.50777507,0.93989784,0.34835613,-0.81261104,0.8166341,0.75659674,0.7368029,0.5415145,0.4168533,0.2757276,1.5626203,-0.8577718,-1.623001,-0.8999294,2.0739584,1.1605958,-0.934141,1.6295935,-0.92499375,-1.6847827,-0.96032214,2.0276918,1.1207892,-0.9625167,-1.4279363,1.4423932,1.3813487,1.3203402,0.7842212,0.19447032,-0.06737259,2.5659256,-0.549839,0.9298435,-2.887864,0.011722549,3.5245652,0.39270782,-0.50021744,0.85323155,0.68413943,0.069969326,0.08594855,0.72088164,-1.4028776,0.024828106,1.4925159,1,0,0,0,0,0,0,-3.2159257,0.14983901,-0.37984347,0.40020943,-0.6975889,-2.5679111,-3.3952475,-1.7244577,2.651137,5.1833735
10.440918,56.766117,17.220562,2.439804,-0.38766295,1.0163443,0.3041209,-0.81712544,0.82037276,0.7551901,0.7109839,0.55379164,0.40386048,0.27776304,1.5478809,-0.8429565,-1.6092638,-0.88922375,2.083071,1.1611753,-0.9347404,1.615254,-0.9105427,-1.6711318,-0.9473703,2.0355005,1.122872,-0.9628429,-1.4363042,1.4457816,1.3607365,1.2863748,0.77951616,0.21311699,-0.021792235,2.5370407,-0.5497246,0.9643519,-2.887864,0.011722549,3.4262629,0.37869263,-0.49964523,0.8679395,0.6905459,0.05835537,0.08034334,0.7164397,-1.4032844,0.0876978,1.4551853,1,0,0,0,0,0,0,-3.1870408,0.14972457,-0.41435188,-0.9567976,0.26583672,-1.7115831,-3.5325289,-0.4605055,1.9924372,4.3450017
11.769753,57.661312,17.536736,1.8209114,-0.38804972,0.9359391,0.34607816,-0.8150343,0.81584525,0.7591141,0.6763842,0.57973325,0.35956842,0.27651164,1.5337507,-0.8289582,-1.5952204,-0.8797319,2.093474,1.1588289,-0.9351917,1.6008154,-0.89605546,-1.6575916,-0.9348304,2.0433779,1.1250788,-0.9627742,-1.4468083,1.4494425,1.3532463,1.2427499,0.79039913,0.22359678,0.015667146,2.5081558,-0.54961014,0.9978773,-2.887864,0.011722549,3.3279605,0.36470795,-0.49843216,0.88228434,0.6964308,0.046751786,0.07493341,0.7121681,-1.3997184,0.15162815,1.4190135,1,0,0,0,0,0,0,-3.158156,0.14961013,-0.4478773,-1.1676073,0.2863884,-0.3676176,-4.4868946,1.0738134,1.1707157,3.5193179
15.441077,58.32084,17.5566,-0.13338566,-0.5935304,0.79488695,0.37700444,-0.806174,0.81921095,0.7454822,0.6404612,0.58395284,0.43799427,0.25928366,1.520198,-0.81413436,-1.5830433,-0.8707843,2.1017733,1.1688782,-0.93684584,1.5863272,-0.8815186,-1.6441276,-0.92280746,2.0513926,1.1274287,-0.96239465,-1.4498833,1.454793,1.3454937,1.1885114,0.8047931,0.23930562,0.04461129,2.479271,-0.5494957,1.0304197,-2.887864,0.011722549,3.2296581,0.35079956,-0.49653625,0.89625365,0.7017694,0.035165988,0.06972241,0.7081114,-1.3863627,0.22037797,1.3808647,1,0,0,0,0,0,0,-3.129271,0.14949569,-0.4804197,-0.41573048,0.44744015,-0.36287308,-5.5395365,1.3933182,1.718086,2.6612968
17.500217,56.260067,16.5383,-1.8438635,-0.7211112,0.5736605,0.41728994,-0.80860406,0.81409496,0.7382871,0.5948101,0.5958123,0.4673044,0.27849904,1.5054668,-0.8001091,-1.5702989,-0.86332643,2.1109738,1.174159,-0.93454474,1.5718218,-0.8669617,-1.6307456,-0.911433,2.0595675,1.1299483,-0.9617538,-1.4509676,1.4557052,1.3371916,1.1200542,0.82195044,0.25662917,0.06985626,2.450386,-0.54938126,1.061979,-2.887864,0.011722549,3.1313558,0.33711243,-0.49396515,0.9097987,0.7065372,0.023632005,0.064731404,0.70431286,-1.3638256,0.2883263,1.3368294,1,0,0,0,0,0,0,-3.1003861,0.14938125,-0.51197904,-0.2128601,0.006532669,-0.4105091,-6.9722176,1.6636252,1.921615,2.2875884
20.058783,54.560646,15.599127,-3.972742,-0.8997258,0.31414014,0.46219867,-0.80952203,0.81149054,0.7350634,0.5338703,0.60983974,0.45083252,0.26379746,1.4908696,-0.7858127,-1.5572393,-0.85804594,2.1205513,1.1750315,-0.935374,1.5573164,-0.85242105,-1.61744,-0.900893,2.0679293,1.1326147,-0.96090406,-1.4508454,1.4532578,1.3296604,1.031535,0.84070736,0.27078962,0.08923043,2.4215012,-0.5492668,1.0925553,-2.887864,0.011722549,3.0330534,0.32373047,-0.49070358,0.92285943,0.7107008,0.012223862,0.05999057,0.7008252,-1.3297195,0.3561488,1.2868603,1,0,0,0,0,0,0,-3.0715013,0.14926681,-0.5425553,-0.08778572,-0.3288746,-0.32215118,-8.985305,1.8069267,1.6539693,1.7017007
23.190187,53.07133,14.549944,-6.428211,-1.1861957,0.038578153,0.48685533,-0.8030538,0.8110587,0.7174093,0.468188,0.5950793,0.50987804,0.2756103,1.4770111,-0.77131516,-1.545699,-0.8540742,2.127437,1.1836026,-0.93334305,1.5428454,-0.8379128,-1.6042717,-0.8913753,2.0764017,1.1354529,-0.95987886,-1.4459765,1.4498496,1.3139755,0.9246408,0.84896845,0.28906277,0.10615932,2.3926163,-0.5491524,1.1221485,-2.887864,0.011722549,2.934751,0.3107605,-0.48674774,0.9353727,0.7142462,0.000998828,0.055594508,0.69768226,-1.2815247,0.42524812,1.2305596,1,0,0,0,0,0,0,-3.0426164,0.14915237,-0.5721485,0.39713383,-0.42381287,-1.1368752,-10.825264,0.74675083,2.1233916,1.4669106
26.729359,51.41332,13.4751425,-9.383919,-1.4737058,-0.27380368,0.5454405,-0.79810447,0.8064119,0.7072317,0.37855116,0.59593296,0.54190165,0.28136256,1.4630349,-0.7572716,-1.5335485,-0.8535202,2.135995,1.189643,-0.9317426,1.5284487,-0.82345605,-1.5912883,-0.8831279,2.084916,1.1384836,-0.958702,-1.4378909,1.444104,1.2946633,0.7909158,0.85216004,0.30908224,0.120739855,2.3637314,-0.54903793,1.1507587,-2.887864,0.011722549,2.8364487,0.29840088,-0.4820938,0.94726866,0.71713895,-0.009968924,0.051643033,0.6949426,-1.2174827,0.49524805,1.1671782,1,0,0,0,0,0,0,-3.0137315,0.14903793,-0.60075873,0.7311106,-0.6574154,-1.4935493,-13.510168,0.22170544,2.3575485,1.239191
32.397827,49.70727,12.122302,-14.15033,-1.9400736,-0.71758753,0.6446867,-0.7880722,0.8035233,0.68225026,0.2509728,0.5917067,0.57317424,0.29534563,1.4496415,-0.74310374,-1.5230633,-0.8580307,2.1440868,1.195801,-0.92916745,1.5141722,-0.8090613,-1.5785778,-0.8765476,2.0934267,1.1417261,-0.95738786,-1.4245554,1.4376501,1.264678,0.6132425,0.8502674,0.3306943,0.13429496,2.3348465,-0.5489235,1.178386,-2.887864,0.011722549,2.7381463,0.2868576,-0.47669983,0.95844615,0.71931314,-0.020553363,0.04826881,0.6927021,-1.1292112,0.5684628,1.0926273,1,0,0,0,0,0,0,-2.9848466,0.14892349,-0.62838596,1.2740374,-0.731802,-2.5478125,-17.904913,-0.31694174,2.6028693,1.1478812
32.63898,48.75006,11.3510275,-14.994012,-2.0378616,-0.93444604,0.6450943,-0.79431474,0.80158705,0.67454743,0.15200338,0.5900738,0.5665278,0.27142006,1.4347408,-0.7289026,-1.5111231,-0.86134726,2.152434,1.1983789,-0.9302459,1.4999796,-0.7947266,-1.5661571,-0.8718736,2.1019068,1.1451594,-0.9559707,-1.4175521,1.4319246,1.2359184,0.4184191,0.84668195,0.34910986,0.14353673,2.3059616,-0.54880905,1.2050302,-2.887864,0.011722549,2.639844,0.2762375,-0.4705963,0.9688641,0.72076994,-0.030662216,0.045551762,0.69099593,-1.0330535,0.6376537,1.0166541,1,0,0,0,0,0,0,-2.9559617,0.14880905,-0.6550302,0.657773,-0.645113,-2.4692059,-19.596117,-0.47351122,2.2984684,0.74625015
38.3783,49.61822,10.801788,-20.04353,-2.5751395,-1.327904,0.7509525,-0.7908989,0.80612236,0.6554837,-0.031573713,0.5796333,0.58680177,0.23344283,1.4208897,-0.71411437,-1.5006087,-0.875031,2.1598701,1.2038395,-0.9326264,1.4858443,-0.78041196,-1.5540416,-0.8695686,2.1103182,1.1487738,-0.95450395,-1.4122877,1.4311706,1.2048664,0.16762272,0.8386624,0.36717072,0.14724696,2.2770767,-0.5486946,1.2306914,-2.887864,0.011722549,2.5415416,0.26677704,-0.46372604,0.97845304,0.7214601,-0.04016543,0.04363769,0.6899114,-0.91180074,0.7141437,0.9317646,1,0,0,0,0,0,0,-2.9270768,0.1486946,-0.6806914,0.5167723,-0.15096664,-2.6913643,-25.15251,-0.95436573,2.31964,0.22152662
35.82409,45.649265,9.010174,-19.356928,-2.5135865,-1.5570011,0.679201,-0.8000227,0.7970442,0.62672013,-0.14262566,0.56526953,0.6029759,0.21507831,1.405842,-0.70070755,-1.4913696,-0.88383114,2.166845,1.2090714,-0.9329961,1.4716974,-0.76612973,-1.5423,-0.8697908,2.1186152,1.1525599,-0.9530229,-1.4154425,1.4271173,1.1651553,-0.085646056,0.8260386,0.3840112,0.14801417,2.2481918,-0.54858017,1.2553695,-2.887864,0.011722549,2.4432392,0.25852203,-0.45617294,0.9871707,0.72143996,-0.048967257,0.042601407,0.68942845,-0.78844666,0.7786462,0.84419304,1,0,0,0,0,0,0,-2.898192,0.14858016,-0.70536953,-0.3035307,-0.45337677,-3.6406994,-25.379646,-1.3872862,2.1788,-0.028076768
32.264652,44.834076,8.704609,-16.45871,-2.2451367,-1.5699841,0.57001936,-0.7965454,0.8000431,0.6054778,-0.22686008,0.56793517,0.61754155,0.19075562,1.3920429,-0.6861254,-1.4817522,-0.8924768,2.1754086,1.214314,-0.9339473,1.4575201,-0.7518666,-1.530978,-0.8723171,2.1268091,1.1565043,-0.9515571,-1.4181727,1.4260079,1.1217661,-0.3083296,0.81691074,0.39925653,0.14590034,2.219307,-0.5484657,1.2790647,-2.887864,0.011722549,2.3449368,0.25143433,-0.44805145,0.9950706,0.72082824,-0.05707607,0.042404875,0.68945676,-0.673499,0.8323861,0.7644527,1,0,0,0,0,0,0,-2.869307,0.14846572,-0.72906464,-0.23624897,-0.12180805,-4.117441,-22.290203,-0.9885073,1.9654334,-0.28126836
19.450945,41.639442,8.535012,-5.829974,-1.250062,-1.1658494,0.25397864,-0.8069028,0.7961454,0.5890329,-0.19903775,0.553675,0.62121236,0.2047469,1.3768299,-0.67225206,-1.4720746,-0.89222085,2.1821766,1.2186255,-0.9310824,1.4432684,-0.73762155,-1.5200775,-0.8762777,2.1349,1.1605803,-0.95010275,-1.4274014,1.4241889,1.0795904,-0.4255284,0.80668914,0.41142923,0.14510505,2.190422,-0.5483513,1.3017768,-2.887864,0.011722549,2.2466345,0.24517822,-0.43956757,1.0023427,0.71988654,-0.06466985,0.042852562,0.68974257,-0.60016984,0.8611589,0.7073669,1,0,0,0,0,0,0,-2.8404222,0.14835128,-0.75177675,-0.92921257,-0.1332283,-4.156065,-11.778337,-0.9587407,1.5523314,-0.12856722
8.575186,40.81104,9.671718,4.753237,-0.21550715,-0.6336055,-0.004938133,-0.8017654,0.79425246,0.58996,-0.14300305,0.55794,0.62242544,0.22634792,1.3630918,-0.65819633,-1.4610815,-0.890578,2.190694,1.2228228,-0.92746794,1.4289557,-0.72339654,-1.5094917,-0.8805454,2.14293,1.1647574,-0.9486398,-1.4328551,1.422368,1.051245,-0.42754897,0.80257046,0.42068896,0.14657822,2.1615372,-0.54823685,1.3235059,-2.887864,0.011722549,2.148332,0.2393341,-0.43091965,1.0092521,0.71886677,-0.07203172,0.04363792,0.69002724,-0.570727,0.8711756,0.6779981,1,0,0,0,0,0,0,-2.8115373,0.14823684,-0.77350587,-0.6023884,-0.081682205,-2.9172897,-0.30955672,-0.19853115,1.1778414,0.09230375
8.320963,40.57101,9.947271,5.241907,-0.12975478,-0.61883855,0.010827463,-0.8071224,0.7895024,0.5899271,-0.22046797,0.556174,0.6146229,0.19375806,1.3482435,-0.6444463,-1.4504989,-0.9025922,2.1985474,1.2262197,-0.929264,1.4145819,-0.70920587,-1.4990795,-0.88481975,2.150937,1.169007,-0.9471845,-1.4390556,1.4182299,1.0375763,-0.42775905,0.80073875,0.42723334,0.14491387,2.1326523,-0.5481224,1.3442519,-2.887864,0.011722549,2.0500298,0.23374176,-0.42218018,1.0158874,0.71781653,-0.079250135,0.044632975,0.6902656,-0.543675,0.8812327,0.6512906,1,0,0,0,0,0,0,-2.7826524,0.1481224,-0.79425186,-0.67744255,-0.31151772,-1.4558077,-0.12599826,0.04031658,0.89668036,-0.22463202
9.119099,40.7381,10.483467,5.413663,-0.060987294,-0.596208,0.050776727,-0.7979051,0.78126127,0.60157096,-0.22625603,0.54805815,0.6169397,0.18023184,1.3347914,-0.63107973,-1.4389224,-0.9074454,2.2057428,1.230701,-0.9291613,1.4002081,-0.69509053,-1.4886692,-0.8890426,2.1589136,1.1733137,-0.9457578,-1.4371738,1.4096792,1.0419707,-0.42075408,0.797504,0.4325479,0.14168747,2.1037674,-0.54800797,1.3640149,-2.887864,0.011722549,1.9517274,0.22844696,-0.41332626,1.0222815,0.7166991,-0.086367376,0.045765705,0.69049877,-0.5179174,0.8924512,0.62806785,1,0,0,0,0,0,0,-2.7537675,0.14800796,-0.81401485,0.1491785,-0.7489443,0.3272295,0.60399175,-0.08714199,0.7687032,-0.38907528
9.359621,40.781136,10.838075,5.58471,0.0013579726,-0.58426726,0.076964594,-0.79876345,0.77674633,0.6124764,-0.22666195,0.56048423,0.6191019,0.13420303,1.3203318,-0.6174159,-1.4274216,-0.91170883,2.214962,1.2352239,-0.9323375,1.3858649,-0.6810725,-1.4781158,-0.8931949,2.1668978,1.1776682,-0.94439787,-1.4336225,1.3995229,1.0591819,-0.41367257,0.7999277,0.4370256,0.13395312,2.0748825,-0.5478935,1.3827949,-2.887864,0.011722549,1.853425,0.22337341,-0.40435028,1.0284595,0.7154822,-0.09341271,0.046967186,0.6907629,-0.49353847,0.90438455,0.60692096,1,0,0,0,0,0,0,-2.7248826,0.14789352,-0.83279485,0.32308102,-0.90794563,1.6014099,0.6213069,0.48314333,0.6809771,-0.8401245
8.898605,38.710682,10.379737,5.8109865,0.09744322,-0.6319004,0.09091924,-0.7990909,0.764614,0.6224748,-0.22631112,0.57200885,0.61542654,0.10074637,1.3059558,-0.6046111,-1.4158683,-0.915826,2.2240987,1.2392108,-0.93432325,1.3715559,-0.66719365,-1.467345,-0.8972881,2.1749506,1.182057,-0.9431371,-1.4302479,1.3844016,1.0827466,-0.40820357,0.8077524,0.4402706,0.12323592,2.0459976,-0.5477791,1.4005919,-2.887864,0.011722549,1.7551227,0.21853638,-0.39528275,1.0344201,0.7141485,-0.100378856,0.048175704,0.69108254,-0.47032547,0.91306275,0.58505255,1,0,0,0,0,0,0,-2.6959977,0.14777908,-0.85059184,0.308156,-1.4063597,2.2405386,0.45706034,1.0169148,0.55113435,-1.1411562
10.271695,31.330051,7.4414935,3.258027,-0.024832904,-1.0096604,0.10655921,-0.78161883,0.73234254,0.6038869,-0.2580125,0.5461371,0.6422995,0.034813136,1.2933941,-0.5939594,-1.4069563,-0.9230893,2.2295642,1.246287,-0.9396558,1.3573538,-0.65359235,-1.4564617,-0.90149474,2.1829958,1.1864935,-0.94202703,-1.4165897,1.3523206,1.0899891,-0.42519438,0.80425745,0.44564155,0.106704675,2.0171127,-0.54766464,1.4174058,-2.887864,0.011722549,1.6568203,0.21401978,-0.3861885,1.0400602,0.71269846,-0.10716394,0.04941796,0.6914728,-0.43444198,0.91175604,0.5497078,1,0,0,0,0,0,0,-2.6671128,0.14766464,-0.86740583,1.3795853,-3.1218529,0.6387472,-1.8066406,-0.19037724,0.7741153,-1.7370775
4.899425,26.543222,6.2436075,7.9433756,0.39026773,-0.902175,-0.07132771,-0.77718186,0.71962273,0.59099257,-0.17726989,0.52435845,0.6509981,0.021543086,1.2796357,-0.58163005,-1.3973625,-0.91922176,2.2354317,1.2515934,-0.93987274,1.3432986,-0.64033437,-1.445626,-0.90551066,2.1909304,1.1909872,-0.94108194,-1.4017369,1.3173013,1.0812211,-0.39423808,0.79054254,0.45110375,0.090218455,1.9882278,-0.5475502,1.4332368,-2.887864,0.011722549,1.5585179,0.20973969,-0.3772087,1.0454037,0.7112562,-0.113807626,0.050662257,0.6918061,-0.415982,0.8974955,0.52209425,1,0,0,0,0,0,0,-2.638228,0.1475502,-0.8832368,1.4612913,-3.4018755,-0.99623203,2.94317,-1.170814,0.75274706,-1.7329514
2.2458596,25.058416,6.022747,10.260487,0.5598236,-0.827361,-0.1466809,-0.78008795,0.7069055,0.59285694,-0.15829824,0.51013076,0.6418113,0.002120935,1.2652898,-0.5696438,-1.3863404,-0.92134047,2.2419434,1.2551683,-0.94086987,1.3293501,-0.62741303,-1.4348972,-0.9090984,2.1986856,1.195521,-0.9402999,-1.3927213,1.2840927,1.0696595,-0.34755102,0.77156,0.45479125,0.07397701,1.959343,-0.54743576,1.4480847,-2.887864,0.011722549,1.4602156,0.2055893,-0.36838913,1.0505061,0.70991784,-0.12036438,0.05189055,0.69198,-0.4059269,0.88001835,0.49934736,1,0,0,0,0,0,0,-2.609343,0.14743575,-0.8980847,0.8492708,-3.2162428,-1.2776375,4.506439,-1.6766071,0.55608153,-1.7016798
0.78978634,24.005299,5.6172504,11.353762,0.5680218,-0.8364972,-0.20631862,-0.7800103,0.694565,0.572951,-0.13875158,0.4748456,0.6362868,0.008983053,1.2513491,-0.5579565,-1.3776021,-0.9229736,2.2461703,1.2591497,-0.9394016,1.3154532,-0.61479115,-1.4243648,-0.9121778,2.20617,1.2000815,-0.93965715,-1.388992,1.2551789,1.0474502,-0.29533318,0.74157643,0.45701003,0.060839117,1.9304581,-0.5473213,1.4619496,-2.887864,0.011722549,1.3619132,0.20152283,-0.35975647,1.0553927,0.708749,-0.12684974,0.053151775,0.69192404,-0.3979701,0.86150175,0.47844753,1,0,0,0,0,0,0,-2.5804582,0.14732131,-0.9119496,0.3011942,-2.7876139,-2.330041,5.058682,-2.7754545,0.3974378,-1.3824389
-1.5676074,25.000164,6.453331,14.285311,0.761116,-0.65521085,-0.27515405,-0.78317136,0.68860406,0.5697517,-0.074867964,0.46429443,0.62671316,0.008392289,1.237136,-0.54593074,-1.3673897,-0.9196646,2.2525995,1.2627528,-0.9388179,1.3015486,-0.60239816,-1.4140422,-0.91454864,2.2133608,1.2046515,-0.9391288,-1.3913331,1.2344116,1.0268853,-0.218152,0.7127615,0.4574945,0.050066564,1.9015732,-0.5472069,1.4748315,-2.887864,0.011722549,1.2636108,0.19744873,-0.35129166,1.0601388,0.70780873,-0.13333663,0.054439433,0.69156665,-0.40148288,0.8441878,0.4669818,1,0,0,0,0,0,0,-2.5515733,0.14720687,-0.92483145,-0.3414631,-1.963973,-2.1752834,7.557544,-2.622342,0.20216107,-1.1341498
-2.596828,24.316011,6.3490386,15.337722,0.781824,-0.6289288,-0.31614387,-0.7866761,0.67617965,0.5527098,-0.034918822,0.4201811,0.61988866,0.017473983,1.222881,-0.5347802,-1.3587712,-0.9180405,2.255379,1.2666403,-0.93738145,1.2875906,-0.5901921,-1.4039524,-0.91609263,2.220189,1.2092196,-0.93868536,-1.3978031,1.2163576,1.0025922,-0.13375427,0.673962,0.4568182,0.04225808,1.8726883,-0.54709244,1.4867303,-2.887864,0.011722549,1.1653085,0.1933136,-0.3429985,1.0647875,0.7071393,-0.13987121,0.055775497,0.6908539,-0.40781575,0.8274612,0.45798218,1,0,0,0,0,0,0,-2.5226884,0.14709243,-0.9367303,-0.7679224,-1.6927719,-2.5438309,8.283451,-3.6138773,0.07574558,-0.83031285
-9.524632,11.286507,2.3026981,21.06731,1.3725225,-0.63926613,-0.58964956,-0.76812553,0.6336402,0.47007743,0.11473435,0.32598612,0.63848615,0.049108118,1.2107781,-0.52682805,-1.3569446,-0.9046192,2.2527876,1.2730682,-0.93377453,1.2736536,-0.5783055,-1.3944404,-0.91628146,2.2264109,1.2137915,-0.93828386,-1.392561,1.179864,0.9333021,0.018684275,0.60613275,0.45769325,0.039256763,1.8438034,-0.546978,1.4976461,-2.887864,0.011722549,1.0670061,0.18896484,-0.33506393,1.0693706,0.7069472,-0.1465225,0.05714203,0.68955886,-0.43476126,0.78456473,0.45248938,1,0,0,0,0,0,0,-2.4938035,0.14697799,-0.9476461,0.38833618,-3.5229445,-7.1134925,15.018742,-6.475508,0.21355748,-0.34902394
-8.803446,2.50416,-1.3812762,18.086914,1.2228804,-1.0537931,-0.5704469,-0.763177,0.5888523,0.42263442,0.10116462,0.24655865,0.6245455,0.027327435,1.197336,-0.51942027,-1.352177,-0.906165,2.2510667,1.2762461,-0.9355511,1.259812,-0.5669453,-1.385783,-0.9152267,2.2317896,1.2183634,-0.93791956,-1.3817556,1.1217356,0.8425691,0.13368593,0.5161258,0.45746967,0.035317518,1.8149185,-0.54686356,1.5075788,-2.887864,0.011722549,0.9687038,0.18444824,-0.32766342,1.0737795,0.70730585,-0.15317318,0.058613554,0.68761957,-0.4474648,0.7293658,0.43151602,1,0,0,0,0,0,0,-2.4649186,0.14686355,-0.95757884,1.0049582,-5.7047367,-9.252108,11.274142,-8.750427,0.13102293,-0.44454187
-10.535163,1.3135915,-2.0360262,19.283943,1.0532091,-1.0564744,-0.6836742,-0.77552557,0.5806204,0.35825548,0.18768363,0.0934262,0.61607534,0.11428221,1.1822594,-0.5088833,-1.3499575,-0.8964583,2.2411323,1.2799709,-0.9264913,1.2460142,-0.5561211,-1.3781841,-0.9129703,2.23594,1.2229258,-0.9375238,-1.379492,1.0696223,0.7317444,0.25550655,0.38203382,0.45637044,0.040892195,1.7860336,-0.5467491,1.5165286,-2.887864,0.011722549,0.87040156,0.17982483,-0.3207817,1.077987,0.70831156,-0.15979694,0.060398534,0.68491715,-0.46053842,0.67638594,0.4121183,1,0,0,0,0,0,0,-2.4360337,0.14674911,-0.9665286,0.14185905,-5.1052094,-11.270452,11.974257,-13.14261,0.045716763,0.5235255
-14.479097,-12.3625145,-7.400621,20.358522,0.9192053,-1.3548259,-0.9458047,-0.7571343,0.5112885,0.22773358,0.28099346,-0.21860552,0.6249816,0.15061621,1.1703008,-0.50499225,-1.3554107,-0.88487095,2.2140794,1.285424,-0.92246217,1.2323023,-0.5460055,-1.3720844,-0.9093864,2.2379923,1.2274863,-0.93704027,-1.3685496,0.9926598,0.5683962,0.39196134,0.1470541,0.4567229,0.050748285,1.7571487,-0.5466347,1.5244954,-2.887864,0.011722549,0.7720993,0.17507935,-0.31458282,1.0819173,0.71021295,-0.16636503,0.06284084,0.68115425,-0.47024107,0.604958,0.3822018,1,0,0,0,0,0,0,-2.4071488,0.14663467,-0.97449535,1.0619402,-7.5840473,-16.609573,13.4226265,-23.202969,0.24671555,0.9571992
-4.9173756,2.81922,-2.4392114,12.331799,0.06864166,-1.4306297,-0.5242463,-0.764466,0.5038299,0.27844888,0.18900886,-0.2750618,0.57751256,0.1633664,1.1558557,-0.4956225,-1.3442395,-0.8904855,2.2104862,1.2852376,-0.92070365,1.2186552,-0.5365546,-1.3670948,-0.90517974,2.2377787,1.2320162,-0.9364528,-1.3632996,0.9294013,0.4752442,0.4297949,-0.07728491,0.45252362,0.06122868,1.7282639,-0.54652023,1.5314791,-2.887864,0.011722549,0.6737971,0.17049408,-0.30882645,1.0855031,0.71277726,-0.17277735,0.06611836,0.6765536,-0.4484726,0.5687976,0.34679428,1,0,0,0,0,0,0,-2.378264,0.14652023,-0.9814791,0.5352497,-6.252587,-9.446949,3.654331,-22.26208,-0.20291805,0.9891205
9.565596,18.675209,1.3278209,-2.1989193,-1.1213706,-1.9622041,0.101234764,-0.7535672,0.4842216,0.2835781,0.0017595623,-0.28958964,0.58172166,0.14695382,1.1432985,-0.48813242,-1.3387369,-0.9050038,2.2088196,1.2901883,-0.9217574,1.2050921,-0.52764535,-1.3626106,-0.90181804,2.2357073,1.236508,-0.93578523,-1.3536727,0.8781885,0.43993288,0.3047902,-0.25057897,0.44864455,0.06813428,1.699379,-0.5464058,1.5374799,-2.887864,0.011722549,0.5754948,0.16657257,-0.3032112,1.0885628,0.71548456,-0.17872494,0.07032318,0.6717096,-0.3680695,0.56250113,0.28907594,1,0,0,0,0,0,0,-2.349379,0.14640579,-0.98747987,1.0296345,-5.097735,-3.447646,-12.563265,-17.352072,-0.1847446,0.5567074
21.630669,28.308182,1.9616863,-16.937948,-2.2487116,-2.7664294,0.6139935,-0.7610083,0.46395046,0.24952178,-0.23905058,-0.2922976,0.5622549,0.06867136,1.1289912,-0.48125032,-1.3376584,-0.9257231,2.2064776,1.2927336,-0.9289181,1.1915766,-0.51917005,-1.3583381,-0.90099597,2.2323618,1.2409464,-0.93512243,-1.3502994,0.83723253,0.42371258,0.008033522,-0.36298534,0.4427526,0.064969614,1.6704941,-0.54629135,1.5424975,-2.887864,0.011722549,0.47719258,0.16390991,-0.29756165,1.0908176,0.7178967,-0.18372178,0.0755701,0.66720295,-0.2257122,0.5674044,0.20124227,1,0,0,0,0,0,0,-2.3204942,0.14629135,-0.9924975,0.47047138,-4.105854,-1.3863742,-29.68359,-11.414904,-0.4376948,-0.525938
21.204437,8.76491,-6.313643,-22.903118,-2.0358431,-3.6641455,0.7235326,-0.7449906,0.36082804,0.15475191,-0.42182937,-0.30497196,0.56025547,-0.060558066,1.1170776,-0.48308724,-1.342863,-0.9431789,2.2018645,1.2969719,-0.94117826,1.1781565,-0.51144624,-1.3545425,-0.90377593,2.228242,1.2453238,-0.9346008,-1.3382907,0.7507131,0.36535087,-0.37323585,-0.4289432,0.43637952,0.046950255,1.6416092,-0.5461769,1.5465322,-2.887864,0.011722549,0.37889034,0.16282654,-0.2922325,1.0919514,0.7199086,-0.18725887,0.081761576,0.6633104,-0.06255012,0.5233947,0.081267856,1,0,0,0,0,0,0,-2.2916093,0.1461769,-0.99653214,1.4890909,-8.669245,-5.6602836,-38.120846,-6.822485,-0.57124496,-2.0830936
12.43018,-26.674204,-17.902271,-20.467318,-0.76240766,-4.226799,0.63177395,-0.69365114,0.1975982,0.076938845,-0.5560182,-0.35912654,0.5868288,-0.10471271,1.1087914,-0.4916864,-1.3468486,-0.95937777,2.1923292,1.3040067,-0.94507205,1.165095,-0.5052407,-1.3516452,-0.91033053,2.223565,1.2496554,-0.9342975,-1.2939339,0.57696646,0.26476255,-0.74963903,-0.4814512,0.43173286,0.0234557,1.6127243,-0.54606247,1.5495838,-2.887864,0.011722549,0.2805881,0.16322327,-0.2878723,1.0917236,0.7216143,-0.18902165,0.08852133,0.66008145,0.078654975,0.4046447,-0.060221516,1,0,0,0,0,0,0,-2.2627244,0.14606246,-0.9995838,4.915595,-17.431509,-9.98274,-37.651085,-5.535084,-0.57203174,-2.733085
-4.709984,-60.80218,-26.117857,-6.1466084,1.5702261,-3.858317,0.3446879,-0.6859159,0.030829838,0.05598022,-0.5877322,-0.32300922,0.5857375,-0.08736041,1.0965034,-0.5021577,-1.3460472,-0.96910375,2.1912642,1.3082291,-0.9430335,1.1524893,-0.50136113,-1.3497283,-0.9198549,2.2186327,1.2539374,-0.93420404,-1.2478757,0.3245143,0.16758351,-1.0202967,-0.49827528,0.425942,0.00321398,1.5838394,-0.545948,1.5516524,-2.887864,0.011722549,0.18228585,0.16444397,-0.28520203,1.0901618,0.7232069,-0.18907358,0.09515292,0.6573955,0.14097606,0.2202932,-0.19066253,1,0,0,0,0,0,0,-2.2338395,0.14594802,-1.0016525,5.1048517,-25.379955,-9.65893,-27.12866,-2.0109951,-0.88186264,-2.445622
-26.230597,-102.86554,-36.494198,11.678904,4.1872015,-3.3557434,-0.10903194,-0.6755687,-0.21481086,0.013866803,-0.5877797,-0.38376704,0.568261,-0.109406516,1.0849324,-0.5228422,-1.3483417,-0.97863287,2.180256,1.3107635,-0.9451447,1.1402994,-0.5007651,-1.3487403,-0.93109584,2.21346,1.2581431,-0.93430895,-1.2076609,-0.029625757,0.07613856,-1.1589644,-0.52509737,0.4168607,-0.016585859,1.5549545,-0.5458336,1.5527381,-2.887864,0.011722549,0.0839836,0.16561127,-0.28490448,1.0873923,0.72501504,-0.18764478,0.100904755,0.6549509,0.108954914,-0.036985748,-0.30766782,1,0,0,0,0,0,0,-2.2049546,0.14583358,-1.002738,4.543519,-35.679207,-9.02289,-13.940358,-3.1371117,-1.4352381,-2.439568
-32.98181,-104.69469,-33.059914,22.898441,5.315496,-2.2899535,-0.21248692,-0.62889653,-0.3926498,0.10502474,-0.59012556,-0.47778115,0.5594987,-0.21674874,1.0774097,-0.54003006,-1.3382379,-0.9901084,2.1656818,1.314093,-0.9559838,1.1286074,-0.5039351,-1.3479888,-0.94294906,2.2077913,1.2622515,-0.9346618,-1.1545845,-0.4137416,0.0748286,-1.1939209,-0.58175886,0.4067667,-0.042509135,1.5260696,-0.54571915,1.5528406,-2.887864,0.011722549,-0.014318645,0.16601562,-0.28710175,1.083683,0.7271127,-0.1852229,0.10526583,0.6526244,0.017728707,-0.28144476,-0.39346448,1,0,0,0,0,0,0,-2.1760697,0.14571914,-1.0028405,5.7937384,-38.701153,-0.12278706,-3.446722,-6.0560584,-1.6251504,-2.888754
-10.283904,-22.548609,-4.502846,16.977262,2.55796,-0.8334708,0.15507653,-0.6051594,-0.27631,0.23318227,-0.6771811,-0.6011753,0.59017795,-0.25455922,1.0680914,-0.5315661,-1.3246707,-1.0106672,2.1476738,1.3212693,-0.9601177,1.117436,-0.5095284,-1.3464191,-0.95510745,2.2012568,1.2663103,-0.9352655,-1.1040819,-0.60812014,0.18350357,-1.2228255,-0.67736083,0.40483075,-0.066221066,1.4971848,-0.5456047,1.5519601,-2.887864,0.011722549,-0.11262089,0.16589355,-0.2904625,1.079491,0.7291389,-0.18252839,0.1087344,0.650551,-0.025464885,-0.35351944,-0.42887798,1,0,0,0,0,0,0,-2.1471848,0.1456047,-1.00196,5.250764,-19.518257,10.615784,-2.8042316,-9.576321,-0.4110813,-2.3526244
-5.1440654,1.7229365,4.6616807,16.965015,1.9561329,-0.22972137,0.25341505,-0.603331,-0.39702702,0.28857845,-0.6995727,-0.6158222,0.6001542,-0.25823295,1.0571029,-0.5492311,-1.3175613,-1.0250647,2.1396744,1.3263258,-0.9610888,1.1066443,-0.51663995,-1.3434474,-0.96749854,2.1938334,1.2703768,-0.93607706,-1.0703604,-0.74551344,0.33391133,-1.2442149,-0.7640238,0.40694782,-0.08563239,1.4682999,-0.54549026,1.5500966,-2.887864,0.011722549,-0.21092314,0.16537476,-0.29416275,1.0750859,0.73087114,-0.17996688,0.11163013,0.64882815,-0.06301233,-0.37402412,-0.4453202,1,0,0,0,0,0,0,-2.1183,0.14549026,-1.0000966,3.523016,-13.75854,14.674515,-2.0449877,-8.588875,0.16242862,-1.803267
1.3754572,25.851439,12.726692,15.359756,1.2004781,0.063752115,0.3006781,-0.56961334,-0.42235696,0.3184265,-0.69726783,-0.6240991,0.60104805,-0.2613075,1.049683,-0.5588756,-1.3116047,-1.0372254,2.1314235,1.3304816,-0.9622078,1.0962073,-0.5246041,-1.3390491,-0.9800136,2.1857004,1.2744776,-0.9370546,-1.0344448,-0.81327605,0.47389728,-1.2536347,-0.82919246,0.4115972,-0.10114894,1.439415,-0.5453758,1.5472502,-2.887864,0.011722549,-0.30922538,0.16461945,-0.29774475,1.0706384,0.73222536,-0.17773604,0.114161216,0.6474744,-0.08383141,-0.35040703,-0.44523183,1,0,0,0,0,0,0,-2.089415,0.14537582,-0.99725014,3.6774635,-6.731713,13.5906105,-0.8634567,-6.381762,0.59045553,-1.3435036
6.4811172,36.283775,14.698022,11.814123,0.5887634,-0.20990369,0.28710672,-0.50732034,-0.44091526,0.2900406,-0.7107346,-0.6401643,0.58282554,-0.2947377,1.0454752,-0.5686956,-1.310045,-1.051087,2.121684,1.3327601,-0.96652836,1.0863196,-0.5329335,-1.3337448,-0.99262595,2.1770563,1.2786127,-0.9381923,-0.9736342,-0.8392895,0.5480579,-1.263624,-0.87614775,0.4146418,-0.117377765,1.4105301,-0.5452614,1.5434207,-2.887864,0.011722549,-0.40752763,0.16383362,-0.30102158,1.0661937,0.73321664,-0.17581435,0.116534956,0.64645356,-0.07999091,-0.31606603,-0.4447329,1,0,0,0,0,0,0,-2.0605302,0.14526138,-0.99342066,6.0922503,-2.5365472,7.1079016,-0.9502411,-4.5839787,0.46318173,-1.4402926
9.508178,41.487377,15.054855,9.316631,0.21511701,-0.49809572,0.24942836,-0.4610468,-0.44282755,0.27413702,-0.71873903,-0.6410522,0.5765624,-0.33254358,1.0402149,-0.5772162,-1.306331,-1.0644999,2.112951,1.336269,-0.9714467,1.0771605,-0.5413077,-1.3281448,-1.0053442,2.1680841,1.2827688,-0.9395055,-0.8968645,-0.83660614,0.5633462,-1.2745134,-0.9039716,0.41657633,-0.13547122,1.3816452,-0.54514694,1.5386082,-2.887864,0.011722549,-0.5058299,0.16320801,-0.30394745,1.0617368,0.7339079,-0.17409435,0.1189093,0.6457019,-0.05857963,-0.28072968,-0.44624257,1,0,0,0,0,0,0,-2.0316453,0.14514694,-0.9886082,7.6342463,0.33781528,1.3217568,-1.0638475,-2.7081609,0.35256743,-1.6645819
4.403002,24.187222,6.024021,9.037187,0.4381218,-1.2530692,-0.006842198,-0.43065777,-0.47789735,0.12358158,-0.7262152,-0.6349159,0.56875336,-0.35599193,1.0340947,-0.58909744,-1.3157866,-1.0779656,2.1045926,1.3396442,-0.9751047,1.0687662,-0.5497267,-1.323323,-1.0181806,2.1589518,1.2869269,-0.94100755,-0.8204621,-0.84366876,0.4550771,-1.2868221,-0.9165296,0.4155674,-0.15503332,1.3527603,-0.5450325,1.5328126,-2.887864,0.011722549,-0.6041321,0.16284943,-0.30687714,1.0571141,0.734564,-0.17225197,0.12138596,0.64498866,-0.03237332,-0.29304475,-0.46784303,1,0,0,0,0,0,0,-2.0027604,0.1450325,-0.9828126,7.5845838,-0.69812536,-10.808682,-1.22087,-1.3314843,-0.109404325,-1.9452453
3.8445406,17.051165,1.7396442,7.224883,0.45070952,-1.7018723,-0.054081798,-0.37431633,-0.48834482,0.0437205,-0.75047994,-0.6221891,0.55810535,-0.3845847,1.0313346,-0.5985612,-1.318951,-1.0932286,2.0967329,1.3427374,-0.979466,1.0612093,-0.55825543,-1.3200309,-1.0312288,2.1497965,1.2910601,-0.9427108,-0.73451155,-0.8559811,0.28758562,-1.3107038,-0.9153679,0.41219744,-0.17565559,1.3238754,-0.54491806,1.526034,-2.887864,0.011722549,-0.70243436,0.16280365,-0.31010056,1.0521737,0.7353391,-0.17000355,0.1240054,0.64420325,0.00255513,-0.32798254,-0.5030966,1,0,0,0,0,0,0,-1.9738754,0.14491805,-0.976034,8.523178,-1.2518883,-16.627556,-2.3892164,-0.015580654,-0.4464209,-2.1168053
1.6384337,-6.5826783,-10.418364,3.8506365,0.75270903,-2.7650485,-0.14486353,-0.25201106,-0.5575004,-0.21444826,-0.7751773,-0.59467316,0.53054214,-0.3998978,1.0360082,-0.61400545,-1.3414757,-1.1087465,2.0903292,1.3441143,-0.9827006,1.0548807,-0.56722283,-1.3194091,-1.0445993,2.140767,1.2951266,-0.9446191,-0.59926486,-0.910659,-0.011756838,-1.3459152,-0.8998197,0.40346527,-0.1965166,1.2949905,-0.5448036,1.5182724,-2.887864,0.011722549,-0.8007366,0.16320038,-0.3141365,1.0466352,0.7364019,-0.16690002,0.1267144,0.6432729,0.050488513,-0.4260036,-0.5715086,1,0,0,0,0,0,0,-1.9449905,0.14480361,-0.9682724,13.415348,-5.5594325,-29.586771,-3.5253763,1.3121605,-1.2419224,-2.2760124
18.503086,-7.514083,-13.362518,-8.298586,0.27394995,-3.7510257,0.31679153,0.09791829,-0.6229129,-0.42032814,-0.78781426,-0.55633813,0.52337337,-0.43210423,1.0646726,-0.6295141,-1.361442,-1.1233807,2.0851333,1.3474638,-0.98782957,1.0513121,-0.5770142,-1.3223369,-1.0583303,2.1320238,1.2990977,-0.9467382,-0.27749377,-1.0021325,-0.3850579,-1.382257,-0.866317,0.393141,-0.21768266,1.2661057,-0.5446892,1.5095278,-2.887864,0.011722549,-0.89903885,0.16445923,-0.31930542,1.0402435,0.7374916,-0.16264838,0.12927319,0.6426041,0.14901043,-0.5425307,-0.6631833,1,0,0,0,0,0,0,-1.9161056,0.14468917,-0.9595278,31.780212,-9.213722,-36.866173,-3.7026644,3.3055902,-1.5263736,-2.2979438
31.535156,-5.7460313,-12.726808,-15.234908,0.16246237,-4.0988035,0.7204342,0.3834997,-0.7075653,-0.56437165,-0.773462,-0.509784,0.49051392,-0.46210474,1.0896621,-0.64777076,-1.378774,-1.1356765,2.0810454,1.3481491,-0.99294865,1.0519625,-0.58800054,-1.3289745,-1.072273,2.123742,1.3029486,-0.9490623,0.17683592,-1.1307952,-0.7551676,-1.3982836,-0.8150596,0.38053745,-0.23746775,1.2372208,-0.54457474,1.4998001,-2.887864,0.011722549,-0.9973411,0.16690063,-0.32563782,1.0328863,0.7382036,-0.15722145,0.13131125,0.64272404,0.273131,-0.6603641,-0.7624796,1,0,0,0,0,0,0,-1.8872207,0.14457473,-0.9498001,44.74276,-12.896085,-36.57192,-1.6649485,5.349219,-1.750505,-2.0050168
37.92642,6.643956,-5.946146,-16.158089,0.01835157,-3.6271324,0.94394904,0.5504287,-0.74863446,-0.62672365,-0.77091986,-0.46641994,0.4295007,-0.45091504,1.1070054,-0.66286397,-1.3916469,-1.149365,2.0771,1.3458986,-0.9941538,1.0572058,-0.6002476,-1.338681,-1.0862672,2.1160479,1.3066431,-0.9515447,0.6374115,-1.2559433,-1.0414808,-1.3998119,-0.75265735,0.36452723,-0.2512589,1.2083359,-0.5444603,1.4890894,-2.887864,0.011722549,-1.0956433,0.170578,-0.33290482,1.0246346,0.73823303,-0.15081532,0.13260776,0.643958,0.3995845,-0.74487674,-0.85020477,1,0,0,0,0,0,0,-1.8583359,0.14446029,-0.93908936,45.21957,-12.510586,-28.338886,-0.18632412,6.6495776,-1.9584,-1.2053102
34.15175,19.403557,3.009239,-8.960328,0.38018855,-2.492458,0.88897794,0.64042276,-0.7818197,-0.62821925,-0.7243772,-0.39875013,0.40795946,-0.41864023,1.1212481,-0.6784296,-1.4015028,-1.158705,2.0761728,1.347439,-0.99340874,1.0663744,-0.6135886,-1.3502891,-1.1000001,2.1090822,1.3101832,-0.9541139,1.0073822,-1.3601027,-1.2002698,-1.3646748,-0.6763595,0.3499411,-0.25780785,1.179451,-0.54434586,1.4773957,-2.887864,0.011722549,-1.1939456,0.17527008,-0.34072495,1.0157459,0.73747766,-0.14382486,0.13302791,0.64633167,0.49231237,-0.7879631,-0.907524,1,0,0,0,0,0,0,-1.829451,0.14434585,-0.92739564,36.241783,-10.42161,-15.724206,3.4964561,8.020174,-1.6285956,-0.35634637
24.75475,30.57834,10.391497,0.07619715,0.75895417,-1.3961707,0.6343467,0.6650972,-0.7857162,-0.641345,-0.6971538,-0.29779723,0.38998094,-0.436101,1.1328841,-0.6921602,-1.4144236,-1.1697155,2.0793025,1.3491813,-0.997724,1.0781657,-0.6276581,-1.3627498,-1.113241,2.103055,1.3135878,-0.95674604,1.2347834,-1.4227475,-1.2609622,-1.310688,-0.5778698,0.33715403,-0.26406762,1.1505661,-0.5442314,1.4647189,-2.887864,0.011722549,-1.292248,0.18054962,-0.34872818,1.0065109,0.7360608,-0.13658975,0.13257009,0.64960206,0.544824,-0.7977855,-0.9356773,1,0,0,0,0,0,0,-1.8005661,0.14423141,-0.9147189,22.262001,-6.2885046,-6.0246468,5.3842545,10.071373,-1.3088048,-0.33621788
13.071962,36.082184,14.942729,9.277816,1.2867002,-0.43662232,0.33999586,0.6693004,-0.7957783,-0.6355065,-0.6589626,-0.19168012,0.4794206,-0.43483415,1.1450957,-0.70723593,-1.4263005,-1.1791372,2.083887,1.3615298,-1.0002295,1.0912367,-0.64211583,-1.3752925,-1.1258314,2.0981646,1.3169523,-0.95943445,1.3304362,-1.4536388,-1.2520611,-1.2418538,-0.45937097,0.33638465,-0.26970285,1.1216812,-0.544117,1.4510592,-2.887864,0.011722549,-1.3905504,0.1860199,-0.35671234,0.9971756,0.73419887,-0.1293819,0.13126376,0.65343875,0.55394626,-0.78995234,-0.9401294,1,0,0,0,0,0,0,-1.7716812,0.14411697,-0.9010592,9.389019,-3.13797,0.87447166,6.8810225,11.873972,-0.01590252,-0.33925772
4.734534,38.426926,16.210974,14.107596,1.4291463,-0.020278834,0.10826506,0.66989535,-0.79346484,-0.6582801,-0.64195883,-0.12581469,0.5118956,-0.41131446,1.1582263,-0.7214623,-1.4411205,-1.1900272,2.085583,1.3681419,-1.0005659,1.10459,-0.65668035,-1.3876312,-1.1377828,2.0944529,1.3203493,-0.9621591,1.3368639,-1.4576517,-1.2279935,-1.1793674,-0.34209204,0.3408687,-0.2729307,1.0927963,-0.54400253,1.4364165,-2.887864,0.011722549,-1.4888527,0.19142151,-0.36458206,0.9878555,0.73211116,-0.12228859,0.12924874,0.6575359,0.54214674,-0.777084,-0.9366385,1,0,0,0,0,0,0,-1.7427963,0.14400253,-0.8864165,0.6863594,-0.45735836,2.347684,6.2707663,11.627764,0.52129626,-0.17847419
1.1398969,39.735226,16.885965,15.67883,1.5683053,0.15118709,0.058905654,0.6751932,-0.7972715,-0.64737004,-0.6319707,0.013454443,0.5226739,-0.39640972,1.1721094,-0.7364075,-1.4523681,-1.2009798,2.0957983,1.3726168,-1.0018001,1.1176993,-0.67120194,-1.399657,-1.1492326,2.0920916,1.3238035,-0.96489996,1.3027711,-1.4504508,-1.1945361,-1.1332388,-0.20133448,0.34696123,-0.27413225,1.0639114,-0.5438881,1.4207907,-2.887864,0.011722549,-1.5871551,0.19662476,-0.37232208,0.9785871,0.72989506,-0.115285955,0.12655398,0.6617752,0.52083546,-0.7644597,-0.93074423,1,0,0,0,0,0,0,-1.7139114,0.14388809,-0.87079066,-3.269267,0.6647587,3.2569647,4.651189,13.939166,0.6799936,-0.0008761883
-0.98809147,37.576443,15.859878,16.279533,1.8825555,0.102305815,0.06888126,0.6732811,-0.8041153,-0.6511561,-0.6125402,0.21707915,0.50642604,-0.3698311,1.1850274,-0.7516135,-1.4647726,-1.2104867,2.1137996,1.3744462,-1.001883,1.130385,-0.68565583,-1.4114196,-1.1602952,2.0915003,1.3272997,-0.9676284,1.2578751,-1.4438643,-1.1704483,-1.0970476,-0.012379507,0.35075542,-0.27204904,1.0350266,-0.54377365,1.4041818,-2.887864,0.011722549,-1.6854575,0.20156097,-0.38002014,0.9693639,0.7275753,-0.108265445,0.12303127,0.6661652,0.49365255,-0.76380527,-0.92647004,1,0,0,0,0,0,0,-1.6850265,0.14377365,-0.8541818,-4.322362,0.5957365,2.334094,3.6854267,18.737682,0.42898655,0.33909678
-3.8593206,34.5567,14.383109,17.803646,1.9265667,0.11306609,-0.040931493,0.6558893,-0.8094478,-0.65772796,-0.56163305,0.2302483,0.5636545,-0.3202654,1.195974,-0.7666006,-1.4771924,-1.2164586,2.114525,1.3836652,-0.99965495,1.1426054,-0.7000811,-1.4230506,-1.1708887,2.0925531,1.3308684,-0.97029966,1.2106745,-1.442262,-1.1609721,-1.0463607,0.143862,0.35906905,-0.26504564,1.0061417,-0.5436592,1.38659,-2.887864,0.011722549,-1.7837598,0.20623016,-0.3877678,0.9601666,0.72522676,-0.10120646,0.11872006,0.67060345,0.46252432,-0.77072763,-0.9242623,1,0,0,0,0,0,0,-1.6561416,0.1436592,-0.83659,-4.5508623,0.08239746,0.9175062,5.158186,15.454043,0.8411467,0.80417395
-0.04271698,35.15739,13.519086,13.747825,1.2826807,-0.13834351,0.0055880547,0.6578169,-0.81086576,-0.6681776,-0.5838737,0.21068698,0.5601277,-0.29625398,1.2083871,-0.7811677,-1.4898684,-1.2292761,2.113622,1.3868811,-0.9999251,1.154473,-0.71451306,-1.4347084,-1.1811807,2.094739,1.3345114,-0.97288316,1.1791885,-1.4437342,-1.167611,-1.0229803,0.24324262,0.36595613,-0.2558425,0.9772568,-0.54354477,1.3680152,-2.887864,0.011722549,-1.8820622,0.21071625,-0.39554596,0.95088434,0.72284204,-0.094040625,0.1138826,0.6750455,0.45234272,-0.7720559,-0.93625087,1,0,0,0,0,0,0,-1.6272568,0.14354476,-0.81801516,-3.0104637,-0.20682812,-0.73115826,2.441883,9.824049,0.6503105,1.0196686
3.5550327,35.970325,12.782861,10.030744,0.5129783,-0.35055777,0.0046823323,0.65492326,-0.81334794,-0.6865769,-0.59029335,0.110570565,0.5571245,-0.28105485,1.2199652,-0.79584783,-1.503366,-1.24021,2.105796,1.3902239,-1.0009886,1.1661326,-0.7289784,-1.4465549,-1.1913908,2.0972757,1.3382117,-0.97537035,1.1619112,-1.4475856,-1.1907192,-1.0199195,0.2569442,0.37108698,-0.24609599,0.9483719,-0.5434303,1.3484572,-2.887864,0.011722549,-1.9803646,0.215271,-0.4032631,0.94138074,0.7204067,-0.08670794,0.108924754,0.6794345,0.4631434,-0.76337326,-0.9617948,1,0,0,0,0,0,0,-1.5983719,0.14343032,-0.7984572,-1.6167641,-0.42734146,-2.4145842,0.42123795,1.2988627,0.43060184,1.0559261
6.164459,38.299355,13.523184,8.155764,-0.21342677,-0.34092042,-0.02420593,0.6539151,-0.81903994,-0.6838873,-0.5726329,-0.08692343,0.5704837,-0.21050471,1.2315241,-0.8108824,-1.5149436,-1.248654,2.0885835,1.39526,-0.9964208,1.1777064,-0.7435057,-1.4586151,-1.2015684,2.099122,1.3419653,-0.97771925,1.1560823,-1.4546288,-1.211462,-1.016432,0.16034226,0.37636274,-0.23096065,0.919487,-0.5433159,1.3279163,-2.887864,0.011722549,-2.078667,0.22002411,-0.41077042,0.9315863,0.7179193,-0.07927812,0.104326874,0.68368316,0.4875113,-0.7381693,-0.99195296,1,0,0,0,0,0,0,-1.569487,0.14331588,-0.77791625,-0.49922466,-0.73320866,-2.2032738,0.4575014,-9.689581,0.42977333,1.5512913
9.795612,40.501053,14.005066,5.1271577,-0.85975295,-0.43420312,0.027903333,0.65880775,-0.8219774,-0.6999964,-0.59338975,-0.23459329,0.54478425,-0.12723887,1.2435871,-0.82570344,-1.5286148,-1.2609073,2.0756626,1.3964437,-0.9904431,1.1892973,-0.7581084,-1.4709098,-1.211828,2.0994883,1.3457438,-0.979865,1.1604255,-1.4621601,-1.2360592,-1.0287536,-0.0048520877,0.37801835,-0.20903791,0.8906021,-0.54320145,1.3063923,-2.887864,0.011722549,-2.1769693,0.22516632,-0.41791534,0.9214359,0.7153384,-0.07177968,0.100478984,0.6877808,0.5273479,-0.6991751,-1.029348,1,0,0,0,0,0,0,-1.5406021,0.14320144,-0.7563923,0.50172806,-0.7639408,-2.6285648,-1.1197329,-16.52092,0.042539835,2.2117167
9.965564,39.78461,13.716991,4.679536,-0.7040807,-0.4735391,0.07889062,0.6562341,-0.8284997,-0.7223037,-0.6005744,-0.19077021,0.49461907,-0.11139954,1.2549207,-0.84095836,-1.5431402,-1.2718854,2.0804112,1.3952057,-0.99100494,1.2009436,-0.77279973,-1.4835002,-1.2222517,2.0984774,1.3494955,-0.98179334,1.1662065,-1.471602,-1.2671056,-1.0465115,-0.13333368,0.37377372,-0.18723649,0.8617172,-0.543087,1.2838854,-2.887864,0.011722549,-2.2752717,0.23065948,-0.42471695,0.91089743,0.7126231,-0.06414624,0.09735966,0.69179094,0.5655248,-0.6645457,-1.068561,1,0,0,0,0,0,0,-1.5117172,0.143087,-0.73388535,0.6496668,-0.9552002,-3.272438,-1.6441345,-12.868675,-0.5616069,2.2247167
8.206701,40.718857,14.703159,6.36961,-0.30451858,-0.29670483,0.073183626,0.6482299,-0.8275533,-0.7274088,-0.58858186,-0.15435827,0.50797814,-0.14572132,1.2657666,-0.85555506,-1.5562412,-1.2811098,2.0830414,1.4002934,-0.9963655,1.2126051,-0.78756166,-1.4963615,-1.2327764,2.0966005,1.353213,-0.98354906,1.1664972,-1.4778898,-1.2929226,-1.0539184,-0.20605727,0.37073174,-0.17151934,0.83283234,-0.54297256,1.2603954,-2.887864,0.011722549,-2.373574,0.23649597,-0.43121338,0.90001786,0.70977134,-0.056364104,0.094726205,0.69575465,0.591878,-0.6346375,-1.1007758,1,0,0,0,0,0,0,-1.4828323,0.14297256,-0.7103954,0.11188984,-0.64709187,-2.7290106,-0.6102562,-7.3209643,-0.42068958,1.6378999
10.2252445,45.20046,17.329264,5.9324074,-0.2820999,-0.13425373,0.14299853,0.65746146,-0.8220229,-0.7177945,-0.60153043,-0.17103672,0.5224781,-0.15273808,1.2783513,-0.869764,-1.568141,-1.2929294,2.0794969,1.4054607,-0.99882287,1.2242991,-0.80233693,-1.5093601,-1.2433927,2.0942354,1.356917,-0.985176,1.170571,-1.4775141,-1.3025467,-1.0639046,-0.24673207,0.36985683,-0.15936467,0.80394745,-0.5428581,1.2359225,-2.887864,0.011722549,-2.4718764,0.24256897,-0.43735504,0.88886845,0.70673144,-0.048478205,0.09240078,0.69974464,0.61650467,-0.5973175,-1.1259493,1,0,0,0,0,0,0,-1.4539474,0.14285812,-0.68592244,0.48508644,0.029659271,-1.1264563,-0.890851,-4.101801,-0.17018318,1.301831
5.8018703,44.951534,18.177126,10.2000065,0.36589587,0.1516994,0.052824903,0.6508104,-0.82854635,-0.71851057,-0.54540163,-0.117865846,0.536054,-0.16697979,1.2893801,-0.88519156,-1.5812111,-1.2979329,2.0824487,1.4105225,-1.001874,1.2359987,-0.81712174,-1.5223815,-1.2538202,2.0918016,1.3606268,-0.98670954,1.1699032,-1.4789813,-1.302439,-1.0353765,-0.24226473,0.3712236,-0.15097527,0.77506256,-0.5427437,1.2104664,-2.887864,0.011722549,-2.5701787,0.24871826,-0.44321442,0.877572,0.70355016,-0.040575597,0.09012233,0.70373905,0.6211162,-0.57162356,-1.1370898,1,0,0,0,0,0,0,-1.4250625,0.14274368,-0.6604664,0.005888939,-0.17809868,-0.08351803,2.9501915,0.37424266,0.09406209,0.9352803
2.3558388,44.719994,18.310156,12.622786,0.7208938,0.30864954,-0.023732908,0.638102,-0.82602787,-0.72708344,-0.5240214,-0.085952386,0.5524694,-0.18218423,1.299809,-0.89972454,-1.5950899,-1.3062223,2.0832064,1.4158738,-1.004928,1.247624,-0.8319075,-1.5354049,-1.2638376,2.089612,1.3643652,-0.9881839,1.1602541,-1.4785496,-1.3024952,-0.9902704,-0.21164899,0.37454954,-0.14591974,0.7461777,-0.54262924,1.1840273,-2.887864,0.011722549,-2.668481,0.25484467,-0.44888306,0.86620736,0.700313,-0.03269895,0.08770912,0.7076719,0.61437064,-0.55430686,-1.1421489,1,0,0,0,0,0,0,-1.3961776,0.14262924,-0.6340273,-0.8825779,-0.0024080276,-0.061297417,4.6091557,2.960366,0.30329227,0.6015867
-2.5675497,43.183598,17.776245,15.367933,0.98792756,0.49437404,-0.14177494,0.61380416,-0.83199465,-0.723621,-0.48766902,-0.108356126,0.571585,-0.20233966,1.3090044,-0.91510695,-1.607767,-1.3126044,2.0787764,1.4215237,-1.0084178,1.2590376,-0.84671426,-1.5484054,-1.2732828,2.0876741,1.3681494,-0.9896335,1.1353512,-1.4817057,-1.299165,-0.92895615,-0.18837282,0.3796866,-0.1443965,0.7172928,-0.5425148,1.1566052,-2.887864,0.011722549,-2.7667835,0.26081085,-0.45443726,0.8548212,0.69712776,-0.024896817,0.08512188,0.7114403,0.59547776,-0.5448573,-1.1432501,1,0,0,0,0,0,0,-1.3672928,0.1425148,-0.60660523,-2.3946285,-0.38042068,0.31933784,6.2396765,2.1970959,0.4827559,0.22707283
-1.5704479,43.339382,17.529902,13.595816,0.76927584,0.43891966,-0.10391377,0.60567355,-0.83304137,-0.7270347,-0.49808758,-0.116811834,0.5722224,-0.19098511,1.319605,-0.9300184,-1.6211089,-1.3230915,2.075993,1.4253716,-1.008732,1.2701842,-0.8615582,-1.5613887,-1.2822721,2.0858927,1.3719813,-0.99106497,1.1080592,-1.4854225,-1.298142,-0.8883465,-0.17526491,0.3842434,-0.14253275,0.6884079,-0.54240036,1.1282002,-2.887864,0.011722549,-2.8650858,0.26663208,-0.45986557,0.84337604,0.69399714,-0.01714057,0.08241871,0.71503925,0.58216166,-0.53205836,-1.1505594,1,0,0,0,0,0,0,-1.3384079,0.14240035,-0.57820016,-2.624631,-0.43041706,0.064468384,4.185331,1.1857599,0.400877,0.26240945
-3.9186897,41.833885,16.412674,13.535759,0.7522085,0.4468732,-0.12339808,0.57382286,-0.83608645,-0.7372306,-0.48418504,-0.12221578,0.56547517,-0.14996947,1.3275664,-0.9451668,-1.6351118,-1.3306906,2.073671,1.4285288,-1.0060619,1.2809645,-0.8764479,-1.5744159,-1.2909372,2.0841722,1.3758475,-0.99245065,1.0684614,-1.4903632,-1.3042947,-0.85884905,-0.17154239,0.38720176,-0.13699928,0.659523,-0.5422859,1.098812,-2.887864,0.011722549,-2.9633882,0.27230835,-0.4651947,0.83181685,0.6909322,-0.009370453,0.07967455,0.7184544,0.5668643,-0.5219796,-1.1632444,1,0,0,0,0,0,0,-1.309523,0.14228591,-0.548812,-3.8360596,-0.5582571,-0.653553,3.096795,0.23012757,0.213027,0.61954856
-7.60244,42.087578,16.658695,15.41016,0.96453166,0.63694274,-0.17766401,0.53862566,-0.8372975,-0.7258556,-0.44555396,-0.09896836,0.5791237,-0.14347877,1.3348271,-0.96017766,-1.6470015,-1.3354926,2.0742755,1.4337598,-1.0067985,1.2912546,-0.8913834,-1.5874546,-1.2992475,2.0825243,1.3797499,-0.99377817,1.0163065,-1.4948682,-1.3037158,-0.8211573,-0.16308059,0.39092934,-0.13115506,0.6306381,-0.5421715,1.0684408,-2.887864,0.011722549,-3.0616906,0.27776337,-0.47044754,0.82016385,0.6879797,-0.001601588,0.076872386,0.7216453,0.5416309,-0.5162924,-1.1713313,1,0,0,0,0,0,0,-1.2806381,0.14217147,-0.5184408,-5.082345,-0.52547455,0.041675568,3.916812,0.6859392,0.297153,0.6406784
-9.79603,41.840904,16.312992,15.953345,0.9648849,0.7143281,-0.21721673,0.50618064,-0.83980995,-0.73185974,-0.4271373,-0.1300664,0.594563,-0.12638149,1.3418727,-0.9753644,-1.6606405,-1.3419613,2.0695176,1.4392062,-1.0064163,1.3009669,-0.9063637,-1.6005046,-1.3071783,2.0808573,1.3836962,-0.9950399,0.95676076,-1.4994096,-1.3052554,-0.7832036,-0.1688919,0.39558476,-0.12434458,0.60175323,-0.54205704,1.0370866,-2.887864,0.011722549,-3.159993,0.2829361,-0.47565842,0.8084246,0.68518525,0.0061470927,0.074049786,0.72456884,0.5130346,-0.51220304,-1.1800921,1,0,0,0,0,0,0,-1.2517532,0.14205703,-0.4870866,-5.814469,-0.53584576,-0.16059875,3.953135,-0.7537663,0.3764987,0.724788
-11.498756,42.197823,16.231213,16.027224,0.9465207,0.7841402,-0.23053934,0.4656123,-0.8391231,-0.7336442,-0.41797507,-0.1380432,0.594969,-0.111479916,1.3475281,-0.99027604,-1.673869,-1.3489758,2.0670528,1.4431931,-1.0061879,1.310023,-0.9213755,-1.6135757,-1.314779,2.079091,1.3876864,-0.99622816,0.88910854,-1.5019529,-1.3075134,-0.75187075,-0.18000019,0.3996783,-0.11691172,0.57286835,-0.5419426,1.0047494,-2.887864,0.011722549,-3.2582953,0.28779602,-0.48083115,0.796589,0.6825687,0.013879859,0.071255565,0.7272069,0.4819497,-0.5082436,-1.1897792,1,0,0,0,0,0,0,-1.2228683,0.14194259,-0.4547494,-6.6159844,-0.33929348,-0.23303032,3.2981396,-1.2914628,0.3108561,0.77901334
-15.493404,42.038223,15.756619,17.13805,0.9516969,0.9263674,-0.29290622,0.40816432,-0.8384118,-0.737256,-0.39828634,-0.19959854,0.60864615,-0.074273124,1.3508394,-1.0052167,-1.6873013,-1.3546077,2.0591311,1.4485509,-1.0036554,1.3182875,-0.9363978,-1.6266811,-1.3220727,2.0770311,1.3917204,-0.997322,0.8059312,-1.5025737,-1.311541,-0.7214117,-0.21539433,0.4043882,-0.106898494,0.54398346,-0.54182816,0.97142917,-2.887864,0.011722549,-3.3565977,0.29231262,-0.48596954,0.78465503,0.680178,0.021579294,0.06859128,0.7295117,0.44431472,-0.50556654,-1.1995673,1,0,0,0,0,0,0,-1.1939834,0.14182815,-0.42142916,-8.153307,-0.1559496,-0.40159225,3.2214642,-3.7403731,0.3587842,1.012361
-22.441235,38.443485,13.2439575,17.358898,1.0505496,1.0499675,-0.3096907,0.31298628,-0.84676856,-0.7456526,-0.43542388,-0.21904981,0.61384964,-0.024592645,1.3495861,-1.0210747,-1.7012464,-1.3656151,2.0551262,1.4531053,-0.9997813,1.3254477,-0.95145726,-1.6398609,-1.3293207,2.0745783,1.3958002,-0.9982862,0.6866884,-1.5074661,-1.3202425,-0.7252098,-0.25631672,0.40852743,-0.09297867,0.5150986,-0.5417137,0.9371259,-2.887864,0.011722549,-3.4549,0.29637146,-0.4911232,0.7725391,0.67804444,0.029323226,0.066120625,0.7314533,0.396168,-0.50774103,-1.2204772,1,0,0,0,0,0,0,-1.1650985,0.14171371,-0.3871259,-11.714327,-0.59797764,-0.88539124,-0.15374422,-4.346934,0.25396943,1.39627
-61.60635,26.384266,4.7334795,30.03171,2.459832,2.018537,-0.8269082,0.013809619,-0.85292506,-0.7627329,-0.449166,-0.31073335,0.60996366,0.005642292,1.3268286,-1.0367497,-1.7161342,-1.3742373,2.043505,1.4567966,-0.99772197,1.3302294,-0.9665978,-1.653197,-1.3367441,2.0714884,1.3999068,-0.9991035,0.40990925,-1.5168784,-1.3376809,-0.7469123,-0.32815498,0.41050765,-0.07824938,0.48621368,-0.5415993,0.9018397,-2.887864,0.011722549,-3.5532024,0.2994156,-0.49660873,0.76014423,0.67657775,0.037217725,0.063947745,0.73264456,0.27405754,-0.55257386,-1.2504045,1,0,0,0,0,0,0,-1.1362137,0.14159927,-0.35183966,-27.293634,-1.1537552,-1.6858339,-1.8008113,-7.6865554,-0.07812977,1.3844371
-121.03394,9.973633,-8.293335,44.000523,3.9266155,3.532762,-1.4106802,-0.4883708,-0.84841686,-0.7743753,-0.64482003,-0.5100261,0.602719,0.1287264,1.2813923,-1.0514395,-1.7306346,-1.401226,2.0204859,1.4601786,-0.98623085,1.3301951,-0.98180985,-1.6667392,-1.3452985,2.0671396,1.4040095,-0.99969953,-0.13871965,-1.524046,-1.3596336,-0.8890923,-0.47347862,0.4080723,-0.053911,0.4573288,-0.54148483,0.8655704,-2.887864,0.011722549,-3.6515048,0.3004303,-0.5028343,0.7472269,0.67635095,0.04550815,0.062405434,0.7325188,0.045086645,-0.63707775,-1.3097823,1,0,0,0,0,0,0,-1.1073288,0.14148483,-0.3155704,-54.14304,-1.1163235,-2.1222115,-13.507462,-15.51457,-0.8261204,2.246864
-133.10327,12.860215,-8.556186,44.221085,3.8786354,4.087121,-1.3657732,-0.71691304,-0.8255751,-0.7746618,-0.753765,-0.61312234,0.5810928,0.2917228,1.2585038,-1.0643674,-1.7442054,-1.420675,2.0058274,1.4621187,-0.97052723,1.3242327,-0.99697137,-1.6804626,-1.355726,2.0611506,1.4080569,-0.99993795,-0.7460011,-1.5152296,-1.3764104,-1.0906422,-0.6449407,0.400933,-0.014126108,0.4284439,-0.5413704,0.82831806,-2.887864,0.011722549,-3.7498071,0.29898834,-0.50982285,0.7336848,0.67745644,0.05432473,0.06169552,0.73095495,-0.20866463,-0.70939153,-1.3727428,1,0,0,0,0,0,0,-1.0784439,0.14137039,-0.27831805,-59.915287,0.36978722,-1.6177893,-19.186234,-18.406868,-1.5167475,3.8945646
-111.18605,22.82809,-1.7649126,38.059578,3.5246458,3.7836401,-1.065942,-0.7954174,-0.8344865,-0.7732641,-0.74111503,-0.53933054,0.5477382,0.16385452,1.2446909,-1.08042,-1.757789,-1.4298375,2.0072174,1.4628307,-0.9835525,1.3130862,-1.012068,-1.6942928,-1.367811,2.053937,1.4120089,-0.99988645,-1.2352406,-1.5093158,-1.3851031,-1.244316,-0.750981,0.39053833,0.012013449,0.39955902,-0.54125595,0.7900784,-2.887864,0.011722549,-3.8486836,0.29524994,-0.517395,0.71963096,0.6796527,0.063613474,0.061503608,0.7281777,-0.43188715,-0.7624226,-1.4193014,1,0,0,0,0,0,0,-1.049559,0.14125594,-0.24007839,-48.257565,0.096559525,-0.81055164,-14.360118,-11.804235,-1.8435776,2.7375405
-70.76774,36.811836,8.879116,26.512218,2.5871792,2.9865265,-0.6437155,-0.82539755,-0.83861774,-0.7583586,-0.7448523,-0.42963284,0.4231585,-0.19121096,1.2305464,-1.0959299,-1.7701286,-1.4422961,2.0109737,1.4543247,-1.0190076,1.2984511,-1.0271285,-1.7080963,-1.3809698,2.0463533,1.4157797,-0.9998693,-1.5381972,-1.5061849,-1.3787607,-1.3370394,-0.76361763,0.3706914,-0.000803493,0.37067413,-0.5411415,0.75085,-2.887864,0.011722549,-3.94756,0.2898178,-0.52526474,0.7052673,0.68255806,0.07326833,0.061301358,0.72456074,-0.588356,-0.7821874,-1.4444857,1,0,0,0,0,0,0,-1.0206741,0.1411415,-0.20085001,-29.876232,-0.024461746,0.6299734,-8.491945,-2.1072507,-2.5688767,-1.0157179
