Afshin1997/kuka_rl_ros2/src/catch_and_throw/output_files/ft/idealpd/smooth trajectory_stiff2025/ft_received_joint_vel_np.csv
joint_0,joint_1,joint_2,joint_3,joint_4,joint_5,joint_6
1.497165247332787885e-05,0.000000000000000000e+00,2.997057574338768404e-05,0.000000000000000000e+00,2.395464393512014567e-05,7.488553313561574498e-05,1.499892321454865396e-05
-1.497165247332787885e-05,1.499892324230422957e-05,-2.997057574338768404e-05,0.000000000000000000e+00,0.000000000000000000e+00,-8.985718560894362383e-05,0.000000000000000000e+00
-5.093361625518877389e-04,-2.396827934111889213e-04,2.846277486756587649e-03,-1.050115522338579410e-02,-8.125293056882032516e-03,2.933137614780090274e-02,-2.870223949469341562e-02
-9.227855723215050432e-03,-6.201836594488946419e-03,-5.332989877204763474e-03,-5.620603775163823812e-02,-9.261406405558503252e-02,2.504553200611547847e-01,-2.965496291782998561e-01
-5.782384888325386996e-03,-5.452844909312193344e-03,2.167647114037496436e-02,-2.620050091023395922e-02,-2.371678175941416278e-01,5.225571406869966573e-01,-6.199140060796914931e-01
3.211773975389520253e-02,2.605072984396272773e-02,1.665657424106403717e-01,6.952349988603723219e-02,-2.477858335190874506e-01,4.120626093433443771e-01,-4.628307465673886512e-01
4.904544271272515132e-02,7.311874178719118822e-02,3.221209934354263282e-01,5.780890450157727400e-02,3.281280076522508082e-02,-2.597281180125587952e-01,2.581851378725130708e-01
3.700125280753363555e-03,1.018059823586631163e-01,3.796452456446552937e-01,-2.816293275642589578e-02,5.103122815514615773e-01,-1.036156079019884269e+00,1.033594453825503745e+00
-4.817659599543056004e-02,9.591874136148995089e-02,4.108941386812281493e-01,-1.002031156087102026e-01,9.959849210492421889e-01,-1.769965172320669966e+00,1.784031626140269999e+00
-2.826778886533265478e-02,9.260809721116369797e-02,5.278901305642014208e-01,-1.492035888224219065e-01,1.326989274938850105e+00,-2.468585537239914363e+00,2.465919055936682813e+00
3.977264476132114090e-02,8.511796219324782586e-02,6.745620647680139470e-01,-2.025334057824124123e-01,1.440863369121581083e+00,-3.061265398431850304e+00,2.732657943380345511e+00
8.800915463741398881e-02,4.819156764791776570e-02,7.362957784204926526e-01,-2.904826192683396258e-01,1.359897937913134847e+00,-3.584901098053788537e+00,2.126960243998832212e+00
1.156028373506812201e-01,1.754192250097777461e-02,7.259743921098626984e-01,-3.906258209963597849e-01,1.155902458909785491e+00,-3.706885540911724952e+00,1.253100504794879555e+00
1.661013484763329551e-01,2.694951986617274975e-02,7.330600470740744612e-01,-5.205198233076413494e-01,9.157146108478841917e-01,-3.199653236433563919e+00,3.884836475081532292e-01
2.657352140418289821e-01,7.031743379940294525e-02,8.005762001564997732e-01,-6.146559290063913217e-01,7.050079918123897116e-01,-2.414551670822995266e+00,-4.451390530000876034e-01
3.783270039162400789e-01,1.278417132793800703e-01,8.559582788774666717e-01,-6.620085659712060533e-01,5.269703147786630737e-01,-1.543613094638962568e+00,-1.113529251749345583e+00
4.611379953610161841e-01,1.758685109377947087e-01,8.512394812715817771e-01,-7.188437676466374882e-01,4.139591113772045361e-01,-6.659933435443354810e-01,-1.109844070850296571e+00
5.207744777535050495e-01,2.238503390972444718e-01,8.154216435077299430e-01,-7.456135458708823549e-01,3.786535877438601538e-01,-2.375873074794698780e-02,-4.864546779014822242e-01
5.717523817367342609e-01,2.895838019753710357e-01,7.837383543832787680e-01,-7.793191534514742891e-01,3.750103438341367834e-01,4.729275035492142010e-02,3.129380799403724822e-01
6.213970450683337088e-01,3.706421283331227667e-01,7.581370468211501290e-01,-8.078715946091552524e-01,4.179378512019771286e-01,-4.383829380149029120e-01,1.075449358194369154e+00
6.535896703553922826e-01,4.348475827236387703e-01,7.170311614082547358e-01,-8.113020665208026116e-01,4.885728967457536598e-01,-1.115701368542498795e+00,1.606035940637517978e+00
6.722251507145504679e-01,4.843274760657559352e-01,6.745320941922705593e-01,-8.375924518874144908e-01,5.640255309851127663e-01,-1.840402461152135238e+00,1.641793864520735280e+00
6.825165664494647899e-01,5.491321783459534034e-01,6.404669487861669452e-01,-8.515241062932443761e-01,6.472200530784344430e-01,-2.337358267006317547e+00,1.257384879042089398e+00
6.983956810490687950e-01,6.059673527506470592e-01,6.319281708674351350e-01,-8.702944133369694413e-01,7.198684231785601462e-01,-2.434310652345339498e+00,6.774832005171371740e-01
7.100653342053397932e-01,6.673864980766223143e-01,6.306548440965231705e-01,-8.705191244778864856e-01,7.819706849188645670e-01,-2.267984619998830720e+00,1.437208278789459115e-01
7.170011908325391037e-01,7.257346820456790359e-01,6.294714290527303469e-01,-8.352705094864520952e-01,8.283496245117261125e-01,-1.825062626020057532e+00,-1.402453864683406159e-01
7.279817389135023742e-01,7.687431126949494375e-01,6.388041136139999132e-01,-8.101036525537397281e-01,8.552422248276903005e-01,-1.454824977740631908e+00,-1.376538179690411923e-01
7.530437670081324697e-01,8.015049607543941468e-01,6.702627188682752646e-01,-7.914681721945537873e-01,8.760468549203759281e-01,-1.141961810604164018e+00,8.246645254250672963e-02
7.775065472130360256e-01,8.093246630220939375e-01,7.029347097421423385e-01,-8.001117789513401135e-01,8.746806111834537489e-01,-1.052065136924407174e+00,3.864163595530545336e-01
7.824050864608800282e-01,8.220878467658007116e-01,6.962684792133355671e-01,-8.236308541766934610e-01,8.740095320867724560e-01,-1.144238810776965209e+00,6.699331516185069724e-01
7.722484974104770750e-01,8.133543828234175432e-01,6.734535352573289835e-01,-8.375924518873589797e-01,8.639188237615225141e-01,-1.339521764334772325e+00,8.373377701707540588e-01
7.688778848379818065e-01,8.009806529393880270e-01,6.661131713056600567e-01,-8.317351541952122673e-01,8.542115642723446811e-01,-1.582846459932785166e+00,8.458765753602270898e-01
7.791244401570140976e-01,8.143879995301910313e-01,6.782322194730516784e-01,-8.218332195906730142e-01,8.482674091792041793e-01,-1.732694211602325840e+00,7.149638734531560402e-01
8.083509329252225317e-01,8.279451444580306907e-01,7.171659880927938602e-01,-8.135041538896992108e-01,8.365947780548665946e-01,-1.833631347243680487e+00,5.217631795028654373e-01
8.561829900184114717e-01,8.154516140834499049e-01,7.752445186927636733e-01,-7.823002576227700011e-01,8.437134088336017967e-01,-1.802562250390660203e+00,3.444565990753933882e-01
8.919409139016010180e-01,7.980145476913198532e-01,8.061488455562981770e-01,-7.894308548151984795e-01,8.531090397851381901e-01,-1.697101057708594318e+00,2.438639750654281180e-01
9.047490671443003674e-01,7.772968349953517375e-01,7.946589885836075062e-01,-7.657919518285760674e-01,8.597962251732926831e-01,-1.567941102700809441e+00,2.456166946940285811e-01
9.105164531093834501e-01,7.404453259831529355e-01,7.782255955932626534e-01,-7.002981990146817104e-01,8.741533035838133792e-01,-1.435545361805179443e+00,3.310043102563442474e-01
9.323127792818242110e-01,7.005827967654686406e-01,7.929512111832237586e-01,-6.758353642681846907e-01,8.852267631765387002e-01,-1.386529862397345436e+00,4.571831883635746330e-01
9.651195968402581649e-01,6.889880836838668809e-01,8.280350561851723690e-01,-6.734535352572734723e-01,8.959406413106552058e-01,-1.402004524214017778e+00,5.806506702101810191e-01
1.002075961961279571e+00,6.646151606645470666e-01,8.629091344278805309e-01,-6.536345853128122663e-01,9.121193634925583993e-01,-1.479452555205873487e+00,6.604656131019015497e-01
1.015408368477438428e+00,6.215318444821446020e-01,8.550294910087963274e-01,-6.376356702226804174e-01,9.264764855362872531e-01,-1.543193670203557577e+00,6.810634980365382063e-01
9.948854236174475840e-01,5.827479287409608188e-01,7.957525464417636307e-01,-6.413058521984593696e-01,9.436378717192495102e-01,-1.611174162678696842e+00,6.505936218023644635e-01
9.872604346441993250e-01,5.377171796355625366e-01,7.781357111368847335e-01,-6.077050461851807306e-01,9.699072585933055102e-01,-1.659590441467628796e+00,6.060722088594983070e-01
1.023153212482780239e+00,5.104830347477929964e-01,8.354952206274246507e-01,-5.196809471660346347e-01,9.962246420217590881e-01,-1.657508181860056773e+00,5.956759097449637608e-01
1.049608367838850143e+00,5.071124767168085912e-01,8.682121537293974178e-01,-3.729790423865897431e-01,1.046534455784675632e+00,-1.642168373998720288e+00,6.397928153633603010e-01
1.040650165484796608e+00,4.630554849790625149e-01,8.313307014122250926e-01,-1.693969937033856787e-01,1.115755304670507098e+00,-1.581707959846356815e+00,7.166117097020530124e-01
1.016726664747336084e+00,3.981608982424883481e-01,7.859404417521198560e-01,-2.272508677042539560e-02,1.205349338258276948e+00,-1.509547949232858954e+00,8.002166623309880933e-01
1.023572664188926451e+00,3.560063699287812633e-01,8.063286144691095281e-01,1.104645880387056245e-01,1.278812689851693829e+00,-1.499511160672983845e+00,8.552092599214966562e-01
1.057802579584543601e+00,3.180313597534336068e-01,8.654258173940720944e-01,3.071257244763314631e-01,1.320565721533939474e+00,-1.530400515884156043e+00,8.470150481758587091e-01
1.065891935221358056e+00,2.572414056220859169e-01,8.616358076569685664e-01,5.340769682354307157e-01,1.339285032238624051e+00,-1.572375248014290516e+00,7.939099696276374907e-01
1.027227847241490855e+00,1.879875318344023938e-01,7.813414991783562691e-01,7.269031527077918220e-01,1.327468629617412077e+00,-1.599834076772277403e+00,7.309328452383412333e-01
1.003723770939463078e+00,1.184640592191328334e-01,7.342584883119340766e-01,9.017380469388269759e-01,1.297316321494379476e+00,-1.652969180437724450e+00,6.795055462439636429e-01
1.021715088451530251e+00,5.971139519638673371e-02,7.635599211547328125e-01,1.059645156398669741e+00,1.246479243764975209e+00,-1.663874788444041908e+00,6.571100539942142937e-01
1.036994982432204448e+00,2.786336335316432974e-03,7.763830187791365134e-01,1.175397792086418924e+00,1.190249229552853283e+00,-1.668998066103544176e+00,6.718805845414843603e-01
1.019947424441280948e+00,-8.300573200997664325e-02,7.301239124017366855e-01,1.290431379393885969e+00,1.146986226269963716e+00,-1.675963893306486874e+00,7.119078837487524680e-01
9.886835597521792529e-01,-1.786698189255820912e-01,6.665925641632375331e-01,1.384732255082177232e+00,1.112567460795355068e+00,-1.632146557091374017e+00,7.615226037753775046e-01
9.663030391548199649e-01,-2.494516193885625011e-01,6.281381611303316070e-01,1.492440450090504189e+00,1.086370025119576255e+00,-1.620806498455640288e+00,8.174589608870852508e-01
9.704375877942483797e-01,-3.242182246954491420e-01,6.401223826131285932e-01,1.563851469018884277e+00,1.070359029078593593e+00,-1.623652748671600143e+00,8.637030683412705301e-01
9.803395769402423188e-01,-3.939214934942383839e-01,6.546083426804405470e-01,1.611788382220868954e+00,1.057032611223474028e+00,-1.625570238289686387e+00,8.936786346069314213e-01
9.603258864304964337e-01,-4.632651699259882072e-01,6.173074113863807888e-01,1.684277932813504908e+00,1.054731656406682205e+00,-1.641119758368725368e+00,9.032959714605492962e-01
9.158494429866159692e-01,-5.438890729251054657e-01,5.461660730978756817e-01,1.730417211429524649e+00,1.051280136915133667e+00,-1.663680047878812740e+00,9.037753370474410630e-01
8.833721926779780631e-01,-6.195994104823906445e-01,5.049553043053323087e-01,1.770189856190818034e+00,1.060316317307630207e+00,-1.665567566921155596e+00,9.051834905028921519e-01
8.783987678970262003e-01,-6.856025267296406156e-01,5.149921201359486389e-01,1.827953818464234104e+00,1.056697028041897468e+00,-1.700786238607643330e+00,9.193997699303291249e-01
8.734552318794830406e-01,-7.281615078262655416e-01,5.191116698521347494e-01,1.834500221231771810e+00,1.066596011949139111e+00,-1.714912606307961163e+00,9.503939812503525708e-01
8.504006051300860847e-01,-7.853711917089338801e-01,4.864996201296434286e-01,1.866812674280071693e+00,1.065948887496448449e+00,-1.710568345450802497e+00,9.849534911664514780e-01
8.177735564843802152e-01,-8.425359606341834562e-01,4.390570441669683355e-01,1.916067829210499340e+00,1.067818396922604052e+00,-1.715047432992500287e+00,1.012187636054262541e+00
7.944642207475816065e-01,-8.716875678692346252e-01,4.474909659767933867e-01,1.901267328087430375e+00,1.071701274538316984e+00,-1.701565200868560002e+00,1.031362395880863758e+00
7.842776338507495559e-01,-9.152352507152144989e-01,5.470049765102236172e-01,1.963001041739964592e+00,1.062257734298854839e+00,-1.655291095567945625e+00,1.047151598753348622e+00
7.457483452846802585e-01,-9.855527117853873920e-01,6.324674503349059229e-01,1.950567425246019226e+00,1.064966179862236739e+00,-1.614439891871655153e+00,1.097020973225892870e+00
6.567804867443349792e-01,-1.055750290552698534e+00,5.980877366023040764e-01,1.906330664595501378e+00,1.061011351048191109e+00,-1.601317143031688595e+00,1.199575974540512124e+00
5.751678819959082922e-01,-1.144957859157164082e+00,4.681187942163766991e-01,1.946897243270184763e+00,1.053077826042636556e+00,-1.644670085312383012e+00,1.360554072628084032e+00
5.503455639654930565e-01,-1.203575696495347680e+00,2.992910505562051959e-01,1.904158520531606946e+00,1.045911242342767444e+00,-1.748183817800730289e+00,1.535388912317581234e+00
5.866577662394512060e-01,-1.193568878511243714e+00,1.875231651708442193e-01,1.917011588731643013e+00,1.019545949626388115e+00,-1.863172462879980618e+00,1.673806748165751479e+00
6.344748244093700862e-01,-1.179562338572295532e+00,1.190782514904897837e-01,1.895125405373621064e+00,9.991727649243942189e-01,-1.916562193720550145e+00,1.737353068056723959e+00
6.060272666312815915e-01,-1.135160753390753952e+00,-1.896504760895423303e-02,1.846094934313369240e+00,9.864455186007758947e-01,-1.921475704620867475e+00,1.717863739903568998e+00
5.353353506247215954e-01,-1.161600964365161026e+00,-1.512708767775206020e-01,1.915408721981648466e+00,9.714891813922821306e-01,-1.874108068732782684e+00,1.647486392223451723e+00
4.779158999828059251e-01,-1.234105513880970006e+00,-2.278350893996639037e-01,1.893222887408063659e+00,9.728793797730839188e-01,-1.802037942575607232e+00,1.561289816553734777e+00
4.235075240878738434e-01,-1.315837919119992261e+00,-2.719070800605849492e-01,1.888024751486083730e+00,9.652094867507732268e-01,-1.776451606666007432e+00,1.504185016050652024e+00
3.638260994672792847e-01,-1.426886756125112621e+00,-3.198889354907863414e-01,1.922898856999644135e+00,9.695717190449926193e-01,-1.733578057242779469e+00,1.498852026173447261e+00
2.904077064644350337e-01,-1.508439419722156671e+00,-3.746418502880155543e-01,1.906240752868382238e+00,9.759952724499587617e-01,-1.745607220953848682e+00,1.539613372684101034e+00
2.148621934382477505e-01,-1.583325825519593666e+00,-4.209908411216822799e-01,1.939856530534134205e+00,9.773854708307605499e-01,-1.802187740912675196e+00,1.612567344481785625e+00
1.376837612739323369e-01,-1.620956296792683826e+00,-4.710249855838233302e-01,1.877388742307417591e+00,9.916226887550227964e-01,-1.801918087543485925e+00,1.687303951942165092e+00
6.489455946584454793e-02,-1.608282970234582665e+00,-5.090449107165717635e-01,1.860550923804937806e+00,9.888663339037706557e-01,-1.837601125893650877e+00,1.742536259596916270e+00
1.324257660129113390e-02,-1.654871671132530198e+00,-5.159808218852535155e-01,1.916292540351416385e+00,9.932525644751333260e-01,-1.850364336908050245e+00,1.768482106061286530e+00
-5.018394279909799138e-02,-1.658706595827091901e+00,-5.576409584182040469e-01,1.825766702747866344e+00,1.003079640817305940e+00,-1.798892068414825740e+00,1.768407220528123158e+00
-1.200519815874323548e-01,-1.634228843969697698e+00,-6.136821989095042618e-01,1.824778000998450445e+00,9.892977356610876960e-01,-1.764737038552288695e+00,1.743659788030815783e+00
-1.715541661148622943e-01,-1.686015653518765811e+00,-6.380850652337732853e-01,1.856281548480998023e+00,1.003990440886393110e+00,-1.705265326149341121e+00,1.711392249939935883e+00
-2.396545408929195986e-01,-1.664069556280033169e+00,-6.891378820208515776e-01,1.791536760081424706e+00,1.000131474281407140e+00,-1.650137874603441190e+00,1.685461375128038952e+00
-3.110505608980296266e-01,-1.611983095515350017e+00,-7.478755471204134864e-01,1.802891790369631764e+00,9.875720413651811747e-01,-1.624866161561933087e+00,1.672877960297081135e+00
-3.590174174050719813e-01,-1.632895576047309394e+00,-7.687430854241839029e-01,1.795386710970015010e+00,9.928930266496216461e-01,-1.599399680684343572e+00,1.677072422817171837e+00
-4.109540525619181928e-01,-1.616057757544864248e+00,-7.992878744622622378e-01,1.802577222043078020e+00,9.789673936297926815e-01,-1.597377334957517103e+00,1.697924989468413415e+00
-4.634749094144519077e-01,-1.571790999047882664e+00,-8.442137401880600578e-01,1.820853164576807792e+00,9.627167638826539253e-01,-1.604313191584716414e+00,1.717728913218974363e+00
-5.016896023831707296e-01,-1.580899027009780022e+00,-8.692457977069745212e-01,1.792840057428080058e+00,9.642986430484778992e-01,-1.579520844129933543e+00,1.731705509852965452e+00
-5.432449373488079658e-01,-1.563776583485727789e+00,-8.866978084807741745e-01,1.851652608060749827e+00,9.417683186598302392e-01,-1.582501921030543546e+00,1.737757548110452355e+00
-5.942976995943483054e-01,-1.557409949630966794e+00,-9.329419704764418952e-01,1.838514914839051162e+00,9.436139170753143901e-01,-1.566218353648007877e+00,1.729907902537741737e+00
-6.470882370868125122e-01,-1.562802826118078636e+00,-9.781674056055789102e-01,1.795671335991622097e+00,9.389400562434535580e-01,-1.520858064563590517e+00,1.719256894435805538e+00
-6.945457301604784917e-01,-1.504694352213197028e+00,-1.001536655223012051e+00,1.885582954053055538e+00,9.168890865334788920e-01,-1.487032574680136054e+00,1.709040364234026832e+00
-7.253901704142307061e-01,-1.499705901238233885e+00,-1.006899588405218982e+00,1.845121231487278912e+00,9.152592108133128512e-01,-1.449267303993251321e+00,1.697954932773360071e+00
-7.720387306512366266e-01,-1.486178699615342547e+00,-1.024651223123895782e+00,1.818890760001301565e+00,9.051685024880073982e-01,-1.406768236777322656e+00,1.700965980249657949e+00
-8.198707877444810777e-01,-1.420295438400179133e+00,-1.048934261686840230e+00,1.863966396793315106e+00,8.736499942613162872e-01,-1.343072064007744260e+00,1.703692375433552009e+00
-8.472247876643024256e-01,-1.444982929746041478e+00,-1.045698530340422039e+00,1.788450827072074478e+00,8.670826257261565750e-01,-1.303823754332245066e+00,1.706793334636913517e+00
-8.908024138152281779e-01,-1.461281496051784812e+00,-1.053473290379913774e+00,1.820313885109281493e+00,8.448878845191964970e-01,-1.288304177558152741e+00,1.719032183294888494e+00
-9.423945100698327693e-01,-1.408176390232801500e+00,-1.101859598593046830e+00,1.809722818158721047e+00,7.978377785631818320e-01,-1.254898139380844491e+00,1.729997759723378437e+00
-9.968028859647093398e-01,-1.383309102703414339e+00,-1.164941551820397603e+00,1.725159134356224477e+00,7.595122244621888008e-01,-1.238599627616632226e+00,1.744468720867475842e+00
-1.049114030599596070e+00,-1.376418188304417978e+00,-1.218526050497048541e+00,1.817617433230389601e+00,6.003857134510015570e-01,-1.277308630553919411e+00,1.760917058239441779e+00
-1.062880887745115688e+00,-1.319657899432849391e+00,-1.247108380418082696e+00,1.775492875492334921e+00,2.249678788701636734e-01,-1.273278965294111220e+00,1.771313384624662035e+00
-1.051990251391271558e+00,-1.237341272498158951e+00,-1.267032186471450661e+00,1.695258480894468178e+00,-2.902099879311670350e-01,-1.247168321569513960e+00,1.766714442051120493e+00
-1.069906656099461895e+00,-1.219949148334224853e+00,-1.339371965997759872e+00,1.791626644537802626e+00,-8.469491619966795781e-01,-1.255377504967680746e+00,1.746311297681546471e+00
-1.126202551036653565e+00,-1.199216436715000444e+00,-1.493219439622162081e+00,1.729009085244814781e+00,-1.315748045571940583e+00,-1.238749425953644678e+00,1.709714443115295524e+00
-1.158395176323684383e+00,-1.117064579769830202e+00,-1.575640949936452095e+00,1.665103172986792668e+00,-1.684262972069305864e+00,-1.227918648938952639e+00,1.682779922172361609e+00
-1.117364203714665827e+00,-1.068873039392667534e+00,-1.527958691180275608e+00,1.726747056724486917e+00,-1.910908635947505818e+00,-1.251917089751086731e+00,1.684757325670971362e+00
-1.088946589241551743e+00,-1.043002051190705659e+00,-1.531628900426906803e+00,1.653403576525547258e+00,-1.972938946489422030e+00,-1.283690236061174605e+00,1.706508682344565209e+00
-1.135909772346704871e+00,-9.945708280201248641e-01,-1.669507374995327087e+00,1.550534006884485283e+00,-1.929627990285454064e+00,-1.337709158096334061e+00,1.733233491069796628e+00
-1.148388358339580417e+00,-9.928630778905517262e-01,-1.760003269293985984e+00,1.457446516815674720e+00,-1.785961125805202165e+00,-1.376567986641485941e+00,1.759823527652026876e+00
-1.073831492521132303e+00,-9.755009243023332610e-01,-1.729803019158149269e+00,1.219125243845098350e+00,-1.608570573224221700e+00,-1.393600572979880603e+00,1.773365673656601693e+00
-9.864964440358114928e-01,-9.009740290596146561e-01,-1.684817239551716916e+00,9.756806932150752232e-01,-1.434631583767997931e+00,-1.426826814973691793e+00,1.767103923181467806e+00
-9.446715102426062050e-01,-8.964350003665272348e-01,-1.750715499690136401e+00,9.188904337678049927e-01,-1.269417015266949278e+00,-1.439185573205215007e+00,1.744948086454312097e+00
-9.369117218556155535e-01,-8.868176635128677265e-01,-1.865958799215305941e+00,7.449693830237635872e-01,-1.112184011959171936e+00,-1.394739073066308954e+00,1.722477654129694891e+00
-8.844657505361619432e-01,-8.397496242988633508e-01,-1.850139625767133200e+00,4.577524384067888086e-01,-9.943551325956034859e-01,-1.354891542771852198e+00,1.702793585411366273e+00
-7.759785659962326054e-01,-8.216084811789869935e-01,-1.732229817667962912e+00,1.937699439935047785e-01,-9.092671027989829291e-01,-1.331102814177420601e+00,1.690060317701802539e+00
-7.022905468950513264e-01,-7.518603246935429141e-01,-1.681551537629610849e+00,6.831000518348062656e-03,-8.892534559224452018e-01,-1.300093658475720559e+00,1.685551286855213604e+00
-6.745620647679861914e-01,-6.968227576040347815e-01,-1.687528663083137648e+00,-1.815609840989940160e-01,-9.039700721584775778e-01,-1.250014599056270548e+00,1.681701335966567790e+00
-6.525709980302885072e-01,-7.031893641880337942e-01,-1.657912661913729657e+00,-3.911201582356693685e-01,-9.439734112675624012e-01,-1.231468975882665795e+00,1.655725518926565165e+00
-6.137571117134088539e-01,-6.983058238634598514e-01,-1.564645402932218765e+00,-6.082593518466627991e-01,-1.003103595461241060e+00,-1.255961753934109471e+00,1.607459065745442395e+00
-5.564575161035867357e-01,-7.081777878922279612e-01,-1.424549842071687333e+00,-8.372029707569561552e-01,-1.056001994301336566e+00,-1.285937292928973630e+00,1.543867776355623000e+00
-5.176735730916537381e-01,-7.414340550032788579e-01,-1.302325716420305035e+00,-1.034927694477105753e+00,-1.099360859793230283e+00,-1.327627400037612038e+00,1.474179506480099988e+00
-4.989332366235887939e-01,-7.441754218396323672e-01,-1.221042706192443372e+00,-1.256845599574618610e+00,-1.118319935103639917e+00,-1.370171409481757419e+00,1.421164285117404447e+00
-4.636247350222610919e-01,-7.361010378552912403e-01,-1.129902703588203661e+00,-1.360179563150099025e+00,-1.119398504946911288e+00,-1.419995841726084951e+00,1.392716727339426974e+00
-4.078830912050135371e-01,-7.368650557344758045e-01,-1.015603136313436572e+00,-1.455304343327468164e+00,-1.090588442283657589e+00,-1.434601602283980260e+00,1.386574831896303373e+00
-3.575793206445632144e-01,-7.349475661164173168e-01,-9.166284052474771293e-01,-1.618514499359624548e+00,-1.035940350870401261e+00,-1.430317228036770416e+00,1.395428150870792194e+00
-3.181811580904858605e-01,-7.399060465156787059e-01,-8.583701057348069874e-01,-1.657702949696027162e+00,-9.538484405308134129e-01,-1.441792140627784491e+00,1.413119898979631195e+00
-2.748432147329504804e-01,-7.606837003630573246e-01,-8.380418741692485796e-01,-1.623922374769992683e+00,-7.693153461603707832e-01,-1.444773217528338982e+00,1.432339573763652396e+00
-2.188768870454993465e-01,-7.673948458493257130e-01,-8.063136428166362002e-01,-1.608867219201004506e+00,-3.585919443129248485e-01,-1.424130390365541121e+00,1.448068862755391706e+00
-1.498327800170951019e-01,-7.394716231570452880e-01,-7.603391341900467282e-01,-1.512499055557670058e+00,2.113297888441945105e-01,-1.378036053977627073e+00,1.469640477786970933e+00
-7.954528952261452623e-02,-7.233228824591042549e-01,-7.498080083909175464e-01,-1.384118062810801852e+00,8.376493932542028453e-01,-1.158859570258019556e+00,1.494163199143305754e+00
-2.757871106079390344e-02,-7.018261802314712527e-01,-7.794539801360134135e-01,-1.235199071739134791e+00,1.408697692808991153e+00,-5.037119481101082208e-01,1.507630486885513932e+00
2.209592284654893213e-02,-6.870406234901066389e-01,-8.177136426038011940e-01,-1.008217857404347662e+00,1.870593711934043224e+00,3.143012638969766570e-01,1.477804718956976515e+00
8.418917432453931760e-02,-6.699481232709941780e-01,-8.539059898455825248e-01,-7.141699395398215522e-01,2.174202025285509876e+00,1.082609953233226729e+00,1.359655255335101565e+00
1.299240001577106618e-01,-6.133226610840064597e-01,-9.023072697112444196e-01,-4.436260434357297555e-01,2.319810394023402722e+00,1.834694934526204246e+00,1.150785186273650673e+00
1.527539157661905733e-01,-5.473045731842762773e-01,-9.572549250735917781e-01,-1.806621668060115482e-01,2.298334641200938666e+00,2.567829921674980032e+00,9.343051544330460700e-01
1.706553488218798265e-01,-4.765527160262433837e-01,-1.020381847799900488e+00,9.103514649538846371e-02,2.149346791436246296e+00,3.090746572916691637e+00,7.950634413664836586e-01
1.757486831764909496e-01,-3.973669370583576832e-01,-1.087014155241816660e+00,3.590473879807043467e-01,1.890751130307566363e+00,3.024818369473325497e+00,7.641141995454736602e-01
1.820403496858025161e-01,-3.411908698824628328e-01,-1.112210955479420171e+00,6.208877089058373322e-01,1.605790263728978928e+00,2.349761940195260745e+00,8.244397597424457658e-01
1.978895209804043542e-01,-3.097322918989148244e-01,-1.026074375502616931e+00,8.613811532110493552e-01,1.300408259527208177e+00,1.476366622196467748e+00,9.473679621215813640e-01
2.096640302455543559e-01,-2.855091944873877630e-01,-8.113919237064393108e-01,1.040455424919595195e+00,1.006818703302769791e+00,5.944475252022130007e-01,1.102323992527409757e+00
1.854708488682188516e-01,-3.070807822481702587e-01,-5.443984090876541337e-01,1.171457984012191922e+00,7.660076854322239726e-01,-2.183825225354762978e-01,1.272964369696816256e+00
1.289952122890125619e-01,-4.067745344235457194e-01,-3.196492254265992372e-01,1.156912110064300947e+00,5.977491754526886858e-01,-9.998439040166950953e-01,1.455229430523563572e+00
9.617339580736405935e-02,-5.567721117009094556e-01,-1.791791550881383088e-01,9.894625492838371450e-01,5.187731141566565007e-01,-1.753591693211042912e+00,1.618080076001060519e+00
1.872085695735214994e-01,-7.452989502735457572e-01,1.644836464276266952e-02,8.090250663480014204e-01,5.126851439333224292e-01,-2.509676451000364406e+00,1.742760970737777804e+00
3.821170136533991180e-01,-9.281182894910200432e-01,2.609864458602562109e-01,6.995941222869284104e-01,5.646247897830858342e-01,-3.145035121050243632e+00,1.820059230663417793e+00
5.617455637526302947e-01,-1.057982375768054428e+00,4.724181401161153815e-01,5.207595061009762105e-01,6.626796996093697878e-01,-3.639414357328285554e+00,1.850199539647823244e+00
6.786966134073868506e-01,-1.140313974355225302e+00,6.541439487460776192e-01,3.141514655599086936e-01,7.880826097861892698e-01,-3.727857935324319083e+00,1.825916501084878796e+00
7.565790950286310768e-01,-1.204219859342450683e+00,8.461611731110374457e-01,1.352720162289822170e-02,9.395392714082739793e-01,-3.471095922559841451e+00,1.771208501245125078e+00
8.337574999220664917e-01,-1.240562004921341721e+00,9.721153673480920077e-01,-2.130945021571739595e-01,1.059045935779767689e+00,-2.772115992544343932e+00,1.713654278460263747e+00
9.622583749717972257e-01,-1.264815100179339513e+00,1.094384435227635510e+00,-4.017112251862298145e-01,1.134594519494658282e+00,-1.967914607181764364e+00,1.671409892960884491e+00
1.118937099888916986e+00,-1.281188552018211357e+00,1.227109743373089312e+00,-5.892193914338039740e-01,1.171074475180333696e+00,-1.152178340805942725e+00,1.658107402478958825e+00
1.215455089140088374e+00,-1.280289707454459913e+00,1.264590389038422469e+00,-7.150387862570606323e-01,1.188044180578384790e+00,-3.487110027468598439e-01,1.675604355480975194e+00
1.245760168114007360e+00,-1.285802493515203482e+00,1.193314224065378237e+00,-8.535015097919096405e-01,1.179295630446275389e+00,4.548014411648315658e-02,1.709369931483739613e+00
1.289008254285906041e+00,-1.243288427375990768e+00,1.153975975391907660e+00,-9.414657222011624249e-01,1.161774750071065121e+00,-6.786058290131347093e-03,1.745172770324487921e+00
1.357632909608191829e+00,-1.166604359721837181e+00,1.129528194110218653e+00,-1.038463049768401092e+00,1.121148197520016598e+00,-5.096141880305271599e-01,1.768676846626515697e+00
1.374560639837790754e+00,-1.116764983095749786e+00,9.307248569135895266e-01,-1.128764176231034089e+00,1.092290181935628990e+00,-9.862717601656356692e-01,1.775777527784683230e+00
1.382500169866823780e+00,-1.091508214435918278e+00,5.849649877622820071e-01,-1.139430155985499127e+00,1.079538980968075546e+00,-1.101470117462588494e+00,1.753666606014947504e+00
1.483152707757368072e+00,-1.047496164926372986e+00,2.751727819827465282e-01,-1.087373665796476097e+00,1.060388181239491079e+00,-5.053298137833173165e-01,1.682525240455645665e+00
1.631861932069766929e+00,-9.551576938135603045e-01,1.844073979395677298e-02,-1.077276936085280745e+00,1.054252301728175745e+00,2.932390122987182934e-01,1.590980757797844092e+00
1.745592249301375354e+00,-8.352555378339648895e-01,-2.453770119005826977e-01,-1.080602579158873588e+00,1.047852659333992076e+00,1.053563174836291694e+00,1.512019689970833802e+00
1.775837414394604297e+00,-7.357864695287374968e-01,-5.707337366824272173e-01,-1.037174751344960288e+00,1.058758349152588707e+00,1.798113078883112337e+00,1.455304343327412653e+00
1.725458731030304893e+00,-6.243032091649974857e-01,-9.587979052136375024e-01,-9.687448093170791807e-01,1.063935519306891120e+00,2.516297766571751193e+00,1.420130668410735097e+00
1.693266133014015296e+00,-5.152767451575279711e-01,-1.195546282009962713e+00,-8.968245087677684246e-01,1.062569319203232610e+00,3.122250093128442483e+00,1.402798458127407777e+00
1.682270586009837476e+00,-4.339637643539090428e-01,-1.298565649988148163e+00,-8.427756161568100701e-01,1.067890304487728592e+00,3.116917130521978940e+00,1.383788495560978049e+00
1.606365507887286270e+00,-3.605304269693881958e-01,-1.453072285382883688e+00,-8.034673926006208333e-01,1.065397581619609291e+00,2.567620182186480804e+00,1.329559861308116098e+00
1.511435468275146299e+00,-3.153798501026872092e-01,-1.592508766285360977e+00,-7.914382016188659108e-01,1.075200703317735762e+00,1.724305259291403214e+00,1.207215907895409224e+00
1.443829430736454089e+00,-3.071706667045343009e-01,-1.642467970672800703e+00,-7.350524494960652966e-01,1.074601488153026363e+00,9.069811250889125986e-01,8.732305480093627281e-01
1.373556966435929283e+00,-3.125036293109839658e-01,-1.686869528583545552e+00,-6.920590177699748047e-01,1.083853260341161029e+00,1.965113381006133864e-01,1.191831348701377635e-01
1.324286812582342598e+00,-3.102865702896417943e-01,-1.681416710945016213e+00,-6.495899211297895270e-01,1.087999857206478627e+00,1.380732424044461837e-01,-6.895273631514209356e-01
1.321949898528851364e+00,-3.177317630793652370e-01,-1.605436747289412658e+00,-6.274490833257928557e-01,1.087712226946091487e+00,3.936817834300221364e-01,-1.469460736144956314e+00
1.305201909941267058e+00,-3.650544840100161670e-01,-1.549979728493688924e+00,-5.825681598282117513e-01,1.096436735167793941e+00,9.762799138340327865e-01,-2.240196169449593100e+00
1.259781734246956386e+00,-3.967078025587794654e-01,-1.536827036348775710e+00,-5.604272947534738591e-01,1.102572658312261922e+00,1.521607056248763801e+00,-2.934741926880812812e+00
1.247557802699972296e+00,-4.066696783147083494e-01,-1.453446794860868696e+00,-5.649513245233328540e-01,1.104274397964288834e+00,1.934703309569685281e+00,-3.306642383061664248e+00
1.262687898343606285e+00,-4.203167349696862454e-01,-1.320541717802603543e+00,-5.542104865065011765e-01,1.098378195792226730e+00,2.097134503340924994e+00,-2.947550080123484406e+00
1.240337321051165898e+00,-4.320163314309038993e-01,-1.260096329844251350e+00,-5.694004960308252095e-01,1.099864212748991044e+00,1.906869944063027678e+00,-2.181668216567733687e+00
1.174708687011083441e+00,-4.270428793791830602e-01,-1.266133341907726972e+00,-5.931741711604487932e-01,1.101182503564612780e+00,1.685116836225797332e+00,-1.336855283031623820e+00
1.138905848170501667e+00,-4.187887264820860933e-01,-1.233790945554424923e+00,-6.185208515474549529e-01,1.098354197515027941e+00,1.302011120823010071e+00,-4.915179871387564958e-01
1.148762867817565425e+00,-4.024302735664425645e-01,-1.139235388149473227e+00,-6.293216034449211627e-01,1.096197057828596222e+00,1.076048578813271206e+00,2.414821187838311900e-01
1.144688205788058077e+00,-3.722150517781463996e-01,-1.094773916358038335e+00,-6.603757286455236297e-01,1.090684304492661738e+00,9.235792880686877204e-01,3.603656569798330267e-01
1.091972608370239683e+00,-3.331913987020124202e-01,-1.137707434203438783e+00,-6.994442966790637151e-01,1.096436735167793941e+00,9.732239241295737031e-01,-1.770519532523495698e-01
1.043706155189227935e+00,-2.827827720327386052e-01,-1.166739186406418050e+00,-7.463625648267968593e-01,1.099864212748880021e+00,1.119566263812765694e+00,-9.605655964947112935e-01
1.051840425783490129e+00,-2.222324734240388455e-01,-1.113753935619465896e+00,-7.655073268070244907e-01,1.095430072889591600e+00,1.282956216028419139e+00,-1.738027174208789383e+00
1.073307184706107087e+00,-1.687229148221447428e-01,-1.065861991916439155e+00,-7.684884309782646916e-01,1.094806903080947080e+00,1.460981899377711279e+00,-2.368277592793122110e+00
1.040380539386431824e+00,-1.267481554211719041e-01,-1.105514781645666744e+00,-7.622266532323895838e-01,1.090444627153352997e+00,1.523494575291162167e+00,-2.494096960345637548e+00
9.704525594467217076e-01,-8.493819328050933315e-02,-1.178169156769215409e+00,-7.831990749157524689e-01,1.094495274543305641e+00,1.529336901330835552e+00,-2.168830120020115437e+00
9.383648175392833579e-01,-3.956290527283579106e-02,-1.172911052425174017e+00,-8.146576256285453788e-01,1.091834781901113161e+00,1.406558524559620160e+00,-1.597527133294529555e+00
9.474129043497425684e-01,3.535328020484729272e-03,-1.106069060036352081e+00,-8.279302000763211211e-01,1.090636395204791498e+00,1.295644514239024936e+00,-1.013206308379310805e+00
9.323876648150153379e-01,4.228935499828168076e-02,-1.093950011869015970e+00,-8.479138654688411769e-01,1.088575074093989237e+00,1.164162589559536443e+00,-6.445415562741363402e-01
8.649913940354525543e-01,8.764961681190230891e-02,-1.158185464105954132e+00,-8.498762700442918927e-01,1.087496504250884399e+00,1.101904513550466813e+00,-5.707187650300094006e-01
8.017895857759804734e-01,1.330099058963335468e-01,-1.196639812597433128e+00,-8.283496245117261125e-01,1.091259521380227859e+00,1.102623616472231394e+00,-7.947338741166598552e-01
7.880676435878530839e-01,2.012151367832282212e-01,-1.125513473232142569e+00,-8.116316337705709039e-01,1.082702826565973275e+00,1.141137878844344922e+00,-1.178663494008524992e+00
7.995575278313959977e-01,2.815993297181629273e-01,-9.795156451803954667e-01,-7.621517676992817236e-01,1.061634564490154808e+00,1.199051666725459153e+00,-1.538714555391118566e+00
7.744206142036857976e-01,3.436176956630454526e-01,-8.437942884819138456e-01,-6.812732375249819228e-01,1.038816566207967362e+00,1.205777811135011479e+00,-1.713774106221532811e+00
6.833704687850272741e-01,3.835251398381506194e-01,-7.726529501934087385e-01,-6.089484296512015504e-01,1.023189149902847817e+00,1.174588859249814377e+00,-1.646452748245930131e+00
5.815494875031634869e-01,4.223540523490554310e-01,-6.751163158879025517e-01,-5.655804884471815619e-01,1.014224964341892132e+00,1.082355271516621809e+00,-1.384687312854016028e+00
5.186323042652429827e-01,4.553106682445018372e-01,-5.397395253624592826e-01,-5.372228423962677191e-01,1.005021057808530571e+00,9.684751559479454208e-01,-1.038163425823523944e+00
4.822452164582324841e-01,4.698415432692198968e-01,-4.294097640083482936e-01,-4.770470532655668450e-01,1.000515010384117609e+00,8.535464792909230880e-01,-7.103799298027180242e-01
4.554304960058264129e-01,4.709500727798909825e-01,-3.678407930745586363e-01,-4.324507547895373172e-01,1.001617534871268589e+00,7.925916733577120787e-01,-4.906041981933562113e-01
4.367950429173816929e-01,4.895256119876456591e-01,-3.380600219156648656e-01,-4.374242068412304008e-01,1.004781380469332852e+00,8.120960277049338316e-01,-4.627558610341697687e-01
4.328702064956835294e-01,5.289986873456553607e-01,-3.261806292709223953e-01,-4.468018881723101465e-01,1.011228888518123092e+00,8.896039998481652944e-01,-6.142065067245017218e-01
4.357314283641722241e-01,5.762464682016327222e-01,-3.352886572328128700e-01,-4.533482363982543895e-01,1.013889424793634753e+00,1.013715617271093716e+00,-8.569919228550437751e-01
4.387574747636291406e-01,6.285576128364778192e-01,-3.695934854323623675e-01,-4.782005250044130129e-01,1.022637887659216815e+00,1.120240397235572338e+00,-1.079928473006752654e+00
4.332446887029273164e-01,6.704874300092478201e-01,-4.203616771978335720e-01,-5.010304951543753660e-01,1.030523459743637460e+00,1.189853781578043002e+00,-1.208743889112295911e+00
4.219795428710981788e-01,7.107843825855664210e-01,-4.742607169302415215e-01,-5.282046988907551643e-01,1.031458301723242599e+00,1.189164676502707518e+00,-1.197044319921847233e+00
4.088568213018728414e-01,7.520850085637048599e-01,-5.192914387648350782e-01,-5.579256107105523554e-01,1.041189428589772703e+00,1.153032243141505209e+00,-1.079943444659337004e+00
3.908355332140622806e-01,7.903746143363837851e-01,-5.509148412794484528e-01,-5.656254306753427663e-01,1.039319919163617101e+00,1.071674320109683443e+00,-9.176320786492553339e-01
3.682003309000703162e-01,8.109724992710065639e-01,-5.738795835724674888e-01,-5.772501688742215364e-01,1.041357241997165062e+00,9.760552026930602310e-01,-7.756340270940187409e-01
3.398875998065764570e-01,8.150621056822460186e-01,-5.983423910481677765e-01,-6.039749775995084669e-01,1.045839334777753926e+00,9.057976827743230430e-01,-7.042829220461621631e-01
3.032158597071066275e-01,8.060589610999480126e-01,-6.234792774051367559e-01,-6.065665460987523794e-01,1.043538379960851081e+00,8.653808751658553788e-01,-7.166716508535397878e-01
2.575559739486088517e-01,7.954079802687530343e-01,-6.489308139009941634e-01,-6.103715547591814783e-01,1.050009842653798486e+00,8.635982122324192822e-01,-7.913033749342712753e-01
2.111770398099399593e-01,8.116616043463142915e-01,-6.654390651535946333e-01,-6.338156899098335018e-01,1.047565072706757583e+00,8.704592105972519533e-01,-8.810802208527590551e-01
1.682584936170128387e-01,8.416071727654905743e-01,-6.678808625866783366e-01,-6.518519769208031001e-01,1.048044427385375066e+00,8.716725962167881647e-01,-9.522365580644231997e-01
1.218795867490851670e-01,8.489025672181738091e-01,-6.757155365068601149e-01,-6.637313150240631288e-01,1.053940673190645327e+00,8.311059902713080483e-01,-9.792609634637905458e-01
7.346328068941199163e-02,8.386260958649499608e-01,-6.930776900950785802e-01,-6.431933439700610045e-01,1.051903350356986344e+00,7.771170660825776899e-01,-9.558168283131385223e-01
3.105412520065797821e-02,8.198408171687376900e-01,-7.119827965526570601e-01,-6.137121422144509175e-01,1.053868765625520787e+00,6.309544407706035862e-01,-8.973637882352392126e-01
-1.018658689688756169e-02,7.936403162585037308e-01,-7.218398161996653073e-01,-6.067463422823049513e-01,1.051687671295042925e+00,3.544933876351574753e-01,-8.317651247709001439e-01
-5.154715402638787580e-02,7.952282386267661707e-01,-7.340637477467049088e-01,-6.138319972465167140e-01,1.052430657956682225e+00,-1.797484051312969733e-01,-7.940597679646499429e-01
-9.690744311086074703e-02,8.061039033281508503e-01,-7.537478164650890378e-01,-6.233594496438121801e-01,1.052910012635299708e+00,-7.818807786458825682e-01,-7.959622586594106153e-01
-1.475257819978370577e-01,7.926965567373461807e-01,-7.747052392252373743e-01,-6.179815448091874330e-01,1.050081750218812005e+00,-1.282207197072504634e+00,-8.330534231943964585e-01
-2.015597029562110620e-01,7.614326920482444860e-01,-7.978198071261211055e-01,-5.856990350657786948e-01,1.059285656752284588e+00,-1.498911967324878525e+00,-8.807356819504619239e-01
-2.534663402666836873e-01,7.356516428441706168e-01,-8.143280856495183073e-01,-5.696401515534743609e-01,1.057943411292616709e+00,-1.377122265032171278e+00,-9.143364334222026102e-01
-3.018377040980846360e-01,7.219446995793132871e-01,-8.046658065676837168e-01,-5.509148140086517209e-01,1.058135135710625008e+00,-1.075898753205462022e+00,-9.193248571264245328e-01
-3.489206876937656077e-01,7.099454791732462411e-01,-7.774316344091314335e-01,-5.241900052834758128e-01,1.063000764593868830e+00,-7.104248447600269856e-01,-8.978880960501811614e-01
-4.072389556286637458e-01,6.985005644286751414e-01,-7.599496530596439037e-01,-5.216433517414853505e-01,1.064702504245729209e+00,-3.860867923033417526e-01,-8.604074231142178064e-01
-4.781555827761962973e-01,6.823368248075056819e-01,-7.683985465218867716e-01,-5.116964476380991833e-01,1.071701274538372495e+00,-1.765126465140820500e-01,-8.213388550806222099e-01
-5.502556795091151365e-01,6.553723060180871585e-01,-7.778211428103865011e-01,-4.839829098927106443e-01,1.073930365423136912e+00,-1.420130777494144070e-01,-7.956476903329123829e-01
-6.150603817893229852e-01,6.310293535744804228e-01,-7.785252195380842899e-01,-4.581269751555705483e-01,1.081144858410931775e+00,-2.511443978656657805e-01,-7.978797210067556378e-01
-6.852280445224234739e-01,6.159741980055338795e-01,-7.917228266404729986e-01,-4.465172358799063268e-01,1.090780210335040579e+00,-4.228034746309172753e-01,-8.250689509371467167e-01
-7.602192791579809317e-01,6.125886137805236498e-01,-8.149422779208936873e-01,-4.039133125550709025e-01,1.099241042940124480e+00,-5.471996898046560531e-01,-8.769606165950349919e-01
-8.155564701922690674e-01,6.032709008716996557e-01,-8.205448938964909900e-01,-2.999052155567838440e-01,1.114293198724580769e+00,-5.690559571285835894e-01,-9.482967499903072195e-01
-8.504904895864640046e-01,5.814446313942983613e-01,-7.985238838538744055e-01,-1.548212309920860008e-01,1.131862119287285751e+00,-5.224223140024020218e-01,-1.047346339318466768e+00
-8.949070191496821813e-01,5.677976020100755639e-01,-7.762482193653386098e-01,-4.005726978290047313e-02,1.146842367506617499e+00,-3.382996774383140171e-01,-1.189314502110572214e+00
-9.556969732810172147e-01,5.534464958981133442e-01,-7.575827684304647924e-01,8.438394216059297293e-02,1.148927643261132836e+00,9.331214666818965497e-02,-1.380387939683536125e+00
-1.032396039858440862e+00,5.194712076775909182e-01,-7.418385077861966437e-01,2.433246955979573301e-01,1.145787795940544918e+00,6.481817949449686367e-01,-1.587625171419304593e+00
-1.127176281133568381e+00,4.762081498532189094e-01,-7.395315370377075759e-01,4.004528700677356667e-01,1.129513167916207372e+00,1.112989945011078063e+00,-1.751599345330645541e+00
-1.199336291747121752e+00,4.319414186269993072e-01,-7.047323443281072741e-01,5.279500444448914642e-01,1.101062643078409842e+00,1.305052138874995826e+00,-1.807041337932191460e+00
-1.234569907815286083e+00,3.848883783362511135e-01,-6.236440746654192679e-01,6.525410547253418514e-01,1.065373626975674171e+00,1.196490014260365164e+00,-1.722387796944224725e+00
-1.285338072310071578e+00,3.457298985755502541e-01,-5.909271415633909896e-01,7.789446712442860132e-01,1.023836317988746636e+00,9.423945100698882804e-01,-1.492755045687799154e+00
-1.383638697224021108e+00,3.165483207647895592e-01,-6.587578629723145340e-01,8.707288366955889813e-01,9.955775175690684264e-01,6.355234400393650063e-01,-1.074056203662077102e+00
-1.454989747730117688e+00,2.819138980447027931e-01,-6.974369498753962837e-01,9.393984342460637293e-01,9.715850436012862801e-01,4.135456483320143484e-01,-3.267648782373511196e-01
-1.441432602802328322e+00,2.608816170221878172e-01,-6.330816698771057904e-01,1.019243347713527648e+00,9.394913621203482279e-01,3.649795712061254527e-01,4.741558608214457848e-01
-1.411906486089242740e+00,2.284193110952820183e-01,-6.072256805983444750e-01,1.122562339636534734e+00,9.100820406590104383e-01,5.071574189449701286e-01,1.240891599441851234e+00
-1.426332477734437720e+00,1.509563084509946140e-01,-6.772585166469335949e-01,1.183696887211704851e+00,8.910990107047211950e-01,7.356816134199140045e-01,1.976138762232348967e+00
-1.423216601420029814e+00,7.794239550187875842e-02,-7.031294503073992619e-01,1.226375696069648136e+00,8.717804412019525273e-01,9.241784814167930406e-01,2.225365697750780747e+00
-1.374066275327712194e+00,3.002048122309475264e-02,-6.801796796667980427e-01,1.265369351299283629e+00,8.394470387483865537e-01,1.029519819066793129e+00,1.685581230160160260e+00
-1.349693379579186558e+00,-2.350404903128655576e-02,-7.277420561201120019e-01,1.340165927181891092e+00,8.148793478931493084e-01,9.850882905802493816e-01,8.335477877043917516e-01
-1.349888092873674506e+00,-9.380653844899555782e-02,-8.033625092210006091e-01,1.391713053937593259e+00,7.935714084781331223e-01,8.162305763443344908e-01,-6.741143332766874607e-03
-1.317066330933480689e+00,-1.574876850244932847e-01,-8.113170381732759395e-01,1.385181650093270100e+00,7.759785332712709760e-01,5.465555542283340174e-01,-6.950400946705848071e-01
-1.276185129390816630e+00,-2.097089724737294381e-01,-8.285144217720086246e-01,1.426062824365248449e+00,7.563244678534530863e-01,1.427171544771677070e-01,-8.577409418109027683e-01
-1.258837947455015982e+00,-2.786182255468672153e-01,-8.959556347797048570e-01,1.507465689625286931e+00,7.460659024876026280e-01,-4.719986884099136581e-01,-5.181679103308800549e-01
-1.225012484842302740e+00,-3.506284650941354775e-01,-9.189353759959939527e-01,1.513862266784959942e+00,7.601833908251753869e-01,-1.142096637288758654e+00,9.025618423441628124e-02
-1.166095050830040503e+00,-3.966329170256438497e-01,-8.934838940417022535e-01,1.525741632158961192e+00,7.796217335477306776e-01,-1.606635161256420030e+00,6.709667955960840757e-01
-1.134891127292425583e+00,-4.397012070140454698e-01,-9.313390491849649067e-01,1.586846209158387921e+00,8.125064855113439677e-01,-1.734446903960074060e+00,1.043106934570325883e+00
-1.129423310730626184e+00,-4.981392754394853295e-01,-9.940914624333163641e-01,1.596029122653386256e+00,8.435216407822743179e-01,-1.527674093429465252e+00,1.097605194921524863e+00
-1.088122684752446112e+00,-5.386010252760725647e-01,-9.416155205381748772e-01,1.580045151944986515e+00,7.786390695467826362e-01,-9.610898770389120216e-01,6.064467183375388259e-01
-1.007259126230730661e+00,-5.562627755383575678e-01,-8.158111246381882786e-01,1.580509518608608222e+00,4.533632353215244493e-01,-1.485295099412087261e-01,-2.160605801345694132e-01
-9.754859253790493234e-01,-5.832872082084383791e-01,-7.997372967441518377e-01,1.500799459096424648e+00,-8.674181652745804882e-02,3.928129367127830562e-01,-1.012277520510584949e+00
-1.013505905053391221e+00,-6.495599778248289935e-01,-8.611564420701045552e-01,1.340480495508444836e+00,-6.646930677989271175e-01,2.027880602282761124e-01,-1.791222164484129742e+00
-1.033219944347518737e+00,-7.440405951550654873e-01,-8.593588074841673752e-01,1.159758387551002023e+00,-1.180877553245252010e+00,-4.988133815915229974e-01,-2.544370787601057948e+00
-9.737182886396245074e-01,-7.994676433750319555e-01,-7.457034030564635430e-01,8.922555094989514934e-01,-1.575494140475752758e+00,-1.283121013288757162e+00,-3.147521860711544051e+00
-8.671635108286057658e-01,-8.918210861403041978e-01,-5.346162749737259912e-01,7.304984218796661821e-01,-1.780448372469489726e+00,-2.041497715632500931e+00,-3.497251481241803184e+00
-8.039917004156738045e-01,-1.040829934397524692e+00,-3.395580325567804092e-01,5.550943321470658276e-01,-1.779058174088521405e+00,-2.542977633068821408e+00,-3.174351525545571207e+00
-8.288289900985068570e-01,-1.142845628973890193e+00,-2.582151084481731917e-01,2.851795999668227388e-01,-1.628224725908511417e+00,-2.587469048165202956e+00,-2.449156122967366400e+00
-8.518836441187560560e-01,-1.239768071007979477e+00,-1.778608588182128969e-01,4.810168319152596794e-02,-1.385472291046574433e+00,-2.163377302381641609e+00,-1.615218854132627335e+00
-7.668855369575289238e-01,-1.358292044107769936e+00,4.976449109292402362e-02,-1.749846652972508743e-01,-1.113550212062830447e+00,-1.616267469762566744e+00,-7.662713446860980326e-01
-6.363923140274285739e-01,-1.403877044333118329e+00,2.975982448082947762e-01,-3.925283116912314796e-01,-8.798338266937655305e-01,-1.060229405365098465e+00,-1.886916085621637151e-01
-5.711981033459934132e-01,-1.466479659244443345e+00,3.945806007230601153e-01,-6.339505165943171150e-01,-6.624640205472598353e-01,-7.359362678657777046e-01,-2.966844831336912236e-01
-5.765460921464959920e-01,-1.539808113249330201e+00,3.852029739335460778e-01,-8.092198069132860994e-01,-5.047515752945042067e-01,-6.500243444884090671e-01,-9.438475784827593529e-01
-5.676627753254948061e-01,-1.551073286351914327e+00,4.022804479586472581e-01,-1.046073012547610315e+00,-3.914766962765936498e-01,-8.785485389632974318e-01,-1.723945748736688266e+00
-5.112919675843985434e-01,-1.560076430934184577e+00,4.755190720487079137e-01,-1.221611956235602037e+00,-3.085458497996684812e-01,-1.211695022707903746e+00,-2.458339009191568003e+00
-4.501125050518361981e-01,-1.557889315217789061e+00,5.423161494800821103e-01,-1.289202994851135209e+00,-2.368561890565556993e-01,-1.601631738628983559e+00,-2.849279425785389286e+00
-3.989548321558511468e-01,-1.511615237187915906e+00,5.644719589364965984e-01,-1.364718591843172568e+00,-1.654062929190569520e-01,-1.809438193137113959e+00,-2.766333634926732010e+00
-3.585680223939513578e-01,-1.506072507822225903e+00,5.658651407395576260e-01,-1.442016851768757046e+00,-1.806022638336512998e-01,-1.865434491400308481e+00,-2.347979304532565870e+00
-3.208476666644588526e-01,-1.542894046258721952e+00,5.859686884349124547e-01,-1.449222361765090117e+00,-2.860155254111873546e-01,-1.768856615539216026e+00,-1.782728328793614647e+00
-2.701993299309979335e-01,-1.534415236762218138e+00,6.133226610839925819e-01,-1.443634690171169410e+00,-4.684872986708832343e-01,-1.545800237626127061e+00,-1.310430070980417305e+00
-2.219628200549328412e-01,-1.530220719700603471e+00,6.139967672360580053e-01,-1.448503313384807978e+00,-6.706612211693219194e-01,-1.362846044453358552e+00,-1.068438588763265251e+00
-1.956874063407665343e-01,-1.585752651300190053e+00,6.113003426278795782e-01,-1.382979562724429012e+00,-8.646138575020279049e-01,-1.211275571001702023e+00,-1.134336848901684736e+00
-1.814860985658584003e-01,-1.575371296567332102e+00,6.013384396011678401e-01,-1.323537793626372583e+00,-1.035317181061756742e+00,-1.175143137640555224e+00,-1.443634690171169410e+00
-1.556151649053927333e-01,-1.504005247137909951e+00,5.925749778123157174e-01,-1.277024005532312323e+00,-1.157652195116098959e+00,-1.206706571732885092e+00,-1.833346722222128911e+00
-1.184790581423844635e-01,-1.517847017087348149e+00,6.287523534017069871e-01,-1.194332896390426502e+00,-1.200507707652342937e+00,-1.336615600238177937e+00,-2.132727657234712026e+00
-9.082543427765821242e-02,-1.526385795006052204e+00,6.548929677020476348e-01,-1.128599378970751577e+00,-1.168845427928610903e+00,-1.466509602549403990e+00,-2.251641111464863787e+00
-7.057211551605990785e-02,-1.475827315458200228e+00,6.235392185565680201e-01,-1.140988107778073690e+00,-1.090061134684017219e+00,-1.509278295863725194e+00,-2.169084774466090160e+00
-3.745070236033098965e-02,-1.507046237919112963e+00,6.213521028401447488e-01,-1.065023088504091220e+00,-9.750365630929458405e-01,-1.549994700146162252e+00,-1.954567174471621982e+00
8.448893462326134696e-03,-1.554563699415006939e+00,6.489307866301974315e-01,-9.613445587555724536e-01,-8.566563342192745623e-01,-1.527943746798599012e+00,-1.716275817535251047e+00
6.017578913072862967e-02,-1.503675679888127892e+00,6.447213524576611565e-01,-9.754409831508881190e-01,-7.551739468119045284e-01,-1.444488565235990674e+00,-1.540602074433461421e+00
1.178348952952656958e-01,-1.511540324383997547e+00,6.626527288182970654e-01,-9.818375875813578624e-01,-6.763896535671998222e-01,-1.356734119585978338e+00,-1.495406555338529841e+00
1.758834825902610977e-01,-1.582696661595744958e+00,7.040881814810162620e-01,-8.668189991971608777e-01,-6.421387451331916907e-01,-1.340135929335406484e+00,-1.570188132297922756e+00
2.320595224953869717e-01,-1.548646487842114672e+00,6.909654871825876565e-01,-7.822103458956508604e-01,-6.752870854467296624e-01,-1.305891042287343762e+00,-1.708695798060988480e+00
2.848800032927978343e-01,-1.530040978058616608e+00,6.828461336992608377e-01,-7.965465076258948507e-01,-7.366463605252837610e-01,-1.316991418129576097e+00,-1.833945942841030963e+00
3.290119078344089232e-01,-1.590051969929090481e+00,7.173757003105241115e-01,-7.371796240610017925e-01,-7.822103622581177973e-01,-1.385031851756257648e+00,-1.893971933634719385e+00
3.726195318318192840e-01,-1.557095354033644075e+00,6.914897949975851166e-01,-6.969575842886155392e-01,-8.417239952880350984e-01,-1.420864661172638321e+00,-1.866947473693869597e+00
4.278368132925591816e-01,-1.505832852299604507e+00,6.630272382962820732e-01,-7.157428357140727115e-01,-8.831654856991111302e-01,-1.429223697449300001e+00,-1.775582759948768352e+00
4.998470528398413215e-01,-1.563731613986762969e+00,7.108442964662287089e-01,-6.752511698432384080e-01,-8.996317945081377943e-01,-1.426182679397369757e+00,-1.660728941553946125e+00
5.791376606457954157e-01,-1.566188383072320001e+00,7.234277385679277472e-01,-6.248125453275354957e-01,-9.217546717834590453e-01,-1.420415266161489942e+00,-1.572974468633248080e+00
6.554921610501807105e-01,-1.525711688853986781e+00,7.061404977836138741e-01,-6.209625944389451924e-01,-9.331636709244417460e-01,-1.349708351231659886e+00,-1.558997844728460258e+00
7.268432388271295341e-01,-1.588344219799503465e+00,7.444300762855515785e-01,-4.827395809682832883e-01,-9.182312883598831021e-01,-1.302535455908804263e+00,-1.630678517025974106e+00
7.819706631022327326e-01,-1.601796508618497095e+00,7.687131148484405152e-01,-2.377819935030500709e-01,-9.002549643168933358e-01,-1.256575918934688119e+00,-1.748363586713430617e+00
8.146426812468132717e-01,-1.520693267303335761e+00,7.557252199638653245e-01,-1.010120211745180185e-01,-8.898047617993398717e-01,-1.219619608355204665e+00,-1.871231847941079440e+00
8.197509327123597700e-01,-1.503870420453357060e+00,7.922621333786850073e-01,5.682020275221688621e-02,-8.622170404762874441e-01,-1.241430851638636312e+00,-1.939137482153907577e+00
8.284844511963207481e-01,-1.486253612419247139e+00,8.359296439859886796e-01,3.200387065571130840e-01,-8.663156407872074638e-01,-1.297636916660960260e+00,-1.939017627121841780e+00
8.642573740027525986e-01,-1.404161669354725417e+00,8.417120561451385541e-01,4.987684666341030137e-01,-8.947422109811808966e-01,-1.367040534244190475e+00,-1.858513579154841278e+00
8.899185681747190380e-01,-1.392207418447616307e+00,8.426407894722709457e-01,6.113602565084863549e-01,-9.400186697199330865e-01,-1.465835469126541835e+00,-1.698104758381169255e+00
8.769157016376150082e-01,-1.454600266599687108e+00,7.928613539975870594e-01,6.460695647617642479e-01,-9.925095341801748461e-01,-1.533696161111208767e+00,-1.483991583898947031e+00
8.582951929309023953e-01,-1.449956409068531293e+00,6.707570561075848481e-01,5.316501697256170722e-01,-1.045959151630748707e+00,-1.527823891766533215e+00,-1.262657927767862898e+00
9.055280294051337719e-01,-1.443050468475537418e+00,6.068661700436295270e-01,4.108641681055402728e-01,-1.096292920037544860e+00,-1.500185266825049268e+00,-1.087178925231302440e+00
1.037654116931796544e+00,-1.558773160858284434e+00,6.635515461113072888e-01,4.008273795457206745e-01,-1.104202534032427963e+00,-1.401285475833791150e+00,-1.043796039645605855e+00
1.170364426154035797e+00,-1.613481133427241421e+00,6.978863721572858836e-01,3.638710416954404891e-01,-1.088646981659113777e+00,-1.267526523710760245e+00,-1.179637196834670831e+00
1.223873984755929900e+00,-1.591535008917732696e+00,6.373510452010733296e-01,2.894190319858713778e-01,-1.037690087076770240e+00,-1.114278243434518867e+00,-1.460397650411282555e+00
1.218735762714695525e+00,-1.669777055635229823e+00,6.079447289785711028e-01,3.642155805976821092e-01,-9.482397813527221331e-01,-1.014794203476776513e+00,-1.798232961185974865e+00
1.211889763273077403e+00,-1.682779922172333853e+00,6.564808627995688539e-01,4.890162758250937713e-01,-8.686405938812535865e-01,-9.768940788346114346e-01,-2.065720840314810847e+00
1.228098417851708479e+00,-1.575820691578438959e+00,7.335094693559640611e-01,5.647715828813737460e-01,-8.189300389161990879e-01,-9.681006737408126561e-01,-2.191195668965084664e+00
1.211155715969636226e+00,-1.575925574958059183e+00,7.976400382133097544e-01,7.234577091436711349e-01,-7.809160697195283163e-01,-1.060948453745325093e+00,-2.146120004902218881e+00
1.133273261619216488e+00,-1.604882468898671810e+00,7.968760748757186541e-01,9.734486352704907475e-01,-7.607825623567876505e-01,-1.184236166679175639e+00,-1.982879905565115841e+00
1.064588665145471680e+00,-1.546234660984746601e+00,7.639943172426111317e-01,1.090804137708178967e+00,-7.693153025271071144e-01,-1.265099725200946601e+00,-1.780526241424718048e+00
1.053847772587102050e+00,-1.535688536262402870e+00,8.159609502459974628e-01,1.229566485187849612e+00,-7.904794704451933995e-01,-1.319208477151001535e+00,-1.619832795629549960e+00
1.058671453572579413e+00,-1.559896662021442726e+00,8.620252887873713910e-01,1.415307014695998955e+00,-8.221657920792768692e-01,-1.332975388838031350e+00,-1.557874316294560746e+00
1.028875683490415582e+00,-1.512109574427211722e+00,7.837533260357520959e-01,1.443634690171169410e+00,-8.640386406145728060e-01,-1.288184322526086945e+00,-1.594111633035355524e+00
9.778827805839718224e-01,-1.516139266957761134e+00,6.912800555091136445e-01,1.443574803561331610e+00,-8.896369483918364907e-01,-1.219994090562392941e+00,-1.700786238607643330e+00
9.864814723832826537e-01,-1.574652248187091708e+00,6.833255265568660697e-01,1.541276180585471334e+00,-9.137491955795162824e-01,-1.153451694847651421e+00,-1.819999289511986529e+00
1.064094300635420876e+00,-1.547927439461860288e+00,6.954445747242576914e-01,1.554249103817684219e+00,-9.413369169024576877e-01,-1.081291684234153561e+00,-1.899679405719167935e+00
1.111147368196951923e+00,-1.520932950096753888e+00,6.719404984221744037e-01,1.521681969052668393e+00,-9.512598118205373154e-01,-1.063345281679450860e+00,-1.924381895988258595e+00
1.088736877023821492e+00,-1.582651719367555998e+00,6.114201703891763984e-01,1.576240170555409659e+00,-9.412170564162547493e-01,-1.059045963050564421e+00,-1.889732501615726257e+00
1.070356078381351494e+00,-1.588733728200703021e+00,5.445931496528833016e-01,1.520168959488310545e+00,-9.177998866024550395e-01,-1.058536626887984777e+00,-1.823954069238631348e+00
1.097874821019917402e+00,-1.545455671453088708e+00,5.622548999151266713e-01,1.424864437668982298e+00,-9.029634098803862585e-01,-1.039047271464088595e+00,-1.758160692479859843e+00
1.133797569434213948e+00,-1.603174718769084794e+00,6.216816428191718202e-01,1.483572132192745308e+00,-8.771014701196566676e-01,-1.029549762371684274e+00,-1.715691595839563544e+00
1.116000992487320431e+00,-1.638618047054979376e+00,5.944475252022130007e-01,1.483407362203259527e+00,-8.530610868640042810e-01,-1.002150847494442942e+00,-1.710343634309885452e+00
1.037579204127836441e+00,-1.602665355335763930e+00,5.197558326991980060e-01,1.350112804014591550e+00,-8.270553319731366315e-01,-9.032959714605492962e-01,-1.737847432566830275e+00
9.846388955692120248e-01,-1.639307152130259349e+00,5.331781782132449798e-01,1.344030822452157992e+00,-7.976700087890531421e-01,-8.117664604551655394e-01,-1.778818518565927764e+00
1.003588944254840687e+00,-1.650976778015761370e+00,6.090532857599972871e-01,1.415741438054618495e+00,-7.941706236428425214e-01,-6.845539110996168297e-01,-1.814636356329779598e+00
1.023228098015915855e+00,-1.602395729237399147e+00,6.219962384165222957e-01,1.341903620616424764e+00,-7.876032551076272981e-01,-4.876980340967618233e-01,-1.834874703438960086e+00
9.615243276683282936e-01,-1.619413343923375992e+00,5.749731687014203452e-01,1.330338823569032769e+00,-7.862849642918945392e-01,-1.766624448511500134e-01,-1.826261039987120416e+00
8.920607689337223256e-01,-1.614275094611400396e+00,5.390204497114914339e-01,1.394394534164011823e+00,-7.932358689297647203e-01,3.459995519446978918e-01,-1.800749644152166429e+00
9.054830871769725675e-01,-1.560271171499399978e+00,5.631087749799479347e-01,1.345528860364042512e+00,-8.276545471379570529e-01,9.590675585827712624e-01,-1.762534923912650875e+00
9.467088276219892684e-01,-1.561724267183123294e+00,6.375907279944637018e-01,1.351535929122571478e+00,-8.675859786818618247e-01,1.464082776768793615e+00,-1.731076345929116744e+00
9.454804430792385084e-01,-1.568675122733537153e+00,6.589076613093269863e-01,1.423066803083017362e+00,-9.214430868790257634e-01,1.671739460210708295e+00,-1.722402768596642542e+00
9.031461731235923551e-01,-1.554159219361306299e+00,5.815345158506901591e-01,1.383758524985290173e+00,-9.750604741035617806e-01,1.581752902074573530e+00,-1.736244538546038996e+00
8.515990190970934570e-01,-1.579221220185139662e+00,5.230814485019941174e-01,1.354561948251287173e+00,-1.001689486069712309e+00,1.193583850163715265e+00,-1.763853192911779555e+00
8.467753653824683369e-01,-1.579745555270906099e+00,5.600977275037055669e-01,1.377242120064292585e+00,-1.037282596330069140e+00,4.096208119103161849e-01,-1.787417183094552886e+00
8.897088559570165422e-01,-1.542174997878481557e+00,5.843208521859599713e-01,1.352344861959120514e+00,-1.036899103860733362e+00,-4.160623312982059119e-01,-1.793214566906065066e+00
9.178418181377545615e-01,-1.573813344774799283e+00,5.394399286884343780e-01,1.384163005039018568e+00,-9.391797335827067883e-01,-1.202527080865323228e+00,-1.767043982030036542e+00
9.042846732099651952e-01,-1.594081689730408868e+00,5.010154962311608173e-01,1.417928553770986255e+00,-6.096614839162795008e-01,-1.971090397376806802e+00,-1.675379671610799370e+00
8.852147694921042032e-01,-1.537591026957219054e+00,4.932856784198302869e-01,1.336360891250776284e+00,-5.970540108124477996e-02,-2.578241219712729126e+00,-1.499855699575280976e+00
8.868326351653688100e-01,-1.550863574134198064e+00,5.227668801754403738e-01,1.341214542811886012e+00,5.605021911948560032e-01,-2.287863429282499528e+00,-1.283615350528011234e+00
9.099172597612503743e-01,-1.596778114338587296e+00,5.945523813110087374e-01,1.437013429141320575e+00,1.124719490231407271e+00,-1.411232352666436096e+00,-1.104286397102860473e+00
9.261708565679871441e-01,-1.571731085167227260e+00,6.531252764210293549e-01,1.380627649747723229e+00,1.474994460702649945e+00,-5.357098328319098712e-01,-1.043121933493595943e+00
8.983824605602874769e-01,-1.587385488625858709e+00,6.361376323107958974e-01,1.310534899818471821e+00,1.455699802210497218e+00,2.818240135882832398e-01,-1.162769407756503171e+00
8.413974332770468578e-01,-1.642662738508771092e+00,5.860286023155469870e-01,1.379623976345889513e+00,9.967999025426443893e-01,1.048320096686261582e+00,-1.421254169573782367e+00
8.082461040871402602e-01,-1.606140796746369226e+00,5.308262379657979757e-01,1.286731254113160361e+00,2.766918020246089682e-01,1.784496020074632927e+00,-1.728424836278386056e+00
7.948237313022965544e-01,-1.579266189684097599e+00,4.922670333655232433e-01,1.166229850243838406e+00,-4.651557269319539500e-01,2.306708621859332453e+00,-1.951106704713490014e+00
7.968161337242873898e-01,-1.620521846163291979e+00,4.722833134315207460e-01,1.192055868946884090e+00,-1.112831136411807087e+00,1.785754375193127075e+00,-1.990190271670300159e+00
8.248742103718620378e-01,-1.592104286231688093e+00,4.137853311254047206e-01,1.122187857429346458e+00,-1.400812077091417862e+00,8.920907122386689814e-01,-1.776211951143358281e+00
8.490823361309574047e-01,-1.561080131606801258e+00,3.471680226068141195e-01,9.108010781309627824e-01,-1.213139135400109758e+00,5.081310672294669928e-02,-1.348435024460692411e+00
8.582802212784290674e-01,-1.609106874723653657e+00,3.526507835502346033e-01,7.477706910115622385e-01,-6.700380077273582202e-01,-7.554555665946760534e-01,-8.421164816572179745e-01
9.061721922522525396e-01,-1.615084027447977189e+00,3.774581571990287543e-01,5.362790828751240468e-01,9.419585595527024680e-03,-1.496050718185704120e+00,-4.817658508713962284e-01
1.003753741515178710e+00,-1.624446709855759119e+00,3.789411961876432144e-01,3.501640711597864275e-01,5.663984370001262647e-01,-1.471752707970230833e+00,-4.133958227242051642e-01
1.102308993604139697e+00,-1.717908682131730203e+00,4.345330143971093406e-01,3.063767055203614476e-01,8.081921625050503266e-01,-6.939465368123176603e-01,-7.204167183624821114e-01
1.155264301086145196e+00,-1.733997508948981192e+00,5.309760635735516487e-01,2.342166949068635873e-01,6.287643743568827048e-01,1.512858757007906618e-01,-1.281053725333602955e+00
1.117543945356624935e+00,-1.680907374782464325e+00,5.387208530374110182e-01,1.226735206624751662e-01,1.616911414443755746e-01,9.264405099371209040e-01,-1.893357714092602784e+00
9.997540195603171753e-01,-1.658736566402835289e+00,5.078165534445622242e-01,1.402903559672985523e-01,-4.172188191842174376e-01,1.539029123717672309e+00,-2.304341737230208853e+00
9.125537704887665136e-01,-1.590381537178858773e+00,5.298075929114909322e-01,1.456083196504920352e-01,-9.830179973863151233e-01,1.289637418209754749e+00,-2.382418986687395712e+00
9.136772989226660258e-01,-1.552406527003558079e+00,5.587495151996302312e-01,4.300837610776708786e-02,-1.427632813475465667e+00,4.586962251987292127e-01,-2.113328158996341521e+00
9.405669321789211779e-01,-1.578367372391087375e+00,5.409379393294666549e-01,-8.883289550176698413e-03,-1.713983834801702244e+00,-3.818623592075076623e-01,-1.559012843651674807e+00
9.521466463373040590e-01,-1.570397844515625252e+00,4.773017349822272770e-01,-6.356134608498376082e-02,-1.814507512852170379e+00,-1.166769156982105926e+00,-8.882108180451320223e-01
9.873952885995351814e-01,-1.590771045580086085e+00,3.954794180159870720e-01,-2.176035602745596265e-01,-1.778482957200955283e+00,-1.922883858076374075e+00,-3.497146761486935596e-01
1.067584713698499499e+00,-1.645044567519626799e+00,3.918541782684248354e-01,-3.400373981435889092e-01,-1.624629434919921955e+00,-2.649906865816231694e+00,-1.137003193851238159e-01
1.169855089991456154e+00,-1.611309016634088209e+00,4.558649466351871737e-01,-4.284959477921512772e-01,-1.427728675684525328e+00,-3.171909755383284235e+00,-2.220976467394719656e-01
1.218196455976483517e+00,-1.592688507927375596e+00,4.802378423837683208e-01,-6.211423906224422531e-01,-1.220065998127517481e+00,-3.066089024875762181e+00,-5.678126009333039903e-01
1.176716061085547604e+00,-1.638363365338291189e+00,4.715642650512941181e-01,-7.025602002642128419e-01,-1.018707057122369974e+00,-2.296656861647095038e+00,-9.963984059110364555e-01
1.141647215006813543e+00,-1.592448825133985224e+00,5.154415151470415069e-01,-6.967927870282775160e-01,-8.783478097371122395e-01,-1.422887034170261522e+00,-1.344809784713074663e+00
1.186498195199503503e+00,-1.546743997147270733e+00,6.108359486935444060e-01,-7.269481222067497583e-01,-7.734858104032071857e-01,-5.873468440439344462e-01,-1.528213400167732772e+00
1.217986743758725510e+00,-1.598980228978252871e+00,7.233378541115498273e-01,-5.093145640857055234e-01,-7.076684844545821917e-01,2.339170982327831716e-01,-1.561874065520163501e+00
1.145182570298108882e+00,-1.574532393155025911e+00,7.516356135526258697e-01,-2.789028778392155239e-01,-6.831727447976776446e-01,9.952149635964468999e-01,-1.524917700399086584e+00
9.920391461307187519e-01,-1.508274622461835968e+00,7.088968635431958099e-01,-2.288687333771854959e-01,-6.921608850025129378e-01,1.754790134448847017e+00,-1.489264659895517262e+00
8.690660287942186812e-01,-1.529112217460715240e+00,7.460329703062873463e-01,-2.456766358449602450e-02,-7.326915317112381310e-01,2.478622325799761938e+00,-1.495840978697149382e+00
8.428505289607146622e-01,-1.507780257951840674e+00,8.310311047382001881e-01,3.055827443362302276e-01,-8.079285305218064650e-01,3.067766831700402541e+00,-1.557080382381170747e+00
8.623249127321930274e-01,-1.445821833158333902e+00,8.267617021434081614e-01,5.074869861947939320e-01,-8.949579336763879844e-01,3.225104718387827862e+00,-1.653268777111804866e+00
8.102384519675931429e-01,-1.484171352811702871e+00,7.655373246535090992e-01,7.011970163076086671e-01,-9.614943789092444959e-01,2.586015979752276372e+00,-1.754116001026040372e+00
7.301089407492633576e-01,-1.512004718318360474e+00,6.798800557219486507e-01,8.664894046765958535e-01,-1.019018642026747745e+00,1.717369375393462683e+00,-1.821527297999614436e+00
7.252703153820538873e-01,-1.450510660188475409e+00,5.974885159834020243e-01,8.706090089342644056e-01,-1.070191259304409392e+00,8.406034993636568586e-01,-1.809782732039411091e+00
7.779709411473989533e-01,-1.463333785083620331e+00,5.658801123920031984e-01,8.102534508908076916e-01,-1.098617873131479961e+00,-3.460442487335235739e-03,-1.685671114616482669e+00
8.305816824563105882e-01,-1.540122681575883945e+00,5.329085248441112199e-01,7.281015666747991943e-01,-1.111177306047761437e+00,-8.119312304446513195e-01,-1.436564006859430975e+00
8.908473560434448935e-01,-1.528902477972271523e+00,4.318215635949473885e-01,5.524877647244963441e-01,-1.105065381180381223e+00,-1.581528218204397707e+00,-1.104406252134981781e+00
9.653443079811752092e-01,-1.539853055477491406e+00,3.184658103828064135e-01,3.016728795670053920e-01,-1.086106349503179747e+00,-2.330542238140442812e+00,-7.759485954205169733e-01
1.032845434869589241e+00,-1.648549979505975482e+00,3.004295233717813041e-01,9.797105766412572692e-02,-1.047708887837006664e+00,-3.007516157036538296e+00,-5.344814482891036000e-01
1.113993618412911779e+00,-1.654032767720192698e+00,3.325772337014476498e-01,-1.367999429042199289e-01,-1.019210366444867066e+00,-3.533398886255534332e+00,-4.592654752419433883e-01
1.195066916423126457e+00,-1.601092431890716039e+00,3.393632919915234858e-01,-3.984155526883803589e-01,-1.001929163408854517e+00,-3.560228605631154952e+00,-5.766359493320494245e-01
1.228517869557854691e+00,-1.663260623443463260e+00,3.560962543851520223e-01,-5.607868053082443183e-01,-9.765704893375248830e-01,-3.013882763620578942e+00,-8.018345280041971890e-01
1.205792782787429296e+00,-1.663829846215825192e+00,3.976965043081537310e-01,-6.785018728421854384e-01,-9.723281175295084289e-01,-2.213726015170225381e+00,-9.679508754037446927e-01
1.191351792219130790e+00,-1.602215987595412283e+00,4.199571971441606877e-01,-9.140068934431755387e-01,-9.663120112379797177e-01,-1.353258678175373042e+00,-1.035452002292103213e+00
1.206152320612996487e+00,-1.660054835401991724e+00,4.828743803820811920e-01,-9.545584731946443746e-01,-9.608712091005444655e-01,-5.031276991436794965e-01,-1.085471175101715424e+00
1.211859792697389526e+00,-1.698314470598871750e+00,5.758869576468761409e-01,-7.550211705068532453e-01,-9.486472720993677221e-01,3.097172929756863979e-01,-1.157211734009122583e+00
1.153152098173626516e+00,-1.668144163768037203e+00,5.977431704292657244e-01,-6.457100269362525680e-01,-9.188305035246480124e-01,1.069696943881759399e+00,-1.302116004202658051e+00
1.030508520816098006e+00,-1.675918951078270158e+00,6.145510456267988530e-01,-5.157561107443364712e-01,-8.901403013476527626e-01,1.831279434267030215e+00,-1.500020469564766756e+00
9.349642889325826545e-01,-1.612073007242476042e+00,6.817076608836569740e-01,-2.827677731094824232e-01,-8.835010252473685100e-01,2.561852768950656500e+00,-1.703392806030212814e+00
9.197293371800974171e-01,-1.533561334426669642e+00,7.123123638023698412e-01,-7.743308661012360261e-02,-8.987929020042306760e-01,3.167865091200261496e+00,-1.839129107110482053e+00
9.154899051611042893e-01,-1.559132671412999382e+00,6.812732375250374339e-01,1.308377891031664575e-01,-9.319891952389025569e-01,3.586908472128225167e+00,-1.858633434186907074e+00
8.756274032141742047e-01,-1.535358969012634578e+00,6.092480263252264550e-01,2.952313874499123969e-01,-9.887944263386461152e-01,3.330880479396391980e+00,-1.735944941871958580e+00
8.483482888274607170e-01,-1.489024977102071379e+00,5.303169290740150643e-01,2.352802821893318352e-01,-1.050225565349061085e+00,2.615317385324333888e+00,-1.481489872585228795e+00
8.803162302443157117e-01,-1.553170517611945911e+00,5.139434772351569869e-01,1.305531640815593697e-01,-1.112136059037982516e+00,1.795461596503178381e+00,-1.146096359243564677e+00
9.585132801920859258e-01,-1.585917421289717577e+00,5.209992161652188258e-01,1.565289538508207734e-01,-1.168006535424648273e+00,9.535997692917685953e-01,-8.133543828233724682e-01
1.043706155189227935e+00,-1.554488786611074591e+00,4.798333623300954365e-01,1.021655747257543823e-02,-1.206523813943816137e+00,1.381481279375540439e-01,-5.696701221292177486e-01
1.056634108922427373e+00,-1.611009392689211062e+00,4.426373416863693677e-01,-2.415720305109503308e-01,-1.199740766346657495e+00,-6.514624412488623229e-01,-4.888814764112958677e-01
1.041668837809872628e+00,-1.647531307180927218e+00,4.447645707929548387e-01,-4.101151491495702572e-01,-1.171793550831301545e+00,-1.423381371409571106e+00,-5.985221326901268846e-01
1.102129251962180589e+00,-1.590800988885032741e+00,4.556552071467434573e-01,-6.403620654065744766e-01,-1.134330843878206263e+00,-2.184799119076097362e+00,-8.149273062684758706e-01
1.195141801956234318e+00,-1.620641728466098996e+00,4.728076212465182060e-01,-7.920973633891992272e-01,-1.077549611055661494e+00,-2.869982166828821679e+00,-1.039212068724315596e+00
1.237805639161759785e+00,-1.652954181514509902e+00,4.735116979742715060e-01,-8.704442116739818935e-01,-1.025825687901160688e+00,-3.404373757932344091e+00,-1.175547590423431377e+00
1.233850859435059455e+00,-1.557889315217775295e+00,4.212305239151281633e-01,-1.022763704081552927e+00,-9.827543654031267728e-01,-3.218723112880628179e+00,-1.184940243406928939e+00
1.246658985406989828e+00,-1.566592863125992885e+00,3.728592146252651673e-01,-1.181494772572067031e+00,-9.458908736148519125e-01,-2.679972289267529284e+00,-1.075044878140696269e+00
1.267916032111959801e+00,-1.647006999365874247e+00,3.805740335132701269e-01,-1.147040118764708350e+00,-9.272434704752363643e-01,-1.862588241184293114e+00,-9.210176628743349525e-01
1.251812206371494263e+00,-1.612807027275175997e+00,3.434079561746017362e-01,-1.209403050882629227e+00,-9.105134860496466587e-01,-1.050866722957344290e+00,-7.731173168569749343e-01
1.167128667536820874e+00,-1.599369710108711207e+00,3.029462336087695995e-01,-1.305876043364073702e+00,-9.159303335432023019e-01,-2.211388882950582335e-01,-6.864114595662162976e-01
1.095223338639927935e+00,-1.608747364168938709e+00,3.406515904149642893e-01,-1.244561754146944477e+00,-9.275310571023598349e-01,5.409229676769933270e-01,-6.844340560675510332e-01
1.076183405497865841e+00,-1.519539795564461837e+00,3.949401385485717952e-01,-1.148732897241822037e+00,-9.575395500951988659e-01,1.304153294311272138e+00,-7.714095939981846506e-01
1.053967627619167846e+00,-1.487077516908297259e+00,4.176352547431982920e-01,-1.071374723435658538e+00,-9.671269490980627381e-01,2.063548723521657635e+00,-9.488510011102513353e-01
9.849684628189803171e-01,-1.530085920286805568e+00,4.368399851455984084e-01,-8.312707875315905603e-01,-9.484555476812484009e-01,2.749196165208689369e+00,-1.210436667589354087e+00
9.441322307751631726e-01,-1.492799987916015869e+00,4.598796402425220364e-01,-5.385410841246551783e-01,-9.391078260176377590e-01,3.308544873756480431e+00,-1.497488814946157376e+00
9.435629534611522651e-01,-1.465685698060326114e+00,5.189019576344322537e-01,-4.326904648537244213e-01,-9.268120250846001440e-01,3.198559678575407794e+00,-1.724485028204159054e+00
9.045543265790989551e-01,-1.511375527123715035e+00,6.147158428870258540e-01,-2.520132445829048606e-01,-9.411451488511857200e-01,2.743563578657404189e+00,-1.812703895059275538e+00
8.543703565092042318e-01,-1.505563198930470747e+00,5.995707755909185366e-01,-1.339836359932067289e-01,-9.906639793980098752e-01,1.914629732450046085e+00,-1.697595422218645123e+00
8.214287395370001299e-01,-1.508499333602808523e+00,5.231713329583720373e-01,-1.772466938176342488e-01,-1.049338719923909036e+00,1.176686090509859728e+00,-1.425763227691223545e+00
8.220429318083755099e-01,-1.617645652642385468e+00,5.261524098589265286e-01,-2.289586178335079047e-01,-1.104226488676363083e+00,3.286673689321673031e-01,-1.065532424666615352e+00
8.813049047228793675e-01,-1.668833268843261664e+00,5.803510735361006034e-01,-2.073420605738229838e-01,-1.162134244263313132e+00,-4.553256398969751650e-01,-7.067846333599914210e-01
9.810436536680233743e-01,-1.634168930089052729e+00,5.692656693462305739e-01,-3.441719740537863004e-01,-1.196457060262445804e+00,-1.205253503320014019e+00,-4.649430040213897719e-01
1.018614156518882208e+00,-1.672758105264959827e+00,5.405934004272250348e-01,-4.738562368765131261e-01,-1.195474396261497763e+00,-1.940051243828622152e+00,-4.122123804096156086e-01
9.850583472753582370e-01,-1.665477682464777676e+00,4.822152458824890964e-01,-5.867177073908269591e-01,-1.171410014728591076e+00,-2.317868938853051564e+00,-5.655355734897615783e-01
9.585732213434616789e-01,-1.583670391692659773e+00,3.170726285798286526e-01,-8.447380480030575178e-01,-1.109547517594122734e+00,-2.501512209830414335e+00,-8.371730001812682787e-01
1.021160810060817159e+00,-1.590995729450261909e+00,1.775462904916591533e-01,-9.938367807166836876e-01,-1.027886965378588258e+00,-2.037827560927518711e+00,-1.057937433539879457e+00
1.170019887251794177e+00,-1.551492738058046772e+00,1.547163476123825099e-01,-9.893576931749858971e-01,-9.543277952093198735e-01,-1.603504286018797576e+00,-1.165600686319989698e+00
1.280154908040620487e+00,-1.403906987638092740e+00,9.082543427768596800e-02,-1.063555021167950088e+00,-8.976663792398253960e-01,-8.803012313211011630e-01,-1.176401465488252640e+00
1.253654783185620403e+00,-1.359295744780331106e+00,-8.794921348598272459e-02,-1.188580454807020015e+00,-8.352764872390783246e-01,-4.199272265684728112e-01,-1.092422030652129283e+00
1.162889262788568967e+00,-1.371534620709102814e+00,-2.920855405598166143e-01,-1.217432465368040173e+00,-8.188581313511300586e-01,1.079029628442973454e-01,-9.563111928231893266e-01
1.154230657108568092e+00,-1.291644765013422180e+00,-4.257246103800960135e-01,-1.236981707401885178e+00,-8.405016103145701578e-01,7.459730564255973029e-01,-8.137138933781429273e-01
1.192520262881247017e+00,-1.258688176388744751e+00,-4.252452447932042467e-01,-1.249625090655070991e+00,-9.056718554436571367e-01,1.503885392105830388e+00,-7.161922579959068003e-01
1.158230379063429627e+00,-1.290251610481130129e+00,-3.273790432379852788e-01,-1.222151262973869557e+00,-9.718008099298680591e-01,2.220077677372533920e+00,-6.960887103005797272e-01
1.047900617709263127e+00,-1.253475014272864563e+00,-2.140682322540610194e-01,-1.227259541710157276e+00,-1.037570226590567302e+00,2.532446479998951006e+00,-7.610881531460167437e-01
9.620786060590691413e-01,-1.197089234879267217e+00,-1.507765122674697977e-01,-1.232922071566389111e+00,-1.084716151122322447e+00,2.351754315346454849e+00,-8.648415956983845909e-01
9.379303669098670859e-01,-1.326713611092100731e+00,-9.777631709889655909e-02,-1.177524993922152152e+00,-1.087208873990386238e+00,1.735046124578976112e+00,-9.587230196805296423e-01
9.573298651482931021e-01,-1.481190275911148380e+00,-6.156894366282639197e-03,-1.123805695831814333e+00,-1.077022303456021124e+00,9.365971262583205892e-01,-1.012277520510640461e+00
9.874851457851163694e-01,-1.468531948276285970e+00,4.765228818043310000e-02,-1.192280580087801134e+00,-1.048643642550084465e+00,1.373691929474341045e-01,-1.014854117357466556e+00
1.016217328584811952e+00,-1.437747476444817263e+00,9.379153952576713138e-02,-1.252935734805338264e+00,-1.027647288039335027e+00,-6.201386899498673166e-01,-9.810885686254433580e-01
1.071254868403537230e+00,-1.522071450183126728e+00,1.700561554737189951e-01,-1.222630628560705812e+00,-9.951220739012889283e-01,-1.381256840942368669e+00,-9.383348469635954814e-01
1.143429877940305150e+00,-1.518086699880738522e+00,2.129596754726348351e-01,-1.198961782269136744e+00,-9.675104415675095382e-01,-2.018218350471445710e+00,-9.027267214173906318e-01
1.162979147244946887e+00,-1.392447101241034435e+00,2.041213008798781203e-01,-1.228622725666705939e+00,-9.460826852994430602e-01,-2.192409081855306585e+00,-8.823535476236710196e-01
1.088377339198365323e+00,-1.394139852447351391e+00,2.046306370424022525e-01,-1.218585964377683073e+00,-8.981936868394102547e-01,-2.052028868702426845e+00,-8.825033459606834718e-01
1.027093020556979486e+00,-1.428609505177980132e+00,2.032973963908002446e-01,-1.176056926585955509e+00,-8.670107181610875458e-01,-1.574727160990996300e+00,-8.941430012704976171e-01
1.058581569116201493e+00,-1.300333341269166443e+00,1.832837331517955803e-01,-1.178783321769849568e+00,-8.411967313216028863e-01,-9.678459920241522241e-01,-9.136473556177193700e-01
1.091643041120471391e+00,-1.208324437406094187e+00,2.110871553535065281e-01,-1.168297165469733834e+00,-8.394709497591690273e-01,-3.378353107746923101e-01,-9.308596835981841622e-01
1.057023617323626929e+00,-1.250748619088970504e+00,2.430101272714590976e-01,-1.143879272951453530e+00,-8.321606381955781728e-01,1.821452330653672291e-01,-9.326273476083501990e-01
1.013880414531376228e+00,-1.220233773355838824e+00,2.009754539898378489e-01,-1.169930002795360746e+00,-8.483153184670744196e-01,6.852729594798989687e-01,-9.157895291059814369e-01
1.034073819412340001e+00,-1.110293493132130660e+00,1.600942524470627681e-01,-1.215634830782075237e+00,-8.836208857336269595e-01,1.227918676209693860e+00,-8.851099133832529553e-01
1.077801271171019426e+00,-1.114008617336126328e+00,2.351454827755339316e-01,-1.194407781923534362e+00,-9.149715805529257118e-01,1.522236247443409241e+00,-8.499062678907765012e-01
1.080063272420606069e+00,-1.159713445322840819e+00,3.032158597071066275e-01,-1.134187023293875551e+00,-9.671029944541276180e-01,1.598920287826821607e+00,-8.221927028746467414e-01
1.035991309030370733e+00,-1.102698474734598033e+00,2.732103774072403013e-01,-1.136149455140122999e+00,-1.004086303095452770e+00,1.413704120675263187e+00,-8.099688258692006038e-01
9.887285292511371892e-01,-1.040155828245514780e+00,2.570166672103968430e-01,-1.184925271754455611e+00,-1.042939164796141682e+00,1.137752349160803256e+00,-8.172791919743294109e-01
9.858672801119627849e-01,-1.041039646615227188e+00,3.532050619409754511e-01,-1.181794369246147447e+00,-1.062281688942789959e+00,8.193165093537402299e-01,-8.418019406015164741e-01
1.020007338321915480e+00,-1.043751097417389140e+00,4.358213400912913649e-01,-1.155638810564074692e+00,-1.076518950500315874e+00,5.815045452749467714e-01,-8.674181925452661979e-01
1.029654645751332254e+00,-9.972223376709110632e-01,4.249605925008559382e-01,-1.135325550651045123e+00,-1.084836011608580897e+00,4.466670614877155110e-01,-8.929146167277468571e-01
9.823319248206674459e-01,-9.761750304543292955e-01,3.968126859384413230e-01,-1.175772301564348421e+00,-1.070790474469174303e+00,4.457682169239918224e-01,-9.096925758910190396e-01
9.433532412435052805e-01,-9.553075194214111221e-01,4.274173615863574582e-01,-1.234075543305290790e+00,-1.058111181066745399e+00,5.317250825295216643e-01,-9.112654720653534657e-01
9.703327316853416207e-01,-8.957458952912333849e-01,4.764478599174060136e-01,-1.247138378264567304e+00,-1.038073579546217040e+00,6.421896705682272888e-01,-9.005845479291563205e-01
1.022509049635689227e+00,-8.685117504034778335e-01,4.898551792374417069e-01,-1.197478716009670041e+00,-1.024435489520247877e+00,7.035189314378298420e-01,-8.865480101437617222e-01
1.037714030812431076e+00,-8.632537006009188829e-01,4.583516590256908607e-01,-1.203575723766114880e+00,-1.007322056258530552e+00,6.318083431061660704e-01,-8.778594611587586805e-01
9.977616171383818511e-01,-8.405585571354401431e-01,4.162870424391229562e-01,-1.266388023624387404e+00,-9.794467483082436310e-01,2.931640994948137013e-01,-8.780242311482999717e-01
9.755009243023193832e-01,-7.834687010141450081e-01,3.819672153163589101e-01,-1.313560918947187517e+00,-9.557419046009041352e-01,-2.500957822356708604e-01,-8.870124040780968944e-01
1.021655174570867963e+00,-7.161323168444755360e-01,3.715559172786098152e-01,-1.280484475290499802e+00,-9.128384391435817591e-01,-6.979612576904492549e-01,-8.885553569473736424e-01
1.087658290818083184e+00,-6.803893918845282940e-01,3.680355336397878041e-01,-1.246494215417448537e+00,-8.665073652053822961e-01,-8.932142406725684936e-01,-8.856492201215482307e-01
1.090115059903695727e+00,-6.713862473022302879e-01,3.373858884928027102e-01,-1.255302619434517375e+00,-8.084797927653819549e-01,-8.136390078450350671e-01,-8.738147697049669649e-01
1.024995762026137403e+00,-6.457100269362525680e-01,2.841309843368278187e-01,-1.270178033361546444e+00,-7.594882698182536807e-01,-5.950766891260061975e-01,-8.638828372540263700e-01
9.903164243486584084e-01,-6.260409298702862557e-01,2.241199924664094567e-01,-1.251257927980697904e+00,-7.220255628651028879e-01,-3.344048115923037301e-01,-8.556886527791018882e-01
1.027242818893936427e+00,-6.108659192692322826e-01,1.517352707118835298e-01,-1.226031157167406516e+00,-6.923766076978310480e-01,-1.637044932714659673e-01,-8.479588076970023813e-01
1.068198905969874879e+00,-5.560979782781028113e-01,7.190535616763416016e-02,-1.199366235052012897e+00,-6.794576369560934026e-01,-1.540272698078992697e-01,-8.378321346808326187e-01
1.049578424533903487e+00,-4.534081775496856537e-01,6.965827202942698193e-03,-1.206511858438508167e+00,-6.605225162895633773e-01,-2.952014168742245204e-01,-8.309412202817945126e-01
1.007573721828025626e+00,-3.767990226993811476e-01,-1.040380675740304461e-01,-1.215844542999722222e+00,-6.412758979852384300e-01,-5.442785540555328261e-01,-8.248442397961741612e-01
1.017625454769577331e+00,-3.464339753033174318e-01,-2.252135230538243604e-01,-1.194392810271116545e+00,-5.896238823958066533e-01,-7.569835750823039611e-01,-8.291885279240462925e-01
1.065367654677129572e+00,-3.212820900231339039e-01,-3.220011656741017525e-01,-1.148777839470038753e+00,-4.450221759360606377e-01,-8.583401351590635997e-01,-8.505653751195718648e-01
1.079748676823255593e+00,-2.779740899704896684e-01,-4.015763712308939581e-01,-1.122772051854237230e+00,-1.285188464868469715e-01,-5.570117944943553390e-01,-8.823235770479553874e-01
1.033909049422798709e+00,-2.180230119807613498e-01,-4.887616486499712920e-01,-1.091418357250295568e+00,2.892272802970108359e-01,1.353468472205521245e-01,-8.996707317129593040e-01
9.879795102952226848e-01,-1.623862515430785081e-01,-5.532966702903041600e-01,-1.094714002477403803e+00,7.156260077373355344e-01,9.097824330767112500e-01,-8.966597115074581570e-01
9.950202230312732432e-01,-1.095657707456676455e-01,-5.459114186520119816e-01,-1.078445406747396973e+00,1.090420672509473388e+00,1.610245402080767718e+00,-8.714928273040323248e-01
1.020846241734263415e+00,-7.048223105970974345e-02,-4.446596874133068589e-01,-1.033489597716652497e+00,1.342257153418513482e+00,1.993815484147176686e+00,-8.427007578944434307e-01
1.005431521069022338e+00,-4.549511576895648446e-02,-2.916211193547124658e-01,-1.014344781194942424e+00,1.406636415331508072e+00,1.754400653318444192e+00,-8.279451444580254726e-01
9.360878173664821666e-01,-6.182359810891213669e-02,-2.398492814581487664e-01,-1.034268587248310389e+00,1.174621813247678226e+00,1.069936599404353039e+00,-8.626095377538278708e-01
8.873120007522050656e-01,-1.270627510184807463e-01,-2.428753005869199733e-01,-1.096526608715842066e+00,6.611457297315825876e-01,2.127799338306757271e-01,-9.596517802784587658e-01
9.132878177922076901e-01,-2.009305117616211334e-01,-2.195659921208070742e-01,-1.164042734527415135e+00,3.705521620644969261e-02,-5.903129765627568304e-01,-1.097470368237013494e+00
9.777180105944305311e-01,-2.515488779193941760e-01,-1.669851941167865839e-01,-1.221896608528005856e+00,-5.724145432917104870e-01,-1.374920150392533458e+00,-1.238389888128188510e+00
1.008008145186645166e+00,-2.511294262131924526e-01,-8.420414597704040105e-02,-1.242868975669830789e+00,-1.075176705040592484e+00,-2.010593416039707648e+00,-1.332001658741144290e+00
9.698233955228729997e-01,-2.383962130452221828e-01,-5.451325927452455034e-02,-1.286117061841729470e+00,-1.421089399584352098e+00,-2.144951561510899385e+00,-1.350427399611886514e+00
9.070560106220204588e-01,-2.411375798815340588e-01,-5.977130907702798979e-02,-1.322893630779309326e+00,-1.587813896052725493e+00,-1.768182482116464893e+00,-1.300707850747123695e+00
8.899635376736769743e-01,-2.286889644644296560e-01,-5.526225095969783396e-02,-1.304168293234486686e+00,-1.594501125074088144e+00,-1.206541801743399311e+00,-1.222465831300423300e+00
9.146360300962830259e-01,-1.876280212796954672e-01,-5.422863425286195138e-02,-1.217657176508957217e+00,-1.479692276178334875e+00,-6.012934973729788801e-01,-1.149272176709320581e+00
9.312341930761136588e-01,-1.259242509320523951e-01,-9.961886664228147836e-02,-1.197748369378803801e+00,-1.256114508422556675e+00,-2.019791546624127854e-01,-1.109559473099430704e+00
8.854844228612379631e-01,-4.571982690992903997e-02,-1.818156658155989369e-01,-1.204819079961394479e+00,-9.724719326597019986e-01,-8.285593367296506528e-02,-1.103117953711540977e+00
8.249191526000787533e-01,2.741391380051139137e-02,-2.808952529904096274e-01,-1.204144946538532324e+00,-5.616766668805062146e-01,-1.810816185121577604e-01,-1.111446964871004583e+00
8.394350287015961420e-01,7.500628810030995908e-02,-3.732187251799801153e-01,-1.160192810909621564e+00,-2.602970953480276961e-02,-2.353701939164509760e-01,-1.069861713871272935e+00
9.133327600203688945e-01,1.225386939778805306e-01,-4.072539272811370736e-01,-1.084033078341262168e+00,5.439879294646399188e-01,1.087118956809018933e-01,-9.286126540010708474e-01
9.481618960349713632e-01,1.729473479178955664e-01,-3.502539556161643475e-01,-1.011932954337602109e+00,1.053988582478515568e+00,6.921489294971494566e-01,-7.196976427114587516e-01
8.934539234659588658e-01,2.108774158650628117e-01,-2.271909265525451360e-01,-1.004877269949078222e+00,1.437411936896504372e+00,1.295045293620122884e+00,-5.227369095997247417e-01
7.872437390988307193e-01,1.870587712364812916e-01,-1.671949336052858115e-01,-1.001311944082095007e+00,1.647423434924910612e+00,1.573363949763650904e+00,-4.285408900203124816e-01
7.255099981754997707e-01,8.069876126148844975e-02,-1.826245986522589959e-01,-9.713513767397041754e-01,1.635271449122122078e+00,1.455558997773387375e+00,-4.742607169302137660e-01
7.506618834557388098e-01,-2.706934762747303935e-02,-1.345678576888387212e-01,-9.617640104617186658e-01,1.401411292256071750e+00,1.067060405883446528e+00,-6.339205732894259704e-01
8.162006330393878351e-01,-5.734453783801107818e-02,-2.007374074464163272e-03,-9.880094808709105614e-01,9.131260257707607408e-01,5.421813227955429859e-01,-8.428055867325534578e-01
8.412326632875055665e-01,-6.081992470707842102e-02,1.110638086576076766e-01,-1.011034137044619641e+00,3.229988340524569956e-01,4.970457721226173575e-02,-9.068313267518446352e-01
7.891312308703768430e-01,-9.612848084994407571e-02,1.491586738650574340e-01,-1.000757692962150891e+00,-2.393729102018182786e-01,-3.733086096363580353e-01,-6.136671999862342020e-01
7.065150072615988819e-01,-1.572779728067907890e-01,1.445447323680237872e-01,-1.016591838062796960e+00,-7.186939474930209570e-01,-8.022839230152900569e-01,-1.649029345092978271e-01
6.727044890305622360e-01,-2.045706958909709883e-01,1.200220110116889671e-01,-1.040590251604134320e+00,-1.079658841454278484e+00,-1.142366290657836903e+00,5.743439502362002180e-02
6.880293525102221253e-01,-2.185473197957588098e-01,9.105014541860301236e-02,-1.004982098787132738e+00,-1.344078753556687822e+00,-1.299674206769574347e+00,-1.067644627579245054e-01
7.129265560738007323e-01,-1.906840109840990394e-01,6.317183768372869324e-02,-9.501692701093800153e-01,-1.482089093204130847e+00,-1.272499975762453328e+00,-5.612212559376050791e-01
7.035638736660465575e-01,-1.350921655038916924e-01,-1.072586636430283846e-02,-8.808405380593131717e-01,-1.525855449442670153e+00,-1.049203915055973990e+00,-1.142366290657836903e+00
6.543836315394679914e-01,-8.369483708525748966e-02,-1.109140103205952244e-01,-8.092797207939206316e-01,-1.456059383669328078e+00,-6.958939697353505593e-01,-1.616941575914604412e+00
5.870172767941661540e-01,-4.994426000570761914e-02,-1.740259341236338742e-01,-7.061404977836138741e-01,-1.314022307642770393e+00,-2.331381087011252795e-01,-1.794248183612873193e+00
5.247592553266344773e-01,-2.560130756207312785e-02,-1.891410308439978039e-01,-5.471847181521827252e-01,-1.136056581807376453e+00,4.507566406281582339e-01,-1.668683470506249211e+00
4.800880440467558685e-01,-2.232057944584475706e-03,-1.373541940242195558e-01,-3.209675216965246491e-01,-9.530814555919198128e-01,1.190752598870969958e+00,-1.362171938301293128e+00
4.309826874533406738e-01,-1.183442314589555622e-03,-4.702309698578766017e-02,-9.398628009099629921e-02,-7.718320236723696937e-01,1.779552538598627720e+00,-1.003094607015586615e+00
3.354833977980420379e-01,-4.359262507414030097e-02,-4.044675091335880879e-02,5.356949975332536695e-02,-5.881378218058896934e-01,2.020570263448095982e+00,-7.265286705005757906e-01
2.257977720202530847e-01,-1.132958666021921523e-01,-6.877448093012272778e-02,1.980243203942300134e-01,-3.993623119941669408e-01,1.964169512402080819e+00,-5.524278235730373243e-01
1.662811446598300158e-01,-1.751194647111042890e-01,-5.039365501680048709e-02,3.203083871969880647e-01,-1.401195264128518581e-01,1.644625143084221808e+00,-2.714277144737764491e-01
1.504619439409160542e-01,-2.152217039929626985e-01,-8.029441756152166931e-03,4.541272259299122815e-01,1.841735565450419720e-01,1.258912860258920574e+00,3.972021670688441475e-01
1.258343392049887655e-01,-2.303218290608533003e-01,1.504021118725606954e-02,6.106561797807885661e-01,5.276654357856958022e-01,8.925101912156119255e-01,1.169495552165999985e+00
7.969511513039595485e-02,-2.158208973410680187e-01,5.881257790341098968e-02,7.081777878922279612e-01,8.300993170848314229e-01,6.767941227125984227e-01,1.887530414246829658e+00
2.699446209436517918e-02,-1.886017513765270159e-01,8.314055869451664194e-02,7.766976143764314777e-01,1.065757119445120971e+00,6.638811133610755810e-01,2.200798034166229211e+00
-1.742206746890850866e-02,-1.760782231555180211e-01,6.742624135525066009e-02,8.565874700721121116e-01,1.218076628215158941e+00,8.094145474784597560e-01,1.988137955367674792e+00
-4.210958608547032966e-02,-1.817108097067476891e-01,5.783887507732066169e-02,8.960604908885283493e-01,1.270519583387419438e+00,1.068258819850509411e+00,1.399532783476015174e+00
-6.183859703218219650e-02,-1.773215793507421090e-01,6.508932730175942538e-02,9.180515576262537891e-01,1.238905169318460509e+00,1.298640562792052755e+00,6.767192099086938306e-01
-8.382963649905539327e-02,-1.738311935584047063e-01,7.163570279855591139e-02,9.075054056331133268e-01,1.127739564332375100e+00,1.483587131116015367e+00,1.243662991395610984e-01
-1.039032408894358106e-01,-1.791791278173970881e-01,7.298391510263124715e-02,8.695903638799573621e-01,9.929888888586813067e-01,1.499076737314364305e+00,-7.175555783064946347e-02
-1.280514527678411341e-01,-1.807970207612918934e-01,7.102151052718053137e-02,8.712381455873718927e-01,8.393271782622391264e-01,1.423935622529515221e+00,8.687065455104114875e-02
-1.494732421916111775e-01,-1.800480018053773890e-01,6.312692272630870960e-02,8.520634130314563848e-01,6.914178547075544579e-01,1.276424812184207003e+00,4.543069948426681215e-01
-1.780106844259665699e-01,-1.918973966036352508e-01,6.081992470707842102e-02,8.202602688749394133e-01,5.682679900595455358e-01,1.100331617376215654e+00,8.772152983116676683e-01
-2.150419350802068585e-01,-2.092445785394358992e-01,7.347827961268205144e-02,8.131596422581433004e-01,4.545616656510542697e-01,9.659884435574972450e-01,1.214421417891770050e+00
-2.541853886468548041e-01,-2.142779444717635151e-01,8.168749028159005832e-02,7.513959034884387655e-01,3.641526505698822191e-01,9.054531438720814229e-01,1.348479966688881371e+00
-3.028263785767038030e-01,-2.149220800480855509e-01,8.585198222599288442e-02,6.721951801388348358e-01,2.656902499970636988e-01,9.154599618561021224e-01,1.273503676435083776e+00
-3.597065224802964423e-01,-2.051998870856164281e-01,8.941730809292058879e-02,5.679623719995752218e-01,9.635317017425704123e-02,9.349942322375848214e-01,1.086055396797375172e+00
-4.096208119103161849e-01,-1.989830788385882343e-01,9.585880021001358386e-02,3.451756474556200160e-01,-1.522955104928391812e-01,9.270397305560229562e-01,9.162988379977088371e-01
-4.201669093618631834e-01,-2.176634741552496699e-01,1.149586745036179636e-01,1.347026843734333568e-01,-4.172427738280970466e-01,8.435096634603067578e-01,8.767209610723858404e-01
-3.825514370120464136e-01,-2.497812139091171169e-01,1.422227899670613915e-01,-6.374108772694286884e-02,-6.519418668313736731e-01,7.508266534452245899e-01,9.971324532145053876e-01
-3.535645997664871309e-01,-2.750679258738952804e-01,1.791491845123949211e-01,-3.091480702032134431e-01,-8.103013492704036480e-01,6.406317460464494573e-01,1.229132061829257827e+00
-3.738029741464088396e-01,-2.884303302365109900e-01,2.173339341762225985e-01,-5.580154678961335435e-01,-8.848672253510825314e-01,5.891444786298993819e-01,1.480186602509314664e+00
-4.012018890237056823e-01,-2.949767057332519649e-01,2.327486275706669439e-01,-7.918277100201209784e-01,-8.861855161668152903e-01,5.640075922729304025e-01,1.643097161867418388e+00
-4.028197546969147780e-01,-2.988416282743155961e-01,2.457814646835143613e-01,-9.787067123437909189e-01,-8.180431934911025493e-01,5.954511986039912053e-01,1.667604884300510903e+00
-3.821469569583180181e-01,-3.058224544004173318e-01,2.735249457337940449e-01,-1.150051138970209497e+00,-7.184542701537677267e-01,6.118695654003247775e-01,1.553589969318119879e+00
-3.695485704749423839e-01,-3.010137723382655395e-01,3.109307058659638301e-01,-1.284948591179613242e+00,-6.193207904842124023e-01,6.185208242766582210e-01,1.357812678520947669e+00
-3.781172644277686068e-01,-2.894190319858713778e-01,3.201885321649222682e-01,-1.365138043549374292e+00,-5.350956514688642862e-01,5.667040441518778060e-01,1.153856147630583084e+00
-3.984005810359070310e-01,-2.919207432995341023e-01,2.981076082416156403e-01,-1.418362977129661306e+00,-4.661383909330130138e-01,4.446896579889947354e-01,1.011873067727708797e+00
-4.185939859168708033e-01,-2.949767057332519649e-01,2.781089166550843039e-01,-1.482957939921369928e+00,-4.365613433308102032e-01,1.665208001824791673e-01,9.524013280539644910e-01
-4.389971575570195128e-01,-2.746185035920611917e-01,2.741691085809128126e-01,-1.505787910071387792e+00,-4.389582039898698440e-01,-2.622597999019649073e-01,9.448213085796464128e-01
-4.487193232488029260e-01,-2.492119638659029413e-01,2.643570038912135267e-01,-1.463183986746607879e+00,-4.788656372566313379e-01,-7.446398157739952950e-01,8.949519613778988969e-01
-4.343832160600968884e-01,-2.448976463137464421e-01,2.428303583587032577e-01,-1.460397623140485823e+00,-5.504833904347306017e-01,-1.113349455565793011e+00,5.985970454940592322e-01
-4.188186970577878476e-01,-2.483281182254493125e-01,2.398942236863654820e-01,-1.446930389939815598e+00,-6.448231924193748021e-01,-1.315942802499636688e+00,-1.156777228838168359e-01
-4.271177649122770426e-01,-2.479386370949354657e-01,2.237754535641123255e-01,-1.339192197085004032e+00,-7.580022528615448785e-01,-1.288738600916772281e+00,-9.145461729107018378e-01
-4.355666583746864440e-01,-2.587094456875105308e-01,1.470464436817420228e-01,-1.278896552922237362e+00,-8.566803324964733513e-01,-1.073501925271391766e+00,-1.647546306104141767e+00
-4.333795426582076615e-01,-2.630986760435716221e-01,5.490271313418615406e-02,-1.206541801743399311e+00,-9.372622276022091192e-01,-6.640608822738314210e-01,-2.021214426295186772e+00
-4.282113227705441894e-01,-2.196408776539149343e-01,7.042231717901970001e-02,-1.003469116493571622e+00,-9.866133320081682534e-01,3.046990350497047473e-02,-1.957997646383269341e+00
