Afshin1997/kuka_rl_ros2/src/catch_and_throw/output_files/ft/idealpd/smooth trajectory_stiff2025/ft_received_joint_pos_np.csv
joint_0,joint_1,joint_2,joint_3,joint_4,joint_5,joint_6
8.357772073656452028e-01,-7.997600580192300301e-02,1.351080302195200034e+00,1.307994437068511040e+00,1.541937927886594784e+00,-9.478883130570061599e-01,1.591965559499848526e+00
8.357771474790353095e-01,-7.997594580623003380e-02,1.351080182312897060e+00,1.307994437068511040e+00,1.541937927886594784e+00,-9.478886724857485957e-01,1.591965559499848526e+00
8.357751101343851019e-01,-7.997690453740367855e-02,1.351091567422844086e+00,1.307952432447617497e+00,1.541905426714367255e+00,-9.477713469811573921e-01,1.591850750541869752e+00
8.357381987114922417e-01,-8.000171188378163434e-02,1.351070235463335267e+00,1.307727608296610944e+00,1.541534970458144915e+00,-9.467695257009127729e-01,1.590664552025156553e+00
8.357150691719389402e-01,-8.002352326341888311e-02,1.351156941347896767e+00,1.307622806292970008e+00,1.540586299187768349e+00,-9.446792971381647863e-01,1.588184896000837787e+00
8.358435401309545210e-01,-7.991932034404303220e-02,1.351823204317539329e+00,1.307900900292514157e+00,1.539595155853691999e+00,-9.430310467007914088e-01,1.586333573014568232e+00
8.360397219018054216e-01,-7.962684537689426745e-02,1.353111688291281034e+00,1.308132135910520466e+00,1.539726407056752899e+00,-9.440699591728416440e-01,1.587366313566058285e+00
8.360545224029284350e-01,-7.921962144745961498e-02,1.354630269273859655e+00,1.308019484179494762e+00,1.541767656182958746e+00,-9.482145834889211811e-01,1.591500691381360300e+00
8.358618160189467128e-01,-7.883594648201365518e-02,1.356273845828584568e+00,1.307618671717059922e+00,1.545751595867155714e+00,-9.552944441782038609e-01,1.598636817885921380e+00
8.357487448634853822e-01,-7.846551409316900039e-02,1.358385406350841373e+00,1.307021857361770234e+00,1.551059552966911115e+00,-9.651687863271635193e-01,1.608500494109668111e+00
8.359078354425306667e-01,-7.812504224439600908e-02,1.361083654609913429e+00,1.306211723738640584e+00,1.556823006443397439e+00,-9.774138479208909214e-01,1.619431125883189493e+00
8.362598720610803227e-01,-7.793227597380433802e-02,1.364028837723595400e+00,1.305049793261567226e+00,1.562262598195049979e+00,-9.917534523131060764e-01,1.627938966859184822e+00
8.367222834104830476e-01,-7.786210828380042692e-02,1.366932735292034851e+00,1.303487289977581787e+00,1.566886208030689120e+00,-1.006580994476752977e+00,1.632951368878364340e+00
8.373866888043883794e-01,-7.775431020433573592e-02,1.369864975480331148e+00,1.301405210684351221e+00,1.570549066474080657e+00,-1.019379607422487233e+00,1.634505303468396953e+00
8.384496296605556953e-01,-7.747304046913812414e-02,1.373067280280957148e+00,1.298946586968325656e+00,1.573369098441330216e+00,-1.029037814105779214e+00,1.632724747256396602e+00
8.399629376762206556e-01,-7.696167361602060386e-02,1.376491113396467014e+00,1.296298552704440832e+00,1.575476979700444868e+00,-1.035212266484335064e+00,1.628270630249399220e+00
8.418074896576647204e-01,-7.625819957226942503e-02,1.379896071321553341e+00,1.293423177633854282e+00,1.577132816145953687e+00,-1.037876239858512406e+00,1.623831253965998034e+00
8.438905875686787406e-01,-7.536279821588044714e-02,1.383157757895584261e+00,1.290440723450370752e+00,1.578647430496929127e+00,-1.037971274781504194e+00,1.621885435254392105e+00
8.461775970956256776e-01,-7.420446300797896300e-02,1.386292711313117376e+00,1.287323446836564855e+00,1.580147471872265674e+00,-1.037782103780084508e+00,1.623137187574153595e+00
8.486631852758990124e-01,-7.272189449464647182e-02,1.389325259500401977e+00,1.284091960458128234e+00,1.581819223277073583e+00,-1.039535635532144120e+00,1.627438985006931071e+00
8.512775439573205816e-01,-7.098250416375191663e-02,1.392193384146034996e+00,1.280846752192045024e+00,1.583773514864056597e+00,-1.043998441006314115e+00,1.633863128769481143e+00
8.539664445601787834e-01,-6.904519425948889289e-02,1.394891512522804078e+00,1.277496382384495366e+00,1.586029616987997048e+00,-1.051360050850922656e+00,1.640430304227564084e+00
8.566965108259766426e-01,-6.684866554610507938e-02,1.397453380317948746e+00,1.274090285959322388e+00,1.588618497200310786e+00,-1.060709483918947926e+00,1.645459843743732442e+00
8.594900935501729178e-01,-6.442479613510249115e-02,1.399981093001418486e+00,1.270609108305974511e+00,1.591497970893025027e+00,-1.070446726528329284e+00,1.648169776545800991e+00
8.623303548869942770e-01,-6.175525014279600183e-02,1.402503712377804579e+00,1.267127031808062965e+00,1.594625853632700485e+00,-1.079518665008324607e+00,1.648744659857316774e+00
8.651983596503244334e-01,-5.885231141461328558e-02,1.405021598094015500e+00,1.263785949770117156e+00,1.597939252130747390e+00,-1.086818915512404837e+00,1.648183678311443412e+00
8.681102866059784429e-01,-5.577733896383348794e-02,1.407576814548471500e+00,1.260545535159902197e+00,1.601360221030058151e+00,-1.092638215423367365e+00,1.647633063039567247e+00
8.711224616740109727e-01,-5.257131912081591113e-02,1.410257865423944601e+00,1.257379662471123982e+00,1.604864408449739654e+00,-1.097206062665784021e+00,1.647962928849737274e+00
8.742324878628631168e-01,-4.933402046872753521e-02,1.413069604262913170e+00,1.254179215355318622e+00,1.608363130894473469e+00,-1.101414323213481650e+00,1.649508594287949492e+00
8.773621082087066370e-01,-4.604566908166433242e-02,1.415854678179766513e+00,1.250884691938611848e+00,1.611859169022820559e+00,-1.105991278456589511e+00,1.652188326894423520e+00
8.804511021983485453e-01,-4.279225155037066214e-02,1.418548492320795829e+00,1.247534322131062412e+00,1.615314844317866649e+00,-1.111349365513928600e+00,1.655537677975106536e+00
8.835266137377004725e-01,-3.958832893861310986e-02,1.421212945006018469e+00,1.244207381514281563e+00,1.618731690574956028e+00,-1.117680751353659740e+00,1.658921184276547445e+00
8.866431114983285289e-01,-3.633077694049234585e-02,1.423925873883910675e+00,1.240920048635918871e+00,1.622124760211672845e+00,-1.124611528200069044e+00,1.661781039770360069e+00
8.898765152300294190e-01,-3.301899636266022314e-02,1.426794537836281851e+00,1.237666032020360074e+00,1.625471139323892311e+00,-1.131946053589043766e+00,1.663868092488371531e+00
8.933012471901030649e-01,-2.975718990632642350e-02,1.429895515911052906e+00,1.234536830989868994e+00,1.628845992959226718e+00,-1.139156302590606407e+00,1.665245918884673104e+00
8.968690108457094690e-01,-2.656513171556114383e-02,1.433120111293278098e+00,1.231379107570608200e+00,1.632258429118367271e+00,-1.145944706821440784e+00,1.666221374784934817e+00
9.004880071142866704e-01,-2.345594437557973685e-02,1.436298747247612528e+00,1.228315939763293896e+00,1.635697614019060442e+00,-1.152216471232244022e+00,1.667203841563710931e+00
9.041300729267242042e-01,-2.049416307164712500e-02,1.439411649629985579e+00,1.225514746967235169e+00,1.639194227233395695e+00,-1.157958652679464739e+00,1.668527858804736308e+00
9.078593240438515011e-01,-1.769183188458525041e-02,1.442583454474718474e+00,1.222811405510162430e+00,1.642735134286101850e+00,-1.163504772129054121e+00,1.670356591558190607e+00
9.117198024312125337e-01,-1.493587954984978289e-02,1.445895594699459163e+00,1.220117591369133336e+00,1.646318896851344471e+00,-1.169112790225910192e+00,1.672679194239031331e+00
9.157281062790576520e-01,-1.227741890719159443e-02,1.449347231237170686e+00,1.217503053027882087e+00,1.649967374305314705e+00,-1.175030600446733686e+00,1.675321056691438937e+00
9.197897397529674057e-01,-9.791291529263015936e-03,1.452767349201205871e+00,1.214952510346991366e+00,1.653673280247459854e+00,-1.181203375127547917e+00,1.678045310683585090e+00
9.237692814474371961e-01,-7.460299814299172459e-03,1.455950359386972925e+00,1.212387286938197528e+00,1.657447831734336852e+00,-1.187648071778262704e+00,1.680647685170794547e+00
9.277183231860139934e-01,-5.309431095756922230e-03,1.459062902231520464e+00,1.209956466753456805e+00,1.661327460768710074e+00,-1.194286433544133219e+00,1.683071974006232541e+00
9.318109360359451143e-01,-3.267498956765750150e-03,1.462404883114030163e+00,1.207877742964792667e+00,1.665312359336797110e+00,-1.200916466271573446e+00,1.685454677645212396e+00
9.360093695073005149e-01,-1.239049049898515754e-03,1.465877731728947753e+00,1.206385826795246308e+00,1.669498497159935813e+00,-1.207485139767568327e+00,1.688013848906665837e+00
9.401719701692397013e-01,6.131728900177344692e-04,1.469203054534596653e+00,1.205708238820432765e+00,1.673961518378617841e+00,-1.213811971606953755e+00,1.690880295745474049e+00
9.442388768282290457e-01,2.205816482987687805e-03,1.472346816301605132e+00,1.205617338473351063e+00,1.678782915731650949e+00,-1.219850163403885190e+00,1.694081162394798001e+00
9.483331674849847515e-01,3.629841962702812837e-03,1.475572130759481571e+00,1.206059196825505886e+00,1.683898166491057724e+00,-1.225848208046577126e+00,1.697501999434483988e+00
9.525643778033229259e-01,4.901967401716547310e-03,1.479033834029057859e+00,1.207287699723411212e+00,1.689180429377193482e+00,-1.231969810110113750e+00,1.700890059627187423e+00
9.568279455442083581e-01,5.930933024204890908e-03,1.482480377259685733e+00,1.209424007596352935e+00,1.694537569506147978e+00,-1.238259311102170912e+00,1.704065699505697973e+00
9.609368569331743215e-01,6.682883151542500476e-03,1.485605743256399158e+00,1.212331620207184102e+00,1.699847444024617626e+00,-1.244658647409260022e+00,1.706989430886651338e+00
9.649517520169321738e-01,7.156739388419031817e-03,1.488542777209646895e+00,1.215938572394939410e+00,1.705036709310595144e+00,-1.251270524131010919e+00,1.709707453071627192e+00
9.690386123707382948e-01,7.395584969204578758e-03,1.491597016894265826e+00,1.220177153020534089e+00,1.710022626285655045e+00,-1.257926023284787087e+00,1.712335893287604049e+00
9.731865923004671126e-01,7.406730314545844490e-03,1.494702548969382372e+00,1.224878744188879764e+00,1.714783623203866458e+00,-1.264602015549201264e+00,1.715023415625769987e+00
9.772663819982322364e-01,7.074707386505937889e-03,1.497623044618989319e+00,1.230040469706455308e+00,1.719371568108946313e+00,-1.271305871122427211e+00,1.717871047160764997e+00
9.812211162372409534e-01,6.360028110803609552e-03,1.500289414875642269e+00,1.235579398726784017e+00,1.723821837952127733e+00,-1.277834457350792707e+00,1.720917137575866507e+00
9.850863283938602333e-01,5.362221633249359548e-03,1.502801967520163595e+00,1.241549160527146034e+00,1.728167318052606038e+00,-1.284317683344615268e+00,1.724186973419414848e+00
9.889680787450372268e-01,4.065348734467563035e-03,1.505362457050616110e+00,1.247804566403221571e+00,1.732448754168920413e+00,-1.290812294339301669e+00,1.727641785692779930e+00
9.928894370527981961e-01,2.489662760490609413e-03,1.507980890421337872e+00,1.254251719932105047e+00,1.736676884613814309e+00,-1.297314575292460415e+00,1.731216500231207656e+00
9.967307405985201818e-01,6.366020807866563372e-04,1.510450120066883395e+00,1.260988831663359067e+00,1.740895811239441038e+00,-1.303879054325935316e+00,1.734829684117049853e+00
1.000394138370466646e+00,-1.538954210913765766e-03,1.512634784359274898e+00,1.267910500509077165e+00,1.745100931787101572e+00,-1.310533774517450567e+00,1.738444785465239617e+00
1.003927627141178558e+00,-4.017351852843328679e-03,1.514654605576496227e+00,1.274991259933840437e+00,1.749342197056332093e+00,-1.317196044785135189e+00,1.742065519427251186e+00
1.007441222212766663e+00,-6.759761959761891037e-03,1.516714574057040021e+00,1.282303075207697374e+00,1.753568985168499683e+00,-1.323999189739565763e+00,1.745743118506972502e+00
1.010935043140284595e+00,-9.672407991066953384e-03,1.518791020736448560e+00,1.289641076092624461e+00,1.757835369216296240e+00,-1.330858840164797607e+00,1.749544694431973912e+00
1.014336645560804939e+00,-1.281389275790268886e-02,1.520737019216967134e+00,1.297108326789744748e+00,1.762099164766282033e+00,-1.337701113546600817e+00,1.753484508396639718e+00
1.017607739786742460e+00,-1.618403660043942274e-02,1.522493247393635007e+00,1.304772598106586745e+00,1.766370438353972450e+00,-1.344561303278570819e+00,1.757533258940856769e+00
1.020785596669732787e+00,-1.967078687191636116e-02,1.524283211257542181e+00,1.312377667418936467e+00,1.770657243452125718e+00,-1.351367564082045059e+00,1.761658708524380224e+00
1.023922707205135785e+00,-2.333172787477721943e-02,1.526471231163583075e+00,1.320229671585896325e+00,1.774906274389321137e+00,-1.357988728464316841e+00,1.765847314919393618e+00
1.026905700586274506e+00,-2.727393872191876886e-02,1.529001100964922699e+00,1.328031941286880402e+00,1.779166139108770084e+00,-1.364446488031803462e+00,1.770235398812297190e+00
1.029532822533251846e+00,-3.149693988412956280e-02,1.531393451911331915e+00,1.335657263945262407e+00,1.783410184512962848e+00,-1.370851756603930216e+00,1.775033702710459238e+00
1.031833494061235479e+00,-3.607677132075821913e-02,1.533265927088197422e+00,1.343444852918343146e+00,1.787622495817133395e+00,-1.377430436945179748e+00,1.780475919000971574e+00
1.034034876317097451e+00,-4.089107410673960968e-02,1.534463091290422243e+00,1.351061487000469574e+00,1.791806140786504464e+00,-1.384423172216382669e+00,1.786617474650241899e+00
1.036381507382055256e+00,-4.566534962078458437e-02,1.535213183951105620e+00,1.358729533355396146e+00,1.795884324585010017e+00,-1.391875862067902592e+00,1.793312701642904905e+00
1.038919406679692736e+00,-5.038359897507376645e-02,1.535689496957067579e+00,1.366310034976890631e+00,1.799881015644707594e+00,-1.399542110842784792e+00,1.800262113915131801e+00
1.041343515746217863e+00,-5.492424198863678220e-02,1.535613636766631762e+00,1.373694414714144107e+00,1.803826797719110697e+00,-1.407228013661268262e+00,1.807133568874746077e+00
1.043484857148716749e+00,-5.957064584609742669e-02,1.535008553259521680e+00,1.381356049602070701e+00,1.807712754444679826e+00,-1.414724445936199393e+00,1.813723514443639884e+00
1.045396520748647973e+00,-6.450706790162130666e-02,1.534097212901923024e+00,1.388928941151702956e+00,1.811604271963772161e+00,-1.421932597706501822e+00,1.819968673709854823e+00
1.047090550844999468e+00,-6.977041957810127537e-02,1.533009584581680684e+00,1.396481040157647291e+00,1.815465109910775254e+00,-1.429038404133165852e+00,1.825985413774057431e+00
1.048545855242868585e+00,-7.547796660260172597e-02,1.531730028839717539e+00,1.404172635585645867e+00,1.819343396786955225e+00,-1.435972716362136969e+00,1.831980821878751220e+00
1.049707486068726325e+00,-8.151172428149035254e-02,1.530231461438565477e+00,1.411797598597119396e+00,1.823247377876755060e+00,-1.442955145245952364e+00,1.838139275369487624e+00
1.050566934842479316e+00,-8.784502758356872720e-02,1.528547498074078748e+00,1.419557024719255933e+00,1.827156919760078102e+00,-1.450163896209603065e+00,1.844589544747414767e+00
1.051117669887575046e+00,-9.432885277073946306e-02,1.526663398131743454e+00,1.427066579688485604e+00,1.831123410515098193e+00,-1.457371568559777009e+00,1.851338760555183427e+00
1.051377248125438424e+00,-1.007619846516777939e-01,1.524627218488877167e+00,1.434508783383705355e+00,1.835078875850713276e+00,-1.464721973063351612e+00,1.858308905593571092e+00
1.051430218431843588e+00,-1.073814713362079148e-01,1.522563295201336153e+00,1.442173953545111020e+00,1.839051886108613809e+00,-1.472123430410983813e+00,1.865382834017816238e+00
1.051229482660647196e+00,-1.140162977195162824e-01,1.520332731367663337e+00,1.449477020356102486e+00,1.843064204671883033e+00,-1.479318998684643116e+00,1.872456462899928731e+00
1.050749274734297467e+00,-1.205532130953950731e-01,1.517878002572025320e+00,1.456776132360096287e+00,1.847021395614527384e+00,-1.486377946838852271e+00,1.879431102052051994e+00
1.050063058069838018e+00,-1.272972757094701368e-01,1.515325662311090227e+00,1.464201258554020280e+00,1.851037357378072956e+00,-1.493199008143449635e+00,1.886276671051811737e+00
1.049104439906266339e+00,-1.339535539345902693e-01,1.512569110783006820e+00,1.471367405594345978e+00,1.855037883275198585e+00,-1.499799559641863400e+00,1.893018516552323893e+00
1.047860237662674221e+00,-1.404014863166516691e-01,1.509577608594525167e+00,1.478578972755824505e+00,1.858988171440659309e+00,-1.506299024288111132e+00,1.899710028393512218e+00
1.046424167993053933e+00,-1.469330686208409065e-01,1.506502636252828431e+00,1.485760519599704566e+00,1.862959743547257796e+00,-1.512696623010848507e+00,1.906418318084780905e+00
1.044780351782806260e+00,-1.533972996510203635e-01,1.503305484754979382e+00,1.492970828487876878e+00,1.866875613121776967e+00,-1.519086132350678575e+00,1.913210018042654559e+00
1.042926452145148453e+00,-1.596844636472118939e-01,1.499928629794227142e+00,1.500254241146184109e+00,1.870726480177307582e+00,-1.525503385117017441e+00,1.920080933695530456e+00
1.040919693735615770e+00,-1.660080597552510140e-01,1.496451646603399244e+00,1.507425601375896429e+00,1.874583674749501494e+00,-1.531821468493537175e+00,1.927007755734942318e+00
1.038746713986220538e+00,-1.722631660891939254e-01,1.492904855369476147e+00,1.514832211808139428e+00,1.878350748024140815e+00,-1.538151476177659349e+00,1.933958785927384127e+00
1.036369523187843145e+00,-1.784928058877177925e-01,1.489173087487570379e+00,1.522186271467495633e+00,1.882125203692442073e+00,-1.544416349592251381e+00,1.940878417537535094e+00
1.033781170239495895e+00,-1.847440171921901075e-01,1.485260417865148064e+00,1.529368956811462121e+00,1.885880963917415887e+00,-1.550499781850505743e+00,1.947755445115278317e+00
1.031002987318853981e+00,-1.907627946010428954e-01,1.481254271244256016e+00,1.536911288627674343e+00,1.889548520263549802e+00,-1.556447912149226287e+00,1.954591606572214424e+00
1.028101426637197058e+00,-1.967616182059958307e-01,1.477226672890635140e+00,1.544291773553623459e+00,1.893209557106803054e+00,-1.562244981365199292e+00,1.961383426303307864e+00
1.025013271714592111e+00,-2.027063330044572009e-01,1.473128067998139556e+00,1.551567336593628665e+00,1.896830231116755083e+00,-1.567872054312308583e+00,1.968187290224306496e+00
1.021733788563614187e+00,-2.083875147580579179e-01,1.468932330951392196e+00,1.559023202180801926e+00,1.900324831093800348e+00,-1.573244342568339560e+00,1.975002059726040704e+00
1.018344889412956977e+00,-2.141674464770420838e-01,1.464749536830030507e+00,1.566177005489090224e+00,1.903793161596704975e+00,-1.578459637585668540e+00,1.981829233064588358e+00
1.014781679757696065e+00,-2.200125724612492228e-01,1.460535643668510852e+00,1.573458261029527350e+00,1.907172713134781761e+00,-1.583612854295901151e+00,1.988705361797767912e+00
1.011012101717416733e+00,-2.256452780221804288e-01,1.456128205274138665e+00,1.580697152302162234e+00,1.910364064249034488e+00,-1.588632446853424529e+00,1.995625352836661426e+00
1.007024890173557896e+00,-2.311785144329940866e-01,1.451468439066857075e+00,1.587597788839587132e+00,1.913402113146883243e+00,-1.593586845363891058e+00,2.002603227720131329e+00
1.002828434051159512e+00,-2.366841871862117586e-01,1.446594334864868880e+00,1.594868258572508690e+00,1.915803656000687250e+00,-1.598696079886106736e+00,2.009646895953089096e+00
9.985769105001790491e-01,-2.419628187839431566e-01,1.441605901343196550e+00,1.601970230074478030e+00,1.916703527516167904e+00,-1.603789195747283181e+00,2.016732149491587744e+00
9.943689494946139629e-01,-2.469121838739357921e-01,1.436537772597310747e+00,1.608751263998055903e+00,1.915542687564443236e+00,-1.608777869033561236e+00,2.023799007259792226e+00
9.900893228702161153e-01,-2.517919804672726913e-01,1.431180284733319708e+00,1.615917770576207113e+00,1.912154890916456518e+00,-1.613799379053431959e+00,2.030784252450518412e+00
9.855845126660695010e-01,-2.565888462141326931e-01,1.425207406974831059e+00,1.622833806917186372e+00,1.906891898734168755e+00,-1.618754376757246538e+00,2.037623110222979594e+00
9.809509319607747635e-01,-2.610571045332120144e-01,1.418904843175085251e+00,1.629494219609133543e+00,1.900154846845891532e+00,-1.623666051353002349e+00,2.044354229911669041e+00
9.764814751459161002e-01,-2.653325966907826849e-01,1.412793008410364148e+00,1.636401207836031491e+00,1.892511212302101509e+00,-1.628673719712006696e+00,2.051093259214352926e+00
9.721256887889498932e-01,-2.695046048955455076e-01,1.406666492808656521e+00,1.643014822142133680e+00,1.884619456516143821e+00,-1.633808480656251394e+00,2.057919293943731187e+00
9.675820496995630737e-01,-2.734828882076260070e-01,1.399988463308675213e+00,1.649216958169671621e+00,1.876900944555002004e+00,-1.639159317288636730e+00,2.064852227908010374e+00
9.629884962662047521e-01,-2.774543405191882139e-01,1.392948450231499269e+00,1.655046744236934320e+00,1.869757100051781196e+00,-1.644665589235202674e+00,2.071891522018618481e+00
9.586931702961202229e-01,-2.813563442163975470e-01,1.386029238154866672e+00,1.659923245212314713e+00,1.863322817758884309e+00,-1.650239991527122196e+00,2.078984984713244888e+00
9.547471845199769769e-01,-2.849602403326360056e-01,1.379289969196659804e+00,1.663825967985175014e+00,1.857584291423812317e+00,-1.655947298787016964e+00,2.086053400405970759e+00
9.509684984790065521e-01,-2.885459803341021146e-01,1.372287107197899259e+00,1.667501529720246234e+00,1.852506623362744520e+00,-1.661704041079837824e+00,2.093033192751788008e+00
9.472208515915840898e-01,-2.920932509881535855e-01,1.364823272001038035e+00,1.670481407252341288e+00,1.848057887314907832e+00,-1.667282997372103059e+00,2.099923103368306787e+00
9.436829885894394421e-01,-2.954522494853490389e-01,1.357422713497969502e+00,1.672312417005968443e+00,1.844080466784525418e+00,-1.672702563543190468e+00,2.106734277709952252e+00
9.405790743254545117e-01,-2.987386834100649868e-01,1.350493794227297650e+00,1.673087496781942463e+00,1.840443398373329487e+00,-1.678026974799900151e+00,2.113494518980759462e+00
9.377699121378743063e-01,-3.017461247088391585e-01,1.343767588076779207e+00,1.673114820784015855e+00,1.836886384549639706e+00,-1.683227349433803033e+00,2.120236724128180317e+00
9.350716638788023616e-01,-3.045334157392552976e-01,1.337017473424446656e+00,1.672388576847619879e+00,1.833270504261005795e+00,-1.688227407830028115e+00,2.126963529472046588e+00
9.324613798866812076e-01,-3.073461731960074328e-01,1.330385822776791738e+00,1.670824096214677201e+00,1.829494610615935546e+00,-1.693153283733558778e+00,2.133586431547752849e+00
9.300063514398275721e-01,-3.101393964914612722e-01,1.324127241165062863e+00,1.668391058807290550e+00,1.825482196234090582e+00,-1.698177130749295216e+00,2.140016267810734618e+00
9.277805213754132252e-01,-3.129721076430301840e-01,1.318429041796776113e+00,1.665042246924262725e+00,1.821258188256885235e+00,-1.703320879921011111e+00,2.146191738916157110e+00
9.257098270830466102e-01,-3.159378438630432995e-01,1.313219738931094893e+00,1.660902536146354302e+00,1.816860744817712314e+00,-1.708631389521161559e+00,2.152088456942077510e+00
9.237140941365522551e-01,-3.189145455504018289e-01,1.308335568106325120e+00,1.655875153748055828e+00,1.812387465077297755e+00,-1.714112075159088588e+00,2.157773114082547128e+00
9.218595951964632107e-01,-3.218589497018229939e-01,1.303815957291972305e+00,1.650434435495455432e+00,1.807909871057510109e+00,-1.719792058525992928e+00,2.163343980991904836e+00
9.202280628316431565e-01,-3.248064099247608971e-01,1.299753544746718559e+00,1.644613218122145559e+00,1.803547517288375479e+00,-1.725530464935128849e+00,2.168890280319490049e+00
9.187977455490649037e-01,-3.277462001892265664e-01,1.296087031125728650e+00,1.638139160124707061e+00,1.799403755884893874e+00,-1.731251733847275931e+00,2.174471992922973218e+00
9.175250209167029602e-01,-3.307058243752892812e-01,1.292653550702789422e+00,1.631508348325922952e+00,1.795588362122770620e+00,-1.737018902409787069e+00,2.180124472518891743e+00
9.164256480577711583e-01,-3.337485591767415105e-01,1.289301383206112428e+00,1.625012658826842982e+00,1.792511100738129137e+00,-1.742797995279900425e+00,2.185853830813946352e+00
9.155501405095891609e-01,-3.368181385601388134e-01,1.286076128634845883e+00,1.618577189950038964e+00,1.791076732960877438e+00,-1.748494516841362589e+00,2.191646106264967919e+00
9.149508093895207805e-01,-3.397760250527669945e-01,1.283034772098085696e+00,1.612527193727808283e+00,1.791922052116254216e+00,-1.754006661057273098e+00,2.197524668176115803e+00
9.146326282314303224e-01,-3.426693165826034115e-01,1.280035540064522026e+00,1.606990721476565076e+00,1.795272649689271027e+00,-1.758642099338305176e+00,2.203501320972689026e+00
9.145223133871871468e-01,-3.454766213035292965e-01,1.276917724143977972e+00,1.602049925189608537e+00,1.800907440460506992e+00,-1.760656947130745609e+00,2.209531842920231082e+00
9.146106970785733425e-01,-3.482247837974897231e-01,1.273646869573562768e+00,1.598017053759991146e+00,1.808389815308243165e+00,-1.759399742075157702e+00,2.215443061796058988e+00
9.149474537758714998e-01,-3.509045762905736998e-01,1.270231245614180438e+00,1.595160374001831860e+00,1.817086623409385204e+00,-1.755069302262224795e+00,2.220881682817399394e+00
9.154671497765023425e-01,-3.533578669349097257e-01,1.266622016535335460e+00,1.593385869828088941e+00,1.826365864985478815e+00,-1.747730522524119978e+00,2.225484823562493997e+00
9.160781654395671048e-01,-3.555470852276468308e-01,1.262792996835041093e+00,1.592663221160864895e+00,1.835559203550282570e+00,-1.737459202837420058e+00,2.229222044180226181e+00
9.167607868348546241e-01,-3.574532960917518043e-01,1.258711469443841491e+00,1.593027361746846449e+00,1.844156590716027555e+00,-1.725096216545753292e+00,2.232402297945692116e+00
9.174637815675605879e-01,-3.590427638399852350e-01,1.254363412822874224e+00,1.594463551298769266e+00,1.851719595237257820e+00,-1.712996943067859990e+00,2.235458754743874010e+00
9.181919429663037979e-01,-3.604075273195150864e-01,1.249914569000956543e+00,1.596947102134392615e+00,1.858142756292173736e+00,-1.703597895307078947e+00,2.238756513782843793e+00
9.189835010502254153e-01,-3.616464564871107457e-01,1.245810271498946076e+00,1.600392626747236813e+00,1.863344389330282569e+00,-1.697692428818293076e+00,2.242545985631330119e+00
9.198221571712076328e-01,-3.627884932650602967e-01,1.242564703804120319e+00,1.604554448446915194e+00,1.867371664143493648e+00,-1.695314638717484224e+00,2.246955281601439758e+00
9.205640405666805082e-01,-3.640168163940529777e-01,1.240387110167769702e+00,1.609240280382963961e+00,1.870435694885222544e+00,-1.696188168807626129e+00,2.252047139080227023e+00
9.210800214158365584e-01,-3.656439145317471606e-01,1.239108513266063305e+00,1.613867928823221165e+00,1.872826691587033299e+00,-1.700187544423692909e+00,2.257868056802321277e+00
9.214647149990660147e-01,-3.678710029785507984e-01,1.238391796645710752e+00,1.617825779020356514e+00,1.874901784043659925e+00,-1.707201911196537081e+00,2.264340377106325519e+00
9.222135492773601007e-01,-3.708521987796449815e-01,1.238457590104281802e+00,1.621061879285748519e+00,1.876952524619393214e+00,-1.717240617000538538e+00,2.271311420989276630e+00
9.237420173319736971e-01,-3.745646719376090616e-01,1.239501535887722827e+00,1.623860255774896233e+00,1.879211023778525558e+00,-1.729820757484739513e+00,2.278591657911930302e+00
9.259889995869842183e-01,-3.787966014406812798e-01,1.241391208448187289e+00,1.625943293799300138e+00,1.881861742576963037e+00,-1.744378414914052655e+00,2.285992456070521595e+00
9.287037860406137657e-01,-3.833578573381021815e-01,1.244007784243171599e+00,1.627199899661539773e+00,1.885014073016107794e+00,-1.759289846655349931e+00,2.293296122074861110e+00
9.317301024207282900e-01,-3.881747367754719846e-01,1.247392428935615749e+00,1.627254008468031365e+00,1.888772230101740890e+00,-1.773174230345589297e+00,2.300380956079841610e+00
9.350651324204165560e-01,-3.931369847951573515e-01,1.251280890405008117e+00,1.626401630459402670e+00,1.893008413844859961e+00,-1.784262694315766673e+00,2.307235573193682665e+00
9.389141659203037449e-01,-3.981962451958747096e-01,1.255658428145918659e+00,1.624794785558657750e+00,1.897546791922838594e+00,-1.792134352744493730e+00,2.313921212765526203e+00
9.433899143198594128e-01,-4.033209994039475554e-01,1.260566867119411016e+00,1.622437907992922534e+00,1.902231089823559929e+00,-1.796743066107717501e+00,2.320553642375442038e+00
9.482517346764197663e-01,-4.084421582337653955e-01,1.265625228675564706e+00,1.619577752847894292e+00,1.906983266545873468e+00,-1.798137910118704941e+00,2.327256059797365939e+00
9.532347753488757958e-01,-4.135853682078262095e-01,1.270398485571826219e+00,1.616163746808726653e+00,1.911700449067658569e+00,-1.797955989542239008e+00,2.334093539523300898e+00
9.583908083660194199e-01,-4.185585219173301730e-01,1.275014389473393850e+00,1.612397883919922004e+00,1.916347548067942830e+00,-1.797983133775399534e+00,2.341074230604598849e+00
9.638213400044521872e-01,-4.232249393562175221e-01,1.279532502249834724e+00,1.608244031720848399e+00,1.920832140858022896e+00,-1.800021590527521642e+00,2.348148937991104912e+00
9.693195825638033503e-01,-4.276919992886005217e-01,1.283255401677489083e+00,1.603728975015924263e+00,1.925201301585765412e+00,-1.803966677568184185e+00,2.355252048102243645e+00
9.748495832432706454e-01,-4.320580321463441953e-01,1.285595261628538211e+00,1.599171254391982266e+00,1.929519457509637714e+00,-1.808372558038034539e+00,2.362266714526303435e+00
9.807821940743001177e-01,-4.362480168060496877e-01,1.286695952756469197e+00,1.594821759728796362e+00,1.933761010234595679e+00,-1.810393877293167808e+00,2.368996815488126018e+00
9.873096418025791854e-01,-4.400686475813039289e-01,1.286769715715645024e+00,1.590512651984455239e+00,1.937978019441508382e+00,-1.809220921243972935e+00,2.375360738519317394e+00
9.942920107997846868e-01,-4.434096697326397885e-01,1.285788207668042693e+00,1.586190241667819745e+00,1.942169430078844350e+00,-1.805006668544627768e+00,2.381408817279200729e+00
1.001395360457363104e+00,-4.463528156107547384e-01,1.283505272721312984e+00,1.582041542662439904e+00,1.946404463475454705e+00,-1.797814216229095319e+00,2.387230034652510380e+00
1.008297195381484324e+00,-4.488500284474147284e-01,1.279670081100458434e+00,1.578166563425171587e+00,1.950660205552682269e+00,-1.787749025162808314e+00,2.392910557326153320e+00
1.015070259913540385e+00,-4.509111354280448403e-01,1.274887895972418583e+00,1.574579265390100513e+00,1.954910482829495200e+00,-1.775260024790294544e+00,2.398521751158662951e+00
1.021799342257579735e+00,-4.526469904854604764e-01,1.269693633372465991e+00,1.571208162925473273e+00,1.959182044047446114e+00,-1.762792356268206628e+00,2.404056905140906863e+00
1.028224804289128880e+00,-4.540891121933380292e-01,1.263881344230934456e+00,1.567994293355070790e+00,1.963443634373924551e+00,-1.752521875539460705e+00,2.409375144586139328e+00
1.034270546162229465e+00,-4.553506315937487781e-01,1.257511309165793012e+00,1.564828540548595326e+00,1.967744437187195494e+00,-1.745624654502295092e+00,2.414204008217720965e+00
1.040045863885175281e+00,-4.565793142605669153e-01,1.250941437283101809e+00,1.561888330750611065e+00,1.972042843139807600e+00,-1.741996730001939442e+00,2.417696930409758416e+00
1.045540091750918998e+00,-4.578293287778108511e-01,1.244193959168767627e+00,1.559120094679531165e+00,1.976378256181172244e+00,-1.741210684649536988e+00,2.418173662949238967e+00
1.050837239001248369e+00,-4.590704750589694183e-01,1.237468292324987562e+00,1.556521734995012007e+00,1.980730255609998158e+00,-1.740658391679919204e+00,2.415415553496633283e+00
1.056125038595363774e+00,-4.603414021112868793e-01,1.231046545335829911e+00,1.554011938661708836e+00,1.985081104517782524e+00,-1.739083664546199115e+00,2.409537710552053458e+00
1.061345846235128842e+00,-4.618016200473269439e-01,1.224846626421855156e+00,1.551681666022395989e+00,1.989466851458453700e+00,-1.735178544890862984e+00,2.400576925874255085e+00
1.066384973172116668e+00,-4.633884512575620618e-01,1.218699318276460053e+00,1.549439956843382094e+00,1.993877142091702748e+00,-1.729092116665867929e+00,2.388837958166731834e+00
1.071375204382916557e+00,-4.650151299708208952e-01,1.212885531097016578e+00,1.547180151545288762e+00,1.998294239683559903e+00,-1.721353303427589188e+00,2.375611388634485177e+00
1.076425955976290982e+00,-4.666963969106996402e-01,1.207603364225806164e+00,1.544963309599262757e+00,2.002687752466728810e+00,-1.712964765414225488e+00,2.363821188313991239e+00
1.081387305260495646e+00,-4.684244622364232558e-01,1.202562978906429159e+00,1.542685707615139457e+00,2.007087209317724774e+00,-1.705337285637973377e+00,2.355094515447720305e+00
1.086086140008539980e+00,-4.701326337539399880e-01,1.197498445538798251e+00,1.540313010930497661e+00,2.011491939331983225e+00,-1.698596818293070188e+00,2.349747094315593809e+00
1.090641763401221986e+00,-4.718077886598683324e-01,1.192563281756580551e+00,1.537838927524307842e+00,2.015885356122043337e+00,-1.693388773809778147e+00,2.347781022367038783e+00
1.095236814872492248e+00,-4.734175097541341026e-01,1.188006340203982658e+00,1.535321641110528157e+00,2.020270144353357722e+00,-1.689084579494525062e+00,2.348746950842174108e+00
1.099815567695644480e+00,-4.749063699612466882e-01,1.183627244538550505e+00,1.532680138195946062e+00,2.024632881571328369e+00,-1.685390262342250312e+00,2.350188413470093440e+00
1.104183458129125439e+00,-4.762391355560547379e-01,1.179076414801736750e+00,1.529882361009229808e+00,2.029018628511999545e+00,-1.681497366645732017e+00,2.349480205657084042e+00
1.108358282749882351e+00,-4.773702666441856923e-01,1.174409458056111077e+00,1.526896910749922620e+00,2.033418085362995065e+00,-1.677019101590480954e+00,2.345637943271105197e+00
1.112565644453016311e+00,-4.782591965378818477e-01,1.169954442313633214e+00,1.523834881442694522e+00,2.037799805654553431e+00,-1.671887276726367277e+00,2.338685834574270039e+00
1.116858873191840740e+00,-4.789340881971704267e-01,1.165690994345967457e+00,1.520760927718781463e+00,2.042179033266877219e+00,-1.666043349128856432e+00,2.329212724203097551e+00
1.121020395349386467e+00,-4.794410808188551143e-01,1.161268935219384790e+00,1.517712021105851905e+00,2.046540811775490631e+00,-1.659949370827691784e+00,2.319236336361715001e+00
1.124902205587173354e+00,-4.797808335919771516e-01,1.156556258592307929e+00,1.514579224806188895e+00,2.050918792873663854e+00,-1.653832023222368441e+00,2.310561015881634539e+00
1.128655664857330487e+00,-4.799390852130684948e-01,1.151864614382607233e+00,1.511320594303674714e+00,2.055286132001268307e+00,-1.648205789124129961e+00,2.304170907348456421e+00
1.132445316474729458e+00,-4.799249439009865559e-01,1.147440338142461824e+00,1.508008873503369429e+00,2.059648677582087473e+00,-1.643023211067173861e+00,2.300118082114939178e+00
1.136174867133989519e+00,-4.797557864809934292e-01,1.143064538094985760e+00,1.504617218041494064e+00,2.064002977878463430e+00,-1.638366560708935715e+00,2.297539915889842632e+00
1.139634832710131329e+00,-4.794051880137458199e-01,1.138431796238561944e+00,1.501217712961316897e+00,2.068352963895466967e+00,-1.633958942654733848e+00,2.295257040829722595e+00
1.142841991053235251e+00,-4.788731483901604857e-01,1.133645236988172211e+00,1.497904314463269992e+00,2.072718001980987879e+00,-1.629548448188844922e+00,2.292078105333255955e+00
1.145994261627586663e+00,-4.780682878430275728e-01,1.129143183095243641e+00,1.494657787928187709e+00,2.077048813287251772e+00,-1.624983896673467543e+00,2.287363451357221855e+00
1.149192491738912247e+00,-4.769418905241549211e-01,1.125225120514522059e+00,1.491609180857390582e+00,2.081295351545212391e+00,-1.620187690006565706e+00,2.281208593135657381e+00
1.152290174195726991e+00,-4.755674197415027393e-01,1.121849943360594404e+00,1.488884087907290654e+00,2.085450617810044260e+00,-1.615364578762025660e+00,2.274353496710771250e+00
1.155023656070867100e+00,-4.740333191821501369e-01,1.118759331559820769e+00,1.486448294188685848e+00,2.089543374409655652e+00,-1.610666223325026403e+00,2.267767685717787529e+00
1.157349854020879754e+00,-4.723439029727539151e-01,1.116058866296269159e+00,1.484185972234897122e+00,2.093600274267023220e+00,-1.606336802238959915e+00,2.262228936466371465e+00
1.159424383237940726e+00,-4.705226602997759078e-01,1.113899908194819321e+00,1.482037080865312051e+00,2.097620358498257342e+00,-1.602462901615168134e+00,2.258076282763077369e+00
1.161353364103773655e+00,-4.686432941266990282e-01,1.112182269138785928e+00,1.480128892652249784e+00,2.101622418539793813e+00,-1.599048715698004441e+00,2.255234763043866497e+00
1.163175086087796961e+00,-4.667594938355794643e-01,1.110710905966487694e+00,1.478399089633091634e+00,2.105628888679278887e+00,-1.595878349004573593e+00,2.253272346251093072e+00
1.164922266259466488e+00,-4.648013913876288816e-01,1.109358665878825034e+00,1.476649392805726713e+00,2.109648014201156219e+00,-1.592629964893753858e+00,2.251421322806956393e+00
1.166653747085449222e+00,-4.626853966382462602e-01,1.108053943361741345e+00,1.474862185253037472e+00,2.113692929755228711e+00,-1.589071548894361197e+00,2.248964496780058386e+00
1.168396672798905911e+00,-4.603804107654397293e-01,1.106712788732810093e+00,1.473048792307444455e+00,2.117748487454403250e+00,-1.585016686425276822e+00,2.245536529088638211e+00
1.170151702697960427e+00,-4.578661803140938180e-01,1.105234414791080644e+00,1.471135990207426802e+00,2.121839039005040117e+00,-1.580535724836334532e+00,2.241216815196611201e+00
1.171884681452772137e+00,-4.551842305940568267e-01,1.103552968082289309e+00,1.469131868226809301e+00,2.125961132844014667e+00,-1.575776309710022360e+00,2.236381839640162017e+00
1.173572599624256529e+00,-4.523410930637145611e-01,1.101655925214568343e+00,1.467019049431246280e+00,2.130086966050907638e+00,-1.571019651004011530e+00,2.231593662360474628e+00
1.175208026909464021e+00,-4.493327530294597416e-01,1.099578759459509003e+00,1.464787346988404071e+00,2.134251723765266728e+00,-1.566407522031445509e+00,2.227273888581837280e+00
1.176771369042320270e+00,-4.461712545721142065e-01,1.097375100094391209e+00,1.462524845265702700e+00,2.138409003441921197e+00,-1.562120824751006776e+00,2.223603360267240259e+00
1.178244170365920551e+00,-4.429273645750301802e-01,1.095079581760101339e+00,1.460215844590205814e+00,2.142574432409909857e+00,-1.558216603940234535e+00,2.220500824158864184e+00
1.179603720765146857e+00,-4.396671161523011961e-01,1.092686212195908668e+00,1.457799944679807780e+00,2.146757789749020873e+00,-1.554593413209137243e+00,2.217683692470679535e+00
1.180816584203975284e+00,-4.364428803079014041e-01,1.090192295086288121e+00,1.455373678495412770e+00,2.150931943268864277e+00,-1.551131889708473821e+00,2.214817005867265376e+00
1.181846808099769719e+00,-4.332612483868263920e-01,1.087596571830684145e+00,1.452932192276376044e+00,2.155131982639479471e+00,-1.547677496859544144e+00,2.211651792367528291e+00
1.182691516259009479e+00,-4.300146019694411348e-01,1.084934815570069766e+00,1.450396929516736710e+00,2.159322242930306501e+00,-1.544195660017155136e+00,2.208127471484117255e+00
1.183364550233477530e+00,-4.266481732783791725e-01,1.082263292119723053e+00,1.447789521609053498e+00,2.163514420639848002e+00,-1.540708969632287983e+00,2.204318525251859562e+00
1.183852068580473871e+00,-4.232525630095064773e-01,1.079560429973695612e+00,1.445134596348957245e+00,2.167730183332610583e+00,-1.537384545671202751e+00,2.200401481398004400e+00
1.184145921703231519e+00,-4.198980586260466774e-01,1.076788119213315298e+00,1.442561822973077001e+00,2.171937796734038528e+00,-1.534276077406872441e+00,2.196578214084751846e+00
1.184270138204034151e+00,-4.166186953573717267e-01,1.073940188027104670e+00,1.440106974404219198e+00,2.176153271796540611e+00,-1.531752259643790026e+00,2.192988758931810889e+00
1.184229391856446600e+00,-4.134441340923377117e-01,1.071052828762306008e+00,1.437679989035089978e+00,2.180360022481720783e+00,-1.530334286093249396e+00,2.189661698432727288e+00
1.184023203240341049e+00,-4.102632211378306470e-01,1.068116573771319189e+00,1.435224661046103911e+00,2.184569745113547512e+00,-1.531053279713774584e+00,2.186485459360868688e+00
1.183635573467897606e+00,-4.070388055245180436e-01,1.065101582505458833e+00,1.432731223247528662e+00,2.188781385164088711e+00,-1.534180802828358114e+00,2.183301610326231046e+00
1.183045470339906258e+00,-4.038680192975686589e-01,1.062002761548557883e+00,1.430259297068291913e+00,2.192981712164963959e+00,-1.539309631616648133e+00,2.179969396633453460e+00
1.182239231528081413e+00,-4.008222885293756810e-01,1.058811482320053399e+00,1.427916500928028798e+00,2.197218854791973097e+00,-1.545305279485947647e+00,2.176446453905651612e+00
1.181225366167014679e+00,-3.978796819579989985e-01,1.055554169977455325e+00,1.425637940321814900e+00,2.201450628437143564e+00,-1.550813768546076332e+00,2.172789108171962802e+00
1.180018015350622340e+00,-3.949919031596817454e-01,1.052335506751184591e+00,1.423434281065780294e+00,2.205683168979986064e+00,-1.555117363558898180e+00,2.169111808743457104e+00
1.178622332599847278e+00,-3.921521212429887604e-01,1.049225780213548065e+00,1.421337521044646390e+00,2.209935172038361539e+00,-1.557959062937938288e+00,2.165520256359256379e+00
1.176993376777332623e+00,-3.893581189852740598e-01,1.046185981601309489e+00,1.419250947637680449e+00,2.214193982055344456e+00,-1.559503410107151655e+00,2.162078626666799508e+00
1.175080754446227838e+00,-3.866287716860440371e-01,1.043112387415221942e+00,1.417204161847128052e+00,2.218480787153497946e+00,-1.560209460693207983e+00,2.158793271246477019e+00
1.172879731728191377e+00,-3.840072824619716885e-01,1.040001102843980396e+00,1.415268230207557210e+00,2.222776508615190494e+00,-1.560777513004205641e+00,2.155610680485145370e+00
1.170419490201034085e+00,-3.814831650476737668e-01,1.036887001965828059e+00,1.413435722306934927e+00,2.227101088048834221e+00,-1.561782090595668304e+00,2.152419161601118347e+00
1.167678578022944391e+00,-3.790192682556516313e-01,1.033720110659266167e+00,1.411649653363415302e+00,2.231464208890174383e+00,-1.563473304494191973e+00,2.149118885797369760e+00
1.164637700906312467e+00,-3.765689138005295367e-01,1.030460341547582592e+00,1.410034000113195018e+00,2.235861173061934881e+00,-1.565662103253410598e+00,2.145611043330989620e+00
1.161375475025543391e+00,-3.741558301970427380e-01,1.027178161971996628e+00,1.408834379250967883e+00,2.240318345856833204e+00,-1.567938327081924932e+00,2.141817856331028391e+00
1.157973513067197535e+00,-3.718300516714655446e-01,1.023984066436581131e+00,1.408215094326999539e+00,2.244845794333982347e+00,-1.570028016337934540e+00,2.137628470973754524e+00
1.154393884990598806e+00,-3.695588612634252423e-01,1.020879073559119776e+00,1.408054865247867937e+00,2.249433163804008817e+00,-1.571381215047687796e+00,2.132871212965312235e+00
1.150571097097474738e+00,-3.673450752798327890e-01,1.017848742485397917e+00,1.408392401016510309e+00,2.254028874377053349e+00,-1.571007966461015037e+00,2.127349661206578091e+00
1.146441512938040974e+00,-3.652671904491224253e-01,1.014881388454253131e+00,1.409365699798902138e+00,2.258612025560815528e+00,-1.568415239281235163e+00,2.120999160520900872e+00
1.141932807813506701e+00,-3.633623578497095497e-01,1.011923262306102300e+00,1.410967511279173081e+00,2.263130078232480358e+00,-1.563963279501190851e+00,2.113992763139578290e+00
1.137135462646518214e+00,-3.616345921752015524e-01,1.009104332928789871e+00,1.413079311456952647e+00,2.267534328804793997e+00,-1.558743070945690867e+00,2.106764597787849524e+00
1.132197183015257069e+00,-3.600950386618565480e-01,1.006609756630128194e+00,1.415689475675854014e+00,2.271795823312696694e+00,-1.553957110888649407e+00,2.099875046600072626e+00
1.127055830726016783e+00,-3.587121190675543470e-01,1.004246048063874630e+00,1.418805254360831158e+00,2.275891168584651680e+00,-1.550187532848369854e+00,2.093904026417321429e+00
1.121521275937120699e+00,-3.574459257844951887e-01,1.001611016611985372e+00,1.422288169707613514e+00,2.279873478654927954e+00,-1.547645439088212393e+00,2.089607801602673121e+00
1.115701316946200228e+00,-3.563182701923163775e-01,9.988212688124837868e-01,1.426045763444597769e+00,2.283759818829333099e+00,-1.545991256494884336e+00,2.088300742089723716e+00
1.109935586534990914e+00,-3.552747437242276263e-01,9.962889421329753636e-01,1.430122736835451880e+00,2.287517784277814492e+00,-1.544531338210059834e+00,2.090197365533009499e+00
1.104287960590633944e+00,-3.543610664798464982e-01,9.938600394105819857e-01,1.434612986193998019e+00,2.291158112440450534e+00,-1.542502708534279954e+00,2.095160931930776904e+00
1.098582630679696193e+00,-3.537572412460425197e-01,9.911510053439942514e-01,1.439347773742844838e+00,2.294722508483269419e+00,-1.539559982080600298e+00,2.103065486979706300e+00
1.092889764274016073e+00,-3.534454716640350047e-01,9.883384875427646543e-01,1.444253276527123431e+00,2.298209630248077229e+00,-1.535863268154933126e+00,2.111966949770709423e+00
1.087393499172705225e+00,-3.533253897391426257e-01,9.856177688240974621e-01,1.449314753932320565e+00,2.301567418403070775e+00,-1.531745188878665953e+00,2.118709274691350064e+00
1.081994725654388478e+00,-3.534194059352677719e-01,9.827068005996170141e-01,1.454675417641048130e+00,2.304826935794643372e+00,-1.527804835716344956e+00,2.122043465842167631e+00
1.076595173282893780e+00,-3.537946320890637542e-01,9.794933505627330117e-01,1.460242269856798503e+00,2.308001221428555905e+00,-1.524539913410967618e+00,2.122016501268836564e+00
1.071326907959159858e+00,-3.544245828291617273e-01,9.762480824100399079e-01,1.465782996457171583e+00,2.311105135561640989e+00,-1.522353691194054282e+00,2.119236340890154224e+00
1.066222167441596591e+00,-3.552634187190566450e-01,9.729340247229518734e-01,1.471487247754632577e+00,2.314130433433054801e+00,-1.521782822576145611e+00,2.115805377122910613e+00
1.061186815651776527e+00,-3.563778916212441139e-01,9.693502021838330540e-01,1.477517110513133725e+00,2.317114697043005211e+00,-1.523670817329785265e+00,2.113732705481587093e+00
1.056286765712407316e+00,-3.577804054816206558e-01,9.656744606798490782e-01,1.483572559580273564e+00,2.320155430606305913e+00,-1.528239203878940300e+00,2.114093730218524758e+00
1.051622385509087154e+00,-3.593669371497232312e-01,9.621005251036822692e-01,1.489675526108909409e+00,2.323273917540496836e+00,-1.534665744523965980e+00,2.116777597400909094e+00
1.047082820999917452e+00,-3.611257419777794131e-01,9.583751689069424096e-01,1.496022910945542961e+00,2.326523943482542212e+00,-1.541603532139806276e+00,2.120950025139190398e+00
1.042565127756994947e+00,-3.631182990795373544e-01,9.543988030572091441e-01,1.502407027436156506e+00,2.329898030045671309e+00,-1.547714228513524137e+00,2.125340445918876497e+00
1.038212637017985163e+00,-3.652727031806416447e-01,9.506323409750564446e-01,1.508727208043936452e+00,2.333012586323858439e+00,-1.551558588021679785e+00,2.127766232792226653e+00
1.034183600513062240e+00,-3.674977542827950749e-01,9.473690964765036915e-01,1.515049246118370885e+00,2.334826039265144537e+00,-1.552152706061444620e+00,2.126901990471688375e+00
1.030281656811546043e+00,-3.698309031156288285e-01,9.441701472895270841e-01,1.521052443954756583e+00,2.334479071999034705e+00,-1.550581454314593488e+00,2.122852880389646035e+00
1.026227633191332478e+00,-3.724291430269281444e-01,9.407255215212466659e-01,1.526414365936790363e+00,2.331820299727838997e+00,-1.549770302073680384e+00,2.115687991731709516e+00
1.022094753413942403e+00,-3.754053054075484064e-01,9.372880862913099964e-01,1.531053399486994371e+00,2.327096789514857988e+00,-1.551765555600046476e+00,2.105510508581305285e+00
1.018199880259383905e+00,-3.786031759810485342e-01,9.343052726790841422e-01,1.534622421524990177e+00,2.320794812952954977e+00,-1.556898039653201504e+00,2.092920421138459108e+00
1.014731226216069482e+00,-3.821704603256097510e-01,9.321668075791892383e-01,1.537544415212508842e+00,2.313673019463077019e+00,-1.565064030515731508e+00,2.078931415213491896e+00
1.011515259414406787e+00,-3.863337800631998498e-01,9.308085754489621166e-01,1.539764792541097105e+00,2.306556786766722933e+00,-1.575235941048006794e+00,2.066234009111309611e+00
1.008199943454012759e+00,-3.909051625790954110e-01,9.297757150151694239e-01,1.540905510940964396e+00,2.300043887863088887e+00,-1.585585817240667605e+00,2.056437384619440145e+00
1.004792408877537735e+00,-3.958642348631273289e-01,9.290642715798965723e-01,1.541097917673730500e+00,2.294501998698902590e+00,-1.594239326450194172e+00,2.049976509202909636e+00
1.001724866729707619e+00,-4.012974030395584091e-01,9.292633295442682684e-01,1.540397979012541496e+00,2.290047797850651268e+00,-1.600704396329244439e+00,2.046911423824165244e+00
9.991792974735979049e-01,-4.069129112168908824e-01,9.304537225235014475e-01,1.538827865765776570e+00,2.286528462543876206e+00,-1.604945313950704833e+00,2.046156657389916589e+00
9.968945050602139313e-01,-4.127788298538686562e-01,9.320320449263936879e-01,1.536292063699399302e+00,2.283878606461687166e+00,-1.607889059022167944e+00,2.044969919457381824e+00
9.945883206916279473e-01,-4.189380623068659770e-01,9.335728568221278723e-01,1.533055184471746157e+00,2.281859600160509149e+00,-1.610489156400121580e+00,2.041194529143450787e+00
9.923176695903259681e-01,-4.251423554522736348e-01,9.351819786139624613e-01,1.528870892421555716e+00,2.280293693375402775e+00,-1.614003350555974770e+00,2.034298746148504033e+00
9.902725017199883739e-01,-4.313826611760103735e-01,9.370840549021572929e-01,1.523984444596613308e+00,2.279059509976204101e+00,-1.618850130646806385e+00,2.024465390111737761e+00
9.884720516997810291e-01,-4.376142184368815302e-01,9.392533195000776214e-01,1.518827632617208767e+00,2.278112085219977878e+00,-1.625256657601322319e+00,2.013068272408596204e+00
9.868762323711576245e-01,-4.436606793856331943e-01,9.415112073358236078e-01,1.513368758249836077e+00,2.277450460048301650e+00,-1.632494410373870775e+00,2.002002937868889276e+00
9.854419602815818191e-01,-4.496849694169220979e-01,9.437746678987818383e-01,1.507600690842761049e+00,2.276728050992967045e+00,-1.639956148339472009e+00,1.992611020650759013e+00
9.841585696149239837e-01,-4.558565456019569861e-01,9.461185426525214881e-01,1.501803801395700688e+00,2.275583988891322296e+00,-1.647031574801628873e+00,1.985480107335584554e+00
9.830777722951999920e-01,-4.619942065490058591e-01,9.485718332968574584e-01,1.496029262635016011e+00,2.273710039696638763e+00,-1.653214775752133381e+00,1.980238387051662885e+00
9.821899210149802606e-01,-4.681150894278082730e-01,9.510278203658016904e-01,1.490235249381476779e+00,2.271027394811961475e+00,-1.658666159929946815e+00,1.975964632696609824e+00
9.814071713896171945e-01,-4.744581000330090337e-01,9.534730217363132088e-01,1.484703331130579063e+00,2.267568939381953363e+00,-1.663511262213953623e+00,1.971427285301003085e+00
9.806812269953537609e-01,-4.807595852192783625e-01,9.558783754947178801e-01,1.479409179956073572e+00,2.263427670657706336e+00,-1.668211834764515844e+00,1.965652746540318407e+00
9.800587663357321899e-01,-4.867756062078300028e-01,9.582486754059671430e-01,1.474301083933944323e+00,2.258797061877241941e+00,-1.673038661051447384e+00,1.958319359651429892e+00
9.795848501031626521e-01,-4.928469942761793954e-01,9.607636848195739709e-01,1.469523752348382617e+00,2.253995031046632569e+00,-1.678385123452400096e+00,1.949788449022491044e+00
9.792215483660520192e-01,-4.989525374562036042e-01,9.633832566903821615e-01,1.465009354832499611e+00,2.249319649334918125e+00,-1.684251161862597712e+00,1.940781884576631589e+00
9.789392599039877796e-01,-5.048558467180364051e-01,9.658774135646084336e-01,1.460445402401387316e+00,2.244959404796182056e+00,-1.690288275046052613e+00,1.932105545478767228e+00
9.787894570945464556e-01,-5.108840316697128570e-01,9.683628219759690126e-01,1.456185310047370951e+00,2.241059258543810273e+00,-1.696488253846637262e+00,1.924287276780880740e+00
9.788232526683957602e-01,-5.171022864673728847e-01,9.709585451224898023e-01,1.452339931812348661e+00,2.237632633206933175e+00,-1.702600028833831658e+00,1.917422173510739736e+00
9.790639558249186747e-01,-5.231169891869253963e-01,9.735374305323204469e-01,1.448438167879745109e+00,2.234611937419685557e+00,-1.708377983094775621e+00,1.911259765213005890e+00
9.795352954060997375e-01,-5.291631504844613865e-01,9.761880414475936352e-01,1.444510817529419677e+00,2.231906378805416757e+00,-1.713804919573119534e+00,1.905278138991651771e+00
9.802388293364607819e-01,-5.354939371308443663e-01,9.790043941735177002e-01,1.441043541532631034e+00,2.229337823824883991e+00,-1.719165463290461160e+00,1.898997386462460080e+00
9.811670674264423297e-01,-5.416885230822128250e-01,9.817682561222480508e-01,1.437914700149048430e+00,2.226636675483097072e+00,-1.724389027459610535e+00,1.892162603270216126e+00
9.823065874396135211e-01,-5.478086869944472914e-01,9.844996406570450942e-01,1.434728514118544851e+00,2.223690090040995937e+00,-1.729656993132128839e+00,1.884826819498852002e+00
9.836226350709511568e-01,-5.541688948741636533e-01,9.873691434582871906e-01,1.431779795622300844e+00,2.220561248591963466e+00,-1.735197120539153870e+00,1.877250931764313124e+00
9.851131131982784339e-01,-5.603972762902982296e-01,9.901351026382775311e-01,1.428991965285146382e+00,2.217194352610811325e+00,-1.740880579183844423e+00,1.869783141869537646e+00
9.868244604514486706e-01,-5.664206076994966477e-01,9.927872115914626594e-01,1.426128993942290091e+00,2.213661690668014881e+00,-1.746597473973641623e+00,1.862680810829742573e+00
9.888238486628080359e-01,-5.726755341554436995e-01,9.956305887773275742e-01,1.423427989262917137e+00,2.210063163489982330e+00,-1.752302204691231102e+00,1.856037895063526788e+00
9.911403993053912176e-01,-5.789402876877329795e-01,9.985242997315992852e-01,1.420928739081606995e+00,2.206376144802848493e+00,-1.757983865755877062e+00,1.849745997188993796e+00
9.937623679495919404e-01,-5.850431344431489267e-01,1.001348861722733741e+00,1.418444888703851214e+00,2.202643490119150727e+00,-1.763382699160803702e+00,1.843510005810079955e+00
9.966697409049004586e-01,-5.913965113223469405e-01,1.004326582027875947e+00,1.416513930379978081e+00,2.198970564965711194e+00,-1.768592840984438919e+00,1.836987291741976058e+00
9.997976235573093895e-01,-5.978036973568209289e-01,1.007401434487269709e+00,1.415562802405965881e+00,2.195369545108443621e+00,-1.773619144660177671e+00,1.829993837395122336e+00
1.003056194282296643e+00,-6.038864704260342720e-01,1.010424335367125170e+00,1.415158754321267809e+00,2.191810326061246261e+00,-1.778497623093598490e+00,1.822508910003358018e+00
1.006335198013146082e+00,-6.099019521078477002e-01,1.013593383900639910e+00,1.415386035132276676e+00,2.188361457899341111e+00,-1.783463346500153035e+00,1.814752360074742388e+00
1.009649135817931365e+00,-6.158469665575246887e-01,1.016937102476583865e+00,1.416666189958505129e+00,2.184896195336192282e+00,-1.788653894166796876e+00,1.806996289566255021e+00
1.013106165313942375e+00,-6.214636132349435904e-01,1.020303950701164419e+00,1.418661263825041541e+00,2.181317226492267558e+00,-1.794122056303773638e+00,1.799562235249635656e+00
1.016665839586641251e+00,-6.270324429087340556e-01,1.023674513859053503e+00,1.421106704851075486e+00,2.177557151813387826e+00,-1.799985398180279805e+00,1.792769816216110979e+00
1.020173502393191711e+00,-6.328508439751328041e-01,1.026845959275043851e+00,1.423690983110122543e+00,2.173587113676667126e+00,-1.806120182824724640e+00,1.786833849880515190e+00
1.023606683164915321e+00,-6.386506696114069292e-01,1.029528987499474191e+00,1.425817583789025011e+00,2.169403277070144131e+00,-1.812231478391790773e+00,1.781783218169443739e+00
1.027228795282535856e+00,-6.444228714853090789e-01,1.031956452179648709e+00,1.427461040461447173e+00,2.165018105389993952e+00,-1.818232219459090970e+00,1.777434502468518529e+00
1.031379411750263042e+00,-6.506579641287422167e-01,1.034610658364093938e+00,1.429064349979630055e+00,2.160601295253864240e+00,-1.823837361362426135e+00,1.773259318309936106e+00
1.036060869454879185e+00,-6.571118886624511823e-01,1.037402203852723082e+00,1.430519834146411817e+00,2.156246707327227785e+00,-1.828907467457269176e+00,1.768540769522597422e+00
1.040956365393902905e+00,-6.634780286981221131e-01,1.039951608033527375e+00,1.431677510274355303e+00,2.152095946978920704e+00,-1.833364580431007251e+00,1.762699178920952292e+00
1.045831308444761687e+00,-6.701571369206630324e-01,1.042383386949441659e+00,1.433134372596746031e+00,2.148302987853509816e+00,-1.837423757244914357e+00,1.755506247076208393e+00
1.050678867497853997e+00,-6.768882566093523678e-01,1.045009310400639935e+00,1.435090437700046406e+00,2.144828425477984801e+00,-1.841331333560252803e+00,1.747243363714949149e+00
1.055591261169260830e+00,-6.831915393756661237e-01,1.047943348278063791e+00,1.437349524031571901e+00,2.141552705322320005e+00,-1.845203736255216054e+00,1.738478581039088811e+00
1.060435884033139375e+00,-6.894952416754983604e-01,1.051133908430917030e+00,1.440243354868146586e+00,2.138429041043441892e+00,-1.849447530070197354e+00,1.729894101019479935e+00
1.064968977079616241e+00,-6.959147715510930476e-01,1.054321412730419905e+00,1.444137149409228549e+00,2.135385910794014741e+00,-1.854184474736914057e+00,1.721962581397219472e+00
1.069227331740198128e+00,-7.020997101950320340e-01,1.057377389999390349e+00,1.448500365960061265e+00,2.132308649583906313e+00,-1.859244873637717843e+00,1.714840476431520599e+00
1.073442722830546536e+00,-7.082424643400816455e-01,1.060641233800374339e+00,1.453418631900812663e+00,2.129146731702125539e+00,-1.864521707546321849e+00,1.708361145249002400e+00
1.077677408644836854e+00,-7.144820509881674164e-01,1.064089334955523825e+00,1.459079859959596659e+00,2.125858068533808432e+00,-1.869853609101673975e+00,1.702129647983824157e+00
1.081792911378798516e+00,-7.205304892858762633e-01,1.067224348259666833e+00,1.464854398720281337e+00,2.122401913971350140e+00,-1.875006346391778322e+00,1.695753201451682735e+00
1.085704442501134404e+00,-7.265950463537073079e-01,1.069989468481703287e+00,1.470628697934526663e+00,2.118843366177782794e+00,-1.879886322754027894e+00,1.688950056497252161e+00
1.089650368390667534e+00,-7.328936553464556747e-01,1.072722770587930752e+00,1.476793802656868548e+00,2.115188369395464729e+00,-1.884500129533418500e+00,1.681670059339204215e+00
1.093906745593209218e+00,-7.390853651043031158e-01,1.075504548886827783e+00,1.483010799072139285e+00,2.111423021727854898e+00,-1.888825296270355114e+00,1.674071341716327543e+00
1.098351335065997025e+00,-7.451690969046901314e-01,1.078192310880516480e+00,1.489097526948349959e+00,2.107617982480572749e+00,-1.893078677397072918e+00,1.666373814132374509e+00
1.102706282574092311e+00,-7.514997037821603554e-01,1.080637991562073186e+00,1.495402487630571597e+00,2.103853114254907730e+00,-1.897314861249275175e+00,1.658814884125911604e+00
1.106987706887617717e+00,-7.578546386949631675e-01,1.082816364160684719e+00,1.501483163468524840e+00,2.100181914708497910e+00,-1.901549007756827114e+00,1.651519067848957079e+00
1.111379206171697387e+00,-7.640364613807755223e-01,1.085065383760345226e+00,1.507182621219200769e+00,2.096570061068976365e+00,-1.905705196842683469e+00,1.644486425079037639e+00
1.115914396449434243e+00,-7.704491602558518615e-01,1.087552110331621913e+00,1.513116909747971750e+00,2.093061655188497738e+00,-1.909823395892170206e+00,1.637623658695679385e+00
1.120378400419383524e+00,-7.770036324440717790e-01,1.089929900432430765e+00,1.519050539196784788e+00,2.089649410841041721e+00,-1.913831999282147978e+00,1.630782284158439843e+00
1.124528717235894870e+00,-7.834142938654148347e-01,1.092008923763227557e+00,1.524450990412843154e+00,2.086341189513149175e+00,-1.917445183167990175e+00,1.623830894428172522e+00
1.128467272818171718e+00,-7.899715224739358721e-01,1.094141636476080537e+00,1.529827113702651786e+00,2.083150509477992962e+00,-1.920692249009810837e+00,1.616715620353908811e+00
1.132481628595191081e+00,-7.965754295859989176e-01,1.096577849619120526e+00,1.535490079454870260e+00,2.079973826983421592e+00,-1.923430464654209304e+00,1.609457074928589693e+00
1.136574540987254744e+00,-8.029850125029485142e-01,1.099065834572786615e+00,1.540857693937335959e+00,2.076823413962991083e+00,-1.925381256790596352e+00,1.602117576114833852e+00
1.140420638297928058e+00,-8.094626658786420181e-01,1.101365727247592297e+00,1.546179049231612090e+00,2.073678274105823505e+00,-1.926087906570000952e+00,1.594812531954885371e+00
1.143988881373662947e+00,-8.159197662570876197e-01,1.103521809046438262e+00,1.551756627368268138e+00,2.070505330630104446e+00,-1.924703908362222160e+00,1.587609533378276705e+00
1.147610813722370837e+00,-8.221608509430852196e-01,1.105774244146358054e+00,1.557138742809724308e+00,2.067194712441552618e+00,-1.920867638127891075e+00,1.580559393682626101e+00
1.151397649032858794e+00,-8.284077480118177128e-01,1.108324607058335909e+00,1.562544886526214594e+00,2.063724368526825170e+00,-1.915011307020815901e+00,1.573635088298909634e+00
1.155179570805175748e+00,-8.346824485027518614e-01,1.110960237703573217e+00,1.568237153738546663e+00,2.060038596179309067e+00,-1.908324349179973067e+00,1.566745477224523064e+00
1.158792155497670118e+00,-8.408990853801970866e-01,1.113286375766975977e+00,1.573772187838487824e+00,2.056138354282894820e+00,-1.901997337571674773e+00,1.559800499070338908e+00
1.162198551574058492e+00,-8.472159702609376453e-01,1.115378701560983954e+00,1.579190435631492972e+00,2.052131596338615971e+00,-1.897223002171019912e+00,1.552745086298691790e+00
1.165585653035588365e+00,-8.535349524820212697e-01,1.117619092470998776e+00,1.584699404111750143e+00,2.047982465953295694e+00,-1.895584518923378647e+00,1.545595417566313579e+00
1.169144488459416431e+00,-8.597036524735351959e-01,1.119956375879742616e+00,1.590108783559586625e+00,2.043834869537852761e+00,-1.897248768248571471e+00,1.538422559298689318e+00
1.172815855731967449e+00,-8.659989058526343930e-01,1.122114135594496354e+00,1.595645435579742699e+00,2.040078150603521934e+00,-1.902058876572032764e+00,1.531354383370569172e+00
1.176432994424807310e+00,-8.723752326115560285e-01,1.124118197579420997e+00,1.601317149794826644e+00,2.037639504667856816e+00,-1.909943238161539991e+00,1.524652864684125975e+00
1.179973853502775727e+00,-8.785255967193849047e-01,1.126091340293100318e+00,1.606662593359829749e+00,2.037400683063531837e+00,-1.920256203040390908e+00,1.518653441885824851e+00
1.183521184043437202e+00,-8.847290510159216970e-01,1.128182407813802079e+00,1.612027451531077293e+00,2.039642691828311261e+00,-1.929407656757520906e+00,1.513518980483712806e+00
1.187160853082482204e+00,-8.911161634732760461e-01,1.130560617339046114e+00,1.617775505247642576e+00,2.044141569789236890e+00,-1.935052586168186650e+00,1.509101834895301364e+00
1.190865536508754152e+00,-8.974030878139449552e-01,1.133173118444730232e+00,1.623298015846633469e+00,2.050041547632047489e+00,-1.937195425499514290e+00,1.504929347161326980e+00
1.194459066350995302e+00,-9.037526297684483900e-01,1.135717668973973415e+00,1.628540155445907356e+00,2.055864346840889478e+00,-1.936068129445161157e+00,1.500278269530300967e+00
1.197824656084103490e+00,-9.103232807224834744e-01,1.138061783383235603e+00,1.634058651351290914e+00,2.059851546451060056e+00,-1.931874849058416110e+00,1.494593252852005838e+00
1.201057640500452051e+00,-9.167478439094689513e-01,1.140185088335098795e+00,1.639205576367743555e+00,2.060958313659158492e+00,-1.924736864978117579e+00,1.487679553506892294e+00
1.204236935425661237e+00,-9.230649086682053417e-01,1.142154156468560888e+00,1.643870495768718909e+00,2.059097690751430676e+00,-1.915510030490680249e+00,1.479875126688038334e+00
1.207424199960558386e+00,-9.295469960528585096e-01,1.144043289722286971e+00,1.648638719244506445e+00,2.054646366205783448e+00,-1.908367012989907741e+00,1.471914365601357133e+00
1.210723696802045835e+00,-9.359154131977852620e-01,1.145698431046788590e+00,1.653127470674223831e+00,2.049043117897417776e+00,-1.904798650140953065e+00,1.464809517796783700e+00
1.214120026146569664e+00,-9.421597337242124670e-01,1.147087103137215847e+00,1.656770674986747682e+00,2.044190561355817337e+00,-1.904595397714061278e+00,1.459415777698940930e+00
1.217553147031683380e+00,-9.485961612231070816e-01,1.148497706271416785e+00,1.659761757750793931e+00,2.041510409324907904e+00,-1.907617219980439982e+00,1.456047311772312058e+00
1.221177835800692391e+00,-9.550564973328989904e-01,1.150007538900212900e+00,1.661906874082294427e+00,2.041548087667290012e+00,-1.913601422853182799e+00,1.454120248368826473e+00
1.225192850766753105e+00,-9.615542841723220269e-01,1.151523303684963473e+00,1.663307530366933573e+00,2.043813681415290517e+00,-1.919488433685063722e+00,1.452466665077929653e+00
1.229602086741169664e+00,-9.684259189008489477e-01,1.153261435742551910e+00,1.664533037189015019e+00,2.047046450065310719e+00,-1.922264219832312993e+00,1.449584998204479724e+00
1.234223143945514245e+00,-9.753619089366448724e-01,1.155385339996846117e+00,1.665469903968642473e+00,2.049561507562738250e+00,-1.921659076329509830e+00,1.444460783303145313e+00
1.238693319726940745e+00,-9.820855384357747297e-01,1.157540223408995761e+00,1.665960598051292374e+00,2.050208272128515752e+00,-1.917953314289761346e+00,1.436887352446774901e+00
1.242692335805182013e+00,-9.887204847013860709e-01,1.159571489622774010e+00,1.666521759475161568e+00,2.048539396851778882e+00,-1.911797197794890657e+00,1.427669985497854066e+00
1.246342550887137079e+00,-9.950820108501015060e-01,1.161690719994419974e+00,1.667104192753763536e+00,2.044607324862233622e+00,-1.906638648122051638e+00,1.418140309551104483e+00
1.249997260082827744e+00,-1.001291636958115738e+00,1.163925718055218494e+00,1.667276226258194605e+00,2.038896793608331759e+00,-1.904803863221256721e+00,1.409686996915119117e+00
1.253759527811543428e+00,-1.007605106447680088e+00,1.166089469812536361e+00,1.667240693099993898e+00,2.032040858269124950e+00,-1.906331312658086752e+00,1.403450945540512418e+00
1.257568114396892645e+00,-1.013886697825742589e+00,1.167998676752465270e+00,1.666986447715653963e+00,2.024782828217716268e+00,-1.910998389286015176e+00,1.399898102268331890e+00
1.261517695551290785e+00,-1.020249782008062933e+00,1.169580594424529219e+00,1.666116033474555724e+00,2.017668896388912447e+00,-1.918689924718320672e+00,1.398499243563737116e+00
1.265788034406084783e+00,-1.026829960278141440e+00,1.171148011137602918e+00,1.664755883881981369e+00,2.011170378649232759e+00,-1.929289552181585599e+00,1.398044442286196620e+00
1.270467454766050608e+00,-1.033275196344677793e+00,1.172971470924143667e+00,1.663041900090812764e+00,2.005459463946494658e+00,-1.941977191203118736e+00,1.397156051699238732e+00
1.275340240589956542e+00,-1.039645950376387296e+00,1.174892422293678740e+00,1.660557330528322995e+00,2.000579199953984588e+00,-1.954241547302621784e+00,1.394884801295505516e+00
1.280047104834298732e+00,-1.046199403837740460e+00,1.176778679353883916e+00,1.657747089727266143e+00,1.996504371725495108e+00,-1.963428174749210164e+00,1.390899207671861371e+00
1.284613693694325987e+00,-1.052569199138276401e+00,1.178840445414472082e+00,1.654959918579153033e+00,1.992990980486546659e+00,-1.969119722885891210e+00,1.385519968533009072e+00
1.289359686475124001e+00,-1.058756175126865484e+00,1.181283789209246260e+00,1.652052126090326034e+00,1.989897037244933831e+00,-1.971469110262066948e+00,1.379407114932338141e+00
1.294231633450158903e+00,-1.065152096042778496e+00,1.184177140625692459e+00,1.650014867833983212e+00,1.987066363307115502e+00,-1.970533441869135816e+00,1.373159618670257487e+00
1.298812363731351338e+00,-1.071450225615398599e+00,1.187183683079902963e+00,1.648899256322626350e+00,1.984333672327924791e+00,-1.966552582014750028e+00,1.367059947868661141e+00
1.302780520315874213e+00,-1.077483324105245943e+00,1.190019270534075746e+00,1.647983781389117608e+00,1.981565028787914740e+00,-1.959533421476954640e+00,1.361102889229079071e+00
1.306256784431051088e+00,-1.083599772975088804e+00,1.193003402415300895e+00,1.647885510734779624e+00,1.978634262661069787e+00,-1.949618932173755592e+00,1.355119525314290474e+00
1.309628186546893946e+00,-1.089630894006896167e+00,1.196327526834253696e+00,1.649107841712124545e+00,1.975402548538982561e+00,-1.937347864846953982e+00,1.348891203784765791e+00
1.313077486197822719e+00,-1.095414181339529502e+00,1.199634573642827329e+00,1.651137789656903720e+00,1.971822716804277009e+00,-1.924447445973402671e+00,1.342278128676318572e+00
1.316318440005693091e+00,-1.101350866750776314e+00,1.202696722941441365e+00,1.653942577722134155e+00,1.967976739288640031e+00,-1.914103382054393565e+00,1.335261664672214410e+00
1.319238875768690145e+00,-1.107398885624049756e+00,1.205416243164329160e+00,1.657408535340840539e+00,1.963900664720533040e+00,-1.907233904552819714e+00,1.327975555480215952e+00
1.322139957030218360e+00,-1.113200928264803657e+00,1.207806197228262768e+00,1.660890971376577596e+00,1.959619899683315403e+00,-1.903871490555365087e+00,1.320736424552058308e+00
1.325251840794807956e+00,-1.119054263405138139e+00,1.210069717677830781e+00,1.664131985180140827e+00,1.955225428190789483e+00,-1.903885332325314428e+00,1.313993740093592377e+00
1.328574167524633198e+00,-1.125214754131441675e+00,1.212201351777207226e+00,1.667044391446840024e+00,1.950780718966598437e+00,-1.907133057247093033e+00,1.308247484066154653e+00
1.332137556948806978e+00,-1.131330364043330761e+00,1.213928638031587015e+00,1.669254342505738009e+00,1.946360457441876912e+00,-1.913459170119910624e+00,1.303829859057614726e+00
1.335998934180731679e+00,-1.137489776265240726e+00,1.215202501273118241e+00,1.670461034024006031e+00,1.942016032043864193e+00,-1.922781339072472395e+00,1.300726064675932658e+00
1.340130315920210036e+00,-1.144083976183264628e+00,1.216404219366605366e+00,1.670852918254662534e+00,1.937825196492516167e+00,-1.934811403700618548e+00,1.298588138882776244e+00
1.344586290393861683e+00,-1.150700107254145399e+00,1.217734528301411157e+00,1.670305718483045654e+00,1.933748355026736698e+00,-1.948944999245640686e+00,1.296751076981808470e+00
1.349366558059554189e+00,-1.157104476981708263e+00,1.219091981469377250e+00,1.668712056272292132e+00,1.929740638373101280e+00,-1.963185913668165306e+00,1.294444533184480273e+00
1.354280629537785607e+00,-1.163757519475482116e+00,1.220516366486917859e+00,1.666468909051059155e+00,1.925834356415751181e+00,-1.975241444722647621e+00,1.291237195072463484e+00
1.359103800668935325e+00,-1.170412838860345417e+00,1.222107152504150474e+00,1.663754901559690413e+00,1.921945043945633147e+00,-1.984096348783328523e+00,1.287365391570848505e+00
1.363869207837811848e+00,-1.176821702810727066e+00,1.223786981292727116e+00,1.660098873985917711e+00,1.918079795900681228e+00,-1.989509383496030015e+00,1.283223583561680092e+00
1.368693817120263834e+00,-1.183461922152335033e+00,1.225718478814255441e+00,1.656280640093139134e+00,1.914236311064279050e+00,-1.991521894292604733e+00,1.278881698861273231e+00
1.373541256291053392e+00,-1.190255180034730520e+00,1.228022026644842946e+00,1.653260555411111721e+00,1.910441721975881579e+00,-1.990283025120701987e+00,1.274252851925236740e+00
1.378153864683747898e+00,-1.196927756689802669e+00,1.230412999326560008e+00,1.650677715303366710e+00,1.906766399961782987e+00,-1.986004237345174950e+00,1.269044387908426108e+00
1.382275898767012290e+00,-1.203631432494115749e+00,1.232871203509067204e+00,1.648614690860389365e+00,1.903205838756392376e+00,-1.978679119608106829e+00,1.263044306030167041e+00
1.386015755922742620e+00,-1.210079724523085654e+00,1.235598034152601832e+00,1.647483619767951435e+00,1.899671834655402902e+00,-1.968431708532304203e+00,1.256230734806046190e+00
1.389694673271463010e+00,-1.216213969860792332e+00,1.238447283607811311e+00,1.647173887421510940e+00,1.896076663047385980e+00,-1.955760248167503157e+00,1.248874218377604262e+00
1.393356632892107427e+00,-1.222450500546444330e+00,1.241172376557911461e+00,1.647697238577923606e+00,1.892348706266430369e+00,-1.941412614278990256e+00,1.241439684640856633e+00
1.396859142504964124e+00,-1.228591936422494868e+00,1.243609368663212367e+00,1.648878164127723256e+00,1.888393528561075785e+00,-1.928089092361404688e+00,1.234495904873368799e+00
1.400252535660273967e+00,-1.234548036330903154e+00,1.245730636379508427e+00,1.649819285256480583e+00,1.884192626299679540e+00,-1.917627822820107353e+00,1.228569945383027884e+00
1.403773800581251230e+00,-1.240760718401350937e+00,1.247786410288449055e+00,1.650341497912806821e+00,1.879744082063527610e+00,-1.910445976434094639e+00,1.223985559946053625e+00
1.407607853702019574e+00,-1.247104388086509807e+00,1.249870407153109930e+00,1.650967613728210104e+00,1.875072055921829017e+00,-1.906631577356927565e+00,1.220732142414760135e+00
1.411782678322776485e+00,-1.253322343232954106e+00,1.251789740602430312e+00,1.651008479958100406e+00,1.870245960666053753e+00,-1.906078984845177349e+00,1.218453461926243264e+00
1.416009214758466195e+00,-1.259766380803710950e+00,1.253560289969175789e+00,1.650042191836056604e+00,1.865446997600667123e+00,-1.908684834610172798e+00,1.216497936020598081e+00
1.420175890109705685e+00,-1.266356506032434659e+00,1.255339348252347609e+00,1.648401731239458323e+00,1.860759823397341917e+00,-1.914378360095811082e+00,1.214103847489837573e+00
1.424584407117554408e+00,-1.272719709987974790e+00,1.257161969080934583e+00,1.645840282977832025e+00,1.856222500021829092e+00,-1.923117556572115472e+00,1.210844138264763670e+00
1.429364974325379345e+00,-1.279202276901839186e+00,1.259053199565920655e+00,1.642671893524275228e+00,1.851912301577606446e+00,-1.934597485239430759e+00,1.206687289989866407e+00
1.434316196882026384e+00,-1.285814093627897226e+00,1.260947246357817741e+00,1.639190116677579301e+00,1.847808998826001803e+00,-1.948214980271160135e+00,1.201985099628172682e+00
1.439251600319766622e+00,-1.292045650888768327e+00,1.262632168453478254e+00,1.635099061861253089e+00,1.843877981364389296e+00,-1.961089872722682648e+00,1.197245338654544966e+00
1.444238236261394581e+00,-1.298312022341272298e+00,1.264123605311979315e+00,1.630373082770964821e+00,1.840094417869929888e+00,-1.971809761879752765e+00,1.192945159141982181e+00
1.449309900389842420e+00,-1.304900050338735795e+00,1.265645901446032395e+00,1.625784922295905988e+00,1.836385443988028943e+00,-1.979260114844489937e+00,1.189261088490484841e+00
1.454317149215328397e+00,-1.311351278447836499e+00,1.267019533270730802e+00,1.620947310092375471e+00,1.832743390043830356e+00,-1.983463581736319314e+00,1.186168619223056941e+00
1.458985663885475681e+00,-1.317748757288271344e+00,1.268231318205165881e+00,1.615723805918919176e+00,1.829079668709657547e+00,-1.984348137289499547e+00,1.183422973384792076e+00
1.463366557240035393e+00,-1.324183746744947099e+00,1.269593924566825738e+00,1.610745558902331398e+00,1.825369544481248107e+00,-1.982184445418791574e+00,1.180685237160521872e+00
1.467671290862026856e+00,-1.330261905927204946e+00,1.271173685121020025e+00,1.606150627313364110e+00,1.821539386280867312e+00,-1.976967832241546486e+00,1.177599598784529134e+00
1.471887161372503527e+00,-1.336210215994838135e+00,1.272844226139992818e+00,1.601865128419621476e+00,1.817670878484475061e+00,-1.968713637347459855e+00,1.173804194780088128e+00
1.475827035223779449e+00,-1.342330559675985358e+00,1.274591586080575212e+00,1.598540045269495113e+00,1.813877056293750067e+00,-1.957716852686625097e+00,1.168962448109730712e+00
1.479603564146880101e+00,-1.348301759627649421e+00,1.276431104641545300e+00,1.596385880932996493e+00,1.810120624989679516e+00,-1.944482673191599176e+00,1.162972492849946082e+00
1.483377815960724710e+00,-1.354164502419890725e+00,1.278506712472083029e+00,1.594655119073581595e+00,1.806413376889341116e+00,-1.931688434477297545e+00,1.156074552737129446e+00
1.486996033267041106e+00,-1.360210004528385586e+00,1.280965575843631132e+00,1.593647066095249976e+00,1.802648796293936373e+00,-1.920714180162667928e+00,1.148823737156892344e+00
1.490413514693077923e+00,-1.366232257324107469e+00,1.283363858945994807e+00,1.593111131551277149e+00,1.798686140376344333e+00,-1.913055661232867743e+00,1.142033355468017763e+00
1.493699229651225924e+00,-1.372266254658518703e+00,1.285456544277828295e+00,1.592402144776006612e+00,1.794488785496648697e+00,-1.908348916870828305e+00,1.136330302557252869e+00
1.496987401378459426e+00,-1.378736837269088245e+00,1.287561153917264001e+00,1.591486310304672580e+00,1.790071879541943245e+00,-1.907034247395099635e+00,1.132068172858586408e+00
1.500512620997350943e+00,-1.385412170344461291e+00,1.289882558211408403e+00,1.590656942062377288e+00,1.785423342564889992e+00,-1.908855549954687536e+00,1.129241034325146442e+00
1.504436795612023037e+00,-1.391948846064817502e+00,1.292159620888793325e+00,1.589280254166162143e+00,1.780637514323840209e+00,-1.913676563967967592e+00,1.127381262309060883e+00
1.508511252238098566e+00,-1.398639878485877341e+00,1.294321994490502226e+00,1.587384829218656090e+00,1.775855616738794218e+00,-1.921436768943282081e+00,1.125732412787422421e+00
1.512451485627199999e+00,-1.405301789215736452e+00,1.296250855474032182e+00,1.585037958389092783e+00,1.771169976679879854e+00,-1.930708244698694287e+00,1.123470270493463374e+00
1.516285778512573845e+00,-1.411636470782507091e+00,1.297519145988351497e+00,1.581659006197080553e+00,1.766731786609503363e+00,-1.940714293538015944e+00,1.120121578492738301e+00
1.520370421752817114e+00,-1.418000453700308139e+00,1.298229331150318133e+00,1.577683659074213818e+00,1.762620238747989010e+00,-1.948865603781726019e+00,1.115889828758578783e+00
1.525050501301824291e+00,-1.424206424652540326e+00,1.298848196540767663e+00,1.573726228301513874e+00,1.758802927567151730e+00,-1.955279620925801209e+00,1.111227426013298825e+00
1.530171120933986773e+00,-1.429822052603092697e+00,1.299211498277878407e+00,1.569472008216842074e+00,1.755212262050192429e+00,-1.958800825851085614e+00,1.106521820151345814e+00
1.535185740066729254e+00,-1.435259235582214021e+00,1.298859701423934476e+00,1.564717686397613994e+00,1.751871156101236116e+00,-1.960480534757359505e+00,1.102152132028737297e+00
1.539837297117883530e+00,-1.440745374065050433e+00,1.297691359261695210e+00,1.559847956536141833e+00,1.748595723575831595e+00,-1.960048922905982316e+00,1.098326887257444540e+00
1.544454219746317802e+00,-1.445911953125104121e+00,1.295988460820174826e+00,1.554900029706534292e+00,1.745233717134573315e+00,-1.957065030680279927e+00,1.095072031683931968e+00
1.549224300797842790e+00,-1.450946705830659100e+00,1.294287479841002009e+00,1.549901529343914008e+00,1.741611029712798686e+00,-1.951049489111856605e+00,1.092207262651948341e+00
1.553857222314096509e+00,-1.456107712272583621e+00,1.292977963668050068e+00,1.545012924292018530e+00,1.737723826473079214e+00,-1.942169178402366470e+00,1.089422907810746022e+00
1.558048824784933561e+00,-1.461121612329675079e+00,1.292121690739033824e+00,1.540103886125177901e+00,1.733573545566716945e+00,-1.932039392482370666e+00,1.086378555198161955e+00
1.561897139209169838e+00,-1.465909969269192148e+00,1.291518584689963944e+00,1.535172197838912345e+00,1.729234680962227655e+00,-1.922632375220984846e+00,1.082919188815368416e+00
1.565648860676809306e+00,-1.471216823713560551e+00,1.291127479421568358e+00,1.530462097863223736e+00,1.724885845466266110e+00,-1.915692190722668942e+00,1.079084296736646298e+00
1.569478180137402479e+00,-1.477141584817205144e+00,1.291102851844103228e+00,1.525966875079896479e+00,1.720577756252442025e+00,-1.911945802217635659e+00,1.075035186654603736e+00
1.573428120720542944e+00,-1.483015712610310288e+00,1.291293460996824960e+00,1.521197752759545274e+00,1.716383181682241688e+00,-1.911396325445845923e+00,1.070975770185173870e+00
1.577492990034882192e+00,-1.488766702516089557e+00,1.291668627154928028e+00,1.516186009820323921e+00,1.712272592530084347e+00,-1.913876880205645392e+00,1.067051415910672096e+00
1.581778009508496341e+00,-1.494854988316822064e+00,1.292348851776822904e+00,1.511295487306081098e+00,1.708292104234479192e+00,-1.919401907569414867e+00,1.063298076522817714e+00
1.586351729020257562e+00,-1.500927335116345018e+00,1.293200690478713444e+00,1.506499640177004551e+00,1.704422062468209154e+00,-1.927474780971300650e+00,1.059687169637148152e+00
1.591003645609237349e+00,-1.506497123521309156e+00,1.294017175682232956e+00,1.501585149274337727e+00,1.700637731727011381e+00,-1.936244417298721876e+00,1.056157755446653468e+00
1.595357154966030810e+00,-1.512073682931098562e+00,1.294835698230402565e+00,1.496710805416826995e+00,1.697044956979653740e+00,-1.944452532773531583e+00,1.052627742062810734e+00
1.599465527048258728e+00,-1.517788120951810482e+00,1.295648887815965766e+00,1.492006577710483173e+00,1.693576914107009390e+00,-1.950751441417495569e+00,1.049051170057728744e+00
1.603699853324723534e+00,-1.522989454316887148e+00,1.296382022748572949e+00,1.487291444423403775e+00,1.690212127181722979e+00,-1.954622825385592177e+00,1.045396580635257866e+00
1.608066425489205420e+00,-1.527822752066511525e+00,1.297226371369986975e+00,1.482618255761524839e+00,1.686854243382686303e+00,-1.955974166628690947e+00,1.041673141900865129e+00
1.612294519958499928e+00,-1.532825746542867407e+00,1.298198411879072811e+00,1.478042738669719025e+00,1.683525600829903990e+00,-1.955245585696429478e+00,1.037942632510431729e+00
1.616350041616625433e+00,-1.537706681636290762e+00,1.299002313695032162e+00,1.473363018658537582e+00,1.680132339556035692e+00,-1.952504493858509882e+00,1.034279474394007803e+00
1.620486336894274793e+00,-1.542147855608819285e+00,1.299642690704820414e+00,1.468500479335409281e+00,1.676597856013101184e+00,-1.947592819153671106e+00,1.030739034740474791e+00
1.624797541978958870e+00,-1.546603890078163790e+00,1.300583272635922549e+00,1.463722848207715144e+00,1.672937969690889481e+00,-1.941503874163897470e+00,1.027339409668911685e+00
1.629117795068641295e+00,-1.551242743859455153e+00,1.301796136074750976e+00,1.459186100114539641e+00,1.669069557713072971e+00,-1.935108193012590183e+00,1.024050638857413098e+00
1.633261760304762777e+00,-1.555653537758393545e+00,1.302888977584379937e+00,1.454641502293979149e+00,1.665053212500691160e+00,-1.929453376529889130e+00,1.020810763553936296e+00
1.637216674421767326e+00,-1.559814161071375604e+00,1.303917044253221524e+00,1.449901801206961327e+00,1.660881455841506593e+00,-1.924902367133245917e+00,1.017541646786038978e+00
1.641160143542215177e+00,-1.563978319657836513e+00,1.305329864500985426e+00,1.445174623729976737e+00,1.656632329085735433e+00,-1.921625101095830956e+00,1.014174439023632912e+00
1.645240172895502839e+00,-1.568153324047506070e+00,1.307073149861350592e+00,1.440552068487720438e+00,1.652326253283734170e+00,-1.919299082914731169e+00,1.010704766253451847e+00
1.649358791478508168e+00,-1.572142213398189714e+00,1.308772992231354015e+00,1.436010766285116258e+00,1.647986909237299846e+00,-1.917512414668780307e+00,1.007133107786540860e+00
1.653288119177790838e+00,-1.576046913520007031e+00,1.310360242975107781e+00,1.431307677078858864e+00,1.643703747339423149e+00,-1.915729341801084340e+00,1.003494337482976784e+00
1.657061532142764859e+00,-1.579868143597692676e+00,1.312069912421453211e+00,1.426371374905637701e+00,1.639471302615156167e+00,-1.913602441470966253e+00,9.998492755947153698e-01
1.660942863069506226e+00,-1.583451127178857609e+00,1.313975703861122835e+00,1.421382821392579432e+00,1.635319008296971299e+00,-1.911033682788693344e+00,9.962469374029987446e-01
1.665032899268048983e+00,-1.586925174180471521e+00,1.315935124578072601e+00,1.416592906528540752e+00,1.631221266338890308e+00,-1.908219607062942025e+00,9.927007453624236977e-01
1.669183755391298707e+00,-1.590378188982875196e+00,1.317768531214175365e+00,1.411778603633476292e+00,1.627191978113856186e+00,-1.905692373690517361e+00,9.891893075177886629e-01
1.673174801859852234e+00,-1.593740423211416957e+00,1.319433679383931857e+00,1.406713051538978743e+00,1.623274191120623211e+00,-1.904519717292538106e+00,9.856772105931954631e-01
1.677076805557061512e+00,-1.596874298015473537e+00,1.320961548245197292e+00,1.401458807863189993e+00,1.619451223502219595e+00,-1.905520100421480789e+00,9.821291609768830755e-01
1.681163426255344984e+00,-1.599738827282851439e+00,1.322447771914311732e+00,1.396336869962027993e+00,1.615799869745645267e+00,-1.908311945452242586e+00,9.785749395490935809e-01
1.685514059418617316e+00,-1.602460384850389552e+00,1.323919914048870883e+00,1.391350893100358199e+00,1.612333840284823738e+00,-1.911884802414932860e+00,9.750323426686073880e-01
1.689874519658232099e+00,-1.605145929839598473e+00,1.325269457602842094e+00,1.386329682622620130e+00,1.609099921113762210e+00,-1.915139358446313000e+00,9.715370835897875201e-01
1.693974502706336649e+00,-1.607728769947343483e+00,1.326405981540189405e+00,1.381248970489173944e+00,1.606061968034489196e+00,-1.917519665202817025e+00,9.680815522407714147e-01
1.697935768403731283e+00,-1.610232933666824628e+00,1.327302461510055043e+00,1.376243938777251152e+00,1.603173865783028784e+00,-1.918857284449186240e+00,9.646587976296550071e-01
1.702044739679307028e+00,-1.612676397343901558e+00,1.327909402592902577e+00,1.371339814148581526e+00,1.600404359352237460e+00,-1.919512102422272104e+00,9.612669623988669976e-01
1.706317535303186528e+00,-1.614900789257013969e+00,1.328197024017573113e+00,1.366542349208373475e+00,1.597686528804413086e+00,-1.920128211501503701e+00,9.579156338601436671e-01
1.710515849001322142e+00,-1.616714421967212711e+00,1.328224887326384884e+00,1.361716301774619442e+00,1.595044438739254833e+00,-1.921309017169000599e+00,9.545918689790164890e-01
1.714546143888634244e+00,-1.618221618058010236e+00,1.327808735056088763e+00,1.356852923602620553e+00,1.592479335147313879e+00,-1.923486131385222730e+00,9.512924920198317924e-01
1.718616645707712554e+00,-1.619607353959223506e+00,1.326907880963873465e+00,1.352075352361536087e+00,1.590120839617730653e+00,-1.926514065685551946e+00,9.479757379081356072e-01
1.722878116326421072e+00,-1.620892482319316041e+00,1.325619876301177058e+00,1.347480241003655932e+00,1.588340750913986410e+00,-1.929947426226188201e+00,9.445734764076573198e-01
1.727197111033714094e+00,-1.622004378679198000e+00,1.324013570816253482e+00,1.342989152796238983e+00,1.587826675528039022e+00,-1.932175473404165622e+00,9.410441820994654982e-01
1.731332747231405289e+00,-1.622876470727121045e+00,1.322058524221653597e+00,1.338623479367237801e+00,1.588983584649227065e+00,-1.931634086015283414e+00,9.374454991726136610e-01
1.735284665272586180e+00,-1.623526015733293359e+00,1.319845337540492380e+00,1.334244623357328186e+00,1.591846088680176408e+00,-1.927994956282976569e+00,9.338588603265838284e-01
1.739264746164711273e+00,-1.623964278816276030e+00,1.317661691865884332e+00,1.329930841730338598e+00,1.596207771370214301e+00,-1.921553974674653498e+00,9.303728890173676991e-01
1.743348131131648326e+00,-1.624246207740514869e+00,1.315883053116231105e+00,1.325796883339471988e+00,1.601576799983888355e+00,-1.913578712738064791e+00,9.270020859857899254e-01
1.747369857215924416e+00,-1.624428188203590695e+00,1.314716568638812255e+00,1.321739504214692218e+00,1.607203345645214387e+00,-1.906561110124791014e+00,9.236903054079578235e-01
1.751114208485390344e+00,-1.624675482596026344e+00,1.313757171512979660e+00,1.317602429865698976e+00,1.611901832898205100e+00,-1.902281363727173602e+00,9.202398672569425120e-01
1.754663456488399165e+00,-1.625183733600100267e+00,1.312785670310631980e+00,1.313216323430835608e+00,1.614546415817131431e+00,-1.901430243991850899e+00,9.164012601358286769e-01
1.758316607759567995e+00,-1.625987455647146751e+00,1.311907406342148752e+00,1.308560152492725948e+00,1.614694636681957229e+00,-1.903791495898101926e+00,9.120113786628806229e-01
1.762227479801945718e+00,-1.626993651158824328e+00,1.311239465565681606e+00,1.303672566058613924e+00,1.612404978508790387e+00,-1.909291176499672060e+00,9.070578191103678689e-01
1.766259512382692298e+00,-1.627998168863677098e+00,1.310902648981773444e+00,1.298701090155934601e+00,1.608104271688628018e+00,-1.917333550163830891e+00,9.017298124754032917e-01
1.770138805964783790e+00,-1.628951753715857986e+00,1.310684595944675346e+00,1.293556621908567683e+00,1.602419914090290609e+00,-1.925913356409874488e+00,8.963281028769557457e-01
1.773767030007271872e+00,-1.629916304035384123e+00,1.310445510708367234e+00,1.288265047385450446e+00,1.596068658506079707e+00,-1.932986086338340348e+00,8.911252714739672509e-01
1.777326884157966580e+00,-1.630831059893241841e+00,1.310224461704528442e+00,1.283048374212512499e+00,1.589690654005783355e+00,-1.937812253545313945e+00,8.862354081487655577e-01
1.780985428278351712e+00,-1.631581571978360623e+00,1.310007547167516995e+00,1.278177745506476670e+00,1.583771884901070015e+00,-1.940217427534805861e+00,8.816383194419282754e-01
1.784710365050656167e+00,-1.632085268982088833e+00,1.309609071700947869e+00,1.273386752028961455e+00,1.578747426867379788e+00,-1.941025344153455512e+00,8.772000815495305526e-01
1.788252302742101119e+00,-1.632268148289728549e+00,1.308881809037685473e+00,1.268567475709115877e+00,1.574857539136740980e+00,-1.941356767888147372e+00,8.727876097346843887e-01
1.791551979352501434e+00,-1.632158492634526503e+00,1.307758228025723835e+00,1.263750895922961748e+00,1.572610832469218956e+00,-1.942081094362196003e+00,8.683418218752003703e-01
1.794909719467307818e+00,-1.631858467482125263e+00,1.306265353125003914e+00,1.259110124679323262e+00,1.572506713631079744e+00,-1.943022575137861807e+00,8.640623750197152786e-01
1.798563050507389294e+00,-1.631368312706213741e+00,1.304636337415879366e+00,1.254773992365958213e+00,1.574682665348938304e+00,-1.942587727555138200e+00,8.603479244037109952e-01
1.802355698091529179e+00,-1.630676523314542159e+00,1.303235321593414708e+00,1.250726260548607804e+00,1.578898619678852366e+00,-1.939819131837149602e+00,8.574691338328651602e-01
1.805929513785393015e+00,-1.629833013651081908e+00,1.302326557887204528e+00,1.246706751468811492e+00,1.584648267426438384e+00,-1.934638950662669110e+00,8.553781861944662612e-01
1.809078488741788338e+00,-1.629084778566135983e+00,1.301657778152783385e+00,1.242701503692483112e+00,1.591237961166138026e+00,-1.928345494863614507e+00,8.536640226343850113e-01
1.811980528734490337e+00,-1.628761983521090029e+00,1.300927279758174349e+00,1.238816098185524295e+00,1.597779046962626515e+00,-1.922523258872520957e+00,8.517669797666641562e-01
1.814983176268313292e+00,-1.628870260911599921e+00,1.300389008327418994e+00,1.234969042143677420e+00,1.603384692131650802e+00,-1.918255017248987171e+00,8.492312974735064524e-01
1.818247978800470843e+00,-1.629099639062951965e+00,1.300380978831121137e+00,1.231017004220193778e+00,1.607037196234733845e+00,-1.916086291957804999e+00,8.458600751265762385e-01
1.821612909453620865e+00,-1.629342918761780279e+00,1.300825234065751568e+00,1.226972867672015299e+00,1.608329191570943673e+00,-1.915887473648955952e+00,8.422327498195688600e-01
1.824769434377102373e+00,-1.629727432685180055e+00,1.301421868761211798e+00,1.222969836900166696e+00,1.607371699930136399e+00,-1.917380708087501384e+00,8.397780810196239232e-01
1.827595494406148768e+00,-1.630356544576407218e+00,1.302000047690683893e+00,1.218903469547915508e+00,1.604496924140164316e+00,-1.920589843779562544e+00,8.391184692815867319e-01
1.830286312362271017e+00,-1.631174827359971102e+00,1.302480135734730649e+00,1.214741108541498971e+00,1.600178288774347202e+00,-1.925159308942193892e+00,8.393482068616812120e-01
1.833038429772311906e+00,-1.632049016639154138e+00,1.302844336316405061e+00,1.210721180146350440e+00,1.594801973760120450e+00,-1.930358005769272189e+00,8.389211490106495139e-01
1.835890135996607109e+00,-1.632811752683090534e+00,1.303097023667139975e+00,1.206920503065912920e+00,1.588873617387303927e+00,-1.935448005672322003e+00,8.366762639868990936e-01
1.838704391491271295e+00,-1.633352121345106100e+00,1.303054120201682764e+00,1.203397140913675667e+00,1.582770195589533246e+00,-1.939644821332545899e+00,8.321067988242677460e-01
1.841321926017429167e+00,-1.633686900693447130e+00,1.302610464160400383e+00,1.200160022030499984e+00,1.576945958054855934e+00,-1.942428397211487301e+00,8.256390325206093284e-01
1.843669995124605832e+00,-1.633886677733469961e+00,1.301914360423905848e+00,1.197335460039365529e+00,1.571689868824284853e+00,-1.943360949646291802e+00,8.184620397861578356e-01
1.845769032145912369e+00,-1.633989082963718253e+00,1.301157796300529856e+00,1.195146721166756798e+00,1.567145642497055347e+00,-1.941557923083779169e+00,8.117873059041328387e-01
1.847689384322099393e+00,-1.633998011195496591e+00,1.300608379524432978e+00,1.193862851079970699e+00,1.563333316674687667e+00,-1.936794912688295289e+00,8.063386181509276662e-01
1.849413315071912756e+00,-1.634002744964754950e+00,1.300420287136489828e+00,1.193486905959606714e+00,1.560245988579998189e+00,-1.929676702533900778e+00,8.023262397228653198e-01
1.850755248663104924e+00,-1.634177115465051511e+00,1.300258500132836392e+00,1.193701183958620016e+00,1.557893437292774630e+00,-1.921594421480108394e+00,7.994201250408630166e-01
1.851658439751185936e+00,-1.634630298931460279e+00,1.299983402209115901e+00,1.194493281240196936e+00,1.556295988044797962e+00,-1.913737743430500071e+00,7.972104137465708673e-01
1.852323564329825256e+00,-1.635330776790304697e+00,1.299781827589048699e+00,1.195774514788984888e+00,1.555735509939146555e+00,-1.907159242858163184e+00,7.961247028886757615e-01
1.852925412105588920e+00,-1.636191663606276547e+00,1.299749709822024091e+00,1.197591023692704537e+00,1.556472204165326723e+00,-1.902123591417127502e+00,7.977135115569511381e-01
1.853428749462408875e+00,-1.637112950922519961e+00,1.299809870666773115e+00,1.200033648411827691e+00,1.558582865908469506e+00,-1.898553550652265054e+00,8.023914937656151380e-01
1.853747529922930459e+00,-1.637976234511884233e+00,1.300045120978386759e+00,1.202866359563396603e+00,1.561903263176808832e+00,-1.895846374161414660e+00,8.099416154226024567e-01
1.853855507771307920e+00,-1.638730641517390341e+00,1.300377683213164826e+00,1.205973150020902329e+00,1.566166291654589315e+00,-1.893190849707970358e+00,8.187448075592673735e-01
1.853785819501432286e+00,-1.639434954410012413e+00,1.300647388178585828e+00,1.209399499901190778e+00,1.571038598167449951e+00,-1.889953191518056519e+00,8.266973593807380727e-01
1.853617381157090405e+00,-1.640161797648839404e+00,1.300878743678895111e+00,1.212983741864744891e+00,1.576120676500999629e+00,-1.885680156238654481e+00,8.322954905146421334e-01
1.853370026768961676e+00,-1.640871083966242372e+00,1.301139100988102149e+00,1.216655948095249906e+00,1.581076297178273471e+00,-1.880485593987486270e+00,8.350023673542769087e-01
1.853034708222965454e+00,-1.641566408740475991e+00,1.301425643799296372e+00,1.220285969717782359e+00,1.585587255435602971e+00,-1.874551245463022209e+00,8.354998325508351531e-01
1.852619095259407711e+00,-1.642283125251745579e+00,1.301717579459706897e+00,1.223764331173302189e+00,1.589559210991037697e+00,-1.868554938513764752e+00,8.352128103195125552e-01
1.852106889448336347e+00,-1.643006313334790747e+00,1.302001665501815619e+00,1.227249283755651676e+00,1.592916519704086653e+00,-1.862859196023646691e+00,8.355602929377167198e-01
1.851508996479569902e+00,-1.643726505342012256e+00,1.302254173192720854e+00,1.230657537407777502e+00,1.595682191122916871e+00,-1.857753496774909863e+00,8.373775209170873923e-01
1.850796953741866036e+00,-1.644494094928426797e+00,1.302497452891549168e+00,1.233938578483277260e+00,1.597955263083155053e+00,-1.853352170305405000e+00,8.408863821103340630e-01
1.849936786001545208e+00,-1.645331073242584541e+00,1.302791366009999896e+00,1.237191217052309833e+00,1.599773509745759270e+00,-1.849488216531175011e+00,8.457440677819011432e-01
1.848920044446957789e+00,-1.646188185020471595e+00,1.303118115971126256e+00,1.240196800666263588e+00,1.601230120348038799e+00,-1.845866403955686685e+00,8.511379876486566687e-01
1.847708738932650974e+00,-1.647047873340663937e+00,1.303461523900030228e+00,1.242885581386818927e+00,1.602292881348027054e+00,-1.842204564108262277e+00,8.562320023543970038e-01
1.846269912842729788e+00,-1.647868672889006403e+00,1.303819193132401910e+00,1.245157430874817228e+00,1.602678294028724082e+00,-1.838464587179311938e+00,8.605762239415865045e-01
1.844631429595088523e+00,-1.648664605204360756e+00,1.304202628333241964e+00,1.246538133464639708e+00,1.602069111986752725e+00,-1.834756428257087846e+00,8.642414192935773398e-01
1.842950761957641070e+00,-1.649535259100981754e+00,1.304662463031256436e+00,1.247076944202133442e+00,1.600400140891440337e+00,-1.831382389603246619e+00,8.677483031378668832e-01
1.841420556209592885e+00,-1.650534383956618223e+00,1.305231354191124682e+00,1.246821979851225670e+00,1.597792373424114842e+00,-1.828379082989465720e+00,8.717368329507249047e-01
1.840006297810526936e+00,-1.651634655660113804e+00,1.305947950929174262e+00,1.245585387570412816e+00,1.594551168027033228e+00,-1.825816556005279923e+00,8.766533611980419360e-01
1.838511085913941301e+00,-1.652788376981059848e+00,1.306817286665879152e+00,1.243353325698828282e+00,1.591011699125628898e+00,-1.823459978090760325e+00,8.825741076080791947e-01
1.836906278357846478e+00,-1.653968283803992856e+00,1.307748281176161820e+00,1.240186014858747798e+00,1.587466957060961636e+00,-1.821203947721668603e+00,8.891464962555488682e-01
1.835294999339058819e+00,-1.655163650317090118e+00,1.308731407034895877e+00,1.236271188009372635e+00,1.584194784286997226e+00,-1.818822142927252639e+00,8.958169157927509119e-01
1.833766411511225547e+00,-1.656386940134691788e+00,1.309825506817831053e+00,1.231670983453491797e+00,1.581320967206382155e+00,-1.816374664665651339e+00,9.020312756700233914e-01
1.832288217229325777e+00,-1.657590995224044850e+00,1.311069229641294909e+00,1.226531189088773344e+00,1.578843684044445306e+00,-1.813900581368544707e+00,9.074625263841071821e-01
1.830775748171614703e+00,-1.658748671351988335e+00,1.312349983769954598e+00,1.221070636914575847e+00,1.576703301438569849e+00,-1.811633765191937195e+00,9.120779509746295144e-01
1.829182145847471075e+00,-1.659916354325186472e+00,1.313542414202921060e+00,1.215397185006057201e+00,1.574838747874837797e+00,-1.809855006559981216e+00,9.161254432455403496e-01
1.827507769903803592e+00,-1.661096261148119480e+00,1.314654849869541398e+00,1.209465353246371722e+00,1.573092502501514556e+00,-1.809188923359251300e+00,9.199350485577562075e-01
1.825751781273575514e+00,-1.662194735162487724e+00,1.315751526303865049e+00,1.203442201606086170e+00,1.571336669685555076e+00,-1.810237962558859159e+00,9.237143337920747932e-01
1.823956903980580302e+00,-1.663191583017951336e+00,1.316808954319429903e+00,1.197589465659099739e+00,1.569421207136528551e+00,-1.813216521821955141e+00,9.272941416375863888e-01
1.822219371116339914e+00,-1.664171173603206322e+00,1.317780275752864716e+00,1.191747875166537796e+00,1.567219273574789629e+00,-1.817669919644218313e+00,9.296885298195626257e-01
1.820544096328108763e+00,-1.665164486076108119e+00,1.318739852647610178e+00,1.185960153606778533e+00,1.564639980805112129e+00,-1.822933690854216859e+00,9.292258189280273584e-01
1.818835625268459655e+00,-1.666156240624487861e+00,1.319634954461866627e+00,1.180603384818438517e+00,1.561607971793665950e+00,-1.828088645257883949e+00,9.255676342363845510e-01
1.817093358634960909e+00,-1.667191078407237903e+00,1.320223140236593595e+00,1.175487798606749568e+00,1.558181250463680056e+00,-1.832382652958969516e+00,9.189774490119679839e-01
1.815359840464328078e+00,-1.668243473111412190e+00,1.320442751089130340e+00,1.170661631399775970e+00,1.554432201553271220e+00,-1.835038896488064841e+00,9.108925913067872360e-01
1.813646995173245902e+00,-1.669122036622027849e+00,1.320724440357846419e+00,1.166647754933801684e+00,1.550485748225238547e+00,-1.834917016874044959e+00,9.030606007212541586e-01
1.812044584390543722e+00,-1.669751328282167879e+00,1.321150599364314226e+00,1.163837034821699756e+00,1.546496055935833613e+00,-1.831663779220747079e+00,8.965424407625789405e-01
1.810517254836016665e+00,-1.670271863131669532e+00,1.321523188871028820e+00,1.162120414383449818e+00,1.542684209555410968e+00,-1.825399385226283311e+00,8.917168727489533930e-01
1.808739095506491701e+00,-1.670740685948072013e+00,1.321851616638979765e+00,1.161416101490827968e+00,1.539236875363383605e+00,-1.816934028291310010e+00,8.882666143668508374e-01
1.806514523715383680e+00,-1.671140359910420425e+00,1.322167221145681859e+00,1.161619473800022728e+00,1.536271403015336601e+00,-1.808119810691606766e+00,8.857145737571313626e-01
1.804104436187720539e+00,-1.671513009303744912e+00,1.322420867227590557e+00,1.162410372694903327e+00,1.533864395361117960e+00,-1.800595395225561113e+00,8.842978585889799126e-01
1.801773264812926989e+00,-1.671918136001919519e+00,1.322723948342425349e+00,1.164142692478839836e+00,1.532184302853291324e+00,-1.795080254933826724e+00,8.854657812177009202e-01
