Afshin1997/kuka_rl_ros2/src/catch_and_throw/output_files/ft/old/idealpd_7/ft_received_joint_vel_np.csv
joint_0,joint_1,joint_2,joint_3,joint_4,joint_5,joint_6
-3.5953e-05,0,0,4.793e-05,-1.91633e-05,-1.1977e-05,7.19059e-05
0,0,2.39771e-05,-2.39552e-05,0,-1.19776e-05,-2.39552e-05
2.39541e-05,0,-2.39759e-05,0,0,3.5953e-05,-2.39759e-05
-2.39552e-05,0,2.39771e-05,-2.39771e-05,0,-3.59547e-05,5.99317e-05
-0.000826896,-0.00103064,-5.99289e-05,-0.00212116,9.58513e-05,-0.000239694,-3.5953e-05
-0.00587241,-0.00699894,-0.000323592,0.000143819,0,0.000323592,2.39552e-05
-0.0092636,-0.0120559,0.00511717,-0.00301996,0.000230099,-4.793e-05,1.19989e-05
-0.0061121,-0.00934791,0.0156278,-0.00995914,0.000210946,2.39552e-05,0
0.000491343,-0.00240878,0.0296603,-0.0198334,0.000498524,0.000419437,2.39541e-05
0.00568066,-0.00620798,0.0441031,-0.032526,0.000862877,0.000790981,0.000107864
0.0128348,-0.0248188,0.0647133,-0.0501888,0.00260771,0.000503341,4.793e-05
0.0260903,-0.0517252,0.0949893,-0.0720989,0.00696062,0.000167774,0.000155796
0.0456588,-0.0853856,0.127977,-0.0953922,0.0139014,0.000970708,8.39048e-05
0.068923,-0.119474,0.160724,-0.120768,0.0219556,0.00544096,0.000215706
0.0973337,-0.152795,0.200623,-0.151513,0.0321745,0.0150159,0.000263648
0.128989,-0.188073,0.241944,-0.183914,0.0433936,0.0282955,0.000287637
0.170088,-0.224543,0.291246,-0.216634,0.0536306,0.042555,0.000179765
0.215757,-0.263875,0.338719,-0.250752,0.0626071,0.0531873,-0.000503365
0.249758,-0.311978,0.331632,-0.234957,0.0578106,0.0677692,0.00406258
0.293297,-0.354191,0.32079,-0.239379,0.0725974,0.0785346,0.0037152
0.35723,-0.35675,0.373036,-0.282749,0.0973672,0.073198,0.00609983
0.40151,-0.335167,0.433328,-0.325987,0.11566,0.0824017,0.011948
0.415863,-0.318009,0.463489,-0.34356,0.126998,0.103966,0.0199063
0.429924,-0.312661,0.502104,-0.380634,0.137154,0.122356,0.0292648
0.46162,-0.33474,0.567383,-0.440024,0.149203,0.119869,0.0411549
0.485745,-0.398394,0.613231,-0.487148,0.169041,0.127581,0.053005
0.499215,-0.471783,0.637337,-0.532496,0.187668,0.147254,0.0597069
0.520775,-0.564252,0.671161,-0.547175,0.205146,0.146576,0.0649171
0.545248,-0.613044,0.707782,-0.582376,0.224561,0.162306,0.0674489
0.575218,-0.63189,0.747187,-0.619474,0.245623,0.172317,0.0729104
0.611342,-0.633586,0.788881,-0.664122,0.261608,0.173955,0.0776957
0.647936,-0.628199,0.831423,-0.699887,0.280693,0.183486,0.0902871
0.678731,-0.641304,0.86291,-0.727389,0.297676,0.185197,0.0993157
0.704608,-0.668609,0.889317,-0.757122,0.321074,0.197304,0.10142
0.737875,-0.702233,0.924222,-0.794658,0.342278,0.202395,0.104481
0.781306,-0.720787,0.970029,-0.822339,0.359212,0.206711,0.112385
0.820904,-0.744095,1.00174,-0.816745,0.37386,0.209346,0.120564
0.835677,-0.760214,0.998287,-0.827755,0.395413,0.23147,0.123147
0.853837,-0.783908,1.00808,-0.834135,0.410638,0.238756,0.131123
0.904225,-0.828283,1.06894,-0.859369,0.433493,0.225238,0.143544
0.942822,-0.832289,1.10628,-0.909697,0.447684,0.223751,0.14228
0.947966,-0.85237,1.09258,-0.925532,0.465687,0.229732,0.148253
0.934781,-0.882876,1.06013,-0.940557,0.486092,0.240314,0.156997
0.965451,-0.899431,1.10173,-0.973456,0.504476,0.227563,0.158296
1.01894,-0.898971,1.16759,-0.997688,0.514702,0.214966,0.166237
1.02326,-0.907988,1.15118,-0.996561,0.529844,0.221727,0.169872
1.00082,-0.935575,1.10366,-1.00416,0.547101,0.231614,0.173779
1.03859,-0.951895,1.15859,-1.0166,0.561854,0.213181,0.179876
1.07967,-0.960082,1.21067,-1.03043,0.577646,0.19704,0.182791
1.04793,-0.968829,1.14922,-1.01276,0.587184,0.216345,0.189248
1.02681,-0.992715,1.12533,-1.01958,0.607673,0.216454,0.191887
1.06415,-1.00041,1.19687,-1.04711,0.621738,0.192771,0.195887
1.06717,-0.991073,1.19981,-1.0481,0.634728,0.193577,0.199856
1.01913,-1.00134,1.1349,-1.00568,0.644576,0.209501,0.20261
1.00012,-0.999545,1.1407,-1.0101,0.656452,0.204794,0.205177
1.02105,-0.982048,1.21142,-1.01684,0.665035,0.189679,0.204696
1.00079,-0.983487,1.20962,-0.99595,0.67532,0.182504,0.20598
0.929112,-0.993852,1.14274,-0.974473,0.68724,0.198008,0.208974
0.88559,-0.99746,1.14227,-0.956727,0.697044,0.189874,0.210198
0.873276,-0.988268,1.18901,-0.945123,0.707068,0.174243,0.208974
0.836875,-0.974595,1.19001,-0.93373,0.714243,0.162406,0.213578
0.76212,-0.968805,1.14516,-0.905491,0.724345,0.174075,0.211191
0.687831,-0.955576,1.11521,-0.874469,0.732517,0.17354,0.211517
0.653804,-0.940222,1.15301,-0.838102,0.739244,0.155367,0.211563
0.620205,-0.918917,1.18695,-0.820577,0.743254,0.140596,0.214117
0.54484,-0.907144,1.15872,-0.774715,0.746147,0.137415,0.211083
0.457955,-0.900522,1.11658,-0.742358,0.757999,0.148697,0.213482
0.40274,-0.894417,1.1308,-0.683945,0.762062,0.127467,0.212917
0.343005,-0.880832,1.13291,-0.629805,0.770884,0.111331,0.213902
0.253461,-0.86557,1.09939,-0.568246,0.772743,0.122482,0.211479
0.182252,-0.852227,1.09971,-0.519852,0.781699,0.119852,0.211984
0.128336,-0.82899,1.12282,-0.45829,0.784652,0.0992631,0.211816
0.05417,-0.805612,1.11134,-0.371269,0.785993,0.0970147,0.208375
-0.0382528,-0.812919,1.07382,-0.28674,0.794296,0.106238,0.205357
-0.112079,-0.789277,1.06838,-0.231733,0.79558,0.104733,0.196966
-0.16593,-0.766901,1.09923,-0.164288,0.796367,0.0831446,0.19565
-0.245335,-0.760346,1.08816,-0.0927962,0.802867,0.0815067,0.18751
-0.343424,-0.763869,1.04754,-0.0397268,0.805724,0.0940261,0.182803
-0.418476,-0.762503,1.0518,0.0343956,0.809713,0.0933355,0.176041
-0.48245,-0.722824,1.0792,0.114914,0.813758,0.0954162,0.179699
-0.567132,-0.704414,1.07078,0.171175,0.819339,0.0864683,0.160353
-0.655007,-0.700773,1.04578,0.203068,0.815637,0.0849422,0.147894
-0.722834,-0.679906,1.04063,0.265889,0.808064,0.0873192,0.144162
-0.775901,-0.670682,1.0468,0.347199,0.801544,0.0765175,0.13126
-0.840522,-0.66308,1.0311,0.401745,0.801851,0.0724584,0.119773
-0.89912,-0.645755,1.01596,0.427252,0.803193,0.072431,0.113045
-0.954651,-0.625352,0.994152,0.474323,0.801621,0.0761856,0.100215
-1.00499,-0.607802,0.969502,0.546864,0.79863,0.079873,0.0841992
-1.02634,-0.60245,0.977937,0.608934,0.796079,0.068911,0.0728299
-1.04579,-0.59595,0.982528,0.631866,0.792839,0.0554378,0.0673138
-1.09542,-0.60245,0.932,0.646841,0.79234,0.0553205,0.0564231
-1.12809,-0.606508,0.899072,0.686896,0.790385,0.0519744,0.0454431
-1.11593,-0.58844,0.922149,0.736928,0.787258,0.0413586,0.0389856
-1.11517,-0.562838,0.916113,0.780527,0.778516,0.0345497,0.0298161
-1.14096,-0.567575,0.869285,0.778023,0.776194,0.0314594,0.021716
-1.13591,-0.580155,0.873187,0.747343,0.774221,0.0144047,0.0163101
-1.11754,-0.590593,0.87931,0.774858,0.768794,0.000299601,0.0123435
-1.13159,-0.602845,0.819837,0.812826,0.760758,0.00438634,0.00947975
-1.1226,-0.612548,0.805537,0.799377,0.759878,-0.00872431,0.00835282
-1.06909,-0.592754,0.854077,0.784087,0.753663,-0.0190075,0.00752629
-1.05648,-0.568662,0.826126,0.770952,0.750157,-0.00612381,0.00582418
-1.07124,-0.589495,0.760921,0.772702,0.749675,0.00176174,0.00369124
-1.02882,-0.607958,0.777627,0.770256,0.745651,-0.00920367,0.00204925
-0.962141,-0.612685,0.815439,0.790295,0.736291,-0.0248679,0.000826936
-0.948278,-0.617988,0.769238,0.79329,0.72849,-0.0219186,-7.19059e-05
-0.952841,-0.633993,0.713511,0.732194,0.731497,-0.0226987,-0.00033557
-0.905232,-0.637306,0.736749,0.725628,0.730791,-0.0445803,-0.000383484
-0.837011,-0.622548,0.76496,0.778059,0.721181,-0.0738247,-0.000395501
-0.809756,-0.633747,0.733358,0.802385,0.7134,-0.0875068,-0.00080292
-0.799703,-0.6751,0.691279,0.756643,0.714527,-0.0883379,-0.000826936
-0.771575,-0.680916,0.687327,0.709114,0.712652,-0.094829,-0.00124631
-0.717861,-0.674621,0.713379,0.727077,0.705284,-0.11492,-0.00128235
-0.67327,-0.672419,0.716712,0.77179,0.698501,-0.134628,-0.000790943
-0.654499,-0.680062,0.686941,0.759927,0.694891,-0.135701,-4.79323e-05
-0.636659,-0.698053,0.667266,0.746001,0.691579,-0.145389,-0.000155811
-0.606093,-0.709891,0.67226,0.719107,0.69098,-0.16118,-0.000155796
-0.576584,-0.708204,0.677944,0.704572,0.68575,-0.168207,-0.000167766
-0.54327,-0.7155,0.68585,0.727772,0.683655,-0.189691,-8.3887e-05
-0.518929,-0.712422,0.677752,0.726635,0.677582,-0.196489,-0.000107859
-0.497993,-0.719491,0.666112,0.73114,0.675448,-0.206481,-0.00026366
-0.479058,-0.731213,0.655342,0.72316,0.671561,-0.213818,-0.000167788
-0.463839,-0.732855,0.651184,0.682905,0.669376,-0.225969,-0.000155789
-0.442888,-0.736053,0.655517,0.675472,0.663176,-0.233974,-1.19776e-05
-0.421428,-0.742753,0.650609,0.701001,0.661322,-0.244113,-0.000323577
-0.404082,-0.742753,0.636989,0.71103,0.659628,-0.250524,-0.000119842
-0.378513,-0.746816,0.640087,0.717515,0.660498,-0.264893,-0.000886803
-0.352417,-0.752304,0.641352,0.683813,0.658727,-0.272372,-0.00183364
-0.335095,-0.746792,0.625107,0.655354,0.653825,-0.276865,-0.00255257
-0.315732,-0.753802,0.603385,0.686222,0.650347,-0.285172,-0.00227706
-0.300102,-0.753683,0.566733,0.701756,0.647747,-0.284823,-0.00218109
-0.27586,-0.755984,0.544313,0.710251,0.640031,-0.297048,-0.00194149
-0.245611,-0.768651,0.533537,0.705016,0.634708,-0.305327,-0.0011984
-0.225609,-0.757949,0.509426,0.672595,0.629523,-0.312197,-0.000647162
-0.206184,-0.75602,0.488514,0.666643,0.625006,-0.324681,-0.000155789
-0.189343,-0.757278,0.458791,0.689973,0.619283,-0.339306,0
-0.17892,-0.750303,0.414681,0.700809,0.614249,-0.342118,0.00035953
-0.160796,-0.763822,0.38752,0.719623,0.607471,-0.357582,0.000790981
-0.140775,-0.758272,0.359686,0.694362,0.598105,-0.367428,0.000731014
-0.127551,-0.751537,0.328448,0.672607,0.591153,-0.376014,0.00104264
-0.118054,-0.761928,0.285841,0.687555,0.58706,-0.382779,0.00159389
-0.116466,-0.754342,0.225513,0.710359,0.576599,-0.3961,0.00099471
-0.106549,-0.760262,0.185236,0.73059,0.568384,-0.401678,0.000335554
-0.0953848,-0.755804,0.161096,0.733453,0.557002,-0.409907,0.00026366
-0.0942778,-0.731273,0.115969,0.70933,0.548922,-0.420421,0.000443391
-0.0958881,-0.730313,0.0773002,0.708872,0.542065,-0.431718,0.000587252
-0.100869,-0.727378,0.0269519,0.738894,0.534599,-0.437558,0.000443413
-0.106082,-0.725892,-0.0210079,0.775721,0.5239,-0.438205,0.000563227
-0.106339,-0.742106,-0.0498077,0.803299,0.513014,-0.450354,0.00261263
-0.111966,-0.7286,-0.0877824,0.784601,0.50415,-0.451951,0.00673498
-0.120972,-0.727712,-0.128486,0.772798,0.494376,-0.448293,0.0111816
-0.133933,-0.731057,-0.174558,0.812967,0.488753,-0.449961,0.0169453
-0.141453,-0.722451,-0.228173,0.858547,0.477061,-0.451445,0.0257308
-0.142333,-0.738223,-0.25956,0.899048,0.466377,-0.458003,0.0341662
-0.156698,-0.733225,-0.299841,0.881438,0.457866,-0.451613,0.0447262
-0.180706,-0.720966,-0.341015,0.864318,0.445573,-0.461502,0.052274
-0.198284,-0.724908,-0.377369,0.910872,0.440263,-0.466929,0.0575017
-0.214093,-0.719217,-0.418144,0.958273,0.433033,-0.459069,0.0606747
-0.231601,-0.724824,-0.452775,0.985439,0.420685,-0.465707,0.0673291
-0.261238,-0.732771,-0.489305,0.960981,0.415853,-0.461394,0.072407
-0.29386,-0.721828,-0.525557,0.976043,0.406918,-0.44634,0.0822617
-0.30734,-0.727246,-0.550663,1.01378,0.401223,-0.459225,0.0916293
-0.327082,-0.730888,-0.580674,1.05168,0.39292,-0.46742,0.0957324
-0.355947,-0.732603,-0.617617,1.03649,0.388299,-0.453089,0.100605
-0.38535,-0.746516,-0.643006,1.06693,0.378462,-0.458072,0.109634
-0.399509,-0.738787,-0.661934,1.09029,0.370812,-0.45841,0.114986
-0.413981,-0.73857,-0.685958,1.10346,0.367647,-0.454609,0.118191
-0.44367,-0.749213,-0.725221,1.10195,0.362874,-0.453916,0.123938
-0.473257,-0.747127,-0.770125,1.14289,0.35409,-0.44882,0.131302
-0.482869,-0.757434,-0.789754,1.17501,0.346978,-0.447876,0.137264
-0.493607,-0.76055,-0.794778,1.14526,0.340207,-0.465347,0.150058
-0.525604,-0.756475,-0.819475,1.14894,0.332521,-0.487459,0.164132
-0.558452,-0.769537,-0.850789,1.18815,0.325273,-0.495297,0.17191
-0.566029,-0.777772,-0.837862,1.16642,0.320131,-0.516749,0.18431
-0.568363,-0.786135,-0.803572,1.13597,0.314075,-0.547259,0.192306
-0.586235,-0.793411,-0.795832,1.14233,0.30805,-0.551588,0.203893
-0.616311,-0.797915,-0.804614,1.0906,0.300442,-0.555276,0.207526
-0.645594,-0.826369,-0.795101,0.994859,0.307609,-0.565418,0.213061
-0.658938,-0.83515,-0.768567,0.958285,0.304086,-0.571826,0.213746
-0.646649,-0.837706,-0.722822,0.918889,0.301492,-0.580902,0.217855
-0.62754,-0.843754,-0.665673,0.829002,0.292984,-0.598191,0.215184
-0.63186,-0.829125,-0.646421,0.711473,0.301473,-0.589231,0.213744
-0.654839,-0.830536,-0.660507,0.640183,0.306808,-0.575158,0.20912
-0.664038,-0.829569,-0.66574,0.578601,0.309335,-0.567539,0.20587
-0.643011,-0.823249,-0.612883,0.504357,0.311468,-0.558153,0.197819
-0.621805,-0.803119,-0.546506,0.416882,0.315509,-0.548675,0.189955
-0.62857,-0.780491,-0.506981,0.31501,0.321707,-0.547798,0.181509
-0.656308,-0.782326,-0.492264,0.224997,0.332307,-0.540418,0.170851
-0.682678,-0.756691,-0.480556,0.157901,0.339424,-0.513944,0.157781
-0.697931,-0.739829,-0.450438,0.0876668,0.349507,-0.492013,0.144833
-0.699395,-0.718126,-0.386974,-0.00862845,0.357218,-0.488358,0.128408
-0.699872,-0.685359,-0.324097,-0.090615,0.36711,-0.472226,0.11637
-0.703062,-0.665589,-0.284547,-0.16001,0.382413,-0.45581,0.106118
-0.712396,-0.629954,-0.264702,-0.225764,0.394185,-0.438861,0.0891049
-0.717695,-0.593577,-0.244676,-0.292265,0.406898,-0.426365,0.0738811
-0.71864,-0.565226,-0.207812,-0.375811,0.425403,-0.410734,0.0597309
-0.70655,-0.517874,-0.158763,-0.464845,0.438421,-0.403595,0.0514231
-0.681863,-0.480149,-0.106753,-0.531332,0.447567,-0.396465,0.0439451
-0.665009,-0.446543,-0.0762336,-0.580494,0.46151,-0.375739,0.0298894
-0.654012,-0.423884,-0.0648332,-0.647565,0.478955,-0.369513,0.0168614
-0.640717,-0.414329,-0.046488,-0.717813,0.490618,-0.353687,0.00674728
-0.610822,-0.407766,-0.00802925,-0.796621,0.503901,-0.346432,-0.000994662
-0.573555,-0.402057,0.0353064,-0.877123,0.515795,-0.344459,-0.00222912
-0.534556,-0.3913,0.0749117,-0.935239,0.527965,-0.345413,-0.00275631
-0.491234,-0.369974,0.114692,-0.969584,0.536945,-0.344591,-0.00349947
-0.447205,-0.339601,0.147594,-1.01088,0.543956,-0.337121,-0.00281622
-0.40238,-0.313791,0.183351,-1.08428,0.559438,-0.332858,-0.00165387
-0.362766,-0.286309,0.224459,-1.14543,0.568365,-0.340943,-0.0011864
-0.315876,-0.271857,0.260915,-1.16522,0.576791,-0.337089,-0.000982732
-0.262269,-0.268213,0.296962,-1.203,0.584568,-0.345318,-0.0014261
-0.218166,-0.264546,0.32514,-1.27821,0.595334,-0.34036,-0.00198942
-0.180155,-0.260088,0.347403,-1.29766,0.600444,-0.349188,-0.00550065
-0.124399,-0.254443,0.373078,-1.32962,0.605707,-0.342206,-0.0115411
-0.0623765,-0.252574,0.411589,-1.40541,0.613693,-0.352196,-0.0184673
-0.0130152,-0.254419,0.431706,-1.41287,0.617308,-0.360123,-0.0258386
0.0345497,-0.255318,0.436312,-1.43954,0.621785,-0.35965,-0.0303673
0.0861328,-0.258662,0.459187,-1.50485,0.630079,-0.365971,-0.0359296
0.146708,-0.259465,0.471521,-1.49264,0.634306,-0.377914,-0.0475044
0.209981,-0.247996,0.471867,-1.51717,0.638919,-0.371568,-0.0596829
0.278879,-0.241081,0.489904,-1.52993,0.641515,-0.38357,-0.0663432
0.354682,-0.23039,0.484319,-1.4992,0.643828,-0.377776,-0.071979
0.422255,-0.212799,0.476877,-1.51935,0.644411,-0.376104,-0.073929
0.483109,-0.210858,0.477489,-1.49466,0.645235,-0.389958,-0.0755109
0.534881,-0.204708,0.454106,-1.47611,0.648391,-0.376302,-0.0774679
0.564228,-0.206268,0.440194,-1.46771,0.647421,-0.38864,-0.0883696
0.59786,-0.209969,0.433648,-1.4223,0.6482,-0.392925,-0.092964
0.634071,-0.206471,0.432129,-1.39925,0.652099,-0.395351,-0.0954522
0.663499,-0.203198,0.443415,-1.35933,0.647529,-0.405748,-0.093731
0.690443,-0.201079,0.425406,-1.29684,0.652119,-0.395974,-0.0946852
0.703599,-0.200142,0.409415,-1.26808,0.653741,-0.392026,-0.0985607
0.716628,-0.209264,0.408689,-1.23076,0.653653,-0.390665,-0.0975254
0.741291,-0.211143,0.409379,-1.14625,0.650558,-0.385602,-0.0995914
0.778513,-0.217329,0.431494,-1.09475,0.652656,-0.371035,-0.105291
0.808716,-0.224039,0.443056,-1.0474,0.651229,-0.37001,-0.110066
0.819031,-0.233256,0.421919,-0.961916,0.653921,-0.360561,-0.112493
0.828802,-0.249841,0.411596,-0.896562,0.65378,-0.341715,-0.117916
0.858986,-0.256972,0.445755,-0.861526,0.657679,-0.335994,-0.122596
0.897125,-0.258374,0.491186,-0.784435,0.65493,-0.34241,-0.124687
0.921877,-0.267697,0.509617,-0.697214,0.652809,-0.327689,-0.128144
0.921142,-0.289055,0.506825,-0.640345,0.652744,-0.322012,-0.134035
0.911403,-0.311667,0.512542,-0.592582,0.656145,-0.312482,-0.138163
0.927302,-0.317182,0.5609,-0.545152,0.655122,-0.316823,-0.14113
0.946253,-0.325113,0.611098,-0.468033,0.651352,-0.309066,-0.148409
0.937022,-0.350859,0.615441,-0.406887,0.649887,-0.304419,-0.14892
0.9141,-0.377866,0.615999,-0.352352,0.653212,-0.297765,-0.15216
0.924138,-0.396808,0.65994,-0.299158,0.654566,-0.304059,-0.157656
0.951693,-0.402817,0.717048,-0.221883,0.649549,-0.305159,-0.159351
0.947811,-0.41534,0.728468,-0.166984,0.648706,-0.30172,-0.166877
0.912262,-0.433181,0.716806,-0.149471,0.652802,-0.292458,-0.166129
0.910241,-0.452873,0.746336,-0.110923,0.652138,-0.303158,-0.168986
0.946777,-0.449719,0.806474,-0.0344076,0.6454,-0.307619,-0.174207
0.961604,-0.448691,0.830715,0.0311343,0.64071,-0.297777,-0.17656
0.934445,-0.471543,0.814864,0.0413945,0.640261,-0.307031,-0.180187
0.912326,-0.49701,0.808965,0.045527,0.64211,-0.301205,-0.179699
0.940102,-0.513045,0.846754,0.108148,0.637692,-0.304539,-0.185712
0.97372,-0.52999,0.873906,0.180227,0.635053,-0.302259,-0.185679
0.959301,-0.543774,0.851129,0.199506,0.632188,-0.304203,-0.186731
0.935251,-0.552844,0.839572,0.180119,0.633654,-0.293763,-0.18695
0.948791,-0.548891,0.868446,0.209813,0.629983,-0.298295,-0.187618
0.974199,-0.537384,0.888179,0.286105,0.623453,-0.305099,-0.187669
0.960272,-0.554632,0.873588,0.30944,0.619168,-0.310771,-0.190278
0.921877,-0.573084,0.850141,0.286872,0.618468,-0.307736,-0.189143
0.917175,-0.582951,0.855911,0.291056,0.614317,-0.322168,-0.192232
0.932399,-0.581341,0.854216,0.346132,0.612083,-0.327977,-0.191348
0.927195,-0.570355,0.826141,0.36367,0.606321,-0.318573,-0.194844
0.901517,-0.560298,0.79728,0.338391,0.604681,-0.330541,-0.192882
0.900289,-0.543678,0.793495,0.335315,0.600703,-0.332331,-0.195024
0.910636,-0.533466,0.774187,0.371958,0.599485,-0.341435,-0.194835
0.897749,-0.538968,0.721133,0.396017,0.594643,-0.334632,-0.197673
0.859369,-0.552376,0.659321,0.37312,0.589975,-0.345821,-0.196609
0.842608,-0.549215,0.628816,0.347803,0.588622,-0.344687,-0.197241
0.851532,-0.511427,0.616095,0.37197,0.580062,-0.352891,-0.198682
0.847649,-0.470047,0.578429,0.391851,0.5736,-0.355576,-0.200683
0.809135,-0.442744,0.514208,0.382738,0.567146,-0.348582,-0.198715
0.771491,-0.429661,0.461059,0.362047,0.568384,-0.357949,-0.199233
0.767501,-0.411357,0.443799,0.368656,0.562985,-0.369687,-0.199363
0.761688,-0.391839,0.421799,0.391612,0.558567,-0.366625,-0.196884
0.732051,-0.388023,0.370394,0.37665,0.554279,-0.372982,-0.192987
0.686189,-0.377806,0.314099,0.346288,0.554541,-0.371215,-0.191935
0.645103,-0.353112,0.265529,0.346365,0.551921,-0.366499,-0.190698
0.629517,-0.318713,0.251543,0.369753,0.543784,-0.372581,-0.191288
0.617874,-0.280534,0.256768,0.378028,0.536849,-0.364341,-0.188145
0.589646,-0.256421,0.23624,0.374558,0.530247,-0.369465,-0.18834
0.550701,-0.241668,0.195779,0.368057,0.526897,-0.369219,-0.189008
0.52111,-0.2299,0.169082,0.372845,0.521484,-0.364168,-0.188987
0.492648,-0.218418,0.154157,0.383349,0.516408,-0.3624,-0.187306
0.45708,-0.21081,0.147522,0.384014,0.512242,-0.368998,-0.186087
0.428614,-0.199315,0.156518,0.386908,0.504807,-0.365852,-0.186467
0.403488,-0.18955,0.158008,0.396477,0.499894,-0.369106,-0.18635
0.378016,-0.177539,0.163133,0.412471,0.491365,-0.364785,-0.188157
0.353191,-0.172389,0.165966,0.443095,0.482407,-0.35856,-0.183918
0.327729,-0.175058,0.172913,0.456359,0.47405,-0.362975,-0.186959
0.296651,-0.178046,0.187609,0.474337,0.457844,-0.357122,-0.184217
0.259405,-0.185281,0.199434,0.489196,0.447684,-0.361837,-0.185724
0.223537,-0.187896,0.221523,0.513189,0.430694,-0.363677,-0.18206
0.190985,-0.193071,0.245575,0.527738,0.412785,-0.368129,-0.18419
0.156331,-0.195986,0.268668,0.550147,0.396928,-0.370783,-0.182899
0.125448,-0.195482,0.294853,0.57161,0.377293,-0.370676,-0.180682
0.0985727,-0.20617,0.319891,0.618413,0.35641,-0.37043,-0.177359
0.0711247,-0.219127,0.343748,0.64977,0.335915,-0.376476,-0.175517
0.0407953,-0.236371,0.370118,0.687516,0.314646,-0.36989,-0.174063
0.00760981,-0.248727,0.390916,0.716233,0.291277,-0.37016,-0.17439
-0.0203857,-0.259753,0.414377,0.7338,0.267264,-0.37774,-0.173045
-0.0452514,-0.275631,0.438241,0.75977,0.246083,-0.371742,-0.16992
-0.0722067,-0.293453,0.452823,0.80971,0.220477,-0.376853,-0.170564
-0.0959435,-0.316388,0.465564,0.853209,0.195175,-0.37952,-0.168866
-0.118084,-0.33589,0.482629,0.890306,0.169912,-0.382091,-0.170636
-0.146204,-0.349596,0.500342,0.890527,0.143175,-0.384026,-0.166577
-0.181302,-0.365073,0.510996,0.912142,0.114131,-0.394878,-0.166034
-0.209,-0.390006,0.511379,0.958572,0.0885278,-0.387477,-0.167116
-0.230786,-0.415731,0.507736,1.00555,0.0633358,-0.390755,-0.164751
-0.256708,-0.430583,0.508731,1.01473,0.0394416,-0.399066,-0.16853
-0.289882,-0.436249,0.51591,1.00986,0.0145923,-0.388059,-0.162558
-0.319995,-0.437953,0.514543,1.0515,-0.00966384,-0.39903,-0.163785
-0.333865,-0.445429,0.511607,1.08847,-0.0235088,-0.40268,-0.165267
-0.354917,-0.46167,0.50637,1.09304,-0.0435065,-0.400456,-0.164504
-0.395034,-0.477607,0.479105,1.09408,-0.066308,-0.41464,-0.166225
-0.423573,-0.49423,0.44645,1.12816,-0.0889305,-0.41087,-0.162071
-0.427212,-0.517647,0.424719,1.13915,-0.111312,-0.415683,-0.165338
-0.442567,-0.531848,0.388951,1.11338,-0.128142,-0.41202,-0.166122
-0.470452,-0.528685,0.340672,1.13457,-0.144198,-0.414365,-0.162606
-0.490659,-0.517503,0.303374,1.14785,-0.161563,-0.414765,-0.162107
-0.510372,-0.508,0.284211,1.11276,-0.184783,-0.407131,-0.16007
-0.547813,-0.510852,0.24657,1.09721,-0.206345,-0.42128,-0.160964
-0.583475,-0.516748,0.197519,1.11167,-0.227273,-0.424975,-0.159578
-0.594768,-0.525437,0.169197,1.09347,-0.253823,-0.422143,-0.161971
-0.606604,-0.537696,0.136785,1.03698,-0.277472,-0.433831,-0.161136
-0.632591,-0.529464,0.0644408,1.02463,-0.298463,-0.426242,-0.160413
-0.649938,-0.513944,-0.000695061,1.0213,-0.315629,-0.420972,-0.162958
-0.663092,-0.50311,-0.0323702,0.979076,-0.337695,-0.428123,-0.163469
-0.687687,-0.489341,-0.0594763,0.931273,-0.359135,-0.417413,-0.167691
-0.713858,-0.487602,-0.0971705,0.92626,-0.379881,-0.421867,-0.164152
-0.723831,-0.490791,-0.130122,0.908348,-0.394051,-0.432345,-0.164959
-0.73428,-0.498784,-0.172206,0.861148,-0.415278,-0.421759,-0.168718
-0.769274,-0.495153,-0.240877,0.785057,-0.432899,-0.421404,-0.169189
-0.807697,-0.472777,-0.303568,0.746156,-0.445575,-0.423821,-0.173464
-0.805753,-0.452873,-0.318845,0.727606,-0.463846,-0.420109,-0.169621
-0.791362,-0.431047,-0.323594,0.712612,-0.485536,-0.424492,-0.172865
-0.808497,-0.41063,-0.364144,0.669124,-0.502099,-0.415759,-0.174271
-0.860812,-0.404717,-0.426973,0.598351,-0.513091,-0.421831,-0.176148
-0.902032,-0.402745,-0.472515,0.525688,-0.524859,-0.422974,-0.177746
-0.902219,-0.403938,-0.487315,0.505064,-0.544136,-0.414461,-0.177383
-0.89604,-0.399952,-0.506586,0.490719,-0.555557,-0.419582,-0.181221
-0.918865,-0.391079,-0.559521,0.43795,-0.565593,-0.421088,-0.179756
-0.964313,-0.363893,-0.620577,0.36738,-0.578508,-0.411169,-0.180526
-0.969788,-0.331839,-0.629463,0.306708,-0.589984,-0.411608,-0.179624
-0.94394,-0.29852,-0.6064,0.286632,-0.602917,-0.413518,-0.180071
-0.95137,-0.285841,-0.628474,0.257607,-0.614096,-0.420733,-0.179687
-1.01433,-0.280725,-0.700256,0.195863,-0.626378,-0.406647,-0.183219
-1.04954,-0.27786,-0.739685,0.113356,-0.631372,-0.40181,-0.182036
-1.02634,-0.269088,-0.724536,0.089081,-0.643061,-0.423018,-0.185844
-1.0168,-0.255366,-0.748122,0.0669064,-0.665291,-0.428654,-0.197891
-1.06106,-0.242627,-0.803227,0.0216321,-0.681334,-0.414029,-0.190602
-1.0825,-0.226413,-0.810007,-0.0484751,-0.674188,-0.414249,-0.182827
-1.06903,-0.203917,-0.804149,-0.0584605,-0.678573,-0.406048,-0.185281
-1.07911,-0.197376,-0.832237,-0.0654204,-0.687553,-0.3971,-0.187585
-1.11987,-0.201819,-0.859997,-0.136516,-0.690059,-0.399971,-0.190806
-1.12031,-0.200503,-0.846954,-0.194044,-0.695529,-0.411014,-0.192522
-1.10029,-0.187378,-0.849163,-0.195024,-0.70446,-0.406982,-0.191261
-1.14017,-0.180874,-0.910265,-0.210246,-0.714474,-0.385727,-0.195147
-1.17729,-0.176916,-0.926272,-0.28063,-0.712744,-0.402117,-0.196306
-1.14418,-0.149692,-0.867063,-0.312218,-0.722584,-0.406579,-0.197519
-1.13133,-0.127755,-0.868722,-0.299277,-0.732954,-0.395849,-0.19651
-1.18693,-0.140488,-0.945809,-0.342166,-0.734492,-0.395279,-0.200743
-1.20041,-0.150106,-0.950229,-0.38746,-0.735735,-0.401254,-0.199458
-1.16118,-0.139721,-0.903518,-0.388304,-0.741835,-0.408557,-0.197196
-1.18196,-0.131674,-0.929747,-0.399049,-0.75119,-0.397035,-0.196199
-1.22006,-0.139026,-0.969657,-0.441728,-0.750981,-0.403068,-0.195914
-1.20534,-0.13817,-0.951955,-0.454405,-0.753376,-0.405376,-0.195971
-1.20433,-0.134376,-0.944311,-0.456373,-0.761949,-0.394967,-0.19535
-1.22798,-0.134406,-0.962801,-0.499838,-0.764766,-0.409223,-0.194736
-1.21962,-0.132399,-0.956751,-0.51664,-0.765899,-0.403344,-0.193876
-1.22247,-0.137588,-0.979616,-0.521386,-0.766321,-0.392522,-0.194859
-1.25074,-0.152383,-1.00554,-0.550114,-0.766588,-0.407953,-0.194281
-1.23393,-0.154245,-0.974044,-0.564192,-0.771575,-0.410474,-0.192163
-1.22026,-0.141465,-0.973047,-0.549862,-0.773797,-0.406203,-0.193107
-1.26014,-0.149787,-1.03342,-0.573144,-0.771843,-0.400336,-0.19426
-1.25776,-0.161156,-1.02211,-0.618389,-0.773989,-0.413933,-0.195851
-1.22602,-0.147163,-0.984577,-0.615723,-0.777672,-0.410942,-0.192306
-1.25555,-0.14439,-1.03528,-0.621026,-0.777402,-0.394602,-0.195803
-1.27705,-0.159422,-1.06813,-0.651304,-0.775122,-0.411145,-0.194032
-1.2443,-0.157668,-1.03136,-0.65656,-0.775983,-0.412016,-0.195731
-1.25239,-0.151717,-1.04694,-0.643059,-0.777902,-0.405477,-0.192918
-1.2776,-0.155607,-1.0938,-0.670055,-0.777652,-0.412052,-0.196822
-1.26105,-0.149452,-1.08833,-0.709606,-0.777902,-0.412895,-0.193625
-1.2606,-0.142939,-1.09008,-0.724309,-0.777479,-0.415911,-0.193202
-1.27422,-0.14672,-1.11578,-0.720679,-0.777825,-0.41208,-0.190245
-1.2604,-0.144893,-1.12861,-0.719515,-0.779071,-0.412124,-0.19047
-1.26219,-0.14195,-1.14685,-0.731596,-0.77541,-0.41685,-0.188591
-1.27231,-0.143551,-1.1587,-0.763846,-0.770557,-0.407426,-0.189571
-1.25911,-0.130553,-1.15796,-0.775697,-0.775448,-0.411145,-0.187381
-1.26607,-0.127659,-1.18812,-0.781894,-0.771707,-0.415647,-0.18866
-1.276,-0.138726,-1.20501,-0.793409,-0.766283,-0.409468,-0.187429
-1.25212,-0.130835,-1.19499,-0.778167,-0.770634,-0.416103,-0.187762
-1.25521,-0.127737,-1.22826,-0.781318,-0.770884,-0.413111,-0.183738
-1.28097,-0.137295,-1.24747,-0.836795,-0.76118,-0.416522,-0.186
-1.2624,-0.126646,-1.22714,-0.837103,-0.763311,-0.420816,-0.183534
-1.24832,-0.12431,-1.25482,-0.799282,-0.76565,-0.405848,-0.187237
-1.2691,-0.148824,-1.28666,-0.812215,-0.757767,-0.415911,-0.183855
-1.25704,-0.145054,-1.26929,-0.839452,-0.754778,-0.417257,-0.18351
-1.25239,-0.12887,-1.28069,-0.833907,-0.762081,-0.407162,-0.185688
-1.27513,-0.150746,-1.30971,-0.847433,-0.755679,-0.415771,-0.185452
-1.25664,-0.156961,-1.29647,-0.840786,-0.752532,-0.417109,-0.184897
-1.23525,-0.141902,-1.30757,-0.80193,-0.757942,-0.416167,-0.182084
-1.25573,-0.164164,-1.3315,-0.845304,-0.751343,-0.417565,-0.184226
-1.26066,-0.168219,-1.31939,-0.866943,-0.747012,-0.4183,-0.180346
-1.2419,-0.150586,-1.32717,-0.829113,-0.749541,-0.422454,-0.178821
-1.24523,-0.17783,-1.34164,-0.824652,-0.746686,-0.417593,-0.174846
-1.24506,-0.192675,-1.33981,-0.834494,-0.743501,-0.415228,-0.174555
-1.23326,-0.1762,-1.34402,-0.833016,-0.743254,-0.424448,-0.172665
-1.24759,-0.192364,-1.34885,-0.844969,-0.741775,-0.422251,-0.172337
-1.24937,-0.204482,-1.34967,-0.842544,-0.739937,-0.417617,-0.170388
-1.22511,-0.200465,-1.34792,-0.806522,-0.740989,-0.426026,-0.169293
-1.22076,-0.219618,-1.34599,-0.81824,-0.735719,-0.427503,-0.168602
-1.23955,-0.222589,-1.35601,-0.844909,-0.732436,-0.430496,-0.166465
-1.23134,-0.216562,-1.35028,-0.835162,-0.735738,-0.422674,-0.166912
-1.2078,-0.233327,-1.33227,-0.822318,-0.734028,-0.425558,-0.161647
-1.21935,-0.245287,-1.35419,-0.801247,-0.734338,-0.435401,-0.162263
-1.21899,-0.252861,-1.35845,-0.824799,-0.729234,-0.423521,-0.160844
-1.20284,-0.257475,-1.32397,-0.838996,-0.733705,-0.430032,-0.160513
-1.21593,-0.26294,-1.34789,-0.821347,-0.73025,-0.438406,-0.163792
-1.21128,-0.288825,-1.35965,-0.821464,-0.72431,-0.433196,-0.157613
-1.17416,-0.303817,-1.32599,-0.806963,-0.729238,-0.442232,-0.158967
-1.18081,-0.302993,-1.34641,-0.815487,-0.72492,-0.438346,-0.159898
-1.20351,-0.326239,-1.35856,-0.853161,-0.716928,-0.435245,-0.158883
-1.17136,-0.337352,-1.32067,-0.848984,-0.718918,-0.446855,-0.15967
-1.15367,-0.337432,-1.33039,-0.800073,-0.722757,-0.442663,-0.154593
-1.16982,-0.362891,-1.35401,-0.832409,-0.715869,-0.433888,-0.158651
-1.14852,-0.371766,-1.31336,-0.872635,-0.712269,-0.445863,-0.160321
-1.13495,-0.341151,-1.30978,-0.841254,-0.718304,-0.448425,-0.156146
-1.14878,-0.369513,-1.3317,-0.861718,-0.708376,-0.443143,-0.156798
-1.13402,-0.390564,-1.30937,-0.859794,-0.706109,-0.457581,-0.153965
-1.09996,-0.378561,-1.29994,-0.841417,-0.71083,-0.453509,-0.154209
-1.1104,-0.403651,-1.31234,-0.876248,-0.703885,-0.45081,-0.153234
-1.12254,-0.424364,-1.31702,-0.904776,-0.697313,-0.45829,-0.154521
-1.08695,-0.424264,-1.30621,-0.877818,-0.701277,-0.453554,-0.155116
-1.0547,-0.446043,-1.29881,-0.867386,-0.700841,-0.452334,-0.151741
-1.06337,-0.460278,-1.30775,-0.916193,-0.692092,-0.453914,-0.154696
-1.07047,-0.446186,-1.30876,-0.931381,-0.691599,-0.457176,-0.155012
-1.03725,-0.449563,-1.28086,-0.938424,-0.68772,-0.456766,-0.155427
-1.01409,-0.458482,-1.27338,-0.912913,-0.688205,-0.465756,-0.155456
-1.02753,-0.473353,-1.30432,-0.937321,-0.681334,-0.462615,-0.15206
-1.02997,-0.488729,-1.29686,-0.976428,-0.675799,-0.460975,-0.154521
-0.993097,-0.487758,-1.26778,-0.959169,-0.675141,-0.470201,-0.154528
-0.971407,-0.50021,-1.28021,-0.934341,-0.675166,-0.473893,-0.153826
-0.98212,-0.523052,-1.30575,-0.984768,-0.664249,-0.460589,-0.158663
-0.96744,-0.512326,-1.28093,-1.01463,-0.66416,-0.463839,-0.154102
-0.925772,-0.488538,-1.25111,-0.982265,-0.665694,-0.473702,-0.155456
-0.916217,-0.501337,-1.26504,-0.99541,-0.656982,-0.467324,-0.158531
-0.927714,-0.528025,-1.28138,-1.03737,-0.652866,-0.465373,-0.15717
-0.915258,-0.534498,-1.26794,-1.04323,-0.648238,-0.478578,-0.159969
-0.883984,-0.545462,-1.25225,-1.03214,-0.643529,-0.472911,-0.156582
-0.864036,-0.567203,-1.25893,-1.03183,-0.642946,-0.465623,-0.157932
-0.862916,-0.567128,-1.27651,-1.06947,-0.638927,-0.468201,-0.16092
-0.861879,-0.556357,-1.26685,-1.10008,-0.629024,-0.473461,-0.157261
-0.826857,-0.545426,-1.23477,-1.08498,-0.630567,-0.467122,-0.157673
-0.781055,-0.546494,-1.21445,-1.06345,-0.634777,-0.481478,-0.155224
-0.77946,-0.562467,-1.23559,-1.11475,-0.618813,-0.478819,-0.155624
-0.800326,-0.5856,-1.24852,-1.13172,-0.611633,-0.475738,-0.156458
-0.780287,-0.604159,-1.23266,-1.12058,-0.612044,-0.476674,-0.156439
-0.733201,-0.603612,-1.20925,-1.1355,-0.603732,-0.478027,-0.158232
-0.707317,-0.588831,-1.19715,-1.16152,-0.59728,-0.475895,-0.155072
-0.702832,-0.584749,-1.20054,-1.15219,-0.599149,-0.47201,-0.157357
-0.695225,-0.605585,-1.20023,-1.17007,-0.591624,-0.475835,-0.157757
-0.682722,-0.614422,-1.18624,-1.21276,-0.576772,-0.481622,-0.157968
-0.654444,-0.622195,-1.15679,-1.18069,-0.579736,-0.485853,-0.159135
-0.615429,-0.644432,-1.14334,-1.17152,-0.578689,-0.477415,-0.154708
-0.597879,-0.64675,-1.15365,-1.22635,-0.559718,-0.477165,-0.156486
-0.598795,-0.63482,-1.15277,-1.23962,-0.559821,-0.47889,-0.157848
-0.57511,-0.640446,-1.12159,-1.21041,-0.556707,-0.472539,-0.157769
-0.546015,-0.649226,-1.09656,-1.23544,-0.546053,-0.478146,-0.161851
-0.534137,-0.65575,-1.07883,-1.25663,-0.539853,-0.493715,-0.157601
-0.514028,-0.678555,-1.07053,-1.22649,-0.536306,-0.484104,-0.159399
-0.473365,-0.689877,-1.0608,-1.25509,-0.530943,-0.479405,-0.161551
-0.444629,-0.667949,-1.04561,-1.28802,-0.521868,-0.485518,-0.160058
-0.429022,-0.67643,-1.02692,-1.25673,-0.515526,-0.485385,-0.162282
-0.404243,-0.709198,-0.990989,-1.25722,-0.510171,-0.483972,-0.158572
-0.392062,-0.708453,-0.965773,-1.29279,-0.502008,-0.486416,-0.161144
-0.39094,-0.71374,-0.963773,-1.27899,-0.492953,-0.493463,-0.163533
-0.365744,-0.732949,-0.947281,-1.2985,-0.485057,-0.486152,-0.160029
-0.319181,-0.714052,-0.89864,-1.32449,-0.478361,-0.480568,-0.15989
-0.2787,-0.714925,-0.873288,-1.27844,-0.470273,-0.496471,-0.156038
-0.256361,-0.748182,-0.859836,-1.27199,-0.463501,-0.498928,-0.156211
-0.252226,-0.76188,-0.832685,-1.31592,-0.450714,-0.479093,-0.155236
-0.240302,-0.750735,-0.807634,-1.29189,-0.446666,-0.48831,-0.15512
-0.197289,-0.75759,-0.764121,-1.30389,-0.440743,-0.492624,-0.155859
-0.17348,-0.759219,-0.73192,-1.3181,-0.430368,-0.47919,-0.15252
-0.1671,-0.762228,-0.721996,-1.27766,-0.426496,-0.485924,-0.154157
-0.152676,-0.793757,-0.692361,-1.28653,-0.413648,-0.496711,-0.153035
-0.135305,-0.790283,-0.652569,-1.31727,-0.404885,-0.490203,-0.153594
-0.111091,-0.766458,-0.613195,-1.29122,-0.401817,-0.486237,-0.152915
-0.0776357,-0.793184,-0.578037,-1.28931,-0.391213,-0.485014,-0.147793
-0.0630835,-0.808581,-0.556942,-1.29606,-0.380419,-0.490359,-0.148625
-0.0551048,-0.805755,-0.539771,-1.26431,-0.373591,-0.493043,-0.150202
-0.0288334,-0.812476,-0.514004,-1.28256,-0.376392,-0.497765,-0.15802
0.00134226,-0.796228,-0.464784,-1.32992,-0.366477,-0.492252,-0.150609
0.0195219,-0.799413,-0.418743,-1.28268,-0.349433,-0.494134,-0.142861
0.0299479,-0.836755,-0.400576,-1.25127,-0.338772,-0.487867,-0.143208
0.0370801,-0.840582,-0.38124,-1.27823,-0.326094,-0.472801,-0.146655
0.0532806,-0.802326,-0.356535,-1.24614,-0.32652,-0.477908,-0.142657
0.092916,-0.79733,-0.306624,-1.24715,-0.314416,-0.476948,-0.143371
0.114351,-0.814909,-0.278339,-1.26429,-0.303606,-0.466248,-0.141794
0.105955,-0.822042,-0.283925,-1.21548,-0.300591,-0.474791,-0.13485
0.112194,-0.837355,-0.280245,-1.20696,-0.285122,-0.473414,-0.137048
0.138745,-0.808763,-0.26143,-1.2461,-0.27666,-0.469278,-0.137007
0.163042,-0.766086,-0.232956,-1.23396,-0.275439,-0.465876,-0.130769
0.185928,-0.792512,-0.22459,-1.19705,-0.262528,-0.472094,-0.128067
0.19891,-0.811313,-0.246726,-1.19711,-0.254462,-0.484367,-0.124897
0.199375,-0.786616,-0.261023,-1.19809,-0.248569,-0.46488,-0.120816
0.217796,-0.749632,-0.259249,-1.17856,-0.240178,-0.459381,-0.121062
0.253221,-0.729702,-0.252885,-1.20395,-0.235453,-0.477787,-0.119486
0.271149,-0.720247,-0.264546,-1.1916,-0.228155,-0.468728,-0.115453
0.272828,-0.714301,-0.299889,-1.13262,-0.226249,-0.468595,-0.115279
0.286368,-0.71205,-0.326826,-1.14021,-0.216095,-0.476158,-0.11495
0.308913,-0.669252,-0.341499,-1.15971,-0.206862,-0.471998,-0.109479
0.333166,-0.622542,-0.350974,-1.13777,-0.207504,-0.459381,-0.108311
0.358948,-0.616316,-0.37472,-1.10697,-0.200803,-0.46168,-0.109143
0.375757,-0.612428,-0.417557,-1.09242,-0.192223,-0.471952,-0.106082
0.374948,-0.575724,-0.445848,-1.08289,-0.188627,-0.459666,-0.103235
0.375349,-0.5437,-0.469555,-1.0538,-0.180929,-0.45382,-0.10293
0.391822,-0.526732,-0.501492,-1.03429,-0.169605,-0.4647,-0.102743
0.402529,-0.49127,-0.53283,-1.02482,-0.159473,-0.453904,-0.097046
0.398706,-0.44029,-0.55669,-0.994296,-0.155082,-0.449111,-0.0917971
0.405796,-0.402704,-0.587026,-0.950025,-0.148493,-0.456335,-0.0900996
0.422219,-0.376787,-0.620709,-0.899779,-0.141506,-0.450165,-0.0934389
0.436632,-0.346664,-0.646853,-0.876716,-0.132578,-0.423641,-0.0906989
0.435497,-0.315178,-0.673174,-0.82434,-0.122869,-0.424771,-0.0853976
0.435781,-0.291655,-0.710526,-0.760238,-0.122376,-0.4153,-0.0816026
0.440614,-0.258985,-0.726299,-0.693403,-0.128219,-0.386039,-0.078423
0.441342,-0.217927,-0.727892,-0.646409,-0.137947,-0.370034,-0.0744119
0.418192,-0.168123,-0.720907,-0.614705,-0.149464,-0.36279,-0.0630236
0.387939,-0.12404,-0.719491,-0.589267,-0.168857,-0.324289,-0.0480819
0.380419,-0.101444,-0.709558,-0.528792,-0.196096,-0.301181,-0.0352807
0.402272,-0.0788941,-0.695306,-0.472058,-0.221378,-0.285903,-0.0272408
0.420517,-0.0413207,-0.685098,-0.422638,-0.24988,-0.250033,-0.0196058
0.433157,-0.0052013,-0.683357,-0.395274,-0.27946,-0.218022,-0.011625
0.439775,0.0198454,-0.678268,-0.37469,-0.30537,-0.193493,-0.00281622
0.44465,0.0526241,-0.679103,-0.360806,-0.337542,-0.161935,0.00249278
0.447277,0.0856733,-0.675212,-0.329918,-0.367802,-0.1344,0.0028282
0.447418,0.126904,-0.670378,-0.310711,-0.395892,-0.10985,0.00239692
0.44077,0.173564,-0.666499,-0.294925,-0.422027,-0.0898557,0.0042543
0.439616,0.213468,-0.663655,-0.27737,-0.450656,-0.0669336,0.00545296
0.450297,0.246354,-0.644761,-0.240134,-0.47675,-0.043322,0.00527293
0.470297,0.281277,-0.610348,-0.195048,-0.498805,-0.0151964,0.00498557
0.495464,0.312158,-0.556247,-0.149596,-0.525376,0.00243276,0.00497333
0.51422,0.348582,-0.486356,-0.09137,-0.543848,0.00862884,0.00581248
0.514387,0.379496,-0.416634,-0.0510277,-0.564454,0.010474,0.0101984
0.49876,0.409959,-0.343077,-0.0124393,-0.582554,0.00873631,0.0214513
0.482952,0.435649,-0.262916,0.0228185,-0.598402,0.00524921,0.0349109
0.473522,0.461406,-0.18242,0.0656481,-0.614249,0.000263648,0.0491342
0.476325,0.500522,-0.10194,0.109706,-0.628641,0.000527321,0.0583766
0.490036,0.544371,-0.0220984,0.149404,-0.63839,0.00249267,0.0639823
0.522537,0.591856,0.0551288,0.189116,-0.652495,0.00568066,0.070493
0.558308,0.629517,0.136389,0.242411,-0.661322,0.00935946,0.0831566
0.577822,0.651359,0.218586,0.288575,-0.666263,0.0121403,0.096008
0.573911,0.667302,0.293583,0.327917,-0.672233,0.00890407,0.10595
0.563308,0.688643,0.367362,0.361609,-0.672629,0.010822,0.111744
0.561987,0.737265,0.441501,0.390869,-0.675013,0.0138175,0.118773
0.57914,0.798541,0.523843,0.416774,-0.679244,0.0166225,0.129816
0.614405,0.839008,0.606867,0.455965,-0.67741,0.0155192,0.13295
0.644719,0.855539,0.680541,0.496291,-0.678707,0.0137942,0.136576
0.662377,0.86614,0.741639,0.539877,-0.67346,0.0162622,0.144215
0.670151,0.903261,0.798205,0.570427,-0.67284,0.0179049,0.14729
0.680892,0.95246,0.866679,0.575242,-0.666308,0.0195698,0.152016
0.702784,0.971118,0.934361,0.613895,-0.65982,0.0143694,0.159886
0.738906,0.973133,0.995782,0.650141,-0.65116,0.0109653,0.161196
0.769191,1.02029,1.03619,0.687192,-0.645323,0.0126077,0.167316
0.779364,1.08188,1.07681,0.678891,-0.640039,0.0160465,0.170436
0.775566,1.09165,1.12885,0.695306,-0.627069,0.00722667,0.175777
0.794656,1.08806,1.17312,0.735371,-0.614326,0.00130624,0.179148
0.849187,1.13751,1.20358,0.78392,-0.610022,0.00161792,0.18111
0.898988,1.19135,1.24324,0.770484,-0.598277,0.00444606,0.180251
0.902523,1.19234,1.27981,0.771838,-0.576246,-0.00248069,0.181545
0.89685,1.20552,1.2813,0.799727,-0.560684,0.00197744,0.185329
0.926287,1.24869,1.3022,0.808617,-0.550015,-0.000671086,0.183882
0.988208,1.2548,1.36197,0.850146,-0.525114,-0.00819743,0.187258
1.01746,1.27636,1.37009,0.868201,-0.510708,-0.000563248,0.186446
0.999186,1.34181,1.35347,0.81478,-0.48964,0.00607617,0.192531
1.02813,1.33374,1.3915,0.825407,-0.456886,-0.00848464,0.188064
1.09598,1.33046,1.40668,0.919848,-0.446112,-0.00776597,0.191764
1.11856,1.3928,1.39805,0.913824,-0.426705,0.0060399,0.191599
1.11437,1.38427,1.43584,0.839204,-0.381472,-0.00364329,0.194065
1.12816,1.40953,1.41977,0.899264,-0.364216,-0.00210918,0.192834
1.17461,1.46943,1.40827,0.907013,-0.342259,0.00778995,0.192807
1.21626,1.42736,1.45496,0.907844,-0.300634,-0.0105938,0.191623
1.22641,1.46409,1.42435,0.935728,-0.280208,0.00248081,0.193598
1.24634,1.51683,1.43575,0.892744,-0.24848,0.00245671,0.193133
1.27573,1.48042,1.45347,0.912322,-0.209624,-0.00625594,0.193562
1.28044,1.53355,1.39672,0.963773,-0.190535,0.00710649,0.194907
1.33414,1.52659,1.45314,0.913484,-0.152769,-0.00835322,0.197169
1.36056,1.5373,1.45134,0.94249,-0.126129,-0.00599197,0.196045
1.33957,1.60114,1.38951,0.948647,-0.106653,0.00575257,0.195707
1.38946,1.535,1.45567,0.925544,-0.0561424,-0.0173647,0.190053
1.4147,1.60123,1.40435,0.994572,-0.0471711,-0.00125839,0.194089
1.41854,1.60708,1.41224,0.924418,-0.0126167,-0.00510515,0.191
1.45269,1.58326,1.44693,0.962837,0.00931917,-0.0133028,0.191405
1.45285,1.66607,1.36821,1.00094,0.00669182,0.00855654,0.188843
1.48694,1.58805,1.43117,0.94533,0.0491055,-0.0130745,0.19124
1.51365,1.65757,1.40296,1.0001,0.0566628,0.00562075,0.189331
1.50414,1.66473,1.38743,0.980012,0.0726515,0.00203725,0.186291
1.53012,1.62472,1.41209,0.992247,0.0948024,-0.0026246,0.186515
1.5498,1.69844,1.36597,1.02637,0.0906562,0.0132303,0.186267
1.57291,1.63623,1.41007,0.976283,0.127074,-0.0020134,0.185772
1.56913,1.70318,1.37234,1.03793,0.128966,0.00401462,0.183175
1.58293,1.66831,1.37448,1.01734,0.153095,-0.00244483,0.182596
1.60652,1.6792,1.38052,1.0374,0.164861,0.00443406,0.179651
1.61633,1.71137,1.36017,1.02101,0.168723,0.0124759,0.182093
1.61633,1.71137,1.36017,1.02101,0.168723,0.0124759,0.182093
1.61633,1.71137,1.36017,1.02101,0.168723,0.0124759,0.182093
1.61633,1.71137,1.36017,1.02101,0.168723,0.0124759,0.182093
