Afshin1997/kuka_rl_ros2/src/catch_and_throw/output_files/tm/nn_ema2.00_jvws1_realball_D24H16M27S13/recorded_data.csv
pure_target_joint_0,pure_target_joint_1,pure_target_joint_2,pure_target_joint_3,pure_target_joint_4,pure_target_joint_5,pure_target_joint_6,target_joint_0,target_joint_1,target_joint_2,target_joint_3,target_joint_4,target_joint_5,target_joint_6,pos_joint_0,pos_joint_1,pos_joint_2,pos_joint_3,pos_joint_4,pos_joint_5,pos_joint_6,vel_joint_0,vel_joint_1,vel_joint_2,vel_joint_3,vel_joint_4,vel_joint_5,vel_joint_6,vel_smooth_joint_0,vel_smooth_joint_1,vel_smooth_joint_2,vel_smooth_joint_3,vel_smooth_joint_4,vel_smooth_joint_5,vel_smooth_joint_6,ee_pos_x,ee_pos_y,ee_pos_z,ee_or_w,ee_or_x,ee_or_y,ee_or_z,ee_vel_x,ee_vel_y,ee_vel_z,ball_pos_x,ball_pos_y,ball_pos_z,ball_raw_vx,ball_raw_vy,ball_raw_vz,ball_ema_vx,ball_ema_vy,ball_ema_vz,action_0,action_1,action_2,action_3,action_4,action_5,action_6,command_published
1.71303,-1.02082,-1.77916,-1.15808,2.0072,1.18404,-0.937985,1.71303,-1.02082,-1.77916,-1.15808,2.0072,1.18404,-0.937985,1.78105,-1.07148,-1.81517,-1.11972,1.93712,1.11684,-0.916294,0,1.19994e-05,2.39771e-05,1.19776e-05,0,3.59547e-05,1.19994e-05,0,1.19994e-05,2.39771e-05,1.19776e-05,0,3.59547e-05,1.19994e-05,0.532407,-0.455354,0.689807,0.572503,0.178068,0.150983,0.785962,7.62686e-06,-5.44034e-06,-1.99168e-05,2.98871,-0.520193,0.215926,-3.2625,0.11242,5.58487,-3.2625,0.11242,5.58487,-0.68013,0.506605,0.360074,-0.383672,0.700798,0.671992,-0.21691,1
1.71203,-1.02197,-1.77859,-1.15469,2.00776,1.18306,-0.942237,1.71203,-1.02197,-1.77859,-1.15469,2.00776,1.18306,-0.942237,1.78104,-1.07147,-1.81517,-1.11971,1.93712,1.11684,-0.916294,-0.00170178,0.00183364,0.000107864,0.00180967,-0.000134219,-3.59547e-05,-3.59547e-05,-0.00170178,0.00183364,0.000107864,0.00180967,-0.000134219,-3.59547e-05,-3.59547e-05,0.532401,-0.455359,0.689815,0.572511,0.178063,0.150984,0.785957,-8.00692e-06,-2.48627e-05,5.54327e-06,2.95588,-0.518593,0.271825,-3.28298,0.159961,5.58986,-3.28298,0.159961,5.58986,-0.690053,0.494956,0.365824,-0.349862,0.706382,0.662216,-0.259428,1
1.71243,-1.02036,-1.77924,-1.15812,2.00809,1.18236,-0.941164,1.71243,-1.02036,-1.77924,-1.15812,2.00809,1.18236,-0.941164,1.78115,-1.07126,-1.81507,-1.12013,1.93721,1.11696,-0.916413,0.0166585,0.0322384,0.0189595,-0.0554883,0.0189643,0.0244724,-0.0236335,0.0166585,0.0322384,0.0189595,-0.0554883,0.0189643,0.0244724,-0.0236335,0.532478,-0.455062,0.689877,0.572357,0.177968,0.151054,0.786077,0.0100648,0.0408004,0.0130881,2.92314,-0.516682,0.327113,-3.27377,0.191134,5.52884,-3.27377,0.191134,5.52884,-0.687144,0.508941,0.358285,-0.379904,0.708744,0.653999,-0.247516,1
1.71235,-1.01034,-1.7793,-1.14587,2.01085,1.18496,-0.940936,1.71235,-1.01034,-1.7793,-1.14587,2.01085,1.18496,-0.940936,1.78122,-1.07037,-1.81347,-1.12228,1.94033,1.12004,-0.918106,-0.0096835,0.103331,0.20889,-0.268465,0.46103,0.439856,-0.209969,-0.0096835,0.103331,0.20889,-0.268465,0.46103,0.439856,-0.209969,0.53211,-0.453891,0.690737,0.571892,0.17643,0.14956,0.787047,0.00201157,0.103659,0.0544793,2.88931,-0.514635,0.381117,-3.3834,0.204694,5.4004,-3.3834,0.204694,5.4004,-0.688647,0.60029,0.341728,-0.235914,0.70525,0.649235,-0.228293,1
1.7139,-1.00749,-1.77212,-1.14628,2.02032,1.19283,-0.938966,1.7139,-1.00749,-1.77212,-1.14628,2.02032,1.19283,-0.938966,1.77987,-1.06949,-1.81028,-1.12673,1.95014,1.12809,-0.921353,-0.174998,0.0772522,0.36053,-0.499359,1.14699,0.915905,-0.369639,-0.174998,0.0772522,0.36053,-0.499359,1.14699,0.915905,-0.369639,0.531404,-0.453374,0.691399,0.571534,0.175105,0.147396,0.788011,-0.103386,0.116161,0.112705,2.85625,-0.51292,0.433784,-3.30648,0.171524,5.26663,-3.30648,0.171524,5.26663,-0.659645,0.619994,0.381693,-0.195492,0.701862,0.647341,-0.176121,1
1.71007,-1.00399,-1.76673,-1.15338,2.03621,1.20045,-0.93482,1.71007,-1.00399,-1.76673,-1.15338,2.03621,1.20045,-0.93482,1.77744,-1.06884,-1.80548,-1.13296,1.96504,1.13925,-0.925906,-0.259441,0.0649441,0.511068,-0.660371,1.57038,1.15448,-0.4711,-0.259441,0.0649441,0.511068,-0.660371,1.57038,1.15448,-0.4711,0.529049,-0.452712,0.69298,0.570688,0.17175,0.140314,0.790651,-0.199787,0.090457,0.137111,2.82353,-0.510994,0.485986,-3.27148,0.192583,5.22023,-3.27148,0.192583,5.22023,-0.673739,0.648581,0.387555,-0.204176,0.711712,0.611992,-0.0891408,1
1.70414,-0.999596,-1.76938,-1.15034,2.05144,1.21141,-0.948354,1.70414,-0.999596,-1.76938,-1.15034,2.05144,1.21141,-0.948354,1.77417,-1.06781,-1.80023,-1.1393,1.98107,1.15114,-0.930465,-0.349013,0.122949,0.526109,-0.599861,1.58347,1.19176,-0.442888,-0.349013,0.122949,0.526109,-0.599861,1.58347,1.19176,-0.442888,0.52603,-0.452214,0.694851,0.569629,0.167991,0.131363,0.793754,-0.248615,0.0779725,0.160349,2.78995,-0.509158,0.537365,-3.35763,0.183618,5.13785,-3.35763,0.183618,5.13785,-0.700372,0.682149,0.308519,-0.110433,0.70367,0.602636,-0.178899,1
1.70122,-0.99436,-1.77143,-1.14721,2.0655,1.22245,-0.959916,1.70122,-0.99436,-1.77143,-1.14721,2.0655,1.22245,-0.959916,1.77089,-1.06575,-1.79503,-1.14495,1.99536,1.16233,-0.93413,-0.308002,0.232536,0.513645,-0.556429,1.37368,1.09174,-0.335651,-0.308002,0.232536,0.513645,-0.556429,1.37368,1.09174,-0.335651,0.520906,-0.451642,0.698686,0.568653,0.161659,0.118831,0.797734,-0.259339,0.10155,0.248851,2.75641,-0.507482,0.587572,-3.35429,0.167561,5.02078,-3.35429,0.167561,5.02078,-0.696714,0.713895,0.236,-0.0226454,0.701485,0.601163,-0.257859,1
1.69717,-0.989502,-1.77089,-1.1564,2.07893,1.22879,-0.962399,1.69717,-0.989502,-1.77089,-1.1564,2.07893,1.22879,-0.962399,1.7679,-1.06279,-1.79012,-1.14987,2.00786,1.17254,-0.93635,-0.30938,0.317206,0.476612,-0.457281,1.22213,0.992211,-0.193969,-0.30938,0.317206,0.476612,-0.457281,1.22213,0.992211,-0.193969,0.517717,-0.450776,0.701774,0.567774,0.157285,0.111914,0.800231,-0.263657,0.097652,0.293833,2.72311,-0.505497,0.636727,-3.33045,0.198472,4.91551,-3.33045,0.198472,4.91551,-0.70737,0.732913,0.192306,-0.0652065,0.710633,0.562545,-0.260491,1
1.69314,-0.984145,-1.77748,-1.16438,2.08932,1.2368,-0.966477,1.69314,-0.984145,-1.77748,-1.16438,2.08932,1.2368,-0.966477,1.76428,-1.05906,-1.78603,-1.15379,2.0197,1.18187,-0.938546,-0.375271,0.391558,0.385674,-0.372731,1.17425,0.918997,-0.234333,-0.375271,0.391558,0.385674,-0.372731,1.17425,0.918997,-0.234333,0.516002,-0.450554,0.703425,0.567636,0.155158,0.108723,0.801183,-0.283753,0.0659792,0.30522,2.68962,-0.503649,0.684598,-3.3483,0.18481,4.78703,-3.3483,0.18481,4.78703,-0.71139,0.749169,0.0854904,-0.105919,0.696214,0.549266,-0.279308,1
1.69093,-0.978136,-1.78013,-1.16193,2.10041,1.24724,-0.966498,1.69093,-0.978136,-1.78013,-1.16193,2.10041,1.24724,-0.966498,1.76038,-1.05437,-1.78267,-1.15727,2.0314,1.19108,-0.941806,-0.394878,0.496878,0.321712,-0.350595,1.17375,0.925756,-0.360494,-0.394878,0.496878,0.321712,-0.350595,1.17375,0.925756,-0.360494,0.510568,-0.450166,0.708748,0.568587,0.148655,0.100065,0.802869,-0.306275,0.0402389,0.332769,2.65656,-0.501833,0.731519,-3.30679,0.181592,4.69213,-3.30679,0.181592,4.69213,-0.694429,0.76231,0.0253779,-0.046686,0.690125,0.56161,-0.24692,1
1.68561,-0.971241,-1.79593,-1.143,2.11082,1.25667,-0.970145,1.68561,-0.971241,-1.79593,-1.143,2.11082,1.25667,-0.970145,1.75591,-1.04848,-1.78007,-1.16061,2.04347,1.20037,-0.946191,-0.473341,0.618449,0.235724,-0.330701,1.22338,0.930275,-0.458432,-0.473341,0.618449,0.235724,-0.330701,1.22338,0.930275,-0.458432,0.508644,-0.450018,0.710708,0.569347,0.146359,0.0974353,0.803075,-0.328228,0.0459852,0.369828,2.62309,-0.500034,0.777404,-3.34673,0.179923,4.58853,-3.34673,0.179923,4.58853,-0.703016,0.772359,-0.158535,0.176151,0.673536,0.562928,-0.239542,1
1.67873,-0.96443,-1.8093,-1.13774,2.12228,1.26396,-0.973693,1.67873,-0.96443,-1.8093,-1.13774,2.12228,1.26396,-0.973693,1.75047,-1.04183,-1.77903,-1.16406,2.05605,1.20967,-0.951142,-0.557877,0.686513,0.0770928,-0.353574,1.26643,0.927642,-0.502487,-0.557877,0.686513,0.0770928,-0.353574,1.26643,0.927642,-0.502487,0.502256,-0.450316,0.716502,0.572995,0.139844,0.0901261,0.802495,-0.385305,-0.019115,0.355882,2.58952,-0.498254,0.821994,-3.35634,0.177979,4.45895,-3.35634,0.177979,4.45895,-0.717412,0.773979,-0.302721,0.263168,0.662282,0.542895,-0.22551,1
1.67251,-0.955739,-1.81511,-1.14237,2.13217,1.26817,-0.979714,1.67251,-0.955739,-1.81511,-1.14237,2.13217,1.26817,-0.979714,1.74448,-1.03404,-1.77865,-1.16739,2.06876,1.21904,-0.956027,-0.621679,0.805705,0.0144287,-0.312865,1.26763,0.943616,-0.478327,-0.621679,0.805705,0.0144287,-0.312865,1.26763,0.943616,-0.478327,0.497628,-0.450659,0.720612,0.576059,0.135453,0.0858045,0.801527,-0.425319,-0.0321666,0.402603,2.55624,-0.496317,0.86562,-3.32839,0.1937,4.36258,-3.32839,0.1937,4.36258,-0.719661,0.783003,-0.364528,0.250205,0.634059,0.491343,-0.236874,1
1.66594,-0.947202,-1.81917,-1.13864,2.14159,1.27741,-0.98837,1.66594,-0.947202,-1.81917,-1.13864,2.14159,1.27741,-0.98837,1.73754,-1.02592,-1.77989,-1.169,2.08124,1.2287,-0.960446,-0.706921,0.805993,-0.175133,-0.117299,1.23105,0.972641,-0.429744,-0.706921,0.805993,-0.175133,-0.117299,1.23105,0.972641,-0.429744,0.495036,-0.451261,0.722716,0.578034,0.133202,0.0837116,0.800704,-0.466775,-0.106541,0.403082,2.5233,-0.494771,0.90819,-3.29421,0.154588,4.25709,-3.29421,0.154588,4.25709,-0.716016,0.78721,-0.39276,0.303665,0.603494,0.487084,-0.27924,1
1.6578,-0.938963,-1.82587,-1.13192,2.15205,1.2844,-0.993828,1.6578,-0.938963,-1.82587,-1.13192,2.15205,1.2844,-0.993828,1.73064,-1.01782,-1.7832,-1.16858,2.09316,1.23832,-0.964441,-0.683109,0.822375,-0.38109,0.0925281,1.17964,0.960837,-0.390161,-0.683109,0.822375,-0.38109,0.0925281,1.17964,0.960837,-0.390161,0.489632,-0.453307,0.726617,0.582749,0.128845,0.0798266,0.798392,-0.494464,-0.215706,0.366088,2.49022,-0.493158,0.949862,-3.30753,0.161374,4.16716,-3.30753,0.161374,4.16716,-0.728456,0.788568,-0.426731,0.366649,0.58884,0.460778,-0.293879,1
1.6511,-0.930198,-1.83307,-1.12634,2.16133,1.29281,-1.00017,1.6511,-0.930198,-1.83307,-1.12634,2.16133,1.29281,-1.00017,1.72438,-1.00915,-1.78819,-1.16661,2.10466,1.24775,-0.968318,-0.605849,0.875535,-0.535898,0.212571,1.14361,0.931249,-0.391084,-0.605849,0.875535,-0.535898,0.212571,1.14361,0.931249,-0.391084,0.481546,-0.457262,0.732428,0.591236,0.122316,0.0751312,0.793621,-0.498567,-0.258749,0.380547,2.45731,-0.491811,0.990075,-3.29165,0.134701,4.02128,-3.29165,0.134701,4.02128,-0.732863,0.789535,-0.448839,0.402666,0.566678,0.450547,-0.318487,1
1.64397,-0.921565,-1.84215,-1.1209,2.17162,1.30042,-1.00473,1.64397,-0.921565,-1.84215,-1.1209,2.17162,1.30042,-1.00473,1.7184,-1.00025,-1.79478,-1.16396,2.11578,1.25665,-0.972622,-0.60924,0.896495,-0.6961,0.280353,1.1025,0.87544,-0.44772,-0.60924,0.896495,-0.6961,0.280353,1.1025,0.87544,-0.44772,0.476368,-0.460129,0.736044,0.597629,0.118324,0.0728738,0.789638,-0.473842,-0.267705,0.355747,2.42435,-0.490072,1.02962,-3.29552,0.173917,3.95496,-3.29552,0.173917,3.95496,-0.744298,0.786886,-0.473633,0.430634,0.558381,0.437727,-0.321098,1
1.63661,-0.912462,-1.85073,-1.11548,2.18195,1.30739,-1.00928,1.63661,-0.912462,-1.85073,-1.11548,2.18195,1.30739,-1.00928,1.71179,-0.991052,-1.80209,-1.16032,2.12653,1.26524,-0.977619,-0.673043,0.920379,-0.727965,0.381221,1.06665,0.857919,-0.514195,-0.673043,0.920379,-0.727965,0.381221,1.06665,0.857919,-0.514195,0.470743,-0.463515,0.739834,0.605035,0.114228,0.070984,0.784758,-0.535872,-0.341361,0.374996,2.39143,-0.48851,1.0683,-3.29182,0.156152,3.86802,-3.29182,0.156152,3.86802,-0.751852,0.785908,-0.486421,0.44841,0.554175,0.421476,-0.316647,1
1.62937,-0.903822,-1.86016,-1.10823,2.18998,1.31752,-1.01505,1.62937,-0.903822,-1.86016,-1.10823,2.18998,1.31752,-1.01505,1.70497,-0.982167,-1.80953,-1.15633,2.13691,1.27356,-0.983108,-0.687112,0.877213,-0.759543,0.411529,1.02788,0.819582,-0.558536,-0.687112,0.877213,-0.759543,0.411529,1.02788,0.819582,-0.558536,0.467864,-0.465266,0.741712,0.608873,0.11217,0.0700721,0.782165,-0.539064,-0.346365,0.366087,2.35856,-0.487124,1.10612,-3.2877,0.138637,3.78134,-3.2877,0.138637,3.78134,-0.755982,0.783457,-0.506273,0.481018,0.530727,0.43967,-0.319387,1
1.6217,-0.895085,-1.86848,-1.10315,2.20055,1.3216,-1.02008,1.6217,-0.895085,-1.86848,-1.10315,2.20055,1.3216,-1.02008,1.69796,-0.973387,-1.81738,-1.15145,2.14694,1.28155,-0.988885,-0.701612,0.879059,-0.789563,0.518018,1.00119,0.795878,-0.581797,-0.701612,0.879059,-0.789563,0.518018,1.00119,0.795878,-0.581797,0.458926,-0.471068,0.747259,0.621135,0.1061,0.0675872,0.773541,-0.57589,-0.398849,0.373315,2.32564,-0.485378,1.14254,-3.29187,0.174534,3.64258,-3.29187,0.174534,3.64258,-0.762603,0.78302,-0.510997,0.483023,0.53605,0.40047,-0.31194,1
1.61476,-0.886931,-1.87765,-1.09547,2.20759,1.33133,-1.02786,1.61476,-0.886931,-1.87765,-1.09547,2.20759,1.33133,-1.02786,1.69098,-0.965024,-1.82557,-1.14587,2.15686,1.28927,-0.994714,-0.695968,0.819211,-0.832034,0.561101,0.98974,0.762383,-0.582252,-0.695968,0.819211,-0.832034,0.561101,0.98974,0.762383,-0.582252,0.452756,-0.475328,0.750888,0.629672,0.102103,0.065914,0.767296,-0.582801,-0.41558,0.366491,2.29313,-0.484047,1.1778,-3.25108,0.133106,3.52584,-3.25108,0.133106,3.52584,-0.762204,0.780923,-0.520797,0.503951,0.507353,0.420583,-0.331494,1
1.60725,-0.879025,-1.88668,-1.08783,2.21609,1.33683,-1.03511,1.60725,-0.879025,-1.88668,-1.08783,2.21609,1.33683,-1.03511,1.68404,-0.956998,-1.83407,-1.13974,2.16667,1.29678,-1.00047,-0.695872,0.805729,-0.849051,0.6363,0.978887,0.750818,-0.573001,-0.695872,0.805729,-0.849051,0.6363,0.978887,0.750818,-0.573001,0.446458,-0.479806,0.754418,0.638326,0.0981776,0.064218,0.760774,-0.603788,-0.446611,0.35532,2.26029,-0.482512,1.21267,-3.28357,0.153509,3.48691,-3.28357,0.153509,3.48691,-0.767892,0.779734,-0.526023,0.519172,0.494181,0.400419,-0.346399,1
1.59991,-0.871176,-1.8961,-1.07963,2.22312,1.34272,-1.04346,1.59991,-0.871176,-1.8961,-1.07963,2.22312,1.34272,-1.04346,1.67712,-0.948977,-1.84274,-1.1331,2.1764,1.30427,-1.00613,-0.693032,0.796501,-0.881791,0.664678,0.970738,0.740177,-0.564061,-0.693032,0.796501,-0.881791,0.664678,0.970738,0.740177,-0.564061,0.439967,-0.484309,0.758088,0.647071,0.0940611,0.062538,0.754017,-0.615437,-0.450637,0.353055,2.22705,-0.480962,1.24675,-3.32396,0.155032,3.40815,-3.32396,0.155032,3.40815,-0.772112,0.778004,-0.533634,0.534695,0.467206,0.384469,-0.373302,1
1.59242,-0.863538,-1.90547,-1.07313,2.23257,1.34614,-1.04923,1.59242,-0.863538,-1.90547,-1.07313,2.23257,1.34614,-1.04923,1.6701,-0.941256,-1.852,-1.12634,2.18597,1.31149,-1.01186,-0.702475,0.771047,-0.930638,0.679119,0.952273,0.71561,-0.57795,-0.702475,0.771047,-0.930638,0.679119,0.952273,0.71561,-0.57795,0.433393,-0.488986,0.761487,0.655936,0.0901915,0.0610313,0.746919,-0.62784,-0.464867,0.333789,2.19424,-0.479264,1.27944,-3.28081,0.169781,3.26902,-3.28081,0.169781,3.26902,-0.776849,0.777183,-0.534699,0.532087,0.465988,0.346465,-0.373647,1
1.58601,-0.855903,-1.91537,-1.06533,2.23766,1.35703,-1.05717,1.58601,-0.855903,-1.91537,-1.06533,2.23766,1.35703,-1.05717,1.6633,-0.933417,-1.86105,-1.11921,2.19523,1.31865,-1.01792,-0.673746,0.785022,-0.895364,0.717106,0.919568,0.714301,-0.613895,-0.673746,0.785022,-0.895364,0.717106,0.919568,0.714301,-0.613895,0.426739,-0.493383,0.765169,0.664849,0.0859778,0.0596433,0.739612,-0.631237,-0.432557,0.367634,2.16111,-0.477998,1.31071,-3.31342,0.126636,3.12713,-3.31342,0.126636,3.12713,-0.772829,0.775136,-0.543255,0.538802,0.424311,0.383754,-0.392584,1
1.57825,-0.84849,-1.92536,-1.05739,2.24518,1.36232,-1.06349,1.57825,-0.84849,-1.92536,-1.05739,2.24518,1.36232,-1.06349,1.65624,-0.925795,-1.87046,-1.11214,2.20405,1.32566,-1.02436,-0.726346,0.75107,-0.965521,0.70904,0.867737,0.695414,-0.654726,-0.726346,0.75107,-0.965521,0.70904,0.867737,0.695414,-0.654726,0.41995,-0.497834,0.768657,0.673968,0.08186,0.058545,0.731873,-0.636212,-0.434003,0.354289,2.1279,-0.476539,1.34123,-3.32096,0.14585,3.05171,-3.32096,0.14585,3.05171,-0.77993,0.773041,-0.549059,0.547575,0.411286,0.366595,-0.39125,1
1.57044,-0.840719,-1.93429,-1.05137,2.2537,1.36436,-1.07024,1.57044,-0.840719,-1.93429,-1.05137,2.2537,1.36436,-1.07024,1.64865,-0.918142,-1.87999,-1.1046,2.21252,1.3323,-1.03115,-0.757709,0.779593,-0.93375,0.768076,0.837172,0.657543,-0.684124,-0.757709,0.779593,-0.93375,0.768076,0.837172,0.657543,-0.684124,0.416378,-0.500209,0.770388,0.678725,0.0798386,0.0580803,0.727726,-0.684777,-0.478066,0.341153,2.09467,-0.474934,1.37059,-3.32327,0.16053,2.93597,-3.32327,0.16053,2.93597,-0.782148,0.774232,-0.543036,0.53224,0.411861,0.320632,-0.390888,1
1.56315,-0.833006,-1.94444,-1.04286,2.25645,1.37304,-1.07911,1.56315,-0.833006,-1.94444,-1.04286,2.25645,1.37304,-1.07911,1.64125,-0.910268,-1.88916,-1.09686,2.2207,1.33869,-1.03816,-0.742693,0.782146,-0.932168,0.763079,0.807968,0.643761,-0.705852,-0.742693,0.782146,-0.932168,0.763079,0.807968,0.643761,-0.705852,0.405537,-0.506668,0.776277,0.692883,0.0731789,0.0569107,0.715066,-0.691803,-0.427638,0.383888,2.06153,-0.47363,1.39894,-3.31328,0.130346,2.83459,-3.31328,0.130346,2.83459,-0.781038,0.772619,-0.552795,0.540059,0.35752,0.343558,-0.40953,1
1.55479,-0.825495,-1.95418,-1.03602,2.26644,1.37401,-1.08509,1.55479,-0.825495,-1.95418,-1.03602,2.26644,1.37401,-1.08509,1.63349,-0.902725,-1.89913,-1.08904,2.22846,1.34505,-1.0453,-0.782074,0.75288,-1.00489,0.794047,0.768179,0.634652,-0.714913,-0.782074,0.75288,-1.00489,0.794047,0.768179,0.634652,-0.714913,0.398083,-0.511132,0.779924,0.702525,0.0688731,0.0564804,0.706063,-0.725553,-0.457669,0.362425,2.02862,-0.472011,1.42642,-3.29142,0.161982,2.74863,-3.29142,0.161982,2.74863,-0.786955,0.772295,-0.550515,0.530184,0.379784,0.289622,-0.397982,1
1.54792,-0.817769,-1.96403,-1.02784,2.26687,1.38404,-1.09492,1.54792,-0.817769,-1.96403,-1.02784,2.26687,1.38404,-1.09492,1.62599,-0.894911,-1.90871,-1.08098,2.23591,1.35129,-1.05244,-0.738546,0.785394,-0.947029,0.808919,0.739109,0.62274,-0.715272,-0.738546,0.785394,-0.947029,0.808919,0.739109,0.62274,-0.715272,0.394341,-0.51319,0.781898,0.707278,0.0665766,0.056327,0.701536,-0.719869,-0.423627,0.390817,1.99539,-0.470824,1.45279,-3.32286,0.118646,2.63685,-3.32286,0.118646,2.63685,-0.780697,0.771417,-0.553227,0.531452,0.309626,0.327477,-0.424719,1
1.53979,-0.810393,-1.974,-1.0204,2.27524,1.38945,-1.10151,1.53979,-0.810393,-1.974,-1.0204,2.27524,1.38945,-1.10151,1.61836,-0.887333,-1.91852,-1.07304,2.2431,1.35747,-1.0597,-0.778395,0.748146,-1.00034,0.795676,0.706435,0.615597,-0.72921,-0.778395,0.748146,-1.00034,0.795676,0.706435,0.615597,-0.72921,0.383078,-0.519061,0.78781,0.721331,0.0595893,0.0560551,0.687742,-0.737516,-0.417275,0.373714,1.96284,-0.469636,1.47793,-3.25526,0.118816,2.514,-3.25526,0.118816,2.514,-0.785661,0.769398,-0.554833,0.526374,0.321424,0.319847,-0.418121,1
1.53215,-0.802561,-1.98347,-1.01408,2.2823,1.3916,-1.10924,1.53215,-0.802561,-1.98347,-1.01408,2.2823,1.3916,-1.10924,1.61041,-0.87979,-1.92859,-1.06492,2.24994,1.36321,-1.06704,-0.793579,0.762359,-0.997448,0.812455,0.678995,0.559713,-0.736029,-0.793579,0.762359,-0.997448,0.812455,0.678995,0.559713,-0.736029,0.375326,-0.523033,0.791675,0.730808,0.0550872,0.0561929,0.678032,-0.751552,-0.402806,0.392243,1.93029,-0.468275,1.50202,-3.25477,0.136083,2.40861,-3.25477,0.136083,2.40861,-0.782612,0.772298,-0.548879,0.5084,0.323566,0.283969,-0.421955,1
1.52452,-0.794956,-1.99324,-1.00562,2.28528,1.39766,-1.11727,1.52452,-0.794956,-1.99324,-1.00562,2.28528,1.39766,-1.11727,1.60264,-0.87214,-1.93825,-1.05678,2.25644,1.36866,-1.07452,-0.77577,0.760993,-0.962789,0.800278,0.634163,0.544289,-0.754426,-0.77577,0.760993,-0.962789,0.800278,0.634163,0.544289,-0.754426,0.367633,-0.526586,0.795765,0.740056,0.050415,0.0564785,0.668271,-0.74232,-0.364901,0.402726,1.89748,-0.466964,1.52527,-3.281,0.131062,2.32565,-3.281,0.131062,2.32565,-0.781206,0.771844,-0.549905,0.511623,0.288389,0.289983,-0.427499,1
1.51596,-0.787353,-2.00285,-0.999591,2.29521,1.39624,-1.12356,1.51596,-0.787353,-2.00285,-0.999591,2.29521,1.39624,-1.12356,1.59455,-0.86471,-1.9484,-1.04881,2.26237,1.37414,-1.08218,-0.825302,0.737444,-1.0331,0.802256,0.582985,0.540598,-0.769191,-0.825302,0.737444,-1.0331,0.802256,0.582985,0.540598,-0.769191,0.359791,-0.530159,0.799611,0.749374,0.0458336,0.0571327,0.658083,-0.774933,-0.384913,0.377905,1.86523,-0.465452,1.54745,-3.225,0.151208,2.21722,-3.225,0.151208,2.21722,-0.785903,0.773563,-0.544466,0.492149,0.328423,0.221013,-0.4138,1
1.50797,-0.779463,-2.01233,-0.992984,2.30023,1.39526,-1.13127,1.50797,-0.779463,-2.01233,-0.992984,2.30023,1.39526,-1.13127,1.58637,-0.857133,-1.95836,-1.04065,2.26816,1.37949,-1.0899,-0.803011,0.768795,-0.971669,0.819118,0.580895,0.53276,-0.773565,-0.803011,0.768795,-0.971669,0.819118,0.580895,0.53276,-0.773565,0.355775,-0.531915,0.801577,0.754042,0.0435015,0.0575128,0.652855,-0.784147,-0.372569,0.392011,1.83267,-0.463741,1.56915,-3.25642,0.171095,2.17007,-3.25642,0.171095,2.17007,-0.784048,0.776701,-0.539614,0.476652,0.320651,0.157673,-0.413678,1
1.50005,-0.772014,-2.02253,-0.984363,2.29724,1.40577,-1.14076,1.50005,-0.772014,-2.02253,-0.984363,2.29724,1.40577,-1.14076,1.57838,-0.849504,-1.96819,-1.03292,2.27384,1.38473,-1.09768,-0.813306,0.753539,-1.00784,0.764577,0.561815,0.521674,-0.778335,-0.813306,0.753539,-1.00784,0.764577,0.561815,0.521674,-0.778335,0.347933,-0.534891,0.805791,0.763008,0.0385977,0.0582469,0.642601,-0.75489,-0.307543,0.418453,1.79987,-0.462368,1.58983,-3.27994,0.137341,2.06836,-3.27994,0.137341,2.06836,-0.78335,0.774898,-0.543351,0.485566,0.23399,0.210462,-0.430834,1
1.49123,-0.764654,-2.03214,-0.978463,2.30341,1.40528,-1.14841,1.49123,-0.764654,-2.03214,-0.978463,2.30341,1.40528,-1.14841,1.56992,-0.842104,-1.97842,-1.02506,2.27953,1.38951,-1.10543,-0.843035,0.747187,-1.0055,0.790689,0.573811,0.459477,-0.771467,-0.843035,0.747187,-1.0055,0.790689,0.573811,0.459477,-0.771467,0.335895,-0.539533,0.81169,0.776401,0.0317974,0.0596432,0.626605,-0.794499,-0.32652,0.403766,1.76704,-0.460897,1.60895,-3.28262,0.147143,1.91183,-3.28262,0.147143,1.91183,-0.786942,0.774506,-0.537186,0.466018,0.23883,0.157728,-0.429828,1
1.48436,-0.756373,-2.04082,-0.974388,2.30365,1.4058,-1.15612,1.48436,-0.756373,-2.04082,-0.974388,2.30365,1.4058,-1.15612,1.56187,-0.834383,-1.988,-1.01735,2.28544,1.39325,-1.11309,-0.804519,0.767213,-0.960789,0.753299,0.591566,0.343939,-0.765139,-0.804519,0.767213,-0.960789,0.753299,0.591566,0.343939,-0.765139,0.328112,-0.542158,0.815955,0.784857,0.0275216,0.0605358,0.616099,-0.758268,-0.281794,0.419007,1.73485,-0.459478,1.62744,-3.21889,0.141907,1.84921,-3.21889,0.141907,1.84921,-0.775109,0.780101,-0.52821,0.429662,0.182121,0.125551,-0.430327,1
1.47523,-0.749124,-2.05112,-0.96718,2.30543,1.39924,-1.16273,1.47523,-0.749124,-2.05112,-0.96718,2.30543,1.39924,-1.16273,1.55329,-0.827026,-1.99816,-1.00977,2.29104,1.39647,-1.12079,-0.869615,0.730326,-1.02046,0.762898,0.537744,0.320091,-0.773576,-0.869615,0.730326,-1.02046,0.762898,0.537744,0.320091,-0.773576,0.320108,-0.545062,0.819882,0.7934,0.0237264,0.0616957,0.605101,-0.799298,-0.311059,0.392439,1.70219,-0.457889,1.6455,-3.26582,0.158849,1.80582,-3.26582,0.158849,1.80582,-0.780565,0.779022,-0.529546,0.425941,0.143832,0.0277422,-0.419384,1
1.46864,-0.741077,-2.05934,-0.961618,2.29442,1.41139,-1.17149,1.46864,-0.741077,-2.05934,-0.961618,2.29442,1.41139,-1.17149,1.54498,-0.819428,-2.00784,-1.00217,2.29571,1.39953,-1.12862,-0.816982,0.768758,-0.955229,0.76013,0.448679,0.293727,-0.786027,-0.816982,0.768758,-0.955229,0.76013,0.448679,0.293727,-0.786027,0.312328,-0.547357,0.824098,0.801659,0.0195981,0.0632716,0.594101,-0.76172,-0.238479,0.431762,1.66904,-0.456815,1.66219,-3.31581,0.107396,1.66894,-3.31581,0.107396,1.66894,-0.763388,0.783509,-0.515032,0.405551,-0.0129014,0.118649,-0.428704,1
1.45941,-0.734075,-2.06983,-0.956502,2.2921,1.41053,-1.17789,1.45941,-0.734075,-2.06983,-0.956502,2.2921,1.41053,-1.17789,1.53649,-0.811979,-2.01776,-0.994816,2.29967,1.40205,-1.13657,-0.863683,0.738499,-1.009,0.729319,0.377447,0.235329,-0.797352,-0.863683,0.738499,-1.009,0.729319,0.377447,0.235329,-0.797352,0.304611,-0.549593,0.82813,0.809837,0.0157923,0.0653021,0.582795,-0.77601,-0.253994,0.397264,1.63637,-0.455521,1.67758,-3.26695,0.129396,1.53923,-3.26695,0.129396,1.53923,-0.770815,0.779041,-0.520769,0.383138,-0.0756943,0.0848489,-0.413127,1
1.45272,-0.725684,-2.07711,-0.959199,2.29245,1.40074,-1.1829,1.45272,-0.725684,-2.07711,-0.959199,2.29245,1.40074,-1.1829,1.52801,-0.804537,-2.02758,-0.987824,2.30268,1.40343,-1.1445,-0.836,0.750183,-0.964073,0.687256,0.273848,0.113332,-0.789239,-0.836,0.750183,-0.964073,0.687256,0.273848,0.113332,-0.789239,0.297219,-0.551604,0.832088,0.817753,0.0124887,0.0679138,0.571412,-0.759992,-0.241724,0.39508,1.60378,-0.454134,1.69194,-3.25857,0.138745,1.4356,-3.25857,0.138745,1.4356,-0.752893,0.78853,-0.495333,0.28625,-0.102202,-0.0268653,-0.383986,1
1.4445,-0.717773,-2.08577,-0.959384,2.28983,1.38927,-1.18943,1.4445,-0.717773,-2.08577,-0.959384,2.28983,1.38927,-1.18943,1.51955,-0.796946,-2.03714,-0.980863,2.30373,1.40468,-1.15235,-0.86028,0.759039,-0.962695,0.695153,0.0422027,0.138738,-0.785141,-0.86028,0.759039,-0.962695,0.695153,0.0422027,0.138738,-0.785141,0.290069,-0.553091,0.836175,0.825439,0.00889944,0.0714599,0.55988,-0.731542,-0.174795,0.411836,1.57108,-0.452541,1.7055,-3.27023,0.159287,1.35607,-3.27023,0.159287,1.35607,-0.75051,0.791731,-0.486228,0.214785,-0.139003,-0.154126,-0.370835,1
1.43682,-0.709752,-2.09129,-0.959586,2.28857,1.3832,-1.19474,1.43682,-0.709752,-2.09129,-0.959586,2.28857,1.3832,-1.19474,1.51074,-0.789409,-2.04691,-0.974285,2.30281,1.40612,-1.16014,-0.878376,0.751909,-0.971263,0.636504,-0.131939,0.132638,-0.776392,-0.878376,0.751909,-0.971263,0.636504,-0.131939,0.132638,-0.776392,0.286475,-0.553751,0.83815,0.829275,0.00701799,0.0736408,0.553923,-0.736644,-0.168319,0.400869,1.53823,-0.451352,1.71787,-3.28526,0.118864,1.23727,-3.28526,0.118864,1.23727,-0.739135,0.796573,-0.443772,0.146985,-0.14241,-0.229278,-0.345972,1
1.42938,-0.701932,-2.09602,-0.957934,2.2907,1.37838,-1.1996,1.42938,-0.701932,-2.09602,-0.957934,2.2907,1.37838,-1.1996,1.50223,-0.781906,-2.05627,-0.968386,2.30083,1.40649,-1.16764,-0.848715,0.754054,-0.93035,0.575577,-0.215903,0.00256457,-0.73911,-0.848715,0.754054,-0.93035,0.575577,-0.215903,0.00256457,-0.73911,0.279761,-0.554771,0.841936,0.836563,0.00355824,0.0785246,0.542202,-0.677953,-0.128868,0.382809,1.50561,-0.450099,1.72929,-3.26127,0.125352,1.14139,-3.26127,0.125352,1.14139,-0.728534,0.799736,-0.397567,0.104518,-0.101212,-0.281148,-0.319616,1
1.42127,-0.693935,-2.1016,-0.952681,2.29499,1.37525,-1.20474,1.42127,-0.693935,-2.1016,-0.952681,2.29499,1.37525,-1.20474,1.4934,-0.774248,-2.06575,-0.963212,2.29844,1.40547,-1.17476,-0.894698,0.770676,-0.949596,0.480928,-0.24198,-0.135335,-0.70359,-0.894698,0.770676,-0.949596,0.480928,-0.24198,-0.135335,-0.70359,0.270443,-0.556047,0.847371,0.846755,-0.000181439,0.0867273,0.524866,-0.646675,-0.115776,0.357232,1.47275,-0.449027,1.73962,-3.28685,0.10716,1.03322,-3.28685,0.10716,1.03322,-0.721314,0.803133,-0.358579,0.105315,-0.0345715,-0.30216,-0.299828,1
1.41378,-0.685592,-2.10656,-0.956656,2.30255,1.37003,-1.21031,1.41378,-0.685592,-2.10656,-0.956656,2.30255,1.37003,-1.21031,1.48457,-0.766474,-2.07464,-0.95949,2.29591,1.403,-1.18151,-0.878867,0.781449,-0.866691,0.333417,-0.255172,-0.285661,-0.663743,-0.878867,0.781449,-0.866691,0.333417,-0.255172,-0.285661,-0.663743,0.264912,-0.556705,0.850678,0.852887,-0.00141294,0.0925022,0.513833,-0.613588,-0.0996149,0.345311,1.44031,-0.448077,1.74856,-3.24395,0.094977,0.894725,-3.24395,0.094977,0.894725,-0.707921,0.808821,-0.319215,0.0283388,0.0663978,-0.329676,-0.288007,1
1.40569,-0.677288,-2.11312,-0.969273,2.31133,1.36406,-1.21458,1.40569,-0.677288,-2.11312,-0.969273,2.31133,1.36406,-1.21458,1.47532,-0.75852,-2.08315,-0.956606,2.29382,1.3991,-1.18783,-0.945558,0.798311,-0.84687,0.27605,-0.189193,-0.422171,-0.620409,-0.945558,0.798311,-0.84687,0.27605,-0.189193,-0.422171,-0.620409,0.259516,-0.557408,0.85391,0.858684,-0.00173078,0.0981839,0.50301,-0.578855,-0.0824015,0.333796,1.40783,-0.446842,1.75697,-3.24752,0.123578,0.840807,-3.24752,0.123578,0.840807,-0.69628,0.812324,-0.299686,-0.126675,0.175135,-0.350337,-0.267575,1
1.39957,-0.668678,-2.1168,-0.981367,2.31725,1.35798,-1.22247,1.39957,-0.668678,-2.1168,-0.981367,2.31725,1.35798,-1.22247,1.46581,-0.750569,-2.09096,-0.954414,2.2929,1.39427,-1.19374,-0.941819,0.791504,-0.753719,0.196177,-0.0631794,-0.505052,-0.580706,-0.941819,0.791504,-0.753719,0.196177,-0.0631794,-0.505052,-0.580706,0.254157,-0.55816,0.85711,0.864106,-0.00138653,0.103207,0.492612,-0.567931,-0.077721,0.326248,1.37492,-0.445601,1.76409,-3.29101,0.124091,0.711429,-3.29101,0.124091,0.711429,-0.662427,0.818912,-0.258397,-0.269525,0.243519,-0.362888,-0.287307,1
1.39408,-0.660765,-2.11983,-0.991459,2.32538,1.35016,-1.22792,1.39408,-0.660765,-2.11983,-0.991459,2.32538,1.35016,-1.22792,1.45654,-0.742884,-2.09813,-0.953216,2.29332,1.38879,-1.19931,-0.929867,0.764289,-0.712767,0.0999629,0.0805552,-0.56084,-0.549335,-0.929867,0.764289,-0.712767,0.0999629,0.0805552,-0.56084,-0.549335,0.249134,-0.558959,0.860029,0.869024,-0.000306676,0.107445,0.482962,-0.545035,-0.0761373,0.306479,1.34294,-0.444057,1.77046,-3.19842,0.154379,0.637615,-3.19842,0.154379,0.637615,-0.624569,0.821198,-0.216981,-0.382436,0.320623,-0.386329,-0.286067,1
1.38649,-0.652867,-2.12124,-0.994986,2.33109,1.34334,-1.23844,1.38649,-0.652867,-2.12124,-0.994986,2.33109,1.34334,-1.23844,1.4474,-0.735081,-2.10469,-0.953454,2.29557,1.38296,-1.20458,-0.904783,0.789828,-0.632543,-0.0675448,0.276584,-0.585264,-0.52044,-0.904783,0.789828,-0.632543,-0.0675448,0.276584,-0.585264,-0.52044,0.24672,-0.559356,0.861394,0.871309,0.000503574,0.109248,0.47842,-0.521566,-0.0720064,0.279848,1.31119,-0.442521,1.77596,-3.1747,0.153542,0.55002,-3.1747,0.153542,0.55002,-0.609112,0.822145,-0.16547,-0.415314,0.355204,-0.39619,-0.338554,1
1.37755,-0.644738,-2.12278,-0.990368,2.33982,1.33878,-1.24767,1.37755,-0.644738,-2.12278,-0.990368,2.33982,1.33878,-1.24767,1.43821,-0.727097,-2.11081,-0.955615,2.2997,1.37689,-1.2098,-0.933127,0.796264,-0.611474,-0.260879,0.457291,-0.60867,-0.527535,-0.933127,0.796264,-0.611474,-0.260879,0.457291,-0.60867,-0.527535,0.240098,-0.560286,0.865046,0.877396,0.00392341,0.113387,0.466159,-0.468547,-0.0501791,0.221483,1.27853,-0.441396,1.78058,-3.26575,0.11256,0.461781,-3.26575,0.11256,0.461781,-0.606641,0.823592,-0.119661,-0.347534,0.401216,-0.381097,-0.378699,1
1.36681,-0.636304,-2.12439,-0.991855,2.35082,1.32889,-1.25158,1.36681,-0.636304,-2.12439,-0.991855,2.35082,1.32889,-1.25158,1.42882,-0.718698,-2.11615,-0.959354,2.30538,1.37064,-1.21524,-0.930694,0.85651,-0.498604,-0.413382,0.59844,-0.628888,-0.549275,-0.930694,0.85651,-0.498604,-0.413382,0.59844,-0.628888,-0.549275,0.235997,-0.56068,0.867255,0.881046,0.0068498,0.115279,0.458717,-0.457778,-0.0332618,0.221455,1.2461,-0.439881,1.78413,-3.24348,0.151467,0.354874,-3.24348,0.151467,0.354874,-0.620114,0.823934,-0.0824719,-0.325009,0.454366,-0.417507,-0.363315,1
1.35578,-0.627885,-2.12644,-0.993775,2.36016,1.32043,-1.25642,1.35578,-0.627885,-2.12644,-0.993775,2.36016,1.32043,-1.25642,1.4193,-0.710183,-2.12085,-0.96469,2.31214,1.3641,-1.22106,-0.970039,0.838713,-0.475246,-0.562841,0.697001,-0.657866,-0.59623,-0.970039,0.838713,-0.475246,-0.562841,0.697001,-0.657866,-0.59623,0.232234,-0.560992,0.869127,0.884428,0.0103812,0.116685,0.451735,-0.398339,0.00989761,0.207455,1.21392,-0.438476,1.78656,-3.21727,0.140518,0.242531,-3.21727,0.140518,0.242531,-0.635196,0.822985,-0.0558881,-0.290846,0.480146,-0.436703,-0.353618,1
1.34487,-0.619567,-2.12751,-0.995093,2.36883,1.31345,-1.26278,1.34487,-0.619567,-2.12751,-0.995093,2.36883,1.31345,-1.26278,1.40951,-0.701795,-2.12496,-0.970569,2.31959,1.35739,-1.22759,-0.967079,0.848984,-0.374708,-0.591832,0.755523,-0.665896,-0.671613,-0.967079,0.848984,-0.374708,-0.591832,0.755523,-0.665896,-0.671613,0.228433,-0.561364,0.870861,0.887825,0.0141465,0.117616,0.444672,-0.393086,0.0124717,0.185759,1.1816,-0.437427,1.78852,-3.23248,0.104848,0.196886,-3.23248,0.104848,0.196886,-0.646454,0.822289,-0.0255246,-0.245242,0.49232,-0.439424,-0.351851,1
1.33456,-0.611486,-2.12754,-0.998961,2.37834,1.30355,-1.26859,1.33456,-0.611486,-2.12754,-0.998961,2.37834,1.30355,-1.26859,1.40012,-0.693611,-2.12813,-0.976339,2.32758,1.35053,-1.23453,-0.942103,0.803047,-0.317758,-0.571074,0.814142,-0.691183,-0.694863,-0.942103,0.803047,-0.317758,-0.571074,0.814142,-0.691183,-0.694863,0.224835,-0.561589,0.872697,0.891074,0.0178175,0.117984,0.437893,-0.384782,0.00315098,0.177897,1.14921,-0.436169,1.78948,-3.23855,0.125828,0.0951529,-3.23855,0.125828,0.0951529,-0.655593,0.821241,0.00589378,-0.226225,0.50767,-0.469807,-0.340525,1
1.32552,-0.603713,-2.12726,-1.00167,2.38733,1.29497,-1.27648,1.32552,-0.603713,-2.12726,-1.00167,2.38733,1.29497,-1.27648,1.3909,-0.685841,-2.13106,-0.98169,2.33615,1.3432,-1.24137,-0.900421,0.781427,-0.269208,-0.527019,0.871361,-0.744203,-0.676814,-0.900421,0.781427,-0.269208,-0.527019,0.871361,-0.744203,-0.676814,0.22294,-0.561866,0.873548,0.892708,0.0197936,0.117977,0.434467,-0.396123,-0.0163001,0.170582,1.1165,-0.435282,1.78888,-3.27178,0.0887483,-0.0595927,-3.27178,0.0887483,-0.0595927,-0.653842,0.82128,0.0380109,-0.19976,0.511725,-0.482368,-0.351175,1
1.31753,-0.595729,-2.12985,-1.00917,2.39777,1.28535,-1.28279,1.31753,-0.595729,-2.12985,-1.00917,2.39777,1.28535,-1.28279,1.38263,-0.677834,-2.13307,-0.986684,2.34513,1.33549,-1.24794,-0.814624,0.796599,-0.191692,-0.484187,0.905397,-0.777963,-0.652905,-0.814624,0.796599,-0.191692,-0.484187,0.905397,-0.777963,-0.652905,0.218017,-0.562018,0.876691,0.897067,0.0253898,0.117368,0.425266,-0.321438,0.0418891,0.223634,1.08401,-0.433979,1.78749,-3.24838,0.13023,-0.138891,-3.24838,0.13023,-0.138891,-0.650958,0.821053,0.0322753,-0.224886,0.526449,-0.501357,-0.348439,1
1.31079,-0.587821,-2.12907,-1.01545,2.40932,1.27684,-1.28766,1.31079,-0.587821,-2.12907,-1.01545,2.40932,1.27684,-1.28766,1.3745,-0.669982,-2.13488,-0.991216,2.35439,1.32742,-1.25437,-0.805959,0.782074,-0.162714,-0.434679,0.932664,-0.821311,-0.638859,-0.805959,0.782074,-0.162714,-0.434679,0.932664,-0.821311,-0.638859,0.214831,-0.56205,0.878981,0.899816,0.0291002,0.116615,0.419387,-0.325416,0.0381117,0.235664,1.05181,-0.432755,1.78526,-3.22033,0.122413,-0.223303,-3.22033,0.122413,-0.223303,-0.637052,0.821613,0.0580431,-0.242388,0.549306,-0.505845,-0.332884,1
1.3046,-0.579785,-2.13046,-1.02198,2.41923,1.26966,-1.29491,1.3046,-0.579785,-2.13046,-1.02198,2.41923,1.26966,-1.29491,1.36686,-0.662016,-2.13571,-0.995178,2.36377,1.31893,-1.26072,-0.753491,0.796611,-0.064285,-0.382594,0.941542,-0.860261,-0.634497,-0.753491,0.796611,-0.064285,-0.382594,0.941542,-0.860261,-0.634497,0.21192,-0.561733,0.881681,0.90236,0.0325363,0.11558,0.413918,-0.290326,0.0747281,0.276312,1.01905,-0.43198,1.78206,-3.27592,0.0775248,-0.319695,-3.27592,0.0775248,-0.319695,-0.622602,0.822306,0.0524712,-0.268043,0.554645,-0.492672,-0.341892,1
1.29794,-0.572113,-2.12804,-1.02571,2.431,1.25798,-1.29778,1.29794,-0.572113,-2.12804,-1.02571,2.431,1.25798,-1.29778,1.35908,-0.654406,-2.13656,-0.99902,2.37331,1.31015,-1.2671,-0.786976,0.756175,-0.0915378,-0.382702,0.960909,-0.887286,-0.639434,-0.786976,0.756175,-0.0915378,-0.382702,0.960909,-0.887286,-0.639434,0.208875,-0.561669,0.884203,0.90491,0.0362446,0.114377,0.408341,-0.315167,0.0405736,0.247055,0.9866,-0.430747,1.77748,-3.245,0.123304,-0.458384,-3.245,0.123304,-0.458384,-0.611403,0.822939,0.0851288,-0.266914,0.576851,-0.521646,-0.30682,1
1.2905,-0.564466,-2.12937,-1.03231,2.44099,1.24844,-1.30425,1.2905,-0.564466,-2.12937,-1.03231,2.44099,1.24844,-1.30425,1.35149,-0.646752,-2.13693,-1.00302,2.38306,1.30099,-1.27344,-0.746205,0.772102,-0.0187189,-0.414165,0.97975,-0.920667,-0.630008,-0.746205,0.772102,-0.0187189,-0.414165,0.97975,-0.920667,-0.630008,0.206069,-0.561484,0.886744,0.907277,0.0400981,0.113035,0.403067,-0.268446,0.0702481,0.254094,0.954273,-0.429666,1.77201,-3.2327,0.108114,-0.547099,-3.2327,0.108114,-0.547099,-0.609889,0.822857,0.0756592,-0.292905,0.579243,-0.525531,-0.308056,1
1.28485,-0.556656,-2.12706,-1.03947,2.45293,1.2384,-1.3077,1.28485,-0.556656,-2.12706,-1.03947,2.45293,1.2384,-1.3077,1.34397,-0.639007,-2.13713,-1.00733,2.39313,1.29183,-1.27968,-0.762539,0.774667,-0.0264725,-0.439332,1.01329,-0.915106,-0.621512,-0.762539,0.774667,-0.0264725,-0.439332,1.01329,-0.915106,-0.621512,0.203405,-0.561204,0.889224,0.909489,0.0440317,0.111579,0.398046,-0.263569,0.0738589,0.252093,0.922295,-0.42861,1.76511,-3.19778,0.105569,-0.689793,-3.19778,0.105569,-0.689793,-0.591238,0.823514,0.10068,-0.321417,0.597993,-0.534309,-0.280191,1
1.27642,-0.548828,-2.12997,-1.04397,2.46355,1.22887,-1.31428,1.27642,-0.548828,-2.12997,-1.04397,2.46355,1.22887,-1.31428,1.33622,-0.631134,-2.13714,-1.01205,2.40351,1.28259,-1.28569,-0.775529,0.787058,0.00597997,-0.484931,1.0426,-0.927797,-0.592714,-0.775529,0.787058,0.00597997,-0.484931,1.0426,-0.927797,-0.592714,0.200765,-0.560889,0.891617,0.911571,0.0481391,0.110038,0.393209,-0.260559,0.0767481,0.234032,0.890116,-0.427638,1.75748,-3.21786,0.0972539,-0.762808,-3.21786,0.0972539,-0.762808,-0.598066,0.823068,0.0717438,-0.319188,0.600348,-0.537185,-0.285854,1
1.27066,-0.540712,-2.12581,-1.04976,2.47751,1.21744,-1.3132,1.27066,-0.540712,-2.12581,-1.04976,2.47751,1.21744,-1.3132,1.32859,-0.623101,-2.13681,-1.01709,2.41414,1.27328,-1.29145,-0.758201,0.812536,0.0450597,-0.506681,1.06661,-0.936222,-0.569657,-0.758201,0.812536,0.0450597,-0.506681,1.06661,-0.936222,-0.569657,0.199523,-0.560688,0.892783,0.912531,0.0502379,0.10923,0.390938,-0.248949,0.0848731,0.232589,0.857779,-0.426122,1.74885,-3.23374,0.151601,-0.862837,-3.23374,0.151601,-0.862837,-0.579343,0.823884,0.110017,-0.326721,0.633788,-0.558317,-0.21751,1
1.26212,-0.532551,-2.13188,-1.05516,2.48763,1.20893,-1.32319,1.26212,-0.532551,-2.13188,-1.05516,2.48763,1.20893,-1.32319,1.32078,-0.614908,-2.13635,-1.02253,2.42497,1.26375,-1.29692,-0.798059,0.817977,0.0319013,-0.556942,1.08901,-0.95711,-0.537444,-0.798059,0.817977,0.0319013,-0.556942,1.08901,-0.95711,-0.537444,0.197225,-0.560101,0.895184,0.9143,0.054453,0.107594,0.386671,-0.225676,0.10583,0.237197,0.82584,-0.425045,1.73969,-3.19386,0.107643,-0.916374,-3.19386,0.107643,-0.916374,-0.586597,0.823567,0.0446363,-0.326285,0.626598,-0.548262,-0.262716,1
1.25712,-0.524301,-2.12085,-1.06137,2.5029,1.19779,-1.31647,1.25712,-0.524301,-2.12085,-1.06137,2.5029,1.19779,-1.31647,1.31281,-0.606697,-2.13598,-1.02829,2.43598,1.25413,-1.30211,-0.783726,0.83183,0.0600755,-0.578513,1.10319,-0.957853,-0.514795,-0.783726,0.83183,0.0600755,-0.578513,1.10319,-0.957853,-0.514795,0.193694,-0.559433,0.898383,0.91678,0.0613737,0.105158,0.380381,-0.219582,0.10649,0.218246,0.795357,-0.4234,1.72942,-3.04829,0.16453,-1.02684,-3.04829,0.16453,-1.02684,-0.556926,0.823961,0.151285,-0.330808,0.669185,-0.563402,-0.14357,1
1.24548,-0.516033,-2.14036,-1.06794,2.50982,1.1894,-1.33597,1.24548,-0.516033,-2.14036,-1.06794,2.50982,1.1894,-1.33597,1.30506,-0.598171,-2.13497,-1.03403,2.44717,1.24433,-1.30683,-0.790473,0.843646,0.0859968,-0.574511,1.1273,-0.985524,-0.454324,-0.790473,0.843646,0.0859968,-0.574511,1.1273,-0.985524,-0.454324,0.191655,-0.558643,0.900712,0.918145,0.0658956,0.103433,0.376789,-0.214843,0.113974,0.224519,0.762119,-0.422351,1.71796,-3.32385,0.104865,-1.1462,-3.32385,0.104865,-1.1462,-0.595788,0.821379,-0.0538809,-0.339137,0.626503,-0.54934,-0.291324,1
1.24338,-0.507426,-2.12245,-1.04777,2.52751,1.18113,-1.32184,1.24338,-0.507426,-2.12245,-1.04777,2.52751,1.18113,-1.32184,1.2968,-0.590014,-2.13502,-1.0398,2.45874,1.23444,-1.31124,-0.816994,0.818779,-0.00215711,-0.576021,1.16014,-0.985764,-0.441213,-0.816994,0.818779,-0.00215711,-0.576021,1.16014,-0.985764,-0.441213,0.189112,-0.558438,0.902596,0.919611,0.0709378,0.10163,0.372766,-0.248507,0.0761108,0.191182,0.729714,-0.421433,1.70616,-3.24046,0.0918537,-1.17958,-3.24046,0.0918537,-1.17958,-0.534122,0.825875,0.125654,-0.0796488,0.687702,-0.533175,-0.106025,1
1.23267,-0.49926,-2.14656,-1.07198,2.53706,1.17101,-1.33891,1.23267,-0.49926,-2.14656,-1.07198,2.53706,1.17101,-1.33891,1.2894,-0.581288,-2.13375,-1.04572,2.47044,1.22446,-1.31504,-0.730014,0.875835,0.15095,-0.598934,1.17895,-1.00171,-0.35095,-0.730014,0.875835,0.15095,-0.598934,1.17895,-1.00171,-0.35095,0.187422,-0.557461,0.904885,0.920583,0.0756023,0.0997426,0.36995,-0.154288,0.152704,0.23178,0.698082,-0.420187,1.69284,-3.16321,0.124547,-1.33175,-3.16321,0.124547,-1.33175,-0.567251,0.820285,-0.128158,-0.262562,0.666145,-0.534517,-0.238766,1
1.22892,-0.490926,-2.12808,-1.04878,2.55305,1.16108,-1.31567,1.22892,-0.490926,-2.12808,-1.04878,2.55305,1.16108,-1.31567,1.28141,-0.573236,-2.13376,-1.05179,2.48245,1.21454,-1.3188,-0.813866,0.788125,-0.0632033,-0.592391,1.20931,-0.99039,-0.39734,-0.813866,0.788125,-0.0632033,-0.592391,1.20931,-0.99039,-0.39734,0.1864,-0.557239,0.905772,0.921084,0.0781818,0.098743,0.368431,-0.20295,0.0959928,0.179363,0.666546,-0.418893,1.67893,-3.15365,0.129449,-1.39105,-3.15365,0.129449,-1.39105,-0.524983,0.823102,0.0567774,0.0300866,0.705916,-0.534673,0.0312891,1
1.21917,-0.482657,-2.1515,-1.06407,2.56239,1.15294,-1.34308,1.21917,-0.482657,-2.1515,-1.06407,2.56239,1.15294,-1.34308,1.27411,-0.564623,-2.13386,-1.05622,2.49443,1.2047,-1.32228,-0.696855,0.894434,0.0291929,-0.385152,1.19535,-0.984002,-0.311571,-0.696855,0.894434,0.0291929,-0.385152,1.19535,-0.984002,-0.311571,0.183889,-0.557127,0.9075,0.92237,0.083327,0.096776,0.364587,-0.242361,0.0814148,0.201702,0.634041,-0.418059,1.66418,-3.25046,0.0833988,-1.47507,-3.25046,0.0833988,-1.47507,-0.549329,0.819661,-0.176419,-0.0784773,0.679544,-0.517603,-0.207966,1
1.21849,-0.474718,-2.15236,-1.03972,2.57785,1.14687,-1.32387,1.21849,-0.474718,-2.15236,-1.03972,2.57785,1.14687,-1.32387,1.26714,-0.556217,-2.1337,-1.05981,2.5064,1.19481,-1.32548,-0.714723,0.803344,-0.0257295,-0.359507,1.20102,-0.990078,-0.333178,-0.714723,0.803344,-0.0257295,-0.359507,1.20102,-0.990078,-0.333178,0.180544,-0.555821,0.911587,0.924009,0.0894147,0.0935926,0.359795,-0.244664,0.0896904,0.240213,0.601722,-0.417228,1.648,-3.23197,0.083074,-1.61812,-3.23197,0.083074,-1.61812,-0.48649,0.814988,-0.186657,0.20092,0.71446,-0.47941,0.0161619,1
1.20665,-0.467862,-2.17029,-1.03971,2.59077,1.14194,-1.33227,1.20665,-0.467862,-2.17029,-1.03971,2.59077,1.14194,-1.33227,1.26031,-0.548606,-2.13502,-1.06288,2.51865,1.18475,-1.32728,-0.6479,0.771059,-0.134784,-0.275763,1.23371,-1.00206,-0.104943,-0.6479,0.771059,-0.134784,-0.275763,1.23371,-1.00206,-0.104943,0.179112,-0.555885,0.912591,0.924586,0.0918323,0.0924158,0.358005,-0.280153,0.0379727,0.20356,0.569999,-0.416166,1.63081,-3.17223,0.106177,-1.71947,-3.17223,0.106177,-1.71947,-0.536607,0.807445,-0.352691,0.231712,0.721156,-0.428094,-0.0499259,1
1.19879,-0.461513,-2.18381,-1.02731,2.60496,1.13655,-1.32111,1.19879,-0.461513,-2.18381,-1.02731,2.60496,1.13655,-1.32111,1.2545,-0.540278,-2.13659,-1.06509,2.53113,1.17497,-1.32852,-0.581034,0.834578,-0.198392,-0.225501,1.24743,-0.972556,-0.164404,-0.581034,0.834578,-0.198392,-0.225501,1.24743,-0.972556,-0.164404,0.176621,-0.555467,0.915176,0.925376,0.0960426,0.0899284,0.355482,-0.223213,0.112169,0.286949,0.537394,-0.414944,1.61334,-3.26055,0.122243,-1.74667,-3.26055,0.122243,-1.74667,-0.557103,0.787652,-0.472208,0.377848,0.738297,-0.384286,0.0740933,1
1.19007,-0.455534,-2.19421,-1.0213,2.61897,1.14789,-1.31798,1.19007,-0.455534,-2.19421,-1.0213,2.61897,1.14789,-1.31798,1.24831,-0.531747,-2.13989,-1.066,2.5437,1.16552,-1.32986,-0.627114,0.867224,-0.355221,-0.010043,1.25728,-0.932875,-0.0883139,-0.627114,0.867224,-0.355221,-0.010043,1.25728,-0.932875,-0.0883139,0.172112,-0.554783,0.919559,0.927158,0.101559,0.0864641,0.350126,-0.289576,0.075841,0.273543,0.50541,-0.41406,1.59421,-3.19833,0.0883639,-1.91267,-3.19833,0.0883639,-1.91267,-0.582414,0.762126,-0.543174,0.447058,0.752744,-0.17634,0.11874,1
1.18604,-0.451051,-2.20587,-1.01353,2.63092,1.16963,-1.32341,1.18604,-0.451051,-2.20587,-1.01353,2.63092,1.16963,-1.32341,1.24237,-0.523249,-2.14439,-1.06462,2.55635,1.15659,-1.33038,-0.575629,0.836616,-0.48644,0.180055,1.2684,-0.876668,-0.0486691,-0.575629,0.836616,-0.48644,0.180055,1.2684,-0.876668,-0.0486691,0.168051,-0.554336,0.923283,0.928702,0.104116,0.0838878,0.345885,-0.401841,0.0731973,0.377131,0.472742,-0.413825,1.57393,-3.26689,0.0234812,-2.02841,-3.26689,0.0234812,-2.02841,-0.563266,0.721983,-0.614817,0.510935,0.74576,0.13041,0.0696445,1
1.19023,-0.44594,-2.21315,-1.01137,2.64285,1.17697,-1.32267,1.19023,-0.44594,-2.21315,-1.01137,2.64285,1.17697,-1.32267,1.23722,-0.515426,-2.15053,-1.06172,2.56917,1.1483,-1.32987,-0.497274,0.773781,-0.663271,0.314438,1.28758,-0.812682,0.0770006,-0.497274,0.773781,-0.663271,0.314438,1.28758,-0.812682,0.0770006,0.163475,-0.554233,0.927033,0.93029,0.106258,0.0809764,0.341631,-0.447787,0.0358932,0.373336,0.440826,-0.412976,1.55277,-3.19151,0.0849575,-2.11601,-3.19151,0.0849575,-2.11601,-0.46991,0.694862,-0.626194,0.503547,0.736768,0.286628,0.0719319,1
1.20088,-0.43837,-2.22158,-1.00903,2.65067,1.18948,-1.33637,1.20088,-0.43837,-2.22158,-1.00903,2.65067,1.18948,-1.33637,1.23268,-0.507545,-2.15832,-1.05748,2.58221,1.14194,-1.32869,-0.442181,0.80397,-0.81134,0.463597,1.30733,-0.551528,0.125322,-0.442181,0.80397,-0.81134,0.463597,1.30733,-0.551528,0.125322,0.158361,-0.553892,0.93116,0.932076,0.107116,0.0779018,0.337182,-0.498303,0.0755584,0.431059,0.409144,-0.412396,1.53045,-3.16824,0.0579298,-2.232,-3.16824,0.0579298,-2.232,-0.317941,0.69175,-0.632555,0.484508,0.684523,0.475471,-0.0767663,1
1.20897,-0.42877,-2.23084,-1.01764,2.65879,1.1935,-1.36065,1.20897,-0.42877,-2.23084,-1.01764,2.65879,1.1935,-1.36065,1.22833,-0.499167,-2.16753,-1.05215,2.59546,1.13968,-1.32763,-0.438789,0.833559,-0.959121,0.55124,1.32873,-0.114848,0.102899,-0.438789,0.833559,-0.959121,0.55124,1.32873,-0.114848,0.102899,0.155571,-0.55336,0.933516,0.933135,0.106565,0.0763455,0.334775,-0.526125,0.115297,0.46568,0.377293,-0.411553,1.50711,-3.18509,0.0843167,-2.33349,-3.18509,0.0843167,-2.33349,-0.193664,0.703969,-0.63315,0.345041,0.633244,0.538154,-0.330142,1
1.19461,-0.421197,-2.24043,-1.02825,2.67302,1.19043,-1.3621,1.19461,-0.421197,-2.24043,-1.02825,2.67302,1.19043,-1.3621,1.22393,-0.491078,-2.17786,-1.04593,2.6088,1.14128,-1.32688,-0.435122,0.802472,-1.04639,0.643185,1.3321,0.237929,0.0602102,-0.435122,0.802472,-1.04639,0.643185,1.3321,0.237929,0.0602102,0.149268,-0.552004,0.938355,0.935587,0.103821,0.0730404,0.32949,-0.613283,0.137719,0.47916,0.345897,-0.410176,1.48302,-3.13959,0.137746,-2.40902,-3.13959,0.137746,-2.40902,-0.293171,0.698809,-0.625682,0.176853,0.642207,0.491533,-0.352206,1
1.17778,-0.409934,-2.24938,-1.05055,2.68629,1.18641,-1.36296,1.17778,-0.409934,-2.24938,-1.05055,2.68629,1.18641,-1.36296,1.21972,-0.483123,-2.18859,-1.03913,2.62182,1.14596,-1.32735,-0.419446,0.791542,-1.0833,0.673398,1.29356,0.544409,-0.0840235,-0.419446,0.791542,-1.0833,0.673398,1.29356,0.544409,-0.0840235,0.142419,-0.550106,0.943488,0.93839,0.0990902,0.0695978,0.323668,-0.645303,0.186051,0.510769,0.314959,-0.409062,1.45789,-3.09381,0.11135,-2.51375,-3.09381,0.11135,-2.51375,-0.419399,0.731891,-0.607952,-0.114291,0.644705,0.404457,-0.356092,1
1.16817,-0.403168,-2.26227,-1.05721,2.68865,1.19982,-1.37096,1.16817,-0.403168,-2.26227,-1.05721,2.68865,1.19982,-1.37096,1.21583,-0.475514,-2.19938,-1.03352,2.63415,1.1532,-1.3299,-0.373905,0.757134,-1.07261,0.511032,1.20827,0.765979,-0.323211,-0.373905,0.757134,-1.07261,0.511032,1.20827,0.765979,-0.323211,0.132334,-0.546419,0.950715,0.943046,0.08967,0.0649867,0.313687,-0.590473,0.224671,0.431936,0.283295,-0.407555,1.432,-3.16636,0.150755,-2.58836,-3.16636,0.150755,-2.58836,-0.476656,0.723451,-0.628992,-0.236918,0.54495,0.466263,-0.410532,1
1.16914,-0.395668,-2.27186,-1.04925,2.68962,1.21287,-1.37373,1.16914,-0.395668,-2.27186,-1.04925,2.68962,1.21287,-1.37373,1.21204,-0.467998,-2.21017,-1.02948,2.64576,1.16146,-1.33523,-0.391007,0.752592,-1.08321,0.366499,1.14741,0.828514,-0.591089,-0.391007,0.752592,-1.08321,0.366499,1.14741,0.828514,-0.591089,0.129269,-0.545083,0.952793,0.944686,0.0863856,0.0637439,0.309908,-0.569958,0.230066,0.403011,0.251682,-0.406373,1.40534,-3.16136,0.118193,-2.66588,-3.16136,0.118193,-2.66588,-0.42904,0.723303,-0.616894,-0.197669,0.438658,0.514049,-0.385004,1
1.16535,-0.388201,-2.28237,-1.05046,2.69442,1.22054,-1.37857,1.16535,-0.388201,-2.28237,-1.05046,2.69442,1.22054,-1.37857,1.20787,-0.460238,-2.22075,-1.02786,2.65718,1.16931,-1.342,-0.428315,0.782865,-1.05031,0.0945579,1.14261,0.764205,-0.692789,-0.428315,0.782865,-1.05031,0.0945579,1.14261,0.764205,-0.692789,0.120753,-0.54123,0.957925,0.949606,0.0777849,0.0607439,0.297503,-0.529194,0.226566,0.332507,0.219655,-0.405455,1.37762,-3.20269,0.0917435,-2.7724,-3.20269,0.0917435,-2.7724,-0.425266,0.720371,-0.616211,-0.225944,0.372458,0.51229,-0.365711,1
1.15203,-0.383713,-2.29464,-1.06025,2.69911,1.22872,-1.37966,1.15203,-0.383713,-2.29464,-1.06025,2.69911,1.22872,-1.37966,1.20252,-0.452322,-2.23154,-1.02861,2.66856,1.17695,-1.34916,-0.57576,0.790199,-1.08701,-0.129265,1.13099,0.776309,-0.722763,-0.57576,0.790199,-1.08701,-0.129265,1.13099,0.776309,-0.722763,0.118036,-0.54009,0.959199,0.95118,0.0755143,0.0599135,0.293197,-0.513621,0.203644,0.247297,0.188093,-0.40439,1.34855,-3.15618,0.106519,-2.90712,-3.15618,0.106519,-2.90712,-0.504919,0.686089,-0.630996,-0.316404,0.305506,0.517727,-0.305017,1
1.14241,-0.376668,-2.30454,-1.07069,2.69633,1.23972,-1.37704,1.14241,-0.376668,-2.30454,-1.07069,2.69633,1.23972,-1.37704,1.19614,-0.443808,-2.24199,-1.03101,2.67882,1.18529,-1.3563,-0.653964,0.877405,-1.03002,-0.263024,0.982147,0.859177,-0.70661,-0.653964,0.877405,-1.03002,-0.263024,0.982147,0.859177,-0.70661,0.109864,-0.536566,0.962258,0.955844,0.0691175,0.0583291,0.279613,-0.504152,0.242546,0.199838,0.156922,-0.403392,1.31881,-3.1171,0.0998676,-2.97374,-3.1171,0.0998676,-2.97374,-0.537304,0.6714,-0.625584,-0.396822,0.175133,0.544332,-0.207344,1
1.13039,-0.37355,-2.31748,-1.0775,2.68797,1.25264,-1.37904,1.13039,-0.37355,-2.31748,-1.0775,2.68797,1.25264,-1.37904,1.18894,-0.435184,-2.25269,-1.03461,2.68716,1.19433,-1.36294,-0.738811,0.851316,-1.0886,-0.392642,0.785668,0.908264,-0.648679,-0.738811,0.851316,-1.0886,-0.392642,0.785668,0.908264,-0.648679,0.10456,-0.534041,0.963808,0.958853,0.0648896,0.0585013,0.270126,-0.522528,0.214105,0.130012,0.125234,-0.402397,1.28841,-3.16883,0.0994891,-3.04067,-3.16883,0.0994891,-3.04067,-0.585437,0.616342,-0.64796,-0.428924,0.00806201,0.583076,-0.160962,1
1.12237,-0.369819,-2.32943,-1.0842,2.68471,1.26187,-1.38396,1.12237,-0.369819,-2.32943,-1.0842,2.68471,1.26187,-1.38396,1.18169,-0.426546,-2.26361,-1.03907,2.69354,1.2036,-1.36882,-0.71543,0.872875,-1.09064,-0.455174,0.591202,0.928672,-0.562455,-0.71543,0.872875,-1.09064,-0.455174,0.591202,0.928672,-0.562455,0.0996563,-0.531483,0.964972,0.961656,0.0608778,0.0596682,0.260676,-0.473233,0.236194,0.113922,0.0934442,-0.40156,1.25703,-3.17897,0.0836641,-3.13728,-3.17897,0.0836641,-3.13728,-0.593124,0.567269,-0.658183,-0.451213,-0.0883216,0.582715,-0.151354,1
1.11455,-0.373628,-2.34174,-1.08959,2.69355,1.27214,-1.39173,1.11455,-0.373628,-2.34174,-1.08959,2.69355,1.27214,-1.39173,1.17487,-0.417936,-2.27439,-1.0444,2.69812,1.21321,-1.37335,-0.668441,0.856265,-1.07337,-0.569945,0.403428,0.967512,-0.415819,-0.668441,0.856265,-1.07337,-0.569945,0.403428,0.967512,-0.415819,0.0954475,-0.528808,0.965783,0.964081,0.0570043,0.0616822,0.251981,-0.406437,0.235727,0.0625537,0.0618931,-0.400717,1.22433,-3.15512,0.0842988,-3.2699,-3.15512,0.0842988,-3.2699,-0.603239,0.443087,-0.673494,-0.451911,-0.0457242,0.589375,-0.183741,1
1.10796,-0.3794,-2.35374,-1.09564,2.69076,1.28323,-1.39803,1.10796,-0.3794,-2.35374,-1.09564,2.69076,1.28323,-1.39803,1.16834,-0.409376,-2.28532,-1.05076,2.69978,1.22318,-1.37658,-0.657284,0.857044,-1.11028,-0.648212,0.0872432,1.00666,-0.294913,-0.657284,0.857044,-1.11028,-0.648212,0.0872432,1.00666,-0.294913,0.0919696,-0.5261,0.966097,0.96619,0.0533733,0.0651302,0.243692,-0.36311,0.239735,0.0243232,0.0300916,-0.400121,1.19092,-3.18015,0.0596315,-3.34175,-3.18015,0.0596315,-3.34175,-0.603832,0.29976,-0.684156,-0.448858,-0.0902841,0.60058,-0.214459,1
1.09876,-0.419148,-2.36667,-1.0996,2.67696,1.29362,-1.39999,1.09876,-0.419148,-2.36667,-1.0996,2.67696,1.29362,-1.39999,1.16179,-0.400743,-2.29644,-1.05723,2.69894,1.23369,-1.37914,-0.64476,0.859789,-1.09726,-0.662473,-0.126876,1.06072,-0.248475,-0.64476,0.859789,-1.09726,-0.662473,-0.126876,1.06072,-0.248475,0.0888104,-0.523166,0.966327,0.968156,0.0494574,0.0697847,0.235282,-0.32969,0.259545,0.0180673,-0.00144361,-0.399286,1.1568,-3.15352,0.0835061,-3.41145,-3.15352,0.0835061,-3.41145,-0.630323,-0.184054,-0.702365,-0.423729,-0.219782,0.599287,-0.208578,1
1.09366,-0.430427,-2.3786,-1.11115,2.64555,1.30978,-1.40351,1.09366,-0.430427,-2.3786,-1.11115,2.64555,1.30978,-1.40351,1.15552,-0.392762,-2.30757,-1.06439,2.69746,1.24447,-1.38183,-0.626665,0.769993,-1.12877,-0.730446,-0.143999,1.078,-0.280233,-0.626665,0.769993,-1.12877,-0.730446,-0.143999,1.078,-0.280233,0.0873712,-0.521787,0.96625,0.969059,0.0476124,0.0722283,0.231173,-0.320041,0.241198,-0.0127455,-0.0339234,-0.399361,1.12116,-3.24798,-0.00757575,-3.56448,-3.24798,-0.00757575,-3.56448,-0.618626,-0.376652,-0.710241,-0.467635,-0.519158,0.653086,-0.216782,1
1.08307,-0.436536,-2.39097,-1.1221,2.63985,1.31907,-1.39479,1.08307,-0.436536,-2.39097,-1.1221,2.63985,1.31907,-1.39479,1.14965,-0.385656,-2.31865,-1.07186,2.69585,1.25528,-1.38513,-0.570364,0.698688,-1.09633,-0.754294,-0.173278,1.08289,-0.346636,-0.570364,0.698688,-1.09633,-0.754294,-0.173278,1.08289,-0.346636,0.0843189,-0.519568,0.965571,0.970812,0.0444191,0.0769146,0.222791,-0.335897,0.181548,-0.0764559,-0.0650783,-0.398491,1.08447,-3.11549,0.0870287,-3.66839,-3.11549,0.0870287,-3.66839,-0.665773,-0.508794,-0.723251,-0.502354,-0.559974,0.63793,-0.0965931,1
1.07308,-0.435765,-2.40225,-1.13475,2.63631,1.33051,-1.38137,1.07308,-0.435765,-2.40225,-1.13475,2.63631,1.33051,-1.38137,1.14377,-0.379262,-2.33011,-1.07951,2.69302,1.26626,-1.38886,-0.598119,0.616359,-1.16031,-0.769022,-0.330431,1.10478,-0.377842,-0.598119,0.616359,-1.16031,-0.769022,-0.330431,1.10478,-0.377842,0.0798781,-0.516888,0.963765,0.973261,0.0401564,0.0843199,0.209856,-0.330123,0.153865,-0.114042,-0.0959136,-0.397457,1.04696,-3.08353,0.103381,-3.75128,-3.08353,0.103381,-3.75128,-0.706925,-0.565029,-0.721393,-0.552366,-0.567106,0.642558,0.0748679,1
1.06517,-0.436513,-2.41364,-1.1451,2.62952,1.3421,-1.38166,1.06517,-0.436513,-2.41364,-1.1451,2.62952,1.3421,-1.38166,1.13806,-0.373468,-2.34124,-1.08739,2.68733,1.27754,-1.39267,-0.56424,0.571419,-1.10359,-0.786986,-0.667899,1.13579,-0.37771,-0.56424,0.571419,-1.10359,-0.786986,-0.667899,1.13579,-0.37771,0.0784946,-0.516139,0.962923,0.974006,0.03884,0.0872183,0.205419,-0.320552,0.124807,-0.161673,-0.126394,-0.396488,1.00824,-3.04801,0.0969529,-3.87247,-3.04801,0.0969529,-3.87247,-0.728953,-0.630447,-0.72401,-0.577143,-0.578058,0.645563,0.110039,1
1.05961,-0.434467,-2.42517,-1.15547,2.62114,1.3535,-1.39258,1.05961,-0.434467,-2.42517,-1.15547,2.62114,1.3535,-1.39258,1.13206,-0.36819,-2.35253,-1.09507,2.67794,1.2891,-1.3953,-0.610738,0.515813,-1.13025,-0.76176,-1.02151,1.15607,-0.215555,-0.610738,0.515813,-1.13025,-0.76176,-1.02151,1.15607,-0.215555,0.0748698,-0.513937,0.959995,0.975832,0.0348243,0.098394,0.191983,-0.304909,0.110683,-0.19801,-0.158122,-0.395526,0.968918,-3.17283,0.0961542,-3.93171,-3.17283,0.0961542,-3.93171,-0.724441,-0.662777,-0.726488,-0.60404,-0.568033,0.644031,0.027163,1
1.05352,-0.433227,-2.43689,-1.15923,2.61172,1.36362,-1.40671,1.05352,-0.433227,-2.43689,-1.15923,2.61172,1.36362,-1.40671,1.12572,-0.363461,-2.36383,-1.10314,2.66623,1.30059,-1.39544,-0.648464,0.448871,-1.13971,-0.821284,-1.19644,1.14684,0.0499251,-0.648464,0.448871,-1.13971,-0.821284,-1.19644,1.14684,0.0499251,0.0725217,-0.512856,0.957452,0.976529,0.0327719,0.107179,0.183927,-0.293486,0.100155,-0.22243,-0.189535,-0.394226,0.928466,-3.14125,0.130054,-4.04516,-3.14125,0.130054,-4.04516,-0.722032,-0.697668,-0.730642,-0.560827,-0.545051,0.630336,-0.112671,1
1.04667,-0.433583,-2.448,-1.16974,2.60329,1.37397,-1.40479,1.04667,-0.433583,-2.448,-1.16974,2.60329,1.37397,-1.40479,1.11892,-0.359831,-2.37507,-1.11149,2.65434,1.31226,-1.39405,-0.679478,0.336222,-1.10411,-0.838409,-1.17924,1.17505,0.15373,-0.679478,0.336222,-1.10411,-0.838409,-1.17924,1.17505,0.15373,0.0711182,-0.512583,0.955927,0.976772,0.0320363,0.111523,0.180148,-0.352258,0.0363936,-0.289919,-0.220608,-0.392885,0.887134,-3.10737,0.134069,-4.13327,-3.10737,0.134069,-4.13327,-0.722435,-0.737522,-0.729317,-0.582544,-0.510507,0.617139,-0.107425,1
1.03892,-0.432618,-2.45954,-1.18176,2.59488,1.38597,-1.39593,1.03892,-0.432618,-2.45954,-1.18176,2.59488,1.38597,-1.39593,1.11191,-0.357174,-2.38612,-1.12011,2.64307,1.32444,-1.39322,-0.715979,0.239571,-1.11684,-0.864755,-1.10363,1.23389,0.0579931,-0.715979,0.239571,-1.11684,-0.864755,-1.10363,1.23389,0.0579931,0.0664035,-0.512469,0.9506,0.977302,0.0303553,0.123671,0.169307,-0.415713,-0.0305586,-0.366657,-0.251775,-0.392148,0.844886,-3.11663,0.0736505,-4.22478,-3.11663,0.0736505,-4.22478,-0.729898,-0.754435,-0.734266,-0.6165,-0.481895,0.615247,-0.0270323,1
1.02981,-0.433431,-2.47165,-1.19288,2.58909,1.3984,-1.38941,1.02981,-0.433431,-2.47165,-1.19288,2.58909,1.3984,-1.38941,1.10462,-0.355541,-2.39701,-1.12906,2.63295,1.33669,-1.39342,-0.729018,0.141777,-1.07857,-0.908942,-0.987544,1.20749,-0.0509822,-0.729018,0.141777,-1.07857,-0.908942,-0.987544,1.20749,-0.0509822,0.0625632,-0.513118,0.94637,0.977659,0.0298947,0.130787,0.161812,-0.448804,-0.0813811,-0.421733,-0.282639,-0.391607,0.801602,-3.08641,0.054121,-4.32835,-3.08641,0.054121,-4.32835,-0.748126,-0.778898,-0.74638,-0.638254,-0.43858,0.617166,0.0401035,1
1.02063,-0.434874,-2.48372,-1.20136,2.59105,1.40813,-1.38311,1.02063,-0.434874,-2.48372,-1.20136,2.59105,1.40813,-1.38311,1.09718,-0.355038,-2.40782,-1.13796,2.62367,1.34877,-1.39476,-0.744371,0.0151125,-1.07366,-0.880515,-0.913949,1.21046,-0.155763,-0.744371,0.0151125,-1.07366,-0.880515,-0.913949,1.21046,-0.155763,0.0581653,-0.514354,0.941682,0.978048,0.0299653,0.137163,0.153983,-0.506566,-0.133325,-0.464956,-0.313142,-0.390171,0.757593,-3.05036,0.143644,-4.40096,-3.05036,0.143644,-4.40096,-0.765568,-0.798353,-0.75902,-0.633936,-0.326183,0.593623,0.116511,1
1.01341,-0.436663,-2.49433,-1.21075,2.59141,1.42216,-1.38646,1.01341,-0.436663,-2.49433,-1.21075,2.59141,1.42216,-1.38646,1.09011,-0.355884,-2.41823,-1.14712,2.61465,1.36086,-1.39577,-0.699752,-0.118083,-1.04362,-0.932156,-0.903019,1.21221,-0.0764493,-0.699752,-0.118083,-1.04362,-0.932156,-0.903019,1.21221,-0.0764493,0.053623,-0.516205,0.936334,0.978275,0.0307037,0.142977,0.146943,-0.509851,-0.191144,-0.542629,-0.344474,-0.38874,0.712806,-3.13313,0.143111,-4.47869,-3.13313,0.143111,-4.47869,-0.766962,-0.807796,-0.760977,-0.636274,-0.232397,0.613091,0.093036,1
1.00654,-0.440147,-2.50564,-1.22004,2.60139,1.43519,-1.39702,1.00654,-0.440147,-2.50564,-1.22004,2.60139,1.43519,-1.39702,1.08284,-0.358213,-2.42926,-1.1563,2.60595,1.37306,-1.39572,-0.729522,-0.266895,-1.10773,-0.91382,-0.854046,1.22223,0.0280438,-0.729522,-0.266895,-1.10773,-0.91382,-0.854046,1.22223,0.0280438,0.0482674,-0.518827,0.930261,0.978413,0.0322562,0.148255,0.140311,-0.598962,-0.25717,-0.607988,-0.375217,-0.387813,0.66702,-3.07438,0.0926822,-4.5786,-3.07438,0.0926822,-4.5786,-0.763038,-0.819338,-0.763831,-0.637383,-0.0455581,0.621312,-0.0129211,1
0.999636,-0.444026,-2.51597,-1.22927,2.60701,1.44809,-1.40088,0.999636,-0.444026,-2.51597,-1.22927,2.60701,1.44809,-1.40088,1.07601,-0.361723,-2.43987,-1.16574,2.5981,1.38534,-1.39476,-0.674129,-0.380329,-1.05816,-0.953189,-0.746703,1.23554,0.117976,-0.674129,-0.380329,-1.05816,-0.953189,-0.746703,1.23554,0.117976,0.0427572,-0.521908,0.923614,0.978421,0.0344136,0.152709,0.134865,-0.598686,-0.294701,-0.668239,-0.405736,-0.38689,0.620612,-3.05184,0.092262,-4.64075,-3.05184,0.092262,-4.64075,-0.763713,-0.823026,-0.760953,-0.635362,0.089169,0.627493,-0.0611908,1
0.992862,-0.448524,-2.5263,-1.23977,2.60445,1.461,-1.4044,0.992862,-0.448524,-2.5263,-1.23977,2.60445,1.461,-1.4044,1.06895,-0.366455,-2.45092,-1.17492,2.59223,1.39752,-1.39357,-0.713355,-0.49544,-1.11351,-0.9134,-0.526744,1.22046,0.107417,-0.713355,-0.49544,-1.11351,-0.9134,-0.526744,1.22046,0.107417,0.0362447,-0.525541,0.916548,0.978543,0.0371662,0.155854,0.129545,-0.703673,-0.33839,-0.704603,-0.438033,-0.386448,0.572639,-3.22976,0.0442624,-4.79739,-3.22976,0.0442624,-4.79739,-0.760908,-0.820694,-0.753856,-0.648425,0.122159,0.634789,-0.108337,1
0.985165,-0.454315,-2.53728,-1.24874,2.60373,1.47278,-1.40214,0.985165,-0.454315,-2.53728,-1.24874,2.60373,1.47278,-1.40214,1.06189,-0.371819,-2.46198,-1.1843,2.58947,1.40987,-1.39341,-0.708273,-0.546926,-1.10977,-0.942834,-0.187016,1.23082,-0.0130871,-0.708273,-0.546926,-1.10977,-0.942834,-0.187016,1.23082,-0.0130871,0.0290002,-0.529361,0.90925,0.978898,0.0401144,0.157295,0.124129,-0.756407,-0.348311,-0.729584,-0.468805,-0.38617,0.523961,-3.07714,0.027743,-4.86777,-3.07714,0.027743,-4.86777,-0.767203,-0.824958,-0.75297,-0.644497,0.142591,0.629071,-0.0873111,1
0.977904,-0.460284,-2.54796,-1.2582,2.59562,1.48481,-1.3888,0.977904,-0.460284,-2.54796,-1.2582,2.59562,1.48481,-1.3888,1.05494,-0.377848,-2.47289,-1.19378,2.58999,1.42229,-1.39406,-0.684077,-0.627066,-1.07891,-0.95579,0.117985,1.24687,-0.079733,-0.684077,-0.627066,-1.07891,-0.95579,0.117985,1.24687,-0.079733,0.0211058,-0.533337,0.901758,0.979489,0.0432317,0.15691,0.118792,-0.794985,-0.362444,-0.760091,-0.499324,-0.385765,0.474413,-3.05192,0.0405669,-4.95482,-3.05192,0.0405669,-4.95482,-0.770348,-0.824361,-0.750655,-0.644231,0.0562665,0.625267,0.0525491,1
0.986821,-0.479445,-2.49473,-1.19367,2.60118,1.54348,-1.42931,0.986821,-0.479445,-2.49473,-1.19367,2.60118,1.54348,-1.42931,0.964064,-0.48841,-2.55235,-1.26024,2.60347,1.4716,-1.4014,-0.0590597,-0.136995,-0.0258147,0.0290625,0.00431442,-0.0785226,-2.39552e-05,-0.0590597,-0.136995,-0.0258147,0.0290625,0.00431442,-0.0785226,-2.39552e-05,-0.0808925,-0.586702,0.813049,0.983827,0.112974,0.1248,0.0612074,-0.106773,-0.0629867,-0.085358,-0.123381,-0.637869,0.815502,62.3924,-25.8597,77.5988,62.3924,-25.8597,77.5988,0.227568,0.0896523,0.576164,0.665726,-0.0228741,0.718803,-0.279116,1
0.986172,-0.540589,-2.50191,-1.20804,2.68114,1.5278,-1.38575,0.986172,-0.540589,-2.50191,-1.20804,2.68114,1.5278,-1.38575,0.96381,-0.48926,-2.55253,-1.25998,2.60345,1.47108,-1.40134,-0.0157357,-0.0718472,-0.0207692,0.0218598,-0.00644287,-0.0376554,0.0123321,-0.0157357,-0.0718472,-0.0207692,0.0218598,-0.00644287,-0.0376554,0.0123321,-0.081786,-0.587379,0.812336,0.983803,0.113933,0.124307,0.060817,-0.0536629,-0.0381667,-0.042985,-0.120807,-0.635983,0.815315,0.257427,0.188625,-0.0186741,0.257427,0.188625,-0.0186741,0.223617,-0.513296,0.506216,0.519376,0.776945,0.567237,0.155878,1
0.995098,-0.529399,-2.50305,-1.22344,2.67894,1.52164,-1.36895,0.995098,-0.529399,-2.50305,-1.22344,2.67894,1.52164,-1.36895,0.963784,-0.489872,-2.55333,-1.26013,2.6029,1.47168,-1.40069,0.00466198,-0.0524443,-0.0898959,-0.0144893,-0.0766626,0.0946538,0.0790978,0.00466198,-0.0524443,-0.0898959,-0.0144893,-0.0766626,0.0946538,0.0790978,-0.0821219,-0.587577,0.811843,0.983749,0.114172,0.124481,0.0608905,-0.0294589,-0.0114983,-0.0445418,-0.118586,-0.634216,0.814721,0.222063,0.176686,-0.059402,0.222063,0.176686,-0.059402,0.313141,-0.395271,0.502759,0.366902,0.760377,0.499641,0.317446,1
0.988471,-0.532192,-2.51395,-1.19868,2.67649,1.52759,-1.37461,0.988471,-0.532192,-2.51395,-1.19868,2.67649,1.52759,-1.37461,0.964353,-0.48983,-2.55269,-1.25922,2.6022,1.47528,-1.40143,0.0712121,0.0159394,0.13654,0.140914,-0.0603828,0.476373,-0.142208,0.0712121,0.0159394,0.13654,0.140914,-0.0603828,0.476373,-0.142208,-0.0819663,-0.587386,0.811928,0.983783,0.113504,0.124763,0.0610079,0.0266808,0.026034,0.0154991,-0.119415,-0.633883,0.814823,-0.0828624,0.0332952,0.0101507,-0.0828624,0.0332952,0.0101507,0.241185,-0.423624,0.387472,0.605352,0.742922,0.523128,0.268172,1
0.97204,-0.546127,-2.55068,-1.184,2.67102,1.54296,-1.42583,0.97204,-0.546127,-2.55068,-1.184,2.67102,1.54296,-1.42583,0.964799,-0.490394,-2.54928,-1.25622,2.60437,1.48347,-1.40289,0.0326458,-0.0941624,0.404574,0.355149,0.362585,0.913245,-0.0846946,0.0326458,-0.0941624,0.404574,0.355149,0.362585,0.913245,-0.0846946,-0.080825,-0.585249,0.81414,0.984663,0.105738,0.124046,0.0622101,0.095289,0.10487,0.14165,-0.125734,-0.635659,0.815395,-0.631875,-0.177568,0.0572324,-0.631875,-0.177568,0.0572324,0.0724115,-0.55733,-0.0139584,0.722186,0.666447,0.594829,-0.229377,1
0.995396,-0.551458,-2.4918,-1.19405,2.68511,1.54902,-1.39919,0.995396,-0.551458,-2.4918,-1.19405,2.68511,1.54902,-1.39919,0.965569,-0.492793,-2.54294,-1.25104,2.6137,1.49341,-1.40082,0.1023,-0.289666,0.702557,0.558071,1.12478,0.99094,0.302046,0.1023,-0.289666,0.702557,0.558071,1.12478,0.99094,0.302046,-0.080896,-0.583637,0.816507,0.985896,0.0978205,0.118533,0.0662607,0.0355861,0.0790573,0.21331,-0.125734,-0.635659,0.815395,0,0,0,0,0,0,0.298276,-0.586654,0.511422,0.56989,0.714151,0.556179,0.016303,1
1.00215,-0.559013,-2.48328,-1.18135,2.70456,1.55661,-1.38854,1.00215,-0.559013,-2.48328,-1.18135,2.70456,1.55661,-1.38854,0.967022,-0.49666,-2.53588,-1.24406,2.62932,1.50295,-1.39596,0.152299,-0.400882,0.66713,0.749704,1.67049,0.951799,0.510637,0.152299,-0.400882,0.66713,0.749704,1.67049,0.951799,0.510637,-0.0820251,-0.582448,0.819118,0.987349,0.0895068,0.109283,0.0720218,-0.00282267,0.0515665,0.217443,-0.125734,-0.635659,0.815395,0,0,0,0,0,0,0.351322,-0.623536,0.526015,0.627073,0.752354,0.536605,0.0742005,1
0.99933,-0.558784,-2.48666,-1.17107,2.71853,1.57293,-1.38696,0.99933,-0.558784,-2.48666,-1.17107,2.71853,1.57293,-1.38696,0.969018,-0.500372,-2.53137,-1.23521,2.64631,1.51255,-1.39352,0.220252,-0.352992,0.375871,0.927015,1.66222,0.974545,0.116466,0.220252,-0.352992,0.375871,0.927015,1.66222,0.974545,0.116466,-0.0841219,-0.58115,0.822204,0.988864,0.0805074,0.099965,0.0753167,-0.138555,0.0643459,0.290723,-0.125734,-0.635659,0.815395,0,0,0,0,0,0,0.303126,-0.584118,0.447079,0.641401,0.722217,0.603824,0.0655853,1
0.99311,-0.555835,-2.48423,-1.15912,2.73089,1.581,-1.37475,0.99311,-0.555835,-2.48423,-1.15912,2.73089,1.581,-1.37475,0.971827,-0.503743,-2.52949,-1.22544,2.66077,1.52254,-1.39457,0.300644,-0.339617,0.147841,0.979303,1.37904,0.999138,-0.118407,0.300644,-0.339617,0.147841,0.979303,1.37904,0.999138,-0.118407,-0.0852163,-0.580422,0.823817,0.989593,0.0757836,0.0960885,0.075694,-0.148169,0.0699589,0.29446,-0.125734,-0.635659,0.815395,0,0,0,0,0,0,0.212831,-0.520929,0.45264,0.663264,0.701169,0.58461,0.198163,1
1.00275,-0.562315,-2.48106,-1.1532,2.74501,1.58905,-1.38533,1.00275,-0.562315,-2.48106,-1.1532,2.74501,1.58905,-1.38533,0.975182,-0.507383,-2.52732,-1.21546,2.67328,1.5323,-1.39465,0.33891,-0.377465,0.26964,0.994847,1.21962,0.971358,0.023993,0.33891,-0.377465,0.26964,0.994847,1.21962,0.971358,0.023993,-0.0870819,-0.57908,0.826824,0.990837,0.0665622,0.0892989,0.0764053,-0.109356,0.0567771,0.27588,-0.125734,-0.635659,0.815395,0,0,0,0,0,0,0.275636,-0.549322,0.462618,0.62261,0.717266,0.567549,0.0932421,1
1.00682,-0.571328,-2.47996,-1.14635,2.75624,1.6008,-1.39353,1.00682,-0.571328,-2.47996,-1.14635,2.75624,1.6008,-1.39353,0.978083,-0.511997,-2.52241,-1.20626,2.68531,1.54207,-1.39395,0.267578,-0.490227,0.569421,0.903249,1.20486,0.989346,0.0839516,0.267578,-0.490227,0.569421,0.903249,1.20486,0.989346,0.0839516,-0.08882,-0.577453,0.830613,0.992241,0.0531145,0.0787889,0.0801807,-0.0477065,0.0321012,0.227888,-0.125734,-0.635659,0.815395,0,0,0,0,0,0,0.287414,-0.593311,0.424472,0.599081,0.709278,0.587285,0.00417593,1
1.00206,-0.575894,-2.47729,-1.13683,2.76867,1.60948,-1.39626,1.00206,-0.575894,-2.47729,-1.13683,2.76867,1.60948,-1.39626,0.980262,-0.517392,-2.51447,-1.19668,2.69757,1.55229,-1.39209,0.205211,-0.552199,0.856162,0.987764,1.23222,1.0363,0.224686,0.205211,-0.552199,0.856162,0.987764,1.23222,1.0363,0.224686,-0.0897681,-0.576394,0.832982,0.992959,0.0436569,0.0706275,0.0844872,-0.0185509,0.0316761,0.227296,-0.125734,-0.635659,0.815395,0,0,0,0,0,0,0.217995,-0.585021,0.371862,0.598467,0.711023,0.571834,-0.0417031,1
0.997364,-0.582996,-2.46837,-1.13012,2.78035,1.61973,-1.38133,0.997364,-0.582996,-2.46837,-1.13012,2.78035,1.61973,-1.38133,0.982179,-0.523661,-2.50542,-1.18644,2.71019,1.56298,-1.39012,0.188819,-0.658914,0.893967,1.03523,1.26982,1.0714,0.174115,0.188819,-0.658914,0.893967,1.03523,1.26982,1.0714,0.174115,-0.0910168,-0.575423,0.835197,0.993537,0.0337954,0.0617781,0.0890274,-0.0624876,0.00577225,0.18666,-0.125734,-0.635659,0.815395,0,0,0,0,0,0,0.151848,-0.593354,0.37048,0.563196,0.701627,0.567412,0.087902,1
0.998325,-0.588558,-2.45858,-1.12188,2.79233,1.62996,-1.37296,0.998325,-0.588558,-2.45858,-1.12188,2.79233,1.62996,-1.37296,0.984491,-0.530946,-2.49726,-1.17592,2.72314,1.5736,-1.38952,0.256624,-0.747391,0.793242,1.06277,1.29873,1.05899,0.0221703,0.256624,-0.747391,0.793242,1.06277,1.29873,1.05899,0.0221703,-0.0927744,-0.574926,0.836768,0.994022,0.0243464,0.0525567,0.0925541,-0.0903766,-0.0168583,0.151746,-0.125734,-0.635659,0.815395,0,0,0,0,0,0,0.138347,-0.57612,0.386766,0.540398,0.69195,0.563607,0.165652,1
1.00156,-0.595859,-2.45222,-1.11446,2.80513,1.64064,-1.37034,1.00156,-0.595859,-2.45222,-1.11446,2.80513,1.64064,-1.37034,0.987906,-0.538655,-2.48995,-1.16576,2.73605,1.58424,-1.38984,0.360993,-0.77354,0.704069,1.01051,1.29124,1.05799,-0.0367068,0.360993,-0.77354,0.704069,1.01051,1.29124,1.05799,-0.0367068,-0.0935443,-0.574832,0.837305,0.994203,0.019792,0.0479168,0.0941901,-0.0685214,-0.054177,0.0934636,-0.125734,-0.635659,0.815395,0,0,0,0,0,0,0.136519,-0.572043,0.37732,0.513055,0.690854,0.56397,0.194998,1
0.990955,-0.599566,-2.44838,-1.10855,2.81836,1.64902,-1.37133,0.990955,-0.599566,-2.44838,-1.10855,2.81836,1.64902,-1.37133,0.991146,-0.546203,-2.48382,-1.15587,2.7489,1.59487,-1.38935,0.301324,-0.749608,0.586039,0.976404,1.2861,1.06802,0.0742526,0.301324,-0.749608,0.586039,0.976404,1.2861,1.06802,0.0742526,-0.0962514,-0.574712,0.83845,0.994506,0.0067015,0.0342226,0.0986954,-0.1302,-0.0570607,0.0526645,-0.125734,-0.635659,0.815395,0,0,0,0,0,0,-0.00190898,-0.533634,0.354435,0.473216,0.694628,0.541511,0.18015,1
0.984903,-0.603341,-2.44059,-1.10667,2.83197,1.65533,-1.37835,0.984903,-0.603341,-2.44059,-1.10667,2.83197,1.65533,-1.37835,0.993638,-0.553558,-2.4779,-1.14673,2.7616,1.60566,-1.38763,0.234454,-0.730853,0.599186,0.905016,1.2624,1.07248,0.207418,0.234454,-0.730853,0.599186,0.905016,1.2624,1.07248,0.207418,-0.0985829,-0.574567,0.838829,0.994486,-0.00165828,0.0252388,0.101777,-0.153207,-0.049431,0.0283565,-0.125734,-0.635659,0.815395,0,0,0,0,0,0,-0.0873429,-0.497826,0.373116,0.400576,0.703782,0.496703,0.0928317,1
0.987531,-0.605633,-2.43284,-1.10045,2.84433,1.66532,-1.38653,0.987531,-0.605633,-2.43284,-1.10045,2.84433,1.66532,-1.38653,0.995431,-0.560609,-2.47182,-1.13766,2.77411,1.6163,-1.38467,0.161855,-0.698748,0.61081,0.908108,1.24593,1.06143,0.317419,0.161855,-0.698748,0.61081,0.908108,1.24593,1.06143,0.317419,-0.101207,-0.574259,0.839249,0.994279,-0.0100163,0.016359,0.105078,-0.187131,-0.0301858,0.039631,-0.125734,-0.635659,0.815395,0,0,0,0,0,0,-0.0789996,-0.450242,0.389854,0.372117,0.702213,0.49022,-0.018624,1
0.986765,-0.611771,-2.42716,-1.09495,2.85711,1.67552,-1.38275,0.986765,-0.611771,-2.42716,-1.09495,2.84842,1.67552,-1.38275,0.996773,-0.567701,-2.46562,-1.1293,2.78652,1.62671,-1.38139,0.127545,-0.71537,0.621344,0.815831,1.23937,1.02438,0.321493,0.127545,-0.71537,0.621344,0.815831,1.23937,1.02438,0.321493,-0.104014,-0.574062,0.83929,0.993923,-0.0179262,0.00742409,0.108358,-0.199524,-0.0469455,-0.010532,-0.125734,-0.635659,0.815395,0,0,0,0,0,0,-0.100082,-0.440696,0.384655,0.343475,0.705945,0.488108,-0.0135326,1
0.98908,-0.616607,-2.41997,-1.08616,2.86817,1.68616,-1.37165,0.98908,-0.616607,-2.41997,-1.08616,2.84842,1.68616,-1.37165,0.998085,-0.575025,-2.459,-1.12153,2.79888,1.63653,-1.37926,0.132674,-0.735275,0.67985,0.768603,1.24275,0.969669,0.175205,0.132674,-0.735275,0.67985,0.768603,1.24275,0.969669,0.175205,-0.106754,-0.57413,0.838937,0.993476,-0.0252476,-0.00174512,0.111201,-0.183576,-0.0646049,-0.0391793,-0.125734,-0.635659,0.815395,0,0,0,0,0,0,-0.090048,-0.415815,0.390344,0.353718,0.692811,0.496307,0.0760932,1
0.992562,-0.623556,-2.41429,-1.075,2.87842,1.69715,-1.36752,0.992562,-0.623556,-2.41429,-1.075,2.84842,1.69715,-1.36752,0.999067,-0.582161,-2.45184,-1.11433,2.81137,1.64572,-1.37887,0.0818025,-0.709462,0.722752,0.698652,1.25484,0.905256,-0.0014141,0.0818025,-0.709462,0.722752,0.698652,1.25484,0.905256,-0.0014141,-0.109487,-0.574252,0.83845,0.99299,-0.0321455,-0.011147,0.113198,-0.179997,-0.0621068,-0.0392353,-0.125734,-0.635659,0.815395,0,0,0,0,0,0,-0.0650465,-0.413954,0.375512,0.393254,0.670538,0.514306,0.113517,1
0.990309,-0.632018,-2.40982,-1.07259,2.88985,1.70654,-1.36867,0.990309,-0.632018,-2.40982,-1.07259,2.84842,1.70654,-1.36867,0.999223,-0.589154,-2.4448,-1.10821,2.82373,1.65466,-1.37906,-0.00401462,-0.69465,0.697622,0.59716,1.21878,0.890683,-0.0122716,-0.00401462,-0.69465,0.697622,0.59716,1.21878,0.890683,-0.0122716,-0.112556,-0.574443,0.837543,0.992466,-0.0384185,-0.0205151,0.114519,-0.211439,-0.0655084,-0.0806926,-0.125734,-0.635659,0.815395,0,0,0,0,0,0,-0.0891463,-0.428633,0.349799,0.356181,0.661216,0.518777,0.103878,1
0.991881,-0.637493,-2.40432,-1.0741,2.90059,1.71149,-1.37719,0.991881,-0.637493,-2.40432,-1.0741,2.84842,1.71149,-1.37719,0.999139,-0.595888,-2.4375,-1.10251,2.83489,1.66359,-1.37864,-0.0046138,-0.662113,0.738894,0.569621,1.06203,0.892792,0.0550423,-0.0046138,-0.662113,0.738894,0.569621,1.06203,0.892792,0.0550423,-0.114057,-0.57452,0.837032,0.992153,-0.0414768,-0.0250476,0.115261,-0.215946,-0.0589505,-0.0957598,-0.125734,-0.635659,0.815395,0,0,0,0,0,0,-0.0725826,-0.416046,0.331818,0.284125,0.656981,0.478929,0.0145237,1
0.990885,-0.640559,-2.40281,-1.07857,2.90956,1.71217,-1.38398,0.990885,-0.640559,-2.40281,-1.07857,2.84842,1.71217,-1.38398,0.999104,-0.602271,-2.43023,-1.09696,2.84361,1.67267,-1.37756,-0.00764576,-0.636635,0.713776,0.55131,0.804842,0.917971,0.128576,-0.00764576,-0.636635,0.713776,0.55131,0.804842,0.917971,0.128576,-0.117748,-0.574495,0.835705,0.991029,-0.0507663,-0.0367908,0.118025,-0.165835,-0.0417535,-0.0764978,-0.125734,-0.635659,0.815395,0,0,0,0,0,0,-0.0821906,-0.382878,0.274209,0.183974,0.659467,0.394928,-0.0641739,1
0.990085,-0.640066,-2.40132,-1.08166,2.91529,1.70695,-1.38486,0.990085,-0.640066,-2.40132,-1.08166,2.84842,1.70695,-1.38486,0.998849,-0.608638,-2.42357,-1.09153,2.84952,1.68215,-1.37602,-0.0278267,-0.638888,0.655246,0.551034,0.521599,0.952401,0.153514,-0.0278267,-0.638888,0.655246,0.551034,0.521599,0.952401,0.153514,-0.119905,-0.574372,0.8347,0.990242,-0.0569229,-0.0427265,0.119811,-0.159974,-0.0346515,-0.0914871,-0.125734,-0.635659,0.815395,0,0,0,0,0,0,-0.0876393,-0.314283,0.222455,0.0986493,0.657724,0.247997,-0.088437,1
0.991433,-0.640934,-2.4076,-1.07001,2.91641,1.68888,-1.38337,0.991433,-0.640934,-2.4076,-1.07001,2.84842,1.68888,-1.38337,0.998547,-0.615011,-2.41714,-1.08605,2.8528,1.69164,-1.37539,-0.0326938,-0.63367,0.634808,0.546338,0.270774,0.943589,0.0344315,-0.0326938,-0.63367,0.634808,0.546338,0.270774,0.943589,0.0344315,-0.121747,-0.574223,0.833675,0.98952,-0.0629576,-0.0473428,0.121014,-0.142235,-0.0324831,-0.0937587,-0.125734,-0.635659,0.815395,0,0,0,0,0,0,-0.0711344,-0.259226,0.0953903,0.160398,0.636103,-0.0275959,-0.0798416,1
0.988513,-0.638055,-2.42514,-1.06355,2.91351,1.67017,-1.37925,0.988513,-0.638055,-2.42514,-1.06355,2.84842,1.67017,-1.37925,0.997774,-0.62108,-2.41132,-1.08112,2.85415,1.70057,-1.37585,-0.0964754,-0.594169,0.556357,0.46748,0.0959529,0.862214,-0.0659149,-0.0964754,-0.594169,0.556357,0.46748,0.0959529,0.862214,-0.0659149,-0.123538,-0.574081,0.832557,0.98895,-0.0683909,-0.050847,0.121309,-0.137741,-0.0281621,-0.0982183,-0.125734,-0.635659,0.815395,0,0,0,0,0,0,-0.0926093,-0.169744,-0.138193,0.175622,0.593674,-0.30401,-0.0339979,1
0.985374,-0.626402,-2.43264,-1.07458,2.90829,1.6672,-1.38103,0.985374,-0.626402,-2.43264,-1.07458,2.84842,1.6672,-1.38103,0.99647,-0.62655,-2.40644,-1.07763,2.85421,1.70759,-1.37686,-0.135221,-0.526037,0.471387,0.328136,-0.0176029,0.636138,-0.108951,-0.135221,-0.526037,0.471387,0.328136,-0.0176029,0.636138,-0.108951,-0.125255,-0.574197,0.831194,0.988573,-0.072237,-0.0534372,0.121033,-0.141764,-0.0443088,-0.126245,-0.125734,-0.635659,0.815395,0,0,0,0,0,0,-0.110955,0.00147751,-0.262025,0.0305151,0.540886,-0.403941,-0.041774,1
0.999499,-0.616832,-2.4281,-1.08296,2.90197,1.68255,-1.40077,0.999499,-0.616832,-2.4281,-1.08296,2.84842,1.68255,-1.40077,0.995094,-0.631467,-2.40299,-1.07478,2.85368,1.71086,-1.37795,-0.134946,-0.491138,0.281936,0.263983,-0.0632016,0.219089,-0.104936,-0.134946,-0.491138,0.281936,0.263983,-0.0632016,0.219089,-0.104936,-0.126977,-0.57487,0.829823,0.988428,-0.0738732,-0.0553718,0.120365,-0.163256,-0.0978378,-0.146272,-0.125734,-0.635659,0.815395,0,0,0,0,0,0,0.0440531,0.146346,-0.251033,-0.0817539,0.482909,-0.283131,-0.228157,1
1.00482,-0.630886,-2.43543,-1.0726,2.91062,1.73687,-1.40387,1.00482,-0.630886,-2.43543,-1.0726,2.84842,1.73687,-1.40387,0.99403,-0.635986,-2.40245,-1.0721,2.85276,1.71,-1.37864,-0.0918014,-0.427488,-0.0184682,0.275452,-0.099577,-0.181769,-0.0612769,-0.0918014,-0.427488,-0.0184682,0.275452,-0.099577,-0.181769,-0.0612769,-0.128941,-0.576285,0.82836,0.988583,-0.0730452,-0.0563932,0.119111,-0.192539,-0.140619,-0.138397,-0.125734,-0.635659,0.815395,0,0,0,0,0,0,0.107953,0.0509929,-0.329727,-0.00509253,0.578657,0.268723,-0.252271,1
0.991473,-0.633819,-2.43345,-1.0515,2.91766,1.7539,-1.36714,0.991473,-0.633819,-2.43345,-1.0515,2.84842,1.7539,-1.36714,0.993788,-0.639643,-2.40448,-1.07045,2.85177,1.70571,-1.37922,-0.000755026,-0.346413,-0.2636,0.116633,-0.0955118,-0.50214,-0.0599945,-0.000755026,-0.346413,-0.2636,0.116633,-0.0955118,-0.50214,-0.0599945,-0.130571,-0.578321,0.826768,0.98897,-0.0699015,-0.0566485,0.117661,-0.153737,-0.189588,-0.176039,-0.125734,-0.635659,0.815395,0,0,0,0,0,0,-0.0231512,0.0582427,-0.289706,0.189496,0.658884,0.481974,0.12076,1
0.993912,-0.640695,-2.4051,-1.05518,2.91815,1.74132,-1.37379,0.993912,-0.640695,-2.4051,-1.05518,2.84842,1.74132,-1.37379,0.994276,-0.642128,-2.40823,-1.07052,2.85084,1.70057,-1.38112,0.0644767,-0.214727,-0.396939,-0.0481178,-0.0932108,-0.483659,-0.247133,0.0644767,-0.214727,-0.396939,-0.0481178,-0.0932108,-0.483659,-0.247133,-0.131173,-0.579438,0.825894,0.989233,-0.0677611,-0.0565349,0.116746,-0.127624,-0.187708,-0.180422,-0.125734,-0.635659,0.815395,0,0,0,0,0,0,-0.00364694,0.0143215,0.0313564,0.153397,0.673087,0.407415,0.073282,1
0.995936,-0.660428,-2.40601,-1.04111,2.91655,1.70482,-1.36238,0.995936,-0.660428,-2.40601,-1.04111,2.84842,1.70482,-1.36238,0.994978,-0.64356,-2.41286,-1.07123,2.84999,1.69872,-1.38489,0.0635779,-0.130547,-0.490622,-0.065807,-0.080977,-0.0537985,-0.40455,0.0635779,-0.130547,-0.490622,-0.065807,-0.080977,-0.0537985,-0.40455,-0.132307,-0.581792,0.823463,0.990115,-0.062913,-0.0553782,0.112461,-0.0948222,-0.0904693,-0.157212,-0.125734,-0.635659,0.815395,0,0,0,0,0,0,0.0095746,-0.168684,0.0684246,0.301231,0.665635,0.0609393,0.225112,1
0.976544,-0.662008,-2.40977,-1.05783,2.91446,1.67448,-1.36562,0.976544,-0.662008,-2.40977,-1.05783,2.84842,1.67448,-1.36562,0.995655,-0.64486,-2.418,-1.07117,2.84937,1.70209,-1.38686,0.0773481,-0.130943,-0.506226,0.0428926,-0.0554548,0.464736,-0.096811,0.0773481,-0.130943,-0.506226,0.0428926,-0.0554548,0.464736,-0.096811,-0.133322,-0.582093,0.822067,0.990482,-0.0631561,-0.0541196,0.109671,-0.114072,-0.0537547,-0.152049,-0.125734,-0.635659,0.815395,0,0,0,0,0,0,-0.191111,-0.171479,0.0823631,0.133388,0.650915,-0.276057,0.212331,1
0.973385,-0.658852,-2.41801,-1.05732,2.91401,1.66734,-1.38559,0.973385,-0.658852,-2.41801,-1.05732,2.84842,1.66734,-1.38559,0.996886,-0.646464,-2.42142,-1.06996,2.84887,1.70973,-1.38576,0.129876,-0.174974,-0.279371,0.137403,-0.0461548,0.82831,0.149159,0.129876,-0.174974,-0.279371,0.137403,-0.0461548,0.82831,0.149159,-0.133676,-0.581899,0.821525,0.990486,-0.0645005,-0.0535504,0.109129,-0.0785273,0.0139308,-0.106662,-0.125734,-0.635659,0.815395,0,0,0,0,0,0,-0.235012,-0.123888,0.0340961,0.12639,0.651331,-0.423889,0.00163311,1
0.988012,-0.650609,-2.43264,-1.06729,2.90982,1.67824,-1.41556,0.988012,-0.650609,-2.43264,-1.06729,2.84842,1.67824,-1.41556,0.997678,-0.648849,-2.42248,-1.06786,2.84859,1.71633,-1.38314,0.0561595,-0.256876,-0.0463681,0.231709,-0.0238923,0.552642,0.302405,0.0561595,-0.256876,-0.0463681,0.231709,-0.0238923,0.552642,0.302405,-0.134629,-0.581302,0.820146,0.990119,-0.0695019,-0.0530851,0.109613,-0.0743933,-0.00933308,-0.0777122,-0.125734,-0.635659,0.815395,0,0,0,0,0,0,-0.0966614,-0.0176028,-0.101635,0.00564982,0.612266,-0.3809,-0.324176,1
1.01813,-0.642715,-2.45325,-1.06228,2.90943,1.71936,-1.42122,1.01813,-0.642715,-2.45325,-1.06228,2.84842,1.71936,-1.42122,0.997611,-0.651729,-2.42163,-1.0656,2.84845,1.71745,-1.37956,-0.0267854,-0.291164,0.111073,0.209717,-0.0101437,-0.0338443,0.360411,-0.0267854,-0.291164,0.111073,0.209717,-0.0101437,-0.0338443,0.360411,-0.135567,-0.581885,0.819391,0.989856,-0.0702354,-0.0538632,0.111135,-0.0818975,-0.0455283,-0.0720016,-0.125734,-0.635659,0.815395,0,0,0,0,0,0,0.205197,0.0901348,-0.31615,0.0332098,0.609803,0.0190796,-0.4166,1
0.9949,-0.664141,-2.46797,-1.04507,2.91137,1.76646,-1.37028,0.9949,-0.664141,-2.46797,-1.04507,2.84842,1.76646,-1.37028,0.9965,-0.653904,-2.42091,-1.06332,2.84847,1.71341,-1.37783,-0.137684,-0.182767,0.0535803,0.223956,0.00268443,-0.516532,0.0960873,-0.137684,-0.182767,0.0535803,0.223956,0.00268443,-0.516532,0.0960873,-0.136968,-0.582913,0.819134,0.989896,-0.0686522,-0.0546997,0.111361,-0.145402,-0.0869697,-0.00953041,-0.125734,-0.635659,0.815395,0,0,0,0,0,0,-0.0159986,-0.102366,-0.470556,0.182468,0.628926,0.530517,0.0755655,1
1.00429,-0.656238,-2.43771,-1.0513,2.91374,1.75787,-1.3533,1.00429,-0.656238,-2.43771,-1.0513,2.84842,1.75787,-1.3533,0.994862,-0.655115,-2.42126,-1.06254,2.84847,1.70656,-1.37957,-0.170124,-0.09562,-0.0702979,0.0472407,0.00116966,-0.708671,-0.262317,-0.170124,-0.09562,-0.0702979,0.0472407,0.00116966,-0.708671,-0.262317,-0.138411,-0.584227,0.818822,0.990303,-0.0650883,-0.0552309,0.109603,-0.145834,-0.0985643,-0.0357842,-0.125734,-0.635659,0.815395,0,0,0,0,0,0,0.0942845,-0.0112266,-0.164552,0.112339,0.652664,0.513064,0.262629,1
0.995509,-0.661843,-2.44181,-1.02788,2.91193,1.74385,-1.36709,0.995509,-0.661843,-2.44181,-1.02788,2.84842,1.74385,-1.36709,0.993034,-0.655458,-2.42355,-1.06229,2.84846,1.70187,-1.38496,-0.180251,-0.0249506,-0.284799,0.0159866,-0.00375817,-0.356762,-0.622003,-0.180251,-0.0249506,-0.284799,0.0159866,-0.00375817,-0.356762,-0.622003,-0.14009,-0.584975,0.818524,0.99097,-0.062252,-0.055024,0.105239,-0.165937,-0.0669669,-0.0268066,-0.125734,-0.635659,0.815395,0,0,0,0,0,0,0.0247489,-0.0638446,-0.182563,0.344082,0.634758,0.419812,0.178735,1
0.984101,-0.68313,-2.41176,-1.04446,2.91406,1.69767,-1.35843,0.984101,-0.68313,-2.41176,-1.04446,2.84842,1.69767,-1.35843,0.991938,-0.655811,-2.42804,-1.0619,2.8484,1.70277,-1.38979,-0.0782432,-0.042555,-0.506717,0.0527174,-0.00559889,0.246905,-0.371622,-0.0782432,-0.042555,-0.506717,0.0527174,-0.00559889,0.246905,-0.371622,-0.140983,-0.585063,0.818255,0.991299,-0.0616937,-0.0546253,0.102647,-0.189069,-0.0113952,-0.0558095,-0.125734,-0.635659,0.815395,0,0,0,0,0,0,-0.0783733,-0.273197,0.162745,0.174397,0.65656,-0.0509569,0.313653,1
0.975351,-0.684414,-2.43944,-1.02722,2.91549,1.67333,-1.36889,0.975351,-0.684414,-2.43944,-1.02722,2.84842,1.67333,-1.36889,0.992378,-0.656304,-2.43358,-1.06097,2.84823,1.70982,-1.38923,0.0857691,-0.0462461,-0.533969,0.105243,-0.0203056,0.84228,0.19233,0.0857691,-0.0462461,-0.533969,0.105243,-0.0203056,0.84228,0.19233,-0.14308,-0.584152,0.817123,0.991663,-0.0646799,-0.0522843,0.0984227,-0.106074,0.0693455,-0.0688967,-0.125734,-0.635659,0.815395,0,0,0,0,0,0,-0.170268,-0.281098,-0.0586275,0.337478,0.672549,-0.364952,0.203379,1
0.96404,-0.676131,-2.43162,-1.0468,2.91489,1.68155,-1.39907,0.96404,-0.676131,-2.43162,-1.0468,2.84842,1.68155,-1.39907,0.993603,-0.65694,-2.4375,-1.05892,2.84809,1.71982,-1.38484,0.114998,-0.085889,-0.356415,0.233387,-0.00979805,1.00192,0.481108,0.114998,-0.085889,-0.356415,0.233387,-0.00979805,1.00192,0.481108,-0.143689,-0.582766,0.816789,0.99134,-0.0697601,-0.0507477,0.0990098,-0.0748921,0.0912311,-0.0274547,-0.125734,-0.635659,0.815395,0,0,0,0,0,0,-0.295629,-0.191914,0.0588643,0.121269,0.668014,-0.382776,-0.142347,1
0.992837,-0.653347,-2.45524,-1.05112,2.9105,1.68979,-1.41903,0.992837,-0.653347,-2.45524,-1.05112,2.84842,1.68979,-1.41903,0.994787,-0.659007,-2.43884,-1.05628,2.84802,1.72637,-1.37963,0.126311,-0.246905,-0.043334,0.275667,-0.0102391,0.504752,0.537456,0.126311,-0.246905,-0.043334,0.275667,-0.0102391,0.504752,0.537456,-0.14422,-0.582322,0.816226,0.990908,-0.0733044,-0.050431,0.10092,-0.035634,-0.0155101,-0.0575772,-0.125734,-0.635659,0.815395,0,0,0,0,0,0,-0.0194974,0.0566016,-0.163943,0.0516144,0.62476,-0.365732,-0.393974,1
1.01509,-0.655524,-2.47022,-1.05501,2.91108,1.75179,-1.41319,1.01509,-0.655524,-2.47022,-1.05501,2.84842,1.75179,-1.41319,0.995392,-0.662501,-2.43829,-1.05217,2.84803,1.72637,-1.37516,0.0223261,-0.38828,0.0516628,0.445875,0.00370064,-0.153994,0.391815,0.0223261,-0.38828,0.0516628,0.445875,0.00370064,-0.153994,0.391815,-0.145278,-0.583156,0.81573,0.990615,-0.0740601,-0.051304,0.102787,-0.134758,-0.112442,-0.0559583,-0.125734,-0.635659,0.815395,0,0,0,0,0,0,0.196984,0.0697624,-0.319332,-0.0283803,0.630558,0.254171,-0.380325,1
0.988116,-0.661473,-2.47934,-1.03776,2.91532,1.77226,-1.35064,0.988116,-0.661473,-2.47934,-1.03776,2.84842,1.77226,-1.35064,0.995289,-0.666998,-2.43812,-1.04841,2.84805,1.72117,-1.37424,-0.00206125,-0.446522,0.0255618,0.342597,0.00143808,-0.620721,-0.0196177,-0.00206125,-0.446522,0.0255618,0.342597,0.00143808,-0.620721,-0.0196177,-0.14704,-0.585232,0.814607,0.990745,-0.0715398,-0.0527587,0.102579,-0.178959,-0.168726,-0.107042,-0.125734,-0.635659,0.815395,0,0,0,0,0,0,-0.0717307,0.0552455,-0.41215,0.106502,0.672744,0.51093,0.236013,1
1.00629,-0.669024,-2.45269,-1.04146,2.91233,1.76013,-1.35592,1.00629,-0.669024,-2.45269,-1.04146,2.84842,1.76013,-1.35592,0.994826,-0.670503,-2.43869,-1.04564,2.84811,1.71406,-1.37757,-0.0766374,-0.3196,-0.109342,0.24071,0.00895438,-0.69864,-0.44029,-0.0766374,-0.3196,-0.109342,0.24071,0.00895438,-0.69864,-0.44029,-0.148771,-0.587357,0.813647,0.991198,-0.0677739,-0.0540062,0.100087,-0.185112,-0.168804,-0.1021,-0.125734,-0.635659,0.815395,0,0,0,0,0,0,0.114683,0.0147893,-0.140002,0.0417814,0.642263,0.460717,0.216573,1
0.990008,-0.679288,-2.45328,-1.01006,2.91197,1.73676,-1.35786,0.990008,-0.679288,-2.45328,-1.01006,2.84842,1.73676,-1.35786,0.993592,-0.672907,-2.44132,-1.04481,2.84817,1.71051,-1.38427,-0.128612,-0.209899,-0.309989,0.0337828,0.00444843,-0.204554,-0.715981,-0.128612,-0.209899,-0.309989,0.0337828,0.00444843,-0.204554,-0.715981,-0.149805,-0.588178,0.813018,0.99153,-0.0660478,-0.0543209,0.0977481,-0.206964,-0.136209,-0.129504,-0.125734,-0.635659,0.815395,0,0,0,0,0,0,-0.0358362,-0.0638133,-0.119618,0.347491,0.637982,0.262479,0.264127,1
0.982184,-0.697905,-2.43083,-1.03923,2.91382,1.68829,-1.35787,0.982184,-0.697905,-2.43083,-1.03923,2.84842,1.68829,-1.35787,0.992461,-0.674242,-2.44603,-1.04446,2.84817,1.71343,-1.38862,-0.105507,-0.120499,-0.529798,0.0317455,-0.0015723,0.457823,-0.284235,-0.105507,-0.120499,-0.529798,0.0317455,-0.0015723,0.457823,-0.284235,-0.151831,-0.588861,0.811687,0.992152,-0.0645649,-0.0540931,0.0924088,-0.211293,-0.0278226,-0.124783,-0.125734,-0.635659,0.815395,0,0,0,0,0,0,-0.10277,-0.236631,0.151969,0.0523145,0.65651,-0.251432,0.307514,1
0.967122,-0.700242,-2.45924,-1.00833,2.91608,1.68204,-1.37873,0.967122,-0.700242,-2.45924,-1.00833,2.84842,1.68204,-1.37873,0.992496,-0.675405,-2.45159,-1.04439,2.84811,1.72185,-1.38673,0.0506322,-0.107256,-0.524873,0.00539279,-0.00841753,0.93011,0.32703,0.0506322,-0.107256,-0.524873,0.00539279,-0.00841753,0.93011,0.32703,-0.153797,-0.588411,0.810251,0.992426,-0.0662103,-0.0526815,0.0890598,-0.195876,0.0393901,-0.154255,-0.125734,-0.635659,0.815395,0,0,0,0,0,0,-0.253739,-0.248372,-0.076481,0.360572,0.679716,-0.398167,0.0800855,1
0.967072,-0.690805,-2.44944,-1.03736,2.91462,1.69401,-1.40869,0.967072,-0.690805,-2.44944,-1.03736,2.84842,1.69401,-1.40869,0.993596,-0.676393,-2.45543,-1.04343,2.84811,1.73027,-1.38118,0.114212,-0.109395,-0.34501,0.123836,0.0035474,0.766362,0.594181,0.114212,-0.109395,-0.34501,0.123836,0.0035474,0.766362,0.594181,-0.154881,-0.587128,0.808659,0.992063,-0.0715839,-0.0504934,0.090208,-0.0578079,0.0433224,-0.075279,-0.125734,-0.635659,0.815395,0,0,0,0,0,0,-0.265247,-0.144122,0.0599168,0.0606552,0.665048,-0.362571,-0.275156,1
1.01271,-0.665076,-2.48159,-1.03911,2.9119,1.7089,-1.4182,1.01271,-0.665076,-2.48159,-1.03911,2.84842,1.7089,-1.4182,0.99496,-0.678231,-2.45668,-1.0419,2.8481,1.73369,-1.37522,0.143347,-0.20768,-0.041023,0.152347,-0.00327896,0.178653,0.584221,0.143347,-0.20768,-0.041023,0.152347,-0.00327896,0.178653,0.584221,-0.155029,-0.587303,0.807902,0.991707,-0.0731705,-0.0502851,0.0929206,0.00499412,-0.0577096,-0.0748321,-0.125734,-0.635659,0.815395,0,0,0,0,0,0,0.177468,0.131547,-0.249076,0.0278783,0.637988,-0.24791,-0.429792,1
1.0012,-0.690072,-2.50117,-1.02444,2.91183,1.77972,-1.39237,1.0012,-0.690072,-2.50117,-1.02444,2.84842,1.77972,-1.39237,0.9955,-0.680803,-2.45654,-1.0399,2.8482,1.73068,-1.37176,0.00548891,-0.266296,-0.00100671,0.228413,0.0151484,-0.439568,0.249194,0.00548891,-0.266296,-0.00100671,0.228413,0.0151484,-0.439568,0.249194,-0.155657,-0.588597,0.807189,0.991614,-0.071704,-0.0510954,0.0946005,-0.0160695,-0.10467,-0.0776124,-0.125734,-0.635659,0.815395,0,0,0,0,0,0,0.0569822,-0.0926852,-0.4463,0.154675,0.636232,0.490439,-0.206129,1
0.99855,-0.680953,-2.48525,-1.02367,2.91582,1.77456,-1.34331,0.99855,-0.680953,-2.48525,-1.02367,2.84842,1.77456,-1.34331,0.994851,-0.683205,-2.45681,-1.0369,2.84825,1.72381,-1.37258,-0.0682279,-0.227538,-0.0244604,0.298451,-0.0051773,-0.738271,-0.190758,-0.0682279,-0.227538,-0.0244604,0.298451,-0.0051773,-0.738271,-0.190758,-0.157182,-0.590149,0.806955,0.991898,-0.0687072,-0.0519622,0.0933678,-0.151046,-0.127774,-0.0343221,-0.125734,-0.635659,0.815395,0,0,0,0,0,0,0.0369896,0.0225196,-0.284367,0.132278,0.67568,0.507529,0.292767,1
1.00418,-0.680297,-2.47426,-1.00936,2.91226,1.7634,-1.3606,1.00418,-0.680297,-2.47426,-1.00936,2.84842,1.7634,-1.3606,0.994039,-0.685565,-2.45844,-1.03488,2.84819,1.71747,-1.37764,-0.0886855,-0.23975,-0.224554,0.160017,0,-0.571003,-0.603133,-0.0886855,-0.23975,-0.224554,0.160017,0,-0.571003,-0.603133,-0.158917,-0.591769,0.80622,0.992451,-0.0651806,-0.0525627,0.0896027,-0.187409,-0.131216,-0.103059,-0.125734,-0.635659,0.815395,0,0,0,0,0,0,0.10143,0.0526783,-0.158187,0.255195,0.640679,0.459328,0.170472,1
0.990258,-0.711158,-2.46368,-1.00479,2.91227,1.72525,-1.35237,0.990258,-0.711158,-2.46368,-1.00479,2.84842,1.72525,-1.35237,0.993428,-0.687192,-2.4621,-1.03429,2.84822,1.71577,-1.38386,-0.0458048,-0.126581,-0.410158,0.0276842,-0.00113132,-0.00604021,-0.565825,-0.0458048,-0.126581,-0.410158,0.0276842,-0.00113132,-0.00604021,-0.565825,-0.160564,-0.592639,0.805072,0.993022,-0.0631933,-0.0523082,0.0847228,-0.158139,-0.0459303,-0.115231,-0.125734,-0.635659,0.815395,0,0,0,0,0,0,-0.0317027,-0.239665,-0.0158755,0.295005,0.640508,0.0948192,0.314956,1
0.976784,-0.71585,-2.46504,-1.00754,2.9144,1.68753,-1.36049,0.976784,-0.71585,-2.46504,-1.00754,2.84842,1.68753,-1.36049,0.993153,-0.687494,-2.46745,-1.0339,2.84807,1.72087,-1.38564,-0.0250956,-0.00719072,-0.566748,0.049592,-0.0161839,0.68265,-0.0244484,-0.0250956,-0.00719072,-0.566748,0.049592,-0.0161839,0.68265,-0.0244484,-0.161943,-0.591988,0.804293,0.993278,-0.0648054,-0.0506224,0.0814608,-0.154361,0.0783077,-0.0665795,-0.125734,-0.635659,0.815395,0,0,0,0,0,0,-0.163688,-0.283558,0.0241494,0.263661,0.663302,-0.333451,0.251435,1
0.966064,-0.714359,-2.47643,-1.00615,2.91577,1.6921,-1.38727,0.966064,-0.714359,-2.47643,-1.00615,2.84842,1.6921,-1.38727,0.993245,-0.687329,-2.47245,-1.03244,2.84794,1.73072,-1.38241,0.0236095,0.0194629,-0.447598,0.189919,-0.0108149,1.0307,0.408612,0.0236095,0.0194629,-0.447598,0.189919,-0.0108149,1.0307,0.408612,-0.163036,-0.590235,0.804106,0.993124,-0.0696299,-0.0484175,0.0806967,-0.109917,0.142328,0.00724071,-0.125734,-0.635659,0.815395,0,0,0,0,0,0,-0.271813,-0.270304,-0.0398015,0.262921,0.678305,-0.386199,-0.0485784,1
0.974961,-0.699348,-2.48296,-1.02081,2.91307,1.70324,-1.40892,0.974961,-0.699348,-2.48296,-1.02081,2.84842,1.70324,-1.40892,0.993867,-0.688052,-2.47523,-1.02959,2.84784,1.73867,-1.37703,0.0780072,-0.117496,-0.216069,0.303089,-0.0113709,0.667706,0.565681,0.0780072,-0.117496,-0.216069,0.303089,-0.0113709,0.667706,0.565681,-0.163777,-0.588944,0.804168,0.992761,-0.0742244,-0.0470236,0.0818886,-0.0927571,0.119754,0.0209955,-0.125734,-0.635659,0.815395,0,0,0,0,0,0,-0.189058,-0.112957,-0.0772974,0.0878376,0.652355,-0.354317,-0.318856,1
1.01354,-0.67708,-2.502,-1.02555,2.91098,1.74034,-1.41041,1.01354,-0.67708,-2.502,-1.02555,2.84842,1.74034,-1.41041,0.995023,-0.690661,-2.47575,-1.02597,2.8477,1.74036,-1.3717,0.118143,-0.305941,-0.012368,0.389653,-0.0116394,-0.0111336,0.496531,0.118143,-0.305941,-0.012368,0.389653,-0.0116394,-0.0111336,0.496531,-0.164029,-0.588923,0.804026,0.992583,-0.0754111,-0.0468909,0.0830272,-0.0496454,-0.0154806,-0.0257043,-0.125734,-0.635659,0.815395,0,0,0,0,0,0,0.185184,0.135812,-0.262504,0.00421274,0.632777,-0.000236999,-0.387068,1
0.990807,-0.695339,-2.52018,-1.01043,2.91374,1.78784,-1.36642,0.990807,-0.695339,-2.52018,-1.01043,2.84842,1.78784,-1.36642,0.995529,-0.694482,-2.47614,-1.02138,2.84774,1.736,-1.36968,0.0270371,-0.39658,-0.0476864,0.473508,0.00816866,-0.562122,0.0920891,0.0270371,-0.39658,-0.0476864,0.473508,0.00816866,-0.562122,0.0920891,-0.164956,-0.59003,0.803518,0.992429,-0.0752618,-0.0475236,0.0846313,-0.113904,-0.131083,-0.0576624,-0.125734,-0.635659,0.815395,0,0,0,0,0,0,-0.0472163,-0.0085698,-0.440399,0.109463,0.660042,0.518401,0.0325743,1
1.0026,-0.694372,-2.49168,-1.01255,2.91406,1.77559,-1.34827,1.0026,-0.694372,-2.49168,-1.01255,2.84842,1.77559,-1.34827,0.995456,-0.698166,-2.47687,-1.01769,2.84779,1.72894,-1.37185,-0.0199782,-0.347743,-0.0916217,0.336549,0.00605938,-0.709915,-0.315768,-0.0199782,-0.347743,-0.0916217,0.336549,0.00605938,-0.709915,-0.315768,-0.166636,-0.591991,0.802814,0.992652,-0.0725245,-0.0486842,0.0837321,-0.161746,-0.181555,-0.0832924,-0.125734,-0.635659,0.815395,0,0,0,0,0,0,0.0714453,0.0379403,-0.148088,0.0513638,0.662687,0.46648,0.235818,1
0.993539,-0.706696,-2.4911,-0.985395,2.9126,1.75951,-1.3586,0.993539,-0.706696,-2.4911,-0.985395,2.84842,1.75951,-1.3586,0.994628,-0.700892,-2.47911,-1.01564,2.84784,1.72442,-1.37757,-0.100905,-0.250213,-0.270777,0.157026,0.00592484,-0.334412,-0.639883,-0.100905,-0.250213,-0.270777,0.157026,0.00592484,-0.334412,-0.639883,-0.169472,-0.594437,0.801337,0.993389,-0.0678734,-0.049761,0.0780735,-0.206308,-0.100886,-0.120812,-0.125734,-0.635659,0.815395,0,0,0,0,0,0,-0.0108913,-0.0580381,-0.119885,0.302399,0.647649,0.3509,0.189715,1
0.985047,-0.725625,-2.46307,-1.0018,2.91273,1.7128,-1.35256,0.985047,-0.725625,-2.46307,-1.0018,2.84842,1.7128,-1.35256,0.993422,-0.702691,-2.48321,-1.01467,2.84791,1.72547,-1.38231,-0.12099,-0.161352,-0.463659,0.0813351,0.00471689,0.263096,-0.360537,-0.12099,-0.161352,-0.463659,0.0813351,0.00471689,0.263096,-0.360537,-0.170535,-0.594733,0.800743,0.993635,-0.06724,-0.049644,0.0755283,-0.218347,-0.0507776,-0.120602,-0.125734,-0.635659,0.815395,0,0,0,0,0,0,-0.0837452,-0.229336,0.20138,0.12867,0.648133,-0.126655,0.297524,1
0.973143,-0.730201,-2.48646,-0.983611,2.91506,1.698,-1.36465,0.973143,-0.730201,-2.48646,-0.983611,2.84842,1.698,-1.36465,0.992993,-0.704123,-2.48831,-1.01444,2.84786,1.73247,-1.38191,-0.00581221,-0.132483,-0.490683,0.0180838,-0.00765055,0.82609,0.165834,-0.00581221,-0.132483,-0.490683,0.0180838,-0.00765055,0.82609,0.165834,-0.173245,-0.594152,0.798599,0.993903,-0.0694414,-0.0477028,0.0711322,-0.205781,0.0244756,-0.154803,-0.125734,-0.635659,0.815395,0,0,0,0,0,0,-0.198492,-0.260782,0.0184671,0.308284,0.671961,-0.344673,0.172628,1
0.965688,-0.722549,-2.4805,-1.00535,2.9151,1.70291,-1.39787,0.965688,-0.722549,-2.4805,-1.00535,2.84842,1.70291,-1.39787,0.993387,-0.705216,-2.4919,-1.01349,2.84783,1.74161,-1.37789,0.0389359,-0.120055,-0.322764,0.112829,0.000805311,0.884595,0.451447,0.0389359,-0.120055,-0.322764,0.112829,0.000805311,0.884595,0.451447,-0.17406,-0.593066,0.797663,0.993657,-0.0734135,-0.0462595,0.0715259,-0.0938992,0.0780687,-0.0946335,-0.125734,-0.635659,0.815395,0,0,0,0,0,0,-0.276988,-0.17333,0.113961,0.0814423,0.672694,-0.386985,-0.199764,1
1.00261,-0.696049,-2.50771,-1.01067,2.91194,1.7162,-1.41109,1.00261,-0.696049,-2.50771,-1.01067,2.84842,1.7162,-1.41109,0.994013,-0.707064,-2.49294,-1.01189,2.84786,1.74674,-1.3728,0.0721194,-0.203931,-0.0184912,0.184145,5.74898e-05,0.358524,0.521637,0.0721194,-0.203931,-0.0184912,0.184145,5.74898e-05,0.358524,0.521637,-0.174539,-0.592807,0.796883,0.993344,-0.0758782,-0.0459356,0.0734838,-0.0647931,0.0286428,-0.0851492,-0.125734,-0.635659,0.815395,0,0,0,0,0,0,0.0859875,0.110147,-0.147699,0.0122371,0.640834,-0.305435,-0.382915,1
1.00772,-0.709081,-2.53526,-1.00781,2.91108,1.77982,-1.40271,1.00772,-0.709081,-2.53526,-1.00781,2.84842,1.77982,-1.40271,0.99403,-0.709772,-2.49215,-1.00881,2.84789,1.74556,-1.36875,-0.0354006,-0.298137,0.0763857,0.343808,0.00423753,-0.263671,0.344838,-0.0354006,-0.298137,0.0763857,0.343808,0.00423753,-0.263671,0.344838,-0.175492,-0.593549,0.796462,0.993181,-0.0758857,-0.046688,0.0751846,-0.0522793,-0.0556474,-0.0400186,-0.125734,-0.635659,0.815395,0,0,0,0,0,0,0.136875,0.0069047,-0.431033,0.0100878,0.631914,0.342593,-0.339533,1
0.98828,-0.713069,-2.52983,-0.993698,2.91482,1.78874,-1.33967,0.98828,-0.713069,-2.52983,-0.993698,2.84842,1.78874,-1.33967,0.993484,-0.713245,-2.49148,-1.00572,2.8479,1.73967,-1.3684,-0.0405177,-0.341638,0.0863084,0.281994,-0.00122715,-0.675044,-0.0785069,-0.0405177,-0.341638,0.0863084,0.281994,-0.00122715,-0.675044,-0.0785069,-0.176351,-0.594319,0.796084,0.993235,-0.0747951,-0.0472921,0.0751887,-0.162795,-0.134322,-0.077701,-0.125734,-0.635659,0.815395,0,0,0,0,0,0,-0.0520385,0.00176623,-0.383487,0.120189,0.66916,0.49077,0.287264,1
1.00265,-0.711152,-2.51027,-0.998158,2.91103,1.77515,-1.35147,1.00265,-0.711152,-2.51027,-0.998158,2.84842,1.77515,-1.35147,0.992741,-0.715987,-2.49126,-1.0039,2.84798,1.73263,-1.37231,-0.10746,-0.258793,-0.0407334,0.130649,0.0126934,-0.666655,-0.495225,-0.10746,-0.258793,-0.0407334,0.130649,0.0126934,-0.666655,-0.495225,-0.178463,-0.597083,0.794854,0.99373,-0.0694211,-0.049395,0.0724007,-0.110567,-0.157648,-0.0695115,-0.125734,-0.635659,0.815395,0,0,0,0,0,0,0.099055,0.0483518,-0.190029,0.0574268,0.630535,0.425223,0.208364,1
0.984529,-0.733814,-2.50328,-0.97217,2.912,1.75061,-1.34965,0.984529,-0.733814,-2.50328,-0.97217,2.84842,1.75061,-1.34965,0.991262,-0.717798,-2.49355,-1.00368,2.84813,1.72983,-1.37886,-0.144335,-0.142333,-0.288058,0.0042543,0.0130961,-0.123842,-0.673127,-0.144335,-0.142333,-0.288058,0.0042543,0.0130961,-0.123842,-0.673127,-0.180342,-0.598005,0.79364,0.99423,-0.0668958,-0.0496933,0.0675446,-0.188209,-0.0429261,-0.11716,-0.125734,-0.635659,0.815395,0,0,0,0,0,0,-0.0673312,-0.160168,-0.0973262,0.31505,0.638672,0.20778,0.292016,1
0.979046,-0.744443,-2.48582,-0.982891,2.91414,1.70577,-1.35381,0.979046,-0.744443,-2.48582,-0.982891,2.84842,1.70577,-1.35381,0.990299,-0.718341,-2.49845,-1.00352,2.84812,1.73357,-1.3823,-0.0783151,-0.041081,-0.563953,0.0155792,-0.00423753,0.533142,-0.187753,-0.0783151,-0.041081,-0.563953,0.0155792,-0.00423753,0.533142,-0.187753,-0.182015,-0.597516,0.792724,0.99452,-0.0676628,-0.0482835,0.0634034,-0.182634,0.0600396,-0.0950449,-0.125734,-0.635659,0.815395,0,0,0,0,0,0,-0.112529,-0.261022,0.126271,0.206286,0.660171,-0.27795,0.284882,1
