Afshin1997/kuka_rl_ros2/src/catch_and_throw/output_files/tm/nn_ema7.00_jvws1_realball_D01H12M44S07/recorded_data.csv
pure_target_joint_0,pure_target_joint_1,pure_target_joint_2,pure_target_joint_3,pure_target_joint_4,pure_target_joint_5,pure_target_joint_6,target_joint_0,target_joint_1,target_joint_2,target_joint_3,target_joint_4,target_joint_5,target_joint_6,pos_joint_0,pos_joint_1,pos_joint_2,pos_joint_3,pos_joint_4,pos_joint_5,pos_joint_6,vel_joint_0,vel_joint_1,vel_joint_2,vel_joint_3,vel_joint_4,vel_joint_5,vel_joint_6,vel_smooth_joint_0,vel_smooth_joint_1,vel_smooth_joint_2,vel_smooth_joint_3,vel_smooth_joint_4,vel_smooth_joint_5,vel_smooth_joint_6,ee_pos_x,ee_pos_y,ee_pos_z,ee_or_w,ee_or_x,ee_or_y,ee_or_z,eep_vel_x,eep_vel_y,eep_vel_z,ee_vel_offset_x,ee_vel_offset_y,ee_vel_offset_z,ball_pos_x,ball_pos_y,ball_pos_z,ball_raw_vx,ball_raw_vy,ball_raw_vz,ball_ema_vx,ball_ema_vy,ball_ema_vz,action_0,action_1,action_2,action_3,action_4,action_5,action_6,command_published
1.71569,-0.996402,-1.8752,-1.09583,1.97702,1.1004,-0.930372,1.71569,-0.996402,-1.8752,-1.09583,1.97702,1.1004,-0.930372,1.78086,-1.07191,-1.81841,-1.11995,1.93718,1.11718,-0.916262,2.39759e-05,3.5953e-05,-1.1977e-05,0,0,0,-2.39759e-05,2.39759e-05,3.5953e-05,-1.1977e-05,0,0,0,-2.39759e-05,0.544557,-0.455253,0.711681,0.572882,0.179168,0.151678,0.785302,9.21148e-06,2.09126e-05,1.5663e-05,9.34312e-06,2.38207e-05,1.5488e-05,2.93574,-0.525085,0.108759,-3.53079,0.0700712,5.81159,-3.53079,0.00393838,5.81159,-0.651734,0.755069,-0.567918,0.241204,0.398423,-0.167884,-0.141096,1
1.71316,-0.994218,-1.87795,-1.10347,1.97227,1.10987,-0.940638,1.71316,-0.994218,-1.87795,-1.10347,1.97227,1.10987,-0.940638,1.78086,-1.07191,-1.81841,-1.11995,1.93718,1.11718,-0.916262,1.1977e-05,1.1977e-05,-2.39759e-05,2.39759e-05,0,0,3.5953e-05,1.1977e-05,1.1977e-05,-2.39759e-05,2.39759e-05,0,0,3.5953e-05,0.544557,-0.455253,0.711681,0.572882,0.179168,0.151678,0.785302,2.07359e-06,-3.32352e-06,3.80154e-06,2.49265e-06,-2.74122e-06,3.5656e-06,2.8999,-0.524003,0.166056,-3.58343,0.108171,5.72977,-3.58343,0.0454958,5.72977,-0.677042,0.776912,-0.595411,0.164804,0.350951,-0.0731194,-0.243757,1
1.71397,-0.993277,-1.87578,-1.10655,1.96762,1.11835,-0.943401,1.71397,-0.993277,-1.87578,-1.10655,1.96762,1.11835,-0.943401,1.78086,-1.0719,-1.81839,-1.11994,1.93718,1.11718,-0.916263,-0.00121038,0.0028402,0.00412246,0.00189346,-9.58862e-05,-8.3883e-05,-2.39541e-05,-0.00121038,0.0028402,0.00412246,0.00189346,-9.58862e-05,-8.3883e-05,-2.39541e-05,0.54455,-0.455251,0.7117,0.572887,0.179155,0.151675,0.785302,-0.0012146,0.000346745,0.0034889,-0.00152288,0.000466163,0.00364217,2.8649,-0.522976,0.222194,-3.5006,0.102723,5.61374,-3.5006,0.0732831,5.61374,-0.66884,0.786176,-0.573954,0.13393,0.304434,0.0116732,-0.271386,1
1.71492,-0.993178,-1.87345,-1.11054,1.97294,1.11478,-0.93943,1.71492,-0.993178,-1.87345,-1.11054,1.97294,1.11478,-0.93943,1.78064,-1.07182,-1.81941,-1.11963,1.9381,1.11658,-0.916816,-0.0384925,0.00854454,-0.170963,0.0654683,0.166126,-0.0958237,-0.0893404,-0.0384925,0.00854454,-0.170963,0.0654683,0.166126,-0.0958237,-0.0893404,0.54454,-0.455853,0.711405,0.573383,0.179802,0.151618,0.784803,-0.015927,-0.0946071,-0.0421818,-0.00599907,-0.109291,-0.0467482,2.83015,-0.522233,0.277401,-3.47497,0.0743449,5.52072,-3.47497,0.0875679,5.52072,-0.657156,0.786465,-0.540415,0.0908862,0.348469,-0.0180339,-0.226142,1
1.71698,-0.98995,-1.86865,-1.10246,1.99311,1.08957,-0.930064,1.71698,-0.98995,-1.86865,-1.10246,1.99311,1.08957,-0.930064,1.78015,-1.07119,-1.82338,-1.11804,1.94353,1.11562,-0.918336,-0.0304752,0.0922165,-0.466751,0.175026,0.649319,-0.0810954,-0.183582,-0.0304752,0.0922165,-0.466751,0.175026,0.649319,-0.0810954,-0.183582,0.54424,-0.458217,0.710736,0.575005,0.181783,0.150386,0.783395,-0.0401375,-0.210793,-0.0638771,-0.02853,-0.251425,-0.0686413,2.7955,-0.52165,0.3316,-3.46465,0.0583112,5.41986,-3.46465,0.0875158,5.41986,-0.631637,0.812432,-0.452673,0.1558,0.495858,-0.260553,-0.117283,1
1.71427,-0.986776,-1.87856,-1.09596,2.00384,1.08243,-0.937777,1.71427,-0.986776,-1.87856,-1.09596,2.00384,1.08243,-0.937777,1.78033,-1.06914,-1.83059,-1.11639,1.95069,1.11549,-0.921656,0.0181077,0.248248,-0.810942,0.166625,0.72199,0.012703,-0.377243,0.0181077,0.248248,-0.810942,0.166625,0.72199,0.012703,-0.377243,0.544202,-0.460574,0.709763,0.577593,0.183961,0.149811,0.78109,-0.0262472,-0.205173,-0.0935651,-0.00513981,-0.238046,-0.103719,2.76034,-0.520952,0.384918,-3.51608,0.0697494,5.33189,-3.51608,0.0826527,5.33189,-0.660601,0.823673,-0.479621,0.204364,0.531531,-0.330605,-0.161214,1
1.71136,-0.983167,-1.89297,-1.08958,2.01217,1.07998,-0.949259,1.71136,-0.983167,-1.89297,-1.08958,2.01217,1.07998,-0.949259,1.78019,-1.06539,-1.84054,-1.11503,1.95752,1.11589,-0.926226,-0.020924,0.41045,-1.03242,0.116975,0.669107,0.0384805,-0.465564,-0.020924,0.41045,-1.03242,0.116975,0.669107,0.0384805,-0.465564,0.544091,-0.462841,0.708683,0.581296,0.186046,0.15074,0.777662,-0.0428221,-0.195907,-0.0906106,-0.0113743,-0.216735,-0.106687,2.72576,-0.520277,0.437207,-3.45836,0.0674903,5.22884,-3.45836,0.0780457,5.22884,-0.688392,0.822245,-0.524221,0.254473,0.546455,-0.359083,-0.230335,1
1.70786,-0.978666,-1.90505,-1.08089,2.01867,1.08655,-0.962408,1.70786,-0.978666,-1.90505,-1.08089,2.01867,1.08655,-0.962408,1.77921,-1.06055,-1.851,-1.11424,1.96385,1.11541,-0.930098,-0.14053,0.500833,-1.03968,0.0719191,0.631134,-0.0964754,-0.338047,-0.14053,0.500833,-1.03968,0.0719191,0.631134,-0.0964754,-0.338047,0.543779,-0.465067,0.707813,0.585045,0.18842,0.152449,0.773938,-0.0860754,-0.219866,-0.0590307,-0.0459313,-0.239986,-0.0800581,2.691,-0.5196,0.487792,-3.47576,0.0677288,5.0585,-3.47576,0.0710319,5.0585,-0.713428,0.818817,-0.540432,0.333481,0.548213,-0.288563,-0.323101,1
1.70282,-0.975379,-1.91645,-1.07589,2.02324,1.11336,-0.966939,1.70282,-0.975379,-1.91645,-1.07589,2.02324,1.11336,-0.966939,1.77669,-1.0554,-1.86053,-1.11372,1.97077,1.11218,-0.932557,-0.282128,0.519709,-0.921238,0.0556801,0.721948,-0.401973,-0.233027,-0.282128,0.519709,-0.921238,0.0556801,0.721948,-0.401973,-0.233027,0.543059,-0.468047,0.707204,0.588522,0.192006,0.153841,0.770135,-0.13122,-0.283313,-0.0237176,-0.0819794,-0.319895,-0.0499745,2.65674,-0.519079,0.538288,-3.42591,0.0521421,5.04966,-3.42591,0.0654678,5.04966,-0.738752,0.800218,-0.559229,0.378343,0.524684,0.011818,-0.343823,1
1.69733,-0.971354,-1.92219,-1.07461,2.02885,1.14009,-0.974516,1.69733,-0.971354,-1.92219,-1.07461,2.02885,1.14009,-0.974516,1.7732,-1.05029,-1.86907,-1.11283,1.97894,1.10611,-0.934906,-0.367889,0.504512,-0.839959,0.105092,0.848888,-0.666663,-0.24754,-0.367889,0.504512,-0.839959,0.105092,0.848888,-0.666663,-0.24754,0.542054,-0.471938,0.706861,0.59216,0.196803,0.154562,0.76598,-0.164008,-0.359472,-0.00190114,-0.108998,-0.415298,-0.032136,2.6213,-0.518458,0.587563,-3.54419,0.0620246,4.9275,-3.54419,0.063635,4.9275,-0.758719,0.789325,-0.531242,0.382195,0.499093,0.339866,-0.396098,1
1.69506,-0.966123,-1.91812,-1.07536,2.03843,1.13745,-0.975117,1.69506,-0.966123,-1.91812,-1.07536,2.03843,1.13745,-0.975117,1.76913,-1.04525,-1.87735,-1.11136,1.98812,1.09868,-0.938217,-0.416282,0.512662,-0.830455,0.16565,0.933891,-0.748733,-0.366451,-0.416282,0.512662,-0.830455,0.16565,0.933891,-0.748733,-0.366451,0.54073,-0.476608,0.706652,0.596434,0.202159,0.154804,0.761205,-0.199158,-0.413833,0.0202552,-0.145355,-0.479735,-0.0106003,2.5868,-0.517618,0.635561,-3.44982,0.0839829,4.79977,-3.44982,0.0652856,4.79977,-0.740741,0.791312,-0.407706,0.359974,0.503074,0.387685,-0.369008,1
1.69131,-0.958712,-1.9092,-1.07098,2.05116,1.12974,-0.980487,1.69131,-0.958712,-1.9092,-1.07098,2.05116,1.12974,-0.980487,1.76467,-1.03956,-1.88599,-1.10894,1.99757,1.09247,-0.943085,-0.457593,0.591101,-0.880922,0.263384,0.944112,-0.548675,-0.524551,-0.457593,0.591101,-0.880922,0.263384,0.944112,-0.548675,-0.524551,0.53871,-0.48163,0.707091,0.601929,0.206546,0.15498,0.755647,-0.267357,-0.445568,0.0873374,-0.228231,-0.506185,0.0638121,2.55231,-0.517144,0.682809,-3.44853,0.0474751,4.72477,-3.44853,0.0638734,4.72477,-0.733686,0.8085,-0.232134,0.379541,0.535887,0.372717,-0.374018,1
1.68666,-0.95072,-1.91041,-1.06157,2.06462,1.12576,-0.99534,1.68666,-0.95072,-1.91041,-1.06157,2.06462,1.12576,-0.99534,1.75998,-1.03308,-1.89529,-1.10558,2.00659,1.09023,-0.949155,-0.469805,0.662157,-0.937549,0.356695,0.885321,-0.104948,-0.630134,-0.469805,0.662157,-0.937549,0.356695,0.885321,-0.104948,-0.630134,0.535686,-0.486586,0.708383,0.608652,0.208622,0.155182,0.749625,-0.342855,-0.443136,0.162416,-0.329603,-0.486696,0.153656,2.51763,-0.516798,0.728946,-3.46837,0.0345886,4.61373,-3.46837,0.0600387,4.61373,-0.733217,0.823588,-0.151167,0.440138,0.580262,0.355256,-0.461853,1
1.68063,-0.944008,-1.91178,-1.04729,2.07506,1.13148,-1.00908,1.68063,-0.944008,-1.91178,-1.04729,2.07506,1.13148,-1.00908,1.75513,-1.02625,-1.90477,-1.10163,2.01489,1.09268,-0.955894,-0.494397,0.685167,-0.948203,0.395058,0.81071,0.340672,-0.681488,-0.494397,0.685167,-0.948203,0.395058,0.81071,0.340672,-0.681488,0.531676,-0.491232,0.710444,0.616171,0.208111,0.155202,0.743597,-0.411874,-0.428962,0.212405,-0.423611,-0.455563,0.218409,2.48283,-0.515889,0.773745,-3.47996,0.0908792,4.47989,-3.47996,0.0607456,4.47989,-0.744959,0.822441,-0.0700863,0.543384,0.601663,0.387998,-0.531847,1
1.67515,-0.938196,-1.91771,-1.03742,2.08036,1.14264,-1.01778,1.67515,-0.938196,-1.91771,-1.03742,2.08036,1.14264,-1.01778,1.74958,-1.01918,-1.91355,-1.09776,2.02282,1.098,-0.96255,-0.576731,0.722295,-0.826105,0.393464,0.79303,0.57443,-0.656956,-0.576731,0.722295,-0.826105,0.393464,0.79303,0.57443,-0.656956,0.526783,-0.495628,0.713188,0.623921,0.20592,0.154849,0.737795,-0.484382,-0.412131,0.292931,-0.515891,-0.429628,0.310417,2.44815,-0.515344,0.817807,-3.46806,0.0545025,4.4062,-3.46806,0.0612955,4.4062,-0.744289,0.809799,-0.0415683,0.603396,0.575388,0.446354,-0.552314,1
1.66919,-0.93182,-1.9197,-1.03197,2.08684,1.15267,-1.02438,1.66919,-0.93182,-1.9197,-1.03197,2.08684,1.15267,-1.02438,1.74322,-1.01185,-1.91946,-1.09396,2.03095,1.10374,-0.969,-0.659149,0.715632,-0.529416,0.376805,0.82256,0.558539,-0.64889,-0.659149,0.715632,-0.529416,0.376805,0.82256,0.558539,-0.64889,0.521181,-0.499624,0.717197,0.631451,0.202635,0.15357,0.732547,-0.528024,-0.382218,0.387087,-0.574349,-0.400915,0.412537,2.41352,-0.514757,0.860737,-3.46344,0.0586987,4.29298,-3.46344,0.0603836,4.29298,-0.740313,0.800316,-0.00242405,0.619847,0.558931,0.489244,-0.553807,1
1.66026,-0.925146,-1.92361,-1.02535,2.09666,1.157,-1.02984,1.66026,-0.925146,-1.92361,-1.02535,2.09666,1.157,-1.02984,1.7358,-1.00548,-1.92345,-1.08987,2.03977,1.1086,-0.976116,-0.769718,0.614662,-0.357414,0.434007,0.90766,0.46796,-0.739601,-0.769718,0.614662,-0.357414,0.434007,0.90766,0.46796,-0.739601,0.514971,-0.504276,0.721393,0.639205,0.199562,0.151192,0.727141,-0.589677,-0.452769,0.400859,-0.643847,-0.48648,0.429446,2.37911,-0.514133,0.902701,-3.44052,0.0623763,4.19642,-3.44052,0.0595814,4.19642,-0.75534,0.803394,-0.00164759,0.645293,0.568854,0.484039,-0.537275,1
1.65121,-0.918562,-1.91638,-1.01846,2.10737,1.16006,-1.03721,1.65121,-0.918562,-1.91638,-1.01846,2.10737,1.16006,-1.03721,1.72764,-0.999373,-1.92596,-1.08451,2.04951,1.11322,-0.984459,-0.821048,0.618138,-0.220443,0.570691,0.990382,0.465814,-0.865474,-0.821048,0.618138,-0.220443,0.570691,0.990382,0.465814,-0.865474,0.507938,-0.50952,0.726372,0.647755,0.196011,0.147797,0.721213,-0.653128,-0.485598,0.489182,-0.722394,-0.52381,0.524759,2.34508,-0.513747,0.943872,-3.40335,0.0386357,4.11713,-3.40335,0.0594699,4.11713,-0.764337,0.808111,0.0958391,0.660505,0.578659,0.468414,-0.527503,1
1.64368,-0.912515,-1.91069,-1.01106,2.11658,1.16669,-1.04771,1.64368,-0.912515,-1.91069,-1.01106,2.11658,1.16669,-1.04771,1.71986,-0.992868,-1.92747,-1.07789,2.05955,1.11841,-0.993779,-0.762299,0.654319,-0.136779,0.682351,1.00139,0.542875,-0.948898,-0.762299,0.654319,-0.136779,0.682351,1.00139,0.542875,-0.948898,0.500528,-0.51444,0.732383,0.656778,0.191346,0.143961,0.715055,-0.663289,-0.444816,0.573967,-0.746769,-0.47501,0.61605,2.31083,-0.513647,0.983872,-3.42491,0.0099957,3.99994,-3.42491,0.0533845,3.99994,-0.761768,0.803523,0.167724,0.668304,0.570249,0.482871,-0.539358,1
1.63641,-0.907273,-1.90799,-1.00212,2.12459,1.17653,-1.05742,1.63641,-0.907273,-1.90799,-1.00212,2.12459,1.17653,-1.05742,1.71231,-0.986446,-1.92902,-1.07026,2.06925,1.12448,-1.00342,-0.754737,0.634658,-0.164683,0.78574,0.957661,0.62404,-0.963546,-0.754737,0.634658,-0.164683,0.78574,0.957661,0.62404,-0.963546,0.492791,-0.519295,0.738696,0.666136,0.185927,0.140046,0.708577,-0.694597,-0.460076,0.587113,-0.784887,-0.484672,0.63133,2.27678,-0.513087,1.02304,-3.40521,0.0559926,3.91678,-3.40521,0.045751,3.91678,-0.758991,0.791726,0.210317,0.681309,0.553393,0.520479,-0.539973,1
1.63003,-0.9019,-1.90301,-0.993304,2.13278,1.18625,-1.06727,1.63003,-0.9019,-1.90301,-0.993304,2.13278,1.18625,-1.06727,1.70525,-0.979977,-1.93014,-1.06182,2.0786,1.13113,-1.01272,-0.684895,0.663815,-0.0689437,0.863839,0.927213,0.676626,-0.917899,-0.684895,0.663815,-0.0689437,0.863839,0.927213,0.676626,-0.917899,0.484928,-0.523738,0.74546,0.675338,0.179781,0.135992,0.702213,-0.688192,-0.398067,0.658991,-0.789463,-0.41197,0.707357,2.24226,-0.512732,1.06092,-3.45118,0.0355065,3.78776,-3.45118,0.0416517,3.78776,-0.752225,0.780764,0.271324,0.685203,0.541772,0.551199,-0.545501,1
1.62277,-0.895625,-1.89974,-0.983753,2.14251,1.19425,-1.07493,1.62277,-0.895625,-1.89974,-0.983753,2.14251,1.19425,-1.07493,1.69817,-0.973144,-1.93004,-1.05304,2.08784,1.13775,-1.02159,-0.731668,0.671664,0.0145725,0.876458,0.92194,0.661047,-0.880497,-0.731668,0.671664,0.0145725,0.876458,0.92194,0.661047,-0.880497,0.47681,-0.527662,0.752935,0.684251,0.173025,0.131674,0.696078,-0.722019,-0.385497,0.691807,-0.828378,-0.396818,0.7406,2.20823,-0.512602,1.09801,-3.40338,0.0130236,3.70921,-3.40338,0.0354586,3.70921,-0.754095,0.77519,0.302951,0.692903,0.546763,0.564983,-0.533332,1
1.61437,-0.889961,-1.9003,-0.97392,2.15106,1.20208,-1.08156,1.61437,-0.889961,-1.9003,-0.97392,2.15106,1.20208,-1.08156,1.69056,-0.966797,-1.92922,-1.04404,2.09713,1.14432,-1.03031,-0.759267,0.625359,0.118989,0.90232,0.929341,0.663348,-0.874517,-0.759267,0.625359,0.118989,0.90232,0.929341,0.663348,-0.874517,0.468246,-0.531751,0.760408,0.69308,0.16621,0.126883,0.689866,-0.749197,-0.381643,0.703574,-0.863088,-0.393012,0.753457,2.17406,-0.512346,1.13449,-3.41704,0.0255764,3.64814,-3.41704,0.0305974,3.64814,-0.761951,0.768361,0.289215,0.701192,0.539276,0.577672,-0.512473,1
1.60639,-0.884509,-1.89543,-0.964838,2.15967,1.20942,-1.08947,1.60639,-0.884509,-1.89543,-0.964838,2.15967,1.20942,-1.08947,1.68314,-0.9606,-1.927,-1.03487,2.1064,1.1513,-1.03913,-0.745474,0.622542,0.246642,0.91108,0.923301,0.708599,-0.886093,-0.745474,0.622542,0.246642,0.91108,0.923301,0.708599,-0.886093,0.459523,-0.535296,0.768291,0.701587,0.158742,0.121616,0.683949,-0.755785,-0.330491,0.742536,-0.879812,-0.335376,0.794515,2.13972,-0.511921,1.16939,-3.4343,0.0424922,3.49008,-3.4343,0.0305889,3.49008,-0.767415,0.760907,0.31579,0.700311,0.532737,0.581258,-0.503481,1
1.59717,-0.878939,-1.89308,-0.9551,2.16767,1.21721,-1.096,1.59717,-0.878939,-1.89308,-0.9551,2.16767,1.21721,-1.096,1.67533,-0.954329,-1.92434,-1.02556,2.11552,1.15872,-1.04813,-0.793469,0.626593,0.275355,0.940237,0.910263,0.759818,-0.902787,-0.793469,0.626593,0.275355,0.940237,0.910263,0.759818,-0.902787,0.450378,-0.53864,0.776377,0.71015,0.150813,0.116211,0.677818,-0.801459,-0.327933,0.760062,-0.931808,-0.327756,0.812002,2.10578,-0.511604,1.20333,-3.39332,0.0316679,3.3934,-3.39332,0.031592,3.3934,-0.781507,0.753905,0.312563,0.704603,0.521487,0.584969,-0.478692,1
1.58869,-0.873809,-1.89026,-0.945165,2.17532,1.22558,-1.10332,1.58869,-0.873809,-1.89026,-0.945165,2.17532,1.22558,-1.10332,1.6675,-0.948116,-1.9209,-1.01591,2.12459,1.16674,-1.05717,-0.769382,0.615795,0.367931,0.96013,0.905795,0.817569,-0.899479,-0.769382,0.615795,0.367931,0.96013,0.905795,0.817569,-0.899479,0.44091,-0.541641,0.784749,0.718583,0.142262,0.110458,0.671713,-0.806748,-0.283741,0.784435,-0.946483,-0.277009,0.837119,2.07185,-0.511348,1.23659,-3.39315,0.0255942,3.32655,-3.39315,0.0291132,3.32655,-0.788149,0.743074,0.306367,0.707443,0.507261,0.588449,-0.461492,1
1.58106,-0.868307,-1.88885,-0.935624,2.18367,1.23387,-1.11158,1.58106,-0.868307,-1.88885,-0.935624,2.18367,1.23387,-1.11158,1.6601,-0.942151,-1.91728,-1.00653,2.13356,1.17513,-1.06597,-0.742022,0.597987,0.35282,0.94503,0.894808,0.837331,-0.870263,-0.742022,0.597987,0.35282,0.94503,0.894808,0.837331,-0.870263,0.431606,-0.544183,0.792893,0.726522,0.133579,0.104623,0.665865,-0.797298,-0.258086,0.760602,-0.937107,-0.2474,0.810166,2.03761,-0.510981,1.26858,-3.42402,0.0367045,3.1985,-3.42402,0.0303571,3.1985,-0.790416,0.738433,0.284315,0.709061,0.501121,0.58735,-0.456128,1
1.57231,-0.861993,-1.8873,-0.925322,2.1921,1.24226,-1.11852,1.57231,-0.861993,-1.8873,-0.925322,2.1921,1.24226,-1.11852,1.65228,-0.935742,-1.91384,-0.996519,2.14248,1.18368,-1.07447,-0.78985,0.655666,0.349572,1.00216,0.887886,0.865445,-0.840674,-0.78985,0.655666,0.349572,1.00216,0.887886,0.865445,-0.840674,0.42177,-0.546647,0.80135,0.734593,0.124517,0.098803,0.659626,-0.850547,-0.24694,0.804097,-0.995191,-0.228457,0.85226,2.00343,-0.510615,1.29966,-3.41794,0.0365973,3.10819,-3.41794,0.0330742,3.10819,-0.799725,0.73749,0.265414,0.711973,0.496196,0.58572,-0.440531,1
1.56509,-0.855921,-1.88333,-0.916096,2.20083,1.25059,-1.12754,1.56509,-0.855921,-1.88333,-0.916096,2.20083,1.25059,-1.12754,1.64483,-0.929186,-1.90979,-0.986922,2.15121,1.19247,-1.08257,-0.728576,0.653233,0.418587,0.952436,0.865606,0.88263,-0.800276,-0.728576,0.653233,0.418587,0.952436,0.865606,0.88263,-0.800276,0.412118,-0.548374,0.809867,0.742053,0.115161,0.0929697,0.653798,-0.811489,-0.174442,0.801897,-0.958189,-0.149185,0.847472,1.96921,-0.510414,1.32976,-3.42183,0.0201344,3.01007,-3.42183,0.0322499,3.01007,-0.797424,0.732648,0.264608,0.708261,0.496151,0.581192,-0.449697,1
1.55645,-0.84953,-1.88148,-0.906007,2.20955,1.25879,-1.13391,1.55645,-0.84953,-1.88148,-0.906007,2.20955,1.25879,-1.13391,1.63711,-0.922813,-1.90602,-0.976908,2.15978,1.20127,-1.0903,-0.800468,0.638062,0.350602,1.01379,0.851436,0.879814,-0.768591,-0.800468,0.638062,0.350602,1.01379,0.851436,0.879814,-0.768591,0.402144,-0.550193,0.818217,0.749472,0.105795,0.087118,0.647696,-0.87326,-0.21549,0.784536,-1.01908,-0.188802,0.826353,1.93539,-0.509904,1.35864,-3.38225,0.0509799,2.88773,-3.38225,0.0327285,2.88773,-0.806616,0.732826,0.245384,0.709007,0.497711,0.57512,-0.436132,1
1.54832,-0.843247,-1.87829,-0.896095,2.2178,1.26742,-1.14182,1.54832,-0.843247,-1.87829,-0.896095,2.2178,1.26742,-1.14182,1.62903,-0.916108,-1.90263,-0.96679,2.16817,1.21015,-1.09788,-0.792666,0.683924,0.353946,1.00786,0.834984,0.890144,-0.756391,-0.792666,0.683924,0.353946,1.00786,0.834984,0.890144,-0.756391,0.391878,-0.551821,0.826582,0.756902,0.0962827,0.0814938,0.64124,-0.875428,-0.167794,0.803306,-1.02163,-0.132978,0.842063,1.90184,-0.509634,1.3868,-3.3551,0.0270545,2.81609,-3.3551,0.0334557,2.81609,-0.807119,0.728607,0.24333,0.706948,0.496311,0.572702,-0.439409,1
1.54067,-0.836937,-1.87753,-0.885693,2.22499,1.27634,-1.14951,1.54067,-0.836937,-1.87753,-0.885693,2.22499,1.27634,-1.14951,1.62141,-0.909178,-1.89887,-0.956586,2.17646,1.21914,-1.10534,-0.767129,0.690168,0.366625,1.01894,0.826547,0.900858,-0.743952,-0.767129,0.690168,0.366625,1.01894,0.826547,0.900858,-0.743952,0.381736,-0.552825,0.8351,0.763952,0.0864349,0.0758698,0.634942,-0.871387,-0.13246,0.80621,-1.01913,-0.0922289,0.841935,1.86795,-0.509514,1.41414,-3.38936,0.0120044,2.73442,-3.38936,0.031824,2.73442,-0.807387,0.722413,0.213451,0.708922,0.485299,0.572029,-0.441666,1
1.5322,-0.830618,-1.87684,-0.875223,2.23317,1.28527,-1.15608,1.5322,-0.830618,-1.87684,-0.875223,2.23317,1.28527,-1.15608,1.61331,-0.902555,-1.89593,-0.946267,2.18475,1.22804,-1.11288,-0.818267,0.662972,0.278257,1.04165,0.831649,0.88417,-0.756331,-0.818267,0.662972,0.278257,1.04165,0.831649,0.88417,-0.756331,0.371288,-0.55412,0.843141,0.771142,0.076896,0.0703525,0.628074,-0.910435,-0.165469,0.766453,-1.0539,-0.125639,0.797761,1.83413,-0.509319,1.44027,-3.38184,0.0194788,2.61327,-3.38184,0.0284689,2.61327,-0.811034,0.719372,0.190921,0.71044,0.484145,0.572246,-0.43208,1
1.52459,-0.824135,-1.87357,-0.864962,2.24135,1.29363,-1.16434,1.52459,-0.824135,-1.87357,-0.864962,2.24135,1.29363,-1.16434,1.6055,-0.895642,-1.89269,-0.935805,2.19313,1.23689,-1.12042,-0.765535,0.697439,0.34187,1.0265,0.836462,0.887526,-0.751717,-0.765535,0.697439,0.34187,1.0265,0.836462,0.887526,-0.751717,0.360876,-0.554887,0.851365,0.778047,0.0671042,0.0647912,0.621242,-0.883617,-0.0938894,0.791085,-1.03008,-0.0472972,0.819676,1.80014,-0.509057,1.46564,-3.39919,0.0262022,2.53702,-3.39919,0.0259163,2.53702,-0.809026,0.715069,0.191212,0.708433,0.482202,0.567381,-0.43928,1
1.51651,-0.818113,-1.87154,-0.854981,2.2495,1.30196,-1.17119,1.51651,-0.818113,-1.87154,-0.854981,2.2495,1.30196,-1.17119,1.59769,-0.888955,-1.88962,-0.925635,2.20153,1.2458,-1.12791,-0.798373,0.659532,0.285903,1.03233,0.840316,0.893123,-0.750375,-0.798373,0.659532,0.285903,1.03233,0.840316,0.893123,-0.750375,0.350516,-0.555494,0.859227,0.78469,0.0574541,0.059238,0.614371,-0.90876,-0.113116,0.749825,-1.05279,-0.0663314,0.774531,1.76601,-0.508988,1.48965,-3.41282,0.00689626,2.40054,-3.41282,0.0224575,2.40054,-0.811834,0.708419,0.180876,0.706537,0.479648,0.56162,-0.432808,1
1.50816,-0.81222,-1.86929,-0.844509,2.25786,1.31074,-1.17829,1.50816,-0.81222,-1.86929,-0.844509,2.25786,1.31074,-1.17829,1.58944,-0.882351,-1.88702,-0.91505,2.20991,1.25467,-1.13543,-0.822018,0.666112,0.262365,1.04425,0.833931,0.884877,-0.750051,-0.822018,0.666112,0.262365,1.04425,0.833931,0.884877,-0.750051,0.339747,-0.55622,0.86693,0.79147,0.0478166,0.0537277,0.606961,-0.929034,-0.102632,0.743471,-1.07132,-0.0521024,0.764578,1.73259,-0.50906,1.51342,-3.34218,-0.00722408,2.3772,-3.34218,0.0152886,2.3772,-0.81281,0.701311,0.177265,0.705408,0.479489,0.560672,-0.428579,1
1.5006,-0.806401,-1.86625,-0.834555,2.26503,1.31939,-1.18693,1.5006,-0.806401,-1.86625,-0.834555,2.26503,1.31939,-1.18693,1.58158,-0.875457,-1.88432,-0.904716,2.21811,1.26366,-1.14287,-0.783272,0.691028,0.267962,1.0433,0.816865,0.907983,-0.741399,-0.783272,0.691028,0.267962,1.0433,0.816865,0.907983,-0.741399,0.329248,-0.556294,0.874643,0.797851,0.0379756,0.0484007,0.599708,-0.912135,-0.0516669,0.751145,-1.05469,0.00629848,0.76893,1.69903,-0.509221,1.53562,-3.35534,-0.0160933,2.21952,-3.35534,0.00884277,2.21952,-0.809835,0.69056,0.180719,0.701602,0.469158,0.557268,-0.440603,1
1.49199,-0.800562,-1.86581,-0.82416,2.27257,1.32862,-1.19347,1.49199,-0.800562,-1.86581,-0.82416,2.27257,1.32862,-1.19347,1.57322,-0.86871,-1.88212,-0.894158,2.22628,1.27269,-1.15032,-0.848816,0.668341,0.208219,1.0456,0.81418,0.896131,-0.744155,-0.848816,0.668341,0.208219,1.0456,0.81418,0.896131,-0.744155,0.318381,-0.556485,0.882101,0.804326,0.0281994,0.0431473,0.591949,-0.951353,-0.0732388,0.717249,-1.08939,-0.0145218,0.731177,1.66556,-0.509342,1.55665,-3.34733,-0.0121415,2.10308,-3.34733,0.00252106,2.10308,-0.812279,0.681472,0.163139,0.699976,0.462882,0.559313,-0.431494,1
1.48417,-0.794751,-1.86433,-0.814038,2.2806,1.33694,-1.20166,1.48417,-0.794751,-1.86433,-0.814038,2.2806,1.33694,-1.20166,1.56514,-0.861993,-1.87973,-0.883719,2.23439,1.28166,-1.15773,-0.795676,0.677833,0.251148,1.05413,0.807718,0.897185,-0.739493,-0.795676,0.677833,0.251148,1.05413,0.807718,0.897185,-0.739493,0.307693,-0.556284,0.889447,0.810446,0.0183937,0.0378938,0.584297,-0.927013,-0.0220745,0.727196,-1.06674,0.0417226,0.737897,1.63227,-0.50899,1.57693,-3.32916,0.0352085,2.0282,-3.32916,0.000646498,2.0282,-0.809691,0.672418,0.15396,0.69681,0.462165,0.552857,-0.439301,1
1.47552,-0.788718,-1.86903,-0.802897,2.28692,1.34681,-1.20788,1.47552,-0.788718,-1.86903,-0.802897,2.28692,1.34681,-1.20788,1.55682,-0.855269,-1.87751,-0.873157,2.24249,1.29062,-1.16508,-0.84987,0.664566,0.203617,1.04963,0.81163,0.892847,-0.73416,-0.84987,0.664566,0.203617,1.04963,0.81163,0.892847,-0.73416,0.296822,-0.555944,0.896677,0.816474,0.00855622,0.0326787,0.576393,-0.958147,-0.0312793,0.700022,-1.09411,0.0340097,0.707087,1.59817,-0.509038,1.59623,-3.40947,-0.00474453,1.93013,-3.40947,-0.000822544,1.93013,-0.813019,0.665508,0.0848124,0.702598,0.444284,0.561963,-0.427924,1
1.46724,-0.782813,-1.86641,-0.792777,2.29527,1.3545,-1.21581,1.46724,-0.782813,-1.86641,-0.792777,2.29527,1.3545,-1.21581,1.54844,-0.848643,-1.87525,-0.862578,2.25058,1.2995,-1.1725,-0.82233,0.660982,0.246102,1.06731,0.807239,0.891337,-0.742321,-0.82233,0.660982,0.246102,1.06731,0.807239,0.891337,-0.742321,0.28591,-0.555416,0.903753,0.822327,-0.00126237,0.0274466,0.568352,-0.950185,0.00379702,0.704259,-1.08792,0.0728713,0.707986,1.56457,-0.508846,1.61434,-3.36014,0.0191689,1.81105,-3.36014,0.00250169,1.81105,-0.811992,0.658299,0.0883988,0.698011,0.44693,0.550058,-0.433157,1
1.45887,-0.77748,-1.87042,-0.782328,2.30193,1.36377,-1.22296,1.45887,-0.77748,-1.87042,-0.782328,2.30193,1.36377,-1.22296,1.54022,-0.84218,-1.87303,-0.852185,2.25851,1.30847,-1.17994,-0.834362,0.640165,0.198787,1.04271,0.790998,0.889132,-0.744706,-0.834362,0.640165,0.198787,1.04271,0.790998,0.889132,-0.744706,0.275154,-0.554633,0.910567,0.827914,-0.0110538,0.0222812,0.560303,-0.948899,0.007456,0.667974,-1.08105,0.0782503,0.668149,1.5308,-0.509283,1.63179,-3.37759,-0.0436902,1.74538,-3.37759,0.00137751,1.74538,-0.813453,0.647002,0.0260576,0.698567,0.43416,0.552955,-0.430234,1
1.45043,-0.772288,-1.86943,-0.771824,2.30922,1.37179,-1.23051,1.45043,-0.772288,-1.86943,-0.771824,2.30922,1.37179,-1.23051,1.53163,-0.835654,-1.87152,-0.841305,2.2664,1.31737,-1.1874,-0.857205,0.654894,0.133076,1.09705,0.788275,0.897713,-0.747343,-0.857205,0.654894,0.133076,1.09705,0.788275,0.897713,-0.747343,0.264072,-0.553849,0.917274,0.833631,-0.0208581,0.0173141,0.551657,-0.981039,0.0137151,0.6683,-1.11071,0.0903441,0.664925,1.49753,-0.509244,1.64786,-3.32652,0.00391006,1.60663,-3.32652,0.000694394,1.60663,-0.812061,0.633659,0.0208878,0.694805,0.428287,0.544202,-0.43102,1
1.44294,-0.767516,-1.86924,-0.762089,2.31585,1.38015,-1.23925,1.44294,-0.767516,-1.86924,-0.762089,2.31585,1.38015,-1.23925,1.52358,-0.829033,-1.87016,-0.830958,2.27406,1.32654,-1.19478,-0.791422,0.664278,0.137798,1.02816,0.760336,0.91823,-0.737647,-0.791422,0.664278,0.137798,1.02816,0.760336,0.91823,-0.737647,0.253494,-0.552522,0.923752,0.838895,-0.0307093,0.0125915,0.543281,-0.920564,0.0707123,0.648923,-1.04612,0.151816,0.642083,1.46449,-0.509319,1.66312,-3.30396,-0.00754595,1.52564,-3.30396,-0.00243975,1.52564,-0.806372,0.61517,0.00921441,0.68868,0.417818,0.536121,-0.444719,1
1.43425,-0.763188,-1.8788,-0.750578,2.3207,1.39043,-1.24533,1.43425,-0.763188,-1.8788,-0.750578,2.3207,1.39043,-1.24533,1.51502,-0.822567,-1.8699,-0.820086,2.28168,1.33556,-1.20214,-0.878567,0.642352,-0.0132063,1.10497,0.76494,0.900162,-0.737468,-0.878567,0.642352,-0.0132063,1.10497,0.76494,0.900162,-0.737468,0.242538,-0.551425,0.929948,0.844384,-0.0403836,0.00814228,0.534152,-0.994341,0.0223954,0.618905,-1.1121,0.105718,0.609003,1.43125,-0.509399,1.67761,-3.32431,-0.00799298,1.44956,-3.32431,-0.00781353,1.44956,-0.807695,0.593791,-0.0889423,0.695077,0.390236,0.548649,-0.431886,1
1.427,-0.757837,-1.88117,-0.740136,2.32536,1.39847,-1.25417,1.427,-0.757837,-1.88117,-0.740136,2.32536,1.39847,-1.25417,1.5068,-0.815792,-1.86976,-0.809603,2.28912,1.34471,-1.20945,-0.79184,0.688945,0.0313141,1.03598,0.737905,0.922465,-0.731225,-0.79184,0.688945,0.0313141,1.03598,0.737905,0.922465,-0.731225,0.231966,-0.549751,0.936087,0.849503,-0.050165,0.0039632,0.525179,-0.919573,0.109776,0.628464,-1.03524,0.199822,0.615031,1.39777,-0.509374,1.69105,-3.34808,0.0025034,1.34418,-3.34808,-0.00768623,1.34418,-0.798023,0.579546,-0.114128,0.694671,0.3624,0.537634,-0.447213,1
1.41821,-0.752347,-1.88647,-0.729298,2.33226,1.40698,-1.2597,1.41821,-0.752347,-1.88647,-0.729298,2.33226,1.40698,-1.2597,1.49854,-0.809191,-1.86997,-0.798935,2.29646,1.35375,-1.21682,-0.852898,0.641896,-0.0483433,1.07359,0.734108,0.898149,-0.740716,-0.852898,0.641896,-0.0483433,1.07359,0.734108,0.898149,-0.740716,0.221371,-0.548016,0.942011,0.854543,-0.0598551,-0.000104025,0.51592,-0.964333,0.0736814,0.590635,-1.07368,0.163427,0.574576,1.36408,-0.509355,1.70375,-3.36843,0.00191331,1.26982,-3.36843,-0.00666061,1.26982,-0.803314,0.568431,-0.164939,0.69636,0.357934,0.532288,-0.428794,1
1.40975,-0.748058,-1.88824,-0.71913,2.33903,1.41415,-1.26709,1.40975,-0.748058,-1.88824,-0.71913,2.33903,1.41415,-1.26709,1.48996,-0.802901,-1.87083,-0.788317,2.30363,1.3628,-1.2243,-0.840458,0.634263,-0.0897238,1.06547,0.710447,0.9138,-0.749524,-0.840458,0.634263,-0.0897238,1.06547,0.710447,0.9138,-0.749524,0.210704,-0.546368,0.947542,0.8596,-0.0693389,-0.00394331,0.506226,-0.952352,0.091987,0.570254,-1.05667,0.18569,0.551244,1.33064,-0.509213,1.71508,-3.34426,0.0142157,1.13229,-3.34426,-0.000240122,1.13229,-0.80216,0.548432,-0.17413,0.691873,0.353973,0.513497,-0.427897,1
1.40218,-0.744396,-1.89002,-0.709085,2.34594,1.42154,-1.27522,1.40218,-0.744396,-1.89002,-0.709085,2.34594,1.42154,-1.27522,1.48186,-0.79636,-1.87204,-0.777582,2.31047,1.37193,-1.23177,-0.816646,0.648511,-0.150063,1.06155,0.672884,0.913453,-0.74702,-0.816646,0.648511,-0.150063,1.06155,0.672884,0.913453,-0.74702,0.20036,-0.544228,0.953075,0.864407,-0.0789983,-0.00745955,0.496492,-0.931253,0.119829,0.55971,-1.02802,0.218645,0.537832,1.29807,-0.509455,1.72564,-3.25735,-0.0242054,1.05648,-3.25735,-0.0013443,1.05648,-0.796839,0.519637,-0.179816,0.684971,0.354692,0.496019,-0.434464,1
1.39398,-0.741673,-1.90005,-0.697392,2.34612,1.43398,-1.28236,1.39398,-0.741673,-1.90005,-0.697392,2.34612,1.43398,-1.28236,1.47332,-0.790038,-1.87459,-0.76679,2.31687,1.38105,-1.2393,-0.854372,0.634406,-0.271305,1.0953,0.629052,0.913417,-0.752616,-0.854372,0.634406,-0.271305,1.0953,0.629052,0.913417,-0.752616,0.189935,-0.542237,0.958186,0.869395,-0.0883977,-0.0103708,0.486035,-0.957834,0.107971,0.533467,-1.04407,0.211733,0.509215,1.26488,-0.509839,1.73552,-3.31837,-0.0384092,0.98834,-3.31837,-0.00539081,0.98834,-0.793449,0.483642,-0.254601,0.693979,0.292587,0.529266,-0.430539,1
1.38725,-0.739886,-1.90673,-0.686515,2.34896,1.44325,-1.29101,1.38725,-0.739886,-1.90673,-0.686515,2.34896,1.44325,-1.29101,1.46524,-0.783627,-1.87735,-0.756085,2.32291,1.39011,-1.2467,-0.798431,0.638769,-0.290287,1.04604,0.593522,0.894099,-0.734376,-0.798431,0.638769,-0.290287,1.04604,0.593522,0.894099,-0.734376,0.179923,-0.539849,0.963211,0.874057,-0.0978115,-0.0129829,0.475698,-0.901075,0.144097,0.516298,-0.979707,0.249238,0.490005,1.23164,-0.510007,1.74401,-3.32464,-0.016737,0.84877,-3.32464,-0.0101828,0.84877,-0.779858,0.437415,-0.293787,0.695695,0.260538,0.531389,-0.443128,1
1.37886,-0.735578,-1.91004,-0.676059,2.35397,1.44954,-1.2965,1.37886,-0.735578,-1.91004,-0.676059,2.35397,1.44954,-1.2965,1.45696,-0.777357,-1.8808,-0.745262,2.32885,1.39888,-1.25401,-0.842088,0.625083,-0.356678,1.10467,0.59613,0.874481,-0.731788,-0.842088,0.625083,-0.356678,1.10467,0.59613,0.874481,-0.731788,0.169896,-0.537483,0.968014,0.878683,-0.106986,-0.0153108,0.465011,-0.942078,0.135644,0.508018,-1.01534,0.24335,0.479371,1.19876,-0.510166,1.7515,-3.28808,-0.01598,0.749218,-3.28808,-0.0153748,0.749218,-0.780989,0.417788,-0.29236,0.692037,0.25121,0.506567,-0.424843,1
1.37076,-0.732861,-1.91723,-0.66494,2.35516,1.46104,-1.30387,1.37076,-0.732861,-1.91723,-0.66494,2.35516,1.46104,-1.30387,1.44867,-0.771276,-1.88425,-0.734696,2.33478,1.40753,-1.26132,-0.814993,0.598167,-0.344658,1.03195,0.586753,0.859465,-0.729056,-0.814993,0.598167,-0.344658,1.03195,0.586753,0.859465,-0.729056,0.160035,-0.534996,0.972601,0.883062,-0.115995,-0.0176035,0.454354,-0.897057,0.151557,0.475015,-0.965193,0.256668,0.445037,1.16532,-0.510323,1.75827,-3.34392,-0.0156403,0.676572,-3.34392,-0.0191457,0.676572,-0.779157,0.384146,-0.329778,0.697556,0.20382,0.535159,-0.425547,1
1.36358,-0.736916,-1.92411,-0.654059,2.35218,1.47041,-1.31083,1.36358,-0.736916,-1.92411,-0.654059,2.35218,1.47041,-1.31083,1.44052,-0.765614,-1.88832,-0.724016,2.3402,1.41612,-1.26866,-0.825407,0.559027,-0.436719,1.09677,0.527083,0.862832,-0.736246,-0.825407,0.559027,-0.436719,1.09677,0.527083,0.862832,-0.736246,0.150353,-0.532562,0.976842,0.887372,-0.124809,-0.0195567,0.443409,-0.919274,0.137798,0.451191,-0.978644,0.247381,0.419164,1.13234,-0.510213,1.76369,-3.29776,0.0109375,0.541723,-3.29776,-0.018084,0.541723,-0.769459,0.286981,-0.357814,0.699569,0.119727,0.542914,-0.421743,1
1.35673,-0.735288,-1.93,-0.643484,2.34625,1.48054,-1.31847,1.35673,-0.735288,-1.93,-0.643484,2.34625,1.48054,-1.31847,1.43219,-0.760022,-1.89326,-0.713236,2.34488,1.42506,-1.27609,-0.824676,0.565954,-0.495656,1.07323,0.454201,0.897274,-0.745222,-0.824676,0.565954,-0.495656,1.07323,0.454201,0.897274,-0.745222,0.140722,-0.529956,0.980864,0.891701,-0.133748,-0.0208891,0.431909,-0.900528,0.163724,0.435743,-0.94983,0.279826,0.401352,1.06627,-0.510859,1.7718,-3.29645,-0.0312746,0.364256,-3.29645,-0.0149574,0.364256,-0.754564,0.247345,-0.367434,0.697519,0.0137014,0.55475,-0.423744,1
1.34952,-0.731511,-1.9357,-0.632574,2.34308,1.49042,-1.32584,1.34952,-0.731511,-1.9357,-0.632574,2.34308,1.49042,-1.32584,1.42421,-0.754305,-1.89817,-0.702344,2.34896,1.43411,-1.28342,-0.800288,0.563557,-0.504872,1.09481,0.394262,0.904764,-0.729859,-0.800288,0.563557,-0.504872,1.09481,0.394262,0.904764,-0.729859,0.131417,-0.526892,0.984915,0.895719,-0.142913,-0.021907,0.420457,-0.884218,0.191474,0.43452,-0.927693,0.312398,0.397302,1.03365,-0.510819,1.77427,-3.26205,0.00402331,0.247705,-3.26205,-0.0144573,0.247705,-0.746918,0.227937,-0.375265,0.6977,-0.0588087,0.563145,-0.424151,1
1.3407,-0.727612,-1.94355,-0.621604,2.34494,1.49999,-1.33192,1.3407,-0.727612,-1.94355,-0.621604,2.34494,1.49999,-1.33192,1.41587,-0.749373,-1.90393,-0.691528,2.35232,1.44323,-1.29065,-0.837798,0.476841,-0.590449,1.08789,0.309205,0.920583,-0.722548,-0.837798,0.476841,-0.590449,1.08789,0.309205,0.920583,-0.722548,0.122116,-0.524185,0.988378,0.899774,-0.15172,-0.0224287,0.408515,-0.896796,0.152286,0.372194,-0.927495,0.273435,0.33452,1.001,-0.511076,1.77621,-3.26476,-0.0256896,0.194073,-3.26476,-0.0156007,0.194073,-0.751753,0.217615,-0.396213,0.699244,-0.073759,0.567627,-0.412617,1
1.33429,-0.728675,-1.94994,-0.610774,2.34068,1.51191,-1.34237,1.33429,-0.728675,-1.94994,-0.610774,2.34068,1.51191,-1.34237,1.40783,-0.74468,-1.9097,-0.680501,2.35411,1.45249,-1.29781,-0.791398,0.465155,-0.573172,1.08527,0.123814,0.929735,-0.714529,-0.791398,0.465155,-0.573172,1.08527,0.123814,0.929735,-0.714529,0.113202,-0.521174,0.991707,0.903625,-0.160702,-0.0222642,0.39641,-0.846714,0.188581,0.365083,-0.865007,0.316826,0.324919,0.968224,-0.510869,1.77707,-3.27731,0.0207484,0.0857592,-3.27731,-0.012984,0.0857592,-0.735383,0.160045,-0.402459,0.697266,-0.134237,0.594245,-0.445582,1
1.32908,-0.729554,-1.95632,-0.600238,2.33627,1.52353,-1.35177,1.32908,-0.729554,-1.95632,-0.600238,2.33627,1.52353,-1.35177,1.39982,-0.740305,-1.91582,-0.669646,2.35393,1.46201,-1.30495,-0.810453,0.431143,-0.620618,1.10981,-0.0568546,0.965785,-0.717082,-0.810453,0.431143,-0.620618,1.10981,-0.0568546,0.965785,-0.717082,0.104757,-0.517974,0.994729,0.907368,-0.169723,-0.0210674,0.383972,-0.845512,0.195138,0.342345,-0.848123,0.331502,0.29961,0.935486,-0.511155,1.77724,-3.27388,-0.028652,0.0166535,-3.27388,-0.0131635,0.0166535,-0.707332,0.107509,-0.405049,0.694085,-0.176635,0.615233,-0.468229,1
1.32251,-0.727792,-1.96355,-0.5892,2.33311,1.53389,-1.35984,1.32251,-0.727792,-1.96355,-0.5892,2.33311,1.53389,-1.35984,1.39175,-0.736134,-1.9219,-0.658462,2.35255,1.47178,-1.31212,-0.796515,0.405724,-0.602042,1.09585,-0.15833,0.978968,-0.71568,-0.796515,0.405724,-0.602042,1.09585,-0.15833,0.978968,-0.71568,0.0964262,-0.514521,0.997654,0.910938,-0.178997,-0.0193656,0.371183,-0.817875,0.211455,0.325284,-0.81169,0.349948,0.28023,0.902303,-0.511174,1.77591,-3.31829,-0.0018537,-0.13274,-3.31829,-0.00900626,-0.13274,-0.692437,0.0834205,-0.416459,0.692619,-0.194428,0.621032,-0.477199,1
1.31539,-0.728126,-1.97039,-0.57876,2.33133,1.54371,-1.36749,1.31539,-0.728126,-1.97039,-0.57876,2.33133,1.54371,-1.36749,1.38396,-0.732545,-1.92809,-0.647533,2.35054,1.48179,-1.31924,-0.785214,0.339498,-0.629343,1.11611,-0.214705,1.01395,-0.713271,-0.785214,0.339498,-0.629343,1.11611,-0.214705,1.01395,-0.713271,0.0884724,-0.511171,1.00016,0.914242,-0.188083,-0.0174083,0.358446,-0.814624,0.195954,0.288012,-0.801595,0.334652,0.240849,0.869688,-0.511456,1.77373,-3.26146,-0.028199,-0.218439,-3.26146,-0.00920232,-0.218439,-0.685695,0.0441852,-0.42305,0.687734,-0.192067,0.619253,-0.482491,1
1.30754,-0.728282,-1.97799,-0.568649,2.3284,1.55397,-1.37518,1.30754,-0.728282,-1.97799,-0.568649,2.3284,1.55397,-1.37518,1.3758,-0.729596,-1.93471,-0.636469,2.34811,1.49195,-1.32662,-0.814959,0.282259,-0.664122,1.09157,-0.257332,1.01999,-0.746324,-0.814959,0.282259,-0.664122,1.09157,-0.257332,1.01999,-0.746324,0.0804105,-0.508078,1.00227,0.917518,-0.196977,-0.0152147,0.345152,-0.816518,0.174474,0.246188,-0.793695,0.310348,0.198521,0.837102,-0.512169,1.77087,-3.2586,-0.0713706,-0.285578,-3.2586,-0.0182667,-0.285578,-0.682609,0.0131396,-0.432761,0.678203,-0.197134,0.620234,-0.48561,1
1.30226,-0.733162,-1.98501,-0.558597,2.3214,1.56567,-1.38464,1.30226,-0.733162,-1.98501,-0.558597,2.3214,1.56567,-1.38464,1.3681,-0.726833,-1.94097,-0.625426,2.34503,1.50255,-1.33444,-0.7617,0.273798,-0.621242,1.1155,-0.321818,1.07495,-0.793903,-0.7617,0.273798,-0.621242,1.1155,-0.321818,1.07495,-0.793903,0.0727384,-0.504719,1.00423,0.920461,-0.206096,-0.0129208,0.331828,-0.78507,0.208048,0.246822,-0.759774,0.348264,0.194418,0.804365,-0.512362,1.76706,-3.27376,-0.0192821,-0.380898,-3.27376,-0.0241439,-0.380898,-0.658348,-0.0632933,-0.44037,0.668296,-0.236288,0.631182,-0.502018,1
1.29545,-0.732806,-1.99275,-0.550113,2.31815,1.57595,-1.3929,1.29545,-0.732806,-1.99275,-0.550113,2.31815,1.57595,-1.3929,1.36022,-0.724596,-1.94751,-0.614509,2.34154,1.5133,-1.34261,-0.796743,0.206242,-0.660048,1.0954,-0.350753,1.08158,-0.824463,-0.796743,0.206242,-0.660048,1.0954,-0.350753,1.08158,-0.824463,0.065162,-0.501551,1.00583,0.923288,-0.214994,-0.0104037,0.318134,-0.794168,0.177242,0.200459,-0.759617,0.313228,0.147891,0.771968,-0.512665,1.76175,-3.23966,-0.0302851,-0.531673,-3.23966,-0.0314253,-0.531673,-0.647713,-0.0820982,-0.452393,0.643959,-0.233926,0.626468,-0.502964,1
1.28765,-0.733193,-1.99904,-0.53903,2.31471,1.58658,-1.4011,1.28765,-0.733193,-1.99904,-0.53903,2.31471,1.58658,-1.4011,1.35242,-0.722706,-1.9538,-0.603253,2.33802,1.52429,-1.35093,-0.766458,0.182644,-0.616496,1.11959,-0.348663,1.10341,-0.834003,-0.766458,0.182644,-0.616496,1.11959,-0.348663,1.10341,-0.834003,0.0575495,-0.498338,1.00727,0.925826,-0.224006,-0.0080521,0.304307,-0.782548,0.191691,0.194923,-0.748316,0.327078,0.138987,0.740198,-0.512992,1.75611,-3.17695,-0.0326991,-0.564015,-3.17695,-0.0335713,-0.564015,-0.647708,-0.104868,-0.452436,0.642232,-0.233116,0.622905,-0.501743,1
1.27878,-0.733685,-2.01026,-0.52844,2.30791,1.59807,-1.4093,1.27878,-0.733685,-2.01026,-0.52844,2.30791,1.59807,-1.4093,1.34503,-0.721485,-1.96028,-0.5926,2.33445,1.53519,-1.35923,-0.739649,0.0993517,-0.666004,1.06722,-0.359785,1.08774,-0.832289,-0.739649,0.0993517,-0.666004,1.06722,-0.359785,1.08774,-0.832289,0.050414,-0.495504,1.00823,0.928103,-0.232452,-0.00566248,0.290789,-0.752104,0.146716,0.134531,-0.710107,0.27293,0.080796,0.707177,-0.513185,1.74934,-3.30219,-0.0193179,-0.676119,-3.30219,-0.0342965,-0.676119,-0.66246,-0.122004,-0.499703,0.641604,-0.265404,0.628855,-0.500627,1
1.26992,-0.734827,-2.01863,-0.518779,2.30383,1.60824,-1.41728,1.26992,-0.734827,-2.01863,-0.518779,2.30383,1.60824,-1.41728,1.33745,-0.720933,-1.9673,-0.581512,2.33058,1.54621,-1.36761,-0.757793,0.0450498,-0.704103,1.09536,-0.395873,1.09968,-0.840966,-0.757793,0.0450498,-0.704103,1.09536,-0.395873,1.09968,-0.840966,0.0431242,-0.492954,1.00883,0.930283,-0.24074,-0.00306757,0.276782,-0.767785,0.128806,0.105796,-0.717496,0.253252,0.0508895,0.674694,-0.513117,1.74117,-3.24823,0.00680089,-0.817716,-3.24823,-0.0273077,-0.817716,-0.675233,-0.13894,-0.513354,0.627326,-0.267559,0.620316,-0.496717,1
1.26217,-0.736244,-2.02719,-0.508291,2.29848,1.61937,-1.42576,1.26217,-0.736244,-2.02719,-0.508291,2.29848,1.61937,-1.42576,1.33028,-0.720565,-1.9742,-0.570905,2.32648,1.55724,-1.37606,-0.705613,0.0373558,-0.686066,1.06769,-0.41593,1.10816,-0.8454,-0.705613,0.0373558,-0.686066,1.06769,-0.41593,1.10816,-0.8454,0.0363398,-0.490408,1.00923,0.932135,-0.248809,-0.000363032,0.263095,-0.722689,0.141811,0.0952981,-0.66936,0.263753,0.0387788,0.641914,-0.513814,1.73245,-3.27806,-0.0697136,-0.871336,-3.27806,-0.0248754,-0.871336,-0.681122,-0.156794,-0.529929,0.626132,-0.279941,0.621283,-0.497052,1
1.25381,-0.737246,-2.03558,-0.499294,2.29447,1.62949,-1.43412,1.25381,-0.737246,-2.03558,-0.499294,2.29447,1.62949,-1.43412,1.32304,-0.720458,-1.98135,-0.560313,2.32229,1.56837,-1.38453,-0.735131,-0.00605217,-0.734651,1.04112,-0.423102,1.1053,-0.846275,-0.735131,-0.00605217,-0.734651,1.04112,-0.423102,1.1053,-0.846275,0.0296206,-0.487935,1.00942,0.933772,-0.256752,0.00249307,0.249281,-0.727333,0.119039,0.060852,-0.665331,0.235823,0.00499148,0.609178,-0.514177,1.72206,-3.2736,-0.0363052,-1.0397,-3.2736,-0.0281049,-1.0397,-0.692332,-0.167881,-0.542325,0.610189,-0.278274,0.611264,-0.495916,1
1.24617,-0.739534,-2.04336,-0.489405,2.2904,1.64007,-1.4427,1.24617,-0.739534,-2.04336,-0.489405,2.2904,1.64007,-1.4427,1.3157,-0.720677,-1.98889,-0.549788,2.31787,1.57948,-1.39298,-0.729092,-0.0237402,-0.753623,1.06942,-0.447644,1.12269,-0.841801,-0.729092,-0.0237402,-0.753623,1.06942,-0.447644,1.12269,-0.841801,0.0230052,-0.48561,1.00937,0.93523,-0.26446,0.00564778,0.235316,-0.726696,0.125422,0.0526446,-0.658757,0.241776,-0.00563858,0.577228,-0.514529,1.71122,-3.19498,-0.0351429,-1.08411,-3.19498,-0.0306828,-1.08411,-0.695239,-0.188572,-0.544695,0.603826,-0.274717,0.605889,-0.497197,1
1.23794,-0.74245,-2.05358,-0.479072,2.28434,1.65136,-1.45024,1.23794,-0.74245,-2.05358,-0.479072,2.28434,1.65136,-1.45024,1.30854,-0.721301,-1.9967,-0.539681,2.31323,1.59058,-1.40134,-0.7135,-0.08064,-0.798275,0.987274,-0.47096,1.1007,-0.833484,-0.7135,-0.08064,-0.798275,0.987274,-0.47096,1.1007,-0.833484,0.0167339,-0.483527,1.009,0.936465,-0.271797,0.00903695,0.221535,-0.689632,0.0877942,0.00252444,-0.61316,0.194478,-0.052423,0.544848,-0.514859,1.69956,-3.238,-0.033015,-1.16574,-3.238,-0.0333865,-1.16574,-0.706061,-0.211496,-0.568759,0.606095,-0.288851,0.607804,-0.488924,1
1.2304,-0.744799,-2.06221,-0.469416,2.27885,1.66238,-1.45839,1.2304,-0.744799,-2.06221,-0.469416,2.27885,1.66238,-1.45839,1.30124,-0.722331,-2.00509,-0.529387,2.3084,1.60164,-1.40969,-0.736102,-0.105063,-0.848236,1.0512,-0.485705,1.10914,-0.834526,-0.736102,-0.105063,-0.848236,1.0512,-0.485705,1.10914,-0.834526,0.0104407,-0.481647,1.00839,0.937557,-0.278896,0.012739,0.207467,-0.717713,0.0886337,-0.00391012,-0.633323,0.194702,-0.0611069,0.51273,-0.514805,1.68703,-3.21173,0.00534654,-1.25301,-3.21173,-0.0323532,-1.25301,-0.708454,-0.224682,-0.571247,0.599706,-0.295423,0.60745,-0.487021,1
1.22174,-0.746937,-2.07268,-0.459368,2.27294,1.67301,-1.46512,1.22174,-0.746937,-2.07268,-0.459368,2.27294,1.67301,-1.46512,1.29395,-0.723588,-2.01363,-0.519426,2.30354,1.6125,-1.41804,-0.720379,-0.135371,-0.855702,0.978142,-0.483461,1.07866,-0.834766,-0.720379,-0.135371,-0.855702,0.978142,-0.483461,1.07866,-0.834766,0.00435883,-0.479921,1.00759,0.938448,-0.285649,0.0165954,0.193508,-0.683318,0.0692871,-0.0336333,-0.594607,0.166446,-0.0882457,0.479982,-0.514734,1.67329,-3.27482,0.00718236,-1.37427,-3.27482,-0.0268334,-1.37427,-0.722109,-0.233489,-0.590498,0.600576,-0.305955,0.605046,-0.470828,1
1.21404,-0.748724,-2.08148,-0.450072,2.26906,1.6825,-1.4732,1.21404,-0.748724,-2.08148,-0.450072,2.26906,1.6825,-1.4732,1.28686,-0.725149,-2.02224,-0.509482,2.29869,1.62338,-1.4264,-0.712254,-0.164312,-0.869268,1.00406,-0.484938,1.08603,-0.836767,-0.712254,-0.164312,-0.869268,1.00406,-0.484938,1.08603,-0.836767,-0.0015706,-0.478308,1.00661,0.939094,-0.292242,0.0204748,0.179659,-0.68563,0.0666255,-0.0458692,-0.593336,0.160896,-0.101757,0.447985,-0.514794,1.65861,-3.1997,-0.00599623,-1.4671,-3.1997,-0.0154542,-1.4671,-0.728181,-0.235751,-0.592447,0.594101,-0.296314,0.591216,-0.468013,1
1.20575,-0.752478,-2.09163,-0.440307,2.26304,1.69299,-1.4804,1.20575,-0.752478,-2.09163,-0.440307,2.26304,1.69299,-1.4804,1.27953,-0.727201,-2.03124,-0.499817,2.29377,1.63402,-1.43471,-0.733118,-0.215172,-0.904117,0.958009,-0.495426,1.067,-0.831542,-0.733118,-0.215172,-0.904117,0.958009,-0.495426,1.067,-0.831542,-0.00746596,-0.477053,1.00532,0.939638,-0.298333,0.0246081,0.165745,-0.682443,0.0360513,-0.0834645,-0.58305,0.121939,-0.13661,0.415822,-0.515935,1.64332,-3.21633,-0.114113,-1.52961,-3.21633,-0.0202732,-1.52961,-0.73784,-0.252773,-0.603919,0.595102,-0.307285,0.589637,-0.456937,1
1.19972,-0.756492,-2.10167,-0.43147,2.25654,1.70454,-1.48906,1.19972,-0.756492,-2.10167,-0.43147,2.25654,1.70454,-1.48906,1.27253,-0.729262,-2.04004,-0.490118,2.28869,1.64488,-1.4429,-0.690096,-0.203619,-0.877237,0.972569,-0.512913,1.08112,-0.818012,-0.690096,-0.203619,-0.877237,0.972569,-0.512913,1.08112,-0.818012,-0.0131086,-0.475654,1.004,0.939833,-0.304541,0.0287919,0.152117,-0.654543,0.060137,-0.0745544,-0.554169,0.145488,-0.130823,0.38316,-0.516343,1.62714,-3.26624,-0.0408649,-1.61818,-3.26624,-0.0270841,-1.61818,-0.728114,-0.272304,-0.61631,0.586483,-0.321549,0.596647,-0.461549,1
1.19196,-0.758291,-2.11135,-0.423357,2.25232,1.71311,-1.49676,1.19196,-0.758291,-2.11135,-0.423357,2.25232,1.71311,-1.49676,1.2654,-0.73155,-2.04908,-0.480697,2.28339,1.65555,-1.45091,-0.725293,-0.241225,-0.910984,0.942777,-0.535596,1.07129,-0.799665,-0.725293,-0.241225,-0.910984,0.942777,-0.535596,1.07129,-0.799665,-0.0186095,-0.474426,1.00251,0.939858,-0.310408,0.0333108,0.138578,-0.660954,0.0401962,-0.102831,-0.552529,0.118869,-0.157598,0.350776,-0.516501,1.60954,-3.23833,-0.0157714,-1.75939,-3.23833,-0.0328694,-1.75939,-0.734374,-0.267407,-0.622713,0.573397,-0.310667,0.575604,-0.458504,1
1.18441,-0.760876,-2.11991,-0.414452,2.2481,1.72198,-1.50532,1.18441,-0.760876,-2.11991,-0.414452,2.2481,1.72198,-1.50532,1.25809,-0.73402,-2.05801,-0.471022,2.27808,1.66629,-1.45878,-0.727701,-0.244293,-0.885159,0.973265,-0.527064,1.06397,-0.782923,-0.727701,-0.244293,-0.885159,0.973265,-0.527064,1.06397,-0.782923,-0.0242255,-0.473162,1.00095,0.939625,-0.31629,0.0378704,0.125023,-0.666664,0.0557646,-0.0964124,-0.557371,0.132048,-0.153119,0.319209,-0.517088,1.59108,-3.15676,-0.058639,-1.84654,-3.15676,-0.0426099,-1.84654,-0.736826,-0.268553,-0.61908,0.565706,-0.299808,0.556871,-0.465379,1
1.17698,-0.763874,-2.12923,-0.404911,2.24166,1.73258,-1.51297,1.17698,-0.763874,-2.12923,-0.404911,2.24166,1.73258,-1.51297,1.25083,-0.736598,-2.0671,-0.461691,2.27271,1.6769,-1.46649,-0.729906,-0.269016,-0.926491,0.924334,-0.541003,1.06719,-0.769166,-0.729906,-0.269016,-0.926491,0.924334,-0.541003,1.06719,-0.769166,-0.0296153,-0.472005,0.999256,0.939196,-0.321889,0.0426542,0.111709,-0.649782,0.0395585,-0.12346,-0.534145,0.10934,-0.178971,0.286962,-0.517597,1.57175,-3.22468,-0.0509322,-1.9331,-3.22468,-0.0490844,-1.9331,-0.738434,-0.272761,-0.62122,0.567795,-0.310506,0.556807,-0.464807,1
1.16892,-0.76553,-2.13881,-0.396338,2.23683,1.74015,-1.52091,1.16892,-0.76553,-2.13881,-0.396338,2.23683,1.74015,-1.52091,1.24332,-0.739598,-2.07671,-0.452175,2.26724,1.68746,-1.47419,-0.757146,-0.301756,-0.970149,0.96496,-0.546238,1.04398,-0.771143,-0.757146,-0.301756,-0.970149,0.96496,-0.546238,1.04398,-0.771143,-0.0351176,-0.471064,0.997344,0.938623,-0.327223,0.0477384,0.0981508,-0.674746,0.0323664,-0.134856,-0.552184,0.0966087,-0.190117,0.254854,-0.517831,1.55111,-3.21077,-0.023371,-2.06337,-3.21077,-0.0470679,-2.06337,-0.743953,-0.259322,-0.620959,0.558372,-0.304136,0.526837,-0.467181,1
1.1606,-0.769459,-2.14724,-0.385584,2.23332,1.74852,-1.52646,1.1606,-0.769459,-2.14724,-0.385584,2.23332,1.74852,-1.52646,1.23587,-0.742583,-2.08643,-0.442975,2.26176,1.69796,-1.48191,-0.737205,-0.302427,-0.973408,0.902955,-0.549421,1.05273,-0.773672,-0.737205,-0.302427,-0.973408,0.902955,-0.549421,1.05273,-0.773672,-0.0403969,-0.470139,0.995364,0.937832,-0.332377,0.0529921,0.0847889,-0.640313,0.0306669,-0.149114,-0.51576,0.0896273,-0.204254,0.223037,-0.517821,1.53018,-3.18169,0.000947714,-2.09363,-3.18169,-0.0347461,-2.09363,-0.752683,-0.268759,-0.608069,0.573916,-0.284396,0.505621,-0.445509,1
1.15258,-0.774883,-2.15696,-0.378517,2.2268,1.75702,-1.53315,1.15258,-0.774883,-2.15696,-0.378517,2.2268,1.75702,-1.53315,1.22847,-0.74585,-2.09623,-0.433926,2.25646,1.70813,-1.48972,-0.74823,-0.332015,-0.986291,0.913836,-0.526278,1.00439,-0.784781,-0.74823,-0.332015,-0.986291,0.913836,-0.526278,1.00439,-0.784781,-0.0456118,-0.46942,0.993246,0.936917,-0.337162,0.0582272,0.0715428,-0.651525,0.0200173,-0.159474,-0.52503,0.0714057,-0.212478,0.19073,-0.518663,1.50784,-3.23075,-0.0842094,-2.23371,-3.23075,-0.0369364,-2.23371,-0.758884,-0.290328,-0.607279,0.554086,-0.296546,0.488901,-0.434229,1
1.14495,-0.779302,-2.16617,-0.372503,2.22129,1.76216,-1.54047,1.14495,-0.779302,-2.16617,-0.372503,2.22129,1.76216,-1.54047,1.22081,-0.749284,-2.10615,-0.424927,2.25118,1.71814,-1.49762,-0.766878,-0.346017,-0.991935,0.884781,-0.532937,1.0005,-0.790355,-0.766878,-0.346017,-0.991935,0.884781,-0.532937,1.0005,-0.790355,-0.0508833,-0.468778,0.991037,0.935837,-0.341723,0.0635959,0.0582227,-0.649357,0.0166121,-0.173053,-0.519374,0.0623097,-0.225622,0.159222,-0.519403,1.48387,-3.15081,-0.0739574,-2.39723,-3.15081,-0.0431442,-2.39723,-0.758635,-0.300182,-0.600203,0.524244,-0.298826,0.440255,-0.428455,1
1.13694,-0.783884,-2.17592,-0.364343,2.21379,1.77297,-1.54662,1.13694,-0.783884,-2.17592,-0.364343,2.21379,1.77297,-1.54662,1.21331,-0.752724,-2.11581,-0.416154,2.24595,1.72777,-1.50549,-0.748577,-0.338143,-0.961207,0.878849,-0.519265,0.953608,-0.784447,-0.748577,-0.338143,-0.961207,0.878849,-0.519265,0.953608,-0.784447,-0.0559719,-0.468164,0.988837,0.934591,-0.346042,0.0689166,0.0452279,-0.632871,0.0266591,-0.164278,-0.504452,0.0671333,-0.216148,0.127328,-0.520243,1.46001,-3.18936,-0.0839829,-2.38574,-3.18936,-0.0496771,-2.38574,-0.763705,-0.311603,-0.601123,0.518105,-0.321591,0.451925,-0.411333,1
1.12925,-0.78831,-2.18421,-0.357229,2.21035,1.77163,-1.55319,1.12925,-0.78831,-2.18421,-0.357229,2.21035,1.77163,-1.55319,1.20562,-0.756165,-2.1255,-0.407223,2.24085,1.73713,-1.51316,-0.780348,-0.352009,-0.976834,0.884302,-0.508642,0.927566,-0.760082,-0.780348,-0.352009,-0.976834,0.884302,-0.508642,0.927566,-0.760082,-0.0611402,-0.467491,0.986684,0.933155,-0.350222,0.0743307,0.0322817,-0.649241,0.0276474,-0.169702,-0.517407,0.0621528,-0.220838,0.0971155,-0.51939,1.43484,-3.02127,0.0852942,-2.51685,-3.02127,-0.042086,-2.51685,-0.763624,-0.321446,-0.587155,0.499941,-0.305002,0.345078,-0.400335,1
1.11909,-0.791179,-2.19598,-0.348041,2.19637,1.78886,-1.55632,1.11909,-0.791179,-2.19598,-0.348041,2.19637,1.78886,-1.55632,1.19782,-0.759982,-2.13515,-0.398547,2.23579,1.74607,-1.52051,-0.773996,-0.384535,-0.954831,0.866397,-0.507645,0.883859,-0.727868,-0.773996,-0.384535,-0.954831,0.866397,-0.507645,0.883859,-0.727868,-0.0663126,-0.467092,0.984356,0.931656,-0.353923,0.0798199,0.0196206,-0.643258,0.0130504,-0.184687,-0.512324,0.0400378,-0.232923,0.0638269,-0.519773,1.40945,-3.32885,-0.0383496,-2.53954,-3.32885,-0.037658,-2.53954,-0.78731,-0.311965,-0.608298,0.505052,-0.394237,0.427852,-0.358079,1
1.11274,-0.793886,-2.2048,-0.343677,2.19439,1.7794,-1.56368,1.11274,-0.793886,-2.2048,-0.343677,2.19439,1.7794,-1.56368,1.19019,-0.763827,-2.14457,-0.389935,2.23061,1.75456,-1.52764,-0.767477,-0.391738,-0.945147,0.848097,-0.526092,0.84413,-0.707698,-0.767477,-0.391738,-0.945147,0.848097,-0.526092,0.84413,-0.707698,-0.0713296,-0.46672,0.982063,0.930026,-0.35737,0.085358,0.00728894,-0.629663,0.01091,-0.18859,-0.497318,0.0315852,-0.235292,0.0324814,-0.519897,1.38234,-3.13456,-0.0124156,-2.71094,-3.13456,-0.0301265,-2.71094,-0.774437,-0.30059,-0.602313,0.462577,-0.362167,0.248367,-0.360402,1
1.10146,-0.79817,-2.21233,-0.339021,2.18711,1.78306,-1.565,1.10146,-0.79817,-2.21233,-0.339021,2.18711,1.78306,-1.565,1.18223,-0.768092,-2.1542,-0.381716,2.22516,1.7626,-1.53459,-0.80035,-0.432258,-0.957971,0.821659,-0.548393,0.790187,-0.689446,-0.80035,-0.432258,-0.957971,0.821659,-0.548393,0.790187,-0.689446,-0.0763773,-0.466707,0.979534,0.928391,-0.3602,0.0912263,-0.00495589,-0.641645,-0.0113342,-0.211664,-0.505315,-0.000539147,-0.254198,0.00084002,-0.520932,1.35433,-3.16414,-0.10348,-2.8002,-3.16414,-0.0261656,-2.8002,-0.807651,-0.300781,-0.581355,0.426948,-0.380535,0.204579,-0.304168,1
1.0949,-0.800368,-2.22369,-0.344065,2.18308,1.78286,-1.57206,1.0949,-0.800368,-2.22369,-0.344065,2.18308,1.78286,-1.57206,1.17442,-0.77203,-2.16348,-0.373528,2.21955,1.76996,-1.54127,-0.77396,-0.385926,-0.921382,0.820053,-0.571652,0.723817,-0.658873,-0.77396,-0.385926,-0.921382,0.820053,-0.571652,0.723817,-0.658873,-0.0812134,-0.466528,0.977249,0.926617,-0.362843,0.0971724,-0.0168575,-0.610681,0.0165178,-0.180727,-0.474712,0.0234398,-0.223609,-0.0308073,-0.521635,1.32588,-3.16473,-0.0702977,-2.84588,-3.16473,-0.0306557,-2.84588,-0.795191,-0.283383,-0.602094,0.294631,-0.364668,0.129026,-0.307901,1
1.08617,-0.802403,-2.23251,-0.34354,2.17321,1.78384,-1.57256,1.08617,-0.802403,-2.23251,-0.34354,2.17321,1.78384,-1.57256,1.16645,-0.776105,-2.17296,-0.365702,2.21326,1.77705,-1.54752,-0.807146,-0.418763,-0.959157,0.77396,-0.646877,0.700567,-0.614638,-0.807146,-0.418763,-0.959157,0.77396,-0.646877,0.700567,-0.614638,-0.0858826,-0.466538,0.974828,0.924752,-0.365058,0.103705,-0.0285046,-0.610836,-0.00669797,-0.209314,-0.466416,-0.00961067,-0.249704,-0.0626129,-0.522164,1.29598,-3.18056,-0.0528455,-2.98927,-3.18056,-0.0407594,-2.98927,-0.802796,-0.262975,-0.595539,0.221623,-0.400505,0.0678781,-0.250423,1
1.07829,-0.810252,-2.24326,-0.384002,2.1651,1.77135,-1.58017,1.07829,-0.810252,-2.24326,-0.384002,2.1651,1.77135,-1.58017,1.1584,-0.780243,-2.18249,-0.358075,2.20654,1.78305,-1.5534,-0.799559,-0.407186,-0.949821,0.749284,-0.678899,0.564639,-0.576899,-0.799559,-0.407186,-0.949821,0.749284,-0.678899,0.564639,-0.576899,-0.0904377,-0.46676,0.97246,0.922926,-0.36658,0.110593,-0.0399452,-0.59165,-0.011203,-0.196886,-0.446016,-0.02502,-0.231929,-0.0940152,-0.522407,1.26468,-3.14023,-0.0243545,-3.13052,-3.14023,-0.0556101,-3.13052,-0.801092,-0.300088,-0.607687,-0.259263,-0.414401,-0.116972,-0.26774,1
1.07022,-0.819348,-2.25111,-0.408366,2.14655,1.76874,-1.5771,1.07022,-0.819348,-2.25111,-0.408366,2.14655,1.76874,-1.5771,1.15047,-0.784437,-2.19192,-0.351099,2.19977,1.78758,-1.55871,-0.797774,-0.428686,-0.946526,0.663032,-0.674815,0.415971,-0.518666,-0.797774,-0.428686,-0.946526,0.663032,-0.674815,0.415971,-0.518666,-0.0947892,-0.467347,0.970147,0.921309,-0.367131,0.117575,-0.0507982,-0.574229,-0.048183,-0.21217,-0.431046,-0.0763802,-0.237246,-0.125096,-0.522602,1.23316,-3.10811,-0.0195146,-3.15194,-3.10811,-0.0526364,-3.15194,-0.802506,-0.349105,-0.591928,-0.572667,-0.532258,-0.188399,-0.183937,1
1.06325,-0.822705,-2.25877,-0.413243,2.13884,1.76704,-1.57987,1.06325,-0.822705,-2.25877,-0.413243,2.13884,1.76704,-1.57987,1.14232,-0.788785,-2.20149,-0.345546,2.19317,1.7908,-1.56366,-0.818986,-0.426086,-0.957707,0.522549,-0.658516,0.286969,-0.484127,-0.818986,-0.426086,-0.957707,0.522549,-0.658516,0.286969,-0.484127,-0.0989791,-0.468528,0.967682,0.920017,-0.366457,0.124688,-0.0610741,-0.553876,-0.0819563,-0.228614,-0.412708,-0.124302,-0.244034,-0.157603,-0.523011,1.20074,-3.25066,-0.0408649,-3.24187,-3.25066,-0.0480462,-3.24187,-0.790705,-0.339197,-0.572793,-0.676966,-0.543288,-0.23759,-0.162124,1
1.05715,-0.833965,-2.26261,-0.413542,2.13685,1.76683,-1.58144,1.05715,-0.833965,-2.26261,-0.413542,2.13685,1.76683,-1.58144,1.13416,-0.792698,-2.21086,-0.34217,2.18662,1.79232,-1.56813,-0.810609,-0.389245,-0.933103,0.245803,-0.657902,0.0936351,-0.438142,-0.810609,-0.389245,-0.933103,0.245803,-0.657902,0.0936351,-0.438142,-0.102651,-0.470205,0.965282,0.919142,-0.364458,0.13191,-0.0703352,-0.480943,-0.137527,-0.247245,-0.346234,-0.197676,-0.247802,-0.188075,-0.52323,1.16733,-3.04717,-0.0218689,-3.3414,-3.04717,-0.0360095,-3.3414,-0.770102,-0.412675,-0.517509,-0.713714,-0.497758,-0.254909,-0.133075,1
1.04824,-0.846752,-2.27732,-0.415162,2.12731,1.77461,-1.58544,1.04824,-0.846752,-2.27732,-0.415162,2.12731,1.77461,-1.58544,1.12571,-0.796356,-2.2203,-0.342684,2.17978,1.7917,-1.57235,-0.870011,-0.354329,-0.950495,-0.145497,-0.698214,-0.101348,-0.409336,-0.870011,-0.354329,-0.950495,-0.145497,-0.698214,-0.101348,-0.409336,-0.105582,-0.473023,0.962578,0.91903,-0.36025,0.139527,-0.0783336,-0.417781,-0.219641,-0.296437,-0.2834,-0.3039,-0.279469,-0.220288,-0.524724,1.13337,-3.22137,-0.149411,-3.39605,-3.22137,-0.042863,-3.39605,-0.774623,-0.50396,-0.570271,-0.724774,-0.524635,-0.170884,-0.130976,1
1.03822,-0.864253,-2.2896,-0.420158,2.12269,1.77197,-1.59119,1.03822,-0.864253,-2.2896,-0.420158,2.12269,1.77197,-1.59119,1.11612,-0.799512,-2.22972,-0.347568,2.17207,1.78993,-1.57578,-0.98278,-0.298748,-0.930973,-0.596945,-0.796271,-0.195075,-0.32371,-0.98278,-0.298748,-0.930973,-0.596945,-0.796271,-0.195075,-0.32371,-0.107967,-0.476774,0.959409,0.919481,-0.354121,0.148071,-0.0850238,-0.363009,-0.288758,-0.358971,-0.225921,-0.394,-0.330189,-0.250804,-0.525016,1.09733,-3.05156,-0.0292242,-3.60312,-3.05156,-0.0493488,-3.60312,-0.778979,-0.647408,-0.598853,-0.725893,-0.493802,-0.17964,-0.154101,1
1.02698,-0.870276,-2.3007,-0.428664,2.11286,1.79272,-1.59888,1.02698,-0.870276,-2.3007,-0.428664,2.11286,1.79272,-1.59888,1.1056,-0.80187,-2.23871,-0.356144,2.16333,1.78747,-1.57852,-1.0812,-0.221463,-0.89598,-0.932375,-0.894693,-0.266247,-0.259021,-1.0812,-0.221463,-0.89598,-0.932375,-0.894693,-0.266247,-0.259021,-0.109821,-0.481044,0.955943,0.920251,-0.346656,0.157397,-0.0905262,-0.324951,-0.318543,-0.391684,-0.185056,-0.43922,-0.357536,-0.281475,-0.525217,1.06124,-3.0671,-0.0201166,-3.60954,-3.0671,-0.0534649,-3.60954,-0.786183,-0.684058,-0.619871,-0.725201,-0.504694,0.0524941,-0.203627,1
1.01605,-0.87779,-2.31037,-0.439314,2.1141,1.78713,-1.60834,1.01605,-0.87779,-2.31037,-0.439314,2.1141,1.78713,-1.60834,1.09407,-0.804253,-2.24746,-0.367106,2.15431,1.78494,-1.58078,-1.16001,-0.247121,-0.862137,-1.12989,-0.897492,-0.228186,-0.219714,-1.16001,-0.247121,-0.862137,-1.12989,-0.897492,-0.228186,-0.219714,-0.111826,-0.485831,0.95191,0.921218,-0.338189,0.166996,-0.0953859,-0.345565,-0.35597,-0.459709,-0.21015,-0.485376,-0.423219,-0.312816,-0.525576,1.02382,-3.13414,-0.035882,-3.74204,-3.13414,-0.0539993,-3.74204,-0.780254,-0.735367,-0.629042,-0.722077,-0.402067,0.0219522,-0.275626,1
1.00415,-0.881093,-2.32112,-0.450007,2.10095,1.8089,-1.61298,1.00415,-0.881093,-2.32112,-0.450007,2.10095,1.8089,-1.61298,1.08285,-0.806763,-2.25598,-0.378721,2.14538,1.78305,-1.58295,-1.1092,-0.255666,-0.860436,-1.167,-0.891472,-0.185571,-0.221068,-1.1092,-0.255666,-0.860436,-1.167,-0.891472,-0.185571,-0.221068,-0.113791,-0.490745,0.947484,0.922096,-0.329706,0.176331,-0.099704,-0.328698,-0.36608,-0.487832,-0.199182,-0.49632,-0.454546,-0.345174,-0.525357,0.986052,-3.23571,0.0218987,-3.77659,-3.23571,-0.0436578,-3.77659,-0.787019,-0.743304,-0.651311,-0.712863,-0.444285,0.258472,-0.300292,1
0.994501,-0.886717,-2.32798,-0.459746,2.11808,1.78815,-1.61912,0.994501,-0.886717,-2.32798,-0.459746,2.11808,1.78815,-1.61912,1.07242,-0.810142,-2.26485,-0.389987,2.13676,1.78205,-1.58551,-1.01722,-0.356702,-0.895968,-1.09696,-0.851838,-0.0536162,-0.275451,-1.01722,-0.356702,-0.895968,-1.09696,-0.851838,-0.0536162,-0.275451,-0.115887,-0.495991,0.942426,0.922848,-0.321312,0.185242,-0.103904,-0.339206,-0.394833,-0.550954,-0.217408,-0.521517,-0.522705,-0.376636,-0.524717,0.947557,-3.14628,0.0640154,-3.84954,-3.14628,-0.0224573,-3.84954,-0.779206,-0.76575,-0.631333,-0.697592,-0.18681,0.0610136,-0.336088,1
0.982917,-0.89323,-2.33894,-0.472365,2.09402,1.81754,-1.62212,0.982917,-0.89323,-2.33894,-0.472365,2.09402,1.81754,-1.62212,1.0629,-0.814073,-2.27426,-0.400477,2.12849,1.78288,-1.58892,-0.929715,-0.412428,-0.952832,-1.04222,-0.80837,0.118521,-0.367835,-0.929715,-0.412428,-0.952832,-1.04222,-0.80837,0.118521,-0.367835,-0.118028,-0.501163,0.936849,0.923197,-0.313755,0.193796,-0.108205,-0.336706,-0.400856,-0.597327,-0.220196,-0.520394,-0.577222,-0.407141,-0.526342,0.906968,-3.05049,-0.162566,-4.05887,-3.05049,-0.0157063,-4.05887,-0.79981,-0.79157,-0.646747,-0.718877,-0.344716,0.346593,-0.33201,1
0.976555,-0.89833,-2.34311,-0.481664,2.13912,1.78338,-1.62513,0.976555,-0.89833,-2.34311,-0.481664,2.13912,1.78338,-1.62513,1.05427,-0.818587,-2.28407,-0.410202,2.12119,1.78485,-1.59338,-0.842532,-0.459764,-0.990689,-0.952389,-0.707437,0.233447,-0.472767,-0.842532,-0.459764,-0.990689,-0.952389,-0.707437,0.233447,-0.472767,-0.120326,-0.506312,0.930886,0.923324,-0.306811,0.201597,-0.112691,-0.344039,-0.395656,-0.621392,-0.236739,-0.507424,-0.606495,-0.437656,-0.526726,0.865043,-3.0515,-0.0384033,-4.19247,-3.0515,-0.0232969,-4.19247,-0.777174,-0.797434,-0.590315,-0.714621,0.179352,-0.0146406,-0.317526,1
0.96562,-0.904766,-2.35879,-0.491329,2.07522,1.82702,-1.62596,0.96562,-0.904766,-2.35879,-0.491329,2.07522,1.82702,-1.62596,1.04626,-0.823797,-2.29432,-0.419764,2.11472,1.78817,-1.59865,-0.78725,-0.544563,-1.02855,-0.96037,-0.603914,0.340081,-0.545114,-0.78725,-0.544563,-1.02855,-0.96037,-0.603914,0.340081,-0.545114,-0.122811,-0.511572,0.92433,0.923308,-0.300297,0.208813,-0.117141,-0.359127,-0.42407,-0.687951,-0.262121,-0.533076,-0.67309,-0.467097,-0.526515,0.823159,-2.94411,0.0211358,-4.18841,-2.94411,-0.0256451,-4.18841,-0.806441,-0.809689,-0.644752,-0.71565,-0.395025,0.388529,-0.273032,1
0.96072,-0.910039,-2.36657,-0.50317,2.11856,1.7898,-1.61926,0.96072,-0.910039,-2.36657,-0.50317,2.11856,1.7898,-1.61926,1.03884,-0.829718,-2.30461,-0.429271,2.11065,1.79119,-1.60444,-0.724993,-0.600072,-1.02504,-0.951022,-0.358886,0.30746,-0.585356,-0.724993,-0.600072,-1.02504,-0.951022,-0.358886,0.30746,-0.585356,-0.125765,-0.517065,0.917492,0.923612,-0.293566,0.214509,-0.121434,-0.379779,-0.4391,-0.713521,-0.303542,-0.546024,-0.690726,-0.499085,-0.529045,0.780263,-3.1988,-0.25304,-4.28968,-3.1988,-0.0526243,-4.28968,-0.781206,-0.803212,-0.619653,-0.738988,0.0790722,-0.0138175,-0.148178,1
0.951201,-0.91822,-2.37955,-0.509984,2.08168,1.82718,-1.6303,0.951201,-0.91822,-2.37955,-0.509984,2.08168,1.82718,-1.6303,1.03206,-0.835952,-2.31455,-0.439204,2.10718,1.79503,-1.61022,-0.668609,-0.632189,-0.981162,-1.01117,-0.327785,0.38381,-0.571527,-0.668609,-0.632189,-0.981162,-1.01117,-0.327785,0.38381,-0.571527,-0.128632,-0.522576,0.910273,0.923972,-0.287084,0.219599,-0.12504,-0.357296,-0.45031,-0.755869,-0.290508,-0.552512,-0.733249,-0.52516,-0.525982,0.73762,-2.60745,0.306332,-4.2643,-2.60745,-0.0382353,-4.2643,-0.808546,-0.822684,-0.650061,-0.707799,-0.255088,0.321487,-0.200763,1
0.945732,-0.923874,-2.3923,-0.523867,2.10005,1.81703,-1.63514,0.945732,-0.923874,-2.3923,-0.523867,2.10005,1.81703,-1.63514,1.025,-0.842765,-2.32427,-0.44941,2.10701,1.79737,-1.61551,-0.724466,-0.698317,-0.973289,-1.02264,0.101221,0.183774,-0.511799,-0.724466,-0.698317,-0.973289,-1.02264,0.101221,0.183774,-0.511799,-0.132456,-0.52829,0.903001,0.924985,-0.279708,0.222874,-0.128427,-0.461234,-0.461955,-0.771874,-0.423392,-0.572028,-0.728423,-0.560723,-0.52994,0.69158,-3.55631,-0.395745,-4.60396,-3.55631,-0.0616682,-4.60396,-0.792711,-0.811098,-0.680311,-0.74457,-0.0696332,0.19661,-0.196302,1
0.937224,-0.933233,-2.40233,-0.531436,2.10109,1.83115,-1.6343,0.937224,-0.933233,-2.40233,-0.531436,2.10109,1.83115,-1.6343,1.01777,-0.850114,-2.33376,-0.460309,2.10857,1.80019,-1.61971,-0.711104,-0.740536,-0.936546,-1.1103,0.0993421,0.32824,-0.377674,-0.711104,-0.740536,-0.936546,-1.1103,0.0993421,0.32824,-0.377674,-0.136813,-0.534049,0.895275,0.926327,-0.272084,0.225233,-0.13099,-0.455171,-0.467121,-0.834732,-0.423123,-0.572018,-0.793386,-0.590397,-0.529747,0.646714,-2.96738,0.0192165,-4.48656,-2.96738,-0.0575304,-4.48656,-0.805489,-0.831185,-0.685669,-0.711268,-0.0748442,0.309592,-0.145841,1
0.929859,-0.941851,-2.41093,-0.542127,2.09919,1.83433,-1.64316,0.929859,-0.941851,-2.41093,-0.542127,2.09919,1.83433,-1.64316,1.01066,-0.857399,-2.3431,-0.470898,2.10673,1.80315,-1.62253,-0.728467,-0.730061,-0.945135,-1.05276,-0.264216,0.259968,-0.268046,-0.728467,-0.730061,-0.945135,-1.05276,-0.264216,0.259968,-0.268046,-0.140682,-0.539744,0.887302,0.927315,-0.264264,0.229278,-0.13298,-0.443982,-0.454402,-0.837345,-0.390644,-0.571374,-0.805874,-0.619875,-0.529832,0.59959,-2.94784,-0.00844002,-4.71245,-2.94784,-0.0595538,-4.71245,-0.80803,-0.844521,-0.678333,-0.712291,-0.075351,0.311808,-0.206291,1
0.921423,-0.950006,-2.42278,-0.553206,2.09059,1.8458,-1.64718,0.921423,-0.950006,-2.42278,-0.553206,2.09059,1.8458,-1.64718,1.00292,-0.865146,-2.35284,-0.481905,2.10286,1.80558,-1.62522,-0.779785,-0.783284,-0.975025,-1.10856,-0.402814,0.284033,-0.27417,-0.779785,-0.783284,-0.975025,-1.10856,-0.402814,0.284033,-0.27417,-0.144753,-0.545768,0.878713,0.928187,-0.255494,0.234355,-0.135167,-0.474093,-0.466452,-0.906265,-0.414054,-0.593069,-0.877612,-0.652028,-0.53263,0.552724,-3.21529,-0.279814,-4.68658,-3.21529,-0.0845811,-4.68658,-0.814939,-0.848598,-0.699339,-0.713008,-0.122647,0.402111,-0.219633,1
0.915038,-0.958502,-2.42941,-0.561659,2.10691,1.84544,-1.64382,0.915038,-0.958502,-2.42941,-0.561659,2.10691,1.84544,-1.64382,0.995341,-0.87277,-2.36284,-0.492574,2.09982,1.80985,-1.62803,-0.75246,-0.759831,-1.01693,-1.06962,-0.270812,0.467708,-0.277514,-0.75246,-0.759831,-1.01693,-1.06962,-0.270812,0.467708,-0.277514,-0.148977,-0.551188,0.869991,0.928788,-0.247723,0.239085,-0.1372,-0.482757,-0.414366,-0.903283,-0.428885,-0.526804,-0.881295,-0.678546,-0.529453,0.502013,-2.6518,0.317651,-5.07112,-2.6518,-0.051471,-5.07112,-0.803026,-0.857325,-0.665757,-0.69085,0.0708391,0.355881,-0.157915,1
0.959692,-0.937755,-2.32258,-0.46597,2.14457,1.74821,-1.58812,0.959692,-0.937755,-2.32258,-0.46597,2.14457,1.74821,-1.58812,0.987845,-0.880953,-2.37342,-0.503648,2.09811,1.81518,-1.63073,-0.754653,-0.837886,-1.07228,-1.10907,-0.145636,0.548412,-0.275009,-0.754653,-0.837886,-1.07228,-1.10907,-0.145636,0.548412,-0.275009,-0.153572,-0.556585,0.860664,0.929493,-0.23998,0.243235,-0.138888,-0.522274,-0.422983,-0.976253,-0.477346,-0.535669,-0.951011,-0.678546,-0.529453,0.502013,0,0,0,0,-0.044015,0,-0.281527,-0.56802,0.508374,0.376777,0.464563,-0.669737,0.426035,1
0.91923,-0.958258,-2.34142,-0.462068,2.10768,1.76868,-1.59957,0.91923,-0.958258,-2.34142,-0.462068,2.10768,1.76868,-1.59957,0.980265,-0.88926,-2.38408,-0.514584,2.09693,1.82097,-1.63387,-0.752748,-0.829748,-1.06508,-1.10767,-0.131504,0.592898,-0.324805,-0.752748,-0.829748,-1.06508,-1.10767,-0.131504,0.592898,-0.324805,-0.158458,-0.561695,0.851177,0.930129,-0.232454,0.247,-0.140774,-0.528073,-0.392886,-0.982402,-0.486037,-0.502447,-0.959423,-0.678546,-0.529453,0.502013,0,0,0,0,0.0086597,0,-0.610358,-0.689983,0.426598,0.525156,0.107501,-0.522902,0.343007,1
0.915999,-0.970717,-2.34467,-0.4809,2.13893,1.75878,-1.61719,0.915999,-0.970717,-2.34467,-0.4809,2.13893,1.75878,-1.61719,0.973043,-0.897595,-2.39454,-0.525533,2.09586,1.82723,-1.63726,-0.72154,-0.831954,-1.04884,-1.069,-0.071351,0.63512,-0.334212,-0.72154,-0.831954,-1.04884,-1.069,-0.071351,0.63512,-0.334212,-0.163253,-0.56656,0.841558,0.930729,-0.225214,0.250454,-0.14246,-0.528437,-0.36355,-0.97971,-0.492691,-0.466971,-0.957697,-0.678546,-0.529453,0.502013,0,0,0,0,0.017197,0,-0.570443,-0.731223,0.498766,0.446327,0.43065,-0.684508,0.200697,1
0.902257,-0.982819,-2.35349,-0.48183,2.12945,1.77055,-1.64888,0.902257,-0.982819,-2.35349,-0.48183,2.12945,1.77055,-1.64888,0.965368,-0.905938,-2.40467,-0.535868,2.09702,1.8323,-1.6389,-0.776621,-0.834974,-0.963292,-1.00404,0.192654,0.41005,-0.0639494,-0.776621,-0.834974,-0.963292,-1.00404,0.192654,0.41005,-0.0639494,-0.168854,-0.571057,0.832334,0.931703,-0.217532,0.252803,-0.143873,-0.601658,-0.330045,-0.933571,-0.586473,-0.438813,-0.897466,-0.678546,-0.529453,0.502013,0,0,0,0,0.0267433,0,-0.63111,-0.768805,0.511823,0.54038,0.324367,-0.617517,-0.0997723,1
0.887696,-0.992639,-2.35259,-0.519721,2.15034,1.76651,-1.65484,0.887696,-0.992639,-2.35259,-0.519721,2.15034,1.76651,-1.65484,0.958128,-0.914086,-2.41035,-0.542893,2.10177,1.83082,-1.63564,-0.702341,-0.816757,-0.417265,-0.575856,0.546513,-0.350643,0.455759,-0.702341,-0.816757,-0.417265,-0.575856,0.546513,-0.350643,0.455759,-0.175252,-0.575118,0.825532,0.933921,-0.208685,0.251893,-0.144195,-0.625412,-0.28426,-0.672378,-0.658654,-0.392649,-0.6062,-0.678546,-0.529453,0.502013,0,0,0,0,0.034034,0,-0.704319,-0.785526,0.577541,0.231719,0.485738,-0.643061,-0.19197,1
0.874909,-1.00071,-2.35634,-0.567207,2.15314,1.75956,-1.65251,0.874909,-1.00071,-2.35634,-0.567207,2.15314,1.75956,-1.65251,0.951255,-0.924003,-2.4096,-0.544249,2.10586,1.82211,-1.62892,-0.687816,-1.07218,0.252214,0.016994,0.335432,-1.02087,0.686138,-0.687816,-1.07218,0.252214,0.016994,0.335432,-1.02087,0.686138,-0.182616,-0.579268,0.820653,0.936957,-0.198712,0.248481,-0.144506,-0.70888,-0.303438,-0.549611,-0.769209,-0.42183,-0.465429,-0.678546,-0.529453,0.502013,0,0,0,0,0,0,-0.763458,-0.767115,0.532545,-0.229583,0.472719,-0.625534,-0.235941,1
0.870286,-1.01007,-2.35028,-0.599637,2.15908,1.74272,-1.64621,0.870286,-1.01007,-2.35028,-0.599637,2.15908,1.74272,-1.64621,0.944787,-0.936394,-2.40156,-0.539889,2.10912,1.80902,-1.62418,-0.630386,-1.26736,0.970495,0.590238,0.373169,-1.36742,0.373174,-0.630386,-1.26736,0.970495,0.590238,0.373169,-1.36742,0.373174,-0.191053,-0.583219,0.817152,0.940264,-0.189573,0.241714,-0.146764,-0.772362,-0.265471,-0.395589,-0.874218,-0.361649,-0.297681,-0.678546,-0.529453,0.502013,0,0,0,0,0,0,-0.74501,-0.736752,0.512777,-0.597472,0.499595,-0.66294,-0.220255,1
0.878904,-1.02201,-2.33143,-0.597497,2.15828,1.72766,-1.60453,0.878904,-1.02201,-2.33143,-0.597497,2.15828,1.72766,-1.60453,0.938984,-0.950545,-2.38896,-0.53101,2.11468,1.79611,-1.62412,-0.558659,-1.47358,1.32056,0.932767,0.613013,-1.2564,-0.109658,-0.558659,-1.47358,1.32056,0.932767,0.613013,-1.2564,-0.109658,-0.200628,-0.586268,0.814553,0.943381,-0.183212,0.231213,-0.15168,-0.845652,-0.235398,-0.383487,-0.983718,-0.299814,-0.279784,-0.678546,-0.529453,0.502013,0,0,0,0,0,0,-0.600803,-0.714677,0.575279,-0.664862,0.43602,-0.684522,0.195883,1
0.87533,-1.03686,-2.31844,-0.580978,2.15911,1.71607,-1.59187,0.87533,-1.03686,-2.31844,-0.580978,2.15911,1.71607,-1.59187,0.93347,-0.964651,-2.37669,-0.521591,2.12233,1.78456,-1.62777,-0.557292,-1.38327,1.16149,0.90452,0.818917,-1.11112,-0.437759,-0.557292,-1.38327,1.16149,0.90452,0.818917,-1.11112,-0.437759,-0.210595,-0.588786,0.811962,0.946051,-0.178168,0.219478,-0.158346,-0.862826,-0.182806,-0.367455,-1.00455,-0.237196,-0.270564,-0.678546,-0.529453,0.502013,0,0,0,0,0,0,-0.581397,-0.722126,0.582543,-0.593867,0.367878,-0.684926,0.359015,1
0.876311,-1.04765,-2.31609,-0.567787,2.16642,1.70589,-1.58401,0.876311,-1.04765,-2.31609,-0.567787,2.16642,1.70589,-1.58401,0.928005,-0.976829,-2.36752,-0.516097,2.13144,1.77458,-1.63307,-0.550303,-1.1231,0.837678,0.425167,0.927136,-0.993362,-0.534688,-0.550303,-1.1231,0.837678,0.425167,0.927136,-0.993362,-0.534688,-0.219782,-0.591249,0.808849,0.948431,-0.172866,0.208409,-0.164805,-0.751213,-0.176555,-0.39425,-0.884151,-0.237535,-0.305268,-0.678546,-0.529453,0.502013,0,0,0,0,0,0,-0.516935,-0.708251,0.514289,-0.5169,0.349811,-0.686865,0.490596,1
0.867942,-1.05575,-2.30651,-0.561305,2.17657,1.69602,-1.58851,0.867942,-1.05575,-2.30651,-0.561305,2.17657,1.69602,-1.58851,0.921604,-0.986423,-2.36017,-0.51705,2.14106,1.76508,-1.63682,-0.682786,-0.911955,0.704225,-0.308946,0.948937,-0.941016,-0.277884,-0.682786,-0.911955,0.704225,-0.308946,0.948937,-0.941016,-0.277884,-0.227954,-0.593878,0.80519,0.951059,-0.166054,0.19834,-0.169036,-0.662947,-0.199547,-0.494457,-0.795371,-0.279133,-0.405336,-0.678546,-0.529453,0.502013,0,0,0,0,0,0,-0.536619,-0.69325,0.536606,-0.44255,0.355054,-0.690618,0.48309,1
0.851415,-1.06306,-2.29792,-0.55965,2.18525,1.68838,-1.59071,0.851415,-1.06306,-2.29792,-0.55965,2.18525,1.68838,-1.59071,0.913589,-0.993786,-2.35289,-0.525067,2.14964,1.75505,-1.63583,-0.838577,-0.673929,0.747379,-0.944599,0.81882,-1.01763,0.220505,-0.838577,-0.673929,0.747379,-0.944599,0.81882,-1.01763,0.220505,-0.23519,-0.596891,0.80087,0.954359,-0.15687,0.189468,-0.169391,-0.568938,-0.200359,-0.522868,-0.698811,-0.299047,-0.435172,-0.678546,-0.529453,0.502013,0,0,0,0,0,0,-0.621741,-0.692695,0.549773,-0.345835,0.356044,-0.666675,0.451192,1
0.836693,-1.06397,-2.2878,-0.579793,2.18466,1.68073,-1.60269,0.836693,-1.06397,-2.2878,-0.579793,2.18466,1.68073,-1.60269,0.903896,-0.999671,-2.34486,-0.537948,2.15663,1.74455,-1.63012,-1.01329,-0.579772,0.819558,-1.36555,0.660824,-1.04999,0.68124,-1.01329,-0.579772,0.819558,-1.36555,0.660824,-1.04999,0.68124,-0.241932,-0.600012,0.796112,0.958124,-0.145987,0.181587,-0.16647,-0.549756,-0.195242,-0.580612,-0.677128,-0.310575,-0.495576,-0.678546,-0.529453,0.502013,0,0,0,0,0,0,-0.672036,-0.643032,0.570593,-0.418451,0.280276,-0.638201,0.274288,1
0.818729,-1.07265,-2.2782,-0.597644,2.19507,1.67485,-1.61932,0.818729,-1.07265,-2.2782,-0.597644,2.19507,1.67485,-1.61932,0.893426,-1.00536,-2.3365,-0.55146,2.16232,1.73365,-1.62094,-1.0363,-0.567716,0.846762,-1.29658,0.54572,-1.09842,0.968747,-1.0363,-0.567716,0.846762,-1.29658,0.54572,-1.09842,0.968747,-0.24874,-0.603025,0.791217,0.961923,-0.134479,0.174365,-0.161915,-0.555883,-0.171008,-0.555375,-0.678238,-0.288868,-0.477625,-0.678546,-0.529453,0.502013,0,0,0,0,0,0,-0.746978,-0.672975,0.582936,-0.461838,0.327408,-0.588,0.0162018,1
0.808302,-1.07849,-2.2702,-0.617208,2.20225,1.66315,-1.60916,0.808302,-1.07849,-2.2702,-0.617208,2.20225,1.66315,-1.60916,0.884036,-1.01185,-2.32823,-0.562138,2.1673,1.72259,-1.61113,-0.899408,-0.699599,0.820577,-0.966817,0.490958,-1.09962,0.960669,-0.899408,-0.699599,0.820577,-0.966817,0.490958,-1.09962,0.960669,-0.255488,-0.605985,0.786451,0.965387,-0.123574,0.167248,-0.157435,-0.559708,-0.185251,-0.556959,-0.680843,-0.297628,-0.486107,-0.678546,-0.529453,0.502013,0,0,0,0,0,0,-0.757341,-0.666344,0.580269,-0.550701,0.349445,-0.59444,0.019608,1
0.80546,-1.08517,-2.25954,-0.626555,2.20599,1.65152,-1.58218,0.80546,-1.08517,-2.25954,-0.626555,2.20599,1.65152,-1.58218,0.876376,-1.01999,-2.32008,-0.569289,2.17227,1.7116,-1.60324,-0.719385,-0.850872,0.810511,-0.668645,0.492301,-1.09578,0.701241,-0.719385,-0.850872,0.810511,-0.668645,0.492301,-1.09578,0.701241,-0.262272,-0.609132,0.781511,0.968437,-0.113568,0.159565,-0.154181,-0.54261,-0.220556,-0.577262,-0.668579,-0.326009,-0.510814,-0.678546,-0.529453,0.502013,0,0,0,0,0,0,-0.709166,-0.651866,0.605385,-0.572665,0.337166,-0.600775,0.210572,1
0.809066,-1.09449,-2.24639,-0.631046,2.20444,1.6401,-1.56553,0.809066,-1.09449,-2.24639,-0.631046,2.20444,1.6401,-1.56553,0.870024,-1.02915,-2.31179,-0.575314,2.17713,1.7012,-1.59933,-0.62845,-0.90788,0.825982,-0.574091,0.484324,-1.03182,0.280592,-0.62845,-0.90788,0.825982,-0.574091,0.484324,-1.03182,0.280592,-0.268708,-0.612541,0.776118,0.971075,-0.104315,0.1513,-0.152446,-0.512873,-0.230667,-0.592684,-0.641549,-0.328876,-0.531266,-0.678546,-0.529453,0.502013,0,0,0,0,0,0,-0.609587,-0.653384,0.653989,-0.55732,0.273124,-0.611035,0.337925,1
0.814979,-1.10014,-2.23706,-0.637565,2.20267,1.62701,-1.55092,0.814979,-1.10014,-2.23706,-0.637565,2.20267,1.62701,-1.55092,0.863276,-1.03765,-2.30322,-0.580944,2.1824,1.69127,-1.59933,-0.687172,-0.843119,0.873282,-0.578789,0.551473,-0.970712,-0.0631914,-0.687172,-0.843119,0.873282,-0.578789,0.551473,-0.970712,-0.0631914,-0.275315,-0.615323,0.771223,0.973162,-0.0961141,0.142688,-0.15283,-0.533593,-0.175887,-0.547248,-0.666047,-0.264592,-0.490486,-0.678546,-0.529453,0.502013,0,0,0,0,0,0,-0.48297,-0.624894,0.661651,-0.566207,0.202724,-0.642522,0.484163,1
0.809558,-1.10994,-2.22587,-0.630598,2.20582,1.62108,-1.55544,0.809558,-1.10994,-2.22587,-0.630598,2.20582,1.62108,-1.55544,0.856254,-1.04587,-2.29425,-0.587762,2.18843,1.68159,-1.59969,-0.70208,-0.816323,0.901529,-0.711463,0.619062,-0.983918,0.000395461,-0.70208,-0.816323,0.901529,-0.711463,0.619062,-0.983918,0.000395461,-0.281889,-0.61797,0.766198,0.975211,-0.08796,0.133529,-0.152962,-0.512206,-0.176146,-0.563738,-0.652843,-0.266675,-0.508678,-0.678546,-0.529453,0.502013,0,0,0,0,0,0,-0.466964,-0.640655,0.683719,-0.428365,0.17387,-0.605084,0.442508,1
0.807028,-1.11688,-2.2147,-0.638844,2.22198,1.61122,-1.56722,0.807028,-1.11688,-2.2147,-0.638844,2.22198,1.61122,-1.56722,0.849245,-1.05397,-2.28514,-0.596012,2.19457,1.67145,-1.59789,-0.699323,-0.813243,0.92123,-0.864774,0.608344,-1.02079,0.250045,-0.699323,-0.813243,0.92123,-0.864774,0.608344,-1.02079,0.250045,-0.288156,-0.620859,0.76083,0.977425,-0.0791054,0.124255,-0.151469,-0.471317,-0.197556,-0.60473,-0.616416,-0.295305,-0.552296,-0.678546,-0.529453,0.502013,0,0,0,0,0,0,-0.422168,-0.62918,0.704446,-0.428321,0.274062,-0.602345,0.306604,1
0.786469,-1.12876,-2.20787,-0.660778,2.23406,1.60233,-1.62185,0.786469,-1.12876,-2.20787,-0.660778,2.23406,1.60233,-1.62185,0.842233,-1.06219,-2.27549,-0.605471,2.19979,1.66125,-1.59294,-0.702176,-0.815424,0.977699,-0.959459,0.484688,-1.03272,0.579568,-0.702176,-0.815424,0.977699,-0.959459,0.484688,-1.03272,0.579568,-0.293999,-0.623965,0.755023,0.979806,-0.0697207,0.115187,-0.147824,-0.4288,-0.207453,-0.629397,-0.571275,-0.309588,-0.582111,-0.678546,-0.529453,0.502013,0,0,0,0,0,0,-0.557645,-0.665657,0.676197,-0.553063,0.342725,-0.589195,-0.289108,1
0.758867,-1.13826,-2.21084,-0.670264,2.23028,1.61065,-1.61352,0.758867,-1.13826,-2.21084,-0.670264,2.23028,1.61065,-1.61352,0.835207,-1.07033,-2.26545,-0.61538,2.20334,1.65058,-1.58489,-0.70474,-0.814285,1.00826,-0.996573,0.315111,-1.06898,0.864318,-0.70474,-0.814285,1.00826,-0.996573,0.315111,-1.06898,0.864318,-0.299387,-0.627184,0.749101,0.982214,-0.0599202,0.10678,-0.142347,-0.394138,-0.212563,-0.639049,-0.528756,-0.320378,-0.597867,-0.678546,-0.529453,0.502013,0,0,0,0,0,0,-0.763402,-0.679284,0.546063,-0.54884,0.269393,-0.39929,-0.286326,1
0.757006,-1.14695,-2.19318,-0.64155,2.20826,1.66873,-1.556,0.757006,-1.14695,-2.19318,-0.64155,2.20826,1.66873,-1.556,0.827932,-1.07857,-2.25513,-0.624424,2.206,1.6402,-1.57616,-0.733489,-0.827088,1.04252,-0.866421,0.270543,-1.02894,0.839911,-0.733489,-0.827088,1.04252,-0.866421,0.270543,-1.02894,0.839911,-0.304901,-0.630067,0.743296,0.984373,-0.050602,0.0986576,-0.136807,-0.429957,-0.17211,-0.607804,-0.561639,-0.272245,-0.572258,-0.678546,-0.529453,0.502013,0,0,0,0,0,0,-0.709263,-0.683803,0.619565,-0.171265,0.0226015,0.285314,0.201585,1
0.779934,-1.14419,-2.18421,-0.638039,2.18793,1.66043,-1.54436,0.779934,-1.14419,-2.18421,-0.638039,2.18793,1.66043,-1.54436,0.820926,-1.08701,-2.24482,-0.632784,2.20938,1.63003,-1.57093,-0.678228,-0.854472,1.03279,-0.832085,0.372517,-1.00678,0.377764,-0.678228,-0.854472,1.03279,-0.832085,0.372517,-1.00678,0.377764,-0.31052,-0.632785,0.737526,0.986131,-0.0419003,0.0899849,-0.133017,-0.415865,-0.177097,-0.61752,-0.555025,-0.273192,-0.58499,-0.678546,-0.529453,0.502013,0,0,0,0,0,0,-0.409921,-0.571839,0.606025,-0.0525438,-0.214527,0.303953,0.265717,1
0.768847,-1.11646,-2.19773,-0.602625,2.17291,1.60549,-1.51223,0.768847,-1.11646,-2.19773,-0.602625,2.17291,1.60549,-1.51223,0.814682,-1.09555,-2.23447,-0.640746,2.21434,1.62037,-1.57232,-0.620403,-0.855443,1.02766,-0.785597,0.536926,-0.94649,-0.303388,-0.620403,-0.855443,1.02766,-0.785597,0.536926,-0.94649,-0.303388,-0.315997,-0.635433,0.731781,0.987378,-0.0340564,0.0803431,-0.13217,-0.403259,-0.168696,-0.604727,-0.552107,-0.255208,-0.575342,-0.678546,-0.529453,0.502013,0,0,0,0,0,0,-0.458351,-0.209057,0.367358,0.381218,-0.41431,-0.148758,0.600853,1
0.756479,-1.16296,-2.19064,-0.595299,2.18316,1.61621,-1.51856,0.756479,-1.16296,-2.19064,-0.595299,2.18316,1.61621,-1.51856,0.807797,-1.1041,-2.22512,-0.648482,2.21947,1.61352,-1.57794,-0.713031,-0.844621,0.90748,-0.747786,0.461011,-0.549946,-0.572692,-0.713031,-0.844621,0.90748,-0.747786,0.461011,-0.549946,-0.572692,-0.321812,-0.637307,0.725824,0.988062,-0.027587,0.0711218,-0.133844,-0.452709,-0.081755,-0.614187,-0.583173,-0.147129,-0.592314,-0.678546,-0.529453,0.502013,0,0,0,0,0,0,-0.513177,-0.588619,0.344823,0.531825,-0.363008,0.0269115,0.593806,1
0.816454,-1.17481,-2.14867,-0.629856,2.23957,1.58726,-1.53956,0.816454,-1.17481,-2.14867,-0.629856,2.23957,1.58726,-1.53956,0.800666,-1.11203,-2.21609,-0.653777,2.22089,1.6132,-1.58011,-0.696445,-0.789325,0.900277,-0.451277,0.0194245,0.139056,-0.0654115,-0.696445,-0.789325,0.900277,-0.451277,0.0194245,0.139056,-0.0654115,-0.327155,-0.637357,0.720685,0.988473,-0.0249611,0.0645862,-0.134638,-0.426283,0.0471749,-0.507147,-0.508591,0.0356288,-0.495605,-0.678546,-0.529453,0.502013,0,0,0,0,0,0,0.157881,-0.627823,0.674218,0.239205,0.186847,-0.259351,0.405548,1
0.768557,-1.20031,-2.14409,-0.600794,2.2646,1.60149,-1.61795,0.768557,-1.20031,-2.14409,-0.600794,2.2646,1.60149,-1.61795,0.794709,-1.12094,-2.20784,-0.655996,2.21722,1.61738,-1.57631,-0.566568,-0.924965,0.788066,-0.122554,-0.495239,0.447622,0.528709,-0.566568,-0.924965,0.788066,-0.122554,-0.495239,0.447622,0.528709,-0.331572,-0.636864,0.715389,0.988929,-0.0245234,0.0610225,-0.133018,-0.391006,0.0458602,-0.541108,-0.43105,0.0488547,-0.536067,-0.678546,-0.529453,0.502013,0,0,0,0,0,0,-0.261523,-0.793765,0.637509,0.552013,0.473786,-0.158957,-0.416486,1
0.750153,-1.19231,-2.13765,-0.585684,2.20863,1.66594,-1.56153,0.750153,-1.19231,-2.13765,-0.585684,2.20863,1.66594,-1.56153,0.790044,-1.13032,-2.2011,-0.654383,2.20907,1.61962,-1.56675,-0.428998,-0.923324,0.640968,0.250824,-0.90532,0.13195,1.08442,-0.428998,-0.923324,0.640968,0.250824,-0.90532,0.13195,1.08442,-0.335517,-0.636861,0.71043,0.989455,-0.0233473,0.0601711,-0.129668,-0.37008,0.00309152,-0.470609,-0.377068,-0.0133324,-0.469221,-0.678546,-0.529453,0.502013,0,0,0,0,0,0,-0.398904,-0.619906,0.634497,0.686994,-0.00444969,0.463188,0.0521601,1
0.74277,-1.16378,-2.14266,-0.585859,2.15617,1.69403,-1.51353,0.74277,-1.16378,-2.14266,-0.585859,2.15617,1.69403,-1.51353,0.786462,-1.1391,-2.19541,-0.649438,2.20024,1.61873,-1.55437,-0.338743,-0.880359,0.556585,0.542899,-0.800183,-0.151053,1.23532,-0.338743,-0.880359,0.556585,0.542899,-0.800183,-0.151053,1.23532,-0.339495,-0.637098,0.706581,0.989975,-0.0215226,0.0601686,-0.125958,-0.407949,-0.00481494,-0.377279,-0.417723,-0.028228,-0.375404,-0.678546,-0.529453,0.502013,0,0,0,0,0,0,-0.436918,-0.246883,0.527451,0.635789,-0.440762,0.753049,0.408455,1
0.754987,-1.1866,-2.12481,-0.600171,2.18755,1.66434,-1.50857,0.754987,-1.1866,-2.12481,-0.600171,2.18755,1.66434,-1.50857,0.783903,-1.14821,-2.1893,-0.644379,2.19773,1.61525,-1.54587,-0.232188,-0.906533,0.645007,0.478842,-0.0424923,-0.4092,0.666375,-0.232188,-0.906533,0.645007,0.478842,-0.0424923,-0.4092,0.666375,-0.344256,-0.637823,0.702741,0.990512,-0.0190534,0.0565261,-0.123804,-0.42309,-0.0545478,-0.387275,-0.495029,-0.0795883,-0.378221,-0.678546,-0.529453,0.502013,0,0,0,0,0,0,-0.289161,-0.383877,0.644852,0.442086,-0.101883,0.490847,0.373011,1
0.779106,-1.17815,-2.12152,-0.663825,2.21431,1.56517,-1.49423,0.779106,-1.17815,-2.12152,-0.663825,2.21431,1.56517,-1.49423,0.781214,-1.15666,-2.18123,-0.640007,2.20349,1.61178,-1.54607,-0.29603,-0.839168,0.867991,0.424228,0.755639,-0.268765,-0.232811,-0.29603,-0.839168,0.867991,0.424228,0.755639,-0.268765,-0.232811,-0.350274,-0.637793,0.699668,0.990755,-0.0180889,0.0481554,-0.125535,-0.513158,0.0326567,-0.309142,-0.643693,0.0441968,-0.2963,-0.678546,-0.529453,0.502013,0,0,0,0,0,0,-0.0210805,-0.214886,0.597169,-0.238183,0.108184,-0.466152,0.518418,1
0.750662,-1.20995,-2.10628,-0.585091,2.18787,1.62343,-1.5188,0.750662,-1.20995,-2.10628,-0.585091,2.18787,1.62343,-1.5188,0.777082,-1.16496,-2.17154,-0.634319,2.2111,1.61323,-1.54991,-0.451145,-0.825218,0.977362,0.653001,0.66145,0.292818,-0.34398,-0.451145,-0.825218,0.977362,0.653001,0.66145,0.292818,-0.34398,-0.357576,-0.635718,0.697249,0.990549,-0.0206874,0.0387265,-0.129941,-0.634778,0.203404,-0.231738,-0.749189,0.265682,-0.224241,-0.678546,-0.529453,0.502013,0,0,0,0,0,0,-0.264204,-0.449979,0.652548,0.492278,-0.23238,0.101939,0.311111,1
0.785289,-1.24098,-2.10852,-0.560178,2.18638,1.6688,-1.52839,0.785289,-1.24098,-2.10852,-0.560178,2.18638,1.6688,-1.52839,0.77291,-1.1735,-2.16173,-0.625559,2.21164,1.62101,-1.54942,-0.379813,-0.868422,0.985463,0.924079,-0.159883,0.926907,0.20152,-0.379813,-0.868422,0.985463,0.924079,-0.159883,0.926907,0.20152,-0.364096,-0.632192,0.69519,0.990159,-0.0266559,0.0333616,-0.133272,-0.551563,0.267248,-0.211208,-0.596727,0.36551,-0.21222,-0.678546,-0.529453,0.502013,0,0,0,0,0,0,0.123791,-0.674822,0.532139,0.653804,-0.252604,0.477828,0.210246,1
0.747418,-1.25804,-2.09374,-0.549922,2.18941,1.66469,-1.54261,0.747418,-1.25804,-2.09374,-0.549922,2.18941,1.66469,-1.54261,0.770383,-1.18284,-2.15222,-0.617433,2.20607,1.63089,-1.5433,-0.219246,-0.948278,0.933442,0.747355,-0.61586,0.915825,0.735731,-0.219246,-0.948278,0.933442,0.747355,-0.61586,0.915825,0.735731,-0.368385,-0.629504,0.692171,0.99012,-0.0325126,0.0310866,-0.132814,-0.370324,0.148187,-0.331671,-0.389382,0.223627,-0.334579,-0.678546,-0.529453,0.502013,0,0,0,0,0,0,-0.229653,-0.751953,0.584823,0.67511,-0.166573,0.337966,0.00688957,1
0.734663,-1.23548,-2.07291,-0.553938,2.18185,1.6933,-1.514,0.734663,-1.23548,-2.07291,-0.553938,2.18185,1.6933,-1.514,0.768161,-1.19113,-2.14296,-0.61289,2.20209,1.63468,-1.53368,-0.239331,-0.773216,0.935108,0.345869,-0.300404,0.177686,0.996837,-0.239331,-0.773216,0.935108,0.345869,-0.300404,0.177686,0.996837,-0.371977,-0.628426,0.689015,0.990606,-0.0347056,0.0278367,-0.129307,-0.306786,0.0510239,-0.300307,-0.359118,0.0765635,-0.298516,-0.678546,-0.529453,0.502013,0,0,0,0,0,0,-0.334985,-0.443475,0.70048,0.589527,-0.202372,0.586141,0.196787,1
0.750182,-1.23941,-2.07205,-0.58982,2.17392,1.68468,-1.48568,0.750182,-1.23941,-2.07205,-0.58982,2.17392,1.68468,-1.48568,0.7644,-1.19743,-2.13351,-0.612375,2.19961,1.63341,-1.52583,-0.435701,-0.58689,0.927917,-0.0169573,-0.277184,-0.159147,0.683349,-0.435701,-0.58689,0.927917,-0.0169573,-0.277184,-0.159147,0.683349,-0.375596,-0.627912,0.686397,0.991162,-0.0342091,0.0237292,-0.125952,-0.312031,0.0648785,-0.254007,-0.367886,0.0626929,-0.250752,-0.678546,-0.529453,0.502013,0,0,0,0,0,0,-0.142172,-0.4198,0.614667,0.225552,-0.256867,0.512738,0.401477,1
0.739219,-1.24109,-2.07223,-0.612636,2.1663,1.624,-1.46816,0.739219,-1.24109,-2.07223,-0.612636,2.1663,1.624,-1.46816,0.758834,-1.20286,-2.12489,-0.612379,2.19614,1.63404,-1.52217,-0.567464,-0.537037,0.846019,0.0296723,-0.3553,0.170915,0.25503,-0.567464,-0.537037,0.846019,0.0296723,-0.3553,0.170915,0.25503,-0.379716,-0.626359,0.684082,0.991275,-0.0345811,0.020766,-0.125483,-0.381067,0.168777,-0.225103,-0.41732,0.187201,-0.224461,-0.678546,-0.529453,0.502013,0,0,0,0,0,0,-0.196156,-0.382228,0.526591,-0.00257129,-0.298394,-0.100425,0.540146,1
0.769165,-1.26114,-2.05116,-0.568863,2.16328,1.67329,-1.48439,0.769165,-1.26114,-2.05116,-0.568863,2.16328,1.67329,-1.48439,0.754658,-1.20871,-2.11642,-0.610209,2.19279,1.63892,-1.52187,-0.354018,-0.607275,0.844485,0.307604,-0.336164,0.581977,0.00353526,-0.354018,-0.607275,0.844485,0.307604,-0.336164,0.581977,0.00353526,-0.383411,-0.624166,0.681891,0.991043,-0.0375539,0.0180958,-0.126867,-0.324878,0.172846,-0.214737,-0.35385,0.227091,-0.217219,-0.678546,-0.529453,0.502013,0,0,0,0,0,0,0.145069,-0.524363,0.652577,0.413458,-0.295101,0.343706,0.374877,1
0.774253,-1.28688,-2.05572,-0.541164,2.15997,1.66839,-1.49355,0.774253,-1.28688,-2.05572,-0.541164,2.15997,1.66839,-1.49355,0.752436,-1.21593,-2.108,-0.603755,2.18892,1.64737,-1.52052,-0.180418,-0.76448,0.84838,0.751885,-0.408049,0.920847,0.199089,-0.180418,-0.76448,0.84838,0.751885,-0.408049,0.920847,0.199089,-0.387052,-0.621508,0.679605,0.990652,-0.0429322,0.0158346,-0.128508,-0.349774,0.191943,-0.23132,-0.368339,0.276827,-0.237433,-0.678546,-0.529453,0.502013,0,0,0,0,0,0,0.218176,-0.709467,0.52277,0.625906,-0.289554,0.210211,0.269669,1
0.731097,-1.28983,-2.04204,-0.522844,2.15867,1.67965,-1.52523,0.731097,-1.28983,-2.04204,-0.522844,2.15867,1.67965,-1.52523,0.752063,-1.22425,-2.09895,-0.594449,2.1842,1.65658,-1.51569,0.00837678,-0.842412,0.92014,0.969765,-0.492051,0.85992,0.580838,0.00837678,-0.842412,0.92014,0.969765,-0.492051,0.85992,0.580838,-0.390368,-0.619049,0.677214,0.990378,-0.0491532,0.0137349,-0.128635,-0.299105,0.137072,-0.231623,-0.317654,0.223803,-0.23906,-0.678546,-0.529453,0.502013,0,0,0,0,0,0,-0.209654,-0.655831,0.569092,0.716056,-0.255232,0.230677,-0.0953988,1
0.718361,-1.28553,-2.03122,-0.516912,2.13415,1.71852,-1.49291,0.718361,-1.28553,-2.03122,-0.516912,2.13415,1.71852,-1.49291,0.752285,-1.23229,-2.08978,-0.585557,2.17878,1.66096,-1.50728,0.00524896,-0.787609,0.91815,0.822267,-0.547465,0.306214,0.90474,0.00524896,-0.787609,0.91815,0.822267,-0.547465,0.306214,0.90474,-0.393334,-0.617748,0.674954,0.990473,-0.0529012,0.0116513,-0.126606,-0.267819,0.0581354,-0.225292,-0.294072,0.103512,-0.228977,-0.678546,-0.529453,0.502013,0,0,0,0,0,0,-0.339239,-0.532317,0.585622,0.686453,-0.44629,0.575564,0.143641,1
0.738554,-1.29156,-2.02992,-0.533964,2.12766,1.7229,-1.46422,0.738554,-1.29156,-2.02992,-0.533964,2.12766,1.7229,-1.46422,0.751299,-1.23945,-2.08044,-0.580588,2.17347,1.66325,-1.49879,-0.139925,-0.677345,0.936474,0.405513,-0.520295,0.253808,0.787274,-0.139925,-0.677345,0.936474,0.405513,-0.520295,0.253808,0.787274,-0.395983,-0.61692,0.672494,0.990768,-0.0549174,0.00931996,-0.123594,-0.228076,0.0625034,-0.237501,-0.258721,0.0955761,-0.240058,-0.678546,-0.529453,0.502013,0,0,0,0,0,0,-0.127451,-0.521025,0.505179,0.466233,-0.458122,0.596466,0.34574,1
0.749048,-1.28898,-2.02408,-0.545572,2.12665,1.67599,-1.44746,0.749048,-1.28898,-2.02408,-0.545572,2.12665,1.67599,-1.44746,0.748833,-1.24515,-2.07138,-0.578049,2.16861,1.66641,-1.49408,-0.270346,-0.548709,0.900294,0.231218,-0.472685,0.32987,0.338535,-0.270346,-0.548709,0.900294,0.231218,-0.472685,0.32987,0.338535,-0.398595,-0.615496,0.670461,0.99082,-0.0572298,0.00720214,-0.122267,-0.241315,0.118885,-0.191755,-0.267176,0.155906,-0.19518,-0.678546,-0.529453,0.502013,0,0,0,0,0,0,0.00214435,-0.438281,0.472963,0.324776,-0.419584,0.0957915,0.466249,1
0.751643,-1.29485,-2.00787,-0.531882,2.13509,1.64737,-1.45149,0.751643,-1.29485,-2.00787,-0.531882,2.13509,1.64737,-1.45149,0.746205,-1.25099,-2.06251,-0.57493,2.164,1.67047,-1.49411,-0.249566,-0.608377,0.870922,0.355708,-0.47723,0.445623,-0.0751514,-0.249566,-0.608377,0.870922,0.355708,-0.47723,0.445623,-0.0751514,-0.401501,-0.613732,0.668373,0.99049,-0.0600706,0.00498651,-0.123679,-0.27222,0.136069,-0.216706,-0.29467,0.180784,-0.221451,-0.678546,-0.529453,0.502013,0,0,0,0,0,0,0.0543808,-0.438518,0.546417,0.430481,-0.289093,-0.23103,0.42628,1
0.769506,-1.32525,-2.00988,-0.501717,2.10398,1.6789,-1.49622,0.769506,-1.32525,-2.00988,-0.501717,2.10398,1.6789,-1.49622,0.744436,-1.2581,-2.05421,-0.568646,2.15787,1.6771,-1.49384,-0.145341,-0.747978,0.81872,0.724921,-0.667918,0.744503,0.0874109,-0.145341,-0.747978,0.81872,0.724921,-0.667918,0.744503,0.0874109,-0.404585,-0.61159,0.665851,0.989952,-0.0641882,0.00379004,-0.125939,-0.307099,0.161631,-0.257421,-0.308761,0.225191,-0.265465,-0.678546,-0.529453,0.502013,0,0,0,0,0,0,0.250703,-0.671479,0.443316,0.669287,-0.53892,0.0180124,-0.0237872,1
0.718959,-1.34034,-2.05264,-0.487069,2.09359,1.67102,-1.48378,0.718959,-1.34034,-2.05264,-0.487069,2.09359,1.67102,-1.48378,0.74432,-1.26639,-2.04629,-0.559635,2.14968,1.68595,-1.49028,0.0293727,-0.839883,0.780898,0.930026,-0.860026,0.884847,0.453485,0.0293727,-0.839883,0.780898,0.930026,-0.860026,0.884847,0.453485,-0.407149,-0.609543,0.662863,0.989475,-0.0692904,0.00385787,-0.126981,-0.248309,0.119917,-0.296672,-0.234267,0.188448,-0.30645,-0.678546,-0.529453,0.502013,0,0,0,0,0,0,-0.253612,-0.739477,-0.0635082,0.725668,-0.560947,-0.149285,0.0650473,1
0.696597,-1.33571,-1.98689,-0.478093,2.07877,1.75365,-1.46175,0.696597,-1.33571,-1.98689,-0.478093,2.07877,1.75365,-1.46175,0.745084,-1.27445,-2.03857,-0.550755,2.14113,1.69166,-1.48307,0.0733093,-0.789888,0.777028,0.847042,-0.826338,0.43976,0.798756,0.0733093,-0.789888,0.777028,0.847042,-0.826338,0.43976,0.798756,-0.409228,-0.60844,0.659995,0.989377,-0.0727422,0.00404807,-0.125801,-0.212465,0.0468797,-0.2765,-0.209901,0.085619,-0.282164,-0.678546,-0.529453,0.502013,0,0,0,0,0,0,-0.484863,-0.612628,0.516762,0.72662,-0.623571,0.619915,0.213224,1
0.739016,-1.33332,-1.99013,-0.486724,2.08703,1.75969,-1.49677,0.739016,-1.33332,-1.99013,-0.486724,2.08703,1.75969,-1.49677,0.744833,-1.28147,-2.03075,-0.544299,2.13424,1.69183,-1.47512,-0.0634101,-0.672476,0.779377,0.594684,-0.659475,-0.09288,0.725699,-0.0634101,-0.672476,0.779377,0.594684,-0.659475,-0.09288,0.725699,-0.411721,-0.608081,0.657515,0.989582,-0.073438,0.00303024,-0.123796,-0.247256,0.0250502,-0.236021,-0.265726,0.0296044,-0.236235,-0.678546,-0.529453,0.502013,0,0,0,0,0,0,-0.0581648,-0.518585,0.406174,0.575752,-0.472082,0.678619,-0.216438,1
0.735844,-1.31637,-2.0252,-0.502508,2.08949,1.65693,-1.43785,0.735844,-1.31637,-2.0252,-0.502508,2.08949,1.65693,-1.43785,0.743214,-1.28754,-2.02353,-0.538013,2.12722,1.6902,-1.47205,-0.186407,-0.596769,0.676335,0.671373,-0.728007,-0.173632,0.171415,-0.186407,-0.596769,0.676335,0.671373,-0.728007,-0.173632,0.171415,-0.414875,-0.607374,0.655597,0.989453,-0.0733509,0.00226146,-0.124887,-0.330315,0.0868158,-0.18525,-0.334859,0.0848751,-0.184862,-0.678546,-0.529453,0.502013,0,0,0,0,0,0,-0.0737012,-0.288369,-0.0166771,0.355047,-0.377224,-0.332676,0.342016,1
0.703727,-1.31255,-1.99111,-0.489267,2.06716,1.63262,-1.4291,0.703727,-1.31255,-1.99111,-0.489267,2.06716,1.63262,-1.4291,0.741816,-1.29424,-2.02031,-0.529614,2.11878,1.68845,-1.47174,-0.101892,-0.692238,0.192495,0.910272,-0.881888,-0.143599,0.0328975,-0.101892,-0.692238,0.192495,0.910272,-0.881888,-0.143599,0.0328975,-0.418231,-0.606966,0.652962,0.989069,-0.0720592,0.00351307,-0.128598,-0.350785,0.0504674,-0.292377,-0.322827,0.0253133,-0.289497,-0.678546,-0.529453,0.502013,0,0,0,0,0,0,-0.380893,-0.183125,0.292013,0.403469,-0.516177,-0.558268,0.426437,1
0.724754,-1.34493,-2.00495,-0.464122,2.05868,1.66044,-1.43092,0.724754,-1.34493,-2.00495,-0.464122,2.05868,1.66044,-1.43092,0.742229,-1.30117,-2.0208,-0.519116,2.1087,1.69062,-1.4712,0.0844789,-0.693101,-0.0947976,1.08227,-1.03916,0.375092,0.0219556,0.0844789,-0.693101,-0.0947976,1.08227,-1.03916,0.375092,0.0219556,-0.420389,-0.606707,0.649821,0.988548,-0.0717015,0.00744584,-0.132577,-0.244582,0.0418181,-0.319384,-0.178407,0.0364009,-0.320875,-0.678546,-0.529453,0.502013,0,0,0,0,0,0,-0.174749,-0.437549,0.158514,0.549934,-0.500195,-0.301813,0.402816,1
0.771605,-1.36521,-1.98311,-0.448896,2.07718,1.64542,-1.44353,0.771605,-1.36521,-1.98311,-0.448896,2.07718,1.64542,-1.44353,0.743347,-1.3078,-2.02062,-0.508109,2.09865,1.69907,-1.47253,0.106459,-0.652401,0.091394,1.0793,-0.969788,0.956233,-0.156937,0.106459,-0.652401,0.091394,1.0793,-0.969788,0.956233,-0.156937,-0.42175,-0.605365,0.646884,0.987638,-0.07478,0.0119105,-0.137247,-0.2007,0.120948,-0.275043,-0.130884,0.164247,-0.284481,-0.678546,-0.529453,0.502013,0,0,0,0,0,0,0.282582,-0.574061,0.375069,0.592127,-0.214701,-0.536425,0.290017,1
0.765015,-1.38336,-1.98641,-0.430657,2.04093,1.65262,-1.47619,0.765015,-1.38336,-1.98641,-0.430657,2.04093,1.65262,-1.47619,0.743513,-1.31479,-2.01727,-0.500377,2.09056,1.70662,-1.47146,-0.0280438,-0.712947,0.414029,0.690692,-0.760854,0.602654,0.228353,-0.0280438,-0.712947,0.414029,0.690692,-0.760854,0.602654,0.228353,-0.423421,-0.604075,0.643562,0.98707,-0.0776393,0.0138973,-0.139545,-0.220775,0.0855668,-0.337955,-0.197997,0.111893,-0.34307,-0.678546,-0.529453,0.502013,0,0,0,0,0,0,0.215026,-0.685779,0.308593,0.697194,-0.496278,-0.540052,-0.0472679,1
0.681316,-1.36728,-1.97923,-0.424974,2.02094,1.68702,-1.498,0.681316,-1.36728,-1.97923,-0.424974,2.02094,1.68702,-1.498,0.741044,-1.32147,-2.01173,-0.494945,2.08327,1.7058,-1.46524,-0.319196,-0.644971,0.570943,0.511475,-0.72979,-0.31463,0.735478,-0.319196,-0.644971,0.570943,0.511475,-0.72979,-0.31463,0.735478,-0.42685,-0.603297,0.640594,0.987156,-0.0766933,0.0138818,-0.139458,-0.382954,0.0953202,-0.281412,-0.390714,0.0681338,-0.276968,-0.678546,-0.529453,0.502013,0,0,0,0,0,0,-0.59728,-0.458101,0.324976,0.699703,-0.623335,-0.187764,-0.327623,1
0.693987,-1.35027,-1.9682,-0.432823,2.04184,1.75929,-1.50245,0.693987,-1.35027,-1.9682,-0.432823,2.04184,1.75929,-1.50245,0.737083,-1.32736,-2.00641,-0.489581,2.07602,1.6976,-1.4565,-0.385866,-0.572848,0.51277,0.554212,-0.705745,-0.949905,0.871526,-0.385866,-0.572848,0.51277,0.554212,-0.705745,-0.949905,0.871526,-0.431535,-0.603047,0.638347,0.987571,-0.0723579,0.0133919,-0.138886,-0.457948,0.0717708,-0.221168,-0.476831,0.0057866,-0.210994,-0.678546,-0.529453,0.502013,0,0,0,0,0,0,-0.430959,-0.229099,0.382034,0.56758,-0.341833,0.616988,-0.459508,1
0.709047,-1.34656,-1.96021,-0.510346,2.10726,1.69139,-1.49462,0.709047,-1.34656,-1.96021,-0.510346,2.10726,1.69139,-1.49462,0.734639,-1.33339,-2.00151,-0.483272,2.07064,1.68637,-1.45036,-0.191872,-0.627174,0.480879,0.667538,-0.494203,-1.14277,0.49284,-0.191872,-0.627174,0.480879,0.667538,-0.494203,-1.14277,0.49284,-0.436155,-0.603685,0.636141,0.987915,-0.0668403,0.0115938,-0.139365,-0.416475,-0.00989591,-0.24702,-0.456073,-0.0829773,-0.235858,-0.678546,-0.529453,0.502013,0,0,0,0,0,0,-0.255921,-0.131662,0.412995,-0.270736,0.366244,0.0502594,-0.442589,1
0.704503,-1.37759,-2.02148,-0.455467,2.01938,1.62809,-1.40688,0.704503,-1.37759,-2.02148,-0.455467,2.01938,1.62809,-1.40688,0.733805,-1.34061,-1.99665,-0.475032,2.06467,1.67623,-1.4498,-0.0574658,-0.741171,0.491317,0.883715,-0.660127,-0.922724,-0.0881342,-0.0574658,-0.741171,0.491317,0.883715,-0.660127,-0.922724,-0.0881342,-0.440427,-0.604658,0.633308,0.987794,-0.0617541,0.00971,-0.14267,-0.38765,-0.0233997,-0.299806,-0.415034,-0.0856295,-0.291312,-0.678546,-0.529453,0.502013,0,0,0,0,0,0,-0.29302,-0.369769,-0.24838,0.195646,-0.452932,-0.481365,0.429167,1
0.695698,-1.38408,-2.01758,-0.433495,2.03395,1.69178,-1.41749,0.695698,-1.38408,-2.01758,-0.433495,2.03395,1.69178,-1.41749,0.733297,-1.34754,-1.99153,-0.46463,2.05577,1.67165,-1.45473,-0.0563992,-0.675963,0.518378,1.07569,-0.957151,-0.270311,-0.623087,-0.0563992,-0.675963,0.518378,1.07569,-0.957151,-0.270311,-0.623087,-0.444106,-0.604414,0.63092,0.986929,-0.0596079,0.00993195,-0.149396,-0.36671,0.0883053,-0.228559,-0.351968,0.0681713,-0.226788,-0.678546,-0.529453,0.502013,0,0,0,0,0,0,-0.375987,-0.365404,-0.260542,0.311345,-0.218165,0.20132,0.372392,1
0.752142,-1.40025,-1.95406,-0.435068,2.0794,1.65739,-1.44441,0.752142,-1.40025,-1.95406,-0.435068,2.0794,1.65739,-1.44441,0.732655,-1.35417,-1.98592,-0.454456,2.04761,1.67476,-1.46364,-0.0643778,-0.658782,0.575673,0.972042,-0.691656,0.488058,-0.953179,-0.0643778,-0.658782,0.575673,0.972042,-0.691656,0.488058,-0.953179,-0.447304,-0.602601,0.628539,0.985464,-0.0614309,0.0105683,-0.158038,-0.33112,0.180756,-0.242682,-0.315337,0.216029,-0.247507,-0.678546,-0.529453,0.502013,0,0,0,0,0,0,0.194869,-0.460835,0.31863,0.193888,0.317849,-0.173671,0.19231,1
0.713565,-1.38969,-1.95065,-0.41609,2.01047,1.63115,-1.43875,0.713565,-1.38969,-1.95065,-0.41609,2.01047,1.63115,-1.43875,0.731619,-1.36039,-1.98044,-0.448287,2.04702,1.68079,-1.4718,-0.12691,-0.614405,0.512793,0.459465,0.146089,0.54322,-0.695549,-0.12691,-0.614405,0.512793,0.459465,0.146089,0.54322,-0.695549,-0.45066,-0.6003,0.625631,0.984139,-0.0648578,0.00783673,-0.164933,-0.304609,0.161914,-0.313136,-0.343879,0.209717,-0.317708,-0.678546,-0.529453,0.502013,0,0,0,0,0,0,-0.180537,-0.292965,0.297894,0.321966,-0.365518,-0.49636,0.330546,1
