Afshin1997/kuka_rl_ros2/src/catch_and_throw/output_files/tm/nn_ema7.00_jvws1_realball_D23H16M10S19/recorded_data.csv
pure_target_joint_0,pure_target_joint_1,pure_target_joint_2,pure_target_joint_3,pure_target_joint_4,pure_target_joint_5,pure_target_joint_6,target_joint_0,target_joint_1,target_joint_2,target_joint_3,target_joint_4,target_joint_5,target_joint_6,pos_joint_0,pos_joint_1,pos_joint_2,pos_joint_3,pos_joint_4,pos_joint_5,pos_joint_6,vel_joint_0,vel_joint_1,vel_joint_2,vel_joint_3,vel_joint_4,vel_joint_5,vel_joint_6,vel_smooth_joint_0,vel_smooth_joint_1,vel_smooth_joint_2,vel_smooth_joint_3,vel_smooth_joint_4,vel_smooth_joint_5,vel_smooth_joint_6,ee_pos_x,ee_pos_y,ee_pos_z,ee_or_w,ee_or_x,ee_or_y,ee_or_z,ee_vel_x,ee_vel_y,ee_vel_z,ball_pos_x,ball_pos_y,ball_pos_z,ball_raw_vx,ball_raw_vy,ball_raw_vz,ball_ema_vx,ball_ema_vy,ball_ema_vz,action_0,action_1,action_2,action_3,action_4,action_5,action_6,command_published
1.73909,-1.02594,-1.81785,-1.05984,1.98205,1.17771,-0.857889,1.73909,-1.02594,-1.81785,-1.05984,1.98205,1.17771,-0.857889,1.78023,-1.0647,-1.81504,-1.11696,1.93722,1.11692,-0.916358,0,0,0,0,0,0,0,0,0,0,0,0,0,0,0.531027,-0.454454,0.694314,0.574578,0.175126,0.152566,0.784802,0,0,0,2.96,-0.472257,0.334967,-3.22895,0.168592,5.34454,-3.14378,0.146491,5.36447,-0.411399,0.387643,-0.0281079,0.571193,0.448289,0.607939,0.58469,1
1.73776,-1.0135,-1.81303,-1.07322,1.98583,1.17398,-0.856589,1.73776,-1.0135,-1.81303,-1.07322,1.98583,1.17398,-0.856589,1.78023,-1.0647,-1.81504,-1.11696,1.93722,1.11692,-0.916358,-6.45011e-07,-3.23727e-07,1.6264e-07,7.95134e-07,-4.74488e-07,6.47312e-07,5.59315e-08,-6.45011e-07,-3.23727e-07,1.6264e-07,7.95134e-07,-4.74488e-07,6.47312e-07,5.59315e-08,0.531027,-0.454454,0.694314,0.574578,0.175126,0.152566,0.784802,-4.5985e-07,-6.02453e-07,9.26537e-08,2.92932,-0.470581,0.386707,-3.06835,0.167596,5.17404,-3.11502,0.163375,5.30332,-0.424707,0.511979,0.0201337,0.437441,0.486185,0.570621,0.597692,1
1.70353,-0.984046,-1.76573,-1.07473,2.00026,1.15728,-0.843514,1.70353,-0.984046,-1.76573,-1.07473,2.00026,1.15728,-0.843514,1.77113,-1.05613,-1.81567,-1.10433,1.94713,1.13036,-0.903425,-0.853233,0.80396,-0.0582959,1.18464,0.929739,1.26085,1.21263,-0.853233,0.80396,-0.0582959,1.18464,0.929739,1.26085,1.21263,0.52159,-0.461533,0.703205,0.578449,0.166807,0.145216,0.785166,-0.811387,-0.637823,0.792189,2.92932,-0.470581,0.386707,-3.06835,0.167596,5.17404,-3.11502,0.163375,5.30332,-0.676025,0.720803,0.499305,0.295917,0.531245,0.269195,0.599104,1
1.70994,-0.974978,-1.76066,-1.07299,2.01076,1.17972,-0.834297,1.70994,-0.974978,-1.76066,-1.07299,2.01076,1.17972,-0.834297,1.76389,-1.04799,-1.81558,-1.09606,1.9553,1.1404,-0.893199,-0.695772,0.91833,0.0679727,0.608264,0.81314,0.894248,0.974954,-0.695772,0.91833,0.0679727,0.608264,0.81314,0.894248,0.974954,0.514211,-0.465807,0.71072,0.580803,0.160009,0.140049,0.785781,-0.61972,-0.285536,0.738718,2.89879,-0.468789,0.437882,-3.05326,0.179207,5.11744,-3.11571,0.176325,5.21145,-0.539461,0.730093,0.549239,0.230662,0.55463,0.393218,0.589022,1
1.69076,-0.963396,-1.76166,-1.05869,2.02427,1.16747,-0.834977,1.69076,-0.963396,-1.76166,-1.05869,2.02427,1.16747,-0.834977,1.75409,-1.0369,-1.80946,-1.09118,1.96375,1.14586,-0.883565,-1.34629,1.4074,1.16438,0.438029,0.972169,0.304073,1.06651,-1.34629,1.4074,1.16438,0.438029,0.972169,0.304073,1.06651,0.506149,-0.468061,0.720861,0.582275,0.153054,0.13518,0.786928,-0.927838,-0.19459,1.31209,2.86778,-0.467251,0.487998,-3.10011,0.153795,5.01166,-3.11459,0.175314,5.09491,-0.633236,0.735015,0.477987,0.32495,0.605192,0.21606,0.48588,1
1.69536,-0.949135,-1.7456,-1.05835,2.03074,1.19634,-0.821099,1.69536,-0.949135,-1.7456,-1.05835,2.03074,1.19634,-0.821099,1.74432,-1.0232,-1.79867,-1.08716,1.97415,1.15335,-0.872667,-0.915503,1.28414,1.01209,0.377282,0.975016,0.702122,1.02175,-0.915503,1.28414,1.01209,0.377282,0.975016,0.702122,1.02175,0.497236,-0.467951,0.73394,0.582149,0.143102,0.129005,0.789926,-0.74831,0.014202,1.18183,2.80696,-0.464471,0.584875,-3.03988,0.13625,4.8068,-3.08157,0.159252,4.85368,-0.489642,0.740664,0.530667,0.288068,0.565869,0.42983,0.51568,1
1.67749,-0.935492,-1.74253,-1.04806,2.04349,1.19708,-0.809064,1.67749,-0.935492,-1.74253,-1.04806,2.04349,1.19708,-0.809064,1.73247,-1.00997,-1.79048,-1.08086,1.98524,1.15647,-0.86433,-1.11074,1.24028,0.76741,0.590451,1.03942,0.292775,0.781644,-1.11074,1.24028,0.76741,0.590451,1.03942,0.292775,0.781644,0.487651,-0.470392,0.746062,0.584786,0.135726,0.123404,0.790174,-0.830817,-0.209179,1.10368,2.7764,-0.463175,0.632771,-3.05517,0.129625,4.78962,-3.06055,0.151501,4.75954,-0.549818,0.744807,0.479526,0.327979,0.582533,0.40606,0.55266,1
1.67762,-0.922395,-1.72875,-1.04514,2.04993,1.21394,-0.800584,1.67762,-0.922395,-1.72875,-1.04514,2.04993,1.21394,-0.800584,1.72426,-0.996515,-1.78055,-1.07588,1.9953,1.16529,-0.854767,-0.769761,1.2617,0.930788,0.46681,0.943625,0.826652,0.896558,-0.769761,1.2617,0.930788,0.46681,0.943625,0.826652,0.896558,0.479048,-0.469302,0.758704,0.58469,0.124856,0.117829,0.792884,-0.714763,0.097171,1.14396,2.7456,-0.461516,0.679914,-3.08061,0.165939,4.71429,-3.05985,0.147153,4.67955,-0.466452,0.741201,0.518073,0.307442,0.546349,0.486454,0.541827,1
1.65948,-0.908422,-1.7242,-1.03536,2.06298,1.21883,-0.788932,1.65948,-0.908422,-1.7242,-1.03536,2.06298,1.21883,-0.788932,1.71392,-0.983017,-1.77214,-1.06973,2.00596,1.17232,-0.844658,-0.969985,1.26555,0.788588,0.57693,0.999373,0.659261,0.947829,-0.969985,1.26555,0.788588,0.57693,0.999373,0.659261,0.947829,0.469481,-0.469792,0.770921,0.585656,0.115194,0.112418,0.794418,-0.813027,-0.042216,1.11026,2.7149,-0.45945,0.725384,-3.07021,0.206569,4.54698,-3.06071,0.15052,4.59393,-0.544385,0.745951,0.479409,0.34365,0.570244,0.465069,0.557254,1
1.65685,-0.895179,-1.71133,-1.03389,2.07132,1.2298,-0.780224,1.65685,-0.895179,-1.71133,-1.03389,2.07132,1.2298,-0.780224,1.70589,-0.969607,-1.76254,-1.06429,2.01569,1.18153,-0.834909,-0.752802,1.25722,0.899983,0.50998,0.911997,0.863017,0.914022,-0.752802,1.25722,0.899983,0.50998,0.911997,0.863017,0.914022,0.460745,-0.468142,0.783209,0.585247,0.103917,0.10736,0.79697,-0.725159,0.1444,1.11535,2.68419,-0.457746,0.769572,-3.07074,0.170407,4.4188,-3.06095,0.157994,4.50326,-0.490431,0.744281,0.512156,0.303986,0.556298,0.482725,0.546845,1
1.64177,-0.88163,-1.7044,-1.02774,2.08303,1.23492,-0.767919,1.64177,-0.88163,-1.7044,-1.02774,2.08303,1.23492,-0.767919,1.69562,-0.956073,-1.75406,-1.05789,2.02615,1.18978,-0.824739,-0.96247,1.26891,0.795157,0.59988,0.980881,0.773597,0.953493,-0.96247,1.26891,0.795157,0.59988,0.980881,0.773597,0.953493,0.450884,-0.467847,0.795248,0.58585,0.0933345,0.102297,0.798501,-0.834563,0.024597,1.0962,2.68419,-0.457746,0.769572,-3.07074,0.170407,4.4188,-3.06095,0.157994,4.50326,-0.538582,0.744428,0.496606,0.301466,0.568768,0.451355,0.568194,1
1.63648,-0.867817,-1.69353,-1.0249,2.09289,1.24481,-0.759181,1.63648,-0.867817,-1.69353,-1.0249,2.09289,1.24481,-0.759181,1.68705,-0.942603,-1.74461,-1.05258,2.03614,1.19863,-0.814892,-0.804195,1.26286,0.88626,0.497737,0.936722,0.829992,0.923176,-0.804195,1.26286,0.88626,0.497737,0.936722,0.829992,0.923176,0.441896,-0.46584,0.807114,0.585161,0.0821637,0.0976202,0.800816,-0.749103,0.176351,1.08124,2.62213,-0.454408,0.854987,-3.11496,0.162512,4.22552,-3.07896,0.1723,4.29971,-0.505671,0.74786,0.510745,0.276781,0.567547,0.461771,0.557115,1
1.6229,-0.85409,-1.68548,-1.02031,2.10517,1.24915,-0.747511,1.6229,-0.85409,-1.68548,-1.02031,2.10517,1.24915,-0.747511,1.67703,-0.929116,-1.73571,-1.04709,2.04651,1.20666,-0.804502,-0.939064,1.26451,0.833857,0.515105,0.972354,0.75246,0.974159,-0.939064,1.26451,0.833857,0.515105,0.972354,0.75246,0.974159,0.432328,-0.464434,0.818661,0.584772,0.071582,0.0930897,0.802653,-0.807109,0.123552,1.05486,2.59102,-0.453106,0.89575,-3.11115,0.130171,4.07625,-3.08814,0.170852,4.18011,-0.541336,0.750257,0.502297,0.267756,0.58663,0.4249,0.569905,1
1.61646,-0.84046,-1.67497,-1.01779,2.11479,1.25859,-0.737872,1.61646,-0.84046,-1.67497,-1.01779,2.11479,1.25859,-0.737872,1.66806,-0.915557,-1.72638,-1.04218,2.05677,1.2151,-0.794477,-0.840976,1.27126,0.874772,0.46007,0.961933,0.791211,0.939904,-0.840976,1.27126,0.874772,0.46007,0.961933,0.791211,0.939904,0.42329,-0.461915,0.830049,0.583622,0.0606211,0.0888608,0.804869,-0.755114,0.222574,1.04173,2.55995,-0.451666,0.935353,-3.10719,0.144053,3.96031,-3.09548,0.162768,4.0588,-0.515979,0.750967,0.514125,0.243869,0.580245,0.434977,0.566052,1
1.60381,-0.826807,-1.66624,-1.0162,2.12719,1.26188,-0.725699,1.60381,-0.826807,-1.66624,-1.0162,2.12719,1.26188,-0.725699,1.65807,-0.901961,-1.71734,-1.03734,2.06748,1.22263,-0.784088,-0.936639,1.27474,0.848202,0.453524,1.00382,0.706173,0.974005,-0.936639,1.27474,0.848202,0.453524,1.00382,0.706173,0.974005,0.413941,-0.459679,0.841152,0.582539,0.0502404,0.0847665,0.806808,-0.787665,0.19904,1.01807,2.55995,-0.451666,0.935353,-3.10719,0.144053,3.96031,-3.09548,0.162768,4.0588,-0.542553,0.751538,0.510932,0.211481,0.59716,0.392499,0.583891,1
1.59672,-0.813213,-1.65565,-1.01528,2.13735,1.26966,-0.715433,1.59672,-0.813213,-1.65565,-1.01528,2.13735,1.26966,-0.715433,1.64887,-0.888357,-1.70797,-1.03302,2.07794,1.23058,-0.773865,-0.862892,1.27544,0.878608,0.405434,0.981308,0.745882,0.958472,-0.862892,1.27544,0.878608,0.405434,0.981308,0.745882,0.958472,0.405034,-0.456533,0.852034,0.580778,0.0395556,0.0810034,0.809055,-0.744768,0.279631,0.999222,2.5295,-0.449831,0.974339,-3.04554,0.183466,3.89859,-3.09619,0.156943,3.94802,-0.521478,0.751435,0.523154,0.177391,0.594097,0.390714,0.584323,1
1.58378,-0.798902,-1.64703,-1.01406,2.15027,1.26853,-0.703347,1.58378,-0.798902,-1.64703,-1.01406,2.15027,1.26853,-0.703347,1.6389,-0.874742,-1.69874,-1.0293,2.08884,1.23751,-0.763211,-0.934317,1.27647,0.865262,0.348903,1.02137,0.649006,0.998903,-0.934317,1.27647,0.865262,0.348903,1.02137,0.649006,0.998903,0.396123,-0.453412,0.862526,0.57876,0.0296162,0.0774472,0.811272,-0.749721,0.279784,0.965593,2.46803,-0.446579,1.05,-3.05991,0.15586,3.79333,-3.08682,0.157788,3.74485,-0.551215,0.758399,0.517093,0.152392,0.614326,0.310228,0.598634,1
1.57609,-0.785236,-1.63611,-1.01645,2.16093,1.27317,-0.69262,1.57609,-0.785236,-1.63611,-1.01645,2.16093,1.27317,-0.69262,1.62957,-0.861132,-1.68921,-1.0262,2.09957,1.24462,-0.752642,-0.874852,1.27609,0.893603,0.290726,1.0062,0.666763,0.990903,-0.874852,1.27609,0.893603,0.290726,1.0062,0.666763,0.990903,0.387679,-0.449497,0.872749,0.576064,0.0195777,0.0742102,0.813793,-0.705832,0.350866,0.942171,2.43728,-0.445051,1.08556,-3.07457,0.152728,3.55544,-3.07811,0.159479,3.64615,-0.534809,0.758958,0.530947,0.0974822,0.61356,0.285524,0.600222,1
1.563,-0.770747,-1.62655,-1.02049,2.17454,1.26305,-0.680609,1.563,-0.770747,-1.62655,-1.02049,2.17454,1.26305,-0.680609,1.61944,-0.847367,-1.67988,-1.02351,2.11078,1.24991,-0.741738,-0.949689,1.29063,0.874773,0.25175,1.05152,0.495917,1.02236,-0.949689,1.29063,0.874773,0.25175,1.05152,0.495917,1.02236,0.379318,-0.445694,0.882686,0.573275,0.0106267,0.0712452,0.816191,-0.705398,0.344486,0.918012,2.40717,-0.443457,1.12028,-3.0108,0.159472,3.47252,-3.06554,0.162252,3.54879,-0.564434,0.766196,0.533266,0.0302304,0.637559,0.131423,0.611292,1
1.55537,-0.756765,-1.61506,-1.0293,2.18576,1.25854,-0.669292,1.55537,-0.756765,-1.61506,-1.0293,2.18576,1.25854,-0.669292,1.60985,-0.833623,-1.6702,-1.02195,2.12188,1.25505,-0.730873,-0.899111,1.28857,0.907669,0.146489,1.03991,0.482472,1.0187,-0.899111,1.28857,0.907669,0.146489,1.03991,0.482472,1.0187,0.371601,-0.441074,0.89223,0.569669,0.00190927,0.0686539,0.819,-0.647062,0.418738,0.882907,2.37652,-0.442072,1.15406,-3.06554,0.138453,3.37811,-3.05816,0.159343,3.44821,-0.544806,0.768584,0.55132,-0.0735196,0.638842,0.0348958,0.615819,1
1.54395,-0.742167,-1.60499,-1.03163,2.20015,1.2407,-0.658206,1.54395,-0.742167,-1.60499,-1.03163,2.20015,1.2407,-0.658206,1.59949,-0.819715,-1.66054,-1.02163,2.13353,1.25682,-0.719755,-0.971736,1.30404,0.905204,0.0302926,1.09225,0.165843,1.04247,-0.971736,1.30404,0.905204,0.0302926,1.09225,0.165843,1.04247,0.364478,-0.436463,0.901348,0.565744,-0.00474951,0.0664778,0.821883,-0.60561,0.425133,0.844833,2.34596,-0.440523,1.18695,-3.05619,0.154942,3.28912,-3.05602,0.154207,3.34325,-0.55534,0.775481,0.555467,-0.100064,0.666254,-0.161248,0.615489,1
1.54165,-0.72868,-1.59303,-1.03759,2.21282,1.23709,-0.645876,1.54165,-0.72868,-1.59303,-1.03759,2.21282,1.23709,-0.645876,1.58973,-0.805791,-1.65048,-1.02332,2.14508,1.2572,-0.708592,-0.914966,1.30557,0.943192,-0.159178,1.08334,0.0356883,1.0466,-0.914966,1.30557,0.943192,-0.159178,1.08334,0.0356883,1.0466,0.358522,-0.430919,0.909886,0.560699,-0.0102782,0.0648621,0.825411,-0.504981,0.512987,0.79147,2.34596,-0.440523,1.18695,-3.05619,0.154942,3.28912,-3.05602,0.154207,3.34325,-0.480756,0.771106,0.574534,-0.14263,0.67742,-0.201162,0.62716,1
1.52977,-0.713807,-1.58152,-1.03358,2.22649,1.21204,-0.634838,1.52977,-0.713807,-1.58152,-1.03358,2.22649,1.21204,-0.634838,1.5796,-0.791717,-1.64042,-1.02516,2.15726,1.25355,-0.697447,-0.94937,1.31954,0.943389,-0.17232,1.14216,-0.342317,1.045,-0.94937,1.31954,0.943389,-0.17232,1.14216,-0.342317,1.045,0.353145,-0.425589,0.918298,0.555672,-0.0136993,0.0634377,0.828865,-0.465112,0.501912,0.780137,2.31538,-0.439142,1.21856,-3.05777,0.138083,3.16076,-3.05231,0.150276,3.23532,-0.498338,0.779098,0.588967,-0.0841643,0.692283,-0.415089,0.626096,1
1.53099,-0.699437,-1.57098,-1.04881,2.24021,1.20547,-0.622932,1.53099,-0.699437,-1.57098,-1.04881,2.24021,1.20547,-0.622932,1.57121,-0.777773,-1.62994,-1.02791,2.16955,1.24991,-0.68604,-0.787075,1.30737,0.982891,-0.257693,1.15231,-0.341485,1.06956,-0.787075,1.30737,0.982891,-0.257693,1.15231,-0.341485,1.06956,0.348869,-0.41923,0.926358,0.54927,-0.0169267,0.0621291,0.83316,-0.363398,0.597335,0.747115,2.25456,-0.436315,1.28015,-3.03354,0.131416,3.06172,-3.04959,0.145704,3.03858,-0.402165,0.783369,0.58958,-0.208969,0.706603,-0.444426,0.631072,1
1.53043,-0.685408,-1.56233,-1.04286,2.2543,1.18907,-0.614733,1.53043,-0.685408,-1.56233,-1.04286,2.2543,1.18907,-0.614733,1.56204,-0.763624,-1.61923,-1.02916,2.18215,1.24153,-0.674714,-0.85944,1.32664,1.00409,-0.117553,1.18089,-0.785347,1.06192,-0.85944,1.32664,1.00409,-0.117553,1.18089,-0.785347,1.06192,0.344608,-0.413524,0.934793,0.543589,-0.0182479,0.0608795,0.836942,-0.375274,0.545853,0.782114,2.22378,-0.434839,1.30954,-3.07713,0.147521,2.93903,-3.05415,0.143791,2.95198,-0.316086,0.782167,0.569026,-0.136945,0.721584,-0.52467,0.599813,1
1.54259,-0.671695,-1.55241,-1.0579,2.26863,1.18,-0.602693,1.54259,-0.671695,-1.55241,-1.0579,2.26863,1.18,-0.602693,1.55517,-0.749426,-1.60856,-1.03351,2.19499,1.23356,-0.66326,-0.643971,1.33123,1.00067,-0.407393,1.20427,-0.748012,1.07393,-0.643971,1.33123,1.00067,-0.407393,1.20427,-0.748012,1.07393,0.342337,-0.406135,0.942269,0.535757,-0.018811,0.0601721,0.842015,-0.19558,0.701296,0.691811,2.19333,-0.433135,1.33747,-3.04589,0.170422,2.79291,-3.05268,0.146448,2.86073,-0.125875,0.777308,0.561484,-0.243937,0.736422,-0.535592,0.605663,1
1.54343,-0.657628,-1.54421,-1.05229,2.282,1.17136,-0.592291,1.54343,-0.657628,-1.54421,-1.05229,2.282,1.17136,-0.592291,1.5497,-0.735265,-1.59833,-1.03558,2.20811,1.22371,-0.652526,-0.513108,1.32772,0.958799,-0.193907,1.23016,-0.922691,1.00644,-0.513108,1.32772,0.958799,-0.193907,1.23016,-0.922691,1.00644,0.340347,-0.398925,0.95005,0.528347,-0.0189261,0.0592376,0.846748,-0.172806,0.688426,0.720603,2.16288,-0.431765,1.36408,-3.0448,0.136963,2.66105,-3.05162,0.146696,2.76151,-0.0627707,0.776373,0.541205,-0.16716,0.738859,-0.52358,0.602349,1
1.54175,-0.643688,-1.53704,-1.04742,2.29461,1.15886,-0.580598,1.54175,-0.643688,-1.53704,-1.04742,2.29461,1.15886,-0.580598,1.54813,-0.721204,-1.58817,-1.04052,2.2215,1.21404,-0.641503,-0.147563,1.31842,0.952417,-0.463025,1.25521,-0.906705,1.03351,-0.147563,1.31842,0.952417,-0.463025,1.25521,-0.906705,1.03351,0.340876,-0.389706,0.956849,0.518116,-0.0181825,0.0587431,0.853097,0.0543728,0.876138,0.628014,2.13251,-0.429986,1.39045,-3.03686,0.177917,2.63691,-3.04953,0.151332,2.6646,-0.0637826,0.775152,0.511314,-0.0690481,0.731121,-0.551809,0.609051,1
1.52594,-0.628323,-1.52906,-1.04854,2.30718,1.14841,-0.568799,1.52594,-0.628323,-1.52906,-1.04854,2.30718,1.14841,-0.568799,1.54709,-0.707141,-1.57845,-1.04312,2.23488,1.2046,-0.630617,-0.0975441,1.31854,0.911768,-0.244265,1.25472,-0.88533,1.02065,-0.0975441,1.31854,0.911768,-0.244265,1.25472,-0.88533,1.02065,0.340932,-0.380764,0.963984,0.50839,-0.0180411,0.0580469,0.858979,0.0142062,0.84909,0.659985,2.10198,-0.428347,1.41558,-3.05312,0.163978,2.51281,-3.04907,0.15563,2.56168,-0.211512,0.788172,0.493822,-0.0541407,0.72305,-0.561921,0.61818,1
1.51571,-0.613909,-1.5209,-1.04443,2.3202,1.13803,-0.557918,1.51571,-0.613909,-1.5209,-1.04443,2.3202,1.13803,-0.557918,1.54591,-0.693105,-1.56929,-1.04407,2.24809,1.19448,-0.619553,-0.110701,1.31592,0.858728,-0.0891687,1.23872,-0.948557,1.03734,-0.110701,1.31592,0.858728,-0.0891687,1.23872,-0.948557,1.03734,0.340629,-0.372278,0.971249,0.499206,-0.0178012,0.05738,0.864398,-0.0207115,0.806763,0.672773,2.07095,-0.426798,1.43929,-3.10254,0.154847,2.37137,-3.05443,0.159585,2.4517,-0.302019,0.791961,0.483905,-0.00356649,0.721093,-0.564587,0.616347,1
1.50475,-0.599628,-1.51215,-1.04526,2.3335,1.12728,-0.546342,1.50475,-0.599628,-1.51215,-1.04526,2.3335,1.12728,-0.546342,1.54149,-0.678775,-1.56039,-1.04506,2.26116,1.18429,-0.608326,-0.414161,1.34349,0.834174,-0.0925578,1.22551,-0.955531,1.05257,-0.414161,1.34349,0.834174,-0.0925578,1.22551,-0.955531,1.05257,0.339261,-0.364609,0.978383,0.491296,-0.0173155,0.0571049,0.868946,-0.122074,0.728763,0.660387,2.07095,-0.426798,1.43929,-3.10254,0.154847,2.37137,-3.05443,0.159585,2.4517,-0.36742,0.791474,0.48241,-0.00199028,0.7234,-0.570155,0.619839,1
1.49435,-0.585602,-1.50383,-1.03744,2.34684,1.11722,-0.535009,1.49435,-0.585602,-1.50383,-1.03744,2.34684,1.11722,-0.535009,1.53579,-0.664427,-1.55165,-1.04492,2.27422,1.17406,-0.597176,-0.534737,1.34525,0.819039,0.0130776,1.22437,-0.959521,1.0454,-0.534737,1.34525,0.819039,0.0130776,1.22437,-0.959521,1.0454,0.337192,-0.357497,0.985623,0.484233,-0.0169979,0.0567884,0.872929,-0.186187,0.676619,0.670564,2.04011,-0.425292,1.46165,-3.0838,0.150624,2.23523,-3.05949,0.15977,2.34089,-0.414348,0.788253,0.478261,0.074773,0.72613,-0.568374,0.621665,1
1.48251,-0.57131,-1.49663,-1.0319,2.35982,1.10654,-0.523297,1.48251,-0.57131,-1.49663,-1.0319,2.35982,1.10654,-0.523297,1.52892,-0.650093,-1.54292,-1.045,2.28734,1.16371,-0.585932,-0.643698,1.34385,0.819287,-0.00702203,1.22941,-0.970187,1.05423,-0.643698,1.34385,0.819287,-0.00702203,1.22941,-0.970187,1.05423,0.334919,-0.350599,0.992631,0.477439,-0.0164162,0.0566022,0.876686,-0.207032,0.65672,0.648775,1.9788,-0.422218,1.50436,-3.05415,0.156912,2.09025,-3.07304,0.157479,2.13186,-0.464103,0.787836,0.462908,0.13094,0.724885,-0.571709,0.626343,1
1.46712,-0.556953,-1.48982,-1.02199,2.3723,1.09614,-0.511316,1.46712,-0.556953,-1.48982,-1.02199,2.3723,1.09614,-0.511316,1.52127,-0.635828,-1.53427,-1.04332,2.3005,1.15343,-0.574668,-0.71692,1.33748,0.810627,0.156622,1.23396,-0.964134,1.05606,-0.71692,1.33748,0.810627,0.156622,1.23396,-0.964134,1.05606,0.331926,-0.344233,0.999911,0.471375,-0.0162892,0.0561651,0.879992,-0.270536,0.607475,0.67435,1.9788,-0.422218,1.50436,-3.05415,0.156912,2.09025,-3.07304,0.157479,2.13186,-0.541575,0.788753,0.444466,0.213391,0.718067,-0.572827,0.633514,1
1.45451,-0.542764,-1.48349,-1.0148,2.3851,1.08608,-0.500084,1.45451,-0.542764,-1.48349,-1.0148,2.3851,1.08608,-0.500084,1.5127,-0.621557,-1.52594,-1.0408,2.31362,1.14306,-0.563305,-0.803909,1.33802,0.780705,0.236907,1.23037,-0.972387,1.06536,-0.803909,1.33802,0.780705,0.236907,1.23037,-0.972387,1.06536,0.328522,-0.338264,1.0072,0.465903,-0.0162088,0.0557434,0.88293,-0.30874,0.570403,0.675421,1.91787,-0.420064,1.5429,-3.05094,0.106198,1.86551,-3.06702,0.140237,1.92343,-0.581882,0.787924,0.424539,0.259942,0.714791,-0.569784,0.632208,1
1.44087,-0.528668,-1.47656,-1.00605,2.3976,1.07563,-0.488589,1.44087,-0.528668,-1.47656,-1.00605,2.3976,1.07563,-0.488589,1.50262,-0.607266,-1.51795,-1.03664,2.3266,1.13268,-0.551805,-0.945334,1.33981,0.749076,0.390141,1.21702,-0.972881,1.07817,-0.945334,1.33981,0.749076,0.390141,1.21702,-0.972881,1.07817,0.324251,-0.332993,1.01472,0.461501,-0.0164845,0.0552431,0.885265,-0.387345,0.505374,0.697372,1.88763,-0.418793,1.56029,-3.02403,0.12711,1.73955,-3.05496,0.132621,1.82241,-0.617447,0.785985,0.413892,0.305877,0.709962,-0.570462,0.63216,1
1.42892,-0.51443,-1.4698,-1.00072,2.41027,1.06513,-0.476721,1.42892,-0.51443,-1.4698,-1.00072,2.41027,1.06513,-0.476721,1.49198,-0.592998,-1.51033,-1.03181,2.33954,1.12237,-0.540364,-0.997643,1.33769,0.714746,0.452788,1.21318,-0.966462,1.07263,-0.997643,1.33769,0.714746,0.452788,1.21318,-0.966462,1.07263,0.319751,-0.327943,1.02219,0.457554,-0.0168464,0.0547626,0.887334,-0.408379,0.484528,0.693012,1.88763,-0.418793,1.56029,-3.02403,0.12711,1.73955,-3.05496,0.132621,1.82241,-0.630554,0.785687,0.405335,0.31088,0.707347,-0.572402,0.636436,1
1.41705,-0.500314,-1.46326,-0.994512,2.42317,1.05519,-0.465374,1.41705,-0.500314,-1.46326,-0.994512,2.42317,1.05519,-0.465374,1.48067,-0.578768,-1.50286,-1.02611,2.35238,1.11203,-0.528911,-1.05983,1.33414,0.700261,0.534193,1.20402,-0.969285,1.07376,-1.05983,1.33414,0.700261,0.534193,1.20402,-0.969285,1.07376,0.314913,-0.323118,1.02971,0.454068,-0.0173807,0.05426,0.889144,-0.438768,0.463451,0.697618,1.82704,-0.415782,1.59268,-3.05575,0.146696,1.58769,-3.0359,0.129592,1.61633,-0.636181,0.784544,0.395974,0.315976,0.707862,-0.568449,0.635375,1
1.40574,-0.486223,-1.45642,-0.989398,2.43621,1.0451,-0.453854,1.40574,-0.486223,-1.45642,-0.989398,2.43621,1.0451,-0.453854,1.46922,-0.564537,-1.49555,-1.02049,2.36519,1.10166,-0.517367,-1.07326,1.33431,0.685718,0.526562,1.20062,-0.972683,1.08238,-1.07326,1.33431,0.685718,0.526562,1.20062,-0.972683,1.08238,0.310246,-0.318156,1.03703,0.450511,-0.0177659,0.053894,0.890966,-0.42397,0.475636,0.678505,1.79666,-0.414224,1.60707,-3.0381,0.155801,1.43969,-3.03353,0.133866,1.51037,-0.634882,0.783142,0.391242,0.310954,0.710259,-0.565538,0.635125,1
1.39449,-0.472062,-1.44973,-0.98441,2.44925,1.03511,-0.442225,1.39449,-0.472062,-1.44973,-0.98441,2.44925,1.03511,-0.442225,1.45768,-0.550331,-1.48841,-1.01475,2.37801,1.09138,-0.505866,-1.08196,1.3319,0.66952,0.53882,1.20244,-0.963734,1.07827,-1.08196,1.3319,0.66952,0.53882,1.20244,-0.963734,1.07827,0.305673,-0.313107,1.04419,0.446973,-0.0181353,0.0535833,0.892757,-0.415323,0.483351,0.66403,1.7667,-0.4134,1.62138,-2.99602,0.0824898,1.43088,-3.0289,0.135241,1.41486,-0.631946,0.782685,0.38679,0.303362,0.712409,-0.562673,0.63641,1
1.38362,-0.457971,-1.44273,-0.979601,2.46231,1.02511,-0.430594,1.38362,-0.457971,-1.44273,-0.979601,2.46231,1.02511,-0.430594,1.44619,-0.53615,-1.48133,-1.00914,2.39089,1.08114,-0.494361,-1.07734,1.32952,0.66329,0.525693,1.20701,-0.959677,1.07866,-1.07734,1.32952,0.66329,0.525693,1.20701,-0.959677,1.07866,0.301336,-0.307862,1.05114,0.443258,-0.0183914,0.0533525,0.894616,-0.393848,0.501096,0.644216,1.7667,-0.4134,1.62138,-2.99602,0.0824898,1.43088,-3.0289,0.135241,1.41486,-0.625774,0.78179,0.38606,0.295379,0.714193,-0.560297,0.637673,1
1.37299,-0.443879,-1.43597,-0.974716,2.47545,1.01532,-0.419065,1.37299,-0.443879,-1.43597,-0.974716,2.47545,1.01532,-0.419065,1.43476,-0.521974,-1.47434,-1.00367,2.4038,1.07096,-0.482829,-1.07227,1.3291,0.655435,0.512854,1.21046,-0.954632,1.08124,-1.07227,1.3291,0.655435,0.512854,1.21046,-0.954632,1.08124,0.297247,-0.30242,1.05788,0.439367,-0.0185341,0.0532163,0.896539,-0.371578,0.518962,0.624632,1.73668,-0.412047,1.6346,-3.00193,0.135222,1.32223,-3.02287,0.135217,1.32706,-0.617639,0.780952,0.38366,0.289532,0.716487,-0.556407,0.637639,1
1.36273,-0.429802,-1.42929,-0.970459,2.48856,1.00565,-0.407615,1.36273,-0.429802,-1.42929,-0.970459,2.48856,1.00565,-0.407615,1.42344,-0.507817,-1.46735,-0.998345,2.41674,1.06082,-0.471274,-1.06064,1.3274,0.65569,0.499159,1.21345,-0.950866,1.08334,-1.06064,1.3274,0.65569,0.499159,1.21345,-0.950866,1.08334,0.293427,-0.296752,1.06442,0.435241,-0.0185699,0.0531626,0.898551,-0.347012,0.539487,0.605653,1.70603,-0.410884,1.64684,-3.06479,0.11633,1.22312,-3.02496,0.130404,1.24267,-0.607153,0.780141,0.380542,0.278863,0.718185,-0.551734,0.636592,1
1.35277,-0.415732,-1.42266,-0.96637,2.50169,0.996117,-0.396238,1.35277,-0.415732,-1.42266,-0.96637,2.50169,0.996117,-0.396238,1.41228,-0.493674,-1.46041,-0.993118,2.42973,1.05075,-0.459726,-1.04635,1.32605,0.650664,0.490067,1.21756,-0.943643,1.08281,-1.04635,1.32605,0.650664,0.490067,1.21756,-0.943643,1.08281,0.28987,-0.290881,1.07076,0.430912,-0.0185178,0.0531821,0.900635,-0.323009,0.557872,0.587125,1.67534,-0.409873,1.65773,-3.06934,0.101107,1.08984,-3.03133,0.121797,1.15233,-0.59517,0.779413,0.377469,0.267486,0.719662,-0.546381,0.634871,1
1.34393,-0.401771,-1.41634,-0.961889,2.51512,0.986786,-0.385262,1.34393,-0.401771,-1.41634,-0.961889,2.51512,0.986786,-0.385262,1.40132,-0.479545,-1.45353,-0.988106,2.44274,1.04078,-0.448199,-1.02777,1.32467,0.645309,0.469953,1.22017,-0.93555,1.08076,-1.02777,1.32467,0.645309,0.469953,1.22017,-0.93555,1.08076,0.286637,-0.284787,1.07686,0.426346,-0.0183322,0.0532997,0.902802,-0.293693,0.578007,0.565286,1.61541,-0.406868,1.6768,-2.99997,0.15159,0.914896,-3.02729,0.122416,0.960084,-0.573896,0.777747,0.371845,0.262173,0.72376,-0.53991,0.629369,1
1.33519,-0.387802,-1.41004,-0.956928,2.52852,0.977288,-0.374215,1.33519,-0.387802,-1.41004,-0.956928,2.52852,0.977288,-0.374215,1.39058,-0.46543,-1.4467,-0.983298,2.45578,1.0309,-0.436705,-1.00703,1.32347,0.64012,0.450806,1.22266,-0.926238,1.07764,-1.00703,1.32347,0.64012,0.450806,1.22266,-0.926238,1.07764,0.283731,-0.278474,1.08274,0.421546,-0.0180193,0.0535122,0.905047,-0.264054,0.597706,0.543688,1.58493,-0.405453,1.68504,-3.04796,0.141433,0.824881,-3.03013,0.131064,0.85778,-0.553904,0.776278,0.366564,0.263704,0.727449,-0.536095,0.624905,1
1.32692,-0.373774,-1.40358,-0.953257,2.54175,0.968056,-0.363027,1.32692,-0.373774,-1.40358,-0.953257,2.54175,0.968056,-0.363027,1.38026,-0.451349,-1.43998,-0.978562,2.4689,1.02114,-0.425326,-0.967493,1.32028,0.629601,0.444023,1.23061,-0.914875,1.06692,-0.967493,1.32028,0.629601,0.444023,1.23061,-0.914875,1.06692,0.281151,-0.271955,1.08842,0.416499,-0.0176282,0.0537614,0.907374,-0.234193,0.616599,0.524456,1.58493,-0.405453,1.68504,-3.04796,0.141433,0.824881,-3.03013,0.131064,0.85778,-0.533443,0.775749,0.364033,0.253052,0.728458,-0.530847,0.622988,1
1.31879,-0.359948,-1.39777,-0.947584,2.55522,0.958961,-0.352049,1.31879,-0.359948,-1.39777,-0.947584,2.55522,0.958961,-0.352049,1.37029,-0.437292,-1.43336,-0.973777,2.48209,1.01144,-0.41402,-0.934773,1.31794,0.620976,0.448698,1.2365,-0.909476,1.06003,-0.934773,1.31794,0.620976,0.448698,1.2365,-0.909476,1.06003,0.278835,-0.265264,1.09392,0.411246,-0.0171783,0.0540385,0.909759,-0.210013,0.632393,0.509026,1.55427,-0.404234,1.69193,-3.06624,0.12193,0.688243,-3.03334,0.133236,0.755159,-0.514997,0.773439,0.355857,0.261924,0.731307,-0.524789,0.619708,1
1.31062,-0.346142,-1.39223,-0.941793,2.56867,0.94981,-0.341155,1.31062,-0.346142,-1.39223,-0.941793,2.56867,0.94981,-0.341155,1.3607,-0.423242,-1.42677,-0.969238,2.49529,1.00184,-0.402741,-0.899577,1.31736,0.617637,0.425572,1.23729,-0.899787,1.05758,-0.899577,1.31736,0.617637,0.425572,1.23729,-0.899787,1.05758,0.276897,-0.258326,1.09919,0.40568,-0.0165829,0.0544189,0.912243,-0.175805,0.654635,0.486556,1.52374,-0.402927,1.69739,-3.05347,0.130668,0.546587,-3.03389,0.135991,0.648043,-0.500743,0.771001,0.345375,0.274444,0.733788,-0.520339,0.615853,1
1.30222,-0.3323,-1.38744,-0.936275,2.58203,0.941061,-0.330211,1.30222,-0.3323,-1.38744,-0.936275,2.58203,0.941061,-0.330211,1.35143,-0.409241,-1.42036,-0.964448,2.50855,0.992358,-0.391528,-0.869106,1.31269,0.601415,0.449087,1.24302,-0.889366,1.05132,-0.869106,1.31269,0.601415,0.449087,1.24302,-0.889366,1.05132,0.27512,-0.251302,1.10434,0.399993,-0.0160133,0.0547845,0.914739,-0.160654,0.662506,0.475188,1.49375,-0.401221,1.70223,-2.99845,0.170609,0.483596,-3.03303,0.141074,0.543234,-0.492093,0.769419,0.329189,0.281733,0.734868,-0.51297,0.613169,1
1.29394,-0.318609,-1.38312,-0.930271,2.59545,0.932614,-0.319344,1.29394,-0.318609,-1.38312,-0.930271,2.59545,0.932614,-0.319344,1.3424,-0.395284,-1.41414,-0.959437,2.52185,0.982946,-0.380385,-0.846284,1.30867,0.583266,0.469852,1.2469,-0.882443,1.04471,-0.846284,1.30867,0.583266,0.469852,1.2469,-0.882443,1.04471,0.273497,-0.244216,1.10936,0.394231,-0.0154364,0.0551517,0.917225,-0.146471,0.668055,0.463167,1.46353,-0.400313,1.70614,-3.02258,0.0908822,0.39115,-3.03636,0.13583,0.438195,-0.484627,0.766745,0.310157,0.291661,0.736015,-0.503328,0.610411,1
1.28662,-0.306714,-1.3788,-0.923864,2.60769,0.925668,-0.309704,1.28662,-0.306714,-1.3788,-0.923864,2.60769,0.925668,-0.309704,1.33439,-0.382787,-1.40873,-0.954886,2.53377,0.974589,-0.370422,-0.8566,1.3445,0.566955,0.495617,1.28519,-0.892851,1.07083,-0.8566,1.3445,0.566955,0.495617,1.28519,-0.892851,1.07083,0.27219,-0.237819,1.11371,0.38903,-0.0148654,0.0555246,0.91943,-0.137134,0.687544,0.46194,1.40273,-0.398486,1.71076,-3.02614,0.100297,0.169075,-3.03344,0.117886,0.229279,-0.477656,0.760733,0.299285,0.310216,0.739154,-0.489208,0.60718,1
1.27803,-0.292445,-1.37524,-0.91977,2.62111,0.91714,-0.298417,1.27803,-0.292445,-1.37524,-0.91977,2.62111,0.91714,-0.298417,1.32544,-0.368591,-1.40306,-0.949441,2.54742,0.965304,-0.359123,-0.838832,1.33103,0.531092,0.510506,1.2791,-0.870551,1.05933,-0.838832,1.33103,0.531092,0.510506,1.2791,-0.870551,1.05933,0.270804,-0.230584,1.11853,0.383176,-0.0142491,0.0559499,0.921869,-0.124574,0.681454,0.444406,1.40273,-0.398486,1.71076,-3.02614,0.100297,0.169075,-3.03344,0.117886,0.229279,-0.47407,0.761464,0.278291,0.296706,0.736913,-0.48164,0.607066,1
1.27121,-0.280143,-1.37255,-0.915239,2.63314,0.910306,-0.288789,1.27121,-0.280143,-1.37255,-0.915239,2.63314,0.910306,-0.288789,1.31761,-0.356137,-1.39815,-0.944448,2.55948,0.957257,-0.349192,-0.82531,1.31617,0.515166,0.548148,1.28386,-0.841219,1.05157,-0.82531,1.31617,0.515166,0.548148,1.28386,-0.841219,1.05157,0.269642,-0.224184,1.12268,0.377966,-0.0137599,0.0563088,0.924003,-0.126365,0.675593,0.437928,1.37261,-0.396871,1.71146,-3.01203,0.161472,0.0694871,-3.02763,0.1168,0.129222,-0.463994,0.759945,0.255989,0.292088,0.736631,-0.469501,0.604027,1
1.26416,-0.266676,-1.37109,-0.908142,2.6472,0.903261,-0.278059,1.26416,-0.266676,-1.37109,-0.908142,2.6472,0.903261,-0.278059,1.30886,-0.342049,-1.39308,-0.938989,2.57311,0.948383,-0.33796,-0.820827,1.32091,0.475123,0.511779,1.27809,-0.831972,1.053,-0.820827,1.32091,0.475123,0.511779,1.27809,-0.831972,1.053,0.268596,-0.216953,1.12712,0.3721,-0.0130519,0.0568244,0.92636,-0.0937331,0.680037,0.408981,1.31279,-0.39418,1.71018,-3.00816,0.144508,-0.0991702,-3.01639,0.118271,-0.070273,-0.446978,0.75373,0.219895,0.308472,0.740865,-0.451216,0.599011,1
1.25588,-0.252853,-1.37057,-0.90436,2.6601,0.895666,-0.267236,1.25588,-0.252853,-1.37057,-0.90436,2.6601,0.895666,-0.267236,1.30053,-0.328355,-1.38854,-0.933736,2.58639,0.93996,-0.327084,-0.780698,1.28385,0.425795,0.49255,1.24497,-0.789655,1.01975,-0.780698,1.28385,0.425795,0.49255,1.24497,-0.789655,1.01975,0.267803,-0.209898,1.13123,0.366378,-0.0122826,0.0573882,0.928613,-0.0712294,0.662738,0.378661,1.31279,-0.39418,1.71018,-3.00816,0.144508,-0.0991702,-3.01639,0.118271,-0.070273,-0.446487,0.755024,0.179658,0.293756,0.737132,-0.442938,0.598475,1
1.24816,-0.239444,-1.37453,-0.898048,2.67299,0.892528,-0.256471,1.24816,-0.239444,-1.37453,-0.898048,2.67299,0.892528,-0.256471,1.29249,-0.314712,-1.38468,-0.928074,2.59984,0.931842,-0.316239,-0.754287,1.27916,0.36185,0.53078,1.26108,-0.761095,1.01671,-0.754287,1.27916,0.36185,0.53078,1.26108,-0.761095,1.01671,0.267033,-0.20297,1.13524,0.360757,-0.0116402,0.057875,0.93079,-0.0684286,0.651026,0.369784,1.25249,-0.392848,1.70556,-3.01175,0.0497907,-0.277591,-3.00572,0.117477,-0.259545,-0.443304,0.752679,0.101486,0.300264,0.731457,-0.393147,0.59768,1
1.23513,-0.225773,-1.3841,-0.887389,2.68532,0.887861,-0.245819,1.23513,-0.225773,-1.3841,-0.887389,2.68532,0.887861,-0.245819,1.28439,-0.301028,-1.38156,-0.922829,2.61317,0.92384,-0.3054,-0.75911,1.28288,0.292546,0.491806,1.24977,-0.750245,1.01627,-0.75911,1.28288,0.292546,0.491806,1.24977,-0.750245,1.01627,0.266618,-0.196138,1.13892,0.355355,-0.0106561,0.0585487,0.932835,-0.0382775,0.64111,0.339425,1.22223,-0.391662,1.70192,-3.02571,0.118592,-0.364327,-3.00721,0.10999,-0.347079,-0.492581,0.752553,-0.0254421,0.354397,0.72155,-0.359793,0.595805,1
1.21996,-0.212693,-1.39439,-0.88058,2.69432,0.885463,-0.235118,1.21996,-0.212693,-1.39439,-0.88058,2.69432,0.885463,-0.235118,1.27718,-0.288796,-1.37959,-0.918002,2.62507,0.91724,-0.295693,-0.772778,1.31422,0.134828,0.531353,1.27607,-0.658051,1.04444,-0.772778,1.31422,0.134828,0.531353,1.27607,-0.658051,1.04444,0.266278,-0.190194,1.14206,0.350812,-0.00990639,0.0592057,0.93452,-0.0449436,0.616377,0.329539,1.22223,-0.391662,1.70192,-3.02571,0.118592,-0.364327,-3.00721,0.10999,-0.347079,-0.572195,0.761039,-0.147991,0.374221,0.692568,-0.317769,0.605752,1
1.2062,-0.199942,-1.40953,-0.87396,2.70247,0.901303,-0.223867,1.2062,-0.199942,-1.40953,-0.87396,2.70247,0.901303,-0.223867,1.26923,-0.276273,-1.3796,-0.912336,2.63711,0.911225,-0.285766,-0.907916,1.34477,-0.119948,0.664302,1.28378,-0.622159,1.06373,-0.907916,1.34477,-0.119948,0.664302,1.28378,-0.622159,1.06373,0.265605,-0.18481,1.14521,0.347384,-0.00943201,0.059926,0.935759,-0.102717,0.524303,0.340128,1.19181,-0.39026,1.69739,-3.04166,0.140187,-0.452316,-3.01418,0.103898,-0.433357,-0.630258,0.763311,-0.299307,0.383753,0.653551,-0.0992207,0.618985,1
1.18892,-0.186122,-1.42902,-0.863041,2.71024,0.922299,-0.214498,1.18892,-0.186122,-1.42902,-0.863041,2.71024,0.922299,-0.214498,1.25833,-0.262209,-1.38287,-0.905311,2.64977,0.905526,-0.274562,-1.0218,1.31859,-0.306815,0.658578,1.1864,-0.534278,1.05037,-1.0218,1.31859,-0.306815,0.658578,1.1864,-0.534278,1.05037,0.264329,-0.180087,1.14855,0.346132,-0.00909681,0.061123,0.936148,-0.118544,0.439273,0.310587,1.16176,-0.389018,1.69134,-3.00529,0.124255,-0.605726,-3.02015,0.104809,-0.52686,-0.694047,0.760873,-0.461538,0.422698,0.604756,0.167728,0.600649,1
1.17427,-0.172043,-1.44611,-0.868839,2.70318,0.943348,-0.203837,1.17427,-0.172043,-1.44611,-0.868839,2.70318,0.943348,-0.203837,1.2468,-0.248436,-1.38877,-0.898376,2.66143,0.904592,-0.263349,-1.08105,1.29134,-0.552857,0.650178,1.09295,-0.0875895,1.05136,-1.08105,1.29134,-0.552857,0.650178,1.09295,-0.0875895,1.05136,0.26242,-0.176018,1.15152,0.346411,-0.0106357,0.0628499,0.935915,-0.16687,0.369432,0.277363,1.1321,-0.387897,1.68444,-2.966,0.112045,-0.689363,-3.01578,0.107475,-0.626398,-0.725245,0.76393,-0.573458,0.295377,0.417527,0.387559,0.595118,1
1.16038,-0.162332,-1.45841,-0.870614,2.70303,0.958555,-0.194214,1.16038,-0.162332,-1.45841,-0.870614,2.70303,0.958555,-0.194214,1.23399,-0.234652,-1.39767,-0.89056,2.67222,0.908509,-0.252543,-1.20024,1.29231,-0.83488,0.732805,1.01243,0.367222,1.01311,-1.20024,1.29231,-0.83488,0.732805,1.01243,0.367222,1.01311,0.259381,-0.172634,1.15442,0.348973,-0.0145123,0.0651937,0.93475,-0.258898,0.296552,0.273117,1.10178,-0.386624,1.67699,-3.03178,0.127363,-0.745332,-3.01324,0.116832,-0.724483,-0.736147,0.723205,-0.607442,0.19946,0.308021,0.500457,0.583287,1
1.14657,-0.151008,-1.46736,-0.866142,2.7194,0.960766,-0.183337,1.14657,-0.151008,-1.46736,-0.866142,2.7194,0.960766,-0.183337,1.22078,-0.220803,-1.40839,-0.885755,2.67907,0.916215,-0.241769,-1.23857,1.29844,-1.00461,0.450478,0.641951,0.72252,1.0101,-1.23857,1.29844,-1.00461,0.450478,0.641951,0.72252,1.0101,0.257362,-0.168966,1.15618,0.353076,-0.0184969,0.0697573,0.932807,-0.169817,0.303201,0.16835,1.07167,-0.385247,1.66858,-3.01094,0.137624,-0.841248,-3.01089,0.125864,-0.820554,-0.742103,0.697947,-0.58974,0.196139,0.403248,0.445508,0.584322,1
1.13462,-0.139563,-1.47543,-0.883917,2.73116,0.964985,-0.171531,1.13462,-0.139563,-1.47543,-0.883917,2.73116,0.964985,-0.171531,1.20886,-0.208876,-1.41818,-0.882222,2.68439,0.924004,-0.232248,-1.29107,1.23944,-1.07151,0.309107,0.496377,0.920055,1.0128,-1.29107,1.23944,-1.07151,0.309107,0.496377,0.920055,1.0128,0.255745,-0.165877,1.15741,0.35699,-0.0220626,0.0741774,0.930897,-0.148226,0.256873,0.111299,1.04164,-0.383804,1.65867,-3.00335,0.14433,-0.990677,-3.00725,0.12855,-0.920431,-0.742479,0.693131,-0.572511,-0.0169507,0.467785,0.409811,0.607169,1
1.12402,-0.127448,-1.48411,-0.914568,2.74009,0.974666,-0.163408,1.12402,-0.127448,-1.48411,-0.914568,2.74009,0.974666,-0.163408,1.19652,-0.19725,-1.42813,-0.879129,2.69043,0.931906,-0.222557,-1.32993,1.23138,-1.0447,0.345841,0.771266,0.76851,1.04439,-1.32993,1.23138,-1.0447,0.345841,0.771266,0.76851,1.04439,0.254175,-0.163186,1.15846,0.360783,-0.0254219,0.0783377,0.929006,-0.160157,0.224202,0.125101,1.01178,-0.382456,1.64763,-2.98619,0.134769,-1.10433,-3.00277,0.130317,-1.02321,-0.724951,0.698024,-0.559835,-0.354393,0.496534,0.427598,0.59149,1
1.11758,-0.116416,-1.49675,-0.926626,2.75031,0.992234,-0.161444,1.11758,-0.116416,-1.49675,-0.926626,2.75031,0.992234,-0.161444,1.18406,-0.185677,-1.43775,-0.878345,2.69822,0.938786,-0.212494,-1.31677,1.22796,-1.00321,-0.148388,0.877219,0.697658,1.09081,-1.31677,1.22796,-1.00321,-0.148388,0.877219,0.697658,1.09081,0.253662,-0.160798,1.15886,0.363541,-0.0272354,0.0819702,0.927565,0.0404966,0.207232,-0.0178313,0.981612,-0.381249,1.6358,-3.01674,0.120738,-1.18273,-3.00442,0.132169,-1.12344,-0.664864,0.692606,-0.589951,-0.482812,0.520921,0.534484,0.510501,1
1.1087,-0.105877,-1.5119,-0.925964,2.7567,1.00444,-0.15646,1.1087,-0.105877,-1.5119,-0.925964,2.7567,1.00444,-0.15646,1.17188,-0.174053,-1.44711,-0.883179,2.70656,0.945719,-0.202479,-1.27452,1.24111,-0.985423,-0.835904,0.89288,0.770883,1.04047,-1.27452,1.24111,-0.985423,-0.835904,0.89288,0.770883,1.04047,0.255586,-0.15863,1.15762,0.365245,-0.0264184,0.0857467,0.926577,0.307682,0.191316,-0.223397,0.951544,-0.380332,1.62298,-3.00673,0.0916898,-1.28193,-3.00683,0.129413,-1.22756,-0.631783,0.681755,-0.647953,-0.427853,0.501457,0.587236,0.460187,1
1.09729,-0.0946861,-1.52575,-0.942118,2.7644,1.01138,-0.149364,1.09729,-0.0946861,-1.52575,-0.942118,2.7644,1.01138,-0.149364,1.15987,-0.161303,-1.45809,-0.892789,2.71624,0.956008,-0.193402,-1.12624,1.19537,-1.02955,-0.90108,0.90751,0.964722,0.851047,-1.12624,1.19537,-1.02955,-0.90108,0.90751,0.964722,0.851047,0.259265,-0.156415,1.15487,0.366975,-0.0247854,0.0900069,0.925534,0.316515,0.170283,-0.256499,0.921165,-0.379319,1.60911,-3.03793,0.101259,-1.38723,-3.00766,0.122492,-1.33467,-0.625815,0.666173,-0.676578,-0.493288,0.481597,0.553684,0.440378,1
1.08607,-0.084606,-1.53704,-0.955497,2.77289,1.01669,-0.144169,1.08607,-0.084606,-1.53704,-0.955497,2.77289,1.01669,-0.144169,1.14947,-0.150136,-1.46842,-0.900196,2.72453,0.965456,-0.185747,-1.08569,1.17863,-1.15795,-0.68621,0.856911,1.03823,0.779929,-1.08569,1.17863,-1.15795,-0.68621,0.856911,1.03823,0.779929,0.261987,-0.154704,1.15265,0.369084,-0.0239374,0.0937426,0.924346,0.22324,0.138112,-0.205486,0.891134,-0.378445,1.59391,-3.00314,0.0874549,-1.5192,-3.01003,0.112502,-1.44198,-0.634017,0.6553,-0.68615,-0.553005,0.4836,0.512309,0.415779,1
1.07597,-0.0763642,-1.54844,-0.968838,2.78358,1.02431,-0.14226,1.07597,-0.0763642,-1.54844,-0.968838,2.78358,1.02431,-0.14226,1.13911,-0.139031,-1.47967,-0.907794,2.73255,0.974894,-0.178435,-1.1138,1.18092,-1.22714,-0.914057,0.848159,0.971532,0.774172,-1.1138,1.18092,-1.22714,-0.914057,0.848159,0.971532,0.774172,0.264716,-0.153452,1.15028,0.371838,-0.0228608,0.0975031,0.92288,0.3004,0.0740257,-0.281128,0.831649,-0.376306,1.56115,-2.97867,0.0815988,-1.70144,-3.00411,0.102107,-1.64206,-0.631438,0.626667,-0.687745,-0.610436,0.510299,0.494129,0.361746,1
1.0641,-0.0650012,-1.5612,-0.980786,2.79275,1.03327,-0.135878,1.0641,-0.0650012,-1.5612,-0.980786,2.79275,1.03327,-0.135878,1.12738,-0.126992,-1.49236,-0.918346,2.74147,0.984139,-0.170855,-1.10008,1.12876,-1.18984,-0.989338,0.836609,0.866761,0.710664,-1.10008,1.12876,-1.18984,-0.989338,0.836609,0.866761,0.710664,0.26854,-0.152927,1.14696,0.375244,-0.0200129,0.101347,0.921152,0.316983,0.0192119,-0.308663,0.831649,-0.376306,1.56115,-2.97867,0.0815988,-1.70144,-3.00411,0.102107,-1.64206,-0.632782,0.61991,-0.688477,-0.624404,0.512787,0.491339,0.349771,1
1.05463,-0.0564045,-1.57229,-0.99175,2.80296,1.03769,-0.132056,1.05463,-0.0564045,-1.57229,-0.99175,2.80296,1.03769,-0.132056,1.11706,-0.116648,-1.50358,-0.928131,2.74968,0.992234,-0.164728,-1.09414,1.07277,-1.19467,-1.08403,0.902813,0.85413,0.598323,-1.09414,1.07277,-1.19467,-1.08403,0.902813,0.85413,0.598323,0.27189,-0.15296,1.14384,0.378444,-0.0172819,0.104351,0.919561,0.319013,-0.0533956,-0.342573,0.80179,-0.374972,1.54346,-2.98593,0.13347,-1.76898,-2.99637,0.103857,-1.74155,-0.624208,0.602435,-0.687123,-0.636184,0.532845,0.454602,0.326717,1
1.04363,-0.0481458,-1.58374,-1.00389,2.81303,1.04158,-0.130225,1.04363,-0.0481458,-1.58374,-1.00389,2.81303,1.04158,-0.130225,1.10657,-0.106402,-1.515,-0.93854,2.75825,1.00038,-0.159008,-1.13101,1.10252,-1.23036,-1.12505,0.918652,0.875891,0.615963,-1.13101,1.10252,-1.23036,-1.12505,0.918652,0.875891,0.615963,0.275258,-0.153469,1.14049,0.381904,-0.0142896,0.107053,0.91787,0.318164,-0.0772938,-0.359797,0.772147,-0.374463,1.52505,-2.96428,0.0508517,-1.84053,-2.98723,0.101574,-1.83518,-0.629405,0.582563,-0.687424,-0.653549,0.547822,0.411974,0.287838,1
1.03568,-0.0445816,-1.59682,-1.01681,2.82322,1.05539,-0.131549,1.03568,-0.0445816,-1.59682,-1.01681,2.82322,1.05539,-0.131549,1.09508,-0.0953427,-1.52767,-0.95031,2.76814,1.00864,-0.153047,-1.07718,1.03694,-1.18817,-1.10356,0.92723,0.773843,0.558977,-1.07718,1.03694,-1.18817,-1.10356,0.92723,0.773843,0.558977,0.278915,-0.154584,1.13668,0.385873,-0.0105562,0.10951,0.915969,0.295503,-0.119969,-0.355733,0.712285,-0.372236,1.4857,-3.00424,0.110564,-2.004,-2.97952,0.100105,-2.00574,-0.594027,0.50761,-0.691411,-0.664954,0.550824,0.467524,0.214974,1
1.03008,-0.0418765,-1.60794,-1.02667,2.8319,1.06544,-0.129706,1.03008,-0.0418765,-1.60794,-1.02667,2.8319,1.06544,-0.129706,1.08484,-0.0857591,-1.53889,-0.960903,2.77703,1.01552,-0.148188,-1.09748,1.00166,-1.1945,-1.14487,0.958882,0.69398,0.478381,-1.09748,1.00166,-1.1945,-1.14487,0.958882,0.69398,0.478381,0.282029,-0.156007,1.13322,0.389665,-0.00701901,0.111347,0.914174,0.283949,-0.182201,-0.371353,0.712285,-0.372236,1.4857,-3.00424,0.110564,-2.004,-2.97952,0.100105,-2.00574,-0.547599,0.438827,-0.690542,-0.657685,0.548703,0.499169,0.184821,1
1.0249,-0.0466039,-1.62079,-1.03934,2.84057,1.0712,-0.136173,1.0249,-0.0466039,-1.62079,-1.03934,2.84057,1.0712,-0.136173,1.07397,-0.0766507,-1.5517,-0.973269,2.78725,1.02434,-0.144508,-1.01962,0.854011,-1.20137,-1.15939,0.958106,0.826854,0.345091,-1.01962,0.854011,-1.20137,-1.15939,0.958106,0.826854,0.345091,0.284802,-0.158833,1.12914,0.394524,-0.00357625,0.112468,0.91197,0.216177,-0.268586,-0.381812,0.681751,-0.371121,1.46442,-3.05341,0.11158,-2.12744,-2.99017,0.0991962,-2.0923,-0.490667,0.300468,-0.690858,-0.66073,0.53328,0.468635,0.0833441,1
1.02272,-0.0591186,-1.63313,-1.05258,2.84782,1.08245,-0.140645,1.02272,-0.0591186,-1.63313,-1.05258,2.84782,1.08245,-0.140645,1.06426,-0.0689587,-1.56414,-0.985081,2.79712,1.03343,-0.141234,-0.910169,0.721208,-1.16642,-1.10757,0.926064,0.852363,0.306979,-0.910169,0.721208,-1.16642,-1.10757,0.926064,0.852363,0.306979,0.286849,-0.162205,1.12521,0.399104,-0.000745117,0.112951,0.909922,0.155364,-0.314824,-0.367866,0.652045,-0.370015,1.44161,-2.97062,0.11054,-2.28068,-2.99556,0.102866,-2.18581,-0.415381,0.0984009,-0.689876,-0.675013,0.506928,0.490251,0.00588484,1
1.01651,-0.0952703,-1.64355,-1.06318,2.85285,1.09494,-0.147351,1.01651,-0.0952703,-1.64355,-1.06318,2.84842,1.09494,-0.147351,1.05609,-0.0635236,-1.57534,-0.99577,2.80583,1.04119,-0.139444,-0.83061,0.450577,-1.21028,-1.16033,0.925122,0.799313,0.0870915,-0.83061,0.450577,-1.21028,-1.16033,0.925122,0.799313,0.0870915,0.288121,-0.166243,1.12165,0.403663,0.00183127,0.112564,0.907955,0.0682224,-0.501266,-0.39005,0.593037,-0.367762,1.39378,-2.96382,0.133047,-2.4038,-2.98883,0.110084,-2.39196,-0.395843,-0.317467,-0.682141,-0.674052,0.470202,0.53752,-0.079073,1
1.00074,-0.110668,-1.65684,-1.07755,2.86134,1.10486,-0.16261,1.00074,-0.110668,-1.65684,-1.07755,2.84842,1.10486,-0.16261,1.04871,-0.0625492,-1.58812,-1.00834,2.81512,1.05031,-0.13971,-0.692034,0.0913546,-1.19848,-1.17823,0.870636,0.855842,-0.0249173,-0.692034,0.0913546,-1.19848,-1.17823,0.870636,0.855842,-0.0249173,0.287798,-0.173882,1.1174,0.409343,0.00432401,0.109725,0.905748,-0.0560503,-0.686048,-0.405008,0.593037,-0.367762,1.39378,-2.96382,0.133047,-2.4038,-2.98883,0.110084,-2.39196,-0.479673,-0.48119,-0.68718,-0.692095,0.462221,0.545433,-0.229008,1
0.984367,-0.132632,-1.67136,-1.09177,2.85579,1.11173,-0.181683,0.984367,-0.132632,-1.67136,-1.09177,2.84842,1.11173,-0.181683,1.04159,-0.0697871,-1.60039,-1.02047,2.82249,1.06019,-0.1414,-0.66785,-0.678595,-1.14957,-1.13728,0.690502,0.925437,-0.158476,-0.66785,-0.678595,-1.14957,-1.13728,0.690502,0.925437,-0.158476,0.284077,-0.186431,1.11309,0.415977,0.005832,0.103662,0.903429,-0.357521,-1.1202,-0.420776,0.563104,-0.366499,1.36857,-2.99336,0.126356,-2.52067,-2.983,0.112525,-2.49265,-0.572211,-0.628452,-0.70971,-0.712992,0.333046,0.515493,-0.402831,1
0.972883,-0.142225,-1.68493,-1.10537,2.84269,1.12298,-0.19058,0.972883,-0.142225,-1.68493,-1.10537,2.84269,1.12298,-0.19058,1.03255,-0.07883,-1.61287,-1.03309,2.82822,1.07007,-0.146092,-0.847055,-0.847824,-1.17084,-1.18375,0.537764,0.926452,-0.439879,-0.847055,-0.847824,-1.17084,-1.18375,0.537764,0.926452,-0.439879,0.279274,-0.200605,1.10837,0.425278,0.00757194,0.0972746,0.899788,-0.463649,-1.26577,-0.461555,0.533679,-0.365113,1.34214,-2.94249,0.138527,-2.64262,-2.97185,0.117381,-2.59356,-0.596708,-0.633947,-0.720613,-0.722803,0.144687,0.52911,-0.444882,1
0.964642,-0.157233,-1.6979,-1.11742,2.83777,1.13542,-0.199232,0.964642,-0.157233,-1.6979,-1.11742,2.83777,1.13542,-0.199232,1.02189,-0.090731,-1.62581,-1.04607,2.83269,1.07928,-0.153964,-0.999325,-1.11579,-1.21286,-1.21681,0.418811,0.864138,-0.738121,-0.999325,-1.11579,-1.21286,-1.21681,0.418811,0.864138,-0.738121,0.272899,-0.217093,1.10318,0.437217,0.00974131,0.0898053,0.894808,-0.614417,-1.46865,-0.509701,0.503507,-0.364468,1.31505,-3.01718,0.0645012,-2.70972,-2.96798,0.115554,-2.68682,-0.57252,-0.665016,-0.720878,-0.713437,0.0507746,0.561359,-0.452678,1
0.94737,-0.168855,-1.71185,-1.13159,2.82911,1.13414,-0.210778,0.94737,-0.168855,-1.71185,-1.13159,2.82911,1.13414,-0.210778,1.01105,-0.102121,-1.63889,-1.05919,2.8349,1.08895,-0.162064,-1.01645,-1.06791,-1.22618,-1.22985,0.207423,0.906162,-0.759357,-1.01645,-1.06791,-1.22618,-1.22985,0.207423,0.906162,-0.759357,0.266475,-0.232868,1.09764,0.44972,0.0120528,0.0835196,0.889174,-0.622514,-1.40929,-0.538352,0.473388,-0.363891,1.2866,-3.01194,0.057742,-2.84454,-2.97738,0.108109,-2.77932,-0.636829,-0.667336,-0.729578,-0.723968,-0.057924,0.45191,-0.48714,1
0.938281,-0.180262,-1.72426,-1.14537,2.81894,1.13914,-0.218309,0.938281,-0.180262,-1.72426,-1.14537,2.81894,1.13914,-0.218309,1.00079,-0.114312,-1.65194,-1.07207,2.83553,1.09923,-0.170285,-0.962499,-1.14294,-1.22378,-1.20754,0.0594174,0.963746,-0.770827,-0.962499,-1.14294,-1.22378,-1.20754,0.0594174,0.963746,-0.770827,0.259501,-0.248493,1.09186,0.462208,0.0140985,0.0775592,0.883261,-0.670396,-1.3976,-0.561285,0.443561,-0.362255,1.25729,-2.98266,0.1636,-2.93059,-2.98657,0.108165,-2.87655,-0.625064,-0.659504,-0.72321,-0.73301,-0.165898,0.39914,-0.480234,1
0.928311,-0.192535,-1.7375,-1.15889,2.81672,1.15283,-0.223679,0.928311,-0.192535,-1.7375,-1.15889,2.81672,1.15283,-0.223679,0.988971,-0.126377,-1.66519,-1.08523,2.83411,1.10695,-0.179242,-1.1078,-1.13116,-1.24236,-1.23431,-0.13327,0.724027,-0.839761,-1.1078,-1.13116,-1.24236,-1.23431,-0.13327,0.724027,-0.839761,0.25238,-0.264409,1.08568,0.476089,0.0178412,0.0720524,0.876259,-0.699582,-1.41984,-0.596448,0.414286,-0.361246,1.22668,-2.92747,0.100899,-3.06145,-2.98439,0.104494,-2.9835,-0.606603,-0.661585,-0.723039,-0.736565,-0.173892,0.458812,-0.444369,1
0.91548,-0.207382,-1.75093,-1.17219,2.81882,1.15696,-0.232719,0.91548,-0.207382,-1.75093,-1.17219,2.81882,1.15696,-0.232719,0.977759,-0.138296,-1.67826,-1.09854,2.83076,1.11407,-0.187884,-1.05126,-1.11752,-1.22504,-1.24714,-0.31457,0.667613,-0.810192,-1.05126,-1.11752,-1.22504,-1.24714,-0.31457,0.667613,-0.810192,0.245438,-0.279685,1.07918,0.489645,0.0222099,0.0672782,0.869039,-0.68655,-1.36246,-0.624475,0.384751,-0.360729,1.195,-2.9536,0.0517368,-3.1678,-2.97782,0.0973518,-3.09064,-0.622788,-0.690861,-0.726691,-0.73653,-0.119405,0.42885,-0.448354,1
0.905619,-0.221016,-1.76181,-1.18373,2.82043,1.15369,-0.242953,0.905619,-0.221016,-1.76181,-1.18373,2.82043,1.15369,-0.242953,0.967855,-0.149021,-1.68999,-1.11048,2.82788,1.12123,-0.195245,-1.05301,-1.15874,-1.26506,-1.28901,-0.297184,0.841645,-0.757181,-1.05301,-1.15874,-1.26506,-1.28901,-0.297184,0.841645,-0.757181,0.238828,-0.293082,1.07314,0.501344,0.0258193,0.062986,0.862566,-0.745993,-1.36659,-0.665949,0.327026,-0.360281,1.13149,-2.8391,-0.0703782,-3.1477,-2.94356,0.0811279,-3.27229,-0.622354,-0.71995,-0.718245,-0.732503,-0.0745079,0.324668,-0.477085,1
0.891127,-0.230972,-1.77485,-1.19763,2.79767,1.14863,-0.254591,0.891127,-0.230972,-1.77485,-1.19763,2.79767,1.14863,-0.254591,0.956269,-0.161931,-1.70347,-1.12413,2.82588,1.12913,-0.203534,-1.08619,-1.21034,-1.26378,-1.27968,-0.188029,0.741011,-0.777172,-1.08619,-1.21034,-1.26378,-1.27968,-0.188029,0.741011,-0.777172,0.230431,-0.308763,1.06594,0.514402,0.0299508,0.0570923,0.855122,-0.813855,-1.38987,-0.691867,0.317683,-0.373997,1.13423,-0.934267,-1.37165,0.273979,-2.71091,-0.0882251,-2.95876,-0.651419,-0.69041,-0.713818,-0.735009,-0.282032,0.195043,-0.510573,1
0.884015,-0.232462,-1.78688,-1.20951,2.78615,1.18001,-0.255056,0.884015,-0.232462,-1.78688,-1.20951,2.78615,1.18001,-0.255056,0.946088,-0.173587,-1.71525,-1.13612,2.82451,1.1349,-0.211192,-1.07765,-1.26301,-1.24006,-1.26794,-0.108467,0.500397,-0.845764,-1.07765,-1.26301,-1.24006,-1.26794,-0.108467,0.500397,-0.845764,0.222693,-0.322638,1.05934,0.525795,0.0340879,0.0513417,0.848376,-0.84757,-1.41043,-0.715516,0.317683,-0.373997,1.13423,-0.934267,-1.37165,0.273979,-2.71091,-0.0882251,-2.95876,-0.620727,-0.588752,-0.716364,-0.733862,-0.383543,0.451061,-0.438642,1
0.856304,-0.190565,-1.79869,-1.12037,2.77155,1.12228,-0.271598,0.856304,-0.190565,-1.79869,-1.12037,2.77155,1.12228,-0.271598,0.933931,-0.18628,-1.72843,-1.14973,2.81857,1.13794,-0.220792,-1.13981,-1.1901,-1.23613,-1.27573,-0.556447,0.284795,-0.900042,-1.13981,-1.1901,-1.23613,-1.27573,-0.556447,0.284795,-0.900042,0.214508,-0.337913,1.05158,0.539809,0.0411033,0.0463188,0.839507,-0.81394,-1.34387,-0.740116,0.310132,-0.408542,1.16634,-0.399449,-1.76139,1.60064,-1.75516,-0.773956,-1.26824,-0.776268,-0.0428529,-0.702593,0.293529,-0.470225,-0.156627,-0.508057,1
0.840609,-0.249116,-1.8124,-1.14818,2.76857,1.08727,-0.274738,0.840609,-0.249116,-1.8124,-1.14818,2.76857,1.08727,-0.274738,0.923627,-0.196341,-1.74011,-1.16172,2.81259,1.14399,-0.228323,-1.05482,-0.961865,-1.24544,-1.27253,-0.704158,0.959081,-0.711884,-1.05482,-0.961865,-1.24544,-1.27253,-0.704158,0.959081,-0.711884,0.207342,-0.34989,1.0447,0.551432,0.0459329,0.0432805,0.831829,-0.759945,-1.10337,-0.720626,0.310132,-0.408542,1.16634,-0.399449,-1.76139,1.60064,-1.75516,-0.773956,-1.26824,-0.830178,-0.527749,-0.722919,0.13539,-0.440297,-0.567195,-0.464148,1
0.834598,-0.206941,-1.8099,-1.11522,2.81158,1.19585,-0.230479,0.834598,-0.206941,-1.8099,-1.11522,2.81158,1.19585,-0.230479,0.911609,-0.199408,-1.75184,-1.16182,2.80503,1.14517,-0.23618,-1.47279,0.235479,-1.24749,1.10362,-0.891611,-0.609783,-0.943183,-1.47279,0.235479,-1.24749,1.10362,-0.891611,-0.609783,-0.943183,0.199867,-0.356561,1.04319,0.56539,0.0479769,0.0448032,0.822208,-0.868583,-0.341673,0.343064,0.306224,-0.426644,1.18166,-0.390777,-1.81015,1.53201,-1.21089,-1.16543,-0.251581,-0.770106,-0.0753265,-0.580524,0.465996,0.0655156,0.506773,0.0570126,1
0.869446,-0.187588,-1.8143,-1.11553,2.77701,1.205,-0.286159,0.869446,-0.187588,-1.8143,-1.11553,2.77701,1.205,-0.286159,0.895904,-0.210403,-1.76524,-1.1588,2.79696,1.13237,-0.244709,-1.47251,-1.03093,-1.25598,0.282813,-0.756266,-1.20089,-0.799678,-1.47251,-1.03093,-1.25598,0.282813,-0.756266,-1.20089,-0.799678,0.187562,-0.369973,1.04119,0.582154,0.0552604,0.0402389,0.8102,-1.20056,-1.16565,-0.193425,0.298695,-0.462158,1.20723,-0.38715,-1.7717,1.19798,-0.439752,-1.72226,1.15937,-0.264577,0.228148,-0.490591,0.432698,-0.199508,0.726323,-0.414496,1
0.861227,-0.190995,-1.80516,-1.07927,2.75624,1.21756,-0.269617,0.861227,-0.190995,-1.80516,-1.07927,2.75624,1.21756,-0.269617,0.882343,-0.209637,-1.77512,-1.14916,2.8002,1.14641,-0.241561,-1.27146,0.0718158,-0.926172,0.903905,0.303164,1.31667,0.295131,-1.27146,0.0718158,-0.926172,0.903905,0.303164,1.31667,0.295131,0.176285,-0.371117,1.0444,0.590643,0.0453216,0.0422903,0.804548,-1.00151,-0.147249,0.290498,0.298695,-0.462158,1.20723,-0.38715,-1.7717,1.19798,-0.439752,-1.72226,1.15937,-0.211163,0.186425,-0.300446,0.698897,-0.439617,0.71153,-0.280557,1
0.890552,-0.244347,-1.82716,-1.07375,2.74136,1.2292,-0.244512,0.890552,-0.244347,-1.82716,-1.07375,2.74136,1.2292,-0.244512,0.875877,-0.206767,-1.78333,-1.14169,2.79865,1.15842,-0.245653,-0.171248,0.510728,-0.824759,0.696594,-0.576292,1.24039,-1.07869,-0.171248,0.510728,-0.824759,0.696594,-0.576292,1.24039,-1.07869,0.17041,-0.369493,1.04711,0.598888,0.0377111,0.0473572,0.798542,-0.237884,0.311534,0.284175,0.294872,-0.47911,1.21892,-0.382304,-1.69524,1.16857,-0.38166,-1.76321,1.21715,0.146757,-0.375803,-0.438324,0.679346,-0.572952,0.707779,0.011405,1
0.878791,-0.231077,-1.82653,-1.05902,2.74207,1.24587,-0.278643,0.878791,-0.231077,-1.82653,-1.05902,2.74207,1.24587,-0.278643,0.872636,-0.203278,-1.78816,-1.12788,2.78927,1.1715,-0.250953,-0.303835,0.327108,-0.452838,1.29454,-0.879741,1.22658,-0.497018,-0.303835,0.327108,-0.452838,1.29454,-0.879741,1.22658,-0.497018,0.166308,-0.363923,1.05231,0.606606,0.0274802,0.0573351,0.792456,-0.36513,0.417565,0.484491,0.290884,-0.496961,1.22997,-0.398794,-1.78508,1.10453,-0.384927,-1.76697,1.12016,0.0615483,-0.277991,-0.3837,0.688576,-0.472043,0.743692,-0.276898,1
0.847987,-0.217356,-1.83352,-1.04579,2.73514,1.25943,-0.285236,0.847987,-0.217356,-1.83352,-1.04579,2.73514,1.25943,-0.285236,0.876599,-0.212363,-1.79679,-1.11591,2.77867,1.18426,-0.249529,0.371578,-0.851763,-0.808905,1.12259,-0.993685,1.1966,0.133594,0.371578,-0.851763,-0.808905,1.12259,-0.993685,1.1966,0.133594,0.15887,-0.365253,1.0542,0.610217,0.0187399,0.0612652,0.78964,-0.659301,-0.19205,0.169716,0.283568,-0.532518,1.24861,-0.404891,-1.81127,0.912058,-0.377428,-1.75841,0.914497,-0.286124,-0.0499336,-0.367345,0.701226,-0.435324,0.751663,-0.357075,1
0.888418,-0.255374,-1.83336,-1.03665,2.72068,1.27102,-0.283188,0.888418,-0.255374,-1.83336,-1.03665,2.72068,1.27102,-0.283188,0.877084,-0.216502,-1.80336,-1.10332,2.77058,1.19789,-0.255969,0.0454564,-0.388137,-0.616855,1.17977,-0.759202,1.27771,-0.60383,0.0454564,-0.388137,-0.616855,1.17977,-0.759202,1.27771,-0.60383,0.152406,-0.36381,1.05723,0.617112,0.00867672,0.0669492,0.783974,-0.571435,0.0545564,0.282454,0.279476,-0.550779,1.25621,-0.409159,-1.82613,0.760114,-0.381353,-1.76796,0.822116,0.113336,-0.38872,-0.299959,0.666761,-0.49892,0.731317,-0.272197,1
0.876191,-0.251415,-1.84511,-1.02263,2.71401,1.28323,-0.296192,0.876191,-0.251415,-1.84511,-1.02263,2.71401,1.28323,-0.296192,0.873842,-0.218114,-1.80931,-1.09197,2.76346,1.2101,-0.261759,-0.688533,0.0201854,-0.644727,1.22992,-0.754043,1.31375,-0.625203,-0.688533,0.0201854,-0.644727,1.22992,-0.754043,1.31375,-0.625203,0.146241,-0.361847,1.06024,0.624597,-0.000186104,0.0730513,0.777523,-0.681205,0.176178,0.366196,0.275495,-0.568932,1.26278,-0.398079,-1.81528,0.657165,-0.38466,-1.78291,0.728121,0.0234921,-0.333009,-0.357979,0.693429,-0.494499,0.731302,-0.344327,1
0.873002,-0.256224,-1.84327,-1.01203,2.7107,1.29776,-0.304058,0.873002,-0.256224,-1.84327,-1.01203,2.7107,1.29776,-0.304058,0.877066,-0.226356,-1.81463,-1.07973,2.75399,1.22358,-0.266499,0.302294,-0.772769,-0.498803,1.14735,-0.887079,1.26358,-0.444441,0.302294,-0.772769,-0.498803,1.14735,-0.887079,1.26358,-0.444441,0.139552,-0.361853,1.06219,0.629343,-0.0099087,0.0772327,0.773217,-0.588914,-0.075325,0.181796,0.275495,-0.568932,1.26278,-0.398079,-1.81528,0.657165,-0.38466,-1.78291,0.728121,-0.0406398,-0.298683,-0.286369,0.677017,-0.432908,0.741849,-0.375583,1
0.895546,-0.267312,-1.85098,-1.00068,2.69613,1.309,-0.305705,0.895546,-0.267312,-1.85098,-1.00068,2.69613,1.309,-0.305705,0.87814,-0.232309,-1.82015,-1.06856,2.74584,1.2355,-0.271719,-0.0519086,-0.508782,-0.664543,1.22308,-0.847801,1.2709,-0.651724,-0.0519086,-0.508782,-0.664543,1.22308,-0.847801,1.2709,-0.651724,0.133337,-0.361492,1.0641,0.634847,-0.0184807,0.0815582,0.768099,-0.663936,-0.00683817,0.236551,0.27216,-0.586639,1.26845,-0.3335,-1.77076,0.566876,-0.382325,-1.79608,0.62483,0.174055,-0.350028,-0.308249,0.678722,-0.497147,0.734935,-0.339864,1
0.889119,-0.270897,-1.85761,-0.988583,2.6905,1.32145,-0.317865,0.889119,-0.270897,-1.85761,-0.988583,2.6905,1.32145,-0.317865,0.877334,-0.237101,-1.82546,-1.05715,2.73841,1.24777,-0.278056,-0.115372,-0.509265,-0.474282,1.20155,-0.737866,1.33128,-0.692418,-0.115372,-0.509265,-0.474282,1.20155,-0.737866,1.33128,-0.692418,0.126884,-0.360593,1.06621,0.641225,-0.0273716,0.0862657,0.761997,-0.650185,0.0300551,0.23412,0.268721,-0.603315,1.2723,-0.343946,-1.66759,0.385118,-0.37669,-1.78552,0.511108,0.117841,-0.337962,-0.321521,0.68568,-0.479102,0.736804,-0.398087,1
0.901969,-0.280521,-1.8612,-0.977457,2.68593,1.33549,-0.319417,0.901969,-0.280521,-1.8612,-0.977457,2.68593,1.33549,-0.319417,0.881363,-0.243783,-1.8311,-1.04466,2.72906,1.26131,-0.284172,0.3777,-0.62658,-0.529306,1.17113,-0.876977,1.26988,-0.573429,0.3777,-0.62658,-0.529306,1.17113,-0.876977,1.26988,-0.573429,0.12117,-0.359628,1.06808,0.646078,-0.0370679,0.0911848,0.756898,-0.504799,0.0105445,0.18195,0.265358,-0.620091,1.27571,-0.336325,-1.6776,0.340855,-0.370666,-1.76612,0.401041,0.206062,-0.367373,-0.300943,0.672028,-0.431274,0.741772,-0.352449,1
0.909173,-0.287761,-1.86913,-0.964822,2.67446,1.3487,-0.327994,0.909173,-0.287761,-1.86913,-0.964822,2.67446,1.3487,-0.327994,0.883078,-0.249781,-1.83697,-1.03226,2.72053,1.27461,-0.291625,0.160845,-0.562298,-0.549716,1.16297,-0.799618,1.24715,-0.698746,0.160845,-0.562298,-0.549716,1.16297,-0.799618,1.24715,-0.698746,0.114864,-0.358717,1.06993,0.652183,-0.0466151,0.0960375,0.750508,-0.563425,0.00835405,0.181183,0.261404,-0.63754,1.27875,-0.39537,-1.74485,0.303853,-0.36251,-1.74312,0.296212,0.260948,-0.379806,-0.321645,0.674343,-0.460699,0.740844,-0.363688,1
0.914482,-0.297912,-1.87466,-0.953225,2.66947,1.36221,-0.335924,0.914482,-0.297912,-1.87466,-0.953225,2.66947,1.36221,-0.335924,0.887257,-0.25658,-1.84233,-1.02013,2.71288,1.28808,-0.297773,0.391769,-0.637505,-0.502522,1.13645,-0.717534,1.26247,-0.576372,0.391769,-0.637505,-0.502522,1.13645,-0.717534,1.26247,-0.576372,0.109155,-0.35796,1.07143,0.656514,-0.056323,0.100058,0.745524,-0.50139,-0.0042599,0.149381,0.257713,-0.655073,1.28123,-0.369057,-1.75336,0.248158,-0.35812,-1.72697,0.208051,0.272249,-0.413318,-0.323314,0.669093,-0.434063,0.741294,-0.381512,1
0.92753,-0.307674,-1.88069,-0.941527,2.6614,1.37564,-0.341596,0.92753,-0.307674,-1.88069,-0.941527,2.6614,1.37564,-0.341596,0.892105,-0.263478,-1.84825,-1.0079,2.70438,1.30149,-0.304458,0.454514,-0.646655,-0.555893,1.14712,-0.796711,1.25716,-0.62675,0.454514,-0.646655,-0.555893,1.14712,-0.796711,1.25716,-0.62675,0.103676,-0.35726,1.07274,0.661049,-0.0657876,0.104349,0.740133,-0.483898,-0.0104561,0.133472,0.253644,-0.673608,1.2824,-0.406888,-1.85347,0.116765,-0.363441,-1.73258,0.124484,0.354253,-0.441964,-0.32433,0.663726,-0.429761,0.741461,-0.37138,1
0.93497,-0.318007,-1.88949,-0.929755,2.65259,1.38921,-0.35019,0.93497,-0.318007,-1.88949,-0.929755,2.65259,1.38921,-0.35019,0.897055,-0.271095,-1.8541,-0.995805,2.69666,1.31492,-0.311418,0.464073,-0.714131,-0.547548,1.13387,-0.723958,1.25927,-0.652571,0.464073,-0.714131,-0.547548,1.13387,-0.723958,1.25927,-0.652571,0.0978954,-0.357048,1.07372,0.665492,-0.0752775,0.107895,0.734719,-0.508774,-0.0522918,0.103663,0.249916,-0.691401,1.28196,-0.372811,-1.77927,-0.0438333,-0.373318,-1.74947,0.0365725,0.379152,-0.469125,-0.353976,0.660501,-0.440624,0.742918,-0.387716,1
0.946145,-0.329163,-1.89474,-0.918751,2.64591,1.40273,-0.356429,0.946145,-0.329163,-1.89474,-0.918751,2.64591,1.40273,-0.356429,0.903796,-0.279186,-1.85998,-0.983799,2.68886,1.32835,-0.318093,0.632024,-0.758613,-0.551502,1.12567,-0.731131,1.25915,-0.625848,0.632024,-0.758613,-0.551502,1.12567,-0.731131,1.25915,-0.625848,0.0926261,-0.357,1.07443,0.669163,-0.0846867,0.111138,0.729861,-0.459325,-0.0667884,0.0778685,0.245891,-0.708303,1.28034,-0.402549,-1.69021,-0.162005,-0.382614,-1.76304,-0.0562081,0.423488,-0.499771,-0.347586,0.650476,-0.429437,0.743779,-0.383355,1
0.955155,-0.340343,-1.90296,-0.907479,2.63679,1.41596,-0.364639,0.955155,-0.340343,-1.90296,-0.907479,2.63679,1.41596,-0.364639,0.910691,-0.287773,-1.86651,-0.971845,2.68084,1.34181,-0.325193,0.646512,-0.805102,-0.612111,1.1208,-0.752075,1.26219,-0.665637,0.646512,-0.805102,-0.612111,1.1208,-0.752075,1.26219,-0.665637,0.0871857,-0.357411,1.0748,0.673158,-0.0938443,0.114204,0.724575,-0.476805,-0.107584,0.0469578,0.238525,-0.743388,1.27584,-0.330821,-1.75985,-0.301564,-0.386248,-1.7631,-0.255546,0.444632,-0.525696,-0.364505,0.643659,-0.44047,0.741471,-0.394456,1
0.96495,-0.351644,-1.90899,-0.897076,2.63025,1.42945,-0.372735,0.96495,-0.351644,-1.90899,-0.897076,2.63025,1.42945,-0.372735,0.918534,-0.296929,-1.87275,-0.9601,2.67311,1.35529,-0.332102,0.735251,-0.858375,-0.585454,1.10109,-0.724242,1.26331,-0.647792,0.735251,-0.858375,-0.585454,1.10109,-0.724242,1.26331,-0.647792,0.0819714,-0.358138,1.07484,0.676586,-0.10294,0.116752,0.719724,-0.452851,-0.134743,0.0174145,0.235243,-0.760886,1.27229,-0.328201,-1.74986,-0.354981,-0.377614,-1.75495,-0.353794,0.46416,-0.547158,-0.362383,0.63024,-0.428599,0.741586,-0.406323,1
0.973846,-0.361892,-1.91723,-0.885911,2.62218,1.44294,-0.380672,0.973846,-0.361892,-1.91723,-0.885911,2.62218,1.44294,-0.380672,0.926634,-0.306532,-1.87943,-0.948461,2.66508,1.36871,-0.339299,0.759473,-0.900356,-0.626436,1.09131,-0.753281,1.25827,-0.674762,0.759473,-0.900356,-0.626436,1.09131,-0.753281,1.25827,-0.674762,0.0767471,-0.359282,1.07456,0.680196,-0.111722,0.119154,0.714601,-0.455473,-0.171572,-0.0133219,0.235243,-0.760886,1.27229,-0.328201,-1.74986,-0.354981,-0.377614,-1.75495,-0.353794,0.472121,-0.553603,-0.37796,0.625493,-0.428969,0.742311,-0.413723,1
0.984342,-0.373852,-1.92362,-0.877788,2.61703,1.45491,-0.388876,0.984342,-0.373852,-1.92362,-0.877788,2.61703,1.45491,-0.388876,0.934094,-0.315339,-1.88534,-0.938173,2.65805,1.38075,-0.345856,0.821663,-0.966787,-0.629627,1.09437,-0.740286,1.29687,-0.715761,0.821663,-0.966787,-0.629627,1.09437,-0.740286,1.29687,-0.715761,0.0721599,-0.3605,1.07409,0.683322,-0.119491,0.121068,0.710025,-0.456621,-0.206004,-0.0433613,0.230944,-0.779572,1.26746,-0.429964,-1.86853,-0.482464,-0.374338,-1.75695,-0.445208,0.50248,-0.585132,-0.382786,0.603851,-0.410265,0.741664,-0.430205,1
0.993361,-0.385022,-1.93193,-0.869171,2.61075,1.46722,-0.396871,0.993361,-0.385022,-1.93193,-0.869171,2.61075,1.46722,-0.396871,0.941965,-0.324574,-1.89154,-0.927771,2.65095,1.3931,-0.352734,0.848981,-0.993756,-0.683977,1.11468,-0.76622,1.32709,-0.743956,0.848981,-0.993756,-0.683977,1.11468,-0.76622,1.32709,-0.743956,0.0675391,-0.361983,1.07338,0.686509,-0.127302,0.122833,0.705274,-0.461908,-0.227448,-0.0638973,0.226828,-0.797472,1.26134,-0.411588,-1.79008,-0.612175,-0.377681,-1.77089,-0.536358,0.513967,-0.604483,-0.403887,0.586001,-0.402041,0.741209,-0.441376,1
1.00353,-0.397848,-1.94031,-0.860194,2.6042,1.48075,-0.405009,1.00353,-0.397848,-1.94031,-0.860194,2.6042,1.48075,-0.405009,0.951338,-0.335474,-1.89864,-0.916714,2.64345,1.40678,-0.360728,0.878853,-1.02197,-0.665306,1.03658,-0.703643,1.28183,-0.749546,0.878853,-1.02197,-0.665306,1.03658,-0.703643,1.28183,-0.749546,0.0625263,-0.364237,1.07212,0.689965,-0.135653,0.124177,0.700091,-0.432858,-0.268379,-0.104381,0.223102,-0.815404,1.25432,-0.37258,-1.79313,-0.701809,-0.378429,-1.78876,-0.633755,0.521907,-0.623738,-0.416722,0.565204,-0.392453,0.739746,-0.442806,1
1.01408,-0.411186,-1.94921,-0.855932,2.60025,1.49234,-0.412215,1.01408,-0.411186,-1.94921,-0.855932,2.60025,1.49234,-0.412215,0.959698,-0.345276,-1.90514,-0.907091,2.63687,1.41887,-0.367894,0.896407,-1.05841,-0.713389,1.0098,-0.695465,1.28763,-0.771639,0.896407,-1.05841,-0.713389,1.0098,-0.695465,1.28763,-0.771639,0.0581667,-0.366477,1.07077,0.69307,-0.142818,0.125234,0.695394,-0.432544,-0.308416,-0.139528,0.216132,-0.84989,1.23606,-0.364441,-1.71382,-0.975323,-0.378403,-1.78239,-0.862171,0.543859,-0.659106,-0.440688,0.511597,-0.366165,0.734728,-0.443207,1
1.02694,-0.424939,-1.95833,-0.851045,2.59535,1.50573,-0.420114,1.02694,-0.424939,-1.95833,-0.851045,2.59535,1.50573,-0.420114,0.969394,-0.356905,-1.91292,-0.896718,2.62964,1.43256,-0.376104,0.908991,-1.09028,-0.729368,0.972591,-0.67739,1.28332,-0.769716,0.908991,-1.09028,-0.729368,0.972591,-0.67739,1.28332,-0.769716,0.0532859,-0.369612,1.06877,0.696623,-0.150491,0.126019,0.690064,-0.421646,-0.344375,-0.175027,0.212319,-0.866524,1.2259,-0.381383,-1.66338,-1.01619,-0.376597,-1.7601,-0.976741,0.575465,-0.68034,-0.454079,0.456723,-0.342897,0.731771,-0.440097,1
1.03757,-0.43625,-1.96724,-0.848422,2.59092,1.5175,-0.427507,1.03757,-0.43625,-1.96724,-0.848422,2.59092,1.5175,-0.427507,0.978185,-0.367528,-1.92003,-0.888138,2.62355,1.44458,-0.383344,0.956018,-1.16262,-0.777207,0.857664,-0.620488,1.27194,-0.768829,0.956018,-1.16262,-0.777207,0.857664,-0.620488,1.27194,-0.768829,0.0491413,-0.372853,1.0666,0.699686,-0.156844,0.126342,0.685476,-0.402146,-0.42426,-0.24482,0.212319,-0.866524,1.2259,-0.381383,-1.66338,-1.01619,-0.376597,-1.7601,-0.976741,0.593804,-0.687211,-0.472178,0.397154,-0.326257,0.729173,-0.441623,1
1.05044,-0.448959,-1.97616,-0.853697,2.58953,1.52912,-0.434324,1.05044,-0.448959,-1.97616,-0.853697,2.58953,1.52912,-0.434324,0.987636,-0.378801,-1.92755,-0.88044,2.61782,1.45672,-0.390659,1.04668,-1.22865,-0.819586,0.782781,-0.598353,1.30532,-0.784395,1.04668,-1.22865,-0.819586,0.782781,-0.598353,1.30532,-0.784395,0.0452516,-0.376801,1.06384,0.702601,-0.162696,0.126116,0.681158,-0.36734,-0.483143,-0.304617,0.208529,-0.884157,1.21543,-0.378981,-1.76339,-1.04728,-0.368686,-1.73695,-1.07588,0.627989,-0.701573,-0.486062,0.267432,-0.282894,0.724053,-0.436654,1
1.06235,-0.461617,-1.98536,-0.859684,2.58635,1.54061,-0.441521,1.06235,-0.461617,-1.98536,-0.859684,2.58635,1.54061,-0.441521,0.997579,-0.390336,-1.93541,-0.87363,2.61233,1.46894,-0.398043,1.06485,-1.22269,-0.847787,0.671273,-0.570047,1.29302,-0.784635,1.06485,-1.22269,-0.847787,0.671273,-0.570047,1.29302,-0.784635,0.0417697,-0.381206,1.06061,0.705373,-0.168053,0.125585,0.677079,-0.318751,-0.513597,-0.349225,0.204779,-0.902021,1.20422,-0.375018,-1.78637,-1.12095,-0.366971,-1.73188,-1.16098,0.647747,-0.712806,-0.49955,0.139454,-0.259812,0.716661,-0.434782,1
1.07587,-0.475721,-1.99537,-0.884232,2.5962,1.55209,-0.449571,1.07587,-0.475721,-1.99537,-0.884232,2.5962,1.55209,-0.449571,1.00927,-0.403303,-1.94442,-0.86922,2.60729,1.48225,-0.406068,1.09623,-1.21582,-0.845166,0.413405,-0.472846,1.24814,-0.752464,1.09623,-1.21582,-0.845166,0.413405,-0.472846,1.24814,-0.752464,0.0389868,-0.387082,1.05601,0.707903,-0.172525,0.124097,0.673578,-0.22468,-0.570306,-0.428824,0.197046,-0.937927,1.17709,-0.405279,-1.78053,-1.43548,-0.377852,-1.75531,-1.33257,0.665969,-0.724173,-0.509531,-0.150115,-0.110879,0.698359,-0.435033,1
1.09175,-0.487113,-2.00303,-0.903959,2.62,1.56236,-0.457695,1.09175,-0.487113,-2.00303,-0.903959,2.62,1.56236,-0.457695,1.01978,-0.41489,-1.95252,-0.86649,2.60299,1.49397,-0.413164,1.13384,-1.24436,-0.874521,0.181245,-0.443037,1.24197,-0.755157,1.13384,-1.24436,-0.874521,0.181245,-0.443037,1.24197,-0.755157,0.0370283,-0.392674,1.05148,0.710004,-0.175828,0.122547,0.670792,-0.146903,-0.637961,-0.516623,0.197046,-0.937927,1.17709,-0.405279,-1.78053,-1.43548,-0.377852,-1.75531,-1.33257,0.719734,-0.722234,-0.505024,-0.374692,0.170163,0.683867,-0.44531,1
1.10501,-0.500202,-2.01086,-0.92297,2.64703,1.56953,-0.464992,1.10501,-0.500202,-2.01086,-0.92297,2.64703,1.56953,-0.464992,1.03078,-0.426883,-1.96096,-0.867869,2.60046,1.50564,-0.420383,1.20063,-1.30057,-0.916373,-0.435748,-0.113545,1.23708,-0.777312,1.20063,-1.30057,-0.916373,-0.435748,-0.113545,1.23708,-0.777312,0.0361351,-0.399562,1.04562,0.71159,-0.177483,0.119607,0.669204,0.000592489,-0.800548,-0.718611,0.189194,-0.972609,1.14683,-0.354058,-1.78653,-1.54924,-0.388202,-1.76905,-1.52349,0.742234,-0.733195,-0.498958,-0.551007,0.465712,0.638939,-0.446095,1
1.12111,-0.509408,-2.01303,-0.916424,2.64615,1.58382,-0.473839,1.12111,-0.509408,-2.01303,-0.916424,2.64615,1.58382,-0.473839,1.04262,-0.439024,-1.96947,-0.873806,2.60232,1.51712,-0.427794,1.30831,-1.28062,-0.893482,-0.802977,0.470959,1.20474,-0.796284,1.30831,-1.28062,-0.893482,-0.802977,0.470959,1.20474,-0.796284,0.0363122,-0.407724,1.03847,0.712239,-0.177841,0.114092,0.669381,0.108805,-0.866888,-0.818608,0.189194,-0.972609,1.14683,-0.354058,-1.78653,-1.54924,-0.388202,-1.76905,-1.52349,0.784911,-0.703841,-0.435511,-0.426179,0.43836,0.667029,-0.460458,1
1.13188,-0.522407,-2.02299,-0.919393,2.65441,1.59012,-0.484686,1.13188,-0.522407,-2.02299,-0.919393,2.65441,1.59012,-0.484686,1.05505,-0.4512,-1.97782,-0.88271,2.60941,1.52797,-0.435265,1.33044,-1.30496,-0.879952,-1.07213,1.00208,1.10682,-0.791634,1.33044,-1.30496,-0.879952,-1.07213,1.00208,1.10682,-0.791634,0.0370014,-0.416781,1.03049,0.712052,-0.177553,0.105712,0.671031,0.150185,-0.94568,-0.908741,0.181958,-1.00778,1.11316,-0.415343,-1.80276,-1.70913,-0.37961,-1.75433,-1.72073,0.768338,-0.712077,-0.451693,-0.366826,0.450092,0.621481,-0.494213,1
1.14464,-0.534038,-2.03169,-0.930493,2.65971,1.60405,-0.487846,1.14464,-0.534038,-2.03169,-0.930493,2.65971,1.60405,-0.487846,1.06799,-0.463121,-1.98538,-0.890846,2.61763,1.53884,-0.44288,1.41468,-1.23266,-0.736211,-0.681151,0.759703,1.19785,-0.824451,1.41468,-1.23266,-0.736211,-0.681151,0.759703,1.19785,-0.824451,0.0379302,-0.425346,1.02272,0.711482,-0.177914,0.0968234,0.672878,0.176092,-0.780259,-0.780376,0.181958,-1.00778,1.11316,-0.415343,-1.80276,-1.70913,-0.37961,-1.75433,-1.72073,0.766548,-0.709178,-0.463113,-0.39647,0.420815,0.652116,-0.449653,1
1.15685,-0.54606,-2.04042,-0.9361,2.66607,1.61423,-0.497399,1.15685,-0.54606,-2.04042,-0.9361,2.66607,1.61423,-0.497399,1.08101,-0.474887,-1.99267,-0.896853,2.62491,1.54953,-0.451003,1.3548,-1.26548,-0.807438,-0.60024,0.785811,1.08082,-0.897002,1.3548,-1.26548,-0.807438,-0.60024,0.785811,1.08082,-0.897002,0.0387753,-0.433246,1.01546,0.711266,-0.178885,0.0884935,0.673996,0.133982,-0.806133,-0.786872,0.177529,-1.02604,1.09457,-0.442916,-1.82623,-1.85894,-0.383968,-1.75881,-1.80898,0.758463,-0.711733,-0.477562,-0.39247,0.411621,0.647022,-0.463962,1
1.17019,-0.559957,-2.04909,-0.949449,2.67461,1.62649,-0.502306,1.17019,-0.559957,-2.04909,-0.949449,2.67461,1.62649,-0.502306,1.09508,-0.487971,-2.0013,-0.904294,2.6326,1.56159,-0.459153,1.31985,-1.22679,-0.809386,-0.697693,0.721749,1.13078,-0.764107,1.31985,-1.22679,-0.809386,-0.697693,0.721749,1.13078,-0.764107,0.0400216,-0.442141,1.00692,0.710983,-0.179282,0.0795344,0.675304,0.186112,-0.781346,-0.819243,0.170472,-1.06144,1.0541,-0.335145,-1.77361,-2.07738,-0.378957,-1.78055,-2.00081,0.751084,-0.71986,-0.477882,-0.451544,0.420052,0.649036,-0.431531,1
1.18342,-0.570935,-2.05677,-0.953994,2.68095,1.63838,-0.510165,1.18342,-0.570935,-2.05677,-0.953994,2.68095,1.63838,-0.510165,1.10748,-0.499574,-2.00905,-0.910748,2.63935,1.57218,-0.466622,1.31479,-1.23795,-0.835525,-0.675125,0.711607,1.11989,-0.819608,1.31479,-1.23795,-0.835525,-0.675125,0.711607,1.11989,-0.819608,0.0412922,-0.449939,0.999242,0.710918,-0.179457,0.0716112,0.676211,0.194772,-0.778912,-0.834206,0.170472,-1.06144,1.0541,-0.335145,-1.77361,-2.07738,-0.378957,-1.78055,-2.00081,0.759386,-0.713615,-0.477178,-0.432459,0.416029,0.662027,-0.435433,1
1.19606,-0.582268,-2.06391,-0.96288,2.6886,1.64906,-0.516058,1.19606,-0.582268,-2.06391,-0.96288,2.6886,1.64906,-0.516058,1.11997,-0.51149,-2.01701,-0.917925,2.64626,1.58292,-0.474006,1.33738,-1.29065,-0.85429,-0.839457,0.75489,1.16028,-0.753582,1.33738,-1.29065,-0.85429,-0.839457,0.75489,1.16028,-0.753582,0.0428763,-0.457968,0.991064,0.710811,-0.179172,0.0634402,0.677215,0.248112,-0.817429,-0.921634,0.16701,-1.07859,1.0318,-0.346261,-1.7157,-2.22995,-0.378442,-1.77589,-2.11305,0.760885,-0.707787,-0.469061,-0.449554,0.423343,0.661334,-0.420517,1
1.20857,-0.594459,-2.07316,-0.972521,2.69687,1.66042,-0.522627,1.20857,-0.594459,-2.07316,-0.972521,2.69687,1.66042,-0.522627,1.13263,-0.523501,-2.025,-0.925432,2.65328,1.59396,-0.48119,1.3524,-1.26315,-0.845767,-0.76059,0.7369,1.18299,-0.771594,1.3524,-1.26315,-0.845767,-0.76059,0.7369,1.18299,-0.771594,0.0447929,-0.465955,0.982586,0.710556,-0.178717,0.0551954,0.678324,0.266429,-0.772253,-0.902923,0.162767,-1.09554,1.00837,-0.424254,-1.69508,-2.34373,-0.382089,-1.76575,-2.2316,0.759415,-0.709588,-0.481512,-0.470896,0.435922,0.66461,-0.414373,1
1.22072,-0.606815,-2.08117,-0.984439,2.70548,1.67082,-0.52874,1.22072,-0.606815,-2.08117,-0.984439,2.70548,1.67082,-0.52874,1.14535,-0.535325,-2.03287,-0.932794,2.6603,1.60504,-0.488292,1.35025,-1.25006,-0.82663,-0.801166,0.753576,1.17215,-0.739399,1.35025,-1.25006,-0.82663,-0.801166,0.753576,1.17215,-0.739399,0.0469795,-0.473653,0.974089,0.710229,-0.178256,0.0470331,0.679402,0.303018,-0.754147,-0.920792,0.155157,-1.1297,0.961057,-0.380802,-1.71974,-2.37471,-0.373352,-1.72396,-2.43723,0.753643,-0.714904,-0.482983,-0.516457,0.451842,0.657773,-0.40448,1
1.23423,-0.617378,-2.08806,-0.989436,2.71096,1.68307,-0.535038,1.23423,-0.617378,-2.08806,-0.989436,2.71096,1.68307,-0.535038,1.15804,-0.547141,-2.04082,-0.940582,2.66753,1.61611,-0.495205,1.34572,-1.26004,-0.861008,-0.850522,0.781316,1.17989,-0.730213,1.34572,-1.26004,-0.861008,-0.850522,0.781316,1.17989,-0.730213,0.0494484,-0.481309,0.965324,0.70984,-0.177463,0.0387636,0.680537,0.324734,-0.755833,-0.958726,0.155157,-1.1297,0.961057,-0.380802,-1.71974,-2.37471,-0.373352,-1.72396,-2.43723,0.761899,-0.702373,-0.472415,-0.488541,0.43432,0.669552,-0.39833,1
1.24614,-0.630009,-2.09685,-0.999957,2.71983,1.69345,-0.541292,1.24614,-0.630009,-2.09685,-0.999957,2.71983,1.69345,-0.541292,1.17064,-0.55906,-2.04892,-0.949047,2.67503,1.62713,-0.501989,1.33338,-1.27168,-0.858844,-0.942464,0.810859,1.16323,-0.712337,1.33338,-1.27168,-0.858844,-0.942464,0.810859,1.16323,-0.712337,0.0522029,-0.489027,0.956167,0.709425,-0.176187,0.0302897,0.681731,0.359473,-0.757538,-1.00453,0.147998,-1.16603,0.909438,-0.362825,-1.80531,-2.68661,-0.377865,-1.7382,-2.60108,0.754993,-0.709493,-0.479382,-0.509102,0.448029,0.663158,-0.39303,1
1.25961,-0.643153,-2.10597,-1.00916,2.72601,1.70635,-0.547175,1.25961,-0.643153,-2.10597,-1.00916,2.72601,1.70635,-0.547175,1.18471,-0.57196,-2.05757,-0.957981,2.68298,1.63951,-0.5093,1.31867,-1.20946,-0.811878,-0.83761,0.745142,1.15997,-0.685397,1.31867,-1.20946,-0.811878,-0.83761,0.745142,1.15997,-0.685397,0.0555724,-0.49705,0.946145,0.708825,-0.174936,0.0212437,0.683018,0.374452,-0.683997,-0.954307,0.143992,-1.18323,0.88183,-0.400597,-1.72031,-2.76077,-0.37833,-1.75124,-2.6867,0.749054,-0.711931,-0.483946,-0.511801,0.430316,0.668443,-0.378751,1
1.27267,-0.656237,-2.11489,-1.01819,2.73343,1.71817,-0.554168,1.27267,-0.656237,-2.11489,-1.01819,2.73343,1.71817,-0.554168,1.1983,-0.5848,-2.06626,-0.967266,2.69113,1.65144,-0.516376,1.27407,-1.20387,-0.814595,-0.870535,0.764332,1.11872,-0.663486,1.27407,-1.20387,-0.814595,-0.870535,0.764332,1.11872,-0.663486,0.0590568,-0.504996,0.935906,0.708314,-0.173169,0.012108,0.684221,0.381933,-0.672641,-0.974677,0.140059,-1.20028,0.853347,-0.393295,-1.70457,-2.84832,-0.375825,-1.75704,-2.78081,0.743763,-0.714374,-0.486239,-0.509259,0.423024,0.667366,-0.377913,1
1.28548,-0.666736,-2.12201,-1.02519,2.73897,1.72987,-0.558764,1.28548,-0.666736,-2.12201,-1.02519,2.73897,1.72987,-0.558764,1.21046,-0.596345,-2.0741,-0.975579,2.6982,1.66225,-0.522579,1.30882,-1.24646,-0.848627,-0.894266,0.74041,1.17443,-0.654964,1.30882,-1.24646,-0.848627,-0.894266,0.74041,1.17443,-0.654964,0.06238,-0.511932,0.926569,0.707858,-0.171434,0.0040706,0.685223,0.410722,-0.673111,-1.02094,0.140059,-1.20028,0.853347,-0.393295,-1.70457,-2.84832,-0.375825,-1.75704,-2.78081,0.750161,-0.703912,-0.479137,-0.49609,0.40761,0.676282,-0.361844,1
1.2977,-0.678789,-2.13081,-1.03501,2.74734,1.74086,-0.564528,1.2977,-0.678789,-2.13081,-1.03501,2.74734,1.74086,-0.564528,1.22287,-0.608236,-2.0822,-0.984068,2.70523,1.67339,-0.528841,1.32622,-1.27823,-0.87048,-0.908683,0.751071,1.19252,-0.67442,1.32622,-1.27823,-0.87048,-0.908683,0.751071,1.19252,-0.67442,0.0659427,-0.518874,0.916841,0.707436,-0.169489,-0.0040248,0.686143,0.430916,-0.670419,-1.05719,0.13637,-1.21779,0.824161,-0.368911,-1.75167,-2.9186,-0.377201,-1.75809,-2.88509,0.748349,-0.705526,-0.486138,-0.509412,0.421165,0.674707,-0.356867,1
1.30989,-0.690683,-2.13898,-1.04379,2.75292,1.75249,-0.569484,1.30989,-0.690683,-2.13898,-1.04379,2.75292,1.75249,-0.569484,1.23539,-0.620088,-2.09027,-0.992439,2.71212,1.68467,-0.534984,1.33381,-1.2422,-0.845428,-0.872084,0.714971,1.2037,-0.633239,1.33381,-1.2422,-0.845428,-0.872084,0.714971,1.2037,-0.633239,0.0697378,-0.525549,0.907035,0.706956,-0.167506,-0.0119872,0.68703,0.456828,-0.620339,-1.03802,0.132825,-1.23496,0.794236,-0.354427,-1.71697,-2.99244,-0.376593,-1.74881,-2.98871,0.744992,-0.705955,-0.487126,-0.513481,0.407997,0.678205,-0.345002,1
1.32288,-0.704111,-2.14879,-1.05493,2.7614,1.7646,-0.575914,1.32288,-0.704111,-2.14879,-1.05493,2.7614,1.7646,-0.575914,1.24917,-0.633072,-2.09924,-1.00186,2.71991,1.6971,-0.541519,1.29231,-1.21739,-0.840862,-0.882869,0.73057,1.16531,-0.612715,1.29231,-1.21739,-0.840862,-0.882869,0.73057,1.16531,-0.612715,0.0741489,-0.532683,0.896052,0.706369,-0.165087,-0.0207755,0.68801,0.461311,-0.59238,-1.0405,0.124787,-1.27062,0.731509,-0.371248,-1.74356,-3.21939,-0.385169,-1.74421,-3.16125,0.737079,-0.710387,-0.495537,-0.530735,0.414914,0.674978,-0.343954,1
1.33647,-0.716164,-2.15719,-1.06143,2.76456,1.77798,-0.581115,1.33647,-0.716164,-2.15719,-1.06143,2.76456,1.77798,-0.581115,1.26261,-0.645816,-2.10803,-1.01113,2.72721,1.70935,-0.547705,1.25916,-1.19478,-0.824238,-0.869606,0.684532,1.14874,-0.57996,1.25916,-1.19478,-0.824238,-0.869606,0.684532,1.14874,-0.57996,0.0786845,-0.539414,0.885128,0.705777,-0.162514,-0.0291655,0.688925,0.468783,-0.555829,-1.03375,0.124787,-1.27062,0.731509,-0.371248,-1.74356,-3.21939,-0.385169,-1.74421,-3.16125,0.738642,-0.703483,-0.491677,-0.503039,0.373518,0.686245,-0.334106,1
1.34859,-0.727583,-2.16503,-1.07133,2.77319,1.78853,-0.585629,1.34859,-0.727583,-2.16503,-1.07133,2.77319,1.78853,-0.585629,1.27459,-0.657318,-2.11603,-1.01966,2.73389,1.72032,-0.553278,1.28596,-1.24605,-0.872447,-0.939088,0.732486,1.17915,-0.602786,1.28596,-1.24605,-0.872447,-0.939088,0.732486,1.17915,-0.602786,0.082899,-0.54533,0.875097,0.705311,-0.159928,-0.0367486,0.689645,0.494382,-0.565712,-1.10054,0.121251,-1.28788,0.69827,-0.353593,-1.72601,-3.32392,-0.380831,-1.75013,-3.25291,0.739996,-0.702651,-0.490073,-0.516639,0.393008,0.682145,-0.323513,1
1.36126,-0.741641,-2.17535,-1.08211,2.7802,1.80099,-0.591686,1.36126,-0.741641,-2.17535,-1.08211,2.7802,1.80099,-0.591686,1.28828,-0.670335,-2.12513,-1.0289,2.74068,1.73307,-0.559435,1.28334,-1.22045,-0.853822,-0.866324,0.636065,1.19585,-0.577342,1.28334,-1.22045,-0.853822,-0.866324,0.636065,1.19585,-0.577342,0.0878782,-0.551627,0.863735,0.70479,-0.157077,-0.0448042,0.690356,0.50597,-0.514458,-1.07303,0.113425,-1.32274,0.627786,-0.413549,-1.73628,-3.60507,-0.380752,-1.75125,-3.46914,0.729802,-0.713066,-0.502221,-0.532093,0.395202,0.67915,-0.322507,1
1.37408,-0.754188,-2.18405,-1.09092,2.78575,1.81341,-0.596343,1.37408,-0.754188,-2.18405,-1.09092,2.78575,1.81341,-0.596343,1.30162,-0.682998,-2.13396,-1.03829,2.74787,1.74534,-0.565229,1.25086,-1.18732,-0.827535,-0.879864,0.674387,1.15023,-0.543251,1.25086,-1.18732,-0.827535,-0.879864,0.674387,1.15023,-0.543251,0.0929498,-0.557579,0.852436,0.704168,-0.15398,-0.0529263,0.691112,0.51272,-0.480261,-1.06602,0.109367,-1.3394,0.590755,-0.405794,-1.66663,-3.70312,-0.384822,-1.73991,-3.59268,0.724616,-0.711897,-0.500923,-0.526281,0.378823,0.680728,-0.311134,1
1.38665,-0.765171,-2.19121,-1.09878,2.79147,1.82467,-0.600562,1.38665,-0.765171,-2.19121,-1.09878,2.79147,1.82467,-0.600562,1.3135,-0.694512,-2.14205,-1.04686,2.75429,1.75636,-0.570453,1.27188,-1.25507,-0.887044,-0.938704,0.689805,1.1885,-0.56543,1.27188,-1.25507,-0.887044,-0.938704,0.689805,1.1885,-0.56543,0.097594,-0.562804,0.842047,0.703717,-0.150917,-0.0601878,0.691653,0.530575,-0.491669,-1.13989,0.109367,-1.3394,0.590755,-0.405794,-1.66663,-3.70312,-0.384822,-1.73991,-3.59268,0.731507,-0.706592,-0.491629,-0.519178,0.371725,0.683159,-0.301089,1
1.39885,-0.777262,-2.19983,-1.10804,2.79876,1.83609,-0.605488,1.39885,-0.777262,-2.19983,-1.10804,2.79876,1.83609,-0.605488,1.32557,-0.706411,-2.15043,-1.05569,2.76068,1.76769,-0.575697,1.29189,-1.2723,-0.895205,-0.937942,0.667762,1.21762,-0.549796,1.29189,-1.2723,-0.895205,-0.937942,0.667762,1.21762,-0.549796,0.102438,-0.567975,0.831224,0.703308,-0.147576,-0.0674796,0.692116,0.551396,-0.467662,-1.16025,0.105629,-1.35606,0.554304,-0.373846,-1.66597,-3.6451,-0.383142,-1.71803,-3.70068,0.732831,-0.708507,-0.493916,-0.523424,0.380823,0.683967,-0.297907,1
1.41217,-0.790452,-2.20918,-1.11586,2.80349,1.84943,-0.609742,1.41217,-0.790452,-2.20918,-1.11586,2.80349,1.84943,-0.609742,1.33908,-0.719409,-2.15945,-1.06523,2.76749,1.7803,-0.581197,1.26677,-1.21867,-0.845622,-0.893597,0.638579,1.18183,-0.515696,1.26677,-1.21867,-0.845622,-0.893597,0.638579,1.18183,-0.515696,0.108051,-0.573238,0.819345,0.702667,-0.143945,-0.0753008,0.692726,0.557218,-0.412831,-1.11805,0.102296,-1.37324,0.517185,-0.333285,-1.71752,-3.71185,-0.381833,-1.708,-3.78566,0.730891,-0.710427,-0.497217,-0.506329,0.360071,0.69133,-0.285449,1
1.42453,-0.803962,-2.21909,-1.12616,2.81237,1.86122,-0.614569,1.42453,-0.803962,-2.21909,-1.12616,2.81237,1.86122,-0.614569,1.3523,-0.732206,-2.16838,-1.07469,2.7744,1.79264,-0.58657,1.23966,-1.19986,-0.837314,-0.887906,0.648566,1.15711,-0.503779,1.23966,-1.19986,-0.837314,-0.887906,0.648566,1.15711,-0.503779,0.113666,-0.578176,0.807506,0.702081,-0.14015,-0.0830261,0.693215,0.555077,-0.3823,-1.11332,0.0947439,-1.40885,0.438365,-0.399607,-1.7938,-4.02535,-0.374616,-1.71638,-3.944,0.722254,-0.717556,-0.507079,-0.514604,0.379686,0.685848,-0.27999,1
1.4382,-0.816574,-2.22765,-1.13308,2.816,1.87467,-0.618295,1.4382,-0.816574,-2.22765,-1.13308,2.816,1.87467,-0.618295,1.36554,-0.74509,-2.17741,-1.0838,2.78084,1.8052,-0.591696,1.24164,-1.208,-0.846003,-0.853707,0.603316,1.17785,-0.480578,1.24164,-1.208,-0.846003,-0.853707,0.603316,1.17785,-0.480578,0.119356,-0.58279,0.795622,0.701508,-0.136381,-0.0903751,0.693628,0.559653,-0.354178,-1.11647,0.0947439,-1.40885,0.438365,-0.399607,-1.7938,-4.02535,-0.374616,-1.71638,-3.944,0.726602,-0.714841,-0.502467,-0.492844,0.351584,0.694675,-0.265986,1
1.44987,-0.828184,-2.23562,-1.14207,2.82345,1.8854,-0.621718,1.44987,-0.828184,-2.23562,-1.14207,2.82345,1.8854,-0.621718,1.37731,-0.756711,-2.1856,-1.0921,2.78689,1.81637,-0.596255,1.25741,-1.25829,-0.891913,-0.906872,0.678523,1.19446,-0.487719,1.25741,-1.25829,-0.891913,-0.906872,0.678523,1.19446,-0.487719,0.124487,-0.586775,0.784783,0.701061,-0.132753,-0.0970503,0.693882,0.570522,-0.35528,-1.17826,0.0905274,-1.42636,0.396622,-0.421643,-1.75122,-4.1743,-0.374389,-1.73067,-4.03556,0.725645,-0.714723,-0.500169,-0.499665,0.365592,0.690346,-0.254625,1
1.46335,-0.841702,-2.24529,-1.15006,2.82941,1.89868,-0.62575,1.46335,-0.841702,-2.24529,-1.15006,2.82941,1.89868,-0.62575,1.39078,-0.769953,-2.1949,-1.10117,2.79333,1.82926,-0.60113,1.26294,-1.24154,-0.872198,-0.849984,0.603604,1.20909,-0.457094,1.26294,-1.24154,-0.872198,-0.849984,0.603604,1.20909,-0.457094,0.130435,-0.59094,0.772479,0.700485,-0.128703,-0.104278,0.694178,0.580685,-0.310338,-1.15418,0.0864662,-1.443,0.355018,-0.406122,-1.66397,-4.16036,-0.380207,-1.7392,-4.13354,0.725667,-0.717492,-0.503915,-0.488971,0.360825,0.694127,-0.246203,1
1.47589,-0.854942,-2.25487,-1.15852,2.83629,1.9111,-0.62948,1.47589,-0.854942,-2.25487,-1.15852,2.83629,1.9111,-0.62948,1.40385,-0.782834,-2.20391,-1.11021,2.79999,1.84168,-0.605684,1.22561,-1.20769,-0.844408,-0.848276,0.624709,1.16431,-0.426977,1.22561,-1.20769,-0.844408,-0.848276,0.624709,1.16431,-0.426977,0.136333,-0.594738,0.760353,0.699861,-0.124506,-0.111442,0.694459,0.573798,-0.275984,-1.13642,0.0835409,-1.45962,0.313017,-0.292528,-1.66205,-4.20014,-0.379056,-1.73439,-4.23639,0.72036,-0.721084,-0.509633,-0.483064,0.362994,0.694148,-0.237962,1
1.48884,-0.868176,-2.2644,-1.16763,2.84352,1.92361,-0.633566,1.48884,-0.868176,-2.2644,-1.16763,2.84352,1.92361,-0.633566,1.41701,-0.795855,-2.21306,-1.11903,2.8065,1.85429,-0.610123,1.23391,-1.22092,-0.858323,-0.826477,0.610158,1.18206,-0.416171,1.23391,-1.22092,-0.858323,-0.826477,0.610158,1.18206,-0.416171,0.142298,-0.598261,0.748113,0.699278,-0.120267,-0.118411,0.69464,0.578366,-0.250936,-1.14615,0.0804947,-1.4761,0.270033,-0.304621,-1.64849,-4.29839,-0.371712,-1.71487,-4.32859,0.718267,-0.723204,-0.513354,-0.485976,0.370225,0.693218,-0.234431,1
1.50127,-0.881688,-2.27444,-1.17788,2.85274,1.93566,-0.63824,1.50127,-0.881688,-2.27444,-1.17788,2.84842,1.93566,-0.63824,1.43003,-0.808925,-2.22231,-1.12776,2.81309,1.86685,-0.614405,1.22107,-1.22544,-0.867103,-0.819046,0.617877,1.17817,-0.40147,1.22107,-1.22544,-0.867103,-0.819046,0.617877,1.17817,-0.40147,0.14823,-0.601542,0.735778,0.69876,-0.115883,-0.12529,0.6947,0.573427,-0.228084,-1.15427,0.0715875,-1.51167,0.18039,-0.448734,-1.71442,-4.56735,-0.372664,-1.70678,-4.48581,0.712387,-0.727627,-0.521246,-0.501187,0.396505,0.688094,-0.238353,1
1.51318,-0.893319,-2.28255,-1.18592,2.85893,1.94703,-0.641381,1.51318,-0.893319,-2.28255,-1.18592,2.84842,1.94703,-0.641381,1.4417,-0.820659,-2.23063,-1.13564,2.81907,1.87811,-0.618219,1.25527,-1.26532,-0.899141,-0.851833,0.651103,1.21161,-0.408661,1.25527,-1.26532,-0.899141,-0.851833,0.651103,1.21161,-0.408661,0.153608,-0.604237,0.724631,0.698325,-0.111802,-0.131403,0.694676,0.593816,-0.210713,-1.20002,0.0680109,-1.52889,0.133958,-0.357658,-1.72192,-4.64315,-0.37419,-1.71366,-4.57215,0.71477,-0.7266,-0.51915,-0.502785,0.398524,0.689194,-0.231619,1
1.57015,-0.915699,-2.21744,-1.21747,2.92377,1.9949,-0.640155,1.57015,-0.915699,-2.21744,-1.21747,2.84842,1.9949,-0.640155,1.51318,-0.893319,-2.28255,-1.18592,2.84842,1.94703,-0.641381,1.03269e-06,-1.04692e-06,-7.46806e-07,-7.24344e-07,3.94069e-07,9.95068e-07,-3.30269e-07,1.03269e-06,-1.04692e-06,-7.46806e-07,-7.24344e-07,3.94069e-07,9.95068e-07,-3.30269e-07,0.188703,-0.614696,0.654541,0.695814,-0.0826858,-0.163563,0.694444,5.15153e-07,-2.20772e-08,-1.01097e-06,1.03105,-1.56583,0.326936,94.2245,2.80162,53.0801,10.0955,0.300171,5.48715,0.569761,-0.223796,0.651035,-0.315576,0.753564,0.478692,0.0122592,1
1.57403,-0.920209,-2.21498,-1.2215,2.92336,1.98933,-0.649284,1.57403,-0.920209,-2.21498,-1.2215,2.84842,1.98933,-0.649284,1.51318,-0.893319,-2.28255,-1.18592,2.84842,1.94703,-0.641381,8.04261e-07,-8.15343e-07,-5.81613e-07,-5.64119e-07,3.06901e-07,7.7496e-07,-2.57214e-07,8.04261e-07,-8.15343e-07,-5.81613e-07,-5.64119e-07,3.06901e-07,7.7496e-07,-2.57214e-07,0.188703,-0.614696,0.654541,0.695814,-0.0826858,-0.163563,0.694444,4.01202e-07,-1.71937e-08,-7.87347e-07,1.03,-1.56294,0.326157,-0.104988,0.288928,-0.0779063,16.8146,0.531244,9.27024,0.608497,-0.268904,0.675689,-0.35583,0.749489,0.423009,-0.0790221,1
1.5873,-0.928898,-2.20099,-1.22939,2.92397,2.00399,-0.648249,1.5873,-0.928898,-2.20099,-1.22939,2.84842,2.00399,-0.648249,1.52578,-0.898269,-2.26815,-1.1929,2.84842,1.95762,-0.64111,1.18161,-0.464124,1.35017,-0.654465,2.39015e-07,0.992748,0.0254244,1.18161,-0.464124,1.35017,-0.654465,2.39015e-07,0.992748,0.0254244,0.198726,-0.609861,0.651824,0.686854,-0.085512,-0.169973,0.701447,0.977989,0.500009,-0.230014,1.02673,-1.5597,0.327144,-0.326359,0.323725,0.0986397,20.1373,0.686625,11.171,0.615229,-0.306281,0.671547,-0.364925,0.755548,0.463719,-0.0713921,1
1.59759,-0.932923,-2.18914,-1.23526,2.92395,2.01031,-0.648541,1.59759,-0.932923,-2.18914,-1.23526,2.84842,2.01031,-0.648541,1.53645,-0.903123,-2.25639,-1.19922,2.84842,1.96463,-0.642918,1.00057,-0.455008,1.10264,-0.593181,1.86145e-07,0.657674,-0.169506,1.00057,-0.455008,1.10264,-0.593181,1.86145e-07,0.657674,-0.169506,0.207326,-0.606096,0.649019,0.679929,-0.0862357,-0.17582,0.706646,0.832649,0.402746,-0.242742,1.02272,-1.55561,0.328237,-0.40133,0.40952,0.10936,20.0672,0.763944,11.1869,0.611427,-0.298007,0.672437,-0.360367,0.755344,0.456756,-0.0562249,1
1.60795,-0.938331,-2.17753,-1.24217,2.92399,2.02059,-0.648807,1.60795,-0.938331,-2.17753,-1.24217,2.84842,2.01062,-0.648807,1.5477,-0.908824,-2.24413,-1.2059,2.84842,1.97334,-0.644097,1.05458,-0.53454,1.1488,-0.625598,1.4497e-07,0.816217,-0.110563,1.05458,-0.53454,1.1488,-0.625598,1.4497e-07,0.816217,-0.110563,0.216136,-0.601986,0.645711,0.672443,-0.0874213,-0.182078,0.712057,0.855306,0.436854,-0.287125,1.01949,-1.55192,0.328742,-0.323296,0.368345,0.0504792,16.6271,0.744166,9.30796,0.60249,-0.295067,0.665994,-0.362774,0.755773,0.472513,-0.0470957,1
1.61516,-0.941028,-2.1679,-1.24481,2.92421,2.03405,-0.639316,1.61516,-0.941028,-2.1679,-1.24481,2.84842,2.01062,-0.639316,1.55874,-0.914155,-2.23197,-1.21239,2.84842,1.98152,-0.64508,1.0348,-0.499813,1.14049,-0.609004,1.12908e-07,0.766746,-0.0921521,1.0348,-0.499813,1.14049,-0.609004,1.12908e-07,0.766746,-0.0921521,0.224729,-0.597744,0.642725,0.664926,-0.0885143,-0.188207,0.717368,0.832815,0.449006,-0.256946,1.01949,-1.55192,0.328742,0,0,0,9.86307,0.574665,5.52682,0.564191,-0.268734,0.640695,-0.324156,0.757932,0.525283,0.0576415,1
1.58919,-0.94611,-2.23591,-1.20417,2.91067,2.05958,-0.66658,1.58919,-0.94611,-2.23591,-1.20417,2.84842,2.01062,-0.66658,1.56962,-0.919502,-2.21993,-1.21898,2.84842,1.98796,-0.645905,1.02065,-0.501403,1.12898,-0.617673,8.79329e-08,0.603665,-0.0772902,1.02065,-0.501403,1.12898,-0.617673,8.79329e-08,0.603665,-0.0772902,0.233324,-0.593615,0.639774,0.657291,-0.0886672,-0.194412,0.722711,0.827233,0.444848,-0.254033,1.01949,-1.55192,0.328742,0,0,0,-0.224804,0.255448,-0.156482,0.195692,-0.266075,-0.159865,0.14809,0.622568,0.716284,-0.206754,1
1.62101,-0.932718,-2.24049,-1.21409,2.91539,2.06977,-0.671938,1.62101,-0.932718,-2.24049,-1.21409,2.84842,2.01062,-0.671938,1.57969,-0.924264,-2.20842,-1.22469,2.84842,1.99297,-0.644447,0.94435,-0.446438,1.07906,-0.535664,6.84822e-08,0.470135,0.136643,0.94435,-0.446438,1.07906,-0.535664,6.84822e-08,0.470135,0.136643,0.241261,-0.589708,0.637402,0.649261,-0.0888406,-0.200112,0.72837,0.762489,0.420881,-0.201279,1.01949,-1.55192,0.328742,0,0,0,-0.175911,0.186743,-0.159086,0.413132,-0.0845414,-0.320697,0.106063,0.669785,0.767982,-0.274909,1
1.63237,-0.934135,-2.23749,-1.16925,2.90582,2.06481,-0.66069,1.63237,-0.934135,-2.23749,-1.16925,2.84842,2.01062,-0.66069,1.58179,-0.929096,-2.2145,-1.22015,2.84842,1.99687,-0.649343,0.196969,-0.45308,-0.570241,0.425623,5.33339e-08,0.366141,-0.459028,0.196969,-0.45308,-0.570241,0.425623,5.33339e-08,0.366141,-0.459028,0.240451,-0.591548,0.634555,0.653231,-0.0890339,-0.199853,0.72486,-0.071869,-0.182499,-0.267818,1.01949,-1.55192,0.328742,0,0,0,-0.100731,0.109652,-0.179269,0.505737,-0.0503911,-0.22993,0.509015,0.57405,0.679303,-0.113473,1
1.63347,-0.953834,-2.27529,-1.16833,2.88734,2.07514,-0.682898,1.63347,-0.953834,-2.27529,-1.16833,2.84842,2.01062,-0.682898,1.58717,-0.931286,-2.21977,-1.21778,2.84842,1.99992,-0.653785,0.901114,-0.0381355,-0.551612,0.098442,4.15365e-08,0.285151,-0.483412,0.901114,-0.0381355,-0.551612,0.098442,4.15365e-08,0.285151,-0.483412,0.242205,-0.591537,0.632849,0.655085,-0.0886385,-0.199203,0.723412,0.405443,0.151979,-0.110385,1.01949,-1.55192,0.328742,0,0,0,-0.034638,0.0394651,-0.194592,0.462978,-0.225475,-0.555194,0.494546,0.389213,0.752198,-0.291123,1
1.51937,-0.916251,-2.29565,-1.26405,2.89677,1.96603,-0.619418,1.51937,-0.916251,-2.29565,-1.26405,2.84842,1.96603,-0.619418,1.59717,-0.931916,-2.22369,-1.20705,2.84842,2.00228,-0.655313,0.93742,-0.0590927,-0.367485,1.00653,3.23487e-08,0.222076,-0.143206,0.93742,-0.0590927,-0.367485,1.00653,3.23487e-08,0.222076,-0.143206,0.245257,-0.590808,0.634656,0.654998,-0.092219,-0.197784,0.723433,0.299791,0.0430759,0.170438,0.219369,-0.563433,0.643516,-80.0119,98.8489,31.4774,-8.5727,10.5909,3.17258,-0.777965,0.15665,-0.719575,-0.57001,0.483566,-0.362537,0.358947,1
1.5243,-0.922983,-2.3023,-1.25107,2.89217,1.96036,-0.616581,1.5243,-0.922983,-2.3023,-1.25107,2.84842,1.96036,-0.616581,1.60508,-0.934722,-2.23119,-1.19858,2.84842,2.00413,-0.659112,0.755882,-0.508956,-1.17456,0.805585,2.51932e-08,0.172953,-0.633429,0.755882,-0.508956,-1.17456,0.805585,2.51932e-08,0.172953,-0.633429,0.247204,-0.591487,0.633899,0.657242,-0.0930212,-0.196281,0.721703,0.123207,-0.211185,-0.309482,0.225534,-0.56176,0.640626,0.616452,0.167298,-0.289029,-14.2218,17.6695,5.39,-0.80784,0.117387,-0.711079,-0.524903,0.437534,-0.437734,0.425303,1
1.51274,-0.911246,-2.30817,-1.2509,2.88993,1.95024,-0.608363,1.51274,-0.911246,-2.30817,-1.2509,2.84842,1.95024,-0.608363,1.59501,-0.932551,-2.23876,-1.20627,2.84842,1.99965,-0.654448,-2.01424,0.434058,-1.51489,-1.53855,2.22318e-08,-0.895313,0.932805,-2.01424,0.434058,-1.51489,-1.53855,2.22318e-08,-0.895313,0.932805,0.242347,-0.594043,0.631787,0.659893,-0.0879692,-0.193422,0.720687,0,0,0,0.231381,-0.561923,0.638906,0.584731,-0.0162363,-0.172007,-16.9727,21.21,6.47512,-0.822679,0.213056,-0.694068,-0.446288,0.415181,-0.494085,0.460846,1
1.51272,-0.911095,-2.30806,-1.25096,2.89037,1.9498,-0.608168,1.51272,-0.911095,-2.30806,-1.25096,2.84842,1.9498,-0.608168,1.59501,-0.932551,-2.23876,-1.20627,2.84842,1.99965,-0.654448,-2.01424,0.434058,-1.51489,-1.53855,2.22318e-08,-0.895313,0.932805,-2.01424,0.434058,-1.51489,-1.53855,2.22318e-08,-0.895313,0.932805,0.242347,-0.594043,0.631787,0.659893,-0.0879692,-0.193422,0.720687,0,0,0,0.236495,-0.562688,0.636604,0.511348,-0.076586,-0.230241,-16.8541,21.2066,6.42784,-0.822867,0.214565,-0.69301,-0.446874,0.419587,-0.498528,0.462794,1
1.51262,-0.911361,-2.30788,-1.25073,2.88845,1.94915,-0.609654,1.51262,-0.911361,-2.30788,-1.25073,2.84842,1.94915,-0.609654,1.59501,-0.932551,-2.23876,-1.20627,2.84842,1.99965,-0.654448,-2.01424,0.434058,-1.51489,-1.53855,2.22318e-08,-0.895313,0.932805,-2.01424,0.434058,-1.51489,-1.53855,2.22318e-08,-0.895313,0.932805,0.242347,-0.594043,0.631787,0.659893,-0.0879692,-0.193422,0.720687,0,0,0,0.241844,-0.565418,0.634205,0.534964,-0.272977,-0.239897,-13.8818,17.641,5.25536,-0.823892,0.211909,-0.691177,-0.444572,0.400357,-0.50498,0.447933,1
1.51227,-0.912365,-2.30728,-1.24827,2.87997,1.94786,-0.616074,1.51227,-0.912365,-2.30728,-1.24827,2.84842,1.94786,-0.616074,1.59501,-0.932551,-2.23876,-1.20627,2.84842,1.99965,-0.654448,-2.01424,0.434058,-1.51489,-1.53855,2.22318e-08,-0.895313,0.932805,-2.01424,0.434058,-1.51489,-1.53855,2.22318e-08,-0.895313,0.932805,0.242347,-0.594043,0.631787,0.659893,-0.0879692,-0.193422,0.720687,0,0,0,0.241844,-0.565418,0.634205,0,0,0,-8.13222,10.5522,2.99193,-0.827413,0.201866,-0.685174,-0.420017,0.315532,-0.517966,0.383739,1
1.63942,-0.896552,-2.18847,-1.26543,2.90747,2.05444,-0.699548,1.63942,-0.896552,-2.18847,-1.26543,2.84842,2.01062,-0.699548,1.59501,-0.932551,-2.23876,-1.20627,2.84842,1.99965,-0.654448,-2.01424,0.434058,-1.51489,-1.53855,2.22318e-08,-0.895313,0.932805,-2.01424,0.434058,-1.51489,-1.53855,2.22318e-08,-0.895313,0.932805,0.242347,-0.594043,0.631787,0.659893,-0.0879692,-0.193422,0.720687,0,0,0,0.241844,-0.565418,0.634205,0,0,0,0.394674,-0.0598805,-0.362427,0.444122,0.359995,0.502893,-0.591635,0.590577,0.547875,-0.451,1
1.65659,-0.96808,-2.2075,-1.25873,2.91452,2.0264,-0.689731,1.65659,-0.96808,-2.2075,-1.25873,2.84842,2.01062,-0.689731,1.59501,-0.932551,-2.23876,-1.20627,2.84842,1.99965,-0.654448,-2.01424,0.434058,-1.51489,-1.53855,2.22318e-08,-0.895313,0.932805,-2.01424,0.434058,-1.51489,-1.53855,2.22318e-08,-0.895313,0.932805,0.242347,-0.594043,0.631787,0.659893,-0.0879692,-0.193422,0.720687,0,0,0,0.241844,-0.565418,0.634205,0,0,0,0.268597,-0.0739115,-0.310951,0.615784,-0.355284,0.312613,-0.524537,0.661021,0.267472,-0.352833,1
1.59818,-0.909733,-2.21673,-1.2234,2.89094,2.07169,-0.69771,1.59818,-0.909733,-2.21673,-1.2234,2.84842,2.01062,-0.69771,1.59501,-0.932551,-2.23876,-1.20627,2.84842,1.99965,-0.654448,-2.01424,0.434058,-1.51489,-1.53855,2.22318e-08,-0.895313,0.932805,-2.01424,0.434058,-1.51489,-1.53855,2.22318e-08,-0.895313,0.932805,0.242347,-0.594043,0.631787,0.659893,-0.0879692,-0.193422,0.720687,0,0,0,0.241844,-0.565418,0.634205,0,0,0,0.150316,-0.0569514,-0.267507,0.0316479,0.228179,0.220325,-0.171331,0.425251,0.720418,-0.432626,1
1.5717,-0.942042,-2.23481,-1.23991,2.88781,2.06727,-0.687489,1.5717,-0.942042,-2.23481,-1.23991,2.84842,2.01062,-0.687489,1.59501,-0.932551,-2.23876,-1.20627,2.84842,1.99965,-0.654448,-2.01424,0.434058,-1.51489,-1.53855,2.22318e-08,-0.895313,0.932805,-2.01424,0.434058,-1.51489,-1.53855,2.22318e-08,-0.895313,0.932805,0.242347,-0.594043,0.631787,0.659893,-0.0879692,-0.193422,0.720687,0,0,0,0.241844,-0.565418,0.634205,0,0,0,0.0573173,-0.0292471,-0.225703,-0.233101,-0.0949077,0.0395203,-0.336376,0.393988,0.676184,-0.33041,1
1.60301,-0.942926,-2.21766,-1.23423,2.90692,2.06722,-0.686575,1.60301,-0.942926,-2.21766,-1.23423,2.84842,2.01062,-0.686575,1.59501,-0.932551,-2.23876,-1.20627,2.84842,1.99965,-0.654448,-2.01424,0.434058,-1.51489,-1.53855,2.22318e-08,-0.895313,0.932805,-2.01424,0.434058,-1.51489,-1.53855,2.22318e-08,-0.895313,0.932805,0.242347,-0.594043,0.631787,0.659893,-0.0879692,-0.193422,0.720687,0,0,0,0.241844,-0.565418,0.634205,0,0,0,-2.12874e-07,0,-0.2,0.0800319,-0.103746,0.211019,-0.279635,0.585085,0.675643,-0.321275,1
1.6211,-0.951221,-2.21678,-1.23862,2.90662,2.06645,-0.694851,1.6211,-0.951221,-2.21678,-1.23862,2.84842,2.01062,-0.694851,1.59501,-0.932551,-2.23876,-1.20627,2.84842,1.99965,-0.654448,-2.01424,0.434058,-1.51489,-1.53855,2.22318e-08,-0.895313,0.932805,-2.01424,0.434058,-1.51489,-1.53855,2.22318e-08,-0.895313,0.932805,0.242347,-0.594043,0.631787,0.659893,-0.0879692,-0.193422,0.720687,0,0,0,0.241844,-0.565418,0.634205,0,0,0,-2.12874e-07,0,-0.2,0.260916,-0.186694,0.219788,-0.32348,0.58202,0.667971,-0.404033,1
1.60958,-0.93999,-2.22018,-1.22372,2.90612,2.06573,-0.693903,1.60958,-0.93999,-2.22018,-1.22372,2.84842,2.01062,-0.693903,1.59501,-0.932551,-2.23876,-1.20627,2.84842,1.99965,-0.654448,-2.01424,0.434058,-1.51489,-1.53855,2.22318e-08,-0.895313,0.932805,-2.01424,0.434058,-1.51489,-1.53855,2.22318e-08,-0.895313,0.932805,0.242347,-0.594043,0.631787,0.659893,-0.0879692,-0.193422,0.720687,0,0,0,0.241844,-0.565418,0.634205,0,0,0,-2.12874e-07,0,-0.2,0.145676,-0.0743902,0.185782,-0.174461,0.577035,0.660811,-0.394553,1
1.60674,-0.944054,-2.22274,-1.22564,2.90283,2.06727,-0.6915,1.60674,-0.944054,-2.22274,-1.22564,2.84842,2.01062,-0.6915,1.59501,-0.932551,-2.23876,-1.20627,2.84842,1.99965,-0.654448,-2.01424,0.434058,-1.51489,-1.53855,2.22318e-08,-0.895313,0.932805,-2.01424,0.434058,-1.51489,-1.53855,2.22318e-08,-0.895313,0.932805,0.242347,-0.594043,0.631787,0.659893,-0.0879692,-0.193422,0.720687,0,0,0,0.241844,-0.565418,0.634205,0,0,0,-2.12874e-07,0,-0.2,0.117316,-0.115026,0.160208,-0.193678,0.544129,0.676219,-0.370525,1
