Afshin1997/kuka_rl_ros2/src/catch_and_throw/output_files/ft/old2/idealpd_7/ft_received_joint_effort_np.csv
joint_0,joint_1,joint_2,joint_3,joint_4,joint_5,joint_6
0.264126,-2.69508,0.125321,20.6321,-0.974018,-0.0347095,-0.148214
0.263417,-2.69494,0.125285,20.6323,-0.974187,-0.0345919,-0.148054
0.263424,-2.6945,0.124839,20.6325,-0.974439,-0.0345274,-0.148108
0.299443,-2.681,0.185169,20.5246,-0.997524,-0.0107835,-0.163569
0.478758,-2.58647,0.357374,19.9025,-1.03052,0.056015,-0.185291
0.486316,-2.50448,0.336174,18.6315,-1.03905,0.128886,-0.209403
0.140275,-2.60145,-0.0075643,17.2859,-1.02237,0.168293,-0.225151
-0.0828106,-2.87435,-0.255879,16.4725,-0.974442,0.124478,-0.239403
-0.0642347,-3.26904,-0.292535,16.5555,-0.941355,0.0591046,-0.249665
-0.259025,-3.90308,-0.520916,17.2507,-0.963258,0.0487869,-0.259703
-0.813807,-4.90648,-1.08628,17.8099,-0.972553,0.0418386,-0.26758
-1.42881,-6.08008,-1.73377,18.0229,-0.986239,0.0450795,-0.274806
-1.91027,-7.3129,-2.26235,18.1817,-0.982799,0.056685,-0.280321
-2.34858,-8.46878,-2.74112,18.4023,-0.951626,0.0899863,-0.285148
-2.81531,-9.44604,-3.2375,18.6593,-0.946565,0.107257,-0.290075
-3.22594,-10.1491,-3.68745,18.9736,-0.9842,0.115556,-0.295717
-3.52956,-10.5051,-4.01791,19.3692,-0.987414,0.139312,-0.301088
-3.63623,-10.5236,-4.15406,19.7732,-0.972768,0.147179,-0.304887
-3.6059,-10.2946,-4.13622,20.2054,-0.996255,0.126983,-0.308632
-3.52606,-9.8438,-4.06057,20.6227,-1.03291,0.113082,-0.312446
-3.37236,-9.26208,-3.9182,21.1204,-1.05151,0.115285,-0.316793
-3.0835,-8.54558,-3.6439,21.7298,-1.0886,0.1097,-0.321256
-2.70381,-7.73115,-3.27976,22.4019,-1.14669,0.0950055,-0.325038
-2.28438,-6.97151,-2.87441,23.0383,-1.20684,0.0873324,-0.328258
-1.95609,-6.24047,-2.55125,23.6734,-1.23365,0.089267,-0.330512
-1.59167,-5.4865,-2.16157,24.3183,-1.27914,0.0765033,-0.33199
-1.14971,-4.69303,-1.72438,24.9217,-1.34577,0.0532389,-0.333844
-0.680699,-3.92471,-1.25776,25.4632,-1.35584,0.0106684,-0.335441
-0.363153,-3.16265,-0.919111,25.8565,-1.36018,-0.0123113,-0.337008
-0.0555932,-2.33533,-0.572461,26.2337,-1.42235,-0.0431402,-0.33886
0.390998,-1.55989,-0.115201,26.6504,-1.49759,-0.0598756,-0.342103
1.03405,-0.836716,0.542706,27.1096,-1.50534,-0.0816252,-0.344769
1.65208,-0.166765,1.17224,27.424,-1.48684,-0.144271,-0.34473
2.13116,0.356386,1.69252,27.5977,-1.54457,-0.208616,-0.344851
2.46959,0.738457,2.07419,27.8349,-1.59801,-0.230222,-0.345939
2.69402,1.02019,2.31439,27.9921,-1.57068,-0.213406,-0.343684
2.80646,1.18179,2.46388,28.1167,-1.54574,-0.241037,-0.343928
2.90775,1.27828,2.62012,28.2727,-1.55621,-0.292364,-0.340733
3.07959,1.33705,2.8181,28.4562,-1.54859,-0.316718,-0.34101
3.24813,1.37359,3.01072,28.7034,-1.52345,-0.286248,-0.33855
3.34238,1.37425,3.14718,28.715,-1.56447,-0.311438,-0.342143
3.40455,1.33819,3.24692,28.6113,-1.61102,-0.347512,-0.339431
3.50774,1.22264,3.40239,28.5875,-1.56251,-0.317816,-0.334215
3.56517,1.05718,3.50773,28.6939,-1.5106,-0.297884,-0.330788
3.50638,0.903265,3.53149,28.7682,-1.57092,-0.306765,-0.33141
3.49194,0.727471,3.61969,28.6642,-1.5565,-0.312172,-0.329725
3.50826,0.709279,3.71739,28.2839,-1.51585,-0.321453,-0.326472
3.51808,0.78468,3.8031,28.1636,-1.49311,-0.329172,-0.328308
3.49784,0.927355,3.86953,28.2147,-1.47666,-0.356574,-0.327771
3.45092,1.1076,3.91273,27.9721,-1.46173,-0.33448,-0.327611
3.40808,1.29778,3.99607,27.5192,-1.45735,-0.332747,-0.326999
3.49523,1.52659,4.08689,27.2294,-1.4179,-0.378082,-0.326695
3.58066,1.90052,4.18038,27.1308,-1.39643,-0.360324,-0.328112
3.77499,2.30507,4.42096,26.6431,-1.35534,-0.336417,-0.330971
3.91332,2.79998,4.58992,26.182,-1.38219,-0.361398,-0.327729
3.78393,3.39405,4.46934,25.8877,-1.36884,-0.402936,-0.329574
3.74604,3.921,4.42831,25.4695,-1.31227,-0.387982,-0.335477
3.86344,4.30833,4.57014,24.8957,-1.33632,-0.364119,-0.333823
3.96737,4.69073,4.71153,24.5823,-1.35681,-0.429141,-0.33703
3.88075,5.0947,4.68115,24.2425,-1.30765,-0.407266,-0.339704
3.64478,5.32326,4.52751,23.7006,-1.26324,-0.351018,-0.339828
3.53447,5.48184,4.4574,23.3411,-1.25239,-0.367539,-0.337702
3.69063,5.82539,4.60677,23.0483,-1.26319,-0.371295,-0.338454
3.85799,6.21466,4.74004,22.6412,-1.21862,-0.350098,-0.335431
3.65975,6.3917,4.55496,22.3754,-1.17764,-0.352256,-0.333116
3.5352,6.56753,4.42101,21.9783,-1.19164,-0.398279,-0.337465
3.8584,6.86975,4.69196,21.4847,-1.19158,-0.374461,-0.340401
3.78775,7.14072,4.64391,21.2899,-1.18046,-0.327755,-0.342561
3.32072,7.23059,4.2713,20.9225,-1.16703,-0.332342,-0.341722
3.32635,7.27309,4.33092,20.3359,-1.11152,-0.321645,-0.335687
3.3923,7.44202,4.38581,20.0932,-1.08374,-0.330244,-0.334009
3.05956,7.58068,3.96915,19.8732,-1.11829,-0.322695,-0.335116
3.13458,7.51965,3.94303,19.3497,-1.11413,-0.335759,-0.344446
3.45099,7.56215,4.11984,18.9996,-1.08035,-0.358073,-0.34319
3.2017,7.70975,3.9314,18.7389,-1.10247,-0.36749,-0.34263
2.99893,7.60323,3.73593,18.2744,-1.06241,-0.304701,-0.341116
3.02705,7.49059,3.78759,18.0205,-1.03461,-0.310153,-0.336682
2.83058,7.56399,3.58833,17.7273,-1.05393,-0.32375,-0.342965
2.57016,7.46386,3.2811,17.3103,-1.0203,-0.337239,-0.344941
2.62814,7.22702,3.24314,17.1212,-0.959477,-0.360752,-0.344921
2.79429,7.15495,3.35271,16.8854,-0.971906,-0.369815,-0.349569
2.79429,7.15495,3.35271,16.8854,-0.971906,-0.369815,-0.349569
2.59979,6.8561,3.1465,16.3934,-0.868132,-0.324695,-0.345718
2.54451,6.71389,3.0594,16.2277,-0.856744,-0.334151,-0.34988
2.46855,6.72249,2.93287,15.8208,-0.8139,-0.308731,-0.350495
2.32712,6.53438,2.75625,15.821,-0.752505,-0.306063,-0.351743
2.34716,6.32667,2.72968,15.7516,-0.721497,-0.361122,-0.350492
2.61045,6.26263,2.94934,15.3815,-0.625857,-0.391436,-0.352133
2.57176,6.14309,2.92833,15.3555,-0.593902,-0.389129,-0.355424
2.18728,5.7945,2.59759,15.3612,-0.571185,-0.366543,-0.35025
2.09754,5.4597,2.46347,15.0365,-0.500448,-0.36269,-0.355606
2.20378,5.22917,2.49034,14.9813,-0.461609,-0.395997,-0.352881
2.13833,4.96143,2.37523,15.0894,-0.447403,-0.42288,-0.355026
2.14469,4.7002,2.39106,14.8227,-0.370315,-0.419936,-0.354761
2.37049,4.45545,2.58544,14.661,-0.34656,-0.458478,-0.354136
2.1654,4.32238,2.31392,14.6914,-0.361803,-0.45543,-0.35727
1.84635,4.07748,1.96662,14.4858,-0.31991,-0.431524,-0.355683
1.95273,3.57088,1.96684,14.2067,-0.267941,-0.447056,-0.361773
2.12385,3.30466,2.07979,14.1396,-0.301318,-0.429193,-0.357069
2.11959,3.10653,2.02368,14.0826,-0.317118,-0.406018,-0.359466
2.07319,2.80974,1.9632,13.8125,-0.294339,-0.424586,-0.354327
1.96795,2.43362,1.81042,13.8121,-0.250339,-0.439639,-0.357596
1.83748,2.08985,1.64713,13.9073,-0.243061,-0.424059,-0.355774
1.78948,1.68744,1.57566,13.633,-0.237673,-0.423331,-0.358403
1.81377,1.09412,1.55086,13.6376,-0.212125,-0.438845,-0.352565
1.77787,0.687874,1.51883,13.7406,-0.194855,-0.430339,-0.351021
1.958,0.446092,1.62432,13.5725,-0.193269,-0.425382,-0.352796
1.75336,0.239828,1.40005,13.5407,-0.236661,-0.42591,-0.352087
1.42255,-0.0140677,1.05233,13.6273,-0.233266,-0.402139,-0.362992
1.54603,-0.497964,1.09223,13.5597,-0.174099,-0.409908,-0.360262
1.71203,-0.961646,1.21827,13.3204,-0.224503,-0.427235,-0.361814
1.61053,-1.49342,1.08815,13.4206,-0.214157,-0.388328,-0.362281
1.48699,-2.00029,0.934531,13.4901,-0.21651,-0.349365,-0.357635
1.55267,-2.21858,0.933443,13.1078,-0.225724,-0.34051,-0.355927
1.64017,-2.4158,0.939724,13.2201,-0.240269,-0.35105,-0.353752
1.3541,-2.75553,0.675582,13.5508,-0.27245,-0.316467,-0.359089
1.27649,-3.43712,0.623716,13.373,-0.16792,-0.325675,-0.352464
1.26708,-3.83044,0.638357,13.1826,-0.147258,-0.369331,-0.357481
1.39903,-4.09699,0.682933,13.2456,-0.141954,-0.397073,-0.35536
1.41502,-4.31768,0.656789,13.3115,-0.161584,-0.410065,-0.36235
1.24101,-4.69994,0.456098,13.0075,-0.166183,-0.37294,-0.359814
1.09709,-5.17138,0.269783,13.1094,-0.16838,-0.327746,-0.362046
1.16277,-5.79213,0.217911,13.2796,-0.197732,-0.310882,-0.354878
1.24507,-6.18199,0.237201,13.077,-0.274841,-0.326707,-0.367141
1.22276,-6.52272,0.182433,13.1148,-0.237995,-0.345928,-0.36561
0.968833,-6.86606,-0.0710342,13.2574,-0.207237,-0.362419,-0.371474
0.978354,-7.27994,-0.122687,13.2524,-0.219506,-0.402111,-0.374258
1.19889,-7.60744,0.0220724,13.1052,-0.179541,-0.401922,-0.368675
1.12262,-8.01634,-0.0649337,13.2455,-0.214616,-0.386068,-0.37214
0.955641,-8.556,-0.274749,13.258,-0.236984,-0.332351,-0.365629
0.844456,-8.95659,-0.414394,13.0504,-0.17531,-0.267768,-0.365021
0.708742,-9.37945,-0.626904,13.2185,-0.240468,-0.276698,-0.374053
0.611879,-9.94674,-0.811134,13.5061,-0.266005,-0.290147,-0.380612
0.551196,-10.8157,-0.973612,13.5425,-0.234541,-0.334566,-0.37989
0.200217,-11.4694,-1.324,13.2521,-0.279498,-0.332549,-0.38541
0.0378496,-12.0887,-1.50183,13.333,-0.255553,-0.304101,-0.382438
-0.0804823,-12.6693,-1.69198,13.4951,-0.286558,-0.273035,-0.382482
-0.122676,-13.2441,-1.77826,13.358,-0.299334,-0.243972,-0.37809
-0.181394,-13.8617,-1.84314,13.4682,-0.304299,-0.24209,-0.379272
-0.299552,-14.309,-2.00994,13.5154,-0.316956,-0.239017,-0.381963
-0.194539,-14.6995,-1.9761,13.3957,-0.313436,-0.294385,-0.384651
-0.181473,-15.0052,-2.04007,13.2398,-0.294399,-0.29156,-0.389925
-0.293936,-15.451,-2.22863,13.55,-0.319806,-0.271889,-0.383795
-0.229702,-16.0654,-2.30048,13.7527,-0.314606,-0.22947,-0.387288
0.00957801,-16.1467,-2.22526,13.541,-0.340845,-0.210939,-0.388645
0.267812,-16.1711,-2.10944,13.5516,-0.337415,-0.245527,-0.393803
0.248032,-16.4768,-2.28933,13.8874,-0.334802,-0.242795,-0.393492
0.355991,-16.9665,-2.36315,14.0542,-0.339116,-0.269326,-0.389296
0.73337,-17.1325,-2.18478,13.9586,-0.331958,-0.27074,-0.394966
1.06641,-17.0014,-2.04692,14.038,-0.396605,-0.265281,-0.389381
1.33582,-17.3106,-1.93923,14.2081,-0.399347,-0.25058,-0.391237
1.20887,-17.7008,-2.17129,14.2969,-0.417387,-0.202626,-0.398914
1.2461,-18.1248,-2.24077,14.3281,-0.412722,-0.230073,-0.400591
1.52884,-18.1328,-2.06882,14.4738,-0.430949,-0.273943,-0.403561
1.9867,-17.9527,-1.78497,14.5071,-0.449413,-0.309717,-0.409162
2.03868,-18.1026,-1.79402,14.2971,-0.482467,-0.294933,-0.405203
1.7271,-18.344,-2.0751,14.4272,-0.53336,-0.267532,-0.410808
1.88587,-18.7042,-2.02937,14.5278,-0.486723,-0.278372,-0.400303
2.28677,-18.4483,-1.75223,14.4726,-0.574874,-0.365078,-0.402954
2.63914,-18.2894,-1.50423,14.1031,-0.586255,-0.381829,-0.401607
2.27138,-18.5777,-1.82113,14.2301,-0.660538,-0.339551,-0.409124
2.06546,-19.1509,-2.04741,14.3079,-0.631957,-0.278554,-0.411366
2.35364,-19.0859,-1.86062,14.2508,-0.653595,-0.340414,-0.413423
2.61981,-18.5785,-1.64634,13.7775,-0.674553,-0.387201,-0.409748
2.52174,-18.7403,-1.6573,13.7305,-0.647635,-0.401431,-0.403053
2.1842,-19.2181,-1.93562,13.8387,-0.646328,-0.337477,-0.409107
2.22971,-19.5276,-1.92128,13.7222,-0.646726,-0.363864,-0.410135
2.46085,-19.1031,-1.73835,13.5,-0.660008,-0.401817,-0.414729
2.66135,-19.0467,-1.54899,13.3172,-0.632834,-0.433467,-0.408351
2.52127,-19.4706,-1.73401,13.315,-0.64268,-0.40622,-0.413625
2.30652,-20.003,-1.93753,13.1164,-0.654886,-0.339272,-0.414867
2.23231,-20.0158,-1.96703,13.1168,-0.718001,-0.34282,-0.415572
2.40896,-19.7499,-1.80655,12.8478,-0.69653,-0.3705,-0.413291
2.38605,-19.863,-1.74086,12.5594,-0.715339,-0.434537,-0.419867
1.94156,-20.2236,-2.05292,12.1937,-0.698835,-0.363046,-0.421435
1.52483,-20.7045,-2.2051,12.1498,-0.686753,-0.345093,-0.409838
1.42084,-20.527,-2.13023,11.807,-0.64785,-0.320113,-0.409407
1.48418,-20.3128,-1.88251,11.3439,-0.613518,-0.379717,-0.401263
1.15436,-20.5573,-1.96668,11.0348,-0.568014,-0.364865,-0.401801
0.540438,-21.2963,-2.29627,10.9801,-0.574511,-0.340346,-0.405962
0.363208,-21.5788,-2.31373,10.6412,-0.550555,-0.335375,-0.400183
0.441206,-21.1159,-2.09224,9.94537,-0.579069,-0.366636,-0.406927
0.352402,-21.1522,-2.00166,9.71937,-0.583025,-0.3834,-0.405074
-0.194141,-21.7395,-2.28535,9.70343,-0.520828,-0.31278,-0.401125
-0.416789,-22.2701,-2.34909,9.33858,-0.459009,-0.34097,-0.405797
-0.283942,-21.7049,-2.13575,8.84561,-0.499521,-0.354162,-0.409332
-0.0616653,-21.3158,-1.89824,8.72152,-0.511169,-0.383451,-0.40649
-0.0106663,-21.5598,-1.92077,8.79283,-0.459381,-0.334002,-0.40061
-0.0634331,-22.0518,-1.99476,8.56405,-0.420402,-0.313305,-0.399342
0.16247,-21.6886,-1.83134,8.55094,-0.396038,-0.321433,-0.396341
0.660993,-21.0084,-1.56422,8.5342,-0.416949,-0.351784,-0.398712
1.04818,-20.9876,-1.43256,8.44174,-0.414094,-0.396333,-0.398374
1.09719,-21.328,-1.53815,8.35083,-0.373402,-0.335605,-0.396781
1.15149,-21.6693,-1.57155,8.55622,-0.367387,-0.311465,-0.393414
1.39954,-21.3468,-1.47906,8.5191,-0.345425,-0.292201,-0.391423
1.74244,-21.3779,-1.3153,8.33438,-0.336905,-0.350104,-0.393235
1.63278,-21.8246,-1.41667,8.31246,-0.303111,-0.275357,-0.39201
1.34521,-22.8987,-1.58021,8.47281,-0.270391,-0.238021,-0.38791
1.21115,-23.4941,-1.61901,8.43504,-0.236033,-0.188092,-0.385193
1.15429,-23.782,-1.50304,8.21995,-0.228574,-0.223129,-0.382286
0.803523,-24.5814,-1.52236,7.9059,-0.179061,-0.227382,-0.381328
0.0600752,-26.0042,-1.80847,7.99102,-0.157503,-0.172193,-0.379895
-0.447696,-27.6189,-1.92224,7.92173,-0.0884107,-0.121684,-0.377061
-0.9146,-28.2973,-1.96544,7.56896,-0.123953,-0.101072,-0.379149
-1.30105,-28.9333,-1.89525,7.23603,-0.0863191,-0.112177,-0.377854
-1.99228,-30.3053,-2.15358,7.13948,-0.0733833,-0.0632691,-0.379417
-2.59486,-32.0276,-2.36976,6.95229,-0.0536917,-0.0293634,-0.379738
-2.94246,-33.212,-2.42213,6.60295,-0.0399346,-0.00669689,-0.380687
-3.29139,-33.8083,-2.51221,6.55783,-0.124724,0.0112278,-0.382271
-3.45543,-34.6501,-2.45494,6.41115,-0.0635172,0.0451644,-0.381668
-3.99318,-35.8037,-2.6653,6.03251,-0.062364,0.068525,-0.3869
-4.37565,-37.0173,-2.71708,6.03694,-0.0201744,0.0603554,-0.388067
-4.53612,-37.8165,-2.79608,6.22218,-0.0320795,0.0648717,-0.391293
-4.55532,-38.1537,-2.73722,5.93422,-0.0499305,0.026307,-0.393826
-4.80461,-38.4423,-2.72986,5.38197,-0.0422014,0.04604,-0.39865
-5.2399,-39.2214,-2.87998,5.46728,-0.0788282,0.100161,-0.399142
-5.41807,-40.0519,-2.88429,5.45826,-0.0597382,0.144198,-0.400988
-5.58699,-40.2087,-2.81517,5.11959,-0.0657531,0.143804,-0.404186
-5.8351,-39.8776,-2.72572,4.93926,-0.0497512,0.118475,-0.4034
-6.03131,-39.8428,-2.70006,4.72746,-0.0359399,0.11522,-0.405099
-6.20226,-40.2013,-2.70865,4.46069,-0.0298548,0.0914068,-0.408794
-6.37302,-40.4268,-2.68975,4.11882,-0.0260364,0.0834114,-0.408055
-6.51898,-40.3153,-2.68641,4.1979,-0.0718039,0.104827,-0.406187
-6.48383,-39.9136,-2.53058,3.89074,-0.0652288,0.131334,-0.402813
-6.62829,-39.4469,-2.43971,3.25408,-0.0795984,0.114255,-0.406189
-6.78043,-39.3082,-2.33293,3.22095,-0.0227632,0.0940058,-0.403481
-6.81517,-39.3089,-2.32042,3.22079,-0.0150196,0.0780185,-0.404425
-6.7547,-39.1103,-2.21866,2.9704,-0.0119099,0.0396738,-0.405415
-6.84712,-38.6259,-2.13082,2.43403,-0.0358549,0.0399925,-0.410054
-6.88777,-38.161,-2.01637,2.25385,-0.0371246,0.0642745,-0.408069
-6.77027,-38.0657,-1.9162,2.15432,-0.00462478,0.0991939,-0.402278
-6.66974,-38.0786,-1.84217,2.04146,0.000677198,0.0799695,-0.401167
-6.71196,-37.9503,-1.80105,1.87854,-0.0247468,0.0635922,-0.401559
-6.80388,-37.8286,-1.7868,1.8765,-0.0647694,0.0649829,-0.40418
-6.66891,-37.6162,-1.58171,1.71921,0.0139091,0.0765243,-0.401395
-6.66891,-37.6162,-1.58171,1.71921,0.0139091,0.0765243,-0.401395
-6.51733,-37.3386,-1.43554,1.54197,0.021771,0.0492073,-0.402386
-6.5127,-37.3918,-1.46382,1.56447,-0.0193728,0.0540138,-0.403694
-6.42411,-37.4066,-1.32958,1.54306,0.0145582,0.0581772,-0.401437
-6.26695,-37.2216,-1.21286,1.23119,0.0111924,0.0549491,-0.404974
-6.17439,-36.9319,-1.11338,1.20342,0.0284977,0.0191974,-0.400841
-6.08259,-36.8864,-1.10576,1.25463,0.0114942,0.0102356,-0.402566
-5.95766,-36.9762,-1.00169,1.26424,0.0261778,0.0304845,-0.400715
-5.92655,-37.0634,-0.930542,1.02683,0.0497911,0.0339615,-0.400533
-5.80638,-37.0935,-0.78065,0.855276,0.0980432,0.0238531,-0.398922
-5.81468,-37.0573,-0.81554,0.964051,0.0233168,0.0122657,-0.399421
-5.63863,-37.0677,-0.707298,0.90353,0.0806796,0.0330604,-0.397077
-5.76173,-37.3158,-0.733428,0.749053,0.0416137,0.0324307,-0.401402
-5.56742,-37.477,-0.511629,0.507108,0.129619,0.0325417,-0.399021
-5.70679,-37.6627,-0.605957,0.804723,0.0345276,0.0264434,-0.400529
-5.44801,-37.8245,-0.43255,0.832439,0.111262,0.05369,-0.39778
-5.60694,-37.9775,-0.483309,0.772487,0.0366379,0.0413419,-0.402179
-5.36478,-38.1132,-0.292969,0.479375,0.121814,0.0412293,-0.401825
-5.31283,-38.354,-0.305095,0.590838,0.09157,0.0365024,-0.397434
-5.14915,-38.6574,-0.271418,0.888545,0.066638,0.0233502,-0.399755
-5.01702,-39.0288,-0.161733,0.845379,0.10029,0.0390384,-0.397568
-5.03721,-39.3193,-0.168384,0.665149,0.088609,0.0359023,-0.399247
-4.76549,-39.3896,0.00698566,0.480442,0.152058,0.0214873,-0.398374
-4.92422,-39.6804,-0.121489,0.762673,0.0507093,0.0162565,-0.397605
-4.61792,-40.1083,0.0708187,0.708022,0.138887,0.0323077,-0.400337
-4.61155,-40.64,0.0530836,0.85841,0.10943,0.0276094,-0.402514
-4.4862,-41.0339,0.146983,0.787233,0.132571,0.0240515,-0.405728
-4.62689,-41.1984,0.162091,0.629249,0.136131,0.0335002,-0.40633
-4.81644,-41.3783,0.166527,0.636826,0.0851704,0.0370151,-0.408155
-4.39217,-41.8348,0.364198,0.68272,0.155437,0.0335677,-0.407373
-4.43129,-42.4372,0.245473,1.13463,0.0715877,0.00872078,-0.40739
-4.30074,-42.9257,0.418971,0.905204,0.176657,0.0197356,-0.405914
-4.61106,-43.2781,0.420016,0.6626,0.152279,0.0208285,-0.407474
-4.34519,-43.4705,0.577763,0.739189,0.185592,0.0124201,-0.405635
-3.97994,-43.9368,0.56077,1.0687,0.148681,0.00778416,-0.408326
-3.92865,-44.5724,0.605152,1.27188,0.143934,0.00298703,-0.408662
-3.89239,-45.0998,0.82411,0.810023,0.237192,0.0110677,-0.407977
-3.95848,-45.543,0.846445,0.726739,0.230942,-0.00152727,-0.409374
-3.69726,-45.8833,0.928741,1.06351,0.224805,-0.00491655,-0.407508
-3.72089,-46.3739,0.932678,1.16706,0.190631,0.0114263,-0.414293
-3.76085,-46.9812,1.12587,1.00944,0.278506,0.0192605,-0.413692
-3.59662,-47.6219,1.2554,0.80197,0.322848,-0.00233662,-0.411514
-3.67282,-48.308,1.24889,0.964181,0.276016,-0.0330434,-0.411358
-3.72507,-49.0305,1.38703,1.05437,0.303065,0.0137818,-0.410553
-3.69456,-49.8085,1.53356,1.07385,0.358384,0.0158488,-0.407882
-3.46294,-50.4159,1.65336,1.17453,0.391789,0.0121825,-0.40772
-3.25648,-51.1261,1.6845,1.29586,0.399338,0.0323203,-0.406323
-3.22054,-51.7803,1.81097,1.25945,0.435482,0.0791515,-0.409012
-3.1149,-52.5587,2.00048,1.25484,0.517448,0.0686353,-0.408129
-2.81744,-53.4745,2.09666,1.67987,0.531645,0.0730414,-0.407116
-2.47043,-54.3714,2.21091,1.98709,0.593311,0.0745375,-0.404456
-2.45909,-55.0802,2.21201,2.08391,0.57387,0.0999762,-0.408345
-2.15387,-55.4745,2.46281,1.95449,0.684988,0.0999153,-0.407737
-1.8275,-56.0156,2.46059,2.14307,0.687671,0.0759785,-0.408769
-1.48403,-56.7161,2.53229,2.73848,0.699349,0.0834042,-0.410268
-1.38199,-57.6035,2.64883,2.84704,0.731689,0.133763,-0.412023
-1.31137,-58.4405,2.78189,2.9235,0.789194,0.151536,-0.408551
-0.860489,-59.0407,2.92786,2.97918,0.841287,0.140868,-0.409998
-0.65592,-59.4861,2.86914,3.27193,0.80957,0.13561,-0.413039
-0.543939,-59.6373,2.91559,3.51281,0.809097,0.159873,-0.41337
-0.271526,-59.8709,3.02816,3.54962,0.85823,0.163205,-0.413034
-0.0162746,-60.2395,3.09379,3.81435,0.858246,0.145205,-0.412032
0.28875,-60.7723,3.14394,3.93852,0.833019,0.152575,-0.416285
0.278514,-61.2668,3.2183,3.99617,0.855859,0.166099,-0.415882
0.262531,-61.6873,3.26386,3.89602,0.85005,0.185524,-0.417487
0.711862,-61.875,3.36748,4.24883,0.862613,0.175764,-0.415099
1.10903,-61.8865,3.32134,4.57685,0.825391,0.171974,-0.414599
1.24423,-61.7549,3.31351,4.70628,0.809817,0.185297,-0.415923
1.22455,-61.5105,3.39288,4.47831,0.835901,0.194153,-0.415954
1.33592,-61.5032,3.42589,4.36909,0.829023,0.182555,-0.419747
1.61774,-61.6829,3.46371,4.82914,0.808782,0.195537,-0.413485
1.80342,-62.0127,3.50588,5.00155,0.800746,0.210522,-0.417685
1.63716,-62.1769,3.52923,4.97381,0.781552,0.210178,-0.417862
1.64871,-62.1867,3.67449,4.65047,0.846439,0.170501,-0.415626
1.83612,-62.027,3.6951,4.71923,0.826013,0.151486,-0.414751
2.171,-61.8448,3.68577,5.15541,0.762057,0.155334,-0.414685
2.38233,-61.5581,3.69461,5.29859,0.771718,0.169749,-0.408861
2.1828,-61.2157,3.65047,5.15009,0.763176,0.170706,-0.407605
2.3779,-60.9406,3.80859,4.82104,0.77643,0.136568,-0.406809
2.43904,-60.8066,3.79524,4.88288,0.731851,0.135541,-0.408186
2.47072,-60.8073,3.84614,5.01722,0.765544,0.153145,-0.400302
2.48257,-60.7526,3.9042,5.04443,0.750383,0.17672,-0.406718
2.42021,-60.6755,3.94768,4.87893,0.6949,0.160229,-0.404184
2.6348,-60.5665,4.03756,4.82836,0.714728,0.154971,-0.407045
2.74204,-60.5167,4.07489,4.96838,0.739571,0.15135,-0.407571
2.72849,-60.3379,4.09604,4.9193,0.705634,0.147841,-0.408897
2.63123,-60.1097,4.13714,4.96339,0.688202,0.128783,-0.407793
2.50054,-59.976,4.12491,4.84507,0.667749,0.138553,-0.404858
2.56195,-59.8126,4.28221,4.83985,0.711974,0.137724,-0.398738
2.59783,-59.6941,4.28261,4.7437,0.70021,0.127581,-0.399416
2.6832,-59.375,4.32766,4.5614,0.690864,0.116668,-0.392563
2.69598,-59.0202,4.29945,4.55021,0.667719,0.131627,-0.397417
2.71216,-58.6569,4.26597,4.62184,0.670258,0.126396,-0.395584
2.90635,-58.2947,4.38114,4.54469,0.70912,0.120838,-0.390907
2.92403,-58.1036,4.36641,4.62391,0.636141,0.133699,-0.395603
3.03646,-57.8971,4.47444,4.38172,0.68346,0.12195,-0.390923
2.95498,-57.6537,4.42391,4.21547,0.624875,0.11217,-0.389931
2.83442,-57.3921,4.44067,4.21823,0.614656,0.101852,-0.388271
2.76957,-57.1692,4.511,4.18612,0.6255,0.113846,-0.396258
2.69244,-57.0289,4.59925,4.09261,0.621104,0.0978017,-0.394325
2.67682,-56.9054,4.62033,4.01744,0.593329,0.095408,-0.396855
2.71768,-56.7764,4.66832,3.78165,0.643299,0.101296,-0.391518
2.65581,-56.6075,4.65635,3.68818,0.596053,0.0953542,-0.395123
2.51749,-56.3879,4.68097,3.62122,0.579601,0.0867773,-0.399991
2.4357,-56.2309,4.74552,3.57195,0.616701,0.0983069,-0.397031
2.39196,-56.1489,4.80786,3.49692,0.639408,0.0960107,-0.396615
2.39427,-56.0232,4.80909,3.44633,0.607309,0.101239,-0.401503
2.52645,-55.828,4.81617,3.28633,0.591706,0.0896572,-0.398994
2.54644,-55.6146,4.79066,3.20835,0.565523,0.0853969,-0.405406
2.45336,-55.3794,4.78615,3.13208,0.580382,0.0915198,-0.398869
2.37247,-55.17,4.83585,3.15477,0.592667,0.0932762,-0.396786
2.41435,-55.0564,4.89524,3.11417,0.572474,0.0934927,-0.397968
2.43803,-54.9204,4.90016,3.12138,0.570171,0.102978,-0.391168
2.5357,-54.772,4.88765,3.03846,0.579621,0.106447,-0.392147
2.63405,-54.6278,4.86843,2.91823,0.565617,0.104841,-0.393991
2.54789,-54.453,4.85995,2.77394,0.563706,0.11064,-0.391697
2.35259,-54.2137,4.92488,2.69141,0.555192,0.11717,-0.391242
2.32478,-54.0268,4.9647,2.56095,0.558023,0.118775,-0.392644
2.31602,-53.868,4.99332,2.4752,0.56828,0.110897,-0.38843
2.3541,-53.7098,5.01672,2.42673,0.582297,0.11924,-0.386515
2.43715,-53.5801,5.03003,2.25899,0.559082,0.115817,-0.395256
2.40571,-53.4138,5.0367,2.15173,0.535387,0.105777,-0.391755
2.22586,-53.2119,5.07145,1.97296,0.567132,0.11927,-0.393606
2.00207,-53.0535,5.15291,1.91399,0.576629,0.136982,-0.395476
1.99364,-52.9538,5.24228,1.81685,0.572596,0.142887,-0.39689
1.99363,-52.83,5.2659,1.74995,0.58921,0.149784,-0.391549
2.06627,-52.725,5.28779,1.73301,0.60894,0.154067,-0.39319
2.18598,-52.5842,5.31497,1.62165,0.576284,0.156866,-0.388402
2.13383,-52.3885,5.34619,1.55886,0.58005,0.14667,-0.390098
1.98056,-52.1819,5.38564,1.36545,0.592167,0.158534,-0.388889
1.77816,-52.0093,5.43111,1.27462,0.604205,0.159005,-0.394175
1.79715,-51.9148,5.50165,1.24661,0.615967,0.152674,-0.392213
1.8436,-51.8305,5.54342,1.2643,0.611864,0.158971,-0.391461
1.91287,-51.7541,5.57822,1.27008,0.601829,0.166723,-0.390288
2.0078,-51.6492,5.60313,1.23763,0.606318,0.169408,-0.389488
2.01275,-51.5346,5.61839,1.15759,0.614211,0.165463,-0.385096
1.94716,-51.3985,5.65689,1.04557,0.612693,0.171473,-0.390632
1.77885,-51.2912,5.72066,0.924674,0.623767,0.171325,-0.390654
1.69778,-51.2034,5.73908,0.876745,0.594645,0.171939,-0.389576
1.76064,-51.0997,5.78771,0.837758,0.614771,0.16954,-0.38533
1.71914,-50.9785,5.75676,0.835525,0.572119,0.172639,-0.389897
1.80335,-50.79,5.81087,0.77314,0.579168,0.176315,-0.390594
1.84765,-50.6731,5.80906,0.685708,0.595009,0.182461,-0.393563
1.90601,-50.5694,5.79216,0.599652,0.583231,0.175022,-0.396496
1.93636,-50.4607,5.83269,0.551329,0.588147,0.175476,-0.391868
1.82824,-50.3921,5.82149,0.511787,0.575106,0.192152,-0.390687
1.72478,-50.2879,5.84616,0.50265,0.571252,0.192163,-0.385055
1.7156,-50.1519,5.91769,0.390829,0.606437,0.198211,-0.380086
1.60089,-50.0789,5.92206,0.328147,0.564454,0.209314,-0.379269
1.62854,-49.9906,5.99998,0.244072,0.596818,0.209779,-0.381058
1.73635,-49.9663,5.99158,0.201945,0.576551,0.22266,-0.379147
1.79705,-49.9669,5.96812,0.217422,0.554321,0.209791,-0.380127
1.83609,-49.8905,6.01653,0.172219,0.57784,0.206317,-0.382364
1.71543,-49.8647,6.00276,0.102432,0.545114,0.209761,-0.390495
1.59031,-49.793,6.04876,0.0872926,0.534337,0.19531,-0.386416
1.47516,-49.6914,6.08882,-0.011515,0.534343,0.199577,-0.38611
1.34589,-49.6075,6.11591,-0.135022,0.541796,0.196401,-0.390429
1.33938,-49.5324,6.13971,-0.17057,0.548684,0.184618,-0.392985
1.42304,-49.5192,6.12937,-0.18632,0.51835,0.190612,-0.391515
1.5294,-49.5091,6.19317,-0.226702,0.542061,0.179979,-0.389787
1.49959,-49.4585,6.19455,-0.266373,0.522332,0.175851,-0.384654
1.4191,-49.4002,6.21583,-0.384657,0.517335,0.167345,-0.386516
1.28268,-49.3538,6.24206,-0.438251,0.542821,0.183683,-0.38863
1.24032,-49.2837,6.27442,-0.472202,0.523106,0.190806,-0.395162
1.23342,-49.1933,6.31724,-0.598886,0.520708,0.17619,-0.393398
1.11692,-49.1097,6.2759,-0.674996,0.516109,0.190665,-0.396115
1.20128,-48.9768,6.34483,-0.737611,0.545359,0.186026,-0.393571
1.21777,-48.9213,6.35984,-0.748593,0.525864,0.17707,-0.390346
1.12648,-48.86,6.39687,-0.83256,0.527175,0.178343,-0.39205
1.0731,-48.8053,6.48355,-0.945039,0.561022,0.173309,-0.390925
0.989651,-48.8453,6.50584,-1.01244,0.544134,0.174828,-0.386913
0.983458,-48.8591,6.58261,-1.01585,0.54423,0.179148,-0.390588
1.00911,-48.8931,6.61592,-0.990313,0.543591,0.18853,-0.385635
1.00252,-48.9247,6.61303,-1.07515,0.541786,0.193515,-0.390323
1.00572,-48.9024,6.64421,-1.12964,0.558192,0.191483,-0.394814
0.990686,-48.8675,6.67979,-1.17235,0.551153,0.196278,-0.393521
0.967312,-48.8509,6.72144,-1.26415,0.55239,0.194353,-0.393087
0.914462,-48.817,6.77163,-1.31557,0.540137,0.207987,-0.398076
0.795321,-48.8127,6.82876,-1.41629,0.551254,0.205431,-0.398792
0.781793,-48.7968,6.92335,-1.53932,0.563962,0.203881,-0.403346
0.749794,-48.816,6.92044,-1.49623,0.518074,0.20918,-0.404306
0.839231,-48.8068,6.94177,-1.40556,0.547094,0.187974,-0.402212
0.947064,-48.8128,6.94798,-1.38161,0.540428,0.20475,-0.400207
1.05107,-48.8356,6.98273,-1.38519,0.552546,0.206653,-0.396948
1.15739,-48.8005,6.99043,-1.39425,0.548861,0.198646,-0.391326
1.16387,-48.7778,6.97261,-1.43711,0.540436,0.198442,-0.398287
1.08824,-48.6728,7.03416,-1.55707,0.546656,0.191399,-0.395292
0.952626,-48.5686,7.07699,-1.75438,0.540663,0.20393,-0.399394
0.859644,-48.5239,7.14396,-1.87885,0.579753,0.203066,-0.394779
0.756422,-48.4975,7.15951,-1.87645,0.568422,0.222305,-0.399256
0.77558,-48.4503,7.20478,-1.85903,0.566802,0.21987,-0.399128
0.811284,-48.4576,7.27267,-1.90003,0.5872,0.212192,-0.396309
0.817361,-48.5118,7.28065,-1.94522,0.565064,0.226672,-0.402723
0.859686,-48.5094,7.3271,-1.92996,0.571286,0.22694,-0.397835
0.868606,-48.5071,7.35403,-2.00059,0.57564,0.221451,-0.399089
0.847256,-48.4313,7.38007,-2.13792,0.584551,0.213744,-0.396432
0.774711,-48.3222,7.41039,-2.21898,0.58145,0.21859,-0.397459
0.704214,-48.2605,7.40312,-2.36096,0.592368,0.213533,-0.392679
0.610568,-48.152,7.4058,-2.42905,0.589279,0.20958,-0.388657
0.547354,-48.0793,7.43227,-2.37773,0.573519,0.206249,-0.388049
0.554591,-48.0657,7.47405,-2.34382,0.575024,0.211466,-0.392022
0.486266,-48.1096,7.48588,-2.40193,0.570146,0.196971,-0.397646
0.440185,-48.1294,7.51743,-2.45486,0.559531,0.191788,-0.392334
0.46349,-48.0949,7.56554,-2.45647,0.557611,0.215097,-0.393882
0.459415,-48.0478,7.55586,-2.46751,0.563778,0.212215,-0.39415
0.485357,-47.862,7.53336,-2.53933,0.557946,0.199789,-0.390661
0.532575,-47.6261,7.49881,-2.53908,0.54535,0.201843,-0.39719
0.650379,-47.3462,7.44877,-2.54135,0.531648,0.202598,-0.399462
0.76287,-47.0173,7.36829,-2.45666,0.512419,0.188949,-0.395937
0.852034,-46.6705,7.26904,-2.27341,0.49369,0.174747,-0.397179
0.910976,-46.3098,7.18082,-2.16331,0.472197,0.18343,-0.39557
0.888123,-45.9585,7.13732,-2.08176,0.46378,0.18576,-0.391835
0.897492,-45.6141,7.14744,-2.0547,0.456974,0.177345,-0.391991
0.898337,-45.3126,7.1212,-2.03237,0.430691,0.173997,-0.389697
0.853592,-44.9774,7.0936,-2.07928,0.438428,0.16363,-0.388457
0.86228,-44.6029,7.08,-2.15336,0.418255,0.165031,-0.387833
0.88669,-44.2667,7.0681,-2.11199,0.416591,0.158346,-0.391125
0.991,-43.9442,7.01539,-1.92682,0.381606,0.17178,-0.390305
1.12554,-43.6404,7.00291,-1.90193,0.390041,0.169282,-0.391386
1.12076,-43.377,6.99604,-1.87862,0.378347,0.152567,-0.389673
1.11669,-43.1258,7.0178,-2.09856,0.384683,0.160563,-0.392828
0.937616,-42.8425,7.05407,-2.22107,0.383963,0.159932,-0.391416
0.824442,-42.5629,7.15239,-2.2157,0.415294,0.158865,-0.393072
0.781272,-42.3418,7.20895,-2.1609,0.400323,0.168748,-0.388533
0.730222,-42.1578,7.30107,-2.24215,0.408627,0.161547,-0.387155
0.705389,-42.0132,7.40409,-2.50007,0.420198,0.150409,-0.388056
0.659464,-41.8139,7.46666,-2.69726,0.38272,0.153442,-0.385283
0.636943,-41.6248,7.48908,-2.49515,0.344783,0.15153,-0.386483
0.729531,-41.4408,7.56659,-2.52482,0.350407,0.165569,-0.383856
0.579364,-41.4103,7.63903,-2.77021,0.282958,0.181566,-0.388126
0.424096,-41.4205,7.82037,-3.21103,0.300916,0.179683,-0.385776
0.382161,-41.4178,7.93396,-3.07776,0.267109,0.209865,-0.387938
0.558865,-41.5283,8.00792,-3.02645,0.242757,0.189362,-0.386277
0.713226,-41.5296,8.18657,-3.14338,0.214026,0.197152,-0.386223
0.648532,-41.7379,8.30005,-3.4277,0.205118,0.210771,-0.387312
0.71496,-41.7434,8.36483,-3.2399,0.191361,0.223692,-0.387568
1.05742,-41.664,8.42292,-3.12227,0.182427,0.224115,-0.389088
1.08797,-41.5285,8.45101,-3.24376,0.144646,0.211428,-0.386115
0.910057,-41.2823,8.54408,-3.6246,0.164787,0.218625,-0.386472
0.90137,-41.2284,8.55845,-3.6251,0.131769,0.224819,-0.383807
1.20929,-41.3768,8.62297,-3.56679,0.139769,0.211814,-0.383259
1.39069,-41.4791,8.74962,-3.71902,0.148379,0.22877,-0.381206
1.38649,-41.6827,8.82674,-3.67378,0.11822,0.230438,-0.381591
1.78147,-42.047,8.88455,-3.56164,0.109501,0.205871,-0.382676
2.29541,-42.2722,9.02982,-3.41976,0.118462,0.206701,-0.378927
2.39988,-42.2204,9.14218,-3.47661,0.116232,0.222924,-0.379776
2.33144,-41.8931,9.05007,-3.39416,0.107126,0.209593,-0.381702
2.49992,-41.9063,8.89213,-3.40736,0.091228,0.197867,-0.383166
2.75632,-42.0678,9.00029,-3.58443,0.0819567,0.197834,-0.382771
2.80616,-42.3259,9.1692,-3.6842,0.099533,0.206471,-0.381129
2.98409,-42.7304,9.21087,-3.40285,0.0856652,0.22127,-0.387092
3.51626,-42.9615,9.3931,-3.21166,0.135185,0.234605,-0.383569
3.63618,-43.0862,9.46454,-3.17306,0.127472,0.24347,-0.38403
3.60301,-42.9628,9.39062,-3.13373,0.120666,0.22345,-0.381808
3.92692,-43.0362,9.34576,-3.10016,0.104005,0.211116,-0.385887
4.27833,-43.3082,9.43662,-3.06794,0.0709911,0.20482,-0.386271
4.47803,-43.6526,9.6065,-3.13851,0.0959593,0.215381,-0.388022
4.62789,-43.7285,9.714,-2.84276,0.103304,0.212662,-0.386194
4.86533,-43.7678,9.64925,-2.73011,0.0806141,0.211243,-0.390111
5.00001,-43.9046,9.53883,-2.79496,0.0580039,0.178382,-0.388782
5.1176,-44.0734,9.64362,-2.9456,0.0758086,0.192834,-0.391062
5.21158,-44.2872,9.74355,-2.71245,0.0527287,0.202255,-0.388524
5.46952,-44.5273,9.80557,-2.61169,0.0895667,0.18147,-0.3855
5.5629,-44.3957,9.89713,-2.56177,0.07987,0.182853,-0.387066
5.26606,-44.2619,9.89382,-2.66544,0.0625196,0.170897,-0.390175
5.04564,-44.5189,9.82542,-2.61034,0.040277,0.177444,-0.387898
5.18424,-44.9152,9.99958,-2.65906,0.0901642,0.185301,-0.38832
5.13724,-45.3085,10.2003,-2.75223,0.0364323,0.21847,-0.388732
4.97286,-45.1052,10.29,-2.88679,0.0684613,0.190799,-0.387958
4.81011,-44.8191,10.1301,-2.62838,0.0558652,0.191165,-0.385314
4.88952,-45.0846,10.067,-2.53698,0.0504388,0.188154,-0.388746
5.10728,-45.4525,10.3848,-2.7797,0.055374,0.179104,-0.388715
5.00661,-45.8555,10.5865,-2.95624,0.0801083,0.178883,-0.387159
4.95536,-45.7104,10.553,-2.70828,0.0811434,0.197002,-0.385041
5.01201,-45.3603,10.4323,-2.59767,0.0880569,0.217738,-0.38474
4.90611,-45.5865,10.399,-2.6966,0.0488483,0.166505,-0.388278
5.01814,-45.9758,10.6456,-2.89005,0.0723839,0.184902,-0.386381
5.21795,-46.4249,10.8142,-2.68711,0.0654302,0.186353,-0.383295
5.39127,-46.2853,10.8627,-2.50916,0.0817416,0.19779,-0.385474
5.26165,-45.7933,10.7774,-2.56449,0.0894124,0.20706,-0.382573
4.9901,-46.0225,10.6855,-2.68087,0.0629753,0.172102,-0.380993
5.14881,-46.5224,10.8209,-2.59355,0.0327138,0.173488,-0.380344
5.52992,-46.9218,11.0494,-2.44924,0.0670417,0.175025,-0.378124
5.42855,-46.4918,11.0985,-2.40145,0.0715777,0.158655,-0.378009
4.96064,-46.0222,10.8285,-2.64809,0.00916787,0.146601,-0.383554
4.77373,-46.333,10.6793,-2.45124,-0.0346329,0.165454,-0.384447
5.16132,-46.9024,11.0397,-2.49145,0.0439183,0.136679,-0.385118
5.27985,-47.1296,11.3657,-2.49807,0.00865471,0.159287,-0.386181
4.90776,-46.6777,11.3122,-2.62164,0.0162238,0.194533,-0.381275
4.47419,-46.6351,11.0985,-2.43162,0.0451446,0.119477,-0.379887
4.61581,-47.1548,11.2789,-2.42179,0.0441848,0.144302,-0.378035
4.86842,-47.7642,11.7592,-2.56394,0.0350619,0.178289,-0.381577
4.74669,-47.7018,12.0358,-2.61708,0.0705622,0.172202,-0.376702
4.41244,-47.2965,11.8547,-2.40597,0.0762362,0.1784,-0.379067
4.45154,-47.5942,11.7547,-2.36316,0.0612783,0.164967,-0.379743
4.75804,-48.2556,12.1368,-2.4071,0.046216,0.194408,-0.378927
4.96108,-48.8007,12.5538,-2.52408,0.11475,0.166349,-0.374168
4.90192,-48.4756,12.5895,-2.21383,0.14068,0.217157,-0.374988
4.75666,-48.4432,12.2801,-2.15584,0.0973566,0.235132,-0.376535
4.78786,-48.9132,12.4905,-2.18824,0.100296,0.173855,-0.36986
4.97665,-49.5881,13.0477,-2.31935,0.185337,0.194055,-0.370833
4.97884,-49.56,13.3347,-2.1303,0.177421,0.272119,-0.372241
4.71303,-49.308,13.1289,-1.99884,0.133712,0.229085,-0.373875
4.60593,-49.6019,13.1785,-2.00832,0.126483,0.213069,-0.368925
4.8537,-50.2884,13.6831,-2.11143,0.209378,0.231485,-0.368518
5.16286,-50.6025,14.0616,-2.06164,0.205568,0.238011,-0.373061
5.13289,-50.3128,13.8881,-1.78929,0.124311,0.25432,-0.370403
5.20849,-50.4783,13.7699,-1.76338,0.177979,0.190671,-0.368841
5.4728,-51.1338,14.0562,-1.78521,0.189134,0.197797,-0.372404
5.74175,-51.4071,14.3817,-1.87989,0.16029,0.263734,-0.369667
5.60918,-51.0895,14.3533,-1.64896,0.150041,0.24047,-0.370545
5.44542,-51.2216,14.1725,-1.66106,0.183927,0.223783,-0.365908
5.66768,-51.6695,14.4334,-1.6315,0.141419,0.240156,-0.373737
6.07406,-51.9465,14.8506,-1.58524,0.170629,0.225781,-0.372765
5.96545,-51.8259,14.7669,-1.41676,0.206544,0.252978,-0.374769
5.8952,-51.9596,14.4563,-1.29436,0.154344,0.203761,-0.373165
6.13221,-52.3209,14.6047,-1.2483,0.125863,0.20131,-0.373475
6.3131,-52.4617,14.9595,-1.20548,0.173452,0.301384,-0.373435
5.97407,-52.3633,14.9172,-1.34541,0.166933,0.308756,-0.372262
5.74407,-52.5438,14.7719,-1.34239,0.149387,0.253927,-0.371032
6.35249,-52.8014,15.0269,-1.15207,0.175591,0.289739,-0.368847
6.89211,-52.7399,15.2666,-0.789529,0.190441,0.302754,-0.369782
6.72419,-52.7688,14.9264,-0.731515,0.127616,0.267454,-0.371588
6.43321,-53.0327,14.6714,-0.902004,0.0900694,0.238733,-0.37024
6.68535,-53.2415,14.9979,-0.71419,0.142485,0.207583,-0.368423
6.86963,-53.0466,15.2169,-0.408273,0.14488,0.26888,-0.370899
6.62854,-53.1708,14.9734,-0.447816,0.0774778,0.284621,-0.37222
6.63311,-53.4686,14.8456,-0.699847,0.120718,0.197528,-0.367896
6.87882,-53.4121,14.8897,-0.662302,0.120188,0.235692,-0.367688
6.66634,-52.9681,14.6862,-0.421137,0.0903418,0.297255,-0.371897
6.45766,-52.9788,14.4093,-0.475099,0.0653473,0.226247,-0.370591
6.88004,-53.2841,14.696,-0.419377,0.0932545,0.246252,-0.370498
7.38973,-53.3996,15.01,-0.205618,0.125227,0.30328,-0.371239
7.01139,-53.3833,14.6791,-0.213836,0.134202,0.227643,-0.37005
6.42004,-53.5159,14.3199,-0.419189,0.0876056,0.219757,-0.37453
6.66756,-53.5157,14.6041,-0.235452,0.0771048,0.279663,-0.376601
7.01079,-53.2731,15.015,0.0582791,0.138906,0.277979,-0.371841
6.69766,-53.5666,14.8241,0.12043,0.100033,0.255198,-0.374032
6.32166,-53.9517,14.6042,-0.145614,0.0947956,0.236232,-0.380162
6.36356,-53.7667,14.7734,-0.139469,0.122967,0.213023,-0.380905
6.21304,-53.5395,14.8913,0.0880539,0.133034,0.228111,-0.384424
6.06173,-53.9096,14.8394,0.294842,0.0973339,0.280447,-0.383921
6.31171,-54.3064,15.0053,0.296817,0.119207,0.215963,-0.380888
6.16176,-54.1578,15.1658,0.497178,0.137785,0.216431,-0.380605
5.59727,-54.0326,14.9014,0.362518,0.111561,0.265158,-0.386904
5.58765,-54.299,14.8839,0.281232,0.100935,0.225923,-0.386737
6.25569,-54.6373,15.2194,0.552734,0.154246,0.178003,-0.380472
6.15639,-54.4292,15.3192,1.00099,0.135398,0.26662,-0.381178
5.21533,-54.4607,14.9664,0.777127,0.100661,0.230585,-0.384194
4.9955,-54.6372,15.0347,0.444574,0.0969015,0.163333,-0.38509
5.66962,-54.6906,15.5395,0.853397,0.113342,0.25485,-0.38749
5.69778,-54.8869,15.5334,1.13215,0.112852,0.287965,-0.384979
4.7637,-55.2033,15.1618,0.873844,0.0666953,0.195067,-0.378607
4.54924,-55.1118,15.2607,0.508203,0.0927889,0.222579,-0.378356
5.05671,-54.7164,15.6762,0.960963,0.156885,0.31388,-0.378056
5.10082,-55.0579,15.5913,1.35452,0.127278,0.238801,-0.378419
4.59086,-55.5545,15.4072,1.15657,0.0505648,0.212349,-0.382034
4.36148,-55.4835,15.6378,1.00939,0.13007,0.226967,-0.383733
4.39678,-55.1149,15.8906,1.13533,0.159062,0.196337,-0.383037
4.3837,-55.5166,15.8442,1.20686,0.0576142,0.165306,-0.390344
4.19572,-56.0656,15.8565,1.30049,0.0721544,0.209531,-0.390792
3.93301,-55.7991,16.0655,1.1603,0.159364,0.163968,-0.389698
3.46565,-55.5194,16.0957,1.12451,0.127294,0.147917,-0.386065
3.45758,-55.9073,16.0797,1.28813,0.0964056,0.21501,-0.394076
3.87582,-56.3151,16.2398,1.44598,0.112284,0.19751,-0.393066
3.46921,-56.0767,16.3141,1.5952,0.0711598,0.189048,-0.390097
2.68816,-56.0718,16.2064,1.37011,0.0848325,0.225973,-0.388221
2.82499,-56.3796,16.3689,1.31287,0.168277,0.19495,-0.386684
3.55497,-56.5449,16.6155,1.69643,0.16671,0.164552,-0.385915
3.04705,-56.4536,16.4981,2.04753,0.092605,0.235847,-0.387982
2.17393,-56.5706,16.3733,1.63677,0.149688,0.195232,-0.384708
2.42725,-56.7719,16.6645,1.41082,0.187961,0.163664,-0.381073
3.07745,-56.8583,16.9495,1.92821,0.174564,0.231377,-0.376846
2.43326,-56.9735,16.789,2.1896,0.184155,0.22717,-0.37794
1.47667,-57.1626,16.6938,1.7217,0.175551,0.189183,-0.377179
1.76975,-57.2144,16.9936,1.56905,0.157923,0.22017,-0.379841
2.41633,-57.0542,17.2596,2.09908,0.221193,0.210143,-0.378073
1.83561,-57.3895,17.0401,2.3226,0.197685,0.16094,-0.379453
1.03249,-57.6639,16.9023,1.85531,0.154801,0.2136,-0.38526
1.31142,-57.4953,17.249,1.79816,0.16537,0.185089,-0.384737
1.83226,-57.3673,17.4446,2.3109,0.239247,0.153105,-0.379334
1.32981,-57.799,17.2033,2.46835,0.183411,0.188999,-0.387626
0.657832,-58.1011,17.1469,2.06628,0.0978264,0.182125,-0.39008
0.76692,-57.8831,17.5146,1.97607,0.166813,0.162881,-0.390756
1.02699,-57.7972,17.6348,2.38214,0.247866,0.233667,-0.387901
0.706186,-58.2195,17.4467,2.52068,0.219982,0.195151,-0.388558
0.179042,-58.5344,17.4423,2.2459,0.157824,0.146808,-0.387216
0.115356,-58.2779,17.7489,2.25903,0.179003,0.264542,-0.386307
0.220267,-58.2361,17.8258,2.54941,0.266381,0.255693,-0.383504
0.172429,-58.7085,17.6836,2.71877,0.269529,0.164627,-0.37656
-0.157895,-59.0514,17.6975,2.66289,0.196479,0.199755,-0.375922
-0.381642,-58.7321,17.9667,2.65309,0.21084,0.234873,-0.380379
-0.454157,-58.663,17.9572,2.77251,0.261582,0.200098,-0.37588
-0.312497,-59.0835,17.7893,2.91069,0.263638,0.197018,-0.371205
-0.373866,-59.3918,17.8273,3.04101,0.215901,0.165907,-0.365706
-0.649318,-59.1517,17.9866,3.06592,0.204187,0.187747,-0.36952
-0.898247,-59.036,17.8906,3.09825,0.230883,0.275611,-0.367121
-0.706932,-59.3909,17.7767,3.27449,0.249788,0.204401,-0.361004
-0.481391,-59.8132,17.8688,3.5161,0.24723,0.155598,-0.356351
-0.683712,-59.6665,18.0067,3.60973,0.22211,0.259789,-0.363774
-1.20928,-59.4622,17.8733,3.49489,0.193115,0.254636,-0.368129
-1.19876,-59.6712,17.7838,3.51694,0.19763,0.188519,-0.370011
-0.711987,-60.1532,17.9137,3.7613,0.230683,0.222879,-0.368378
-0.770643,-60.2073,18.0618,3.97064,0.225404,0.212965,-0.367055
-1.38788,-59.8304,17.882,3.84855,0.214539,0.199902,-0.370004
-1.68934,-59.9205,17.7042,3.72913,0.196882,0.237591,-0.372843
-1.23243,-60.4085,17.889,3.89424,0.233953,0.184496,-0.371504
-0.805191,-60.7016,18.1297,4.22244,0.272669,0.174269,-0.368951
-1.25726,-60.3184,17.9729,4.23204,0.219009,0.232539,-0.373639
-2.02202,-60.1577,17.7056,4.05793,0.167103,0.205568,-0.371344
-2.01109,-60.5012,17.8282,4.09038,0.21057,0.205218,-0.368927
-1.26933,-61.0107,18.1777,4.30925,0.253689,0.203105,-0.366088
-1.19995,-60.8832,18.2668,4.68417,0.256879,0.191749,-0.363347
-2.00162,-60.6458,17.9096,4.57869,0.229488,0.240475,-0.368654
-2.59741,-60.7551,17.8175,4.31791,0.228177,0.225474,-0.367494
-2.3219,-61.2384,18.1777,4.44199,0.233745,0.150155,-0.362823
-1.62671,-61.4528,18.4758,4.75816,0.282519,0.200357,-0.362741
-1.84166,-61.0694,18.3601,5.10588,0.296908,0.266777,-0.365727
-2.65022,-61.0836,18.0203,4.84999,0.244434,0.164958,-0.362087
-3.01691,-61.4086,18.1256,4.7092,0.246436,0.176595,-0.361072
-2.58517,-61.7516,18.5597,4.92063,0.296926,0.221964,-0.359548
-2.10987,-61.6935,18.739,5.32084,0.336415,0.210746,-0.360164
-2.10987,-61.6935,18.739,5.32084,0.336415,0.210746,-0.360164
-2.97391,-61.6012,18.1509,5.22428,0.279626,0.18377,-0.357895
-3.14808,-61.9167,18.3563,5.08844,0.320113,0.174883,-0.355293
-2.85794,-62.0956,18.7266,5.29452,0.310326,0.236062,-0.356331
-2.63301,-61.8729,18.8215,5.59886,0.329516,0.24205,-0.356345
-2.87788,-61.7349,18.5587,5.67338,0.360003,0.226864,-0.352043
-3.18322,-61.9901,18.3596,5.51612,0.313046,0.217501,-0.355031
-3.25445,-62.2662,18.4899,5.43981,0.288262,0.208337,-0.359237
-3.08986,-62.4222,18.7471,5.62684,0.331769,0.268212,-0.355026
-3.14679,-62.1636,18.9251,5.87135,0.388887,0.265795,-0.352526
-3.35925,-61.996,18.7492,5.96164,0.346709,0.226995,-0.346399
-3.40822,-62.3568,18.5686,5.9025,0.314762,0.270559,-0.348364
-3.24689,-62.689,18.6555,5.92107,0.34481,0.274887,-0.34751
-3.18001,-62.8832,18.8067,6.07079,0.33088,0.229998,-0.339501
-3.31796,-62.5852,18.9152,6.26903,0.335034,0.290622,-0.338786
-3.6809,-62.3531,18.8592,6.31073,0.378631,0.339652,-0.341802
-3.81654,-62.7296,18.8071,6.23757,0.36652,0.305899,-0.338268
-3.54562,-63.1043,18.8993,6.20435,0.370624,0.314466,-0.334325
-3.19866,-63.3801,18.9701,6.31603,0.407556,0.287947,-0.339395
-3.32605,-63.358,19.0162,6.57059,0.382012,0.342821,-0.340183
-3.70019,-63.0513,19.07,6.69375,0.388537,0.37607,-0.342918
-4.01743,-63.1523,19.0874,6.65307,0.430813,0.32988,-0.339841
-4.05998,-63.6411,19.1544,6.65399,0.455603,0.353709,-0.34038
-3.7911,-63.9579,19.2838,6.68398,0.463206,0.386188,-0.341994
-3.56172,-64.1655,19.3497,6.97485,0.461535,0.370301,-0.342751
-3.47017,-64.127,19.3814,7.23278,0.454682,0.385419,-0.341772
-3.70228,-64.0472,19.3412,7.31465,0.512357,0.36519,-0.339535
-3.92039,-64.2217,19.2716,7.31004,0.494567,0.353496,-0.340581
-3.92554,-64.466,19.32,7.19674,0.485488,0.368745,-0.343151
-3.83862,-64.6379,19.4002,7.19977,0.494854,0.302514,-0.340086
-3.6384,-64.8052,19.4022,7.46407,0.470017,0.309518,-0.346518
-3.38084,-64.7914,19.412,7.67218,0.481512,0.368367,-0.351489
-3.19303,-64.7526,19.3605,7.88821,0.504587,0.304455,-0.347052
-3.22141,-64.8296,19.2168,8.00872,0.468158,0.283387,-0.347097
-3.2395,-65.0493,19.1536,8.01317,0.445423,0.310639,-0.349647
-3.25184,-65.2209,19.2195,7.98452,0.465601,0.303119,-0.351661
-3.37487,-65.408,19.2945,8.12226,0.470063,0.29413,-0.348812
-3.37115,-65.5829,19.3717,8.24558,0.499862,0.253804,-0.348179
-3.1652,-65.636,19.3996,8.41948,0.510747,0.31214,-0.352484
-2.95755,-65.6236,19.2838,8.69376,0.476387,0.339386,-0.352009
-2.81047,-65.7086,19.155,8.68227,0.490857,0.268409,-0.348256
-2.90102,-65.9664,19.1414,8.71289,0.481283,0.305695,-0.348512
-3.04222,-66.2385,19.2694,8.85888,0.46373,0.353817,-0.349719
-3.18783,-66.645,19.4227,8.97416,0.519101,0.296869,-0.346823
-3.34429,-67.147,19.6176,9.14996,0.546035,0.280575,-0.347052
-3.38017,-67.5129,19.8189,9.29796,0.505977,0.333531,-0.349372
-3.32796,-67.6756,19.9251,9.39072,0.518005,0.288889,-0.348203
-3.2931,-67.8451,19.9031,9.63291,0.545378,0.290944,-0.345956
-3.24701,-68.2156,19.9298,9.73472,0.588672,0.295347,-0.346208
-3.38246,-68.788,20.1491,9.89833,0.580949,0.284212,-0.346352
-3.69596,-69.462,20.493,10.1445,0.589753,0.288621,-0.347107
-3.98005,-70.2081,20.8143,10.242,0.601868,0.296081,-0.348793
-4.26313,-70.7994,21.1229,10.3949,0.656938,0.295841,-0.34781
-4.35895,-71.2632,21.4206,10.4813,0.682882,0.293433,-0.347138
-4.2219,-71.583,21.5948,10.5569,0.709709,0.304092,-0.345918
-4.00807,-71.7286,21.5757,10.8415,0.683936,0.320126,-0.344293
-3.796,-71.8097,21.5075,10.9436,0.659225,0.336787,-0.337289
-3.77375,-71.9598,21.545,11.1374,0.698659,0.338783,-0.322638
-3.88932,-72.3028,21.5896,11.2895,0.716805,0.354624,-0.306257
-3.94755,-72.5917,21.6805,11.2585,0.717508,0.360407,-0.291369
-3.9563,-72.6856,21.8179,11.374,0.733231,0.356922,-0.276898
-3.94254,-72.7801,21.8355,11.4113,0.759418,0.361886,-0.263342
-3.81477,-72.8767,21.7587,11.4255,0.746838,0.378973,-0.251105
-3.48689,-72.8623,21.5385,11.5979,0.716702,0.368169,-0.237875
-3.01383,-72.7568,21.3571,11.722,0.733244,0.355654,-0.223454
-2.56144,-72.5443,21.2142,12.0356,0.724361,0.37061,-0.212099
-2.26536,-72.3283,21.0628,12.2375,0.696969,0.389182,-0.199923
-2.25301,-72.1233,20.916,12.154,0.70952,0.376825,-0.186549
-2.37873,-71.8685,20.6093,12.1624,0.694528,0.376352,-0.173766
-2.34137,-71.5418,20.3357,12.0935,0.700745,0.385975,-0.162094
-1.97006,-71.0868,20.2151,12.1847,0.701887,0.385132,-0.147479
-1.48474,-70.8707,19.9328,12.2896,0.676722,0.36635,-0.133208
-1.16085,-70.7937,19.4131,12.4182,0.646239,0.36546,-0.120889
-0.871391,-70.5681,19.1156,12.6657,0.671785,0.35244,-0.106724
-0.534597,-70.3225,19.0955,12.8242,0.679744,0.36197,-0.0935951
-0.390908,-70.2101,18.845,12.7793,0.639492,0.370812,-0.0832249
-0.544786,-70.0081,18.352,12.8411,0.601901,0.356104,-0.0708182
-0.486774,-69.5908,18.1974,12.7984,0.639795,0.361634,-0.0597516
-0.154422,-69.2561,18.1287,12.8963,0.641581,0.399536,-0.0521032
0.190055,-69.0597,17.5707,13.0284,0.562262,0.350667,-0.040569
0.552656,-68.7265,17.1245,13.1428,0.581952,0.327071,-0.0293312
0.796042,-68.4248,17.0923,13.3148,0.598915,0.341386,-0.0250219
0.835818,-68.2334,16.7879,13.3408,0.553574,0.354686,-0.017964
0.769197,-67.8901,16.2999,13.2942,0.501562,0.309989,-0.0107158
0.873729,-67.4585,16.1183,13.3688,0.496626,0.339959,-0.00353489
1.08255,-67.2243,15.8376,13.3344,0.547821,0.329151,0.0053121
1.27488,-66.9168,15.1635,13.4336,0.474347,0.276003,0.00951158
1.72957,-66.4758,14.6901,13.6003,0.422334,0.266435,0.0124725
2.09782,-66.1602,14.3809,13.6796,0.409536,0.236148,0.0155561
2.11526,-65.942,13.6638,13.7269,0.341759,0.205263,0.0155322
2.07821,-65.4748,13.0425,13.7333,0.276464,0.176398,0.0180602
2.20346,-64.8406,12.6736,13.6814,0.224117,0.15971,0.0189185
2.20346,-64.8406,12.6736,13.6814,0.224117,0.15971,0.0189185
2.30592,-63.5351,11.2796,13.4156,0.132486,0.107148,0.0178782
2.1975,-62.7609,10.8182,13.1844,0.0734705,0.0709494,0.0194638
1.98999,-62.0275,10.5138,12.9024,0.0372172,0.0437101,0.0185101
1.59394,-61.3703,10.2143,12.7406,0.0231201,0.0472018,0.0171587
1.01856,-60.8272,9.93582,12.5463,0.0336446,0.030361,0.0194563
0.300863,-60.1746,9.79204,12.2807,-0.0232735,0.0256954,0.020033
-0.569274,-59.4874,9.73581,12.0059,-0.0226077,0.0368726,0.0206203
-1.45153,-58.8674,9.66456,11.7112,0.012531,0.0419912,0.0204327
-2.25901,-58.1903,9.64865,11.3869,-0.0138721,0.053489,0.0112865
-3.11157,-57.5238,9.60958,11.1779,-0.032828,0.0542237,-0.00121649
-3.95729,-56.9189,9.58906,10.9168,0.00320136,0.0573035,-0.0140543
-4.80395,-56.3396,9.72065,10.6239,-0.00958842,0.0719433,-0.0282073
-5.71223,-55.8371,9.75266,10.3675,0.0170896,0.0638819,-0.0396384
-6.67063,-55.2832,9.79375,10.0899,0.0384605,0.063317,-0.0515303
-7.66347,-54.7214,9.91535,9.73635,0.0268034,0.078662,-0.0661426
-8.65306,-54.1967,10.0955,9.4206,0.0558259,0.0781644,-0.0788418
-9.67722,-53.685,10.423,9.08092,0.0955069,0.0872157,-0.0930293
-10.7764,-53.3372,10.7048,8.78414,0.109629,0.0923013,-0.106687
-11.8344,-53.1044,10.8135,8.55359,0.130471,0.0796125,-0.119916
-12.8443,-52.7625,10.9502,8.28516,0.115657,0.0748853,-0.134101
-13.8086,-52.4206,11.4354,8.01331,0.207169,0.0853023,-0.147561
-14.6335,-52.2822,11.8911,7.85192,0.264342,0.103084,-0.161909
-15.0311,-52.2664,11.8279,7.716,0.221281,0.0728922,-0.177944
-15.1875,-52.047,11.8692,7.61085,0.2409,0.0628761,-0.189899
-15.4827,-51.8701,12.4478,7.53389,0.373867,0.0895282,-0.201586
-15.7415,-52.0071,12.608,7.49545,0.347523,0.0750082,-0.215626
-15.9746,-52.0666,12.4224,7.36087,0.286722,0.0537236,-0.225153
-16.2422,-51.9045,12.9518,7.2419,0.396719,0.0683135,-0.238619
-16.2031,-52.0054,13.3483,7.32508,0.449102,0.119112,-0.244307
-15.7582,-52.2395,13.0695,7.37355,0.388573,0.109037,-0.250621
-15.3439,-52.2907,13.2787,7.49795,0.443982,0.112696,-0.259566
-15.135,-52.6613,13.6823,7.79176,0.484811,0.148593,-0.26444
-15.1751,-53.1086,13.714,7.88006,0.460637,0.163565,-0.271015
-15.1612,-53.4487,14.1636,7.93904,0.546578,0.163523,-0.278309
-14.6044,-54.3058,14.6634,8.2824,0.630075,0.179878,-0.280784
-13.9502,-55.3475,14.8246,8.61469,0.588522,0.205174,-0.286067
-13.8474,-56.3271,15.373,8.83656,0.709814,0.161144,-0.285787
-14.0112,-57.6782,16.2194,9.01043,0.791303,0.214642,-0.292521
-13.7741,-59.2668,16.8243,9.29452,0.825355,0.222128,-0.29866
-13.0258,-60.8857,17.3221,9.75926,0.896474,0.169281,-0.299411
-12.396,-62.7768,18.1417,10.3014,0.975064,0.206804,-0.305877
-12.1152,-64.7453,19.0164,10.7869,1.03532,0.238623,-0.310016
-11.7988,-66.5784,19.5023,11.1795,1.05776,0.198192,-0.314962
-10.942,-68.2737,19.9049,11.7869,1.11616,0.189884,-0.317483
-9.52865,-69.6952,20.3679,12.4671,1.16056,0.231692,-0.321709
-8.15154,-70.9524,20.6163,13.0225,1.19622,0.193173,-0.321163
-7.07951,-71.9056,20.6956,13.4262,1.18983,0.190828,-0.32174
-6.20863,-72.6944,20.7039,13.689,1.18564,0.242682,-0.323426
-5.079,-73.4189,20.8026,14.0683,1.22756,0.207695,-0.322012
-3.53669,-74.152,20.844,14.5451,1.22856,0.195644,-0.323352
-1.79463,-74.9249,20.6304,15.0171,1.1833,0.229833,-0.325515
-0.168488,-75.5076,20.3403,15.4383,1.17057,0.195141,-0.325816
1.26626,-75.9172,20.1073,15.8424,1.14195,0.179937,-0.326631
2.52689,-76.1989,19.9998,16.3026,1.10863,0.221776,-0.32837
3.66403,-76.4578,19.8868,16.6568,1.11274,0.215874,-0.326924
4.96372,-76.7436,19.6206,16.9404,1.09371,0.197724,-0.325922
6.42012,-76.8486,19.3026,17.2394,1.04289,0.207433,-0.326254
7.90646,-76.758,19.0078,17.5382,1.02545,0.174863,-0.327056
9.28434,-76.6496,18.6429,17.8789,1.01192,0.169532,-0.326667
10.5256,-76.585,18.2304,18.1456,0.96553,0.165965,-0.326519
11.6205,-76.4981,17.8888,18.3107,0.9128,0.157326,-0.326349
12.5606,-76.2681,17.6101,18.4249,0.900715,0.149507,-0.324787
13.3423,-75.9021,17.2513,18.4235,0.893876,0.138136,-0.321919
13.96,-75.4514,16.9301,18.4861,0.851532,0.150337,-0.31978
14.3885,-75.0816,16.6666,18.5092,0.822749,0.152986,-0.311343
14.5985,-74.7501,16.3284,18.5091,0.797555,0.144618,-0.301505
14.6536,-74.3561,15.9992,18.5277,0.751632,0.153155,-0.292235
14.7015,-73.9141,15.8108,18.4751,0.743174,0.1541,-0.281819
14.8099,-73.453,15.6715,18.4758,0.752779,0.151994,-0.271842
14.9244,-73.0784,15.3119,18.4688,0.7146,0.152331,-0.263077
14.9695,-72.6773,14.8649,18.4215,0.652149,0.151138,-0.255499
14.9685,-72.2438,14.68,18.4378,0.661484,0.162595,-0.248301
15.0557,-71.9102,14.6363,18.2917,0.667549,0.179334,-0.242694
15.164,-71.6078,14.2856,18.1497,0.62842,0.181399,-0.236374
15.1243,-71.1512,13.7819,18.1169,0.549924,0.178712,-0.228521
15.1341,-70.6552,13.6397,17.9875,0.572305,0.178145,-0.220885
15.1271,-70.2106,13.5775,17.992,0.584504,0.196194,-0.213402
14.9544,-69.8341,13.0489,17.8996,0.499996,0.193926,-0.204249
14.5926,-69.3353,12.691,17.8087,0.447245,0.205493,-0.194877
14.2461,-68.9012,12.8044,17.7616,0.481484,0.248486,-0.184802
13.9817,-68.7704,12.6164,17.7814,0.466907,0.268701,-0.17344
13.8869,-68.6107,12.102,17.6992,0.406562,0.247599,-0.162904
13.9053,-68.315,12.0234,17.7334,0.392927,0.232114,-0.155959
13.877,-68.1516,12.0172,17.6758,0.382446,0.261782,-0.1503
13.8281,-68.0098,11.5426,17.621,0.340197,0.234591,-0.139973
13.6612,-67.7154,11.2616,17.655,0.322257,0.233732,-0.128036
13.3286,-67.5072,11.4358,17.5534,0.347286,0.280074,-0.120756
12.8849,-67.4675,11.2473,17.4992,0.336065,0.268812,-0.111704
12.5228,-67.3518,10.8617,17.624,0.259853,0.26209,-0.104343
12.5429,-67.2135,10.902,17.6049,0.283629,0.295491,-0.098985
12.5385,-67.181,10.8166,17.7155,0.313818,0.282928,-0.0918639
12.4782,-67.0989,10.3209,17.7774,0.251082,0.276742,-0.0843638
12.1938,-66.8731,10.1986,17.7784,0.232234,0.288069,-0.0787646
11.7394,-66.7473,10.3743,17.7839,0.277772,0.281985,-0.0737842
11.2161,-66.7591,10.1564,17.7343,0.246167,0.262185,-0.0689576
10.85,-66.7298,9.85107,17.7006,0.18538,0.2673,-0.0657569
10.8201,-66.6774,9.91421,17.7096,0.209942,0.263069,-0.0623834
10.8594,-66.6434,9.9,17.8409,0.21579,0.260119,-0.0588572
10.7885,-66.5967,9.48919,17.7722,0.174813,0.2443,-0.0562943
10.3503,-66.4538,9.20951,17.7401,0.130479,0.245006,-0.057719
9.81502,-66.2896,9.33056,17.7059,0.151044,0.243473,-0.0617999
9.34914,-66.2317,9.36724,17.6271,0.160192,0.231963,-0.0657543
9.03119,-66.2577,9.09838,17.6188,0.120679,0.227648,-0.06944
8.88155,-66.1063,8.82335,17.6213,0.091396,0.224155,-0.072928
8.73085,-65.9008,8.75598,17.5689,0.0713465,0.217503,-0.0762415
8.3892,-65.8611,8.75,17.516,0.0802386,0.197749,-0.0784989
7.79027,-65.8398,8.78663,17.4059,0.0830171,0.193024,-0.0821774
7.14167,-65.8845,8.86291,17.2194,0.0998481,0.183598,-0.0873845
6.41371,-65.8905,9.03958,17.1387,0.124322,0.176143,-0.0914699
5.68456,-65.9332,9.20014,17.0422,0.123369,0.169563,-0.0964871
5.05183,-65.9614,9.27025,16.9416,0.141665,0.16913,-0.102091
4.52472,-65.9456,9.39202,16.8249,0.163398,0.16714,-0.109704
4.01943,-65.9234,9.55058,16.7312,0.177405,0.158834,-0.11701
3.49975,-65.8984,9.69248,16.6468,0.189558,0.14868,-0.124752
2.91682,-65.8424,9.78119,16.4808,0.212181,0.133602,-0.132603
2.30541,-65.7414,9.88657,16.3531,0.220972,0.125394,-0.140435
1.73677,-65.6103,10.0303,16.1952,0.239903,0.112307,-0.147895
1.16293,-65.5263,10.121,16.0286,0.249886,0.0930711,-0.156164
0.670095,-65.4262,10.2102,15.8488,0.262523,0.0938608,-0.165149
0.365957,-65.2831,10.317,15.6335,0.281123,0.0940871,-0.174136
0.122513,-65.2444,10.3751,15.5486,0.288435,0.0669135,-0.180617
-0.112544,-65.1672,10.4463,15.4602,0.294266,0.0706983,-0.189238
-0.49136,-65.0892,10.5686,15.3513,0.308206,0.0882742,-0.199199
-0.975089,-65.111,10.7398,15.2135,0.335196,0.0795096,-0.208264
-1.5206,-65.1804,10.9514,15.0623,0.358602,0.0939716,-0.216891
-2.01291,-65.2328,11.1822,14.8944,0.380602,0.100969,-0.225917
-2.37788,-65.1992,11.3811,14.7586,0.413052,0.103145,-0.233646
-2.60866,-65.1734,11.4963,14.6402,0.425447,0.110751,-0.241644
-2.70681,-65.1349,11.5905,14.5076,0.439386,0.119777,-0.249055
-2.70681,-65.1349,11.5905,14.5076,0.439386,0.119777,-0.249055
-2.86104,-64.8019,11.7602,14.2123,0.477508,0.0958463,-0.261367
-2.93696,-64.6069,11.8323,14.0445,0.482433,0.111173,-0.266774
-2.90745,-64.307,11.9599,13.9151,0.521951,0.0956785,-0.269781
-2.75883,-64.0518,12.0199,13.7687,0.536136,0.0973383,-0.272827
-2.5754,-63.8114,12.0013,13.6122,0.527655,0.110294,-0.276025
-2.3734,-63.4941,12.0338,13.4783,0.568791,0.100981,-0.274965
-2.16354,-63.228,12.0243,13.3781,0.570127,0.108685,-0.268186
-1.89194,-62.9562,11.9954,13.2997,0.557859,0.110816,-0.259615
-1.69206,-62.7791,11.9901,13.1782,0.580963,0.112658,-0.250718
-1.60997,-62.6515,11.9519,13.1386,0.575283,0.109029,-0.242788
-1.52962,-62.4547,11.9143,13.0277,0.561271,0.10912,-0.236613
-1.37642,-62.2666,11.8871,13.0157,0.565043,0.107004,-0.229399
-1.19826,-62.1977,11.824,13.0782,0.576751,0.105176,-0.220209
-0.95116,-62.141,11.8145,13.0863,0.565566,0.113956,-0.211825
-0.650957,-62.0731,11.7743,13.1287,0.558386,0.118213,-0.202269
-0.27562,-62.0226,11.6339,13.2485,0.581427,0.122166,-0.190462
0.182767,-61.9682,11.3794,13.3785,0.54228,0.136793,-0.179102
0.694227,-61.922,11.1828,13.5929,0.526973,0.142877,-0.167352
1.08983,-61.9165,11.1331,13.8593,0.54512,0.150403,-0.156433
1.34181,-61.9484,11.1072,14.0908,0.540032,0.174378,-0.144993
1.50716,-62.0964,10.9392,14.4371,0.5313,0.200439,-0.134113
1.70552,-62.2866,10.7247,14.74,0.507249,0.208456,-0.122825
2.01388,-62.4027,10.7121,15.1397,0.520989,0.238944,-0.110824
2.46102,-62.4667,10.7212,15.4822,0.572632,0.251339,-0.101214
2.82735,-62.4829,10.3983,15.8518,0.527277,0.273494,-0.0925758
3.1857,-62.4087,10.0014,16.1786,0.472561,0.274496,-0.0842469
3.37448,-62.3662,10.0782,16.4739,0.51986,0.306753,-0.0759948
3.34616,-62.4281,10.1705,16.6545,0.520429,0.335966,-0.0705554
3.12735,-62.4583,9.78931,16.7692,0.460725,0.332019,-0.062461
2.93995,-62.3229,9.68385,16.8961,0.468657,0.354968,-0.0561805
3.06425,-62.2591,9.93009,17.0557,0.516518,0.3993,-0.0531087
3.21201,-62.4111,9.66284,17.2515,0.477239,0.392461,-0.0476133
3.33498,-62.4147,9.2108,17.4054,0.399128,0.381798,-0.043705
3.45962,-62.3343,9.35993,17.5427,0.4234,0.427212,-0.0484521
3.18152,-62.3953,9.44654,17.7412,0.488579,0.428035,-0.0507199
2.64578,-62.4062,9.09512,17.767,0.411411,0.391583,-0.0560154
2.28924,-62.189,9.18005,17.7726,0.412723,0.406004,-0.0639044
2.00367,-62.0378,9.41483,17.8662,0.47926,0.387122,-0.0696507
1.74327,-62.0538,9.04862,17.8678,0.400394,0.411832,-0.0757023
1.61915,-61.9375,8.92157,17.8723,0.392035,0.386108,-0.0803368
1.70689,-62.0889,9.18527,17.9027,0.469175,0.375995,-0.0876034
1.39165,-62.4554,8.94669,17.9076,0.408563,0.390561,-0.0966044
0.75948,-62.5811,8.86989,17.8567,0.422417,0.364513,-0.103567
0.327321,-62.6796,9.30498,17.7357,0.509228,0.359173,-0.112065
-0.222751,-62.9544,9.24287,17.9065,0.476185,0.365009,-0.121525
-0.715139,-63.0294,9.04252,17.8433,0.495334,0.358395,-0.130109
-0.73204,-62.8902,9.36132,17.7997,0.562094,0.350048,-0.140273
-0.90791,-62.81,9.34701,17.6712,0.567942,0.295034,-0.149124
-1.41077,-62.735,8.93642,17.5211,0.511552,0.310289,-0.161995
-1.82769,-62.8882,9.11542,17.5561,0.5552,0.39097,-0.170529
-2.31425,-63.384,9.54286,17.4135,0.631477,0.314519,-0.179904
-3.19206,-63.8665,9.42963,17.4807,0.55707,0.299249,-0.191825
-4.06323,-64.4058,9.62039,17.3742,0.59568,0.337422,-0.206776
-4.06323,-64.4058,9.62039,17.3742,0.59568,0.337422,-0.206776
-5.7152,-65.5393,10.3845,17.5322,0.640581,0.254219,-0.229354
-6.51798,-66.1087,10.3625,17.4649,0.616931,0.328782,-0.236052
-6.51798,-66.1087,10.3625,17.4649,0.616931,0.328782,-0.236052
-8.39049,-67.7985,11.4178,17.4607,0.741802,0.246114,-0.250631
-9.88034,-69.1546,11.4441,17.9209,0.636121,0.267824,-0.266398
-11.1124,-70.595,12.1183,18.1458,0.734235,0.286826,-0.277842
-12.2247,-72.084,13.0582,18.369,0.857543,0.253201,-0.285118
-13.5128,-73.6566,13.2194,18.6013,0.748296,0.229803,-0.290048
-14.6785,-74.9919,13.3905,19.0934,0.696989,0.290763,-0.294399
-15.3357,-76.2565,14.1959,19.3697,0.862743,0.263147,-0.299533
-16.0533,-77.6441,14.7464,19.6322,0.878469,0.205324,-0.30422
-17.1353,-79.0226,14.687,19.8317,0.768523,0.213669,-0.314945
-18.031,-80.1825,15.007,20.3922,0.844251,0.26378,-0.319273
-18.4862,-81.4839,15.739,20.696,0.954322,0.221099,-0.319013
-19.0907,-83.0016,16.0671,21.0062,0.875599,0.214963,-0.322039
-19.9776,-84.363,16.0253,21.2611,0.834988,0.224215,-0.32769
-20.6277,-85.5134,16.3406,21.8438,0.949354,0.216889,-0.326991
-20.8377,-86.6362,16.8732,22.1674,0.977869,0.187639,-0.332373
-21.2629,-87.5677,17.0543,22.373,0.913656,0.241828,-0.33583
-22.0017,-88.29,16.9249,22.487,0.916986,0.169019,-0.333193
-22.5205,-88.8885,17.0481,22.9056,0.913512,0.148924,-0.334396
-22.6866,-89.6194,17.4215,23.0363,0.903204,0.212329,-0.342791
-22.9854,-90.3035,17.6667,23.1286,0.93528,0.195223,-0.341729
-22.9854,-90.3035,17.6667,23.1286,0.93528,0.195223,-0.341729
-23.8694,-91.0799,17.4179,23.5611,0.779635,0.197457,-0.338998
-23.5545,-91.2854,17.6745,23.6621,0.823438,0.203942,-0.344891
-23.3012,-91.4128,17.753,23.6366,0.862714,0.178488,-0.344249
-23.4792,-91.5397,17.347,23.5634,0.743446,0.172849,-0.350467
-23.6651,-91.3959,17.1072,23.8417,0.656709,0.13948,-0.347287
-23.6651,-91.3959,17.1072,23.8417,0.656709,0.13948,-0.347287
-23.534,-91.3468,17.4593,23.715,0.730454,0.192203,-0.355185
-23.7726,-91.2132,17.1285,23.6473,0.642451,0.105028,-0.349019
-23.706,-90.7198,16.7365,23.8649,0.562202,0.125316,-0.351068
-22.9796,-89.9992,16.7132,23.7975,0.612726,0.185377,-0.353543
-22.3129,-89.5007,16.7335,23.6121,0.668693,0.143124,-0.355924
-22.3226,-89.2798,16.2901,23.4476,0.53912,0.115051,-0.353789
-22.5423,-89.1127,15.7734,23.588,0.426634,0.170828,-0.356141
-22.0826,-88.6766,15.7416,23.5136,0.489467,0.146481,-0.354137
-21.1392,-87.6296,15.8984,23.3872,0.557021,0.103346,-0.354683
-20.6911,-86.818,15.3415,23.1469,0.468087,0.152068,-0.356028
-20.8996,-86.4451,14.5989,23.244,0.382982,0.12663,-0.355097
-20.6391,-86.1997,14.5333,23.0864,0.396738,0.0707692,-0.352353
-19.5491,-85.2517,14.7093,22.8472,0.414878,0.128456,-0.357697
-18.8055,-84.0798,14.1637,22.7201,0.39768,0.145206,-0.357197
-18.8547,-83.6098,13.3524,22.8572,0.311952,0.116575,-0.350128
-18.6548,-83.5161,13.1891,22.6835,0.261848,0.116367,-0.35091
-17.5649,-82.4582,13.3089,22.4178,0.333803,0.139087,-0.35058
-16.6704,-81.1605,12.7178,22.1517,0.355924,0.106077,-0.35127
-16.8389,-80.8366,11.9943,22.299,0.222655,0.0878475,-0.349329
-16.6505,-80.4494,11.911,22.1375,0.19401,0.0645836,-0.348165
-15.2316,-79.0627,11.8261,21.8149,0.274556,0.109271,-0.35055
-14.3314,-78.34,11.0857,21.4974,0.218502,0.0547829,-0.348694
-14.6177,-78.3505,10.4636,21.6831,0.0866911,0.059601,-0.344742
-14.0791,-77.1455,10.449,21.5287,0.132366,0.0610685,-0.345176
-12.6636,-75.8592,10.1649,21.127,0.219949,0.0662461,-0.343912
-12.4561,-75.9407,9.51106,20.8731,0.121278,0.0275591,-0.345816
-12.3507,-75.2117,9.11099,21.0864,0.0286146,0.0295759,-0.34432
-11.0514,-73.7641,8.817,20.804,0.095803,0.0510033,-0.343824
-10.5295,-73.6252,8.39493,20.4126,0.0993387,0.0571283,-0.346326
-10.5229,-73.1926,7.9788,20.2713,0.00573625,0.0249246,-0.344025
-9.40438,-71.6844,7.63753,20.2662,0.0389928,0.0429377,-0.340779
-8.78267,-71.4746,7.08085,19.9147,0.037411,0.0591871,-0.338934
-8.7281,-71.0327,6.66138,19.7523,-0.031122,0.0315259,-0.33805
-7.591,-69.7058,6.48908,19.4412,0.034603,0.074019,-0.341035
-7.03358,-69.4498,5.91363,19.3004,0.00984772,0.0702236,-0.338493
-7.05959,-68.9067,5.30059,19.1971,-0.113687,0.0525209,-0.337269
-5.84877,-67.7202,5.19281,18.9007,-0.0888458,0.0779191,-0.335248
-5.26292,-67.7204,4.76315,18.4616,-0.0738545,0.0613122,-0.332092
-5.38942,-66.8693,4.09423,18.5376,-0.139968,0.0746966,-0.333816
-4.23269,-65.7831,3.90993,18.2989,-0.0842119,0.0592919,-0.334005
-3.61956,-66.0191,3.56885,17.8126,-0.104213,0.0146767,-0.33574
-3.53258,-64.9333,2.95274,17.7791,-0.170173,0.00726573,-0.337349
-2.44272,-63.9945,2.69547,17.5842,-0.14035,0.00880421,-0.342103
-2.11004,-64.3273,2.36499,17.2098,-0.205271,-0.0409769,-0.340691
-1.82135,-63.128,1.78327,16.9679,-0.207737,-0.018632,-0.339209
-0.692156,-62.3971,1.5578,16.7781,-0.120638,-0.06315,-0.340724
-0.517159,-62.6543,1.13983,16.4525,-0.290598,-0.0731419,-0.342846
-0.0441328,-61.2943,0.415419,16.2441,-0.339623,-0.057763,-0.344131
1.01903,-60.927,0.0860587,15.6631,-0.238166,-0.0840355,-0.346911
1.31818,-60.9146,-0.502631,15.573,-0.388626,-0.0914949,-0.342816
2.17435,-59.5475,-1.53421,15.4141,-0.440719,-0.0308994,-0.342692
3.27899,-59.5131,-2.20334,14.8474,-0.375174,-0.0631128,-0.341367
4.09841,-59.2027,-3.09518,14.5104,-0.481605,-0.102875,-0.339531
5.57515,-57.7431,-4.57532,14.3483,-0.606771,-0.0630995,-0.340813
6.74141,-57.8079,-5.75751,13.7784,-0.650506,-0.123138,-0.343669
8.23123,-57.1044,-6.82458,13.3191,-0.724688,-0.179848,-0.341837
10.1119,-55.6145,-8.19061,12.9604,-0.792326,-0.100713,-0.342221
11.2011,-55.5376,-9.45922,12.3546,-0.89443,-0.183902,-0.34001
12.7997,-54.4894,-10.6139,11.8902,-0.958777,-0.217941,-0.339
14.0777,-52.8563,-11.6293,11.1088,-1.0228,-0.170685,-0.340109
15.3561,-52.2933,-12.2938,10.4802,-1.06627,-0.168904,-0.339244
16.7119,-50.8987,-13.036,9.80892,-1.05302,-0.208196,-0.337187
17.2487,-48.9862,-13.9404,8.92965,-1.16018,-0.206714,-0.336979
18.724,-47.9185,-14.4372,8.10486,-1.17882,-0.203327,-0.337581
19.4994,-46.5347,-14.7805,7.07276,-1.15658,-0.275595,-0.337601
20.1175,-44.2932,-15.3478,6.05735,-1.18567,-0.264232,-0.339267
21.2436,-42.6712,-15.5325,4.66625,-1.17711,-0.248165,-0.342266
21.5046,-41.2816,-15.4613,3.38917,-1.23845,-0.333439,-0.339854
