Afshin1997/kuka_rl_ros2/src/catch_and_throw/output_files/ft/old2/idealpd_7/ft_received_joint_vel_np.csv
joint_0,joint_1,joint_2,joint_3,joint_4,joint_5,joint_6
5.99317e-05,0,0,1.19994e-05,7.66917e-05,0,-3.59329e-05
-2.39759e-05,-2.39759e-05,0,3.5953e-05,-3.83615e-05,-4.79518e-05,3.59311e-05
-3.59547e-05,0,-2.39771e-05,0,1.91991e-05,-4.79323e-05,3.59547e-05
-0.00188147,-0.000778944,-0.00790939,0.00994667,0.00396907,-0.0115166,0.0100905
-0.00599228,0.000167774,-0.0281277,0.0641651,0.0340169,-0.0875589,0.0693784
-0.00371502,0.0159626,-0.00862845,0.148038,0.121086,-0.236791,0.17735
-0.0142376,0.0443427,0.020122,0.198655,0.225443,-0.36071,0.218502
-0.0431182,0.0686321,0.00862845,0.237546,0.299158,-0.384469,0.18701
-0.0574538,0.0951212,0.0135066,0.262137,0.310926,-0.341451,0.170108
-0.0511235,0.130877,0.0470849,0.282282,0.29306,-0.320343,0.151333
-0.0516053,0.152587,0.0602821,0.305833,0.285596,-0.28655,0.140722
-0.0669663,0.148361,0.0543592,0.29598,0.286771,-0.253425,0.125304
-0.0724704,0.135928,0.0619959,0.275512,0.28621,-0.217004,0.115962
-0.0652047,0.120415,0.0867399,0.272863,0.285391,-0.180538,0.113824
-0.0606657,0.10073,0.109023,0.277909,0.287782,-0.146846,0.108268
-0.0603512,0.08511,0.130865,0.278088,0.290568,-0.111415,0.0973097
-0.0636139,0.0797091,0.161432,0.270646,0.29758,-0.0717034,0.0988483
-0.0713165,0.0835281,0.195075,0.250225,0.298985,-0.0361915,0.104009
-0.0771886,0.0878544,0.242663,0.221403,0.30608,-0.0105339,0.105746
-0.0876548,0.0872353,0.291152,0.195515,0.309258,0.00703492,0.104481
-0.106322,0.0825215,0.336617,0.163617,0.320019,0.0204806,0.113872
-0.123992,0.0746875,0.383121,0.138086,0.324062,0.0360135,0.121643
-0.136869,0.0677333,0.439487,0.112553,0.328916,0.050812,0.126179
-0.150034,0.0574178,0.495416,0.0908067,0.333687,0.0619121,0.132573
-0.166062,0.0395231,0.543736,0.0622566,0.343278,0.0685482,0.146144
-0.185928,0.019355,0.582028,0.0269532,0.348759,0.0739205,0.154397
-0.202169,0.00387081,0.621008,-0.00929953,0.356221,0.0832525,0.165726
-0.212857,-0.00790979,0.660958,-0.0465838,0.363467,0.107453,0.178186
-0.224256,-0.01794,0.686357,-0.0954402,0.372826,0.134196,0.18828
-0.242375,-0.025587,0.691087,-0.158555,0.381626,0.151173,0.201795
-0.25515,-0.0272874,0.687411,-0.217664,0.390447,0.16895,0.212535
-0.253652,-0.0289426,0.683753,-0.263048,0.400992,0.183867,0.224386
-0.239679,-0.0296123,0.672096,-0.310001,0.407991,0.195087,0.233771
-0.221738,-0.0290385,0.638104,-0.371868,0.416908,0.208123,0.240206
-0.205956,-0.0257655,0.576476,-0.435029,0.429658,0.216442,0.250992
-0.185472,-0.0148488,0.512434,-0.489316,0.436678,0.23238,0.259465
-0.163521,0.000335554,0.443334,-0.551825,0.448008,0.251627,0.265828
-0.137439,0.013123,0.368452,-0.602186,0.461816,0.270407,0.274805
-0.104764,0.0258134,0.30166,-0.645515,0.469579,0.281767,0.278519
-0.0719551,0.0400163,0.231733,-0.688703,0.479611,0.291655,0.283973
-0.0375457,0.0523099,0.157685,-0.72002,0.489961,0.305854,0.288801
-0.00751429,0.0617922,0.0756583,-0.770521,0.497732,0.318237,0.293153
0.0192342,0.0690875,-0.00304392,-0.824148,0.506164,0.326946,0.296363
0.0449158,0.0712685,-0.0700462,-0.856649,0.513488,0.33633,0.299431
0.0661905,0.0755385,-0.144102,-0.880467,0.524596,0.349744,0.30352
0.0829649,0.082102,-0.223177,-0.902212,0.528866,0.353035,0.305794
0.106195,0.0872234,-0.29446,-0.954663,0.53775,0.361645,0.306097
0.12721,0.100437,-0.358056,-1.00733,0.547331,0.367907,0.303925
0.146019,0.111995,-0.42309,-1.01898,0.552036,0.376122,0.304083
0.16255,0.123806,-0.490048,-1.02545,0.558586,0.380694,0.303434
0.176987,0.13201,-0.555674,-1.07546,0.563637,0.391978,0.304635
0.191635,0.133142,-0.616179,-1.11605,0.56756,0.398742,0.303074
0.210185,0.132477,-0.671744,-1.12863,0.571364,0.395106,0.30201
0.225981,0.133885,-0.724849,-1.13765,0.569496,0.394152,0.301936
0.250477,0.132944,-0.760094,-1.18849,0.572496,0.394123,0.302226
0.266235,0.136102,-0.804722,-1.2069,0.567215,0.393098,0.303625
0.26813,0.14222,-0.866721,-1.21408,0.561355,0.395885,0.304203
0.279837,0.139206,-0.907772,-1.24915,0.555748,0.395279,0.307544
0.30473,0.127815,-0.926847,-1.27116,0.546839,0.396999,0.309249
0.324022,0.119144,-0.949129,-1.25893,0.530477,0.390533,0.309965
0.328867,0.108652,-0.992366,-1.2804,0.516907,0.396304,0.309045
0.330074,0.0856373,-1.03508,-1.29791,0.502175,0.405237,0.311163
0.343345,0.0632064,-1.05483,-1.28288,0.480646,0.400499,0.313551
0.370735,0.0564444,-1.04978,-1.29134,0.458611,0.391168,0.317179
0.390204,0.0444266,-1.0599,-1.29863,0.432708,0.389221,0.318609
0.388064,0.0196417,-1.1001,-1.28371,0.407531,0.391767,0.320487
0.400774,0.00266058,-1.10789,-1.30209,0.38105,0.380389,0.322719
0.435593,-0.00540477,-1.08377,-1.30812,0.349069,0.366877,0.326323
0.44204,-0.0202169,-1.11118,-1.28049,0.31885,0.377159,0.329846
0.436045,-0.0474587,-1.14999,-1.3017,0.293343,0.378867,0.334991
0.463959,-0.0718917,-1.13166,-1.31729,0.262477,0.369969,0.340236
0.481406,-0.0869957,-1.13146,-1.28864,0.22784,0.369651,0.344136
0.474612,-0.104584,-1.16623,-1.29332,0.197361,0.374942,0.344383
0.499251,-0.131254,-1.14573,-1.31293,0.168685,0.360926,0.34561
0.529067,-0.147211,-1.12043,-1.29627,0.137921,0.353646,0.349164
0.526156,-0.163864,-1.14451,-1.29573,0.106902,0.354215,0.353687
0.535155,-0.194727,-1.15021,-1.30868,0.0808389,0.350003,0.357062
0.557868,-0.216824,-1.13292,-1.29107,0.0481107,0.344974,0.359248
0.560178,-0.227743,-1.14522,-1.29875,0.0141506,0.344443,0.363593
0.560049,-0.256037,-1.16004,-1.30411,-0.0114093,0.347863,0.366127
0.581353,-0.282426,-1.13525,-1.28382,-0.0264989,0.337408,0.371383
0.581353,-0.282426,-1.13525,-1.28382,-0.0264989,0.337408,0.371383
0.605012,-0.30078,-1.11427,-1.2933,-0.0602376,0.335643,0.377977
0.61447,-0.336705,-1.11684,-1.26159,-0.0851956,0.336154,0.38064
0.625754,-0.346875,-1.10692,-1.26784,-0.108277,0.331907,0.381713
0.631668,-0.354011,-1.10515,-1.27924,-0.135128,0.333937,0.384703
0.633124,-0.376512,-1.10825,-1.24591,-0.157517,0.33422,0.385871
0.64696,-0.39181,-1.08647,-1.24957,-0.177889,0.320802,0.387316
0.668129,-0.397807,-1.05507,-1.26621,-0.196096,0.309366,0.388903
0.667766,-0.414664,-1.06071,-1.23539,-0.21785,0.312377,0.391978
0.653485,-0.442172,-1.0851,-1.23069,-0.235077,0.316244,0.39444
0.658741,-0.460062,-1.07306,-1.2532,-0.252384,0.316355,0.3996
0.670394,-0.47073,-1.05366,-1.2281,-0.274116,0.313105,0.402086
0.667614,-0.483265,-1.05452,-1.213,-0.294038,0.313356,0.402097
0.67401,-0.494865,-1.03902,-1.24112,-0.307437,0.309189,0.402836
0.68855,-0.502571,-1.01268,-1.2275,-0.322129,0.300114,0.40459
0.672943,-0.506658,-1.03707,-1.20633,-0.345499,0.308925,0.404705
0.655846,-0.522836,-1.05448,-1.22803,-0.35879,0.312446,0.404878
0.66719,-0.546302,-1.02904,-1.22819,-0.368471,0.298954,0.405245
0.675607,-0.546372,-1.00832,-1.20734,-0.387417,0.294997,0.407215
0.670474,-0.550725,-1.00699,-1.21051,-0.405786,0.293129,0.409835
0.665625,-0.562347,-1.00635,-1.22112,-0.417252,0.289245,0.411996
0.657231,-0.575653,-1.01046,-1.19707,-0.42778,0.289282,0.412507
0.648068,-0.5823,-1.01099,-1.18832,-0.446282,0.287375,0.412212
0.64569,-0.598339,-1.00041,-1.20538,-0.457099,0.283985,0.411716
0.64361,-0.619283,-0.991025,-1.18448,-0.467297,0.278255,0.412787
0.638787,-0.620523,-0.982911,-1.17717,-0.480857,0.267279,0.411417
0.643215,-0.615184,-0.96345,-1.19696,-0.488121,0.258638,0.410187
0.62407,-0.611666,-0.981844,-1.17977,-0.501797,0.255606,0.412603
0.601271,-0.619594,-0.99728,-1.16464,-0.510286,0.253053,0.411397
0.607423,-0.635216,-0.968373,-1.17869,-0.512554,0.233542,0.414149
0.609755,-0.643203,-0.947403,-1.1815,-0.525491,0.21208,0.415723
0.59273,-0.658717,-0.958091,-1.14869,-0.530675,0.206805,0.413514
0.577039,-0.666044,-0.959471,-1.15271,-0.537763,0.190125,0.411445
0.575748,-0.654978,-0.94305,-1.18315,-0.541394,0.176999,0.411644
0.568555,-0.651148,-0.934784,-1.14354,-0.549843,0.156558,0.411589
0.543678,-0.662109,-0.950684,-1.12326,-0.560818,0.149675,0.41005
0.533478,-0.685734,-0.940009,-1.16358,-0.557589,0.138463,0.408928
0.526994,-0.680461,-0.92286,-1.16392,-0.565585,0.116856,0.410558
0.522825,-0.673338,-0.904112,-1.13626,-0.569389,0.100826,0.411081
0.508743,-0.670418,-0.898868,-1.13996,-0.57546,0.0981006,0.412536
0.484798,-0.678408,-0.907708,-1.15604,-0.573896,0.095217,0.412136
0.466451,-0.693955,-0.90613,-1.13046,-0.576879,0.0835761,0.410055
0.459738,-0.709232,-0.88429,-1.12239,-0.578248,0.0741363,0.409104
0.451399,-0.707988,-0.863312,-1.15251,-0.581174,0.073881,0.40894
0.432078,-0.707147,-0.855731,-1.13456,-0.579917,0.0744718,0.407198
0.404902,-0.70945,-0.857416,-1.11789,-0.57918,0.0816586,0.405357
0.395118,-0.710371,-0.827891,-1.13042,-0.580626,0.0647764,0.40588
0.392175,-0.708935,-0.796346,-1.13139,-0.575575,0.0612979,0.406699
0.371652,-0.714278,-0.779965,-1.11073,-0.576657,0.0691747,0.40884
0.348637,-0.722824,-0.752868,-1.1224,-0.568116,0.0740129,0.411026
0.32985,-0.718113,-0.703132,-1.14039,-0.554797,0.0855695,0.409847
0.309785,-0.71815,-0.64331,-1.10565,-0.543995,0.083612,0.40785
0.289258,-0.734016,-0.567935,-1.08677,-0.532515,0.0850901,0.407594
0.264857,-0.758261,-0.477992,-1.10832,-0.509903,0.0964948,0.409396
0.221582,-0.764301,-0.396927,-1.12869,-0.490157,0.107573,0.408612
0.184301,-0.773264,-0.308455,-1.10787,-0.46538,0.107628,0.408449
0.143191,-0.782901,-0.222589,-1.10235,-0.438864,0.109574,0.410218
0.103553,-0.793817,-0.129954,-1.1231,-0.410484,0.114243,0.411157
0.0590717,-0.807925,-0.046452,-1.10703,-0.380878,0.113829,0.414676
0.0117922,-0.81214,0.0292169,-1.11188,-0.352712,0.116005,0.414297
-0.021692,-0.813989,0.11752,-1.1336,-0.318788,0.11317,0.412999
-0.0603272,-0.813123,0.192918,-1.12472,-0.284911,0.119887,0.41232
-0.104716,-0.830608,0.2572,-1.08947,-0.253849,0.114063,0.413806
-0.136899,-0.846131,0.334224,-1.09283,-0.217447,0.11486,0.412232
-0.158715,-0.827696,0.42585,-1.12617,-0.17974,0.116628,0.411241
-0.179684,-0.819645,0.505495,-1.10301,-0.147189,0.104781,0.411177
-0.217676,-0.834574,0.551382,-1.06361,-0.113953,0.108167,0.413051
-0.24017,-0.853657,0.616268,-1.06657,-0.0785609,0.105823,0.414269
-0.250608,-0.841561,0.692445,-1.07731,-0.0420876,0.10323,0.415544
-0.260987,-0.826764,0.759231,-1.06429,-0.00839877,0.0879664,0.415228
-0.280508,-0.845911,0.805729,-1.04923,0.0214752,0.0770568,0.413578
-0.316164,-0.86412,0.824367,-1.05324,0.0467109,0.0948455,0.411117
-0.333082,-0.876039,0.870946,-1.04109,0.0752592,0.0935707,0.412164
-0.335123,-0.860537,0.924079,-1.03509,0.0990018,0.07899,0.409164
-0.333561,-0.847253,0.977699,-1.04627,0.124691,0.0538799,0.408497
-0.356671,-0.857744,0.989586,-1.06209,0.15206,0.058868,0.409104
-0.391048,-0.873966,0.984685,-1.03557,0.180737,0.0654444,0.409324
-0.388466,-0.880946,1.02085,-1.02893,0.210525,0.0653875,0.411596
-0.372078,-0.848775,1.06633,-1.0485,0.227101,0.0473726,0.411948
-0.369687,-0.844837,1.08736,-1.07208,0.262375,0.0454333,0.410769
-0.403655,-0.870766,1.05564,-1.03807,0.285276,0.0553179,0.408844
-0.411321,-0.897053,1.05195,-1.03126,0.319479,0.0531154,0.407857
-0.38659,-0.870586,1.08763,-1.04899,0.33952,0.0377255,0.404638
-0.369123,-0.838365,1.10786,-1.07954,0.362354,0.0331252,0.401817
-0.376943,-0.862629,1.08916,-1.05772,0.389469,0.0438013,0.401007
-0.386441,-0.89051,1.0598,-1.04228,0.417809,0.0635779,0.400595
-0.365403,-0.887735,1.07415,-1.05953,0.436254,0.0630835,0.401007
-0.337444,-0.849279,1.09228,-1.0662,0.45238,0.0602314,0.401762
-0.315349,-0.856186,1.0912,-1.06453,0.480225,0.0561834,0.401649
-0.311499,-0.885374,1.0577,-1.05183,0.497785,0.0616335,0.398442
-0.300068,-0.902986,1.0379,-1.0608,0.518057,0.0757661,0.395154
-0.271125,-0.883001,1.04085,-1.04784,0.529307,0.081407,0.395147
-0.228737,-0.859566,1.05089,-1.06496,0.547127,0.0849942,0.392589
-0.202673,-0.868525,1.03511,-1.07467,0.563821,0.0907904,0.389371
-0.1985,-0.889252,0.996417,-1.07507,0.577424,0.112463,0.388251
-0.182108,-0.902691,0.983343,-1.06056,0.592621,0.118042,0.387849
-0.144797,-0.872305,0.989742,-1.08688,0.600683,0.118467,0.386009
-0.108754,-0.858926,0.998215,-1.11065,0.614556,0.105483,0.386123
-0.101389,-0.882372,0.963651,-1.09178,0.624154,0.12579,0.384188
-0.101636,-0.922668,0.92413,-1.07684,0.635437,0.151178,0.378813
-0.0738726,-0.911171,0.925517,-1.10531,0.641661,0.148105,0.374516
-0.0391875,-0.869759,0.94074,-1.13771,0.647114,0.13869,0.368674
-0.0252754,-0.882037,0.921538,-1.10298,0.652668,0.138325,0.356156
-0.0338067,-0.924011,0.865601,-1.08232,0.668896,0.147319,0.337144
-0.0254551,-0.930982,0.838869,-1.11505,0.686665,0.12718,0.312904
-0.00861647,-0.876494,0.826018,-1.12559,0.698501,0.101192,0.287004
-0.000898823,-0.868734,0.791506,-1.09869,0.712149,0.0750231,0.261814
-0.0125113,-0.901469,0.716161,-1.07797,0.729679,0.0691714,0.233735
-0.0233099,-0.922293,0.645726,-1.08713,0.744479,0.053451,0.208327
-0.0145365,-0.883673,0.588316,-1.06969,0.74822,0.0240758,0.183474
0.00915618,-0.848324,0.530866,-1.05452,0.752973,-0.010031,0.160137
0.0234406,-0.85841,0.448751,-1.04953,0.749217,-0.0236204,0.136353
0.0245791,-0.878759,0.359387,-1.02868,0.740148,-0.0160345,0.121805
0.0399204,-0.873744,0.293141,-1.00258,0.71399,-0.0202778,0.103091
0.0714363,-0.828486,0.240626,-1.01378,0.679883,-0.0377614,0.0873271
0.106866,-0.817141,0.186072,-1.02591,0.646992,-0.0736569,0.0748793
0.118533,-0.830308,0.104632,-1.0038,0.610549,-0.0782192,0.0720355
0.129121,-0.85935,0.0329335,-0.994655,0.576944,-0.0886855,0.0646325
0.154869,-0.836312,-0.018623,-1.01474,0.537264,-0.095548,0.0557014
0.186419,-0.803119,-0.0499635,-1.0473,0.501356,-0.121175,0.0467636
0.195386,-0.808677,-0.1019,-1.057,0.472053,-0.128096,0.041848
0.19047,-0.844346,-0.166417,-1.04613,0.4408,-0.119977,0.0408792
0.208856,-0.858998,-0.200971,-1.067,0.417137,-0.123758,0.0397628
0.230366,-0.810789,-0.211886,-1.10751,0.383275,-0.139008,0.041814
0.251975,-0.788987,-0.212416,-1.1175,0.362836,-0.144922,0.0489305
0.257164,-0.813581,-0.235795,-1.10742,0.344061,-0.121595,0.0552487
0.273246,-0.842711,-0.237642,-1.12672,0.329913,-0.125855,0.0564204
0.301291,-0.821203,-0.217435,-1.13895,0.309757,-0.119426,0.0577774
0.329403,-0.787226,-0.196513,-1.12779,0.285544,-0.121601,0.0618851
0.362016,-0.787707,-0.169162,-1.14507,0.278865,-0.115747,0.0700375
0.374582,-0.804087,-0.154042,-1.16476,0.272505,-0.0991312,0.0819582
0.401769,-0.817129,-0.117269,-1.12918,0.260131,-0.0951211,0.095241
0.439236,-0.802505,-0.080652,-1.10713,0.250225,-0.0902032,0.102631
0.476553,-0.773817,-0.0279958,-1.14773,0.242682,-0.104289,0.103259
0.494781,-0.763078,0.0126431,-1.1625,0.24244,-0.0896639,0.114207
0.507904,-0.787479,0.0399564,-1.11813,0.244638,-0.075886,0.128282
0.535599,-0.800983,0.0846786,-1.12125,0.244473,-0.0774882,0.133681
0.558344,-0.77233,0.137492,-1.14287,0.245144,-0.0864522,0.140728
0.577127,-0.739745,0.190638,-1.13333,0.247303,-0.0908187,0.153258
0.59589,-0.744335,0.22229,-1.13061,0.254577,-0.079885,0.159291
0.614003,-0.765415,0.251327,-1.13504,0.264254,-0.0775039,0.169713
0.630931,-0.768651,0.276769,-1.1201,0.264241,-0.0847385,0.177854
0.649549,-0.755073,0.291512,-1.09064,0.262241,-0.0939227,0.186132
0.672971,-0.733897,0.312374,-1.11861,0.264874,-0.101876,0.19722
0.683597,-0.72136,0.315528,-1.13859,0.26598,-0.101101,0.202658
0.697262,-0.729763,0.315897,-1.08199,0.266005,-0.103589,0.211493
0.719671,-0.736904,0.312748,-1.0589,0.258271,-0.117209,0.219401
0.742418,-0.728001,0.320942,-1.06882,0.257473,-0.125088,0.225646
0.751789,-0.705409,0.327693,-1.07928,0.24993,-0.12549,0.231469
0.765019,-0.695776,0.337216,-1.0535,0.252948,-0.135203,0.235509
0.787539,-0.708321,0.348402,-1.03067,0.254168,-0.140734,0.242974
0.803596,-0.715286,0.357937,-1.0224,0.250474,-0.140308,0.247576
0.810369,-0.712348,0.367577,-1.00739,0.251272,-0.14282,0.252346
0.817174,-0.711715,0.379136,-0.998862,0.245681,-0.139949,0.258961
0.817174,-0.711715,0.379136,-0.998862,0.245681,-0.139949,0.258961
0.841425,-0.703577,0.404965,-1.00825,0.25769,-0.143847,0.263983
0.855299,-0.70276,0.410793,-0.975252,0.255759,-0.138086,0.271258
0.863468,-0.708707,0.402086,-0.96895,0.254635,-0.131021,0.274624
0.877063,-0.710514,0.400966,-0.974821,0.254724,-0.133304,0.279323
0.89024,-0.699048,0.388987,-0.986782,0.256246,-0.12679,0.283013
0.897317,-0.68899,0.370238,-0.954112,0.250218,-0.121247,0.287353
0.909917,-0.695189,0.347067,-0.932735,0.23897,-0.110959,0.290455
0.919193,-0.701804,0.330074,-0.92763,0.233332,-0.100497,0.292516
0.925169,-0.7033,0.32188,-0.934901,0.226268,-0.0910704,0.293741
0.933094,-0.702092,0.317287,-0.910828,0.223017,-0.0834203,0.294733
0.938064,-0.698038,0.303364,-0.887921,0.214417,-0.0807637,0.294867
0.948865,-0.695608,0.304716,-0.890755,0.208923,-0.064246,0.295392
0.944189,-0.702605,0.299721,-0.895735,0.202816,-0.0548172,0.299289
0.95288,-0.699575,0.313093,-0.894458,0.207274,-0.048535,0.298532
0.948767,-0.701538,0.297108,-0.849763,0.191158,-0.0462243,0.299325
0.963138,-0.701073,0.307508,-0.863264,0.197898,-0.0335071,0.300917
0.953513,-0.700052,0.293153,-0.875649,0.190621,-0.0332211,0.303244
0.966326,-0.698317,0.296159,-0.892684,0.193948,-0.0263527,0.305195
0.970614,-0.700807,0.272348,-0.845724,0.178886,-0.0211047,0.307271
0.982049,-0.704165,0.255749,-0.830224,0.173566,-0.00973097,0.308563
0.986266,-0.710371,0.241968,-0.843399,0.166786,-0.000179773,0.310231
0.986231,-0.706933,0.224951,-0.856876,0.15558,0.000970708,0.310073
0.999809,-0.691711,0.216764,-0.845927,0.152481,0.00297215,0.309824
0.993733,-0.693631,0.191575,-0.803668,0.135083,0.00436218,0.309006
1.00988,-0.700064,0.206302,-0.815894,0.138963,0.00252872,0.308805
1.00577,-0.708671,0.199449,-0.793338,0.12145,-0.00321168,0.30945
1.01095,-0.704007,0.207404,-0.805024,0.118484,0.00360734,0.308194
0.998443,-0.695417,0.209168,-0.814166,0.111805,0.00385883,0.308455
0.992103,-0.689901,0.220791,-0.808548,0.111907,0.00891648,0.308973
1.01479,-0.695033,0.241788,-0.790953,0.114106,0.0162143,0.311331
1.0094,-0.701574,0.231577,-0.763318,0.0978512,0.0207812,0.312496
1.00865,-0.69737,0.245192,-0.810367,0.104864,0.0403859,0.314543
0.988976,-0.688106,0.233507,-0.821608,0.0987669,0.0518666,0.315705
1.01006,-0.673674,0.225189,-0.795005,0.102588,0.0647404,0.31602
1.02925,-0.680748,0.189514,-0.753347,0.0927462,0.0796813,0.314147
1.02464,-0.687324,0.160748,-0.765907,0.0873816,0.103055,0.313647
1.02079,-0.680664,0.14068,-0.804938,0.0859393,0.112601,0.312781
1.01699,-0.670762,0.0967031,-0.77565,0.0678995,0.119701,0.312113
1.03202,-0.659944,0.0628798,-0.732627,0.0550111,0.134963,0.309797
1.02214,-0.656488,0.0217639,-0.739817,0.0390983,0.150789,0.307367
1.01358,-0.656049,-0.00221704,-0.763318,0.035089,0.166517,0.307352
1.01611,-0.650556,-0.0367445,-0.755528,0.021668,0.171966,0.307199
1.00635,-0.645168,-0.0822938,-0.729367,0.000747787,0.178717,0.308467
0.996765,-0.644647,-0.117257,-0.7277,-0.00475544,0.206302,0.308434
0.991085,-0.643958,-0.15409,-0.734832,-0.00989394,0.21377,0.310049
0.995938,-0.628229,-0.197924,-0.721936,-0.0214188,0.219137,0.309908
0.996106,-0.618516,-0.251232,-0.721518,-0.0377926,0.228917,0.309737
0.983258,-0.604296,-0.290565,-0.741686,-0.048034,0.244484,0.30672
0.976884,-0.599629,-0.328192,-0.734856,-0.056315,0.250081,0.305435
0.98309,-0.604475,-0.377357,-0.703108,-0.069702,0.255894,0.302561
0.986878,-0.605669,-0.41794,-0.705531,-0.0806664,0.266044,0.301277
0.970459,-0.589758,-0.465095,-0.733752,-0.0985224,0.277142,0.2976
0.972905,-0.559603,-0.490251,-0.758237,-0.103848,0.279885,0.295644
0.975492,-0.549059,-0.537446,-0.726142,-0.129414,0.278784,0.295874
0.976285,-0.548278,-0.570867,-0.699983,-0.152474,0.290611,0.295908
0.960679,-0.554008,-0.594097,-0.733261,-0.168339,0.301183,0.296377
0.947176,-0.555516,-0.613794,-0.74787,-0.181811,0.310061,0.296866
0.957146,-0.54521,-0.629733,-0.745054,-0.196748,0.306909,0.299335
0.951511,-0.526995,-0.659185,-0.732003,-0.224197,0.312293,0.30044
0.940225,-0.494805,-0.666392,-0.739721,-0.238874,0.314998,0.301324
0.937717,-0.477907,-0.667718,-0.756823,-0.254954,0.316032,0.300152
0.934473,-0.474025,-0.671317,-0.737684,-0.277395,0.309581,0.302187
0.933151,-0.475989,-0.670618,-0.748757,-0.295529,0.312173,0.302897
0.91096,-0.475152,-0.662545,-0.765966,-0.312963,0.313165,0.305171
0.897006,-0.470129,-0.652282,-0.772319,-0.328203,0.31451,0.304647
0.910744,-0.456457,-0.639188,-0.736366,-0.346787,0.31175,0.306178
0.914623,-0.433696,-0.636893,-0.727329,-0.370216,0.30829,0.308853
0.902403,-0.404758,-0.623225,-0.751178,-0.385787,0.31247,0.311355
0.884829,-0.378184,-0.599861,-0.784135,-0.399554,0.307523,0.315133
0.879119,-0.373468,-0.578777,-0.766386,-0.417329,0.304296,0.317934
0.882145,-0.379957,-0.556322,-0.719035,-0.433264,0.301674,0.322144
0.874433,-0.384409,-0.528145,-0.731884,-0.448641,0.301876,0.325077
0.848384,-0.377045,-0.499886,-0.758009,-0.46615,0.299038,0.326902
0.838637,-0.363713,-0.462916,-0.777746,-0.473548,0.288969,0.329115
0.841769,-0.346233,-0.437088,-0.738199,-0.492324,0.278928,0.330413
0.850201,-0.32981,-0.414884,-0.700042,-0.510056,0.268069,0.33277
0.845975,-0.306097,-0.385698,-0.713546,-0.522314,0.26342,0.333337
0.82253,-0.28396,-0.359602,-0.738835,-0.537264,0.254383,0.335155
0.820844,-0.270299,-0.322539,-0.749524,-0.540512,0.243837,0.337808
0.813519,-0.265397,-0.31193,-0.720607,-0.557263,0.238385,0.340836
0.807229,-0.263348,-0.287605,-0.7065,-0.565804,0.232668,0.343548
0.796729,-0.256912,-0.265121,-0.712038,-0.576418,0.23455,0.34654
0.783043,-0.248571,-0.245755,-0.724813,-0.584951,0.228186,0.350507
0.787263,-0.242279,-0.222792,-0.713726,-0.589006,0.224914,0.353807
0.783559,-0.236371,-0.20912,-0.693535,-0.597951,0.219378,0.353491
0.772378,-0.222337,-0.196103,-0.69672,-0.606225,0.215266,0.356156
0.757038,-0.210582,-0.178345,-0.690791,-0.6154,0.208712,0.355959
0.744586,-0.20756,-0.161923,-0.702437,-0.619552,0.200046,0.358888
0.743041,-0.203176,-0.135467,-0.687747,-0.622955,0.197316,0.357997
0.737827,-0.198655,-0.11933,-0.689398,-0.627778,0.182548,0.359428
0.73621,-0.181233,-0.103326,-0.697154,-0.632733,0.176236,0.361724
0.730864,-0.165806,-0.0896323,-0.676742,-0.639245,0.158831,0.364114
0.728756,-0.153095,-0.0683445,-0.669519,-0.644871,0.153562,0.366373
0.730493,-0.140183,-0.037955,-0.668377,-0.642102,0.136803,0.368848
0.7225,-0.13718,-0.0226377,-0.656936,-0.649032,0.125855,0.370304
0.721336,-0.131734,-0.000167774,-0.673362,-0.646301,0.119797,0.370466
0.710852,-0.121397,0.00419437,-0.666787,-0.654995,0.105195,0.370759
0.69859,-0.111192,0.0155439,-0.650831,-0.655774,0.0872354,0.369255
0.691462,-0.107676,0.0306909,-0.649806,-0.655493,0.0820661,0.36877
0.682447,-0.105608,0.041778,-0.646229,-0.654566,0.0785825,0.367817
0.676386,-0.100366,0.0477081,-0.643538,-0.654554,0.0713045,0.366949
0.676466,-0.0957564,0.0548172,-0.647404,-0.652821,0.0553805,0.369231
0.668009,-0.0909941,0.0554138,-0.634538,-0.65417,0.0424951,0.368614
0.654762,-0.0834842,0.063494,-0.624837,-0.654297,0.0313994,0.369519
0.646678,-0.0801487,0.0755468,-0.622602,-0.650086,0.0281383,0.371335
0.641591,-0.0789181,0.085917,-0.620175,-0.649178,0.0210808,0.371568
0.639763,-0.074684,0.0879982,-0.616682,-0.648111,0.017928,0.370592
0.643814,-0.0685961,0.0870155,-0.62162,-0.647747,0.0109893,0.368902
0.640453,-0.0624274,0.0839276,-0.614446,-0.6468,0.00388297,0.369387
0.629397,-0.0552101,0.0906346,-0.612871,-0.646309,0.002241,0.367668
0.620487,-0.0501552,0.100454,-0.611067,-0.641833,-0.000707072,0.366391
0.618803,-0.0496615,0.105758,-0.613542,-0.639905,-0.00171372,0.366373
0.616304,-0.0469074,0.10508,-0.61133,-0.636369,-0.00109057,0.367865
0.619235,-0.0439452,0.107784,-0.615855,-0.635514,-0.00357123,0.367823
0.619216,-0.041814,0.112043,-0.609017,-0.633972,-0.0061121,0.370334
0.607263,-0.0367787,0.115022,-0.603452,-0.63421,-0.0026125,0.372054
0.59146,-0.0290145,0.121919,-0.594468,-0.629791,0.000838913,0.371269
0.585955,-0.02688,0.128935,-0.589898,-0.626962,-0.00147403,0.370448
0.582544,-0.024772,0.128306,-0.578469,-0.623195,-0.00133028,0.369639
0.583199,-0.022386,0.125867,-0.568063,-0.6205,-0.000419437,0.369849
0.582616,-0.0206254,0.12724,-0.568606,-0.615794,-0.00137821,0.366235
0.573564,-0.0153155,0.126874,-0.558919,-0.614997,-0.00615976,0.36726
0.558119,-0.00955166,0.12718,-0.561031,-0.608411,-0.0102108,0.367553
0.543412,-0.00895203,0.130733,-0.551262,-0.605928,-0.0138295,0.366325
0.540466,-0.0103426,0.131027,-0.548735,-0.5989,-0.0221354,0.367673
0.538103,-0.00953923,0.121925,-0.539398,-0.599523,-0.0286896,0.369238
0.539855,-0.00993516,0.116741,-0.530411,-0.595544,-0.0361573,0.369663
0.540656,-0.00750195,0.111283,-0.529667,-0.592506,-0.0409132,0.36859
0.531514,-0.00254072,0.101425,-0.527019,-0.589389,-0.0442229,0.367757
0.516125,8.3883e-05,0.0946612,-0.536402,-0.584127,-0.0438732,0.366505
0.503434,-0.00105464,0.0885776,-0.528326,-0.581182,-0.0384823,0.364701
0.504369,-0.00397867,0.0794536,-0.520775,-0.576476,-0.0383367,0.363473
0.503865,-0.00565642,0.0641501,-0.512146,-0.575191,-0.0405537,0.363222
0.503398,-0.00761017,0.0511859,-0.510385,-0.570022,-0.044894,0.365432
0.504309,-0.00842473,0.0405058,-0.51205,-0.568691,-0.0529091,0.365546
0.499323,-0.00811352,0.0298534,-0.513249,-0.565823,-0.0639135,0.367098
0.489389,-0.00756186,0.0225658,-0.515957,-0.565125,-0.0661754,0.369202
0.474887,-0.00953968,0.0167184,-0.517108,-0.56239,-0.0651838,0.369435
0.46753,-0.0113728,0.0105818,-0.509582,-0.561865,-0.0601714,0.36919
0.467241,-0.0124159,0.0063398,-0.503745,-0.558824,-0.0597788,0.369063
0.45998,-0.0114567,0.000970708,-0.500594,-0.558069,-0.0639703,0.367692
0.45981,-0.00757422,0.00327177,-0.500198,-0.55474,-0.0738606,0.364965
0.459656,-0.0101264,-0.000167766,-0.497693,-0.551434,-0.0856133,0.364024
0.459319,-0.0109059,-0.000119863,-0.493606,-0.552036,-0.0842991,0.36415
0.456277,-0.0108215,0.00239681,-0.489556,-0.54852,-0.0810714,0.365846
0.444818,-0.0120564,0.00220515,-0.48819,-0.550099,-0.0821539,0.366331
0.436108,-0.00901193,0.0062676,-0.484499,-0.547542,-0.0948889,0.367895
0.43215,-0.00613608,0.01552,-0.487878,-0.545075,-0.104541,0.369195
0.42259,-0.00647134,0.0175685,-0.485901,-0.545912,-0.102007,0.367979
0.423773,-0.00485373,0.0270371,-0.485074,-0.540646,-0.104181,0.368069
0.429349,-0.00849661,0.0302235,-0.475152,-0.542403,-0.114387,0.366613
0.430532,-0.00963557,0.0345274,-0.465587,-0.540742,-0.121907,0.365792
0.429697,-0.00613578,0.0438852,-0.465373,-0.539029,-0.119336,0.363629
0.419171,-0.00624394,0.0467396,-0.466929,-0.538038,-0.122638,0.362748
0.410139,-0.00194139,0.0542633,-0.465433,-0.537226,-0.13132,0.363749
0.402728,3.59547e-05,0.0629307,-0.472154,-0.534912,-0.129505,0.364425
0.396046,0.000299601,0.0698185,-0.475571,-0.532433,-0.132015,0.363701
0.398874,-0.000515318,0.0753072,-0.464857,-0.532049,-0.139649,0.366817
0.404837,-0.00104264,0.0776357,-0.458456,-0.530866,-0.136132,0.368236
0.408976,-0.000826896,0.0849902,-0.451124,-0.530707,-0.140272,0.366553
0.404118,-0.000155796,0.0893207,-0.448545,-0.530464,-0.141034,0.367397
0.397376,0.000311578,0.09858,-0.45702,-0.529652,-0.142142,0.365511
0.391582,0.000395501,0.105955,-0.451002,-0.528853,-0.144677,0.363826
0.391324,0.000155789,0.106453,-0.449194,-0.527351,-0.141315,0.361748
0.389173,0.00176171,0.107933,-0.455759,-0.526993,-0.145912,0.361142
0.383858,0.00194139,0.108742,-0.453245,-0.524609,-0.152424,0.360741
0.388886,0.00457809,0.112415,-0.449444,-0.52312,-0.144198,0.361261
0.387261,0.00208521,0.105782,-0.442591,-0.521292,-0.148229,0.361472
0.380353,0.00288829,0.107226,-0.446328,-0.519515,-0.14596,0.363455
0.376392,0.00107855,0.111786,-0.447948,-0.517975,-0.140668,0.36424
0.371412,-0.000814936,0.10701,-0.44284,-0.516888,-0.145097,0.362352
0.372988,0.00014379,0.107532,-0.434191,-0.518934,-0.140416,0.362071
0.375104,-0.00140219,0.107897,-0.431659,-0.516849,-0.135066,0.36083
0.372821,7.19059e-05,0.104284,-0.434981,-0.518531,-0.141626,0.359626
0.371209,-4.79323e-05,0.102863,-0.431946,-0.517003,-0.137618,0.357942
0.368578,-0.000311578,0.100078,-0.428654,-0.51577,-0.129942,0.357577
0.363251,0.000251661,0.102911,-0.431982,-0.514529,-0.136743,0.358996
0.356415,-0.000814897,0.105399,-0.426521,-0.5123,-0.130302,0.358548
0.347803,-0.000371524,0.102588,-0.431599,-0.512286,-0.122865,0.360135
0.344982,-0.000826896,0.106154,-0.431494,-0.509002,-0.127485,0.361208
0.342841,-0.00345154,0.103043,-0.420417,-0.511423,-0.121847,0.362484
0.347678,-0.00257655,0.0989874,-0.423788,-0.511533,-0.11779,0.362754
0.352843,-0.00474564,0.0941579,-0.426005,-0.511072,-0.11652,0.361688
0.357055,-0.00661546,0.0945818,-0.429106,-0.513896,-0.118839,0.361909
0.359734,-0.00615974,0.0932351,-0.42676,-0.514562,-0.116436,0.360046
0.355425,-0.0057406,0.0886495,-0.427728,-0.514989,-0.119246,0.358541
0.346804,-0.000946732,0.0905028,-0.4302,-0.514639,-0.119875,0.359327
0.336597,-0.000539298,0.0942942,-0.434858,-0.511672,-0.114117,0.359727
0.330362,-0.00133022,0.0980167,-0.430487,-0.511993,-0.1138,0.360321
0.324517,-0.00143814,0.0955047,-0.416115,-0.511691,-0.117736,0.360878
0.326191,-0.0011265,0.0938343,-0.410139,-0.510535,-0.112577,0.362335
0.326938,-0.00487771,0.0930239,-0.406647,-0.510828,-0.114428,0.362903
0.325388,-0.00902391,0.0908623,-0.405225,-0.509519,-0.115094,0.361484
0.327465,-0.0107861,0.0918494,-0.398114,-0.509735,-0.114812,0.362004
0.327617,-0.0121397,0.0878064,-0.399749,-0.508944,-0.112613,0.361688
0.324589,-0.00855695,0.0862047,-0.405005,-0.509486,-0.117388,0.359931
0.319181,-0.00494938,0.0869675,-0.403572,-0.509845,-0.121062,0.359363
0.315061,-0.00311597,0.0868998,-0.406779,-0.508259,-0.116621,0.359691
0.31096,0,0.0869795,-0.40187,-0.510535,-0.118186,0.361604
0.307595,2.39552e-05,0.0895723,-0.391534,-0.508527,-0.124268,0.361453
0.307999,-0.00209718,0.0960873,-0.38864,-0.508484,-0.121481,0.364001
0.304491,-0.00623196,0.103738,-0.389725,-0.509179,-0.120768,0.36542
0.302032,-0.00884414,0.11356,-0.391264,-0.505205,-0.129942,0.365343
0.304814,-0.0126557,0.123093,-0.390767,-0.503523,-0.130044,0.366427
0.305195,-0.0162742,0.13174,-0.395578,-0.49604,-0.12854,0.36448
0.307451,-0.014669,0.141789,-0.408816,-0.489755,-0.139416,0.362915
0.312505,-0.0154833,0.147415,-0.418048,-0.48256,-0.144059,0.360142
0.322764,-0.0166217,0.154593,-0.428246,-0.46933,-0.144646,0.357673
0.331923,-0.0178569,0.158795,-0.434415,-0.457253,-0.157321,0.357678
0.339182,-0.0212835,0.163209,-0.442411,-0.44007,-0.162071,0.356642
0.344915,-0.0262341,0.169413,-0.469458,-0.418116,-0.16414,0.35497
0.347475,-0.0336749,0.172952,-0.494074,-0.395336,-0.171982,0.35512
0.354203,-0.042557,0.180978,-0.520811,-0.365768,-0.171522,0.354227
0.360897,-0.0554617,0.17759,-0.550027,-0.333154,-0.1765,0.352963
0.36693,-0.0643808,0.17374,-0.584245,-0.30293,-0.178294,0.351602
0.37759,-0.0744203,0.162167,-0.615352,-0.270243,-0.18224,0.347547
0.390348,-0.0874631,0.142796,-0.63156,-0.237159,-0.183855,0.345298
0.410223,-0.0987118,0.122632,-0.649087,-0.202462,-0.185128,0.339685
0.427344,-0.109886,0.0994835,-0.682554,-0.169011,-0.183771,0.336118
0.437115,-0.124441,0.0717958,-0.714903,-0.136885,-0.187441,0.333993
0.443727,-0.14065,0.0465359,-0.760945,-0.0991743,-0.180978,0.332678
0.441956,-0.154186,0.0181197,-0.789407,-0.0614729,-0.181233,0.330362
0.445668,-0.167292,-0.00776597,-0.801609,-0.0237006,-0.177083,0.328604
0.452442,-0.185751,-0.035808,-0.824712,0.0085901,-0.169141,0.328528
0.457114,-0.202934,-0.065819,-0.859722,0.0343429,-0.167939,0.326734
0.461622,-0.220732,-0.0977651,-0.898293,0.0653077,-0.161412,0.322392
0.465347,-0.235052,-0.135197,-0.91521,0.0924246,-0.162834,0.320802
0.472096,-0.24905,-0.176799,-0.908719,0.114643,-0.156642,0.317311
0.478997,-0.263528,-0.214355,-0.937058,0.137793,-0.155463,0.314809
0.467722,-0.288526,-0.245731,-0.982025,0.157555,-0.152807,0.308455
0.458204,-0.310052,-0.2729,-1.02043,0.187285,-0.144713,0.305246
0.457703,-0.331776,-0.311367,-0.993697,0.204072,-0.145485,0.303565
0.465876,-0.358104,-0.346636,-1.00243,0.221693,-0.144574,0.301912
0.464616,-0.376925,-0.370106,-1.02912,0.243123,-0.134778,0.299757
0.44965,-0.405249,-0.40314,-1.0548,0.261154,-0.141518,0.297789
0.449012,-0.418344,-0.436668,-1.03157,0.280553,-0.136683,0.297672
0.456768,-0.429265,-0.467925,-1.03176,0.298487,-0.133621,0.297262
0.437495,-0.435278,-0.494649,-1.06276,0.310869,-0.139416,0.296713
0.408317,-0.43733,-0.514159,-1.09451,0.328399,-0.138223,0.294146
0.397167,-0.455735,-0.538333,-1.08064,0.341722,-0.142112,0.293261
0.399964,-0.481419,-0.553323,-1.08081,0.356585,-0.150722,0.291809
0.387316,-0.499431,-0.561595,-1.09763,0.370868,-0.143551,0.290265
0.365163,-0.522297,-0.577902,-1.08009,0.376469,-0.14817,0.287531
0.369135,-0.551995,-0.592826,-1.07103,0.392766,-0.152839,0.287137
0.372006,-0.569489,-0.593493,-1.06435,0.400226,-0.152532,0.287351
0.344387,-0.563872,-0.604823,-1.0808,0.406247,-0.152443,0.287676
0.312446,-0.55143,-0.633232,-1.07622,0.412919,-0.159902,0.288897
0.298019,-0.565933,-0.650172,-1.08073,0.414664,-0.174459,0.288623
0.282354,-0.585632,-0.637115,-1.09622,0.41963,-0.171526,0.290371
0.25376,-0.606525,-0.632507,-1.08398,0.424444,-0.173728,0.291344
0.238037,-0.632249,-0.63926,-1.05744,0.423101,-0.180119,0.291713
0.235412,-0.646421,-0.629163,-1.05225,0.42918,-0.180163,0.29241
0.204446,-0.65134,-0.634922,-1.05798,0.432669,-0.187992,0.292636
0.170732,-0.643389,-0.649861,-1.05129,0.430196,-0.195899,0.292398
0.162442,-0.65418,-0.651747,-1.04669,0.430943,-0.209647,0.290323
0.152,-0.673566,-0.637852,-1.04603,0.434377,-0.21058,0.291176
0.12842,-0.690347,-0.625358,-1.04899,0.436772,-0.216454,0.288861
0.1106,-0.692445,-0.623513,-1.01541,0.435449,-0.216382,0.288921
0.0994596,-0.696373,-0.634173,-1.01582,0.438729,-0.228641,0.291032
0.0786986,-0.707065,-0.636384,-1.02819,0.436331,-0.242843,0.293295
0.0615645,-0.716087,-0.616652,-1.03047,0.438154,-0.242015,0.293105
0.0468692,-0.730086,-0.607778,-1.00231,0.438248,-0.25249,0.293894
0.040256,-0.739445,-0.603265,-0.997292,0.438921,-0.256505,0.297012
0.0225059,-0.728912,-0.591312,-0.995567,0.441009,-0.2572,0.299095
-0.0138182,-0.729186,-0.590837,-1.00322,0.439746,-0.269784,0.300596
-0.0305111,-0.751334,-0.584266,-0.998515,0.435257,-0.279238,0.299695
-0.0308961,-0.773517,-0.555075,-1.00158,0.441778,-0.289294,0.301255
-0.0474325,-0.78526,-0.529151,-1.004,0.441297,-0.287076,0.300977
-0.069666,-0.763294,-0.52352,-1.00144,0.44314,-0.296221,0.301866
-0.0876027,-0.755456,-0.538367,-0.974187,0.441911,-0.308107,0.300018
-0.0907228,-0.78054,-0.521974,-0.98007,0.441702,-0.315397,0.300033
-0.0922884,-0.800612,-0.476015,-1.00342,0.444211,-0.318258,0.300953
-0.115663,-0.813533,-0.461895,-0.99716,0.446074,-0.324984,0.30231
-0.129558,-0.792367,-0.470706,-0.971203,0.442294,-0.331368,0.302834
-0.138505,-0.777927,-0.476541,-0.971753,0.439381,-0.332978,0.303736
-0.155743,-0.803584,-0.4633,-0.987549,0.436849,-0.34678,0.306418
-0.15985,-0.824667,-0.426565,-0.991084,0.433955,-0.347012,0.308122
-0.156942,-0.842316,-0.41087,-0.962443,0.428469,-0.350519,0.309953
-0.163313,-0.819154,-0.403243,-0.956257,0.429238,-0.355976,0.309848
-0.187932,-0.798431,-0.401235,-0.971874,0.424347,-0.359411,0.310744
-0.211023,-0.827316,-0.38577,-0.974881,0.417311,-0.373689,0.310699
-0.202397,-0.859705,-0.347511,-0.964337,0.416351,-0.376763,0.311547
-0.188532,-0.867302,-0.314914,-0.951981,0.414721,-0.376608,0.309713
-0.213336,-0.826788,-0.311598,-0.960955,0.412824,-0.377021,0.310878
-0.247624,-0.811673,-0.326635,-0.978633,0.410771,-0.39402,0.312278
-0.253401,-0.844993,-0.311813,-0.956209,0.402143,-0.392505,0.314761
-0.229073,-0.876458,-0.256516,-0.962731,0.406649,-0.393613,0.31513
-0.234561,-0.869585,-0.231026,-0.958582,0.409851,-0.393488,0.316427
-0.269243,-0.833028,-0.250009,-0.970328,0.406726,-0.389634,0.318761
-0.29229,-0.841793,-0.265289,-0.950912,0.401587,-0.410386,0.320862
-0.281299,-0.876482,-0.22712,-0.956032,0.405326,-0.40737,0.320571
-0.274074,-0.900205,-0.18093,-0.966204,0.404099,-0.398677,0.320466
-0.294997,-0.874085,-0.184265,-0.963294,0.405038,-0.401378,0.320331
-0.321173,-0.852591,-0.219497,-0.944932,0.401606,-0.409247,0.320167
-0.319384,-0.879131,-0.220936,-0.943185,0.398155,-0.415999,0.318294
-0.308086,-0.916085,-0.181194,-0.950193,0.39733,-0.406323,0.316847
-0.311547,-0.923939,-0.167212,-0.955432,0.404252,-0.406819,0.317083
-0.331648,-0.886124,-0.197912,-0.921694,0.401299,-0.409859,0.316583
-0.352172,-0.889389,-0.237953,-0.928325,0.397196,-0.414681,0.315801
-0.358996,-0.92161,-0.213744,-0.939634,0.399343,-0.418068,0.314174
-0.360525,-0.948218,-0.179615,-0.949333,0.407646,-0.418563,0.314267
-0.38088,-0.92421,-0.196019,-0.914407,0.40617,-0.406563,0.312532
-0.414549,-0.910493,-0.245515,-0.913656,0.405786,-0.423741,0.310049
-0.43058,-0.934409,-0.242591,-0.92282,0.407934,-0.424636,0.305198
-0.426701,-0.972462,-0.207766,-0.925521,0.414971,-0.415016,0.301265
-0.429669,-0.968853,-0.214643,-0.897029,0.418193,-0.414317,0.295754
-0.452706,-0.944503,-0.267326,-0.879598,0.415239,-0.416119,0.291126
-0.46566,-0.960598,-0.289137,-0.889077,0.416025,-0.424963,0.284223
-0.466066,-0.99752,-0.265337,-0.889216,0.419535,-0.429645,0.279455
-0.474313,-0.995519,-0.256229,-0.886489,0.424692,-0.414585,0.276829
-0.506993,-0.971741,-0.293657,-0.863041,0.420379,-0.42418,0.271917
-0.533861,-0.985632,-0.31924,-0.871653,0.423983,-0.436072,0.267793
-0.533251,-1.01369,-0.291128,-0.866313,0.428049,-0.423749,0.261874
-0.532183,-1.01925,-0.273953,-0.854803,0.432803,-0.422554,0.25654
-0.563728,-1.00571,-0.318992,-0.835261,0.433475,-0.424731,0.251699
-0.584182,-1.01584,-0.356403,-0.829637,0.432975,-0.431542,0.246342
-0.583766,-1.03686,-0.334416,-0.823013,0.436332,-0.43046,0.240961
-0.596621,-1.0343,-0.316604,-0.820301,0.445745,-0.41993,0.232884
-0.639662,-1.028,-0.342853,-0.833571,0.447109,-0.424468,0.228545
-0.660268,-1.04169,-0.358032,-0.814945,0.447088,-0.437678,0.22132
-0.63319,-1.05469,-0.33281,-0.792944,0.456217,-0.428255,0.217052
-0.627456,-1.04507,-0.330374,-0.78103,0.459129,-0.423537,0.211804
-0.666519,-1.04855,-0.3781,-0.804593,0.456428,-0.440899,0.208447
-0.695381,-1.06579,-0.382815,-0.811997,0.461813,-0.439332,0.202109
-0.68929,-1.07276,-0.334728,-0.765787,0.467416,-0.432797,0.200417
-0.699647,-1.06239,-0.320942,-0.743952,0.473836,-0.428966,0.198454
-0.7338,-1.07366,-0.339294,-0.759411,0.473206,-0.43336,0.199027
-0.739997,-1.08732,-0.326311,-0.769322,0.47884,-0.4479,0.196992
-0.736772,-1.07188,-0.309428,-0.741458,0.486246,-0.445393,0.197637
-0.765031,-1.04913,-0.326874,-0.717072,0.485513,-0.442627,0.196669
-0.782841,-1.06095,-0.330689,-0.728371,0.489314,-0.455352,0.197481
-0.759926,-1.08259,-0.277704,-0.702955,0.501351,-0.450201,0.197484
-0.74811,-1.08099,-0.254132,-0.682114,0.50741,-0.435629,0.199545
-0.792249,-1.07633,-0.297564,-0.693928,0.508892,-0.456359,0.200585
-0.827815,-1.08105,-0.304956,-0.705124,0.511015,-0.4633,0.201007
-0.807457,-1.07519,-0.246138,-0.664853,0.519016,-0.444158,0.20321
-0.797688,-1.06761,-0.214848,-0.639571,0.528253,-0.441309,0.200072
-0.830731,-1.08588,-0.24645,-0.651586,0.524577,-0.458468,0.203042
-0.849207,-1.09406,-0.251255,-0.672983,0.531397,-0.460328,0.201163
-0.844082,-1.07139,-0.221462,-0.645151,0.539208,-0.45413,0.201891
-0.854851,-1.06603,-0.213434,-0.614058,0.543496,-0.455222,0.199473
-0.862562,-1.09209,-0.213768,-0.606477,0.54473,-0.451265,0.202191
-0.849255,-1.10381,-0.189215,-0.610163,0.550361,-0.451531,0.198682
-0.866229,-1.07827,-0.180283,-0.598124,0.556101,-0.452116,0.201004
-0.900103,-1.06987,-0.203883,-0.624927,0.556957,-0.457128,0.201318
-0.887466,-1.09035,-0.183926,-0.608131,0.562774,-0.453147,0.205726
-0.845336,-1.10099,-0.142094,-0.563174,0.569209,-0.458806,0.206867
-0.86847,-1.07981,-0.15164,-0.539831,0.568162,-0.448557,0.211131
-0.926563,-1.07875,-0.180526,-0.592834,0.567004,-0.45527,0.210318
-0.918302,-1.08549,-0.149471,-0.591736,0.576082,-0.457869,0.214715
-0.869807,-1.08521,-0.0968902,-0.518689,0.581538,-0.442951,0.21474
-0.885381,-1.09447,-0.115279,-0.514759,0.580396,-0.439365,0.218418
-0.941771,-1.1008,-0.145701,-0.556247,0.578528,-0.45968,0.220433
-0.934182,-1.07797,-0.108784,-0.56338,0.58728,-0.455484,0.222948
-0.896471,-1.05929,-0.070909,-0.483373,0.594231,-0.432585,0.225862
-0.901044,-1.08845,-0.0957563,-0.470033,0.590731,-0.4522,0.224938
-0.930266,-1.10377,-0.106681,-0.507592,0.591509,-0.459788,0.228103
-0.93325,-1.07731,-0.0725508,-0.498329,0.599869,-0.443898,0.226724
-0.922784,-1.0619,-0.0572621,-0.465311,0.607318,-0.442576,0.227119
-0.921146,-1.09155,-0.070178,-0.449063,0.603167,-0.454599,0.226676
-0.927362,-1.10611,-0.0653156,-0.439053,0.605995,-0.445081,0.225321
-0.940333,-1.06803,-0.0499371,-0.448799,0.614901,-0.441165,0.225634
-0.957719,-1.0556,-0.0552606,-0.4307,0.615429,-0.449587,0.225213
-0.939482,-1.08293,-0.0538439,-0.405129,0.615534,-0.445827,0.227947
-0.911183,-1.09394,-0.0337245,-0.379766,0.622773,-0.443631,0.227646
-0.941447,-1.06686,-0.0315417,-0.374091,0.622015,-0.447277,0.23008
-0.977805,-1.06375,-0.0391175,-0.400199,0.625439,-0.446352,0.231721
-0.944407,-1.07751,-0.0183115,-0.3791,0.632024,-0.442579,0.232764
-0.900373,-1.07633,-0.00526119,-0.334452,0.635908,-0.444458,0.235831
-0.940968,-1.06221,-0.029085,-0.329451,0.628764,-0.437786,0.237462
-0.979699,-1.06206,-0.0337245,-0.375799,0.636138,-0.444039,0.239331
-0.938943,-1.06898,-0.00050332,-0.341399,0.644142,-0.447277,0.240817
-0.89818,-1.06418,0.00643569,-0.259021,0.645266,-0.435146,0.238756
-0.944635,-1.06111,-0.0238121,-0.268129,0.642723,-0.441728,0.24059
-0.986254,-1.06155,-0.0201819,-0.313407,0.64958,-0.453183,0.23969
-0.943017,-1.05313,0.014932,-0.274061,0.656816,-0.43896,0.23866
-0.902566,-1.04277,0.0156638,-0.199039,0.661757,-0.431371,0.240469
-0.946037,-1.05709,-0.0177722,-0.216454,0.656414,-0.450513,0.237618
-0.978752,-1.05484,-0.0117808,-0.256493,0.661699,-0.445716,0.238792
-0.937313,-1.03238,0.0251543,-0.211349,0.669203,-0.433471,0.239044
-0.902506,-1.02995,0.0195707,-0.144785,0.673875,-0.441378,0.24168
-0.935875,-1.04794,-0.0121637,-0.158392,0.668915,-0.448236,0.242675
-0.962419,-1.04405,-0.00397869,-0.18701,0.672789,-0.444245,0.242927
-0.934793,-1.01582,0.0268453,-0.150394,0.682773,-0.442744,0.243969
-0.910397,-1.01323,0.0165738,-0.0922045,0.684696,-0.434502,0.243358
-0.929232,-1.03277,-0.0113134,-0.0908666,0.682217,-0.439293,0.244041
-0.948985,-1.03014,-0.00109054,-0.111954,0.685789,-0.447984,0.245635
-0.934913,-0.996849,0.0235256,-0.0799248,0.69284,-0.427596,0.245743
-0.914543,-0.996298,0.0113248,-0.0401582,0.693535,-0.428067,0.243861
-0.913976,-1.01921,-0.00918014,-0.0282116,0.692667,-0.445045,0.24621
-0.925257,-1.01604,0.00580023,-0.0323926,0.693439,-0.441896,0.245395
-0.926931,-0.977781,0.0256229,-0.0176892,0.701085,-0.427452,0.245827
-0.917228,-0.975829,0.0106537,0.00637545,0.701301,-0.442388,0.245659
-0.898959,-0.994895,-0.00123441,0.0214523,0.701794,-0.440311,0.243861
-0.895908,-0.99456,0.0152076,0.0300198,0.704311,-0.438049,0.246007
-0.906054,-0.96008,0.0300692,0.0290864,0.708237,-0.435985,0.245419
-0.907796,-0.951274,0.0178561,0.0354126,0.708932,-0.430619,0.247564
-0.880719,-0.96968,0.0156758,0.0583886,0.707566,-0.436356,0.249038
-0.859812,-0.977938,0.0363593,0.07768,0.710504,-0.444161,0.250812
-0.873696,-0.945279,0.0491485,0.074292,0.712801,-0.431191,0.252526
-0.892756,-0.928864,0.0317455,0.0674337,0.712384,-0.43316,0.253413
-0.869944,-0.9387,0.0337963,0.0874271,0.712974,-0.445776,0.255642
-0.830356,-0.954773,0.0592007,0.117011,0.715777,-0.435041,0.25829
-0.834123,-0.933055,0.0710922,0.12084,0.716233,-0.429765,0.259932
-0.864882,-0.898485,0.0514111,0.100581,0.714033,-0.438565,0.258458
-0.861483,-0.902818,0.0507665,0.103738,0.715025,-0.433312,0.260555
-0.811098,-0.924801,0.0829889,0.13573,0.716966,-0.435173,0.260591
-0.782995,-0.918618,0.0976333,0.162095,0.721453,-0.435149,0.260028
-0.814912,-0.876764,0.0751909,0.140938,0.718611,-0.431443,0.262149
-0.844449,-0.866476,0.0638625,0.121997,0.715241,-0.437222,0.261322
-0.813282,-0.886351,0.0948575,0.147326,0.720279,-0.439796,0.262533
-0.754917,-0.90069,0.124369,0.177326,0.724444,-0.428966,0.265804
-0.754042,-0.866397,0.111001,0.198488,0.723482,-0.430101,0.267183
-0.797628,-0.84216,0.0767572,0.164324,0.71873,-0.435485,0.268021
-0.807385,-0.848193,0.0886615,0.153162,0.721833,-0.428782,0.269987
-0.760921,-0.869807,0.128144,0.191947,0.724636,-0.436168,0.270897
-0.711737,-0.857481,0.136204,0.220024,0.729963,-0.430125,0.273882
-0.729283,-0.821044,0.103062,0.228989,0.726477,-0.419498,0.275056
-0.768136,-0.82082,0.0746276,0.18256,0.720586,-0.441102,0.277981
-0.763138,-0.832525,0.10311,0.191,0.724789,-0.438924,0.27605
-0.713978,-0.838773,0.143766,0.226819,0.73004,-0.422383,0.277346
-0.713978,-0.838773,0.143766,0.226819,0.73004,-0.422383,0.277346
-0.6891,-0.804562,0.116181,0.254485,0.728201,-0.425542,0.276482
-0.723411,-0.800264,0.0795495,0.213698,0.720168,-0.431758,0.273989
-0.712372,-0.808176,0.117101,0.22423,0.726396,-0.435086,0.27526
-0.67659,-0.802122,0.142945,0.260399,0.728797,-0.421943,0.274804
-0.658537,-0.773553,0.125526,0.280558,0.730826,-0.42001,0.274829
-0.668764,-0.763605,0.0930913,0.267757,0.727435,-0.429936,0.275847
-0.675579,-0.77426,0.0871754,0.251052,0.725092,-0.434007,0.276483
-0.662221,-0.778477,0.10625,0.258158,0.726879,-0.435257,0.276338
-0.640393,-0.770341,0.123213,0.290241,0.730289,-0.425247,0.277657
-0.637834,-0.742478,0.121134,0.306334,0.734127,-0.414105,0.278591
-0.643167,-0.733861,0.0907185,0.300138,0.727857,-0.426281,0.280245
-0.63373,-0.747858,0.0772043,0.293537,0.727182,-0.431287,0.277346
-0.613183,-0.752724,0.0896759,0.304884,0.728758,-0.422638,0.276518
-0.603576,-0.744574,0.0988963,0.327753,0.729253,-0.428758,0.274685
-0.609983,-0.710996,0.0974535,0.339865,0.731289,-0.423741,0.271904
-0.623027,-0.697283,0.0761017,0.33438,0.730327,-0.419686,0.270383
-0.615292,-0.716041,0.0629397,0.32818,0.728528,-0.429709,0.267709
-0.583934,-0.719323,0.0647644,0.333397,0.728774,-0.426925,0.265134
-0.559051,-0.714759,0.0578705,0.352304,0.730963,-0.430991,0.26415
-0.56821,-0.693556,0.0493043,0.371616,0.729541,-0.420801,0.261322
-0.586339,-0.6662,0.0404938,0.368207,0.729238,-0.4122,0.25678
-0.592683,-0.672571,0.0253952,0.36047,0.730922,-0.423329,0.253892
-0.58115,-0.687459,0.0177482,0.363857,0.730331,-0.425322,0.250045
-0.556513,-0.683645,0.0112415,0.377632,0.733434,-0.420381,0.245467
-0.540416,-0.675068,-0.00228895,0.411601,0.731999,-0.422027,0.242148
-0.538369,-0.656776,-0.0119366,0.422143,0.731746,-0.416594,0.238983
-0.552676,-0.642555,-0.0261849,0.414908,0.732325,-0.414908,0.232285
-0.561655,-0.644012,-0.0355101,0.40999,0.729177,-0.423185,0.229755
-0.556295,-0.64077,-0.0332435,0.400156,0.732958,-0.413638,0.222878
-0.5452,-0.632867,-0.0373438,0.413694,0.734527,-0.41838,0.218514
-0.531776,-0.627504,-0.0477441,0.440866,0.732248,-0.422374,0.214872
-0.516976,-0.61199,-0.055764,0.44767,0.732935,-0.407666,0.211862
-0.508815,-0.600312,-0.0705735,0.457499,0.732402,-0.413998,0.206891
-0.514208,-0.593282,-0.0875229,0.456946,0.728045,-0.419986,0.204216
-0.515597,-0.589275,-0.0884416,0.448763,0.725844,-0.417257,0.201642
-0.515669,-0.57934,-0.0798611,0.450441,0.729832,-0.414201,0.19716
-0.521027,-0.57491,-0.0816266,0.468535,0.726952,-0.405604,0.193838
-0.514159,-0.568375,-0.0845228,0.470634,0.729545,-0.406208,0.190725
-0.496615,-0.551863,-0.0933714,0.485673,0.730366,-0.393787,0.188085
-0.481611,-0.532519,-0.11314,0.494554,0.725365,-0.379076,0.186974
-0.471687,-0.519613,-0.130547,0.475821,0.72561,-0.38438,0.183171
-0.475871,-0.512973,-0.134244,0.477117,0.723428,-0.37028,0.181341
-0.478182,-0.503602,-0.129085,0.48656,0.723002,-0.347539,0.176676
-0.47913,-0.502128,-0.133357,0.487136,0.724214,-0.335107,0.171682
-0.47835,-0.499994,-0.141765,0.497406,0.725035,-0.323786,0.164739
-0.46862,-0.485326,-0.150315,0.494614,0.724367,-0.290827,0.157241
-0.453327,-0.457977,-0.181158,0.492348,0.724421,-0.27852,0.143239
-0.440182,-0.432489,-0.219282,0.497334,0.722047,-0.258086,0.133669
-0.430268,-0.4211,-0.246414,0.486787,0.720107,-0.243789,0.122722
-0.43437,-0.419606,-0.259453,0.493152,0.720782,-0.221368,0.105039
-0.446328,-0.41989,-0.271869,0.501648,0.720682,-0.203413,0.0893806
-0.454288,-0.419103,-0.29532,0.493271,0.720072,-0.19239,0.0757146
-0.461991,-0.409811,-0.32182,0.497801,0.722005,-0.179408,0.0592994
-0.45871,-0.397028,-0.353119,0.490263,0.721031,-0.170627,0.0386842
-0.445153,-0.381359,-0.397299,0.493942,0.72281,-0.166489,0.0194868
-0.433795,-0.35965,-0.454671,0.508179,0.719708,-0.155707,0.0017976
-0.429142,-0.342422,-0.504189,0.50051,0.718534,-0.156218,-0.00711881
-0.438121,-0.333573,-0.540848,0.510337,0.71735,-0.14932,-0.0100905
-0.455687,-0.338299,-0.579152,0.508659,0.716157,-0.148356,-0.0127875
-0.467686,-0.335682,-0.610295,0.496819,0.717656,-0.153706,-0.0166457
-0.478783,-0.324909,-0.641717,0.507724,0.716947,-0.14636,-0.0187429
-0.488489,-0.321269,-0.681979,0.498005,0.719493,-0.15502,-0.0208291
-0.490982,-0.318641,-0.726719,0.500066,0.716065,-0.159686,-0.0286536
-0.482521,-0.310998,-0.780144,0.510337,0.715294,-0.162642,-0.0427488
-0.470526,-0.304416,-0.821967,0.512326,0.715106,-0.177267,-0.0592007
-0.46796,-0.294292,-0.858248,0.532856,0.713319,-0.17471,-0.0816505
-0.477992,-0.288993,-0.888514,0.527258,0.713035,-0.180203,-0.101732
-0.502475,-0.284752,-0.919776,0.504213,0.711267,-0.192507,-0.119953
-0.527725,-0.275415,-0.964325,0.501444,0.70667,-0.204806,-0.133465
-0.538752,-0.262353,-0.993337,0.489903,0.705419,-0.210412,-0.153102
-0.530482,-0.247624,-1.00838,0.49701,0.707072,-0.217988,-0.170448
-0.521075,-0.251927,-1.04626,0.495716,0.703539,-0.232835,-0.181745
-0.523627,-0.255366,-1.09375,0.497058,0.696814,-0.242303,-0.194847
-0.525318,-0.250764,-1.10785,0.510037,0.697116,-0.252322,-0.206817
-0.526862,-0.247552,-1.10109,0.504968,0.699652,-0.260723,-0.217413
-0.54182,-0.252466,-1.12867,0.489664,0.695505,-0.275764,-0.228413
-0.567116,-0.244844,-1.16694,0.484499,0.687917,-0.289436,-0.236108
-0.571518,-0.227179,-1.15725,0.468966,0.692245,-0.295982,-0.245191
-0.560621,-0.225538,-1.15812,0.475931,0.691522,-0.301205,-0.250764
-0.551707,-0.226987,-1.20778,0.476493,0.683194,-0.318297,-0.257847
-0.543496,-0.216778,-1.22184,0.473078,0.681149,-0.327557,-0.263743
-0.54544,-0.214799,-1.19745,0.474875,0.684844,-0.327106,-0.267375
-0.558105,-0.215471,-1.21359,0.458638,0.680535,-0.334065,-0.269783
-0.572237,-0.200849,-1.22902,0.442552,0.675735,-0.343021,-0.269736
-0.57161,-0.186566,-1.19387,0.435605,0.675914,-0.339266,-0.264809
-0.564276,-0.185907,-1.17548,0.416898,0.673805,-0.334808,-0.258506
-0.555483,-0.173656,-1.17624,0.417756,0.662734,-0.34205,-0.250824
-0.530506,-0.159087,-1.1214,0.413854,0.657219,-0.329487,-0.238001
-0.510349,-0.153941,-1.04571,0.402356,0.654988,-0.322623,-0.224914
-0.505183,-0.151897,-0.994356,0.394787,0.642071,-0.315334,-0.209779
-0.491761,-0.134778,-0.89691,0.388706,0.636292,-0.302525,-0.193562
-0.491761,-0.134778,-0.89691,0.388706,0.636292,-0.302525,-0.193562
-0.438875,-0.106318,-0.717562,0.375754,0.629355,-0.278897,-0.170014
-0.377746,-0.0779436,-0.595818,0.360417,0.613674,-0.2572,-0.139493
-0.33589,-0.0579332,-0.481131,0.342793,0.608373,-0.23377,-0.11963
-0.29296,-0.0414525,-0.365654,0.328983,0.602994,-0.212943,-0.0969382
-0.255306,-0.0328016,-0.260975,0.327381,0.597021,-0.187522,-0.0722067
-0.221991,-0.030607,-0.158284,0.316316,0.591489,-0.161604,-0.0520942
-0.189859,-0.0212725,-0.0459846,0.299194,0.586801,-0.135797,-0.0338083
-0.159878,-0.0147523,0.0571275,0.285518,0.583302,-0.104692,-0.0146084
-0.122146,-0.0124999,0.150406,0.271234,0.583119,-0.0791937,0.00308002
-0.0775961,-0.00822099,0.246007,0.256624,0.581174,-0.0562167,0.0113009
-0.0322384,-0.00717872,0.334752,0.250656,0.577807,-0.0324541,0.0131111
0.0138295,-0.00928756,0.418228,0.235029,0.579237,-0.0072383,0.0122596
0.056543,-0.0136983,0.513117,0.218658,0.575602,0.0107501,0.0140818
0.100521,-0.0219426,0.589407,0.205956,0.575498,0.00957518,0.0244353
0.145648,-0.0230942,0.664146,0.183088,0.572438,0.0122602,0.0437196
0.189958,-0.0260531,0.739578,0.157709,0.572469,0.0157109,0.0687519
0.239427,-0.0291463,0.811844,0.133268,0.573435,0.0203497,0.0880503
0.285062,-0.035101,0.885818,0.110612,0.578604,0.0401462,0.106262
0.325664,-0.0511595,0.944323,0.0935227,0.578777,0.0699024,0.122967
0.365504,-0.0661306,0.987357,0.0744478,0.579993,0.0981532,0.14439
0.400791,-0.0694111,1.03522,0.0471808,0.58173,0.126826,0.16007
0.431682,-0.0768927,1.10931,0.024005,0.592246,0.153174,0.174878
0.467889,-0.0991792,1.15494,0.0138894,0.59682,0.180011,0.19088
0.521339,-0.119438,1.15298,-0.000467389,0.591441,0.190925,0.20478
0.57215,-0.122152,1.18368,-0.0124154,0.596743,0.211972,0.218635
0.602606,-0.133436,1.2519,-0.0256589,0.607107,0.240937,0.231625
0.627288,-0.159998,1.25496,-0.043322,0.605947,0.251891,0.239799
0.647955,-0.169605,1.24163,-0.0742681,0.601815,0.262101,0.251004
0.663479,-0.168446,1.30145,-0.0945174,0.617413,0.285326,0.257787
0.695126,-0.187809,1.31583,-0.0930838,0.619072,0.299445,0.263516
0.743197,-0.201223,1.26908,-0.109042,0.614748,0.302655,0.269711
0.77728,-0.201292,1.28819,-0.118407,0.618459,0.32091,0.269724
0.787873,-0.220972,1.30026,-0.118749,0.617988,0.332794,0.2717
0.783009,-0.225944,1.26014,-0.149699,0.605554,0.33788,0.271054
0.790389,-0.225142,1.25331,-0.166589,0.605794,0.354557,0.267254
0.825003,-0.250512,1.22527,-0.146715,0.595372,0.358517,0.263072
0.849986,-0.260831,1.14654,-0.152855,0.578163,0.370939,0.25678
0.831558,-0.258902,1.10224,-0.173021,0.56682,0.375343,0.249698
0.801355,-0.272851,1.05785,-0.178705,0.55433,0.384553,0.240638
0.801597,-0.283422,0.965293,-0.172613,0.531173,0.392134,0.231397
0.819822,-0.284391,0.863911,-0.149236,0.510842,0.387106,0.220732
0.811999,-0.295502,0.79419,-0.133388,0.492689,0.395393,0.211155
0.769525,-0.303889,0.720703,-0.126503,0.467777,0.40344,0.198095
0.730206,-0.307544,0.620325,-0.117575,0.438421,0.393457,0.18961
0.720066,-0.308925,0.533659,-0.0839516,0.411462,0.390468,0.178845
0.725688,-0.302715,0.46119,-0.0557014,0.386248,0.395506,0.171406
0.712468,-0.294472,0.370981,-0.0425211,0.357254,0.387675,0.160377
0.668357,-0.274432,0.279514,-0.0378573,0.324468,0.376955,0.156966
0.614291,-0.257224,0.200405,-0.0345634,0.297197,0.379022,0.146906
0.57958,-0.245551,0.131799,-0.00962311,0.27264,0.36702,0.136893
0.56374,-0.239127,0.0636019,0.0181685,0.250697,0.349325,0.131902
0.549967,-0.237558,-0.0197016,0.0353407,0.222844,0.333789,0.121949
0.522393,-0.225321,-0.0916337,0.0508503,0.195185,0.313227,0.112223
0.480437,-0.213482,-0.156031,0.0706334,0.175503,0.288765,0.107688
0.426973,-0.200165,-0.207764,0.0966432,0.157141,0.278005,0.0984768
0.370304,-0.194931,-0.261394,0.113812,0.140203,0.252202,0.0833124
0.325811,-0.189739,-0.32997,0.138241,0.124064,0.228605,0.0719671
0.289556,-0.176943,-0.395542,0.160825,0.112227,0.209204,0.0648811
0.254491,-0.159442,-0.455939,0.188181,0.102645,0.183231,0.0589638
0.217784,-0.148038,-0.521206,0.21969,0.0904261,0.158823,0.0470849
0.178102,-0.145888,-0.581693,0.242351,0.0792896,0.133795,0.0351027
0.14008,-0.141123,-0.633807,0.259968,0.0706574,0.102762,0.026161
0.100622,-0.128115,-0.684041,0.275536,0.0646589,0.0785705,0.0168742
0.0601834,-0.111367,-0.739853,0.285062,0.0592487,0.0534125,0.00502128
0.0197026,-0.0971106,-0.78543,0.308601,0.0567587,0.0322144,-0.00220515
-0.0205884,-0.0902511,-0.825419,0.321481,0.05852,0.00642338,-0.00256457
-0.0635659,-0.0831606,-0.871622,0.338071,0.0583119,-0.0118047,-0.00313995
-0.109473,-0.0734496,-0.91078,0.35385,0.0573887,-0.0170771,-0.0040266
-0.149224,-0.0635389,-0.933358,0.365726,0.0600923,-0.01945,-0.0038109
-0.178857,-0.0556322,-0.95561,0.385446,0.0633358,-0.0197385,-0.00206133
-0.207358,-0.0517227,-1.00016,0.399149,0.0643874,-0.0314699,-0.000731014
-0.236215,-0.0420057,-1.04045,0.410482,0.0663271,-0.0506705,-0.000671139
-0.266463,-0.0307987,-1.04868,0.425682,0.0750866,-0.0722393,-0.000743013
-0.287257,-0.027061,-1.05398,0.424887,0.0865954,-0.100143,-0.00203737
-0.306789,-0.021643,-1.09506,0.434981,0.0930722,-0.126131,-0.00691473
-0.332535,-0.00607614,-1.13271,0.444482,0.0984073,-0.144078,-0.0134826
-0.352724,0.00345138,-1.12091,0.44784,0.112381,-0.16158,-0.0223501
-0.373917,0.00470991,-1.12184,0.46591,0.120133,-0.175669,-0.0338083
-0.404267,0.00917972,-1.16929,0.464726,0.120472,-0.196741,-0.0419798
-0.440479,0.023957,-1.17454,0.468139,0.130698,-0.208986,-0.0503709
-0.471113,0.0329678,-1.14127,0.476434,0.150749,-0.219678,-0.0551981
-0.491389,0.0275405,-1.16252,0.483887,0.156988,-0.23419,-0.0644408
-0.499323,0.0323207,-1.19638,0.483516,0.159473,-0.253401,-0.0735695
-0.502918,0.0442469,-1.17124,0.49707,0.177045,-0.258063,-0.0785346
-0.511151,0.0470849,-1.15975,0.490683,0.195425,-0.263994,-0.0755348
-0.520967,0.0552487,-1.19505,0.487758,0.19762,-0.276195,-0.0751909
-0.536821,0.0722033,-1.18466,0.487591,0.203324,-0.277273,-0.0735575
-0.560336,0.0779953,-1.13973,0.468715,0.221014,-0.268309,-0.0768567
-0.585212,0.0778118,-1.14991,0.467146,0.224455,-0.271365,-0.0771287
-0.597009,0.0854496,-1.15655,0.473485,0.22389,-0.265637,-0.0699896
-0.585799,0.0929235,-1.1118,0.462437,0.241558,-0.251351,-0.061238
-0.579847,0.0942942,-1.1012,0.467372,0.244369,-0.24494,-0.0551288
-0.580838,0.105627,-1.11893,0.452119,0.238433,-0.236755,-0.0491102
-0.593098,0.122152,-1.07519,0.44023,0.247521,-0.215819,-0.0442927
-0.61048,0.12573,-1.02076,0.425307,0.254168,-0.195468,-0.0405916
-0.625275,0.126251,-1.0163,0.407898,0.256917,-0.182947,-0.0362515
-0.623627,0.133424,-1.00026,0.393775,0.256392,-0.167639,-0.0264498
-0.602637,0.138714,-0.945845,0.388675,0.260138,-0.146456,-0.0157469
-0.581429,0.140543,-0.915917,0.385195,0.261915,-0.123201,-0.00709483
-0.57197,0.148817,-0.909007,0.35989,0.254884,-0.116148,0.00040746
-0.581645,0.160149,-0.86225,0.345526,0.254973,-0.095217,0.00273247
-0.590054,0.166948,-0.778286,0.329487,0.257952,-0.0626521,0.0032117
-0.587266,0.168622,-0.717765,0.311741,0.255491,-0.0407714,0.00208531
-0.569933,0.169717,-0.684248,0.303062,0.248327,-0.0234765,0.00127029
-0.542599,0.186587,-0.639123,0.290936,0.242452,-0.0052013,0.000982732
-0.516976,0.199725,-0.576164,0.277872,0.243533,0.0068788,0.000922778
-0.501648,0.200657,-0.519541,0.263947,0.236852,0.0127995,0.00472189
-0.496267,0.205716,-0.468836,0.242927,0.230399,0.0191503,0.0119959
-0.489436,0.206445,-0.421028,0.228461,0.228646,0.0250357,0.0190314
-0.484212,0.213458,-0.373216,0.220852,0.223247,0.0334113,0.0274792
-0.475738,0.216764,-0.338011,0.211479,0.223027,0.0407234,0.0329455
-0.460184,0.224256,-0.313956,0.199725,0.219987,0.0442927,0.0428186
-0.44163,0.230786,-0.283686,0.190901,0.213516,0.0510181,0.0543259
-0.424903,0.234706,-0.253341,0.182348,0.21201,0.0667146,0.0654443
-0.410374,0.238935,-0.224099,0.171702,0.207725,0.0862766,0.0730337
-0.40157,0.242819,-0.194488,0.151381,0.200295,0.111211,0.079106
-0.394423,0.247133,-0.162846,0.141597,0.200305,0.137391,0.0804641
-0.385452,0.249266,-0.121673,0.123842,0.198416,0.152088,0.0832645
-0.375984,0.246857,-0.0894123,0.109066,0.188503,0.170076,0.0946492
-0.358829,0.245731,-0.0609293,0.0964155,0.181877,0.190782,0.102036
-0.330254,0.247037,-0.0360837,0.0860208,0.18043,0.20779,0.10287
-0.301734,0.241212,-0.0197505,0.0847905,0.171158,0.221462,0.10067
-0.279166,0.243622,-0.00454192,0.0775841,0.165954,0.238696,0.105531
-0.271078,0.242459,0.00684315,0.0731415,0.165981,0.252909,0.10713
-0.270717,0.234945,0.0124154,0.0695309,0.165168,0.264174,0.103433
-0.276998,0.227646,0.0144413,0.0649202,0.159423,0.273523,0.09759
-0.281,0.224567,0.0107376,0.0583978,0.157575,0.278771,0.0957038
-0.279815,0.226112,0.00119846,0.0566269,0.159864,0.283626,0.091382
-0.275691,0.222278,-0.0132902,0.0592966,0.161467,0.282018,0.0799449
-0.275691,0.222278,-0.0132902,0.0592966,0.161467,0.282018,0.0799449
-0.269484,0.219318,-0.0369953,0.0696883,0.163149,0.276404,0.0639419
-0.276962,0.216476,-0.0719551,0.0807757,0.174111,0.263683,0.0486931
-0.284942,0.210462,-0.104141,0.0857571,0.180162,0.254311,0.0392355
-0.288659,0.205403,-0.141681,0.0960919,0.187169,0.237917,0.0276962
-0.291522,0.189742,-0.188172,0.109437,0.195712,0.221008,0.0150638
-0.295682,0.174447,-0.23842,0.125682,0.204676,0.205475,0.00191751
-0.303482,0.166888,-0.281515,0.134784,0.215826,0.191887,-0.00580023
-0.31439,0.153929,-0.333158,0.148045,0.230122,0.171882,-0.00837718
-0.323818,0.145269,-0.386027,0.165582,0.24361,0.153514,-0.0072383
-0.340157,0.131183,-0.436368,0.172721,0.254034,0.127407,-0.0057286
-0.364947,0.115489,-0.487423,0.192199,0.267558,0.103122,-0.00577627
-0.3874,0.109155,-0.538021,0.196522,0.277657,0.0805719,-0.0132429
-0.404662,0.101204,-0.588855,0.21649,0.29563,0.0571155,-0.0285817
-0.422231,0.0847026,-0.640962,0.233783,0.308227,0.0263647,-0.0465696
-0.437004,0.0701095,-0.683106,0.243729,0.321703,0.00116251,-0.0662504
-0.447325,0.0576548,-0.72872,0.251124,0.331256,-0.0139254,-0.0849542
-0.454333,0.0456011,-0.782469,0.254359,0.344004,-0.0259105,-0.0984768
-0.45877,0.0359638,-0.839056,0.247588,0.346154,-0.0354605,-0.106825
-0.463274,0.0232859,-0.881737,0.236562,0.348587,-0.0398006,-0.108676
-0.475379,0.00780155,-0.90963,0.212907,0.353095,-0.0420637,-0.114087
-0.495176,-0.00637576,-0.938903,0.177503,0.356928,-0.0551408,-0.114057
-0.51368,-0.0255019,-0.982984,0.157553,0.348666,-0.0790222,-0.11199
-0.525557,-0.0460925,-1.02049,0.125718,0.340744,-0.109011,-0.111156
-0.526071,-0.0663312,-1.03421,0.10625,0.33534,-0.12697,-0.111918
-0.517803,-0.0892487,-1.05574,0.071236,0.331597,-0.145528,-0.103031
-0.513992,-0.108467,-1.10975,0.0373899,0.310164,-0.168051,-0.0919409
-0.511631,-0.123752,-1.14776,-0.00251674,0.291099,-0.188397,-0.0843471
-0.515873,-0.146863,-1.13454,-0.0393553,0.283339,-0.201175,-0.0778118
-0.530914,-0.176053,-1.1436,-0.0866121,0.267878,-0.217855,-0.0648243
-0.549392,-0.192654,-1.19408,-0.135766,0.236381,-0.247493,-0.0468093
-0.555806,-0.204803,-1.19379,-0.183855,0.222682,-0.261346,-0.0335087
-0.541303,-0.225334,-1.17434,-0.222806,0.206757,-0.274972,-0.0206483
-0.526348,-0.255126,-1.22213,-0.259141,0.177083,-0.295406,-0.00838918
-0.512949,-0.269471,-1.2557,-0.300665,0.152302,-0.31634,0.00303194
-0.502235,-0.284764,-1.2214,-0.342338,0.13484,-0.319603,0.00639974
-0.513297,-0.309378,-1.22471,-0.380239,0.108738,-0.331692,0.00860449
-0.53246,-0.32381,-1.25987,-0.431778,0.0737288,-0.354718,0.00987523
-0.533669,-0.326119,-1.2325,-0.475463,0.0553946,-0.353071,0.011229
-0.528336,-0.339685,-1.21836,-0.505926,0.0351465,-0.364971,0.0137456
-0.52171,-0.355413,-1.26377,-0.547129,-0.000306802,-0.380305,0.0173536
-0.502367,-0.361819,-1.25555,-0.584973,-0.0157229,-0.383223,0.0296483
-0.476576,-0.388322,-1.22569,-0.607747,-0.0256181,-0.396328,0.0468115
-0.480137,-0.415747,-1.25395,-0.642555,-0.0569669,-0.408581,0.0604111
-0.493271,-0.422634,-1.24124,-0.678803,-0.0773337,-0.416858,0.0744359
-0.49109,-0.434502,-1.19177,-0.705963,-0.0876458,-0.420936,0.0923723
-0.493774,-0.454453,-1.21343,-0.71357,-0.107362,-0.428555,0.114752
-0.48547,-0.456397,-1.22764,-0.750627,-0.119418,-0.440458,0.130817
-0.452092,-0.450462,-1.18758,-0.770305,-0.123488,-0.432066,0.139476
-0.435341,-0.450165,-1.20502,-0.800851,-0.149387,-0.449362,0.155372
-0.433732,-0.444566,-1.23714,-0.822989,-0.180305,-0.459582,0.167783
-0.42096,-0.454419,-1.19245,-0.830092,-0.193833,-0.443945,0.17644
-0.410338,-0.475905,-1.15981,-0.858415,-0.20343,-0.458516,0.188241
-0.414956,-0.48239,-1.18585,-0.860567,-0.23084,-0.468992,0.196705
-0.414956,-0.48239,-1.18585,-0.860567,-0.23084,-0.468992,0.196705
-0.390135,-0.480154,-1.13447,-0.893347,-0.24398,-0.464479,0.210012
-0.351494,-0.460433,-1.14476,-0.896454,-0.271272,-0.479069,0.221594
-0.351494,-0.460433,-1.14476,-0.896454,-0.271272,-0.479069,0.221594
-0.29033,-0.420191,-1.13023,-0.934375,-0.28301,-0.471448,0.229714
-0.256816,-0.40048,-1.10098,-0.952293,-0.286311,-0.47822,0.237582
-0.25116,-0.395753,-1.11783,-0.930023,-0.301051,-0.478554,0.240146
-0.223465,-0.382024,-1.05766,-0.952089,-0.288612,-0.467961,0.242735
-0.192675,-0.368764,-1.01157,-0.958858,-0.272902,-0.46929,0.247792
-0.175289,-0.347499,-1.04949,-0.963701,-0.273234,-0.483289,0.248595
-0.141938,-0.309498,-1.04706,-0.951622,-0.265526,-0.471928,0.253137
-0.0837958,-0.272708,-0.987704,-0.973047,-0.236296,-0.461488,0.255198
-0.0458027,-0.244209,-0.983786,-0.985141,-0.21899,-0.471772,0.257403
-0.0302489,-0.206074,-1.02055,-0.995974,-0.215338,-0.473688,0.260268
0.00458985,-0.153682,-0.996298,-0.97547,-0.189845,-0.454623,0.261861
0.0538584,-0.119833,-0.94933,-0.990581,-0.149471,-0.455963,0.263612
0.0863084,-0.0936306,-0.960633,-0.994284,-0.133587,-0.459968,0.267242
0.107597,-0.0488849,-0.98659,-1.00258,-0.121648,-0.460242,0.269376
0.145066,-0.00413446,-0.961317,-0.976908,-0.0892373,-0.448272,0.271209
0.19814,0.0252993,-0.927806,-0.987585,-0.0528086,-0.450558,0.272348
0.232285,0.0637906,-0.94231,-0.998287,-0.0310624,-0.4424,0.271748
0.249422,0.112798,-0.970183,-1.01187,-0.00669214,-0.444698,0.271701
0.283277,0.165558,-0.954102,-0.988328,0.0211109,-0.436911,0.269986
0.330114,0.204001,-0.923276,-1.00343,0.0488585,-0.42913,0.270634
0.360933,0.241105,-0.924837,-1.00977,0.0745498,-0.423752,0.266691
0.376098,0.288336,-0.956029,-1.00762,0.0927122,-0.435769,0.267291
0.415675,0.341003,-0.953839,-0.981917,0.113052,-0.42096,0.268297
0.483312,0.386741,-0.92644,-0.995219,0.14623,-0.414652,0.26505
0.530685,0.425742,-0.933682,-1.00493,0.179683,-0.422231,0.265468
0.547069,0.461584,-0.974701,-1.0049,0.192711,-0.414557,0.264403
0.547069,0.461584,-0.974701,-1.0049,0.192711,-0.414557,0.264403
0.587264,0.522561,-0.955857,-0.986614,0.232571,-0.406367,0.263731
0.629469,0.56152,-0.931572,-1.00182,0.281767,-0.392474,0.263755
0.639302,0.602821,-0.972963,-0.99613,0.302278,-0.401553,0.264283
0.67532,0.664474,-0.990809,-0.973924,0.325158,-0.395087,0.262592
0.742969,0.722788,-0.970269,-0.989743,0.360036,-0.379148,0.262137
0.786424,0.748086,-0.964323,-1.00031,0.391443,-0.381132,0.259765
0.783547,0.758045,-1.00315,-0.991001,0.406975,-0.390617,0.258302
0.782697,0.772906,-1.0239,-0.972125,0.421088,-0.383912,0.258854
0.831878,0.818875,-0.996178,-0.97982,0.455754,-0.369297,0.255881
0.892152,0.891612,-0.978944,-0.986949,0.493072,-0.366978,0.256001
0.906035,0.918546,-1.03473,-0.990497,0.5016,-0.363198,0.257631
0.89172,0.915677,-1.07114,-0.971561,0.511231,-0.357762,0.256169
0.919936,0.930194,-1.03259,-0.984589,0.53993,-0.3614,0.258338
0.985188,0.997807,-1.0067,-0.989682,0.569274,-0.347144,0.261382
1.01361,1.04229,-1.06525,-0.978597,0.581059,-0.34231,0.261094
0.995758,1.02717,-1.10993,-0.957635,0.58239,-0.349265,0.264618
1.0079,1.02613,-1.07188,-0.974763,0.603646,-0.345893,0.268141
1.07137,1.10111,-1.04709,-0.989167,0.630635,-0.332127,0.270191
1.10049,1.13976,-1.10709,-0.985189,0.64326,-0.336701,0.271389
1.06812,1.10961,-1.13888,-0.958079,0.638804,-0.33323,0.274086
1.08123,1.13383,-1.09816,-0.974475,0.659021,-0.331308,0.27508
1.16135,1.20468,-1.0973,-0.996285,0.684441,-0.312844,0.275201
1.17848,1.1895,-1.15643,-0.989455,0.68784,-0.324418,0.280916
1.13469,1.16721,-1.16795,-0.957408,0.68168,-0.320969,0.281337
1.16613,1.24777,-1.12993,-0.980095,0.701934,-0.309102,0.28487
1.23073,1.27063,-1.14751,-1.00732,0.71677,-0.310735,0.288839
1.20797,1.21702,-1.1862,-0.989742,0.709354,-0.318497,0.291869
1.20375,1.2682,-1.18333,-0.959864,0.711727,-0.305593,0.295059
1.26818,1.31591,-1.18179,-0.9974,0.72849,-0.30589,0.297561
1.26271,1.26579,-1.19928,-1.00892,0.73221,-0.314315,0.301217
1.24236,1.29629,-1.20165,-0.989274,0.72956,-0.303424,0.304251
1.29638,1.35078,-1.20863,-0.989862,0.7394,-0.300881,0.307604
1.3004,1.30117,-1.23309,-1.01268,0.738477,-0.306217,0.307775
1.28129,1.32457,-1.22632,-1.00561,0.733897,-0.306717,0.308095
1.33324,1.36985,-1.21585,-1.01907,0.745495,-0.294244,0.307091
1.33061,1.32713,-1.25245,-1.01105,0.739899,-0.302463,0.308611
1.30709,1.35543,-1.2651,-1.00751,0.732877,-0.300728,0.306612
1.36356,1.38181,-1.2363,-1.03447,0.744769,-0.297502,0.3045
1.36026,1.33588,-1.26062,-1.03746,0.741756,-0.308949,0.303316
1.33105,1.3828,-1.28733,-1.0104,0.732191,-0.299599,0.301648
1.3831,1.39295,-1.26034,-1.04,0.741315,-0.30068,0.29869
1.38081,1.34054,-1.27101,-1.06058,0.736275,-0.317335,0.295836
1.36105,1.40471,-1.29933,-1.02631,0.725572,-0.308386,0.29265
1.40348,1.39589,-1.27763,-1.04596,0.731539,-0.304368,0.287783
1.38828,1.34577,-1.28413,-1.05953,0.721871,-0.324301,0.282164
1.38298,1.41121,-1.30496,-1.0602,0.715087,-0.311523,0.273713
1.42133,1.38752,-1.27735,-1.06,0.724958,-0.316847,0.267327
1.3939,1.3555,-1.27522,-1.06151,0.712038,-0.323519,0.258829
1.39835,1.42037,-1.28667,-1.06939,0.705246,-0.31928,0.250884
1.42663,1.37187,-1.23565,-1.09819,0.710696,-0.329966,0.245156
1.40345,1.3625,-1.20502,-1.06161,0.695831,-0.335291,0.23661
1.41918,1.41165,-1.19041,-1.07196,0.687457,-0.330709,0.228115
1.43613,1.34693,-1.10288,-1.10899,0.688257,-0.346413,0.222241
1.43173,1.36138,-1.03538,-1.08329,0.677045,-0.352652,0.212751
1.4612,1.39748,-0.994956,-1.07895,0.664237,-0.3527,0.207011
1.4651,1.31867,-0.881737,-1.10768,0.658554,-0.366906,0.196091
1.49159,1.3439,-0.775086,-1.09966,0.651831,-0.376787,0.190173
1.53177,1.35781,-0.710287,-1.09772,0.643828,-0.370106,0.178629
1.52576,1.27611,-0.628235,-1.10967,0.626118,-0.385907,0.17173
1.55238,1.29762,-0.539783,-1.10272,0.619648,-0.392217,0.161312
1.56255,1.29624,-0.445887,-1.12243,0.609475,-0.393649,0.153287
1.56825,1.22064,-0.335351,-1.11683,0.604921,-0.395489,0.143155
1.57291,1.22935,-0.26469,-1.11317,0.594327,-0.401402,0.131883
1.54133,1.22239,-0.211719,-1.11794,0.578344,-0.406455,0.123009
1.56438,1.14792,-0.127797,-1.09841,0.569631,-0.396873,0.109653
1.546,1.12861,-0.0656153,-1.08522,0.554049,-0.402668,0.0945938
1.51997,1.13215,-0.0437414,-1.05279,0.534292,-0.395482,0.0862485
1.51852,1.07303,0.0089045,-1.04406,0.51963,-0.378172,0.0791578
