Afshin1997/kuka_rl_ros2/src/catch_and_throw/output_files/tm/nn_ema7.00_jvws1_realball_D25H10M25S39/recorded_data.csv
pure_target_joint_0,pure_target_joint_1,pure_target_joint_2,pure_target_joint_3,pure_target_joint_4,pure_target_joint_5,pure_target_joint_6,target_joint_0,target_joint_1,target_joint_2,target_joint_3,target_joint_4,target_joint_5,target_joint_6,pos_joint_0,pos_joint_1,pos_joint_2,pos_joint_3,pos_joint_4,pos_joint_5,pos_joint_6,vel_joint_0,vel_joint_1,vel_joint_2,vel_joint_3,vel_joint_4,vel_joint_5,vel_joint_6,vel_smooth_joint_0,vel_smooth_joint_1,vel_smooth_joint_2,vel_smooth_joint_3,vel_smooth_joint_4,vel_smooth_joint_5,vel_smooth_joint_6,ee_pos_x,ee_pos_y,ee_pos_z,ee_or_w,ee_or_x,ee_or_y,ee_or_z,ee_vel_x,ee_vel_y,ee_vel_z,ball_pos_x,ball_pos_y,ball_pos_z,ball_raw_vx,ball_raw_vy,ball_raw_vz,ball_ema_vx,ball_ema_vy,ball_ema_vz,action_0,action_1,action_2,action_3,action_4,action_5,action_6,command_published
1.71337,-1.02307,-1.78334,-1.15589,2.00588,1.18478,-0.942016,1.71337,-1.02307,-1.78334,-1.15589,2.00588,1.18478,-0.942016,1.78096,-1.0714,-1.81804,-1.11983,1.93718,1.11683,-0.91624,-1.19776e-05,1.19776e-05,0,2.39771e-05,0,0,3.59547e-05,-1.19776e-05,1.19776e-05,0,2.39771e-05,0,0,3.59547e-05,0.533864,-0.455803,0.691199,0.572878,0.179006,0.151772,0.785323,-1.00095e-05,-1.1076e-05,1.23503e-05,2.9695,-0.497573,0.272087,-3.2908,0.129038,5.55053,-3.2908,0.0966798,5.55053,-0.675917,0.483274,0.346969,-0.360645,0.686925,0.679541,-0.257761,1
1.71085,-1.01892,-1.7882,-1.15004,2.00726,1.18285,-0.941583,1.71085,-1.01892,-1.7882,-1.15004,2.00726,1.18285,-0.941583,1.78096,-1.0714,-1.81804,-1.11983,1.93718,1.11683,-0.91624,0,-2.39771e-05,0,0,0,-2.39771e-05,-2.39771e-05,0,-2.39771e-05,0,0,0,-2.39771e-05,-2.39771e-05,0.533864,-0.455803,0.691199,0.572878,0.179006,0.151772,0.785323,4.09007e-06,-8.3067e-06,-1.4549e-05,2.93586,-0.495797,0.328201,-3.36366,0.177631,5.61137,-3.36366,0.140496,5.61137,-0.701028,0.524853,0.298402,-0.302129,0.700769,0.660199,-0.253428,1
1.70881,-1.0132,-1.8052,-1.1428,2.00575,1.18163,-0.942961,1.70881,-1.0132,-1.8052,-1.1428,2.00575,1.18163,-0.942961,1.78095,-1.07139,-1.81801,-1.11981,1.93718,1.11683,-0.91624,-0.00177369,0.00246881,0.00556082,0.00358336,-9.58559e-05,-3.59547e-05,0,-0.00177369,0.00246881,0.00556082,0.00358336,-9.58559e-05,-3.59547e-05,0,0.533853,-0.455805,0.691221,0.572886,0.17899,0.151765,0.785323,-0.00178664,-0.000382746,0.00419996,2.90094,-0.494572,0.382327,-3.49259,0.122529,5.41267,-3.49259,0.146889,5.41266,-0.72136,0.581905,0.128137,-0.229947,0.685668,0.648026,-0.26721,1
1.71233,-1.01384,-1.79367,-1.1489,2.00625,1.18349,-0.939222,1.71233,-1.01384,-1.79367,-1.1489,2.00625,1.18349,-0.939222,1.78101,-1.07127,-1.81826,-1.12029,1.93728,1.11695,-0.91636,0.0128834,0.0211527,-0.0313755,-0.065855,0.0201148,0.0258866,-0.0238612,0.0128834,0.0211527,-0.0313755,-0.065855,0.0201148,0.0258866,-0.0238612,0.533956,-0.455605,0.69109,0.572767,0.179051,0.151906,0.785369,0.0128915,0.0295968,-0.0133756,2.86744,-0.493163,0.434463,-3.34938,0.140885,5.21358,-3.34938,0.147647,5.21358,-0.686799,0.574218,0.245874,-0.286136,0.689644,0.665403,-0.22862,1
1.7113,-1.00358,-1.79949,-1.1231,2.0074,1.18634,-0.940471,1.7113,-1.00358,-1.79949,-1.1231,2.0074,1.18634,-0.940471,1.78117,-1.07026,-1.8172,-1.12267,1.94054,1.12014,-0.918714,0.00264858,0.127455,0.165686,-0.29718,0.481087,0.455592,-0.313144,0.00264858,0.127455,0.165686,-0.29718,0.481087,0.455592,-0.313144,0.533673,-0.45438,0.691774,0.572523,0.177599,0.150626,0.786122,-0.0328673,0.145818,0.0924429,2.83325,-0.491212,0.486317,-3.41961,0.195089,5.18535,-3.41961,0.151432,5.18535,-0.698707,0.666788,0.177067,-0.00426541,0.668669,0.661961,-0.217567,1
1.70884,-0.999164,-1.80616,-1.11466,2.01918,1.19182,-0.937453,1.70884,-0.999164,-1.80616,-1.11466,2.01918,1.19182,-0.937453,1.77967,-1.06907,-1.81432,-1.12739,1.95106,1.12896,-0.922968,-0.201723,0.101785,0.320322,-0.526192,1.2368,1.01335,-0.460302,-0.201723,0.101785,0.320322,-0.526192,1.2368,1.01335,-0.460302,0.531731,-0.453502,0.693257,0.572185,0.174431,0.145185,0.788099,-0.181028,0.0858917,0.121175,2.79802,-0.489357,0.53644,-3.52306,0.185519,5.01238,-3.52306,0.156706,5.01238,-0.708308,0.699029,0.081619,0.12724,0.68121,0.628676,-0.14485,1
1.77796,-1.06593,-1.74464,-1.19311,2.04351,1.19118,-0.913357,1.77796,-1.06593,-1.74464,-1.19311,2.04351,1.19118,-0.913357,1.77688,-1.06856,-1.81086,-1.13316,1.96727,1.14147,-0.928221,-0.292037,0.0407215,0.331296,-0.582803,1.70788,1.29626,-0.53651,-0.292037,0.0407215,0.331296,-0.582803,1.70788,1.29626,-0.53651,0.528581,-0.453707,0.694682,0.571915,0.170759,0.136328,0.790677,-0.256852,0.00127002,0.0972932,2.78804,-0.494354,0.585394,-0.997806,-0.499734,4.89535,-0.997806,0.0924919,4.89535,0.0107637,0.0262962,0.662215,-0.599462,0.762461,0.497123,0.148634,1
1.7106,-1.00503,-1.79982,-1.07993,2.03973,1.22552,-0.956875,1.7106,-1.00503,-1.79982,-1.07993,2.03973,1.22552,-0.956875,1.77425,-1.06758,-1.80857,-1.13892,1.98425,1.15466,-0.933016,-0.246845,0.140883,0.216706,-0.55584,1.65892,1.3029,-0.449925,-0.246845,0.140883,0.216706,-0.55584,1.65892,1.3029,-0.449925,0.525414,-0.454018,0.695945,0.571624,0.16717,0.127399,0.793139,-0.241376,0.0259533,0.112726,2.74955,-0.494821,0.634166,-3.84929,-0.0467181,4.87723,-3.84929,0.0256013,4.87723,-0.636515,0.625435,0.0874079,0.589899,0.554806,0.708542,-0.23859,1
1.70182,-0.998648,-1.7754,-1.09689,2.07086,1.22734,-0.956199,1.70182,-0.998648,-1.7754,-1.09689,2.07086,1.22734,-0.956199,1.77147,-1.06439,-1.80634,-1.14271,1.99812,1.1665,-0.936663,-0.298448,0.360801,0.213985,-0.322117,1.28265,1.13397,-0.333322,-0.298448,0.360801,0.213985,-0.322117,1.28265,1.13397,-0.333322,0.522009,-0.454012,0.698658,0.572102,0.162701,0.120375,0.794819,-0.285109,0.0179317,0.26875,2.7183,-0.492624,0.681224,-3.12421,0.219786,4.70575,-3.12421,-0.00219366,4.70575,-0.696512,0.657414,0.30946,0.458205,0.727361,0.608404,-0.195359,1
1.69367,-0.986991,-1.81629,-1.11578,2.0768,1.22539,-0.966833,1.69367,-0.986991,-1.81629,-1.11578,2.0768,1.22539,-0.966833,1.76846,-1.06086,-1.80561,-1.14407,2.00838,1.176,-0.938664,-0.290791,0.349416,0.0171371,-0.0653725,0.95584,0.892732,-0.153371,-0.290791,0.349416,0.0171371,-0.0653725,0.95584,0.892732,-0.153371,0.518675,-0.454751,0.701338,0.573381,0.158749,0.115328,0.795445,-0.274806,-0.0818294,0.235153,2.68424,-0.48991,0.727545,-3.40617,0.27132,4.6321,-3.40617,0.00525149,4.6321,-0.747859,0.738678,-0.106834,0.282838,0.684251,0.493845,-0.281691,1
1.69512,-0.981968,-1.82438,-1.11325,2.08256,1.2433,-0.971625,1.69512,-0.981968,-1.82438,-1.11325,2.08256,1.2433,-0.971625,1.76643,-1.0568,-1.80568,-1.14402,2.0171,1.18335,-0.937889,-0.1762,0.436288,0.0106178,-0.015699,0.869076,0.686045,0.150447,-0.1762,0.436288,0.0106178,-0.015699,0.869076,0.686045,0.150447,0.515951,-0.455326,0.704163,0.573906,0.155446,0.111339,0.796286,-0.210531,-0.0130252,0.279569,2.6491,-0.489243,0.773201,-3.5141,0.0667095,4.56557,-3.5141,0.0233223,4.56557,-0.713036,0.748363,-0.187029,0.30775,0.654569,0.599439,-0.337362,1
1.69439,-0.974173,-1.82506,-1.11946,2.09175,1.24772,-0.966583,1.69439,-0.974173,-1.82506,-1.11946,2.09175,1.24772,-0.966583,1.76414,-1.05135,-1.80412,-1.14576,2.0261,1.18995,-0.936953,-0.271029,0.577375,0.21788,-0.229337,0.905411,0.678843,0.0184433,-0.271029,0.577375,0.21788,-0.229337,0.905411,0.678843,0.0184433,0.51329,-0.454645,0.707845,0.573603,0.151877,0.107616,0.797704,-0.239181,0.0957717,0.375058,2.61497,-0.488483,0.816735,-3.41289,0.0760436,4.35349,-3.41289,0.0634116,4.35349,-0.697541,0.771719,-0.209471,0.263043,0.656488,0.577642,-0.296299,1
1.68888,-0.968714,-1.82488,-1.13623,2.10096,1.25293,-0.961097,1.68888,-0.968714,-1.82488,-1.13623,2.10096,1.25293,-0.961097,1.75957,-1.0459,-1.80044,-1.14875,2.03573,1.19798,-0.939578,-0.516592,0.516388,0.410666,-0.295644,0.995377,0.845336,-0.346851,-0.516592,0.516388,0.410666,-0.295644,0.995377,0.845336,-0.346851,0.509391,-0.454285,0.712031,0.574796,0.147258,0.103113,0.798306,-0.367629,0.0140828,0.397437,2.58176,-0.486607,0.859043,-3.32103,0.187588,4.23071,-3.32103,0.140355,4.23071,-0.706909,0.771812,-0.244354,0.125211,0.65236,0.549493,-0.215188,1
1.68042,-0.963993,-1.82796,-1.14096,2.1124,1.25527,-0.957204,1.68042,-0.963993,-1.82796,-1.14096,2.1124,1.25527,-0.957204,1.75301,-1.04151,-1.79703,-1.14978,2.04683,1.20675,-0.944795,-0.690168,0.417892,0.279394,-0.0179639,1.142,0.877093,-0.571634,-0.690168,0.417892,0.279394,-0.0179639,1.142,0.877093,-0.571634,0.504127,-0.456214,0.71605,0.578408,0.142568,0.0972606,0.797282,-0.489024,-0.234486,0.364699,2.54849,-0.484442,0.90072,-3.32754,0.216448,4.16776,-3.32754,0.159277,4.16776,-0.725877,0.775165,-0.309274,0.0881515,0.655755,0.485251,-0.12409,1
1.67644,-0.958042,-1.82838,-1.13382,2.12412,1.26328,-0.963874,1.67644,-0.958042,-1.82838,-1.13382,2.12412,1.26328,-0.963874,1.74665,-1.0365,-1.79651,-1.14711,2.05866,1.21589,-0.951489,-0.592954,0.554198,-0.0230931,0.363269,1.18492,0.932663,-0.690491,-0.592954,0.554198,-0.0230931,0.363269,1.18492,0.932663,-0.690491,0.498348,-0.459689,0.720279,0.584369,0.137661,0.0915392,0.79447,-0.512658,-0.326771,0.425454,2.51572,-0.482062,0.941545,-3.27668,0.238049,4.08251,-3.27668,0.161632,4.08251,-0.702105,0.784536,-0.318749,0.132941,0.654625,0.473901,-0.123855,1
1.67104,-0.950584,-1.84011,-1.10426,2.13116,1.27474,-0.979264,1.67104,-0.950584,-1.84011,-1.10426,2.13116,1.27474,-0.979264,1.74214,-1.02957,-1.7995,-1.14166,2.07021,1.22564,-0.95783,-0.41033,0.725113,-0.401702,0.580203,1.14049,0.984661,-0.595902,-0.41033,0.725113,-0.401702,0.580203,1.14049,0.984661,-0.595902,0.492916,-0.463016,0.725002,0.591232,0.13215,0.0871127,0.790817,-0.46679,-0.313219,0.44259,2.48191,-0.480596,0.982353,-3.38066,0.146604,4.08078,-3.38066,0.165522,4.08078,-0.711031,0.789835,-0.40614,0.373953,0.60944,0.490982,-0.21434,1
1.66537,-0.942666,-1.85033,-1.09551,2.14081,1.27791,-0.991562,1.66537,-0.942666,-1.85033,-1.09551,2.14081,1.27791,-0.991562,1.73856,-1.02182,-1.80579,-1.1369,2.08128,1.23507,-0.961911,-0.356906,0.79432,-0.68843,0.41848,1.09568,0.919445,-0.345605,-0.356906,0.79432,-0.68843,0.41848,1.09568,0.919445,-0.345605,0.488298,-0.46584,0.728829,0.597207,0.127592,0.0841616,0.787389,-0.399928,-0.258049,0.344183,2.44803,-0.477681,1.02134,-3.38862,0.291514,3.89891,-3.38862,0.196451,3.89891,-0.731945,0.791533,-0.445405,0.413867,0.595282,0.428344,-0.296513,1
1.65866,-0.933804,-1.85683,-1.09818,2.14934,1.27385,-1.00067,1.65866,-0.933804,-1.85683,-1.09818,2.14934,1.27385,-1.00067,1.73372,-1.01317,-1.81307,-1.13503,2.09205,1.2436,-0.963655,-0.542873,0.883601,-0.721206,0.112397,1.07643,0.829889,-0.126107,-0.542873,0.883601,-0.721206,0.112397,1.07643,0.829889,-0.126107,0.483805,-0.468108,0.73205,0.601948,0.124114,0.0822909,0.784527,-0.428274,-0.21904,0.304876,2.41416,-0.476223,1.05924,-3.38707,0.145733,3.79024,-3.38707,0.208846,3.79024,-0.750549,0.793636,-0.437564,0.368497,0.572891,0.302499,-0.370109,1
1.65057,-0.924773,-1.86258,-1.10258,2.15839,1.27031,-1.00471,1.65057,-0.924773,-1.86258,-1.10258,2.15839,1.27031,-1.00471,1.72647,-1.00426,-1.81937,-1.13547,2.10284,1.25141,-0.964606,-0.779939,0.887471,-0.594128,-0.0773804,1.08038,0.767033,-0.0931632,-0.779939,0.887471,-0.594128,-0.0773804,1.08038,0.767033,-0.0931632,0.478645,-0.470473,0.735127,0.606318,0.121189,0.0805031,0.7818,-0.506175,-0.240252,0.299424,2.3806,-0.475274,1.09593,-3.35522,0.0949025,3.66867,-3.35522,0.195774,3.66867,-0.759017,0.794883,-0.432118,0.328886,0.555518,0.189002,-0.400991,1
1.64102,-0.916254,-1.8695,-1.10208,2.16744,1.27545,-1.00608,1.64102,-0.916254,-1.8695,-1.10208,2.16744,1.27545,-1.00608,1.71758,-0.995594,-1.82516,-1.1355,2.11339,1.25892,-0.96652,-0.910141,0.861387,-0.586031,0.0347311,1.03728,0.740643,-0.236922,-0.910141,0.861387,-0.586031,0.0347311,1.03728,0.740643,-0.236922,0.472619,-0.473657,0.738332,0.61175,0.118197,0.078559,0.778216,-0.586558,-0.331905,0.314863,2.34729,-0.472651,1.13173,-3.33192,0.26238,3.57993,-3.33192,0.190439,3.57993,-0.765624,0.793396,-0.443471,0.33425,0.540499,0.165228,-0.395613,1
1.63227,-0.908679,-1.87791,-1.09507,2.17674,1.29106,-1.0066,1.63227,-0.908679,-1.87791,-1.09507,2.17674,1.29106,-1.0066,1.709,-0.987694,-1.83144,-1.13329,2.12322,1.26617,-0.970538,-0.827507,0.765212,-0.641735,0.293046,0.968714,0.705409,-0.460445,-0.827507,0.765212,-0.641735,0.293046,0.968714,0.705409,-0.460445,0.466362,-0.477617,0.741531,0.618721,0.114971,0.0766777,0.77336,-0.589088,-0.403721,0.310881,2.31385,-0.470682,1.16653,-3.34318,0.196886,3.47984,-3.34318,0.187277,3.47984,-0.767304,0.790148,-0.464686,0.382147,0.535212,0.248923,-0.360643,1
1.62613,-0.902117,-1.88757,-1.08639,2.18686,1.30663,-1.00797,1.62613,-0.902117,-1.88757,-1.08639,2.18686,1.30663,-1.00797,1.70188,-0.980614,-1.83846,-1.1286,2.13241,1.27204,-0.976836,-0.674057,0.696612,-0.720977,0.523017,0.905781,0.534809,-0.682159,-0.674057,0.696612,-0.720977,0.523017,0.905781,0.534809,-0.682159,0.460535,-0.482016,0.744649,0.626898,0.112018,0.0750653,0.767344,-0.540736,-0.436291,0.305317,2.28055,-0.467541,1.20048,-3.33064,0.314128,3.39538,-3.33064,0.202633,3.39538,-0.757549,0.784972,-0.491117,0.422074,0.544456,0.345938,-0.311388,1
1.62116,-0.895229,-1.89712,-1.07514,2.19395,1.31799,-1.01262,1.62116,-0.895229,-1.89712,-1.07514,2.19395,1.31799,-1.01262,1.69586,-0.973512,-1.84618,-1.12269,2.14131,1.27556,-0.984526,-0.587541,0.71375,-0.791482,0.596038,0.885225,0.308314,-0.784962,-0.587541,0.71375,-0.791482,0.596038,0.885225,0.308314,-0.784962,0.455296,-0.486423,0.747813,0.635631,0.109864,0.0740766,0.760537,-0.494634,-0.427726,0.308719,2.24694,-0.46523,1.23354,-3.36103,0.231051,3.3058,-3.36103,0.211825,3.3058,-0.747019,0.782834,-0.50945,0.475466,0.526435,0.42429,-0.28099,1
1.61578,-0.887839,-1.9045,-1.06966,2.20357,1.32236,-1.01786,1.61578,-0.887839,-1.9045,-1.06966,2.20357,1.32236,-1.01786,1.68987,-0.966133,-1.85415,-1.11739,2.15023,1.27762,-0.992223,-0.605494,0.742921,-0.786796,0.504908,0.892492,0.197014,-0.755888,-0.605494,0.742921,-0.786796,0.504908,0.892492,0.197014,-0.755888,0.450346,-0.490591,0.750871,0.644109,0.108466,0.0735237,0.753626,-0.482022,-0.395952,0.303564,2.21334,-0.464327,1.26503,-3.35996,0.0902772,3.14891,-3.35996,0.217456,3.14891,-0.740917,0.782944,-0.50349,0.477297,0.533341,0.447442,-0.256383,1
1.6091,-0.880011,-1.91227,-1.06516,2.21176,1.3224,-1.02875,1.6091,-0.880011,-1.91227,-1.06516,2.21176,1.3224,-1.02875,1.68344,-0.958452,-1.8616,-1.11293,2.15917,1.28004,-0.99892,-0.660323,0.782949,-0.739289,0.429393,0.891859,0.272983,-0.633837,-0.660323,0.782949,-0.739289,0.429393,0.891859,0.272983,-0.633837,0.445196,-0.494372,0.75409,0.651965,0.106834,0.0729116,0.747136,-0.511099,-0.361474,0.326388,2.18014,-0.464737,1.29555,-3.31941,-0.0410199,3.05204,-3.31941,0.191821,3.05204,-0.74339,0.784404,-0.50673,0.477753,0.525947,0.423615,-0.298263,1
1.60064,-0.872161,-1.92015,-1.0567,2.21857,1.32403,-1.04118,1.60064,-0.872161,-1.92015,-1.0567,2.21857,1.32403,-1.04118,1.67626,-0.950437,-1.8692,-1.10845,2.16813,1.28422,-1.00417,-0.74002,0.799739,-0.773733,0.455232,0.900124,0.464904,-0.491162,-0.74002,0.799739,-0.773733,0.455232,0.900124,0.464904,-0.491162,0.439321,-0.498165,0.757569,0.659599,0.10429,0.0720663,0.74085,-0.584824,-0.385055,0.341889,2.14685,-0.463628,1.32514,-3.32906,0.110912,2.95906,-3.32906,0.150604,2.95906,-0.756217,0.782766,-0.509478,0.517501,0.504364,0.398087,-0.370104,1
1.59137,-0.864476,-1.92798,-1.05153,2.22887,1.32239,-1.04627,1.59137,-0.864476,-1.92798,-1.05153,2.22887,1.32239,-1.04627,1.66858,-0.942795,-1.87724,-1.10324,2.17725,1.29061,-1.00848,-0.770257,0.754198,-0.81013,0.545727,0.921581,0.69219,-0.421496,-0.770257,0.754198,-0.81013,0.545727,0.921581,0.69219,-0.421496,0.432634,-0.502366,0.76104,0.667356,0.10077,0.0706726,0.734498,-0.651597,-0.424961,0.342162,2.11365,-0.461034,1.35343,-3.32012,0.259411,2.82867,-3.32012,0.133071,2.82867,-0.772087,0.783188,-0.507388,0.517091,0.516201,0.317831,-0.377861,1
1.58295,-0.856853,-1.93701,-1.04534,2.23679,1.32189,-1.0514,1.58295,-0.856853,-1.93701,-1.04534,2.23679,1.32189,-1.0514,1.66118,-0.935155,-1.88556,-1.09697,2.18663,1.2988,-1.01256,-0.726825,0.765212,-0.843674,0.647787,0.940986,0.84214,-0.40123,-0.726825,0.765212,-0.843674,0.647787,0.940986,0.84214,-0.40123,0.425459,-0.506538,0.764842,0.675272,0.0961151,0.0688577,0.72803,-0.678714,-0.416196,0.37512,2.08065,-0.457631,1.38119,-3.29988,0.340319,2.77597,-3.29988,0.13864,2.77597,-0.782334,0.783026,-0.51449,0.516259,0.50155,0.230878,-0.388418,1
1.57501,-0.849671,-1.94697,-1.0383,2.24352,1.32284,-1.05711,1.57501,-0.849671,-1.94697,-1.0383,2.24352,1.32284,-1.05711,1.65392,-0.927749,-1.89476,-1.09021,2.19588,1.30718,-1.01687,-0.726538,0.733213,-0.939551,0.69086,0.916787,0.816505,-0.448593,-0.726538,0.733213,-0.939551,0.69086,0.916787,0.816505,-0.448593,0.418164,-0.510868,0.768439,0.68346,0.0914406,0.0672246,0.721112,-0.692367,-0.444091,0.345921,2.04743,-0.454416,1.40817,-3.32224,0.321519,2.69861,-3.32224,0.176922,2.69861,-0.78912,0.780783,-0.522055,0.519075,0.476433,0.156603,-0.402405,1
1.56866,-0.842289,-1.9567,-1.03267,2.2485,1.32783,-1.06296,1.56866,-0.842289,-1.9567,-1.03267,2.2485,1.32783,-1.06296,1.64717,-0.920394,-1.90377,-1.08311,2.20463,1.31431,-1.02227,-0.652521,0.742345,-0.881845,0.712396,0.857133,0.678432,-0.573064,-0.652521,0.742345,-0.881845,0.712396,0.857133,0.678432,-0.573064,0.411165,-0.514913,0.772161,0.691828,0.0870095,0.0659768,0.713758,-0.650379,-0.39067,0.374959,2.01418,-0.452985,1.434,-3.32546,0.143051,2.58313,-3.32546,0.216665,2.58313,-0.785118,0.781049,-0.52926,0.504398,0.438787,0.135285,-0.406918,1
1.56238,-0.834873,-1.9656,-1.02781,2.25481,1.33105,-1.06805,1.56238,-0.834873,-1.9656,-1.02781,2.25481,1.33105,-1.06805,1.64072,-0.912969,-1.91256,-1.07598,2.21299,1.31969,-1.02892,-0.6568,0.738283,-0.889971,0.706631,0.835273,0.491965,-0.694875,-0.6568,0.738283,-0.889971,0.706631,0.835273,0.491965,-0.694875,0.4045,-0.518695,0.775984,0.700385,0.0831212,0.0651685,0.705907,-0.638399,-0.389751,0.36965,1.98138,-0.452488,1.45872,-3.27959,0.0497699,2.47118,-3.27959,0.230907,2.47118,-0.783415,0.780961,-0.530479,0.481739,0.418158,0.113599,-0.391343,1
1.55615,-0.827646,-1.9744,-1.02171,2.25688,1.34007,-1.07658,1.55615,-0.827646,-1.9744,-1.02171,2.25688,1.34007,-1.07658,1.63376,-0.905685,-1.92149,-1.06891,2.22155,1.32334,-1.03634,-0.70172,0.724538,-0.878304,0.706885,0.858741,0.323663,-0.74853,-0.70172,0.724538,-0.878304,0.706885,0.858741,0.323663,-0.74853,0.397737,-0.522793,0.779677,0.709258,0.0800989,0.064492,0.697408,-0.653877,-0.409566,0.367696,1.94826,-0.45189,1.48267,-3.3123,0.0597715,2.39509,-3.3123,0.203408,2.39509,-0.776066,0.780386,-0.529091,0.471983,0.353293,0.167291,-0.402337,1
1.54967,-0.820068,-1.98196,-1.01509,2.26337,1.34717,-1.08446,1.54967,-0.820068,-1.98196,-1.01509,2.26337,1.34717,-1.08446,1.62641,-0.898263,-1.93005,-1.06158,2.23001,1.32568,-1.04375,-0.753539,0.74799,-0.858326,0.753431,0.843037,0.218336,-0.739074,-0.753539,0.74799,-0.858326,0.753431,0.843037,0.218336,-0.739074,0.390792,-0.526904,0.783639,0.718134,0.0773875,0.0639177,0.688628,-0.689663,-0.416754,0.402719,1.91525,-0.450247,1.50572,-3.30098,0.164282,2.30545,-3.30098,0.163471,2.30545,-0.767351,0.781945,-0.519115,0.464913,0.333598,0.214978,-0.407103,1
1.54172,-0.812621,-1.99046,-1.0085,2.26814,1.34902,-1.09359,1.54172,-0.812621,-1.99046,-1.0085,2.26814,1.34902,-1.09359,1.61854,-0.890732,-1.93894,-1.05415,2.23812,1.32754,-1.05099,-0.790366,0.754737,-0.900067,0.729811,0.794296,0.171526,-0.713512,-0.790366,0.754737,-0.900067,0.729811,0.794296,0.171526,-0.713512,0.383552,-0.531095,0.78764,0.727112,0.0748128,0.0636394,0.679456,-0.705437,-0.414507,0.392828,1.88189,-0.447886,1.52774,-3.33617,0.236142,2.20203,-3.33617,0.138104,2.20203,-0.768161,0.781109,-0.515248,0.45657,0.300216,0.21483,-0.425987,1
1.5336,-0.805169,-1.99958,-1.00262,2.27057,1.34494,-1.10102,1.5336,-0.805169,-1.99958,-1.00262,2.27057,1.34494,-1.10102,1.61056,-0.883346,-1.94813,-1.0471,2.24539,1.32909,-1.05772,-0.80308,0.740333,-0.923531,0.697933,0.706267,0.150339,-0.659693,-0.80308,0.740333,-0.923531,0.697933,0.706267,0.150339,-0.659693,0.376391,-0.535132,0.791406,0.735804,0.0724722,0.0638607,0.67027,-0.705309,-0.400737,0.37409,1.84803,-0.444919,1.54822,-3.38526,0.296712,2.04805,-3.38526,0.146185,2.04805,-0.769592,0.781774,-0.514472,0.444783,0.25179,0.158426,-0.432956,1
1.52591,-0.797308,-2.00844,-1.00019,2.27435,1.3377,-1.10726,1.52591,-0.797308,-2.00844,-1.00019,2.27435,1.3377,-1.10726,1.6027,-0.875673,-1.9571,-1.04012,2.2517,1.331,-1.06416,-0.777507,0.77825,-0.885422,0.684667,0.602841,0.206651,-0.641489,-0.777507,0.77825,-0.885422,0.684667,0.602841,0.206651,-0.641489,0.369262,-0.5386,0.795426,0.744228,0.0696244,0.0645346,0.661145,-0.693945,-0.335071,0.406937,1.81468,-0.442663,1.56711,-3.33548,0.22552,1.88894,-3.33548,0.178958,1.88894,-0.767866,0.78365,-0.513423,0.399319,0.226438,0.0670766,-0.430997,1
1.51771,-0.789563,-2.01698,-0.998536,2.27703,1.32725,-1.11274,1.51771,-0.789563,-2.01698,-0.998536,2.27703,1.32725,-1.11274,1.59487,-0.8681,-1.96614,-1.03369,2.25704,1.33374,-1.07069,-0.792642,0.743029,-0.913848,0.629373,0.513949,0.29719,-0.65823,-0.792642,0.743029,-0.913848,0.629373,0.513949,0.29719,-0.65823,0.36222,-0.541639,0.799268,0.752455,0.066409,0.0656501,0.65199,-0.69757,-0.320278,0.369861,1.78165,-0.442135,1.5848,-3.3023,0.0528097,1.76842,-3.3023,0.195853,1.76842,-0.771579,0.785363,-0.508359,0.351527,0.19988,-0.0649182,-0.420469,1
1.5102,-0.781827,-2.02464,-0.999028,2.28425,1.32631,-1.11745,1.5102,-0.781827,-2.02464,-0.999028,2.28425,1.32631,-1.11745,1.58687,-0.860805,-1.97502,-1.02737,2.26178,1.33722,-1.07759,-0.794476,0.73494,-0.868836,0.633639,0.462485,0.356894,-0.698856,-0.794476,0.73494,-0.868836,0.633639,0.462485,0.356894,-0.698856,0.355022,-0.544499,0.803025,0.760689,0.0627965,0.066869,0.642602,-0.705947,-0.290587,0.383631,1.75045,-0.443627,1.60262,-3.12041,-0.149179,1.78274,-3.12041,0.165124,1.78274,-0.766698,0.789783,-0.496158,0.283374,0.224703,-0.109061,-0.398667,1
1.50357,-0.774045,-2.03089,-0.99356,2.28487,1.33627,-1.12628,1.50357,-0.774045,-2.03089,-0.99356,2.28487,1.33627,-1.12628,1.57896,-0.853385,-1.98346,-1.02088,2.26609,1.34043,-1.08478,-0.801894,0.736282,-0.852239,0.645767,0.416217,0.290048,-0.723903,-0.801894,0.736282,-0.852239,0.645767,0.416217,0.290048,-0.723903,0.347853,-0.547008,0.807046,0.768832,0.0589735,0.0682429,0.633058,-0.707699,-0.276605,0.394861,1.71811,-0.442829,1.61875,-3.23458,0.0797987,1.61309,-3.23458,0.119838,1.61309,-0.753918,0.793402,-0.474256,0.273167,0.187835,-0.0415123,-0.415002,1
1.49551,-0.767177,-2.0388,-0.9871,2.28408,1.34209,-1.13344,1.49551,-0.767177,-2.0388,-0.9871,2.28408,1.34209,-1.13344,1.5706,-0.846337,-1.99234,-1.01465,2.26994,1.34203,-1.09215,-0.838805,0.696927,-0.883601,0.604722,0.378559,0.11966,-0.740668,-0.838805,0.696927,-0.883601,0.604722,0.378559,0.11966,-0.740668,0.340717,-0.549869,0.810663,0.777041,0.0561789,0.070029,0.623015,-0.704628,-0.301129,0.354077,1.68497,-0.437748,1.63364,-3.31391,0.508082,1.48809,-3.31391,0.120099,1.48809,-0.750869,0.791603,-0.464615,0.275533,0.141362,0.000661643,-0.412905,1
1.4888,-0.759838,-2.0455,-0.983522,2.28433,1.34716,-1.13913,1.4888,-0.759838,-2.0455,-0.983522,2.28433,1.34716,-1.13913,1.56257,-0.839038,-2.0007,-1.00896,2.27336,1.34171,-1.09952,-0.794428,0.744299,-0.823717,0.554162,0.334496,-0.077656,-0.732771,-0.794428,0.744299,-0.823717,0.554162,0.334496,-0.077656,-0.732771,0.334181,-0.552311,0.81438,0.784779,0.0541532,0.0722134,0.613168,-0.646437,-0.244018,0.379835,1.65208,-0.43609,1.64929,-3.28864,0.165832,1.56587,-3.28864,0.127223,1.56587,-0.73769,0.792003,-0.448023,0.254399,0.109607,0.0544985,-0.396144,1
1.4802,-0.751901,-2.05238,-0.980648,2.29491,1.33295,-1.14527,1.4802,-0.751901,-2.05238,-0.980648,2.29491,1.33295,-1.14527,1.55418,-0.83153,-2.00941,-1.00397,2.27684,1.34006,-1.1066,-0.857775,0.75427,-0.885722,0.47901,0.356067,-0.181952,-0.69725,-0.857775,0.75427,-0.885722,0.47901,0.356067,-0.181952,-0.69725,0.327759,-0.554791,0.817916,0.792307,0.0529938,0.0747116,0.603207,-0.661267,-0.260954,0.34983,1.61859,-0.43232,1.66333,-3.34888,0.376964,1.40307,-3.34888,0.174995,1.40307,-0.739831,0.796289,-0.429728,0.233202,0.180704,-0.0711057,-0.386755,1
1.47207,-0.743822,-2.05818,-0.989685,2.3055,1.31644,-1.14917,1.47207,-0.743822,-2.05818,-0.989685,2.3055,1.31644,-1.14917,1.54573,-0.823873,-2.01773,-0.999799,2.28045,1.33873,-1.11342,-0.831818,0.771694,-0.809444,0.392714,0.351158,-0.109977,-0.681252,-0.831818,0.771694,-0.809444,0.392714,0.351158,-0.109977,-0.681252,0.321464,-0.556886,0.821417,0.799397,0.0517803,0.077138,0.593576,-0.629097,-0.197982,0.355756,1.58575,-0.430335,1.67586,-3.28389,0.198543,1.253,-3.28389,0.231264,1.253,-0.736635,0.800517,-0.404465,0.101137,0.250525,-0.222942,-0.357525,1
1.46337,-0.735769,-2.06172,-0.994441,2.31609,1.30753,-1.15297,1.46337,-0.735769,-2.06172,-0.994441,2.31609,1.30753,-1.15297,1.53721,-0.816157,-2.02586,-0.996003,2.28341,1.3384,-1.12025,-0.872875,0.764336,-0.825574,0.383726,0.274423,-0.00431422,-0.684859,-0.872875,0.764336,-0.825574,0.383726,0.274423,-0.00431422,-0.684859,0.315156,-0.558576,0.824923,0.806301,0.050031,0.079776,0.583962,-0.656877,-0.18895,0.348501,1.55392,-0.430577,1.68724,-3.18323,-0.0242233,1.13806,-3.18323,0.248451,1.13806,-0.738354,0.803884,-0.358652,0.0156162,0.326791,-0.308697,-0.32722,1
1.45518,-0.727887,-2.06489,-0.995711,2.32386,1.30668,-1.1581,1.45518,-0.727887,-2.06489,-0.995711,2.32386,1.30668,-1.1581,1.52841,-0.808706,-2.03399,-0.992199,2.2855,1.33891,-1.12704,-0.863137,0.738714,-0.792381,0.37158,0.18669,0.0631225,-0.675508,-0.863137,0.738714,-0.792381,0.37158,0.18669,0.0631225,-0.675508,0.308665,-0.560162,0.828308,0.81317,0.0478742,0.0826628,0.574133,-0.647474,-0.163269,0.340696,1.52217,-0.430711,1.69781,-3.17482,-0.013423,1.05735,-3.17482,0.201609,1.05735,-0.732352,0.808184,-0.309009,-0.0351186,0.383644,-0.322334,-0.310585,1
1.44946,-0.72039,-2.06959,-0.996847,2.32493,1.30814,-1.16774,1.44946,-0.72039,-2.06959,-0.996847,2.32493,1.30814,-1.16774,1.52022,-0.801449,-2.04156,-0.988672,2.28755,1.33861,-1.13369,-0.820652,0.723518,-0.762287,0.351266,0.225021,-0.0692585,-0.661522,-0.820652,0.723518,-0.762287,0.351266,0.225021,-0.0692585,-0.661522,0.302693,-0.561487,0.831639,0.819547,0.0460946,0.0854589,0.564725,-0.610127,-0.153133,0.334063,1.48972,-0.429604,1.70814,-3.24484,0.110769,1.03304,-3.24484,0.131908,1.03304,-0.707619,0.810597,-0.280272,-0.0817474,0.373841,-0.304666,-0.340514,1
1.44354,-0.712953,-2.07348,-0.995025,2.32643,1.30523,-1.17836,1.44354,-0.712953,-2.07348,-0.995025,2.32643,1.30523,-1.17836,1.51192,-0.794211,-2.04924,-0.986164,2.29091,1.33674,-1.14006,-0.82378,0.730517,-0.754078,0.205043,0.381568,-0.228713,-0.624777,-0.82378,0.730517,-0.754078,0.205043,0.381568,-0.228713,-0.624777,0.296971,-0.563031,0.83463,0.82554,0.0455701,0.0878735,0.555595,-0.573116,-0.151392,0.296056,1.45629,-0.427308,1.71726,-3.34316,0.229573,0.911736,-3.34316,0.112153,0.911736,-0.683833,0.812576,-0.242325,-0.088601,0.355167,-0.31517,-0.382992,1
1.43843,-0.705076,-2.07634,-0.995465,2.3286,1.29986,-1.18745,1.43843,-0.705076,-2.07634,-0.995465,2.3286,1.29986,-1.18745,1.50387,-0.786554,-2.05592,-0.985365,2.2961,1.3327,-1.14586,-0.806666,0.768627,-0.643473,0.0376554,0.573359,-0.461212,-0.565454,-0.806666,0.768627,-0.643473,0.0376554,0.573359,-0.461212,-0.565454,0.291975,-0.564313,0.83755,0.830668,0.0464396,0.0896175,0.547543,-0.506832,-0.117726,0.289819,1.42227,-0.423467,1.72449,-3.40171,0.384045,0.722837,-3.40171,0.11995,0.722837,-0.654434,0.814774,-0.204241,-0.100999,0.324978,-0.328462,-0.415815,1
1.43209,-0.696783,-2.07724,-1.00249,2.34323,1.28866,-1.18977,1.43209,-0.696783,-2.07724,-1.00249,2.34323,1.28866,-1.18977,1.49508,-0.778721,-2.06219,-0.985675,2.30319,1.32678,-1.15117,-0.904568,0.791146,-0.616004,-0.046416,0.750231,-0.619564,-0.522525,-0.904568,0.791146,-0.616004,-0.046416,0.750231,-0.619564,-0.522525,0.286873,-0.565933,0.840317,0.835471,0.0486508,0.0906089,0.539825,-0.540788,-0.143414,0.282512,1.38898,-0.421029,1.7303,-3.32921,0.243866,0.581169,-3.32921,0.162646,0.581169,-0.629811,0.819386,-0.150544,-0.168119,0.400405,-0.381201,-0.386002,1
1.42485,-0.688623,-2.07573,-1.01722,2.35522,1.27698,-1.19346,1.42485,-0.688623,-2.07573,-1.01722,2.35522,1.27698,-1.19346,1.48596,-0.770824,-2.06751,-0.986871,2.31122,1.32072,-1.15648,-0.906138,0.785334,-0.50516,-0.142065,0.804114,-0.595535,-0.539423,-0.906138,0.785334,-0.50516,-0.142065,0.804114,-0.595535,-0.539423,0.281787,-0.567387,0.843066,0.839953,0.0510619,0.0909936,0.532533,-0.514105,-0.10888,0.273904,1.35667,-0.420189,1.73529,-3.23132,0.0839949,0.498867,-3.23132,0.202379,0.498867,-0.611086,0.822014,-0.0822313,-0.303456,0.440045,-0.437353,-0.369797,1
1.41944,-0.681006,-2.07404,-1.02813,2.36322,1.26696,-1.19913,1.41944,-0.681006,-2.07404,-1.02813,2.36322,1.26696,-1.19913,1.47675,-0.763356,-2.07247,-0.988322,2.31866,1.31517,-1.16241,-0.930394,0.738558,-0.502116,-0.142939,0.715294,-0.544337,-0.614446,-0.930394,0.738558,-0.502116,-0.142939,0.715294,-0.544337,-0.614446,0.276725,-0.568794,0.845568,0.84446,0.05331,0.0914215,0.52506,-0.526695,-0.11838,0.247281,1.32516,-0.419122,1.73962,-3.15068,0.106692,0.433803,-3.15068,0.213846,0.433803,-0.573095,0.823505,-0.0157166,-0.398069,0.445613,-0.48207,-0.367125,1
1.41361,-0.673172,-2.07743,-1.03368,2.36698,1.26028,-1.20592,1.41361,-0.673172,-2.07743,-1.03368,2.36698,1.26028,-1.20592,1.46784,-0.755823,-2.07685,-0.989926,2.3248,1.30999,-1.16927,-0.866721,0.761305,-0.407342,-0.171391,0.578383,-0.512434,-0.705685,-0.866721,0.761305,-0.407342,-0.171391,0.578383,-0.512434,-0.705685,0.272028,-0.569701,0.848149,0.84897,0.0550983,0.0923526,0.517383,-0.462848,-0.048635,0.267848,1.29312,-0.41726,1.74296,-3.20469,0.186217,0.333667,-3.20469,0.202437,0.333667,-0.542376,0.826507,-0.00577773,-0.437494,0.42181,-0.497072,-0.366479,1
1.40407,-0.665717,-2.08302,-1.03583,2.37368,1.25607,-1.21233,1.40407,-0.665717,-2.08302,-1.03583,2.37368,1.25607,-1.21233,1.45949,-0.748293,-2.08062,-0.992253,2.33027,1.30453,-1.17655,-0.838401,0.741866,-0.373977,-0.244029,0.555852,-0.556669,-0.728911,-0.838401,0.741866,-0.373977,-0.244029,0.555852,-0.556669,-0.728911,0.268021,-0.570194,0.850585,0.853158,0.0570336,0.0935711,0.510013,-0.418344,-0.03571,0.237785,1.26213,-0.417722,1.74585,-3.09827,-0.0462651,0.289226,-3.09827,0.153853,0.289226,-0.554213,0.82576,-0.0239944,-0.435752,0.434065,-0.48459,-0.357769,1
1.39442,-0.657942,-2.08145,-1.0346,2.38313,1.25208,-1.22097,1.39442,-0.657942,-2.08145,-1.0346,2.38313,1.25208,-1.22097,1.45115,-0.740674,-2.08359,-0.995453,2.33656,1.29818,-1.18351,-0.819801,0.776321,-0.251016,-0.35298,0.65865,-0.662612,-0.680721,-0.819801,0.776321,-0.251016,-0.35298,0.65865,-0.662612,-0.680721,0.264341,-0.570577,0.852933,0.856895,0.0595757,0.0943755,0.503264,-0.363222,0.00560927,0.244434,1.23027,-0.416759,1.74789,-3.18625,0.0963211,0.2038,-3.18625,0.105952,0.2038,-0.567347,0.827326,0.0213222,-0.391518,0.465757,-0.460989,-0.374543,1
1.38346,-0.649996,-2.07768,-1.03059,2.39388,1.24328,-1.22965,1.38346,-0.649996,-2.07768,-1.03059,2.39388,1.24328,-1.22965,1.44313,-0.732817,-2.08493,-1.00023,2.34411,1.29075,-1.18995,-0.814612,0.77752,-0.118994,-0.513561,0.77932,-0.771168,-0.633754,-0.814612,0.77752,-0.118994,-0.513561,0.77932,-0.771168,-0.633754,0.261424,-0.570542,0.855207,0.859805,0.0628556,0.0945115,0.497848,-0.302231,0.0309634,0.216315,1.19645,-0.412657,1.74932,-3.38222,0.410163,0.142658,-3.38222,0.119188,0.142658,-0.596619,0.828211,0.0724584,-0.303602,0.497795,-0.474683,-0.397007,1
1.37135,-0.642673,-2.07495,-1.02938,2.40599,1.23104,-1.23378,1.37135,-0.642673,-2.07495,-1.02938,2.40599,1.23104,-1.23378,1.43438,-0.725382,-2.08614,-1.00613,2.35239,1.28244,-1.19604,-0.881522,0.743292,-0.110246,-0.618162,0.835139,-0.847497,-0.602546,-0.881522,0.743292,-0.110246,-0.618162,0.835139,-0.847497,-0.602546,0.258432,-0.571006,0.856854,0.862498,0.0672401,0.0943091,0.492627,-0.31024,-0.00267019,0.159893,1.16319,-0.410138,1.7493,-3.32533,0.251997,-0.00190735,-3.32533,0.155654,-0.00190735,-0.630253,0.827085,0.111863,-0.23249,0.535929,-0.513985,-0.3774,1
1.36133,-0.635073,-2.07267,-1.04512,2.41428,1.22048,-1.23868,1.36133,-0.635073,-2.07267,-1.04512,2.41428,1.22048,-1.23868,1.4259,-0.71754,-2.08683,-1.01275,2.3606,1.27402,-1.20196,-0.840698,0.792103,-0.0665828,-0.669028,0.813547,-0.832573,-0.588688,-0.840698,0.792103,-0.0665828,-0.669028,0.813547,-0.832573,-0.588688,0.255928,-0.571025,0.858525,0.864838,0.0716642,0.0942614,0.487887,-0.261523,0.0479812,0.172777,1.13118,-0.408528,1.7474,-3.20127,0.160921,-0.19027,-3.20127,0.182463,-0.19027,-0.645729,0.824672,0.141624,-0.323663,0.536816,-0.535468,-0.36727,1
1.35259,-0.627862,-2.06895,-1.06189,2.42332,1.2125,-1.24422,1.35259,-0.627862,-2.06895,-1.06189,2.42332,1.2125,-1.24422,1.41715,-0.709624,-2.08792,-1.01917,2.36867,1.26602,-1.20797,-0.884619,0.787585,-0.117383,-0.628762,0.804439,-0.790018,-0.609552,-0.884619,0.787585,-0.117383,-0.628762,0.804439,-0.790018,-0.609552,0.253166,-0.5711,0.860176,0.867338,0.0758949,0.0943449,0.482766,-0.304467,0.0274552,0.169497,1.10177,-0.409744,1.74512,-2.94105,-0.121534,-0.227046,-2.94105,0.169849,-0.227046,-0.645563,0.817623,0.189656,-0.427206,0.546564,-0.535211,-0.362484,1
1.33541,-0.620793,-2.11143,-0.971151,2.42696,1.22811,-1.26358,1.33541,-0.620793,-2.11143,-0.971151,2.42696,1.22811,-1.26358,1.40881,-0.701627,-2.08822,-1.02489,2.37672,1.2584,-1.21448,-0.810067,0.80036,-0.0026125,-0.552999,0.804209,-0.754042,-0.664953,-0.810067,0.80036,-0.0026125,-0.552999,0.804209,-0.754042,-0.664953,0.250498,-0.570796,0.862251,0.86984,0.0794431,0.0942122,0.477693,-0.267116,0.0791661,0.223199,1.04586,-0.412432,1.74161,-5.59067,-0.268871,-0.351298,-5.59067,0.121536,-0.351298,-0.733963,0.808347,-0.232034,0.537414,0.502384,-0.302995,-0.491068,1
1.33708,-0.612641,-2.1059,-0.998561,2.44942,1.23122,-1.2448,1.33708,-0.612641,-2.1059,-0.998561,2.44942,1.23122,-1.2448,1.40125,-0.694142,-2.08793,-1.02969,2.38509,1.25061,-1.22129,-0.74364,0.733418,0.0305591,-0.461454,0.853737,-0.796058,-0.680005,-0.74364,0.733418,0.0305591,-0.461454,0.853737,-0.796058,-0.680005,0.248021,-0.570483,0.864476,0.872243,0.0827898,0.0935929,0.472841,-0.254001,0.0604198,0.223226,1.01341,-0.410894,1.73726,-3.24509,0.153825,-0.435042,-3.24509,0.0658541,-0.435042,-0.641749,0.815006,-0.179627,0.311262,0.643315,-0.193879,-0.235116,1
1.32705,-0.607131,-2.12808,-1.00316,2.4528,1.21063,-1.25587,1.32705,-0.607131,-2.12808,-1.00316,2.4528,1.21063,-1.25587,1.39436,-0.686947,-2.08716,-1.03422,2.39411,1.24205,-1.22793,-0.670238,0.727018,0.107017,-0.458086,0.916667,-0.879083,-0.656313,-0.670238,0.727018,0.107017,-0.458086,0.916667,-0.879083,-0.656313,0.245889,-0.570196,0.866699,0.874344,0.0864665,0.0925352,0.46849,-0.200284,0.0814915,0.232308,0.981632,-0.409435,1.73202,-3.17822,0.145891,-0.524068,-3.17822,0.0151773,-0.524068,-0.673091,0.798156,-0.409179,0.310634,0.586836,-0.314213,-0.279359,1
1.3308,-0.598972,-2.12209,-1.00089,2.47002,1.20888,-1.2435,1.3308,-0.598972,-2.12209,-1.00089,2.47002,1.20888,-1.2435,1.38791,-0.679293,-2.08522,-1.03925,2.40363,1.23305,-1.23429,-0.648667,0.774319,0.208629,-0.51948,0.959636,-0.906718,-0.629433,-0.648667,0.774319,0.208629,-0.51948,0.959636,-0.906718,-0.629433,0.244349,-0.56935,0.869183,0.875964,0.0901568,0.0912779,0.465002,-0.15116,0.132003,0.251636,0.949517,-0.407788,1.72585,-3.21144,0.1647,-0.617087,-3.21144,0.0145847,-0.617087,-0.571137,0.803212,-0.368667,0.383592,0.663859,-0.241624,-0.092104,1
1.31949,-0.590456,-2.12374,-1.01665,2.48061,1.20228,-1.243,1.31949,-0.590456,-2.12374,-1.01665,2.48061,1.20228,-1.243,1.38038,-0.671636,-2.08479,-1.04334,2.41323,1.22554,-1.24108,-0.789359,0.758632,-0.0423992,-0.3466,0.949052,-0.66771,-0.705196,-0.789359,0.758632,-0.0423992,-0.3466,0.949052,-0.66771,-0.705196,0.241616,-0.568948,0.87169,0.878323,0.0931655,0.0900622,0.460171,-0.328217,0.0515698,0.254798,0.916982,-0.406907,1.7181,-3.2535,0.0881433,-0.774992,-3.2535,0.0420453,-0.774992,-0.60886,0.811794,-0.389443,0.266835,0.67375,-0.232593,-0.0191954,1
1.31223,-0.582308,-2.11907,-1.01616,2.4926,1.187,-1.24603,1.31223,-0.582308,-2.11907,-1.01616,2.4926,1.187,-1.24603,1.37275,-0.663934,-2.08717,-1.0439,2.42262,1.22134,-1.24719,-0.734353,0.780898,-0.302032,0.0496136,0.941037,-0.35729,-0.539302,-0.734353,0.780898,-0.302032,0.0496136,0.941037,-0.35729,-0.539302,0.237157,-0.568816,0.874991,0.881647,0.0938626,0.0887751,0.45388,-0.460998,0.0335601,0.360382,0.885755,-0.406007,1.70965,-3.12274,0.0899941,-0.844598,-3.12274,0.0905984,-0.844598,-0.605233,0.816269,-0.319007,0.277459,0.699871,-0.343438,0.0116326,1
1.31073,-0.575244,-2.12364,-1.01046,2.50076,1.18804,-1.26556,1.31073,-0.575244,-2.12364,-1.01046,2.50076,1.18804,-1.26556,1.36657,-0.656318,-2.09277,-1.04032,2.43231,1.2178,-1.25147,-0.576548,0.746648,-0.653629,0.45249,0.975302,-0.370879,-0.409264,-0.576548,0.746648,-0.653629,0.45249,0.975302,-0.370879,-0.409264,0.231758,-0.569125,0.879115,0.885382,0.093442,0.087315,0.446927,-0.540779,-0.0395919,0.417095,0.854001,-0.405149,1.70095,-3.17538,0.0858009,-0.869954,-3.17538,0.121977,-0.869954,-0.55838,0.810736,-0.30869,0.298683,0.684536,-0.297587,-0.140866,1
1.3136,-0.569488,-2.14029,-0.993257,2.50772,1.19472,-1.29094,1.3136,-0.569488,-2.14029,-0.993257,2.50772,1.19472,-1.29094,1.36246,-0.649034,-2.1012,-1.03422,2.44228,1.21349,-1.25353,-0.349416,0.727414,-0.879011,0.634131,1.00437,-0.45231,-0.126311,-0.349416,0.727414,-0.879011,0.634131,1.00437,-0.45231,-0.126311,0.226395,-0.569877,0.883413,0.888899,0.0931577,0.0858664,0.440236,-0.498075,-0.0557867,0.429637,0.821951,-0.403316,1.69074,-3.20503,0.183314,-1.02135,-3.20503,0.118177,-1.02135,-0.488565,0.795464,-0.390872,0.409659,0.654428,-0.187714,-0.374036,1
1.31515,-0.562674,-2.14971,-0.984295,2.51942,1.20112,-1.29325,1.31515,-0.562674,-2.14971,-0.984295,2.51942,1.20112,-1.29325,1.36007,-0.641271,-2.10984,-1.02871,2.45289,1.20859,-1.25337,-0.225981,0.793374,-0.842256,0.515238,1.08749,-0.502128,0.0456469,-0.225981,0.793374,-0.842256,0.515238,1.08749,-0.502128,0.0456469,0.222159,-0.570056,0.887731,0.891414,0.0932434,0.0843704,0.435394,-0.389911,0.0138607,0.431556,0.790547,-0.401675,1.67916,-3.14035,0.164077,-1.15789,-3.14035,0.121371,-1.15789,-0.449233,0.785968,-0.398742,0.444147,0.665334,-0.0747002,-0.398744,1
1.30789,-0.552976,-2.15311,-0.982697,2.53377,1.18792,-1.28356,1.30789,-0.552976,-2.15311,-0.982697,2.53377,1.18792,-1.28356,1.35677,-0.632627,-2.11684,-1.02468,2.46454,1.20314,-1.25288,-0.378765,0.885123,-0.63938,0.362443,1.18996,-0.563449,0.0412488,-0.378765,0.885123,-0.63938,0.362443,1.18996,-0.563449,0.0412488,0.218068,-0.569635,0.892314,0.893528,0.0935336,0.0824748,0.431343,-0.398995,0.072616,0.464285,0.759333,-0.400712,1.6674,-3.12138,0.096333,-1.17654,-3.12138,0.122803,-1.17654,-0.488881,0.796501,-0.362698,0.419882,0.69232,-0.152226,-0.30686,1
1.2925,-0.54355,-2.15884,-0.980488,2.54774,1.17306,-1.26342,1.2925,-0.54355,-2.15884,-0.980488,2.54774,1.17306,-1.26342,1.35102,-0.623839,-2.12212,-1.02136,2.47683,1.19705,-1.25379,-0.640602,0.874433,-0.496891,0.351298,1.23172,-0.603955,-0.144718,-0.640602,0.874433,-0.496891,0.351298,1.23172,-0.603955,-0.144718,0.213014,-0.569305,0.897052,0.896041,0.0940208,0.0800458,0.426455,-0.522493,0.0499055,0.48206,0.727732,-0.39939,1.65488,-3.1601,0.132135,-1.25198,-3.1601,0.130764,-1.25198,-0.585248,0.802891,-0.367242,0.408766,0.709035,-0.239932,-0.0962986,1
1.27928,-0.535838,-2.17186,-0.984446,2.56028,1.16804,-1.24732,1.27928,-0.535838,-2.17186,-0.984446,2.56028,1.16804,-1.24732,1.34355,-0.615908,-2.12679,-1.01718,2.4888,1.19209,-1.25778,-0.769802,0.755013,-0.478818,0.437339,1.17621,-0.446112,-0.495967,-0.769802,0.755013,-0.478818,0.437339,1.17621,-0.446112,-0.495967,0.206651,-0.569326,0.901831,0.899577,0.0936819,0.0772538,0.419544,-0.633283,0.00112006,0.460046,0.695964,-0.398175,1.64089,-3.17688,0.121507,-1.39846,-3.17688,0.134344,-1.39846,-0.642767,0.8007,-0.45067,0.327348,0.714781,-0.24052,0.104615,1
1.27321,-0.529557,-2.18013,-0.993491,2.57197,1.17898,-1.2422,1.27321,-0.529557,-2.18013,-0.993491,2.57197,1.17898,-1.2422,1.33591,-0.609302,-2.13248,-1.01194,2.49994,1.18939,-1.26531,-0.748985,0.637636,-0.597069,0.546458,1.09276,-0.224434,-0.823181,-0.748985,0.637636,-0.597069,0.546458,1.09276,-0.224434,-0.823181,0.199468,-0.569776,0.90621,0.904155,0.092286,0.0745117,0.410408,-0.691225,-0.0370634,0.424716,0.664387,-0.397541,1.62586,-3.15769,0.063467,-1.50284,-3.15769,0.126395,-1.50284,-0.626999,0.797456,-0.476496,0.184528,0.720343,-0.104143,0.23111,1
1.27322,-0.523789,-2.19395,-0.978493,2.58022,1.19724,-1.26332,1.27322,-0.523789,-2.19395,-0.978493,2.58022,1.19724,-1.26332,1.32949,-0.602848,-2.13883,-1.00623,2.51056,1.18725,-1.27345,-0.60837,0.657603,-0.645522,0.574274,1.05934,-0.228473,-0.765068,-0.60837,0.657603,-0.645522,0.574274,1.05934,-0.228473,-0.765068,0.192734,-0.569928,0.91059,0.908688,0.0904592,0.0720682,0.401135,-0.621769,0.00450105,0.437438,0.631791,-0.396823,1.60992,-3.25957,0.0717074,-1.59463,-3.25957,0.10815,-1.59463,-0.562691,0.790592,-0.551219,0.277364,0.696559,0.099889,0.101325,1
1.26982,-0.518018,-2.20225,-0.967543,2.59169,1.20995,-1.28732,1.26982,-0.518018,-2.20225,-0.967543,2.59169,1.20995,-1.28732,1.32362,-0.59587,-2.14587,-1.00063,2.52143,1.18431,-1.27761,-0.591844,0.712348,-0.722199,0.548004,1.10003,-0.331827,-0.287796,-0.591844,0.712348,-0.722199,0.548004,1.10003,-0.331827,-0.287796,0.186345,-0.569841,0.915064,0.912275,0.0890812,0.0696895,0.393652,-0.609585,0.018029,0.442045,0.6001,-0.395096,1.59287,-3.16908,0.172734,-1.70501,-3.16908,0.104866,-1.70501,-0.537988,0.778521,-0.56375,0.33087,0.702541,0.256354,-0.0971496,1
1.26881,-0.512363,-2.21297,-0.959875,2.60175,1.2134,-1.29825,1.26881,-0.512363,-2.21297,-0.959875,2.60175,1.2134,-1.29825,1.31764,-0.588317,-2.15318,-0.995926,2.53302,1.18018,-1.27673,-0.598016,0.773745,-0.72915,0.432953,1.17734,-0.439688,0.198643,-0.598016,0.773745,-0.72915,0.432953,1.17734,-0.439688,0.198643,0.180196,-0.569656,0.91944,0.914699,0.0886326,0.0671391,0.388538,-0.576323,0.0401485,0.429955,0.568856,-0.393267,1.57496,-3.12442,0.182956,-1.79054,-3.12442,0.115269,-1.79054,-0.488275,0.759547,-0.597915,0.360513,0.687318,0.332255,-0.215184,1
1.26502,-0.504392,-2.21986,-0.960218,2.61345,1.20983,-1.29898,1.26502,-0.504392,-2.21986,-0.960218,2.61345,1.20983,-1.29898,1.31166,-0.579864,-2.16048,-0.992664,2.54527,1.17667,-1.27219,-0.605386,0.870364,-0.736389,0.296257,1.24225,-0.297192,0.524527,-0.605386,0.870364,-0.736389,0.296257,1.24225,-0.297192,0.524527,0.174466,-0.568888,0.923778,0.916204,0.0881962,0.06452,0.385523,-0.546105,0.105594,0.432634,0.537602,-0.391555,1.55619,-3.12542,0.171161,-1.87719,-3.12542,0.127742,-1.87719,-0.466422,0.754722,-0.593755,0.324461,0.681831,0.331661,-0.267935,1
1.25252,-0.492994,-2.22744,-0.962281,2.62003,1.21497,-1.30082,1.25252,-0.492994,-2.22744,-0.962281,2.62003,1.21497,-1.30082,1.30478,-0.571063,-2.16873,-0.989723,2.55779,1.17623,-1.26778,-0.717453,0.873025,-0.858212,0.298283,1.25147,0.038686,0.372779,-0.717453,0.873025,-0.858212,0.298283,1.25147,0.038686,0.372779,0.167937,-0.567742,0.928129,0.918073,0.086364,0.0618947,0.381905,-0.651214,0.11247,0.42405,0.505785,-0.390533,1.5359,-3.18169,0.102159,-2.02947,-3.18169,0.137334,-2.02947,-0.522593,0.780689,-0.58708,0.27442,0.622371,0.387393,-0.330429,1
1.24243,-0.484608,-2.23612,-0.969618,2.63039,1.21942,-1.29853,1.24243,-0.484608,-2.23612,-0.969618,2.63039,1.21942,-1.29853,1.29757,-0.562727,-2.17768,-0.986158,2.56993,1.17875,-1.26712,-0.709891,0.825434,-0.896346,0.391223,1.19943,0.321401,-0.0413586,-0.709891,0.825434,-0.896346,0.391223,1.19943,0.321401,-0.0413586,0.160683,-0.566392,0.932462,0.920952,0.0829056,0.0593887,0.376094,-0.69442,0.135465,0.435921,0.474946,-0.389982,1.51414,-3.08388,0.0551224,-2.17599,-3.08388,0.138559,-2.17599,-0.551444,0.781194,-0.584457,0.165394,0.604554,0.406723,-0.314169,1
1.22952,-0.478653,-2.24871,-0.982392,2.6356,1.22632,-1.29815,1.22952,-0.478653,-2.24871,-0.982392,2.6356,1.22632,-1.29815,1.29076,-0.555212,-2.18732,-0.981552,2.5815,1.18399,-1.27035,-0.677365,0.72438,-1.00406,0.47038,1.14143,0.582903,-0.413154,-0.677365,0.72438,-1.00406,0.47038,1.14143,0.582903,-0.413154,0.152998,-0.564868,0.936751,0.924716,0.07786,0.0569925,0.368225,-0.739133,0.119233,0.404546,0.443602,-0.389447,1.49236,-3.13444,0.0535488,-2.17738,-3.13444,0.125327,-2.17738,-0.61233,0.765586,-0.613895,-0.0084021,0.541001,0.423316,-0.27799,1
1.22328,-0.471316,-2.25764,-0.974211,2.6393,1.2329,-1.30447,1.22328,-0.471316,-2.25764,-0.974211,2.6393,1.2329,-1.30447,1.28464,-0.548253,-2.19783,-0.976779,2.5926,1.19021,-1.27647,-0.579703,0.702185,-1.05032,0.468954,1.095,0.626,-0.669407,-0.579703,0.702185,-1.05032,0.468954,1.095,0.626,-0.669407,0.145436,-0.563356,0.940721,0.928937,0.072418,0.0549096,0.358911,-0.692054,0.136067,0.388256,0.412252,-0.387639,1.46981,-3.13496,0.180727,-2.25514,-3.13496,0.112796,-2.25514,-0.613562,0.769365,-0.598094,0.0256767,0.466973,0.426881,-0.279987,1
1.22664,-0.463932,-2.2673,-0.994508,2.65178,1.23786,-1.31291,1.22664,-0.463932,-2.2673,-0.994508,2.65178,1.23786,-1.31291,1.27962,-0.540738,-2.20795,-0.972681,2.60318,1.19632,-1.28373,-0.489052,0.76218,-1.00301,0.38722,1.04382,0.616076,-0.727197,-0.489052,0.76218,-1.00301,0.38722,1.04382,0.616076,-0.727197,0.138953,-0.561166,0.944776,0.932936,0.0668625,0.0533414,0.349735,-0.593277,0.199039,0.395807,0.381806,-0.386191,1.4458,-3.04463,0.144845,-2.40141,-3.04463,0.10766,-2.40141,-0.529788,0.768058,-0.593439,-0.218276,0.485913,0.415395,-0.291876,1
1.2222,-0.45663,-2.2758,-0.985598,2.65956,1.25144,-1.32078,1.2222,-0.45663,-2.2758,-0.985598,2.65956,1.25144,-1.32078,1.27477,-0.532967,-2.21765,-0.970017,2.61329,1.20248,-1.29027,-0.488729,0.782757,-0.955706,0.232871,0.997649,0.61924,-0.619684,-0.488729,0.782757,-0.955706,0.232871,0.997649,0.61924,-0.619684,0.133181,-0.558704,0.948486,0.936475,0.0616495,0.0521382,0.341313,-0.534161,0.22,0.356522,0.351767,-0.385067,1.42139,-3.0039,0.112399,-2.44018,-3.0039,0.108899,-2.44018,-0.525695,0.763374,-0.581425,-0.155813,0.462701,0.489598,-0.305087,1
1.22209,-0.449958,-2.28667,-0.996136,2.66689,1.26201,-1.32738,1.22209,-0.449958,-2.28667,-0.996136,2.66689,1.26201,-1.32738,1.26931,-0.525037,-2.2271,-0.969024,2.62286,1.20876,-1.2952,-0.572737,0.798706,-0.946528,0.058278,0.942878,0.635617,-0.45261,-0.572737,0.798706,-0.946528,0.058278,0.942878,0.635617,-0.45261,0.127696,-0.55622,0.951684,0.939567,0.0569728,0.051295,0.333673,-0.525743,0.217467,0.301614,0.319889,-0.384614,1.396,-3.18779,0.0452995,-2.53915,-3.18779,0.110159,-2.53915,-0.472181,0.750793,-0.595622,-0.271119,0.440346,0.532527,-0.321802,1
1.21232,-0.444732,-2.29816,-1.0046,2.67429,1.27085,-1.32937,1.21232,-0.444732,-2.29816,-1.0046,2.67429,1.27085,-1.32937,1.26263,-0.516842,-2.23651,-0.968877,2.6315,1.21549,-1.29917,-0.697478,0.823513,-0.938559,0.00100664,0.83393,0.686872,-0.385979,-0.697478,0.823513,-0.938559,0.00100664,0.83393,0.686872,-0.385979,0.121953,-0.553603,0.9547,0.942567,0.0522959,0.0509772,0.325935,-0.563095,0.232425,0.293722,0.288853,-0.382933,1.36948,-3.10363,0.168094,-2.65239,-3.10363,0.119233,-2.65239,-0.503121,0.721097,-0.616466,-0.357269,0.427958,0.553622,-0.302003,1
1.20237,-0.440219,-2.309,-1.01127,2.67572,1.28,-1.32744,1.20237,-0.440219,-2.309,-1.01127,2.67572,1.28,-1.32744,1.2551,-0.509118,-2.24616,-0.970278,2.63917,1.22238,-1.30312,-0.763342,0.756978,-0.973301,-0.196597,0.752765,0.696447,-0.403584,-0.763342,0.756978,-0.973301,-0.196597,0.752765,0.696447,-0.403584,0.116165,-0.551449,0.956859,0.945532,0.0483915,0.0511558,0.317823,-0.560937,0.174315,0.183157,0.257913,-0.382605,1.34159,-3.09398,0.0328243,-2.78895,-3.09398,0.112555,-2.78895,-0.527273,0.688987,-0.628336,-0.409932,0.365498,0.576181,-0.243179,1
1.19664,-0.434192,-2.31923,-1.01674,2.67587,1.28862,-1.33022,1.19664,-0.434192,-2.31923,-1.01674,2.67587,1.28862,-1.33022,1.24751,-0.501106,-2.25571,-0.972898,2.64664,1.22979,-1.30762,-0.755384,0.821775,-0.94859,-0.286141,0.747856,0.762383,-0.46735,-0.755384,0.821775,-0.94859,-0.286141,0.747856,0.762383,-0.46735,0.110751,-0.549115,0.958723,0.948407,0.0445872,0.0516051,0.309634,-0.520192,0.219895,0.185778,0.226482,-0.381492,1.31298,-3.14305,0.111321,-2.86069,-3.14305,0.0991063,-2.86069,-0.508714,0.669141,-0.635158,-0.438385,0.292281,0.588331,-0.225994,1
1.18708,-0.430458,-2.33076,-1.02566,2.67092,1.29753,-1.3315,1.18708,-0.430458,-2.33076,-1.02566,2.67092,1.29753,-1.3315,1.23992,-0.492821,-2.26563,-0.977252,2.65415,1.23812,-1.31287,-0.760154,0.825754,-1.00484,-0.476254,0.74939,0.857272,-0.543077,-0.760154,0.825754,-1.00484,-0.476254,0.74939,0.857272,-0.543077,0.105698,-0.54674,0.960033,0.951234,0.0409958,0.0523268,0.301224,-0.495297,0.205809,0.110863,0.195263,-0.380491,1.28344,-3.1219,0.10004,-2.95416,-3.1219,0.0937832,-2.95416,-0.528395,0.623632,-0.651375,-0.484105,0.167704,0.594074,-0.18627,1
1.18034,-0.424186,-2.34091,-1.03413,2.67431,1.3059,-1.33763,1.18034,-0.424186,-2.34091,-1.03413,2.67431,1.3059,-1.33763,1.23284,-0.484215,-2.27532,-0.982477,2.6616,1.24746,-1.31845,-0.682666,0.878328,-0.950339,-0.533957,0.742219,0.956115,-0.555109,-0.682666,0.878328,-0.950339,-0.533957,0.742219,0.956115,-0.555109,0.1012,-0.543998,0.961209,0.953878,0.0370833,0.0531808,0.29311,-0.422407,0.261126,0.121978,0.16469,-0.378787,1.25296,-3.05732,0.170437,-3.0484,-3.05732,0.101884,-3.0484,-0.525069,0.60029,-0.655979,-0.516572,0.127173,0.58448,-0.191799,1
1.17088,-0.424214,-2.35234,-1.0407,2.67949,1.31795,-1.34624,1.17088,-0.424214,-2.35234,-1.0407,2.67949,1.31795,-1.34624,1.22622,-0.475632,-2.28517,-0.988534,2.66863,1.25739,-1.32328,-0.670023,0.841837,-1.01943,-0.628031,0.685367,1.0026,-0.452166,-0.670023,0.841837,-1.01943,-0.628031,0.685367,1.0026,-0.452166,0.0971279,-0.541227,0.96203,0.956245,0.0332584,0.0542812,0.285556,-0.415136,0.230275,0.05986,0.133827,-0.376867,1.2217,-3.08631,0.191996,-3.12569,-3.08631,0.120169,-3.12569,-0.553399,0.514187,-0.671605,-0.521707,0.10859,0.60563,-0.229622,1
1.16233,-0.430531,-2.36425,-1.04804,2.6855,1.32829,-1.3515,1.16233,-0.430531,-2.36425,-1.04804,2.6855,1.32829,-1.3515,1.21953,-0.467474,-2.29561,-0.994999,2.67445,1.26759,-1.32712,-0.655282,0.820182,-1.02895,-0.641848,0.538166,1.02875,-0.362646,-0.655282,0.820182,-1.02895,-0.641848,0.538166,1.02875,-0.362646,0.093055,-0.538733,0.962396,0.958473,0.0297202,0.055926,0.278063,-0.397908,0.229236,0.0410765,0.102705,-0.375945,1.18907,-3.11219,0.0921816,-3.26273,-3.11219,0.125516,-3.26273,-0.572027,0.369424,-0.68644,-0.530427,0.110537,0.606965,-0.243842,1
1.15313,-0.464738,-2.37605,-1.05237,2.68419,1.33969,-1.35116,1.15313,-0.464738,-2.37605,-1.05237,2.68419,1.33969,-1.35116,1.21329,-0.459361,-2.30575,-1.00164,2.67795,1.27783,-1.33009,-0.627036,0.790318,-1.02954,-0.680593,0.290069,1.02353,-0.276865,-0.627036,0.790318,-1.02954,-0.680593,0.290069,1.02353,-0.276865,0.0896472,-0.536045,0.962659,0.96044,0.0261595,0.0586076,0.270991,-0.355125,0.221948,0.00827849,0.0722089,-0.375349,1.15497,-3.04961,0.0595868,-3.40984,-3.04961,0.130301,-3.40984,-0.601628,-0.053769,-0.70296,-0.507298,0.0624197,0.618559,-0.210643,1
1.14071,-0.493491,-2.38851,-1.05642,2.64316,1.35195,-1.3482,1.14071,-0.493491,-2.38851,-1.05642,2.64316,1.35195,-1.3482,1.20679,-0.451934,-2.31658,-1.00907,2.67951,1.28798,-1.33276,-0.649374,0.736174,-1.08856,-0.756918,0.12285,1.00775,-0.269351,-0.649374,0.736174,-1.08856,-0.756918,0.12285,1.00775,-0.269351,0.0862539,-0.53393,0.962171,0.962367,0.0233545,0.0621694,0.263515,-0.361137,0.177633,-0.0557894,0.0419568,-0.374521,1.11982,-3.02521,0.082761,-3.51589,-3.02521,0.121557,-3.51589,-0.660728,-0.415566,-0.719268,-0.473518,-0.363503,0.639696,-0.154367,1
1.13216,-0.494992,-2.39997,-1.07024,2.62431,1.36402,-1.35126,1.13216,-0.494992,-2.39997,-1.07024,2.62431,1.36402,-1.35126,1.20046,-0.44438,-2.32736,-1.01672,2.68033,1.29805,-1.33596,-0.628858,0.760861,-1.0753,-0.762898,0.0798994,1.00648,-0.340224,-0.628858,0.760861,-1.0753,-0.762898,0.0798994,1.00648,-0.340224,0.0831225,-0.531713,0.961641,0.964248,0.0206022,0.0661235,0.255792,-0.339952,0.197844,-0.046267,0.0117257,-0.372979,1.08472,-3.02311,0.154236,-3.50943,-3.02311,0.116372,-3.50943,-0.682968,-0.506118,-0.726133,-0.535212,-0.560173,0.659773,-0.152998,1
1.12203,-0.493175,-2.41018,-1.07997,2.62166,1.37471,-1.34273,1.12203,-0.493175,-2.41018,-1.07997,2.62166,1.37471,-1.34273,1.19437,-0.437115,-2.33796,-1.02505,2.6814,1.30841,-1.33993,-0.603248,0.714399,-1.06009,-0.853425,0.119763,1.04194,-0.411265,-0.603248,0.714399,-1.06009,-0.853425,0.119763,1.04194,-0.411265,0.0801373,-0.529678,0.960737,0.966059,0.0180773,0.06987,0.248035,-0.325731,0.169616,-0.100169,-0.017841,-0.372185,1.04849,-2.95666,0.0794083,-3.62324,-2.95666,0.103585,-3.62324,-0.7234,-0.560603,-0.722288,-0.549273,-0.597376,0.662943,-0.0279886,1
1.11398,-0.48934,-2.42037,-1.08938,2.62156,1.38644,-1.34287,1.11398,-0.48934,-2.42037,-1.08938,2.62156,1.38644,-1.34287,1.18828,-0.430618,-2.34882,-1.03342,2.68265,1.31891,-1.34404,-0.611277,0.627767,-1.09135,-0.820361,0.115295,1.06033,-0.402277,-0.611277,0.627767,-1.09135,-0.820361,0.115295,1.06033,-0.402277,0.0768403,-0.528104,0.959426,0.967838,0.0158655,0.0733201,0.240128,-0.368169,0.128441,-0.131656,-0.0480311,-0.371444,1.01182,-3.01902,0.0740647,-3.66678,-3.01902,0.0934177,-3.66678,-0.742966,-0.587217,-0.715465,-0.559524,-0.610951,0.675271,0.0116838,1
1.10765,-0.48726,-2.43166,-1.09873,2.62138,1.39607,-1.34763,1.10765,-0.48726,-2.43166,-1.09873,2.62138,1.39607,-1.34763,1.18231,-0.424611,-2.35956,-1.04115,2.68105,1.3299,-1.34732,-0.594444,0.590166,-1.07279,-0.761161,-0.289009,1.0994,-0.301411,-0.594444,0.590166,-1.07279,-0.761161,-0.289009,1.0994,-0.301411,0.0737749,-0.526431,0.958075,0.969429,0.0132711,0.0779226,0.232289,-0.331852,0.141434,-0.132402,-0.0788021,-0.370761,0.974084,-3.0771,0.0683069,-3.77372,-3.0771,0.0917741,-3.77372,-0.746531,-0.626496,-0.720996,-0.575791,-0.596695,0.661691,-0.00309076,1
1.10069,-0.487938,-2.44416,-1.10795,2.61523,1.40231,-1.34605,1.10069,-0.487938,-2.44416,-1.10795,2.61523,1.40231,-1.34605,1.1762,-0.419561,-2.37053,-1.04875,2.67362,1.34125,-1.3497,-0.611055,0.471459,-1.09583,-0.74938,-0.895234,1.14724,-0.213169,-0.611055,0.471459,-1.09583,-0.74938,-0.895234,1.14724,-0.213169,0.0712208,-0.525016,0.956138,0.970785,0.0108535,0.0850923,0.224094,-0.309109,0.101637,-0.198794,-0.109005,-0.3694,0.935054,-3.02032,0.136179,-3.903,-3.02032,0.0960847,-3.903,-0.755163,-0.683766,-0.736326,-0.591974,-0.58388,0.610546,0.036569,1
1.09466,-0.488847,-2.45573,-1.11394,2.60462,1.40994,-1.3541,1.09466,-0.488847,-2.45573,-1.11394,2.60462,1.40994,-1.3541,1.1702,-0.415559,-2.38131,-1.05618,2.66101,1.35289,-1.35027,-0.603912,0.378315,-1.08428,-0.741434,-1.36146,1.16221,-0.00935991,-0.603912,0.378315,-1.08428,-0.741434,-1.36146,1.16221,-0.00935991,0.0692727,-0.523884,0.953616,0.971686,0.00868952,0.0944378,0.216408,-0.273727,0.0717874,-0.251126,-0.13878,-0.368582,0.894225,-2.97744,0.081706,-4.08295,-2.97744,0.0942854,-4.08295,-0.755435,-0.732877,-0.744152,-0.577579,-0.563867,0.57052,-0.0383174,1
1.08802,-0.488102,-2.46722,-1.12322,2.59249,1.42302,-1.35621,1.08802,-0.488102,-2.46722,-1.12322,2.59249,1.42302,-1.35621,1.1638,-0.412533,-2.39224,-1.06396,2.64647,1.36479,-1.3498,-0.646685,0.28208,-1.08205,-0.797294,-1.45695,1.20253,0.0553205,-0.646685,0.28208,-1.08205,-0.797294,-1.45695,1.20253,0.0553205,0.0671714,-0.523312,0.950384,0.972295,0.0071323,0.10449,0.208981,-0.302437,0.0199095,-0.323052,-0.169174,-0.367437,0.853287,-3.03943,0.114512,-4.09377,-3.03943,0.0924118,-4.09377,-0.757835,-0.75569,-0.74981,-0.592633,-0.539832,0.582214,-0.0640413,1
1.08099,-0.487374,-2.47793,-1.13338,2.58233,1.43609,-1.34964,1.08099,-0.487374,-2.47793,-1.13338,2.58233,1.43609,-1.34964,1.15731,-0.410149,-2.40263,-1.07229,2.63332,1.37691,-1.34952,-0.65535,0.217831,-1.03142,-0.836867,-1.24952,1.21977,0.0172697,-0.65535,0.217831,-1.03142,-0.836867,-1.24952,1.21977,0.0172697,0.0648158,-0.523141,0.946692,0.97274,0.00602504,0.113636,0.202057,-0.331623,-0.0126093,-0.360725,-0.200127,-0.366765,0.811362,-3.09529,0.0672251,-4.19253,-3.09529,0.0944741,-4.19252,-0.76318,-0.772253,-0.752966,-0.610879,-0.509866,0.591846,-0.00114157,1
1.07333,-0.48863,-2.48907,-1.14125,2.58287,1.44705,-1.34188,1.07333,-0.48863,-2.48907,-1.14125,2.58287,1.44705,-1.34188,1.15057,-0.408844,-2.41279,-1.08063,2.62301,1.38884,-1.34952,-0.675232,0.0992318,-1.00976,-0.850901,-0.967161,1.17599,-0.00790979,-0.675232,0.0992318,-1.00976,-0.850901,-0.967161,1.17599,-0.00790979,0.0616255,-0.523645,0.9426,0.9732,0.0055129,0.121049,0.195444,-0.399034,-0.080271,-0.412906,-0.229233,-0.365051,0.768102,-2.91064,0.171426,-4.32592,-2.91064,0.104055,-4.32592,-0.772354,-0.797862,-0.762784,-0.606183,-0.401349,0.582113,0.0763919,1
1.06553,-0.488939,-2.49944,-1.15118,2.577,1.4596,-1.33843,1.06553,-0.488939,-2.49944,-1.15118,2.577,1.4596,-1.33843,1.14361,-0.40877,-2.42312,-1.08953,2.61465,1.39987,-1.34999,-0.707698,-0.0244364,-1.04582,-0.888485,-0.801333,1.08009,-0.058868,-0.707698,-0.0244364,-1.04582,-0.888485,-0.801333,1.08009,-0.058868,0.0577105,-0.525135,0.93776,0.973719,0.00630817,0.127183,0.188827,-0.473646,-0.162718,-0.485042,-0.260165,-0.363341,0.725474,-3.09316,0.170937,-4.26284,-3.09316,0.117051,-4.26283,-0.780803,-0.801687,-0.763228,-0.616489,-0.376501,0.597309,0.115672,1
1.05861,-0.491707,-2.51022,-1.161,2.58035,1.47109,-1.33616,1.05861,-0.491707,-2.51022,-1.161,2.58035,1.47109,-1.33616,1.13656,-0.409769,-2.43332,-1.09813,2.60707,1.41039,-1.35087,-0.695426,-0.124052,-1.00422,-0.860345,-0.759742,1.03794,-0.0973383,-0.695426,-0.124052,-1.00422,-0.860345,-0.759742,1.03794,-0.0973383,0.0532788,-0.527176,0.932567,0.97426,0.007682,0.132581,0.182158,-0.493589,-0.199431,-0.51668,-0.28972,-0.3628,0.679726,-2.95547,0.0541866,-4.57481,-2.95547,0.116673,-4.57481,-0.779522,-0.819376,-0.768929,-0.628672,-0.267245,0.607028,0.147084,1
1.0515,-0.494347,-2.52064,-1.16936,2.5846,1.48171,-1.33953,1.0515,-0.494347,-2.52064,-1.16936,2.5846,1.48171,-1.33953,1.12954,-0.411978,-2.44363,-1.10679,2.59922,1.42074,-1.3513,-0.712851,-0.258614,-1.04855,-0.864647,-0.795811,1.04078,-0.0244484,-0.712851,-0.258614,-1.04855,-0.864647,-0.795811,1.04078,-0.0244484,0.0485079,-0.529823,0.926749,0.974689,0.00976742,0.137759,0.17581,-0.549362,-0.260941,-0.589103,-0.319804,-0.361459,0.63324,-3.00845,0.13411,-4.64861,-3.00845,0.121682,-4.64861,-0.780352,-0.823688,-0.770073,-0.625755,-0.146165,0.609629,0.117695,1
1.04477,-0.498571,-2.53131,-1.1772,2.60175,1.49184,-1.34273,1.04477,-0.498571,-2.53131,-1.1772,2.60175,1.49184,-1.34273,1.12235,-0.415686,-2.45419,-1.11525,2.59134,1.43137,-1.3507,-0.713259,-0.40129,-1.05002,-0.842104,-0.775868,1.06738,0.0844549,-0.713259,-0.40129,-1.05002,-0.842104,-0.775868,1.06738,0.0844549,0.0431021,-0.533115,0.920257,0.97501,0.0124361,0.142532,0.169958,-0.596467,-0.311094,-0.649693,-0.348871,-0.35998,0.585734,-2.90666,0.147822,-4.75054,-2.90666,0.125842,-4.75054,-0.775848,-0.828857,-0.771116,-0.61959,0.104178,0.604734,0.0797586,1
1.03822,-0.502968,-2.54138,-1.1854,2.60332,1.50252,-1.34856,1.03822,-0.502968,-2.54138,-1.1854,2.60332,1.50252,-1.34856,1.11529,-0.420528,-2.46465,-1.12358,2.58423,1.44237,-1.3492,-0.70614,-0.51253,-1.04396,-0.829221,-0.681028,1.12023,0.17332,-0.70614,-0.51253,-1.04396,-0.829221,-0.681028,1.12023,0.17332,0.0372773,-0.536774,0.913297,0.975239,0.015419,0.146562,0.164897,-0.637539,-0.341152,-0.696688,-0.37872,-0.359382,0.538248,-2.98494,0.0598252,-4.74862,-2.98494,0.122048,-4.74862,-0.770763,-0.824408,-0.767317,-0.618138,0.190966,0.60152,0.00638888,1
1.03241,-0.508399,-2.55137,-1.19452,2.6082,1.51348,-1.35617,1.03241,-0.508399,-2.55137,-1.19452,2.6082,1.51348,-1.35617,1.10834,-0.426105,-2.47495,-1.13197,2.57864,1.45368,-1.34689,-0.694024,-0.565885,-1.03148,-0.839552,-0.507262,1.13632,0.248463,-0.694024,-0.565885,-1.03148,-0.839552,-0.507262,1.13632,0.248463,0.0310438,-0.540618,0.906026,0.975435,0.0186372,0.149583,0.160634,-0.665861,-0.349283,-0.722203,-0.408405,-0.35889,0.48991,-2.96853,0.0491589,-4.83387,-2.96853,0.104355,-4.83387,-0.759225,-0.822934,-0.764217,-0.625478,0.29561,0.598031,-0.0928065,1
1.0252,-0.514635,-2.56146,-1.20238,2.60582,1.5252,-1.34981,1.0252,-0.514635,-2.56146,-1.20238,2.60582,1.5252,-1.34981,1.10112,-0.43202,-2.48558,-1.14027,2.57586,1.46518,-1.34472,-0.726299,-0.614992,-1.06428,-0.831578,-0.191245,1.15196,0.199473,-0.726299,-0.614992,-1.06428,-0.831578,-0.191245,1.15196,0.199473,0.0239491,-0.54451,0.898698,0.975829,0.0219159,0.151147,0.156307,-0.749931,-0.357987,-0.73803,-0.43698,-0.35759,0.440595,-2.85748,0.13001,-4.93144,-2.85748,0.0969579,-4.93144,-0.759167,-0.826149,-0.758867,-0.621125,0.29957,0.600276,-0.0508758,1
1.01739,-0.521475,-2.57161,-1.21216,2.59703,1.53706,-1.33466,1.01739,-0.521475,-2.57161,-1.21216,2.59703,1.53706,-1.33466,1.09422,-0.438964,-2.49593,-1.14937,2.57686,1.47644,-1.3435,-0.677393,-0.715897,-1.03463,-0.907413,0.195444,1.11291,0.0966985,-0.677393,-0.715897,-1.03463,-0.907413,0.195444,1.11291,0.0966985,0.016267,-0.548899,0.890747,0.976476,0.0258701,0.150479,0.152254,-0.780476,-0.397258,-0.803156,-0.465931,-0.356492,0.390473,-2.89512,0.109836,-5.01226,-2.89512,0.0991038,-5.01226,-0.768274,-0.825106,-0.75674,-0.627936,0.201797,0.606142,0.0883198,1
1.00921,-0.529298,-2.58248,-1.22199,2.58884,1.54871,-1.32381,1.00921,-0.529298,-2.58248,-1.22199,2.58884,1.54871,-1.32381,1.08718,-0.446834,-2.50674,-1.15832,2.58131,1.4873,-1.34356,-0.718462,-0.809696,-1.10213,-0.900234,0.514754,1.06837,-0.0378932,-0.718462,-0.809696,-1.10213,-0.900234,0.514754,1.06837,-0.0378932,0.00749382,-0.553662,0.882481,0.977485,0.0302284,0.147864,0.147464,-0.890372,-0.428898,-0.847204,-0.495686,-0.355479,0.340085,-2.97544,0.101325,-5.03875,-2.97544,0.0953844,-5.03875,-0.779757,-0.824644,-0.757377,-0.636682,0.075318,0.614064,0.197492,1
