Afshin1997/kuka_rl_ros2/src/catch_and_throw/output_files/tm/nn_ema5.00_jvws3_realball_D22H17M00S49/recorded_data.csv
pure_target_joint_0,pure_target_joint_1,pure_target_joint_2,pure_target_joint_3,pure_target_joint_4,pure_target_joint_5,pure_target_joint_6,target_joint_0,target_joint_1,target_joint_2,target_joint_3,target_joint_4,target_joint_5,target_joint_6,pos_joint_0,pos_joint_1,pos_joint_2,pos_joint_3,pos_joint_4,pos_joint_5,pos_joint_6,vel_joint_0,vel_joint_1,vel_joint_2,vel_joint_3,vel_joint_4,vel_joint_5,vel_joint_6,vel_smooth_joint_0,vel_smooth_joint_1,vel_smooth_joint_2,vel_smooth_joint_3,vel_smooth_joint_4,vel_smooth_joint_5,vel_smooth_joint_6,ee_pos_x,ee_pos_y,ee_pos_z,ee_or_w,ee_or_x,ee_or_y,ee_or_z,ee_vel_x,ee_vel_y,ee_vel_z,ball_pos_x,ball_pos_y,ball_pos_z,ball_raw_vx,ball_raw_vy,ball_raw_vz,ball_ema_vx,ball_ema_vy,ball_ema_vz,action_0,action_1,action_2,action_3,action_4,action_5,action_6,command_published
1.73899,-1.03159,-1.84387,-1.10188,1.97698,1.17804,-0.857444,1.76993,-1.05641,-1.82234,-1.11322,1.94717,1.13216,-0.901614,1.78025,-1.06468,-1.81517,-1.117,1.93724,1.11687,-0.916337,0,0,0,0,0,0,0,0,0,0,0,0,0,0,0.531056,-0.454454,0.694265,0.574566,0.175193,0.15261,0.784788,0,0,0,2.99211,-0.47565,0.120223,-3.61945,0.0844207,5.32961,-3.79217,0.0101095,4.83162,-0.412533,0.330948,-0.287025,0.151178,0.397453,0.611799,0.58893,1
1.73848,-1.0199,-1.8376,-1.11818,1.98308,1.17279,-0.859741,1.74918,-1.03694,-1.83513,-1.10974,1.96857,1.16144,-0.872741,1.78025,-1.06468,-1.81517,-1.117,1.93724,1.11687,-0.916337,0,0,0,0,0,0,0,0,0,0,0,0,0,0,0.531056,-0.454454,0.694265,0.574566,0.175193,0.15261,0.784788,0,0,0,2.95623,-0.474255,0.176193,-3.6729,0.142872,5.73027,-3.73963,0.0530571,5.19333,-0.417674,0.44776,-0.22432,-0.0117667,0.458371,0.559268,0.565964,1
1.72657,-1.00753,-1.79355,-1.08444,1.98315,1.16769,-0.852857,1.73563,-1.01973,-1.82815,-1.10567,1.98157,1.17283,-0.857445,1.77866,-1.06341,-1.81627,-1.11642,1.93876,1.11921,-0.914077,-0.316663,0.254041,-0.220321,0.116045,0.30509,0.469623,0.452069,-0.105554,0.0846804,-0.0734405,0.0386817,0.101697,0.156541,0.15069,0.529825,-0.455357,0.694913,0.574755,0.174417,0.151874,0.784965,-0.229375,-0.177823,0.120949,2.92115,-0.47262,0.233103,-3.55382,0.165613,5.7641,-3.65174,0.101735,5.45805,-0.52089,0.558811,0.227217,0.319837,0.443831,0.484732,0.612202,1
1.70261,-0.997328,-1.8264,-1.05889,1.98915,1.17078,-0.84649,1.72356,-1.00807,-1.81277,-1.08649,1.98463,1.16974,-0.852986,1.773,-1.05844,-1.81995,-1.11498,1.94443,1.12738,-0.906111,-0.864137,0.779736,-0.550355,0.190156,0.875503,1.23537,1.21037,-0.3936,0.344592,-0.256892,0.102067,0.393531,0.568329,0.554147,0.528781,-0.456118,0.695462,0.574915,0.173757,0.151254,0.785114,-0.194535,-0.150024,0.10243,2.88616,-0.471299,0.290236,-3.43706,0.129703,5.61222,-3.57196,0.134664,5.62355,-0.703955,0.611084,-0.064496,0.560939,0.447201,0.434059,0.596217,1
1.69911,-0.979835,-1.77678,-1.07357,2.00218,1.17525,-0.833068,1.70772,-0.995505,-1.80578,-1.06894,1.99091,1.17112,-0.844726,1.76417,-1.0497,-1.82318,-1.11287,1.95327,1.13878,-0.894304,-1.0351,1.08704,-0.180265,0.261131,1.02646,1.23495,1.3369,-0.738633,0.706941,-0.316981,0.18911,0.735686,0.979978,0.999781,0.518619,-0.461648,0.702602,0.57582,0.166605,0.145502,0.787085,-0.75169,-0.349675,0.682274,2.85238,-0.469775,0.348171,-3.36954,0.152079,5.77907,-3.49539,0.147067,5.69938,-0.650565,0.698654,0.464071,0.393006,0.489089,0.364644,0.612362,1
1.69197,-0.966946,-1.77413,-1.07426,2.01004,1.181,-0.821963,1.6982,-0.980986,-1.78852,-1.07007,2.00089,1.17557,-0.833647,1.75423,-1.03942,-1.82223,-1.10788,1.96176,1.14796,-0.883171,-1.11236,1.13684,0.343039,0.776135,0.829452,0.789953,1.09485,-1.00386,1.00121,-0.129194,0.409141,0.910473,1.08675,1.21404,0.510535,-0.465254,0.710731,0.577675,0.16006,0.141083,0.787889,-0.854409,-0.423147,0.988368,2.81882,-0.467857,0.404676,-3.46085,0.197742,5.8269,-3.43604,0.156403,5.72033,-0.622599,0.724694,0.481027,0.336195,0.482756,0.330428,0.61208,1
1.67977,-0.954951,-1.77191,-1.05762,2.01923,1.19072,-0.81316,1.6907,-0.967169,-1.77424,-1.06993,2.01037,1.18199,-0.822538,1.7431,-1.0286,-1.81848,-1.09912,1.96921,1.15434,-0.873346,-1.28317,1.20045,0.460465,1.09467,0.787064,0.608633,1.0381,-1.14354,1.14144,0.207746,0.710645,0.880993,0.877844,1.15662,0.501268,-0.469781,0.720874,0.581482,0.152719,0.136486,0.787355,-0.992523,-0.542271,1.12924,2.78471,-0.466597,0.459688,-3.36218,0.124237,5.42297,-3.40214,0.154879,5.6761,-0.633267,0.736508,0.465691,0.415053,0.500177,0.36376,0.601867,1
1.66351,-0.943087,-1.77796,-1.04086,2.02968,1.20139,-0.809692,1.67876,-0.954983,-1.77398,-1.05759,2.01954,1.19096,-0.814494,1.73161,-1.01699,-1.81223,-1.09074,1.97689,1.15978,-0.863533,-1.21189,1.30593,0.859902,0.749762,0.870356,0.572552,1.08399,-1.20247,1.21441,0.554469,0.873522,0.828957,0.657046,1.07231,0.491658,-0.473329,0.732128,0.584815,0.144732,0.131692,0.787211,-0.92994,-0.254723,1.22906,2.75084,-0.465394,0.513648,-3.20136,0.113713,5.10091,-3.38294,0.149886,5.58342,-0.680987,0.739042,0.342716,0.498824,0.527894,0.416051,0.538404,1
1.65162,-0.930383,-1.77352,-1.03242,2.03862,1.20869,-0.803037,1.66461,-0.942877,-1.77534,-1.04294,2.0293,1.20055,-0.808895,1.72099,-1.00466,-1.80332,-1.08486,1.98515,1.16524,-0.853356,-1.09846,1.35995,1.05476,0.541613,0.914796,0.60746,1.11778,-1.19784,1.28878,0.791708,0.795348,0.857405,0.596215,1.07996,0.482601,-0.474541,0.743974,0.586168,0.136046,0.126785,0.788558,-0.860299,-0.0456439,1.26229,2.71728,-0.463807,0.566452,-3.43819,0.16258,5.40877,-3.38171,0.143992,5.45536,-0.69365,0.7428,0.297981,0.524373,0.534733,0.434502,0.503189,1
1.64746,-0.923365,-1.76636,-1.0332,2.04127,1.20627,-0.796148,1.65356,-0.931804,-1.77284,-1.03473,2.03705,1.20626,-0.802978,1.71634,-0.998907,-1.79885,-1.08257,1.98902,1.16782,-0.848625,-0.929872,1.15123,0.892874,0.458487,0.774395,0.514229,0.946224,-1.08008,1.27237,0.935844,0.583287,0.853182,0.564747,1.04933,0.478569,-0.474638,0.749449,0.58641,0.131923,0.124565,0.789432,-0.936004,-0.170613,1.21057,2.68366,-0.462297,0.61887,-3.43268,0.154211,5.35265,-3.3774,0.139112,5.35152,-0.688783,0.755428,0.324894,0.493661,0.522489,0.384507,0.524766,1
1.63041,-0.903766,-1.7556,-1.02363,2.05326,1.21235,-0.778636,1.64424,-0.92022,-1.76546,-1.03061,2.04361,1.2084,-0.793492,1.69938,-0.979766,-1.78927,-1.07049,2.00253,1.17839,-0.834336,-1.26129,1.33802,0.505513,0.999299,0.97112,0.803576,0.922756,-1.09654,1.28307,0.817714,0.666466,0.886771,0.641755,0.995587,0.46345,-0.477639,0.766971,0.590629,0.117914,0.117606,0.789571,-1.04289,-0.311459,1.17543,2.64964,-0.460906,0.670012,-3.32552,0.135887,4.99911,-3.37318,0.144783,5.25869,-0.689685,0.760003,0.336749,0.468646,0.507344,0.339615,0.556998,1
1.61843,-0.891803,-1.75534,-1.01228,2.0597,1.22257,-0.769036,1.63168,-0.905675,-1.75822,-1.02318,2.05187,1.21339,-0.780614,1.68783,-0.967609,-1.78494,-1.06142,2.01131,1.18555,-0.826216,-1.24303,1.29869,0.438872,0.968201,0.933677,0.75119,0.842848,-1.14473,1.26265,0.61242,0.808662,0.893064,0.689665,0.903943,0.453115,-0.480262,0.777787,0.594603,0.108925,0.113509,0.788479,-1.02384,-0.285173,1.11558,2.61637,-0.45985,0.720543,-3.34606,0.106257,5.08181,-3.36584,0.139885,5.17349,-0.693989,0.758062,0.295998,0.491398,0.483919,0.370204,0.571799,1
1.60585,-0.880019,-1.75808,-1.00019,2.06734,1.23092,-0.762447,1.61828,-0.891848,-1.75609,-1.01209,2.06,1.22211,-0.769789,1.67668,-0.955681,-1.78038,-1.05322,2.01961,1.19175,-0.818172,-1.1767,1.28624,0.541017,0.820048,0.870342,0.603785,0.895183,-1.22701,1.30765,0.495134,0.929183,0.925047,0.719517,0.886929,0.443279,-0.482141,0.788187,0.597966,0.100407,0.109915,0.787574,-0.950372,-0.16393,1.0896,2.58194,-0.458555,0.769586,-3.43579,0.12917,4.89353,-3.37975,0.129496,5.0794,-0.708269,0.756622,0.223001,0.530332,0.477335,0.391753,0.557252,1
1.59403,-0.867404,-1.75279,-0.992919,2.07796,1.23424,-0.754096,1.60604,-0.879811,-1.75607,-1.00139,2.06809,1.22967,-0.762006,1.66556,-0.943396,-1.77504,-1.04567,2.02768,1.19723,-0.809199,-1.22883,1.3682,0.609819,0.815697,0.877461,0.585878,1.03683,-1.21618,1.31771,0.529903,0.867982,0.893827,0.646951,0.924953,0.433602,-0.48318,0.798724,0.600479,0.0919424,0.106649,0.787145,-0.984136,-0.104651,1.14326,2.54834,-0.456406,0.817465,-3.34912,0.214304,4.77301,-3.38347,0.14133,4.96763,-0.71528,0.759922,0.222474,0.527541,0.502769,0.370086,0.551037,1
1.58168,-0.854161,-1.74636,-0.986506,2.0866,1.23356,-0.743695,1.5939,-0.867247,-1.7525,-0.993133,2.07747,1.23324,-0.753583,1.6539,-0.930581,-1.76994,-1.0376,2.03579,1.20315,-0.799434,-1.29185,1.40489,0.502546,0.924962,0.878273,0.687487,1.07528,-1.23246,1.35311,0.551127,0.853569,0.875359,0.625716,1.00243,0.423427,-0.484036,0.809514,0.603001,0.0830267,0.103624,0.786612,-1.0516,-0.126249,1.15107,2.51435,-0.455101,0.864563,-3.53962,0.135858,4.90387,-3.38622,0.150555,4.86024,-0.72218,0.764196,0.235794,0.510902,0.508161,0.304053,0.557395,1
1.56923,-0.840967,-1.74138,-0.978076,2.09428,1.23362,-0.733174,1.58165,-0.854173,-1.74672,-0.986002,2.08636,1.23374,-0.743665,1.64192,-0.917753,-1.76601,-1.02872,2.04389,1.20968,-0.789836,-1.30141,1.3762,0.360639,0.991282,0.877551,0.724728,1.00941,-1.27403,1.3831,0.491002,0.910647,0.877762,0.666031,1.04051,0.412865,-0.485073,0.820078,0.60606,0.0739047,0.100907,0.785524,-1.07244,-0.150465,1.10337,2.48152,-0.453817,0.910122,-3.20423,0.125332,4.4475,-3.37287,0.155203,4.74136,-0.726881,0.767865,0.246294,0.506484,0.503869,0.239378,0.566617,1
1.55712,-0.827991,-1.73862,-0.968768,2.10109,1.23716,-0.723375,1.56932,-0.841021,-1.74194,-0.977856,2.09406,1.23449,-0.733355,1.62989,-0.905069,-1.76265,-1.01971,2.05219,1.2159,-0.780654,-1.30542,1.37192,0.367893,0.963979,0.916819,0.629112,0.981938,-1.29956,1.38434,0.410359,0.960074,0.890881,0.680442,1.02221,0.402287,-0.486042,0.830337,0.609302,0.0650354,0.0983871,0.784119,-1.06312,-0.116978,1.08669,2.44763,-0.452373,0.955261,-3.63615,0.154849,4.84202,-3.35443,0.149525,4.64008,-0.727629,0.770783,0.240272,0.509414,0.489017,0.212668,0.572792,1
1.54522,-0.815075,-1.73484,-0.960622,2.11012,1.24086,-0.7138,1.55717,-0.828006,-1.73837,-0.969058,2.10165,1.2372,-0.723431,1.6178,-0.892341,-1.75888,-1.01108,2.06072,1.22089,-0.771458,-1.31128,1.38445,0.441063,0.909698,0.930043,0.466224,1.00813,-1.30604,1.37752,0.389865,0.954986,0.908137,0.606688,0.999827,0.391896,-0.486583,0.840512,0.612196,0.0566495,0.0959936,0.78281,-1.04106,-0.0581913,1.08838,2.41489,-0.450321,0.999727,-3.18538,0.199766,4.32735,-3.33617,0.148973,4.55223,-0.725874,0.772655,0.240429,0.504594,0.493989,0.199706,0.576572,1
1.53242,-0.802106,-1.73406,-0.951702,2.12198,1.24569,-0.705523,1.54499,-0.815062,-1.73559,-0.960428,2.11083,1.24114,-0.714125,1.60566,-0.879502,-1.7547,-1.00272,2.06917,1.22465,-0.761997,-1.31839,1.39582,0.463035,0.901923,0.902908,0.357003,1.03893,-1.3117,1.38406,0.423997,0.9252,0.91659,0.484113,1.00967,0.381691,-0.486668,0.850664,0.614721,0.0487009,0.0938531,0.781625,-0.88151,-0.0348922,0.917741,2.38159,-0.448797,1.043,-3.06731,0.140295,3.98526,-3.32148,0.161034,4.46482,-0.732435,0.773965,0.20643,0.510195,0.528063,0.21037,0.564731,1
1.52051,-0.788839,-1.72479,-0.947397,2.12974,1.23706,-0.694976,1.53264,-0.802031,-1.73194,-0.952855,2.12095,1.24232,-0.704956,1.5935,-0.866596,-1.75054,-0.994322,2.07739,1.22786,-0.752354,-1.3175,1.39978,0.441436,0.916397,0.879776,0.339067,1.04912,-1.31573,1.39335,0.448511,0.909339,0.904242,0.387432,1.03206,0.371565,-0.4864,0.860741,0.617095,0.0409231,0.0920362,0.780415,-1.02939,0.0151685,1.07655,2.34845,-0.447273,1.08445,-3.35949,0.154509,4.20266,-3.32176,0.166631,4.36397,-0.729827,0.777573,0.257479,0.469255,0.523465,0.0920371,0.573776,1
1.50904,-0.775488,-1.71843,-0.94079,2.13714,1.23709,-0.684259,1.52062,-0.788818,-1.72552,-0.946821,2.12965,1.23922,-0.694934,1.58133,-0.85367,-1.74666,-0.985836,2.08568,1.23111,-0.742727,-1.318,1.40043,0.401517,0.921611,0.9123,0.363938,1.03747,-1.31797,1.39868,0.435329,0.91331,0.898328,0.353336,1.04184,0.36144,-0.485855,0.870673,0.619424,0.0331227,0.0904168,0.779129,-1.0323,0.0403518,1.0591,2.31404,-0.446133,1.12479,-3.40175,0.112722,3.98705,-3.33612,0.155279,4.23773,-0.722892,0.781816,0.282315,0.450456,0.514636,0.0597731,0.58468,1
1.49936,-0.762532,-1.71049,-0.934654,2.14587,1.25145,-0.673573,1.50949,-0.775587,-1.71803,-0.940908,2.13747,1.24067,-0.684267,1.56913,-0.840725,-1.74296,-0.977471,2.09436,1.23414,-0.733211,-1.32365,1.40354,0.399875,0.892879,0.9646,0.296999,1.02491,-1.31972,1.40125,0.414276,0.910296,0.918892,0.333335,1.03716,0.351374,-0.485043,0.880441,0.621643,0.0254725,0.0888506,0.777828,-1.02062,0.072258,1.04367,2.2825,-0.452563,1.14564,-3.17977,-0.648193,2.10236,-3.32342,-0.0182039,3.73613,-0.697742,0.781936,0.324724,0.428173,0.515043,0.173094,0.596388,1
1.48644,-0.749154,-1.70518,-0.928632,2.15733,1.24168,-0.663822,1.49855,-0.762426,-1.71115,-0.934682,2.14655,1.24541,-0.673806,1.55694,-0.827728,-1.73885,-0.969567,2.10323,1.23598,-0.723663,-1.31752,1.41139,0.483686,0.825049,0.958145,0.117617,1.0421,-1.31973,1.40512,0.42836,0.879846,0.945015,0.259518,1.03483,0.341607,-0.4838,0.890112,0.623488,0.0183395,0.0873868,0.776718,-0.978301,0.134404,1.03992,2.24825,-0.442546,1.20456,-3.41729,0.999654,5.88024,-3.32621,0.0721258,3.84312,-0.705087,0.785741,0.336723,0.409353,0.540958,0.0569832,0.598412,1
1.47422,-0.735754,-1.69715,-0.925966,2.16756,1.22866,-0.654162,1.48661,-0.749148,-1.7045,-0.929471,2.15702,1.24087,-0.663845,1.54494,-0.814667,-1.73392,-0.962211,2.11192,1.23712,-0.713882,-1.28589,1.41756,0.576323,0.772749,0.926719,0.128697,1.07423,-1.30902,1.41083,0.486628,0.830225,0.949822,0.181104,1.04708,0.332208,-0.481869,0.899761,0.624717,0.0113802,0.0861073,0.776006,-0.943868,0.217565,1.04076,2.21629,-0.440716,1.24287,-3.32865,0.190642,3.98978,-3.30103,0.167023,3.96616,-0.707154,0.789131,0.367741,0.36245,0.556334,-0.0846173,0.597195,1
1.4617,-0.722112,-1.69079,-0.922621,2.17541,1.21344,-0.644128,1.47415,-0.735694,-1.69757,-0.925796,2.16696,1.22811,-0.654069,1.53321,-0.801569,-1.72836,-0.955217,2.12056,1.23886,-0.703881,-1.25727,1.41981,0.624421,0.744846,0.942788,0.237886,1.09089,-1.28689,1.41626,0.561477,0.780881,0.942551,0.1614,1.06907,0.323008,-0.479218,0.909372,0.62535,0.00397936,0.0849327,0.775699,-0.927861,0.28392,1.03451,2.18324,-0.439382,1.27998,-3.24857,0.131056,3.64701,-3.27807,0.253491,4.07623,-0.715067,0.794566,0.375663,0.325956,0.548557,-0.254125,0.597529,1
1.44855,-0.708476,-1.68763,-0.913793,2.1835,1.20478,-0.634786,1.46154,-0.722113,-1.69159,-0.92125,2.17547,1.21508,-0.644301,1.52155,-0.788435,-1.72246,-0.948596,2.12953,1.24002,-0.693826,-1.26734,1.42503,0.651535,0.693721,0.997017,0.0307959,1.08753,-1.27017,1.4208,0.617426,0.737105,0.955508,0.13246,1.08422,0.318823,-0.477827,0.913747,0.625512,0.00045698,0.0844225,0.775634,-0.78215,0.252729,0.870597,2.14992,-0.436734,1.31492,-3.45722,0.274852,3.62573,-3.30165,0.348228,4.13979,-0.730061,0.799591,0.348254,0.348033,0.539634,-0.352381,0.590404,1
1.43843,-0.694979,-1.68001,-0.911067,2.19166,1.20645,-0.624006,1.44931,-0.708511,-1.68652,-0.915318,2.18352,1.20736,-0.634427,1.50973,-0.775233,-1.7163,-0.94261,2.13885,1.2383,-0.683827,-1.29088,1.4342,0.679667,0.609895,1.01971,-0.36957,1.07942,-1.27183,1.42635,0.651874,0.682821,0.986505,-0.0336293,1.08594,0.305696,-0.473004,0.928166,0.625591,-0.00878877,0.0826722,0.775708,-0.829837,0.325506,0.995719,2.11705,-0.435032,1.3499,-3.39628,0.17577,3.61314,-3.28789,0.190102,3.62718,-0.71305,0.802534,0.362925,0.315436,0.52804,-0.318467,0.598206,1
1.42548,-0.681646,-1.67428,-0.900636,2.20445,1.19299,-0.6154,1.43772,-0.69502,-1.68048,-0.909141,2.19282,1.20267,-0.62455,1.49771,-0.76194,-1.71008,-0.937146,2.14813,1.23341,-0.673892,-1.3119,1.44462,0.670436,0.576592,0.991835,-0.664866,1.07334,-1.29004,1.43462,0.667212,0.626736,1.00285,-0.334547,1.08009,0.297934,-0.469797,0.937279,0.625522,-0.0127306,0.0818272,0.775799,-0.786132,0.336086,0.977959,2.08414,-0.433556,1.38364,-3.21201,0.144061,3.29352,-3.30503,0.186691,3.51451,-0.72233,0.802934,0.35796,0.365101,0.563284,-0.404176,0.58492,1
1.41256,-0.668457,-1.66857,-0.893149,2.21665,1.17883,-0.606322,1.42549,-0.681682,-1.67428,-0.901372,2.2043,1.19282,-0.615282,1.48558,-0.748562,-1.70406,-0.93173,2.15711,1.22703,-0.663988,-1.31571,1.45271,0.636146,0.595259,0.957673,-0.713343,1.07222,-1.30617,1.44385,0.662083,0.593915,0.989739,-0.582593,1.07499,0.290494,-0.466472,0.946254,0.625524,-0.015872,0.0812986,0.775795,-0.77312,0.355248,0.966508,2.0516,-0.431756,1.417,-3.11885,0.172528,3.19771,-3.29058,0.184292,3.42754,-0.7302,0.801046,0.354897,0.385802,0.595341,-0.482023,0.57666,1
1.40062,-0.654912,-1.66324,-0.887314,2.22585,1.16994,-0.596089,1.4128,-0.668368,-1.66866,-0.893562,2.2159,1.18015,-0.606033,1.47352,-0.735138,-1.69816,-0.926129,2.16603,1.22073,-0.654092,-1.29846,1.45511,0.641091,0.616195,0.97174,-0.655252,1.07154,-1.30869,1.45082,0.649224,0.596015,0.973749,-0.67782,1.07237,0.283147,-0.462877,0.955156,0.625487,-0.0190866,0.0809145,0.775792,-0.765946,0.390496,0.962058,2.01787,-0.429923,1.44833,-3.39653,0.184616,3.15548,-3.29547,0.168971,3.33931,-0.729003,0.802256,0.349186,0.388154,0.598276,-0.507936,0.58003,1
1.38846,-0.641335,-1.65867,-0.881354,2.23507,1.162,-0.585362,1.40056,-0.654904,-1.66343,-0.887283,2.22586,1.17018,-0.595965,1.46149,-0.721718,-1.6922,-0.920121,2.17538,1.2141,-0.644295,-1.30601,1.45214,0.649712,0.680037,1.04897,-0.77201,1.05233,-1.30672,1.45332,0.642316,0.630497,0.992796,-0.713535,1.06536,0.275787,-0.459145,0.964074,0.62543,-0.0222792,0.0803393,0.775814,-0.773053,0.390954,0.969055,1.98472,-0.428378,1.47856,-3.21682,0.149872,2.93319,-3.30912,0.169403,3.22024,-0.730355,0.803834,0.335233,0.387669,0.596847,-0.520986,0.589329,1
1.37611,-0.627984,-1.6543,-0.873433,2.24538,1.15293,-0.575446,1.38841,-0.641391,-1.65872,-0.880864,2.23534,1.16172,-0.585565,1.44934,-0.708325,-1.68626,-0.913607,2.18536,1.20612,-0.634651,-1.32517,1.44929,0.638111,0.727058,1.10769,-0.942151,1.038,-1.30988,1.45218,0.642972,0.67443,1.0428,-0.789804,1.05396,0.268416,-0.455496,0.973019,0.625493,-0.0249527,0.0794635,0.775771,-0.773088,0.383805,0.967547,1.9525,-0.427283,1.51003,-3.26285,0.110935,3.18659,-3.30163,0.159244,3.14353,-0.732347,0.803411,0.319566,0.401737,0.600138,-0.531949,0.592045,1
1.36387,-0.61483,-1.6496,-0.864233,2.25642,1.14362,-0.565888,1.37613,-0.628033,-1.65422,-0.873114,2.24556,1.15287,-0.575536,1.4371,-0.694932,-1.68047,-0.906961,2.19555,1.19723,-0.624993,-1.32535,1.45185,0.617901,0.713758,1.09933,-0.981173,1.05287,-1.31884,1.45109,0.635241,0.706951,1.08533,-0.898445,1.04773,0.261189,-0.451785,0.981865,0.625555,-0.0271704,0.0785628,0.775739,-0.749994,0.407259,0.948844,1.91833,-0.426117,1.53785,-3.42704,0.116902,2.79017,-3.31924,0.13918,3.03408,-0.732372,0.801012,0.30863,0.427278,0.608746,-0.536067,0.591045,1
1.35168,-0.601597,-1.64393,-0.856902,2.26714,1.13418,-0.556178,1.36388,-0.61481,-1.64936,-0.8647,2.25634,1.14359,-0.56585,1.42488,-0.681511,-1.67491,-0.900397,2.20559,1.18826,-0.615168,-1.32282,1.45518,0.587311,0.70851,1.07895,-0.962775,1.07374,-1.32445,1.45211,0.614441,0.716442,1.09532,-0.962033,1.05487,0.25417,-0.447838,0.990534,0.625496,-0.0292549,0.0778669,0.775781,-0.731719,0.433203,0.929835,1.8864,-0.424481,1.56503,-3.24679,0.166416,2.76398,-3.2934,0.131454,2.9269,-0.732,0.799136,0.309881,0.434958,0.61545,-0.54086,0.589898,1
1.34024,-0.588294,-1.63693,-0.852188,2.27856,1.12485,-0.54566,1.35187,-0.60158,-1.6436,-0.857556,2.26731,1.13421,-0.555976,1.41266,-0.668087,-1.66963,-0.89367,2.2156,1.17938,-0.605237,-1.32476,1.45281,0.559079,0.745624,1.08685,-0.961531,1.07729,-1.32431,1.45328,0.588097,0.722631,1.08838,-0.968493,1.06797,0.247237,-0.443708,0.999075,0.625406,-0.0313503,0.0772962,0.775828,-0.731106,0.446151,0.920726,1.8534,-0.425769,1.57408,-3.19603,-0.124724,0.875861,-3.28745,0.080213,2.46029,-0.724127,0.797935,0.327006,0.414825,0.629608,-0.545266,0.595764,1
1.33013,-0.575204,-1.6293,-0.846033,2.28953,1.11748,-0.534959,1.34057,-0.588347,-1.63677,-0.851828,2.27844,1.12534,-0.545614,1.40042,-0.654703,-1.66452,-0.886552,2.22574,1.17044,-0.59533,-1.32547,1.44696,0.549848,0.792571,1.10972,-0.973981,1.06928,-1.32435,1.45165,0.565413,0.748902,1.09184,-0.966096,1.07344,0.240287,-0.43946,1.00756,0.625353,-0.0334953,0.0766876,0.775842,-0.734126,0.459013,0.916874,1.82205,-0.428448,1.60209,-3.21143,-0.274517,2.87026,-3.25814,-0.0198239,2.20336,-0.702954,0.79499,0.352175,0.405186,0.637841,-0.529629,0.603718,1
1.3159,-0.561539,-1.62668,-0.834128,2.29975,1.10675,-0.525941,1.3291,-0.57506,-1.63055,-0.844596,2.28934,1.11664,-0.53538,1.38822,-0.641364,-1.65934,-0.879261,2.2361,1.16139,-0.585458,-1.31853,1.44302,0.570868,0.787254,1.13211,-0.985889,1.06934,-1.32292,1.4476,0.559931,0.77515,1.10956,-0.9738,1.07197,0.237111,-0.437456,1.01142,0.625321,-0.0344922,0.0763982,0.775853,-0.615434,0.39893,0.771233,1.7895,-0.419538,1.6427,-3.20362,0.876906,3.99618,-3.21999,0.091911,2.46744,-0.723227,0.798243,0.326603,0.451324,0.636504,-0.546418,0.595163,1
1.30244,-0.548085,-1.62534,-0.825738,2.30956,1.09679,-0.516473,1.31609,-0.561592,-1.627,-0.835007,2.29965,1.10694,-0.525829,1.37618,-0.628055,-1.65383,-0.872229,2.24666,1.15232,-0.57551,-1.29152,1.44024,0.618569,0.739974,1.15294,-0.978667,1.08436,-1.31184,1.44341,0.579762,0.773266,1.13159,-0.979512,1.07433,0.226823,-0.430226,1.02424,0.624622,-0.0378284,0.0752796,0.77637,-0.59898,0.422912,0.761549,1.75576,-0.417602,1.66685,-3.63414,0.208522,2.60155,-3.25169,0.199879,2.7225,-0.737374,0.799699,0.284885,0.464906,0.628998,-0.555315,0.590371,1
1.28989,-0.534617,-1.62364,-0.819801,2.31848,1.08742,-0.50644,1.30267,-0.548082,-1.62525,-0.826351,2.30934,1.09694,-0.516332,1.36433,-0.614759,-1.64804,-0.865335,2.25734,1.14334,-0.565464,-1.27773,1.43992,0.634218,0.752258,1.16066,-0.96841,1.09121,-1.29593,1.44106,0.607885,0.759829,1.14857,-0.977655,1.08163,0.220489,-0.425091,1.0324,0.623688,-0.0400644,0.0745606,0.777077,-0.655829,0.563006,0.879987,1.72289,-0.416059,1.6895,-3.04879,0.143126,2.10052,-3.27302,0.302655,2.95595,-0.744408,0.801426,0.243972,0.455344,0.611367,-0.559146,0.590247,1
1.27756,-0.521463,-1.61971,-0.808988,2.33069,1.07894,-0.497305,1.28994,-0.534695,-1.62308,-0.818582,2.3193,1.08764,-0.506664,1.35234,-0.601438,-1.64254,-0.857984,2.26799,1.13428,-0.55547,-1.31491,1.44527,0.563577,0.833417,1.1481,-0.991665,1.07513,-1.29472,1.44181,0.605455,0.775216,1.1539,-0.979581,1.08356,0.217638,-0.422649,1.03611,0.623199,-0.0411136,0.0742474,0.777445,-0.548258,0.4858,0.739436,1.69074,-0.414346,1.71061,-3.37815,0.179979,2.21866,-3.29244,0.316837,2.63846,-0.747865,0.799757,0.228288,0.48996,0.626951,-0.553427,0.581645,1
1.26615,-0.508286,-1.61672,-0.804335,2.34027,1.07001,-0.485353,1.27779,-0.521457,-1.61994,-0.810528,2.33003,1.07883,-0.496601,1.34001,-0.588069,-1.63786,-0.850142,2.27845,1.12499,-0.54561,-1.35432,1.45039,0.457528,0.86292,1.12012,-1.01767,1.06195,-1.31566,1.44519,0.551774,0.816198,1.14296,-0.99258,1.07609,0.207647,-0.414663,1.04849,0.622616,-0.044431,0.073536,0.777797,-0.683058,0.549103,0.855196,1.65817,-0.412616,1.73123,-3.26309,0.173297,2.06546,-3.27699,0.171001,2.20835,-0.738594,0.797831,0.211465,0.458073,0.61812,-0.549849,0.602566,1
1.2542,-0.495025,-1.61216,-0.795852,2.35026,1.06198,-0.475366,1.26601,-0.508265,-1.61632,-0.803377,2.34037,1.07023,-0.485844,1.32747,-0.574679,-1.63395,-0.842205,2.28874,1.11561,-0.535826,-1.36116,1.45032,0.394381,0.85689,1.10859,-1.01459,1.05778,-1.34347,1.44866,0.471829,0.851076,1.1256,-1.00797,1.06495,0.201295,-0.409468,1.05625,0.622607,-0.0462863,0.073394,0.777709,-0.663974,0.557924,0.830234,1.62582,-0.411676,1.75131,-3.08357,0.0896664,1.91433,-3.2461,0.152962,2.10661,-0.732697,0.796533,0.217967,0.463534,0.615224,-0.536356,0.6046,1
1.2418,-0.481552,-1.60998,-0.7895,2.36062,1.05283,-0.465153,1.25409,-0.494972,-1.61275,-0.796385,2.35035,1.0617,-0.47531,1.31497,-0.561312,-1.63039,-0.834273,2.29905,1.10633,-0.526015,-1.34857,1.44568,0.378968,0.861283,1.1238,-0.997692,1.06693,-1.35469,1.4488,0.410293,0.860364,1.11751,-1.00998,1.06222,0.195129,-0.404131,1.06383,0.622564,-0.0480858,0.0733574,0.777638,-0.644881,0.577891,0.814535,1.59328,-0.409534,1.76978,-3.41843,0.225013,1.94016,-3.24134,0.15721,2.01262,-0.73168,0.797604,0.204117,0.44773,0.615687,-0.535018,0.608613,1
1.22956,-0.468301,-1.60567,-0.782174,2.37145,1.04369,-0.455177,1.24184,-0.481608,-1.60945,-0.789256,2.36074,1.05283,-0.465212,1.30262,-0.547989,-1.62687,-0.826444,2.30942,1.09722,-0.516025,-1.32781,1.44092,0.382642,0.836691,1.12272,-0.978719,1.09476,-1.34585,1.44564,0.385331,0.851621,1.11837,-0.997001,1.07316,0.189218,-0.398564,1.07123,0.622259,-0.049902,0.0733845,0.777765,-0.609825,0.605561,0.794022,1.56113,-0.407401,1.78767,-3.14104,0.208287,1.74773,-3.24107,0.169715,1.92662,-0.730608,0.796885,0.212033,0.442698,0.620313,-0.53525,0.608485,1
1.21748,-0.454966,-1.60277,-0.775111,2.38204,1.03468,-0.444973,1.2296,-0.46828,-1.60602,-0.78224,2.37139,1.04372,-0.45512,1.29041,-0.534688,-1.62333,-0.818832,2.31973,1.08826,-0.505853,-1.31763,1.44061,0.383844,0.814227,1.11091,-0.963331,1.10789,-1.33134,1.4424,0.381818,0.8374,1.11914,-0.979914,1.08986,0.183623,-0.392739,1.07845,0.621676,-0.051698,0.073546,0.778098,-0.577303,0.632356,0.77491,1.52861,-0.405728,1.80456,-3.31835,0.170774,1.72378,-3.23811,0.180507,1.83025,-0.729295,0.797221,0.205629,0.437203,0.623134,-0.53573,0.608795,1
1.20538,-0.441701,-1.59966,-0.767812,2.39244,1.02593,-0.434867,1.21747,-0.454983,-1.60272,-0.775052,2.38199,1.03475,-0.444998,1.27823,-0.521378,-1.61983,-0.811374,2.33,1.07937,-0.495645,-1.32019,1.4426,0.376557,0.80229,1.11487,-0.962507,1.10387,-1.32188,1.44138,0.381014,0.817736,1.11617,-0.968186,1.10217,0.178297,-0.386694,1.08551,0.620944,-0.0534421,0.073833,0.778538,-0.552966,0.652278,0.758274,1.49621,-0.404366,1.81996,-3.1699,0.133276,1.50632,-3.23887,0.184251,1.72075,-0.728555,0.79677,0.201707,0.435623,0.624411,-0.534399,0.607772,1
1.19348,-0.428468,-1.59751,-0.76028,2.40267,1.01809,-0.424688,1.20543,-0.441709,-1.5999,-0.767754,2.3924,1.02616,-0.434849,1.26604,-0.508058,-1.61636,-0.804027,2.34035,1.07045,-0.485469,-1.32175,1.44288,0.374933,0.790303,1.12592,-0.969339,1.10083,-1.31986,1.44203,0.378445,0.802273,1.11724,-0.965059,1.1042,0.173207,-0.380474,1.09241,0.620109,-0.0551022,0.0741895,0.779053,-0.527793,0.670509,0.741945,1.46338,-0.402548,1.83425,-3.30228,0.18288,1.43764,-3.24702,0.17007,1.61223,-0.725622,0.795908,0.188448,0.437472,0.623201,-0.523617,0.607805,1
1.18141,-0.415311,-1.59605,-0.752673,2.4131,1.01015,-0.414629,1.19343,-0.428487,-1.59768,-0.760261,2.40272,1.01806,-0.424718,1.25385,-0.494741,-1.61292,-0.796748,2.35078,1.06149,-0.475312,-1.31933,1.44213,0.370132,0.786964,1.13232,-0.970204,1.09958,-1.32042,1.44254,0.373874,0.793185,1.12437,-0.96735,1.10143,0.168348,-0.37409,1.09917,0.619163,-0.0566904,0.0746003,0.779652,-0.504283,0.687886,0.726717,1.43121,-0.400753,1.84873,-3.20743,0.178947,1.44408,-3.25045,0.164768,1.51808,-0.724412,0.794301,0.168676,0.440753,0.623204,-0.513428,0.606832,1
1.16941,-0.402246,-1.5952,-0.744815,2.42347,1.00273,-0.404653,1.18142,-0.415334,-1.59621,-0.75261,2.41308,1.01028,-0.41465,1.24169,-0.481433,-1.6096,-0.789477,2.36122,1.05259,-0.465161,-1.31522,1.44092,0.351725,0.787976,1.13084,-0.958943,1.09949,-1.31877,1.44198,0.365597,0.788414,1.1297,-0.966162,1.09997,0.163705,-0.367555,1.10578,0.61814,-0.0582436,0.0750965,0.780302,-0.482104,0.70274,0.710281,1.39839,-0.400134,1.86056,-3.38125,0.0638046,1.21869,-3.25427,0.148013,1.40774,-0.722777,0.79187,0.143959,0.446621,0.622449,-0.498629,0.605079,1
1.15712,-0.389116,-1.59563,-0.736688,2.43344,0.995402,-0.394558,1.16934,-0.40223,-1.59552,-0.744748,2.42337,1.00275,-0.404623,1.22957,-0.468143,-1.60651,-0.782169,2.37164,1.04386,-0.455013,-1.31068,1.43844,0.320037,0.794667,1.12719,-0.935629,1.09889,-1.31508,1.4405,0.347298,0.789869,1.13012,-0.954925,1.09932,0.159257,-0.360891,1.11224,0.617091,-0.0597979,0.0757105,0.780955,-0.463158,0.714213,0.693069,1.3662,-0.398516,1.87223,-3.25884,0.163699,1.18074,-3.25027,0.141134,1.30857,-0.72449,0.790263,0.108729,0.454808,0.617944,-0.484545,0.604547,1
1.14447,-0.375938,-1.59687,-0.728258,2.44322,0.987667,-0.384367,1.15703,-0.389104,-1.59583,-0.736613,2.43339,0.9953,-0.394534,1.21748,-0.454882,-1.60378,-0.774784,2.38204,1.03535,-0.44488,-1.30789,1.43454,0.274729,0.804326,1.12586,-0.909378,1.09654,-1.31127,1.43796,0.315497,0.795657,1.12796,-0.93465,1.09831,0.154975,-0.354137,1.11852,0.616072,-0.0613686,0.0764501,0.781566,-0.447096,0.720767,0.674789,1.33459,-0.39614,1.88334,-3.0635,0.230356,1.07703,-3.22614,0.150533,1.21679,-0.730122,0.789446,0.0691356,0.465263,0.611781,-0.476833,0.605126,1
1.13172,-0.362678,-1.60088,-0.719717,2.45258,0.980242,-0.374065,1.14444,-0.375917,-1.59756,-0.72823,2.44312,0.987745,-0.384339,1.2054,-0.44166,-1.60153,-0.767292,2.39242,1.02709,-0.434771,-1.30831,1.43024,0.217829,0.81773,1.1225,-0.882684,1.09356,-1.30896,1.43441,0.270865,0.805574,1.12518,-0.90923,1.09633,0.150833,-0.347331,1.12464,0.615144,-0.062948,0.0773204,0.782085,-0.434048,0.723726,0.656396,1.30239,-0.39444,1.89338,-3.18386,0.168035,0.992591,-3.21458,0.166199,1.12071,-0.736815,0.789823,0.00644377,0.47575,0.601639,-0.468455,0.607061,1
1.11908,-0.349549,-1.607,-0.710663,2.46117,0.974617,-0.363933,1.13175,-0.362711,-1.60141,-0.719589,2.45239,0.980692,-0.374108,1.19329,-0.428468,-1.59987,-0.759652,2.40273,1.01905,-0.424676,-1.31532,1.42783,0.146513,0.835721,1.1121,-0.861315,1.09334,-1.31051,1.43087,0.213024,0.819259,1.12015,-0.884459,1.09448,0.146808,-0.340504,1.13058,0.614385,-0.0645107,0.0783475,0.782452,-0.424196,0.723596,0.638635,1.27059,-0.393492,1.9016,-3.19737,0.0953436,0.827017,-3.19407,0.173593,1.03232,-0.742084,0.789187,-0.0712325,0.489892,0.584424,-0.444285,0.60743,1
1.10646,-0.336555,-1.61537,-0.701112,2.46903,0.971159,-0.354093,1.11909,-0.349583,-1.60756,-0.710539,2.46099,0.975159,-0.364006,1.18108,-0.415285,-1.59899,-0.751835,2.41292,1.01115,-0.414567,-1.3288,1.42791,0.0519053,0.85615,1.09541,-0.849117,1.09639,-1.31748,1.42866,0.138749,0.836533,1.11001,-0.864372,1.09443,0.142881,-0.333694,1.13636,0.613893,-0.0659957,0.0795695,0.782591,-0.416513,0.718513,0.620507,1.23824,-0.39188,1.90994,-3.10845,0.154861,0.800949,-3.19909,0.159198,0.936852,-0.746221,0.787299,-0.163807,0.50723,0.561145,-0.399953,0.604743,1
1.0937,-0.323588,-1.62482,-0.690837,2.47531,0.969954,-0.344549,1.10643,-0.336562,-1.61564,-0.700931,2.46864,0.971722,-0.354167,1.16875,-0.402098,-1.59918,-0.743817,2.4229,1.00344,-0.404428,-1.34192,1.42863,-0.0808531,0.878783,1.06967,-0.824945,1.09974,-1.32868,1.42813,0.0391885,0.856884,1.09239,-0.845126,1.09649,0.13904,-0.326952,1.14195,0.613797,-0.0673576,0.081043,0.782399,-0.411149,0.707104,0.599768,1.20628,-0.390976,1.91747,-3.43091,0.0970478,0.80849,-3.20773,0.128871,0.848227,-0.750419,0.785098,-0.25645,0.529802,0.524136,-0.334818,0.598784,1
1.08021,-0.310496,-1.63568,-0.68076,2.48005,0.970218,-0.335454,1.09352,-0.323557,-1.62517,-0.690886,2.47493,0.970322,-0.344661,1.15631,-0.388918,-1.60075,-0.73556,2.43258,0.996139,-0.394282,-1.35031,1.42672,-0.246918,0.907539,1.03048,-0.760983,1.09815,-1.34034,1.42776,-0.0919553,0.880824,1.06519,-0.811682,1.09809,0.135251,-0.320312,1.14733,0.614235,-0.068662,0.0828515,0.781752,-0.411266,0.692787,0.576932,1.17348,-0.388782,1.92301,-3.24469,0.217016,0.548349,-3.2214,0.138317,0.751402,-0.761069,0.784214,-0.349208,0.547999,0.474683,-0.259209,0.588282,1
1.06651,-0.297166,-1.64676,-0.671516,2.48213,0.968346,-0.325733,1.08016,-0.310437,-1.63573,-0.680968,2.47939,0.969684,-0.335298,1.14382,-0.375768,-1.60392,-0.726992,2.44181,0.989665,-0.384189,-1.35627,1.42207,-0.42499,0.945273,0.973136,-0.650781,1.08895,-1.3495,1.42581,-0.25092,0.910532,1.02443,-0.74557,1.09561,0.131449,-0.31375,1.1525,0.615322,-0.0700863,0.0850967,0.780529,-0.418358,0.682266,0.554832,1.14161,-0.386243,1.92805,-3.17722,0.253139,0.502391,-3.22725,0.175949,0.659757,-0.77309,0.786022,-0.428305,0.554759,0.403263,-0.213189,0.584559,1
1.05325,-0.284057,-1.65767,-0.663774,2.47863,0.968334,-0.31542,1.06662,-0.297221,-1.64671,-0.671892,2.48074,0.968811,-0.325585,1.13124,-0.362658,-1.60871,-0.718062,2.45038,0.984363,-0.37422,-1.3681,1.41825,-0.597178,0.985716,0.890395,-0.509318,1.07212,-1.35822,1.42235,-0.423029,0.946176,0.96467,-0.640361,1.08641,0.127586,-0.307189,1.15746,0.617139,-0.0718096,0.0879014,0.778624,-0.428674,0.680251,0.534612,1.10943,-0.384359,1.93093,-3.17247,0.185749,0.283692,-3.22287,0.197747,0.525641,-0.779878,0.786012,-0.489558,0.542881,0.282507,-0.160297,0.587994,1
1.03965,-0.271267,-1.6683,-0.654291,2.47821,0.968424,-0.306224,1.05316,-0.284137,-1.6576,-0.663339,2.4794,0.968359,-0.315699,1.11849,-0.34956,-1.615,-0.708836,2.45802,0.980285,-0.364403,-1.39051,1.41905,-0.752077,1.01081,0.77492,-0.384511,1.0557,-1.37162,1.41979,-0.591415,0.9806,0.879484,-0.51487,1.07226,0.125826,-0.304148,1.15968,0.618123,-0.0726764,0.0893284,0.7776,-0.354306,0.583824,0.449189,1.07804,-0.382447,1.93448,-3.12013,0.190103,0.353265,-3.20525,0.21482,0.419438,-0.78847,0.782927,-0.533068,0.545449,0.201864,-0.118613,0.581792,1
1.0275,-0.258477,-1.67685,-0.645378,2.46863,0.982807,-0.29803,1.04001,-0.271267,-1.66778,-0.654434,2.47592,0.971997,-0.306475,1.10555,-0.336441,-1.62256,-0.699543,2.46429,0.977146,-0.354662,-1.41202,1.42254,-0.876024,1.00295,0.596701,-0.302328,1.05464,-1.39021,1.41995,-0.74176,0.999827,0.754005,-0.398719,1.06082,0.119989,-0.293783,1.16675,0.623091,-0.0759062,0.0957334,0.772548,-0.406108,0.695411,0.490874,1.04592,-0.380911,1.93693,-3.33934,0.159682,0.254466,-3.18681,0.195397,0.342677,-0.780442,0.77964,-0.54284,0.54165,0.0434471,0.0566076,0.566315,1
1.01506,-0.246419,-1.68678,-0.635153,2.46954,0.998022,-0.291329,1.02743,-0.25866,-1.67719,-0.64505,2.47125,0.983015,-0.298403,1.09245,-0.323315,-1.63108,-0.690392,2.46874,0.974714,-0.344902,-1.42487,1.42103,-0.961889,0.981237,0.386533,-0.230494,1.0592,-1.40913,1.42087,-0.86333,0.998334,0.586051,-0.305778,1.05651,0.116634,-0.286843,1.17105,0.627117,-0.0778377,0.101016,0.768415,-0.369607,0.710083,0.466195,1.0139,-0.37906,1.93677,-3.25834,0.188298,-0.0168228,-3.18929,0.178145,0.234284,-0.773874,0.768953,-0.557044,0.552388,0.00795465,0.233079,0.535729,1
1.00332,-0.235285,-1.69635,-0.623821,2.46526,1.01573,-0.288174,1.01524,-0.24665,-1.68669,-0.634876,2.46824,0.998644,-0.292215,1.07929,-0.310233,-1.64016,-0.681356,2.47123,0.973471,-0.335208,-1.42477,1.41335,-1.00185,0.976506,0.170074,-0.0534632,1.04218,-1.42055,1.41898,-0.946586,0.986899,0.384436,-0.195428,1.05201,0.113641,-0.279597,1.1751,0.631674,-0.0798994,0.107318,0.763601,-0.340291,0.744723,0.444409,0.981958,-0.377582,1.93614,-3.0941,0.143175,-0.0602448,-3.19079,0.169401,0.127096,-0.759747,0.749482,-0.561906,0.575344,-0.0596728,0.422551,0.470338,1
0.991192,-0.224761,-1.7051,-0.612344,2.45914,1.02399,-0.282088,1.00322,-0.235438,-1.69614,-0.623785,2.4648,1.01337,-0.287441,1.06623,-0.297252,-1.64943,-0.672284,2.47184,0.974745,-0.325824,-1.40722,1.39978,-1.00691,0.987802,-0.0214287,0.299969,0.994569,-1.41895,1.41139,-0.990214,0.981848,0.178393,0.00533743,1.03199,0.110878,-0.271792,1.17891,0.636568,-0.0828384,0.114769,0.75812,-0.322761,0.803918,0.421485,0.94999,-0.375966,1.93536,-3.17906,0.160692,-0.0783604,-3.20065,0.162895,0.00956774,-0.750334,0.724913,-0.556633,0.599397,-0.126989,0.492427,0.437353,1
0.977608,-0.212115,-1.71316,-0.60217,2.46378,1.02534,-0.268432,0.990828,-0.22423,-1.70493,-0.61267,2.46183,1.02226,-0.280196,1.05336,-0.284469,-1.65876,-0.663002,2.47121,0.979488,-0.317101,-1.38269,1.37173,-1.01303,1.02015,-0.107749,0.694804,0.902626,-1.40489,1.39495,-1.00726,0.99482,0.0136319,0.31377,0.979793,0.108152,-0.263331,1.18245,0.641617,-0.0872466,0.123277,0.75201,-0.325812,0.856615,0.398425,0.918456,-0.374018,1.93305,-3.04789,0.188366,-0.222944,-3.18842,0.168808,-0.0917339,-0.757486,0.723542,-0.543964,0.608323,-0.0743115,0.458486,0.486694,1
0.964405,-0.200417,-1.72134,-0.594138,2.48068,1.02958,-0.254183,0.977703,-0.212352,-1.71319,-0.602705,2.46685,1.02606,-0.268284,1.04071,-0.272027,-1.66813,-0.653327,2.46984,0.987178,-0.309314,-1.35959,1.32715,-1.01615,1.07151,-0.182843,0.949834,0.793342,-1.38317,1.36622,-1.01203,1.02649,-0.104007,0.648202,0.896846,0.10535,-0.254382,1.18574,0.646808,-0.0929964,0.132536,0.745268,-0.33321,0.887101,0.379074,0.886791,-0.372181,1.92905,-3.344,0.193941,-0.421936,-3.17716,0.173232,-0.185182,-0.763014,0.716096,-0.532063,0.591881,0.108403,0.42403,0.551306,1
0.950652,-0.190189,-1.73142,-0.588259,2.49774,1.03696,-0.243115,0.964267,-0.200784,-1.72181,-0.594676,2.48072,1.03036,-0.254978,1.02818,-0.259935,-1.67742,-0.643246,2.46796,0.995967,-0.302001,-1.35473,1.29504,-0.997693,1.10904,-0.222163,0.95366,0.790919,-1.36567,1.3313,-1.00896,1.0669,-0.170919,0.8661,0.828963,0.102581,-0.245208,1.18885,0.65201,-0.0992446,0.142161,0.738121,-0.321983,0.89789,0.368212,0.85449,-0.371236,1.925,-3.17784,0.09299,-0.399345,-3.18135,0.164781,-0.286002,-0.775255,0.69746,-0.539968,0.549867,0.297849,0.409911,0.588867,1
0.936484,-0.182169,-1.74692,-0.585338,2.50365,1.03865,-0.237294,0.950548,-0.190741,-1.73277,-0.588999,2.49496,1.03554,-0.244427,1.01558,-0.24799,-1.68648,-0.633049,2.46699,1.004,-0.293991,-1.37374,1.2927,-0.968579,1.10065,-0.00522236,0.800075,0.932493,-1.36268,1.30496,-0.994142,1.09373,-0.136743,0.90119,0.838918,0.0999601,-0.236065,1.19189,0.656586,-0.105156,0.151448,0.731369,-0.303495,0.891881,0.363854,0.823177,-0.369314,1.92007,-3.0673,0.188253,-0.482227,-3.17593,0.160863,-0.386226,-0.790915,0.658211,-0.604399,0.477107,0.366625,0.346432,0.56697,1
0.923691,-0.170596,-1.7589,-0.585414,2.50072,1.04119,-0.228527,0.936828,-0.18128,-1.74604,-0.586087,2.50144,1.03886,-0.236558,1.00278,-0.236112,-1.69538,-0.623215,2.46908,1.01092,-0.284661,-1.39686,1.28143,-0.958818,1.03517,0.422289,0.705425,1.0767,-1.37511,1.28972,-0.97503,1.08162,0.0649679,0.81972,0.933371,0.0974103,-0.227199,1.19485,0.659903,-0.110588,0.159667,0.725813,-0.295985,0.861127,0.347998,0.791761,-0.367835,1.91434,-3.16433,0.148927,-0.577038,-3.17006,0.152311,-0.463946,-0.790858,0.655162,-0.635211,0.378012,0.316365,0.302708,0.561341,1
0.910101,-0.155683,-1.76854,-0.594551,2.50831,1.03094,-0.215206,0.923492,-0.169761,-1.75832,-0.587679,2.50335,1.03799,-0.227389,0.989754,-0.224556,-1.70455,-0.614254,2.47457,1.01722,-0.274627,-1.42213,1.22657,-1.0236,0.916063,0.739596,0.664252,1.09547,-1.39758,1.2669,-0.983665,1.0173,0.385554,0.72325,1.03489,0.0948706,-0.218958,1.19757,0.662241,-0.115557,0.166697,0.721315,-0.28983,0.782155,0.308666,0.760796,-0.365494,1.90722,-3.10704,0.234955,-0.715239,-3.14719,0.167747,-0.543301,-0.796536,0.688729,-0.639885,0.197023,0.337442,0.137186,0.594216,1
0.897288,-0.142909,-1.77875,-0.627316,2.52549,1.01986,-0.204689,0.910295,-0.156218,-1.76868,-0.600458,2.51071,1.03073,-0.215907,0.976534,-0.213518,-1.71459,-0.606648,2.48134,1.02292,-0.264858,-1.44028,1.16935,-1.14082,0.745782,0.729105,0.578008,1.02655,-1.41976,1.22578,-1.04108,0.899007,0.63033,0.649228,1.06624,0.0926447,-0.211639,1.19988,0.664602,-0.11953,0.173138,0.716966,-0.239454,0.68309,0.255094,0.72884,-0.364203,1.8994,-3.20052,0.129278,-0.7824,-3.1368,0.178856,-0.640404,-0.792462,0.706092,-0.641606,-0.206683,0.441458,-0.0306981,0.601695,1
0.884361,-0.130746,-1.78979,-0.640378,2.54168,1.01158,-0.199143,0.89726,-0.143062,-1.77896,-0.62239,2.52524,1.02056,-0.205931,0.963231,-0.202611,-1.72539,-0.601064,2.48733,1.02731,-0.255428,-1.44148,1.19158,-1.19434,0.485499,0.580998,0.387485,1.01708,-1.43463,1.19583,-1.11959,0.715782,0.683233,0.543248,1.04637,0.0914632,-0.205182,1.20172,0.667388,-0.121669,0.179642,0.712404,-0.100067,0.614302,0.202149,0.698322,-0.361696,1.89057,-3.12103,0.256415,-0.902956,-3.12631,0.188687,-0.739367,-0.788705,0.718655,-0.643967,-0.393145,0.54349,-0.157248,0.562856,1
0.871269,-0.119732,-1.80112,-0.625282,2.55084,1.02524,-0.193653,0.88432,-0.131033,-1.78986,-0.633339,2.53992,1.01707,-0.199157,0.949941,-0.19122,-1.73631,-0.599232,2.493,1.02922,-0.245717,-1.43805,1.26964,-1.17411,-0.0444907,0.642177,0.0547543,1.08131,-1.43994,1.21019,-1.16976,0.395597,0.65076,0.340083,1.04165,0.092236,-0.199811,1.20298,0.669969,-0.120875,0.185931,0.708492,0.138618,0.489674,0.117798,0.667111,-0.359491,1.88053,-3.16694,0.223762,-1.01923,-3.11774,0.204879,-0.842695,-0.786716,0.714875,-0.648052,-0.260509,0.578331,-0.0398413,0.520643,1
0.859424,-0.107461,-1.80968,-0.591832,2.55823,1.05339,-0.186568,0.871581,-0.119418,-1.80043,-0.620694,2.5504,1.02886,-0.193254,0.936701,-0.179278,-1.74707,-0.602946,2.50025,1.02809,-0.235735,-1.43067,1.31369,-1.15674,-0.705298,0.906442,-0.273114,1.08108,-1.43673,1.2583,-1.17506,-0.0880963,0.709872,0.056375,1.05983,0.095305,-0.196268,1.20344,0.671799,-0.116448,0.191036,0.706139,0.368585,0.283306,0.00542571,0.634255,-0.35928,1.86973,-3.27877,0.0210473,-1.07785,-3.14812,0.17141,-0.93848,-0.772772,0.718173,-0.626116,0.111139,0.579744,0.253028,0.491674,1
0.845141,-0.0952981,-1.82232,-0.589046,2.56894,1.05677,-0.175092,0.858814,-0.107488,-1.8107,-0.599498,2.55906,1.0472,-0.18547,0.921853,-0.165602,-1.7592,-0.611562,2.5115,1.02496,-0.225367,-1.36143,1.25392,-1.11223,-0.789924,1.03103,-0.286504,0.950708,-1.41005,1.27908,-1.14769,-0.513237,0.859883,-0.168288,1.0377,0.100088,-0.194067,1.20325,0.673343,-0.109161,0.195035,0.704737,0.3709,0.209415,-0.0227928,0.602592,-0.35808,1.85744,-3.21847,0.121933,-1.24917,-3.16562,0.146621,-1.04774,-0.767121,0.703041,-0.631215,0.225158,0.574424,0.31804,0.502743,1
0.831026,-0.0851816,-1.83618,-0.605733,2.57346,1.06774,-0.161408,0.845183,-0.0958097,-1.82263,-0.593914,2.56739,1.05867,-0.17454,0.907602,-0.15251,-1.77088,-0.61415,2.52252,1.02607,-0.216264,-1.3066,1.20036,-1.07156,-0.237355,1.01097,0.101341,0.834624,-1.36623,1.25599,-1.11351,-0.577525,0.982815,-0.152759,0.955472,0.102571,-0.189715,1.20384,0.675153,-0.106578,0.199879,0.702038,0.185941,0.384385,0.0620909,0.571159,-0.356797,1.84467,-3.21568,0.131258,-1.30666,-3.18844,0.112079,-1.14905,-0.765765,0.673288,-0.652979,0.0841693,0.509374,0.416719,0.548561,1
0.818412,-0.0746631,-1.85003,-0.635627,2.57262,1.08056,-0.156394,0.831401,-0.0850811,-1.83618,-0.609035,2.57212,1.0682,-0.163575,0.893772,-0.139748,-1.78217,-0.609997,2.53288,1.03206,-0.207535,-1.26803,1.17016,-1.03481,0.380819,0.949537,0.549135,0.800342,-1.31202,1.20815,-1.07286,-0.215486,0.99718,0.121324,0.861892,0.102859,-0.18251,1.20532,0.67692,-0.109104,0.206367,0.69806,0.00973671,0.617354,0.15716,0.539884,-0.35502,1.83177,-3.14597,0.178789,-1.29758,-3.1755,0.114244,-1.22587,-0.7536,0.650849,-0.678556,-0.2563,0.397369,0.485031,0.511408,1
0.806319,-0.068767,-1.86448,-0.65049,2.58017,1.0909,-0.158577,0.818542,-0.0758187,-1.85018,-0.631869,2.57472,1.07994,-0.158193,0.879999,-0.127293,-1.79364,-0.605438,2.54266,1.0396,-0.198182,-1.26288,1.14199,-1.05143,0.417998,0.896996,0.691582,0.857556,-1.27917,1.17084,-1.0526,0.187154,0.952502,0.447352,0.830841,0.103112,-0.17511,1.20662,0.678414,-0.112158,0.213493,0.693972,0.00643333,0.629688,0.144738,0.508142,-0.353175,1.81621,-3.11652,0.181082,-1.52709,-3.14934,0.15269,-1.32702,-0.736801,0.585259,-0.708394,-0.450517,0.375061,0.513032,0.396051,1
0.792608,-0.0661885,-1.87867,-0.653812,2.58841,1.10207,-0.172867,0.805914,-0.0695964,-1.86441,-0.647605,2.58034,1.09111,-0.161604,0.866223,-0.115327,-1.8057,-0.606458,2.55101,1.04771,-0.188372,-1.26309,1.09711,-1.10563,-0.0934841,0.7656,0.743382,0.899446,-1.26467,1.13642,-1.06396,0.235111,0.870711,0.661366,0.852448,0.105093,-0.170002,1.20665,0.679797,-0.112326,0.220723,0.690319,0.143055,0.429917,0.0251478,0.476551,-0.351492,1.80063,-2.98672,0.159125,-1.47333,-3.151,0.167974,-1.42072,-0.73615,0.491387,-0.729703,-0.473547,0.373964,0.543626,0.155051,1
0.781057,-0.0634138,-1.89096,-0.659861,2.5997,1.11151,-0.189215,0.793148,-0.0661394,-1.87819,-0.654494,2.58917,1.10164,-0.173381,0.852707,-0.104128,-1.81831,-0.613661,2.55773,1.05685,-0.179817,-1.23919,1.0268,-1.15605,-0.660434,0.616029,0.837725,0.784333,-1.25505,1.08864,-1.10437,-0.111973,0.759542,0.757563,0.847112,0.108671,-0.167626,1.20526,0.681612,-0.109693,0.227783,0.686649,0.266965,0.191809,-0.108676,0.44562,-0.349685,1.78408,-3.08155,0.180088,-1.64845,-3.1441,0.177522,-1.52303,-0.716494,0.40714,-0.726493,-0.462004,0.419686,0.546645,-0.0939774,1
0.769212,-0.0549424,-1.90166,-0.665632,2.60525,1.11236,-0.183626,0.780984,-0.0619896,-1.89056,-0.659792,2.59827,1.10936,-0.183731,0.841084,-0.0951478,-1.82953,-0.621238,2.56341,1.06511,-0.174211,-1.27564,0.926781,-1.26537,-0.956347,0.614108,0.943158,0.457288,-1.25931,1.0169,-1.17568,-0.570088,0.665245,0.841422,0.713689,0.111679,-0.166646,1.20369,0.683863,-0.106976,0.233403,0.682943,0.257272,0.00834974,-0.187384,0.414796,-0.348206,1.76594,-3.05029,0.146289,-1.79561,-3.12698,0.171174,-1.63787,-0.71872,0.402053,-0.721312,-0.44394,0.418441,0.472512,-0.0941478,1
0.755255,-0.0530715,-1.91383,-0.682883,2.6123,1.09352,-0.177334,0.768684,-0.0565925,-1.90202,-0.668502,2.60563,1.10744,-0.18345,0.829154,-0.087374,-1.84153,-0.62977,2.56957,1.07409,-0.172445,-1.306,0.770207,-1.32975,-0.896774,0.711166,0.999075,-0.033951,-1.27361,0.907931,-1.25039,-0.837852,0.647101,0.926653,0.402557,0.113033,-0.166589,1.20282,0.685173,-0.105553,0.23584,0.681011,0.213552,0.00255361,-0.160039,0.383712,-0.347302,1.74692,-3.15842,0.0918467,-1.93224,-3.10615,0.150319,-1.73275,-0.738991,0.343026,-0.722979,-0.53113,0.427366,0.194291,-0.0488827,1
0.744052,-0.0533355,-1.92456,-0.688897,2.62555,1.06878,-0.179233,0.755944,-0.0536052,-1.91347,-0.680073,2.61385,1.09205,-0.179381,0.81708,-0.0807176,-1.85382,-0.637592,2.57652,1.08309,-0.174299,-1.30927,0.679289,-1.33251,-0.805226,0.788786,0.952998,-0.342081,-1.29697,0.792092,-1.30921,-0.886115,0.704687,0.965077,0.0270851,0.11507,-0.1679,1.2,0.692879,-0.102633,0.241983,0.671439,0.025975,-0.11969,-0.173913,0.352709,-0.345525,1.72732,-3.23863,0.185719,-2.04759,-3.09591,0.143176,-1.83779,-0.73028,0.273821,-0.707414,-0.513049,0.490288,-0.143111,-0.0493311,1
0.733168,-0.0764155,-1.93539,-0.686079,2.64085,1.07495,-0.178579,0.744132,-0.0590395,-1.92459,-0.686689,2.62606,1.07651,-0.178594,0.80496,-0.0745803,-1.866,-0.645222,2.58381,1.09024,-0.17693,-1.31577,0.652438,-1.30682,-0.844402,0.791214,0.623757,-0.236496,-1.31034,0.700644,-1.32302,-0.8488,0.763722,0.85861,-0.204176,0.11575,-0.169401,1.19835,0.698515,-0.100398,0.244831,0.664872,0.016115,-0.187246,-0.165991,0.321546,-0.343704,1.70672,-3.04497,0.177905,-2.01327,-3.10234,0.146434,-1.93352,-0.717918,-0.018352,-0.693933,-0.40857,0.570396,-0.152918,-0.0164884,1
0.722508,-0.0634391,-1.94721,-0.6863,2.65248,1.10075,-0.176623,0.733224,-0.0674014,-1.93564,-0.686839,2.63993,1.07986,-0.178253,0.792721,-0.0690227,-1.87797,-0.653597,2.59126,1.09275,-0.178153,-1.33396,0.559211,-1.28776,-0.960319,0.819424,-0.0256368,-0.0445375,-1.31966,0.630313,-1.30903,-0.869982,0.799808,0.517039,-0.207705,0.116234,-0.172277,1.19688,0.70425,-0.0959044,0.245917,0.659059,-0.0194498,-0.359216,-0.160524,0.290315,-0.342143,1.6854,-3.05766,0.152853,-2.08706,-3.11128,0.157261,-2.01284,-0.702129,0.0558364,-0.69243,-0.32703,0.612202,0.0799761,0.0153053,1
0.718542,-0.0493831,-1.95959,-0.712669,2.65758,1.12657,-0.164755,0.724182,-0.0631692,-1.94735,-0.692837,2.65085,1.10075,-0.174145,0.780482,-0.0654866,-1.88974,-0.662118,2.59954,1.09017,-0.178381,-1.31847,0.233844,-1.26403,-0.891203,0.962066,-0.495464,-0.00774775,-1.32273,0.481831,-1.2862,-0.898641,0.857568,0.0342186,-0.0962604,0.115385,-0.177215,1.19569,0.710334,-0.0894595,0.24419,0.654059,-0.242726,-0.571081,-0.138357,0.259328,-0.34081,1.66259,-3.16812,0.136193,-2.33223,-3.11163,0.163659,-2.10591,-0.619399,0.161035,-0.698498,-0.505504,0.580427,0.363987,0.13626,1
0.716476,-0.0650596,-1.97309,-0.729654,2.66195,1.14209,-0.176217,0.719017,-0.0568162,-1.95987,-0.710323,2.6574,1.12399,-0.170587,0.767086,-0.0660294,-1.90275,-0.669126,2.61099,1.08724,-0.178345,-1.22822,-0.0497646,-1.19294,-0.642473,1.04985,-0.267963,0.00331435,-1.29355,0.247764,-1.24824,-0.831332,0.94378,-0.263021,-0.0163236,0.110658,-0.184349,1.19473,0.717125,-0.0838719,0.239571,0.649078,-0.464473,-0.587782,-0.114922,0.22897,-0.338721,1.63898,-3.09726,0.213211,-2.40834,-3.09696,0.16501,-2.20805,-0.506102,0.00969756,-0.703401,-0.605286,0.509638,0.548468,0.0212727,1
0.704637,-0.0666533,-1.98765,-0.739696,2.63879,1.15633,-0.191844,0.714033,-0.0615389,-1.97335,-0.727918,2.65507,1.14177,-0.177258,0.754924,-0.0652186,-1.91539,-0.675847,2.62229,1.09107,-0.177154,-1.11507,0.0743354,-1.15914,-0.616248,1.03593,0.351109,0.109149,-1.22059,0.0861382,-1.20537,-0.716641,1.01595,-0.137439,0.0349053,0.106621,-0.189238,1.1934,0.722042,-0.0811552,0.237567,0.644695,-0.393351,-0.41262,-0.133727,0.197723,-0.33754,1.61417,-3.13852,0.118567,-2.49253,-3.0899,0.15749,-2.31515,-0.50287,-0.0143475,-0.722611,-0.638485,0.165044,0.652561,-0.1469,1
0.680113,-0.0820723,-2.00194,-0.750681,2.60346,1.16414,-0.18998,0.701466,-0.0701097,-1.98758,-0.739932,2.63575,1.15472,-0.187471,0.744746,-0.0628368,-1.928,-0.68562,2.63224,1.10041,-0.175293,-0.933201,0.218374,-1.15592,-0.896011,0.912507,0.85556,0.170663,-1.09216,0.0809815,-1.16933,-0.718244,0.999428,0.312902,0.0943757,0.104414,-0.193322,1.19108,0.725383,-0.0791243,0.237789,0.641105,-0.231531,-0.356853,-0.215408,0.167236,-0.335826,1.58946,-3.04494,0.171164,-2.46735,-3.07763,0.159024,-2.40294,-0.646321,-0.192356,-0.739411,-0.65061,-0.287841,0.637316,-0.146872,1
0.667246,-0.108014,-2.0144,-0.765491,2.63327,1.15801,-0.216672,0.683027,-0.0847031,-2.00148,-0.751637,2.61974,1.16065,-0.197119,0.736039,-0.0624689,-1.94086,-0.69761,2.63871,1.11213,-0.17585,-0.798209,0.0337308,-1.17876,-1.09931,0.593314,1.07503,-0.0510878,-0.948825,0.108813,-1.16461,-0.870523,0.847249,0.760567,0.0762416,0.101843,-0.198943,1.18785,0.729561,-0.0767077,0.238279,0.636459,-0.27208,-0.494478,-0.29895,0.13676,-0.333909,1.56387,-2.89153,0.181939,-2.42844,-3.0687,0.166974,-2.4696,-0.687937,-0.455456,-0.735472,-0.678813,-0.0544686,0.458836,-0.408218,1
0.657588,-0.12787,-2.02455,-0.779755,2.65825,1.11271,-0.234888,0.668048,-0.106493,-2.01382,-0.765355,2.63206,1.14822,-0.214553,0.726239,-0.0646348,-1.9541,-0.709607,2.63787,1.1242,-0.179144,-0.898551,-0.19858,-1.21443,-1.09991,-0.0770205,1.10692,-0.302036,-0.876654,0.0178414,-1.18304,-1.03174,0.476267,1.0125,-0.0608201,0.0982252,-0.206071,1.18409,0.736413,-0.0729304,0.23987,0.628363,-0.389251,-0.623468,-0.345898,0.106254,-0.33299,1.53728,-3.07171,0.0925308,-2.67754,-3.06396,0.150928,-2.53712,-0.686505,-0.632354,-0.704519,-0.701482,0.203743,-0.114931,-0.557435,1
0.645572,-0.134289,-2.0349,-0.790496,2.62043,1.11256,-0.237302,0.656999,-0.124511,-2.0246,-0.778875,2.64255,1.124,-0.230937,0.716386,-0.0684271,-1.96573,-0.72,2.63481,1.13377,-0.182986,-1.20995,-0.590351,-1.29696,-1.14752,-0.546611,0.975293,-0.512626,-0.968904,-0.251734,-1.23005,-1.11558,-0.0101061,1.05242,-0.288583,0.0937138,-0.213543,1.18061,0.743692,-0.0686744,0.240761,0.619871,-0.675583,-0.891524,-0.408225,0.0748981,-0.331562,1.50777,-3.16088,0.143938,-2.97445,-3.06632,0.147929,-2.64981,-0.708135,-0.658618,-0.691781,-0.704963,-0.14382,-0.21208,-0.54316,1
0.630112,-0.141219,-2.04673,-0.796434,2.61163,1.15752,-0.228032,0.644711,-0.134417,-2.03527,-0.789295,2.62769,1.12384,-0.234381,0.70463,-0.076386,-1.97776,-0.731074,2.63243,1.13948,-0.189668,-1.32693,-1.09207,-1.30828,-1.24346,-0.0135423,0.317039,-0.902626,-1.14515,-0.626999,-1.27322,-1.16363,-0.212391,0.799752,-0.572429,0.0858568,-0.224266,1.17686,0.753237,-0.062809,0.238018,0.609948,-1.08298,-1.24789,-0.446137,0.0443383,-0.32995,1.47825,-3.05497,0.161141,-2.95122,-3.07657,0.140995,-2.78527,-0.745184,-0.64833,-0.689704,-0.653595,-0.207997,0.180431,-0.383635,1
0.618841,-0.158468,-2.06315,-0.809783,2.63112,1.17914,-0.230478,0.631159,-0.143799,-2.04788,-0.798287,2.6187,1.15169,-0.230961,0.692564,-0.0876864,-1.98964,-0.742867,2.63394,1.13824,-0.199238,-1.29006,-1.33573,-1.26838,-1.3061,0.312355,-0.516511,-1.14984,-1.27565,-1.00605,-1.29121,-1.23236,-0.0825997,0.258607,-0.855029,0.0813498,-0.229918,1.17508,0.757972,-0.059848,0.235475,0.605349,-0.9309,-1.04412,-0.386833,0.0133678,-0.327413,1.44663,-3.20301,0.262366,-3.26994,-3.087,0.160311,-2.93504,-0.737236,-0.707813,-0.735112,-0.669158,-0.0282067,0.409028,-0.3124,1
0.620283,-0.172109,-2.07409,-0.82766,2.66622,1.19512,-0.248231,0.622019,-0.157566,-2.06178,-0.810915,2.63502,1.17773,-0.234305,0.680596,-0.0996457,-2.00119,-0.754674,2.6341,1.13418,-0.208752,-1.30165,-1.26125,-1.23642,-1.25582,-0.232519,-0.375052,-0.929628,-1.30621,-1.22968,-1.27103,-1.26846,0.0220978,-0.191508,-0.99403,0.0636851,-0.251972,1.16905,0.775258,-0.0463517,0.22088,0.589948,-1.21493,-1.34437,-0.499394,-0.0172855,-0.325591,1.415,-3.10382,0.184505,-3.2024,-3.08609,0.189465,-3.05686,-0.603131,-0.724635,-0.729067,-0.729857,0.321291,0.609447,-0.394787,1
0.607504,-0.187115,-2.08578,-0.84204,2.65857,1.19035,-0.271133,0.616728,-0.17245,-2.07428,-0.826786,2.65554,1.18993,-0.249518,0.668343,-0.110943,-2.01278,-0.765868,2.6309,1.13552,-0.215492,-1.34878,-1.19179,-1.27294,-1.17591,-0.442414,0.586335,-0.5611,-1.3135,-1.26292,-1.25924,-1.24594,-0.12086,-0.101743,-0.880188,0.052719,-0.264372,1.16449,0.785105,-0.0385703,0.21505,0.579548,-1.21127,-1.1407,-0.545362,-0.0474931,-0.324103,1.38295,-2.83546,0.139669,-3.0086,-3.06406,0.19277,-3.12882,-0.608393,-0.761727,-0.729936,-0.761716,0.276752,0.548293,-0.556413,1
0.586819,-0.199627,-2.09701,-0.852008,2.604,1.19128,-0.27943,0.605527,-0.186492,-2.08566,-0.840937,2.64684,1.19178,-0.267482,0.6564,-0.12237,-2.02487,-0.776997,2.62995,1.1441,-0.22039,-1.24709,-1.27667,-1.33895,-1.23031,0.18407,1.21984,-0.504712,-1.29917,-1.24324,-1.28277,-1.22068,-0.163621,0.477042,-0.665146,0.0410333,-0.275325,1.15936,0.793207,-0.033764,0.210709,0.570337,-1.33743,-1.08198,-0.606172,-0.0807585,-0.324601,1.35203,-3.34052,-0.0499701,-3.10507,-3.11055,0.140089,-3.16114,-0.695809,-0.772575,-0.721461,-0.750117,-0.259489,0.471789,-0.590395,1
0.576811,-0.210144,-2.10725,-0.860887,2.60606,1.19844,-0.277639,0.589488,-0.199129,-2.09676,-0.851736,2.61816,1.19284,-0.276908,0.645841,-0.134632,-2.03725,-0.789048,2.63454,1.15551,-0.22667,-1.05605,-1.37179,-1.34316,-1.36886,0.761733,1.24872,-0.828768,-1.21731,-1.28008,-1.31835,-1.25836,0.167796,1.0183,-0.631526,0.0281678,-0.28611,1.15369,0.800379,-0.0312227,0.204768,0.562573,-1.41516,-1.1194,-0.670632,-0.109583,-0.323614,1.31914,-2.88138,0.0986084,-3.28754,-3.09375,0.0858837,-3.17948,-0.690303,-0.755126,-0.700019,-0.718391,-0.284765,0.429305,-0.509685,1
0.568311,-0.223662,-2.11906,-0.868943,2.6513,1.19694,-0.282316,0.577188,-0.210895,-2.10764,-0.860681,2.61686,1.19628,-0.279256,0.635869,-0.147508,-2.04949,-0.801918,2.63915,1.16555,-0.235905,-1.10059,-1.41406,-1.31206,-1.41534,0.27893,0.951309,-1.1454,-1.13457,-1.35418,-1.33139,-1.33817,0.408244,1.13996,-0.826294,0.0149201,-0.297328,1.14751,0.808226,-0.0282401,0.197762,0.553953,-1.41627,-1.15583,-0.723515,-0.138609,-0.319073,1.28078,-2.90674,0.454777,-3.84137,-3.04737,0.135251,-3.32248,-0.675583,-0.761543,-0.695714,-0.670249,0.1215,0.313942,-0.464116,1
0.557237,-0.238535,-2.13158,-0.883249,2.64203,1.17964,-0.293658,0.567667,-0.224001,-2.11924,-0.870505,2.63767,1.19299,-0.283982,0.624806,-0.160499,-2.06145,-0.814636,2.63693,1.17315,-0.246303,-1.28108,-1.40123,-1.28089,-1.34571,-0.680912,0.714245,-1.11014,-1.1459,-1.39569,-1.31204,-1.37664,0.119917,0.971425,-1.0281,0.00884132,-0.302527,1.14453,0.812106,-0.026442,0.194574,0.549477,-1.20787,-0.961791,-0.624876,-0.168518,-0.317551,1.24461,-3.02144,0.153747,-3.65388,-2.999,0.186318,-3.4792,-0.675687,-0.780366,-0.701276,-0.686131,0.0510279,0.064939,-0.473555,1
0.547673,-0.251764,-2.14099,-0.895462,2.62344,1.20956,-0.298837,0.557615,-0.238124,-2.1308,-0.882726,2.6397,1.19145,-0.292118,0.612906,-0.173255,-2.07313,-0.826526,2.63141,1.17926,-0.255339,-1.29561,-1.36529,-1.2519,-1.2389,-0.527894,0.617333,-0.86754,-1.22576,-1.39353,-1.28162,-1.33332,-0.309959,0.760962,-1.04103,-0.0107143,-0.319574,1.13426,0.826482,-0.015825,0.18728,0.530663,-1.41252,-1.03552,-0.733818,-0.198884,-0.31598,1.20676,-3.00637,0.1555,-3.74776,-2.95186,0.233038,-3.65069,-0.652332,-0.785089,-0.678566,-0.689359,-0.0796598,0.303047,-0.434985,1
0.534302,-0.265257,-2.15415,-0.907521,2.62585,1.2191,-0.302552,0.546721,-0.25183,-2.14193,-0.895424,2.62869,1.20447,-0.298471,0.60132,-0.185937,-2.08469,-0.837716,2.63048,1.18358,-0.262844,-1.22066,-1.3807,-1.25305,-1.18936,0.261003,0.341513,-0.766745,-1.26578,-1.3824,-1.26195,-1.25799,-0.315934,0.557697,-0.914807,-0.0243365,-0.329871,1.1278,0.834599,-0.00974689,0.180466,0.520366,-1.51536,-0.99687,-0.719915,-0.228651,-0.313532,1.16863,-2.9991,0.246657,-3.84131,-2.98411,0.232566,-3.75042,-0.670176,-0.793198,-0.694588,-0.698048,-0.0462619,0.355215,-0.397073,1
0.527382,-0.27756,-2.16715,-0.920294,2.64494,1.22861,-0.313021,0.535915,-0.264959,-2.15411,-0.9077,2.63002,1.21909,-0.30424,0.590237,-0.198895,-2.09626,-0.848887,2.63283,1.18601,-0.270085,-1.18331,-1.42296,-1.25287,-1.22744,0.249285,0.197261,-0.799183,-1.23319,-1.38965,-1.25261,-1.21857,-0.00586856,0.385369,-0.811156,-0.0387399,-0.340076,1.12121,0.842218,-0.00392989,0.171708,0.511048,-1.54793,-1.00135,-0.767699,-0.258889,-0.311988,1.12935,-3.05875,0.15621,-3.97341,-3.00693,0.181887,-3.7884,-0.628551,-0.786655,-0.708862,-0.714072,0.121082,0.425981,-0.429355,1
0.515664,-0.290808,-2.17875,-0.932461,2.65325,1.2229,-0.325536,0.526182,-0.277796,-2.1668,-0.920143,2.64225,1.2248,-0.313532,0.579317,-0.212119,-2.10776,-0.860429,2.63309,1.18955,-0.277306,-1.18235,-1.44042,-1.23929,-1.26937,-0.15944,0.541076,-0.767722,-1.19544,-1.41469,-1.2484,-1.22872,0.116949,0.35995,-0.777883,-0.0530848,-0.350009,1.11403,0.849622,0.00219386,0.163708,0.501336,-1.51717,-0.945639,-0.836467,-0.289292,-0.310648,1.08993,-2.92756,0.128994,-3.7962,-3.01552,0.177976,-3.86774,-0.636535,-0.786886,-0.709928,-0.720327,0.201654,0.333489,-0.482304,1
0.503581,-0.304061,-2.18917,-0.944045,2.64556,1.21313,-0.335576,0.515573,-0.290809,-2.17846,-0.932316,2.64925,1.22188,-0.324917,0.568418,-0.225392,-2.11932,-0.872233,2.63205,1.19602,-0.284191,-1.17895,-1.43517,-1.26204,-1.28641,-0.0734286,0.83673,-0.7272,-1.18154,-1.43285,-1.2514,-1.26107,0.00547207,0.525022,-0.764702,-0.0673439,-0.359212,1.10629,0.856582,0.00778304,0.156967,0.491495,-1.53479,-0.866075,-0.877247,-0.319537,-0.309256,1.04951,-3.21804,0.148147,-4.3007,-3.01946,0.163326,-3.93204,-0.648372,-0.786693,-0.698591,-0.718122,0.135154,0.17105,-0.513843,1
0.493496,-0.317223,-2.19973,-0.955179,2.63874,1.21671,-0.340554,0.50408,-0.304038,-2.18921,-0.943933,2.64578,1.21647,-0.33431,0.55771,-0.238579,-2.13113,-0.884197,2.63335,1.20344,-0.291301,-1.14356,-1.42248,-1.29391,-1.30379,0.322705,0.774891,-0.806355,-1.16829,-1.43269,-1.26508,-1.28653,0.0299454,0.717566,-0.767092,-0.0820038,-0.367784,1.09829,0.863171,0.0124315,0.149697,0.48205,-1.57978,-0.818832,-0.898506,-0.349225,-0.308117,1.00792,-3.04146,0.116726,-4.26079,-3.01796,0.135632,-4.01273,-0.642149,-0.786445,-0.686043,-0.709825,0.0539014,0.132734,-0.492526,1
0.486618,-0.32959,-2.21132,-0.967144,2.64616,1.22958,-0.344468,0.494298,-0.317024,-2.19999,-0.955387,2.6423,1.21903,-0.340288,0.547144,-0.251693,-2.14303,-0.896255,2.63695,1.20905,-0.299351,-1.14515,-1.41879,-1.28503,-1.30795,0.446331,0.465583,-0.92733,-1.15589,-1.42548,-1.28033,-1.29939,0.231869,0.692402,-0.820295,-0.0971361,-0.376119,1.09012,0.86976,0.0169975,0.140979,0.472603,-1.61045,-0.80225,-0.918214,-0.378058,-0.308076,0.965496,-2.71523,0.00384209,-3.99502,-2.98273,0.103561,-4.09728,-0.605261,-0.778967,-0.682903,-0.708888,0.0921207,0.205381,-0.451173,1
0.481228,-0.342557,-2.22354,-0.979495,2.66167,1.24197,-0.350569,0.48699,-0.32974,-2.21148,-0.967241,2.64818,1.22946,-0.345015,0.53643,-0.264812,-2.15472,-0.908261,2.6399,1.21185,-0.30804,-1.17338,-1.42277,-1.25086,-1.29388,0.213185,0.167313,-0.952856,-1.15403,-1.42135,-1.2766,-1.30187,0.327407,0.469262,-0.895514,-0.112437,-0.384428,1.08173,0.876498,0.0226238,0.131439,0.462562,-1.61071,-0.788624,-0.943563,-0.410511,-0.305827,0.926699,-3.27157,0.226688,-3.91122,-3.00959,0.108226,-4.10477,-0.552029,-0.777445,-0.688164,-0.712345,0.217675,0.301202,-0.425292,1
0.469624,-0.355191,-2.23528,-0.99219,2.6703,1.24078,-0.359659,0.479674,-0.342474,-2.22342,-0.979581,2.65995,1.23858,-0.351316,0.525758,-0.277925,-2.16615,-0.920131,2.64103,1.21355,-0.316404,-1.14112,-1.41817,-1.22728,-1.27878,0.0459232,0.198723,-0.866275,-1.15322,-1.41991,-1.25439,-1.29354,0.235146,0.277207,-0.915487,-0.127566,-0.392478,1.07307,0.883017,0.0290837,0.122075,0.452253,-1.58015,-0.738871,-0.970956,-0.441916,-0.304413,0.881479,-3.19187,0.143767,-4.59593,-3.06043,0.119762,-4.17282,-0.561346,-0.772656,-0.691294,-0.720589,0.292694,0.272298,-0.432544,1
0.459153,-0.367155,-2.24567,-1.00508,2.67706,1.23286,-0.368485,0.469907,-0.355023,-2.23494,-0.992238,2.66983,1.2391,-0.359593,0.515718,-0.290961,-2.17751,-0.931945,2.6423,1.21671,-0.3239,-1.04202,-1.40657,-1.23209,-1.28023,0.213494,0.462612,-0.765846,-1.11884,-1.41584,-1.23674,-1.28429,0.157534,0.276216,-0.861659,-0.142437,-0.399866,1.06414,0.888856,0.0349483,0.113144,0.44262,-1.55032,-0.664967,-0.997074,-0.46883,-0.302474,0.834179,-2.66558,0.191967,-4.68457,-3.03068,0.149478,-4.315,-0.565653,-0.761939,-0.681575,-0.73133,0.347601,0.161534,-0.445846,1
0.450866,-0.380506,-2.25636,-1.01706,2.68035,1.23432,-0.376331,0.459699,-0.367501,-2.24574,-1.00485,2.67619,1.23521,-0.36824,0.506452,-0.303908,-2.18897,-0.943845,2.64577,1.22172,-0.330853,-0.971249,-1.39882,-1.24951,-1.29621,0.514305,0.611351,-0.742231,-1.05146,-1.40785,-1.23629,-1.28507,0.257907,0.424229,-0.791451,-0.157271,-0.406516,1.05495,0.894026,0.0394876,0.104073,0.433967,-1.55171,-0.603759,-1.02394,-0.498918,-0.30099,0.787938,-3.04545,0.150269,-4.68043,-3.0004,0.17525,-4.47638,-0.555861,-0.765976,-0.673869,-0.732148,0.345821,0.12596,-0.454776,1
0.445011,-0.393992,-2.26579,-1.02797,2.68875,1.2282,-0.384787,0.451474,-0.38054,-2.25604,-1.01679,2.68163,1.23243,-0.376483,0.497362,-0.316767,-2.2005,-0.955918,2.65131,1.22658,-0.337924,-0.995813,-1.38761,-1.24909,-1.31738,0.671943,0.45409,-0.78595,-1.00303,-1.39767,-1.24356,-1.29794,0.466581,0.509351,-0.764676,-0.172349,-0.412706,1.04552,0.898931,0.0434607,0.0941842,0.425633,-1.5795,-0.568204,-1.05001,-0.498918,-0.30099,0.787938,0,0,0,-2.33818,0.130978,-3.71064,-0.523509,-0.772251,-0.652812,-0.720563,0.374395,0.0162317,-0.468625,1
0.447465,-0.405977,-2.27019,-1.03734,2.70507,1.2218,-0.393631,0.447088,-0.393617,-2.26453,-1.02759,2.69073,1.22813,-0.384884,0.488012,-0.329527,-2.21192,-0.96815,2.65753,1.22953,-0.345394,-1.02695,-1.37738,-1.22662,-1.33121,0.676704,0.205817,-0.828641,-0.998005,-1.38793,-1.24174,-1.31493,0.620984,0.423753,-0.785607,-0.187683,-0.418687,1.03585,0.903802,0.047861,0.0833251,0.417022,-1.59162,-0.544583,-1.07567,-0.498918,-0.30099,0.787938,0,0,0,-1.44093,0.083304,-2.33324,-0.405472,-0.764495,-0.582664,-0.691913,0.47536,-0.0772933,-0.482367,1
0.512036,-0.41512,-2.24433,-1.0277,2.72453,1.25614,-0.393949,0.462994,-0.405266,-2.26262,-1.03259,2.70585,1.23199,-0.391499,0.478723,-0.342293,-2.22309,-0.980387,2.66366,1.23071,-0.353136,-0.988379,-1.38724,-1.19512,-1.32049,0.651757,0.0621032,-0.846844,-1.00371,-1.38408,-1.22361,-1.32303,0.666802,0.24067,-0.820478,-0.203042,-0.424511,1.02591,0.908521,0.0527974,0.0718055,0.408223,-1.57587,-0.523019,-1.1014,-0.498918,-0.30099,0.787938,0,0,0,-0.60176,0.0296921,-0.924821,0.333125,-0.728264,-0.212376,-0.473088,0.608705,0.254223,-0.408129,1
0.527842,-0.418958,-2.20722,-0.982924,2.73394,1.27152,-0.357182,0.499845,-0.413794,-2.24152,-1.01891,2.72202,1.2514,-0.384678,0.470326,-0.355142,-2.23374,-0.992364,2.67015,1.23054,-0.361044,-0.842861,-1.39551,-1.11696,-1.27759,0.746473,-0.0873188,-0.864712,-0.952731,-1.38671,-1.17957,-1.30976,0.691645,0.0602006,-0.846732,-0.21808,-0.43021,1.01581,0.912814,0.0578005,0.0596755,0.399835,-1.5119,-0.515481,-1.10837,-0.498918,-0.30099,0.787938,0,0,0,-5.96046e-07,5.96046e-07,0,0.575158,-0.638156,0.265163,0.0943997,0.637885,0.409763,0.0386113,1
0.507511,-0.434469,-2.25031,-1.01628,2.74294,1.23899,-0.372462,0.518807,-0.421876,-2.22727,-1.00245,2.73384,1.25954,-0.370194,0.46618,-0.367837,-2.24217,-1.00312,2.6783,1.23045,-0.368817,-0.115571,-1.3576,-0.741826,-1.06898,0.999255,0.05576,-0.822709,-0.648937,-1.38012,-1.01797,-1.22235,0.799162,0.0101815,-0.844755,-0.230791,-0.435947,1.0062,0.915685,0.0611804,0.0475349,0.394358,-1.08617,-0.568046,-1.00056,-0.498918,-0.30099,0.787938,0,0,0,-5.96046e-07,5.96046e-07,0,0.413302,-0.666321,-0.0814016,-0.131593,0.64637,0.0853944,-0.0364451,1
0.488665,-0.447676,-2.27875,-0.999356,2.76079,1.18324,-0.414426,0.507882,-0.433893,-2.24665,-1.00371,2.74515,1.23318,-0.379133,0.470934,-0.379756,-2.24473,-1.00937,2.6886,1.23387,-0.3742,1.04861,-1.23458,0.116504,-0.346122,1.21222,0.635935,-0.380052,0.0300583,-1.32923,-0.580761,-0.897564,0.985984,0.201459,-0.689158,-0.237558,-0.441352,0.999014,0.915453,0.0596216,0.0378263,0.396181,-0.267802,-0.564615,-0.60586,-0.498918,-0.30099,0.787938,0,0,0,-5.96046e-07,5.96046e-07,0,0.177306,-0.679197,-0.340192,0.100153,0.721936,-0.506296,-0.40226,1
0.548004,-0.456244,-2.20908,-1.05099,2.77407,1.18751,-0.43013,0.508211,-0.446516,-2.25422,-1.01649,2.75965,1.19824,-0.407861,0.482041,-0.390646,-2.24163,-1.00955,2.69988,1.24009,-0.374946,1.33364,-1.13283,0.520941,0.257352,1.23156,0.705673,0.172385,0.755558,-1.24167,-0.0347936,-0.385916,1.14768,0.465789,-0.343459,-0.23935,-0.44571,0.995022,0.912426,0.053311,0.0310486,0.404565,0.0132059,-0.455605,-0.30632,-0.498918,-0.30099,0.787938,0,0,0,-5.96046e-07,5.96046e-07,0,0.659636,-0.655981,0.325541,-0.414415,0.741813,-0.525748,-0.551838,1
0.556457,-0.462985,-2.18869,-1.04833,2.78425,1.18933,-0.415157,0.535283,-0.455787,-2.2214,-1.03742,2.77329,1.1869,-0.422461,0.490786,-0.401343,-2.24054,-1.00773,2.71125,1.24155,-0.374971,0.620133,-1.18068,-0.221725,0.145928,1.22991,-0.303645,-0.150949,1.00079,-1.1827,0.138574,0.0190523,1.22456,0.345988,-0.119539,-0.243002,-0.449688,0.991506,0.910158,0.0484056,0.0230475,0.410779,-0.58224,-0.436422,-0.462199,-0.498918,-0.30099,0.787938,0,0,0,-5.96046e-07,5.96046e-07,0,0.656717,-0.616421,0.518459,-0.405982,0.730017,-0.522249,-0.401856,1
0.547346,-0.476886,-2.20819,-1.05044,2.79831,1.17671,-0.414895,0.552066,-0.464775,-2.19866,-1.04952,2.78522,1.18572,-0.418835,0.495682,-0.412508,-2.24343,-1.00855,2.72308,1.23382,-0.380561,0.454456,-1.23358,-0.391416,-0.288055,1.32629,-1.29038,-0.990232,0.802743,-1.18236,-0.0307332,0.038408,1.26259,-0.296116,-0.322932,-0.250197,-0.455166,0.986173,0.910186,0.0485308,0.0106924,0.411209,-0.748758,-0.634662,-0.685596,-0.498918,-0.30099,0.787938,0,0,0,-5.96046e-07,5.96046e-07,0,0.516633,-0.643783,0.352442,-0.418877,0.752308,-0.571079,-0.343335,1
0.563535,-0.479604,-2.20786,-1.02301,2.81175,1.17758,-0.428424,0.553671,-0.474091,-2.20323,-1.04306,2.79816,1.18008,-0.418343,0.50339,-0.423571,-2.24145,-1.01402,2.73554,1.22199,-0.390541,1.15685,-1.16856,0.727367,-0.848804,1.3693,-1.27298,-1.15782,0.743812,-1.19427,0.0380752,-0.330311,1.3085,-0.955667,-0.766332,-0.253845,-0.458183,0.98325,0.91051,0.0496434,0.00405044,0.410477,-0.628742,-0.537794,-0.58854,-0.498918,-0.30099,0.787938,0,0,0,-5.96046e-07,5.96046e-07,0,0.601449,-0.560327,0.335904,-0.0899711,0.762115,-0.444115,-0.378826,1
0.583837,-0.455813,-2.20174,-1.00275,2.82456,1.1745,-0.443518,0.564563,-0.472977,-2.20641,-1.02481,2.81159,1.17659,-0.428815,0.515007,-0.434083,-2.23228,-1.02251,2.74807,1.21186,-0.399033,1.34424,-1.11328,1.21932,-0.97989,1.34734,-0.948272,-0.718278,0.985182,-1.1718,0.518422,-0.705583,1.34764,-1.17054,-0.955442,-0.253971,-0.473036,0.972555,0.904914,0.0524632,-0.0190952,0.421917,0.325553,-0.990738,-0.732882,-0.498918,-0.30099,0.787938,0,0,0,-5.96046e-07,5.96046e-07,0,0.688294,-0.217297,0.30536,0.197538,0.764815,-0.37365,-0.444853,1
0.588885,-0.488304,-2.19284,-1.03864,2.8382,1.15902,-0.439388,0.580023,-0.469884,-2.20105,-1.01679,2.82477,1.1714,-0.438712,0.525759,-0.444214,-2.22345,-1.02917,2.76059,1.20359,-0.40457,1.01246,-1.08372,0.733358,-0.503575,1.36268,-0.852571,-0.499559,1.17118,-1.12185,0.893347,-0.777423,1.35978,-1.02461,-0.791884,-0.253463,-0.481581,0.966359,0.900352,0.0530183,-0.032647,0.430685,0.0241021,-0.762349,-0.606388,-0.498918,-0.30099,0.787938,0,0,0,-5.96046e-07,5.96046e-07,0,0.63126,-0.440901,0.306063,-0.0946994,0.776147,-0.445686,-0.348179,1
