Afshin1997/kuka_rl_ros2/src/catch_and_throw/output_files/tm/nn_ema7.00_jvws1_realball_D29H12M29S27/recorded_data.csv
pure_target_joint_0,pure_target_joint_1,pure_target_joint_2,pure_target_joint_3,pure_target_joint_4,pure_target_joint_5,pure_target_joint_6,target_joint_0,target_joint_1,target_joint_2,target_joint_3,target_joint_4,target_joint_5,target_joint_6,pos_joint_0,pos_joint_1,pos_joint_2,pos_joint_3,pos_joint_4,pos_joint_5,pos_joint_6,vel_joint_0,vel_joint_1,vel_joint_2,vel_joint_3,vel_joint_4,vel_joint_5,vel_joint_6,vel_smooth_joint_0,vel_smooth_joint_1,vel_smooth_joint_2,vel_smooth_joint_3,vel_smooth_joint_4,vel_smooth_joint_5,vel_smooth_joint_6,ee_pos_x,ee_pos_y,ee_pos_z,ee_or_w,ee_or_x,ee_or_y,ee_or_z,eep_vel_x,eep_vel_y,eep_vel_z,ee_vel_offset_x,ee_vel_offset_y,ee_vel_offset_z,ball_pos_x,ball_pos_y,ball_pos_z,ball_raw_vx,ball_raw_vy,ball_raw_vz,ball_ema_vx,ball_ema_vy,ball_ema_vz,action_0,action_1,action_2,action_3,action_4,action_5,action_6,command_published
1.82582,-1.06732,-1.77995,-1.05799,2.00068,1.19139,-0.989121,1.82582,-1.06732,-1.77995,-1.05799,2.00068,1.19139,-0.989121,1.78088,-1.07195,-1.81515,-1.11971,1.93712,1.11684,-0.916279,2.39552e-05,0,0,0,0,0,0,2.39552e-05,0,0,0,0,0,0,0.533606,-0.455514,0.692008,0.572515,0.178242,0.150803,0.785948,1.09484e-05,1.22779e-05,0,1.09117e-05,1.27823e-05,0,2.97787,-0.525213,0.136302,-3.79095,0.120145,5.20642,-3.79095,-0.0654821,5.00642,0.449438,0.0462576,0.351984,0.617168,0.635551,0.74553,-0.728418,1
1.82812,-1.06777,-1.78298,-1.05674,2.00119,1.19001,-0.98748,1.82812,-1.06777,-1.78298,-1.05674,2.00119,1.19001,-0.98748,1.78088,-1.07195,-1.81515,-1.11971,1.93712,1.11684,-0.916279,-2.39771e-05,2.39771e-05,-1.19776e-05,0,-3.83284e-05,2.39552e-05,2.39771e-05,-2.39771e-05,2.39771e-05,-1.19776e-05,0,-3.83284e-05,2.39552e-05,2.39771e-05,0.533606,-0.455514,0.692008,0.572515,0.178242,0.150803,0.785948,-1.32093e-05,-2.15183e-06,9.46882e-06,-1.34149e-05,1.70912e-07,9.4874e-06,2.94168,-0.523399,0.18969,-3.61984,0.181401,5.33876,-3.61984,-0.0110722,5.13876,0.47242,0.0417427,0.321666,0.629703,0.640665,0.731744,-0.712012,1
1.81998,-1.06798,-1.79773,-1.0572,2.0015,1.1893,-0.986271,1.81998,-1.06798,-1.79773,-1.0572,2.0015,1.1893,-0.986271,1.78088,-1.07196,-1.81523,-1.11982,1.93703,1.11671,-0.916148,0.000359547,-0.00221712,-0.0158675,-0.0221953,-0.0180055,-0.0265337,0.0261502,0.000359547,-0.00221712,-0.0158675,-0.0221953,-0.0180055,-0.0265337,0.0261502,0.533657,-0.455485,0.691933,0.572433,0.178348,0.150887,0.785968,0.0079615,0.00522611,-0.0139197,0.01025,0.00565667,-0.0150996,2.90427,-0.520669,0.243648,-3.741,0.273025,5.39588,-3.741,0.0593002,5.19588,0.391019,0.0397245,0.174928,0.62614,0.64469,0.725933,-0.701229,1
1.81112,-1.07078,-1.84191,-1.07494,2.00262,1.18236,-0.979126,1.81112,-1.07078,-1.84191,-1.07494,2.00262,1.18236,-0.979126,1.78092,-1.07198,-1.81674,-1.12158,1.93447,1.11387,-0.91304,0.00375115,0.00438632,-0.19222,-0.226388,-0.355643,-0.382043,0.42086,0.00375115,0.00438632,-0.19222,-0.226388,-0.355643,-0.382043,0.42086,0.53464,-0.454904,0.690634,0.570833,0.180303,0.152876,0.786301,0.0979075,0.0692016,-0.147834,0.128477,0.0795574,-0.164002,2.86806,-0.517993,0.295865,-3.62005,0.267607,5.22163,-3.62005,0.132427,5.02163,0.302052,0.0119745,-0.25175,0.466493,0.68156,0.684807,-0.660865,1
1.7877,-1.0594,-1.85318,-1.07629,1.99822,1.1785,-0.967145,1.7877,-1.0594,-1.85318,-1.07629,1.99822,1.1785,-0.967145,1.78016,-1.07107,-1.818,-1.12412,1.93097,1.11058,-0.909487,-0.120487,0.121158,-0.0799569,-0.252394,-0.2587,-0.219534,0.226413,-0.120487,0.121158,-0.0799569,-0.252394,-0.2587,-0.219534,0.226413,0.535408,-0.453989,0.689693,0.569186,0.18214,0.155594,0.786538,0.0116887,0.0677986,-0.0392729,0.0303003,0.0795866,-0.0495191,2.8308,-0.514854,0.346645,-3.72655,0.313884,5.07807,-3.72655,0.200806,4.87807,0.0754213,0.116776,-0.351842,0.478338,0.672477,0.679156,-0.576581,1
1.70477,-1.04084,-1.79632,-1.05374,2.00446,1.17733,-0.983324,1.70477,-1.04084,-1.79632,-1.05374,2.00446,1.17733,-0.983324,1.77751,-1.06995,-1.81696,-1.12632,1.93583,1.11578,-0.916181,-0.297106,0.0877345,0.165558,-0.210462,0.767491,0.795986,-1.01568,-0.297106,0.0877345,0.165558,-0.210462,0.767491,0.795986,-1.01568,0.533451,-0.454404,0.690676,0.571774,0.179811,0.15347,0.785614,-0.225606,-0.0659179,0.115677,-0.268161,-0.0830441,0.138306,2.79481,-0.512429,0.396188,-3.59867,0.242466,4.95423,-3.59867,0.243145,4.75423,-0.727322,0.291161,0.206436,0.725871,0.686271,0.615446,-0.671428,1
1.69412,-1.0467,-1.75813,-1.04989,2.01399,1.19364,-1.0069,1.69412,-1.0467,-1.75813,-1.04989,2.01399,1.19364,-1.0069,1.77521,-1.07076,-1.81342,-1.12601,1.9512,1.13076,-0.93489,-0.188448,-0.144023,0.405741,0.150147,1.76966,1.70749,-2.0837,-0.188448,-0.144023,0.405741,0.150147,1.76966,1.70749,-2.0837,0.529231,-0.456706,0.693128,0.578894,0.173151,0.144488,0.783597,-0.362096,-0.234172,0.22187,-0.467679,-0.288015,0.274984,2.75873,-0.510274,0.444928,-3.60873,0.215465,4.87401,-3.60873,0.259178,4.67402,-0.810843,0.240588,0.552903,0.761226,0.627913,0.6288,-0.720131,1
1.69197,-1.03717,-1.75323,-1.04382,2.02876,1.21163,-1.02661,1.69197,-1.03717,-1.75323,-1.04382,2.02876,1.21163,-1.02661,1.77536,-1.07406,-1.80958,-1.1203,1.97204,1.14892,-0.95491,0.0989874,-0.377854,0.353011,0.69858,2.10275,1.78271,-1.86087,0.0989874,-0.377854,0.353011,0.69858,2.10275,1.78271,-1.86087,0.524542,-0.461172,0.695866,0.58707,0.16565,0.130901,0.78152,-0.325995,-0.402042,0.199943,-0.44813,-0.479541,0.25613,2.72219,-0.507969,0.49255,-3.65348,0.230503,4.76223,-3.65348,0.25943,4.56223,-0.833915,0.36889,0.563571,0.764837,0.567223,0.627116,-0.716948,1
1.69503,-1.02977,-1.76288,-1.03327,2.04608,1.21769,-1.04082,1.69503,-1.02977,-1.76288,-1.03327,2.04608,1.21769,-1.04082,1.77867,-1.07752,-1.80765,-1.11018,1.98983,1.16347,-0.968664,0.391084,-0.305423,0.118485,1.1022,1.64548,1.36266,-1.25343,0.391084,-0.305423,0.118485,1.1022,1.64548,1.36266,-1.25343,0.521273,-0.465798,0.698407,0.593595,0.159555,0.118603,0.779821,-0.19437,-0.387681,0.211985,-0.296016,-0.449837,0.254692,2.68578,-0.505703,0.538803,-3.64101,0.226676,4.62526,-3.64101,0.248299,4.42526,-0.836377,0.477528,0.447674,0.769092,0.562443,0.542268,-0.721518,1
1.6991,-1.02551,-1.76889,-1.02025,2.05861,1.23068,-1.05088,1.6991,-1.02551,-1.76889,-1.02025,2.05861,1.23068,-1.05088,1.78295,-1.07848,-1.80867,-1.09705,2.00292,1.17533,-0.980225,0.419486,-0.0169213,-0.15977,1.38562,1.21314,1.14341,-1.14846,0.419486,-0.0169213,-0.15977,1.38562,1.21314,1.14341,-1.14846,0.518509,-0.470112,0.70162,0.600882,0.153518,0.109842,0.776729,-0.200947,-0.392267,0.320044,-0.287904,-0.429972,0.35417,2.64938,-0.503147,0.584172,-3.64025,0.255543,4.53689,-3.64025,0.24035,4.33689,-0.838484,0.529709,0.397778,0.767925,0.556924,0.553563,-0.706522,1
1.70194,-1.01834,-1.76555,-1.00674,2.06818,1.2434,-1.06063,1.70194,-1.01834,-1.76555,-1.00674,2.06818,1.2434,-1.06063,1.78599,-1.07674,-1.81081,-1.08342,2.01315,1.18634,-0.99214,0.263239,0.22138,-0.20314,1.34997,0.975244,1.09674,-1.21499,0.263239,0.22138,-0.20314,1.34997,0.975244,1.09674,-1.21499,0.515145,-0.474049,0.705925,0.609478,0.146692,0.1035,0.772208,-0.276636,-0.360867,0.424786,-0.359644,-0.380708,0.455679,2.6134,-0.500548,0.628977,-3.59783,0.25996,4.48055,-3.59783,0.235907,4.28055,-0.840524,0.583951,0.452507,0.766747,0.550313,0.570596,-0.68487,1
1.70281,-1.01182,-1.76327,-0.99406,2.07881,1.25253,-1.07237,1.70281,-1.01182,-1.76327,-0.99406,2.07881,1.25253,-1.07237,1.78694,-1.07398,-1.81102,-1.07062,2.02245,1.19679,-1.00518,0.0333393,0.272767,0.0503326,1.23012,0.928517,1.02273,-1.3316,0.0333393,0.272767,0.0503326,1.23012,0.928517,1.02273,-1.3316,0.510733,-0.477883,0.711211,0.618758,0.139206,0.0974011,0.76699,-0.380348,-0.364361,0.506212,-0.468214,-0.382882,0.536915,2.57719,-0.497974,0.673161,-3.62113,0.257394,4.41839,-3.62113,0.241579,4.21839,-0.841288,0.621666,0.477493,0.765592,0.563605,0.557332,-0.671896,1
1.70178,-1.00758,-1.75849,-0.982768,2.09024,1.25914,-1.08452,1.70178,-1.00758,-1.75849,-0.982768,2.09024,1.25914,-1.08452,1.78606,-1.07206,-1.80735,-1.05897,2.03221,1.20608,-1.01908,-0.121385,0.162179,0.494709,1.14484,0.996566,0.895177,-1.40142,-0.121385,0.162179,0.494709,1.14484,0.996566,0.895177,-1.40142,0.505444,-0.481943,0.716981,0.627808,0.131805,0.0898625,0.761846,-0.453225,-0.377802,0.561429,-0.55169,-0.407055,0.593089,2.54111,-0.495638,0.716393,-3.60734,0.233608,4.32316,-3.60734,0.246632,4.12316,-0.842762,0.644771,0.488542,0.761979,0.580309,0.530604,-0.654461,1
1.69952,-1.00671,-1.74918,-0.972595,2.101,1.26662,-1.09767,1.69952,-1.00671,-1.74918,-0.972595,2.101,1.26662,-1.09767,1.78406,-1.07136,-1.79971,-1.04828,2.04251,1.21425,-1.03276,-0.216574,0.035856,0.83805,1.05523,1.03816,0.797544,-1.34986,-0.216574,0.035856,0.83805,1.05523,1.03816,0.797544,-1.34986,0.499576,-0.486109,0.723024,0.635956,0.124648,0.0806226,0.757313,-0.494111,-0.382824,0.56918,-0.599985,-0.421448,0.599976,2.50531,-0.493787,0.758338,-3.58021,0.185075,4.19458,-3.58021,0.242326,3.99458,-0.845399,0.646564,0.505336,0.75686,0.584948,0.523665,-0.649078,1
1.69704,-1.00519,-1.73967,-0.961948,2.1109,1.27529,-1.11056,1.69704,-1.00519,-1.73967,-0.961948,2.1109,1.27529,-1.11056,1.78162,-1.07093,-1.79044,-1.0374,2.05318,1.22236,-1.04589,-0.250393,0.0588292,0.928816,1.10506,1.08341,0.819439,-1.30515,-0.250393,0.0588292,0.928816,1.10506,1.08341,0.819439,-1.30515,0.493171,-0.49042,0.729386,0.643697,0.117307,0.0704232,0.75295,-0.543999,-0.394624,0.613191,-0.657565,-0.434057,0.642888,2.46923,-0.491316,0.799294,-3.60813,0.247055,4.09558,-3.60813,0.238535,3.89558,-0.845771,0.657406,0.507684,0.75451,0.577165,0.529353,-0.646704,1
1.69491,-1.00303,-1.73129,-0.951098,2.12146,1.28544,-1.12361,1.69491,-1.00303,-1.73129,-0.951098,2.12146,1.28544,-1.12361,1.77917,-1.06946,-1.78184,-1.02627,2.06439,1.23099,-1.05881,-0.240901,0.18828,0.834299,1.12015,1.13295,0.883577,-1.2895,-0.240901,0.18828,0.834299,1.12015,1.13295,0.883577,-1.2895,0.486447,-0.494543,0.736068,0.651453,0.109636,0.0602495,0.748304,-0.567466,-0.365476,0.652279,-0.683716,-0.399148,0.679559,2.43342,-0.489,0.839266,-3.5809,0.231576,3.99717,-3.5809,0.232463,3.79717,-0.842648,0.664305,0.505517,0.751727,0.570698,0.544532,-0.64796,1
1.69202,-0.998476,-1.72526,-0.939557,2.1313,1.29473,-1.13548,1.69202,-0.998476,-1.72526,-0.939557,2.1313,1.29473,-1.13548,1.77625,-1.06629,-1.77424,-1.01452,2.07597,1.23995,-1.07162,-0.318426,0.350471,0.731632,1.18014,1.1625,0.895573,-1.27953,-0.318426,0.350471,0.731632,1.18014,1.1625,0.895573,-1.27953,0.479099,-0.498568,0.743432,0.659642,0.10144,0.0504403,0.742993,-0.638721,-0.377562,0.716838,-0.756508,-0.404715,0.741465,2.39728,-0.486672,0.878283,-3.61404,0.232822,3.90177,-3.61404,0.228191,3.70177,-0.842312,0.678174,0.489806,0.749668,0.553308,0.547805,-0.638518,1
1.68815,-0.993578,-1.72041,-0.928034,2.14074,1.30374,-1.14753,1.68815,-0.993578,-1.72041,-0.928034,2.14074,1.30374,-1.14753,1.77249,-1.06223,-1.76747,-1.00292,2.08756,1.24892,-1.08442,-0.390635,0.426361,0.67359,1.16443,1.15872,0.889839,-1.27751,-0.390635,0.426361,0.67359,1.16443,1.15872,0.889839,-1.27751,0.471234,-0.502626,0.750895,0.668095,0.0932029,0.0410306,0.737075,-0.68458,-0.378215,0.729454,-0.801523,-0.400894,0.750925,2.36082,-0.484918,0.915863,-3.64573,0.175416,3.75792,-3.64573,0.221012,3.55792,-0.843434,0.686492,0.470544,0.748853,0.531868,0.548173,-0.631083,1
1.68346,-0.987748,-1.7133,-0.917248,2.15119,1.31198,-1.15932,1.68346,-0.987748,-1.7133,-0.917248,2.15119,1.31198,-1.15932,1.76777,-1.05734,-1.76065,-0.991578,2.09892,1.25765,-1.0972,-0.502475,0.502523,0.684412,1.10709,1.12497,0.867907,-1.27965,-0.502475,0.502523,0.684412,1.10709,1.12497,0.867907,-1.27965,0.462799,-0.506561,0.758661,0.676659,0.0848156,0.0319025,0.730699,-0.742451,-0.366817,0.7547,-0.858871,-0.38423,0.773275,2.32478,-0.483042,0.952062,-3.60489,0.187656,3.61992,-3.60489,0.214891,3.41992,-0.843125,0.695946,0.473459,0.743298,0.522701,0.543383,-0.621148,1
1.67772,-0.981746,-1.70534,-0.90687,2.16117,1.32078,-1.17163,1.67772,-0.981746,-1.70534,-0.90687,2.16117,1.32078,-1.17163,1.76198,-1.05198,-1.75348,-0.980711,2.10994,1.26654,-1.11001,-0.604116,0.552486,0.731835,1.09292,1.0951,0.901584,-1.27924,-0.604116,0.552486,0.731835,1.09292,1.0951,0.901584,-1.27924,0.453727,-0.510371,0.766591,0.685254,0.0761515,0.0228831,0.72395,-0.812175,-0.36267,0.785783,-0.932542,-0.375049,0.802154,2.28935,-0.481065,0.987785,-3.54233,0.197667,3.57236,-3.54233,0.209991,3.37236,-0.842677,0.702295,0.481365,0.738417,0.512329,0.542398,-0.616239,1
1.6708,-0.975245,-1.69922,-0.896149,2.16872,1.32984,-1.18388,1.6708,-0.975245,-1.69922,-0.896149,2.16872,1.32984,-1.18388,1.75524,-1.04605,-1.74601,-0.970216,2.12056,1.27579,-1.12274,-0.695726,0.599861,0.741051,1.03899,1.05111,0.93224,-1.27157,-0.695726,0.599861,0.741051,1.03899,1.05111,0.93224,-1.27157,0.444028,-0.513952,0.774742,0.693844,0.0670623,0.0139903,0.71686,-0.863148,-0.344219,0.794937,-0.984351,-0.350578,0.808607,2.2532,-0.479144,1.02275,-3.6149,0.19213,3.49625,-3.6149,0.200071,3.29625,-0.844377,0.708056,0.467824,0.74067,0.481607,0.540484,-0.611344,1
1.6632,-0.968079,-1.69049,-0.885733,2.17721,1.33877,-1.19581,1.6632,-0.968079,-1.69049,-0.885733,2.17721,1.33877,-1.19581,1.74765,-1.03961,-1.73857,-0.959445,2.13087,1.28523,-1.13533,-0.778287,0.663835,0.75282,1.09994,1.02534,0.952038,-1.2545,-0.778287,0.663835,0.75282,1.09994,1.02534,0.952038,-1.2545,0.43365,-0.517513,0.78311,0.702588,0.0576058,0.00521652,0.709242,-0.938653,-0.348617,0.83753,-1.06364,-0.34883,0.848719,2.21702,-0.476767,1.05668,-3.61793,0.237706,3.39355,-3.61793,0.198616,3.19355,-0.844518,0.7153,0.48078,0.737115,0.463383,0.53542,-0.604867,1
1.65532,-0.961072,-1.68242,-0.875399,2.18601,1.34778,-1.20823,1.65532,-0.961072,-1.68242,-0.875399,2.18601,1.34778,-1.20823,1.7397,-1.03253,-1.73072,-0.948549,2.14095,1.29478,-1.14775,-0.793711,0.713379,0.79159,1.09403,1.0039,0.956952,-1.23776,-0.793711,0.713379,0.79159,1.09403,1.0039,0.956952,-1.23776,0.422833,-0.520653,0.79185,0.711158,0.0476907,-0.00352795,0.701404,-0.962596,-0.303627,0.864371,-1.08948,-0.298454,0.872637,2.18117,-0.474405,1.08921,-3.58531,0.236145,3.25292,-3.58531,0.203581,3.05292,-0.843854,0.714593,0.483037,0.731498,0.450647,0.529934,-0.604825,1
1.64658,-0.954177,-1.67451,-0.864628,2.19385,1.35425,-1.22059,1.64658,-0.954177,-1.67451,-0.864628,2.19385,1.35425,-1.22059,1.7312,-1.02558,-1.72304,-0.936921,2.15086,1.30437,-1.16007,-0.878118,0.681044,0.755133,1.18632,0.986278,0.962681,-1.2304,-0.878118,0.681044,0.755133,1.18632,0.986278,0.962681,-1.2304,0.411431,-0.524043,0.800468,0.719877,0.0376851,-0.0123989,0.692967,-1.03716,-0.358608,0.841921,-1.16536,-0.351334,0.846864,2.14569,-0.471918,1.12078,-3.54784,0.248691,3.1566,-3.54784,0.216326,2.9566,-0.846171,0.71405,0.48523,0.722935,0.429967,0.498828,-0.605206,1
1.63758,-0.947541,-1.66829,-0.852813,2.20134,1.36127,-1.2327,1.63758,-0.947541,-1.66829,-0.852813,2.20134,1.36127,-1.2327,1.7224,-1.01897,-1.7154,-0.925011,2.16049,1.31384,-1.17229,-0.866193,0.666987,0.773984,1.19603,0.952396,0.939119,-1.22077,-0.866193,0.666987,0.773984,1.19603,0.952396,0.939119,-1.22077,0.399741,-0.527498,0.808773,0.728492,0.0277889,-0.0213168,0.684158,-1.04175,-0.333037,0.828319,-1.16922,-0.322879,0.829918,2.1101,-0.469903,1.15141,-3.5589,0.201535,3.06326,-3.5589,0.223029,2.86326,-0.848248,0.714318,0.471127,0.721986,0.408514,0.474338,-0.604105,1
1.62861,-0.94056,-1.6617,-0.840946,2.20773,1.36774,-1.24451,1.62861,-0.94056,-1.6617,-0.840946,2.20773,1.36774,-1.24451,1.71363,-1.01214,-1.70757,-0.912852,2.16974,1.32323,-1.18448,-0.895483,0.676275,0.774596,1.21442,0.917324,0.944416,-1.21843,-0.895483,0.676275,0.774596,1.21442,0.917324,0.944416,-1.21843,0.387871,-0.530556,0.817156,0.736874,0.0176894,-0.0301494,0.675125,-1.07303,-0.317102,0.82469,-1.20062,-0.302249,0.823057,2.07451,-0.468181,1.18112,-3.5598,0.172159,2.97114,-3.5598,0.22136,2.77114,-0.850215,0.71575,0.458692,0.719059,0.379965,0.445123,-0.600309,1
1.61951,-0.933941,-1.65474,-0.830032,2.21497,1.37427,-1.25667,1.61951,-0.933941,-1.65474,-0.830032,2.21497,1.37427,-1.25667,1.70459,-1.00568,-1.69975,-0.900505,2.17875,1.33256,-1.19668,-0.894285,0.642131,0.799715,1.23584,0.895273,0.922652,-1.22171,-0.894285,0.642131,0.799715,1.23584,0.895273,0.922652,-1.22171,0.375744,-0.533648,0.825184,0.745135,0.00771625,-0.0390535,0.665725,-1.08602,-0.30748,0.802491,-1.21333,-0.29115,0.79741,2.03935,-0.466282,1.20976,-3.51551,0.189874,2.86338,-3.51551,0.215201,2.66338,-0.8508,0.717367,0.450188,0.704732,0.362191,0.417129,-0.599888,1
1.61045,-0.92684,-1.6492,-0.81913,2.22081,1.37882,-1.2681,1.61045,-0.92684,-1.6492,-0.81913,2.22081,1.37882,-1.2681,1.69571,-0.999242,-1.69181,-0.888579,2.18736,1.34154,-1.2089,-0.895879,0.641987,0.778299,1.19733,0.852914,0.887478,-1.22194,-0.895879,0.641987,0.778299,1.19733,0.852914,0.887478,-1.22194,0.363799,-0.536265,0.832993,0.752954,-0.00205902,-0.0477387,0.656336,-1.07765,-0.274955,0.776925,-1.20039,-0.255229,0.768907,2.00385,-0.464166,1.23727,-3.54984,0.211686,2.75146,-3.54984,0.206374,2.55146,-0.852579,0.724025,0.426179,0.694495,0.334494,0.372893,-0.591999,1
1.60113,-0.919019,-1.64175,-0.808042,2.22617,1.37836,-1.27856,1.60113,-0.919019,-1.64175,-0.808042,2.22617,1.37836,-1.27856,1.68653,-0.992523,-1.68404,-0.876308,2.19561,1.35008,-1.22112,-0.917571,0.680865,0.789121,1.21494,0.812627,0.847294,-1.22216,-0.917571,0.680865,0.789121,1.21494,0.812627,0.847294,-1.22216,0.351588,-0.538678,0.840833,0.760739,-0.0118265,-0.0561596,0.646516,-1.10007,-0.241692,0.79275,-1.22094,-0.216877,0.781859,1.96836,-0.461705,1.26389,-3.54875,0.246018,2.66161,-3.54875,0.204373,2.46161,-0.853978,0.735039,0.422913,0.682659,0.305552,0.282815,-0.574413,1
1.59206,-0.911538,-1.63555,-0.797192,2.2313,1.37365,-1.28941,1.59206,-0.911538,-1.63555,-0.797192,2.2313,1.37365,-1.28941,1.67761,-0.985803,-1.67613,-0.864558,2.20331,1.35822,-1.2333,-0.895932,0.666775,0.779544,1.17603,0.755334,0.801822,-1.2168,-0.895932,0.666775,0.779544,1.17603,0.755334,0.801822,-1.2168,0.339699,-0.540534,0.848465,0.768027,-0.0213735,-0.0642564,0.636827,-1.07487,-0.205118,0.763415,-1.19042,-0.177754,0.750083,1.93293,-0.45935,1.28973,-3.54384,0.235504,2.58387,-3.54384,0.207549,2.38387,-0.855496,0.742648,0.405811,0.67366,0.279945,0.15428,-0.561051,1
1.58244,-0.903852,-1.62642,-0.78686,2.23785,1.35446,-1.29904,1.58244,-0.903852,-1.62642,-0.78686,2.23785,1.35446,-1.29904,1.66813,-0.979004,-1.66877,-0.852378,2.21059,1.36583,-1.24538,-0.950555,0.688981,0.729331,1.21109,0.714301,0.74068,-1.2044,-0.950555,0.688981,0.729331,1.21109,0.714301,0.74068,-1.2044,0.327472,-0.54244,0.855949,0.775434,-0.0307383,-0.0719741,0.62656,-1.11043,-0.204049,0.759456,-1.22117,-0.172227,0.743993,1.89796,-0.457313,1.3148,-3.49618,0.203723,2.50762,-3.49618,0.214313,2.30762,-0.856964,0.751518,0.42352,0.655181,0.272617,-0.113685,-0.536603,1
1.57335,-0.895053,-1.61491,-0.775559,2.24735,1.33346,-1.30577,1.57335,-0.895053,-1.61491,-0.775559,2.24735,1.33346,-1.30577,1.65919,-0.971719,-1.66127,-0.84043,2.21735,1.37243,-1.2573,-0.886992,0.734017,0.750591,1.19333,0.66138,0.632717,-1.18638,-0.886992,0.734017,0.750591,1.19333,0.66138,0.632717,-1.18638,0.315698,-0.543595,0.863581,0.782301,-0.0398528,-0.079207,0.616557,-1.06599,-0.131586,0.777063,-1.17077,-0.097007,0.759881,1.86268,-0.455429,1.33889,-3.52858,0.188407,2.40916,-3.52858,0.217894,2.20916,-0.858399,0.766661,0.463587,0.648717,0.300007,-0.389613,-0.484773,1
1.56358,-0.887885,-1.61241,-0.763253,2.24399,1.32049,-1.31151,1.56358,-0.887885,-1.61241,-0.763253,2.24399,1.32049,-1.31151,1.64977,-0.96482,-1.65441,-0.828411,2.2236,1.37697,-1.26891,-0.949788,0.674936,0.675391,1.2117,0.617394,0.390964,-1.15353,-0.949788,0.674936,0.675391,1.2117,0.617394,0.390964,-1.15353,0.304025,-0.545056,0.870787,0.789176,-0.0478182,-0.0857735,0.606265,-1.0752,-0.182664,0.724088,-1.16635,-0.15189,0.707012,1.82749,-0.453288,1.36187,-3.51883,0.214157,2.29787,-3.51883,0.217322,2.09787,-0.861977,0.769351,0.420027,0.651586,0.203912,-0.564848,-0.425944,1
1.55461,-0.880656,-1.61041,-0.750396,2.2382,1.31518,-1.31748,1.55461,-0.880656,-1.61041,-0.750396,2.2382,1.31518,-1.31748,1.6407,-0.957575,-1.64724,-0.816504,2.22943,1.37776,-1.28016,-0.894698,0.74195,0.72721,1.16494,0.572756,-0.0245551,-1.11372,-0.894698,0.74195,0.72721,1.16494,0.572756,-0.0245551,-1.11372,0.293044,-0.546198,0.878225,0.795574,-0.0542563,-0.0915356,0.596439,-0.997029,-0.11588,0.764885,-1.07135,-0.0907887,0.749475,1.79232,-0.451211,1.38375,-3.51696,0.20768,2.18735,-3.51696,0.212935,1.98735,-0.860988,0.769192,0.368335,0.661078,0.0877106,-0.625828,-0.373209,1
1.54541,-0.873812,-1.60285,-0.738532,2.24339,1.31149,-1.32922,1.54541,-0.873812,-1.60285,-0.738532,2.24339,1.31149,-1.32922,1.6314,-0.950319,-1.64012,-0.80469,2.23516,1.37474,-1.29079,-0.948614,0.718953,0.714974,1.19988,0.581231,-0.402685,-1.04609,-0.948614,0.718953,0.714974,1.19988,0.581231,-0.402685,-1.04609,0.282462,-0.547501,0.885657,0.80169,-0.058918,-0.0965818,0.586935,-1.00439,-0.157647,0.754926,-1.06474,-0.141621,0.741361,1.75699,-0.448637,1.40515,-3.53338,0.257337,2.1401,-3.53338,0.212533,1.9401,-0.859917,0.765073,0.372741,0.661578,0.0822793,-0.632532,-0.384258,1
1.53604,-0.866932,-1.59909,-0.727254,2.25283,1.30425,-1.33774,1.53604,-0.866932,-1.59909,-0.727254,2.25283,1.30425,-1.33774,1.62204,-0.943213,-1.63246,-0.793104,2.24071,1.36745,-1.3005,-0.921278,0.706706,0.773959,1.13987,0.524149,-0.839248,-0.940093,-0.921278,0.706706,0.773959,1.13987,0.524149,-0.839248,-0.940093,0.27242,-0.548942,0.893126,0.807284,-0.0616374,-0.101012,0.578178,-0.932454,-0.138984,0.753793,-0.975429,-0.133519,0.743528,1.72158,-0.446566,1.42525,-3.54031,0.207135,2.0103,-3.54031,0.214011,1.8103,-0.860033,0.762811,0.333667,0.658498,0.121167,-0.63197,-0.372487,1
1.52665,-0.860105,-1.60289,-0.716276,2.26029,1.29249,-1.34119,1.52665,-0.860105,-1.60289,-0.716276,2.26029,1.29249,-1.34119,1.61259,-0.936003,-1.62523,-0.781206,2.24429,1.35673,-1.309,-0.962862,0.726275,0.702295,1.22312,0.301881,-1.12846,-0.82271,-0.962862,0.726275,0.702295,1.22312,0.301881,-1.12846,-0.82271,0.262852,-0.550326,0.900699,0.812826,-0.0631425,-0.103851,0.569685,-0.940814,-0.146063,0.767717,-0.967377,-0.136986,0.761274,1.68623,-0.44454,1.44417,-3.53582,0.202626,1.89235,-3.53582,0.216774,1.69235,-0.859479,0.758974,0.223483,0.6493,0.15993,-0.642457,-0.32186,1
1.5172,-0.852687,-1.60709,-0.705301,2.26439,1.27997,-1.34404,1.5172,-0.852687,-1.60709,-0.705301,2.26439,1.27997,-1.34404,1.60307,-0.928558,-1.61839,-0.769327,2.24625,1.34478,-1.31677,-0.935156,0.753107,0.680581,1.17633,0.172914,-1.21182,-0.767488,-0.935156,0.753107,0.680581,1.17633,0.172914,-1.21182,-0.767488,0.253547,-0.551343,0.90834,0.818317,-0.0643709,-0.105572,0.561309,-0.896834,-0.0916611,0.76882,-0.915151,-0.0795736,0.764354,1.65098,-0.443071,1.46187,-3.52416,0.146893,1.76966,-3.52416,0.211483,1.56966,-0.858741,0.758714,0.113044,0.640269,0.181376,-0.648155,-0.272717,1
1.50762,-0.845026,-1.6154,-0.693036,2.26248,1.26889,-1.35032,1.50762,-0.845026,-1.6154,-0.693036,2.26248,1.26889,-1.35032,1.59347,-0.920992,-1.61228,-0.757401,2.24798,1.33276,-1.32439,-0.981929,0.757026,0.581677,1.1988,0.187506,-1.18827,-0.762527,-0.981929,0.757026,0.581677,1.1988,0.187506,-1.18827,-0.762527,0.244238,-0.552198,0.915864,0.82384,-0.0655163,-0.106949,0.552772,-0.930903,-0.0998926,0.748226,-0.947707,-0.0861271,0.744058,1.61562,-0.441114,1.47888,-3.53639,0.195655,1.70144,-3.53639,0.203204,1.50144,-0.858457,0.759665,-0.0312862,0.64365,0.145002,-0.638708,-0.259321,1
1.49828,-0.836328,-1.62076,-0.680828,2.26175,1.2585,-1.35249,1.49828,-0.836328,-1.62076,-0.680828,2.26175,1.2585,-1.35249,1.58397,-0.91319,-1.60714,-0.745343,2.25074,1.32107,-1.33185,-0.926347,0.79426,0.488682,1.19909,0.307269,-1.16419,-0.734868,-0.926347,0.79426,0.488682,1.19909,0.307269,-1.16419,-0.734868,0.234854,-0.552947,0.92326,0.82925,-0.0666059,-0.108508,0.544183,-0.908494,-0.068546,0.742595,-0.926192,-0.0567705,0.73807,1.58012,-0.439143,1.49477,-3.54977,0.197116,1.58886,-3.54977,0.195515,1.38886,-0.856942,0.768624,-0.136212,0.645146,0.11009,-0.62574,-0.206408,1
1.48902,-0.828269,-1.63304,-0.670503,2.25878,1.24903,-1.35294,1.48902,-0.828269,-1.63304,-0.670503,2.25878,1.24903,-1.35294,1.57469,-0.905431,-1.60425,-0.733585,2.25455,1.30957,-1.33854,-0.937109,0.760597,0.212356,1.1832,0.405709,-1.14839,-0.642052,-0.937109,0.760597,0.212356,1.1832,0.405709,-1.14839,-0.642052,0.225808,-0.553842,0.9301,0.834535,-0.0671666,-0.109757,0.535718,-0.89777,-0.114235,0.663225,-0.908746,-0.105027,0.660381,1.54486,-0.436809,1.50982,-3.52614,0.233439,1.50501,-3.52614,0.19199,1.30501,-0.856758,0.771622,-0.287885,0.630822,0.0422501,-0.605349,-0.144011,1
1.4799,-0.81911,-1.63995,-0.660857,2.26153,1.23818,-1.34409,1.4799,-0.81911,-1.63995,-0.660857,2.26153,1.23818,-1.34409,1.56538,-0.897119,-1.60375,-0.721481,2.25873,1.29794,-1.34431,-0.922632,0.868321,0.00562046,1.20568,0.404501,-1.16201,-0.558548,-0.922632,0.868321,0.00562046,1.20568,0.404501,-1.16201,-0.558548,0.21682,-0.554652,0.936839,0.839949,-0.0675712,-0.110263,0.527031,-0.883899,-0.0647676,0.686282,-0.888119,-0.0495458,0.685204,1.50981,-0.434539,1.52373,-3.50537,0.226948,1.39095,-3.50537,0.198107,1.19095,-0.854848,0.780095,-0.361994,0.606242,0.0280272,-0.597589,0.00218958,1
1.47085,-0.809776,-1.64648,-0.652801,2.26573,1.22683,-1.33673,1.47085,-0.809776,-1.64648,-0.652801,2.26573,1.22683,-1.33673,1.55615,-0.888289,-1.60533,-0.709754,2.26193,1.28635,-1.34929,-0.935392,0.873899,-0.222433,1.18278,0.292883,-1.16243,-0.474851,-0.935392,0.873899,-0.222433,1.18278,0.292883,-1.16243,-0.474851,0.208326,-0.555012,0.94346,0.845482,-0.06797,-0.109437,0.518232,-0.859012,-0.0613358,0.646078,-0.851885,-0.0407285,0.647929,1.47515,-0.432409,1.5367,-3.4662,0.213021,1.29691,-3.4662,0.206289,1.09691,-0.853001,0.785124,-0.411533,0.569531,0.0379412,-0.595161,0.125599,1
1.46151,-0.800735,-1.65668,-0.644201,2.26364,1.2165,-1.33005,1.46151,-0.800735,-1.65668,-0.644201,2.26364,1.2165,-1.33005,1.54652,-0.879612,-1.60918,-0.697684,2.26372,1.27482,-1.35312,-0.958366,0.877842,-0.429154,1.18968,0.140037,-1.14609,-0.34531,-0.958366,0.877842,-0.429154,1.18968,0.140037,-1.14609,-0.34531,0.199822,-0.555511,0.949696,0.851417,-0.068318,-0.107341,0.508821,-0.852136,-0.0573232,0.616022,-0.834532,-0.0295872,0.620409,1.44076,-0.430006,1.54825,-3.43841,0.240308,1.1547,-3.43841,0.218603,0.954697,-0.850075,0.788775,-0.475037,0.534827,-0.000788837,-0.583235,0.230668,1
1.45227,-0.791452,-1.66736,-0.633673,2.24726,1.21072,-1.31983,1.45227,-0.791452,-1.66736,-0.633673,2.24726,1.21072,-1.31983,1.53724,-0.870564,-1.61475,-0.686002,2.26446,1.26348,-1.35452,-0.935883,0.904831,-0.608622,1.17589,0.0610348,-1.13386,-0.0697499,-0.935883,0.904831,-0.608622,1.17589,0.0610348,-1.13386,-0.0697499,0.191916,-0.55553,0.955826,0.856941,-0.0687977,-0.104043,0.500094,-0.818886,-0.0313274,0.600537,-0.792899,0.000638058,0.606709,1.40579,-0.428524,1.55918,-3.49728,0.148189,1.09307,-3.49728,0.215874,0.893066,-0.849671,0.79112,-0.526125,0.523291,-0.172033,-0.527589,0.346915,1
1.44282,-0.782418,-1.67656,-0.630917,2.23584,1.20473,-1.3101,1.44282,-0.782418,-1.67656,-0.630917,2.23584,1.20473,-1.3101,1.52747,-0.86172,-1.62211,-0.674543,2.26514,1.25238,-1.3535,-0.970147,0.884422,-0.758872,1.12684,0.0708525,-1.10409,0.148884,-0.970147,0.884422,-0.758872,1.12684,0.0708525,-1.10409,0.148884,0.183967,-0.555739,0.961534,0.862216,-0.0691241,-0.10012,0.491713,-0.815555,-0.0413827,0.558037,-0.784306,-0.00990079,0.565113,1.37103,-0.426816,1.56916,-3.47576,0.170794,0.998366,-3.47576,0.207441,0.798366,-0.846516,0.793028,-0.544501,0.436261,-0.293016,-0.47655,0.434,1
1.43379,-0.772919,-1.68388,-0.629865,2.23123,1.19826,-1.30119,1.43379,-0.772919,-1.68388,-0.629865,2.23123,1.19826,-1.30119,1.51807,-0.852413,-1.63008,-0.663695,2.26545,1.24119,-1.35075,-0.947748,0.930203,-0.82348,1.07948,0.00834124,-1.11504,0.319735,-0.947748,0.930203,-0.82348,1.07948,0.00834124,-1.11504,0.319735,0.176567,-0.555371,0.96734,0.866955,-0.0694625,-0.0955843,0.484177,-0.775845,0.0115608,0.568919,-0.73877,0.0452756,0.576838,1.33604,-0.424825,1.57849,-3.49933,0.199133,0.932574,-3.49933,0.197439,0.732574,-0.842805,0.794944,-0.537971,0.338307,-0.342225,-0.429262,0.495565,1
1.42445,-0.764661,-1.68936,-0.644785,2.23119,1.19184,-1.29288,1.42445,-0.764661,-1.68936,-0.644785,2.23119,1.19184,-1.29288,1.50816,-0.843803,-1.63931,-0.6532,2.2641,1.23043,-1.346,-0.992211,0.849031,-0.94184,1.04093,-0.194916,-1.06258,0.527583,-0.992211,0.849031,-0.94184,1.04093,-0.194916,-1.06258,0.527583,0.169245,-0.555228,0.972564,0.87168,-0.0697144,-0.090048,0.47666,-0.770897,-0.0149143,0.504421,-0.724145,0.0224269,0.513778,1.30128,-0.422674,1.58648,-3.47598,0.215048,0.798869,-3.47598,0.19269,0.598869,-0.8371,0.791421,-0.500476,0.084148,-0.329144,-0.385874,0.531197,1
1.41516,-0.755943,-1.68955,-0.654389,2.23056,1.18831,-1.28489,1.41516,-0.755943,-1.68955,-0.654389,2.23056,1.18831,-1.28489,1.49854,-0.834907,-1.64884,-0.643259,2.25995,1.22023,-1.33921,-0.961039,0.892943,-0.961878,0.970351,-0.486284,-0.992918,0.727017,-0.961039,0.892943,-0.961878,0.970351,-0.486284,-0.992918,0.727017,0.162595,-0.554282,0.977875,0.876094,-0.0705049,-0.0830721,0.469667,-0.705041,0.0694366,0.518892,-0.648171,0.117033,0.529011,1.26686,-0.420477,1.59369,-3.44158,0.219712,0.721252,-3.44158,0.193422,0.521252,-0.833727,0.789631,-0.407102,-0.111301,-0.293829,-0.319221,0.54322,1
1.40511,-0.748534,-1.68961,-0.660612,2.22659,1.18415,-1.2769,1.40511,-0.748534,-1.68961,-0.660612,2.22659,1.18415,-1.2769,1.48862,-0.826562,-1.65909,-0.634409,2.25346,1.2111,-1.33076,-0.99601,0.821239,-1.03365,0.851357,-0.690251,-0.893015,0.880263,-0.99601,0.821239,-1.03365,0.851357,-0.690251,-0.893015,0.880263,0.15645,-0.553203,0.982633,0.880379,-0.0714108,-0.0748681,0.462848,-0.665779,0.062837,0.451583,-0.598911,0.113435,0.46219,1.23254,-0.41863,1.60005,-3.43242,0.184757,0.636089,-3.43242,0.194159,0.436089,-0.835095,0.780283,-0.305207,-0.262033,-0.268677,-0.269498,0.538617,1
1.39493,-0.74109,-1.69108,-0.656655,2.21292,1.19055,-1.26635,1.39493,-0.74109,-1.69108,-0.656655,2.21292,1.19055,-1.26635,1.47902,-0.818064,-1.6691,-0.628368,2.24621,1.20272,-1.32128,-0.952853,0.858691,-0.988088,0.506214,-0.719723,-0.813138,0.965845,-0.952853,0.858691,-0.988088,0.506214,-0.719723,-0.813138,0.965845,0.151721,-0.551444,0.987046,0.88392,-0.072054,-0.065836,0.45734,-0.50329,0.149223,0.419945,-0.428723,0.197603,0.43049,1.198,-0.417073,1.60524,-3.45402,0.155646,0.519049,-3.45402,0.19669,0.319049,-0.840932,0.769743,-0.219823,-0.282869,-0.332906,-0.121665,0.549278,1
1.38456,-0.73369,-1.69504,-0.669994,2.20037,1.19714,-1.25665,1.38456,-0.73369,-1.69504,-0.669994,2.20037,1.19714,-1.25665,1.46863,-0.80972,-1.67845,-0.625769,2.23985,1.19569,-1.31132,-1.07329,0.824895,-0.908295,0.170624,-0.601527,-0.671133,0.999929,-1.07329,0.824895,-0.908295,0.170624,-0.601527,-0.671133,0.999929,0.147778,-0.549434,0.990839,0.886739,-0.0723418,-0.0568204,0.453025,-0.456901,0.158751,0.35063,-0.382579,0.201255,0.359882,1.16363,-0.41495,1.6096,-3.43683,0.212315,0.435925,-3.43683,0.196951,0.235925,-0.840711,0.760296,-0.16591,-0.442242,-0.394817,0.0145435,0.546706,1
1.37305,-0.726131,-1.68527,-0.676867,2.19185,1.20499,-1.25039,1.37305,-0.726131,-1.68527,-0.676867,2.19185,1.20499,-1.25039,1.45711,-0.801496,-1.68604,-0.626591,2.23462,1.18995,-1.30143,-1.18052,0.82825,-0.70143,-0.143035,-0.499438,-0.543522,0.983642,-1.18052,0.82825,-0.70143,-0.143035,-0.499438,-0.543522,0.983642,0.144321,-0.547127,0.994158,0.888841,-0.0724206,-0.0482581,0.449875,-0.411665,0.206051,0.321785,-0.341647,0.244589,0.329178,1.12915,-0.412625,1.61323,-3.4475,0.232553,0.363159,-3.4475,0.198048,0.163159,-0.840582,0.753652,0.00772224,-0.50276,-0.427655,0.150438,0.510415,1
1.36048,-0.719854,-1.68045,-0.68239,2.18576,1.20811,-1.24743,1.36048,-0.719854,-1.68045,-0.68239,2.18576,1.20811,-1.24743,1.4444,-0.793311,-1.69146,-0.629071,2.22958,1.1862,-1.29159,-1.29647,0.802184,-0.499803,-0.280306,-0.516984,-0.304682,0.988196,-1.29647,0.802184,-0.499803,-0.280306,-0.516984,-0.304682,0.988196,0.140603,-0.544336,0.997376,0.890495,-0.0732657,-0.0402895,0.447244,-0.439794,0.240674,0.304344,-0.377837,0.284099,0.308811,1.09451,-0.410334,1.61588,-3.46401,0.229022,0.265074,-3.46401,0.201447,0.0650738,-0.839255,0.734565,0.110125,-0.533198,-0.438218,0.219093,0.4416,1
1.3473,-0.714475,-1.67772,-0.685585,2.17923,1.21777,-1.2434,1.3473,-0.714475,-1.67772,-0.685585,2.17923,1.21777,-1.2434,1.43143,-0.785874,-1.69573,-0.633325,2.22342,1.18515,-1.28164,-1.27985,0.732303,-0.391528,-0.469831,-0.650259,-0.039559,0.996034,-1.27985,0.732303,-0.391528,-0.469831,-0.650259,-0.039559,0.996034,0.137317,-0.54133,0.999931,0.89178,-0.0748024,-0.0322199,0.445078,-0.362403,0.26606,0.239302,-0.301039,0.315134,0.241808,1.05968,-0.408625,1.61738,-3.48364,0.170937,0.149262,-3.48364,0.20213,-0.0507381,-0.841317,0.713985,0.180169,-0.522598,-0.44187,0.326116,0.382394,1
1.33543,-0.707406,-1.67062,-0.691224,2.1703,1.23242,-1.24176,1.33543,-0.707406,-1.67062,-0.691224,2.1703,1.23242,-1.24176,1.4192,-0.778162,-1.69764,-0.639138,2.21564,1.18625,-1.27174,-1.21819,0.777459,-0.128732,-0.61256,-0.812608,0.139277,0.985213,-1.21819,0.777459,-0.128732,-0.61256,-0.812608,0.139277,0.985213,0.135048,-0.537153,1.00257,0.892342,-0.0774852,-0.0239339,0.444015,-0.26535,0.382335,0.266283,-0.207314,0.440759,0.265913,1.0251,-0.407272,1.61737,-3.45759,0.135267,-0.000417233,-3.45759,0.198516,-0.200417,-0.837729,0.707562,0.270194,-0.520859,-0.453437,0.461698,0.299819,1
1.32324,-0.701366,-1.67077,-0.698137,2.16029,1.24258,-1.2454,1.32324,-0.701366,-1.67077,-0.698137,2.16029,1.24258,-1.2454,1.40689,-0.770892,-1.69743,-0.646094,2.20689,1.18906,-1.26258,-1.2258,0.720187,0.0751753,-0.72709,-0.896112,0.320247,0.886621,-1.2258,0.720187,0.0751753,-0.72709,-0.896112,0.320247,0.886621,0.133104,-0.532561,1.00497,0.892575,-0.0808428,-0.015843,0.44331,-0.230647,0.410656,0.235405,-0.1777,0.473025,0.232534,0.990629,-0.405484,1.61671,-3.44723,0.17885,-0.0657439,-3.44723,0.193298,-0.265744,-0.836494,0.695263,0.266556,-0.520432,-0.465982,0.535171,0.171781,1
1.31198,-0.697513,-1.67207,-0.706451,2.15809,1.24948,-1.26204,1.31198,-0.697513,-1.67207,-0.706451,2.15809,1.24948,-1.26204,1.39491,-0.763789,-1.69537,-0.653755,2.19777,1.19369,-1.25467,-1.19546,0.708168,0.235988,-0.772342,-0.912947,0.502775,0.75717,-1.19546,0.708168,0.235988,-0.772342,-0.912947,0.502775,0.75717,0.131483,-0.527404,1.00728,0.892517,-0.0850938,-0.00817449,0.442838,-0.203524,0.458033,0.233708,-0.158319,0.525959,0.227863,0.956087,-0.40299,1.61523,-3.45429,0.249386,-0.148332,-3.45429,0.190086,-0.348332,-0.829289,0.662756,0.233055,-0.526969,-0.396772,0.557865,-0.0737064,1
1.30315,-0.696177,-1.70527,-0.720005,2.16145,1.25705,-1.2876,1.30315,-0.696177,-1.70527,-0.720005,2.16145,1.25705,-1.2876,1.38332,-0.756604,-1.69206,-0.661459,2.18876,1.20041,-1.24817,-1.14244,0.72147,0.363761,-0.767129,-0.895249,0.730098,0.611122,-1.14244,0.72147,0.363761,-0.767129,-0.895249,0.730098,0.611122,0.129911,-0.521629,1.00966,0.892301,-0.0905278,-0.00103345,0.442271,-0.186761,0.519512,0.247854,-0.151826,0.595864,0.238293,0.921586,-0.400733,1.61274,-3.45005,0.225654,-0.248957,-3.45005,0.191084,-0.448957,-0.801698,0.604265,-0.132061,-0.585461,-0.273065,0.566355,-0.394275,1
1.29479,-0.701975,-1.74003,-0.729875,2.16996,1.26751,-1.30166,1.29479,-0.701975,-1.74003,-0.729875,2.16996,1.26751,-1.30166,1.37225,-0.749718,-1.68806,-0.669116,2.17982,1.20916,-1.24388,-1.08849,0.672084,0.413302,-0.769561,-0.892277,0.926204,0.35705,-1.08849,0.672084,0.413302,-0.769561,-0.892277,0.926204,0.35705,0.128426,-0.515564,1.01185,0.892178,-0.0969126,0.00560152,0.441129,-0.167826,0.527368,0.217709,-0.139405,0.608365,0.205213,0.887264,-0.398544,1.60918,-3.43224,0.218952,-0.356579,-3.43224,0.197989,-0.556579,-0.7746,0.47743,-0.519748,-0.607585,-0.0986324,0.583443,-0.577836,1
1.28276,-0.712351,-1.75039,-0.729146,2.16897,1.27501,-1.30919,1.28276,-0.712351,-1.75039,-0.729146,2.16897,1.27501,-1.30919,1.36196,-0.743145,-1.6843,-0.677221,2.17108,1.21922,-1.24335,-1.01861,0.655067,0.340045,-0.816455,-0.861004,1.02555,-0.0458866,-1.01861,0.655067,0.340045,-0.816455,-0.861004,1.02555,-0.0458866,0.127475,-0.509459,1.01362,0.892531,-0.103596,0.0120103,0.438761,-0.112173,0.524054,0.177614,-0.083205,0.605722,0.163353,0.852897,-0.396557,1.60456,-3.4367,0.198725,-0.461602,-3.4367,0.208615,-0.661602,-0.791994,0.307942,-0.660914,-0.519245,-0.0210872,0.557836,-0.65845,1
1.26999,-0.709254,-1.75348,-0.706513,2.17022,1.2812,-1.31682,1.26999,-0.709254,-1.75348,-0.706513,2.17022,1.2812,-1.31682,1.3519,-0.73651,-1.68316,-0.685236,2.16401,1.23003,-1.24689,-0.994476,0.676973,0.0356163,-0.811182,-0.640231,1.10274,-0.472216,-0.994476,0.676973,0.0356163,-0.811182,-0.640231,1.10274,-0.472216,0.126604,-0.503826,1.01491,0.893874,-0.110022,0.0182481,0.434225,-0.107206,0.477025,0.131044,-0.076104,0.555471,0.115953,0.818654,-0.394793,1.59909,-3.42424,0.176382,-0.547123,-3.42424,0.213353,-0.747123,-0.819109,0.272564,-0.703266,-0.212767,0.0621201,0.511704,-0.699318,1
1.25898,-0.699659,-1.75726,-0.65211,2.16548,1.29616,-1.32937,1.25898,-0.699659,-1.75726,-0.65211,2.16548,1.29616,-1.32937,1.34251,-0.729188,-1.68591,-0.694142,2.16057,1.24153,-1.25512,-0.930997,0.73911,-0.401618,-0.923987,-0.246448,1.1613,-0.932231,-0.930997,0.73911,-0.401618,-0.923987,-0.246448,1.1613,-0.932231,0.126339,-0.498635,1.01564,0.896107,-0.115786,0.0241196,0.42779,-0.044647,0.421751,0.0597754,-0.00959934,0.491219,0.0454835,0.78458,-0.393417,1.59234,-3.40744,0.137556,-0.675046,-3.40744,0.202752,-0.875046,-0.835265,0.295295,-0.713516,0.420323,0.0491891,0.546246,-0.74251,1
1.24959,-0.682684,-1.76763,-0.644451,2.14025,1.31083,-1.34111,1.24959,-0.682684,-1.76763,-0.644451,2.14025,1.31083,-1.34111,1.33314,-0.721378,-1.69365,-0.703048,2.16017,1.25345,-1.26691,-0.932891,0.807359,-0.876818,-0.860088,0.0211301,1.19396,-1.24786,-0.932891,0.807359,-0.876818,-0.860088,0.0211301,1.19396,-1.24786,0.126093,-0.494366,1.01573,0.899473,-0.120694,0.0300271,0.418902,-0.074141,0.349709,0.0199504,-0.0320273,0.414508,0.00579673,0.750842,-0.391815,1.58469,-3.3738,0.160185,-0.76474,-3.3738,0.185382,-0.96474,-0.835527,0.386935,-0.739875,0.585976,-0.199184,0.573718,-0.741972,1
1.23856,-0.673453,-1.77872,-0.642622,2.1342,1.31877,-1.35355,1.23856,-0.673453,-1.77872,-0.642622,2.1342,1.31877,-1.35355,1.32378,-0.712735,-1.70495,-0.709979,2.16147,1.26523,-1.28038,-0.943281,0.86578,-1.21172,-0.626845,0.154449,1.17377,-1.36289,-0.943281,0.86578,-1.21172,-0.626845,0.154449,1.17377,-1.36289,0.125184,-0.490537,1.01595,0.903673,-0.12551,0.0359487,0.407836,-0.165516,0.295893,0.0350337,-0.119088,0.359713,0.0199061,0.716981,-0.389904,1.5765,-3.38606,0.191107,-0.819004,-3.38606,0.175298,-1.019,-0.852203,0.392819,-0.737669,0.673566,-0.272775,0.535454,-0.731723,1
1.22835,-0.663986,-1.79091,-0.643985,2.13973,1.32713,-1.36533,1.22835,-0.663986,-1.79091,-0.643985,2.13973,1.32713,-1.36533,1.31435,-0.704619,-1.71881,-0.712913,2.16256,1.27657,-1.29407,-0.935,0.804447,-1.41952,-0.16243,0.0788065,1.12504,-1.36923,-0.935,0.804447,-1.41952,-0.16243,0.0788065,1.12504,-1.36923,0.122732,-0.487696,1.01631,0.908673,-0.130472,0.0417246,0.394399,-0.336326,0.208025,0.0685098,-0.288179,0.273687,0.0514433,0.683155,-0.387281,1.56758,-3.38259,0.262368,-0.892389,-3.38259,0.178827,-1.09239,-0.859996,0.406336,-0.721084,0.689286,-0.228246,0.505518,-0.712634,1
1.22034,-0.65486,-1.8058,-0.640154,2.12588,1.34072,-1.37803,1.22034,-0.65486,-1.8058,-0.640154,2.12588,1.34072,-1.37803,1.3063,-0.696693,-1.73269,-0.710304,2.1611,1.28805,-1.30766,-0.748745,0.776812,-1.37819,0.39281,-0.240695,1.15378,-1.35615,-0.748745,0.776812,-1.37819,0.39281,-0.240695,1.15378,-1.35615,0.119046,-0.484553,1.01764,0.913882,-0.137181,0.0473483,0.379156,-0.427633,0.245149,0.175754,-0.382599,0.325725,0.152464,0.649498,-0.384797,1.55775,-3.36573,0.248387,-0.982177,-3.36573,0.192203,-1.18218,-0.859638,0.418322,-0.731048,0.701502,-0.352183,0.526715,-0.703726,1
1.21438,-0.657022,-1.82221,-0.632781,2.10965,1.35414,-1.39107,1.21438,-0.657022,-1.82221,-0.632781,2.10965,1.35414,-1.39107,1.30019,-0.690117,-1.74663,-0.703288,2.1559,1.29926,-1.32113,-0.56368,0.612637,-1.38206,0.805707,-0.60425,1.11804,-1.34269,-0.56368,0.612637,-1.38206,0.805707,-0.60425,1.11804,-1.34269,0.114898,-0.481676,1.01922,0.919117,-0.144804,0.0532777,0.362516,-0.475573,0.194111,0.187229,-0.426164,0.279603,0.160233,0.61562,-0.383468,1.54652,-3.38781,0.132909,-1.12346,-3.38781,0.199111,-1.32346,-0.858144,0.330946,-0.755856,0.705069,-0.462449,0.548841,-0.699386,1
1.21026,-0.656464,-1.83584,-0.622287,2.10067,1.36637,-1.40472,1.21026,-0.656464,-1.83584,-0.622287,2.10067,1.36637,-1.40472,1.29584,-0.684292,-1.75978,-0.6935,2.14845,1.30999,-1.33447,-0.397826,0.573915,-1.28651,1.03024,-0.758323,1.05521,-1.33098,-0.397826,0.573915,-1.28651,1.03024,-0.758323,1.05521,-1.33098,0.11076,-0.478651,1.02114,0.923951,-0.153093,0.0591372,0.345515,-0.459958,0.224834,0.233614,-0.411366,0.312704,0.203366,0.581856,-0.381922,1.53419,-3.37639,0.154525,-1.23329,-3.37639,0.201027,-1.43329,-0.855838,0.278278,-0.760652,0.712132,-0.477844,0.563809,-0.702592,1
1.20661,-0.656858,-1.84884,-0.611659,2.09184,1.37595,-1.4181,1.20661,-0.656858,-1.84884,-0.611659,2.09184,1.37595,-1.4181,1.29199,-0.678758,-1.77218,-0.681812,2.14095,1.32033,-1.34772,-0.397622,0.545356,-1.24125,1.18315,-0.755466,1.02893,-1.32407,-0.397622,0.545356,-1.24125,1.18315,-0.755466,1.02893,-1.32407,0.106151,-0.47547,1.02346,0.928388,-0.161839,0.0643352,0.328276,-0.515018,0.230916,0.262256,-0.468139,0.318364,0.229689,0.547719,-0.380464,1.52096,-3.4137,0.145882,-1.3227,-3.4137,0.192258,-1.5227,-0.853878,0.218998,-0.766644,0.701525,-0.491028,0.556199,-0.703805,1
1.20228,-0.664415,-1.86237,-0.601126,2.08219,1.38623,-1.43173,1.20228,-0.664415,-1.86237,-0.601126,2.08219,1.38623,-1.43173,1.28747,-0.673898,-1.7847,-0.670433,2.13274,1.33083,-1.36096,-0.475462,0.473748,-1.2503,1.152,-0.844094,1.05514,-1.32423,-0.475462,0.473748,-1.2503,1.152,-0.844094,1.05514,-1.32423,0.101414,-0.472634,1.02535,0.932537,-0.170355,0.0698316,0.310607,-0.538869,0.198023,0.219366,-0.484393,0.283061,0.184998,0.514036,-0.379255,1.50686,-3.36834,0.120884,-1.40952,-3.36834,0.173061,-1.60952,-0.851903,0.0948277,-0.776749,0.69307,-0.505462,0.553965,-0.707695,1
1.19633,-0.669764,-1.87526,-0.589486,2.07238,1.39761,-1.44547,1.19633,-0.669764,-1.87526,-0.589486,2.07238,1.39761,-1.44547,1.28153,-0.669611,-1.79758,-0.658863,2.12338,1.34168,-1.37428,-0.633082,0.404202,-1.30702,1.13112,-0.964188,1.09186,-1.33627,-0.633082,0.404202,-1.30702,1.13112,-0.964188,1.09186,-1.33627,0.096092,-0.470123,1.02691,0.936539,-0.17885,0.0759094,0.291797,-0.601448,0.152855,0.171401,-0.534777,0.235511,0.134762,0.480485,-0.377619,1.49166,-3.35507,0.163576,-1.52012,-3.35507,0.153832,-1.72012,-0.851948,-0.00152943,-0.776727,0.693768,-0.509995,0.559358,-0.711821,1
1.18905,-0.667413,-1.88797,-0.577899,2.06253,1.40884,-1.45909,1.18905,-0.667413,-1.88797,-0.577899,2.06253,1.40884,-1.45909,1.27438,-0.666,-1.8109,-0.647685,2.11322,1.35293,-1.38776,-0.740979,0.359572,-1.34114,1.13255,-1.03094,1.12122,-1.35056,-0.740979,0.359572,-1.34114,1.13255,-1.03094,1.12122,-1.35056,0.0904518,-0.46804,1.02796,0.940267,-0.187101,0.0825183,0.272179,-0.648712,0.130624,0.143896,-0.573368,0.210686,0.104846,0.446667,-0.375128,1.4762,-3.38183,0.249091,-1.54663,-3.38183,0.154897,-1.74663,-0.853256,-0.0141276,-0.770656,0.697859,-0.506905,0.559036,-0.713317,1
1.18097,-0.675069,-1.90202,-0.569134,2.05281,1.41806,-1.47217,1.18097,-0.675069,-1.90202,-0.569134,2.05281,1.41806,-1.47217,1.26636,-0.662886,-1.82475,-0.636892,2.10271,1.36422,-1.40137,-0.814936,0.287053,-1.39741,1.04927,-1.0573,1.13631,-1.36361,-0.814936,0.287053,-1.39741,1.04927,-1.0573,1.13631,-1.36361,0.084644,-0.466343,1.02861,0.943655,-0.194947,0.0895545,0.251975,-0.657957,0.0824655,0.0842388,-0.573946,0.155396,0.0445117,0.412608,-0.373416,1.45923,-3.40583,0.17117,-1.69668,-3.40583,0.166383,-1.89668,-0.853883,-0.121825,-0.772689,0.677583,-0.498931,0.538431,-0.707939,1
1.1724,-0.677103,-1.91556,-0.559113,2.04409,1.42739,-1.48586,1.1724,-0.677103,-1.91556,-0.559113,2.04409,1.42739,-1.48586,1.25774,-0.66022,-1.83888,-0.626227,2.09217,1.37545,-1.41511,-0.878286,0.265397,-1.40918,1.08082,-1.04701,1.11904,-1.37841,-0.878286,0.265397,-1.40918,1.08082,-1.04701,1.11904,-1.37841,0.078641,-0.464939,1.02898,0.946632,-0.202464,0.0967391,0.231383,-0.697411,0.0775406,0.0807496,-0.609011,0.145738,0.0394925,0.378774,-0.371766,1.44134,-3.38349,0.165001,-1.78907,-3.38349,0.17389,-1.98907,-0.853404,-0.168825,-0.766819,0.671144,-0.48083,0.519442,-0.707436,1
1.16384,-0.679888,-1.9296,-0.551743,2.03501,1.43573,-1.49964,1.16384,-0.679888,-1.9296,-0.551743,2.03501,1.43573,-1.49964,1.24889,-0.657502,-1.85272,-0.616025,2.08167,1.38698,-1.42896,-0.88568,0.276567,-1.38041,1.00605,-1.05345,1.15923,-1.38674,-0.88568,0.276567,-1.38041,1.00605,-1.05345,1.15923,-1.38674,0.0727935,-0.463342,1.02927,0.948985,-0.210064,0.104006,0.210912,-0.664761,0.102723,0.0703698,-0.573008,0.168567,0.0264178,0.312234,-0.36692,1.40302,-3.31843,0.288278,-1.96068,-3.31843,0.199993,-2.16068,-0.85057,-0.223861,-0.768788,0.642812,-0.466619,0.487448,-0.706764,1
1.15465,-0.677426,-1.94369,-0.542987,2.02363,1.44544,-1.51343,1.15465,-0.677426,-1.94369,-0.542987,2.02363,1.44544,-1.51343,1.23957,-0.654848,-1.86656,-0.605179,2.07129,1.39857,-1.44282,-0.950864,0.260436,-1.38451,1.1091,-1.03084,1.16329,-1.38632,-0.950864,0.260436,-1.38451,1.1091,-1.03084,1.16329,-1.38632,0.0665671,-0.461636,1.02964,0.950834,-0.217794,0.111217,0.190028,-0.730568,0.112481,0.0850534,-0.636514,0.175405,0.0386788,0.27792,-0.365497,1.38205,-3.43139,0.142273,-2.09696,-3.43139,0.201409,-2.29696,-0.849224,-0.225786,-0.771224,0.621911,-0.476633,0.468765,-0.706027,1
1.14527,-0.678447,-1.95689,-0.532444,2.01616,1.45602,-1.52738,1.14527,-0.678447,-1.95689,-0.532444,2.01616,1.45602,-1.52738,1.23014,-0.652556,-1.88006,-0.594304,2.06113,1.4102,-1.45671,-0.930622,0.216369,-1.33063,1.0903,-1.0044,1.15024,-1.38883,-0.930622,0.216369,-1.33063,1.0903,-1.0044,1.15024,-1.38883,0.0602738,-0.459982,1.02989,0.952129,-0.225436,0.118217,0.169272,-0.716967,0.108347,0.0693132,-0.623589,0.165613,0.0224735,0.27792,-0.365497,1.38205,-3.43139,0.142273,-2.09696,-3.43139,0.201409,-2.29696,-0.848676,-0.258906,-0.768244,0.618594,-0.449728,0.458209,-0.706697,1
1.13589,-0.684917,-1.97047,-0.52458,2.00717,1.46339,-1.54013,1.13589,-0.684917,-1.97047,-0.52458,2.00717,1.46339,-1.54013,1.22058,-0.650938,-1.89353,-0.582734,2.05133,1.42125,-1.47057,-0.97288,0.13322,-1.36014,1.16304,-0.970497,1.08706,-1.38638,-0.97288,0.13322,-1.36014,1.16304,-0.970497,1.08706,-1.38638,0.0535985,-0.45865,1.03004,0.953033,-0.232668,0.124889,0.148313,-0.774643,0.0676307,0.0490197,-0.678786,0.115787,0.00330051,0.210701,-0.362061,1.33755,-3.36453,0.17319,-2.26139,-3.36453,0.193988,-2.46139,-0.846953,-0.339797,-0.769421,0.581532,-0.441534,0.421397,-0.695552,1
1.12646,-0.689711,-1.98361,-0.516267,2.00184,1.46913,-1.55346,1.12646,-0.689711,-1.98361,-0.516267,2.00184,1.46913,-1.55346,1.21103,-0.650459,-1.90693,-0.571181,2.04186,1.43184,-1.48444,-0.938523,0.0346935,-1.32693,1.15644,-0.943645,1.04295,-1.38584,-0.938523,0.0346935,-1.32693,1.15644,-0.943645,1.04295,-1.38584,0.0467351,-0.457987,1.02975,0.953584,-0.239158,0.131233,0.127508,-0.772103,0.0262896,0.0115779,-0.677602,0.0658266,-0.0321801,0.177595,-0.360441,1.31367,-3.31066,0.162077,-2.38845,-3.31066,0.18781,-2.58845,-0.845727,-0.392525,-0.766835,0.549137,-0.400218,0.372926,-0.690234,1
1.11703,-0.693413,-1.99687,-0.508984,1.99897,1.47198,-1.56711,1.11703,-0.693413,-1.99687,-0.508984,1.99897,1.47198,-1.56711,1.2017,-0.650882,-1.9204,-0.559714,2.03247,1.44198,-1.49832,-0.937133,-0.0823417,-1.35698,1.12604,-0.933195,1.00662,-1.38896,-0.937133,-0.0823417,-1.35698,1.12604,-0.933195,1.00662,-1.38896,0.0398844,-0.457848,1.02908,0.953756,-0.245003,0.137467,0.106892,-0.782631,-0.0404478,-0.0479626,-0.685983,-0.0113601,-0.0892019,0.144187,-0.35874,1.28885,-3.34072,0.170055,-2.48189,-3.34072,0.177083,-2.68189,-0.84673,-0.42531,-0.764763,0.5073,-0.334968,0.300079,-0.687953,1
1.10796,-0.698502,-2.01025,-0.502124,1.99687,1.47378,-1.58071,1.10796,-0.698502,-2.01025,-0.502124,1.99687,1.47378,-1.58071,1.19259,-0.652274,-1.93385,-0.548543,2.02331,1.45185,-1.51221,-0.899491,-0.146803,-1.33892,1.12602,-0.909668,0.971119,-1.38705,-0.899491,-0.146803,-1.33892,1.12602,-0.909668,0.971119,-1.38705,0.0330457,-0.458274,1.02796,0.95357,-0.250209,0.143506,0.0866306,-0.776145,-0.0627623,-0.0717049,-0.680657,-0.0403706,-0.111575,0.111105,-0.356925,1.26286,-3.30824,0.18146,-2.59832,-3.30824,0.167325,-2.79832,-0.846363,-0.462284,-0.763982,0.464194,-0.264477,0.219313,-0.685002,1
1.09905,-0.699821,-2.02318,-0.493416,1.99932,1.47576,-1.59421,1.09905,-0.699821,-2.02318,-0.493416,1.99932,1.47576,-1.59421,1.18389,-0.654088,-1.94721,-0.538203,2.01444,1.46119,-1.52599,-0.862844,-0.199713,-1.33934,1.00702,-0.880216,0.92739,-1.37359,-0.862844,-0.199713,-1.33934,1.00702,-0.880216,0.92739,-1.37359,0.0265995,-0.459023,1.02655,0.953017,-0.254762,0.149509,0.0670896,-0.730567,-0.100424,-0.117787,-0.635001,-0.0867723,-0.155182,0.0778667,-0.355069,1.23677,-3.32383,0.185624,-2.60909,-3.32383,0.172647,-2.80909,-0.848443,-0.457333,-0.759743,0.447872,-0.151238,0.145652,-0.68224,1
1.09018,-0.705575,-2.03641,-0.485618,2.0036,1.47387,-1.60776,1.09018,-0.705575,-2.03641,-0.485618,2.0036,1.47387,-1.60776,1.17517,-0.656443,-1.9605,-0.528075,2.00649,1.46972,-1.53968,-0.87357,-0.243921,-1.31889,1.01451,-0.756983,0.823393,-1.36581,-0.87357,-0.243921,-1.31889,1.01451,-0.756983,0.823393,-1.36581,0.0199972,-0.460145,1.02497,0.952246,-0.258598,0.155112,0.0479057,-0.758101,-0.118807,-0.122745,-0.667183,-0.113655,-0.156015,0.0449728,-0.353281,1.20974,-3.2894,0.178829,-2.70326,-3.2894,0.17513,-2.90326,-0.84992,-0.491318,-0.759108,0.424573,-0.028866,0.0414857,-0.680821,1
1.0812,-0.710439,-2.04929,-0.477765,2.01792,1.46479,-1.62178,1.0812,-0.710439,-2.04929,-0.477765,2.01792,1.46479,-1.62178,1.16643,-0.659234,-1.97369,-0.518856,1.99995,1.47686,-1.55327,-0.879346,-0.298197,-1.32598,0.900714,-0.614633,0.673917,-1.3583,-0.879346,-0.298197,-1.32598,0.900714,-0.614633,0.673917,-1.3583,0.0134024,-0.461759,1.02321,0.951414,-0.261307,0.160205,0.0293942,-0.751012,-0.170418,-0.157932,-0.664216,-0.177859,-0.184229,0.012111,-0.351788,1.18189,-3.28618,0.14925,-2.78529,-3.28618,0.174318,-2.98529,-0.852246,-0.512044,-0.756011,0.410914,0.179732,-0.120753,-0.685065,1
1.07195,-0.715499,-2.06224,-0.472036,2.01935,1.46527,-1.636,1.07195,-0.715499,-2.06224,-0.472036,2.01935,1.46527,-1.636,1.15725,-0.662771,-1.98698,-0.509646,1.99555,1.48241,-1.56683,-0.927378,-0.361196,-1.32831,0.924466,-0.375165,0.514591,-1.35628,-0.927378,-0.361196,-1.32831,0.924466,-0.375165,0.514591,-1.35628,0.00611492,-0.463947,1.02136,0.950671,-0.262846,0.164361,0.0110299,-0.823531,-0.202521,-0.161901,-0.745797,-0.220532,-0.180192,-0.021216,-0.350438,1.15277,-3.3327,0.135076,-2.91227,-3.3327,0.169845,-3.11227,-0.853005,-0.52727,-0.752687,0.376107,0.237997,-0.171439,-0.691701,1
1.0629,-0.723894,-2.07615,-0.473526,2.02189,1.46586,-1.65028,1.0629,-0.723894,-2.07615,-0.473526,2.02189,1.46586,-1.65028,1.14801,-0.666871,-2.00025,-0.50115,1.9939,1.48601,-1.58039,-0.919145,-0.430476,-1.33018,0.823249,-0.090522,0.296962,-1.35365,-0.919145,-0.430476,-1.33018,0.823249,-0.090522,0.296962,-1.35365,-0.00154269,-0.466713,1.01944,0.950151,-0.262996,0.167335,-0.00668982,-0.83838,-0.262986,-0.190505,-0.772763,-0.294356,-0.197318,-0.0541251,-0.34879,1.12302,-3.29092,0.164747,-2.9742,-3.29092,0.164664,-3.1742,-0.85115,-0.570226,-0.758993,0.276236,0.279911,-0.201513,-0.698958,1
1.05403,-0.73112,-2.08974,-0.484443,2.02948,1.45671,-1.66365,1.05403,-0.73112,-2.08974,-0.484443,2.02948,1.45671,-1.66365,1.13877,-0.671716,-2.01372,-0.492811,1.99557,1.48683,-1.59397,-0.925161,-0.50214,-1.34641,0.838385,0.257588,0.00898796,-1.35796,-0.925161,-0.50214,-1.34641,0.838385,0.257588,0.00898796,-1.35796,-0.00987891,-0.47018,1.01756,0.950047,-0.261418,0.168803,-0.0240224,-0.906182,-0.310866,-0.190033,-0.85566,-0.355834,-0.183667,-0.0867288,-0.34764,1.09137,-3.26037,0.11504,-3.16551,-3.26037,0.154494,-3.36551,-0.847376,-0.594036,-0.760197,0.0836834,0.339168,-0.301231,-0.696815,1
1.04469,-0.735547,-2.10125,-0.464624,2.04257,1.45266,-1.67738,1.04469,-0.735547,-2.10125,-0.464624,2.04257,1.45266,-1.67738,1.12986,-0.676827,-2.0271,-0.485193,2.00002,1.4861,-1.60765,-0.877788,-0.508287,-1.34431,0.729691,0.486127,-0.0843311,-1.37271,-0.877788,-0.508287,-1.34431,0.729691,0.486127,-0.0843311,-1.37271,-0.0183819,-0.473918,1.0157,0.950147,-0.258861,0.16901,-0.0405747,-0.881355,-0.321522,-0.202278,-0.842101,-0.370779,-0.189764,-0.116652,-0.34464,1.06469,-2.99234,0.300008,-2.66775,-2.99234,0.162746,-2.86775,-0.851662,-0.587198,-0.741525,0.20569,0.425459,-0.334445,-0.697344,1
1.03499,-0.73462,-2.11,-0.428258,2.05459,1.45803,-1.69113,1.03499,-0.73462,-2.11,-0.428258,2.05459,1.45803,-1.69113,1.12134,-0.682665,-2.04024,-0.478472,2.00644,1.48574,-1.6216,-0.847337,-0.612164,-1.299,0.668285,0.668647,-0.0708851,-1.39588,-0.847337,-0.612164,-1.299,0.668285,0.668647,-0.0708851,-1.39588,-0.0270064,-0.477952,1.01342,0.950257,-0.256042,0.168192,-0.056272,-0.900558,-0.36296,-0.254273,-0.87391,-0.413771,-0.23645,-0.143094,-0.334701,1.05143,-2.6442,0.993875,-1.32565,-2.6442,0.260126,-1.52566,-0.863447,-0.519554,-0.697626,0.502141,0.481507,-0.277053,-0.695326,1
1.02693,-0.742739,-2.12462,-0.425498,2.06452,1.44802,-1.70454,1.02693,-0.742739,-2.12462,-0.425498,2.06452,1.44802,-1.70454,1.1129,-0.688598,-2.05365,-0.474018,2.01298,1.48229,-1.6355,-0.837415,-0.603883,-1.33884,0.36013,0.665771,-0.356726,-1.39095,-0.837415,-0.603883,-1.33884,0.36013,0.665771,-0.356726,-1.39095,-0.0350141,-0.482846,1.01083,0.950642,-0.251067,0.167784,-0.0713701,-0.810237,-0.438571,-0.308584,-0.781917,-0.507331,-0.282745,-0.167591,-0.324258,1.03699,-2.44971,1.04426,-1.44413,-2.44971,0.422193,-1.64413,-0.859687,-0.541408,-0.709766,0.48519,0.515441,-0.342717,-0.690449,1
1.01775,-0.749373,-2.13724,-0.42486,2.07367,1.439,-1.7176,1.01775,-0.749373,-2.13724,-0.42486,2.07367,1.439,-1.7176,1.10381,-0.694332,-2.067,-0.47123,2.02031,1.47862,-1.64943,-0.951094,-0.552161,-1.33556,0.280916,0.759917,-0.36889,-1.39608,-0.951094,-0.552161,-1.33556,0.280916,0.759917,-0.36889,-1.39608,-0.0430098,-0.487799,1.00799,0.95093,-0.245582,0.167386,-0.0860456,-0.849667,-0.401332,-0.300038,-0.823591,-0.471785,-0.273957,-0.19141,-0.31405,1.02083,-2.38184,1.0208,-1.61588,-2.38184,0.611301,-1.81588,-0.860585,-0.550412,-0.702404,0.463698,0.533566,-0.396261,-0.68169,1
1.00713,-0.754099,-2.14954,-0.417404,2.08204,1.43394,-1.73175,1.00713,-0.754099,-2.14954,-0.417404,2.08204,1.43394,-1.73175,1.09334,-0.699457,-2.07995,-0.467028,2.02904,1.47461,-1.66329,-1.07007,-0.509306,-1.29179,0.455687,0.896059,-0.430712,-1.37974,-1.07007,-0.509306,-1.29179,0.455687,0.896059,-0.430712,-1.37974,-0.0522175,-0.491779,1.00585,0.95087,-0.24057,0.166291,-0.101589,-0.968903,-0.311747,-0.228073,-0.949478,-0.379968,-0.201759,-0.215764,-0.304637,1.00502,-2.43547,0.94139,-1.5811,-2.43547,0.785789,-1.7811,-0.862103,-0.546418,-0.695856,0.496242,0.530029,-0.406729,-0.684645,1
0.996821,-0.76213,-2.16241,-0.413308,2.09208,1.42687,-1.74493,0.996821,-0.76213,-2.16241,-0.413308,2.09208,1.42687,-1.74493,1.08291,-0.705617,-2.09294,-0.460689,2.03876,1.46978,-1.67701,-1.0271,-0.667742,-1.30284,0.698865,0.996403,-0.501396,-1.36902,-1.0271,-0.667742,-1.30284,0.698865,0.996403,-0.501396,-1.36902,-0.0625698,-0.495757,1.00379,0.950662,-0.235337,0.164296,-0.117754,-1.07782,-0.333946,-0.245897,-1.06856,-0.404249,-0.215569,-0.240239,-0.29489,0.988332,-2.4475,0.974625,-1.66916,-2.4475,0.924662,-1.86916,-0.860871,-0.565129,-0.694723,0.473818,0.533156,-0.429154,-0.679186,1
0.988062,-0.770885,-2.17502,-0.408456,2.10359,1.42054,-1.75788,0.988062,-0.770885,-2.17502,-0.408456,2.10359,1.42054,-1.75788,1.07403,-0.713297,-2.10593,-0.452556,2.04896,1.46436,-1.69056,-0.829641,-0.778455,-1.29605,0.836592,1.01295,-0.562302,-1.35508,-0.829641,-0.778455,-1.29605,0.836592,1.01295,-0.562302,-1.35508,-0.0732587,-0.500125,1.00144,0.950394,-0.229812,0.161442,-0.133696,-1.05146,-0.361904,-0.268206,-1.05106,-0.431599,-0.235806,-0.263836,-0.28595,0.970042,-2.35967,0.894055,-1.82899,-2.35967,0.983261,-2.02899,-0.859704,-0.575876,-0.690917,0.441002,0.546294,-0.438248,-0.673195,1
0.980638,-0.777399,-2.18724,-0.39797,2.11383,1.41443,-1.77254,0.980638,-0.777399,-2.18724,-0.39797,2.11383,1.41443,-1.77254,1.0667,-0.720768,-2.11871,-0.443836,2.05917,1.45769,-1.70405,-0.723278,-0.740068,-1.27546,0.881246,1.02384,-0.682818,-1.34905,-0.723278,-0.740068,-1.27546,0.881246,1.02384,-0.682818,-1.34905,-0.0833249,-0.504262,0.99939,0.949971,-0.224153,0.158336,-0.149129,-1.00017,-0.329266,-0.233171,-1.00426,-0.398661,-0.200463,-0.288308,-0.276133,0.951302,-2.44715,0.981647,-1.87405,-2.44715,0.969573,-2.07405,-0.860632,-0.566307,-0.685268,0.458662,0.546628,-0.432665,-0.68482,1
0.973117,-0.784865,-2.20028,-0.387971,2.12264,1.40749,-1.78632,0.973117,-0.784865,-2.20028,-0.387971,2.12264,1.40749,-1.78632,1.05919,-0.728028,-2.13138,-0.434647,2.06956,1.45051,-1.71756,-0.76055,-0.719191,-1.25703,0.939071,1.05007,-0.726382,-1.35034,-0.76055,-0.719191,-1.25703,0.939071,1.05007,-0.726382,-1.35034,-0.093608,-0.507968,0.997559,0.949225,-0.218528,0.155141,-0.164768,-1.03234,-0.279996,-0.207319,-1.03905,-0.348401,-0.175393,-0.313084,-0.265558,0.931006,-2.47768,1.05756,-2.02956,-2.47768,0.966512,-2.22956,-0.86069,-0.568371,-0.688996,0.466753,0.530883,-0.430137,-0.687661,1
0.965478,-0.792404,-2.21304,-0.380222,2.13311,1.39918,-1.7996,0.965478,-0.792404,-2.21304,-0.380222,2.13311,1.39918,-1.7996,1.05144,-0.735151,-2.14384,-0.425628,2.08015,1.44278,-1.73104,-0.776393,-0.713966,-1.25114,0.866553,1.05717,-0.777688,-1.34797,-0.776393,-0.713966,-1.25114,0.866553,1.05717,-0.777688,-1.34797,-0.103986,-0.511432,0.995783,0.948236,-0.212711,0.151899,-0.18036,-1.02276,-0.275013,-0.2212,-1.03137,-0.346162,-0.188834,-0.336908,-0.255409,0.90919,-2.38241,1.01485,-2.18166,-2.38241,0.974423,-2.38166,-0.859664,-0.572529,-0.69194,0.454062,0.529608,-0.435989,-0.685658,1
0.957327,-0.800199,-2.22576,-0.372134,2.14369,1.39018,-1.8128,0.957327,-0.800199,-2.22576,-0.372134,2.14369,1.39018,-1.8128,1.04323,-0.742594,-2.15648,-0.417273,2.09089,1.43469,-1.74452,-0.842152,-0.751993,-1.26812,0.830851,1.07899,-0.809267,-1.34951,-0.842152,-0.751993,-1.26812,0.830851,1.07899,-0.809267,-1.34951,-0.114601,-0.51504,0.993666,0.94704,-0.206357,0.148796,-0.195939,-1.0653,-0.277526,-0.252402,-1.07586,-0.352598,-0.219325,-0.360375,-0.246127,0.887088,-2.34663,0.928184,-2.21011,-2.34663,0.981721,-2.41011,-0.858999,-0.576055,-0.69284,0.451391,0.528014,-0.445104,-0.682825,1
0.9487,-0.807163,-2.23782,-0.361196,2.1539,1.38408,-1.82695,0.9487,-0.807163,-2.23782,-0.361196,2.1539,1.38408,-1.82695,1.03471,-0.750194,-2.16906,-0.409347,2.10163,1.4268,-1.75809,-0.846934,-0.762036,-1.25323,0.767836,1.06992,-0.786724,-1.35793,-0.846934,-0.762036,-1.25323,0.767836,1.06992,-0.786724,-1.35793,-0.125346,-0.518541,0.991314,0.945549,-0.199929,0.145786,-0.211454,-1.05507,-0.270942,-0.276291,-1.06743,-0.345855,-0.244208,-0.384826,-0.236442,0.865384,-2.44508,0.968575,-2.1705,-2.44508,0.984696,-2.3705,-0.860077,-0.569688,-0.687531,0.481516,0.522654,-0.427168,-0.688662,1
0.940311,-0.815921,-2.25108,-0.355321,2.16442,1.37571,-1.84011,0.940311,-0.815921,-2.25108,-0.355321,2.16442,1.37571,-1.84011,1.02618,-0.757773,-2.18166,-0.401839,2.11214,1.41872,-1.77172,-0.861376,-0.75554,-1.26294,0.759975,1.04407,-0.806391,-1.36547,-0.861376,-0.75554,-1.26294,0.759975,1.04407,-0.806391,-1.36547,-0.13599,-0.52195,0.988827,0.943776,-0.193333,0.142993,-0.226853,-1.05816,-0.249038,-0.279325,-1.07068,-0.324806,-0.248554,-0.40807,-0.227605,0.841469,-2.32447,0.883646,-2.39143,-2.32447,0.978027,-2.59143,-0.858699,-0.581487,-0.6942,0.465181,0.522774,-0.430138,-0.683956,1
0.931316,-0.823438,-2.26376,-0.346474,2.1734,1.36821,-1.85423,0.931316,-0.823438,-2.26376,-0.346474,2.1734,1.36821,-1.85423,1.01719,-0.765389,-2.19433,-0.394162,2.12259,1.41073,-1.78535,-0.909134,-0.764133,-1.26416,0.775818,1.04831,-0.800207,-1.36292,-0.909134,-0.764133,-1.26416,0.775818,1.04831,-0.800207,-1.36292,-0.146946,-0.52503,0.986296,0.941603,-0.186807,0.140322,-0.242479,-1.09154,-0.217547,-0.283993,-1.10547,-0.292901,-0.254441,-0.432457,-0.218118,0.816591,-2.43865,0.948757,-2.4878,-2.43865,0.960428,-2.6878,-0.858733,-0.58049,-0.694377,0.476885,0.508087,-0.425195,-0.688818,1
0.922032,-0.830575,-2.2765,-0.337122,2.18178,1.36181,-1.86835,0.922032,-0.830575,-2.2765,-0.337122,2.18178,1.36181,-1.86835,1.00796,-0.772797,-2.20702,-0.386426,2.13292,1.40259,-1.79894,-0.927746,-0.734975,-1.27452,0.775171,1.02764,-0.816505,-1.3571,-0.927746,-0.734975,-1.27452,0.775171,1.02764,-0.816505,-1.3571,-0.157982,-0.52773,0.983844,0.939056,-0.180346,0.137817,-0.258179,-1.09091,-0.17953,-0.272256,-1.10471,-0.254563,-0.24446,-0.457808,-0.207664,0.790786,-2.53516,1.04535,-2.58056,-2.53516,0.952809,-2.78056,-0.859261,-0.577773,-0.694782,0.493041,0.4886,-0.407801,-0.694118,1
0.912803,-0.838831,-2.28926,-0.329301,2.19298,1.35262,-1.88143,0.912803,-0.838831,-2.28926,-0.329301,2.19298,1.35262,-1.88143,0.99863,-0.780129,-2.2197,-0.378185,2.14326,1.39436,-1.81253,-0.930706,-0.730169,-1.26832,0.831738,1.03165,-0.811304,-1.35773,-0.930706,-0.730169,-1.26832,0.831738,1.03165,-0.811304,-1.35773,-0.169177,-0.529984,0.981517,0.936113,-0.174083,0.135299,-0.274012,-1.1028,-0.135567,-0.258021,-1.11848,-0.20764,-0.231864,-0.481342,-0.197607,0.764272,-2.35341,1.00573,-2.65139,-2.35341,0.959493,-2.85139,-0.858267,-0.587019,-0.695565,0.488833,0.497239,-0.417412,-0.689014,1
0.903917,-0.847543,-2.30246,-0.323583,2.20415,1.34366,-1.89463,0.903917,-0.847543,-2.30246,-0.323583,2.20415,1.34366,-1.89463,0.989552,-0.787666,-2.23245,-0.369764,2.15353,1.38614,-1.82609,-0.905447,-0.768483,-1.28045,0.834694,1.02182,-0.834778,-1.35703,-0.905447,-0.768483,-1.28045,0.834694,1.02182,-0.834778,-1.35703,-0.180344,-0.532099,0.979076,0.93288,-0.167835,0.132815,-0.289701,-1.10073,-0.138992,-0.281743,-1.11871,-0.212382,-0.255831,-0.504608,-0.18874,0.735767,-2.32652,0.886647,-2.85051,-2.32652,0.963472,-3.05051,-0.85635,-0.598763,-0.700085,0.461812,0.506247,-0.424809,-0.685377,1
0.894855,-0.854767,-2.31462,-0.312591,2.21385,1.33691,-1.90848,0.894855,-0.854767,-2.31462,-0.312591,2.21385,1.33691,-1.90848,0.980634,-0.795608,-2.24528,-0.361439,2.16355,1.37784,-1.83973,-0.885782,-0.792523,-1.27948,0.84379,0.991926,-0.826629,-1.3653,-0.885782,-0.792523,-1.27948,0.84379,0.991926,-0.826629,-1.3653,-0.19151,-0.534274,0.976339,0.929376,-0.161385,0.130469,-0.305275,-1.09422,-0.128989,-0.297011,-1.11329,-0.201789,-0.272343,-0.528299,-0.17786,0.707994,-2.36911,1.08802,-2.77728,-2.36911,0.978519,-2.97728,-0.857784,-0.591583,-0.693439,0.488479,0.503034,-0.409252,-0.687509,1
0.885997,-0.862832,-2.32757,-0.302978,2.22135,1.33134,-1.92264,0.885997,-0.862832,-2.32757,-0.302978,2.22135,1.33134,-1.92264,0.971845,-0.803558,-2.25802,-0.352769,2.17339,1.36968,-1.85345,-0.881156,-0.803464,-1.27785,0.866056,0.978907,-0.805405,-1.37228,-0.881156,-0.803464,-1.27785,0.866056,0.978907,-0.805405,-1.37228,-0.202638,-0.536106,0.973635,0.925506,-0.155186,0.128174,-0.320822,-1.09458,-0.10362,-0.301355,-1.11466,-0.174381,-0.278208,-0.553538,-0.168619,0.679105,-2.52395,0.924133,-2.88892,-2.52395,0.987136,-3.08892,-0.858476,-0.592739,-0.695463,0.497913,0.47955,-0.38344,-0.691997,1
0.877802,-0.874287,-2.34156,-0.304559,2.23506,1.3192,-1.93361,0.877802,-0.874287,-2.34156,-0.304559,2.23506,1.3192,-1.93361,0.963005,-0.811841,-2.27073,-0.344658,2.18282,1.36157,-1.8667,-0.878412,-0.832034,-1.25563,0.794452,0.933291,-0.806855,-1.3083,-0.878412,-0.832034,-1.25563,0.794452,0.933291,-0.806855,-1.3083,-0.213724,-0.538052,0.970558,0.921478,-0.148684,0.126181,-0.335931,-1.0804,-0.116624,-0.33782,-1.10176,-0.189525,-0.315203,-0.575431,-0.162058,0.647187,-2.18923,0.656107,-3.19171,-2.18923,0.950061,-3.39171,-0.852024,-0.624462,-0.708334,0.400987,0.52245,-0.423696,-0.669068,1
0.868713,-0.879692,-2.35318,-0.290126,2.23977,1.31623,-1.94873,0.868713,-0.879692,-2.35318,-0.290126,2.23977,1.31623,-1.94873,0.954395,-0.819665,-2.28299,-0.336572,2.19215,1.35365,-1.87965,-0.859908,-0.773384,-1.22318,0.814489,0.939101,-0.790713,-1.2972,-0.859908,-0.773384,-1.22318,0.814489,0.939101,-0.790713,-1.2972,-0.224479,-0.539515,0.967723,0.917253,-0.142582,0.124188,-0.350563,-1.05011,-0.0604397,-0.298502,-1.07251,-0.12771,-0.27795,-0.601005,-0.150924,0.616557,-2.55743,1.11338,-3.06305,-2.55743,0.933715,-3.26305,-0.85682,-0.600267,-0.701809,0.464462,0.476242,-0.37429,-0.690855,1
0.8599,-0.890013,-2.36623,-0.284935,2.25094,1.30594,-1.96061,0.8599,-0.890013,-2.36623,-0.284935,2.25094,1.30594,-1.96061,0.94524,-0.82774,-2.29552,-0.328444,2.20185,1.34571,-1.89292,-0.932459,-0.82259,-1.26287,0.816586,0.976203,-0.793409,-1.33694,-0.932459,-0.82259,-1.26287,0.816586,0.976203,-0.793409,-1.33694,-0.23566,-0.540744,0.964714,0.912629,-0.136369,0.122159,-0.365498,-1.10811,-0.0443869,-0.331513,-1.13284,-0.113831,-0.311078,-0.624768,-0.139965,0.584298,-2.37633,1.09584,-3.22589,-2.37633,0.944139,-3.42589,-0.853396,-0.622728,-0.707045,0.435085,0.490859,-0.397665,-0.676904,1
0.851083,-0.898534,-2.3792,-0.280769,2.26002,1.29912,-1.97401,0.851083,-0.898534,-2.3792,-0.280769,2.26002,1.29912,-1.97401,0.936247,-0.835724,-2.30796,-0.320447,2.21129,1.33811,-1.90616,-0.880413,-0.782061,-1.23109,0.800228,0.933943,-0.746768,-1.31364,-0.880413,-0.782061,-1.23109,0.800228,0.933943,-0.746768,-1.31364,-0.246608,-0.54173,0.961675,0.907746,-0.130392,0.120292,-0.380164,-1.05098,-0.0163621,-0.313707,-1.07488,-0.0810006,-0.295589,-0.649319,-0.131625,0.549087,-2.45506,0.834048,-3.52111,-2.45506,0.94582,-3.72111,-0.851647,-0.628095,-0.712417,0.39678,0.487251,-0.389866,-0.678487,1
0.842276,-0.906871,-2.39119,-0.273263,2.27198,1.28938,-1.98592,0.842276,-0.906871,-2.39119,-0.273263,2.27198,1.28938,-1.98592,0.927312,-0.843786,-2.32039,-0.312391,2.22072,1.33057,-1.91925,-0.911296,-0.82132,-1.25567,0.793817,0.949244,-0.754378,-1.31317,-0.911296,-0.82132,-1.25567,0.793817,0.949244,-0.754378,-1.31317,-0.257525,-0.542515,0.958573,0.90263,-0.124469,0.118482,-0.394624,-1.078,-0.00868866,-0.34216,-1.10396,-0.0749351,-0.324313,-0.6716,-0.12188,0.516423,-2.22813,0.974526,-3.26643,-2.22813,0.94293,-3.46643,-0.850362,-0.630841,-0.707928,0.391278,0.512551,-0.411869,-0.66666,1
0.832943,-0.91492,-2.40428,-0.265118,2.27913,1.28328,-2.00025,0.832943,-0.91492,-2.40428,-0.265118,2.27913,1.28328,-2.00025,0.918026,-0.852194,-2.33318,-0.304739,2.23035,1.32265,-1.93263,-0.918486,-0.830536,-1.27479,0.762802,0.972541,-0.804315,-1.34401,-0.918486,-0.830536,-1.27479,0.762802,0.972541,-0.804315,-1.34401,-0.268714,-0.543366,0.955127,0.897209,-0.118057,0.116776,-0.409196,-1.08088,-0.00400431,-0.357403,-1.10982,-0.0724875,-0.3396,-0.696354,-0.111943,0.482019,-2.47539,0.993624,-3.44031,-2.47539,0.963144,-3.64031,-0.850821,-0.627262,-0.710988,0.396211,0.487729,-0.393648,-0.676203,1
0.824449,-0.924698,-2.41801,-0.264367,2.28943,1.27422,-2.01294,0.824449,-0.924698,-2.41801,-0.264367,2.28943,1.27422,-2.01294,0.909107,-0.860201,-2.34609,-0.297028,2.24015,1.31466,-1.94617,-0.893607,-0.811985,-1.30166,0.768579,0.985196,-0.805645,-1.35589,-0.893607,-0.811985,-1.30166,0.768579,0.985196,-0.805645,-1.35589,-0.279551,-0.543879,0.951903,0.891528,-0.111901,0.115103,-0.423565,-1.05821,0.0187585,-0.348124,-1.0877,-0.0479403,-0.331619,-0.72047,-0.106282,0.443144,-2.41156,0.566119,-3.88758,-2.41156,0.940616,-4.08758,-0.846579,-0.64497,-0.719194,0.326604,0.492826,-0.404436,-0.667677,1
0.815251,-0.932637,-2.43052,-0.256598,2.30074,1.26553,-2.02551,0.815251,-0.932637,-2.43052,-0.256598,2.30074,1.26553,-2.02551,0.899999,-0.868684,-2.3591,-0.290174,2.24982,1.3069,-1.95927,-0.906406,-0.845635,-1.29832,0.657224,0.951046,-0.771227,-1.29017,-0.906406,-0.845635,-1.29832,0.657224,0.951046,-0.771227,-1.29017,-0.290474,-0.544634,0.948115,0.885787,-0.105312,0.113681,-0.437455,-1.0506,-0.00491367,-0.402463,-1.08095,-0.0744225,-0.386743,-0.74397,-0.0945377,0.408581,-2.35009,1.17446,-3.45625,-2.35009,0.915022,-3.65625,-0.847482,-0.639533,-0.714133,0.335763,0.509248,-0.413642,-0.662386,1
0.806952,-0.940985,-2.44397,-0.259429,2.30976,1.25798,-2.03758,0.806952,-0.940985,-2.44397,-0.259429,2.30976,1.25798,-2.03758,0.891289,-0.876462,-2.37155,-0.283861,2.259,1.29933,-1.97159,-0.869927,-0.759447,-1.22997,0.632093,0.911988,-0.745354,-1.21505,-0.869927,-0.759447,-1.22997,0.632093,0.911988,-0.745354,-1.21505,-0.300734,-0.545103,0.944605,0.880122,-0.0990481,0.112471,-0.450471,-0.985888,0.037594,-0.354006,-1.0153,-0.0259843,-0.340299,-0.76775,-0.084654,0.36967,-2.37793,0.988372,-3.89116,-2.37793,0.913237,-4.09116,-0.843366,-0.645231,-0.72415,0.244317,0.507647,-0.413537,-0.659849,1
0.79793,-0.949775,-2.45631,-0.257918,2.31932,1.2491,-2.04901,0.79793,-0.949775,-2.45631,-0.257918,2.31932,1.2491,-2.04901,0.88209,-0.884601,-2.38394,-0.277616,2.2683,1.29174,-1.9839,-0.940381,-0.834239,-1.25114,0.615496,0.938084,-0.76883,-1.24461,-0.940381,-0.834239,-1.25114,0.615496,0.938084,-0.76883,-1.24461,-0.311376,-0.545405,0.940837,0.874192,-0.0925929,0.111221,-0.463513,-1.04866,0.039504,-0.407863,-1.08219,-0.0279219,-0.393916,-0.792171,-0.0743009,0.329708,-2.44215,1.03531,-3.99612,-2.44215,0.942248,-4.19612,-0.841603,-0.651742,-0.723682,0.196981,0.510227,-0.426378,-0.651128,1
0.789018,-0.957951,-2.4685,-0.256254,2.33196,1.23969,-2.06112,0.789018,-0.957951,-2.4685,-0.256254,2.33196,1.23969,-2.06112,0.872834,-0.892801,-2.39658,-0.27163,2.27811,1.28356,-1.99685,-0.91243,-0.805731,-1.27258,0.591856,0.986681,-0.828454,-1.30936,-0.91243,-0.805731,-1.27258,0.591856,0.986681,-0.828454,-1.30936,-0.322126,-0.545664,0.936943,0.86796,-0.085781,0.10986,-0.476674,-1.02478,0.0500576,-0.397699,-1.06161,-0.0173455,-0.38416,-0.813588,-0.0655879,0.290963,-2.14165,0.871301,-3.87449,-2.14165,0.949246,-4.07449,-0.838156,-0.651497,-0.719202,0.153763,0.538507,-0.438701,-0.6427,1
0.780197,-0.966852,-2.48156,-0.258102,2.34316,1.23053,-2.07362,0.780197,-0.966852,-2.48156,-0.258102,2.34316,1.23053,-2.07362,0.863761,-0.90101,-2.40959,-0.26614,2.28836,1.27515,-2.01022,-0.914683,-0.843063,-1.3134,0.532137,1.03909,-0.839204,-1.34255,-0.914683,-0.843063,-1.3134,0.532137,1.03909,-0.839204,-1.34255,-0.33277,-0.545981,0.932864,0.861524,-0.0787134,0.108514,-0.489699,-1.03454,0.0348969,-0.442312,-1.07523,-0.034776,-0.429043,-0.834533,-0.0555071,0.251577,-2.09448,1.00808,-3.9386,-2.09448,0.967624,-4.1386,-0.835643,-0.658428,-0.719664,0.0803825,0.547974,-0.446264,-0.633942,1
0.771936,-0.976572,-2.49464,-0.277411,2.35781,1.21881,-2.08423,0.771936,-0.976572,-2.49464,-0.277411,2.35781,1.21881,-2.08423,0.854586,-0.909472,-2.42298,-0.261719,2.29888,1.26668,-2.02361,-0.913628,-0.831606,-1.34633,0.414077,1.04917,-0.851704,-1.33595,-0.913628,-0.831606,-1.34633,0.414077,1.04917,-0.851704,-1.33595,-0.34347,-0.546574,0.928265,0.855001,-0.071089,0.107348,-0.50239,-1.01615,0.0177351,-0.473682,-1.05871,-0.0552091,-0.461423,-0.851699,-0.0472336,0.209264,-1.7166,0.827354,-4.23137,-1.7166,0.979548,-4.43137,-0.826499,-0.671001,-0.716629,-0.156925,0.589329,-0.478769,-0.606189,1
0.761969,-0.981363,-2.50976,-0.263773,2.35744,1.21741,-2.10287,0.761969,-0.981363,-2.50976,-0.263773,2.35744,1.21741,-2.10287,0.845391,-0.917222,-2.43635,-0.257989,2.30952,1.25807,-2.03673,-0.925325,-0.769191,-1.33203,0.351422,1.07111,-0.847893,-1.30426,-0.925325,-0.769191,-1.33203,0.351422,1.07111,-0.847893,-1.30426,-0.353857,-0.546891,0.923888,0.848409,-0.0635057,0.106305,-0.514654,-0.993055,0.0484197,-0.453035,-1.03682,-0.0221557,-0.44206,-0.881437,-0.038078,0.166657,-2.97383,0.915557,-4.26064,-2.97383,0.939335,-4.46064,-0.834213,-0.641409,-0.734173,-0.0578446,0.479181,-0.406634,-0.661403,1
0.753589,-0.991995,-2.52207,-0.27802,2.3766,1.20339,-2.11188,0.753589,-0.991995,-2.52207,-0.27802,2.3766,1.20339,-2.11188,0.835921,-0.925251,-2.44975,-0.255671,2.32039,1.24949,-2.04954,-0.951152,-0.810573,-1.33648,0.201016,1.09581,-0.863125,-1.27198,-0.951152,-0.810573,-1.33648,0.201016,1.09581,-0.863125,-1.27198,-0.364403,-0.547513,0.918879,0.841888,-0.0552608,0.105353,-0.526376,-1.01021,0.0116323,-0.527799,-1.0594,-0.0642306,-0.517267,-0.90383,-0.0278572,0.124049,-2.23932,1.02208,-4.26083,-2.23932,0.932823,-4.46083,-0.823317,-0.667437,-0.723277,-0.22349,0.562103,-0.461024,-0.623451,1
