Afshin1997/kuka_rl_ros2/src/catch_and_throw/output_files/tm/nn_ema7.00_jvws1_realball_D29H10M16S11/recorded_data.csv
pure_target_joint_0,pure_target_joint_1,pure_target_joint_2,pure_target_joint_3,pure_target_joint_4,pure_target_joint_5,pure_target_joint_6,target_joint_0,target_joint_1,target_joint_2,target_joint_3,target_joint_4,target_joint_5,target_joint_6,pos_joint_0,pos_joint_1,pos_joint_2,pos_joint_3,pos_joint_4,pos_joint_5,pos_joint_6,vel_joint_0,vel_joint_1,vel_joint_2,vel_joint_3,vel_joint_4,vel_joint_5,vel_joint_6,vel_smooth_joint_0,vel_smooth_joint_1,vel_smooth_joint_2,vel_smooth_joint_3,vel_smooth_joint_4,vel_smooth_joint_5,vel_smooth_joint_6,ee_pos_x,ee_pos_y,ee_pos_z,ee_or_w,ee_or_x,ee_or_y,ee_or_z,eep_vel_x,eep_vel_y,eep_vel_z,ee_vel_offset_x,ee_vel_offset_y,ee_vel_offset_z,ball_pos_x,ball_pos_y,ball_pos_z,ball_raw_vx,ball_raw_vy,ball_raw_vz,ball_ema_vx,ball_ema_vy,ball_ema_vz,action_0,action_1,action_2,action_3,action_4,action_5,action_6,command_published
1.7373,-1.08263,-1.86585,-1.08989,2.00979,1.16477,-0.973262,1.7373,-1.08263,-1.86585,-1.08989,2.00979,1.16477,-0.973262,1.78076,-1.07208,-1.8151,-1.1197,1.93714,1.11686,-0.916317,-1.1977e-05,0,0,0,0,0,0,-1.1977e-05,0,0,0,0,0,0,0.533552,-0.455618,0.691955,0.572559,0.178273,0.150729,0.785924,-5.47533e-06,-6.13832e-06,0,-5.45708e-06,-6.39052e-06,0,2.98918,-0.520023,0.374505,-3.88677,0.270689,5.03556,-3.88677,0.304108,5.03556,-0.434544,-0.105506,-0.507496,0.298143,0.726504,0.479103,-0.569453,1
1.70569,-1.02297,-1.83975,-1.08038,2.00331,1.17097,-0.970579,1.70569,-1.02297,-1.83975,-1.08038,2.00331,1.17097,-0.970579,1.78076,-1.07208,-1.8151,-1.1197,1.93714,1.11686,-0.916317,-2.39541e-05,-1.1977e-05,-1.19989e-05,4.793e-05,-3.83615e-05,2.39541e-05,0,-2.39541e-05,-1.1977e-05,-1.19989e-05,4.793e-05,-3.83615e-05,2.39541e-05,0,0.533552,-0.455618,0.691956,0.572559,0.178273,0.150729,0.785924,-1.83913e-05,-3.02022e-05,9.25886e-07,-1.92244e-05,-2.99167e-05,1.33876e-06,2.94989,-0.517232,0.423392,-3.92852,0.279093,4.88868,-3.92852,0.301086,4.88868,-0.750665,0.491074,-0.2465,0.393221,0.661734,0.541118,-0.542625,1
1.72041,-1.03649,-1.86954,-1.07564,2.00664,1.15041,-0.971927,1.72041,-1.03649,-1.86954,-1.07564,2.00664,1.15041,-0.971927,1.78079,-1.07201,-1.81509,-1.11984,1.93714,1.11686,-0.916317,0.00734616,0.0121997,0.00135419,-0.0300557,-0.000230064,-1.19989e-05,-5.99289e-05,0.00734616,0.0121997,0.00135419,-0.0300557,-0.000230064,-1.19989e-05,-5.99289e-05,0.533584,-0.455525,0.691963,0.5725,0.178267,0.150776,0.785959,0.00722558,0.0184995,9.7634e-05,0.00765199,0.019526,-0.000156994,2.91076,-0.513934,0.471473,-3.91309,0.329846,4.80811,-3.91309,0.297655,4.80811,-0.603747,0.355239,-0.544497,0.442064,0.695004,0.335559,-0.556097,1
1.70315,-1.02342,-1.82094,-1.06926,2.00422,1.16347,-0.975209,1.70315,-1.02342,-1.82094,-1.06926,2.00422,1.16347,-0.975209,1.78068,-1.07175,-1.81575,-1.11967,1.93807,1.11786,-0.917419,-0.0327282,0.0233088,-0.119468,0.0581461,0.167277,0.176584,-0.195698,-0.0327282,0.0233088,-0.119468,0.0581461,0.167277,0.176584,-0.195698,0.533356,-0.455754,0.692001,0.573117,0.17796,0.150538,0.785625,-0.0441813,-0.0631178,-0.00314705,-0.050101,-0.0676041,1.97732e-05,2.8733,-0.511345,0.518124,-3.74572,0.258875,4.66511,-3.74572,0.29206,4.66511,-0.775295,0.483249,-0.0519386,0.504094,0.661451,0.456106,-0.577902,1
1.69867,-1.0283,-1.819,-1.04477,2.00833,1.17619,-0.994833,1.69867,-1.0283,-1.819,-1.04477,2.00833,1.17619,-0.994833,1.78015,-1.07167,-1.81967,-1.11762,1.94467,1.12373,-0.924001,-0.0349572,0.0094913,-0.469639,0.249925,0.848502,0.718174,-0.803128,-0.0349572,0.0094913,-0.469639,0.249925,0.848502,0.718174,-0.803128,0.531913,-0.458131,0.691689,0.576948,0.176674,0.148004,0.783589,-0.139412,-0.25147,-0.0476101,-0.16608,-0.277731,-0.0334276,2.83468,-0.508581,0.563759,-3.86205,0.276417,4.5635,-3.86205,0.286824,4.5635,-0.814801,0.433695,0.00668168,0.728543,0.636578,0.52454,-0.708329,1
1.69949,-1.02461,-1.78524,-1.03972,2.02288,1.19141,-1.00659,1.69949,-1.02461,-1.78524,-1.03972,2.02288,1.19141,-1.00659,1.78065,-1.07086,-1.8258,-1.11382,1.95807,1.13308,-0.934817,0.062736,0.108718,-0.673127,0.428798,1.47763,0.968375,-1.14632,0.062736,0.108718,-0.673127,0.428798,1.47763,0.968375,-1.14632,0.529913,-0.461545,0.691833,0.582732,0.174575,0.142888,0.780724,-0.171284,-0.328786,0.00353367,-0.213478,-0.372136,0.0251103,2.79682,-0.505924,0.608114,-3.78656,0.265682,4.43556,-3.78656,0.282821,4.43556,-0.811609,0.462461,0.405582,0.741026,0.648102,0.583349,-0.71772,1
1.69885,-1.01743,-1.79038,-1.03327,2.03758,1.20076,-1.01771,1.69885,-1.01743,-1.79038,-1.03327,2.03758,1.20076,-1.01771,1.78139,-1.06913,-1.83393,-1.10813,1.97466,1.14186,-0.946771,0.0877944,0.201115,-0.814945,0.608473,1.67507,0.854683,-1.18998,0.0877944,0.201115,-0.814945,0.608473,1.67507,0.854683,-1.18998,0.527655,-0.466068,0.692263,0.589752,0.173089,0.137031,0.776824,-0.188876,-0.402169,0.0475066,-0.229574,-0.452702,0.0674107,2.75895,-0.503127,0.652222,-3.78702,0.279742,4.41071,-3.78702,0.280925,4.41071,-0.825383,0.516994,0.435513,0.748599,0.629152,0.588951,-0.709415,1
1.69901,-1.00916,-1.79531,-1.02598,2.05045,1.20814,-1.02752,1.69901,-1.00916,-1.79531,-1.02598,2.05045,1.20814,-1.02752,1.78237,-1.06668,-1.83976,-1.10122,1.98964,1.15004,-0.958133,0.0746121,0.244257,-0.494949,0.724598,1.4156,0.800588,-1.12492,0.0746121,0.244257,-0.494949,0.724598,1.4156,0.800588,-1.12492,0.525147,-0.469994,0.694177,0.596744,0.170421,0.131335,0.773049,-0.220473,-0.347944,0.205264,-0.271092,-0.38755,0.228691,2.7206,-0.49989,0.695634,-3.83434,0.323638,4.34127,-3.83434,0.282362,4.34127,-0.833582,0.575211,0.44458,0.752461,0.608173,0.580989,-0.693824,1
1.69749,-1.00354,-1.79809,-1.01743,2.06076,1.21094,-1.03701,1.69749,-1.00354,-1.79809,-1.01743,2.06076,1.21094,-1.03701,1.78152,-1.06503,-1.84207,-1.09328,2.00119,1.15747,-0.969569,-0.13017,0.132638,-0.129367,0.818288,1.07698,0.720583,-1.15329,-0.13017,0.132638,-0.129367,0.818288,1.07698,0.720583,-1.15329,0.521592,-0.474362,0.697038,0.604434,0.166674,0.125719,0.768813,-0.324788,-0.412749,0.280815,-0.382918,-0.448343,0.306495,2.68287,-0.49676,0.738063,-3.77359,0.312993,4.24286,-3.77359,0.285301,4.24286,-0.840304,0.614904,0.439813,0.758417,0.595768,0.534633,-0.674371,1
1.69527,-1.00193,-1.79353,-1.00872,2.07005,1.21752,-1.04752,1.69527,-1.00193,-1.79353,-1.00872,2.07005,1.21752,-1.04752,1.77962,-1.06441,-1.83942,-1.08459,2.01057,1.16468,-0.981592,-0.206519,0.0398227,0.395794,0.894686,0.912333,0.738846,-1.2188,-0.206519,0.0398227,0.395794,0.894686,0.912333,0.738846,-1.2188,0.517166,-0.478619,0.701186,0.612274,0.161456,0.119177,0.764754,-0.391885,-0.386589,0.420705,-0.469333,-0.419933,0.453239,2.64471,-0.49388,0.779537,-3.81527,0.288039,4.14746,-3.81527,0.293108,4.14746,-0.843495,0.624893,0.458903,0.758736,0.594756,0.528333,-0.659272,1
1.69174,-1.00124,-1.78374,-0.998979,2.07826,1.22404,-1.05911,1.69174,-1.00124,-1.78374,-0.998979,2.07826,1.22404,-1.05911,1.77647,-1.06448,-1.83266,-1.07477,2.01949,1.17246,-0.994033,-0.358817,-0.0134586,0.742921,0.991887,0.897363,0.785094,-1.24989,-0.358817,-0.0134586,0.742921,0.991887,0.897363,0.785094,-1.24989,0.511495,-0.483253,0.706638,0.620459,0.154789,0.111034,0.760751,-0.507975,-0.441743,0.526051,-0.602728,-0.478461,0.563274,2.60638,-0.491072,0.819924,-3.83377,0.280747,4.03866,-3.83377,0.296357,4.03866,-0.847288,0.632463,0.48921,0.757957,0.587706,0.515751,-0.650797,1
1.68703,-0.999719,-1.77516,-0.989341,2.08712,1.23064,-1.07069,1.68703,-0.999719,-1.77516,-0.989341,2.08712,1.23064,-1.07069,1.77192,-1.06449,-1.82462,-1.06485,2.02905,1.18035,-1.00646,-0.478758,0.0122722,0.807026,1.00028,0.97949,0.783189,-1.23533,-0.478758,0.0122722,0.807026,1.00028,0.97949,0.783189,-1.23533,0.504837,-0.488434,0.712519,0.628881,0.147877,0.101999,0.756464,-0.587727,-0.489012,0.556708,-0.687925,-0.529131,0.593054,2.56792,-0.48821,0.859483,-3.84541,0.28623,3.95594,-3.84541,0.297359,3.95594,-0.848971,0.647748,0.494579,0.755092,0.580623,0.502976,-0.642365,1
1.68203,-0.996418,-1.76681,-0.979436,2.09802,1.23912,-1.08205,1.68203,-0.996418,-1.76681,-0.979436,2.09802,1.23912,-1.08205,1.76671,-1.06334,-1.81696,-1.05421,2.03957,1.18837,-1.0185,-0.534198,0.165374,0.755768,1.06334,1.06877,0.798433,-1.19392,-0.534198,0.165374,0.755768,1.06334,1.06877,0.798433,-1.19392,0.497421,-0.493913,0.719025,0.637649,0.140665,0.0927051,0.75168,-0.6539,-0.498732,0.635363,-0.758609,-0.535701,0.670394,2.52956,-0.485151,0.897551,-3.83594,0.305891,3.80675,-3.83594,0.296337,3.80675,-0.846769,0.669222,0.501458,0.747697,0.584562,0.507501,-0.635504,1
1.67648,-0.991624,-1.76074,-0.969844,2.10955,1.246,-1.09281,1.67648,-0.991624,-1.76074,-0.969844,2.10955,1.246,-1.09281,1.76094,-1.06049,-1.81047,-1.04395,2.05056,1.19605,-1.03011,-0.592335,0.321161,0.61622,1.01785,1.10463,0.761437,-1.15051,-0.592335,0.321161,0.61622,1.01785,1.10463,0.761437,-1.15051,0.489663,-0.499107,0.725909,0.64645,0.133519,0.0840381,0.746466,-0.687493,-0.480515,0.660188,-0.78789,-0.51187,0.691173,2.49145,-0.482023,0.934298,-3.81167,0.312796,3.67475,-3.81167,0.294603,3.67475,-0.844517,0.688624,0.497264,0.741094,0.589899,0.499491,-0.627035,1
1.67006,-0.98597,-1.75454,-0.959869,2.12056,1.25183,-1.10287,1.67006,-0.98597,-1.75454,-0.959869,2.12056,1.25183,-1.10287,1.75451,-1.05639,-1.80459,-1.03354,2.0616,1.20332,-1.04147,-0.659964,0.430652,0.582184,1.03332,1.09694,0.718532,-1.1348,-0.659964,0.430652,0.582184,1.03332,1.09694,0.718532,-1.1348,0.481415,-0.504214,0.733237,0.65548,0.12627,0.0758355,0.74071,-0.737854,-0.474874,0.707592,-0.837878,-0.50115,0.736085,2.45354,-0.478959,0.970044,-3.79086,0.306389,3.57452,-3.79086,0.296562,3.57452,-0.844467,0.70418,0.500547,0.736684,0.589622,0.485106,-0.614022,1
1.66309,-0.980818,-1.74931,-0.949763,2.1305,1.25737,-1.11338,1.66309,-0.980818,-1.74931,-0.949763,2.1305,1.25737,-1.11338,1.74769,-1.0519,-1.79881,-1.02351,2.07224,1.21022,-1.05278,-0.68482,0.455843,0.587146,0.995255,1.05374,0.691699,-1.13082,-0.68482,0.455843,0.587146,0.995255,1.05374,0.691699,-1.13082,0.472987,-0.509059,0.740554,0.664396,0.119099,0.0680064,0.73469,-0.751587,-0.447486,0.707275,-0.850437,-0.469732,0.733184,2.41514,-0.475874,1.00459,-3.8394,0.308543,3.45438,-3.8394,0.301539,3.45438,-0.845989,0.710858,0.495048,0.737516,0.582637,0.471463,-0.605981,1
1.65589,-0.975398,-1.74137,-0.94025,2.14046,1.2634,-1.12365,1.65589,-0.975398,-1.74137,-0.94025,2.14046,1.2634,-1.12365,1.74044,-1.04708,-1.79247,-1.01362,2.08253,1.21722,-1.06413,-0.745545,0.486224,0.645822,0.973479,1.0198,0.703479,-1.13459,-0.745545,0.486224,0.645822,0.973479,1.0198,0.703479,-1.13459,0.464167,-0.513617,0.748135,0.673231,0.111571,0.060191,0.728484,-0.79452,-0.428354,0.731573,-0.89631,-0.446474,0.756021,2.37778,-0.473157,1.03882,-3.73616,0.271645,3.42369,-3.73616,0.302175,3.42369,-0.845507,0.71686,0.511013,0.733676,0.579299,0.461789,-0.595198,1
1.64759,-0.969462,-1.73301,-0.930856,2.14996,1.26952,-1.13393,1.64759,-0.969462,-1.73301,-0.930856,2.14996,1.26952,-1.13393,1.7322,-1.04199,-1.78583,-1.00375,2.09275,1.22444,-1.07546,-0.852855,0.524527,0.674597,0.996118,1.02745,0.728899,-1.13232,-0.852855,0.524527,0.674597,0.996118,1.02745,0.728899,-1.13232,0.454636,-0.518256,0.755884,0.682213,0.103768,0.0522666,0.721863,-0.874443,-0.447219,0.761028,-0.980633,-0.462606,0.784115,2.34027,-0.470444,1.07174,-3.7514,0.271308,3.29169,-3.7514,0.297979,3.29169,-0.846148,0.725239,0.528179,0.728931,0.572095,0.450783,-0.58466,1
1.63878,-0.962868,-1.72414,-0.921046,2.15982,1.27686,-1.14423,1.63878,-0.962868,-1.72414,-0.921046,2.15982,1.27686,-1.14423,1.72329,-1.03604,-1.77843,-0.993597,2.10317,1.23199,-1.08668,-0.891708,0.618126,0.760394,0.997148,1.04302,0.752928,-1.11657,-0.891708,0.618126,0.760394,0.997148,1.04302,0.752928,-1.11657,0.444356,-0.522602,0.764339,0.691205,0.0952472,0.044087,0.714997,-0.921484,-0.395803,0.833651,-1.03381,-0.405289,0.85563,2.30265,-0.467232,1.1033,-3.76148,0.321203,3.15585,-3.76148,0.295415,3.15585,-0.845136,0.731714,0.542926,0.725508,0.566485,0.448704,-0.575559,1
1.62972,-0.956187,-1.71606,-0.911137,2.16952,1.28414,-1.1549,1.62972,-0.956187,-1.71606,-0.911137,2.16952,1.28414,-1.1549,1.71426,-1.02963,-1.77089,-0.983384,2.11371,1.23955,-1.09769,-0.91817,0.642574,0.74461,1.04192,1.05711,0.752412,-1.09742,-0.91817,0.642574,0.74461,1.04192,1.05711,0.752412,-1.09742,0.433804,-0.526593,0.773002,0.699964,0.0865041,0.0358711,0.708012,-0.960052,-0.394076,0.843673,-1.07426,-0.400871,0.863263,2.2653,-0.464414,1.13388,-3.73499,0.281799,3.05828,-3.73499,0.291822,3.05828,-0.84541,0.734466,0.548361,0.722468,0.558034,0.445926,-0.572056,1
1.62032,-0.94969,-1.70897,-0.900392,2.17902,1.29138,-1.16566,1.62032,-0.94969,-1.70897,-0.900392,2.17902,1.29138,-1.16566,1.70496,-1.02319,-1.76337,-0.972588,2.12437,1.24702,-1.10851,-0.919393,0.645486,0.763462,1.06488,1.06438,0.740332,-1.0765,-0.919393,0.645486,0.763462,1.06488,1.06438,0.740332,-1.0765,0.42282,-0.530631,0.781689,0.708695,0.0776748,0.0274727,0.700687,-0.979666,-0.375733,0.84587,-1.09555,-0.380448,0.86289,2.22783,-0.461563,1.16364,-3.74701,0.285107,2.97573,-3.74701,0.289402,2.97573,-0.846413,0.734998,0.544003,0.721963,0.546498,0.44358,-0.571466,1
1.61147,-0.942803,-1.70181,-0.889212,2.18829,1.2979,-1.17558,1.61147,-0.942803,-1.70181,-0.889212,2.18829,1.2979,-1.17558,1.6962,-1.01652,-1.75565,-0.961711,2.13489,1.25416,-1.11916,-0.877351,0.674741,0.768783,1.10923,1.04802,0.704906,-1.06128,-0.877351,0.674741,0.768783,1.10923,1.04802,0.704906,-1.06128,0.411991,-0.534088,0.790449,0.716949,0.0688013,0.0191556,0.693458,-0.978166,-0.336328,0.863088,-1.09429,-0.337121,0.877447,2.19008,-0.458904,1.19238,-3.77543,0.265962,2.87385,-3.77543,0.286175,2.87385,-0.847304,0.737148,0.538387,0.72499,0.534057,0.437358,-0.564127,1
1.60247,-0.936218,-1.69397,-0.878089,2.1975,1.30373,-1.18612,1.60247,-0.936218,-1.69397,-0.878089,2.1975,1.30373,-1.18612,1.68725,-1.00991,-1.74791,-0.950298,2.14529,1.26119,-1.12967,-0.886489,0.65128,0.785656,1.13111,1.03593,0.705232,-1.04795,-0.886489,0.65128,0.785656,1.13111,1.03593,0.705232,-1.04795,0.400812,-0.537536,0.79916,0.725138,0.0598668,0.010735,0.685912,-1.0003,-0.328367,0.848451,-1.11779,-0.327354,0.860088,2.15279,-0.456024,1.22022,-3.72908,0.288001,2.78428,-3.72908,0.286257,2.78428,-0.847872,0.736931,0.539391,0.722096,0.522109,0.425446,-0.564451,1
1.59402,-0.930208,-1.68708,-0.866522,2.20586,1.31064,-1.19695,1.59402,-0.930208,-1.68708,-0.866522,2.20586,1.31064,-1.19695,1.67895,-1.00368,-1.73964,-0.939166,2.15548,1.26822,-1.14013,-0.829769,0.617054,0.827708,1.11174,1.01315,0.705879,-1.04635,-0.829769,0.617054,0.827708,1.11174,1.01315,0.705879,-1.04635,0.38992,-0.540457,0.807605,0.732684,0.0509654,0.00215757,0.678655,-0.975581,-0.284096,0.825079,-1.09361,-0.281395,0.833856,2.11527,-0.45312,1.24755,-3.75204,0.290361,2.73249,-3.75204,0.285361,2.73249,-0.849299,0.734728,0.525608,0.726442,0.503775,0.42423,-0.568186,1
1.58503,-0.924098,-1.67905,-0.855533,2.21399,1.3147,-1.20724,1.58503,-0.924098,-1.67905,-0.855533,2.21399,1.3147,-1.20724,1.67008,-0.997566,-1.73175,-0.927756,2.16549,1.27526,-1.15057,-0.893787,0.616694,0.787993,1.1483,1.00048,0.710744,-1.04444,-0.893787,0.616694,0.787993,1.1483,1.00048,0.710744,-1.04444,0.378582,-0.543523,0.815797,0.740339,0.042115,-0.00635889,0.670883,-1.02855,-0.301374,0.810518,-1.14651,-0.29573,0.816495,2.07826,-0.450104,1.27393,-3.7008,0.301605,2.63889,-3.7008,0.283976,2.63889,-0.850468,0.734684,0.527012,0.722227,0.484953,0.394442,-0.566606,1
1.57657,-0.91735,-1.67179,-0.844016,2.22194,1.31868,-1.21692,1.57657,-0.91735,-1.67179,-0.844016,2.22194,1.31868,-1.21692,1.6617,-0.991078,-1.72325,-0.916453,2.17532,1.28237,-1.16101,-0.823154,0.650561,0.865277,1.1091,0.974458,0.719492,-1.04259,-0.823154,0.650561,0.865277,1.1091,0.974458,0.719492,-1.04259,0.367363,-0.545821,0.824203,0.747468,0.0329329,-0.0148963,0.663313,-0.994789,-0.212271,0.830527,-1.11428,-0.201891,0.833811,2.04073,-0.447365,1.29937,-3.75314,0.27391,2.54375,-3.75314,0.285181,2.54375,-0.851266,0.737278,0.514635,0.724369,0.46623,0.363109,-0.559062,1
1.56772,-0.911093,-1.66491,-0.834095,2.22886,1.31791,-1.22738,1.56772,-0.911093,-1.66491,-0.834095,2.22886,1.31791,-1.22738,1.65303,-0.984931,-1.71522,-0.905252,2.18491,1.28944,-1.1714,-0.887328,0.607514,0.779424,1.13494,0.956243,0.704021,-1.03849,-0.887328,0.607514,0.779424,1.13494,0.956243,0.704021,-1.03849,0.356012,-0.548173,0.832119,0.754509,0.0240168,-0.0232949,0.655436,-1.03631,-0.252643,0.776893,-1.15235,-0.241375,0.77722,2.00363,-0.444625,1.32357,-3.70975,0.273949,2.41971,-3.70975,0.285039,2.41971,-0.853161,0.738377,0.503146,0.711565,0.439436,0.284705,-0.55979,1
1.55897,-0.903739,-1.65761,-0.823668,2.2361,1.31295,-1.23649,1.55897,-0.903739,-1.65761,-0.823668,2.2361,1.31295,-1.23649,1.64435,-0.97838,-1.70713,-0.893881,2.19427,1.29641,-1.18182,-0.846966,0.673246,0.826569,1.11114,0.92148,0.687088,-1.04373,-0.846966,0.673246,0.826569,1.11114,0.92148,0.687088,-1.04373,0.344523,-0.550093,0.840174,0.761383,0.0149086,-0.0315345,0.647364,-1.0171,-0.170522,0.809895,-1.13267,-0.153447,0.807656,1.96633,-0.44199,1.34685,-3.73014,0.263518,2.32852,-3.73014,0.283186,2.32852,-0.853806,0.746409,0.495195,0.702133,0.418361,0.165358,-0.546659,1
1.55036,-0.896286,-1.65109,-0.813177,2.24166,1.29603,-1.24543,1.55036,-0.896286,-1.65109,-0.813177,2.24166,1.29603,-1.24543,1.63597,-0.971564,-1.69904,-0.882658,2.20321,1.3031,-1.19226,-0.855462,0.676686,0.793493,1.15099,0.886467,0.654515,-1.04275,-0.855462,0.676686,0.793493,1.15099,0.886467,0.654515,-1.04275,0.333238,-0.551468,0.848206,0.767916,0.00582094,-0.0394723,0.639307,-1.03365,-0.163244,0.79971,-1.14678,-0.143088,0.794876,1.92843,-0.438998,1.36934,-3.79044,0.299191,2.2482,-3.79044,0.28148,2.2482,-0.856166,0.752777,0.479499,0.694818,0.384527,-0.0706969,-0.531675,1
1.54137,-0.888815,-1.64243,-0.80431,2.24939,1.27402,-1.25347,1.54137,-0.888815,-1.64243,-0.80431,2.24939,1.27402,-1.25347,1.62714,-0.96491,-1.69122,-0.871141,2.21182,1.30916,-1.20263,-0.871125,0.65889,0.790234,1.13721,0.848502,0.578609,-1.03427,-0.871125,0.65889,0.790234,1.13721,0.848502,0.578609,-1.03427,0.321686,-0.552955,0.855996,0.774486,-0.00295143,-0.0472133,0.63082,-1.03387,-0.152642,0.774879,-1.14222,-0.13179,0.767667,1.89082,-0.436154,1.38983,-3.76017,0.284445,2.04887,-3.76017,0.280302,2.04887,-0.857668,0.760948,0.487909,0.668313,0.375668,-0.351354,-0.508312,1
1.53267,-0.880986,-1.63497,-0.792781,2.2546,1.26237,-1.25827,1.53267,-0.880986,-1.63497,-0.792781,2.2546,1.26237,-1.25827,1.61871,-0.958028,-1.68326,-0.859745,2.21998,1.31379,-1.21289,-0.852742,0.697298,0.787633,1.15881,0.806491,0.417533,-1.02296,-0.852742,0.697298,0.787633,1.15881,0.806491,0.417533,-1.02296,0.310567,-0.553971,0.8638,0.780627,-0.0111797,-0.0545154,0.622515,-1.01826,-0.118748,0.790239,-1.11948,-0.0967701,0.781267,1.85361,-0.433312,1.40973,-3.72113,0.284186,1.99054,-3.72113,0.28009,1.99054,-0.860481,0.770413,0.482951,0.669639,0.346173,-0.514206,-0.453752,1
1.52341,-0.873996,-1.63326,-0.780537,2.24998,1.25698,-1.26312,1.52341,-0.873996,-1.63326,-0.780537,2.24998,1.25698,-1.26312,1.60973,-0.951101,-1.67573,-0.8481,2.22773,1.31598,-1.223,-0.898724,0.690395,0.75385,1.16204,0.768545,0.140512,-1.00551,-0.898724,0.690395,0.75385,1.16204,0.768545,0.140512,-1.00551,0.299418,-0.555195,0.871483,0.786843,-0.0182962,-0.0611776,0.61384,-1.01711,-0.135609,0.771558,-1.10532,-0.117668,0.761837,1.81636,-0.430748,1.42852,-3.72531,0.25638,1.87851,-3.72531,0.27969,1.87851,-0.863142,0.77105,0.424655,0.675637,0.222499,-0.590042,-0.401179,1
1.51482,-0.867378,-1.62943,-0.767822,2.24984,1.25295,-1.27087,1.51482,-0.867378,-1.62943,-0.767822,2.24984,1.25295,-1.27087,1.60115,-0.944108,-1.66784,-0.836754,2.23499,1.31473,-1.23283,-0.855426,0.699275,0.78695,1.11199,0.71108,-0.211157,-0.975506,-0.855426,0.699275,0.78695,1.11199,0.71108,-0.211157,-0.975506,0.28904,-0.556178,0.87917,0.792542,-0.0238617,-0.0671605,0.605638,-0.944814,-0.100673,0.770021,-1.01763,-0.0890665,0.760574,1.77925,-0.427902,1.4467,-3.71135,0.28463,1.81793,-3.71135,0.279789,1.81793,-0.8633,0.7673,0.384057,0.689319,0.148486,-0.61783,-0.380384,1
1.50588,-0.860886,-1.62385,-0.756618,2.25627,1.24742,-1.28249,1.50588,-0.860886,-1.62385,-0.756618,2.25627,1.24742,-1.28249,1.59207,-0.937157,-1.66048,-0.825337,2.24184,1.30973,-1.24221,-0.923411,0.704369,0.732423,1.1576,0.676854,-0.608269,-0.922704,-0.923411,0.704369,0.732423,1.1576,0.676854,-0.608269,-0.922704,0.278917,-0.557523,0.886701,0.798237,-0.0276106,-0.0722428,0.597358,-0.957271,-0.140751,0.766543,-1.01367,-0.136226,0.75827,1.74209,-0.425176,1.46394,-3.71561,0.272635,1.72436,-3.71561,0.278723,1.72436,-0.861866,0.762706,0.366294,0.687193,0.144333,-0.623066,-0.402782,1
1.49696,-0.853827,-1.61777,-0.745935,2.26504,1.23795,-1.29153,1.49696,-0.853827,-1.61777,-0.745935,2.26504,1.23795,-1.29153,1.58304,-0.929878,-1.65271,-0.814235,2.24818,1.30093,-1.25075,-0.88994,0.723136,0.782864,1.07919,0.602879,-0.964253,-0.828966,-0.88994,0.723136,0.782864,1.07919,0.602879,-0.964253,-0.828966,0.269409,-0.55865,0.894444,0.803398,-0.0297902,-0.0765111,0.589755,-0.880015,-0.096966,0.772392,-0.920798,-0.0991807,0.765762,1.70501,-0.422595,1.47982,-3.70809,0.258091,1.58812,-3.70809,0.273492,1.58812,-0.860754,0.76051,0.349365,0.682994,0.168625,-0.62972,-0.407838,1
1.48772,-0.847207,-1.62101,-0.735415,2.26829,1.2268,-1.29845,1.48772,-0.847207,-1.62101,-0.735415,2.26829,1.2268,-1.29845,1.5738,-0.922859,-1.64566,-0.803131,2.25279,1.28992,-1.25827,-0.947448,0.699537,0.675232,1.14639,0.407282,-1.13579,-0.729354,-0.947448,0.699537,0.675232,1.14639,0.407282,-1.13579,-0.729354,0.260273,-0.559884,0.901896,0.808535,-0.0309442,-0.0795058,0.582231,-0.902307,-0.129624,0.747272,-0.930123,-0.128752,0.742664,1.66804,-0.419601,1.49479,-3.69649,0.299388,1.49741,-3.69649,0.27381,1.49741,-0.8608,0.756519,0.246548,0.677163,0.154937,-0.63116,-0.401811,1
1.47839,-0.839771,-1.62279,-0.724834,2.27231,1.2143,-1.30278,1.47839,-0.839771,-1.62279,-0.724834,2.27231,1.2143,-1.30278,1.56436,-0.915407,-1.63919,-0.791775,2.25553,1.27837,-1.26516,-0.925708,0.762707,0.640812,1.11952,0.240151,-1.1476,-0.682962,-0.925708,0.762707,0.640812,1.11952,0.240151,-1.1476,-0.682962,0.251192,-0.560673,0.909504,0.813807,-0.0322377,-0.0813329,0.574511,-0.870011,-0.0565936,0.767546,-0.891149,-0.0474175,0.764291,1.63109,-0.416756,1.50848,-3.69558,0.284475,1.3685,-3.69558,0.275965,1.3685,-0.859644,0.756352,0.164099,0.669413,0.167812,-0.640745,-0.376204,1
1.46921,-0.832254,-1.62673,-0.713773,2.2736,1.2033,-1.31033,1.46921,-0.832254,-1.62673,-0.713773,2.2736,1.2033,-1.31033,1.5551,-0.907818,-1.63334,-0.780399,2.25764,1.26729,-1.2722,-0.942259,0.753467,0.560744,1.15476,0.215031,-1.09495,-0.71514,-0.942259,0.753467,0.560744,1.15476,0.215031,-1.09495,-0.71514,0.242223,-0.56111,0.917015,0.819158,-0.0337417,-0.0827595,0.566562,-0.893881,-0.058835,0.746133,-0.914646,-0.0468805,0.742933,1.59461,-0.414018,1.52144,-3.64774,0.273812,1.29559,-3.64774,0.278777,1.29559,-0.858946,0.755636,0.0661214,0.66626,0.159606,-0.63995,-0.381301,1
1.45989,-0.824592,-1.62845,-0.702022,2.27525,1.19334,-1.31852,1.45989,-0.824592,-1.62845,-0.702022,2.27525,1.19334,-1.31852,1.54572,-0.900323,-1.62807,-0.768953,2.26024,1.25669,-1.2797,-0.919848,0.759639,0.523148,1.14034,0.277926,-1.05133,-0.76013,-0.919848,0.759639,0.523148,1.14034,0.277926,-1.05133,-0.76013,0.233063,-0.561547,0.924295,0.824618,-0.0352473,-0.0843781,0.55825,-0.88599,-0.0359774,0.732402,-0.908351,-0.0247667,0.728754,1.55818,-0.411291,1.53364,-3.64271,0.272685,1.22006,-3.64271,0.278523,1.22006,-0.858333,0.757311,-0.00375501,0.669314,0.150087,-0.633514,-0.388225,1
1.45074,-0.817048,-1.63582,-0.689584,2.27563,1.18482,-1.32689,1.45074,-0.817048,-1.63582,-0.689584,2.27563,1.18482,-1.32689,1.53666,-0.89271,-1.62371,-0.757474,2.26348,1.24616,-1.28738,-0.914575,0.748577,0.385926,1.14776,0.341434,-1.05586,-0.766111,-0.914575,0.748577,0.385926,1.14776,0.341434,-1.05586,-0.766111,0.224061,-0.561861,0.931402,0.830018,-0.0365475,-0.0860172,0.54985,-0.883773,-0.0503393,0.694508,-0.903339,-0.0412339,0.691179,1.52102,-0.408813,1.54533,-3.71683,0.247842,1.16916,-3.71683,0.275996,1.16916,-0.859264,0.756619,-0.121173,0.678906,0.121462,-0.613334,-0.395119,1
1.44176,-0.809251,-1.64453,-0.67878,2.27729,1.17496,-1.33189,1.44176,-0.809251,-1.64453,-0.67878,2.27729,1.17496,-1.33189,1.52762,-0.88523,-1.62143,-0.745998,2.26717,1.23555,-1.29479,-0.889743,0.758536,0.182416,1.14843,0.374166,-1.06644,-0.733381,-0.889743,0.758536,0.182416,1.14843,0.374166,-1.06644,-0.733381,0.215213,-0.562441,0.937989,0.835583,-0.0373039,-0.0872444,0.541108,-0.860281,-0.0558631,0.656755,-0.873608,-0.0470123,0.654517,1.48453,-0.405864,1.55588,-3.64863,0.294834,1.05561,-3.64863,0.27583,1.05561,-0.858636,0.759781,-0.231061,0.672179,0.101148,-0.605844,-0.371012,1
1.43296,-0.800496,-1.65104,-0.668134,2.28077,1.16431,-1.33431,1.43296,-0.800496,-1.65104,-0.668134,2.28077,1.16431,-1.33431,1.51874,-0.877004,-1.62076,-0.734662,2.27074,1.22464,-1.3019,-0.899666,0.83598,0.0197265,1.13308,0.34734,-1.10188,-0.705685,-0.899666,0.83598,0.0197265,1.13308,0.34734,-1.10188,-0.705685,0.206718,-0.562587,0.944648,0.841203,-0.0379094,-0.0876454,0.53222,-0.844045,-0.0188238,0.66446,-0.84952,-0.00605599,0.663797,1.44818,-0.402863,1.56536,-3.63441,0.300136,0.947261,-3.63441,0.275722,0.947261,-0.857775,0.765086,-0.302824,0.665281,0.100345,-0.603296,-0.324062,1
1.4237,-0.792159,-1.65742,-0.656675,2.2803,1.1545,-1.34024,1.4237,-0.792159,-1.65742,-0.656675,2.2803,1.1545,-1.34024,1.50948,-0.868721,-1.62165,-0.723055,2.27388,1.2138,-1.30895,-0.92795,0.825674,-0.122338,1.16563,0.297216,-1.07863,-0.706607,-0.92795,0.825674,-0.122338,1.16563,0.297216,-1.07863,-0.706607,0.198065,-0.562789,0.951087,0.847198,-0.0384272,-0.0874491,0.52262,-0.864559,-0.0303704,0.636919,-0.865949,-0.0146766,0.637073,1.41139,-0.400326,1.57386,-3.67914,0.253698,0.850213,-3.67914,0.275096,0.850213,-0.857783,0.765624,-0.357674,0.663803,0.0642732,-0.593078,-0.312927,1
1.41463,-0.783835,-1.66229,-0.645647,2.28126,1.14404,-1.34562,1.41463,-0.783835,-1.66229,-0.645647,2.28126,1.14404,-1.34562,1.5004,-0.860533,-1.62409,-0.711899,2.27627,1.20296,-1.31605,-0.904724,0.82251,-0.292854,1.11502,0.22109,-1.0805,-0.710874,-0.904724,0.82251,-0.292854,1.11502,0.22109,-1.0805,-0.710874,0.189903,-0.562896,0.957138,0.853362,-0.0386074,-0.0864113,0.512655,-0.817142,-0.0204905,0.596595,-0.809278,-0.00295168,0.598498,1.37444,-0.397873,1.58137,-3.695,0.245255,0.751436,-3.695,0.272548,0.751436,-0.857735,0.766974,-0.382014,0.662519,0.0498905,-0.589229,-0.295757,1
1.40537,-0.775401,-1.66877,-0.633931,2.28104,1.1345,-1.35057,1.40537,-0.775401,-1.66877,-0.633931,2.28104,1.1345,-1.35057,1.49114,-0.852189,-1.62823,-0.700273,2.27818,1.19245,-1.32293,-0.930682,0.835381,-0.448521,1.15788,0.188876,-1.03968,-0.675603,-0.930682,0.835381,-0.448521,1.15788,0.188876,-1.03968,-0.675603,0.18159,-0.562967,0.963058,0.859855,-0.0389006,-0.0847799,0.501946,-0.842629,-0.0209316,0.583635,-0.831504,0.000379242,0.586123,1.33751,-0.395201,1.58828,-3.69334,0.267223,0.690484,-3.69334,0.270309,0.690484,-0.857694,0.767877,-0.40537,0.663417,0.0286695,-0.579437,-0.276377,1
1.39633,-0.766786,-1.67641,-0.62354,2.28297,1.12427,-1.3523,1.39633,-0.766786,-1.67641,-0.62354,2.28297,1.12427,-1.3523,1.4821,-0.843783,-1.63373,-0.689126,2.27985,1.18197,-1.32913,-0.897808,0.844561,-0.581249,1.11318,0.159845,-1.04945,-0.602582,-0.897808,0.844561,-0.581249,1.11318,0.159845,-1.04945,-0.602582,0.173727,-0.562874,0.968719,0.866195,-0.0389511,-0.0825432,0.4913,-0.79742,-0.002604,0.560022,-0.77952,0.0188429,0.563619,1.30051,-0.392545,1.59374,-3.70045,0.265664,0.546181,-3.70045,0.268286,0.546181,-0.857665,0.769968,-0.426806,0.655865,0.0311934,-0.577059,-0.231747,1
1.387,-0.758475,-1.68441,-0.612524,2.28356,1.1142,-1.35638,1.387,-0.758475,-1.68441,-0.612524,2.28356,1.1142,-1.35638,1.47281,-0.83525,-1.64028,-0.67758,2.28119,1.17161,-1.33477,-0.933762,0.848696,-0.670714,1.14632,0.125732,-1.03658,-0.553134,-0.933762,0.848696,-0.670714,1.14632,0.125732,-1.03658,-0.553134,0.165644,-0.56269,0.974361,0.872618,-0.0391202,-0.0799561,0.480222,-0.827164,0.00128279,0.554996,-0.806937,0.0247777,0.558839,1.22674,-0.386605,1.60146,-3.70282,0.31786,0.340652,-3.70282,0.268519,0.340652,-0.858116,0.767752,-0.44128,0.650557,0.0237309,-0.574123,-0.216157,1
1.37816,-0.749819,-1.69304,-0.602993,2.28621,1.10294,-1.35669,1.37816,-0.749819,-1.69304,-0.602993,2.28621,1.10294,-1.35669,1.46381,-0.8269,-1.64723,-0.66642,2.28213,1.16126,-1.34001,-0.894494,0.828498,-0.707365,1.11753,0.0757194,-1.04361,-0.516257,-0.894494,0.828498,-0.707365,1.11753,0.0757194,-1.04361,-0.516257,0.157929,-0.562346,0.979801,0.878805,-0.0391294,-0.0770937,0.469284,-0.790639,0.0178213,0.536137,-0.766918,0.0404384,0.540367,1.19102,-0.384641,1.60375,-3.57219,0.196421,0.229549,-3.57219,0.267884,0.229549,-0.856494,0.770811,-0.458024,0.634268,0.0407443,-0.583121,-0.166774,1
1.36875,-0.74222,-1.70093,-0.59123,2.28627,1.09348,-1.36225,1.36875,-0.74222,-1.70093,-0.59123,2.28627,1.09348,-1.36225,1.45454,-0.818873,-1.65469,-0.655114,2.28266,1.1508,-1.34492,-0.93222,0.795555,-0.751777,1.13946,0.0515406,-1.04179,-0.479957,-0.93222,0.795555,-0.751777,1.13946,0.0515406,-1.04179,-0.479957,0.150046,-0.562102,0.985041,0.885001,-0.0390029,-0.0740659,0.458003,-0.821844,0.00661524,0.517571,-0.797079,0.0284672,0.521734,1.15426,-0.381986,1.60537,-3.67583,0.265548,0.161815,-3.67583,0.266865,0.161815,-0.85791,0.766523,-0.462338,0.63884,0.0361857,-0.57314,-0.173329,1
1.35977,-0.734281,-1.70966,-0.581014,2.28713,1.08267,-1.36487,1.35977,-0.734281,-1.70966,-0.581014,2.28713,1.08267,-1.36487,1.44552,-0.810921,-1.66208,-0.643886,2.28319,1.14035,-1.34928,-0.893943,0.794284,-0.741159,1.11392,0.0531512,-1.0361,-0.422087,-0.893943,0.794284,-0.741159,1.11392,0.0531512,-1.0361,-0.422087,0.142296,-0.561645,0.990259,0.890839,-0.0388861,-0.0711383,0.447027,-0.793446,0.0371928,0.51643,-0.768809,0.0578413,0.520343,1.11774,-0.379064,1.60579,-3.65195,0.292185,0.0423074,-3.65195,0.266687,0.0423074,-0.857481,0.766403,-0.475726,0.62872,0.039418,-0.576847,-0.155888,1
1.35068,-0.727121,-1.71986,-0.572167,2.28788,1.07196,-1.36689,1.35068,-0.727121,-1.71986,-0.572167,2.28788,1.07196,-1.36689,1.43638,-0.803437,-1.67,-0.633011,2.28373,1.12988,-1.35308,-0.921146,0.742933,-0.805669,1.09765,0.0647133,-1.05031,-0.362838,-0.921146,0.742933,-0.805669,1.09765,0.0647133,-1.05031,-0.362838,0.134615,-0.56137,0.995107,0.896489,-0.0384327,-0.0681512,0.436103,-0.805407,0.0118178,0.478388,-0.778766,0.0286517,0.482426,1.08184,-0.375738,1.60508,-3.59019,0.33254,-0.0710607,-3.59019,0.273136,-0.0710607,-0.857084,0.763154,-0.498651,0.608444,0.0414741,-0.579192,-0.138127,1
1.34161,-0.719314,-1.72832,-0.561563,2.28824,1.06152,-1.36701,1.34161,-0.719314,-1.72832,-0.561563,2.28824,1.06152,-1.36701,1.42729,-0.79568,-1.67793,-0.621895,2.28458,1.11943,-1.35622,-0.900091,0.782816,-0.788999,1.0923,0.0864378,-1.04254,-0.303422,-0.900091,0.782816,-0.788999,1.0923,0.0864378,-1.04254,-0.303422,0.126809,-0.560751,1.00016,0.901836,-0.03819,-0.0653392,0.4254,-0.793247,0.0623187,0.503534,-0.768094,0.0798172,0.507125,1.04584,-0.372844,1.6035,-3.60044,0.28941,-0.158405,-3.60044,0.279036,-0.158405,-0.856808,0.763661,-0.503873,0.603318,0.0365826,-0.579088,-0.107857,1
1.33258,-0.712087,-1.7375,-0.55146,2.28826,1.05121,-1.36988,1.33258,-0.712087,-1.7375,-0.55146,2.28826,1.05121,-1.36988,1.41826,-0.788201,-1.68624,-0.611337,2.28539,1.10894,-1.35914,-0.909654,0.734365,-0.841501,1.06727,0.0846738,-1.05942,-0.288586,-0.909654,0.734365,-0.841501,1.06727,0.0846738,-1.05942,-0.288586,0.119277,-0.560141,1.00493,0.906994,-0.03764,-0.0623966,0.414791,-0.790661,0.0436215,0.468018,-0.763276,0.0573858,0.471786,1.00995,-0.37037,1.60115,-3.58895,0.247413,-0.234485,-3.58895,0.280523,-0.234485,-0.856803,0.761142,-0.512599,0.598766,0.0287489,-0.577326,-0.10733,1
1.32331,-0.704925,-1.74694,-0.540229,2.2852,1.04121,-1.37486,1.32331,-0.704925,-1.74694,-0.540229,2.2852,1.04121,-1.37486,1.40901,-0.780713,-1.69473,-0.60053,2.28624,1.09848,-1.36192,-0.920763,0.756199,-0.84675,1.06324,0.0863228,-1.04308,-0.27357,-0.920763,0.756199,-0.84675,1.06324,0.0863228,-1.04308,-0.27357,0.111492,-0.559384,1.00975,0.912084,-0.0371833,-0.0595536,0.403948,-0.795676,0.0777274,0.480525,-0.768821,0.0924224,0.483994,0.973651,-0.368069,1.59801,-3.62948,0.230157,-0.314534,-3.62948,0.282743,-0.314534,-0.856976,0.757881,-0.522155,0.603009,-0.0103892,-0.572709,-0.129355,1
1.31427,-0.697636,-1.75673,-0.530214,2.28192,1.03115,-1.37746,1.31427,-0.697636,-1.75673,-0.530214,2.28192,1.03115,-1.37746,1.39994,-0.773163,-1.70345,-0.590161,2.2871,1.08794,-1.36441,-0.912674,0.749932,-0.888155,1.04548,0.0856325,-1.06181,-0.237031,-0.912674,0.749932,-0.888155,1.04548,0.0856325,-1.06181,-0.237031,0.104022,-0.558404,1.01451,0.916933,-0.0365889,-0.0565769,0.393312,-0.782317,0.0877801,0.470788,-0.753628,0.100473,0.474336,0.937388,-0.36566,1.59415,-3.6263,0.240839,-0.385904,-3.6263,0.272625,-0.385904,-0.856709,0.755267,-0.532721,0.599475,-0.0517788,-0.567908,-0.13046,1
1.30503,-0.690447,-1.76696,-0.522392,2.27945,1.0202,-1.37734,1.30503,-0.690447,-1.76696,-0.522392,2.27945,1.0202,-1.37734,1.39062,-0.765868,-1.71257,-0.579795,2.28785,1.07741,-1.36646,-0.932016,0.728804,-0.918582,1.02127,0.06479,-1.04858,-0.195998,-0.932016,0.728804,-0.918582,1.02127,0.06479,-1.04858,-0.195998,0.0964047,-0.557469,1.01911,0.92169,-0.0358873,-0.0535684,0.382532,-0.783933,0.0919053,0.453613,-0.753863,0.103618,0.457143,0.90206,-0.362404,1.58904,-3.53284,0.325614,-0.511014,-3.53284,0.26754,-0.511014,-0.855893,0.754215,-0.543855,0.574025,-0.0839476,-0.57217,-0.10881,1
1.29591,-0.683162,-1.77721,-0.512078,2.27373,1.01075,-1.37992,1.29591,-0.683162,-1.77721,-0.512078,2.27373,1.01075,-1.37992,1.38144,-0.758296,-1.72179,-0.569569,2.2881,1.06675,-1.3684,-0.920559,0.76345,-0.927162,1.03497,0.00519622,-1.06746,-0.195722,-0.920559,0.76345,-0.927162,1.03497,0.00519622,-1.06746,-0.195722,0.0890401,-0.556126,1.02385,0.926316,-0.0352453,-0.0502835,0.37171,-0.77239,0.135505,0.476499,-0.74023,0.148744,0.479994,0.866066,-0.359741,1.58313,-3.59938,0.266293,-0.590718,-3.59938,0.262794,-0.590718,-0.855356,0.751338,-0.554211,0.574912,-0.143651,-0.560055,-0.115262,1
1.28656,-0.676447,-1.78856,-0.502434,2.26748,1.00127,-1.38863,1.28656,-0.676447,-1.78856,-0.502434,2.26748,1.00127,-1.38863,1.37204,-0.750961,-1.73124,-0.559398,2.28775,1.05629,-1.3706,-0.93905,0.723735,-0.950028,1.00544,-0.0541483,-1.04209,-0.226353,-0.93905,0.723735,-0.950028,1.00544,-0.0541483,-1.04209,-0.226353,0.0816157,-0.554725,1.02845,0.930994,-0.0346075,-0.0468213,0.360362,-0.770006,0.132037,0.449726,-0.735652,0.144418,0.453221,0.829802,-0.357318,1.57623,-3.62639,0.242317,-0.689709,-3.62639,0.262506,-0.689709,-0.854776,0.745138,-0.573165,0.569643,-0.202662,-0.55026,-0.180325,1
1.27747,-0.669608,-1.8001,-0.494499,2.26077,0.991268,-1.39422,1.27747,-0.669608,-1.8001,-0.494499,2.26077,0.991268,-1.39422,1.3628,-0.743635,-1.74079,-0.549274,2.28662,1.04571,-1.37289,-0.926911,0.737468,-0.964864,1.02504,-0.134105,-1.06059,-0.225394,-0.926911,0.737468,-0.964864,1.02504,-0.134105,-1.06059,-0.225394,0.074416,-0.553098,1.03305,0.935608,-0.0339408,-0.0430702,0.348755,-0.76004,0.162346,0.461688,-0.723035,0.175487,0.465128,0.793706,-0.354721,1.56815,-3.60963,0.259691,-0.808346,-3.60963,0.265599,-0.808346,-0.853321,0.740273,-0.593033,0.547748,-0.258476,-0.544453,-0.213237,1
1.26815,-0.662915,-1.81133,-0.485441,2.25416,0.982364,-1.40079,1.26815,-0.662915,-1.81133,-0.485441,2.25416,0.982364,-1.40079,1.35347,-0.736299,-1.75055,-0.53927,2.28475,1.03529,-1.37503,-0.929044,0.731273,-0.978238,0.98574,-0.209499,-1.03613,-0.210258,-0.929044,0.731273,-0.978238,0.98574,-0.209499,-1.03613,-0.210258,0.0673226,-0.551241,1.03763,0.940151,-0.0333517,-0.0390164,0.336869,-0.737698,0.181679,0.451924,-0.697576,0.195138,0.455297,0.757237,-0.352173,1.55971,-3.64683,0.254801,-0.844383,-3.64683,0.266611,-0.844383,-0.853173,0.733837,-0.607833,0.538289,-0.305857,-0.529277,-0.257599,1
1.25921,-0.656077,-1.82294,-0.47965,2.24797,0.971812,-1.40504,1.25921,-0.656077,-1.82294,-0.47965,2.24797,0.971812,-1.40504,1.3443,-0.729026,-1.76042,-0.529425,2.28189,1.02492,-1.3772,-0.921766,0.721828,-0.998455,0.989586,-0.314359,-1.03279,-0.228509,-0.921766,0.721828,-0.998455,0.989586,-0.314359,-1.03279,-0.228509,0.0605251,-0.549184,1.04217,0.944615,-0.0327545,-0.0345922,0.324703,-0.724533,0.197874,0.447681,-0.680896,0.211667,0.450932,0.721482,-0.349235,1.5499,-3.5755,0.293797,-0.980842,-3.5755,0.266991,-0.980842,-0.850908,0.729493,-0.625176,0.49775,-0.339263,-0.53106,-0.278419,1
1.25001,-0.649491,-1.83468,-0.471199,2.24031,0.962376,-1.41351,1.25001,-0.649491,-1.83468,-0.471199,2.24031,0.962376,-1.41351,1.33489,-0.72183,-1.77065,-0.519667,2.27789,1.01472,-1.38011,-0.939682,0.725902,-1.02493,0.970303,-0.430331,-1.01376,-0.314594,-0.939682,0.725902,-1.02493,0.970303,-0.430331,-1.01376,-0.314594,0.0537947,-0.546976,1.04662,0.949214,-0.0321821,-0.0297012,0.311569,-0.7125,0.220807,0.445208,-0.664154,0.235688,0.448282,0.685826,-0.346695,1.53906,-3.56563,0.253966,-1.08349,-3.56563,0.261725,-1.08349,-0.848788,0.723389,-0.64032,0.48468,-0.375753,-0.523483,-0.333966,1
1.24096,-0.642813,-1.84661,-0.463116,2.23338,0.953373,-1.42522,1.24096,-0.642813,-1.84661,-0.463116,2.23338,0.953373,-1.42522,1.32565,-0.714439,-1.78098,-0.510053,2.27276,1.00468,-1.38395,-0.926044,0.734376,-1.0447,0.959325,-0.537731,-0.998682,-0.408301,-0.926044,0.734376,-1.0447,0.959325,-0.537731,-0.998682,-0.408301,0.0474173,-0.544393,1.05116,0.953834,-0.0317455,-0.0243589,0.297658,-0.68591,0.24778,0.446967,-0.633491,0.263381,0.449683,0.650248,-0.343953,1.52698,-3.55781,0.274247,-1.20842,-3.55781,0.264627,-1.20842,-0.846868,0.71626,-0.656262,0.469361,-0.393856,-0.513101,-0.412715,1
1.23166,-0.63717,-1.85933,-0.455788,2.2252,0.944905,-1.43761,1.23166,-0.63717,-1.85933,-0.455788,2.2252,0.944905,-1.43761,1.31616,-0.707392,-1.79185,-0.500722,2.26669,0.994882,-1.38866,-0.95078,0.701262,-1.09795,0.926583,-0.626071,-0.977613,-0.490119,-0.95078,0.701262,-1.09795,0.926583,-0.626071,-0.977613,-0.490119,0.0411386,-0.541915,1.05541,0.958518,-0.0311437,-0.0186172,0.282713,-0.679471,0.238404,0.418954,-0.622481,0.251958,0.421331,0.614696,-0.341519,1.51382,-3.55517,0.243405,-1.31575,-3.55517,0.265754,-1.31575,-0.844984,0.702215,-0.674749,0.449348,-0.414948,-0.499767,-0.48946,1
1.22244,-0.630765,-1.87087,-0.446688,2.21599,0.937011,-1.44622,1.22244,-0.630765,-1.87087,-0.446688,2.21599,0.937011,-1.44622,1.30688,-0.700034,-1.80279,-0.491711,2.26001,0.985178,-1.39397,-0.920651,0.7463,-1.09342,0.893746,-0.681008,-0.962573,-0.545523,-0.920651,0.7463,-1.09342,0.893746,-0.681008,-0.962573,-0.545523,0.0352811,-0.539063,1.05976,0.963032,-0.0306346,-0.0125705,0.267345,-0.632759,0.286678,0.437466,-0.573299,0.300896,0.43914,0.579085,-0.338444,1.49975,-3.5611,0.307506,-1.40679,-3.5611,0.269365,-1.40679,-0.844411,0.692688,-0.680733,0.450229,-0.440196,-0.48167,-0.522478,1
1.21306,-0.625307,-1.88342,-0.439344,2.20767,0.928404,-1.45566,1.21306,-0.625307,-1.88342,-0.439344,2.20767,0.928404,-1.45566,1.29738,-0.692839,-1.81413,-0.48312,2.25288,0.975665,-1.39999,-0.961974,0.70584,-1.14805,0.854532,-0.718343,-0.949905,-0.62594,-0.961974,0.70584,-1.14805,0.854532,-0.718343,-0.949905,-0.62594,0.0295647,-0.536249,1.0639,0.967442,-0.0299775,-0.00629048,0.251232,-0.638261,0.265596,0.403961,-0.575846,0.275708,0.405108,0.543388,-0.335588,1.48461,-3.56971,0.285605,-1.51479,-3.56971,0.273267,-1.51479,-0.843219,0.67532,-0.6929,0.43776,-0.452098,-0.472612,-0.556634,1
1.20356,-0.619328,-1.89495,-0.427185,2.20014,0.920002,-1.46522,1.20356,-0.619328,-1.89495,-0.427185,2.20014,0.920002,-1.46522,1.28785,-0.685726,-1.82563,-0.474879,2.24549,0.966231,-1.4072,-0.944644,0.7248,-1.14829,0.811676,-0.749176,-0.939191,-0.755756,-0.944644,0.7248,-1.14829,0.811676,-0.749176,-0.939191,-0.755756,0.0240458,-0.53341,1.06792,0.971714,-0.0292051,8.05264e-05,0.23435,-0.600537,0.290615,0.406041,-0.536432,0.299174,0.406423,0.507926,-0.332802,1.46886,-3.54617,0.278622,-1.57437,-3.54617,0.275089,-1.57437,-0.842928,0.663976,-0.693198,0.476935,-0.45351,-0.462294,-0.580248,1
1.194,-0.614145,-1.9078,-0.414708,2.19034,0.914058,-1.47616,1.194,-0.614145,-1.9078,-0.414708,2.19034,0.914058,-1.47616,1.27825,-0.678448,-1.83737,-0.466702,2.23778,0.957051,-1.41581,-0.97276,0.716135,-1.1868,0.815355,-0.776501,-0.912262,-0.895316,-0.97276,0.716135,-1.1868,0.815355,-0.776501,-0.912262,-0.895316,0.018621,-0.530328,1.07198,0.975858,-0.0285946,0.00656041,0.216427,-0.612455,0.297598,0.398631,-0.547447,0.30466,0.398189,0.472319,-0.330411,1.45177,-3.56074,0.239113,-1.70921,-3.56074,0.275317,-1.70921,-0.842503,0.643036,-0.704369,0.519932,-0.47442,-0.42993,-0.603488,1
1.18438,-0.60818,-1.92021,-0.403514,2.18057,0.908151,-1.48658,1.18438,-0.60818,-1.92021,-0.403514,2.18057,0.908151,-1.48658,1.26868,-0.671397,-1.84929,-0.45899,2.22973,0.94816,-1.42541,-0.944165,0.7091,-1.19034,0.760729,-0.820432,-0.878046,-0.977482,-0.944165,0.7091,-1.19034,0.760729,-0.820432,-0.878046,-0.977482,0.0134532,-0.527324,1.07581,0.979746,-0.0278954,0.0131587,0.197853,-0.568074,0.304613,0.384209,-0.501232,0.309656,0.382919,0.436956,-0.328401,1.43361,-3.53626,0.200957,-1.81566,-3.53626,0.266126,-1.81566,-0.842982,0.632164,-0.709209,0.554756,-0.491575,-0.400095,-0.611716,1
1.17489,-0.602647,-1.93287,-0.391402,2.16918,0.905912,-1.49755,1.17489,-0.602647,-1.93287,-0.391402,2.16918,0.905912,-1.49755,1.25916,-0.66441,-1.8614,-0.451052,2.22134,0.939491,-1.43557,-0.960008,0.691567,-1.21542,0.80959,-0.838993,-0.855875,-1.02646,-0.960008,0.691567,-1.21542,0.80959,-0.838993,-0.855875,-1.02646,0.00827474,-0.524203,1.07963,0.983339,-0.0273507,0.0197437,0.178626,-0.594307,0.312534,0.382895,-0.528702,0.316329,0.380753,0.401449,-0.326042,1.4151,-3.55073,0.235879,-1.85118,-3.55073,0.256049,-1.85118,-0.842627,0.617633,-0.714673,0.596507,-0.521633,-0.335788,-0.619816,1
1.1655,-0.596435,-1.94541,-0.381413,2.15819,0.902998,-1.50786,1.1655,-0.596435,-1.94541,-0.381413,2.15819,0.902998,-1.50786,1.24967,-0.657388,-1.87354,-0.443091,2.21277,0.931045,-1.44599,-0.940186,0.703911,-1.21484,0.788677,-0.861006,-0.842045,-1.04803,-0.940186,0.703911,-1.21484,0.788677,-0.861006,-0.842045,-1.04803,0.00317473,-0.520905,1.08346,0.986548,-0.0269702,0.0262869,0.159072,-0.565403,0.33328,0.385296,-0.499355,0.335516,0.38229,0.366286,-0.323751,1.39595,-3.51633,0.229105,-1.91479,-3.51633,0.241323,-1.91479,-0.841762,0.609529,-0.718657,0.616781,-0.545804,-0.280473,-0.618631,1
1.15625,-0.592547,-1.9591,-0.373804,2.14621,0.902393,-1.51858,1.15625,-0.592547,-1.9591,-0.373804,2.14621,0.902393,-1.51858,1.2403,-0.650683,-1.88583,-0.434708,2.20404,0.922947,-1.45661,-0.937657,0.656728,-1.2321,0.871455,-0.876999,-0.796324,-1.06693,-0.937657,0.656728,-1.2321,0.871455,-0.876999,-0.796324,-1.06693,-0.00206768,-0.517603,1.0872,0.989378,-0.026762,0.0326268,0.139107,-0.602019,0.332654,0.377261,-0.539134,0.334349,0.373551,0.331337,-0.321179,1.37566,-3.49483,0.257254,-2.02981,-3.49483,0.234633,-2.02981,-0.840439,0.581358,-0.732705,0.609046,-0.578331,-0.205544,-0.619613,1
1.14729,-0.588166,-1.97216,-0.365261,2.13423,0.904487,-1.52949,1.14729,-0.588166,-1.97216,-0.365261,2.13423,0.904487,-1.52949,1.2311,-0.644127,-1.89819,-0.425629,2.19498,0.915382,-1.4674,-0.907053,0.658746,-1.23682,0.905555,-0.918009,-0.746384,-1.08239,-0.907053,0.658746,-1.23682,0.905555,-0.918009,-0.746384,-1.08239,-0.00746845,-0.514067,1.091,0.991806,-0.0269935,0.0387754,0.118695,-0.589682,0.360664,0.385033,-0.527331,0.363473,0.38044,0.296079,-0.318486,1.35439,-3.52583,0.269225,-2.12624,-3.52583,0.235928,-2.12624,-0.838086,0.559605,-0.739767,0.603681,-0.607521,-0.108948,-0.620925,1
1.13886,-0.586043,-1.98605,-0.358323,2.12152,0.912887,-1.54068,1.13886,-0.586043,-1.98605,-0.358323,2.12152,0.912887,-1.54068,1.22236,-0.637593,-1.9106,-0.416263,2.18535,0.908747,-1.4783,-0.871377,0.64675,-1.24645,0.960034,-0.977795,-0.634646,-1.09273,-0.871377,0.64675,-1.24645,0.960034,-0.977795,-0.634646,-1.09273,-0.0126396,-0.510205,1.09482,0.993775,-0.027811,0.0449594,0.0980605,-0.584068,0.390357,0.38888,-0.52231,0.397059,0.383237,0.261051,-0.315706,1.33215,-3.50277,0.27808,-2.22384,-3.50277,0.245742,-2.22384,-0.834953,0.515503,-0.754517,0.579396,-0.638278,0.0413961,-0.623731,1
1.13042,-0.585404,-1.99974,-0.351064,2.10925,0.920694,-1.55179,1.13042,-0.585404,-1.99974,-0.351064,2.10925,0.920694,-1.55179,1.21365,-0.631502,-1.92315,-0.406134,2.17522,0.903313,-1.48926,-0.864966,0.601247,-1.25541,0.999521,-1.02895,-0.514854,-1.09677,-0.864966,0.601247,-1.25541,0.999521,-1.02895,-0.514854,-1.09677,-0.0181067,-0.506172,1.09856,0.995304,-0.029279,0.0509662,0.076912,-0.595023,0.397474,0.373474,-0.533862,0.406478,0.366904,0.225862,-0.313337,1.30884,-3.51893,0.236899,-2.33165,-3.51893,0.25404,-2.33165,-0.832218,0.460989,-0.765972,0.550693,-0.65967,0.17381,-0.625297,1
1.12242,-0.582995,-2.01317,-0.340756,2.09629,0.930414,-1.56255,1.12242,-0.582995,-2.01317,-0.340756,2.09629,0.930414,-1.56255,1.20531,-0.625482,-1.93578,-0.396145,2.16438,0.899193,-1.50025,-0.831758,0.600252,-1.26626,1.01397,-1.09756,-0.373252,-1.09985,-0.831758,0.600252,-1.26626,1.01397,-1.09756,-0.373252,-1.09985,-0.0231717,-0.501875,1.10221,0.996316,-0.031366,0.0571918,0.0556668,-0.568659,0.430717,0.373705,-0.505774,0.444371,0.36575,0.19069,-0.310629,1.28486,-3.51725,0.270799,-2.39748,-3.51725,0.259082,-2.39748,-0.828918,0.424863,-0.77394,0.553891,-0.68088,0.312207,-0.622985,1
1.1142,-0.582529,-2.02684,-0.33005,2.08319,0.940872,-1.57383,1.1142,-0.582529,-2.02684,-0.33005,2.08319,0.940872,-1.57383,1.19678,-0.619587,-1.94856,-0.385878,2.15311,0.897279,-1.51127,-0.856685,0.584757,-1.28321,1.00421,-1.14227,-0.121278,-1.10376,-0.856685,0.584757,-1.28321,1.00421,-1.14227,-0.121278,-1.10376,-0.0283273,-0.497113,1.1058,0.996804,-0.0345843,0.0634639,0.0340326,-0.566373,0.463724,0.360187,-0.501354,0.485325,0.350429,0.155372,-0.308434,1.25977,-3.53178,0.219408,-2.50903,-3.53178,0.257856,-2.50903,-0.825827,0.370577,-0.782748,0.558279,-0.699243,0.435926,-0.625533,1
1.10611,-0.584075,-2.04036,-0.319827,2.07067,0.949934,-1.58544,1.10611,-0.584075,-2.04036,-0.319827,2.07067,0.949934,-1.58544,1.18832,-0.613878,-1.96145,-0.376251,2.14133,0.897741,-1.52234,-0.844797,0.559818,-1.28866,0.959243,-1.19069,0.101684,-1.10763,-0.844797,0.559818,-1.28866,0.959243,-1.19069,0.101684,-1.10763,-0.033043,-0.492129,1.10911,0.996713,-0.0387246,0.0700599,0.0124382,-0.532185,0.477334,0.335329,-0.463805,0.504357,0.323561,0.120007,-0.30616,1.23378,-3.53652,0.22741,-2.59949,-3.53652,0.25084,-2.59949,-0.82208,0.298025,-0.789084,0.564233,-0.706591,0.521932,-0.631043,1
1.09757,-0.593893,-2.05403,-0.311943,2.05804,0.958344,-1.5974,1.09757,-0.593893,-2.05403,-0.311943,2.05804,0.958344,-1.5974,1.17945,-0.608654,-1.97464,-0.366718,2.12917,0.900251,-1.5335,-0.904069,0.507964,-1.32896,0.939638,-1.22348,0.302463,-1.11934,-0.904069,0.507964,-1.32896,0.939638,-1.22348,0.302463,-1.11934,-0.0378493,-0.487091,1.1121,0.996045,-0.0435965,0.076826,-0.00954876,-0.550389,0.473309,0.299832,-0.478356,0.502916,0.286004,0.0851852,-0.303853,1.20647,-3.48215,0.2307,-2.73056,-3.48215,0.242469,-2.73056,-0.818785,0.147611,-0.79391,0.547749,-0.71129,0.580933,-0.639051,1
1.08914,-0.594642,-2.06666,-0.298128,2.0456,0.967566,-1.61032,1.08914,-0.594642,-2.06666,-0.298128,2.0456,0.967566,-1.61032,1.1704,-0.603347,-1.98784,-0.357576,2.11674,0.905142,-1.54468,-0.903578,0.543784,-1.31619,0.91368,-1.25291,0.563006,-1.11793,-0.903578,0.543784,-1.31619,0.91368,-1.25291,0.563006,-1.11793,-0.0423412,-0.481594,1.11497,0.994745,-0.0495742,0.0838625,-0.031504,-0.508852,0.536505,0.306777,-0.43234,0.575897,0.289772,0.0503019,-0.301092,1.17842,-3.48833,0.276107,-2.80521,-3.48833,0.240265,-2.80521,-0.812518,0.0870577,-0.788216,0.594476,-0.711446,0.62424,-0.656459,1
1.07887,-0.625739,-2.08102,-0.28888,2.035,0.97431,-1.62397,1.07887,-0.625739,-2.08102,-0.28888,2.035,0.97431,-1.62397,1.16103,-0.598285,-2.00122,-0.348262,2.10406,0.912329,-1.55589,-0.950627,0.480041,-1.34887,0.92582,-1.2748,0.7704,-1.12213,-0.950627,0.480041,-1.34887,0.92582,-1.2748,0.7704,-1.12213,-0.0468527,-0.475769,1.11765,0.992787,-0.0565917,0.0910487,-0.0536791,-0.531516,0.531869,0.270864,-0.451298,0.573892,0.251109,0.0151643,-0.298226,1.14927,-3.51377,0.286672,-2.91513,-3.51377,0.24638,-2.91513,-0.821574,-0.27454,-0.797934,0.593822,-0.690554,0.619817,-0.680822,1
1.07007,-0.623149,-2.09356,-0.275109,2.02365,0.983288,-1.63801,1.07007,-0.623149,-2.09356,-0.275109,2.02365,0.983288,-1.63801,1.15166,-0.594008,-2.01469,-0.339016,2.09118,0.921379,-1.56716,-0.927222,0.411433,-1.3415,0.924981,-1.29041,0.944755,-1.13035,-0.927222,0.411433,-1.3415,0.924981,-1.29041,0.944755,-1.13035,-0.0513074,-0.470151,1.11987,0.990192,-0.0641259,0.098317,-0.0757688,-0.516564,0.516427,0.233291,-0.433711,0.560022,0.210849,-0.0195661,-0.295772,1.11873,-3.47304,0.245363,-3.05425,-3.47304,0.250198,-3.05425,-0.815844,-0.291414,-0.788733,0.639068,-0.675304,0.619096,-0.708502,1
1.06015,-0.640862,-2.10859,-0.268101,2.01513,0.989195,-1.65193,1.06015,-0.640862,-2.10859,-0.268101,2.01513,0.989195,-1.65193,1.1424,-0.590338,-2.02822,-0.329519,2.07818,0.931625,-1.57862,-0.931009,0.351957,-1.35731,0.957626,-1.30418,1.05605,-1.15066,-0.931009,0.351957,-1.35731,0.957626,-1.30418,1.05605,-1.15066,-0.0557202,-0.464652,1.12177,0.98696,-0.0720279,0.105589,-0.0978378,-0.524427,0.506429,0.205688,-0.438813,0.54907,0.180637,-0.0543556,-0.293017,1.08724,-3.47894,0.275463,-3.14823,-3.47894,0.259486,-3.14823,-0.822563,-0.505238,-0.803688,0.614181,-0.630459,0.575698,-0.733107,1
1.05156,-0.636003,-2.12118,-0.258216,2.00577,0.998601,-1.66468,1.05156,-0.636003,-2.12118,-0.258216,2.00577,0.998601,-1.66468,1.13319,-0.587186,-2.04165,-0.319737,2.06525,0.942609,-1.59036,-0.91078,0.310181,-1.33333,0.983331,-1.28955,1.10947,-1.18271,-0.91078,0.310181,-1.33333,0.983331,-1.28955,1.10947,-1.18271,-0.0601437,-0.459248,1.12343,0.983109,-0.0801402,0.112746,-0.119844,-0.516115,0.502646,0.18921,-0.429841,0.543328,0.162078,-0.089021,-0.291053,1.0554,-3.46654,0.196397,-3.18433,-3.46654,0.258262,-3.18433,-0.816323,-0.488172,-0.795307,0.615211,-0.594776,0.559915,-0.743239,1
1.04227,-0.638211,-2.13442,-0.249814,1.99484,1.00602,-1.67723,1.04227,-0.638211,-2.13442,-0.249814,1.99484,1.00602,-1.67723,1.12425,-0.584401,-2.05495,-0.309302,2.05253,0.953917,-1.60246,-0.894027,0.252106,-1.32886,1.0534,-1.25881,1.13146,-1.21882,-0.894027,0.252106,-1.32886,1.0534,-1.25881,1.13146,-1.21882,-0.0645789,-0.453792,1.125,0.978652,-0.0884596,0.119628,-0.141786,-0.531133,0.495527,0.173896,-0.445618,0.533123,0.145224,-0.123411,-0.289433,1.02169,-3.43897,0.16202,-3.37088,-3.43897,0.24481,-3.37088,-0.819811,-0.538099,-0.794778,0.594877,-0.576921,0.521076,-0.747678,1
1.03293,-0.638204,-2.14744,-0.239639,1.98507,1.01433,-1.68979,1.03293,-0.638204,-2.14744,-0.239639,1.98507,1.01433,-1.68979,1.11543,-0.582812,-2.0683,-0.298734,2.04022,0.965111,-1.61494,-0.873947,0.13793,-1.33611,1.06775,-1.22265,1.11828,-1.26056,-0.873947,0.13793,-1.33611,1.06775,-1.22265,1.11828,-1.26056,-0.0692376,-0.449112,1.12603,0.973682,-0.0961932,0.12623,-0.163574,-0.547857,0.429564,0.123163,-0.463673,0.458766,0.0940911,-0.157584,-0.286462,0.987624,-3.41734,0.297084,-3.40682,-3.41734,0.236405,-3.40682,-0.824982,-0.553927,-0.791386,0.590947,-0.551425,0.492164,-0.748454,1
1.02418,-0.637422,-2.16044,-0.228951,1.97545,1.02335,-1.703,1.02418,-0.637422,-2.16044,-0.228951,1.97545,1.02335,-1.703,1.10702,-0.582034,-2.08149,-0.287781,2.02861,0.975994,-1.62796,-0.835333,0.0515574,-1.31957,1.08376,-1.14338,1.07555,-1.3147,-0.835333,0.0515574,-1.31957,1.08376,-1.14338,1.07555,-1.3147,-0.0740174,-0.444854,1.12679,0.968254,-0.103567,0.132329,-0.185059,-0.554143,0.382055,0.0894906,-0.473733,0.404337,0.0608053,-0.191912,-0.284104,0.953325,-3.43279,0.23585,-3.4299,-3.43279,0.230603,-3.4299,-0.828433,-0.553879,-0.789431,0.5883,-0.531538,0.473557,-0.750418,1
1.01547,-0.639371,-2.17394,-0.220278,1.96587,1.02944,-1.71601,1.01547,-0.639371,-2.17394,-0.220278,1.96587,1.02944,-1.71601,1.09868,-0.582302,-2.0948,-0.276883,2.01775,0.986345,-1.64136,-0.832193,-0.0494242,-1.32419,1.10416,-1.06181,1.0238,-1.34494,-0.832193,-0.0494242,-1.32419,1.10416,-1.06181,1.0238,-1.34494,-0.0790434,-0.441365,1.12708,0.962414,-0.110172,0.138089,-0.206286,-0.58534,0.326872,0.0500493,-0.508779,0.340891,0.0223146,-0.226055,-0.281838,0.917865,-3.41433,0.226605,-3.54603,-3.41433,0.22936,-3.54603,-0.832122,-0.570686,-0.791452,0.566058,-0.518722,0.430984,-0.746502,1
1.00687,-0.641209,-2.18705,-0.211163,1.95789,1.03573,-1.72914,1.00687,-0.641209,-2.18705,-0.211163,1.95789,1.03573,-1.72914,1.09041,-0.583365,-2.10797,-0.266078,2.00752,0.99653,-1.65491,-0.825554,-0.130583,-1.32098,1.05463,-1.01638,1.00482,-1.3561,-0.825554,-0.130583,-1.32098,1.05463,-1.01638,1.00482,-1.3561,-0.0842077,-0.438388,1.12702,0.956194,-0.116313,0.143565,-0.227055,-0.58512,0.266156,0.0046644,-0.509811,0.272242,-0.0228235,-0.260262,-0.27923,0.882029,-3.42068,0.260735,-3.58362,-3.42068,0.232576,-3.58362,-0.835379,-0.578447,-0.790856,0.549147,-0.496284,0.391996,-0.742281,1
0.998204,-0.646682,-2.20021,-0.204378,1.94987,1.03816,-1.74132,0.998204,-0.646682,-2.20021,-0.204378,1.94987,1.03816,-1.74132,1.0821,-0.585663,-2.12107,-0.2553,1.99774,1.00633,-1.66835,-0.837994,-0.259513,-1.30801,1.09511,-0.968503,0.97385,-1.34061,-0.837994,-0.259513,-1.30801,1.09511,-0.968503,0.97385,-1.34061,-0.0897476,-0.436242,1.12643,0.949661,-0.12166,0.148794,-0.247393,-0.637863,0.205334,-0.0425621,-0.566694,0.203821,-0.068648,-0.293802,-0.276775,0.844571,-3.35404,0.245583,-3.74579,-3.35404,0.24238,-3.74579,-0.838941,-0.610189,-0.791353,0.509212,-0.478722,0.318335,-0.729656,1
0.98963,-0.650626,-2.21316,-0.197397,1.94396,1.04102,-1.75401,0.98963,-0.650626,-2.21316,-0.197397,1.94396,1.04102,-1.75401,1.07358,-0.588808,-2.13409,-0.244611,1.98821,1.01591,-1.68168,-0.848217,-0.330078,-1.29498,1.06112,-0.946509,0.953872,-1.33058,-0.848217,-0.330078,-1.29498,1.06112,-0.946509,0.953872,-1.33058,-0.0955607,-0.434637,1.12546,0.942768,-0.12644,0.153939,-0.267404,-0.647537,0.159307,-0.0797041,-0.57757,0.150685,-0.105441,-0.327923,-0.274683,0.805959,-3.41206,0.209171,-3.86124,-3.41206,0.244642,-3.86124,-0.83954,-0.618183,-0.790778,0.472141,-0.442573,0.251078,-0.72332,1
0.981289,-0.654245,-2.22614,-0.190438,1.93797,1.04534,-1.76702,0.981289,-0.654245,-2.22614,-0.190438,1.93797,1.04534,-1.76702,1.0651,-0.592379,-2.14699,-0.233868,1.97884,1.02521,-1.69498,-0.859326,-0.365228,-1.30013,1.0834,-0.93717,0.917751,-1.3289,-0.859326,-0.365228,-1.30013,1.0834,-0.93717,0.917751,-1.3289,-0.101435,-0.433259,1.12432,0.935497,-0.130892,0.159028,-0.287093,-0.660575,0.151252,-0.091005,-0.591384,0.137103,-0.116808,-0.362567,-0.27197,0.766734,-3.46437,0.271279,-3.92241,-3.46437,0.240649,-3.92241,-0.838078,-0.618661,-0.791442,0.434308,-0.408629,0.201321,-0.7204,1
0.97281,-0.659618,-2.23888,-0.186809,1.93494,1.04128,-1.77905,0.97281,-0.659618,-2.23888,-0.186809,1.93494,1.04128,-1.77905,1.0565,-0.596406,-2.15984,-0.223416,1.96976,1.03384,-1.70824,-0.855515,-0.411153,-1.28361,1.02939,-0.900412,0.850074,-1.32591,-0.855515,-0.411153,-1.28361,1.02939,-0.900412,0.850074,-1.32591,-0.107406,-0.432288,1.12296,0.927922,-0.134705,0.164079,-0.306421,-0.656828,0.109031,-0.11852,-0.590307,0.0872057,-0.143234,-0.396647,-0.269263,0.726576,-3.40803,0.270712,-4.01582,-3.40803,0.245734,-4.01582,-0.836929,-0.632123,-0.790392,0.366064,-0.348258,0.0743673,-0.708117,1
0.964729,-0.665008,-2.25186,-0.190565,1.93378,1.03312,-1.79079,0.964729,-0.665008,-2.25186,-0.190565,1.93378,1.03312,-1.79079,1.04796,-0.600686,-2.17273,-0.213337,1.96098,1.04142,-1.72138,-0.860441,-0.442505,-1.29353,1.00297,-0.865781,0.725136,-1.3103,-0.860441,-0.442505,-1.29353,1.00297,-0.865781,0.725136,-1.3103,-0.113354,-0.431703,1.12146,0.920096,-0.137761,0.169122,-0.325334,-0.663383,0.0779673,-0.133195,-0.60028,0.0468919,-0.156223,-0.429972,-0.268026,0.685289,-3.33248,0.123709,-4.12871,-3.33248,0.236339,-4.12871,-0.832306,-0.643216,-0.791311,0.227711,-0.272023,-0.0829469,-0.694082,1
0.956371,-0.669738,-2.26488,-0.200745,1.93392,1.03436,-1.8031,0.956371,-0.669738,-2.26488,-0.200745,1.93392,1.03436,-1.8031,1.0392,-0.606041,-2.18581,-0.204134,1.95276,1.04758,-1.73442,-0.879424,-0.561355,-1.31378,0.901356,-0.809694,0.587745,-1.30144,-0.879424,-0.561355,-1.31378,0.901356,-0.809694,0.587745,-1.30144,-0.119675,-0.432255,1.11939,0.912186,-0.139328,0.174131,-0.343778,-0.696772,-0.0334526,-0.201072,-0.639438,-0.079055,-0.220588,-0.465131,-0.264068,0.643822,-3.51591,0.395757,-4.14674,-3.51591,0.244299,-4.14674,-0.828303,-0.636965,-0.790695,0.0338935,-0.188363,-0.13226,-0.686854,1
0.949063,-0.678105,-2.27821,-0.225015,1.94436,1.02893,-1.81334,0.949063,-0.678105,-2.27821,-0.225015,1.94436,1.02893,-1.81334,1.03043,-0.612037,-2.19886,-0.195565,1.94536,1.05235,-1.74735,-0.879077,-0.610168,-1.3058,0.832169,-0.717767,0.433073,-1.2917,-0.879077,-0.610168,-1.3058,0.832169,-0.717767,0.433073,-1.2917,-0.126255,-0.433516,1.11702,0.904261,-0.139753,0.178896,-0.36163,-0.710737,-0.087186,-0.228059,-0.660914,-0.142065,-0.244098,-0.498761,-0.261768,0.600276,-3.36304,0.230068,-4.35462,-3.36304,0.250694,-4.35462,-0.813631,-0.660678,-0.793533,-0.294506,-0.00998838,-0.234219,-0.659804,1
