Afshin1997/kuka_rl_ros2/src/catch_and_throw/output_files/tm/nn_ema7.00_jvws1_realball_D24H09M49S41/recorded_data.csv
pure_target_joint_0,pure_target_joint_1,pure_target_joint_2,pure_target_joint_3,pure_target_joint_4,pure_target_joint_5,pure_target_joint_6,target_joint_0,target_joint_1,target_joint_2,target_joint_3,target_joint_4,target_joint_5,target_joint_6,pos_joint_0,pos_joint_1,pos_joint_2,pos_joint_3,pos_joint_4,pos_joint_5,pos_joint_6,vel_joint_0,vel_joint_1,vel_joint_2,vel_joint_3,vel_joint_4,vel_joint_5,vel_joint_6,vel_smooth_joint_0,vel_smooth_joint_1,vel_smooth_joint_2,vel_smooth_joint_3,vel_smooth_joint_4,vel_smooth_joint_5,vel_smooth_joint_6,ee_pos_x,ee_pos_y,ee_pos_z,ee_or_w,ee_or_x,ee_or_y,ee_or_z,ee_vel_x,ee_vel_y,ee_vel_z,ball_pos_x,ball_pos_y,ball_pos_z,ball_raw_vx,ball_raw_vy,ball_raw_vz,ball_ema_vx,ball_ema_vy,ball_ema_vz,action_0,action_1,action_2,action_3,action_4,action_5,action_6,command_published
1.72346,-1.007,-1.82606,-1.16126,1.99648,1.19131,-0.94642,1.76605,-1.05023,-1.81789,-1.12803,1.95208,1.13551,-0.923813,1.78024,-1.06464,-1.81517,-1.11695,1.93728,1.11691,-0.916277,0,0,0,0,0,0,0,0,0,0,0,0,0,0,0.531035,-0.454466,0.694302,0.574566,0.175163,0.152583,0.7848,0,0,0,2.9847,-0.463548,0.123182,-3.66814,-0.0738204,5.06236,-3.8255,-0.158439,4.43633,-0.56784,0.576472,-0.108941,-0.44306,0.591989,0.744058,-0.30143,1
1.7195,-1.0076,-1.8134,-1.1606,2.00082,1.19038,-0.941157,1.73667,-1.02156,-1.82017,-1.15001,1.98276,1.17248,-0.937568,1.78024,-1.06464,-1.81517,-1.11695,1.93728,1.11691,-0.916277,0,0,0,0,0,0,0,0,0,0,0,0,0,0,0.531035,-0.454466,0.694302,0.574566,0.175163,0.152583,0.7848,0,0,0,2.94647,-0.463643,0.173188,-3.82309,-0.00950396,5.00063,-3.81347,-0.114282,4.60985,-0.607408,0.570409,0.0177291,-0.43648,0.635404,0.734693,-0.248802,1
1.71152,-0.992799,-1.80716,-1.1422,2.00017,1.18842,-0.944321,1.7185,-1.00375,-1.815,-1.15616,1.99957,1.19012,-0.943264,1.77857,-1.06295,-1.81549,-1.11825,1.93902,1.11909,-0.917162,-0.333625,0.338694,-0.0640041,-0.260309,0.34781,0.437155,-0.1771,-0.333625,0.338694,-0.0640041,-0.260309,0.34781,0.437155,-0.1771,0.530018,-0.454468,0.695,0.575214,0.174191,0.152274,0.784601,-0.187928,-0.00317747,0.131598,2.9091,-0.463947,0.221887,-3.73695,-0.0304103,4.86988,-3.79,-0.078378,4.71099,-0.670522,0.701509,0.0832848,-0.239503,0.61151,0.693238,-0.271588,1
1.70022,-0.984006,-1.83496,-1.13887,2.00905,1.18939,-0.940147,1.71069,-0.994302,-1.81567,-1.14597,2.00255,1.18915,-0.942487,1.77235,-1.05677,-1.81629,-1.123,1.94551,1.12707,-0.92025,-0.95032,0.937604,-0.103438,-0.719485,0.992005,1.20927,-0.461203,-0.95032,0.937604,-0.103438,-0.719485,0.992005,1.20927,-0.461203,0.526214,-0.454481,0.697664,0.577514,0.170583,0.150953,0.783959,-0.535945,-0.0081789,0.386108,2.8716,-0.46422,0.269622,-3.7503,-0.0273407,4.77348,-3.75999,-0.0545638,4.73632,-0.72127,0.727612,-0.18672,-0.158715,0.63534,0.62323,-0.198977,1
1.69056,-0.972796,-1.84558,-1.14751,2.01764,1.20063,-0.943031,1.70063,-0.983402,-1.83066,-1.14186,2.00898,1.19196,-0.941912,1.76232,-1.04689,-1.81654,-1.1297,1.95573,1.13918,-0.92475,-1.16705,1.14869,0.0409137,-0.704798,1.16752,1.35635,-0.493009,-1.16705,1.14869,0.0409137,-0.704798,1.16752,1.35635,-0.493009,0.519969,-0.45462,0.7024,0.581233,0.164666,0.148544,0.782936,-0.676805,-0.0320743,0.557954,2.83393,-0.464566,0.316641,-3.76689,-0.0345498,4.70198,-3.75075,-0.0406035,4.70675,-0.71762,0.740904,-0.290365,-0.178157,0.61915,0.614499,-0.182811,1
1.68028,-0.960109,-1.84646,-1.1397,2.02696,1.20904,-0.956959,1.69041,-0.972427,-1.84314,-1.1434,2.01782,1.19993,-0.945792,1.75171,-1.03623,-1.81628,-1.13435,1.96578,1.15034,-0.928754,-1.09229,1.11664,0.0162261,-0.309297,0.979288,1.03352,-0.365695,-1.09229,1.11664,0.0162261,-0.309297,0.979288,1.03352,-0.365695,0.513163,-0.455348,0.708105,0.585726,0.158459,0.146065,0.781333,-0.661111,-0.128867,0.600986,2.79699,-0.464928,0.362786,-3.69394,-0.036189,4.61442,-3.74856,-0.0320294,4.63584,-0.714311,0.761261,-0.301769,-0.0534963,0.611863,0.587039,-0.282054,1
1.66777,-0.948742,-1.85464,-1.12884,2.03588,1.21187,-0.963005,1.67972,-0.960439,-1.84828,-1.13894,2.02686,1.20765,-0.954989,1.74146,-1.02568,-1.81791,-1.13644,1.97467,1.15925,-0.931724,-1.08708,1.12578,-0.339755,-0.144419,0.913662,0.870905,-0.271291,-1.08708,1.12578,-0.339755,-0.144419,0.913662,0.870905,-0.271291,0.506591,-0.457067,0.713481,0.590912,0.153331,0.144467,0.778744,-0.651105,-0.239826,0.509293,2.75917,-0.464801,0.408076,-3.78189,0.0126183,4.52906,-3.75258,-0.0248211,4.54512,-0.736859,0.769365,-0.367345,0.0759787,0.612112,0.526157,-0.312812,1
1.65661,-0.937904,-1.86464,-1.12712,2.04218,1.21491,-0.967405,1.66811,-0.948874,-1.85509,-1.13113,2.03523,1.21192,-0.962594,1.73122,-1.01504,-1.82219,-1.13782,1.98329,1.16742,-0.934433,-1.08694,1.13468,-0.55783,-0.148565,0.919471,0.865501,-0.302472,-1.08694,1.13468,-0.55783,-0.148565,0.919471,0.865501,-0.302472,0.500213,-0.459435,0.718031,0.596637,0.149213,0.143725,0.775308,-0.642952,-0.270579,0.435073,2.72153,-0.465082,0.451575,-3.76389,-0.0281066,4.34991,-3.74744,-0.0240581,4.44537,-0.746149,0.771336,-0.424449,0.106945,0.588891,0.474879,-0.329717,1
1.64757,-0.926657,-1.87218,-1.1261,2.04566,1.22587,-0.970887,1.65714,-0.937802,-1.86402,-1.1273,2.04148,1.21689,-0.967176,1.72094,-1.0042,-1.82743,-1.13853,1.99199,1.17552,-0.938027,-1.09758,1.16541,-0.555222,-0.0109119,0.928467,0.855501,-0.451683,-1.09758,1.16541,-0.555222,-0.0109119,0.928467,0.855501,-0.451683,0.49373,-0.462092,0.722493,0.603103,0.145169,0.143252,0.77115,-0.675477,-0.300327,0.48541,2.68403,-0.465238,0.493964,-3.75001,-0.0155896,4.23889,-3.75036,-0.0208386,4.34134,-0.733654,0.775466,-0.447472,0.124265,0.536618,0.50346,-0.328602,1
1.63756,-0.915283,-1.87917,-1.12297,2.05385,1.23246,-0.974857,1.64733,-0.926625,-1.87204,-1.12557,2.04684,1.22478,-0.971009,1.71046,-0.993164,-1.83284,-1.1377,2.00069,1.18313,-0.942672,-1.12776,1.17939,-0.592483,0.175079,0.919644,0.766747,-0.53049,-1.12776,1.17939,-0.592483,0.175079,0.919644,0.766747,-0.53049,0.486893,-0.465225,0.72737,0.610612,0.140932,0.142798,0.766094,-0.716269,-0.367703,0.523893,2.6466,-0.465228,0.535924,-3.743,0.000989437,4.19599,-3.75086,-0.0161609,4.23694,-0.728988,0.778806,-0.463272,0.147361,0.531648,0.493287,-0.321849,1
1.62695,-0.90388,-1.88586,-1.11987,2.06104,1.23774,-0.981735,1.63741,-0.915276,-1.87909,-1.12298,2.0536,1.23213,-0.975584,1.6998,-0.982066,-1.83882,-1.1358,2.00906,1.19008,-0.947617,-1.13601,1.17872,-0.671296,0.226331,0.863099,0.713864,-0.520821,-1.13601,1.17872,-0.671296,0.226331,0.863099,0.713864,-0.520821,0.479861,-0.46875,0.732325,0.618739,0.13684,0.142601,0.76033,-0.724294,-0.386936,0.508007,2.60901,-0.46554,0.57645,-3.75924,-0.0311494,4.05257,-3.75241,-0.0141484,4.12711,-0.728468,0.781863,-0.470395,0.159255,0.519751,0.476618,-0.341174,1
1.61629,-0.892578,-1.89277,-1.11483,2.06666,1.24386,-0.989064,1.62694,-0.903905,-1.88591,-1.11938,2.06065,1.23795,-0.981848,1.68921,-0.970961,-1.84533,-1.13372,2.01686,1.19694,-0.952394,-1.1153,1.18063,-0.711224,0.216789,0.798201,0.741281,-0.4957,-1.1153,1.18063,-0.711224,0.216789,0.798201,0.741281,-0.4957,0.472855,-0.472197,0.737127,0.626893,0.132806,0.14281,0.754303,-0.717151,-0.359537,0.494211,2.57165,-0.465658,0.616083,-3.73626,-0.0117838,3.96328,-3.75458,-0.0136214,4.01781,-0.729211,0.783833,-0.47432,0.188898,0.497998,0.469214,-0.366697,1
1.60572,-0.881424,-1.90015,-1.11097,2.07253,1.2508,-0.99462,1.61631,-0.892615,-1.89288,-1.11512,2.06672,1.24407,-0.98862,1.67878,-0.959821,-1.85207,-1.13161,2.02429,1.20396,-0.957049,-1.10166,1.18619,-0.719629,0.229873,0.780571,0.750172,-0.493564,-1.10166,1.18619,-0.719629,0.229873,0.780571,0.750172,-0.493564,0.465882,-0.475398,0.741887,0.634942,0.128643,0.143257,0.748183,-0.718352,-0.34021,0.499189,2.53443,-0.465763,0.654605,-3.72224,-0.0105381,3.85222,-3.74654,-0.0154917,3.91102,-0.730647,0.783968,-0.480761,0.20644,0.48241,0.468429,-0.375704,1
1.59509,-0.870384,-1.90809,-1.10472,2.07835,1.25906,-0.999625,1.6057,-0.881453,-1.90029,-1.11037,2.07252,1.25113,-0.994482,1.6684,-0.948631,-1.85885,-1.12928,2.0316,1.21088,-0.961885,-1.10406,1.19102,-0.720655,0.263455,0.773529,0.721,-0.531583,-1.10406,1.19102,-0.720655,0.263455,0.773529,0.721,-0.531583,0.45886,-0.478479,0.746723,0.643063,0.124397,0.143797,0.741834,-0.727754,-0.335479,0.510733,2.49713,-0.466344,0.69241,-3.72963,-0.0580579,3.78054,-3.74065,-0.0187946,3.81409,-0.73309,0.782472,-0.492371,0.245613,0.467514,0.481813,-0.377395,1
1.58444,-0.859423,-1.91601,-1.09832,2.08467,1.26754,-1.00436,1.59508,-0.870404,-1.90808,-1.10468,2.07848,1.25911,-0.999557,1.65798,-0.937411,-1.86565,-1.12659,2.03874,1.21758,-0.967097,-1.10957,1.19288,-0.725077,0.305336,0.745186,0.705226,-0.573159,-1.10957,1.19288,-0.725077,0.305336,0.745186,0.705226,-0.573159,0.451738,-0.481514,0.751664,0.651396,0.120068,0.144444,0.735121,-0.740706,-0.332375,0.522304,2.45986,-0.466706,0.728931,-3.72663,-0.0362456,3.6521,-3.73586,-0.0244907,3.71439,-0.73545,0.779881,-0.503547,0.282675,0.459342,0.49955,-0.372617,1
1.57341,-0.848332,-1.92369,-1.09194,2.09077,1.27448,-1.00942,1.58434,-0.859391,-1.91595,-1.09833,2.08462,1.26715,-1.00444,1.64752,-0.926191,-1.87255,-1.12349,2.04561,1.22427,-0.972546,-1.11344,1.19134,-0.738659,0.349517,0.716534,0.715241,-0.584122,-1.11344,1.19134,-0.738659,0.349517,0.716534,0.715241,-0.584122,0.444482,-0.484506,0.756697,0.65991,0.115576,0.14521,0.728062,-0.756056,-0.32988,0.531229,2.42263,-0.467115,0.764377,-3.7235,-0.0408739,3.54456,-3.73121,-0.0309927,3.60946,-0.741028,0.778585,-0.511398,0.315514,0.451588,0.502117,-0.368687,1
1.56227,-0.837205,-1.93109,-1.08586,2.0964,1.28032,-1.01554,1.57338,-0.848323,-1.92362,-1.09202,2.09065,1.27421,-1.00968,1.63702,-0.914996,-1.8796,-1.11992,2.05226,1.23115,-0.977995,-1.11673,1.18746,-0.758471,0.405882,0.698059,0.744633,-0.574175,-1.11673,1.18746,-0.758471,0.405882,0.698059,0.744633,-0.574175,0.437051,-0.487477,0.761822,0.668534,0.110855,0.146036,0.720726,-0.776509,-0.331277,0.541933,2.38558,-0.467651,0.799082,-3.705,-0.0536054,3.47046,-3.72464,-0.0363954,3.51004,-0.747551,0.777915,-0.514892,0.340584,0.441341,0.491745,-0.37541,1
1.55122,-0.826166,-1.93868,-1.07935,2.10147,1.28682,-1.02185,1.56229,-0.837227,-1.93114,-1.08576,2.09626,1.28049,-1.01558,1.62648,-0.903839,-1.88682,-1.1158,2.05878,1.23828,-0.983338,-1.12214,1.18366,-0.775584,0.465457,0.687983,0.768903,-0.561929,-1.12214,1.18366,-0.775584,0.465457,0.687983,0.768903,-0.561929,0.429407,-0.490446,0.76706,0.677244,0.105877,0.146861,0.713136,-0.799141,-0.33323,0.555022,2.34843,-0.468265,0.832888,-3.71447,-0.0613928,3.38068,-3.72086,-0.0441721,3.41192,-0.75259,0.776726,-0.518582,0.364499,0.42692,0.485375,-0.38514,1
1.54017,-0.815218,-1.94661,-1.07231,2.10678,1.29386,-1.02787,1.55122,-0.826189,-1.93877,-1.07922,2.10153,1.28696,-1.02178,1.61587,-0.892706,-1.89417,-1.1112,2.06521,1.2455,-0.988621,-1.13154,1.18194,-0.784281,0.510743,0.677634,0.764585,-0.560824,-1.13154,1.18194,-0.784281,0.510743,0.677634,0.764585,-0.560824,0.421563,-0.493397,0.772416,0.686024,0.100712,0.147694,0.705276,-0.818189,-0.330541,0.56713,2.31204,-0.468539,0.865681,-3.6397,-0.0273645,3.2793,-3.71016,-0.0468326,3.31549,-0.757064,0.774886,-0.524412,0.388817,0.415687,0.483637,-0.392441,1
1.52904,-0.804274,-1.95476,-1.06508,2.11178,1.30052,-1.03416,1.54015,-0.815219,-1.94666,-1.07226,2.1067,1.29376,-1.02794,1.60517,-0.881585,-1.90157,-1.10622,2.07149,1.25258,-0.993973,-1.14188,1.18127,-0.787493,0.544919,0.659516,0.74306,-0.575514,-1.14188,1.18127,-0.787493,0.544919,0.659516,0.74306,-0.575514,0.413564,-0.496286,0.777873,0.694871,0.0954491,0.148589,0.697112,-0.833196,-0.322765,0.577706,2.27465,-0.468474,0.897693,-3.73909,0.00644028,3.20117,-3.70464,-0.0400211,3.22093,-0.761353,0.773107,-0.531904,0.411402,0.40283,0.479332,-0.401868,1
1.5179,-0.793418,-1.96298,-1.05717,2.1163,1.30751,-1.04041,1.52904,-0.804296,-1.95477,-1.06491,2.11166,1.3006,-1.03415,1.59439,-0.870476,-1.909,-1.10092,2.07759,1.25952,-0.999481,-1.14952,1.17939,-0.792586,0.577948,0.6375,0.730688,-0.593721,-1.14952,1.17939,-0.792586,0.577948,0.6375,0.730688,-0.593721,0.405437,-0.499074,0.783417,0.70378,0.0900959,0.149586,0.688622,-0.84728,-0.312385,0.587154,2.23673,-0.46876,0.927485,-3.79169,-0.0285596,2.97918,-3.71039,-0.0348811,3.11748,-0.764823,0.770575,-0.539741,0.437589,0.387046,0.479968,-0.409321,1
1.50675,-0.782587,-1.97099,-1.04955,2.12147,1.31451,-1.04648,1.5179,-0.793424,-1.96293,-1.05724,2.11646,1.30751,-1.04037,1.58354,-0.859391,-1.91651,-1.09531,2.08349,1.26639,-1.00514,-1.15544,1.17631,-0.80289,0.613589,0.617995,0.729075,-0.607147,-1.15544,1.17631,-0.80289,0.613589,0.617995,0.729075,-0.607147,0.397178,-0.501749,0.789041,0.712738,0.0846158,0.150682,0.679809,-0.862382,-0.301995,0.595862,2.19952,-0.469406,0.957088,-3.72112,-0.0645846,2.9603,-3.71721,-0.03321,3.01337,-0.767815,0.768039,-0.544787,0.457512,0.379721,0.481217,-0.413428,1
1.49568,-0.771685,-1.97895,-1.04232,2.12693,1.32125,-1.05272,1.50677,-0.782569,-1.97098,-1.04965,2.12154,1.31445,-1.04652,1.57263,-0.848336,-1.92414,-1.08934,2.08921,1.27325,-1.01091,-1.16102,1.17281,-0.815895,0.650745,0.597761,0.728518,-0.618884,-1.16102,1.17281,-0.815895,0.650745,0.597761,0.728518,-0.618884,0.388781,-0.504308,0.79474,0.721728,0.0789917,0.151873,0.670674,-0.877783,-0.291258,0.604283,2.16239,-0.469687,0.985683,-3.71277,-0.0281364,2.8595,-3.72395,-0.0307517,2.90717,-0.76949,0.766518,-0.54811,0.470204,0.37717,0.480078,-0.418145,1
1.48467,-0.760793,-1.98694,-1.03515,2.13234,1.32824,-1.05903,1.4957,-0.771687,-1.97896,-1.04234,2.12692,1.32131,-1.05274,1.56168,-0.837317,-1.93187,-1.08304,2.09474,1.28011,-1.01678,-1.16592,1.16888,-0.826988,0.687008,0.578401,0.729788,-0.628089,-1.16592,1.16888,-0.826988,0.687008,0.578401,0.729788,-0.628089,0.380248,-0.506738,0.800513,0.730732,0.0732169,0.153158,0.661221,-0.892763,-0.278452,0.613043,2.12537,-0.47002,1.01309,-3.70219,-0.033319,2.74097,-3.72721,-0.0303362,2.80004,-0.770066,0.765244,-0.550706,0.478912,0.37605,0.481337,-0.422489,1
1.47368,-0.749919,-1.99491,-1.02774,2.13749,1.33556,-1.06551,1.48468,-0.760797,-1.98693,-1.03509,2.13228,1.32832,-1.05907,1.55069,-0.826333,-1.93969,-1.07644,2.10014,1.28699,-1.02272,-1.16947,1.16544,-0.83329,0.713438,0.569845,0.731279,-0.633868,-1.16947,1.16544,-0.83329,0.713438,0.569845,0.731279,-0.633868,0.371592,-0.509011,0.806357,0.7397,0.0672971,0.154509,0.651492,-0.905095,-0.261632,0.620817,2.08819,-0.470449,1.03948,-3.71764,-0.0428826,2.63849,-3.73011,-0.0348227,2.69423,-0.770057,0.764142,-0.552218,0.486974,0.373452,0.485748,-0.427881,1
1.46274,-0.739017,-2.00278,-1.0203,2.14282,1.34276,-1.0719,1.47369,-0.749912,-1.99488,-1.02773,2.13753,1.33553,-1.06549,1.53967,-0.815374,-1.94755,-1.06965,2.10551,1.29387,-1.02872,-1.17106,1.16338,-0.836501,0.727465,0.570168,0.730941,-0.639725,-1.17106,1.16338,-0.836501,0.727465,0.570168,0.730941,-0.639725,0.362846,-0.511089,0.812259,0.748578,0.06126,0.155893,0.641542,-0.913321,-0.240499,0.626524,2.05087,-0.470888,1.06479,-3.73197,-0.0438809,2.53127,-3.72337,-0.0401203,2.59029,-0.769364,0.763562,-0.552319,0.493551,0.373183,0.48893,-0.431867,1
1.45179,-0.728144,-2.01069,-1.01261,2.14855,1.34999,-1.07822,1.46274,-0.739024,-2.00279,-1.02024,2.14292,1.34277,-1.07188,1.52865,-0.804431,-1.95543,-1.06276,2.11087,1.30076,-1.03478,-1.17101,1.16197,-0.838948,0.736871,0.569994,0.734009,-0.647076,-1.17101,1.16197,-0.838948,0.736871,0.569994,0.734009,-0.647076,0.354039,-0.512942,0.818203,0.757328,0.0551162,0.157304,0.631405,-0.919271,-0.216586,0.631247,2.01451,-0.471679,1.08947,-3.63588,-0.0790745,2.46848,-3.70763,-0.0445813,2.49703,-0.768667,0.762868,-0.55255,0.50151,0.376749,0.492287,-0.434429,1
1.44079,-0.71731,-2.01861,-1.00466,2.15435,1.35729,-1.0846,1.45177,-0.728154,-2.01069,-1.01254,2.14857,1.35001,-1.07824,1.51763,-0.7935,-1.96333,-1.05578,2.11622,1.30771,-1.0409,-1.17013,1.16076,-0.84019,0.746783,0.567517,0.740995,-0.654701,-1.17013,1.16076,-0.84019,0.746783,0.567517,0.740995,-0.654701,0.345185,-0.514546,0.824186,0.765937,0.0488465,0.158747,0.621091,-0.924433,-0.191058,0.636349,1.97731,-0.472208,1.11284,-3.72041,-0.0529259,2.33697,-3.70313,-0.0473474,2.39483,-0.768481,0.761901,-0.552769,0.511194,0.38127,0.495846,-0.436982,1
1.42983,-0.70654,-2.02671,-0.996833,2.15974,1.36485,-1.09098,1.4408,-0.717326,-2.01866,-1.00469,2.15425,1.35736,-1.0846,1.50663,-0.782579,-1.97124,-1.04869,2.12157,1.31471,-1.04709,-1.16884,1.15988,-0.840081,0.757738,0.56854,0.747162,-0.660183,-1.16884,1.15988,-0.840081,0.757738,0.56854,0.747162,-0.660183,0.336291,-0.515891,0.830215,0.774393,0.0424386,0.160216,0.610611,-0.929109,-0.164961,0.642167,1.94038,-0.472874,1.13534,-3.69291,-0.0665992,2.24947,-3.69938,-0.0541619,2.29454,-0.767962,0.760394,-0.554708,0.518592,0.381691,0.501407,-0.438907,1
1.41882,-0.69582,-2.03492,-0.988987,2.16532,1.37241,-1.09718,1.42982,-0.706552,-2.02674,-0.996827,2.15979,1.36485,-1.09094,1.49563,-0.771667,-1.97915,-1.04149,2.12696,1.32177,-1.05332,-1.16787,1.15873,-0.839943,0.770911,0.575462,0.752008,-0.663386,-1.16787,1.15873,-0.839943,0.770911,0.575462,0.752008,-0.663386,0.327354,-0.51698,0.836294,0.782686,0.0358959,0.161688,0.599976,-0.934274,-0.139482,0.648567,1.90372,-0.473442,1.15695,-3.66632,-0.0567853,2.16134,-3.69336,-0.058694,2.19771,-0.768085,0.758475,-0.557688,0.52507,0.383599,0.506376,-0.438594,1
1.40784,-0.685097,-2.0431,-0.981064,2.171,1.37993,-1.10339,1.41883,-0.695819,-2.03491,-0.988968,2.16534,1.3724,-1.09718,1.48464,-0.76077,-1.98706,-1.03417,2.1324,1.32888,-1.05958,-1.16748,1.15688,-0.841323,0.784983,0.581653,0.758339,-0.666248,-1.16748,1.15688,-0.841323,0.784983,0.581653,0.758339,-0.666248,0.318371,-0.517816,0.842423,0.790813,0.0292192,0.163151,0.589189,-0.939497,-0.114203,0.654274,1.86681,-0.474129,1.17738,-3.69065,-0.0687033,2.04295,-3.68781,-0.0619352,2.09966,-0.768037,0.756733,-0.560367,0.531031,0.385922,0.510508,-0.43803,1
1.39678,-0.674346,-2.05127,-0.973153,2.17692,1.38701,-1.10956,1.40782,-0.68509,-2.0431,-0.981067,2.17106,1.37982,-1.10338,1.47365,-0.749894,-1.995,-1.02672,2.13789,1.33606,-1.06586,-1.16726,1.15415,-0.845171,0.796093,0.583174,0.766706,-0.667787,-1.16726,1.15415,-0.845171,0.796093,0.583174,0.766706,-0.667787,0.309352,-0.518397,0.848586,0.798765,0.0224099,0.164621,0.57825,-0.943361,-0.0884874,0.657634,1.82972,-0.474214,1.19722,-3.70855,-0.00857711,1.98426,-3.68728,-0.05755,2.00438,-0.768746,0.755476,-0.562708,0.535694,0.39031,0.509501,-0.436979,1
1.38573,-0.663648,-2.0595,-0.965013,2.18239,1.39435,-1.11582,1.39678,-0.674359,-2.05128,-0.973096,2.17681,1.38707,-1.10958,1.46266,-0.739046,-2.00298,-1.01919,2.14338,1.34331,-1.07214,-1.16732,1.15109,-0.850286,0.804697,0.584734,0.77449,-0.666843,-1.16732,1.15109,-0.850286,0.804697,0.584734,0.77449,-0.666843,0.30031,-0.518721,0.854765,0.806527,0.0154796,0.166116,0.567169,-0.9461,-0.0626642,0.659493,1.79229,-0.475064,1.21579,-3.74304,-0.0849813,1.85653,-3.69784,-0.0550904,1.90624,-0.769355,0.753982,-0.565201,0.541735,0.390049,0.510332,-0.436772,1
1.37476,-0.652984,-2.06778,-0.957054,2.18796,1.40198,-1.12193,1.38575,-0.663656,-2.05951,-0.965058,2.18241,1.39442,-1.11578,1.45167,-0.728223,-2.01101,-1.01157,2.14891,1.35062,-1.07841,-1.16785,1.1486,-0.854544,0.812362,0.589681,0.77754,-0.664903,-1.16785,1.1486,-0.854544,0.812362,0.589681,0.77754,-0.664903,0.291255,-0.518789,0.860952,0.814088,0.00844903,0.167632,0.555957,-0.947965,-0.0367362,0.661406,1.75541,-0.475741,1.23295,-3.68828,-0.067687,1.71607,-3.69948,-0.0562638,1.80533,-0.769109,0.752395,-0.567754,0.5452,0.390438,0.513565,-0.435244,1
1.36383,-0.642329,-2.07601,-0.949346,2.19422,1.40951,-1.12781,1.37477,-0.652986,-2.06777,-0.957117,2.18813,1.40195,-1.12187,1.44068,-0.717421,-2.01907,-1.00389,2.15449,1.35793,-1.08466,-1.16892,1.1467,-0.85796,0.819993,0.594334,0.776046,-0.663585,-1.16892,1.1467,-0.85796,0.819993,0.594334,0.776046,-0.663585,0.282197,-0.5186,0.867149,0.821445,0.00133805,0.169168,0.544619,-0.948934,-0.0105492,0.663527,1.71883,-0.476059,1.24939,-3.65839,-0.0317752,1.64361,-3.69922,-0.0538928,1.70195,-0.768414,0.750919,-0.569436,0.545429,0.397337,0.515784,-0.431529,1
1.35291,-0.631799,-2.08423,-0.94143,2.20047,1.41722,-1.13374,1.36384,-0.642361,-2.07601,-0.949294,2.19422,1.40955,-1.12783,1.42967,-0.706638,-2.02716,-0.996133,2.16008,1.36524,-1.0909,-1.16957,1.14457,-0.861546,0.827497,0.594647,0.777023,-0.66255,-1.16957,1.14457,-0.861546,0.827497,0.594647,0.777023,-0.66255,0.273148,-0.518149,0.873353,0.828592,-0.00585228,0.170735,0.533152,-0.948771,0.0164702,0.66506,1.68166,-0.476594,1.26525,-3.71637,-0.0534803,1.58604,-3.70156,-0.0530107,1.60221,-0.767607,0.748389,-0.570724,0.54703,0.403836,0.519845,-0.428423,1
1.34201,-0.621291,-2.09245,-0.933658,2.20675,1.425,-1.13967,1.35292,-0.631805,-2.08423,-0.941466,2.20048,1.41724,-1.13374,1.41867,-0.695877,-2.03529,-0.988326,2.16569,1.37258,-1.09712,-1.16882,1.14214,-0.86496,0.831085,0.597468,0.782155,-0.659164,-1.16882,1.14214,-0.86496,0.831085,0.597468,0.782155,-0.659164,0.264121,-0.517427,0.879552,0.835514,-0.0131296,0.172338,0.521578,-0.94661,0.0444578,0.66506,1.64473,-0.477265,1.27947,-3.69376,-0.0671595,1.42258,-3.69943,-0.0541538,1.4997,-0.766575,0.745855,-0.571609,0.546677,0.410597,0.524258,-0.42551,1
1.33119,-0.61079,-2.10065,-0.926221,2.21327,1.43278,-1.14549,1.34203,-0.621293,-2.09244,-0.933742,2.20681,1.425,-1.13964,1.40767,-0.685141,-2.04344,-0.980503,2.17137,1.37997,-1.1033,-1.1673,1.13921,-0.867272,0.831081,0.60831,0.787807,-0.653216,-1.1673,1.13921,-0.867272,0.831081,0.60831,0.787807,-0.653216,0.255132,-0.516431,0.885736,0.842193,-0.0204876,0.173954,0.509933,-0.943034,0.0724156,0.66392,1.60791,-0.477754,1.29265,-3.68139,-0.0488371,1.31786,-3.694,-0.0566866,1.39265,-0.764784,0.743507,-0.572084,0.542828,0.418957,0.528117,-0.421932,1
1.32038,-0.600279,-2.10883,-0.91901,2.22018,1.44025,-1.15122,1.33119,-0.610788,-2.10064,-0.926277,2.21337,1.43271,-1.14547,1.39669,-0.674438,-2.05161,-0.97268,2.17716,1.38742,-1.10942,-1.16572,1.13527,-0.868652,0.831199,0.620884,0.794175,-0.647783,-1.16572,1.13527,-0.868652,0.831199,0.620884,0.794175,-0.647783,0.246188,-0.515165,0.891897,0.848619,-0.0279205,0.17556,0.498243,-0.938938,0.100033,0.662308,1.57104,-0.478347,1.3052,-3.68756,-0.0593126,1.25492,-3.68883,-0.0538536,1.29186,-0.763159,0.741589,-0.572163,0.536707,0.43019,0.528363,-0.418048,1
1.30962,-0.589858,-2.11712,-0.911401,2.22646,1.4482,-1.15708,1.32039,-0.600302,-2.10886,-0.91891,2.22002,1.44037,-1.15125,1.38573,-0.663772,-2.05979,-0.964868,2.18306,1.39493,-1.11549,-1.16368,1.13118,-0.86952,0.82886,0.632384,0.800944,-0.643167,-1.16368,1.13118,-0.86952,0.82886,0.632384,0.800944,-0.643167,0.2373,-0.513628,0.898026,0.854788,-0.0354267,0.177154,0.486517,-0.933091,0.127892,0.659556,1.53413,-0.479155,1.31667,-3.69097,-0.0808656,1.14672,-3.68995,-0.0570663,1.19352,-0.761135,0.739138,-0.573324,0.534675,0.434022,0.532703,-0.415932,1
1.29887,-0.579479,-2.1254,-0.90382,2.2328,1.4562,-1.1629,1.30962,-0.589869,-2.11712,-0.911408,2.22648,1.44821,-1.15707,1.37479,-0.653141,-2.06798,-0.957106,2.18909,1.40248,-1.12152,-1.16095,1.12784,-0.869854,0.820935,0.646591,0.804759,-0.637757,-1.16095,1.12784,-0.869854,0.820935,0.646591,0.804759,-0.637757,0.22849,-0.511822,0.904112,0.860693,-0.042988,0.178738,0.474776,-0.924562,0.15581,0.655258,1.49749,-0.479695,1.32715,-3.66353,-0.053978,1.04845,-3.68846,-0.0611216,1.09238,-0.759152,0.736621,-0.574197,0.532862,0.437167,0.537135,-0.413848,1
1.28815,-0.569176,-2.13367,-0.896282,2.23944,1.46419,-1.16878,1.29888,-0.579498,-2.1254,-0.903831,2.23288,1.45619,-1.16292,1.36388,-0.642541,-2.07617,-0.949421,2.19524,1.41007,-1.1275,-1.15801,1.12479,-0.870461,0.812476,0.659975,0.806893,-0.632667,-1.15801,1.12479,-0.870461,0.812476,0.659975,0.806893,-0.632667,0.219777,-0.509749,0.910145,0.86633,-0.0505852,0.180312,0.463035,-0.914882,0.183318,0.650541,1.46095,-0.480435,1.33662,-3.65411,-0.0739753,0.946808,-3.67998,-0.0635198,0.991056,-0.757219,0.733644,-0.575049,0.531386,0.442012,0.541178,-0.412832,1
1.27737,-0.558995,-2.14202,-0.888657,2.24594,1.47221,-1.17457,1.28814,-0.569207,-2.13369,-0.89626,2.23941,1.4642,-1.16876,1.35299,-0.631972,-2.08437,-0.94179,2.20148,1.41769,-1.13344,-1.155,1.12121,-0.872096,0.809105,0.665713,0.812686,-0.629503,-1.155,1.12121,-0.872096,0.809105,0.665713,0.812686,-0.629503,0.211166,-0.50741,0.916125,0.871703,-0.0582309,0.181895,0.451283,-0.905459,0.210731,0.646344,1.42431,-0.48116,1.34501,-3.66422,-0.0724971,0.839305,-3.674,-0.0656958,0.894684,-0.756215,0.72977,-0.576532,0.531331,0.444651,0.545207,-0.411327,1
1.26652,-0.548938,-2.15046,-0.881308,2.25239,1.4801,-1.18013,1.27735,-0.559026,-2.14204,-0.888726,2.24593,1.47218,-1.17451,1.34214,-0.62144,-2.09259,-0.934179,2.20776,1.42538,-1.13935,-1.15193,1.11692,-0.87378,0.8082,0.668851,0.820553,-0.627596,-1.15193,1.11692,-0.87378,0.8082,0.668851,0.820553,-0.627596,0.202656,-0.504807,0.922053,0.87682,-0.0659486,0.183507,0.439503,-0.895965,0.237833,0.64219,1.3879,-0.48163,1.35269,-3.6409,-0.04704,0.767827,-3.66669,-0.0661986,0.798926,-0.756196,0.725017,-0.578754,0.528711,0.446315,0.547177,-0.407786,1
1.25562,-0.539083,-2.15933,-0.873883,2.25865,1.48791,-1.18583,1.26651,-0.548988,-2.15057,-0.881289,2.25234,1.48008,-1.18016,1.33131,-0.610953,-2.10082,-0.926577,2.21408,1.43314,-1.14525,-1.14956,1.11172,-0.875411,0.807336,0.674354,0.827102,-0.626012,-1.14956,1.11172,-0.875411,0.807336,0.674354,0.827102,-0.626012,0.194248,-0.501946,0.927927,0.881682,-0.0737396,0.185143,0.427692,-0.886418,0.263761,0.637466,1.35087,-0.482278,1.35954,-3.70302,-0.0647306,0.684547,-3.66479,-0.0650253,0.703281,-0.756833,0.718703,-0.585118,0.526939,0.445684,0.547685,-0.405801,1
1.24483,-0.529441,-2.16838,-0.866693,2.26484,1.49577,-1.19164,1.25565,-0.539136,-2.15937,-0.873942,2.25863,1.48792,-1.18586,1.32049,-0.600523,-2.10907,-0.918986,2.22045,1.44095,-1.15113,-1.14875,1.10507,-0.878093,0.805814,0.6785,0.83174,-0.622759,-1.14875,1.10507,-0.878093,0.805814,0.6785,0.83174,-0.622759,0.185942,-0.498843,0.933737,0.886293,-0.0815865,0.186802,0.415853,-0.876907,0.287905,0.631378,1.31422,-0.483267,1.36487,-3.66498,-0.0989437,0.533271,-3.66436,-0.0667683,0.605169,-0.756561,0.710817,-0.593066,0.522927,0.443886,0.548257,-0.405174,1
1.23408,-0.519934,-2.1774,-0.85967,2.27084,1.50355,-1.19757,1.24484,-0.529475,-2.16837,-0.866735,2.26479,1.49575,-1.19167,1.30967,-0.590164,-2.11737,-0.911418,2.22684,1.44878,-1.15696,-1.14955,1.09652,-0.884182,0.802348,0.67918,0.833445,-0.617858,-1.14955,1.09652,-0.884182,0.802348,0.67918,0.833445,-0.617858,0.177743,-0.495523,0.939465,0.890653,-0.0894577,0.1885,0.403984,-0.867257,0.309389,0.622925,1.27762,-0.483796,1.36927,-3.65986,-0.0529408,0.439966,-3.66612,-0.0681634,0.504908,-0.755892,0.702297,-0.600335,0.51748,0.440008,0.547683,-0.406052,1
1.22324,-0.510527,-2.1865,-0.852555,2.27655,1.51117,-1.2037,1.23406,-0.519959,-2.17742,-0.859647,2.27077,1.50351,-1.19762,1.29885,-0.579898,-2.12575,-0.90389,2.23322,1.45663,-1.16276,-1.15044,1.08551,-0.895559,0.797544,0.676745,0.833363,-0.615002,-1.15044,1.08551,-0.895559,0.797544,0.676745,0.833363,-0.615002,0.169655,-0.492015,0.945087,0.894769,-0.0973167,0.190257,0.392071,-0.857393,0.327807,0.611875,1.24083,-0.484311,1.37293,-3.67935,-0.0514358,0.365567,-3.66937,-0.066205,0.405732,-0.756079,0.693715,-0.607526,0.51335,0.433273,0.545411,-0.409324,1
1.21237,-0.501548,-2.19585,-0.844822,2.28209,1.51881,-1.2095,1.22323,-0.510634,-2.18656,-0.852401,2.27651,1.51117,-1.20362,1.28802,-0.569747,-2.13424,-0.896419,2.23957,1.46447,-1.16856,-1.1499,1.07245,-0.908896,0.790502,0.671806,0.833022,-0.615577,-1.1499,1.07245,-0.908896,0.790502,0.671806,0.833022,-0.615577,0.161687,-0.488345,0.950582,0.898649,-0.105138,0.192088,0.380102,-0.846132,0.344316,0.598766,1.20398,-0.485127,1.37566,-3.6846,-0.0816017,0.273013,-3.67277,-0.0670744,0.307589,-0.756548,0.681985,-0.616125,0.515974,0.42525,0.543381,-0.409486,1
1.20147,-0.493054,-2.20554,-0.837328,2.28766,1.52635,-1.21486,1.21236,-0.501669,-2.19594,-0.844882,2.2821,1.51878,-1.20939,1.2772,-0.55972,-2.14285,-0.88902,2.24585,1.4723,-1.17437,-1.14895,1.05885,-0.920476,0.782207,0.663617,0.831137,-0.619193,-1.14895,1.05885,-0.920476,0.782207,0.663617,0.831137,-0.619193,0.153855,-0.484526,0.955938,0.902296,-0.112907,0.194003,0.368072,-0.833476,0.360174,0.585205,1.16742,-0.485868,1.3768,-3.65623,-0.0741273,0.114489,-3.6736,-0.0694845,0.2022,-0.757342,0.66666,-0.626872,0.516916,0.418066,0.540498,-0.404879,1
1.19049,-0.485235,-2.21551,-0.830582,2.29366,1.53357,-1.21984,1.20145,-0.493223,-2.20561,-0.837515,2.28777,1.52627,-1.21476,1.26639,-0.54983,-2.15157,-0.881671,2.25204,1.4801,-1.18022,-1.14925,1.04379,-0.931753,0.779488,0.65171,0.827386,-0.623172,-1.14925,1.04379,-0.931753,0.779488,0.65171,0.827386,-0.623172,0.146158,-0.480567,0.961158,0.905714,-0.120623,0.196009,0.355967,-0.822303,0.374864,0.572757,1.13107,-0.486445,1.37713,-3.63513,-0.0577301,0.0330806,-3.66659,-0.0679859,0.096528,-0.758948,0.645942,-0.639328,0.510891,0.416297,0.53463,-0.39628,1
1.17962,-0.478192,-2.22564,-0.823806,2.29976,1.54101,-1.22485,1.19052,-0.485429,-2.21555,-0.830575,2.29369,1.53362,-1.21985,1.25557,-0.540106,-2.16041,-0.874313,2.25811,1.48787,-1.18607,-1.15053,1.02358,-0.945953,0.783769,0.638901,0.823201,-0.621015,-1.15053,1.02358,-0.945953,0.783769,0.638901,0.823201,-0.621015,0.138574,-0.476492,0.966247,0.90891,-0.12828,0.198107,0.343775,-0.814315,0.386146,0.559958,1.09437,-0.48731,1.37691,-3.66932,-0.0864625,-0.0217319,-3.66446,-0.0678007,-0.000968173,-0.759454,0.619142,-0.652215,0.50507,0.416552,0.531368,-0.387758,1
1.16903,-0.47271,-2.23612,-0.816982,2.30567,1.54909,-1.23019,1.17969,-0.478582,-2.22573,-0.823794,2.29971,1.54117,-1.22493,1.24473,-0.530612,-2.16941,-0.866937,2.26408,1.49559,-1.19186,-1.15246,0.995667,-0.964062,0.783523,0.63083,0.817028,-0.609958,-1.15246,0.995667,-0.964062,0.783523,0.63083,0.817028,-0.609958,0.131081,-0.472354,0.97118,0.911882,-0.135836,0.200282,0.331522,-0.807813,0.391012,0.542359,1.05799,-0.488243,1.37552,-3.6383,-0.0932992,-0.13963,-3.65967,-0.0737735,-0.0992954,-0.75698,0.579018,-0.66713,0.499552,0.415903,0.535011,-0.383283,1
1.15874,-0.468887,-2.24686,-0.810585,2.31126,1.55753,-1.236,1.16911,-0.473125,-2.23618,-0.817089,2.30559,1.54918,-1.23031,1.23387,-0.521425,-2.17858,-0.859614,2.27001,1.50324,-1.19752,-1.15443,0.95859,-0.98435,0.773317,0.630411,0.809141,-0.594477,-1.15443,0.95859,-0.98435,0.773317,0.630411,0.809141,-0.594477,0.123669,-0.468224,0.975906,0.914635,-0.143208,0.2025,0.319261,-0.801959,0.388185,0.518229,1.02188,-0.488943,1.37273,-3.61145,-0.0700086,-0.278461,-3.64955,-0.0770399,-0.202643,-0.751279,0.525384,-0.682735,0.490291,0.412511,0.542901,-0.384766,1
1.14887,-0.465334,-2.25739,-0.804375,2.31442,1.5663,-1.24192,1.15884,-0.468955,-2.24681,-0.810632,2.31066,1.55761,-1.23603,1.22301,-0.512659,-2.18796,-0.852394,2.27596,1.51085,-1.20306,-1.15351,0.90742,-1.00575,0.761575,0.632581,0.807438,-0.58243,-1.15351,0.90742,-1.00575,0.761575,0.632581,0.807438,-0.58243,0.116319,-0.464184,0.980371,0.917182,-0.150342,0.204714,0.307029,-0.798509,0.377214,0.488009,0.985512,-0.489747,1.36967,-3.6365,-0.0803798,-0.306129,-3.64131,-0.077885,-0.298928,-0.741421,0.473242,-0.694286,0.480184,0.384636,0.554574,-0.388637,1
1.13896,-0.467,-2.26817,-0.79961,2.31708,1.57466,-1.24717,1.14886,-0.466639,-2.25745,-0.804736,2.3143,1.5662,-1.24175,1.21218,-0.50448,-2.19754,-0.84528,2.2819,1.5185,-1.20853,-1.14712,0.834955,-1.02907,0.750693,0.630765,0.817089,-0.579905,-1.14712,0.834955,-1.02907,0.750693,0.630765,0.817089,-0.579905,0.109,-0.460329,0.984506,0.919543,-0.157219,0.206877,0.294829,-0.798318,0.354971,0.448961,0.949186,-0.49023,1.3655,-3.63262,-0.0483543,-0.417376,-3.63682,-0.0761543,-0.389311,-0.732197,0.374799,-0.706333,0.456699,0.351749,0.56167,-0.386393,1
1.1296,-0.472114,-2.27903,-0.794843,2.32032,1.58289,-1.25223,1.1391,-0.467862,-2.26819,-0.799609,2.31722,1.57463,-1.24712,1.20145,-0.497054,-2.20734,-0.838285,2.28774,1.52627,-1.21402,-1.1345,0.748261,-1.05104,0.736384,0.610256,0.834548,-0.586105,-1.1345,0.748261,-1.05104,0.736384,0.610256,0.834548,-0.586105,0.101705,-0.456748,0.988238,0.921733,-0.163824,0.208988,0.282655,-0.796832,0.325177,0.402669,0.912818,-0.490939,1.36032,-3.63677,-0.070852,-0.518084,-3.6343,-0.0743755,-0.482572,-0.718525,0.249396,-0.716954,0.434418,0.325795,0.566145,-0.382083,1
1.12255,-0.476539,-2.28988,-0.789403,2.32138,1.59236,-1.25903,1.13018,-0.471942,-2.27903,-0.794675,2.31977,1.5832,-1.25266,1.19085,-0.490566,-2.21732,-0.831475,2.29324,1.53421,-1.21956,-1.1182,0.637165,-1.0687,0.712041,0.560846,0.851736,-0.591006,-1.1182,0.637165,-1.0687,0.712041,0.560846,0.851736,-0.591006,0.094447,-0.453555,0.991471,0.923757,-0.170081,0.211093,0.270528,-0.794713,0.280077,0.343201,0.875712,-0.492115,1.35415,-3.71059,-0.117645,-0.616491,-3.63937,-0.0753411,-0.57829,-0.683032,0.140268,-0.725608,0.420726,0.281403,0.581466,-0.394738,1
1.11967,-0.486951,-2.30099,-0.78446,2.32141,1.60156,-1.26522,1.12359,-0.478036,-2.28994,-0.789527,2.32112,1.59229,-1.25888,1.18042,-0.485417,-2.22746,-0.824958,2.29824,1.54228,-1.2251,-1.10027,0.46748,-1.08471,0.675016,0.505579,0.861419,-0.586418,-1.10027,0.46748,-1.08471,0.675016,0.505579,0.861419,-0.586418,0.0871713,-0.451022,0.994021,0.925654,-0.17577,0.21315,0.258529,-0.80416,0.197394,0.257125,0.839652,-0.492789,1.34665,-3.60607,-0.0673652,-0.750613,-3.64301,-0.0756251,-0.675468,-0.607421,-0.0153371,-0.73529,0.404986,0.231758,0.592787,-0.401224,1
1.11845,-0.499664,-2.31159,-0.778447,2.32048,1.61115,-1.27024,1.12009,-0.487526,-2.30086,-0.784192,2.32117,1.60166,-1.26493,1.17023,-0.482013,-2.23774,-0.818771,2.30274,1.55044,-1.23062,-1.06655,0.268195,-1.09946,0.64167,0.453629,0.872288,-0.586947,-1.06655,0.268195,-1.09946,0.64167,0.453629,0.872288,-0.586947,0.0797956,-0.449415,0.995737,0.927481,-0.180708,0.215038,0.246742,-0.818071,0.0981998,0.161247,0.803296,-0.493213,1.33867,-3.63553,-0.0423461,-0.797176,-3.6462,-0.0742048,-0.769902,-0.517823,-0.176502,-0.73847,0.403242,0.177421,0.607075,-0.396168,1
1.11458,-0.512424,-2.3221,-0.769634,2.31396,1.61966,-1.27509,1.11779,-0.499676,-2.31157,-0.777747,2.31908,1.61088,-1.2702,1.16059,-0.480502,-2.24816,-0.812836,2.30666,1.55876,-1.23623,-0.985363,0.0656585,-1.11276,0.620701,0.384976,0.893015,-0.60317,-0.985363,0.0656585,-1.11276,0.620701,0.384976,0.893015,-0.60317,0.0723751,-0.448784,0.996585,0.929245,-0.184936,0.216705,0.235249,-0.81512,0.00224209,0.0669653,0.766203,-0.494118,1.32968,-3.70935,-0.0905514,-0.899899,-3.65312,-0.0747417,-0.868953,-0.460183,-0.319223,-0.739444,0.432027,0.0729589,0.608994,-0.388608,1
1.11007,-0.525728,-2.33251,-0.765396,2.2894,1.62661,-1.28394,1.11442,-0.51256,-2.32208,-0.770777,2.30945,1.61927,-1.27609,1.152,-0.481071,-2.25868,-0.807053,2.30987,1.56728,-1.24195,-0.849797,-0.171886,-1.12314,0.608772,0.300991,0.915561,-0.611933,-0.849797,-0.171886,-1.12314,0.608772,0.300991,0.915561,-0.611933,0.0650433,-0.449192,0.996512,0.930923,-0.188489,0.218115,0.224234,-0.798369,-0.110179,-0.0398465,0.729943,-0.495259,1.31916,-3.62595,-0.114125,-1.05201,-3.65491,-0.0805059,-0.970676,-0.419257,-0.446561,-0.738312,0.416579,-0.204722,0.593344,-0.419948,1
1.10159,-0.539666,-2.34225,-0.754985,2.27276,1.63361,-1.28996,1.10908,-0.525886,-2.33234,-0.763852,2.29138,1.62662,-1.28323,1.14467,-0.483927,-2.26927,-0.801239,2.31212,1.57596,-1.24765,-0.715873,-0.419375,-1.1263,0.625581,0.185353,0.929747,-0.600375,-0.715873,-0.419375,-1.1263,0.625581,0.185353,0.929747,-0.600375,0.0578256,-0.450722,0.995479,0.932513,-0.191351,0.219289,0.213816,-0.78804,-0.224632,-0.143846,0.693583,-0.496012,1.30772,-3.63601,-0.075224,-1.144,-3.65247,-0.0815511,-1.07418,-0.430751,-0.557396,-0.72978,0.462542,-0.393669,0.576469,-0.423081,1
1.08683,-0.550753,-2.34991,-0.741033,2.25994,1.63787,-1.29294,1.10002,-0.538953,-2.34173,-0.7541,2.27371,1.63293,-1.2892,1.13833,-0.488924,-2.27986,-0.795224,2.31253,1.58467,-1.25333,-0.636663,-0.62939,-1.12415,0.650983,-0.0820582,0.921235,-0.606055,-0.636663,-0.62939,-1.12415,0.650983,-0.0820582,0.921235,-0.606055,0.0507358,-0.45329,0.993532,0.933996,-0.193496,0.220704,0.203718,-0.777573,-0.321219,-0.237689,0.657744,-0.496836,1.29525,-3.58396,-0.0824302,-1.24683,-3.6407,-0.0809035,-1.17892,-0.515001,-0.618281,-0.700546,0.541903,-0.525868,0.53195,-0.39613,1
1.07704,-0.56121,-2.35758,-0.727628,2.25625,1.64701,-1.29245,1.08807,-0.550595,-2.34991,-0.74117,2.26222,1.63909,-1.29207,1.13241,-0.495718,-2.2904,-0.789003,2.30972,1.59319,-1.2592,-0.621304,-0.803346,-1.11679,0.669725,-0.488603,0.890268,-0.63988,-0.621304,-0.803346,-1.11679,0.669725,-0.488603,0.890268,-0.63988,0.0438325,-0.456755,0.990717,0.93533,-0.194834,0.223132,0.193414,-0.769836,-0.403586,-0.326107,0.621607,-0.498081,1.2822,-3.61367,-0.124547,-1.30477,-3.63521,-0.0893452,-1.27913,-0.553714,-0.65492,-0.671721,0.613745,-0.534727,0.538176,-0.33245,1
1.06695,-0.572657,-2.36581,-0.720072,2.25897,1.65524,-1.29411,1.07696,-0.561458,-2.35772,-0.72909,2.25785,1.64678,-1.29299,1.12618,-0.503927,-2.30078,-0.782293,2.30359,1.60133,-1.26522,-0.696719,-0.932718,-1.09036,0.75077,-0.795635,0.841469,-0.638582,-0.696719,-0.932718,-1.09036,0.75077,-0.795635,0.841469,-0.638582,0.0368597,-0.460879,0.987259,0.936517,-0.195433,0.226774,0.182526,-0.814932,-0.450684,-0.371762,0.585514,-0.499106,1.26782,-3.60931,-0.102434,-1.43744,-3.62407,-0.0970802,-1.3836,-0.592355,-0.687304,-0.650213,0.622212,-0.446217,0.5391,-0.288899,1
1.05427,-0.585785,-2.37886,-0.716259,2.26255,1.6606,-1.29745,1.0663,-0.573078,-2.36701,-0.721008,2.25918,1.65452,-1.29453,1.11899,-0.513043,-2.3108,-0.774538,2.29563,1.60904,-1.27086,-0.823432,-0.999994,-1.04147,0.88855,-0.889626,0.800182,-0.564831,-0.823432,-0.999994,-1.04147,0.88855,-0.889626,0.800182,-0.564831,0.0293272,-0.465234,0.983624,0.937576,-0.195654,0.231112,0.171051,-0.901466,-0.446721,-0.363237,0.549671,-0.499761,1.25297,-3.58432,-0.0655293,-1.48566,-3.60868,-0.0953266,-1.47964,-0.64725,-0.727425,-0.680552,0.582787,-0.330857,0.5156,-0.265868,1
1.04449,-0.599817,-2.39061,-0.716999,2.26206,1.66999,-1.31128,1.05499,-0.586011,-2.37853,-0.717397,2.26153,1.66161,-1.30007,1.11085,-0.522626,-2.32037,-0.765737,2.28773,1.61659,-1.27566,-0.902367,-1.03411,-0.994563,0.975922,-0.795563,0.803958,-0.4614,-0.902367,-1.03411,-0.994563,0.975922,-0.795563,0.803958,-0.4614,0.0210685,-0.46948,0.980093,0.938509,-0.195845,0.235417,0.159449,-0.969942,-0.424843,-0.349665,0.513669,-0.500289,1.23682,-3.60011,-0.0527591,-1.61481,-3.60313,-0.0887726,-1.57115,-0.663615,-0.77191,-0.702373,0.487386,-0.256638,0.53397,-0.356188,1
1.04015,-0.611598,-2.39885,-0.719819,2.25003,1.68504,-1.32449,1.04585,-0.599254,-2.38973,-0.717519,2.25918,1.6714,-1.31113,1.1021,-0.532581,-2.32972,-0.756681,2.28128,1.62418,-1.27968,-0.953327,-1.07845,-0.992965,0.95,-0.588331,0.808017,-0.395574,-0.953327,-1.07845,-0.992965,0.95,-0.588331,0.808017,-0.395574,0.0121678,-0.473691,0.976525,0.939412,-0.195902,0.239109,0.14817,-1.02729,-0.432705,-0.374381,0.477435,-0.502387,1.22013,-3.62339,-0.209892,-1.66899,-3.60188,-0.0989731,-1.66014,-0.619473,-0.790178,-0.691244,0.368625,-0.312452,0.608669,-0.448168,1
1.04012,-0.621464,-2.4055,-0.719878,2.24487,1.69596,-1.33334,1.04123,-0.611119,-2.39845,-0.719129,2.25175,1.68401,-1.3234,1.09285,-0.543058,-2.33933,-0.748366,2.27667,1.63172,-1.28361,-1.00821,-1.14385,-1.04409,0.824713,-0.403024,0.795815,-0.438332,-1.00821,-1.14385,-1.04409,0.824713,-0.403024,0.795815,-0.438332,0.00268822,-0.478217,0.972547,0.940458,-0.195362,0.242019,0.137107,-1.08129,-0.47683,-0.444994,0.441297,-0.502256,1.20237,-3.61389,0.013119,-1.77618,-3.60546,-0.0930582,-1.74921,-0.527353,-0.784054,-0.661744,0.284883,-0.317929,0.642354,-0.497244,1
1.03843,-0.631331,-2.41367,-0.709427,2.25877,1.70128,-1.3383,1.03971,-0.621464,-2.40588,-0.71725,2.24964,1.69456,-1.33237,1.0834,-0.554116,-2.34931,-0.74153,2.27304,1.63948,-1.28855,-1.00011,-1.20206,-1.07631,0.63943,-0.369217,0.85007,-0.60114,-1.00011,-1.20206,-1.07631,0.63943,-0.369217,0.85007,-0.60114,-0.00702169,-0.483215,0.967822,0.941636,-0.194125,0.244457,0.126009,-1.07405,-0.519415,-0.540664,0.405032,-0.503594,1.18351,-3.62645,-0.133765,-1.8857,-3.60855,-0.090949,-1.84219,-0.449692,-0.772152,-0.643585,0.321034,-0.142703,0.617958,-0.497486,1
1.02401,-0.643606,-2.42582,-0.716194,2.29519,1.70633,-1.34101,1.03525,-0.631933,-2.41467,-0.713731,2.2644,1.70121,-1.33774,1.07455,-0.565494,-2.35928,-0.736408,2.2691,1.64803,-1.29499,-0.887485,-1.21501,-1.04318,0.460157,-0.462079,0.958238,-0.756642,-0.887485,-1.21501,-1.04318,0.460157,-0.462079,0.958238,-0.756642,-0.0162351,-0.488467,0.962302,0.942696,-0.192634,0.246897,0.115145,-0.979679,-0.528809,-0.616767,0.368703,-0.504471,1.16312,-3.63287,-0.0877202,-2.03929,-3.61457,-0.0918933,-1.94102,-0.505423,-0.781117,-0.665376,0.202142,0.260885,0.583075,-0.460228,1
1.01121,-0.655973,-2.4341,-0.740314,2.29608,1.71982,-1.34743,1.02442,-0.643629,-2.42485,-0.720532,2.28631,1.70844,-1.34194,1.067,-0.576802,-2.36882,-0.732365,2.26502,1.65722,-1.30233,-0.726939,-1.18937,-0.98702,0.402512,-0.409533,0.994243,-0.79999,-0.726939,-1.18937,-0.98702,0.402512,-0.409533,0.994243,-0.79999,-0.0245753,-0.493605,0.956403,0.943522,-0.19137,0.249216,0.105051,-0.881468,-0.503039,-0.624189,0.332212,-0.505055,1.14283,-3.64912,-0.0583649,-2.02864,-3.62397,-0.0909043,-2.03725,-0.557893,-0.791707,-0.652837,-0.0794857,0.310663,0.62593,-0.451006,1
0.998669,-0.667764,-2.44473,-0.772273,2.27559,1.73194,-1.36016,1.01128,-0.655829,-2.43469,-0.742274,2.29074,1.71948,-1.34901,1.06044,-0.587911,-2.37805,-0.728608,2.26335,1.66626,-1.3096,-0.670866,-1.1723,-0.97515,0.396178,0.0280342,0.930661,-0.749246,-0.670866,-1.1723,-0.97515,0.396178,0.0280342,0.930661,-0.749246,-0.0326687,-0.498483,0.950641,0.944411,-0.190355,0.25032,0.0958774,-0.895203,-0.478901,-0.599144,0.295863,-0.505979,1.12084,-3.63494,-0.0923991,-2.19872,-3.63021,-0.0879283,-2.1349,-0.617723,-0.798527,-0.666795,-0.43665,0.122466,0.656732,-0.505618,1
0.983814,-0.678884,-2.45658,-0.788939,2.28314,1.73778,-1.3709,0.998092,-0.667596,-2.44503,-0.76845,2.2826,1.73037,-1.35966,1.0536,-0.599023,-2.38734,-0.726117,2.26616,1.67484,-1.31632,-0.777032,-1.18787,-0.99883,0.148719,0.536676,0.894681,-0.682215,-0.777032,-1.18787,-0.99883,0.148719,0.536676,0.894681,-0.682215,-0.0414009,-0.503434,0.944766,0.945758,-0.188878,0.249409,0.0875382,-0.977918,-0.507569,-0.664762,0.259656,-0.507131,1.09755,-3.62068,-0.115263,-2.32942,-3.63223,-0.0826346,-2.24095,-0.697815,-0.798603,-0.692361,-0.628221,0.169879,0.629313,-0.545787,1
0.970906,-0.69117,-2.4684,-0.79692,2.30749,1.74204,-1.37484,0.984301,-0.679175,-2.45657,-0.786768,2.28734,1.73738,-1.3692,1.0456,-0.610324,-2.3968,-0.727436,2.27113,1.68357,-1.32282,-0.913978,-1.21183,-1.00902,-0.395131,0.522053,0.956133,-0.697462,-0.913978,-1.21183,-1.00902,-0.395131,0.522053,0.956133,-0.697462,-0.0505643,-0.509027,0.937731,0.947493,-0.185887,0.247578,0.0800569,-0.977152,-0.589113,-0.856854,0.224204,-0.508062,1.07365,-3.54519,-0.0930548,-2.39024,-3.62453,-0.0928568,-2.34413,-0.746916,-0.808467,-0.716049,-0.694844,0.363591,0.584711,-0.520261,1
0.959573,-0.702533,-2.47947,-0.801627,2.31879,1.74759,-1.37482,0.9713,-0.690939,-2.46821,-0.796102,2.30423,1.74236,-1.37385,1.03646,-0.621772,-2.40639,-0.733794,2.27451,1.69279,-1.32986,-1.02168,-1.22031,-1.029,-0.922898,0.21543,1.00058,-0.793616,-1.02168,-1.22031,-1.029,-0.922898,0.21543,1.00058,-0.793616,-0.0594473,-0.515501,0.928891,0.949305,-0.180845,0.246488,0.0732061,-0.934309,-0.662892,-1.05474,0.188595,-0.509503,1.04857,-3.56092,-0.144094,-2.50814,-3.61023,-0.096376,-2.44663,-0.768838,-0.807605,-0.730723,-0.678331,0.442758,0.547987,-0.449573,1
0.949937,-0.713444,-2.48878,-0.809202,2.32965,1.75224,-1.37934,0.959997,-0.70242,-2.47903,-0.802344,2.31868,1.74737,-1.37596,1.02635,-0.633269,-2.4163,-0.743612,2.27686,1.70193,-1.33758,-1.11978,-1.22251,-1.07255,-1.14925,0.279167,0.944139,-0.842207,-1.11978,-1.22251,-1.07255,-1.14925,0.279167,0.944139,-0.842207,-0.0683308,-0.522486,0.918786,0.951215,-0.174171,0.245837,0.0664661,-0.979982,-0.673912,-1.1386,0.153104,-0.509966,1.02272,-3.54906,-0.046277,-2.58482,-3.59175,-0.098082,-2.54617,-0.764133,-0.801754,-0.72485,-0.655899,0.527868,0.50307,-0.417693,1
0.939453,-0.725646,-2.50012,-0.823196,2.33121,1.76479,-1.3898,0.949725,-0.713767,-2.48929,-0.810807,2.32732,1.75421,-1.38083,1.01552,-0.644806,-2.42657,-0.754255,2.28116,1.71036,-1.34512,-1.17762,-1.22855,-1.10886,-1.11439,0.614257,0.852351,-0.765195,-1.17762,-1.22855,-1.10886,-1.11439,0.614257,0.852351,-0.765195,-0.0779657,-0.52938,0.908414,0.953398,-0.166788,0.244256,0.0596015,-1.07459,-0.633662,-1.12793,0.117612,-0.511329,0.996033,-3.54921,-0.136328,-2.66861,-3.57278,-0.10417,-2.64869,-0.760685,-0.8084,-0.735445,-0.689414,0.500434,0.544284,-0.446871,1
0.928709,-0.737249,-2.51091,-0.835641,2.33913,1.77544,-1.4001,0.939388,-0.725496,-2.49998,-0.822809,2.3328,1.76431,-1.38976,1.00441,-0.656359,-2.43706,-0.764245,2.28796,1.71803,-1.35172,-1.18271,-1.22655,-1.11773,-1.01455,0.817945,0.781339,-0.645391,-1.18271,-1.22655,-1.11773,-1.01455,0.817945,0.781339,-0.645391,-0.0883886,-0.535836,0.898287,0.955779,-0.159318,0.2415,0.0527486,-1.1277,-0.580052,-1.09682,0.0835413,-0.511745,0.970778,-3.4071,-0.0416458,-2.52547,-3.5434,-0.0985674,-2.71488,-0.757019,-0.808894,-0.73853,-0.713962,0.511695,0.574185,-0.483764,1
0.917996,-0.74855,-2.52202,-0.842999,2.35113,1.78255,-1.40475,0.928717,-0.737173,-2.51099,-0.834369,2.34015,1.77456,-1.39869,0.99338,-0.667881,-2.44755,-0.773667,2.29577,1.72532,-1.35765,-1.1625,-1.22189,-1.11155,-0.989005,0.840131,0.769399,-0.617108,-1.1625,-1.22189,-1.11155,-0.989005,0.840131,0.769399,-0.617108,-0.0991195,-0.541838,0.888304,0.958154,-0.151928,0.238212,0.0459773,-1.13108,-0.537885,-1.09724,0.0605016,-0.511031,0.962461,-2.30397,0.0714302,-0.831652,-3.39204,-0.0746144,-2.56979,-0.753839,-0.806683,-0.744792,-0.693323,0.553525,0.572324,-0.47094,1
0.907446,-0.759625,-2.53173,-0.830881,2.37131,1.78386,-1.40314,0.918037,-0.748493,-2.52167,-0.83813,2.35317,1.7811,-1.40318,0.982509,-0.679409,-2.45803,-0.783292,2.3034,1.7329,-1.36383,-1.14827,-1.22725,-1.117,-1.05229,0.78297,0.836557,-0.69056,-1.14827,-1.22725,-1.117,-1.05229,0.78297,0.836557,-0.69056,-0.109824,-0.547502,0.878093,0.960405,-0.14462,0.234892,0.0391506,-1.11977,-0.508126,-1.14001,0.0455954,-0.508419,0.964074,-1.49062,0.261223,0.16129,-3.07706,-0.0210962,-2.17455,-0.750627,-0.802158,-0.737001,-0.475881,0.67911,0.509658,-0.393064,1
0.900259,-0.764468,-2.53201,-0.744762,2.38521,1.78261,-1.37243,0.908287,-0.758067,-2.52938,-0.812381,2.36974,1.78322,-1.39586,0.971717,-0.690976,-2.46861,-0.793392,2.31076,1.74105,-1.37061,-1.14504,-1.23019,-1.12861,-1.09119,0.782536,0.892229,-0.747524,-1.14504,-1.23019,-1.12861,-1.09119,0.782536,0.892229,-0.747524,-0.120508,-0.552846,0.867525,0.962525,-0.137416,0.231579,0.0321415,-1.12364,-0.47108,-1.17084,0.0320755,-0.505988,0.965472,-1.35199,0.243038,0.139725,-2.64888,0.0497665,-1.62909,-0.714579,-0.734926,-0.634012,0.486294,0.744426,0.415558,-0.0181718,1
0.896984,-0.769455,-2.52153,-0.738717,2.39095,1.78167,-1.355,0.901237,-0.764504,-2.52932,-0.764781,2.38317,1.78269,-1.37575,0.96095,-0.702525,-2.47924,-0.802898,2.31879,1.74923,-1.37735,-1.14274,-1.2241,-1.13002,-0.938197,0.915484,0.848715,-0.687825,-1.14274,-1.2241,-1.13002,-0.938197,0.915484,0.848715,-0.687825,-0.131446,-0.557682,0.857063,0.964573,-0.130513,0.227919,0.0248791,-1.16315,-0.406896,-1.12155,0.0193791,-0.502763,0.966497,-1.26964,0.322568,0.10258,-2.17927,0.127201,-1.04461,-0.639662,-0.669301,-0.422913,0.641806,0.721555,0.324386,0.223553,1
0.872195,-0.783266,-2.54901,-0.742599,2.39454,1.79268,-1.34845,0.891605,-0.771661,-2.53102,-0.741199,2.39041,1.78466,-1.35772,0.950312,-0.713818,-2.48953,-0.807666,2.32834,1.75653,-1.38221,-1.1191,-1.17831,-1.06108,-0.125559,1.10222,0.710767,-0.363677,-1.1191,-1.17831,-1.06108,-0.125559,1.10222,0.710767,-0.363677,-0.143073,-0.561253,0.848315,0.966404,-0.125217,0.22381,0.0170975,-1.25518,-0.237115,-0.815733,0.00610991,-0.499971,0.966956,-1.32692,0.2792,0.0458956,-1.75449,0.203864,-0.531357,-0.78117,-0.694481,-0.594821,0.650668,0.661903,0.361456,0.337547,1
0.85668,-0.788542,-2.55991,-0.735243,2.38772,1.82,-1.37856,0.874514,-0.781132,-2.54486,-0.739789,2.39194,1.79675,-1.35761,0.940188,-0.724362,-2.49834,-0.803115,2.33908,1.76237,-1.38286,-1.03723,-1.06895,-0.825061,1.02082,1.17403,0.540973,0.189442,-1.03723,-1.06895,-0.825061,1.02082,1.17403,0.540973,0.189442,-0.155291,-0.562639,0.8432,0.967689,-0.123361,0.219723,0.00906374,-1.28804,-0.00675884,-0.343068,-0.0066105,-0.496611,0.967178,-1.27204,0.335971,0.022155,-1.44805,0.261355,-0.197812,-0.835075,-0.6418,-0.615704,0.678722,0.48646,0.576261,0.0430519,1
0.847504,-0.792226,-2.56558,-0.722886,2.40428,1.82026,-1.39976,0.858265,-0.788144,-2.5586,-0.733993,2.39356,1.81323,-1.37633,0.93044,-0.734082,-2.50539,-0.791865,2.34968,1.7671,-1.37917,-1.03413,-1.00068,-0.682489,1.34919,1.08455,0.467579,0.571242,-1.03413,-1.00068,-0.682489,1.34919,1.08455,0.467579,0.571242,-0.167522,-0.562289,0.840881,0.96844,-0.12405,0.216177,0.00172815,-1.26739,0.0924288,-0.185444,-0.0198631,-0.493545,0.964394,-1.32526,0.306642,-0.278401,-1.32668,0.293188,-0.151824,-0.829358,-0.581433,-0.6019,0.689784,0.545936,0.5316,-0.205881,1
0.836531,-0.804589,-2.57281,-0.718952,2.41814,1.82023,-1.37986,0.847055,-0.794396,-2.56597,-0.724992,2.4036,1.82019,-1.38948,0.919841,-0.743508,-2.51269,-0.780492,2.35887,1.7724,-1.37441,-1.20704,-1.00191,-0.856887,1.08387,0.880509,0.648484,0.447349,-1.20704,-1.00191,-0.856887,1.08387,0.880509,0.648484,0.447349,-0.179897,-0.561375,0.838549,0.968863,-0.124817,0.213762,-0.00554762,-1.33242,0.116907,-0.317655,-0.0325054,-0.491209,0.961001,-1.26424,0.233552,-0.339282,-1.3006,0.295244,-0.238196,-0.833105,-0.61081,-0.601263,0.615401,0.59273,0.478295,-0.0544523,1
0.826853,-0.814841,-2.5809,-0.714618,2.42838,1.82661,-1.3457,0.836855,-0.804061,-2.57303,-0.718852,2.41723,1.82183,-1.37629,0.907906,-0.752654,-2.52142,-0.770808,2.36638,1.77972,-1.3729,-1.32189,-0.945063,-0.990158,0.980339,0.72402,0.892253,-0.091459,-1.32189,-0.945063,-0.990158,0.980339,0.72402,0.892253,-0.091459,-0.192578,-0.560012,0.835384,0.968891,-0.125637,0.212714,-0.0147578,-1.36212,0.191806,-0.356919,-0.0451831,-0.488335,0.957002,-1.26776,0.287426,-0.399929,-1.29113,0.294622,-0.33916,-0.810528,-0.62187,-0.594861,0.561892,0.619991,0.468834,0.272015,1
0.816112,-0.826385,-2.58805,-0.707131,2.43476,1.83799,-1.34292,0.826587,-0.815164,-2.58067,-0.71383,2.42741,1.82786,-1.35354,0.895608,-0.761239,-2.53051,-0.761607,2.37357,1.78795,-1.3752,-1.29293,-0.882928,-0.944292,0.97501,0.799804,0.858301,-0.380307,-1.29293,-0.882928,-0.944292,0.97501,0.799804,0.858301,-0.380307,-0.205121,-0.558069,0.832221,0.968607,-0.127166,0.212038,-0.0258771,-1.31841,0.236427,-0.315828,-0.0580104,-0.485424,0.951518,-1.28274,0.291136,-0.548345,-1.28803,0.288184,-0.453655,-0.794959,-0.651455,-0.575437,0.544754,0.611873,0.500318,0.322863,1
0.802611,-0.839495,-2.59705,-0.704718,2.43467,1.85016,-1.35645,0.815422,-0.826776,-2.58851,-0.7084,2.43314,1.83818,-1.34699,0.883669,-0.769709,-2.53918,-0.752786,2.38181,1.79528,-1.37681,-1.24663,-0.914765,-0.901266,0.903626,0.943186,0.707139,0.0137973,-1.24663,-0.914765,-0.901266,0.903626,0.943186,0.707139,0.0137973,-0.217409,-0.556024,0.82913,0.968385,-0.1284,0.210766,-0.0363622,-1.29561,0.219439,-0.343634,-0.0711723,-0.483807,0.945333,-1.31618,0.161651,-0.618482,-1.28559,0.2717,-0.569928,-0.810587,-0.69786,-0.578673,0.480675,0.528577,0.548785,0.203603,1
0.789839,-0.848983,-2.60407,-0.702186,2.44569,1.85588,-1.37385,0.802793,-0.838589,-2.59655,-0.704688,2.43745,1.84854,-1.35742,0.872108,-0.778612,-2.54757,-0.74469,2.39085,1.80186,-1.37402,-1.21217,-0.973336,-0.881472,0.821769,0.97374,0.692343,0.545412,-1.21217,-0.973336,-0.881472,0.821769,0.97374,0.692343,0.545412,-0.229557,-0.554165,0.825649,0.968383,-0.128628,0.209105,-0.0443237,-1.27587,0.203917,-0.404483,-0.0831808,-0.481095,0.938897,-1.20085,0.271192,-0.643617,-1.27798,0.256459,-0.673017,-0.822688,-0.703712,-0.565023,0.425041,0.548489,0.54017,0.00170012,1
0.779474,-0.859782,-2.60826,-0.705644,2.45867,1.86161,-1.36718,0.790441,-0.849311,-2.60336,-0.703683,2.44618,1.85588,-1.36783,0.860727,-0.788062,-2.55581,-0.737225,2.39961,1.80882,-1.36872,-1.20648,-1.03098,-0.870923,0.76764,0.892995,0.781878,0.578649,-1.20648,-1.03098,-0.870923,0.76764,0.892995,0.781878,0.578649,-0.241558,-0.552366,0.821595,0.96843,-0.12838,0.207581,-0.050709,-1.26204,0.207313,-0.46645,-0.095427,-0.478219,0.93161,-1.22462,0.287569,-0.728679,-1.2644,0.252613,-0.750806,-0.812524,-0.717203,-0.524527,0.315815,0.590648,0.527867,0.0154523,1
0.769876,-0.871588,-2.6108,-0.723629,2.47077,1.86985,-1.33609,0.779666,-0.860034,-2.60785,-0.709276,2.45845,1.86224,-1.36108,0.849221,-0.798014,-2.56399,-0.730413,2.40753,1.81653,-1.36514,-1.2364,-1.08055,-0.867235,0.685058,0.796731,0.852386,0.205695,-1.2364,-1.08055,-0.867235,0.685058,0.796731,0.852386,0.205695,-0.25348,-0.550526,0.816921,0.96835,-0.128134,0.206281,-0.0576836,-1.26323,0.215094,-0.53395,-0.108065,-0.475179,0.923248,-1.2638,0.304082,-0.8362,-1.25835,0.259469,-0.830933,-0.793451,-0.735742,-0.468087,0.067846,0.632365,0.533166,0.290512,1
0.758038,-0.881984,-2.61865,-0.742503,2.47872,1.87728,-1.32288,0.769316,-0.871235,-2.61213,-0.723851,2.46973,1.86965,-1.34056,0.8375,-0.808249,-2.57199,-0.724605,2.41518,1.82448,-1.36466,-1.25321,-1.0935,-0.835389,0.557143,0.825759,0.836249,-0.0845993,-1.25321,-1.0935,-0.835389,0.557143,0.825759,0.836249,-0.0845993,-0.265369,-0.548652,0.811716,0.968187,-0.127827,0.204768,-0.0659149,-1.25454,0.220297,-0.5825,-0.121171,-0.472009,0.913451,-1.31059,0.31698,-0.979775,-1.25831,0.268057,-0.917555,-0.794615,-0.737352,-0.466566,-0.178979,0.635404,0.527984,0.417782,1
0.745441,-0.892173,-2.62339,-0.755453,2.48814,1.87749,-1.32979,0.757849,-0.881932,-2.61787,-0.741022,2.47908,1.87547,-1.32791,0.825824,-0.818592,-2.57946,-0.720634,2.42348,1.83217,-1.36457,-1.22922,-1.10362,-0.756025,0.302482,0.931416,0.800682,0.0929541,-1.22922,-1.10362,-0.756025,0.302482,0.931416,0.800682,0.0929541,-0.277086,-0.546912,0.805939,0.968211,-0.126969,0.202499,-0.0737596,-1.21427,0.194775,-0.661731,-0.134295,-0.468955,0.90272,-1.31243,0.30539,-1.07307,-1.26334,0.281852,-1.00646,-0.803831,-0.73581,-0.439297,-0.348191,0.64664,0.453237,0.347737,1
0.733608,-0.901987,-2.63158,-0.749431,2.49833,1.86628,-1.35944,0.745632,-0.892079,-2.62425,-0.75071,2.48833,1.87464,-1.33548,0.814398,-0.829075,-2.58624,-0.719834,2.43254,1.83969,-1.36138,-1.20054,-1.12275,-0.689346,-0.106967,0.99046,0.797722,0.554533,-1.20054,-1.12275,-0.689346,-0.106967,0.99046,0.797722,0.554533,-0.288452,-0.545611,0.799167,0.968724,-0.124806,0.199354,-0.0790854,-1.15907,0.139881,-0.802552,-0.147174,-0.466142,0.89022,-1.28782,0.281295,-1.24997,-1.27135,0.298165,-1.11376,-0.807897,-0.729122,-0.453416,-0.295969,0.6579,0.265894,0.0194138,1
0.722321,-0.913731,-2.64501,-0.743374,2.5067,1.85866,-1.35731,0.733745,-0.90247,-2.63289,-0.749422,2.49787,1.86718,-1.3515,0.803079,-0.839658,-2.59264,-0.72274,2.44186,1.847,-1.35529,-1.20449,-1.12578,-0.671859,-0.48684,0.991199,0.75821,0.72915,-1.20449,-1.12578,-0.671859,-0.48684,0.991199,0.75821,0.72915,-0.299491,-0.544842,0.791187,0.969747,-0.120993,0.195514,-0.0820063,-1.12406,0.0997598,-0.931219,-0.160532,-0.46366,0.877744,-1.33585,0.248194,-1.24759,-1.29206,0.2953,-1.22417,-0.807579,-0.740736,-0.523696,-0.206334,0.648356,0.116602,-0.0201663,1
0.710667,-0.924702,-2.65727,-0.733116,2.50686,1.84311,-1.31678,0.722229,-0.913538,-2.64472,-0.742324,2.50465,1.85668,-1.34771,0.791638,-0.850201,-2.59897,-0.727923,2.45118,1.8532,-1.35012,-1.22515,-1.11523,-0.673201,-0.606838,0.989241,0.570799,0.39005,-1.22515,-1.11523,-0.673201,-0.606838,0.989241,0.570799,0.39005,-0.31044,-0.544354,0.78252,0.970993,-0.115961,0.191042,-0.0850157,-1.12472,0.0980497,-0.963143,-0.173031,-0.460387,0.865196,-1.24987,0.32728,-1.2548,-1.2991,0.294288,-1.31957,-0.809715,-0.745011,-0.582993,-0.0519339,0.556773,-0.100874,0.333436,1
0.699232,-0.935984,-2.66781,-0.740907,2.49569,1.83849,-1.30385,0.710722,-0.92478,-2.65684,-0.737628,2.50403,1.84584,-1.32368,0.780065,-0.860685,-2.60558,-0.732812,2.46052,1.85707,-1.34877,-1.23353,-1.11273,-0.727324,-0.442342,0.994692,0.269307,-0.0727051,-1.23353,-1.11273,-0.727324,-0.442342,0.994692,0.269307,-0.0727051,-0.321586,-0.543824,0.774008,0.972132,-0.110321,0.18608,-0.0903478,-1.15782,0.124669,-0.908097,-0.186005,-0.457358,0.850278,-1.29741,0.302878,-1.49181,-1.2992,0.292851,-1.41569,-0.808326,-0.752987,-0.622302,-0.0809498,0.351678,-0.185799,0.449191,1
0.688677,-0.945503,-2.67573,-0.759028,2.49358,1.83423,-1.30858,0.699452,-0.935543,-2.66715,-0.743489,2.49796,1.83858,-1.30826,0.768466,-0.871229,-2.61301,-0.735652,2.46958,1.85807,-1.34892,-1.2313,-1.12671,-0.844417,-0.177669,0.933846,-0.0370138,0.0323716,-1.2313,-1.12671,-0.844417,-0.177669,0.933846,-0.0370138,0.0323716,-0.333083,-0.543107,0.766077,0.973058,-0.104028,0.18125,-0.0973949,-1.20088,0.155213,-0.839825,-0.198591,-0.4549,0.834335,-1.25861,0.245795,-1.59436,-1.2912,0.286688,-1.51163,-0.797889,-0.742746,-0.627172,-0.233759,0.240049,-0.238439,0.403485,1
0.678987,-0.952675,-2.68275,-0.78131,2.51164,1.82232,-1.32184,0.688893,-0.944916,-2.6755,-0.760068,2.49863,1.83231,-1.31071,0.756886,-0.881908,-2.62145,-0.736576,2.47726,1.85649,-1.34583,-1.22938,-1.14169,-0.942507,-0.0280196,0.712729,-0.283474,0.589961,-1.22938,-1.14169,-0.942507,-0.0280196,0.712729,-0.283474,0.589961,-0.34478,-0.542306,0.75855,0.973907,-0.0964508,0.17735,-0.103682,-1.21331,0.165326,-0.815775,-0.211487,-0.452033,0.817468,-1.28961,0.286758,-1.68666,-1.2853,0.284109,-1.61069,-0.77899,-0.707663,-0.61303,-0.447344,0.343804,-0.341704,0.239918,1
0.667454,-0.962789,-2.69257,-0.791647,2.52475,1.81749,-1.32446,0.678526,-0.95341,-2.68345,-0.778324,2.51041,1.82409,-1.31918,0.74535,-0.892656,-2.63049,-0.737497,2.48247,1.85328,-1.33912,-1.22229,-1.1421,-0.976405,-0.159567,0.412385,-0.391528,0.82176,-1.22229,-1.1421,-0.976405,-0.159567,0.412385,-0.391528,0.82176,-0.356276,-0.541692,0.750802,0.974785,-0.0872058,0.174549,-0.108268,-1.1736,0.143734,-0.877194,-0.225102,-0.449386,0.800984,-1.36148,0.264716,-1.64841,-1.2902,0.282177,-1.69687,-0.778964,-0.70133,-0.620782,-0.541492,0.422842,-0.357866,0.146556,1
0.655361,-0.973978,-2.70109,-0.797597,2.52881,1.81598,-1.30581,0.667314,-0.963058,-2.69224,-0.79055,2.52249,1.81832,-1.31914,0.733957,-0.903244,-2.63958,-0.740771,2.48597,1.84929,-1.33258,-1.20006,-1.10974,-0.956652,-0.513894,0.336905,-0.452136,0.582466,-1.20006,-1.10974,-0.956652,-0.513894,0.336905,-0.452136,0.582466,-0.367315,-0.541469,0.742259,0.975714,-0.0764911,0.171851,-0.112241,-1.11377,0.108071,-0.982328,-0.240358,-0.442622,0.789574,-1.52562,0.676364,-1.14099,-1.31822,0.323008,-1.72052,-0.785963,-0.707335,-0.615086,-0.568259,0.428313,-0.333086,0.267722,1
0.64489,-0.981502,-2.70643,-0.800137,2.53054,1.81123,-1.28738,0.655766,-0.973062,-2.70029,-0.796744,2.52823,1.81517,-1.30587,0.722771,-0.91346,-2.64846,-0.747185,2.49016,1.84457,-1.32874,-1.17819,-1.06384,-0.931727,-0.82921,0.539229,-0.545394,0.254545,-1.17819,-1.06384,-0.931727,-0.82921,0.539229,-0.545394,0.254545,-0.378061,-0.541542,0.732906,0.976719,-0.0648436,0.167882,-0.11675,-1.08346,0.095572,-1.0571,-0.253412,-0.43538,0.779206,-1.30536,0.724185,-1.03682,-1.34414,0.392887,-1.67404,-0.778813,-0.680415,-0.579667,-0.529528,0.403796,-0.33337,0.413561,1
0.632869,-0.990771,-2.71805,-0.800871,2.53347,1.80923,-1.28097,0.644502,-0.981938,-2.708,-0.799686,2.53084,1.81192,-1.29039,0.711666,-0.923431,-2.65723,-0.755509,2.49606,1.83936,-1.32662,-1.18107,-1.05523,-0.932296,-0.93311,0.703904,-0.56027,0.199075,-1.18107,-1.05523,-0.932296,-0.93311,0.703904,-0.56027,0.199075,-0.388828,-0.541544,0.723064,0.977738,-0.052885,0.162484,-0.121784,-1.08776,0.124069,-1.09205,-0.265511,-0.426709,0.770471,-1.2099,0.867131,-0.873494,-1.34654,0.501427,-1.54848,-0.787976,-0.673405,-0.608185,-0.453618,0.374106,-0.301281,0.456533,1
0.62012,-1.00166,-2.72938,-0.810607,2.53056,1.79889,-1.28639,0.632687,-0.991177,-2.71798,-0.803122,2.53201,1.80715,-1.28393,0.700499,-0.933372,-2.66592,-0.763988,2.50258,1.83434,-1.32341,-1.19119,-1.05691,-0.915237,-0.872273,0.682995,-0.510338,0.467071,-1.19119,-1.05691,-0.915237,-0.872273,0.682995,-0.510338,0.467071,-0.399652,-0.541151,0.713096,0.978683,-0.0410748,0.156636,-0.126322,-1.08495,0.172286,-1.08231,-0.277673,-0.417278,0.761771,-1.2162,0.94305,-0.870037,-1.3343,0.633998,-1.39095,-0.803786,-0.682917,-0.634595,-0.466189,0.279828,-0.354448,0.370142,1
0.608488,-1.0114,-2.74197,-0.816392,2.52611,1.79143,-1.28968,0.620399,-1.00137,-2.7297,-0.809619,2.53017,1.79961,-1.28586,0.68928,-0.943194,-2.67443,-0.771579,2.50856,1.82972,-1.31771,-1.1924,-1.03172,-0.893866,-0.748445,0.593268,-0.473886,0.72756,-1.1924,-1.03172,-0.893866,-0.748445,0.593268,-0.473886,0.72756,-0.410359,-0.540241,0.703378,0.97951,-0.0296624,0.151122,-0.129778,-1.06761,0.223288,-1.03253,-0.290281,-0.407726,0.75167,-1.2608,0.955263,-1.01002,-1.30956,0.76089,-1.2533,-0.807925,-0.682013,-0.675428,-0.448124,0.175491,-0.382847,0.280323,1
0.597058,-1.02194,-2.75323,-0.820922,2.52675,1.78606,-1.28359,0.608539,-1.0116,-2.74164,-0.816078,2.52738,1.79195,-1.28733,0.677987,-0.95285,-2.68303,-0.7782,2.51362,1.82522,-1.31091,-1.20631,-1.02061,-0.930668,-0.663634,0.489559,-0.481215,0.718397,-1.20631,-1.02061,-0.930668,-0.663634,0.489559,-0.481215,0.718397,-0.420949,-0.538866,0.693946,0.980122,-0.0185222,0.146138,-0.132894,-1.06723,0.266953,-1.01092,-0.302114,-0.398488,0.740932,-1.18331,0.923803,-1.07384,-1.26836,0.859243,-1.17643,-0.809288,-0.690937,-0.701977,-0.427218,0.131249,-0.391637,0.273113,1
0.585549,-1.03198,-2.76331,-0.826357,2.52966,1.7825,-1.27434,0.597038,-1.02182,-2.75293,-0.821148,2.52732,1.78651,-1.2828,0.666523,-0.962526,-2.69214,-0.784476,2.51747,1.82034,-1.30516,-1.22823,-1.03447,-1.00021,-0.669533,0.338166,-0.551852,0.514144,-1.22823,-1.03447,-1.00021,-0.669533,0.338166,-0.551852,0.514144,-0.431544,-0.537225,0.684416,0.980408,-0.00706267,0.141624,-0.13672,-1.07382,0.290204,-1.04216,-0.313493,-0.388142,0.728708,-1.13791,1.03459,-1.22237,-1.21992,0.915031,-1.19267,-0.809738,-0.694563,-0.711723,-0.418812,0.121862,-0.378343,0.308205,1
0.574085,-1.04192,-2.77385,-0.829466,2.53298,1.77866,-1.26839,0.58556,-1.03196,-2.76342,-0.825776,2.52976,1.78243,-1.27517,0.654927,-0.97232,-2.70185,-0.790797,2.51996,1.81485,-1.30107,-1.23527,-1.04596,-1.0596,-0.673218,0.197727,-0.609788,0.365695,-1.23527,-1.04596,-1.0596,-0.673218,0.197727,-0.609788,0.365695,-0.442137,-0.535448,0.674572,0.980337,0.0050361,0.137517,-0.141433,-1.07027,0.310462,-1.07024,-0.32536,-0.378093,0.71526,-1.18672,1.0049,-1.34482,-1.20089,0.956383,-1.25786,-0.808418,-0.69604,-0.720024,-0.386694,0.130281,-0.361899,0.32681,1
0.562861,-1.05217,-2.78466,-0.833844,2.53116,1.77342,-1.26509,0.574145,-1.042,-2.77392,-0.829783,2.5317,1.77831,-1.26905,0.643314,-0.982209,-2.71198,-0.796985,2.52159,1.80915,-1.2975,-1.23229,-1.05469,-1.09064,-0.643452,0.152471,-0.602786,0.391317,-1.23229,-1.05469,-1.09064,-0.643452,0.152471,-0.602786,0.391317,-0.452677,-0.533449,0.664523,0.979993,0.0174407,0.133657,-0.146441,-1.06357,0.342336,-1.07907,-0.337312,-0.368359,0.701323,-1.19517,0.97335,-1.39369,-1.19282,0.975013,-1.35509,-0.804535,-0.699567,-0.726828,-0.368591,0.095662,-0.357259,0.324078,1
0.55166,-1.06219,-2.79565,-0.838397,2.52078,1.76784,-1.26199,0.562867,-1.05211,-2.78471,-0.833888,2.52902,1.77334,-1.26514,0.63173,-0.992162,-2.72227,-0.802873,2.52314,1.80366,-1.29335,-1.22944,-1.05973,-1.09591,-0.609867,0.176258,-0.565346,0.484175,-1.22944,-1.05973,-1.09591,-0.609867,0.176258,-0.565346,0.484175,-0.463164,-0.531098,0.654411,0.979498,0.0297093,0.129763,-0.151203,-1.05624,0.380972,-1.07842,-0.349499,-0.358441,0.686504,-1.21868,0.991857,-1.48187,-1.18852,0.984431,-1.45773,-0.8007,-0.700263,-0.733786,-0.355232,-0.0236768,-0.35818,0.313617,1
0.540711,-1.07165,-2.80668,-0.842228,2.50704,1.76214,-1.25831,0.551723,-1.06205,-2.79566,-0.838216,2.51994,1.76781,-1.26184,0.620176,-1.00214,-2.73261,-0.80841,2.52484,1.79848,-1.28861,-1.22575,-1.06129,-1.1001,-0.569146,0.182687,-0.537073,0.520795,-1.22575,-1.06129,-1.1001,-0.569146,0.182687,-0.537073,0.520795,-0.473585,-0.528357,0.644307,0.978879,0.0416813,0.125746,-0.155711,-1.04601,0.417671,-1.07239,-0.362029,-0.349282,0.670602,-1.25309,0.915855,-1.59023,-1.19227,0.982883,-1.55516,-0.794649,-0.695096,-0.740696,-0.338177,-0.177933,-0.363403,0.30299,1
0.529903,-1.08101,-2.81763,-0.844599,2.49736,1.75616,-1.25338,0.540746,-1.07163,-2.80666,-0.841863,2.50806,1.76207,-1.258,0.608668,-1.01215,-2.74301,-0.81362,2.52604,1.79344,-1.28382,-1.21966,-1.06416,-1.11025,-0.5397,0.0793508,-0.535188,0.497561,-1.21966,-1.06416,-1.11025,-0.5397,0.0793508,-0.535188,0.497561,-0.483854,-0.525323,0.634187,0.978075,0.0535488,0.12186,-0.160164,-1.02523,0.441341,-1.07498,-0.373691,-0.340763,0.658042,-1.16615,0.851926,-1.25597,-1.1998,0.966234,-1.60584,-0.787659,-0.688584,-0.746207,-0.309783,-0.286763,-0.372799,0.304446,1
0.518719,-1.09071,-2.82875,-0.838443,2.49327,1.75036,-1.24922,0.529809,-1.0811,-2.81767,-0.842467,2.49876,1.7562,-1.25357,0.597228,-1.02216,-2.75352,-0.818612,2.52563,1.78834,-1.2793,-1.21176,-1.06232,-1.12207,-0.522043,-0.151592,-0.546645,0.464921,-1.21176,-1.06232,-1.12207,-0.522043,-0.151592,-0.546645,0.464921,-0.493822,-0.522151,0.623975,0.977013,0.0656785,0.118546,-0.164559,-0.990118,0.45264,-1.08276,-0.386819,-0.329633,0.656266,-1.31276,1.113,-0.177681,-1.21913,0.961655,-1.49458,-0.785085,-0.685565,-0.752239,-0.198312,-0.323604,-0.37981,0.300835,1
0.507785,-1.10056,-2.8402,-0.821078,2.48943,1.7456,-1.24409,0.518781,-1.09075,-2.82883,-0.835641,2.49333,1.75062,-1.24898,0.585872,-1.03211,-2.76413,-0.823377,2.52297,1.78313,-1.27499,-1.20167,-1.05239,-1.13236,-0.492262,-0.397289,-0.56067,0.452489,-1.20167,-1.05239,-1.13236,-0.492262,-0.397289,-0.56067,0.452489,-0.503389,-0.518921,0.613687,0.975664,0.0782431,0.116075,-0.168773,-0.951921,0.462259,-1.0809,-0.4002,-0.318713,0.651514,-1.33811,1.09196,-0.475204,-1.24188,0.975961,-1.30649,-0.780877,-0.684503,-0.760665,0.0229936,-0.335416,-0.375239,0.309012,1
0.497533,-1.1102,-2.85192,-0.800739,2.48075,1.74135,-1.24053,0.507955,-1.1005,-2.83939,-0.820334,2.48822,1.74573,-1.24448,0.574605,-1.04196,-2.77484,-0.827537,2.51858,1.77778,-1.27071,-1.19294,-1.04218,-1.14076,-0.397595,-0.527907,-0.574561,0.456409,-1.19294,-1.04218,-1.14076,-0.397595,-0.527907,-0.574561,0.456409,-0.512633,-0.515557,0.603512,0.97405,0.0910041,0.114322,-0.172843,-0.930735,0.484416,-1.05086,-0.413119,-0.308646,0.647208,-1.29198,1.00678,-0.430608,-1.26291,0.993735,-1.08095,-0.770723,-0.68235,-0.770865,0.267983,-0.378357,-0.364334,0.301787,1
0.487427,-1.11906,-2.86369,-0.790177,2.47191,1.73821,-1.23657,0.497569,-1.11,-2.84636,-0.803183,2.48071,1.74163,-1.24043,0.5634,-1.05175,-2.78562,-0.830037,2.51356,1.77235,-1.26638,-1.18822,-1.03848,-1.15068,-0.149217,-0.538633,-0.578699,0.463449,-1.18822,-1.03848,-1.15068,-0.149217,-0.538633,-0.578699,0.463449,-0.521776,-0.511844,0.59387,0.972198,0.103335,0.113095,-0.177093,-0.937018,0.527703,-0.964118,-0.426272,-0.297505,0.642334,-1.31525,1.11407,-0.487357,-1.28217,1.0219,-0.863679,-0.759739,-0.673122,-0.780689,0.3986,-0.416507,-0.341405,0.298056,1
0.476613,-1.1256,-2.87519,-0.781559,2.4669,1.73292,-1.23607,0.48725,-1.11848,-2.84842,-0.790663,2.47287,1.73767,-1.23744,0.552259,-1.06152,-2.79642,-0.829478,2.50849,1.76697,-1.262,-1.17981,-1.03809,-1.14432,0.243509,-0.539647,-0.565665,0.466562,-1.17981,-1.03809,-1.14432,0.243509,-0.539647,-0.565665,0.466562,-0.530962,-0.507606,0.585301,0.97012,0.11455,0.112547,-0.181874,-0.951658,0.576735,-0.822404,-0.439495,-0.28757,0.635573,-1.32227,0.99346,-0.676072,-1.29949,1.04514,-0.719864,-0.75646,-0.640766,-0.787724,0.479193,-0.415829,-0.340506,0.259361,1
0.46632,-1.13191,-2.88573,-0.774146,2.4655,1.72885,-1.24292,0.476743,-1.12554,-2.84842,-0.78186,2.4678,1.73322,-1.23791,0.541238,-1.07126,-2.80674,-0.82544,2.50312,1.76179,-1.25765,-1.16293,-1.03167,-1.05503,0.592717,-0.596815,-0.536933,0.45855,-1.16293,-1.03167,-1.05503,0.592717,-0.596815,-0.536933,0.45855,-0.540066,-0.502917,0.578047,0.967875,0.124339,0.112859,-0.187138,-0.938476,0.602015,-0.682815,-0.451475,-0.279332,0.628046,-1.19808,0.823805,-0.752765,-1.30278,1.03438,-0.701982,-0.749179,-0.606461,-0.789876,0.512944,-0.376174,-0.329363,0.147297,1
0.456016,-1.14064,-2.89483,-0.767129,2.46269,1.7248,-1.24746,0.466317,-1.13251,-2.84842,-0.774245,2.46515,1.72885,-1.24234,0.530366,-1.08083,-2.81575,-0.819046,2.49724,1.75686,-1.25349,-1.14821,-1.00271,-0.869923,0.755844,-0.649098,-0.511109,0.427506,-1.14821,-1.00271,-0.869923,0.755844,-0.649098,-0.511109,0.427506,-0.548831,-0.49801,0.571909,0.965594,0.132806,0.113719,-0.192504,-0.894158,0.602065,-0.583625,-0.465138,-0.269058,0.619319,-1.36627,1.02746,-0.872642,-1.29959,1.00559,-0.805036,-0.743504,-0.598151,-0.790799,0.519172,-0.345514,-0.320676,0.0602613,1
0.445222,-1.14998,-2.90203,-0.759307,2.45573,1.72336,-1.24339,0.455894,-1.14079,-2.84842,-0.766928,2.46165,1.72545,-1.24531,0.519594,-1.08999,-2.82298,-0.811733,2.49125,1.7521,-1.24999,-1.14114,-0.946885,-0.677496,0.795527,-0.6245,-0.502547,0.321892,-1.14114,-0.946885,-0.677496,0.795527,-0.6245,-0.502547,0.321892,-0.557158,-0.493015,0.566608,0.963362,0.140147,0.114566,-0.197908,-0.847834,0.600516,-0.506874,-0.478291,-0.258121,0.61007,-1.31527,1.09361,-0.924951,-1.29826,0.996872,-0.894276,-0.743722,-0.599963,-0.790515,0.52426,-0.355249,-0.287397,0.0660705,1
0.434419,-1.15954,-2.90767,-0.751044,2.45033,1.72251,-1.24328,0.44522,-1.15004,-2.84842,-0.759197,2.45612,1.72351,-1.24438,0.508891,-1.09867,-2.8286,-0.804231,2.48576,1.74741,-1.24784,-1.13374,-0.901284,-0.527635,0.798529,-0.548752,-0.494084,0.146433,-1.13374,-0.901284,-0.527635,0.798529,-0.548752,-0.494084,0.146433,-0.565125,-0.487929,0.561933,0.96115,0.146494,0.11508,-0.203683,-0.812168,0.602397,-0.453798,-0.49117,-0.247059,0.601869,-1.28791,1.10625,-0.820118,-1.2994,1.00728,-0.974286,-0.744718,-0.608678,-0.790677,0.531868,-0.354303,-0.248939,0.0455737,1
