Afshin1997/kuka_rl_ros2/src/catch_and_throw/output_files/tm/nn_ema5.00_jvws3_realball_D22H17M08S31/recorded_data.csv
pure_target_joint_0,pure_target_joint_1,pure_target_joint_2,pure_target_joint_3,pure_target_joint_4,pure_target_joint_5,pure_target_joint_6,target_joint_0,target_joint_1,target_joint_2,target_joint_3,target_joint_4,target_joint_5,target_joint_6,pos_joint_0,pos_joint_1,pos_joint_2,pos_joint_3,pos_joint_4,pos_joint_5,pos_joint_6,vel_joint_0,vel_joint_1,vel_joint_2,vel_joint_3,vel_joint_4,vel_joint_5,vel_joint_6,vel_smooth_joint_0,vel_smooth_joint_1,vel_smooth_joint_2,vel_smooth_joint_3,vel_smooth_joint_4,vel_smooth_joint_5,vel_smooth_joint_6,ee_pos_x,ee_pos_y,ee_pos_z,ee_or_w,ee_or_x,ee_or_y,ee_or_z,ee_vel_x,ee_vel_y,ee_vel_z,ball_pos_x,ball_pos_y,ball_pos_z,ball_raw_vx,ball_raw_vy,ball_raw_vz,ball_ema_vx,ball_ema_vy,ball_ema_vz,action_0,action_1,action_2,action_3,action_4,action_5,action_6,command_published
1.74538,-1.05221,-1.84561,-1.05729,1.98032,1.17405,-0.851724,1.77153,-1.06158,-1.82274,-1.10204,1.94805,1.13117,-0.900186,1.78024,-1.0647,-1.81512,-1.11696,1.93729,1.11688,-0.91634,0,0,0,0,0,0,0,0,0,0,0,0,0,0,0.53104,-0.454477,0.694285,0.574574,0.175178,0.152557,0.784795,0,0,0,2.97451,-0.489982,0.105952,-3.43906,0.0219835,5.32638,-3.34409,-0.0913358,4.84323,-0.348677,0.124853,-0.304856,0.596634,0.430313,0.571721,0.646167,1
1.73562,-1.03477,-1.83583,-1.0665,1.96687,1.17969,-0.854374,1.75165,-1.05097,-1.83554,-1.07451,1.9662,1.16117,-0.86854,1.78024,-1.0647,-1.81512,-1.11696,1.93729,1.11688,-0.91634,-4.23228e-07,-2.40792e-07,1.00151e-07,-7.69131e-07,-2.05523e-07,-5.46166e-07,4.42574e-07,-1.41076e-07,-8.0264e-08,3.33835e-08,-2.56377e-07,-6.85077e-08,-1.82055e-07,1.47525e-07,0.53104,-0.454477,0.694285,0.574574,0.175178,0.152557,0.784795,9.46041e-09,-9.35181e-10,-6.29024e-07,2.94187,-0.488839,0.161871,-3.30609,0.11582,5.66433,-3.30907,-0.029673,5.19695,-0.446205,0.299319,-0.207101,0.50452,0.295804,0.628084,0.619667,1
1.73912,-1.02146,-1.82561,-1.07724,1.98143,1.17214,-0.858404,1.73893,-1.0358,-1.83572,-1.06688,1.97388,1.17639,-0.854719,1.78024,-1.0647,-1.81512,-1.11696,1.93729,1.11688,-0.91634,-7.16492e-07,-4.07642e-07,1.69547e-07,-1.30208e-06,-3.47935e-07,-9.24617e-07,7.49244e-07,-3.79907e-07,-2.16145e-07,8.98992e-08,-6.90403e-07,-1.84486e-07,-4.90261e-07,3.97273e-07,0.53104,-0.454477,0.694285,0.574574,0.175178,0.152557,0.784795,8.00806e-09,-7.91604e-10,-5.32458e-07,2.91049,-0.48678,0.217363,-3.09674,0.203107,5.47516,-3.25974,0.0583684,5.41154,-0.41128,0.432393,-0.104834,0.397207,0.441426,0.552609,0.579364,1
1.71519,-0.998565,-1.77306,-1.08463,1.99327,1.14836,-0.841922,1.73226,-1.01906,-1.81502,-1.0764,1.98075,1.16808,-0.853276,1.77376,-1.06184,-1.82009,-1.10686,1.94431,1.12711,-0.905126,-0.801936,0.39427,-0.560659,1.17342,0.794055,1.23544,1.32707,-0.267312,0.131423,-0.186886,0.391138,0.264685,0.411813,0.442357,0.524652,-0.461917,0.697467,0.577323,0.171545,0.147062,0.78463,-0.724676,-0.82767,0.383686,2.87971,-0.484598,0.272538,-3.01101,0.213523,5.39811,-3.21759,0.144063,5.50109,-0.585718,0.63279,0.470302,0.222335,0.489581,0.212511,0.632038,1
1.71579,-0.991674,-1.76942,-1.08326,2.00294,1.16743,-0.835417,1.72132,-1.00257,-1.78528,-1.08244,1.99273,1.15907,-0.844416,1.77037,-1.06018,-1.82246,-1.10189,1.94767,1.13234,-0.899509,-0.678792,0.333726,-0.474565,0.993228,0.672121,1.04573,1.12329,-0.493576,0.242665,-0.345075,0.722214,0.488725,0.760388,0.816786,0.521312,-0.465501,0.699221,0.578737,0.169491,0.14446,0.784517,-0.620234,-0.694186,0.32582,2.84986,-0.481839,0.327367,-3.04453,0.28141,5.59151,-3.11471,0.205287,5.53497,-0.545763,0.68501,0.530399,0.186372,0.552686,0.350941,0.640925,1
1.70468,-0.98452,-1.77121,-1.07441,2.01077,1.17762,-0.824523,1.71286,-0.991609,-1.77078,-1.08139,2.00248,1.16521,-0.83432,1.76146,-1.05327,-1.82622,-1.09197,1.9551,1.14483,-0.886813,-0.816971,0.633422,-0.344641,0.90991,0.68101,1.14497,1.16409,-0.765899,0.453806,-0.459955,1.02552,0.715729,1.14204,1.20481,0.512871,-0.472147,0.70525,0.581989,0.163043,0.139392,0.784395,-0.720138,-0.593599,0.524874,2.81893,-0.479161,0.381703,-3.12711,0.270786,5.4945,-3.06511,0.242984,5.49667,-0.567785,0.687461,0.550029,0.175559,0.55671,0.327892,0.622892,1
1.703,-0.974253,-1.76798,-1.05799,2.01865,1.19456,-0.817246,1.70704,-0.983742,-1.76996,-1.07252,2.01078,1.17931,-0.825428,1.75318,-1.04357,-1.82304,-1.08756,1.96237,1.15142,-0.877306,-0.758812,0.888915,0.290899,0.404648,0.6667,0.604435,0.871602,-0.751525,0.618688,-0.176102,0.769262,0.673277,0.931709,1.05299,0.505827,-0.474354,0.713546,0.583219,0.156772,0.13547,0.785446,-0.592834,-0.1986,0.734094,2.78711,-0.476047,0.43657,-3.14336,0.307548,5.41955,-3.07533,0.269039,5.47579,-0.501778,0.693177,0.550611,0.295691,0.562754,0.431356,0.600596,1
1.69029,-0.96074,-1.76214,-1.05021,2.02822,1.19838,-0.814163,1.70024,-0.973442,-1.76733,-1.06015,2.01907,1.19128,-0.818295,1.74415,-1.03195,-1.81234,-1.08611,1.97098,1.15359,-0.867983,-0.828006,1.06569,0.98139,0.133063,0.788958,0.198945,0.854787,-0.801263,0.862677,0.309216,0.48254,0.712223,0.649449,0.963492,0.498822,-0.474014,0.724532,0.582451,0.150205,0.130606,0.788119,-0.58193,0.037701,0.976087,2.75665,-0.473297,0.488743,-2.94849,0.266219,5.05042,-3.08868,0.283935,5.41612,-0.53862,0.712072,0.501973,0.358975,0.572462,0.447934,0.538194,1
1.67767,-0.947995,-1.75599,-1.0488,2.03967,1.20134,-0.811904,1.69031,-0.960932,-1.76207,-1.0518,2.02869,1.19817,-0.814369,1.73528,-1.02051,-1.80056,-1.08477,1.97991,1.15688,-0.85844,-0.813124,1.04839,1.08022,0.122571,0.818764,0.302033,0.874883,-0.799981,1.001,0.784171,0.220094,0.758141,0.368471,0.867091,0.491628,-0.473143,0.735717,0.581143,0.142819,0.125291,0.791314,-0.591872,0.0845082,0.992052,2.72694,-0.470676,0.538769,-3.03735,0.267997,5.11497,-3.08109,0.281891,5.29844,-0.576111,0.725179,0.445654,0.359684,0.597611,0.444581,0.465365,1
1.66809,-0.936237,-1.74745,-1.04539,2.04867,1.20298,-0.801517,1.67843,-0.948242,-1.75539,-1.0483,2.03906,1.20101,-0.809872,1.72728,-1.01009,-1.79188,-1.0813,1.98866,1.16324,-0.849082,-0.734019,0.955648,0.795299,0.318374,0.802434,0.582718,0.857987,-0.791716,1.02324,0.952305,0.191336,0.803385,0.361232,0.862553,0.484243,-0.473128,0.745858,0.580692,0.134736,0.120086,0.793866,-0.605617,0.00275722,0.897228,2.69676,-0.467247,0.589578,-3.1241,0.354825,5.25856,-3.04513,0.291976,5.17948,-0.59189,0.738522,0.444388,0.359043,0.600143,0.397424,0.475653,1
1.65911,-0.924682,-1.74084,-1.03913,2.0552,1.21185,-0.78764,1.66824,-0.936288,-1.74793,-1.04468,2.04805,1.20479,-0.800644,1.71961,-0.999701,-1.78492,-1.0753,1.99728,1.17119,-0.840355,-0.702544,0.952449,0.638119,0.54959,0.790411,0.72869,0.800147,-0.749896,0.985496,0.837881,0.330178,0.803869,0.537813,0.844339,0.476342,-0.473797,0.756007,0.581463,0.12577,0.115016,0.795521,-0.648721,-0.0618015,0.898224,2.66559,-0.463957,0.639559,-3.25916,0.344111,5.22698,-3.02922,0.302296,5.06813,-0.605054,0.750188,0.440841,0.361707,0.579198,0.406631,0.527153,1
1.65192,-0.913772,-1.73404,-1.03162,2.06228,1.22133,-0.776641,1.65955,-0.924843,-1.74079,-1.03882,2.05534,1.212,-0.788359,1.71131,-0.988711,-1.77844,-1.06864,2.00618,1.17884,-0.832989,-0.761532,1.00763,0.594105,0.6108,0.816367,0.701185,0.675389,-0.732698,0.971908,0.675841,0.492921,0.803071,0.670864,0.777841,0.467955,-0.474658,0.766375,0.583236,0.116647,0.11026,0.796286,-0.693453,-0.0793237,0.920299,2.63501,-0.461332,0.687928,-3.13831,0.269381,4.96381,-3.04624,0.306485,4.9916,-0.593894,0.749392,0.444006,0.370228,0.560921,0.424954,0.563483,1
1.64162,-0.902628,-1.73043,-1.02384,2.07072,1.23015,-0.769077,1.65114,-0.913714,-1.73484,-1.03155,2.06262,1.22117,-0.777499,1.70199,-0.977239,-1.77191,-1.06287,2.0155,1.18512,-0.826436,-0.854528,1.05183,0.599108,0.528649,0.854421,0.576403,0.600824,-0.772868,1.00397,0.610444,0.563013,0.8204,0.668759,0.69212,0.459383,-0.47539,0.776635,0.585251,0.108159,0.105871,0.796601,-0.714938,-0.0658701,0.913668,2.60557,-0.459043,0.734585,-2.67249,0.207803,4.23485,-3.04495,0.291818,4.89982,-0.603658,0.746113,0.414771,0.390387,0.552136,0.450308,0.57359,1
1.6307,-0.890697,-1.72575,-1.01718,2.08003,1.23667,-0.76245,1.64146,-0.902431,-1.73017,-1.02412,2.07094,1.22958,-0.769311,1.69242,-0.965631,-1.76511,-1.05772,2.02473,1.1907,-0.819125,-0.877173,1.06436,0.623242,0.472915,0.846026,0.511179,0.670342,-0.831078,1.04127,0.605485,0.537455,0.838938,0.596256,0.648852,0.450883,-0.475706,0.786758,0.586671,0.099982,0.101758,0.797161,-0.710555,-0.0289975,0.903456,2.57617,-0.456611,0.780281,-2.93989,0.243124,4.56917,-3.01207,0.261871,4.76434,-0.617242,0.749341,0.393614,0.405393,0.553026,0.459766,0.566752,1
1.62047,-0.878588,-1.71742,-1.01378,2.0906,1.23958,-0.754804,1.63087,-0.890652,-1.72484,-1.01799,2.08035,1.23577,-0.762195,1.6831,-0.954069,-1.75822,-1.05236,2.03341,1.19674,-0.810404,-0.854199,1.0601,0.632107,0.491188,0.795506,0.553777,0.79962,-0.861967,1.05876,0.618152,0.497584,0.831985,0.54712,0.690262,0.442389,-0.475594,0.796833,0.587389,0.0914458,0.0978807,0.798142,-0.708202,0.00588547,0.899928,2.5464,-0.452811,0.824711,-2.9621,0.378151,4.42131,-2.97231,0.270128,4.62658,-0.626322,0.75481,0.408006,0.385794,0.571963,0.428466,0.556001,1
1.61103,-0.866753,-1.70867,-1.01092,2.1,1.24149,-0.745096,1.62067,-0.878657,-1.71731,-1.01391,2.09031,1.23933,-0.754288,1.67404,-0.942629,-1.75159,-1.04646,2.04169,1.20366,-0.801076,-0.830741,1.04887,0.607624,0.540842,0.759214,0.634937,0.855208,-0.854037,1.05778,0.620991,0.501648,0.800249,0.566631,0.775057,0.433785,-0.475258,0.806804,0.587893,0.0823852,0.0941959,0.799201,-0.715469,0.0223892,0.891335,2.51514,-0.44974,0.869901,-3.13523,0.30803,4.5324,-2.98912,0.294159,4.54074,-0.630151,0.758762,0.429269,0.355451,0.583182,0.378234,0.559805,1
1.60181,-0.855088,-1.70022,-1.00755,2.10887,1.24186,-0.734794,1.61108,-0.866796,-1.70874,-1.01079,2.09987,1.2411,-0.744947,1.66481,-0.931235,-1.74552,-1.04013,2.04998,1.21101,-0.792072,-0.846759,1.04478,0.556883,0.580742,0.760197,0.673565,0.825605,-0.843899,1.05125,0.598871,0.537591,0.771639,0.62076,0.826811,0.424958,-0.47497,0.816589,0.588714,0.07313,0.0906969,0.799901,-0.73532,0.016542,0.875882,2.48716,-0.446074,0.913364,-2.83439,0.371344,4.40294,-2.97838,0.328079,4.47177,-0.62999,0.761466,0.453027,0.325719,0.588914,0.308492,0.572784,1
1.59287,-0.843552,-1.69366,-1.00152,2.11684,1.24697,-0.724484,1.60188,-0.85512,-1.70069,-1.00689,2.10865,1.24304,-0.734792,1.65519,-0.919731,-1.73966,-1.03385,2.05859,1.21803,-0.783603,-0.882044,1.05476,0.537473,0.575285,0.789294,0.643604,0.776522,-0.853181,1.04947,0.567327,0.565623,0.769568,0.650702,0.819112,0.415991,-0.474625,0.826232,0.589764,0.0640301,0.0873482,0.80028,-0.749375,0.0220652,0.864798,2.45563,-0.444335,0.955811,-3.12148,0.172211,4.20169,-3.00317,0.312901,4.39712,-0.623223,0.761792,0.459976,0.323353,0.582539,0.289473,0.59119,1
1.58304,-0.831685,-1.6879,-0.994698,2.12541,1.25228,-0.715187,1.59264,-0.843469,-1.69386,-1.00132,2.11699,1.24702,-0.724737,1.6454,-0.908087,-1.73332,-1.0282,2.06758,1.22407,-0.775293,-0.89723,1.06755,0.580708,0.518234,0.824543,0.553704,0.761906,-0.875345,1.0557,0.558355,0.558087,0.791345,0.623624,0.788011,0.407176,-0.47387,0.835793,0.590474,0.0553322,0.0840895,0.800755,-0.737537,0.0604396,0.859131,2.42588,-0.441101,0.997372,-2.99106,0.325135,4.17832,-3.00562,0.288265,4.31231,-0.623673,0.764027,0.454204,0.33502,0.578265,0.282161,0.601057,1
1.57244,-0.819472,-1.68073,-0.991527,2.13581,1.25099,-0.706748,1.58284,-0.831598,-1.68755,-0.99561,2.12587,1.25063,-0.715402,1.63567,-0.896383,-1.72635,-1.02327,2.07673,1.2289,-0.766691,-0.891953,1.07321,0.638897,0.452467,0.839273,0.442784,0.788709,-0.890409,1.06517,0.585693,0.515329,0.817703,0.546697,0.775712,0.398699,-0.472589,0.845244,0.590527,0.0471515,0.0809754,0.801559,-0.709458,0.109154,0.850796,2.39675,-0.43721,1.03816,-2.91589,0.38946,4.0832,-2.98067,0.300328,4.20519,-0.63232,0.769102,0.456222,0.317382,0.590794,0.220958,0.599432,1
1.56288,-0.80722,-1.67175,-0.994017,2.14657,1.24465,-0.697444,1.5727,-0.819462,-1.68028,-0.992942,2.1359,1.24973,-0.706532,1.62609,-0.884686,-1.71908,-1.01862,2.08578,1.23291,-0.757649,-0.878388,1.07244,0.667073,0.425724,0.829446,0.367713,0.829085,-0.88919,1.07107,0.628893,0.465475,0.831088,0.454734,0.793233,0.390496,-0.470912,0.854565,0.590066,0.0393118,0.0780839,0.802608,-0.686933,0.144914,0.8405,2.36693,-0.43402,1.07727,-2.992,0.320103,3.9242,-2.99339,0.312324,4.10152,-0.63217,0.774657,0.473256,0.246049,0.607866,0.117409,0.602044,1
1.55418,-0.794867,-1.6608,-1.00346,2.15749,1.22514,-0.68725,1.56309,-0.807195,-1.67126,-0.995755,2.14661,1.24136,-0.697222,1.61661,-0.873002,-1.71193,-1.01372,2.09463,1.23691,-0.748319,-0.869395,1.07126,0.655492,0.44965,0.811164,0.366891,0.855393,-0.879912,1.0723,0.653821,0.442614,0.826628,0.392463,0.824396,0.382321,-0.469031,0.863784,0.589453,0.0314089,0.0754219,0.80366,-0.68466,0.161958,0.832482,2.33741,-0.430519,1.11548,-2.95855,0.350826,3.82934,-2.95388,0.347115,3.99238,-0.624363,0.78135,0.511255,0.102603,0.628605,-0.117663,0.610688,1
1.54476,-0.782557,-1.6513,-1.0133,2.16743,1.21143,-0.676533,1.554,-0.794878,-1.66117,-1.00356,2.15724,1.22659,-0.68712,1.60704,-0.861266,-1.70502,-1.00858,2.10348,1.2408,-0.738988,-0.877639,1.07612,0.633681,0.470636,0.811945,0.356728,0.855553,-0.87514,1.07327,0.652082,0.44867,0.817519,0.363777,0.846677,0.374107,-0.467035,0.872897,0.588877,0.0235292,0.0729553,0.804579,-0.68902,0.171491,0.824208,2.30702,-0.427475,1.15199,-2.93558,0.294111,3.52724,-2.97052,0.339425,3.86561,-0.62282,0.787086,0.537196,-0.0471697,0.639517,-0.293661,0.624548,1
1.53707,-0.764458,-1.634,-1.04101,2.17985,1.20436,-0.659917,1.54519,-0.78111,-1.64935,-1.01777,2.16805,1.21309,-0.675058,1.59205,-0.842934,-1.6939,-1.00286,2.11788,1.24303,-0.724788,-0.971484,1.1914,0.732069,0.332171,0.942257,0.0857556,0.92172,-0.906173,1.11292,0.673747,0.417486,0.855122,0.269792,0.877555,0.362528,-0.463254,0.886376,0.587091,0.0136131,0.0696131,0.806407,-1.34701,0.502887,1.71051,2.277,-0.424609,1.18779,-3.03465,0.289686,3.61833,-2.99412,0.317481,3.73984,-0.549798,0.784757,0.598973,-0.38153,0.619722,-0.386635,0.64871,1
1.52848,-0.758438,-1.63485,-1.00311,2.18801,1.20006,-0.659039,1.53685,-0.767478,-1.63854,-1.02461,2.17879,1.20506,-0.663852,1.58761,-0.837447,-1.69042,-1.00177,2.12229,1.24277,-0.720556,-0.889162,1.09729,0.695094,0.218209,0.881997,-0.0512759,0.846375,-0.912762,1.1216,0.686948,0.340339,0.878733,0.130403,0.874549,0.359412,-0.461921,0.890234,0.586268,0.0112247,0.0687367,0.807118,-0.578184,0.257452,0.766183,2.24708,-0.421519,1.22316,-2.91697,0.301299,3.44955,-3.001,0.309123,3.64099,-0.591315,0.790091,0.555733,-0.0133952,0.657184,-0.427063,0.615176,1
1.51284,-0.74609,-1.62821,-1.00044,2.20021,1.18925,-0.648426,1.52672,-0.756856,-1.63298,-1.01192,2.18902,1.19844,-0.656605,1.57808,-0.82538,-1.68213,-1.00228,2.1322,1.23818,-0.711078,-0.873526,1.10636,0.760436,-0.0464664,0.908392,-0.420507,0.869003,-0.911391,1.13168,0.729199,0.167971,0.910882,-0.128676,0.879033,0.354146,-0.458321,0.898049,0.583188,0.00858607,0.0672945,0.8095,-0.453189,0.333282,0.709467,2.21782,-0.418313,1.25782,-3.05186,0.334263,3.61409,-2.99118,0.303674,3.55858,-0.652425,0.792899,0.539252,0.0184161,0.680112,-0.489307,0.626515,1
1.51016,-0.733889,-1.61742,-1.00659,2.21215,1.17894,-0.638942,1.51608,-0.746127,-1.62717,-1.00264,2.20014,1.18938,-0.648708,1.56876,-0.812831,-1.67284,-1.00667,2.14236,1.23107,-0.700868,-0.854757,1.15056,0.851913,-0.402617,0.931792,-0.652118,0.936128,-0.872482,1.11807,0.769147,-0.0769583,0.907394,-0.374634,0.883835,0.350554,-0.453351,0.905222,0.578178,0.00791172,0.0665535,0.813153,-0.313475,0.462046,0.650616,2.18801,-0.41567,1.29095,-2.93335,0.260197,3.26016,-2.97204,0.299063,3.47955,-0.585969,0.789424,0.554225,0.00080354,0.697869,-0.521298,0.61926,1
1.51059,-0.721949,-1.60725,-1.02541,2.22486,1.1673,-0.628933,1.51094,-0.733954,-1.61757,-1.00976,2.21234,1.17861,-0.638811,1.55971,-0.799975,-1.66312,-1.01175,2.15269,1.2237,-0.690375,-0.82937,1.1787,0.891431,-0.466293,0.946675,-0.67613,0.962026,-0.852551,1.14521,0.834593,-0.305126,0.928953,-0.582918,0.922386,0.347426,-0.447739,0.912326,0.572505,0.00742759,0.0660287,0.817204,-0.272546,0.520233,0.644027,2.1574,-0.413046,1.32201,-2.97243,0.254733,3.01594,-2.98265,0.289745,3.36222,-0.491236,0.780258,0.558634,-0.136534,0.721772,-0.563977,0.614416,1
1.50189,-0.709564,-1.59817,-1.02677,2.23517,1.15899,-0.619003,1.50831,-0.721838,-1.60752,-1.02104,2.22426,1.16813,-0.628953,1.55036,-0.787752,-1.65457,-1.0118,2.16299,1.21654,-0.680802,-0.857532,1.12063,0.783275,-0.00423696,0.944277,-0.656508,0.87765,-0.84722,1.14997,0.842206,-0.291049,0.940915,-0.661585,0.925268,0.342765,-0.443815,0.920024,0.569128,0.00598179,0.0647995,0.81967,-0.405947,0.367338,0.699102,2.12745,-0.40982,1.35309,-3.04646,0.328193,3.1618,-2.99683,0.286657,3.24041,-0.484691,0.781886,0.564021,-0.149671,0.721793,-0.575449,0.617989,1
1.48008,-0.690122,-1.58768,-1.02972,2.24899,1.14708,-0.603663,1.49861,-0.7078,-1.59782,-1.02717,2.23605,1.15809,-0.617651,1.53608,-0.769505,-1.64232,-1.00929,2.17948,1.2042,-0.666655,-0.901486,1.18568,0.80487,0.110564,1.07888,-0.816992,0.922042,-0.862796,1.16167,0.826525,-0.119989,0.989943,-0.716543,0.920573,0.335229,-0.438714,0.931869,0.564917,0.00416167,0.0623616,0.822777,-0.873547,0.737638,1.49664,2.09856,-0.406604,1.38353,-2.84869,0.31711,3.00152,-2.99066,0.292683,3.13553,-0.559972,0.793827,0.546338,-0.204276,0.695089,-0.571147,0.629922,1
1.47476,-0.684947,-1.58651,-0.990079,2.25523,1.14277,-0.601057,1.4842,-0.693689,-1.59001,-1.01907,2.24709,1.14898,-0.606846,1.53222,-0.764047,-1.63852,-1.00936,2.18453,1.20027,-0.66238,-0.771998,1.09152,0.759727,-0.0143025,1.009,-0.785635,0.854895,-0.843672,1.13261,0.782624,0.0306748,1.01072,-0.753045,0.884862,0.333483,-0.436803,0.935182,0.563125,0.00394604,0.061739,0.824052,-0.335817,0.390423,0.658784,2.06971,-0.403982,1.41251,-2.91844,0.2652,2.93135,-2.95443,0.298172,3.04646,-0.574593,0.791005,0.520051,0.192819,0.707092,-0.575028,0.613229,1
1.46876,-0.672986,-1.58187,-0.994427,2.26704,1.13327,-0.590532,1.47459,-0.68325,-1.58565,-1.00108,2.25662,1.14147,-0.599077,1.52544,-0.752082,-1.62973,-1.01267,2.19579,1.19116,-0.652905,-0.621522,1.09701,0.805555,-0.303616,1.03272,-0.835201,0.868762,-0.765002,1.12474,0.790051,-0.0691181,1.0402,-0.812609,0.8819,0.331529,-0.431253,0.94164,0.557278,0.00453414,0.0608075,0.828084,-0.17144,0.520957,0.585475,2.039,-0.402661,1.4399,-2.99864,0.128973,2.67383,-2.94553,0.26608,2.95199,-0.5668,0.790967,0.478608,0.182455,0.712521,-0.578912,0.623724,1
1.47223,-0.6613,-1.56761,-1.01498,2.27982,1.12334,-0.580902,1.47113,-0.673055,-1.57947,-0.998477,2.26728,1.13316,-0.590756,1.51784,-0.73953,-1.62069,-1.01678,2.2072,1.18179,-0.642911,-0.697279,1.15088,0.829401,-0.376661,1.04627,-0.859426,0.916233,-0.696933,1.11314,0.798227,-0.231526,1.02933,-0.826754,0.879963,0.329626,-0.425308,0.948061,0.55113,0.00539455,0.0602611,0.832223,-0.169293,0.556101,0.581629,2.01002,-0.400768,1.46706,-2.97755,0.194564,2.7909,-2.94431,0.22047,2.843,-0.45602,0.782295,0.530725,0.0180396,0.726183,-0.584435,0.620092,1
1.46787,-0.648443,-1.55748,-1.02936,2.29148,1.1138,-0.570081,1.47027,-0.661007,-1.56865,-1.01344,2.27954,1.12344,-0.580604,1.5083,-0.726535,-1.61199,-1.01743,2.21851,1.17249,-0.632688,-0.874078,1.19138,0.797183,-0.0595036,1.03683,-0.852585,0.937303,-0.73096,1.14642,0.810713,-0.246593,1.0386,-0.849071,0.907433,0.325931,-0.42036,0.955356,0.546751,0.0052869,0.059535,0.83516,-0.326645,0.463658,0.661884,1.98075,-0.396163,1.49258,-3.0239,0.475654,2.6361,-2.95325,0.24096,2.72643,-0.40436,0.780921,0.545087,-0.119351,0.729737,-0.586839,0.626065,1
1.44194,-0.636614,-1.55615,-0.974189,2.30283,1.10743,-0.567379,1.46248,-0.6487,-1.55968,-1.01197,2.2914,1.11459,-0.572111,1.49875,-0.714265,-1.60452,-1.01279,2.22931,1.16369,-0.62316,-0.9556,1.22699,0.746819,0.463592,1.08045,-0.879197,0.952758,-0.842319,1.18975,0.791134,0.00914261,1.05452,-0.863736,0.935431,0.320612,-0.416962,0.963362,0.544563,0.00382816,0.0581147,0.836695,0,0,0,1.95186,-0.392026,1.5185,-3.00192,0.429934,2.69397,-2.93944,0.304092,2.64653,-0.568045,0.77651,0.483715,0.38605,0.7352,-0.562688,0.557811,1
1.42734,-0.616668,-1.54855,-1.00197,2.3155,1.09389,-0.547782,1.44477,-0.634585,-1.55458,-0.994928,2.30316,1.10564,-0.563156,1.48775,-0.696201,-1.593,-1.00946,2.24614,1.15019,-0.608852,-0.67579,1.17378,0.76733,0.113875,1.09923,-0.881885,0.933373,-0.835156,1.19738,0.770444,0.172654,1.07217,-0.871222,0.941145,0.315401,-0.410021,0.97414,0.53842,0.00291493,0.0562752,0.84079,-0.544119,1.00315,1.33523,1.92261,-0.388975,1.54305,-2.88061,0.300495,2.4179,-2.90927,0.361135,2.57746,-0.60405,0.79533,0.444554,0.0748797,0.693608,-0.562934,0.610694,1
1.42744,-0.611693,-1.53991,-0.979223,2.32214,1.08957,-0.544242,1.43102,-0.620411,-1.54829,-0.989338,2.31399,1.0962,-0.551796,1.48507,-0.690798,-1.58926,-1.01007,2.25126,1.14608,-0.604515,-0.53655,1.08059,0.747888,-0.122175,1.02568,-0.821317,0.86732,-0.722647,1.16045,0.754012,0.151764,1.06845,-0.8608,0.917817,0.314672,-0.40733,0.976946,0.535686,0.00311814,0.0559494,0.842556,-0.141058,0.545299,0.557962,1.89299,-0.387162,1.56534,-2.93244,0.179502,2.20615,-2.92195,0.344,2.47029,-0.576309,0.791049,0.493546,0.308448,0.708759,-0.565147,0.602734,1
1.41867,-0.59996,-1.53559,-0.98201,2.33434,1.07759,-0.534391,1.42522,-0.610003,-1.54099,-0.985606,2.32353,1.08765,-0.542664,1.47866,-0.678864,-1.58088,-1.01061,2.26264,1.13716,-0.59533,-0.640321,1.19334,0.838535,-0.054019,1.13787,-0.892594,0.918559,-0.617554,1.14924,0.784584,-0.0207732,1.08759,-0.865265,0.906418,0.312629,-0.401562,0.9833,0.530123,0.00324821,0.0551139,0.846121,0,0,0,1.86343,-0.384122,1.58791,-3.07,0.315676,2.34385,-2.93517,0.289477,2.375,-0.599905,0.789045,0.452838,0.285987,0.717026,-0.59564,0.60939,1
1.41362,-0.586939,-1.52428,-1.00383,2.34562,1.06958,-0.522652,1.4196,-0.599638,-1.53384,-0.986769,2.33411,1.07858,-0.533919,1.46906,-0.666313,-1.57342,-1.00616,2.27413,1.12822,-0.586209,-0.880808,1.15086,0.68343,0.407545,1.05312,-0.819189,0.836229,-0.685893,1.1416,0.756617,0.077117,1.07223,-0.844367,0.874036,0.307772,-0.397443,0.990917,0.527539,0.00200944,0.0538624,0.847819,-0.425353,0.388306,0.691846,1.83463,-0.380711,1.60927,-2.85846,0.338624,2.12069,-2.93645,0.274842,2.26397,-0.554373,0.793732,0.49146,0.0232839,0.714922,-0.586433,0.63557,1
1.40061,-0.567145,-1.51276,-1.014,2.36099,1.0567,-0.508577,1.41163,-0.585246,-1.52423,-1.00092,2.34664,1.06836,-0.522068,1.4532,-0.646654,-1.56241,-0.99897,2.29128,1.11431,-0.571267,-1.00174,1.26119,0.715183,0.461019,1.10296,-0.899569,0.965938,-0.840956,1.2018,0.745716,0.271515,1.09798,-0.870451,0.906909,0.300115,-0.390986,1.00252,0.523744,0.000228036,0.0524873,0.850257,-0.923467,0.87019,1.4721,1.80488,-0.377469,1.62899,-2.94203,0.320582,1.95016,-2.93823,0.294636,2.15814,-0.52594,0.795093,0.496531,-0.150263,0.697106,-0.576099,0.626899,1
1.39056,-0.561565,-1.51315,-0.968405,2.36723,1.05281,-0.505414,1.40135,-0.570698,-1.51574,-1.00006,2.35871,1.05895,-0.511305,1.4489,-0.641027,-1.55912,-0.996918,2.29623,1.11022,-0.566876,-0.859034,1.12533,0.657808,0.410328,0.99029,-0.818389,0.878231,-0.91386,1.17913,0.685474,0.426297,1.04879,-0.845716,0.893466,0.298079,-0.388959,1.00581,0.522405,-0.000252327,0.0520946,0.851104,-0.392807,0.409479,0.655773,1.77604,-0.374842,1.64756,-2.92707,0.266672,1.88487,-2.92439,0.312933,2.05532,-0.583424,0.794627,0.459772,0.285133,0.71002,-0.574042,0.614617,1
1.37799,-0.549485,-1.51434,-0.967806,2.37708,1.04315,-0.495117,1.38993,-0.55994,-1.51335,-0.979653,2.36813,1.05137,-0.503631,1.4406,-0.629295,-1.55196,-0.994041,2.30697,1.10125,-0.557534,-0.761642,1.07574,0.657067,0.263784,0.984619,-0.822219,0.856575,-0.874138,1.15409,0.676686,0.378377,1.02595,-0.846726,0.900248,0.294689,-0.384207,1.01229,0.518636,-0.000615517,0.0513487,0.853451,-0.298398,0.44418,0.588045,1.74713,-0.371479,1.66558,-2.88783,0.33586,1.80014,-2.91177,0.311545,1.93641,-0.62609,0.7981,0.376228,0.26235,0.701102,-0.581017,0.624167,1
1.37327,-0.53763,-1.50105,-0.971664,2.38969,1.03392,-0.485751,1.37995,-0.549541,-1.51072,-0.96892,2.37777,1.04326,-0.49535,1.43239,-0.616808,-1.5441,-0.995991,2.31821,1.09193,-0.54748,-0.752908,1.14486,0.720739,-0.178749,1.0312,-0.854782,0.921775,-0.791194,1.11531,0.678538,0.165121,1.00204,-0.831797,0.885527,0.29328,-0.377925,1.01772,0.512809,0.00063574,0.0515454,0.856954,-0.129459,0.582764,0.49148,1.71787,-0.368723,1.68218,-2.90526,0.273576,1.64773,-2.91276,0.299641,1.82411,-0.591139,0.791779,0.430443,0.243275,0.714742,-0.580054,0.617289,1
1.37041,-0.518539,-1.48601,-1.0042,2.40753,1.02002,-0.469707,1.37374,-0.535821,-1.50061,-0.978835,2.391,1.03275,-0.484082,1.41842,-0.597014,-1.53257,-0.994459,2.33559,1.07779,-0.532068,-0.920052,1.27158,0.717199,0.215661,1.11631,-0.907705,0.985846,-0.811534,1.16406,0.698335,0.100232,1.04404,-0.861568,0.921399,0.289305,-0.368908,1.02714,0.505663,0.00111375,0.0515266,0.86119,-0.582876,1.11472,1.2451,1.68916,-0.365439,1.69804,-3.04024,0.347833,1.67964,-2.89607,0.301768,1.72712,-0.48006,0.784749,0.465583,-0.0974594,0.719356,-0.577708,0.62361,1
1.36447,-0.512345,-1.48038,-0.978799,2.41276,1.01674,-0.466056,1.36964,-0.521763,-1.48837,-0.989718,2.40438,1.02267,-0.472805,1.41405,-0.591322,-1.52962,-0.992186,2.34059,1.07373,-0.527703,-0.874799,1.13834,0.590261,0.454595,0.999064,-0.811172,0.873164,-0.849253,1.18493,0.676066,0.163836,1.04886,-0.857886,0.926928,0.287437,-0.366744,1.03023,0.504357,0.000726074,0.0512812,0.861971,-0.361627,0.435668,0.615064,1.65932,-0.363233,1.71328,-2.8022,0.207195,1.43148,-2.91423,0.292582,1.63906,-0.495799,0.78977,0.492386,0.133872,0.721752,-0.569946,0.616468,1
1.34734,-0.499669,-1.48454,-0.967468,2.42182,1.00808,-0.456129,1.36167,-0.510724,-1.48283,-0.982318,2.41372,1.01539,-0.464487,1.40438,-0.579479,-1.52426,-0.985591,2.35113,1.06509,-0.518532,-0.886124,1.08592,0.49129,0.604686,0.96633,-0.792029,0.840871,-0.893658,1.16528,0.599583,0.424981,1.02724,-0.836968,0.89996,0.282802,-0.362829,1.03695,0.502503,-0.000406145,0.0505145,0.863098,-0.408487,0.36654,0.61174,1.62976,-0.360964,1.72703,-2.90946,0.223335,1.35334,-2.93293,0.265217,1.54006,-0.570444,0.7981,0.397213,0.181226,0.706935,-0.570081,0.624029,1
1.33747,-0.487544,-1.47893,-0.957777,2.43368,0.998992,-0.4473,1.34915,-0.499807,-1.4821,-0.967878,2.42252,1.00797,-0.456403,1.39569,-0.567103,-1.51756,-0.983676,2.36243,1.05592,-0.508766,-0.796492,1.13469,0.614636,0.1756,1.03619,-0.840567,0.895377,-0.852472,1.11965,0.565396,0.411627,1.00053,-0.814589,0.869804,0.28042,-0.357214,1.04269,0.498066,2.49693e-05,0.0503865,0.865674,-0.212462,0.52138,0.520141,1.60037,-0.357824,1.73994,-2.95817,0.316099,1.29898,-2.94389,0.262753,1.44509,-0.582254,0.795587,0.386255,0.258983,0.712509,-0.56933,0.614658,1
1.33145,-0.474891,-1.47201,-0.960754,2.44533,0.989671,-0.43793,1.33843,-0.487412,-1.4786,-0.960944,2.43363,0.998935,-0.447165,1.38831,-0.554251,-1.50928,-0.985388,2.37432,1.0465,-0.498572,-0.677139,1.17841,0.758751,-0.157043,1.09027,-0.86426,0.934644,-0.786585,1.13301,0.621559,0.207748,1.03093,-0.832285,0.890297,0.279998,-0.349933,1.04771,0.491208,0.0015075,0.050766,0.86956,-0.0407788,0.673088,0.453003,1.57213,-0.353845,1.75243,-2.82594,0.398014,1.25033,-2.93013,0.285972,1.35445,-0.568583,0.793597,0.372763,0.246347,0.710097,-0.568281,0.606427,1
1.32249,-0.462664,-1.46334,-0.962633,2.45709,0.979728,-0.427527,1.33072,-0.474998,-1.47157,-0.960479,2.44536,0.989515,-0.437672,1.38076,-0.541912,-1.50178,-0.984518,2.38549,1.03768,-0.48891,-0.692319,1.13122,0.687523,0.0798102,1.02397,-0.808421,0.885865,-0.721984,1.14811,0.68697,0.0327891,1.05014,-0.837749,0.905296,0.27863,-0.343402,1.05301,0.485631,0.00209957,0.0509315,0.872676,-0.121616,0.602736,0.479741,1.54305,-0.351075,1.76356,-2.98858,0.284664,1.1432,-2.90174,0.31433,1.2595,-0.582637,0.792482,0.384458,0.218852,0.715973,-0.579535,0.613832,1
1.31414,-0.450538,-1.45705,-0.966611,2.46737,0.971442,-0.417435,1.32264,-0.462689,-1.46393,-0.963157,2.45672,0.980142,-0.427605,1.3718,-0.529977,-1.4962,-0.979801,2.39599,1.02926,-0.479696,-0.821416,1.0943,0.511611,0.432461,0.962469,-0.772072,0.844835,-0.730291,1.13465,0.652628,0.118409,1.02557,-0.814918,0.888448,0.275491,-0.338406,1.05882,0.482554,0.00169132,0.0507748,0.874392,-0.277258,0.462337,0.527507,1.51326,-0.349597,1.77304,-2.93821,0.145823,0.935661,-2.90325,0.294817,1.15643,-0.576625,0.794387,0.391532,0.131904,0.713786,-0.578181,0.622605,1
1.30683,-0.438511,-1.45253,-0.958066,2.47803,0.963747,-0.408832,1.3144,-0.450563,-1.45749,-0.96348,2.46746,0.97159,-0.417807,1.36234,-0.517911,-1.49122,-0.974456,2.40666,1.02066,-0.470474,-0.867199,1.10623,0.457433,0.490081,0.978285,-0.788146,0.845458,-0.793645,1.11059,0.552189,0.334117,0.988241,-0.789546,0.85872,0.27214,-0.333626,1.06463,0.479939,0.00132032,0.0506017,0.87584,-0.296929,0.443221,0.528482,1.48447,-0.346691,1.7814,-2.7677,0.279339,0.803829,-2.90672,0.265129,1.03545,-0.555068,0.794,0.386848,0.163901,0.713719,-0.569173,0.616418,1
1.29846,-0.426423,-1.45021,-0.949601,2.48892,0.955388,-0.400299,1.30657,-0.438496,-1.45308,-0.958086,2.47809,0.963581,-0.40885,1.35338,-0.505746,-1.48565,-0.970494,2.41763,1.01183,-0.461176,-0.82189,1.1153,0.510528,0.363237,1.00579,-0.809536,0.852518,-0.836835,1.10528,0.493191,0.428593,0.982182,-0.789918,0.847604,0.269633,-0.328239,1.07008,0.476387,0.00148042,0.0505859,0.877778,-0.223119,0.498689,0.493638,1.45589,-0.343699,1.78972,-2.80824,0.293989,0.817163,-2.9105,0.24676,0.924211,-0.549162,0.793237,0.35433,0.20893,0.712976,-0.564466,0.608766,1
1.28918,-0.414558,-1.4448,-0.942113,2.50066,0.946006,-0.39127,1.29823,-0.426479,-1.44944,-0.949845,2.48913,0.955132,-0.400175,1.34466,-0.493541,-1.47949,-0.968414,2.42871,1.00285,-0.451659,-0.798704,1.11903,0.564307,0.19067,1.01593,-0.823662,0.872492,-0.829264,1.11352,0.510756,0.347996,1,-0.807115,0.856823,0.268096,-0.322293,1.07497,0.47187,0.00237436,0.0508604,0.880197,-0.139479,0.549353,0.443015,1.42765,-0.340256,1.7964,-2.86684,0.349556,0.677794,-2.88166,0.275369,0.823588,-0.554889,0.789828,0.346888,0.263017,0.719475,-0.568441,0.603891,1
1.27844,-0.402548,-1.44015,-0.938055,2.51173,0.936598,-0.381581,1.28881,-0.414522,-1.44499,-0.94297,2.50049,0.946,-0.391105,1.33609,-0.481358,-1.47326,-0.967016,2.43969,0.993989,-0.442063,-0.786552,1.11698,0.571745,0.128242,1.00719,-0.812455,0.879795,-0.802382,1.1171,0.54886,0.227383,1.00963,-0.815218,0.868268,0.267017,-0.316129,1.07954,0.467023,0.00354693,0.051323,0.882747,-0.10006,0.568497,0.414071,1.39941,-0.337405,1.80318,-2.83614,0.286226,0.680947,-2.84533,0.308187,0.752664,-0.576426,0.7881,0.33107,0.289604,0.720395,-0.573913,0.604826,1
1.26955,-0.390488,-1.4348,-0.9364,2.52259,0.92797,-0.371952,1.2789,-0.402536,-1.43997,-0.938656,2.51168,0.936793,-0.381596,1.32772,-0.469208,-1.46754,-0.964484,2.45058,0.985369,-0.432648,-0.767202,1.11397,0.524325,0.232082,0.99783,-0.790296,0.863206,-0.784152,1.11666,0.553459,0.183665,1.00698,-0.808805,0.871831,0.2657,-0.310099,1.08423,0.462565,0.0043503,0.0517192,0.885065,-0.119408,0.555491,0.424564,1.37048,-0.3348,1.80842,-3.05826,0.275495,0.554425,-2.84457,0.30076,0.674934,-0.581701,0.787196,0.327401,0.280842,0.720132,-0.573988,0.606966,1
1.26186,-0.378316,-1.43001,-0.934445,2.53336,0.919809,-0.362661,1.26985,-0.39046,-1.43494,-0.936325,2.52257,0.928087,-0.372036,1.31936,-0.457096,-1.46241,-0.960334,2.46151,0.976798,-0.423443,-0.766309,1.11051,0.470326,0.380464,1.00207,-0.785848,0.843961,-0.773354,1.11382,0.522132,0.246929,1.00236,-0.7962,0.86232,0.263895,-0.304351,1.08917,0.458696,0.00468415,0.051908,0.887063,-0.160752,0.530023,0.447882,1.34151,-0.331978,1.8129,-2.7444,0.267262,0.424183,-2.85932,0.288978,0.583842,-0.574952,0.787795,0.32402,0.258893,0.718551,-0.569889,0.607818,1
1.25435,-0.366266,-1.42615,-0.929229,2.54437,0.911628,-0.353729,1.26191,-0.378347,-1.43024,-0.93363,2.53342,0.919804,-0.362751,1.3107,-0.445027,-1.45747,-0.955412,2.47256,0.968068,-0.414276,-0.793872,1.10647,0.452606,0.451285,1.01322,-0.800434,0.840452,-0.775794,1.11032,0.482419,0.354611,1.00437,-0.792193,0.849206,0.261844,-0.298778,1.09418,0.455116,0.00489716,0.0519617,0.888901,-0.181984,0.514751,0.454589,1.31235,-0.329239,1.81657,-2.9692,0.278974,0.373858,-2.885,0.274618,0.500712,-0.563509,0.787614,0.313184,0.261831,0.718114,-0.564397,0.60547,1
1.24498,-0.354398,-1.42304,-0.921574,2.55557,0.902882,-0.34471,1.25389,-0.366311,-1.42634,-0.928619,2.54442,0.911487,-0.353708,1.30169,-0.432982,-1.45251,-0.950662,2.48365,0.959202,-0.405012,-0.826424,1.10433,0.454715,0.435493,1.01671,-0.812808,0.849349,-0.795535,1.1071,0.459216,0.422414,1.01067,-0.799697,0.844587,0.259916,-0.293215,1.09903,0.451517,0.00531625,0.0520591,0.890727,-0.171962,0.514137,0.43949,1.28357,-0.325772,1.81887,-2.80332,0.337696,0.223894,-2.898,0.288279,0.395336,-0.567034,0.785837,0.294695,0.290886,0.719274,-0.563202,0.603019,1
1.23472,-0.342592,-1.4202,-0.913872,2.56674,0.893869,-0.335626,1.24476,-0.354414,-1.42311,-0.921562,2.55557,0.902815,-0.344694,1.29266,-0.420929,-1.44753,-0.946598,2.49468,0.950382,-0.395665,-0.827407,1.10513,0.456738,0.372617,1.01155,-0.808671,0.857031,-0.815901,1.10531,0.454686,0.419798,1.01383,-0.807304,0.848944,0.25842,-0.287491,1.10357,0.44767,0.00606203,0.0523331,0.892646,-0.135069,0.528174,0.411134,1.25514,-0.322498,1.81949,-2.82711,0.325562,0.0615169,-2.88622,0.308104,0.281041,-0.579425,0.783367,0.273253,0.327262,0.720646,-0.565126,0.600389,1
1.22489,-0.330731,-1.41726,-0.907929,2.57776,0.885058,-0.3265,1.23483,-0.342578,-1.42018,-0.914312,2.56671,0.89392,-0.335616,1.28394,-0.408858,-1.44263,-0.942922,2.50566,0.941714,-0.386335,-0.799326,1.10668,0.449345,0.33704,1.00684,-0.794705,0.855413,-0.817719,1.10538,0.453599,0.381717,1.0117,-0.805394,0.853931,0.257318,-0.281578,1.10787,0.443585,0.00697611,0.0527454,0.894652,-0.100666,0.544532,0.389442,1.22671,-0.319031,1.82,-2.89462,0.352984,0.0518165,-2.86799,0.326346,0.171111,-0.590528,0.781265,0.253663,0.349931,0.720992,-0.566561,0.598342,1
1.21628,-0.318835,-1.41389,-0.903559,2.58874,0.876574,-0.317391,1.2252,-0.330722,-1.41716,-0.908322,2.57775,0.88514,-0.326504,1.27542,-0.396797,-1.43801,-0.938868,2.51665,0.933146,-0.377086,-0.78117,1.10576,0.423383,0.371721,1.00727,-0.785596,0.847961,-0.802634,1.10586,0.443155,0.36046,1.00855,-0.796324,0.853468,0.256261,-0.275659,1.11213,0.439566,0.0078074,0.053152,0.896602,-0.0960414,0.544838,0.38548,1.19789,-0.316147,1.81843,-2.84643,0.284921,-0.15497,-2.85772,0.32925,0.0484133,-0.591465,0.779625,0.241185,0.353084,0.720868,-0.565719,0.596947,1
1.20801,-0.306977,-1.41094,-0.89945,2.59974,0.868479,-0.308288,1.21636,-0.318844,-1.414,-0.903624,2.58874,0.876671,-0.317393,1.26673,-0.384783,-1.43379,-0.933962,2.52768,0.924548,-0.367904,-0.796996,1.10158,0.387278,0.449784,1.0115,-0.788305,0.84189,-0.792497,1.10467,0.420002,0.386182,1.00854,-0.789535,0.848422,0.254955,-0.269929,1.11646,0.435897,0.00844404,0.0534497,0.898368,-0.117274,0.527892,0.392739,1.16925,-0.313192,1.81666,-2.89133,0.298249,-0.178596,-2.85885,0.31511,-0.0548077,-0.587259,0.778061,0.22842,0.345121,0.720565,-0.560689,0.596163,1
1.19958,-0.295235,-1.4092,-0.894136,2.61091,0.860679,-0.299311,1.20797,-0.307006,-1.41124,-0.899149,2.59978,0.868553,-0.308319,1.25769,-0.372819,-1.42993,-0.928392,2.53874,0.915866,-0.358751,-0.829173,1.09693,0.353697,0.51073,1.01432,-0.79605,0.839194,-0.802446,1.10142,0.388119,0.444079,1.01103,-0.789984,0.843015,0.253435,-0.264411,1.12083,0.432597,0.008982,0.053666,0.899944,-0.136134,0.509063,0.395723,1.14044,-0.310413,1.81323,-2.89044,0.278868,-0.344148,-2.86847,0.300089,-0.158563,-0.581063,0.775841,0.207313,0.342553,0.721716,-0.551863,0.594403,1
1.19054,-0.283575,-1.4092,-0.887961,2.62213,0.852951,-0.290502,1.19943,-0.295255,-1.40963,-0.893921,2.61092,0.860697,-0.299353,1.24848,-0.360886,-1.42631,-0.922703,2.5498,0.907156,-0.34961,-0.844514,1.09413,0.332003,0.521622,1.01384,-0.798592,0.838115,-0.823561,1.09755,0.357659,0.494045,1.01322,-0.794316,0.839733,0.251973,-0.258959,1.12509,0.429423,0.0095914,0.0538986,0.901443,-0.131324,0.502984,0.386118,1.11165,-0.307488,1.81014,-2.85732,0.290298,-0.30623,-2.87567,0.28821,-0.249074,-0.579358,0.773113,0.171105,0.347413,0.723335,-0.54205,0.591083,1
1.18037,-0.272016,-1.41046,-0.880655,2.63333,0.845028,-0.281668,1.19026,-0.2836,-1.40951,-0.887679,2.62213,0.852902,-0.290496,1.23937,-0.348969,-1.42282,-0.917295,2.56084,0.898514,-0.340478,-0.834677,1.09269,0.319953,0.495861,1.01212,-0.792323,0.837358,-0.836121,1.09458,0.335218,0.509404,1.01343,-0.795655,0.838222,0.250798,-0.253439,1.12915,0.426139,0.0103707,0.0542131,0.902972,-0.106382,0.508896,0.367268,1.08314,-0.304491,1.80511,-2.87197,0.301839,-0.50745,-2.87115,0.290166,-0.331626,-0.590051,0.769527,0.123591,0.366395,0.724934,-0.534864,0.588095,1
1.17002,-0.260476,-1.41289,-0.874161,2.64442,0.837222,-0.272875,1.18033,-0.272021,-1.41075,-0.880858,2.6333,0.845057,-0.281678,1.23047,-0.337073,-1.41954,-0.912151,2.57188,0.890021,-0.331362,-0.816275,1.09064,0.300809,0.471619,1.01212,-0.778724,0.835816,-0.831822,1.09249,0.317588,0.496367,1.0127,-0.78988,0.837096,0.249914,-0.247861,1.13299,0.422739,0.0112876,0.0545977,0.904535,-0.0810554,0.51366,0.34816,1.05464,-0.301788,1.7991,-2.90201,0.275249,-0.611214,-2.86536,0.287312,-0.43237,-0.604493,0.765973,0.0665102,0.379901,0.725384,-0.527993,0.58487,1
1.16012,-0.248915,-1.41556,-0.868815,2.65534,0.829931,-0.264029,1.17013,-0.260471,-1.41295,-0.874448,2.64438,0.837351,-0.272862,1.22167,-0.325219,-1.41673,-0.906983,2.58295,0.881709,-0.322288,-0.806846,1.08688,0.257395,0.473806,1.01486,-0.762151,0.831935,-0.819266,1.09007,0.292719,0.480429,1.01303,-0.777733,0.835036,0.249161,-0.242366,1.13668,0.419437,0.0122482,0.0549966,0.906034,-0.0696641,0.505983,0.334411,1.02642,-0.299359,1.79288,-2.76808,0.238293,-0.610392,-2.85059,0.278083,-0.517375,-0.615478,0.763049,0.0117087,0.38168,0.723927,-0.517777,0.582596,1
1.15069,-0.237268,-1.41836,-0.863335,2.66624,0.822934,-0.25509,1.16024,-0.248893,-1.41559,-0.868781,2.65533,0.830004,-0.264005,1.21277,-0.313422,-1.41468,-0.901511,2.59405,0.873543,-0.313276,-0.816445,1.08171,0.187585,0.501744,1.01837,-0.748701,0.82631,-0.813189,1.08641,0.248597,0.48239,1.01512,-0.763192,0.831353,0.248363,-0.237119,1.14028,0.416506,0.0131931,0.0553624,0.90735,-0.0738341,0.483515,0.326093,0.997756,-0.29694,1.78494,-2.80628,0.236798,-0.777805,-2.84507,0.262276,-0.626402,-0.620788,0.761536,-0.0368003,0.381764,0.721884,-0.506094,0.581863,1
1.14032,-0.225403,-1.42414,-0.856698,2.67692,0.816103,-0.24608,1.15046,-0.237213,-1.41911,-0.863046,2.66618,0.822975,-0.255072,1.20357,-0.301686,-1.41357,-0.895657,2.60518,0.865468,-0.304319,-0.843177,1.07604,0.102241,0.536784,1.02015,-0.740369,0.82125,-0.822156,1.08155,0.182407,0.504111,1.01779,-0.750407,0.826498,0.247443,-0.232224,1.1438,0.41412,0.0141364,0.0556851,0.908407,-0.0852194,0.451848,0.319249,0.96933,-0.294805,1.77555,-2.88628,0.216721,-0.952798,-2.84497,0.242187,-0.732741,-0.632497,0.762832,-0.105729,0.389587,0.717364,-0.493652,0.582386,1
1.12887,-0.213513,-1.43129,-0.848689,2.68748,0.809174,-0.237182,1.14005,-0.225396,-1.42448,-0.856355,2.67689,0.816078,-0.246108,1.19409,-0.290003,-1.41339,-0.889645,2.61629,0.857498,-0.295402,-0.86904,1.07121,0.0161502,0.551226,1.01874,-0.730793,0.817603,-0.842887,1.07632,0.101992,0.529918,1.01909,-0.739954,0.821721,0.246496,-0.227662,1.14719,0.412249,0.01516,0.0560051,0.909222,-0.088779,0.421806,0.307414,0.941464,-0.291491,1.76577,-2.83222,0.336887,-0.99455,-2.83442,0.251473,-0.840023,-0.65225,0.764896,-0.178943,0.409556,0.711898,-0.483239,0.582198,1
1.11641,-0.201451,-1.43873,-0.840355,2.69784,0.801658,-0.227864,1.12862,-0.21347,-1.43136,-0.848608,2.68743,0.809027,-0.237077,1.1845,-0.278349,-1.41402,-0.883731,2.62736,0.849704,-0.286502,-0.879868,1.06846,-0.0571613,0.542247,1.01477,-0.714572,0.816015,-0.864028,1.0719,0.0204099,0.543419,1.01788,-0.728578,0.81829,0.245658,-0.223321,1.1504,0.410721,0.0163053,0.0563716,0.909871,-0.0801186,0.401619,0.290982,0.913133,-0.288166,1.75507,-2.81702,0.330575,-1.06412,-2.82869,0.27834,-0.948014,-0.680885,0.768983,-0.247157,0.433756,0.704849,-0.480467,0.586382,1
1.10449,-0.1895,-1.4449,-0.832943,2.70823,0.794173,-0.218765,1.11654,-0.201479,-1.43841,-0.840586,2.69785,0.801665,-0.227919,1.17485,-0.266689,-1.41546,-0.877867,2.63836,0.842127,-0.277593,-0.884749,1.06916,-0.132322,0.537618,1.00913,-0.694704,0.816884,-0.877886,1.06961,-0.0577776,0.543697,1.01421,-0.713356,0.816834,0.244921,-0.219158,1.15344,0.409519,0.017523,0.056803,0.910363,-0.0719019,0.385023,0.276838,0.885592,-0.284625,1.74407,-2.69733,0.346831,-1.07712,-2.80525,0.312691,-1.02225,-0.703549,0.771884,-0.294404,0.449237,0.698615,-0.479544,0.588274,1
1.09295,-0.177684,-1.4514,-0.826713,2.71857,0.787749,-0.20927,1.10458,-0.189534,-1.44498,-0.833239,2.70822,0.794438,-0.218666,1.16498,-0.254984,-1.41802,-0.871769,2.64928,0.834743,-0.268668,-0.904407,1.07321,-0.234548,0.559117,1.00128,-0.677034,0.818302,-0.889675,1.07028,-0.141343,0.546327,1.00839,-0.695437,0.817067,0.24413,-0.215271,1.1564,0.408897,0.0187322,0.0572925,0.910588,-0.0775797,0.359694,0.269417,0.857177,-0.282045,1.73131,-2.79317,0.253551,-1.25429,-2.80177,0.323856,-1.1019,-0.72035,0.772998,-0.333848,0.450558,0.692835,-0.469944,0.593982,1
1.07816,-0.158719,-1.46122,-0.818426,2.73084,0.780669,-0.194877,1.09214,-0.175897,-1.45223,-0.826199,2.71905,0.787585,-0.208045,1.14882,-0.236808,-1.42435,-0.861424,2.66589,0.823495,-0.254832,-1.05796,1.18021,-0.428445,0.678912,1.07524,-0.730079,0.89862,-0.949038,1.10753,-0.265105,0.591883,1.02855,-0.700606,0.844602,0.242498,-0.209952,1.16096,0.409482,0.0204821,0.0581381,0.910234,-0.228353,0.689792,0.586642,0.829114,-0.279393,1.71749,-2.957,0.279456,-1.4562,-2.80656,0.303155,-1.20317,-0.70656,0.780891,-0.368683,0.429985,0.649519,-0.428258,0.599544,1
1.06973,-0.155429,-1.46944,-0.818821,2.73967,0.776793,-0.189889,1.07975,-0.162638,-1.46082,-0.820596,2.72998,0.78147,-0.197228,1.14386,-0.231385,-1.42651,-0.858225,2.6708,0.820143,-0.2507,-0.990985,1.08472,-0.431748,0.639807,0.98111,-0.670219,0.826313,-0.98445,1.11271,-0.364913,0.625945,1.01921,-0.692444,0.847745,0.241978,-0.20843,1.16231,0.409841,0.0209884,0.0584069,0.910043,-0.11208,0.30584,0.269264,0.800976,-0.276619,1.70366,-2.7495,0.271046,-1.35151,-2.80792,0.283248,-1.29398,-0.741394,0.759558,-0.429304,0.394036,0.688671,-0.433503,0.608115,1
1.05795,-0.143492,-1.47936,-0.813107,2.75,0.771785,-0.181479,1.06889,-0.153267,-1.46986,-0.817294,2.74004,0.77651,-0.189033,1.13273,-0.219521,-1.43175,-0.851142,2.68141,0.812857,-0.241619,-1.02088,1.08768,-0.480133,0.649383,0.972452,-0.668069,0.832554,-1.02327,1.11754,-0.446775,0.656034,1.0096,-0.689456,0.852495,0.240803,-0.205245,1.1652,0.41098,0.0221096,0.0590454,0.909461,-0.113699,0.295755,0.264365,0.772633,-0.273568,1.68842,-2.92015,0.314354,-1.56968,-2.8212,0.275391,-1.38944,-0.747782,0.760289,-0.476131,0.380352,0.685945,-0.410714,0.601408,1
1.04543,-0.132009,-1.49009,-0.804456,2.7601,0.766943,-0.172541,1.05776,-0.143606,-1.47956,-0.812373,2.74994,0.771827,-0.181347,1.12122,-0.207155,-1.43755,-0.844072,2.69208,0.805693,-0.232102,-1.05498,1.13378,-0.532385,0.648265,0.978411,-0.656804,0.872572,-1.02228,1.10206,-0.481422,0.645818,0.977324,-0.665031,0.843813,0.239797,-0.201852,1.16805,0.412268,0.0232608,0.0599301,0.908792,-0.0989421,0.313344,0.259982,0.744735,-0.270191,1.67128,-2.74754,0.332643,-1.68794,-2.81364,0.295342,-1.49117,-0.757938,0.751462,-0.525344,0.396153,0.680283,-0.387497,0.595615,1
1.03311,-0.119859,-1.50021,-0.796327,2.76993,0.762987,-0.16382,1.04548,-0.131842,-1.48994,-0.804587,2.76004,0.767165,-0.172595,1.10947,-0.194536,-1.44415,-0.837417,2.70282,0.798827,-0.222217,-1.07787,1.15698,-0.604695,0.610105,0.98511,-0.629545,0.906358,-1.05124,1.12615,-0.539071,0.635918,0.978658,-0.651473,0.870494,0.239041,-0.198489,1.1707,0.413721,0.0245699,0.0609697,0.908027,-0.0776904,0.309635,0.241749,0.717088,-0.267287,1.65399,-2.8862,0.303093,-1.80556,-2.80293,0.306405,-1.59376,-0.76355,0.746769,-0.56064,0.410902,0.671112,-0.3584,0.583962,1
1.02101,-0.108997,-1.50955,-0.793588,2.77982,0.7578,-0.154241,1.03317,-0.120181,-1.50002,-0.797674,2.76995,0.762679,-0.163606,1.09797,-0.182837,-1.45144,-0.831713,2.71337,0.792501,-0.21281,-1.05453,1.07255,-0.668346,0.522991,0.967393,-0.579991,0.862415,-1.06246,1.1211,-0.601808,0.593787,0.976971,-0.622113,0.880448,0.238407,-0.195894,1.17291,0.415479,0.0261096,0.0617329,0.90713,-0.0685645,0.241604,0.202712,0.688855,-0.264445,1.63546,-2.68811,0.270598,-1.76412,-2.79788,0.306293,-1.70832,-0.769534,0.738407,-0.581129,0.381251,0.664467,-0.347003,0.585687,1
1.00965,-0.0991192,-1.51904,-0.79733,2.78979,0.753824,-0.144754,1.0212,-0.109243,-1.50959,-0.795208,2.77984,0.758103,-0.154264,1.08657,-0.171716,-1.45941,-0.826231,2.72374,0.78664,-0.203891,-1.04479,1.01962,-0.730913,0.502634,0.950422,-0.537298,0.81772,-1.05906,1.08305,-0.667984,0.545244,0.967642,-0.582278,0.862164,0.237657,-0.193792,1.17495,0.417699,0.0275604,0.0623391,0.906025,-0.078949,0.197493,0.187064,0.660735,-0.261576,1.61587,-2.86795,0.29261,-1.99767,-2.79676,0.297294,-1.80924,-0.769193,0.725972,-0.596286,0.289,0.660476,-0.328161,0.591373,1
0.998274,-0.0898888,-1.52979,-0.801349,2.79936,0.75388,-0.136301,1.00965,-0.099281,-1.51936,-0.797399,2.78969,0.754832,-0.145012,1.07492,-0.160413,-1.46806,-0.820095,2.73403,0.781119,-0.19502,-1.06788,1.03631,-0.793366,0.562516,0.943325,-0.50616,0.81337,-1.05573,1.04282,-0.730875,0.529381,0.953713,-0.54115,0.831168,0.236635,-0.19162,1.17713,0.420409,0.0285862,0.0630834,0.904688,-0.101334,0.20255,0.200192,0.632421,-0.259033,1.59537,-2.7702,0.248883,-2.00626,-2.80981,0.280275,-1.89949,-0.766485,0.705246,-0.617309,0.187463,0.65333,-0.272399,0.587192,1
0.987105,-0.0812002,-1.54075,-0.806346,2.80903,0.757587,-0.129503,0.998326,-0.0900242,-1.52984,-0.801594,2.79939,0.754793,-0.136715,1.06309,-0.149009,-1.47712,-0.81374,2.74421,0.775892,-0.186115,-1.08521,1.04562,-0.830427,0.582703,0.93353,-0.479255,0.816435,-1.06596,1.03385,-0.784902,0.549284,0.942426,-0.507571,0.815842,0.235537,-0.189373,1.17934,0.423377,0.0293844,0.0639636,0.903215,-0.107121,0.208291,0.202542,0.604609,-0.25562,1.57411,-2.78541,0.341823,-2.12896,-2.8139,0.287486,-1.99849,-0.759806,0.678085,-0.636239,0.0739336,0.648249,-0.18305,0.566114,1
0.976951,-0.0737645,-1.55155,-0.81987,2.81926,0.76977,-0.123601,0.987359,-0.0815134,-1.54071,-0.808478,2.80917,0.759706,-0.129727,1.05121,-0.137736,-1.48632,-0.808487,2.75431,0.77085,-0.177086,-1.08868,1.03349,-0.843808,0.48162,0.925991,-0.462337,0.82778,-1.08059,1.03848,-0.822534,0.54228,0.934282,-0.482584,0.819195,0.234885,-0.18731,1.18119,0.426246,0.0306156,0.0648655,0.901759,-0.0696233,0.191642,0.169603,0.576956,-0.252532,1.55166,-2.76781,0.309027,-2.24717,-2.79923,0.297835,-2.09366,-0.742604,0.639719,-0.652266,-0.113834,0.649477,-0.0107906,0.534853,1
0.969658,-0.070384,-1.56249,-0.84117,2.82776,0.805163,-0.118325,0.977666,-0.0747783,-1.55159,-0.821814,2.81883,0.775573,-0.123758,1.03943,-0.126835,-1.49569,-0.805344,2.76434,0.766309,-0.167994,-1.08025,0.999435,-0.858465,0.288148,0.919474,-0.416286,0.83358,-1.08471,1.02618,-0.844233,0.450824,0.926332,-0.452626,0.825931,0.234964,-0.185745,1.18237,0.428898,0.0326092,0.0656833,0.900371,-0.00860394,0.147169,0.109164,0.549475,-0.249948,1.52824,-2.71511,0.255255,-2.3133,-2.77986,0.297564,-2.18967,-0.697711,0.564514,-0.668053,-0.358268,0.634262,0.388541,0.496688,1
0.964472,-0.0683396,-1.57552,-0.859656,2.82924,0.824288,-0.118379,0.970185,-0.070718,-1.56302,-0.840467,2.82601,0.801096,-0.119658,1.02778,-0.116401,-1.50537,-0.804281,2.77427,0.763044,-0.159127,-1.06826,0.956704,-0.88768,0.097462,0.910863,-0.299306,0.812942,-1.07906,0.996544,-0.863318,0.289077,0.918776,-0.392643,0.824767,0.235582,-0.184754,1.18289,0.431527,0.0349836,0.0664423,0.89897,0.0370694,0.0946432,0.0493295,0.521848,-0.247261,1.50451,-2.74256,0.266838,-2.35557,-2.7628,0.292151,-2.27569,-0.633054,0.48061,-0.701536,-0.553751,0.549698,0.612437,0.407482,1
0.960784,-0.0740643,-1.58597,-0.865769,2.82942,0.829336,-0.127391,0.964847,-0.0702819,-1.57488,-0.856563,2.82892,0.820769,-0.120619,1.01632,-0.106511,-1.51539,-0.80547,2.78417,0.762098,-0.150793,-1.05046,0.906701,-0.918444,-0.109081,0.906999,-0.0867624,0.764101,-1.06632,0.95428,-0.888197,0.0921763,0.912445,-0.267451,0.803541,0.236608,-0.184356,1.18271,0.434208,0.0373085,0.0672081,0.897527,0.0733594,0.0387611,-0.0146514,0.494194,-0.245496,1.47887,-2.82876,0.180462,-2.62354,-2.75938,0.25518,-2.37627,-0.555367,0.324469,-0.705816,-0.60299,0.452506,0.672382,0.234023,1
0.94968,-0.0746965,-1.59686,-0.87228,2.83608,0.830469,-0.144723,0.95893,-0.0727912,-1.58608,-0.865869,2.83104,0.828358,-0.129471,1.00536,-0.0975159,-1.52565,-0.810103,2.79399,0.765918,-0.14313,-1.00464,0.824761,-0.940805,-0.424786,0.900908,0.350215,0.702678,-1.04112,0.896055,-0.915643,-0.145468,0.906256,-0.0119512,0.759907,0.238078,-0.18469,1.18149,0.436678,0.0389691,0.0681417,0.896187,0.116362,-0.0337102,-0.110774,0.466538,-0.242651,1.45191,-2.72757,0.280611,-2.65824,-2.76118,0.242142,-2.48864,-0.556834,0.228194,-0.71212,-0.621765,0.42083,0.645515,-0.0159329,1
0.933331,-0.0594518,-1.60734,-0.88444,2.84654,0.832145,-0.120522,0.948369,-0.0707273,-1.59676,-0.873692,2.83703,0.830605,-0.13434,0.995391,-0.0899195,-1.53624,-0.81871,2.80307,0.77589,-0.136476,-0.914306,0.696496,-0.971194,-0.789164,0.832117,0.914312,0.61005,-0.989803,0.809319,-0.943481,-0.44101,0.880008,0.392588,0.692276,0.239866,-0.185961,1.17903,0.439057,0.0395843,0.0694201,0.894898,0.149077,-0.127108,-0.224369,0.439577,-0.239418,1.42471,-2.78546,0.334013,-2.81018,-2.75106,0.256701,-2.5966,-0.620598,0.304677,-0.711026,-0.657296,0.434714,0.562557,0.159539,1
0.928019,-0.0528881,-1.61729,-0.898566,2.85916,0.8304,-0.115203,0.93609,-0.0616221,-1.60721,-0.884931,2.84439,0.83129,-0.125243,0.986733,-0.0843529,-1.54719,-0.82944,2.8104,0.788612,-0.131981,-0.793877,0.510397,-1.00419,-0.983814,0.671849,1.16644,0.412143,-0.904275,0.677218,-0.972064,-0.732588,0.801624,0.810323,0.574957,0.241434,-0.188512,1.17584,0.442291,0.0398594,0.0706373,0.893197,0.129156,-0.244078,-0.292714,0.412734,-0.236134,1.39705,-2.64163,0.323153,-2.72259,-2.72845,0.283304,-2.69087,-0.58714,0.314648,-0.700962,-0.691257,0.487628,0.417889,0.167776,1
0.928345,-0.0797882,-1.62645,-0.910129,2.86763,0.838477,-0.131085,0.929429,-0.0612541,-1.61709,-0.897925,2.84795,0.832856,-0.120503,0.978851,-0.0810755,-1.55822,-0.839767,2.81625,0.799878,-0.13127,-0.722619,0.300497,-1.01071,-0.946796,0.536527,1.03303,0.0652349,-0.810268,0.502463,-0.995366,-0.906591,0.680164,1.03793,0.362476,0.242067,-0.192542,1.17265,0.447449,0.0404355,0.0710521,0.890565,0.0429996,-0.369989,-0.292347,0.385277,-0.233234,1.36833,-2.75797,0.291313,-2.88447,-2.71638,0.310409,-2.75936,-0.505063,0.0128734,-0.682339,-0.703627,0.513805,0.385983,0.00184651,1
0.919523,-0.116697,-1.63782,-0.920048,2.86587,0.850343,-0.133442,0.926058,-0.0822902,-1.627,-0.909718,2.84842,0.839424,-0.127704,0.970211,-0.0781421,-1.56914,-0.849383,2.82214,0.808588,-0.13214,-0.792272,0.268957,-1.00173,-0.881751,0.54008,0.79861,-0.0797971,-0.769589,0.35995,-1.00555,-0.937453,0.582819,0.99936,0.132527,0.242271,-0.197188,1.16964,0.453748,0.0417774,0.0708655,0.887325,-0.000329749,-0.418167,-0.275515,0.35737,-0.230595,1.33816,-2.75191,0.260251,-2.97481,-2.72636,0.302961,-2.83882,-0.506872,-0.385544,-0.686789,-0.706648,0.437329,0.417547,-0.0130243,1
0.905671,-0.108687,-1.65051,-0.93295,2.86221,0.859555,-0.139537,0.918266,-0.105467,-1.63815,-0.920794,2.84842,0.84968,-0.134377,0.960539,-0.0734592,-1.57993,-0.85946,2.82845,0.815024,-0.130185,-0.886808,0.429368,-0.989397,-0.923918,0.578424,0.590035,0.179263,-0.800566,0.332941,-1.00061,-0.917488,0.551677,0.807224,0.0549004,0.243331,-0.201339,1.16652,0.459122,0.0445764,0.0708367,0.884422,0.0674147,-0.370174,-0.28481,0.329513,-0.227838,1.30695,-2.78273,0.275359,-3.11801,-2.75494,0.286988,-2.94412,-0.548673,-0.352273,-0.705791,-0.734901,0.337667,0.445316,-0.0935206,1
0.902653,-0.104913,-1.66141,-0.945256,2.86825,0.862966,-0.155694,0.90838,-0.109746,-1.65006,-0.932801,2.84842,0.858105,-0.142052,0.95172,-0.0699994,-1.59047,-0.870364,2.83397,0.820078,-0.12744,-0.808572,0.317221,-0.965826,-0.999738,0.506845,0.463469,0.251623,-0.829217,0.338515,-0.985652,-0.935136,0.541783,0.617372,0.11703,0.244359,-0.206419,1.16308,0.463883,0.0483635,0.0701008,0.881793,0.0596972,-0.44637,-0.31536,0.302719,-0.22459,1.275,-2.71837,0.32954,-3.24117,-2.75794,0.284838,-3.05469,-0.49067,-0.349134,-0.709473,-0.748924,0.342737,0.428873,-0.282537,1
0.900143,-0.121572,-1.67141,-0.95699,2.88438,0.864919,-0.162474,0.90278,-0.110021,-1.66119,-0.945113,2.84842,0.862601,-0.15335,0.944446,-0.0734835,-1.60082,-0.88152,2.83807,0.825562,-0.127515,-0.666965,-0.319447,-0.9496,-1.02285,0.375366,0.50281,-0.00684798,-0.787448,0.14238,-0.968274,-0.982168,0.486878,0.518772,0.141346,0.242378,-0.215645,1.15929,0.469503,0.0515514,0.0665224,0.878911,-0.202089,-0.803635,-0.351683,0.275789,-0.221671,1.2418,-2.60215,0.28204,-3.20778,-2.73627,0.291301,-3.16211,-0.443025,-0.480885,-0.705826,-0.754709,0.463128,0.393562,-0.349591,1
0.888423,-0.142673,-1.68146,-0.967889,2.88996,0.86747,-0.167665,0.89784,-0.122682,-1.67142,-0.956782,2.84842,0.865068,-0.162077,0.937024,-0.0825498,-1.6114,-0.892653,2.841,0.832399,-0.12946,-0.68043,-0.831273,-0.970168,-1.02077,0.268961,0.626823,-0.178335,-0.718656,-0.277833,-0.961865,-1.01445,0.383724,0.531034,0.0221467,0.237366,-0.228339,1.15519,0.476345,0.0537768,0.0608109,0.875503,-0.466139,-1.10567,-0.387087,0.250119,-0.218052,1.21083,-2.60942,0.367907,-3.14833,-2.68225,0.312525,-3.19802,-0.486018,-0.601228,-0.700596,-0.752365,0.489575,0.350709,-0.382052,1
0.878068,-0.155504,-1.69254,-0.979401,2.88269,0.877572,-0.174102,0.888764,-0.140605,-1.68172,-0.968042,2.84842,0.869357,-0.167977,0.928905,-0.0902589,-1.62236,-0.904034,2.8431,0.839686,-0.13303,-0.744498,-0.706838,-1.0048,-1.04349,0.192719,0.668118,-0.327285,-0.697297,-0.619186,-0.974856,-1.02904,0.279015,0.59925,-0.170823,0.232649,-0.240245,1.1509,0.48451,0.0560841,0.0560802,0.871183,-0.443466,-1.03911,-0.402572,0.223565,-0.215121,1.17817,-2.70957,0.299132,-3.33301,-2.64495,0.319735,-3.21728,-0.508365,-0.652452,-0.701746,-0.753674,0.395901,0.378859,-0.410721,1
0.863563,-0.148744,-1.70392,-0.990053,2.83468,0.883209,-0.172767,0.87703,-0.150606,-1.69261,-0.979186,2.84498,0.876455,-0.172159,0.921499,-0.0958609,-1.63337,-0.915678,2.84461,0.846182,-0.13879,-0.678997,-0.513631,-1.00904,-1.06769,0.138089,0.595595,-0.528135,-0.701308,-0.683914,-0.994669,-1.04398,0.199923,0.630179,-0.344585,0.229105,-0.250665,1.14648,0.493437,0.0590173,0.0524621,0.86619,-0.342816,-0.909057,-0.410181,0.207996,-0.212872,1.19548,-1.54216,0.222787,1.71444,-2.4167,0.299883,-2.22687,-0.579356,-0.528835,-0.705491,-0.743745,-0.0992417,0.370272,-0.339768,1
0.837503,-0.0455982,-1.71578,-0.981191,2.79416,0.861054,-0.139277,0.860674,-0.124648,-1.70404,-0.985174,2.82799,0.876261,-0.164728,0.914793,-0.103464,-1.64416,-0.92733,2.84569,0.851535,-0.145391,-0.614905,-0.697109,-0.989048,-1.0683,0.0989453,0.490876,-0.60525,-0.679467,-0.639193,-1.00096,-1.05983,0.143251,0.584863,-0.48689,0.224739,-0.262192,1.1418,0.50237,0.062357,0.0478003,0.861076,-0.415473,-1.00033,-0.436201,0.194328,-0.210207,1.2095,-1.32659,0.258611,1.36099,-2.05044,0.281094,-0.799649,-0.772897,0.578657,-0.716197,-0.538609,-0.515281,0.0951899,0.061137,1
0.830083,-0.0528956,-1.72421,-0.902826,2.79377,0.844064,-0.12155,0.842163,-0.0732091,-1.71492,-0.963815,2.80419,0.862345,-0.143218,0.907414,-0.113992,-1.6548,-0.938871,2.84646,0.856587,-0.151793,-0.737808,-1.05282,-1.06475,-1.15405,0.0773227,0.505189,-0.640218,-0.677237,-0.754519,-1.02095,-1.09668,0.104786,0.530554,-0.591201,0.218588,-0.275562,1.13677,0.511404,0.0656648,0.0416843,0.855813,0,0,0,0.181168,-0.20594,1.22937,-1.32663,0.430137,2.00299,-1.67139,0.291376,0.684009,-0.773316,0.610968,-0.694024,0.360448,-0.526953,-0.125236,0.302436,1
0.815468,-0.057564,-1.72896,-0.888576,2.8597,0.809053,-0.115571,0.828284,-0.0522383,-1.72329,-0.918855,2.80753,0.839559,-0.124487,0.898801,-0.124371,-1.66552,-0.950299,2.84604,0.862219,-0.157566,-0.789659,-0.951578,-0.982691,-1.04778,-0.0384177,0.516362,-0.52929,-0.714124,-0.900502,-1.01216,-1.09004,0.0459501,0.504143,-0.591586,0.211932,-0.288771,1.13157,0.520909,0.0688797,0.036087,0.850063,-0.620321,-1.14458,-0.485341,0.168728,-0.201534,1.24707,-1.28171,0.453973,1.82314,-1.36503,0.341052,1.71683,-0.833335,0.668073,-0.634373,0.617225,0.136579,-0.53166,0.419957,1
0.808607,-0.0636225,-1.7365,-0.912752,2.8902,0.810367,-0.113476,0.817406,-0.0579115,-1.72966,-0.898183,2.83475,0.818134,-0.116542,0.887994,-0.12445,-1.67644,-0.960185,2.84092,0.8662,-0.159596,-0.990903,-0.00718623,-1.001,-0.906401,-0.469267,0.364933,-0.186131,-0.839457,-0.670528,-1.01615,-1.03607,-0.143454,0.462162,-0.45188,0.209603,-0.295527,1.12764,0.531199,0.073511,0.0369084,0.843244,-0.256957,-0.596555,-0.355897,0.156967,-0.198108,1.26508,-1.13943,0.331911,1.74516,-1.27659,0.382005,1.76766,-0.79387,0.608271,-0.600637,0.474329,0.49275,-0.558329,0.461201,1
0.793187,-0.0453743,-1.74943,-0.909725,2.86228,0.811406,-0.115915,0.806467,-0.0575458,-1.73785,-0.905951,2.84842,0.810298,-0.11461,0.875002,-0.109925,-1.68735,-0.961214,2.83051,0.865107,-0.154954,-1.19112,1.33172,-1.00005,-0.0943466,-0.954631,-0.100173,0.425675,-0.990559,0.124317,-0.994579,-0.682841,-0.487438,0.260374,-0.096582,0.21217,-0.292021,1.12798,0.541864,0.0780361,0.0464815,0.835544,0.168579,0.280719,0.0386885,0.144663,-0.194792,1.28164,-1.19049,0.320844,1.60237,-1.23532,0.386624,1.79986,-0.818151,0.645503,-0.620837,0.514891,0.317698,-0.537007,0.390385,1
0.784627,-0.0288001,-1.75056,-0.901948,2.81839,0.805994,-0.111739,0.794902,-0.0457928,-1.74648,-0.908538,2.84091,0.809794,-0.114261,0.86783,-0.101069,-1.69286,-0.954711,2.82698,0.861185,-0.150276,-1.43445,1.77122,-1.1035,1.30062,-0.705731,-0.784447,0.935464,-1.20549,1.03192,-1.03485,0.0999568,-0.709876,-0.173229,0.39167,0.212172,-0.288282,1.13067,0.546782,0.078443,0.0513861,0.832007,0,0,0,0.131182,-0.191927,1.29762,-1.38455,0.294203,1.64135,-1.24038,0.347676,1.71076,-0.832029,0.722686,-0.577004,0.527627,-0.0859148,-0.551905,0.385378,1
0.784438,-0.02754,-1.75044,-0.894373,2.82618,0.806972,-0.114657,0.78672,-0.0326286,-1.75025,-0.901999,2.82784,0.807592,-0.113512,0.86783,-0.101069,-1.69286,-0.954711,2.82698,0.861185,-0.150276,-1.43445,1.77122,-1.1035,1.30062,-0.705731,-0.784447,0.935464,-1.35334,1.62472,-1.06902,0.835629,-0.788698,-0.556355,0.765534,0.212172,-0.288282,1.13067,0.546782,0.078443,0.0513861,0.832007,0,0,0,0.118327,-0.188236,1.31211,-1.28374,0.368617,1.44735,-1.26587,0.327758,1.62639,-0.833923,0.735287,-0.575799,0.60338,-0.00803967,-0.542127,0.356194,1
0.785003,-0.0287466,-1.74396,-0.894283,2.85551,0.809995,-0.132771,0.784626,-0.0281567,-1.74885,-0.896244,2.82979,0.807483,-0.118456,0.86783,-0.101069,-1.69286,-0.954711,2.82698,0.861185,-0.150276,-1.43445,1.77122,-1.1035,1.30062,-0.705731,-0.784447,0.935464,-1.43445,1.77122,-1.1035,1.30062,-0.705731,-0.784447,0.935464,0.212172,-0.288282,1.13067,0.546782,0.078443,0.0513861,0.832007,0,0,0,0.106453,-0.184025,1.32596,-1.20273,0.426552,1.40268,-1.27365,0.347219,1.52242,-0.828269,0.72322,-0.510934,0.604279,0.285238,-0.5119,0.17505,1
0.785502,-0.0292681,-1.74351,-0.895029,2.84913,0.812337,-0.143615,0.784986,-0.0285753,-1.74547,-0.894492,2.84286,0.809825,-0.130954,0.86783,-0.101069,-1.69286,-0.954711,2.82698,0.861185,-0.150276,-1.43445,1.77122,-1.1035,1.30062,-0.705731,-0.784447,0.935464,-1.43445,1.77122,-1.1035,1.30062,-0.705731,-0.784447,0.935464,0.212172,-0.288282,1.13067,0.546782,0.078443,0.0513861,0.832007,0,0,0,0.0941599,-0.180212,1.33915,-1.25517,0.389302,1.34695,-1.25735,0.370619,1.43371,-0.82328,0.718006,-0.506431,0.596817,0.221464,-0.488475,0.0666159,1
0.784519,-0.0303251,-1.74877,-0.894062,2.82143,0.80939,-0.131007,0.785132,-0.029402,-1.74494,-0.894601,2.84167,0.811015,-0.137752,0.86783,-0.101069,-1.69286,-0.954711,2.82698,0.861185,-0.150276,-1.43445,1.77122,-1.1035,1.30062,-0.705731,-0.784447,0.935464,-1.43445,1.77122,-1.1035,1.30062,-0.705731,-0.784447,0.935464,0.212172,-0.288282,1.13067,0.546782,0.078443,0.0513861,0.832007,0,0,0,0.0812088,-0.176695,1.35097,-1.30478,0.35433,1.19042,-1.24113,0.384883,1.33738,-0.833106,0.707436,-0.55908,0.606493,-0.0555546,-0.517951,0.192696,1
0.78435,-0.0294395,-1.74935,-0.893228,2.83589,0.808259,-0.119522,0.784723,-0.0298394,-1.7476,-0.894095,2.83179,0.809844,-0.131288,0.86783,-0.101069,-1.69286,-0.954711,2.82698,0.861185,-0.150276,-1.43445,1.77122,-1.1035,1.30062,-0.705731,-0.784447,0.935464,-1.43445,1.77122,-1.1035,1.30062,-0.705731,-0.784447,0.935464,0.212172,-0.288282,1.13067,0.546782,0.078443,0.0513861,0.832007,0,0,0,0.0670657,-0.173369,1.36078,-1.41887,0.33365,0.984026,-1.27766,0.370633,1.22337,-0.834801,0.716291,-0.564841,0.614827,0.0890903,-0.529256,0.307539,1
0.785043,-0.0286582,-1.74507,-0.895305,2.85106,0.80966,-0.131941,0.784566,-0.0294656,-1.74813,-0.893956,2.83541,0.808892,-0.125498,0.86783,-0.101069,-1.69286,-0.954711,2.82698,0.861185,-0.150276,-1.43445,1.77122,-1.1035,1.30062,-0.705731,-0.784447,0.935464,-1.43445,1.77122,-1.1035,1.30062,-0.705731,-0.784447,0.935464,0.212172,-0.288282,1.13067,0.546782,0.078443,0.0513861,0.832007,0,0,0,0.0556504,-0.169328,1.37029,-1.23048,0.435578,1.02529,-1.28699,0.362357,1.10281,-0.827869,0.724104,-0.522024,0.594065,0.240734,-0.515251,0.183357,1
0.785009,-0.0305786,-1.74609,-0.894821,2.84655,0.810426,-0.138818,0.784861,-0.0293336,-1.74639,-0.894664,2.84482,0.809501,-0.130556,0.86783,-0.101069,-1.69286,-0.954711,2.82698,0.861185,-0.150276,-1.43445,1.77122,-1.1035,1.30062,-0.705731,-0.784447,0.935464,-1.43445,1.77122,-1.1035,1.30062,-0.705731,-0.784447,0.935464,0.212172,-0.288282,1.13067,0.546782,0.078443,0.0513861,0.832007,0,0,0,0.0428905,-0.164583,1.37805,-1.2727,0.473363,0.774205,-1.28097,0.386259,0.971169,-0.828212,0.704901,-0.532256,0.598905,0.195639,-0.507585,0.11458,1
0.784503,-0.0305576,-1.7491,-0.893938,2.83345,0.809298,-0.131077,0.784891,-0.0300933,-1.74659,-0.894721,2.84374,0.809953,-0.135164,0.86783,-0.101069,-1.69286,-0.954711,2.82698,0.861185,-0.150276,-1.43445,1.77122,-1.1035,1.30062,-0.705731,-0.784447,0.935464,-1.43445,1.77122,-1.1035,1.30062,-0.705731,-0.784447,0.935464,0.212172,-0.288282,1.13067,0.546782,0.078443,0.0513861,0.832007,0,0,0,0.0306109,-0.161165,1.3915,-1.26943,0.353336,1.39016,-1.25371,0.398478,0.983336,-0.833268,0.70511,-0.56238,0.607729,0.0646975,-0.518872,0.19199,1
0.784422,-0.0312071,-1.74907,-0.893509,2.84288,0.808088,-0.125253,0.784609,-0.0307252,-1.74834,-0.894052,2.83908,0.809277,-0.131556,0.86783,-0.101069,-1.69286,-0.954711,2.82698,0.861185,-0.150276,-1.43445,1.77122,-1.1035,1.30062,-0.705731,-0.784447,0.935464,-1.43445,1.77122,-1.1035,1.30062,-0.705731,-0.784447,0.935464,0.212172,-0.288282,1.13067,0.546782,0.078443,0.0513861,0.832007,0,0,0,0.019138,-0.159353,1.39429,-1.10909,0.175134,0.269791,-1.20895,0.361965,0.882337,-0.834081,0.698616,-0.56206,0.612018,0.159016,-0.530972,0.250238,1
0.784813,-0.0306792,-1.7478,-0.893754,2.84976,0.810848,-0.135653,0.78454,-0.0309127,-1.74876,-0.893678,2.84191,0.80908,-0.129309,0.86783,-0.101069,-1.69286,-0.954711,2.82698,0.861185,-0.150276,-1.43445,1.77122,-1.1035,1.30062,-0.705731,-0.784447,0.935464,-1.43445,1.77122,-1.1035,1.30062,-0.705731,-0.784447,0.935464,0.212172,-0.288282,1.13067,0.546782,0.078443,0.0513861,0.832007,0,0,0,0.00668896,-0.155549,1.39983,-1.22921,0.375591,0.546499,-1.21675,0.327883,0.753088,-0.830174,0.703895,-0.549343,0.60957,0.227768,-0.503373,0.146238,1
0.784608,-0.0320453,-1.75038,-0.892833,2.84279,0.811983,-0.141576,0.784664,-0.0311527,-1.74876,-0.893463,2.84563,0.810441,-0.134533,0.86783,-0.101069,-1.69286,-0.954711,2.82698,0.861185,-0.150276,-1.43445,1.77122,-1.1035,1.30062,-0.705731,-0.784447,0.935464,-1.43445,1.77122,-1.1035,1.30062,-0.705731,-0.784447,0.935464,0.212172,-0.288282,1.13067,0.546782,0.078443,0.0513861,0.832007,0,0,0,-0.00656025,-0.151973,1.40481,-1.34909,0.364121,0.507153,-1.22823,0.308344,0.618331,-0.832215,0.690233,-0.575154,0.618776,0.158082,-0.49202,0.0870063,1
0.784327,-0.0331085,-1.75218,-0.893527,2.83633,0.810175,-0.135488,0.784589,-0.0319696,-1.75018,-0.893237,2.84258,0.811247,-0.138573,0.86783,-0.101069,-1.69286,-0.954711,2.82698,0.861185,-0.150276,-1.43445,1.77122,-1.1035,1.30062,-0.705731,-0.784447,0.935464,-1.43445,1.77122,-1.1035,1.30062,-0.705731,-0.784447,0.935464,0.212172,-0.288282,1.13067,0.546782,0.078443,0.0513861,0.832007,0,0,0,-0.0180935,-0.148365,1.40987,-1.15346,0.360882,0.506571,-1.23107,0.329795,0.472579,-0.835034,0.679601,-0.593147,0.61184,0.0934889,-0.5101,0.147879,1
0.784477,-0.0313796,-1.75131,-0.893747,2.84249,0.809346,-0.129336,0.784435,-0.0324105,-1.75151,-0.893409,2.83949,0.81042,-0.135472,0.86783,-0.101069,-1.69286,-0.954711,2.82698,0.861185,-0.150276,-1.43445,1.77122,-1.1035,1.30062,-0.705731,-0.784447,0.935464,-1.43445,1.77122,-1.1035,1.30062,-0.705731,-0.784447,0.935464,0.212172,-0.288282,1.13067,0.546782,0.078443,0.0513861,0.832007,0,0,0,-0.0306458,-0.144971,1.4133,-1.24134,0.335577,0.339015,-1.2435,0.359475,0.480628,-0.833529,0.69689,-0.584471,0.609639,0.155071,-0.518392,0.209399,1
0.784634,-0.0319028,-1.75018,-0.894219,2.84645,0.809775,-0.13427,0.784479,-0.0319426,-1.75125,-0.89381,2.84194,0.80966,-0.132108,0.86783,-0.101069,-1.69286,-0.954711,2.82698,0.861185,-0.150276,-1.43445,1.77122,-1.1035,1.30062,-0.705731,-0.784447,0.935464,-1.43445,1.77122,-1.1035,1.30062,-0.705731,-0.784447,0.935464,0.212172,-0.288282,1.13067,0.546782,0.078443,0.0513861,0.832007,0,0,0,-0.0435055,-0.141457,1.41441,-1.32194,0.361323,0.11426,-1.24474,0.351869,0.376642,-0.831955,0.691659,-0.573165,0.604922,0.194631,-0.514099,0.160065,1
0.784514,-0.033298,-1.75143,-0.894175,2.84382,0.809934,-0.13796,0.784565,-0.0321208,-1.75078,-0.89409,2.8448,0.809707,-0.133959,0.86783,-0.101069,-1.69286,-0.954711,2.82698,0.861185,-0.150276,-1.43445,1.77122,-1.1035,1.30062,-0.705731,-0.784447,0.935464,-1.43445,1.77122,-1.1035,1.30062,-0.705731,-0.784447,0.935464,0.212172,-0.288282,1.13067,0.546782,0.078443,0.0513861,0.832007,0,0,0,-0.0565326,-0.137065,1.41458,-1.26401,0.426083,0.0165984,-1.25357,0.36724,0.240912,-0.833157,0.677706,-0.585685,0.605361,0.168393,-0.512508,0.123167,1
0.784269,-0.0343923,-1.75344,-0.894905,2.84115,0.809134,-0.136754,0.784483,-0.0332228,-1.75162,-0.894368,2.84381,0.809694,-0.136736,0.86783,-0.101069,-1.69286,-0.954711,2.82698,0.861185,-0.150276,-1.43445,1.77122,-1.1035,1.30062,-0.705731,-0.784447,0.935464,-1.43445,1.77122,-1.1035,1.30062,-0.705731,-0.784447,0.935464,0.212172,-0.288282,1.13067,0.546782,0.078443,0.0513861,0.832007,0,0,0,-0.0691002,-0.133994,1.41521,-1.27463,0.311479,0.0636922,-1.279,0.366475,0.119598,-0.835613,0.666764,-0.605717,0.598064,0.141657,-0.520512,0.135228,1
0.784224,-0.0346823,-1.75407,-0.896119,2.84314,0.808033,-0.133751,0.784319,-0.0341912,-1.75309,-0.895026,2.84231,0.809059,-0.136305,0.86783,-0.101069,-1.69286,-0.954711,2.82698,0.861185,-0.150276,-1.43445,1.77122,-1.1035,1.30062,-0.705731,-0.784447,0.935464,-1.43445,1.77122,-1.1035,1.30062,-0.705731,-0.784447,0.935464,0.212172,-0.288282,1.13067,0.546782,0.078443,0.0513861,0.832007,0,0,0,-0.0814407,-0.129541,1.41295,-1.28938,0.46533,-0.23568,-1.27184,0.383243,0.00108957,-0.836055,0.663864,-0.612008,0.585924,0.161525,-0.531519,0.165251,1
0.784333,-0.0341948,-1.75397,-0.896393,2.84411,0.808211,-0.134873,0.784263,-0.0344879,-1.75388,-0.895884,2.84288,0.808353,-0.134782,0.86783,-0.101069,-1.69286,-0.954711,2.82698,0.861185,-0.150276,-1.43445,1.77122,-1.1035,1.30062,-0.705731,-0.784447,0.935464,-1.43445,1.77122,-1.1035,1.30062,-0.705731,-0.784447,0.935464,0.212172,-0.288282,1.13067,0.546782,0.078443,0.0513861,0.832007,0,0,0,-0.0939781,-0.126519,1.41206,-1.21414,0.292647,-0.086953,-1.25853,0.374006,-0.0633669,-0.834968,0.668739,-0.611035,0.583179,0.171258,-0.529738,0.154029,1
0.784213,-0.035903,-1.75469,-0.896315,2.84422,0.808314,-0.136535,0.784276,-0.0347437,-1.75417,-0.896305,2.84389,0.808192,-0.135008,0.86783,-0.101069,-1.69286,-0.954711,2.82698,0.861185,-0.150276,-1.43445,1.77122,-1.1035,1.30062,-0.705731,-0.784447,0.935464,-1.43445,1.77122,-1.1035,1.30062,-0.705731,-0.784447,0.935464,0.212172,-0.288282,1.13067,0.546782,0.078443,0.0513861,0.832007,0,0,0,-0.104426,-0.123616,1.40816,-1.01274,0.281403,-0.378012,-1.20664,0.34375,-0.160038,-0.836167,0.651656,-0.618254,0.583965,0.172388,-0.528708,0.137417,1
0.784204,-0.0356292,-1.75495,-0.896747,2.84355,0.808268,-0.137236,0.784241,-0.0354075,-1.75458,-0.896442,2.84403,0.808277,-0.136295,0.86783,-0.101069,-1.69286,-0.954711,2.82698,0.861185,-0.150276,-1.43445,1.77122,-1.1035,1.30062,-0.705731,-0.784447,0.935464,-1.43445,1.77122,-1.1035,1.30062,-0.705731,-0.784447,0.935464,0.212172,-0.288282,1.13067,0.546782,0.078443,0.0513861,0.832007,0,0,0,-0.119521,-0.119718,1.40852,-1.4999,0.387318,0.0358906,-1.23826,0.344781,-0.181816,-0.836256,0.654394,-0.620881,0.579643,0.165696,-0.529166,0.130402,1
0.78412,-0.0365038,-1.75559,-0.897676,2.84355,0.807746,-0.135648,0.784185,-0.0359163,-1.75505,-0.896871,2.84372,0.808149,-0.136664,0.86783,-0.101069,-1.69286,-0.954711,2.82698,0.861185,-0.150276,-1.43445,1.77122,-1.1035,1.30062,-0.705731,-0.784447,0.935464,-1.43445,1.77122,-1.1035,1.30062,-0.705731,-0.784447,0.935464,0.212172,-0.288282,1.13067,0.546782,0.078443,0.0513861,0.832007,0,0,0,-0.131012,-0.116321,1.40249,-1.14363,0.338019,-0.599616,-1.24685,0.332397,-0.244613,-0.837104,0.645649,-0.62727,0.570353,0.165646,-0.534391,0.14628,1
0.784071,-0.037904,-1.75628,-0.899223,2.84356,0.806744,-0.133765,0.784129,-0.0366352,-1.7556,-0.89783,2.84355,0.807626,-0.135574,0.86783,-0.101069,-1.69286,-0.954711,2.82698,0.861185,-0.150276,-1.43445,1.77122,-1.1035,1.30062,-0.705731,-0.784447,0.935464,-1.43445,1.77122,-1.1035,1.30062,-0.705731,-0.784447,0.935464,0.212172,-0.288282,1.13067,0.546782,0.078443,0.0513861,0.832007,0,0,0,-0.142109,-0.112316,1.39463,-1.11978,0.404197,-0.793581,-1.22848,0.357003,-0.405192,-0.837587,0.631646,-0.634189,0.554879,0.165727,-0.544412,0.165118,1
0.784051,-0.0387626,-1.75662,-0.899696,2.84443,0.80635,-0.133047,0.784078,-0.0377686,-1.75619,-0.898954,2.84377,0.806896,-0.134056,0.86783,-0.101069,-1.69286,-0.954711,2.82698,0.861185,-0.150276,-1.43445,1.77122,-1.1035,1.30062,-0.705731,-0.784447,0.935464,-1.43445,1.77122,-1.1035,1.30062,-0.705731,-0.784447,0.935464,0.212172,-0.288282,1.13067,0.546782,0.078443,0.0513861,0.832007,0,0,0,-0.152865,-0.109461,1.39024,-1.08513,0.28799,-0.442815,-1.19467,0.357111,-0.497241,-0.837789,0.62306,-0.637554,0.550151,0.174461,-0.548354,0.172298,1
0.784007,-0.0403919,-1.75742,-0.901338,2.84392,0.806013,-0.134118,0.784045,-0.0389553,-1.75674,-0.899988,2.84408,0.806364,-0.133494,0.86783,-0.101069,-1.69286,-0.954711,2.82698,0.861185,-0.150276,-1.43445,1.77122,-1.1035,1.30062,-0.705731,-0.784447,0.935464,-1.43445,1.77122,-1.1035,1.30062,-0.705731,-0.784447,0.935464,0.212172,-0.288282,1.13067,0.546782,0.078443,0.0513861,0.832007,0,0,0,-0.169526,-0.105585,1.38307,-1.70052,0.395668,-0.73184,-1.21863,0.351263,-0.631506,-0.838234,0.606768,-0.645591,0.533734,0.169405,-0.551719,0.161585,1
0.784028,-0.0405775,-1.75788,-0.902901,2.84286,0.805724,-0.134524,0.784023,-0.040031,-1.75734,-0.901318,2.84378,0.806025,-0.133951,0.86783,-0.101069,-1.69286,-0.954711,2.82698,0.861185,-0.150276,-1.43445,1.77122,-1.1035,1.30062,-0.705731,-0.784447,0.935464,-1.43445,1.77122,-1.1035,1.30062,-0.705731,-0.784447,0.935464,0.212172,-0.288282,1.13067,0.546782,0.078443,0.0513861,0.832007,0,0,0,-0.180509,-0.101668,1.37494,-1.08566,0.387115,-0.802995,-1.26411,0.360374,-0.666547,-0.838018,0.604911,-0.650166,0.518097,0.158755,-0.554611,0.157527,1
0.784081,-0.0419127,-1.75858,-0.90575,2.84223,0.805044,-0.133427,0.784036,-0.0408649,-1.75794,-0.903223,2.84297,0.805626,-0.134148,0.86783,-0.101069,-1.69286,-0.954711,2.82698,0.861185,-0.150276,-1.43445,1.77122,-1.1035,1.30062,-0.705731,-0.784447,0.935464,-1.43445,1.77122,-1.1035,1.30062,-0.705731,-0.784447,0.935464,0.212172,-0.288282,1.13067,0.546782,0.078443,0.0513861,0.832007,0,0,0,-0.193365,-0.097618,1.36384,-1.28923,0.406149,-1.1136,-1.30157,0.371883,-0.7687,-0.837489,0.59156,-0.657131,0.489607,0.152474,-0.561412,0.168493,1
0.784162,-0.0438232,-1.75898,-0.908224,2.84293,0.804363,-0.131615,0.784088,-0.0420565,-1.7585,-0.905657,2.84256,0.805044,-0.133248,0.86783,-0.101069,-1.69286,-0.954711,2.82698,0.861185,-0.150276,-1.43445,1.77122,-1.1035,1.30062,-0.705731,-0.784447,0.935464,-1.43445,1.77122,-1.1035,1.30062,-0.705731,-0.784447,0.935464,0.212172,-0.288282,1.13067,0.546782,0.078443,0.0513861,0.832007,0,0,0,-0.204306,-0.093185,1.35405,-1.07477,0.435472,-0.961709,-1.26722,0.405186,-0.916059,-0.836678,0.572455,-0.661125,0.464869,0.159464,-0.568223,0.186612,1
0.784224,-0.0468411,-1.75943,-0.910272,2.84458,0.804262,-0.130479,0.784157,-0.0441,-1.75899,-0.908118,2.84317,0.804508,-0.131784,0.86783,-0.101069,-1.69286,-0.954711,2.82698,0.861185,-0.150276,-1.43445,1.77122,-1.1035,1.30062,-0.705731,-0.784447,0.935464,-1.43445,1.77122,-1.1035,1.30062,-0.705731,-0.784447,0.935464,0.212172,-0.288282,1.13067,0.546782,0.078443,0.0513861,0.832007,0,0,0,-0.217383,-0.0894845,1.34123,-1.26972,0.359307,-1.24517,-1.19512,0.406831,-1.0458,-0.836057,0.542275,-0.665633,0.444389,0.175926,-0.569231,0.197971,1
0.784403,-0.0508958,-1.76042,-0.915194,2.8467,0.80526,-0.132426,0.784253,-0.0471003,-1.75956,-0.910991,2.8447,0.804537,-0.13125,0.86783,-0.101069,-1.69286,-0.954711,2.82698,0.861185,-0.150276,-1.43445,1.77122,-1.1035,1.30062,-0.705731,-0.784447,0.935464,-1.43445,1.77122,-1.1035,1.30062,-0.705731,-0.784447,0.935464,0.212172,-0.288282,1.13067,0.546782,0.078443,0.0513861,0.832007,0,0,0,-0.227495,-0.0873124,1.32675,-1.04274,0.224,-1.4931,-1.17988,0.368448,-1.19008,-0.834274,0.501728,-0.675572,0.39517,0.197207,-0.559247,0.178502,1
0.784645,-0.0524536,-1.76111,-0.92112,2.84807,0.806153,-0.13297,0.784419,-0.0502716,-1.76035,-0.915445,2.84651,0.805234,-0.132075,0.86783,-0.101069,-1.69286,-0.954711,2.82698,0.861185,-0.150276,-1.43445,1.77122,-1.1035,1.30062,-0.705731,-0.784447,0.935464,-1.43445,1.77122,-1.1035,1.30062,-0.705731,-0.784447,0.935464,0.212172,-0.288282,1.13067,0.546782,0.078443,0.0513861,0.832007,0,0,0,-0.241242,-0.0833871,1.31512,-1.29799,0.370609,-1.09766,-1.18942,0.343345,-1.24739,-0.831848,0.486151,-0.682455,0.335914,0.210912,-0.550315,0.173065,1
0.785041,-0.0588655,-1.76211,-0.933437,2.85029,0.807311,-0.130539,0.784684,-0.0536671,-1.76119,-0.922718,2.84782,0.80622,-0.132226,0.86783,-0.101069,-1.69286,-0.954711,2.82698,0.861185,-0.150276,-1.43445,1.77122,-1.1035,1.30062,-0.705731,-0.784447,0.935464,-1.43445,1.77122,-1.1035,1.30062,-0.705731,-0.784447,0.935464,0.212172,-0.288282,1.13067,0.546782,0.078443,0.0513861,0.832007,0,0,0,-0.249672,-0.0802647,1.29689,-0.831622,0.30804,-1.79837,-1.1459,0.31938,-1.40419,-0.827889,0.422032,-0.692483,0.212742,0.233056,-0.538737,0.19737,1
0.785226,-0.0553989,-1.76202,-0.941923,2.85086,0.807645,-0.127877,0.784988,-0.0563958,-1.76184,-0.932479,2.84833,0.807105,-0.130481,0.86783,-0.101069,-1.69286,-0.954711,2.82698,0.861185,-0.150276,-1.43445,1.77122,-1.1035,1.30062,-0.705731,-0.784447,0.935464,-1.43445,1.77122,-1.1035,1.30062,-0.705731,-0.784447,0.935464,0.212172,-0.288282,1.13067,0.546782,0.078443,0.0513861,0.832007,0,0,0,-0.263699,-0.0740089,1.2833,-1.40389,0.626098,-1.3602,-1.14809,0.379989,-1.45703,-0.826043,0.456698,-0.691563,0.127876,0.238745,-0.535399,0.223994,1
0.785452,-0.0510817,-1.7618,-0.949256,2.84973,0.806883,-0.123461,0.785236,-0.0551862,-1.76199,-0.941635,2.84842,0.807371,-0.127439,0.86783,-0.101069,-1.69286,-0.954711,2.82698,0.861185,-0.150276,-1.43445,1.77122,-1.1035,1.30062,-0.705731,-0.784447,0.935464,-1.43445,1.77122,-1.1035,1.30062,-0.705731,-0.784447,0.935464,0.212172,-0.288282,1.13067,0.546782,0.078443,0.0513861,0.832007,0,0,0,-0.27688,-0.071709,1.26911,-1.30142,0.227078,-1.40127,-1.21228,0.40585,-1.47095,-0.823781,0.499869,-0.689331,0.054554,0.227465,-0.543024,0.268151,1
0.785842,-0.0484256,-1.76179,-0.962859,2.85168,0.808548,-0.123316,0.785493,-0.051497,-1.76185,-0.950823,2.84842,0.80749,-0.124529,0.86783,-0.101069,-1.69286,-0.954711,2.82698,0.861185,-0.150276,-1.43445,1.77122,-1.1035,1.30062,-0.705731,-0.784447,0.935464,-1.43445,1.77122,-1.1035,1.30062,-0.705731,-0.784447,0.935464,0.212172,-0.288282,1.13067,0.546782,0.078443,0.0513861,0.832007,0,0,0,-0.291027,-0.0685336,1.25182,-1.44637,0.324655,-1.76757,-1.26778,0.382627,-1.54384,-0.819882,0.52643,-0.689293,-0.0814775,0.246939,-0.526365,0.269606,1
0.786464,-0.045912,-1.76125,-0.978431,2.85569,0.810402,-0.124255,0.7859,-0.0484612,-1.76166,-0.963351,2.84842,0.808595,-0.123587,0.86783,-0.101069,-1.69286,-0.954711,2.82698,0.861185,-0.150276,-1.43445,1.77122,-1.1035,1.30062,-0.705731,-0.784447,0.935464,-1.43445,1.77122,-1.1035,1.30062,-0.705731,-0.784447,0.935464,0.212172,-0.288282,1.13067,0.546782,0.078443,0.0513861,0.832007,0,0,0,-0.301077,-0.0640547,1.23435,-1.01519,0.45242,-1.76474,-1.30139,0.378954,-1.56565,-0.813656,0.551567,-0.683891,-0.237205,0.287102,-0.507828,0.260209,1
0.788581,-0.0502361,-1.76114,-0.997043,2.86238,0.820554,-0.126561,0.786838,-0.0476214,-1.76136,-0.979191,2.84842,0.812477,-0.124597,0.86783,-0.101069,-1.69286,-0.954711,2.82698,0.861185,-0.150276,-1.43445,1.77122,-1.1035,1.30062,-0.705731,-0.784447,0.935464,-1.43445,1.77122,-1.1035,1.30062,-0.705731,-0.784447,0.935464,0.212172,-0.288282,1.13067,0.546782,0.078443,0.0513861,0.832007,0,0,0,-0.31297,-0.0621146,1.21096,-1.18483,0.193273,-2.3306,-1.22739,0.314428,-1.7945,-0.792491,0.508326,-0.682754,-0.423324,0.353972,-0.406308,0.237156,1
0.790394,-0.053481,-1.76129,-1.00807,2.86589,0.828736,-0.135367,0.788505,-0.0499663,-1.7612,-0.995148,2.84842,0.820062,-0.128186,0.86783,-0.101069,-1.69286,-0.954711,2.82698,0.861185,-0.150276,-1.43445,1.77122,-1.1035,1.30062,-0.705731,-0.784447,0.935464,-1.43445,1.77122,-1.1035,1.30062,-0.705731,-0.784447,0.935464,0.212172,-0.288282,1.13067,0.546782,0.078443,0.0513861,0.832007,0,0,0,-0.324444,-0.0565864,1.19263,-1.16523,0.561416,-1.86073,-1.17071,0.366642,-1.93816,-0.774363,0.475876,-0.684214,-0.533621,0.389036,-0.324485,0.149097,1
0.793143,-0.0544218,-1.76264,-1.01609,2.85566,0.86783,-0.139721,0.790628,-0.052905,-1.76159,-1.00732,2.84842,0.836464,-0.134254,0.86783,-0.101069,-1.69286,-0.954711,2.82698,0.861185,-0.150276,-1.43445,1.77122,-1.1035,1.30062,-0.705731,-0.784447,0.935464,-1.43445,1.77122,-1.1035,1.30062,-0.705731,-0.784447,0.935464,0.212172,-0.288282,1.13067,0.546782,0.078443,0.0513861,0.832007,0,0,0,-0.337321,-0.0528838,1.17042,-1.25885,0.361971,-2.1716,-1.15954,0.387678,-2.04517,-0.746871,0.466469,-0.697791,-0.613807,0.286804,0.0664487,0.105558,1
0.79612,-0.0718036,-1.765,-1.0236,2.85749,0.896437,-0.165111,0.7932,-0.058532,-1.76289,-1.01596,2.84842,0.865208,-0.14498,0.86783,-0.101069,-1.69286,-0.954711,2.82698,0.861185,-0.150276,-1.43445,1.77122,-1.1035,1.30062,-0.705731,-0.784447,0.935464,-1.43445,1.77122,-1.1035,1.30062,-0.705731,-0.784447,0.935464,0.212172,-0.288282,1.13067,0.546782,0.078443,0.0513861,0.832007,0,0,0,-0.348621,-0.0494846,1.14787,-1.17216,0.352591,-2.33914,-1.19438,0.383709,-2.13496,-0.7171,0.292651,-0.721388,-0.688889,0.30502,0.352523,-0.148343,1
0.805114,-0.114861,-1.76592,-1.02869,2.86604,0.918579,-0.175876,0.797624,-0.0782224,-1.76464,-1.02299,2.84842,0.894821,-0.161454,0.86783,-0.101069,-1.69286,-0.954711,2.82698,0.861185,-0.150276,-1.43445,1.77122,-1.1035,1.30062,-0.705731,-0.784447,0.935464,-1.43445,1.77122,-1.1035,1.30062,-0.705731,-0.784447,0.935464,0.212172,-0.288282,1.13067,0.546782,0.078443,0.0513861,0.832007,0,0,0,-0.358623,-0.0459924,1.12385,-1.00245,0.350007,-2.40779,-1.15483,0.393462,-2.18984,-0.627159,-0.137921,-0.730552,-0.739749,0.39061,0.573942,-0.255997,1
0.818228,-0.143895,-1.76478,-1.02846,2.86609,0.927811,-0.183551,0.806144,-0.111355,-1.76541,-1.02736,2.84842,0.915352,-0.175103,0.86783,-0.101069,-1.69286,-0.954711,2.82698,0.861185,-0.150276,-1.43445,1.77122,-1.1035,1.30062,-0.705731,-0.784447,0.935464,-1.43445,1.77122,-1.1035,1.30062,-0.705731,-0.784447,0.935464,0.212172,-0.288282,1.13067,0.546782,0.078443,0.0513861,0.832007,0,0,0,-0.371367,-0.0445605,1.09745,-1.19694,0.134494,-2.47958,-1.15148,0.309432,-2.36949,-0.496017,-0.428259,-0.719201,-0.737533,0.391051,0.666257,-0.332747,1
0.826587,-0.112188,-1.76289,-1.02508,2.86105,0.930624,-0.170832,0.817039,-0.128709,-1.7646,-1.02767,2.84842,0.926206,-0.178453,0.86783,-0.101069,-1.69286,-0.954711,2.82698,0.861185,-0.150276,-1.43445,1.77122,-1.1035,1.30062,-0.705731,-0.784447,0.935464,-1.43445,1.77122,-1.1035,1.30062,-0.705731,-0.784447,0.935464,0.212172,-0.288282,1.13067,0.546782,0.078443,0.0513861,0.832007,0,0,0,-0.380711,-0.0406287,1.07169,-0.976234,0.410788,-2.69142,-1.09526,0.294345,-2.47893,-0.412435,-0.111191,-0.700286,-0.703656,0.340625,0.69439,-0.205558,1
0.821912,-0.0862134,-1.76402,-1.0247,2.86102,0.927561,-0.168372,0.823328,-0.113621,-1.76365,-1.02583,2.84842,0.929155,-0.173397,0.86783,-0.101069,-1.69286,-0.954711,2.82698,0.861185,-0.150276,-1.43445,1.77122,-1.1035,1.30062,-0.705731,-0.784447,0.935464,-1.43445,1.77122,-1.1035,1.30062,-0.705731,-0.784447,0.935464,0.212172,-0.288282,1.13067,0.546782,0.078443,0.0513861,0.832007,0,0,0,-0.393866,-0.0341927,1.04989,-1.30176,0.636865,-2.15652,-1.12577,0.359477,-2.48115,-0.459177,0.148552,-0.711604,-0.699843,0.34038,0.66376,-0.180955,1
0.81298,-0.122575,-1.76537,-1.02659,2.86217,0.925798,-0.178188,0.820848,-0.101797,-1.76408,-1.02527,2.84842,0.927886,-0.171441,0.86783,-0.101069,-1.69286,-0.954711,2.82698,0.861185,-0.150276,-1.43445,1.77122,-1.1035,1.30062,-0.705731,-0.784447,0.935464,-1.43445,1.77122,-1.1035,1.30062,-0.705731,-0.784447,0.935464,0.212172,-0.288282,1.13067,0.546782,0.078443,0.0513861,0.832007,0,0,0,-0.406971,-0.0320109,1.02175,-1.29581,0.215732,-2.7825,-1.19195,0.383309,-2.51742,-0.548496,-0.215066,-0.72507,-0.718821,0.351858,0.646132,-0.279116,1
0.815055,-0.141396,-1.76487,-1.02691,2.86201,0.927884,-0.18166,0.815732,-0.11819,-1.76491,-1.0262,2.84842,0.92676,-0.176602,0.86783,-0.101069,-1.69286,-0.954711,2.82698,0.861185,-0.150276,-1.43445,1.77122,-1.1035,1.30062,-0.705731,-0.784447,0.935464,-1.43445,1.77122,-1.1035,1.30062,-0.705731,-0.784447,0.935464,0.212172,-0.288282,1.13067,0.546782,0.078443,0.0513861,0.832007,0,0,0,-0.418562,-0.0283366,0.993658,-1.14186,0.361942,-2.76757,-1.20652,0.410655,-2.57512,-0.52775,-0.403271,-0.720071,-0.721971,0.350232,0.666995,-0.313833,1
0.819416,-0.126373,-1.76422,-1.02689,2.85777,0.927552,-0.177126,0.815626,-0.132935,-1.76483,-1.02683,2.84842,0.92728,-0.179658,0.86783,-0.101069,-1.69286,-0.954711,2.82698,0.861185,-0.150276,-1.43445,1.77122,-1.1035,1.30062,-0.705731,-0.784447,0.935464,-1.43445,1.77122,-1.1035,1.30062,-0.705731,-0.784447,0.935464,0.212172,-0.288282,1.13067,0.546782,0.078443,0.0513861,0.832007,0,0,0,-0.431151,-0.0246971,0.964654,-1.23649,0.357476,-2.84877,-1.25578,0.377191,-2.703,-0.484145,-0.253043,-0.713557,-0.721834,0.307869,0.663669,-0.268499,1
0.820634,-0.119661,-1.7643,-1.02701,2.85863,0.926765,-0.175891,0.81863,-0.128451,-1.7644,-1.02693,2.84842,0.927438,-0.177951,0.86783,-0.101069,-1.69286,-0.954711,2.82698,0.861185,-0.150276,-1.43445,1.77122,-1.1035,1.30062,-0.705731,-0.784447,0.935464,-1.43445,1.77122,-1.1035,1.30062,-0.705731,-0.784447,0.935464,0.212172,-0.288282,1.13067,0.546782,0.078443,0.0513861,0.832007,0,0,0,-0.441882,-0.0199391,0.933559,-1.05478,0.46769,-3.05648,-1.20213,0.35821,-2.89767,-0.471964,-0.185926,-0.714308,-0.722974,0.316502,0.655799,-0.256143,1
0.816305,-0.136407,-1.76485,-1.02781,2.86409,0.924635,-0.178892,0.819247,-0.125526,-1.76442,-1.02718,2.84842,0.926429,-0.17695,0.86783,-0.101069,-1.69286,-0.954711,2.82698,0.861185,-0.150276,-1.43445,1.77122,-1.1035,1.30062,-0.705731,-0.784447,0.935464,-1.43445,1.77122,-1.1035,1.30062,-0.705731,-0.784447,0.935464,0.212172,-0.288282,1.13067,0.546782,0.078443,0.0513861,0.832007,0,0,0,-0.453786,-0.0162633,0.903091,-1.21865,0.376292,-3.11902,-1.16951,0.398928,-2.97422,-0.515249,-0.353382,-0.719901,-0.731003,0.371045,0.634498,-0.286158,1
0.81391,-0.144619,-1.76488,-1.02778,2.8629,0.924005,-0.179379,0.816788,-0.134274,-1.76472,-1.0276,2.84842,0.92501,-0.178263,0.86783,-0.101069,-1.69286,-0.954711,2.82698,0.861185,-0.150276,-1.43445,1.77122,-1.1035,1.30062,-0.705731,-0.784447,0.935464,-1.43445,1.77122,-1.1035,1.30062,-0.705731,-0.784447,0.935464,0.212172,-0.288282,1.13067,0.546782,0.078443,0.0513861,0.832007,0,0,0,-0.465737,-0.0127195,0.869998,-1.16407,0.345184,-3.22347,-1.16985,0.396682,-3.08884,-0.539204,-0.435505,-0.720149,-0.730645,0.359126,0.628199,-0.291025,1
0.815121,-0.140515,-1.76453,-1.02749,2.85866,0.924431,-0.178167,0.814811,-0.14154,-1.76479,-1.02771,2.84842,0.924269,-0.178954,0.86783,-0.101069,-1.69286,-0.954711,2.82698,0.861185,-0.150276,-1.43445,1.77122,-1.1035,1.30062,-0.705731,-0.784447,0.935464,-1.43445,1.77122,-1.1035,1.30062,-0.705731,-0.784447,0.935464,0.212172,-0.288282,1.13067,0.546782,0.078443,0.0513861,0.832007,0,0,0,-0.476029,-0.00920765,0.837168,-1.01209,0.345355,-3.22852,-1.1361,0.381985,-3.18535,-0.527092,-0.394468,-0.71662,-0.727757,0.316796,0.632465,-0.278911,1
0.815448,-0.14141,-1.76456,-1.02735,2.85729,0.923939,-0.178679,0.8149,-0.141765,-1.76462,-1.02753,2.84842,0.924202,-0.178598,0.86783,-0.101069,-1.69286,-0.954711,2.82698,0.861185,-0.150276,-1.43445,1.77122,-1.1035,1.30062,-0.705731,-0.784447,0.935464,-1.43445,1.77122,-1.1035,1.30062,-0.705731,-0.784447,0.935464,0.212172,-0.288282,1.13067,0.546782,0.078443,0.0513861,0.832007,0,0,0,-0.488249,-0.0063845,0.802623,-1.33739,0.308982,-3.78076,-1.14976,0.341648,-3.27795,-0.523816,-0.403409,-0.716994,-0.726424,0.303101,0.62754,-0.284031,1
0.816155,-0.148576,-1.76458,-1.0275,2.86179,0.922574,-0.18076,0.815543,-0.142978,-1.76456,-1.02742,2.84842,0.923721,-0.179072,0.86783,-0.101069,-1.69286,-0.954711,2.82698,0.861185,-0.150276,-1.43445,1.77122,-1.1035,1.30062,-0.705731,-0.784447,0.935464,-1.43445,1.77122,-1.1035,1.30062,-0.705731,-0.784447,0.935464,0.212172,-0.288282,1.13067,0.546782,0.078443,0.0513861,0.832007,0,0,0,-0.496799,-0.0037666,0.764659,-0.840712,0.257402,-3.73277,-1.08537,0.313283,-3.44238,-0.516754,-0.475074,-0.717151,-0.727939,0.348084,0.613894,-0.304838,1
