Afshin1997/kuka_rl_ros2/src/catch_and_throw/output_files/tm/nn_ema7.00_jvws1_realball_D22H15M25S10/recorded_data.csv
pure_target_joint_0,pure_target_joint_1,pure_target_joint_2,pure_target_joint_3,pure_target_joint_4,pure_target_joint_5,pure_target_joint_6,target_joint_0,target_joint_1,target_joint_2,target_joint_3,target_joint_4,target_joint_5,target_joint_6,pos_joint_0,pos_joint_1,pos_joint_2,pos_joint_3,pos_joint_4,pos_joint_5,pos_joint_6,vel_joint_0,vel_joint_1,vel_joint_2,vel_joint_3,vel_joint_4,vel_joint_5,vel_joint_6,vel_smooth_joint_0,vel_smooth_joint_1,vel_smooth_joint_2,vel_smooth_joint_3,vel_smooth_joint_4,vel_smooth_joint_5,vel_smooth_joint_6,ee_pos_x,ee_pos_y,ee_pos_z,ee_or_w,ee_or_x,ee_or_y,ee_or_z,ee_vel_x,ee_vel_y,ee_vel_z,ball_pos_x,ball_pos_y,ball_pos_z,ball_raw_vx,ball_raw_vy,ball_raw_vz,ball_ema_vx,ball_ema_vy,ball_ema_vz,action_0,action_1,action_2,action_3,action_4,action_5,action_6,command_published
1.7486,-1.0537,-1.83711,-1.05981,1.99726,1.15876,-0.851937,1.77975,-1.06451,-1.81539,-1.11606,1.93824,1.11754,-0.915352,1.78024,-1.06468,-1.81505,-1.11695,1.9373,1.11689,-0.916358,0,0,0,0,0,0,0,0,0,0,0,0,0,0,0.531029,-0.454458,0.694328,0.574575,0.175141,0.152539,0.784807,0,0,0,2.98251,-0.474528,0.181172,-3.58351,0.128409,5.59827,-3.48447,-0.0484407,4.39447,-0.316389,0.109794,-0.220636,0.571357,0.599635,0.418739,0.644215,1
1.73058,-1.03378,-1.83377,-1.07565,1.98209,1.1712,-0.852806,1.7765,-1.06317,-1.81741,-1.11095,1.94362,1.12166,-0.909326,1.78024,-1.06468,-1.81505,-1.11695,1.9373,1.11689,-0.916358,-7.91181e-07,-4.75162e-07,7.74917e-07,1.26631e-06,-1.6532e-06,1.17048e-06,1.69698e-07,-7.91181e-07,-4.75162e-07,7.74917e-07,1.26631e-06,-1.6532e-06,1.17048e-06,1.69698e-07,0.531029,-0.454458,0.694328,0.574575,0.175141,0.152539,0.784807,0,0,0,2.94858,-0.473509,0.234451,-3.36006,0.100918,5.27659,-3.4778,-0.00344472,4.72114,-0.496646,0.308948,-0.18728,0.413052,0.447893,0.543078,0.635527,1
1.73175,-1.01642,-1.83318,-1.08092,1.98701,1.17129,-0.857989,1.76741,-1.05845,-1.82226,-1.09912,1.95633,1.13265,-0.89439,1.78017,-1.06465,-1.8151,-1.11681,1.93744,1.11699,-0.916204,-0.0151796,0.00526676,-0.0105849,0.0274125,0.0287684,0.0200883,0.0309073,-0.0151796,0.00526676,-0.0105849,0.0274125,0.0287684,0.0200883,0.0309073,0.530952,-0.454564,0.694368,0.574599,0.175117,0.15244,0.784814,-0.0142035,-0.0200599,0.00738219,2.91524,-0.47216,0.288457,-3.3604,0.136019,5.44305,-3.44421,0.0445838,4.97816,-0.484182,0.482302,-0.180768,0.358974,0.495682,0.543015,0.582145,1
1.72365,-1.01169,-1.79568,-1.06882,1.98575,1.16627,-0.854483,1.75329,-1.04865,-1.82773,-1.08528,1.97195,1.14858,-0.874893,1.77955,-1.0644,-1.81549,-1.11582,1.93849,1.11778,-0.915037,-0.110597,0.0449333,-0.0694939,0.176513,0.18594,0.140896,0.207168,-0.110597,0.0449333,-0.0694939,0.176513,0.18594,0.140896,0.207168,0.530347,-0.455351,0.694694,0.574792,0.174909,0.151716,0.784859,-0.0994864,-0.131977,0.0537862,2.88293,-0.471167,0.341955,-3.1568,0.0969771,5.22758,-3.395,0.0795709,5.15975,-0.558951,0.52711,0.198121,0.469993,0.472557,0.484898,0.605547,1
1.71375,-0.997305,-1.79434,-1.06124,1.98971,1.17342,-0.84863,1.7396,-1.03512,-1.82818,-1.07682,1.98236,1.16194,-0.86086,1.77729,-1.06333,-1.81678,-1.11262,1.9419,1.12057,-0.911125,-0.35826,0.176864,-0.198683,0.489548,0.523433,0.438131,0.607055,-0.35826,0.176864,-0.198683,0.489548,0.523433,0.438131,0.607055,0.528215,-0.457907,0.695902,0.575487,0.174052,0.149413,0.784982,-0.310371,-0.374091,0.178856,2.85133,-0.470441,0.395425,-3.18891,0.073259,5.395,-3.3327,0.100524,5.27895,-0.635382,0.660245,0.2244,0.513803,0.478096,0.528568,0.624952,1
1.7089,-0.989874,-1.77645,-1.05564,2.00387,1.18084,-0.844926,1.72987,-1.02142,-1.82009,-1.07319,1.98626,1.16842,-0.855216,1.77232,-1.06044,-1.81917,-1.10667,1.94839,1.12644,-0.903388,-0.690514,0.427641,-0.31035,0.775714,0.85478,0.803062,1.03362,-0.690514,0.427641,-0.31035,0.775714,0.85478,0.803062,1.03362,0.526789,-0.459566,0.696717,0.57595,0.173453,0.147926,0.785056,-0.264096,-0.315537,0.151565,2.81938,-0.469401,0.448,-3.2003,0.104161,5.26706,-3.27972,0.105404,5.33634,-0.634217,0.705689,0.427221,0.510258,0.554789,0.544077,0.584617,1
1.70296,-0.982704,-1.77401,-1.05727,2.00983,1.18185,-0.831634,1.72256,-1.00966,-1.80623,-1.06896,1.98888,1.17108,-0.852483,1.76482,-1.05502,-1.82167,-1.09931,1.95667,1.13476,-0.893156,-0.915045,0.721974,-0.236266,0.815631,0.932089,0.985715,1.17148,-0.915045,0.721974,-0.236266,0.815631,0.932089,0.985715,1.17148,0.517007,-0.468451,0.703455,0.579225,0.167898,0.14005,0.785299,-0.745229,-0.604815,0.584941,2.78733,-0.467299,0.50039,-2.98391,0.195701,4.87746,-3.24228,0.11293,5.32757,-0.618643,0.723194,0.476587,0.420373,0.531613,0.470909,0.615222,1
1.69921,-0.974966,-1.77461,-1.04808,2.0154,1.1929,-0.823303,1.71565,-0.99958,-1.7925,-1.0632,1.99401,1.17435,-0.848087,1.75618,-1.04728,-1.82227,-1.09238,1.96455,1.14346,-0.883135,-0.954302,0.937829,0.0792209,0.695968,0.787627,0.905226,1.01271,-0.954302,0.937829,0.0792209,0.695968,0.787627,0.905226,1.01271,0.509433,-0.473208,0.710097,0.581767,0.16226,0.135411,0.785419,-0.765787,-0.4239,0.777583,2.7544,-0.466938,0.550835,-3.28606,0.0360869,5.03274,-3.22116,0.111434,5.28237,-0.569742,0.723127,0.476653,0.442925,0.50855,0.494395,0.598314,1
1.686,-0.96482,-1.78241,-1.03557,2.02269,1.20065,-0.818178,1.70912,-0.990607,-1.78268,-1.05794,2.00136,1.17927,-0.841334,1.7476,-1.03814,-1.81952,-1.08629,1.97111,1.15094,-0.874801,-0.908175,1.03326,0.482184,0.628545,0.644871,0.730316,0.809545,-0.908175,1.03326,0.482184,0.628545,0.644871,0.730316,0.809545,0.501862,-0.476174,0.718361,0.584245,0.155369,0.13149,0.785639,-0.651444,-0.3512,0.65749,2.72247,-0.466522,0.599584,-3.56721,0.0464127,5.44734,-3.21206,0.101832,5.20038,-0.615966,0.733237,0.371143,0.507147,0.515859,0.497051,0.566226,1
1.67403,-0.954536,-1.78688,-1.02581,2.02767,1.20913,-0.816356,1.70277,-0.982276,-1.77795,-1.05276,2.00896,1.18536,-0.833247,1.73944,-1.02852,-1.81365,-1.08049,1.97693,1.15715,-0.8678,-0.863096,1.0498,0.767004,0.627367,0.619582,0.62364,0.71503,-0.863096,1.0498,0.767004,0.627367,0.619582,0.62364,0.71503,0.498428,-0.477136,0.72245,0.58533,0.151981,0.129812,0.785773,-0.626969,-0.197337,0.791077,2.69132,-0.465565,0.648424,-2.98876,0.091861,4.68655,-3.20546,0.0968146,5.10914,-0.654159,0.73986,0.267713,0.546816,0.507367,0.519717,0.514441,1
1.66671,-0.94469,-1.77928,-1.021,2.0339,1.21486,-0.810208,1.69526,-0.97376,-1.778,-1.04571,2.01576,1.19256,-0.825622,1.73169,-1.01894,-1.80615,-1.07478,1.9829,1.16278,-0.861175,-0.818878,1.02773,0.851213,0.610777,0.669458,0.597916,0.719697,-0.818878,1.02773,0.851213,0.610777,0.669458,0.597916,0.719697,0.487098,-0.478748,0.7376,0.588243,0.139639,0.123611,0.786887,-0.707632,-0.0913789,1.03437,2.65834,-0.464223,0.696139,-3.34808,0.13626,4.84355,-3.21406,0.0968065,5.0078,-0.649864,0.742498,0.268662,0.537843,0.50994,0.520806,0.509676,1
1.65981,-0.934851,-1.7703,-1.0159,2.03868,1.22077,-0.801897,1.68602,-0.9645,-1.78026,-1.03689,2.02195,1.2004,-0.81963,1.72432,-1.00963,-1.79877,-1.06921,1.9893,1.16839,-0.854309,-0.781818,0.99219,0.755027,0.596719,0.713058,0.615567,0.763988,-0.781818,0.99219,0.755027,0.596719,0.713058,0.615567,0.763988,0.479924,-0.479456,0.747125,0.589585,0.131764,0.119424,0.787887,-0.689706,-0.0854938,0.973834,2.62725,-0.46286,0.742966,-3.04845,0.133642,4.59164,-3.20514,0.0969678,4.90709,-0.645055,0.747786,0.284737,0.533149,0.493764,0.523796,0.524127,1
1.65267,-0.925582,-1.76322,-1.00985,2.04441,1.22625,-0.792857,1.67626,-0.954696,-1.78077,-1.02837,2.02783,1.2079,-0.814509,1.71706,-1.00057,-1.79288,-1.06347,1.99592,1.17431,-0.847168,-0.790645,0.97237,0.539573,0.644162,0.719719,0.662007,0.781519,-0.790645,0.97237,0.539573,0.644162,0.719719,0.662007,0.781519,0.472796,-0.480389,0.755998,0.590952,0.124238,0.115476,0.788674,-0.701981,-0.134685,0.900234,2.59607,-0.461589,0.788127,-3.17895,0.129579,4.60354,-3.18646,0.0985282,4.8001,-0.643883,0.749863,0.296514,0.536221,0.48495,0.519392,0.543116,1
1.64495,-0.916824,-1.76106,-1.00147,2.05046,1.23323,-0.785226,1.66747,-0.944825,-1.77739,-1.02137,2.03346,1.21458,-0.808636,1.70946,-0.991547,-1.78901,-1.05708,2.00249,1.18068,-0.840141,-0.850196,0.981035,0.31708,0.732261,0.705747,0.714992,0.743942,-0.850196,0.981035,0.31708,0.732261,0.705747,0.714992,0.743942,0.469508,-0.480889,0.759909,0.591641,0.120855,0.113765,0.788931,-0.596048,-0.106863,0.759766,2.56415,-0.460095,0.831608,-3.16245,0.148028,4.30812,-3.17006,0.118221,4.69267,-0.64512,0.747235,0.279452,0.556132,0.479681,0.525499,0.549143,1
1.63515,-0.907408,-1.75679,-0.996833,2.05621,1.23464,-0.77577,1.65972,-0.935179,-1.77141,-1.01526,2.039,1.22065,-0.801365,1.70132,-0.982375,-1.78661,-1.05005,2.00891,1.18742,-0.83354,-0.908707,1.00396,0.211547,0.786263,0.686139,0.742591,0.690282,-0.908707,1.00396,0.211547,0.786263,0.686139,0.742591,0.690282,0.457666,-0.483832,0.772305,0.595833,0.109697,0.10901,0.788078,-0.791621,-0.238591,0.841011,2.5322,-0.458849,0.875308,-3.20741,0.125075,4.38688,-3.16945,0.1307,4.59118,-0.66168,0.74967,0.298198,0.532167,0.47301,0.472154,0.577705,1
1.62633,-0.897689,-1.75525,-0.990359,2.06279,1.24048,-0.769412,1.65213,-0.925806,-1.76552,-1.00907,2.04463,1.22627,-0.793213,1.69287,-0.973014,-1.78443,-1.04283,2.01514,1.19425,-0.827244,-0.921205,1.02244,0.255621,0.778364,0.664674,0.737358,0.67495,-0.921205,1.02244,0.255621,0.778364,0.664674,0.737358,0.67495,0.449669,-0.485697,0.780346,0.598968,0.102261,0.106301,0.78707,-0.80272,-0.201822,0.858114,2.50034,-0.457305,0.918491,-3.18725,0.154447,4.31973,-3.1727,0.136766,4.48994,-0.665387,0.753244,0.291876,0.524712,0.476521,0.4623,0.578325,1
1.61796,-0.887888,-1.75239,-0.983513,2.06994,1.24676,-0.764139,1.64403,-0.916549,-1.76104,-1.00268,2.05049,1.23136,-0.784939,1.68448,-0.963542,-1.78152,-1.03581,2.02118,1.20095,-0.820853,-0.898025,1.02876,0.366596,0.745283,0.646197,0.714605,0.706862,-0.898025,1.02876,0.366596,0.745283,0.646197,0.714605,0.706862,0.44167,-0.487038,0.788569,0.601764,0.0945704,0.103681,0.786248,-0.790812,-0.13431,0.881331,2.46927,-0.456388,0.959994,-3.02652,0.0893281,4.04382,-3.16038,0.133409,4.39214,-0.665119,0.75654,0.291296,0.522959,0.48756,0.458122,0.567135,1
1.60982,-0.878169,-1.74805,-0.977021,2.07671,1.25346,-0.758001,1.6354,-0.907183,-1.75769,-0.996361,2.05663,1.23611,-0.777138,1.67629,-0.954063,-1.77775,-1.02903,2.0271,1.2074,-0.814077,-0.876431,1.02493,0.443515,0.724068,0.635996,0.684789,0.756779,-0.876431,1.02493,0.443515,0.724068,0.635996,0.684789,0.756779,0.433768,-0.487821,0.796925,0.603997,0.0867098,0.101073,0.785782,-0.778844,-0.0840399,0.890339,2.43734,-0.455446,0.99997,-3.29496,0.0972292,4.12492,-3.16833,0.126549,4.29154,-0.664685,0.758943,0.297008,0.520129,0.496099,0.460667,0.560757,1
1.60191,-0.868488,-1.74277,-0.970916,2.08347,1.25903,-0.750995,1.62666,-0.897613,-1.75474,-0.990063,2.06311,1.24119,-0.770158,1.6682,-0.944632,-1.77359,-1.02239,2.03297,1.21353,-0.806893,-0.876758,1.0186,0.455503,0.715023,0.635508,0.646815,0.796269,-0.876758,1.0186,0.455503,0.715023,0.635508,0.646815,0.796269,0.425933,-0.488277,0.805259,0.60582,0.0788795,0.098521,0.785528,-0.77598,-0.0631713,0.881003,2.40663,-0.45408,1.03988,-3.09422,0.137575,4.02032,-3.1602,0.122445,4.20235,-0.662923,0.761444,0.308288,0.514785,0.505014,0.454987,0.558976,1
1.5941,-0.858779,-1.73732,-0.965419,2.09012,1.26357,-0.742994,1.61817,-0.887916,-1.75145,-0.983661,2.06984,1.24692,-0.763794,1.66002,-0.935234,-1.76952,-1.01584,2.03888,1.21931,-0.799472,-0.893134,1.01744,0.429018,0.706372,0.644024,0.609156,0.810074,-0.893134,1.01744,0.429018,0.706372,0.644024,0.609156,0.810074,0.418112,-0.488607,0.813448,0.607472,0.0712398,0.0961029,0.785281,-0.779257,-0.0561616,0.863462,2.37419,-0.452261,1.07789,-3.30365,0.185292,3.87225,-3.15716,0.124635,4.10527,-0.659215,0.764542,0.322017,0.504168,0.512469,0.442599,0.564777,1
1.58649,-0.849082,-1.73182,-0.960593,2.09658,1.2678,-0.734515,1.60998,-0.878193,-1.74738,-0.977327,2.07665,1.25286,-0.757371,1.6517,-0.925813,-1.76571,-1.00935,2.0449,1.22485,-0.792069,-0.908176,1.02284,0.398156,0.699503,0.660286,0.592531,0.794765,-0.908176,1.02284,0.398156,0.699503,0.660286,0.592531,0.794765,0.41027,-0.488856,0.821478,0.609117,0.0637761,0.0938449,0.784922,-0.784517,-0.0466528,0.849467,2.34276,-0.450665,1.11536,-3.0902,0.156911,3.68317,-3.15444,0.131953,3.99584,-0.652097,0.76731,0.338921,0.487557,0.516715,0.429484,0.575545,1
1.57885,-0.839447,-1.72712,-0.955372,2.10278,1.27247,-0.726234,1.60201,-0.868483,-1.74255,-0.971332,2.08338,1.25838,-0.75035,1.6433,-0.916331,-1.7621,-1.0029,2.0511,1.23036,-0.784881,-0.911477,1.03064,0.386189,0.697771,0.679859,0.600671,0.764867,-0.911477,1.03064,0.386189,0.697771,0.679859,0.600671,0.764867,0.406667,-0.488926,0.825121,0.609869,0.0603743,0.0928567,0.784724,-0.788762,-0.0273313,0.844029,2.31136,-0.449624,1.15156,-2.85829,0.0947695,3.29547,-3.15394,0.13455,3.88521,-0.644499,0.768831,0.349833,0.475268,0.516859,0.421037,0.58647,1
1.57088,-0.829781,-1.72297,-0.950177,2.10912,1.27728,-0.718297,1.5942,-0.858789,-1.73737,-0.965766,2.08999,1.26333,-0.742662,1.63492,-0.906783,-1.75846,-0.996473,2.05746,1.23597,-0.777918,-0.90456,1.03702,0.401734,0.694453,0.696123,0.612525,0.745236,-0.90456,1.03702,0.401734,0.694453,0.696123,0.612525,0.745236,0.39449,-0.488822,0.837311,0.612446,0.048766,0.0896273,0.783899,-0.788705,0.00232927,0.844888,2.27928,-0.449418,1.18642,-3.49239,0.0224413,3.7957,-3.16356,0.128465,3.77838,-0.640379,0.77002,0.354889,0.462964,0.516645,0.413113,0.596203,1
1.5633,-0.82009,-1.7182,-0.94452,2.11582,1.28301,-0.711237,1.58647,-0.849108,-1.73224,-0.960497,2.09646,1.26798,-0.734589,1.62663,-0.897188,-1.75457,-0.990126,2.06393,1.2416,-0.771015,-0.892727,1.04115,0.436007,0.681653,0.705552,0.608505,0.749558,-0.892727,1.04115,0.436007,0.681653,0.705552,0.608505,0.749558,0.390866,-0.488673,0.840924,0.613168,0.0452581,0.0886961,0.783651,-0.781977,0.0387281,0.846451,2.24794,-0.448084,1.22031,-3.24806,0.138226,3.51188,-3.1633,0.121599,3.67067,-0.633263,0.770978,0.363775,0.456059,0.51891,0.414079,0.59778,1
1.55554,-0.810388,-1.71359,-0.93906,2.12277,1.2883,-0.704111,1.57874,-0.839437,-1.7274,-0.955291,2.10286,1.27269,-0.726521,1.61845,-0.887563,-1.75037,-0.983944,2.07046,1.24712,-0.763977,-0.879548,1.04366,0.471641,0.659317,0.708311,0.58814,0.773122,-0.879548,1.04366,0.471641,0.659317,0.708311,0.58814,0.773122,0.378827,-0.487549,0.853102,0.615041,0.0333168,0.0855917,0.783127,-0.769219,0.0765596,0.844216,2.21713,-0.446925,1.25395,-2.95385,0.1111,3.22439,-3.1589,0.110956,3.56473,-0.629108,0.771746,0.367845,0.448837,0.523146,0.411802,0.598665,1
1.54838,-0.800663,-1.70816,-0.93378,2.12977,1.29393,-0.696821,1.57101,-0.829765,-1.72276,-0.949985,2.10934,1.27769,-0.718744,1.61039,-0.87792,-1.7459,-0.977982,2.07699,1.25243,-0.756696,-0.867705,1.0451,0.49529,0.634234,0.706193,0.564147,0.801868,-0.867705,1.0451,0.49529,0.634234,0.706193,0.564147,0.801868,0.371174,-0.486394,0.860931,0.615817,0.0255995,0.0836994,0.783013,-0.754251,0.110937,0.836911,2.18534,-0.446016,1.28617,-3.24105,0.0927,3.28503,-3.14731,0.0991289,3.46696,-0.620082,0.772572,0.377352,0.442025,0.527792,0.415002,0.59875,1
1.54093,-0.790938,-1.70307,-0.928784,2.13665,1.29851,-0.688959,1.56333,-0.820079,-1.71811,-0.944582,2.11599,1.28295,-0.711292,1.60242,-0.868268,-1.74128,-0.972226,2.08349,1.25756,-0.749191,-0.858977,1.04578,0.503625,0.614316,0.702638,0.548864,0.822288,-0.858977,1.04578,0.503625,0.614316,0.702638,0.548864,0.822288,0.363657,-0.484943,0.868662,0.616281,0.0179452,0.0819432,0.783046,-0.741603,0.139272,0.826297,2.15377,-0.445224,1.31698,-3.12195,0.078285,3.04705,-3.147,0.0929701,3.36283,-0.61493,0.773307,0.38211,0.434422,0.531629,0.409468,0.602318,1
1.53264,-0.781013,-1.69983,-0.921531,2.14417,1.30409,-0.681572,1.55576,-0.810373,-1.71329,-0.939162,2.12283,1.2883,-0.703975,1.59452,-0.858611,-1.73664,-0.966611,2.08998,1.26262,-0.741571,-0.852914,1.04632,0.503178,0.603085,0.702294,0.546566,0.828004,-0.852914,1.04632,0.503178,0.603085,0.702294,0.546566,0.828004,0.36024,-0.484199,0.872172,0.616425,0.0144455,0.0811839,0.783084,-0.627078,0.125207,0.696309,2.12221,-0.444014,1.34753,-2.85619,0.109511,2.76492,-3.14664,0.0974442,3.26734,-0.61878,0.775981,0.368075,0.450804,0.541943,0.414721,0.599986,1
1.524,-0.771185,-1.69552,-0.916615,2.15088,1.30647,-0.673543,1.54821,-0.800636,-1.70843,-0.933693,2.12979,1.29355,-0.696581,1.58668,-0.848947,-1.73199,-0.961069,2.09648,1.2677,-0.733956,-0.8469,1.04714,0.503581,0.598025,0.707538,0.553184,0.822095,-0.8469,1.04714,0.503581,0.598025,0.707538,0.553184,0.822095,0.352865,-0.482399,0.879741,0.616596,0.00682818,0.0796334,0.783212,-0.619829,0.144885,0.687115,2.09186,-0.442517,1.37685,-3.40457,0.167926,3.28888,-3.13244,0.109081,3.17407,-0.626752,0.777615,0.364695,0.444538,0.543967,0.387725,0.604126,1
1.51591,-0.761336,-1.69156,-0.912237,2.15702,1.30894,-0.665108,1.54048,-0.790856,-1.70384,-0.928065,2.13683,1.29845,-0.689021,1.5789,-0.839274,-1.72731,-0.955563,2.10306,1.27284,-0.726408,-0.839395,1.04833,0.50883,0.594919,0.716867,0.560832,0.813698,-0.839395,1.04833,0.50883,0.594919,0.716867,0.560832,0.813698,0.341602,-0.479198,0.891231,0.616626,-0.00502741,0.0774228,0.783424,-0.614884,0.163419,0.679491,2.06122,-0.44113,1.40551,-3.02456,0.136889,2.8291,-3.12082,0.11314,3.08129,-0.629911,0.779376,0.357577,0.433264,0.53955,0.36103,0.612997,1
1.51021,-0.751565,-1.68316,-0.913651,2.16329,1.30902,-0.656134,1.53247,-0.781032,-1.69954,-0.922506,2.1438,1.30267,-0.681262,1.57118,-0.829586,-1.72259,-0.950074,2.10974,1.27803,-0.718914,-0.833253,1.0501,0.513562,0.594197,0.727526,0.562894,0.810096,-0.833253,1.0501,0.513562,0.594197,0.727526,0.562894,0.810096,0.334353,-0.476856,0.898588,0.61649,-0.0127926,0.0760797,0.783574,-0.716994,0.228572,0.792722,2.02941,-0.441326,1.41144,-3.10992,-0.0191702,0.579506,-3.11897,0.104553,2.7537,-0.609705,0.780211,0.394295,0.364229,0.535583,0.309862,0.627798,1
1.50335,-0.741656,-1.67844,-0.909907,2.16903,1.31086,-0.647336,1.52448,-0.771192,-1.69508,-0.917767,2.15053,1.30586,-0.673215,1.56348,-0.819878,-1.71787,-0.944567,2.1165,1.28318,-0.711423,-0.834427,1.05275,0.509064,0.598572,0.737272,0.553951,0.812574,-0.834427,1.05275,0.509064,0.598572,0.737272,0.553951,0.812574,0.327139,-0.474343,0.905867,0.616251,-0.0205687,0.0748152,0.783719,-0.714991,0.243774,0.785343,1.99505,-0.44085,1.45504,-3.29653,0.045641,4.18323,-3.14503,0.0934856,2.69125,-0.601253,0.782224,0.394349,0.346596,0.52526,0.276779,0.640869,1
1.49402,-0.731322,-1.67337,-0.904088,2.17853,1.30993,-0.639534,1.51691,-0.761348,-1.68996,-0.914379,2.15699,1.30796,-0.664832,1.55573,-0.810143,-1.71324,-0.939036,2.12333,1.28816,-0.703881,-0.843572,1.05595,0.496785,0.599562,0.742396,0.526452,0.820457,-0.843572,1.05595,0.496785,0.599562,0.742396,0.526452,0.820457,0.323842,-0.47314,0.909175,0.616111,-0.0241315,0.0742687,0.783779,-0.603812,0.21318,0.661309,1.96879,-0.437003,1.48404,-2.82978,0.414664,3.1254,-3.11334,0.114937,2.68154,-0.617133,0.788215,0.398691,0.349475,0.552012,0.217723,0.643476,1
1.48553,-0.721047,-1.66761,-0.903704,2.18634,1.3059,-0.631428,1.50968,-0.751458,-1.68428,-0.911791,2.16349,1.30915,-0.656262,1.54791,-0.80038,-1.70867,-0.933623,2.13017,1.29276,-0.696234,-0.849826,1.05876,0.492859,0.575117,0.7386,0.474999,0.834961,-0.849826,1.05876,0.492859,0.575117,0.7386,0.474999,0.834961,0.316675,-0.470459,0.916316,0.615776,-0.0317582,0.0731821,0.783872,-0.601797,0.222387,0.653045,1.93853,-0.435677,1.50885,-2.93108,0.128412,2.40329,-3.08341,0.129709,2.67108,-0.623796,0.793331,0.410553,0.299182,0.561736,0.131419,0.648058,1
1.47943,-0.710923,-1.65988,-0.910189,2.19271,1.29488,-0.623176,1.50223,-0.74145,-1.67855,-0.909167,2.1705,1.30925,-0.647776,1.54011,-0.790595,-1.70403,-0.928608,2.13693,1.2968,-0.688422,-0.841444,1.06089,0.510401,0.516139,0.727579,0.404867,0.855674,-0.841444,1.06089,0.510401,0.516139,0.727579,0.404867,0.855674,0.306065,-0.465955,0.927023,0.614827,-0.0428307,0.0719063,0.784209,-0.663957,0.302872,0.743641,1.90588,-0.434909,1.53181,-3.29256,0.0774258,2.315,-3.08539,0.135897,2.65772,-0.606788,0.796725,0.441524,0.184186,0.557748,-0.01917,0.652459,1
1.47173,-0.700551,-1.65602,-0.904362,2.19999,1.29032,-0.615386,1.49436,-0.731309,-1.67287,-0.906962,2.17803,1.30739,-0.639508,1.53242,-0.780786,-1.69917,-0.924177,2.14362,1.30014,-0.680419,-0.824985,1.06383,0.540093,0.449272,0.721007,0.326791,0.876247,-0.824985,1.06383,0.540093,0.449272,0.721007,0.326791,0.876247,0.299641,-0.462669,0.933763,0.613734,-0.0495013,0.0713242,0.784725,-0.560003,0.262617,0.626102,1.8747,-0.433947,1.55379,-3.19562,0.0985823,2.25241,-3.08261,0.141267,2.64068,-0.606917,0.802354,0.431483,0.198151,0.563716,-0.0982841,0.650337,1
1.46258,-0.690567,-1.65041,-0.908853,2.20798,1.28212,-0.607151,1.48649,-0.721094,-1.66705,-0.906193,2.18564,1.30294,-0.631388,1.52483,-0.770936,-1.69407,-0.920263,2.15033,1.30271,-0.672269,-0.819893,1.06953,0.562978,0.402494,0.73162,0.237058,0.88843,-0.819893,1.06953,0.562978,0.402494,0.73162,0.237058,0.88843,0.293578,-0.459125,0.940374,0.61228,-0.0557126,0.0708747,0.785484,-0.59225,0.363281,0.716131,1.84346,-0.432612,1.57505,-3.12239,0.133444,2.12498,-3.07659,0.150145,2.62887,-0.622524,0.803686,0.436549,0.114105,0.576566,-0.205892,0.651176,1
1.456,-0.680403,-1.64414,-0.911074,2.2177,1.27549,-0.598899,1.47885,-0.710872,-1.66121,-0.906616,2.19305,1.29656,-0.623314,1.51722,-0.761021,-1.6888,-0.916779,2.1572,1.30428,-0.664057,-0.828965,1.07768,0.57761,0.356081,0.755682,0.112699,0.890422,-0.828965,1.07768,0.57761,0.356081,0.755682,0.112699,0.890422,0.28782,-0.455425,0.946881,0.61059,-0.0613549,0.0704999,0.786413,-0.56489,0.378753,0.705254,1.81265,-0.431344,1.59532,-3.08565,0.127,2.03059,-3.07742,0.139388,2.3135,-0.61218,0.806184,0.446605,0.0570516,0.604968,-0.287848,0.651577,1
1.44698,-0.670246,-1.64205,-0.898104,2.22731,1.26579,-0.591569,1.47117,-0.700682,-1.65564,-0.907246,2.20063,1.28946,-0.615245,1.50953,-0.75103,-1.68339,-0.913878,2.16427,1.30448,-0.655851,-0.835519,1.08585,0.592652,0.278751,0.774902,-0.0556328,0.887312,-0.835519,1.08585,0.592652,0.278751,0.774902,-0.0556328,0.887312,0.285252,-0.45369,0.949833,0.609767,-0.0638027,0.0703512,0.78687,-0.475505,0.325952,0.593658,1.78232,-0.429827,1.61413,-3.02363,0.15125,1.87485,-3.11998,0.116035,2.16586,-0.625445,0.807842,0.413447,0.157745,0.630406,-0.386916,0.642824,1
1.43713,-0.660233,-1.6399,-0.896594,2.23698,1.25516,-0.584003,1.46326,-0.69053,-1.65047,-0.907166,2.20888,1.2821,-0.607206,1.50183,-0.740975,-1.67786,-0.911765,2.17147,1.30306,-0.647677,-0.83336,1.09187,0.604034,0.186762,0.782679,-0.23601,0.88369,-0.83336,1.09187,0.604034,0.186762,0.782679,-0.23601,0.88369,0.280106,-0.449822,0.956137,0.607766,-0.068201,0.0701052,0.78807,-0.437923,0.340549,0.578913,1.75136,-0.428241,1.63275,-3.11652,0.159678,1.87417,-3.10957,0.125272,2.06378,-0.64697,0.80742,0.379626,0.151708,0.655181,-0.479043,0.636741,1
1.42979,-0.650367,-1.63611,-0.89378,2.24538,1.249,-0.577132,1.45509,-0.68041,-1.64596,-0.905243,2.21786,1.27414,-0.599303,1.49413,-0.730877,-1.67229,-0.910402,2.17875,1.30013,-0.639532,-0.83294,1.09523,0.603885,0.114476,0.793617,-0.386956,0.88092,-0.83294,1.09523,0.603885,0.114476,0.793617,-0.386956,0.88092,0.275553,-0.445824,0.962243,0.605505,-0.0715371,0.0700136,0.789522,-0.390332,0.356447,0.559925,1.72002,-0.428252,1.64881,-3.06329,-0.00108333,1.56986,-3.09077,0.122036,1.95717,-0.643466,0.805109,0.361729,0.166217,0.666344,-0.511324,0.624001,1
1.42148,-0.640435,-1.63396,-0.888256,2.25328,1.24318,-0.569442,1.44663,-0.670329,-1.64235,-0.901336,2.22719,1.26556,-0.591647,1.48641,-0.720759,-1.66677,-0.909495,2.18622,1.29597,-0.631413,-0.839695,1.09645,0.591495,0.0844612,0.822046,-0.503122,0.878028,-0.839695,1.09645,0.591495,0.0844612,0.822046,-0.503122,0.878028,0.271498,-0.441755,0.968158,0.60306,-0.0739535,0.0700404,0.791166,-0.350566,0.366412,0.541757,1.68879,-0.427696,1.66477,-3.19221,0.0568338,1.63182,-3.0925,0.109205,1.84965,-0.649333,0.803249,0.328168,0.212395,0.670612,-0.527985,0.619718,1
1.41312,-0.630319,-1.63067,-0.887863,2.26073,1.23738,-0.560966,1.43804,-0.660309,-1.63938,-0.896919,2.23632,1.25713,-0.584199,1.47859,-0.710637,-1.66146,-0.90854,2.19402,1.29082,-0.623338,-0.8525,1.09636,0.562256,0.119582,0.864845,-0.604886,0.871772,-0.8525,1.09636,0.562256,0.119582,0.864845,-0.604886,0.871772,0.265688,-0.435654,0.977079,0.599328,-0.0763667,0.0700082,0.793771,-0.392592,0.411047,0.626409,1.65806,-0.42655,1.67991,-2.93378,0.109402,1.44465,-3.09371,0.0966362,1.74343,-0.654742,0.80318,0.307865,0.206768,0.667088,-0.534427,0.623725,1
1.40436,-0.620328,-1.62685,-0.881295,2.26888,1.23106,-0.55292,1.42962,-0.650335,-1.63652,-0.893071,2.24494,1.24969,-0.57674,1.47063,-0.700521,-1.65651,-0.907005,2.20221,1.28478,-0.61535,-0.870745,1.0951,0.513485,0.205628,0.905921,-0.697048,0.859717,-0.870745,1.0951,0.513485,0.205628,0.905921,-0.697048,0.859717,0.261854,-0.431972,0.982882,0.597236,-0.0774383,0.0698279,0.795259,-0.412582,0.381796,0.632235,1.62716,-0.42561,1.69415,-3.25074,0.0988365,1.49812,-3.09848,0.0867835,1.64304,-0.662686,0.801929,0.29663,0.257108,0.666713,-0.537125,0.624294,1
1.39574,-0.610424,-1.62417,-0.878869,2.27788,1.22404,-0.544796,1.42133,-0.640359,-1.63356,-0.889595,2.25309,1.24322,-0.569034,1.46251,-0.690424,-1.65204,-0.90472,2.21069,1.27803,-0.607487,-0.887427,1.09232,0.459368,0.282951,0.929636,-0.758173,0.844701,-0.887427,1.09232,0.459368,0.282951,0.929636,-0.758173,0.844701,0.25786,-0.42856,0.988722,0.595543,-0.078237,0.0695341,0.796475,-0.431043,0.35673,0.633909,1.59648,-0.424754,1.70727,-3.20973,0.089578,1.37294,-3.09965,0.0792176,1.54757,-0.667686,0.800002,0.278707,0.25851,0.671909,-0.539965,0.626913,1
1.38778,-0.600473,-1.62014,-0.877625,2.28692,1.21726,-0.53702,1.41294,-0.630363,-1.63043,-0.886104,2.2611,1.23706,-0.561052,1.45428,-0.680356,-1.64801,-0.901918,2.21928,1.27097,-0.599741,-0.894392,1.08889,0.416774,0.32091,0.930796,-0.771578,0.834279,-0.894392,1.08889,0.416774,0.32091,0.930796,-0.771578,0.834279,0.253777,-0.425305,0.994537,0.594153,-0.078889,0.0692289,0.797475,-0.435774,0.348054,0.627012,1.5661,-0.42332,1.71902,-2.96681,0.140075,1.14706,-3.08755,0.0851563,1.4468,-0.665041,0.798833,0.278677,0.242931,0.676392,-0.537062,0.627203,1
1.37906,-0.590401,-1.61784,-0.87139,2.29534,1.21113,-0.529524,1.40445,-0.620374,-1.62716,-0.882614,2.26936,1.23071,-0.552973,1.44602,-0.670315,-1.6443,-0.898876,2.22781,1.26394,-0.592038,-0.895601,1.08652,0.389687,0.336661,0.916986,-0.751558,0.834358,-0.895601,1.08652,0.389687,0.336661,0.916986,-0.751558,0.834358,0.251908,-0.423817,0.997182,0.593556,-0.0791689,0.0691027,0.797903,-0.365611,0.299132,0.528088,1.53515,-0.422658,1.73022,-3.13673,0.0671204,1.13574,-3.07705,0.0976103,1.35745,-0.669575,0.799139,0.264638,0.274864,0.675298,-0.52813,0.625135,1
1.36982,-0.580273,-1.61649,-0.867827,2.30347,1.20402,-0.521777,1.39596,-0.610399,-1.6239,-0.879262,2.27794,1.22412,-0.544987,1.43773,-0.660289,-1.64077,-0.895709,2.2362,1.25712,-0.584292,-0.899231,1.08543,0.375344,0.348419,0.903087,-0.727774,0.842924,-0.899231,1.08543,0.375344,0.348419,0.903087,-0.727774,0.842924,0.245633,-0.418749,1.00593,0.591682,-0.0802356,0.0688989,0.799204,-0.363447,0.30252,0.519997,1.50473,-0.421126,1.74095,-2.92117,0.14711,1.02999,-3.06805,0.106376,1.26436,-0.679112,0.800161,0.242857,0.278829,0.672645,-0.531066,0.625143,1
1.36066,-0.570234,-1.61387,-0.864291,2.3117,1.19724,-0.513969,1.38744,-0.600406,-1.6209,-0.875832,2.28661,1.21747,-0.537161,1.4294,-0.650272,-1.63734,-0.892451,2.24453,1.25046,-0.576464,-0.905078,1.08446,0.369257,0.356776,0.900514,-0.7165,0.852039,-0.905078,1.08446,0.369257,0.356776,0.900514,-0.7165,0.852039,0.243785,-0.417199,1.0085,0.591117,-0.0805764,0.0688771,0.79959,-0.361592,0.309334,0.513547,1.47453,-0.418773,1.7503,-2.98479,0.232525,0.924821,-3.05984,0.122841,1.17051,-0.687365,0.800386,0.234668,0.281599,0.671688,-0.532228,0.624951,1
1.35255,-0.560097,-1.61021,-0.866625,2.31984,1.18985,-0.505726,1.37876,-0.590368,-1.6183,-0.872132,2.29514,1.21079,-0.529433,1.42102,-0.640266,-1.63395,-0.889148,2.25288,1.24385,-0.568579,-0.909136,1.08331,0.364541,0.358566,0.908677,-0.715548,0.855691,-0.909136,1.08331,0.364541,0.358566,0.908677,-0.715548,0.855691,0.237593,-0.411884,1.01704,0.589175,-0.081782,0.0688677,0.800901,-0.42269,0.375762,0.595822,1.44506,-0.4169,1.75784,-2.99734,0.190507,0.766392,-3.04117,0.143879,1.0681,-0.684747,0.801687,0.237474,0.225224,0.66958,-0.540036,0.628526,1
1.34427,-0.550269,-1.60733,-0.859441,2.32904,1.184,-0.498297,1.36991,-0.580298,-1.61592,-0.868681,2.30347,1.20401,-0.52168,1.41261,-0.630265,-1.63064,-0.885819,2.26132,1.23724,-0.56069,-0.912856,1.08308,0.353441,0.362247,0.917578,-0.717122,0.853448,-0.912856,1.08308,0.353441,0.362247,0.917578,-0.717122,0.853448,0.235782,-0.410267,1.01955,0.588575,-0.0821323,0.0688731,0.801305,-0.35428,0.322394,0.501708,1.41474,-0.41599,1.76532,-3.15202,0.0946371,0.776908,-3.02821,0.153633,0.970909,-0.68341,0.79996,0.233116,0.26378,0.67718,-0.532395,0.623933,1
1.33587,-0.540279,-1.6071,-0.85749,2.33748,1.17737,-0.490422,1.36113,-0.570234,-1.61338,-0.86598,2.31178,1.19716,-0.513848,1.40414,-0.62026,-1.62748,-0.88242,2.2698,1.23061,-0.552834,-0.920813,1.08426,0.332902,0.373176,0.919189,-0.718931,0.848835,-0.920813,1.08426,0.332902,0.373176,0.919189,-0.718931,0.848835,0.231868,-0.406712,1.02497,0.587278,-0.0828617,0.0688865,0.80218,-0.349046,0.327387,0.4951,1.38372,-0.415526,1.77208,-2.93366,0.0438331,0.63965,-3.0272,0.146223,0.87948,-0.682766,0.799813,0.203803,0.249302,0.676826,-0.532368,0.62412,1
1.32683,-0.530456,-1.60568,-0.85408,2.34633,1.17124,-0.482695,1.35258,-0.560213,-1.61074,-0.863529,2.32024,1.19041,-0.505999,1.39559,-0.610241,-1.62451,-0.878974,2.27826,1.22395,-0.54501,-0.93147,1.08611,0.311714,0.373369,0.914618,-0.723251,0.846259,-0.93147,1.08611,0.311714,0.373369,0.914618,-0.723251,0.846259,0.225914,-0.401172,1.03319,0.585439,-0.0838781,0.0690374,0.803405,-0.34651,0.330197,0.489074,1.3532,-0.413561,1.7772,-3.03049,0.195099,0.508438,-3.02734,0.147397,0.779254,-0.687588,0.797851,0.188362,0.248937,0.680744,-0.527042,0.623148,1
1.31835,-0.520414,-1.60605,-0.854163,2.35396,1.16547,-0.474688,1.34414,-0.550247,-1.60853,-0.860668,2.32885,1.18388,-0.498197,1.38696,-0.600208,-1.62169,-0.875641,2.28668,1.21724,-0.537194,-0.936957,1.08724,0.3015,0.350461,0.910509,-0.728576,0.846835,-0.936957,1.08724,0.3015,0.350461,0.910509,-0.728576,0.846835,0.222199,-0.397496,1.03839,0.584259,-0.0844003,0.0692535,0.80419,-0.389884,0.398741,0.557544,1.32207,-0.413,1.78132,-2.9134,0.0525698,0.385369,-3.0428,0.1292,0.675452,-0.686131,0.797939,0.156368,0.214781,0.672807,-0.517745,0.625063,1
1.30826,-0.510698,-1.60969,-0.844495,2.36261,1.16068,-0.467138,1.3356,-0.540319,-1.60716,-0.857596,2.33746,1.17759,-0.49042,1.37833,-0.590173,-1.61893,-0.872526,2.2951,1.21051,-0.529371,-0.933997,1.08673,0.297054,0.326362,0.911934,-0.729284,0.847801,-0.933997,1.08673,0.297054,0.326362,0.911934,-0.729284,0.847801,0.220544,-0.395781,1.04074,0.583703,-0.0846069,0.0693775,0.804561,-0.326155,0.3415,0.469319,1.29152,-0.411785,1.7843,-3.41637,0.135807,0.333577,-3.05907,0.111402,0.574337,-0.700693,0.794746,0.0923791,0.280318,0.675128,-0.498316,0.62233,1
1.29925,-0.500682,-1.61442,-0.846135,2.37025,1.15453,-0.459262,1.32682,-0.530408,-1.60684,-0.854575,2.34591,1.17156,-0.482627,1.36973,-0.58015,-1.61627,-0.869537,2.30354,1.20381,-0.521548,-0.928413,1.08467,0.280555,0.321685,0.917758,-0.722898,0.847025,-0.928413,1.08467,0.280555,0.321685,0.917758,-0.722898,0.847025,0.215298,-0.389883,1.04842,0.581676,-0.085108,0.069883,0.805932,-0.356497,0.415371,0.532412,1.26189,-0.410135,1.78703,-2.84063,0.158182,0.261516,-3.0628,0.111535,0.481294,-0.704845,0.794686,0.0185058,0.234013,0.667029,-0.49282,0.622864,1
1.28828,-0.491068,-1.62569,-0.832567,2.37814,1.15235,-0.451954,1.31776,-0.520511,-1.60803,-0.851182,2.35417,1.16588,-0.474838,1.36116,-0.57015,-1.61386,-0.866551,2.31204,1.1972,-0.513735,-0.927476,1.08203,0.243142,0.324835,0.922005,-0.711197,0.845691,-0.927476,1.08203,0.243142,0.324835,0.922005,-0.711197,0.845691,0.212032,-0.386023,1.05326,0.580369,-0.085369,0.0702619,0.806813,-0.297763,0.355227,0.44804,1.23137,-0.40912,1.78813,-3.15803,0.105049,0.114508,-3.05516,0.118455,0.376611,-0.728865,0.790819,-0.118263,0.33984,0.660975,-0.44845,0.617806,1
1.27838,-0.481318,-1.63103,-0.825756,2.38619,1.14759,-0.444074,1.30834,-0.510643,-1.61136,-0.846836,2.36228,1.16063,-0.4671,1.35257,-0.560172,-1.61191,-0.863549,2.32054,1.19071,-0.50593,-0.933872,1.07965,0.184134,0.325518,0.920208,-0.694734,0.845244,-0.933872,1.07965,0.184134,0.325518,0.920208,-0.694734,0.845244,0.210565,-0.384246,1.05545,0.579778,-0.0854747,0.0704507,0.80721,-0.290567,0.35389,0.437136,1.20063,-0.407984,1.78801,-3.098,0.114518,-0.0125076,-3.04689,0.122769,0.269202,-0.741935,0.788543,-0.191203,0.377928,0.656439,-0.431251,0.618561,1
1.26958,-0.471358,-1.63529,-0.82077,2.3938,1.14719,-0.436269,1.29859,-0.500818,-1.61691,-0.841141,2.37027,1.15598,-0.459424,1.34388,-0.550215,-1.61066,-0.860484,2.329,1.18441,-0.498128,-0.947536,1.07748,0.0954489,0.337413,0.912991,-0.672374,0.844817,-0.947536,1.07748,0.0954489,0.337413,0.912991,-0.672374,0.844817,0.207416,-0.380459,1.06008,0.57866,-0.0856123,0.0709679,0.807952,-0.28479,0.347337,0.423122,1.17025,-0.406994,1.78719,-2.98824,0.0973679,-0.0804388,-3.04252,0.115717,0.168577,-0.743044,0.788578,-0.246279,0.397139,0.647979,-0.372206,0.618592,1
1.26067,-0.46141,-1.64085,-0.819313,2.40199,1.14588,-0.428772,1.28869,-0.491024,-1.62363,-0.834293,2.37818,1.15215,-0.451766,1.33503,-0.54028,-1.61042,-0.85718,2.33738,1.17835,-0.490338,-0.968011,1.07504,-0.0340217,0.375209,0.903121,-0.642898,0.842919,-0.968011,1.07504,-0.0340217,0.375209,0.903121,-0.642898,0.842919,0.202526,-0.374994,1.06689,0.577707,-0.0856164,0.0721177,0.808531,-0.284937,0.333285,0.408096,1.13949,-0.406217,1.78514,-3.16283,0.0798936,-0.21108,-3.0413,0.114583,0.0651342,-0.74361,0.788705,-0.304225,0.378667,0.646076,-0.32471,0.615665,1
1.25164,-0.451412,-1.64685,-0.818404,2.41004,1.14691,-0.421234,1.27898,-0.481209,-1.63005,-0.827668,2.38607,1.1493,-0.444084,1.32597,-0.530371,-1.61154,-0.853374,2.34566,1.17261,-0.482573,-0.993092,1.07197,-0.194858,0.443721,0.892424,-0.603267,0.839657,-0.993092,1.07197,-0.194858,0.443721,0.892424,-0.603267,0.839657,0.199169,-0.371792,1.07114,0.577817,-0.0855685,0.0730977,0.80837,-0.296157,0.308831,0.39404,1.10913,-0.405414,1.78268,-2.99068,0.0790517,-0.242436,-3.04685,0.103845,-0.0342148,-0.743255,0.789582,-0.353039,0.349695,0.643742,-0.257034,0.613385,1
1.2419,-0.44148,-1.65588,-0.816068,2.41627,1.14925,-0.413442,1.26965,-0.47133,-1.63577,-0.822804,2.39397,1.14758,-0.436405,1.31669,-0.52049,-1.6141,-0.848855,2.35385,1.16731,-0.474835,-1.01565,1.06882,-0.345829,0.528181,0.882425,-0.550032,0.836788,-1.01565,1.06882,-0.345829,0.528181,0.882425,-0.550032,0.836788,0.197588,-0.370383,1.07305,0.578014,-0.0855489,0.07359,0.808187,-0.320337,0.276973,0.383453,1.07865,-0.404323,1.77925,-3.12793,0.112015,-0.351534,-3.0548,0.0950562,-0.13252,-0.747843,0.790096,-0.417853,0.327867,0.624207,-0.180589,0.61393,1
1.23263,-0.431414,-1.66225,-0.819183,2.42136,1.15592,-0.404918,1.26053,-0.461391,-1.64154,-0.819946,2.40174,1.14716,-0.428749,1.30726,-0.51063,-1.61778,-0.84371,2.36196,1.16258,-0.467117,-1.02572,1.06714,-0.445016,0.581851,0.87461,-0.481624,0.835405,-1.02572,1.06714,-0.445016,0.581851,0.87461,-0.481624,0.835405,0.19161,-0.366176,1.07938,0.579993,-0.0858853,0.075582,0.806548,-0.440999,0.278031,0.443086,1.04915,-0.402905,1.77457,-2.73378,0.13139,-0.433542,-3.0419,0.0983787,-0.223952,-0.746325,0.792163,-0.444673,0.245265,0.593988,-0.0665184,0.621984,1
1.22351,-0.422119,-1.66928,-0.817217,2.42875,1.17035,-0.397194,1.25135,-0.451432,-1.64802,-0.818461,2.40907,1.14847,-0.421036,1.29781,-0.500774,-1.62214,-0.838416,2.37001,1.15855,-0.459409,-1.02129,1.06797,-0.494449,0.566255,0.869129,-0.397756,0.834382,-1.02129,1.06797,-0.494449,0.566255,0.869129,-0.397756,0.834382,0.187634,-0.363434,1.08337,0.581566,-0.0864023,0.0770683,0.805218,-0.433401,0.287049,0.427975,1.0191,-0.402176,1.76825,-3.17444,0.0769985,-0.667923,-3.02724,0.0981944,-0.322846,-0.742991,0.786548,-0.471414,0.211994,0.587394,0.118066,0.622145,1
1.21497,-0.413264,-1.67667,-0.822944,2.43669,1.18193,-0.389768,1.24206,-0.441528,-1.65511,-0.817939,2.4158,1.15241,-0.413171,1.28843,-0.490901,-1.62689,-0.833552,2.378,1.15538,-0.451713,-1.01178,1.07039,-0.53126,0.493482,0.861395,-0.29784,0.832905,-1.01178,1.07039,-0.53126,0.493482,0.861395,-0.29784,0.832905,0.183841,-0.360551,1.08715,0.583095,-0.0870835,0.0787711,0.803873,-0.402907,0.302791,0.400243,0.989366,-0.400735,1.76202,-2.9403,0.142498,-0.616226,-3.01216,0.104882,-0.419264,-0.734608,0.776376,-0.497759,0.106077,0.586981,0.265567,0.619442,1
1.20744,-0.404469,-1.68403,-0.83665,2.44387,1.19139,-0.382791,1.23284,-0.431816,-1.66232,-0.818547,2.42233,1.15973,-0.405242,1.27911,-0.481007,-1.63204,-0.829467,2.38585,1.15325,-0.444019,-1.00692,1.07273,-0.579773,0.399207,0.842224,-0.173415,0.833631,-1.00692,1.07273,-0.579773,0.399207,0.842224,-0.173415,0.833631,0.182171,-0.359182,1.08883,0.583767,-0.0874208,0.0796074,0.803266,-0.367056,0.315764,0.3647,0.959609,-0.399277,1.7553,-3.02665,0.148279,-0.683934,-2.99541,0.115441,-0.506595,-0.716696,0.765382,-0.519922,-0.0718303,0.580169,0.381469,0.612285,1
1.20026,-0.396236,-1.69046,-0.850621,2.45297,1.1965,-0.376312,1.22394,-0.422436,-1.66947,-0.821275,2.42921,1.16972,-0.397486,1.26982,-0.471103,-1.63766,-0.826267,2.39347,1.1525,-0.436297,-1.00684,1.07273,-0.632955,0.302083,0.810142,-0.0032439,0.838785,-1.00684,1.07273,-0.632955,0.302083,0.810142,-0.0032439,0.838785,0.178852,-0.356075,1.09215,0.585139,-0.08825,0.0817755,0.801959,-0.307846,0.270951,0.307747,0.930689,-0.396605,1.74716,-2.86446,0.264725,-0.805458,-2.97564,0.138179,-0.596467,-0.695603,0.748674,-0.528039,-0.243535,0.594988,0.440065,0.599844,1
1.19607,-0.387775,-1.69557,-0.868343,2.45911,1.2052,-0.370023,1.21561,-0.413426,-1.67657,-0.827658,2.43663,1.18022,-0.390094,1.26053,-0.461229,-1.64371,-0.823999,2.4008,1.1536,-0.428524,-1.00456,1.06684,-0.674985,0.197778,0.780735,0.222576,0.844469,-1.00456,1.06684,-0.674985,0.197778,0.780735,0.222576,0.844469,0.174329,-0.350953,1.09648,0.587032,-0.0901802,0.0860461,0.79991,-0.305859,0.341642,0.283037,0.901713,-0.395142,1.73831,-2.56124,0.129249,-0.78215,-2.95437,0.15372,-0.680678,-0.64465,0.734538,-0.518575,-0.443431,0.583128,0.516016,0.585014,1
1.19239,-0.378959,-1.70402,-0.871293,2.46631,1.21171,-0.365755,1.20812,-0.404713,-1.68348,-0.83813,2.44433,1.18946,-0.383141,1.25132,-0.451451,-1.65008,-0.822873,2.40796,1.15687,-0.420734,-0.992949,1.05242,-0.703241,0.0579589,0.770908,0.466183,0.84321,-0.992949,1.05242,-0.703241,0.0579589,0.770908,0.466183,0.84321,0.171768,-0.34743,1.09875,0.587975,-0.0919847,0.0893201,0.798652,-0.264664,0.351388,0.229828,0.871683,-0.394426,1.72774,-3.40897,0.0813608,-1.19987,-2.94947,0.155844,-0.768627,-0.589228,0.724917,-0.53941,-0.4842,0.583468,0.548359,0.549785,1
1.18774,-0.370443,-1.71442,-0.874392,2.47519,1.21373,-0.363666,1.20177,-0.396161,-1.69017,-0.850693,2.45197,1.19726,-0.376757,1.24228,-0.441843,-1.65667,-0.8234,2.41512,1.16212,-0.413009,-0.96726,1.03072,-0.721947,-0.15446,0.780168,0.656257,0.831168,-0.96726,1.03072,-0.721947,-0.15446,0.780168,0.656257,0.831168,0.169752,-0.343849,1.10043,0.588507,-0.0939637,0.0929018,0.797621,-0.190678,0.348576,0.158097,0.840293,-0.393634,1.71412,-2.87273,0.0724643,-1.24713,-2.96315,0.15136,-0.885464,-0.545315,0.714002,-0.577525,-0.509921,0.600672,0.516104,0.493426,1
1.18177,-0.360957,-1.7242,-0.882214,2.4826,1.21291,-0.36306,1.19655,-0.387611,-1.69719,-0.861984,2.45945,1.20395,-0.371297,1.23357,-0.43245,-1.66337,-0.826214,2.4224,1.16867,-0.405446,-0.922983,1.00606,-0.729407,-0.432186,0.795346,0.75398,0.809036,-0.922983,1.00606,-0.729407,-0.432186,0.795346,0.75398,0.809036,0.168628,-0.340366,1.10137,0.588485,-0.0955393,0.0966581,0.797003,-0.0812366,0.332927,0.0716926,0.810441,-0.392669,1.70222,-3.33174,0.107654,-1.32803,-2.98005,0.134512,-1.00421,-0.517966,0.714929,-0.608269,-0.559998,0.601994,0.442361,0.42386,1
1.17589,-0.351332,-1.73164,-0.890079,2.48912,1.21664,-0.358298,1.19188,-0.378928,-1.70522,-0.870166,2.46699,1.2091,-0.367152,1.22538,-0.423274,-1.6701,-0.831521,2.42979,1.17576,-0.398143,-0.85637,0.983451,-0.728039,-0.695394,0.804428,0.779879,0.775695,-0.85637,0.983451,-0.728039,-0.695394,0.804428,0.779879,0.775695,0.168338,-0.338812,1.10163,0.58835,-0.0961077,0.0984018,0.796822,-0.0672694,0.280529,0.0589841,0.781426,-0.391559,1.68767,-2.94392,0.112631,-1.47568,-2.98737,0.11619,-1.13196,-0.494849,0.719428,-0.615374,-0.585579,0.593284,0.408813,0.398445,1
1.169,-0.343251,-1.73986,-0.89693,2.4967,1.22505,-0.353069,1.18701,-0.370027,-1.71415,-0.876383,2.47463,1.21245,-0.364138,1.21788,-0.414276,-1.67687,-0.838689,2.43723,1.18288,-0.391242,-0.773971,0.967165,-0.737153,-0.844939,0.806192,0.764058,0.723434,-0.773971,0.967165,-0.737153,-0.844939,0.806192,0.764058,0.723434,0.16882,-0.335639,1.10148,0.587473,-0.09642,0.102196,0.796953,0.0296235,0.262896,-0.00943495,0.750452,-0.390496,1.67373,-3.08155,0.105782,-1.38721,-3.00901,0.0973161,-1.23965,-0.48882,0.710247,-0.629924,-0.582416,0.59476,0.421617,0.381733,1
1.16091,-0.335918,-1.74967,-0.907232,2.50339,1.23672,-0.352624,1.18149,-0.36098,-1.72318,-0.882754,2.48214,1.21525,-0.361348,1.21051,-0.404256,-1.6849,-0.847611,2.44566,1.19032,-0.384414,-0.675754,0.91867,-0.736822,-0.818071,0.773424,0.681434,0.626087,-0.675754,0.91867,-0.736822,-0.818071,0.773424,0.681434,0.626087,0.170444,-0.332262,1.10075,0.586208,-0.0958041,0.106374,0.797412,0.160589,0.322425,-0.0779566,0.721447,-0.389125,1.65951,-2.95437,0.139655,-1.44825,-3.0076,0.0999527,-1.32456,-0.496044,0.683375,-0.647662,-0.596205,0.577302,0.463993,0.317901,1
1.15381,-0.327745,-1.75757,-0.915431,2.50867,1.24508,-0.349105,1.17527,-0.352104,-1.73187,-0.890081,2.48935,1.21971,-0.358133,1.20448,-0.39571,-1.69203,-0.854959,2.45288,1.19615,-0.379058,-0.633951,0.931551,-0.802074,-0.777063,0.788969,0.590875,0.541152,-0.633951,0.931551,-0.802074,-0.777063,0.788969,0.590875,0.541152,0.172719,-0.328213,1.09973,0.585002,-0.0945679,0.111461,0.79775,0.138246,0.25371,-0.0633813,0.691336,-0.388918,1.64268,-2.92619,0.0201462,-1.63625,-2.99544,0.0989846,-1.40324,-0.50672,0.679651,-0.655376,-0.604721,0.557859,0.489222,0.299532,1
1.14833,-0.319737,-1.76576,-0.922949,2.51509,1.25256,-0.347233,1.16846,-0.34369,-1.74043,-0.898148,2.49624,1.2268,-0.35483,1.19868,-0.387041,-1.69969,-0.86201,2.4602,1.2012,-0.3744,-0.623638,0.945303,-0.852072,-0.752431,0.795988,0.50964,0.473456,-0.623638,0.945303,-0.852072,-0.752431,0.795988,0.50964,0.473456,0.174233,-0.325792,1.09912,0.58481,-0.093368,0.114583,0.79759,0.136858,0.238302,-0.060436,0.661495,-0.387428,1.6246,-3.01481,0.150479,-1.82577,-2.98066,0.101983,-1.48497,-0.503544,0.673039,-0.66069,-0.609387,0.548932,0.513607,0.271673,1
1.14352,-0.312692,-1.77422,-0.930524,2.52357,1.25775,-0.346879,1.16142,-0.335678,-1.74903,-0.906578,2.50281,1.2355,-0.352003,1.19285,-0.378291,-1.70768,-0.869015,2.46753,1.20587,-0.370207,-0.637673,0.949881,-0.877453,-0.764125,0.791605,0.502099,0.437959,-0.637673,0.949881,-0.877453,-0.764125,0.791605,0.502099,0.437959,0.174926,-0.324726,1.09884,0.58483,-0.0927442,0.115984,0.797446,0.114766,0.199035,-0.0527966,0.632011,-0.385557,1.60575,-2.92925,0.185915,-1.8733,-2.97953,0.111351,-1.59503,-0.493347,0.65598,-0.665392,-0.615091,0.560467,0.51881,0.233281,1
1.13602,-0.308197,-1.78328,-0.939212,2.53174,1.26137,-0.350702,1.15472,-0.327889,-1.75753,-0.914927,2.50927,1.24399,-0.349822,1.18683,-0.369576,-1.71585,-0.876225,2.47477,1.21088,-0.366277,-0.666056,0.93895,-0.891543,-0.795205,0.778875,0.577504,0.415232,-0.666056,0.93895,-0.891543,-0.795205,0.778875,0.577504,0.415232,0.176432,-0.322521,1.09816,0.585156,-0.0912428,0.119045,0.796929,0.112056,0.186878,-0.0602683,0.602116,-0.384317,1.58642,-2.87953,0.11941,-1.86177,-2.98131,0.118934,-1.69514,-0.508044,0.613782,-0.674267,-0.629868,0.569692,0.504833,0.155754,1
1.12705,-0.306795,-1.79234,-0.947674,2.53965,1.26486,-0.354704,1.1485,-0.320563,-1.76597,-0.922993,2.51613,1.25113,-0.348627,1.18054,-0.361008,-1.72414,-0.883734,2.48187,1.21673,-0.362598,-0.693446,0.918805,-0.902701,-0.828613,0.759695,0.680811,0.38431,-0.693446,0.918805,-0.902701,-0.828613,0.759695,0.680811,0.38431,0.177837,-0.320469,1.0973,0.585682,-0.0898658,0.122165,0.796226,0.102804,0.171875,-0.0767226,0.572372,-0.383502,1.5662,-2.91998,0.0799689,-1.98468,-2.97224,0.121275,-1.80606,-0.534872,0.542131,-0.682052,-0.639401,0.577839,0.481328,0.0789377,1
1.11855,-0.30667,-1.80089,-0.955368,2.54564,1.26914,-0.357161,1.14219,-0.314417,-1.77453,-0.931002,2.52364,1.25671,-0.34905,1.17409,-0.352632,-1.7325,-0.891491,2.48879,1.22336,-0.35926,-0.702776,0.897489,-0.908078,-0.850106,0.742628,0.74856,0.342333,-0.702776,0.897489,-0.908078,-0.850106,0.742628,0.74856,0.342333,0.179741,-0.317651,1.09555,0.586919,-0.0881865,0.127092,0.794731,0.0906898,0.154712,-0.0960999,0.542832,-0.38372,1.54452,-3.08754,-0.0227734,-2.26674,-2.97554,0.107695,-1.91471,-0.555426,0.459615,-0.683891,-0.63877,0.568473,0.457866,0.0209936,1
1.11273,-0.309526,-1.80948,-0.963376,2.55019,1.27634,-0.362887,1.13511,-0.310187,-1.7833,-0.939155,2.53135,1.26122,-0.35119,1.16764,-0.344493,-1.74089,-0.899373,2.49565,1.2303,-0.356401,-0.694344,0.868027,-0.909586,-0.856789,0.742962,0.755422,0.281992,-0.694344,0.868027,-0.909586,-0.856789,0.742962,0.755422,0.281992,0.180862,-0.316073,1.09423,0.587981,-0.0871878,0.130172,0.793556,0.0902489,0.141882,-0.142468,0.513617,-0.381147,1.52217,-2.94556,0.259435,-2.2529,-2.96473,0.117075,-2.00441,-0.549169,0.349676,-0.685913,-0.64003,0.545385,0.460365,-0.064859,1
1.10683,-0.306989,-1.81874,-0.970283,2.55333,1.28534,-0.364571,1.12738,-0.308109,-1.79213,-0.947325,2.53851,1.26558,-0.354413,1.16125,-0.336766,-1.74931,-0.907298,2.50261,1.23706,-0.354263,-0.691289,0.810678,-0.914699,-0.859818,0.762775,0.712744,0.189056,-0.691289,0.810678,-0.914699,-0.859818,0.762775,0.712744,0.189056,0.181352,-0.315411,1.0936,0.588522,-0.0867254,0.131535,0.792981,0.0744061,0.117385,-0.121897,0.484722,-0.379649,1.4988,-2.70828,0.140438,-2.19042,-2.9514,0.116977,-2.09452,-0.544159,0.297768,-0.694286,-0.629846,0.507161,0.482792,-0.103084,1
1.1015,-0.304248,-1.82732,-0.978091,2.55996,1.28994,-0.363464,1.11984,-0.307598,-1.80092,-0.955292,2.5446,1.27076,-0.357954,1.15476,-0.329782,-1.75781,-0.915269,2.50975,1.24332,-0.353113,-0.712889,0.710754,-0.924549,-0.866418,0.783319,0.649219,0.0697853,-0.712889,0.710754,-0.924549,-0.866418,0.783319,0.649219,0.0697853,0.182567,-0.314406,1.09117,0.591318,-0.0846685,0.135035,0.790532,0.0336792,0.00516639,-0.184226,0.455919,-0.378104,1.47496,-2.93064,0.157198,-2.42557,-2.93507,0.12161,-2.18439,-0.532645,0.255333,-0.695147,-0.628215,0.502071,0.466198,-0.103505,1
1.09414,-0.309201,-1.83591,-0.986543,2.56826,1.29389,-0.364099,1.11307,-0.307485,-1.80971,-0.96301,2.54978,1.277,-0.361055,1.148,-0.323908,-1.76639,-0.923294,2.51698,1.24907,-0.353063,-0.748079,0.573096,-0.933601,-0.871675,0.781152,0.599103,-0.0489653,-0.748079,0.573096,-0.933601,-0.871675,0.781152,0.599103,-0.0489653,0.182852,-0.314898,1.08929,0.593963,-0.082916,0.136443,0.78849,-0.0204825,-0.103221,-0.218222,0.427332,-0.376538,1.45007,-3.01057,0.164896,-2.62164,-2.91203,0.13645,-2.2759,-0.538593,0.147066,-0.695191,-0.632486,0.512863,0.448191,-0.11036,1
1.08605,-0.328368,-1.84514,-0.995181,2.57272,1.30174,-0.369294,1.10686,-0.30745,-1.81852,-0.970656,2.55492,1.28353,-0.363098,1.141,-0.319351,-1.77503,-0.931329,2.52402,1.25454,-0.353989,-0.767467,0.426315,-0.938927,-0.869201,0.746656,0.588288,-0.143818,-0.767467,0.426315,-0.938927,-0.869201,0.746656,0.588288,-0.143818,0.182624,-0.316419,1.08712,0.597279,-0.0809094,0.137174,0.786062,-0.0759094,-0.205024,-0.253045,0.398219,-0.375135,1.42311,-3.00597,0.144821,-2.7831,-2.89699,0.151818,-2.37633,-0.549482,-0.0901681,-0.701028,-0.638514,0.487049,0.471938,-0.153049,1
1.0778,-0.343462,-1.85457,-1.00421,2.57144,1.30795,-0.377103,1.10052,-0.309458,-1.82733,-0.978517,2.56059,1.28958,-0.364479,1.13396,-0.316002,-1.78372,-0.939307,2.53065,1.2601,-0.355589,-0.757685,0.308926,-0.942612,-0.859774,0.694106,0.613086,-0.198265,-0.757685,0.308926,-0.942612,-0.859774,0.694106,0.613086,-0.198265,0.181941,-0.318759,1.08467,0.601055,-0.0788324,0.137434,0.783346,-0.117372,-0.274878,-0.280329,0.369402,-0.374158,1.39636,-2.59357,0.0880056,-2.40819,-2.88741,0.156509,-2.46902,-0.561656,-0.274603,-0.70845,-0.649069,0.407939,0.478457,-0.21514,1
1.06892,-0.348302,-1.86503,-1.01708,2.5578,1.3147,-0.389103,1.09352,-0.316153,-1.83624,-0.986834,2.56581,1.29537,-0.366803,1.12709,-0.313582,-1.79244,-0.9472,2.53686,1.26589,-0.357452,-0.733589,0.222447,-0.945937,-0.850825,0.654996,0.639698,-0.204773,-0.733589,0.222447,-0.945937,-0.850825,0.654996,0.639698,-0.204773,0.181532,-0.319975,1.08349,0.602858,-0.0778856,0.137473,0.782047,-0.103321,-0.233411,-0.237803,0.340035,-0.373936,1.36879,-3.37462,0.0254285,-3.16739,-2.88959,0.127083,-2.56025,-0.581677,-0.347192,-0.725889,-0.69879,0.209442,0.488072,-0.316504,1
1.05858,-0.354431,-1.87491,-1.0283,2.53435,1.32183,-0.399769,1.08575,-0.327094,-1.84543,-0.995853,2.56788,1.30152,-0.37162,1.12038,-0.312152,-1.80119,-0.955056,2.54285,1.27182,-0.359265,-0.720243,0.0977222,-0.948424,-0.850989,0.643449,0.644007,-0.189146,-0.720243,0.0977222,-0.948424,-0.850989,0.643449,0.644007,-0.189146,0.179534,-0.325146,1.07912,0.609005,-0.0747135,0.136947,0.777674,-0.190442,-0.397457,-0.331024,0.311281,-0.373247,1.33948,-2.6817,0.0642643,-2.73389,-2.89293,0.106857,-2.65719,-0.61801,-0.422783,-0.737197,-0.732492,-0.0849952,0.500111,-0.405044,1
1.04613,-0.365861,-1.88455,-1.03732,2.5239,1.32221,-0.405514,1.07726,-0.338612,-1.85501,-1.00582,2.56385,1.308,-0.379222,1.11368,-0.312416,-1.80997,-0.962983,2.54868,1.27774,-0.3611,-0.731044,-0.135538,-0.953041,-0.865094,0.621502,0.639378,-0.206868,-0.731044,-0.135538,-0.953041,-0.865094,0.621502,0.639378,-0.206868,0.178796,-0.326905,1.07774,0.610838,-0.07374,0.136618,0.776386,-0.165568,-0.336229,-0.28087,0.28198,-0.372084,1.30978,-2.93477,0.116498,-2.97497,-2.90037,0.092285,-2.75377,-0.67546,-0.534441,-0.745876,-0.743327,-0.247756,0.44472,-0.444141,1
1.03628,-0.37423,-1.89327,-1.04512,2.52984,1.31277,-0.406826,1.06793,-0.348175,-1.86484,-1.0165,2.55345,1.31392,-0.388358,1.10677,-0.315155,-1.81882,-0.971129,2.55385,1.28368,-0.363456,-0.762464,-0.433039,-0.965061,-0.896774,0.508711,0.646936,-0.296114,-0.762464,-0.433039,-0.965061,-0.896774,0.508711,0.646936,-0.296114,0.17644,-0.332197,1.07419,0.615109,-0.0712951,0.134903,0.773537,-0.234504,-0.46052,-0.332995,0.253588,-0.37087,1.27965,-2.86165,0.122373,-3.03637,-2.8994,0.0857758,-2.83857,-0.704913,-0.590749,-0.744427,-0.739872,-0.240166,0.290848,-0.433701,1
1.02604,-0.385627,-1.90205,-1.05151,2.53736,1.29164,-0.408607,1.05772,-0.356581,-1.87463,-1.02695,2.5411,1.31731,-0.396814,1.09951,-0.320308,-1.82784,-0.979668,2.55721,1.28973,-0.366937,-0.807088,-0.663925,-0.985558,-0.948679,0.240716,0.662482,-0.445588,-0.807088,-0.663925,-0.985558,-0.948679,0.240716,0.662482,-0.445588,0.171129,-0.343823,1.06709,0.623387,-0.0664234,0.130828,0.768024,-0.318027,-0.614999,-0.408238,0.224266,-0.369476,1.2479,-2.9026,0.137957,-3.14344,-2.89837,0.090731,-2.92171,-0.734733,-0.653192,-0.742096,-0.718432,-0.198472,0.0190736,-0.4167,1
1.01893,-0.398676,-1.91058,-1.06072,2.545,1.29321,-0.415808,1.04706,-0.365513,-1.88408,-1.03631,2.53325,1.31566,-0.402943,1.09177,-0.326965,-1.83705,-0.988721,2.55749,1.29582,-0.371822,-0.86465,-0.769339,-1.00813,-1.00758,-0.146759,0.656544,-0.599781,-0.86465,-0.769339,-1.00813,-1.00758,-0.146759,0.656544,-0.599781,0.167302,-0.352448,1.06163,0.630071,-0.0623908,0.128731,0.763247,-0.451369,-0.916508,-0.632669,0.194607,-0.368609,1.21486,-3.162,0.0924483,-3.52231,-2.90577,0.0997939,-3.02184,-0.7284,-0.717117,-0.735337,-0.72002,-0.124954,-0.0261144,-0.439858,1
1.0111,-0.405777,-1.91941,-1.07082,2.53568,1.28974,-0.42255,1.03677,-0.375463,-1.89315,-1.04464,2.53258,1.30872,-0.407085,1.08344,-0.334268,-1.84643,-0.998199,2.55445,1.30147,-0.377808,-0.933122,-0.809336,-1.02269,-1.04276,-0.484348,0.574534,-0.68939,-0.933122,-0.809336,-1.02269,-1.04276,-0.484348,0.574534,-0.68939,0.163489,-0.36138,1.05567,0.637736,-0.0574359,0.127665,0.757427,-0.388885,-0.771074,-0.539503,0.165571,-0.367335,1.18064,-2.84791,0.124975,-3.35636,-2.90877,0.113171,-3.12711,-0.723409,-0.715093,-0.729772,-0.726157,-0.187725,-0.117281,-0.447428,1
1.00706,-0.413443,-1.92808,-1.08176,2.5376,1.33012,-0.427119,1.02747,-0.385998,-1.90196,-1.05276,2.53593,1.30072,-0.411046,1.07452,-0.341964,-1.85587,-1.00779,2.54946,1.30571,-0.384136,-0.995756,-0.85415,-1.02314,-1.03472,-0.587891,0.361053,-0.682152,-0.995756,-0.85415,-1.02314,-1.03472,-0.587891,0.361053,-0.682152,0.159564,-0.370626,1.04945,0.645955,-0.0514043,0.127017,0.750977,-0.49448,-0.973559,-0.690978,0.136679,-0.365417,1.14498,-2.71525,0.180299,-3.35141,-2.91287,0.125896,-3.23778,-0.674553,-0.71479,-0.722065,-0.739713,-0.11863,0.244081,-0.429824,1
0.997572,-0.422413,-1.93875,-1.0929,2.54928,1.3446,-0.436648,1.01937,-0.396233,-1.9107,-1.06158,2.53865,1.29858,-0.416083,1.06515,-0.350167,-1.86526,-1.01715,2.54476,1.30747,-0.390103,-1.02955,-0.917523,-1.01157,-0.996955,-0.441863,0.045422,-0.615949,-1.02955,-0.917523,-1.01157,-0.996955,-0.441863,0.045422,-0.615949,0.155228,-0.38047,1.04314,0.65423,-0.0442241,0.125576,0.744485,-0.551914,-1.03516,-0.69687,0.108313,-0.364668,1.10986,-2.76118,0.0728887,-3.41838,-2.9054,0.126062,-3.34414,-0.675815,-0.722459,-0.734832,-0.757482,0.0451651,0.371298,-0.46545,1
0.993607,-0.428018,-1.94796,-1.10326,2.57438,1.34453,-0.443216,1.01224,-0.405435,-1.91959,-1.07138,2.54026,1.30656,-0.422132,1.05568,-0.358955,-1.87452,-1.02619,2.54182,1.30659,-0.395525,-1.02328,-0.98087,-0.995264,-0.963751,-0.213966,-0.212931,-0.562948,-1.02328,-0.98087,-0.995264,-0.963751,-0.213966,-0.212931,-0.562948,0.150338,-0.390992,1.03679,0.662232,-0.036105,0.1226,0.738319,-0.47548,-0.870145,-0.595253,0.0822483,-0.362635,1.08245,-2.55721,0.19944,-2.68871,-2.8709,0.133982,-3.34838,-0.620721,-0.690626,-0.734371,-0.770728,0.325561,0.379333,-0.47691,1
0.987554,-0.435989,-1.95515,-1.11292,2.58727,1.32419,-0.450936,1.00563,-0.413648,-1.92879,-1.08186,2.5448,1.32125,-0.428813,1.04644,-0.368192,-1.88364,-1.03507,2.54057,1.3046,-0.400698,-0.981953,-1.01708,-0.981505,-0.961202,-0.0697536,-0.21834,-0.558049,-0.981953,-1.01708,-0.981505,-0.961202,-0.0697536,-0.21834,-0.558049,0.147951,-0.39593,1.03385,0.665802,-0.0322235,0.120873,0.735567,-0.520943,-0.913148,-0.603043,0.0707591,-0.358847,1.065,-1.23557,0.407348,-1.87644,-2.65177,0.166085,-3.15807,-0.588843,-0.677966,-0.715062,-0.77842,0.467042,0.195939,-0.502381,1
0.979518,-0.449878,-1.96205,-1.12047,2.58947,1.31849,-0.457763,0.999248,-0.421396,-1.93805,-1.09245,2.55527,1.33292,-0.435976,1.03767,-0.377553,-1.89268,-1.04409,2.54027,1.30412,-0.405988,-0.922345,-1.01129,-0.976358,-0.989787,-0.000459781,0.0884117,-0.58558,-0.922345,-1.01129,-0.976358,-0.989787,-0.000459781,0.0884117,-0.58558,0.13939,-0.412383,1.02363,0.676919,-0.0201988,0.113848,0.726919,-0.644768,-1.03062,-0.750814,0.0829776,-0.353687,1.05885,1.12927,0.476909,-0.568645,-2.06765,0.230443,-2.72072,-0.581525,-0.723249,-0.693686,-0.763751,0.492006,0.143711,-0.517751,1
0.964566,-0.462213,-1.96259,-1.12023,2.58367,1.28115,-0.466873,0.992878,-0.429442,-1.94672,-1.10245,2.56903,1.33414,-0.443388,1.02945,-0.386718,-1.90172,-1.05344,2.54097,1.30706,-0.41159,-0.863961,-0.976804,-0.981801,-1.03105,0.139112,0.514385,-0.624702,-0.863961,-0.976804,-0.981801,-1.03105,0.139112,0.514385,-0.624702,0.133568,-0.42218,1.0167,0.683485,-0.014328,0.109437,0.721573,-0.65573,-0.951261,-0.771319,0.103315,-0.354498,1.04939,2.26373,-0.0902954,-1.05377,-1.18473,0.242106,-2.18164,-0.648813,-0.754947,-0.608717,-0.667959,0.427014,-0.259109,-0.552825,1
0.965645,-0.466764,-1.95649,-1.11839,2.6014,1.27347,-0.468266,0.985836,-0.43869,-1.95384,-1.11083,2.58031,1.3248,-0.45078,1.02172,-0.395541,-1.91081,-1.06312,2.54366,1.31288,-0.417572,-0.814931,-0.937774,-0.988022,-1.06387,0.421201,0.727019,-0.667547,-0.814931,-0.937774,-0.988022,-1.06387,0.421201,0.727019,-0.667547,0.127485,-0.431316,1.00964,0.689566,-0.0100187,0.104695,0.716546,-0.561275,-0.797643,-0.65792,0.123216,-0.355342,1.03802,2.18828,-0.0927352,-1.2499,-0.177348,0.212542,-1.66222,-0.560705,-0.712231,-0.456763,-0.552675,0.577361,-0.394029,-0.506941,1
1.01705,-0.469538,-1.88093,-1.08724,2.61973,1.28086,-0.45213,0.978786,-0.448925,-1.95708,-1.11588,2.58714,1.30912,-0.457501,1.01437,-0.404105,-1.91987,-1.07297,2.54906,1.31875,-0.423927,-0.779534,-0.919039,-0.974174,-1.06938,0.724109,0.558379,-0.705902,-0.779534,-0.919039,-0.974174,-1.06938,0.724109,0.558379,-0.705902,0.121161,-0.440272,1.00256,0.69533,-0.00615729,0.0987958,0.711841,-0.684399,-0.899168,-0.777754,0.143723,-0.355509,1.02637,2.10093,-0.0171284,-1.19353,0.788288,0.165758,-1.26771,0.0268272,-0.654331,0.389386,-0.14275,0.706632,-0.378803,-0.282029,1
1.04575,-0.47701,-1.87889,-1.08395,2.62808,1.29218,-0.453883,0.977121,-0.458314,-1.95114,-1.11524,2.59345,1.29327,-0.461615,1.0072,-0.412707,-1.92857,-1.08261,2.55646,1.32168,-0.430578,-0.77478,-0.942477,-0.916448,-1.02355,0.865348,0.113337,-0.732782,-0.77478,-0.942477,-0.916448,-1.02355,0.865348,0.113337,-0.732782,0.114686,-0.44952,0.995564,0.701002,-0.00143124,0.0914199,0.707274,-0.695097,-0.93054,-0.768203,0.164372,-0.355565,1.01483,2.18034,-0.00595708,-1.21804,1.54477,0.0936832,-1.07489,0.385583,-0.643032,0.496775,-0.0133377,0.716269,-0.294946,-0.233053,1
1.04248,-0.488413,-1.88744,-1.11363,2.63852,1.27465,-0.468671,0.987794,-0.465583,-1.93236,-1.10833,2.60328,1.28379,-0.46156,0.999142,-0.422974,-1.93665,-1.09204,2.56515,1.31811,-0.43821,-0.73839,-0.941335,-0.741035,-0.86475,0.797633,-0.326414,-0.699745,-0.73839,-0.941335,-0.741035,-0.86475,0.797633,-0.326414,-0.699745,0.10741,-0.460499,0.988128,0.707292,0.0060467,0.0814618,0.702186,-0.664283,-0.894752,-0.703448,0.186798,-0.355347,1.0043,1.98565,0.0193285,-0.932698,1.96897,0.0204776,-1.04705,0.433348,-0.654395,0.492172,-0.215849,0.733622,-0.434622,-0.30461,1
1.04209,-0.497188,-1.89079,-1.13534,2.64717,1.26675,-0.473736,1.009,-0.471847,-1.90785,-1.10061,2.61573,1.2816,-0.459681,0.993116,-0.431772,-1.94153,-1.0987,2.57236,1.31313,-0.44431,-0.580195,-0.962759,-0.348577,-0.599962,0.765164,-0.720304,-0.627718,-0.580195,-0.962759,-0.348577,-0.599962,0.765164,-0.720304,-0.627718,0.10165,-0.469247,0.982388,0.711787,0.0122649,0.072705,0.698515,-0.562156,-0.802212,-0.574745,0.207426,-0.35608,0.991952,2.03821,-0.0724771,-1.21996,2.07666,-0.0325033,-1.12163,0.489738,-0.654161,0.507451,-0.366367,0.748165,-0.463833,-0.294256,1
1.05352,-0.504608,-1.88254,-1.13783,2.65693,1.272,-0.482289,1.02926,-0.479063,-1.89113,-1.10113,2.62761,1.28079,-0.460794,0.990221,-0.440411,-1.94137,-1.10233,2.57985,1.30605,-0.449207,-0.0880237,-0.913032,0.327064,-0.217498,0.850088,-0.807311,-0.44808,-0.0880237,-0.913032,0.327064,-0.217498,0.850088,-0.807311,-0.44808,0.0976605,-0.476221,0.978382,0.713659,0.0168226,0.0635902,0.697398,-0.264263,-0.547071,-0.333674,0.223666,-0.359678,0.978986,1.48222,-0.328355,-1.18336,2.04481,-0.0601977,-1.16213,0.633027,-0.641967,0.588294,-0.355033,0.770891,-0.340507,-0.33082,1
1.06188,-0.510208,-1.87051,-1.13864,2.66568,1.28979,-0.469617,1.04091,-0.487548,-1.88597,-1.11202,2.63791,1.27746,-0.466127,0.992788,-0.448508,-1.93505,-1.10285,2.5884,1.2994,-0.45242,0.587985,-0.846564,0.986837,0.0811793,0.991245,-0.645831,-0.263374,0.587985,-0.846564,0.986837,0.0811793,0.991245,-0.645831,-0.263374,0.0966935,-0.480462,0.976502,0.71149,0.0180493,0.054397,0.700355,0.131525,-0.261735,-0.111217,0.235852,-0.373057,0.972954,1.30766,-1.43564,-0.6473,1.9316,-0.221424,-1.11727,0.690948,-0.616996,0.645476,-0.357903,0.7728,-0.09615,-0.171964,1
1.0736,-0.522267,-1.8622,-1.12681,2.67177,1.32585,-0.468851,1.04716,-0.496159,-1.88445,-1.12544,2.64733,1.27552,-0.471892,1.00049,-0.456232,-1.92478,-1.10229,2.59797,1.29423,-0.454649,1.04338,-0.828146,1.22052,0.0420441,1.07527,-0.487381,-0.222901,1.04338,-0.828146,1.22052,0.0420441,1.07527,-0.487381,-0.222901,0.0986097,-0.482771,0.975691,0.705923,0.0169471,0.045145,0.706645,0.403209,-0.146377,-0.0847208,0.222452,-0.409372,0.971006,-1.3511,-3.66175,-0.196415,1.48577,-0.717512,-0.982697,0.731084,-0.660351,0.625761,-0.245156,0.73798,0.316151,-0.142019,1
1.07858,-0.526529,-1.86956,-1.09191,2.66728,1.35484,-0.467239,1.05392,-0.50423,-1.87995,-1.13258,2.65607,1.28184,-0.474099,1.00491,-0.459737,-1.91961,-1.10211,2.60252,1.29217,-0.455593,0.883157,-0.700977,1.0331,0.0355879,0.910156,-0.412539,-0.188673,0.883157,-0.700977,1.0331,0.0355879,0.910156,-0.412539,-0.188673,0.100003,-0.48359,0.975365,0.702814,0.0162114,0.0408763,0.710013,0.342062,-0.122676,-0.0723649,0.206324,-0.436425,0.973779,-1.58857,-2.66464,0.273108,0.805687,-1.31288,-0.745516,0.736687,-0.667919,0.500532,0.102021,0.647569,0.626673,-0.116467,1
1.09118,-0.52816,-1.90474,-1.07232,2.65504,1.35794,-0.483332,1.06253,-0.511971,-1.87399,-1.12956,2.66288,1.29884,-0.47277,1.02003,-0.472002,-1.90614,-1.10807,2.61789,1.28608,-0.460623,0.983975,-0.876266,0.786641,-0.630057,1.06789,-0.383184,-0.408777,0.983975,-0.876266,0.786641,-0.630057,1.06789,-0.383184,-0.408777,0.105822,-0.48813,0.971155,0.692804,0.0173205,0.0261016,0.720446,0.454439,-0.310477,-0.407324,0.189533,-0.463846,0.97419,-1.78885,-2.92125,0.0438139,0.0170957,-1.91386,-0.480898,0.711447,-0.561586,0.0139804,0.357564,0.371471,0.718522,-0.227093,1
1.09248,-0.520218,-1.93627,-1.06119,2.62882,1.3633,-0.489935,1.07159,-0.518913,-1.87337,-1.11643,2.66527,1.32181,-0.471676,1.02964,-0.481137,-1.89871,-1.11502,2.62871,1.28488,-0.464443,0.880722,-0.837635,0.680788,-0.636841,0.992292,-0.110197,-0.350255,0.880722,-0.837635,0.680788,-0.636841,0.992292,-0.110197,-0.350255,0.10956,-0.491969,0.966677,0.68621,0.0185606,0.0158378,0.726994,0.39757,-0.282795,-0.415156,0.173019,-0.490885,0.973881,-1.64626,-2.6956,-0.03084,-0.717904,-2.41471,-0.224931,0.628396,-0.390802,-0.37559,0.538307,0.00103253,0.784225,-0.254924,1
1.07988,-0.505695,-1.94545,-1.05367,2.60687,1.36654,-0.507661,1.07973,-0.523122,-1.88381,-1.09712,2.6606,1.34235,-0.474606,1.03784,-0.488872,-1.89248,-1.11953,2.63751,1.28663,-0.466976,0.895569,-0.837881,0.670606,-0.363716,0.920111,0.442773,-0.210175,0.895569,-0.837881,0.670606,-0.363716,0.920111,0.442773,-0.210175,0.111046,-0.493435,0.964925,0.683618,0.0190772,0.0118596,0.729495,0.339883,-0.236197,-0.352373,0.156389,-0.520538,0.969641,-1.58473,-2.82565,-0.404024,-1.2872,-2.75968,-0.0821335,0.420324,-0.168232,-0.529716,0.658667,-0.306492,0.799152,-0.406848,1
1.08803,-0.500329,-1.93734,-1.04953,2.60233,1.37239,-0.509382,1.08532,-0.522542,-1.90369,-1.07834,2.64816,1.35543,-0.482224,1.04623,-0.496485,-1.88714,-1.12036,2.64507,1.29362,-0.46845,0.919736,-0.813499,0.49961,0.142387,0.732772,1.02271,-0.117001,0.919736,-0.813499,0.49961,0.142387,0.732772,1.02271,-0.117001,0.113573,-0.496119,0.961148,0.675395,0.0134121,0.00131752,0.737333,0.136137,-0.113447,-0.167406,0.140326,-0.545832,0.967634,-1.57838,-2.48541,-0.197213,-1.61432,-2.83971,-0.0663894,0.417938,-0.0384351,-0.502009,0.708261,-0.427406,0.787716,-0.409318,1
1.09536,-0.514804,-1.93435,-1.0453,2.59986,1.38256,-0.497367,1.08725,-0.51735,-1.92369,-1.0646,2.63116,1.36258,-0.492024,1.05467,-0.503489,-1.88484,-1.11628,2.65008,1.30476,-0.469815,0.908982,-0.712127,0.0374047,0.695095,0.381547,1.36344,-0.173798,0.908982,-0.712127,0.0374047,0.695095,0.381547,1.36344,-0.173798,0.113069,-0.496836,0.960351,0.672259,0.0058253,-0.00276872,0.740288,-0.0703109,-0.0850782,-0.0215098,0.125946,-0.572013,0.967033,-1.48398,-2.70179,-0.0620089,-1.62379,-2.72653,-0.10271,0.406925,-0.113145,-0.495079,0.709861,-0.502172,0.778011,-0.275527,1
1.08166,-0.525879,-1.93943,-1.03671,2.59974,1.39456,-0.487148,1.08726,-0.511442,-1.93526,-1.05576,2.61564,1.3681,-0.499712,1.06263,-0.508965,-1.8876,-1.10797,2.65115,1.31742,-0.472342,0.822756,-0.49245,-0.583476,1.07456,-0.108685,1.37838,-0.358416,0.822756,-0.49245,-0.583476,1.07456,-0.108685,1.37838,-0.358416,0.111036,-0.497133,0.960666,0.67247,-0.0028065,-0.00363336,0.74011,-0.224329,-0.0768825,0.080347,0.107747,-0.592442,0.961694,-1.80093,-2.02169,-0.528414,-1.62714,-2.64047,-0.202921,0.190254,-0.169134,-0.518262,0.712575,-0.514116,0.771378,-0.14806,1
1.0477,-0.529669,-1.94961,-1.02747,2.59675,1.40539,-0.470532,1.08708,-0.510132,-1.93832,-1.04941,2.60579,1.37492,-0.501241,1.06936,-0.512017,-1.89523,-1.09746,2.64769,1.32929,-0.476648,0.648923,-0.193435,-1.03228,1.19191,-0.599738,1.20723,-0.55771,0.648923,-0.193435,-1.03228,1.19191,-0.599738,1.20723,-0.55771,0.108357,-0.496959,0.961772,0.676138,-0.0105409,-0.000912001,0.736699,-0.277695,-0.0257073,0.155058,0.0964911,-0.588975,0.962851,-1.11269,0.342713,0.114409,-1.57183,-2.24992,-0.217862,-0.216545,-0.176523,-0.543776,0.699884,-0.5094,0.760973,0.0611632,1
1.02731,-0.530195,-1.9602,-1.0171,2.59127,1.41294,-0.467908,1.0834,-0.514872,-1.93915,-1.0432,2.6011,1.3838,-0.495661,1.07443,-0.512622,-1.90508,-1.08679,2.64062,1.33958,-0.482187,0.46527,0.0427891,-1.09491,1.12549,-0.906207,1.03466,-0.635654,0.46527,0.0427891,-1.09491,1.12549,-0.906207,1.03466,-0.635654,0.105871,-0.496015,0.963465,0.681852,-0.016868,0.00466051,0.731281,-0.233114,-0.019752,0.129561,0.0840129,-0.575005,0.965726,-1.2702,1.42205,0.292618,-1.49783,-1.5566,-0.157097,-0.471244,-0.175736,-0.551245,0.696894,-0.493558,0.733669,0.142783,1
1.03382,-0.545945,-1.97073,-1.0128,2.57847,1.41859,-0.492468,1.07164,-0.522179,-1.94296,-1.03581,2.5983,1.39387,-0.486333,1.07804,-0.512086,-1.9141,-1.07702,2.63203,1.34871,-0.487389,0.327737,0.070873,-0.878395,1.0013,-0.951685,0.950648,-0.50242,0.327737,0.070873,-0.878395,1.0013,-0.951685,0.950648,-0.50242,0.103779,-0.494471,0.965398,0.687586,-0.0223748,0.0112918,0.72567,-0.220002,0.103531,0.213208,0.0729954,-0.561491,0.966353,-1.08485,1.33068,0.0617656,-1.40093,-0.707751,-0.0638034,-0.442206,-0.338586,-0.566305,0.642127,-0.53562,0.69878,-0.0507873,1
1.01441,-0.527456,-1.99039,-1.00048,2.57894,1.40605,-0.537155,1.05416,-0.528543,-1.9507,-1.02742,2.59456,1.40322,-0.480032,1.08004,-0.51226,-1.92109,-1.06824,2.62387,1.3575,-0.490459,0.122081,-0.094731,-0.654802,0.908209,-0.82609,0.953896,-0.188673,0.122081,-0.094731,-0.654802,0.908209,-0.82609,0.953896,-0.188673,0.102889,-0.493685,0.96628,0.690015,-0.0248071,0.0143501,0.723228,-0.18474,0.0895073,0.17944,0.0621002,-0.547489,0.965674,-0.994946,1.27871,-0.061964,-1.30111,0.119678,-0.0114603,-0.65625,-0.151959,-0.692983,0.677552,-0.449358,0.485432,-0.466955,1
1.00214,-0.563189,-1.99989,-1.08816,2.626,1.31505,-0.543284,1.03817,-0.533377,-1.96129,-1.02035,2.58987,1.40812,-0.484213,1.07919,-0.514122,-1.9268,-1.06001,2.61699,1.3665,-0.490502,-0.273734,-0.292233,-0.586232,0.877546,-0.677865,0.992604,0.1512,-0.273734,-0.292233,-0.586232,0.877546,-0.677865,0.992604,0.1512,0.0971866,-0.492833,0.967969,0.696083,-0.0330489,0.0217321,0.716871,-0.262031,0.033221,0.126385,0.0524029,-0.532259,0.965855,-1.08849,1.70946,0.0203323,-1.19792,0.845183,0.0283207,-0.770412,-0.490665,-0.730954,-0.281578,0.0901075,-0.514561,-0.527827,1
0.992751,-0.535826,-2.00208,-1.0998,2.64734,1.30918,-0.491022,1.02618,-0.537539,-1.97363,-1.02109,2.58916,1.4013,-0.499787,1.07436,-0.517383,-1.93257,-1.05186,2.61111,1.3757,-0.488353,-0.732853,-0.404798,-0.657739,0.886316,-0.600623,0.998157,0.301811,-0.732853,-0.404798,-0.657739,0.886316,-0.600623,0.998157,0.301811,0.0905634,-0.493693,0.968296,0.700494,-0.0382417,0.0253257,0.712183,-0.837833,-0.201913,0.0144354,0.0420142,-0.517359,0.965133,-1.02967,1.4768,-0.0715947,-1.09746,1.30785,0.0581299,-0.816116,-0.184428,-0.695117,-0.479415,0.362301,-0.665116,-0.0266975,1
0.984886,-0.558434,-1.9949,-1.07272,2.64208,1.32047,-0.471307,1.01532,-0.541724,-1.98571,-1.03634,2.59869,1.37788,-0.515231,1.06618,-0.521289,-1.93933,-1.04385,2.6057,1.38425,-0.486636,-1.01596,-0.438454,-0.796294,0.85213,-0.574214,0.865885,0.08788,-1.01596,-0.438454,-0.796294,0.85213,-0.574214,0.865885,0.08788,0.0819843,-0.495465,0.968141,0.706459,-0.0426746,0.0285416,0.705889,-0.999002,-0.276636,-0.0342278,0.0303167,-0.50341,0.96232,-1.22321,1.45867,-0.294141,-1.08255,1.43293,-0.0116936,-0.812954,-0.371456,-0.555633,-0.28875,0.363787,-0.637796,0.153291,1
0.974824,-0.533646,-2.0074,-1.05271,2.6444,1.32784,-0.471543,1.00414,-0.545361,-1.99447,-1.06016,2.61677,1.34695,-0.515788,1.0564,-0.525354,-1.94745,-1.0373,2.6011,1.38997,-0.48834,-1.09604,-0.441967,-0.949443,0.587834,-0.433322,0.410869,-0.415202,-1.09604,-0.441967,-0.949443,0.587834,-0.433322,0.410869,-0.415202,0.0777549,-0.496415,0.967971,0.709581,-0.0444535,0.0299813,0.702581,-0.846156,-0.226898,-0.0304824,0.0175877,-0.490958,0.95923,-1.24777,1.22057,-0.302949,-1.08828,1.42298,-0.100335,-0.815768,-0.0829198,-0.599494,-0.154125,0.432945,-0.621333,0.167975,1
0.966135,-0.505036,-2.01498,-1.01837,2.64803,1.32963,-0.454118,0.993685,-0.546226,-1.999,-1.07437,2.63335,1.32606,-0.500595,1.04617,-0.529451,-1.95673,-1.03505,2.59918,1.38959,-0.493956,-1.11878,-0.44517,-1.0513,-0.0468491,-0.0177632,-0.424677,-0.771688,-1.11878,-0.44517,-1.0513,-0.0468491,-0.0177632,-0.424677,-0.771688,0.068775,-0.499769,0.966645,0.718247,-0.0451158,0.031783,0.693596,-0.83757,-0.314383,-0.121278,0.0065691,-0.477165,0.953909,-1.04366,1.3065,-0.503936,-1.10854,1.41032,-0.191981,-0.800329,0.244147,-0.582502,0.166784,0.48848,-0.599524,0.398382,1
0.964515,-0.496879,-1.99963,-1.05648,2.65979,1.32387,-0.461815,0.984374,-0.54132,-2.00186,-1.06935,2.6422,1.32129,-0.482,1.03571,-0.533488,-1.96629,-1.03907,2.60182,1.38152,-0.500072,-1.14511,-0.430644,-1.02236,-0.765046,0.542264,-1.25395,-0.570037,-1.14511,-0.430644,-1.02236,-0.765046,0.542264,-1.25395,-0.570037,0.0611776,-0.505381,0.963408,0.72728,-0.0399399,0.0301828,0.684513,-0.72682,-0.470148,-0.302829,-0.00306027,-0.463195,0.948954,-0.966652,1.40232,-0.497441,-1.11277,1.39096,-0.285557,-0.71192,0.366089,-0.333457,-0.174134,0.579715,-0.57646,0.382573,1
1.05836,-0.540615,-1.997,-1.1174,2.67942,1.33028,-0.489079,0.977592,-0.530078,-2.00474,-1.05569,2.64668,1.32425,-0.469713,1.02515,-0.536987,-1.97497,-1.04723,2.6086,1.36851,-0.502195,-1.14138,-0.335118,-0.871469,-0.984344,0.897747,-1.53969,0.0580239,-1.14138,-0.335118,-0.871469,-0.984344,0.897747,-1.53969,0.0580239,0.0550787,-0.513137,0.95819,0.7343,-0.0291417,0.0244782,0.677758,-0.596632,-0.611463,-0.491826,-0.00813686,-0.449882,0.944467,-0.536128,1.40604,-0.473911,-1.05541,1.36323,-0.374769,0.332028,-0.0362842,-0.220242,-0.701642,0.708171,-0.382335,0.131156,1
0.956716,-0.502083,-1.99332,-1.10545,2.68578,1.30096,-0.455232,0.978464,-0.518606,-2.0055,-1.05236,2.6529,1.3263,-0.465489,1.0148,-0.538852,-1.98222,-1.05415,2.61698,1.35575,-0.498887,-1.10377,-0.089489,-0.712479,-0.551192,0.91487,-1.24974,0.612534,-1.10377,-0.089489,-0.712479,-0.551192,0.91487,-1.24974,0.612534,0.0464213,-0.523777,0.951165,0.739401,-0.0127537,0.013676,0.673006,-0.533918,-0.596726,-0.507806,-0.000419605,-0.444082,0.941398,0.779925,0.586109,-0.310087,-0.803059,1.26661,-0.418526,-0.580879,0.367693,-0.110942,-0.512984,0.688068,-0.547906,0.436544,1
0.936217,-0.47945,-1.95527,-1.05269,2.6894,1.28744,-0.474268,0.987,-0.513666,-2.00198,-1.06626,2.66281,1.32432,-0.467039,1.00514,-0.537826,-1.98823,-1.05636,2.62481,1.34643,-0.492213,-0.999125,0.281033,-0.59874,0.0245591,0.79332,-0.804705,0.816175,-0.999125,0.281033,-0.59874,0.0245591,0.79332,-0.804705,0.816175,0.0437182,-0.526181,0.949769,0.740358,-0.00901457,0.0108989,0.672064,-0.551481,-0.397872,-0.282993,0.0146331,-0.44068,0.939956,1.51814,0.343113,-0.145518,-0.349182,1.10437,-0.400714,-0.689193,0.583756,0.329662,0.0367118,0.645824,-0.589938,0.179458,1
1.02191,-0.511687,-1.94509,-1.10198,2.69946,1.30225,-0.516087,0.990569,-0.511703,-1.99388,-1.08372,2.67407,1.31735,-0.470238,0.997462,-0.533869,-1.99303,-1.05566,2.63197,1.34046,-0.485187,-0.68913,0.553608,-0.452295,0.119594,0.759233,-0.513761,0.714501,-0.68913,0.553608,-0.452295,0.119594,0.759233,-0.513761,0.714501,0.0379603,-0.527939,0.950087,0.742023,-0.00568333,0.00802222,0.670302,-0.53068,-0.122605,0.028249,0.0346391,-0.442076,0.934962,1.89535,-0.132213,-0.473062,0.249725,0.852609,-0.386666,0.244523,0.221816,0.47937,-0.463193,0.674903,-0.382135,-0.309001,1
1.03748,-0.566539,-1.95489,-1.07504,2.71533,1.36967,-0.51319,0.983986,-0.507275,-1.98107,-1.08913,2.68385,1.30845,-0.474837,0.993387,-0.528784,-1.99602,-1.05686,2.63942,1.33614,-0.479841,-0.231691,0.548373,-0.216106,-0.340931,0.848437,-0.428648,0.464376,-0.231691,0.548373,-0.216106,-0.340931,0.848437,-0.428648,0.464376,0.0344613,-0.527091,0.952397,0.742104,-0.00372829,0.00583034,0.670249,0.0139708,0.0881525,0.0829968,0.0540127,-0.44302,0.933324,1.83937,-0.0896273,-0.155532,0.858927,0.549558,-0.33661,0.44093,-0.377547,0.411364,-0.181786,0.759023,0.335234,-0.333495,1
1.04498,-0.558937,-1.93462,-1.04381,2.72793,1.36139,-0.47898,0.984192,-0.507723,-1.96605,-1.08469,2.69254,1.30753,-0.484524,0.992125,-0.524197,-1.99647,-1.0622,2.64778,1.33172,-0.476703,-0.0564239,0.453196,0.0939513,-0.780391,0.953503,-0.521239,0.234505,-0.0564239,0.453196,0.0939513,-0.780391,0.953503,-0.521239,0.234505,0.0357355,-0.52683,0.952454,0.740124,-0.00122391,0.0029715,0.672462,0.251015,0.0436899,-0.0601771,0.0537636,-0.444749,0.935608,-0.0245378,-0.170323,0.225021,1.17796,0.253824,-0.245566,0.528591,-0.347396,0.618496,0.18398,0.801507,0.296676,-0.0227719,1
1.02848,-0.562559,-1.93629,-1.05944,2.73511,1.3726,-0.471803,1.0022,-0.521764,-1.95398,-1.07856,2.70245,1.32154,-0.495309,0.990673,-0.519976,-1.99377,-1.06913,2.65673,1.32628,-0.475576,-0.242561,0.460678,0.460551,-0.725426,0.983707,-0.646755,0.0268222,-0.242561,0.460678,0.460551,-0.725426,0.983707,-0.646755,0.0268222,0.0378419,-0.526562,0.952285,0.737665,0.00164147,-0.000872624,0.675165,0.225409,0.0988651,0.0166406,0.0537636,-0.444749,0.935608,0,0,0,1.19088,0.0418808,-0.159956,0.378092,-0.425829,0.574728,0.0969163,0.783764,0.463132,0.0377375,1
1.01127,-0.55797,-1.93488,-1.05406,2.74301,1.37158,-0.501509,1.02358,-0.542222,-1.94642,-1.07062,2.71396,1.34345,-0.497234,0.988809,-0.516444,-1.98786,-1.07412,2.66576,1.32109,-0.476854,-0.167463,0.316331,0.791286,-0.383384,0.971609,-0.491798,-0.278223,-0.167463,0.316331,0.791286,-0.383384,0.971609,-0.491798,-0.278223,0.0387511,-0.526331,0.952351,0.736589,0.00285298,-0.002724,0.676329,0.191829,0.0837255,0.012661,0.0537636,-0.444749,0.935608,0,0,0,0.928339,-0.0457483,-0.0907821,0.224658,-0.415255,0.529837,0.200629,0.77256,0.504945,-0.246549,1
1.02684,-0.565308,-1.92866,-1.03239,2.75052,1.33388,-0.520764,1.03205,-0.555905,-1.941,-1.06117,2.72515,1.35978,-0.491486,0.990265,-0.516128,-1.97983,-1.07618,2.67487,1.31939,-0.480684,0.432914,-0.204434,0.937351,-0.086515,1.00039,0.0778045,-0.530489,0.432914,-0.204434,0.937351,-0.086515,1.00039,0.0778045,-0.530489,0.0403389,-0.5252,0.953493,0.734532,0.00294735,-0.00695056,0.678532,0.170936,0.127581,0.104155,0.0537636,-0.444749,0.935608,0,0,0,0.554968,-0.0688587,-0.0338052,0.365786,-0.491805,0.51167,0.437912,0.756461,0.144826,-0.4008,1
1.05701,-0.575733,-1.96011,-1.01307,2.74995,1.3764,-0.532289,1.02935,-0.560676,-1.93711,-1.05338,2.73454,1.36479,-0.490555,0.996931,-0.520866,-1.97134,-1.07563,2.68445,1.32336,-0.485125,0.966736,-0.774659,0.903888,0.181753,1.07011,0.728434,-0.439224,0.966736,-0.774659,0.903888,0.181753,1.07011,0.728434,-0.439224,0.0423452,-0.524851,0.953784,0.731341,-0.000320435,-0.0125394,0.681896,0.233804,0.0439682,0.0271816,0.0853508,-0.506642,0.919014,3.18188,-6.23471,-1.67163,0.54156,-0.704134,-0.154561,0.600821,-0.548666,0.112278,0.625676,0.654925,0.530374,-0.471635,1
1.07751,-0.59052,-1.95324,-1.02419,2.73316,1.40191,-0.523307,1.02785,-0.563164,-1.93669,-1.0453,2.74157,1.36292,-0.500356,1.00579,-0.52902,-1.96344,-1.07276,2.69454,1.33156,-0.487675,0.952743,-0.975169,0.814191,0.420596,1.11062,1.02347,-0.13823,0.952743,-0.975169,0.814191,0.420596,1.11062,1.02347,-0.13823,0.0437815,-0.526658,0.95193,0.723765,-0.0113308,-0.024006,0.689535,0.0854956,-0.167758,-0.142924,0.0946209,-0.51753,0.91706,0.953563,-1.12,-0.200926,0.660711,-1.24042,-0.292787,0.717272,-0.615,0.102015,0.485732,0.386216,0.703478,-0.356318,1
1.08224,-0.592432,-1.95678,-1.01786,2.72336,1.41452,-0.519055,1.03632,-0.568462,-1.94104,-1.03466,2.74478,1.36438,-0.513921,1.01282,-0.537374,-1.95648,-1.06828,2.70466,1.34033,-0.488613,0.599714,-0.845246,0.702857,0.540403,1.08409,0.887056,-0.0704448,0.599714,-0.845246,0.702857,0.540403,1.08409,0.887056,-0.0704448,0.0436881,-0.527356,0.951292,0.721387,-0.0151474,-0.0275858,0.691817,0.071977,-0.143943,-0.124171,0.0988075,-0.529021,0.919276,0.376056,-1.03216,0.199009,0.887263,-1.64383,-0.366742,0.694194,-0.550579,-0.00302498,0.50424,0.18706,0.741852,-0.304429,1
1.08217,-0.588447,-1.97081,-1.00954,2.72305,1.42341,-0.515809,1.05277,-0.576648,-1.94825,-1.02516,2.74235,1.37621,-0.522154,1.01727,-0.544361,-1.95093,-1.06282,2.71421,1.34698,-0.490668,0.383639,-0.682024,0.516302,0.635424,0.992474,0.578346,-0.351426,0.383639,-0.682024,0.516302,0.635424,0.992474,0.578346,-0.351426,0.0402475,-0.529388,0.950479,0.716744,-0.026903,-0.0382195,0.695769,-0.213216,-0.143659,-0.00836103,0.10224,-0.544714,0.918058,0.386618,-1.76786,-0.137205,0.987047,-1.93294,-0.370943,0.648959,-0.440856,-0.198883,0.532807,0.0884552,0.764297,-0.251412,1
1.08547,-0.589754,-1.96713,-1.00144,2.73475,1.42818,-0.522971,1.06859,-0.584424,-1.95495,-1.0196,2.73566,1.39446,-0.523128,1.02157,-0.550504,-1.94756,-1.05622,2.72246,1.35172,-0.495497,0.534899,-0.651331,0.236427,0.781989,0.809553,0.459098,-0.668274,0.534899,-0.651331,0.236427,0.781989,0.809553,0.459098,-0.668274,0.0376185,-0.530809,0.950389,0.716106,-0.0331582,-0.0440913,0.695808,-0.181294,-0.122954,-0.00964053,0.110038,-0.556648,0.920399,0.80566,-1.23287,0.241898,0.99726,-1.99289,-0.287374,0.639017,-0.392496,-0.195718,0.547788,0.122933,0.764617,-0.274744,1
1.10138,-0.596355,-1.9577,-1.00193,2.71951,1.43188,-0.52266,1.07849,-0.588871,-1.9601,-1.01538,2.72951,1.41037,-0.520982,1.02828,-0.556852,-1.94682,-1.04865,2.72841,1.35713,-0.501983,0.888406,-0.718057,-0.0518405,0.851819,0.505639,0.692236,-0.731612,0.888406,-0.718057,-0.0518405,0.851819,0.505639,0.692236,-0.731612,0.0357239,-0.532413,0.950065,0.716385,-0.0390238,-0.048745,0.694906,-0.0830892,-0.195495,-0.0534106,0.116588,-0.566354,0.922994,0.645041,-0.955871,0.255516,0.876667,-1.75719,-0.121691,0.731058,-0.395031,-0.1088,0.467216,-0.0890177,0.747555,-0.206769,1
1.11327,-0.606571,-1.97174,-0.989828,2.70191,1.43919,-0.537377,1.08442,-0.590707,-1.96363,-1.01,2.72657,1.42073,-0.520188,1.03765,-0.563657,-1.94825,-1.04114,2.73133,1.36534,-0.507851,1.1223,-0.753241,-0.243102,0.781036,0.156749,1.05636,-0.554149,1.1223,-0.753241,-0.243102,0.781036,0.156749,1.05636,-0.554149,0.0350972,-0.533184,0.949797,0.716574,-0.0417122,-0.0505816,0.694423,-0.0692755,-0.16672,-0.0479481,0.118042,-0.577769,0.931517,0.147287,-1.15659,0.863575,0.547275,-1.20949,0.18036,0.756244,-0.429145,-0.234861,0.513089,-0.294218,0.738512,-0.295263,1
1.11894,-0.602494,-1.98279,-0.973945,2.6871,1.45098,-0.533946,1.09113,-0.593033,-1.96527,-1.00383,2.72352,1.42763,-0.52238,1.04794,-0.570226,-1.95094,-1.03438,2.73162,1.37603,-0.511852,1.10796,-0.676251,-0.332137,0.68932,-0.0763907,1.24523,-0.331157,1.10796,-0.676251,-0.332137,0.68932,-0.0763907,1.24523,-0.331157,0.035084,-0.535178,0.947824,0.716293,-0.0512977,-0.0530145,0.693889,0.0794448,-0.143211,-0.141877,0.117599,-0.587401,0.942303,-0.041058,-0.893961,1.00102,0.434827,-1.1741,0.375518,0.710003,-0.322672,-0.318499,0.604393,-0.445199,0.749468,-0.220946,1
1.11965,-0.59498,-2.00117,-0.960486,2.67976,1.46303,-0.538019,1.10027,-0.596954,-1.96745,-0.996668,2.71569,1.43394,-0.526782,1.05751,-0.575793,-1.95408,-1.02817,2.73057,1.38736,-0.514318,0.975988,-0.540947,-0.346486,0.659249,-0.144935,1.2106,-0.212919,0.975988,-0.540947,-0.346486,0.659249,-0.144935,1.2106,-0.212919,0.035237,-0.535622,0.947188,0.71612,-0.0541599,-0.0532684,0.693831,0.0694104,-0.121739,-0.122464,0.103981,-0.592622,0.956098,-1.44564,-0.554243,1.46451,0.193728,-1.06178,0.607406,0.621419,-0.191864,-0.470903,0.676846,-0.508091,0.756687,-0.237011,1
1.12002,-0.567328,-2.00653,-0.95199,2.6739,1.47379,-0.517254,1.10943,-0.599661,-1.97389,-0.986995,2.70346,1.44174,-0.531182,1.06617,-0.580378,-1.95704,-1.02207,2.72897,1.39788,-0.516319,0.905406,-0.459019,-0.298623,0.661763,-0.197534,1.07904,-0.21985,0.905406,-0.459019,-0.298623,0.661763,-0.197534,1.07904,-0.21985,0.0357222,-0.536099,0.945935,0.715745,-0.0632698,-0.0525624,0.693501,0.0760275,-0.0546024,-0.0543665,0.0837481,-0.5926,0.965674,-1.93008,0.00210944,0.913489,-0.237776,-0.845187,0.834129,0.538489,0.130506,-0.494943,0.700819,-0.550708,0.759122,-0.00935032,1
1.06736,-0.563614,-2.01734,-0.943186,2.66995,1.48181,-0.503779,1.1149,-0.597009,-1.98468,-0.975027,2.69113,1.45151,-0.532439,1.07465,-0.584567,-1.95971,-1.0158,2.72622,1.40728,-0.518712,0.929469,-0.449263,-0.280711,0.693976,-0.381984,0.966959,-0.292681,0.929469,-0.449263,-0.280711,0.693976,-0.381984,0.966959,-0.292681,0.0363633,-0.536157,0.945474,0.715745,-0.0685754,-0.0515156,0.693075,0.0655089,-0.0464264,-0.047542,0.0609388,-0.590738,0.978311,-2.41102,0.196826,1.33574,-0.810852,-0.605764,1.01313,-0.072877,0.209528,-0.576349,0.726143,-0.562711,0.745309,0.149338,1
1.04656,-0.548316,-2.02307,-0.939895,2.65737,1.48688,-0.501709,1.11264,-0.587698,-1.99654,-0.963104,2.68153,1.46214,-0.52812,1.08332,-0.588494,-1.96289,-1.00889,2.72136,1.41603,-0.521675,0.94704,-0.40505,-0.399119,0.794227,-0.649242,0.932291,-0.344812,0.94704,-0.40505,-0.399119,0.794227,-0.649242,0.932291,-0.344812,0.037292,-0.536026,0.945268,0.71631,-0.0734327,-0.0493825,0.692148,0.120404,-0.0238446,-0.00253533,0.0359657,-0.590834,0.985481,-2.54055,-0.00972003,0.729354,-1.39258,-0.373482,1.08721,-0.367528,0.401785,-0.601835,0.689967,-0.639918,0.708458,0.199664,1
1.02805,-0.561121,-2.03284,-0.932155,2.65067,1.4851,-0.522579,1.09906,-0.574969,-2.007,-0.953123,2.67411,1.47187,-0.519468,1.09156,-0.591253,-1.96767,-1.00085,2.71439,1.42482,-0.524563,0.846797,-0.208807,-0.617028,0.936546,-0.843808,0.96819,-0.28567,0.846797,-0.208807,-0.617028,0.936546,-0.843808,0.96819,-0.28567,0.0380689,-0.535278,0.945702,0.717798,-0.0783048,-0.0454229,0.690341,0.0618197,0.0575625,0.0951826,0.0143539,-0.587116,0.993681,-2.17751,0.37457,0.826208,-1.84776,-0.117933,1.05379,-0.635118,0.301316,-0.651716,0.686928,-0.637217,0.602774,0.019841,1
1.02934,-0.546799,-2.03966,-0.923497,2.64293,1.49097,-0.524899,1.07625,-0.563951,-2.0159,-0.945239,2.66688,1.47933,-0.512226,1.09783,-0.591455,-1.97431,-0.991698,2.70632,1.43402,-0.526133,0.537292,0.136257,-0.806345,1.03714,-0.899178,1.01995,-0.072085,0.537292,0.136257,-0.806345,1.03714,-0.899178,1.01995,-0.072085,0.038055,-0.533286,0.947328,0.720223,-0.08372,-0.0392295,0.687554,-0.0695358,0.202255,0.250659,-0.00623863,-0.581555,1.00196,-2.00696,0.54196,0.80689,-2.13768,0.108274,0.978366,-0.684841,0.44656,-0.653561,0.68201,-0.633901,0.569552,0.0123359,1
1.02194,-0.574352,-2.05186,-0.91533,2.64113,1.47826,-0.547676,1.05313,-0.557679,-2.02413,-0.938387,2.65904,1.48392,-0.512002,1.09994,-0.588436,-1.98222,-0.98206,2.69816,1.44348,-0.525368,-0.0320425,0.488465,-0.898998,1.04957,-0.872261,1.02968,0.214005,-0.0320425,0.488465,-0.898998,1.04957,-0.872261,1.02968,0.214005,0.037823,-0.532045,0.948369,0.7215,-0.0863566,-0.0358965,0.68607,-0.0574129,0.172939,0.211127,-0.0276045,-0.575177,1.01005,-2.14045,0.638981,0.810403,-2.21898,0.278742,0.892116,-0.780028,0.140842,-0.696431,0.667305,-0.570217,0.347805,-0.223081,1
1.01649,-0.541204,-2.05927,-0.909559,2.63368,1.47801,-0.530966,1.03706,-0.556023,-2.03248,-0.931354,2.65144,1.48566,-0.518869,1.09619,-0.582927,-1.99061,-0.972647,2.69023,1.45268,-0.522583,-0.723118,0.688298,-0.91729,0.994133,-0.846817,0.966696,0.375689,-0.723118,0.688298,-0.91729,0.994133,-0.846817,0.966696,0.375689,0.0324663,-0.525258,0.954294,0.72805,-0.0960114,-0.0211127,0.678439,-0.593146,0.4122,0.466285,-0.0481421,-0.568923,1.0169,-1.97729,0.602148,0.65955,-2.19629,0.397976,0.834397,-0.796963,0.417226,-0.686585,0.630883,-0.565472,0.253359,-0.0838231,1
1.00313,-0.529754,-2.06989,-0.925466,2.63623,1.41498,-0.51166,1.0279,-0.556228,-2.04133,-0.924181,2.64513,1.48369,-0.527551,1.08699,-0.576585,-1.99904,-0.963826,2.68241,1.46094,-0.519613,-1.22825,0.685751,-0.910047,0.922703,-0.847626,0.833775,0.276048,-1.22825,0.685751,-0.910047,0.922703,-0.847626,0.833775,0.276048,0.026242,-0.520549,0.958422,0.734075,-0.101624,-0.0107582,0.671335,-0.817799,0.388762,0.444289,-0.0689925,-0.563985,1.02384,-2.16802,0.513415,0.722079,-2.14274,0.485788,0.770739,-0.838624,0.468305,-0.70847,0.383597,-0.46178,-0.459557,0.07953,1
0.991557,-0.517044,-2.07826,-0.938495,2.63925,1.4124,-0.500141,1.02112,-0.553402,-2.05061,-0.919165,2.64047,1.475,-0.531231,1.07492,-0.570971,-2.00744,-0.955535,2.67462,1.46772,-0.51851,-1.37343,0.542224,-0.908516,0.877132,-0.840787,0.650667,-0.0130422,-1.37343,0.542224,-0.908516,0.877132,-0.840787,0.650667,-0.0130422,0.0187484,-0.516451,0.962072,0.741471,-0.106056,-0.000873878,0.662549,-0.686065,0.336624,0.374955,-0.0895124,-0.558264,1.0294,-2.07393,0.578162,0.561855,-2.08939,0.559295,0.739414,-0.833663,0.539271,-0.708283,0.170395,-0.353632,-0.553224,0.183686,1
0.978194,-0.51545,-2.08617,-0.910914,2.63683,1.41402,-0.505399,1.01309,-0.544458,-2.05997,-0.919033,2.63773,1.45747,-0.526368,1.06278,-0.566765,-2.01589,-0.947579,2.66708,1.4725,-0.519945,-1.2654,0.38224,-0.922607,0.848721,-0.796158,0.405792,-0.275919,-1.2654,0.38224,-0.922607,0.848721,-0.796158,0.405792,-0.275919,0.0111323,-0.513346,0.965023,0.74961,-0.109051,0.00784994,0.652788,-0.753996,0.266297,0.311106,-0.109901,-0.552822,1.03311,-2.03342,0.542786,0.369399,-2.07393,0.573769,0.667719,-0.845902,0.513158,-0.702792,0.366652,-0.302499,-0.584833,0.145455,1
0.96677,-0.53635,-2.09656,-0.897348,2.64107,1.41667,-0.527906,1.00282,-0.532668,-2.06914,-0.922007,2.63704,1.4362,-0.516735,1.05185,-0.563344,-2.02453,-0.940176,2.66014,1.47434,-0.522666,-1.11489,0.360657,-0.945976,0.762155,-0.713559,0.023905,-0.310679,-1.11489,0.360657,-0.945976,0.762155,-0.713559,0.023905,-0.310679,0.00423043,-0.511124,0.967524,0.757661,-0.110257,0.015329,0.643085,-0.755902,0.153423,0.26173,-0.130772,-0.547427,1.03676,-2.08116,0.537978,0.364028,-2.06987,0.563402,0.58219,-0.850842,0.269946,-0.720292,0.428284,-0.190718,-0.576664,-0.0523991,1
0.95722,-0.543815,-2.10603,-0.89355,2.63476,1.41868,-0.544303,0.991089,-0.525038,-2.07811,-0.921343,2.63758,1.42106,-0.510999,1.04191,-0.559153,-2.03336,-0.9342,2.65414,1.47183,-0.524347,-1.04545,0.53303,-0.965327,0.550141,-0.595348,-0.520954,-0.0733111,-1.04545,0.53303,-0.965327,0.550141,-0.595348,-0.520954,-0.0733111,-0.00137783,-0.509371,0.970068,0.764852,-0.10899,0.0218965,0.634542,-0.602321,0.15324,0.286608,-0.150712,-0.541953,1.03911,-1.94676,0.534458,0.229314,-2.05533,0.549383,0.486256,-0.846881,0.153383,-0.72673,0.4065,-0.193882,-0.531496,-0.199554,1
0.948277,-0.518952,-2.1145,-0.881907,2.62593,1.43174,-0.540278,0.979151,-0.525179,-2.08711,-0.913461,2.63792,1.41606,-0.51462,1.03216,-0.553177,-2.04231,-0.930357,2.64938,1.4645,-0.523441,-1.06445,0.743924,-0.9733,0.302894,-0.447852,-1.02631,0.243244,-1.06445,0.743924,-0.9733,0.302894,-0.447852,-1.02631,0.243244,-0.00563099,-0.507791,0.972919,0.770858,-0.104971,0.0277723,0.627685,-0.479689,0.167001,0.317437,-0.171627,-0.536324,1.04014,-2.12282,0.57135,0.104386,-2.05412,0.545354,0.384235,-0.838842,0.342254,-0.721884,0.484502,-0.234536,-0.327563,-0.168366,1
0.938128,-0.525063,-2.12323,-0.88549,2.62861,1.41675,-0.53267,0.96792,-0.529481,-2.09631,-0.902301,2.63673,1.41751,-0.524851,1.02204,-0.546192,-2.05129,-0.927888,2.64597,1.45415,-0.52066,-1.12278,0.767329,-0.972724,0.237428,-0.304151,-1.20033,0.350431,-1.12278,0.767329,-0.972724,0.237428,-0.304151,-1.20033,0.350431,-0.00941163,-0.506411,0.975895,0.776163,-0.099298,0.0328503,0.621797,-0.494238,0.150056,0.311566,-0.192592,-0.529909,1.04044,-2.11174,0.646143,0.0312067,-2.05657,0.560644,0.275947,-0.839153,0.211291,-0.719397,0.423984,-0.173625,-0.373988,-0.120101,1
0.927424,-0.559656,-2.13371,-0.892942,2.63505,1.40851,-0.537527,0.95761,-0.53165,-2.10554,-0.893276,2.63386,1.4204,-0.533983,1.01144,-0.540217,-2.06028,-0.924823,2.64364,1.44401,-0.518477,-1.17107,0.545481,-0.973336,0.412131,-0.207582,-1.01351,0.139894,-1.17107,0.545481,-0.973336,0.412131,-0.207582,-1.01351,0.139894,-0.0111777,-0.50583,0.977248,0.778529,-0.0965293,0.0349722,0.619154,-0.417784,0.129569,0.263472,-0.212833,-0.524369,1.04023,-2.06986,0.566519,-0.0220771,-2.05786,0.566493,0.180462,-0.840115,-0.194381,-0.734314,0.31881,-0.0858973,-0.354989,-0.1905,1
0.916478,-0.534593,-2.14295,-0.873033,2.63931,1.40793,-0.524678,0.947744,-0.531848,-2.11468,-0.888272,2.63128,1.42093,-0.537232,1.00056,-0.536615,-2.0693,-0.919889,2.64184,1.43631,-0.518955,-1.18394,0.258785,-0.979931,0.637948,-0.185137,-0.681872,-0.213895,-1.18394,0.258785,-0.979931,0.637948,-0.185137,-0.681872,-0.213895,-0.0166003,-0.505082,0.979728,0.784543,-0.0917997,0.0385905,0.612026,-0.549997,0.0824339,0.222797,-0.233394,-0.51879,1.03874,-1.7671,0.47943,-0.128112,-2.05886,0.57234,0.0899085,-0.840818,0.0202145,-0.736577,0.468562,-0.0253247,-0.28373,-0.057234,1
0.905664,-0.519593,-2.15123,-0.868006,2.61265,1.39372,-0.508683,0.937698,-0.534481,-2.1239,-0.885897,2.63102,1.41733,-0.535484,0.989724,-0.534926,-2.07837,-0.913518,2.63995,1.43142,-0.522028,-1.1649,0.118817,-0.985675,0.734219,-0.220949,-0.399876,-0.433634,-1.1649,0.118817,-0.985675,0.734219,-0.220949,-0.399876,-0.433634,-0.0237164,-0.504775,0.981585,0.791745,-0.0889911,0.0414946,0.602909,-0.693089,0.0359423,0.168735,-0.258001,-0.517577,1.03796,-2.78507,0.137363,-0.0882385,-2.10091,0.527961,0.0105713,-0.840607,0.153328,-0.72863,0.455122,-0.273022,-0.377056,0.133446,1
0.89485,-0.517833,-2.16023,-0.881894,2.62084,1.37538,-0.51812,0.927239,-0.537201,-2.13324,-0.882994,2.63136,1.41074,-0.530734,0.979106,-0.534027,-2.08748,-0.907012,2.63783,1.42838,-0.525915,-1.13762,0.0790488,-0.986818,0.679737,-0.237525,-0.270207,-0.410469,-1.13762,0.0790488,-0.986818,0.679737,-0.237525,-0.270207,-0.410469,-0.0314775,-0.504424,0.983067,0.799472,-0.0874895,0.0444372,0.592634,-0.746824,0.0330774,0.136466,-0.273533,-0.508874,1.03213,-1.57946,0.884969,-0.593127,-2.07862,0.528026,-0.0964318,-0.842562,0.161944,-0.727562,0.251176,-0.169834,-0.529967,0.0779573,1
0.884231,-0.504743,-2.16873,-0.880267,2.61681,1.37048,-0.516915,0.916504,-0.533776,-2.14246,-0.878771,2.62877,1.4023,-0.524198,0.968674,-0.533814,-2.0966,-0.901335,2.63593,1.42571,-0.528855,-1.12357,-0.0241902,-0.990045,0.559998,-0.17832,-0.304213,-0.240442,-1.12357,-0.0241902,-0.990045,0.559998,-0.17832,-0.304213,-0.240442,-0.0433006,-0.504221,0.984423,0.81049,-0.0851166,0.048629,0.577492,-0.874797,-0.0299617,0.0423732,-0.29369,-0.504565,1.02868,-2.10712,0.45043,-0.359891,-2.04729,0.514773,-0.190227,-0.844427,0.290704,-0.721273,0.210682,-0.191234,-0.552364,0.119396,1
0.873576,-0.515992,-2.1773,-0.871765,2.61481,1.36362,-0.509166,0.9057,-0.525089,-2.15137,-0.876258,2.62359,1.39185,-0.518502,0.958288,-0.534421,-2.10578,-0.896513,2.63459,1.42232,-0.530005,-1.12623,-0.100864,-0.996369,0.490389,-0.117281,-0.420266,-0.0264395,-1.12623,-0.100864,-0.996369,0.490389,-0.117281,-0.420266,-0.0264395,-0.0511281,-0.504841,0.98457,0.816811,-0.0826402,0.0503718,0.568729,-0.893519,-0.0813243,-0.0107909,-0.313882,-0.498348,1.02319,-2.34329,0.721476,-0.637168,-2.02044,0.515014,-0.290929,-0.847115,0.184291,-0.715219,0.247482,-0.197822,-0.586996,0.208385,1
0.861803,-0.531908,-2.18836,-0.872413,2.61454,1.35873,-0.513108,0.894921,-0.51745,-2.16012,-0.876502,2.61927,1.38074,-0.515626,0.946443,-0.534238,-2.11617,-0.891484,2.63294,1.41665,-0.528359,-1.08594,0.0167502,-0.953324,0.461108,-0.151331,-0.520493,0.150924,-1.08594,0.0167502,-0.953324,0.461108,-0.151331,-0.520493,0.150924,-0.0595534,-0.50532,0.985055,0.823053,-0.078842,0.0524559,0.560014,-0.812342,-0.0209305,0.0417439,-0.334215,-0.492194,1.01634,-2.02601,0.613253,-0.683335,-2.0029,0.537215,-0.400173,-0.846407,0.0232969,-0.72186,0.190708,-0.18399,-0.57916,0.152502,1
0.85047,-0.517227,-2.19852,-0.878375,2.6195,1.35288,-0.517926,0.884106,-0.515048,-2.16901,-0.876627,2.61708,1.37141,-0.51439,0.934894,-0.531644,-2.12615,-0.887168,2.63029,1.40962,-0.525564,-1.05888,0.237772,-0.914726,0.395705,-0.242963,-0.644509,0.25617,-1.05888,0.237772,-0.914726,0.395705,-0.242963,-0.644509,0.25617,-0.0664936,-0.50472,0.986493,0.828636,-0.0744,0.0556292,0.552025,-0.684269,0.0764069,0.12976,-0.355294,-0.486858,1.01118,-2.1312,0.539465,-0.521054,-1.99456,0.561029,-0.481611,-0.844242,0.144176,-0.72372,0.0879331,-0.107927,-0.567424,0.0763835,1
0.83929,-0.51414,-2.20821,-0.889257,2.61868,1.34513,-0.514149,0.873108,-0.517402,-2.17835,-0.875693,2.61625,1.36436,-0.513637,0.923563,-0.527621,-2.13578,-0.884144,2.62716,1.40143,-0.522747,-1.03886,0.368915,-0.882868,0.277205,-0.286499,-0.750624,0.258293,-1.03886,0.368915,-0.882868,0.277205,-0.286499,-0.750624,0.258293,-0.0723158,-0.50373,0.988252,0.833883,-0.0691092,0.0590981,0.544399,-0.586693,0.115979,0.158705,-0.376369,-0.483208,1.00339,-2.06769,0.358077,-0.764893,-1.99696,0.569672,-0.564138,-0.842725,0.134805,-0.724321,-0.0511313,-0.0848072,-0.563032,0.0859871,1
0.828501,-0.521387,-2.21774,-0.903449,2.60914,1.33562,-0.513732,0.861894,-0.52014,-2.18819,-0.876607,2.61638,1.35823,-0.513856,0.912378,-0.524057,-2.1452,-0.882013,2.6243,1.39292,-0.520378,-1.02548,0.326762,-0.863622,0.195364,-0.262193,-0.780269,0.217208,-1.02548,0.326762,-0.863622,0.195364,-0.262193,-0.780269,0.217208,-0.0780572,-0.503153,0.989567,0.839024,-0.0633335,0.0618805,0.536841,-0.576976,0.0847346,0.117278,-0.394644,-0.476213,0.99093,-1.47084,0.56306,-1.00247,-2.03607,0.543528,-0.664988,-0.838775,0.0266937,-0.725437,-0.214352,-0.151609,-0.573032,0.0664646,1
0.819187,-0.491623,-2.22557,-0.905786,2.59489,1.32974,-0.506846,0.850651,-0.519623,-2.19818,-0.881717,2.61631,1.35174,-0.514508,0.902675,-0.521864,-2.15338,-0.880343,2.62213,1.38574,-0.518565,-1.07245,0.16187,-0.905535,0.168659,-0.213351,-0.775504,0.17874,-1.07245,0.16187,-0.905535,0.168659,-0.213351,-0.775504,0.17874,-0.0834335,-0.503066,0.990244,0.843486,-0.0582499,0.063665,0.530174,-0.673178,0.00760133,0.0293011,-0.41696,-0.472388,0.983988,-2.30802,0.395608,-0.71795,-2.04817,0.534964,-0.755578,-0.834883,0.302418,-0.721866,-0.254425,-0.272407,-0.559995,0.117194,1
0.808508,-0.49085,-2.23386,-0.905,2.59077,1.32021,-0.502198,0.839662,-0.515782,-2.20786,-0.889976,2.61352,1.34445,-0.513889,0.892572,-0.52102,-2.16197,-0.879165,2.62048,1.37874,-0.517202,-1.11274,0.031904,-0.950998,0.0928006,-0.148773,-0.743849,0.121355,-1.11274,0.031904,-0.950998,0.0928006,-0.148773,-0.743849,0.121355,-0.0896483,-0.50371,0.990112,0.848174,-0.0528265,0.0645174,0.523113,-0.748563,-0.0583838,-0.0600298,-0.436631,-0.466853,0.972764,-2.05527,0.578294,-1.17271,-2.04675,0.516949,-0.843692,-0.840647,0.301694,-0.718903,-0.258346,-0.297081,-0.585324,0.150043,1
0.799118,-0.547419,-2.24416,-0.925141,2.59318,1.31824,-0.541581,0.829093,-0.510031,-2.21701,-0.898319,2.60712,1.33673,-0.511953,0.88215,-0.520691,-2.17094,-0.879225,2.61931,1.37193,-0.516354,-1.14251,0.0387212,-0.988178,-0.0903983,-0.108811,-0.732414,0.0669304,-1.14251,0.0387212,-0.988178,-0.0903983,-0.108811,-0.732414,0.0669304,-0.096182,-0.504834,0.989302,0.852962,-0.0469043,0.0647292,0.515816,-0.635346,-0.04516,-0.0509759,-0.455414,-0.460399,0.957593,-1.842,0.632871,-1.4878,-2.02452,0.522201,-0.973074,-0.830323,-0.267284,-0.732207,-0.459162,-0.261289,-0.536872,-0.252277,1
0.790874,-0.491244,-2.25322,-0.928586,2.57836,1.33562,-0.52401,0.818916,-0.506154,-2.2258,-0.905247,2.59946,1.3297,-0.511753,0.871534,-0.519799,-2.18014,-0.881199,2.61803,1.36508,-0.515735,-1.15603,0.145691,-1.00521,-0.318347,-0.163488,-0.748574,0.0669554,-1.15603,0.145691,-1.00521,-0.318347,-0.163488,-0.748574,0.0669554,-0.102293,-0.506097,0.988089,0.857641,-0.040186,0.0648664,0.508557,-0.667602,-0.0770284,-0.150098,-0.475388,-0.454362,0.944228,-2.06727,0.624823,-1.38325,-2.00129,0.544523,-1.10933,-0.806598,0.28555,-0.730759,-0.473872,-0.396702,-0.294689,-0.0827482,1
0.780118,-0.514112,-2.26193,-0.939204,2.58526,1.321,-0.515274,0.809068,-0.507917,-2.23467,-0.912259,2.59321,1.32527,-0.516035,0.860877,-0.517777,-2.1894,-0.884968,2.61577,1.35805,-0.514915,-1.15284,0.280967,-1.00112,-0.484267,-0.313661,-0.773257,0.107437,-1.15284,0.280967,-1.00112,-0.484267,-0.313661,-0.773257,0.107437,-0.107535,-0.507227,0.986772,0.86206,-0.0325805,0.0655043,0.501497,-0.568075,-0.061642,-0.127768,-0.496556,-0.448625,0.932843,-2.04907,0.555407,-1.10208,-2.00179,0.56943,-1.18366,-0.80759,0.0366526,-0.725239,-0.542357,-0.305066,-0.370523,-0.00359446,1
