Afshin1997/kuka_rl_ros2/src/catch_and_throw/output_files/tm/nn_ema5.00_jvws1_realball_D24H10M12S08/recorded_data.csv
pure_target_joint_0,pure_target_joint_1,pure_target_joint_2,pure_target_joint_3,pure_target_joint_4,pure_target_joint_5,pure_target_joint_6,target_joint_0,target_joint_1,target_joint_2,target_joint_3,target_joint_4,target_joint_5,target_joint_6,pos_joint_0,pos_joint_1,pos_joint_2,pos_joint_3,pos_joint_4,pos_joint_5,pos_joint_6,vel_joint_0,vel_joint_1,vel_joint_2,vel_joint_3,vel_joint_4,vel_joint_5,vel_joint_6,vel_smooth_joint_0,vel_smooth_joint_1,vel_smooth_joint_2,vel_smooth_joint_3,vel_smooth_joint_4,vel_smooth_joint_5,vel_smooth_joint_6,ee_pos_x,ee_pos_y,ee_pos_z,ee_or_w,ee_or_x,ee_or_y,ee_or_z,ee_vel_x,ee_vel_y,ee_vel_z,ball_pos_x,ball_pos_y,ball_pos_z,ball_raw_vx,ball_raw_vy,ball_raw_vz,ball_ema_vx,ball_ema_vy,ball_ema_vz,action_0,action_1,action_2,action_3,action_4,action_5,action_6,command_published
1.71068,-1.01347,-1.77376,-1.1558,2.01073,1.17842,-0.936399,1.76285,-1.05189,-1.80479,-1.12671,1.9556,1.13227,-0.921309,1.78024,-1.0647,-1.81513,-1.11702,1.93722,1.11689,-0.91628,0,0,0,0,0,0,0,0,0,0,0,0,0,0,0.531053,-0.454447,0.694265,0.574534,0.175181,0.152595,0.784817,0,0,0,2.99726,-0.47422,0.365715,-3.22914,0.194135,5.93705,-3.21398,0.18152,5.74361,-0.695591,0.51234,0.413735,-0.387836,0.735139,0.615316,-0.201193,1
1.7092,-1.00804,-1.77482,-1.15509,2.01092,1.17377,-0.937221,1.7277,-1.02492,-1.78437,-1.14593,1.9924,1.16188,-0.931574,1.78024,-1.0647,-1.81513,-1.11702,1.93722,1.11689,-0.91628,0,0,0,0,0,0,0,0,0,0,0,0,0,0,0.531053,-0.454447,0.694265,0.574534,0.175181,0.152595,0.784817,0,0,0,2.96541,-0.471964,0.424424,-3.18494,0.225616,5.87089,-3.19048,0.216905,5.76391,-0.710419,0.566571,0.403106,-0.380703,0.736981,0.568815,-0.209411,1
1.70871,-1.00419,-1.77809,-1.15249,2.01029,1.17252,-0.939403,1.70945,-1.00844,-1.77537,-1.15461,2.01072,1.17462,-0.937561,1.78024,-1.0647,-1.81513,-1.11702,1.93722,1.11689,-0.91628,-5.79839e-07,-2.89723e-07,-6.74029e-09,-6.60554e-07,7.72321e-08,6.67116e-07,1.2459e-07,-5.79839e-07,-2.89723e-07,-6.74029e-09,-6.60554e-07,7.72321e-08,6.67116e-07,1.2459e-07,0.531053,-0.454447,0.694265,0.574534,0.175181,0.152595,0.784817,-2.13799e-07,-1.31228e-07,-2.84614e-07,2.93376,-0.470285,0.481296,-3.16498,0.167871,5.68713,-3.18734,0.210618,5.68946,-0.715306,0.605108,0.370382,-0.35471,0.730733,0.556237,-0.231236,1
1.69555,-0.985355,-1.77837,-1.14867,2.02113,1.18437,-0.943566,1.70554,-1.00044,-1.77734,-1.15218,2.01316,1.17579,-0.939898,1.76831,-1.0557,-1.80813,-1.12359,1.94976,1.12715,-0.919751,-0.954385,0.723331,0.558515,-0.524883,1.00214,0.816193,-0.277895,-0.954385,0.723331,0.558515,-0.524883,1.00214,0.816193,-0.277895,0.526531,-0.454805,0.698461,0.576204,0.171251,0.149119,0.785127,-0.610443,-0.0399734,0.593109,2.90282,-0.468715,0.537352,-3.09432,0.156981,5.60568,-3.16967,0.18827,5.57595,-0.727606,0.703397,0.297647,-0.250786,0.713706,0.572199,-0.238148,1
1.68363,-0.973281,-1.78113,-1.15229,2.03251,1.19224,-0.945008,1.69586,-0.987045,-1.77899,-1.15053,2.02127,1.18337,-0.942886,1.75658,-1.04628,-1.8016,-1.12977,1.96191,1.13661,-0.9233,-1.10774,0.889418,0.616486,-0.583828,1.14713,0.893388,-0.335184,-1.10774,0.889418,0.616486,-0.583828,1.14713,0.893388,-0.335184,0.516176,-0.455405,0.708192,0.580264,0.162332,0.14166,0.785414,-0.706216,-0.0328433,0.700115,2.87152,-0.466514,0.593002,-3.13013,0.220117,5.56493,-3.1408,0.186602,5.47501,-0.729501,0.729968,0.204743,-0.225147,0.706054,0.556307,-0.217082,1
1.67803,-0.968114,-1.78302,-1.14943,2.03796,1.19509,-0.94365,1.68521,-0.975008,-1.78091,-1.15067,2.03103,1.19098,-0.944308,1.75162,-1.0423,-1.79885,-1.13239,1.96704,1.14061,-0.924799,-0.991296,0.795924,0.551682,-0.522457,1.02654,0.799476,-0.29995,-0.991296,0.795924,0.551682,-0.522457,1.02654,0.799476,-0.29995,0.513076,-0.455526,0.711095,0.581493,0.159669,0.139493,0.785438,-0.563895,-0.0157337,0.553056,2.83955,-0.463885,0.647252,-3.19664,0.262895,5.42504,-3.13966,0.199282,5.37362,-0.735973,0.741841,0.158275,-0.170469,0.709173,0.544781,-0.188503,1
1.6676,-0.95806,-1.79009,-1.14945,2.0472,1.19554,-0.946214,1.67682,-0.966893,-1.78431,-1.15015,2.03891,1.19449,-0.94463,1.74244,-1.03396,-1.79456,-1.13633,1.97623,1.14762,-0.927808,-0.86728,0.787727,0.404676,-0.372583,0.867985,0.662237,-0.284172,-0.86728,0.787727,0.404676,-0.372583,0.867985,0.662237,-0.284172,0.507259,-0.455785,0.716831,0.584399,0.154616,0.136128,0.784883,-0.502305,-0.0179714,0.517929,2.80832,-0.46168,0.700155,-3.12302,0.220507,5.29026,-3.1415,0.220401,5.27618,-0.748408,0.758983,0.0447361,-0.131161,0.709714,0.479223,-0.184064,1
1.65712,-0.945656,-1.79286,-1.15076,2.05718,1.19376,-0.951242,1.66759,-0.957473,-1.78901,-1.14977,2.04739,1.19498,-0.94683,1.73204,-1.02334,-1.79166,-1.13918,1.98623,1.15554,-0.930962,-1.10068,1.13607,0.252646,-0.270182,1.0529,0.832972,-0.313671,-1.10068,1.13607,0.252646,-0.270182,1.0529,0.832972,-0.313671,0.500494,-0.456426,0.723561,0.588584,0.14877,0.133178,0.78339,-0.661882,-0.0798654,0.67968,2.77693,-0.459408,0.752551,-3.13909,0.227171,5.23965,-3.14974,0.234479,5.1755,-0.749164,0.776887,-0.0119789,-0.115862,0.709443,0.382174,-0.202801,1
1.64634,-0.934366,-1.79361,-1.15486,2.06623,1.19173,-0.953994,1.65705,-0.945934,-1.79235,-1.15146,2.05695,1.1937,-0.950673,1.72183,-1.01286,-1.78988,-1.14141,1.99599,1.16297,-0.933655,-1.05776,1.08037,0.130743,-0.205411,1.0088,0.740683,-0.257953,-1.05776,1.08037,0.130743,-0.205411,1.0088,0.740683,-0.257953,0.493905,-0.457316,0.729861,0.592864,0.143427,0.130589,0.781593,-0.630976,-0.110742,0.612647,2.74581,-0.457649,0.803756,-3.11272,0.175923,5.12048,-3.1405,0.222067,5.06807,-0.754846,0.78494,-0.0373641,-0.134459,0.702403,0.287528,-0.203384,1
1.63161,-0.918951,-1.79517,-1.15589,2.07916,1.19683,-0.959124,1.64535,-0.933335,-1.79381,-1.15409,2.0672,1.19351,-0.954588,1.70723,-0.997952,-1.78924,-1.14381,2.00984,1.17201,-0.937205,-0.931731,0.95145,0.00523802,-0.140067,0.882401,0.540045,-0.226241,-0.931731,0.95145,0.00523802,-0.140067,0.882401,0.540045,-0.226241,0.487647,-0.458518,0.73557,0.597247,0.138942,0.12844,0.779419,-0.607911,-0.14262,0.561689,2.71427,-0.456033,0.85371,-3.15392,0.161564,4.99536,-3.13093,0.197343,4.96516,-0.756231,0.790013,-0.0593729,-0.120785,0.693144,0.248279,-0.219195,1
1.62154,-0.908249,-1.80365,-1.14735,2.08806,1.19854,-0.963452,1.63277,-0.920129,-1.7969,-1.1535,2.07815,1.19598,-0.958923,1.69723,-0.987587,-1.78986,-1.14534,2.01923,1.17633,-0.939888,-0.944457,0.979021,-0.0586921,-0.143859,0.88651,0.408257,-0.253486,-0.944457,0.979021,-0.0586921,-0.143859,0.88651,0.408257,-0.253486,0.481639,-0.459904,0.740918,0.601855,0.1353,0.126788,0.776781,-0.59473,-0.147843,0.541993,2.68302,-0.453629,0.902582,-3.12474,0.240418,4.88724,-3.13275,0.194764,4.86013,-0.756857,0.793382,-0.137946,-0.0201283,0.688262,0.222155,-0.235632,1
1.61313,-0.898206,-1.81085,-1.13819,2.09597,1.20314,-0.964229,1.62196,-0.908414,-1.80333,-1.14719,2.08781,1.19926,-0.962564,1.68799,-0.977962,-1.79051,-1.14683,2.02782,1.17977,-0.942449,-1.00222,1.04895,-0.0777012,-0.170615,0.925478,0.323005,-0.285326,-1.00222,1.04895,-0.0777012,-0.170615,0.925478,0.323005,-0.285326,0.473505,-0.461757,0.748139,0.608417,0.130998,0.125002,0.772685,-0.546644,-0.122964,0.499642,2.65146,-0.45107,0.950699,-3.15595,0.255883,4.8117,-3.13734,0.206956,4.75122,-0.748627,0.797563,-0.203401,0.0864376,0.681456,0.233679,-0.2178,1
1.60375,-0.887546,-1.81756,-1.13905,2.1043,1.1982,-0.965456,1.61289,-0.898052,-1.81073,-1.14069,2.09607,1.20076,-0.964341,1.67817,-0.967681,-1.79149,-1.14822,2.03682,1.18277,-0.945324,-1.06709,1.11768,-0.127177,-0.124116,0.97142,0.310644,-0.319649,-1.06709,1.11768,-0.127177,-0.124116,0.97142,0.310644,-0.319649,0.46792,-0.463063,0.753091,0.613188,0.128386,0.124053,0.769498,-0.5856,-0.14771,0.527106,2.62018,-0.448793,0.99779,-3.12772,0.227731,4.70914,-3.14053,0.22675,4.65058,-0.744251,0.80135,-0.260669,0.0916966,0.674758,0.154338,-0.201321,1
1.59427,-0.876578,-1.82146,-1.14133,2.11197,1.19433,-0.972442,1.60373,-0.887469,-1.81686,-1.1394,2.10413,1.19847,-0.966896,1.66799,-0.956974,-1.79325,-1.14861,2.04607,1.18575,-0.948417,-1.08199,1.14137,-0.237049,0.0331783,0.981018,0.317735,-0.332528,-1.08199,1.14137,-0.237049,0.0331783,0.981018,0.317735,-0.332528,0.461988,-0.464784,0.758236,0.618652,0.125707,0.123176,0.765699,-0.620547,-0.207659,0.541847,2.58879,-0.447018,1.04387,-3.1395,0.177521,4.60779,-3.13795,0.228671,4.55526,-0.737189,0.803958,-0.282099,0.0727658,0.659016,0.0858031,-0.240251,1
1.58451,-0.865806,-1.82527,-1.13495,2.12018,1.19734,-0.979433,1.5942,-0.876627,-1.82143,-1.13916,2.11211,1.19605,-0.972443,1.65786,-0.946208,-1.79603,-1.14764,2.05526,1.1886,-0.951423,-1.05711,1.13188,-0.345361,0.163302,0.959328,0.285773,-0.30365,-1.05711,1.13188,-0.345361,0.163302,0.959328,0.285773,-0.30365,0.455877,-0.466992,0.7634,0.624685,0.123075,0.12241,0.761339,-0.627308,-0.250961,0.533287,2.55739,-0.44527,1.08846,-3.13983,0.174746,4.45939,-3.13932,0.207702,4.4493,-0.733504,0.804014,-0.292338,0.126912,0.649269,0.0874528,-0.280107,1
1.57511,-0.855201,-1.83226,-1.12296,2.12905,1.2069,-0.982266,1.5846,-0.865848,-1.82606,-1.13355,2.12035,1.19898,-0.978394,1.64794,-0.935499,-1.79961,-1.14612,2.06424,1.19078,-0.954265,-1.0392,1.12892,-0.405443,0.157901,0.937722,0.180704,-0.296867,-1.0392,1.12892,-0.405443,0.157901,0.937722,0.180704,-0.296867,0.452979,-0.468111,0.765818,0.627614,0.121866,0.122086,0.759174,-0.562112,-0.219021,0.476884,2.52629,-0.44378,1.13212,-3.10943,0.149062,4.36572,-3.13123,0.181038,4.33513,-0.728313,0.802979,-0.326552,0.231596,0.648109,0.161233,-0.280005,1
1.57093,-0.8502,-1.83748,-1.11756,2.13274,1.21017,-0.983305,1.57641,-0.856602,-1.83182,-1.12461,2.12776,1.20533,-0.981818,1.64329,-0.930448,-1.80142,-1.14541,2.06843,1.19159,-0.955594,-0.929877,1.01016,-0.362789,0.141289,0.839071,0.161694,-0.265636,-0.929877,1.01016,-0.362789,0.141289,0.839071,0.161694,-0.265636,0.447114,-0.470487,0.770661,0.633777,0.119927,0.121768,0.754398,-0.542495,-0.216145,0.452817,2.49516,-0.441616,1.17527,-3.11339,0.216326,4.31525,-3.12536,0.175912,4.23214,-0.723602,0.802481,-0.36062,0.278569,0.643069,0.185786,-0.277117,1
1.56163,-0.839478,-1.84426,-1.11306,2.14098,1.21038,-0.985038,1.56965,-0.84877,-1.83787,-1.11778,2.13388,1.2094,-0.983479,1.63351,-0.919724,-1.80541,-1.14417,2.07714,1.19248,-0.958951,-0.923826,1.01291,-0.376677,0.117636,0.821931,0.0839734,-0.317108,-0.923826,1.01291,-0.376677,0.117636,0.821931,0.0839734,-0.317108,0.441457,-0.472703,0.775352,0.640025,0.118388,0.121763,0.74935,-0.526727,-0.201028,0.439834,2.46375,-0.43936,1.2169,-3.14112,0.225648,4.16268,-3.12303,0.189695,4.1287,-0.718802,0.802454,-0.388478,0.311083,0.638478,0.179008,-0.260872,1
1.54979,-0.827614,-1.84869,-1.11098,2.15023,1.20408,-0.989658,1.56099,-0.839193,-1.84367,-1.11367,2.14123,1.20875,-0.98576,1.6229,-0.908016,-1.81013,-1.14111,2.08653,1.19444,-0.963185,-1.0926,1.20839,-0.509759,0.387919,0.969045,0.255911,-0.437921,-1.0926,1.20839,-0.509759,0.387919,0.969045,0.255911,-0.437921,0.434774,-0.475439,0.780883,0.647639,0.11585,0.121532,0.743217,-0.69493,-0.294459,0.580589,2.43263,-0.437282,1.25749,-3.11165,0.207818,4.05939,-3.12057,0.203968,4.0284,-0.731099,0.804016,-0.385636,0.301291,0.637024,0.0964501,-0.264726,1
1.53921,-0.816664,-1.85368,-1.10609,2.15756,1.19544,-0.998622,1.55011,-0.827843,-1.84883,-1.11028,2.14975,1.2035,-0.990744,1.61293,-0.896948,-1.81509,-1.13711,2.09539,1.19704,-0.967073,-1.01719,1.13233,-0.535475,0.454124,0.904724,0.290617,-0.385596,-1.01719,1.13233,-0.535475,0.454124,0.904724,0.290617,-0.385596,0.428094,-0.478222,0.786321,0.655183,0.112926,0.121165,0.73709,-0.676182,-0.292961,0.555082,2.40208,-0.435076,1.29741,-3.05498,0.2206,3.99181,-3.1095,0.217425,3.92803,-0.737141,0.802836,-0.385934,0.310215,0.621764,-0.0159431,-0.315489,1
1.52996,-0.806049,-1.85838,-1.0994,2.16531,1.1941,-1.00383,1.53954,-0.816748,-1.85361,-1.10564,2.15766,1.19727,-0.997684,1.60339,-0.88634,-1.82024,-1.13282,2.10383,1.19943,-0.970582,-0.996563,1.10817,-0.550812,0.450281,0.879185,0.219017,-0.356756,-0.996563,1.10817,-0.550812,0.450281,0.879185,0.219017,-0.356756,0.421589,-0.480946,0.791547,0.662478,0.110132,0.120859,0.731018,-0.660268,-0.283201,0.536511,2.37109,-0.433109,1.33624,-3.09944,0.196707,3.88341,-3.0981,0.212997,3.82457,-0.734321,0.802914,-0.381444,0.334197,0.614787,-0.0533818,-0.332526,1
1.5201,-0.795556,-1.86496,-1.09023,2.17478,1.19217,-1.00492,1.52981,-0.806079,-1.85885,-1.09878,2.16574,1.19395,-1.0028,1.5938,-0.875752,-1.82545,-1.12865,2.11218,1.20074,-0.97413,-1.02699,1.12608,-0.549562,0.431806,0.883112,0.0648738,-0.390493,-1.02699,1.12608,-0.549562,0.431806,0.883112,0.0648738,-0.390493,0.415204,-0.483615,0.796681,0.669711,0.107846,0.12075,0.724759,-0.659254,-0.277832,0.537635,2.33948,-0.430937,1.37396,-3.16098,0.21717,3.77146,-3.10085,0.210189,3.72873,-0.736992,0.801965,-0.39516,0.384224,0.626053,-0.0856618,-0.307942,1
1.51009,-0.784775,-1.87168,-1.0824,2.18296,1.19063,-1.00562,1.52006,-0.795484,-1.865,-1.09056,2.17446,1.19227,-1.00483,1.58398,-0.865039,-1.83061,-1.1245,2.1205,1.20063,-0.978171,-1.04448,1.13505,-0.540557,0.443335,0.873605,-0.0791041,-0.458649,-1.04448,1.13505,-0.540557,0.443335,0.873605,-0.0791041,-0.458649,0.405887,-0.487498,0.804297,0.68065,0.105393,0.120954,0.714828,-0.659189,-0.274689,0.545415,2.30858,-0.428643,1.41013,-3.09019,0.229439,3.61701,-3.10716,0.214171,3.61823,-0.738937,0.802642,-0.410702,0.421056,0.624633,-0.0999883,-0.274458,1
1.49997,-0.773955,-1.87703,-1.07571,2.19093,1.18687,-1.00884,1.51006,-0.784765,-1.87134,-1.08268,2.18291,1.19008,-1.00625,1.5741,-0.854294,-1.83574,-1.12002,2.12875,1.19961,-0.982597,-1.04113,1.13326,-0.543127,0.499267,0.869372,-0.133074,-0.47494,-1.04113,1.13326,-0.543127,0.499267,0.869372,-0.133074,-0.47494,0.402513,-0.488924,0.80711,0.684694,0.104629,0.121054,0.71105,-0.669263,-0.275828,0.560783,2.27741,-0.426052,1.4459,-3.11642,0.259033,3.57703,-3.11852,0.225132,3.50863,-0.741315,0.80339,-0.412814,0.443077,0.621737,-0.127384,-0.262438,1
1.49164,-0.764651,-1.88285,-1.07053,2.19596,1.18662,-1.01854,1.50042,-0.774334,-1.87715,-1.07609,2.19019,1.18775,-1.01046,1.56528,-0.844687,-1.84035,-1.11579,2.13612,1.19849,-0.986624,-0.83367,0.907446,-0.434902,0.399781,0.696139,-0.106558,-0.380303,-0.83367,0.907446,-0.434902,0.399781,0.696139,-0.106558,-0.380303,0.396764,-0.491241,0.811894,0.6915,0.103297,0.121215,0.704602,-0.538875,-0.209284,0.450844,2.2464,-0.423839,1.48084,-3.10113,0.221276,3.49402,-3.1144,0.234231,3.41131,-0.736346,0.800358,-0.425019,0.452583,0.598395,-0.118685,-0.31916,1
1.48115,-0.753312,-1.8841,-1.06411,2.20697,1.18016,-1.0181,1.4911,-0.764142,-1.88171,-1.07022,2.19745,1.18507,-1.016,1.55522,-0.833755,-1.84593,-1.10993,2.14465,1.19702,-0.9904,-1.06131,1.15149,-0.597265,0.640508,0.89922,-0.163063,-0.372527,-1.06131,1.15149,-0.597265,0.640508,0.89922,-0.163063,-0.372527,0.389908,-0.494089,0.81758,0.699258,0.101696,0.121201,0.697142,-0.721967,-0.294223,0.601737,2.21517,-0.421961,1.51447,-3.12352,0.187835,3.3628,-3.10801,0.227547,3.31728,-0.740704,0.804431,-0.381691,0.458196,0.623177,-0.168585,-0.276975,1
1.46661,-0.737581,-1.89375,-1.05511,2.21787,1.17811,-1.02721,1.48014,-0.752214,-1.8862,-1.06347,2.20694,1.18126,-1.02049,1.54049,-0.81779,-1.85429,-1.10089,2.15695,1.19459,-0.995732,-0.941913,1.02135,-0.537242,0.583033,0.781412,-0.160654,-0.346147,-0.941913,1.02135,-0.537242,0.583033,0.781412,-0.160654,-0.346147,0.382981,-0.49685,0.823309,0.706948,0.100072,0.121197,0.68958,-0.722664,-0.278238,0.601794,2.18367,-0.420161,1.54689,-3.14975,0.180024,3.2424,-3.12063,0.210546,3.22093,-0.738851,0.802084,-0.394638,0.457808,0.609264,-0.164766,-0.314737,1
1.46133,-0.731896,-1.8979,-1.04984,2.2226,1.18196,-1.02713,1.46892,-0.740093,-1.89237,-1.05605,2.21633,1.17958,-1.02491,1.5353,-0.812148,-1.85717,-1.09767,2.16121,1.19358,-0.997864,-1.03889,1.12834,-0.57668,0.645127,0.851985,-0.200211,-0.426387,-1.03889,1.12834,-0.57668,0.645127,0.851985,-0.200211,-0.426387,0.37609,-0.499401,0.82904,0.714589,0.0984166,0.121253,0.68189,-0.715316,-0.251963,0.60234,2.15271,-0.418371,1.57843,-3.09548,0.17902,3.15386,-3.1213,0.190417,3.11113,-0.739667,0.802519,-0.407284,0.478259,0.613966,-0.116201,-0.292656,1
1.44769,-0.717127,-1.90616,-1.04067,2.23383,1.18291,-1.0329,1.45924,-0.729625,-1.89893,-1.04887,2.22423,1.18124,-1.02859,1.52162,-0.797286,-1.8646,-1.08918,2.17248,1.19077,-1.00348,-0.974968,1.05932,-0.50768,0.604283,0.809996,-0.223504,-0.39974,-0.974968,1.05932,-0.50768,0.604283,0.809996,-0.223504,-0.39974,0.369935,-0.501497,0.834184,0.721357,0.0968924,0.121313,0.674936,-0.57583,-0.188185,0.484594,2.12165,-0.416079,1.60926,-3.10645,0.229153,3.08275,-3.11956,0.19111,3.00799,-0.739284,0.801585,-0.415609,0.485046,0.613548,-0.0786447,-0.294186,1
1.44217,-0.710913,-1.90783,-1.03779,2.24011,1.17934,-1.03065,1.44972,-0.719266,-1.90451,-1.04224,2.23259,1.18178,-1.03089,1.51608,-0.791271,-1.86752,-1.08569,2.17709,1.18959,-1.00573,-1.10828,1.20292,-0.584211,0.696861,0.922274,-0.235242,-0.450778,-1.10828,1.20292,-0.584211,0.696861,0.922274,-0.235242,-0.450778,0.362627,-0.503749,0.840392,0.729195,0.0950673,0.121262,0.666733,-0.771635,-0.225807,0.659214,2.09021,-0.413838,1.63859,-3.14436,0.224152,2.93317,-3.1194,0.203286,2.9061,-0.739089,0.80358,-0.403135,0.479091,0.630156,-0.10257,-0.249221,1
1.43316,-0.700937,-1.91386,-1.03225,2.24591,1.17655,-1.04027,1.4413,-0.709973,-1.90892,-1.03712,2.23999,1.17953,-1.03362,1.50668,-0.781073,-1.87247,-1.07979,2.18491,1.1876,-1.00955,-0.887445,0.963221,-0.4678,0.558002,0.7385,-0.188367,-0.360955,-0.887445,0.963221,-0.4678,0.558002,0.7385,-0.188367,-0.360955,0.355977,-0.505608,0.846022,0.736183,0.0933197,0.12119,0.659272,-0.620522,-0.164907,0.530058,2.05942,-0.412024,1.66686,-3.07884,0.181407,2.8267,-3.11011,0.208077,2.80089,-0.735215,0.801364,-0.413927,0.475382,0.609991,-0.110519,-0.307202,1
1.42248,-0.689559,-1.91924,-1.02443,2.25571,1.17984,-1.04227,1.43274,-0.700587,-1.9137,-1.03168,2.24691,1.17807,-1.03837,1.49623,-0.769732,-1.87833,-1.07293,2.19362,1.18639,-1.01359,-1.09311,1.18618,-0.615386,0.721232,0.915977,-0.108365,-0.40675,-1.09311,1.18618,-0.615386,0.721232,0.915977,-0.108365,-0.40675,0.348328,-0.50751,0.852349,0.74393,0.0908415,0.121024,0.650899,-0.790351,-0.18761,0.659865,2.02897,-0.409634,1.6945,-3.04501,0.238931,2.76469,-3.09725,0.215285,2.69745,-0.737502,0.801726,-0.409054,0.484968,0.620817,-0.0654724,-0.286856,1
1.41263,-0.678543,-1.92479,-1.01809,2.26478,1.1815,-1.04603,1.42269,-0.68965,-1.91928,-1.0248,2.25553,1.17943,-1.04271,1.48607,-0.758699,-1.88401,-1.06628,2.20217,1.18523,-1.01732,-1.05242,1.14523,-0.585482,0.685193,0.888937,-0.134013,-0.383001,-1.05242,1.14523,-0.585482,0.685193,0.888937,-0.134013,-0.383001,0.340859,-0.509131,0.858533,0.751276,0.0883573,0.120816,0.642791,-0.758432,-0.157115,0.637867,1.9979,-0.407994,1.72123,-3.10644,0.164041,2.67291,-3.08731,0.20374,2.59864,-0.734432,0.801554,-0.407749,0.481831,0.626147,-0.0373544,-0.287059,1
1.40294,-0.667922,-1.93096,-1.0115,2.27292,1.18241,-1.04999,1.41267,-0.678642,-1.92494,-1.01803,2.26455,1.18131,-1.04608,1.47625,-0.748002,-1.88948,-1.05989,2.21043,1.18394,-1.02107,-1.02265,1.11443,-0.569294,0.663169,0.857311,-0.138087,-0.406571,-1.02265,1.11443,-0.569294,0.663169,0.857311,-0.138087,-0.406571,0.333649,-0.510483,0.864536,0.758302,0.0859577,0.120638,0.634851,-0.736935,-0.13128,0.62165,1.96705,-0.405746,1.74625,-3.08496,0.22479,2.50176,-3.07819,0.202131,2.49697,-0.733138,0.800802,-0.414772,0.483903,0.624922,-0.0153121,-0.289166,1
1.39312,-0.657418,-1.93729,-1.00446,2.28109,1.1859,-1.05358,1.40291,-0.667952,-1.931,-1.01139,2.27293,1.18306,-1.0499,1.46652,-0.737404,-1.89489,-1.05355,2.21861,1.18292,-1.02497,-1.03034,1.12238,-0.573238,0.675661,0.867734,-0.0818894,-0.416923,-1.03034,1.12238,-0.573238,0.675661,0.867734,-0.0818894,-0.416923,0.326453,-0.511592,0.87052,0.765226,0.083366,0.120451,0.626873,-0.751418,-0.108343,0.632304,1.93617,-0.40363,1.77042,-3.0884,0.211555,2.41671,-3.08411,0.206746,2.38868,-0.73407,0.799858,-0.423939,0.490898,0.624866,0.0298872,-0.286106,1
1.38311,-0.646831,-1.94347,-0.997391,2.2894,1.18895,-1.05707,1.39307,-0.657398,-1.93725,-1.00445,2.28113,1.18579,-1.05356,1.45674,-0.726731,-1.90035,-1.04711,2.22691,1.18242,-1.02886,-1.03571,1.13024,-0.578056,0.683426,0.88459,-0.0260238,-0.404663,-1.03571,1.13024,-0.578056,0.683426,0.88459,-0.0260238,-0.404663,0.31911,-0.512452,0.876603,0.772089,0.0804143,0.120182,0.618844,-0.763246,-0.0838361,0.64107,1.9057,-0.401075,1.79415,-3.04658,0.255489,2.37315,-3.08261,0.214809,2.28475,-0.736243,0.798995,-0.431268,0.497175,0.624864,0.0652624,-0.282059,1
1.37301,-0.636225,-1.94981,-0.990188,2.29759,1.19121,-1.06047,1.38309,-0.646826,-1.94351,-0.997357,2.28937,1.18875,-1.05705,1.44693,-0.716024,-1.90588,-1.04062,2.23529,1.18238,-1.03269,-1.03466,1.12987,-0.590203,0.686907,0.884613,0.0158517,-0.404304,-1.03466,1.12987,-0.590203,0.686907,0.884613,0.0158517,-0.404304,0.311673,-0.513071,0.882731,0.778859,0.0771694,0.119868,0.610783,-0.768344,-0.0619391,0.641801,1.87453,-0.39939,1.81715,-3.11754,0.168511,2.29967,-3.081,0.218773,2.19724,-0.739206,0.797997,-0.439268,0.504284,0.623027,0.0883202,-0.27778,1
1.35881,-0.620714,-1.95902,-0.980901,2.30925,1.19387,-1.06736,1.37199,-0.634999,-1.95053,-0.989667,2.29846,1.19131,-1.06134,1.43249,-0.700294,-1.91425,-1.03095,2.24759,1.18312,-1.0383,-0.926508,1.00826,-0.540628,0.622768,0.788146,0.0628341,-0.35858,-0.926508,1.00826,-0.540628,0.622768,0.788146,0.0628341,-0.35858,0.30416,-0.513465,0.888868,0.785549,0.0736445,0.11955,0.602658,-0.776499,-0.0411827,0.64264,1.84327,-0.3976,1.83844,-3.12619,0.179043,2.12897,-3.09216,0.20532,2.11098,-0.736755,0.795802,-0.447685,0.500488,0.616597,0.107558,-0.290637,1
1.35311,-0.615222,-1.96364,-0.975145,2.31325,1.20099,-1.06885,1.36094,-0.623219,-1.95787,-0.981783,2.30734,1.19499,-1.06601,1.42729,-0.694672,-1.91733,-1.02742,2.25199,1.18371,-1.04027,-1.03902,1.12452,-0.615431,0.706495,0.878616,0.118494,-0.394311,-1.03902,1.12452,-0.615431,0.706495,0.878616,0.118494,-0.394311,0.296552,-0.513637,0.895023,0.792162,0.0698179,0.119227,0.594466,-0.785549,-0.020336,0.64483,1.81189,-0.395772,1.85854,-3.13739,0.182822,2.0105,-3.10991,0.191929,2.00532,-0.741833,0.794495,-0.463107,0.522723,0.612637,0.172817,-0.285734,1
1.33947,-0.600598,-1.9724,-0.966189,2.32501,1.20587,-1.07354,1.35113,-0.612939,-1.96467,-0.974345,2.31519,1.20043,-1.06965,1.4136,-0.679865,-1.92549,-1.01809,2.26354,1.18541,-1.04548,-0.978026,1.05456,-0.588588,0.668001,0.820772,0.138743,-0.372903,-0.978026,1.05456,-0.588588,0.668001,0.820772,0.138743,-0.372903,0.285895,-0.513505,0.903597,0.801206,0.0641667,0.118797,0.582957,-0.741149,0.0091367,0.605869,1.78138,-0.393907,1.8783,-3.05088,0.186497,1.97637,-3.11276,0.179561,1.89705,-0.741266,0.792668,-0.469158,0.51898,0.614675,0.204625,-0.280568,1
1.32868,-0.589321,-1.97931,-0.959566,2.33378,1.20629,-1.07622,1.34018,-0.601435,-1.97194,-0.966772,2.32426,1.20476,-1.07303,1.4031,-0.668578,-1.93194,-1.01085,2.27227,1.18732,-1.04957,-0.991083,1.06613,-0.609494,0.683267,0.824318,0.180297,-0.386432,-0.991083,1.06613,-0.609494,0.683267,0.824318,0.180297,-0.386432,0.277659,-0.513105,0.910144,0.808064,0.0594657,0.11853,0.573975,-0.754659,0.0319423,0.613512,1.75024,-0.391509,1.89692,-3.11412,0.239813,1.86204,-3.10454,0.194567,1.79426,-0.74424,0.792567,-0.473679,0.512871,0.615086,0.189763,-0.266519,1
1.31894,-0.579148,-1.98553,-0.953134,2.34121,1.20552,-1.07961,1.32894,-0.589597,-1.97914,-0.959614,2.33344,1.206,-1.0764,1.39367,-0.658458,-1.93782,-1.00428,2.28008,1.18942,-1.05323,-0.999937,1.0699,-0.631123,0.703573,0.825223,0.258873,-0.385908,-0.999937,1.0699,-0.631123,0.703573,0.825223,0.258873,-0.385908,0.270211,-0.512509,0.916036,0.81413,0.0549801,0.118304,0.565839,-0.770641,0.0535848,0.619363,1.71927,-0.389111,1.91428,-3.09759,0.239789,1.73589,-3.09649,0.212416,1.7008,-0.747332,0.793099,-0.477037,0.511449,0.61131,0.161031,-0.26385,1
1.3147,-0.574332,-1.98717,-0.951068,2.34517,1.20102,-1.08038,1.32031,-0.580487,-1.98438,-0.954225,2.34034,1.20459,-1.07896,1.38919,-0.653671,-1.94065,-1.00113,2.28377,1.19058,-1.05496,-0.89474,0.957343,-0.564727,0.629554,0.738406,0.231639,-0.345309,-0.89474,0.957343,-0.564727,0.629554,0.738406,0.231639,-0.345309,0.266659,-0.512145,0.918831,0.816975,0.0527502,0.118202,0.561959,-0.688392,0.0572876,0.554429,1.68912,-0.387295,1.93061,-3.01467,0.18158,1.63296,-3.07662,0.217497,1.60125,-0.744961,0.793398,-0.465284,0.500625,0.613974,0.104418,-0.254274,1
1.30304,-0.56254,-1.99637,-0.941088,2.35283,1.2078,-1.08558,1.31284,-0.572588,-1.98906,-0.94909,2.3461,1.20384,-1.08149,1.37825,-0.642018,-1.94764,-0.993531,2.29281,1.19353,-1.05891,-1.15885,1.23206,-0.740302,0.797178,0.955083,0.292911,-0.410999,-1.15885,1.23206,-0.740302,0.797178,0.955083,0.292911,-0.410999,0.25801,-0.511084,0.925592,0.823739,0.047261,0.117979,0.552541,-0.882699,0.0974841,0.70689,1.65848,-0.384792,1.94598,-3.06393,0.250283,1.53686,-3.06929,0.224431,1.49044,-0.752016,0.794779,-0.487348,0.524429,0.600233,0.142688,-0.266691,1
1.2883,-0.545883,-2.00483,-0.93363,2.36761,1.20818,-1.08762,1.30227,-0.561324,-1.99619,-0.941719,2.35461,1.2062,-1.08479,1.36255,-0.625343,-1.95761,-0.982843,2.3057,1.19679,-1.06438,-0.992736,1.05425,-0.629206,0.672612,0.814206,0.183414,-0.342666,-0.992736,1.05425,-0.629206,0.672612,0.814206,0.183414,-0.342666,0.245872,-0.509183,0.935187,0.83306,0.0397964,0.117792,0.539029,-0.830415,0.114393,0.672535,1.62687,-0.383546,1.96087,-3.16086,0.124565,1.48934,-3.07527,0.20243,1.396,-0.74247,0.794598,-0.472143,0.492134,0.619059,0.113957,-0.232428,1
1.28285,-0.540311,-2.0088,-0.928653,2.37137,1.20977,-1.08908,1.29063,-0.548654,-2.00371,-0.93425,2.36485,1.20848,-1.08748,1.35732,-0.619795,-1.96092,-0.979294,2.30995,1.19753,-1.06618,-1.04545,1.10958,-0.661464,0.709927,0.84962,0.148383,-0.359898,-1.04545,1.10958,-0.661464,0.709927,0.84962,0.148383,-0.359898,0.241898,-0.508461,0.938371,0.836088,0.0374387,0.117775,0.534494,-0.774263,0.127583,0.633561,1.59632,-0.381576,1.97426,-3.05545,0.197026,1.33826,-3.08146,0.188175,1.3021,-0.74474,0.794836,-0.478851,0.506405,0.614223,0.122426,-0.228991,1
1.27403,-0.531034,-2.01326,-0.923951,2.37826,1.20418,-1.0925,1.28201,-0.539385,-2.00892,-0.928722,2.37215,1.20798,-1.08957,1.34846,-0.610388,-1.96653,-0.973275,2.31715,1.19879,-1.06923,-0.837127,0.888482,-0.529659,0.568465,0.680322,0.118816,-0.288184,-0.837127,0.888482,-0.529659,0.568465,0.680322,0.118816,-0.288184,0.235192,-0.507091,0.943767,0.84114,0.0333949,0.117763,0.526782,-0.616364,0.118742,0.507259,1.56572,-0.379269,1.98625,-3.05932,0.230694,1.19894,-3.08954,0.192672,1.19544,-0.74434,0.793543,-0.467328,0.493241,0.611077,0.0539474,-0.232752,1
1.26349,-0.519734,-2.02199,-0.914629,2.3866,1.21326,-1.09526,1.2736,-0.530528,-2.01433,-0.922796,2.37862,1.20785,-1.09234,1.33803,-0.599279,-1.97323,-0.966202,2.32569,1.2005,-1.07261,-1.11427,1.18991,-0.716404,0.750998,0.920451,0.187578,-0.349341,-1.11427,1.18991,-0.716404,0.750998,0.920451,0.187578,-0.349341,0.227328,-0.505218,0.950112,0.84691,0.0284746,0.117771,0.517748,-0.816104,0.18734,0.674721,1.53569,-0.377059,1.99832,-3.00337,0.221041,1.20733,-3.06728,0.197437,1.10049,-0.745383,0.795456,-0.48767,0.515725,0.609025,0.127573,-0.226433,1
1.25337,-0.50863,-2.02757,-0.910442,2.39703,1.21154,-1.09465,1.2636,-0.519783,-2.0212,-0.915913,2.38712,1.21056,-1.09442,1.32768,-0.588217,-1.97985,-0.959254,2.33426,1.20204,-1.07579,-1.0735,1.14776,-0.683361,0.717633,0.890541,0.139512,-0.323793,-1.0735,1.14776,-0.683361,0.717633,0.890541,0.139512,-0.323793,0.219623,-0.503111,0.956398,0.852431,0.0236174,0.117788,0.508852,-0.774279,0.203153,0.64908,1.50505,-0.375293,2.00896,-3.06388,0.176585,1.06413,-3.04267,0.210242,1.00235,-0.743052,0.795868,-0.477174,0.488118,0.627666,0.0949558,-0.188593,1
1.24349,-0.497859,-2.03422,-0.903591,2.40499,1.20563,-1.09645,1.25343,-0.508713,-2.02784,-0.909776,2.39641,1.21049,-1.09525,1.31769,-0.577555,-1.98621,-0.952547,2.34249,1.20321,-1.07883,-1.03644,1.10534,-0.660898,0.699268,0.849155,0.109025,-0.317435,-1.03644,1.10534,-0.660898,0.699268,0.849155,0.109025,-0.317435,0.212293,-0.500881,0.962449,0.857619,0.0190099,0.11785,0.500239,-0.740474,0.215143,0.626166,1.47337,-0.37326,2.01843,-3.16772,0.203282,0.947142,-3.06558,0.206082,0.910652,-0.742045,0.796957,-0.4801,0.489552,0.624962,0.0241864,-0.176239,1
1.2295,-0.482277,-2.04419,-0.895496,2.41556,1.20176,-1.10313,1.24246,-0.496656,-2.03505,-0.90328,2.40564,1.20614,-1.09767,1.3032,-0.562083,-1.99555,-0.942742,2.35443,1.20506,-1.08307,-0.930841,0.994199,-0.602906,0.630566,0.768366,0.129145,-0.266624,-0.930841,0.994199,-0.602906,0.630566,0.768366,0.129145,-0.266624,0.20512,-0.498465,0.968402,0.862601,0.0143754,0.11795,0.491732,-0.740709,0.240335,0.627738,1.44252,-0.371575,2.02692,-3.08543,0.168505,0.848985,-3.08724,0.19187,0.814645,-0.736976,0.798066,-0.486371,0.47246,0.611318,-0.0330784,-0.200549,1
1.22405,-0.476598,-2.04817,-0.889854,2.41917,1.20795,-1.10565,1.23164,-0.484753,-2.04269,-0.896109,2.41382,1.20427,-1.10209,1.29797,-0.556471,-1.99895,-0.939275,2.35884,1.20563,-1.08435,-1.04677,1.12251,-0.679055,0.693355,0.88302,0.114112,-0.256198,-1.04677,1.12251,-0.679055,0.693355,0.88302,0.114112,-0.256198,0.197992,-0.49582,0.974355,0.867399,0.00969818,0.118052,0.483311,-0.731938,0.261916,0.627338,1.41181,-0.369397,2.03479,-3.07108,0.217801,0.786877,-3.10294,0.190413,0.709038,-0.73921,0.79873,-0.492191,0.494204,0.603239,0.023118,-0.212997,1
1.21077,-0.461703,-2.05588,-0.884685,2.43261,1.19505,-1.10523,1.22209,-0.474294,-2.0491,-0.889972,2.42163,1.20317,-1.10492,1.28419,-0.541665,-2.0079,-0.93023,2.37046,1.20655,-1.0877,-0.980692,1.05785,-0.638225,0.633407,0.826826,-0.00978555,-0.234423,-0.980692,1.05785,-0.638225,0.633407,0.826826,-0.00978555,-0.234423,0.188316,-0.491864,0.982586,0.873795,0.00352678,0.118247,0.471686,-0.661863,0.264032,0.582653,1.3809,-0.366493,2.04116,-3.0906,0.290406,0.637078,-3.09862,0.21463,0.6076,-0.734196,0.799621,-0.479865,0.455449,0.621431,-0.115055,-0.175313,1
1.2063,-0.455212,-2.05865,-0.881174,2.43768,1.19219,-1.10283,1.21297,-0.463804,-2.05464,-0.8851,2.43051,1.19756,-1.10474,1.27866,-0.53568,-2.01155,-0.926642,2.37502,1.20631,-1.08921,-1.10535,1.19702,-0.731858,0.717645,0.911892,-0.0479859,-0.302719,-1.10535,1.19702,-0.731858,0.717645,0.911892,-0.0479859,-0.302719,0.184559,-0.490234,0.985868,0.876359,0.00131985,0.118426,0.46687,-0.738528,0.307387,0.656577,1.35017,-0.3646,2.04652,-3.07292,0.189286,0.536156,-3.08017,0.22402,0.504217,-0.723666,0.804687,-0.470917,0.454674,0.626526,-0.14127,-0.13621,1
1.197,-0.445281,-2.06361,-0.879345,2.44596,1.18017,-1.10819,1.20509,-0.454352,-2.0592,-0.881595,2.43848,1.1899,-1.10477,1.26929,-0.525532,-2.01776,-0.920558,2.38275,1.20591,-1.09178,-0.885094,0.958499,-0.586026,0.574645,0.730186,-0.0384241,-0.242398,-0.885094,0.958499,-0.586026,0.574645,0.730186,-0.0384241,-0.242398,0.178252,-0.487316,0.991422,0.880621,-0.00246847,0.118746,0.458694,-0.584098,0.263554,0.524585,1.3206,-0.362483,2.05138,-2.95725,0.211743,0.485468,-3.05472,0.229817,0.406437,-0.722914,0.802514,-0.45853,0.412122,0.632082,-0.257368,-0.164123,1
1.18958,-0.43336,-2.06884,-0.874946,2.45707,1.17935,-1.10454,1.19747,-0.444783,-2.06368,-0.878703,2.44667,1.18297,-1.10594,1.25893,-0.514219,-2.02459,-0.913951,2.39143,1.20477,-1.09438,-1.08019,1.18498,-0.706472,0.678128,0.918553,-0.169566,-0.243488,-1.08019,1.18498,-0.706472,0.678128,0.918553,-0.169566,-0.243488,0.171468,-0.483927,0.997552,0.885145,-0.0063587,0.119103,0.449768,-0.687433,0.338806,0.63928,1.29019,-0.360563,2.05499,-3.04139,0.191945,0.36149,-3.03545,0.216779,0.306196,-0.693477,0.808597,-0.442552,0.39005,0.656324,-0.25417,-0.101638,1
1.18281,-0.421856,-2.07011,-0.87431,2.4684,1.17411,-1.10193,1.18974,-0.433464,-2.06785,-0.875887,2.45712,1.17825,-1.1048,1.24894,-0.503179,-2.03105,-0.907833,2.40006,1.20253,-1.09645,-1.03068,1.14766,-0.661447,0.61672,0.903062,-0.296881,-0.195704,-1.03068,1.14766,-0.661447,0.61672,0.903062,-0.296881,-0.195704,0.165201,-0.48055,1.00344,0.889261,-0.00954512,0.119402,0.441438,-0.627402,0.337559,0.607983,1.25822,-0.359303,2.0581,-3.19704,0.126019,0.310946,-3.05358,0.184168,0.223512,-0.661277,0.813239,-0.390558,0.335229,0.683402,-0.284181,-0.0548517,1
1.17653,-0.410664,-2.06967,-0.871398,2.47841,1.16367,-1.10116,1.18293,-0.421934,-2.06968,-0.873741,2.46807,1.17281,-1.10239,1.2394,-0.492444,-2.03713,-0.902301,2.40858,1.19928,-1.09823,-0.985558,1.12018,-0.623875,0.55463,0.895258,-0.383409,-0.181251,-0.985558,1.12018,-0.623875,0.55463,0.895258,-0.383409,-0.181251,0.1595,-0.477215,1.00905,0.893015,-0.0120468,0.11965,0.433662,-0.572613,0.340027,0.579554,1.2277,-0.357334,2.05918,-3.05152,0.196904,0.107718,-3.07328,0.177119,0.120363,-0.628732,0.8178,-0.325408,0.309029,0.698294,-0.356158,-0.0293532,1
1.17021,-0.399706,-2.07133,-0.868255,2.48741,1.15567,-1.10585,1.17652,-0.410722,-2.0702,-0.87134,2.47816,1.16428,-1.10253,1.23023,-0.481756,-2.04286,-0.897302,2.41727,1.19554,-1.09964,-0.95166,1.13503,-0.587341,0.503336,0.936796,-0.406339,-0.121201,-0.95166,1.13503,-0.587341,0.503336,0.936796,-0.406339,-0.121201,0.154277,-0.47375,1.0145,0.896411,-0.0141927,0.119805,0.42649,-0.526735,0.368814,0.572555,1.19817,-0.354856,2.05932,-2.95281,0.247857,0.0138044,-3.07341,0.184838,0.00066261,-0.60023,0.820503,-0.284652,0.29047,0.701477,-0.39861,-0.0620737,1
1.1637,-0.388849,-2.07341,-0.863762,2.49702,1.14884,-1.11055,1.17016,-0.399731,-2.07144,-0.867918,2.48756,1.15596,-1.10585,1.22145,-0.470921,-2.04803,-0.892809,2.42636,1.19152,-1.10042,-0.905245,1.15136,-0.508856,0.448169,0.980295,-0.439713,-0.0463675,-0.905245,1.15136,-0.508856,0.448169,0.980295,-0.439713,-0.0463675,0.149549,-0.469978,1.01991,0.899354,-0.0161982,0.119796,0.420177,-0.466518,0.405769,0.569781,1.16742,-0.352567,2.06001,-3.07539,0.228858,0.0696421,-3.05578,0.204404,-0.0874283,-0.577485,0.820724,-0.253803,0.290478,0.706624,-0.426808,-0.101294,1
1.15868,-0.377866,-2.07311,-0.859283,2.50689,1.14187,-1.10969,1.16408,-0.388817,-2.07282,-0.863765,2.49709,1.1488,-1.10916,1.2131,-0.459981,-2.0524,-0.888757,2.43573,1.18689,-1.10083,-0.859746,1.15773,-0.418231,0.409356,0.997136,-0.531507,-0.0399788,-0.859746,1.15773,-0.418231,0.409356,0.997136,-0.531507,-0.0399788,0.145385,-0.465919,1.0253,0.901895,-0.0179723,0.11961,0.414676,-0.405806,0.433229,0.568545,1.1364,-0.351425,2.05883,-3.10216,0.114149,-0.118756,-3.0392,0.205225,-0.177169,-0.544164,0.821151,-0.207044,0.294741,0.711638,-0.450268,-0.0886667,1
1.1523,-0.366926,-2.07623,-0.855637,2.51623,1.13565,-1.11016,1.15834,-0.377876,-2.07396,-0.859491,2.50676,1.14205,-1.11002,1.20514,-0.449009,-2.05608,-0.884927,2.44517,1.18151,-1.10151,-0.822143,1.1582,-0.360953,0.399774,0.996295,-0.6005,-0.101978,-0.822143,1.1582,-0.360953,0.399774,0.996295,-0.6005,-0.101978,0.141705,-0.461652,1.03069,0.904243,-0.019512,0.119303,0.409549,-0.362871,0.453907,0.56891,1.10457,-0.349878,2.05604,-3.18332,0.154787,-0.278306,-3.08049,0.183432,-0.267635,-0.528469,0.820837,-0.201507,0.292895,0.71059,-0.458676,-0.0864365,1
1.14351,-0.351117,-2.08598,-0.8487,2.52995,1.12451,-1.1143,1.1517,-0.365709,-2.07789,-0.854814,2.51733,1.13442,-1.11108,1.19401,-0.432866,-2.06071,-0.879278,2.45909,1.17284,-1.1034,-0.703712,1.03534,-0.284618,0.364611,0.893162,-0.565039,-0.135305,-0.703712,1.03534,-0.284618,0.364611,0.893162,-0.565039,-0.135305,0.138375,-0.457189,1.0361,0.906515,-0.0210004,0.118907,0.404539,-0.330422,0.475809,0.571759,1.07443,-0.348044,2.05241,-3.01381,0.183406,-0.363755,-3.10349,0.163133,-0.377946,-0.505006,0.817487,-0.252722,0.305782,0.708602,-0.483302,-0.108983,1
1.14062,-0.345325,-2.0858,-0.846103,2.53586,1.12185,-1.1062,1.14499,-0.353621,-2.0835,-0.849785,2.528,1.12663,-1.11124,1.19026,-0.427083,-2.0621,-0.877197,2.4641,1.16961,-1.1041,-0.750254,1.15652,-0.27883,0.416144,1.00265,-0.647558,-0.139217,-0.750254,1.15652,-0.27883,0.416144,1.00265,-0.647558,-0.139217,0.135335,-0.452509,1.04153,0.90865,-0.0225487,0.118424,0.399779,-0.299453,0.498625,0.574243,1.04388,-0.344979,2.04863,-3.05429,0.306416,-0.377679,-3.09043,0.185571,-0.491905,-0.496474,0.817582,-0.237009,0.310941,0.717623,-0.477544,-0.0210266,1
1.13219,-0.335748,-2.09183,-0.846192,2.54468,1.10947,-1.1053,1.13924,-0.344379,-2.08735,-0.846775,2.53659,1.11942,-1.108,1.1839,-0.417278,-2.06446,-0.873669,2.4726,1.16412,-1.10528,-0.600757,0.926069,-0.223269,0.333222,0.802855,-0.518524,-0.111476,-0.600757,0.926069,-0.223269,0.333222,0.802855,-0.518524,-0.111476,0.132776,-0.448183,1.04639,0.910458,-0.0239766,0.117963,0.395696,-0.232354,0.406746,0.455886,1.01378,-0.342485,2.04297,-3.01,0.24946,-0.565696,-3.05909,0.227796,-0.591226,-0.517076,0.815302,-0.27368,0.274766,0.720812,-0.546423,-0.000178197,1
1.12533,-0.324017,-2.09214,-0.84113,2.55554,1.10555,-1.09554,1.13259,-0.335209,-2.0904,-0.844905,2.54519,1.11159,-1.10309,1.17678,-0.405731,-2.06773,-0.869383,2.48264,1.15738,-1.10645,-0.747272,1.22475,-0.3706,0.46062,1.06616,-0.722687,-0.112551,-0.747272,1.22475,-0.3706,0.46062,1.06616,-0.722687,-0.112551,0.129931,-0.443064,1.05204,0.912521,-0.0255227,0.117471,0.390967,-0.291657,0.537895,0.595375,0.983612,-0.340654,2.03672,-3.01723,0.183028,-0.624776,-3.0255,0.24005,-0.680719,-0.514451,0.817141,-0.244065,0.282528,0.729006,-0.518327,0.109086,1
1.11759,-0.312828,-2.09853,-0.84045,2.56547,1.09753,-1.09883,1.12511,-0.324153,-2.09366,-0.842226,2.55531,1.10452,-1.0988,1.16984,-0.394376,-2.07128,-0.865161,2.49258,1.15049,-1.10707,-0.719299,1.17509,-0.377865,0.43215,1.03441,-0.730286,-0.021979,-0.719299,1.17509,-0.377865,0.43215,1.03441,-0.730286,-0.021979,0.127216,-0.438032,1.05751,0.914441,-0.026857,0.117012,0.386502,-0.271182,0.515558,0.56072,0.953016,-0.338672,2.02976,-3.05964,0.198281,-0.696063,-3.03095,0.230686,-0.77189,-0.52251,0.815472,-0.272521,0.247111,0.728925,-0.52968,0.0823278,1
1.10778,-0.297518,-2.11516,-0.836998,2.5784,1.08639,-1.10851,1.11707,-0.311798,-2.10109,-0.839757,2.56622,1.09675,-1.10043,1.15984,-0.378376,-2.07644,-0.859577,2.50677,1.14013,-1.10635,-0.640588,1.0146,-0.328107,0.344858,0.903114,-0.670782,0.0767685,-0.640588,1.0146,-0.328107,0.344858,0.903114,-0.670782,0.0767685,0.124697,-0.433236,1.06265,0.916101,-0.0278099,0.11657,0.382617,-0.252615,0.492907,0.526043,0.922702,-0.33692,2.02172,-3.03144,0.175199,-0.804615,-3.03135,0.199324,-0.870314,-0.520606,0.808574,-0.387146,0.225789,0.716279,-0.537357,-0.0215988,1
1.10431,-0.29188,-2.11572,-0.827057,2.58487,1.08584,-1.09703,1.10936,-0.299936,-2.11114,-0.835376,2.57678,1.08904,-1.10322,1.15619,-0.372674,-2.07825,-0.857752,2.51187,1.13638,-1.10556,-0.730343,1.14041,-0.362105,0.364917,1.02084,-0.748761,0.158725,-0.730343,1.14041,-0.362105,0.364917,1.02084,-0.748761,0.158725,0.122317,-0.428514,1.0676,0.917546,-0.028524,0.11614,0.37922,-0.242304,0.501395,0.517366,0.892247,-0.335148,2.01265,-3.04545,0.177163,-0.906825,-3.03986,0.184082,-0.956526,-0.518775,0.807936,-0.374718,0.306953,0.729985,-0.505416,0.0852287,1
1.0955,-0.282679,-2.12554,-0.824882,2.59309,1.07759,-1.10004,1.10298,-0.29099,-2.11804,-0.828998,2.58531,1.08391,-1.10066,1.15,-0.363005,-2.08132,-0.854658,2.52053,1.13003,-1.10421,-0.584813,0.913167,-0.289951,0.292203,0.817426,-0.599561,0.127097,-0.584813,0.913167,-0.289951,0.292203,0.817426,-0.599561,0.127097,0.12027,-0.424218,1.07197,0.918752,-0.0291452,0.115763,0.376357,-0.186818,0.407826,0.410524,0.861691,-0.334125,2.00198,-3.05564,0.10232,-1.06707,-3.04612,0.165828,-1.06606,-0.544915,0.803258,-0.442231,0.297766,0.725601,-0.52448,0.0417019,1
1.0881,-0.270852,-2.12611,-0.818282,2.60455,1.07503,-1.08669,1.09586,-0.282023,-2.12323,-0.823776,2.5939,1.07901,-1.09595,1.14262,-0.351554,-2.08632,-0.851228,2.53074,1.12259,-1.10375,-0.78177,1.21325,-0.583463,0.372606,1.08215,-0.788651,0.0124468,-0.78177,1.21325,-0.583463,0.372606,1.08215,-0.788651,0.0124468,0.117774,-0.419379,1.07688,0.920561,-0.0296624,0.115533,0.37194,-0.271021,0.50912,0.515776,0.832198,-0.331185,1.99028,-2.94927,0.294018,-1.16955,-3.02647,0.177688,-1.187,-0.545201,0.807025,-0.397955,0.329461,0.738024,-0.475574,0.17059,1
1.08,-0.259806,-2.13527,-0.817018,2.61447,1.06726,-1.08837,1.08793,-0.271047,-2.12826,-0.819616,2.60416,1.07373,-1.09045,1.13532,-0.340328,-2.09199,-0.847399,2.54081,1.11537,-1.10338,-0.760358,1.15967,-0.612237,0.432493,1.04578,-0.739248,0.0639535,-0.760358,1.15967,-0.612237,0.432493,1.04578,-0.739248,0.0639535,0.115124,-0.414592,1.08174,0.922473,-0.0303167,0.115344,0.36718,-0.286107,0.501911,0.508596,0.801224,-0.330096,1.97885,-3.09744,0.108853,-1.14306,-3.03005,0.176105,-1.28096,-0.553244,0.805221,-0.432817,0.303806,0.736615,-0.481069,0.150028,1
1.0725,-0.249729,-2.14766,-0.812956,2.62346,1.05961,-1.0906,1.08015,-0.260048,-2.13608,-0.816319,2.61424,1.06729,-1.08851,1.12813,-0.329554,-2.09773,-0.843183,2.55058,1.10858,-1.10234,-0.7586,1.11719,-0.599494,0.456161,1.0181,-0.695066,0.150123,-0.7586,1.11719,-0.599494,0.456161,1.0181,-0.695066,0.150123,0.112375,-0.409826,1.0865,0.92425,-0.0312054,0.115126,0.362678,-0.29019,0.49985,0.497956,0.770863,-0.328679,1.96639,-3.03608,0.141671,-1.24654,-3.03236,0.169659,-1.3565,-0.556305,0.798244,-0.499303,0.302273,0.728762,-0.48974,0.117401,1
1.06116,-0.234734,-2.16045,-0.804382,2.63718,1.04993,-1.09064,1.07154,-0.248499,-2.14776,-0.811828,2.62464,1.0591,-1.09005,1.1174,-0.313893,-2.10596,-0.836853,2.56491,1.09915,-1.09943,-0.692724,1.00702,-0.52418,0.40512,0.922661,-0.59745,0.211118,-0.692724,1.00702,-0.52418,0.40512,0.922661,-0.59745,0.211118,0.10837,-0.402596,1.09343,0.926528,-0.0328022,0.114784,0.356782,-0.282475,0.519228,0.496505,0.739589,-0.327024,1.95176,-3.12739,0.165501,-1.46301,-3.05539,0.167061,-1.44339,-0.56242,0.791592,-0.544945,0.324705,0.722726,-0.492196,0.0879147,1
1.05331,-0.224074,-2.16685,-0.798896,2.64696,1.04451,-1.08705,1.06203,-0.235818,-2.15885,-0.805154,2.63619,1.05099,-1.08973,1.10998,-0.303164,-2.11196,-0.832761,2.57474,1.0928,-1.09726,-0.70105,1.01336,-0.566856,0.386453,0.928422,-0.599559,0.205566,-0.70105,1.01336,-0.566856,0.386453,0.928422,-0.599559,0.205566,0.105718,-0.397637,1.09801,0.928056,-0.0338223,0.114632,0.352742,-0.243962,0.469133,0.431215,0.709526,-0.324732,1.93645,-3.00634,0.229248,-1.53056,-3.0698,0.159772,-1.54759,-0.566655,0.790899,-0.548926,0.338647,0.722254,-0.482876,0.102107,1
1.04934,-0.22015,-2.17081,-0.798767,2.65094,1.03916,-1.08786,1.05428,-0.225758,-2.16624,-0.800235,2.64551,1.04453,-1.08815,1.10684,-0.29863,-2.1145,-0.831032,2.57889,1.09012,-1.09634,-0.627357,0.906838,-0.507269,0.34583,0.830828,-0.536535,0.183957,-0.627357,0.906838,-0.507269,0.34583,0.830828,-0.536535,0.183957,0.104629,-0.39551,1.09994,0.92869,-0.0342668,0.11457,0.351046,-0.214577,0.423379,0.384377,0.679348,-0.322234,1.92103,-3.01773,0.249785,-1.542,-3.05088,0.196716,-1.65578,-0.575062,0.784801,-0.563109,0.322653,0.720495,-0.509604,0.0847836,1
1.04194,-0.210244,-2.17689,-0.795693,2.66019,1.03305,-1.08234,1.04848,-0.218654,-2.17134,-0.798031,2.65226,1.03897,-1.08628,1.09981,-0.288641,-2.12112,-0.827205,2.58801,1.08394,-1.09508,-0.664423,0.943493,-0.626037,0.361435,0.861098,-0.583742,0.118251,-0.664423,0.943493,-0.626037,0.361435,0.861098,-0.583742,0.118251,0.10207,-0.391014,1.10408,0.930393,-0.0350196,0.114545,0.346442,-0.238114,0.427231,0.390094,0.649224,-0.320218,1.90397,-3.01241,0.201583,-1.70624,-3.03518,0.217127,-1.75562,-0.578715,0.783968,-0.557628,0.315121,0.721786,-0.508887,0.127401,1
1.0303,-0.192925,-2.18926,-0.791851,2.67601,1.02349,-1.07557,1.04088,-0.208391,-2.17846,-0.795501,2.66183,1.03219,-1.08203,1.08756,-0.271662,-2.13329,-0.819974,2.60352,1.07331,-1.09325,-0.782058,1.07891,-0.774427,0.463931,0.986844,-0.67649,0.119959,-0.782058,1.07891,-0.774427,0.463931,0.986844,-0.67649,0.119959,0.0989112,-0.38569,1.10895,0.932507,-0.0360369,0.114541,0.340605,-0.327569,0.558867,0.507687,0.618828,-0.318121,1.88574,-3.03957,0.209725,-1.82333,-3.01822,0.223206,-1.84525,-0.572602,0.787376,-0.559693,0.281236,0.724854,-0.498175,0.176779,1
1.02622,-0.187666,-2.19368,-0.790356,2.68145,1.01966,-1.07178,1.03219,-0.19594,-2.18727,-0.792438,2.67341,1.02492,-1.07632,1.08345,-0.266088,-2.13729,-0.817667,2.60865,1.0697,-1.09252,-0.821844,1.1149,-0.800227,0.461534,1.025,-0.722296,0.146704,-0.821844,1.1149,-0.800227,0.461534,1.025,-0.722296,0.146704,0.095991,-0.380561,1.11352,0.934452,-0.0369661,0.114525,0.335136,-0.292323,0.520354,0.460393,0.588407,-0.316373,1.86665,-3.0422,0.174809,-1.90859,-3.02758,0.208312,-1.94899,-0.572212,0.784216,-0.563865,0.273112,0.72805,-0.500342,0.207404,1
1.01471,-0.174513,-2.20711,-0.785818,2.69436,1.00976,-1.073,1.02436,-0.185693,-2.19593,-0.789595,2.68332,1.01814,-1.07303,1.07273,-0.251563,-2.14769,-0.811835,2.62202,1.06027,-1.0903,-0.748786,1.01469,-0.723149,0.383892,0.935751,-0.660158,0.194421,-0.748786,1.01469,-0.723149,0.383892,0.935751,-0.660158,0.194421,0.0935641,-0.376085,1.1174,0.93608,-0.0377234,0.114507,0.330484,-0.225847,0.425032,0.365928,0.558674,-0.315215,1.84616,-2.97327,0.115806,-2.04951,-3.02167,0.178838,-2.07073,-0.580269,0.770494,-0.594149,0.260168,0.723424,-0.505171,0.173013,1
1.01102,-0.168918,-2.21222,-0.782168,2.70005,1.00857,-1.06939,1.01666,-0.176403,-2.20503,-0.78604,2.69255,1.01194,-1.07179,1.06847,-0.245713,-2.15185,-0.809795,2.62742,1.05656,-1.08883,-0.852809,1.16989,-0.832461,0.407968,1.08103,-0.743503,0.29414,-0.852809,1.16989,-0.832461,0.407968,1.08103,-0.743503,0.29414,0.0910202,-0.370952,1.12168,0.937705,-0.0383716,0.114526,0.325762,-0.262856,0.551239,0.451836,0.52846,-0.313477,1.82595,-3.02141,0.173801,-2.0207,-3.01684,0.16389,-2.15623,-0.574548,0.767953,-0.60367,0.276268,0.726255,-0.47982,0.194388,1
1.00296,-0.161353,-2.22348,-0.782338,2.70789,1.00055,-1.07601,1.00992,-0.168426,-2.21376,-0.783123,2.70059,1.00686,-1.07195,1.06124,-0.235795,-2.15891,-0.806336,2.63659,1.05025,-1.08634,-0.682876,0.936778,-0.666583,0.326675,0.865621,-0.595351,0.235529,-0.682876,0.936778,-0.666583,0.326675,0.865621,-0.595351,0.235529,0.0888521,-0.366223,1.12549,0.939084,-0.0389639,0.11456,0.321681,-0.201645,0.449369,0.358692,0.498487,-0.312025,1.804,-2.99726,0.145206,-2.19481,-3.0063,0.150886,-2.24174,-0.582841,0.744425,-0.645655,0.23998,0.71307,-0.497013,0.103274,1
0.995009,-0.150427,-2.23074,-0.775371,2.71878,0.996023,-1.06648,1.00298,-0.160513,-2.22248,-0.780554,2.70865,1.00143,-1.07197,1.05308,-0.224835,-2.16724,-0.802626,2.64687,1.0432,-1.08356,-0.855961,1.13831,-0.888038,0.38984,1.07375,-0.734818,0.276475,-0.855961,1.13831,-0.888038,0.38984,1.07375,-0.734818,0.276475,0.0864035,-0.361055,1.1296,0.940663,-0.0394947,0.114592,0.316956,-0.259916,0.538519,0.425863,0.468549,-0.310145,1.78095,-2.99377,0.18793,-2.30488,-2.99901,0.156449,-2.33553,-0.580735,0.744082,-0.634922,0.272553,0.719126,-0.471795,0.170796,1
0.983144,-0.136055,-2.24521,-0.779579,2.73233,0.984837,-1.06773,0.99403,-0.149565,-2.23254,-0.778165,2.71945,0.994359,-1.06917,1.04142,-0.209516,-2.17969,-0.797343,2.66142,1.03333,-1.08025,-0.740204,0.965813,-0.800606,0.334243,0.920581,-0.622036,0.195173,-0.740204,0.965813,-0.800606,0.334243,0.920581,-0.622036,0.195173,0.082871,-0.353778,1.13528,0.943045,-0.0402869,0.114627,0.309683,-0.222984,0.46312,0.355506,0.439005,-0.308312,1.75762,-2.95444,0.183392,-2.33333,-2.99248,0.171379,-2.42071,-0.582724,0.734616,-0.655178,0.177648,0.709087,-0.484917,0.125193,1
0.975816,-0.127876,-2.25455,-0.78118,2.74109,0.977784,-1.06776,0.984278,-0.137603,-2.24393,-0.778927,2.73113,0.98587,-1.06743,1.03376,-0.199752,-2.18822,-0.793998,2.67083,1.02697,-1.0786,-0.723315,0.922291,-0.805223,0.315994,0.888979,-0.600455,0.155843,-0.723315,0.922291,-0.805223,0.315994,0.888979,-0.600455,0.155843,0.0805275,-0.349155,1.13883,0.9447,-0.0407549,0.114636,0.304533,-0.219006,0.441618,0.334157,0.409003,-0.306793,1.73279,-3.00016,0.151855,-2.48327,-2.98395,0.170808,-2.52708,-0.579421,0.718761,-0.663281,0.128174,0.702626,-0.491878,0.10844,1
0.973133,-0.125404,-2.2588,-0.789657,2.74474,0.975034,-1.06744,0.976977,-0.129303,-2.25328,-0.782899,2.73981,0.97886,-1.06767,1.03052,-0.195625,-2.19182,-0.792584,2.67481,1.02429,-1.07791,-0.64722,0.825263,-0.720511,0.28275,0.795455,-0.537285,0.139448,-0.64722,0.825263,-0.720511,0.28275,0.795455,-0.537285,0.139448,0.0795656,-0.347173,1.14032,0.945386,-0.0409682,0.114639,0.302364,-0.192516,0.398422,0.298003,0.378424,-0.304853,1.70676,-3.05798,0.193977,-2.6023,-2.99673,0.176956,-2.62642,-0.573896,0.702213,-0.669818,0.0292713,0.69929,-0.492513,0.104615,1
0.966144,-0.116917,-2.26698,-0.792198,2.75366,0.97044,-1.06419,0.972057,-0.1239,-2.25978,-0.788173,2.74606,0.974573,-1.06671,1.02325,-0.186447,-2.19994,-0.789711,2.6837,1.01832,-1.07617,-0.686783,0.866848,-0.766324,0.271371,0.840065,-0.563215,0.164323,-0.686783,0.866848,-0.766324,0.271371,0.840065,-0.563215,0.164323,0.0774872,-0.34282,1.14353,0.946875,-0.0413259,0.114653,0.297615,-0.194573,0.415935,0.302564,0.348706,-0.302777,1.6798,-2.97176,0.207582,-2.69637,-3.00268,0.181944,-2.73161,-0.571061,0.695299,-0.670416,-0.02487,0.699528,-0.47882,0.119806,1
0.953021,-0.101154,-2.28008,-0.786225,2.76967,0.961513,-1.05412,0.964611,-0.115098,-2.26821,-0.790069,2.75543,0.969357,-1.06248,1.01075,-0.170947,-2.21427,-0.787445,2.69888,1.00773,-1.07374,-0.793769,0.97884,-0.916872,0.106859,0.96217,-0.678484,0.142525,-0.793769,0.97884,-0.916872,0.106859,0.96217,-0.678484,0.142525,0.0753562,-0.33839,1.14673,0.948641,-0.0408454,0.114677,0.291995,-0.217524,0.446063,0.310387,0.318587,-0.300397,1.653,-3.01192,0.238019,-2.67956,-3.01134,0.198443,-2.82217,-0.577278,0.697934,-0.658076,0.012204,0.70796,-0.46213,0.196177,1
0.947904,-0.0982155,-2.28564,-0.788818,2.77482,0.956216,-1.05324,0.955023,-0.10436,-2.27819,-0.788367,2.76696,0.96242,-1.05642,1.00668,-0.166,-2.21906,-0.787522,2.70384,1.00424,-1.073,-0.813754,0.989481,-0.957235,-0.0153015,0.992242,-0.697263,0.147844,-0.813754,0.989481,-0.957235,-0.0153015,0.992242,-0.697263,0.147844,0.0735325,-0.334717,1.14933,0.950303,-0.0397733,0.114653,0.286699,-0.182617,0.362574,0.241243,0.288389,-0.298411,1.62399,-3.01974,0.198585,-2.90154,-3.01065,0.212193,-2.91355,-0.587751,0.677845,-0.665795,-0.0129625,0.709787,-0.480239,0.19761,1
0.941665,-0.0967473,-2.29623,-0.806963,2.78165,0.94628,-1.06353,0.947624,-0.0985831,-2.28689,-0.792706,2.77524,0.955056,-1.05603,0.99978,-0.157611,-2.22717,-0.787652,2.71225,0.998328,-1.07175,-0.651603,0.792314,-0.766494,-0.0122525,0.794525,-0.558325,0.118384,-0.651603,0.792314,-0.766494,-0.0122525,0.794525,-0.558325,0.118384,0.0720564,-0.331761,1.15138,0.951705,-0.0386099,0.114591,0.282197,-0.142655,0.294208,0.191953,0.25796,-0.296917,1.5944,-3.0429,0.149477,-2.95854,-3.01243,0.202393,-3.00531,-0.58115,0.608638,-0.690606,-0.193113,0.693972,-0.520477,0.0821143,1
0.934425,-0.0879511,-2.30556,-0.797631,2.79059,0.94661,-1.06659,0.941415,-0.0949153,-2.29592,-0.800094,2.78218,0.948847,-1.06172,0.991764,-0.148011,-2.2364,-0.787954,2.72207,0.991826,-1.06926,-0.863548,1.02593,-0.982282,-0.00968717,1.05501,-0.691123,0.301918,-0.863548,1.02593,-0.982282,-0.00968717,1.05501,-0.691123,0.301918,0.0703782,-0.328342,1.15367,0.953124,-0.0373269,0.114458,0.277599,-0.187445,0.392602,0.24897,0.228193,-0.295498,1.56348,-2.97671,0.14182,-3.09261,-3.01652,0.180386,-3.11245,-0.57339,0.600595,-0.691631,-0.0967623,0.685226,-0.452163,0.0267262,1
0.924095,-0.0834166,-2.3199,-0.811522,2.80597,0.934399,-1.06664,0.933653,-0.0890165,-2.30681,-0.803436,2.7922,0.943475,-1.06584,0.979875,-0.134486,-2.24998,-0.788936,2.73644,0.982023,-1.06554,-0.75804,0.843875,-0.867667,-0.088616,0.9119,-0.633835,0.223562,-0.75804,0.843875,-0.867667,-0.088616,0.9119,-0.633835,0.223562,0.0686201,-0.32519,1.1558,0.954531,-0.0358057,0.114172,0.273044,-0.192465,0.314261,0.200441,0.198631,-0.293524,1.53175,-2.95628,0.197467,-3.17233,-3.00109,0.1666,-3.23012,-0.557794,0.510693,-0.699232,-0.225858,0.695278,-0.476244,-0.0109813,1
0.915568,-0.0847507,-2.32438,-0.818198,2.81005,0.933603,-1.05509,0.924546,-0.0848838,-2.31744,-0.809718,2.80315,0.937252,-1.06374,0.97583,-0.130325,-2.25481,-0.790109,2.74125,0.978534,-1.06514,-0.808869,0.832236,-0.966098,-0.234665,0.961857,-0.697754,0.0803476,-0.808869,0.832236,-0.966098,-0.234665,0.961857,-0.697754,0.0803476,0.0668006,-0.323007,1.15737,0.956063,-0.0335557,0.113645,0.268148,-0.200286,0.204264,0.131288,0.169229,-0.292008,1.49921,-2.94015,0.151595,-3.25387,-2.97651,0.162001,-3.32196,-0.602626,0.45574,-0.695721,-0.280883,0.687994,-0.449316,0.100525,1
0.905937,-0.0927495,-2.33856,-0.831865,2.82168,0.925789,-1.06286,0.915292,-0.0864169,-2.32681,-0.819945,2.81194,0.931848,-1.05992,0.965258,-0.119667,-2.26761,-0.793291,2.75391,0.969554,-1.06461,-0.742871,0.720419,-0.921514,-0.238461,0.900057,-0.612975,-0.0289722,-0.742871,0.720419,-0.921514,-0.238461,0.900057,-0.612975,-0.0289722,0.0640905,-0.320876,1.15903,0.958355,-0.0299415,0.112599,0.26073,-0.210638,0.156505,0.101697,0.139503,-0.29065,1.46594,-2.97257,0.135818,-3.32712,-2.95878,0.160246,-3.4118,-0.593216,0.269174,-0.709481,-0.385735,0.677689,-0.437642,0.0174854,1
0.898823,-0.117073,-2.35092,-0.839272,2.82422,0.932355,-1.08406,0.906566,-0.0968308,-2.3381,-0.8303,2.81941,0.929384,-1.06622,0.957146,-0.112736,-2.27754,-0.796564,2.76372,0.963117,-1.06443,-0.766207,0.654617,-0.937779,-0.309152,0.926674,-0.607911,0.0162811,-0.766207,0.654617,-0.937779,-0.309152,0.926674,-0.607911,0.0162811,0.0627144,-0.320573,1.15942,0.959302,-0.0281986,0.111902,0.257725,-0.275551,0.0997872,0.0728212,0.10988,-0.288914,1.43183,-2.96237,0.173545,-3.41083,-2.95754,0.160426,-3.49093,-0.583225,-0.0433729,-0.733836,-0.427073,0.604981,-0.307625,-0.196246,1
0.895859,-0.106607,-2.35954,-0.834445,2.81649,0.988901,-1.08998,0.899861,-0.108376,-2.34998,-0.836213,2.82165,0.94485,-1.08024,0.949677,-0.107347,-2.28647,-0.800261,2.7725,0.957395,-1.06389,-0.808158,0.491932,-0.947953,-0.462649,0.926921,-0.600432,0.0933991,-0.808158,0.491932,-0.947953,-0.462649,0.926921,-0.600432,0.0933991,0.0603574,-0.320026,1.16008,0.960884,-0.025278,0.110675,0.252614,-0.222592,0.0837433,0.058286,0.0806836,-0.286964,1.39663,-2.91961,0.194985,-3.52001,-2.95243,0.162125,-3.57616,-0.53818,0.00740609,-0.730631,-0.341843,0.439887,0.315064,-0.260828,1
0.887715,-0.138831,-2.36311,-0.847549,2.82094,1.0045,-1.0604,0.894564,-0.117279,-2.35827,-0.838928,2.81953,0.978664,-1.0811,0.946061,-0.105146,-2.29071,-0.802331,2.77665,0.954709,-1.06348,-0.723206,0.440221,-0.848306,-0.414017,0.829485,-0.537316,0.0835812,-0.723206,0.440221,-0.848306,-0.414017,0.829485,-0.537316,0.0835812,0.0572488,-0.32107,1.15995,0.96245,-0.0211613,0.108806,0.247797,-0.292239,-0.0556303,-0.0172854,0.0508968,-0.285279,1.36018,-2.97868,0.168502,-3.64553,-2.95484,0.171423,-3.67378,-0.583456,-0.336847,-0.723915,-0.452177,0.442954,0.497897,0.0307648,1
0.864921,-0.132028,-2.37269,-0.872363,2.7497,1.01488,-1.02506,0.884053,-0.129074,-2.36461,-0.850476,2.80202,1.0032,-1.05896,0.93416,-0.104003,-2.3054,-0.810881,2.789,0.949156,-1.06573,-0.806154,-0.102769,-1.04793,-0.59539,0.767283,-0.101209,-0.341046,-0.806154,-0.102769,-1.04793,-0.59539,0.767283,-0.101209,-0.341046,0.0525969,-0.324479,1.15874,0.964324,-0.015868,0.105878,0.242109,-0.43407,-0.265489,-0.12137,0.0208869,-0.283113,1.32245,-3.00099,0.216633,-3.7728,-2.96216,0.187082,-3.78639,-0.692392,-0.280248,-0.672969,-0.614816,-0.393066,0.65727,0.406619,1
0.855073,-0.173011,-2.38155,-0.881026,2.74325,1.01241,-1.02234,0.868157,-0.143974,-2.37251,-0.868325,2.7659,1.01167,-1.03322,0.929996,-0.105399,-2.31096,-0.81383,2.79221,0.952259,-1.06734,-0.832811,-0.279235,-1.11216,-0.589895,0.642133,0.620626,-0.323389,-0.832811,-0.279235,-1.11216,-0.589895,0.642133,0.620626,-0.323389,0.0458897,-0.329146,1.1564,0.966603,-0.0128793,0.103092,0.234277,-0.709218,-0.433891,-0.26784,-0.00739484,-0.281292,1.28427,-2.82817,0.182134,-3.81835,-2.94346,0.190964,-3.89317,-0.749235,-0.676114,-0.70592,-0.671954,-0.489648,0.601493,0.450005,1
0.850193,-0.177474,-2.38781,-0.890957,2.74078,1.02294,-1.03295,0.856315,-0.163881,-2.3809,-0.881343,2.74424,1.01566,-1.02568,0.922936,-0.107767,-2.32039,-0.818831,2.79766,0.957521,-1.07009,-0.666863,-0.223594,-0.890545,-0.472351,0.51418,0.496959,-0.25895,-0.666863,-0.223594,-0.890545,-0.472351,0.51418,0.496959,-0.25895,0.0397126,-0.332985,1.15416,0.968468,-0.011537,0.101028,0.227442,-0.575577,-0.337225,-0.216854,-0.0383448,-0.279921,1.24574,-3.095,0.137079,-3.85319,-2.96349,0.180746,-3.97709,-0.727434,-0.697079,-0.674279,-0.721252,-0.568768,0.654182,0.371351,1
0.836766,-0.191023,-2.40316,-0.889061,2.74449,1.027,-1.03638,0.848056,-0.179746,-2.39008,-0.888,2.74233,1.02132,-1.03115,0.913516,-0.113579,-2.33003,-0.827014,2.79473,0.967513,-1.06516,-1.06613,-0.714418,-0.9985,-0.970989,-0.677673,1.03784,0.750809,-1.06613,-0.714418,-0.9985,-0.970989,-0.677673,1.03784,0.750809,0.0323523,-0.339572,1.14977,0.969909,-0.00860218,0.10148,0.221144,-0.81675,-0.759529,-0.532343,-0.068427,-0.276402,1.20541,-3.00822,0.351897,-4.03239,-2.97879,0.20947,-4.0625,-0.767505,-0.774443,-0.731308,-0.62047,-0.502345,0.594913,0.287862,1
0.825671,-0.201084,-2.41288,-0.902692,2.73931,1.03949,-1.02812,0.837349,-0.190151,-2.40175,-0.892943,2.74227,1.02911,-1.03346,0.903233,-0.121729,-2.33938,-0.836615,2.78671,0.976731,-1.058,-1.10278,-0.99075,-0.976024,-1.05131,-0.998037,0.914992,0.759842,-1.10278,-0.99075,-0.976024,-1.05131,-0.998037,0.914992,0.759842,0.0242734,-0.348215,1.14414,0.971316,-0.0032295,0.102843,0.214377,-0.933393,-0.948468,-0.648498,-0.098343,-0.275657,1.16422,-2.9916,0.074482,-4.11953,-2.99492,0.198016,-4.15325,-0.775612,-0.793548,-0.735048,-0.660774,-0.47393,0.627597,0.298803,1
0.810517,-0.215838,-2.42551,-0.919743,2.72364,1.05384,-1.02092,0.824656,-0.202257,-2.41361,-0.903547,2.73669,1.03996,-1.02839,0.888287,-0.136839,-2.35298,-0.85062,2.77429,0.988895,-1.04993,-0.945567,-1.00845,-0.872136,-0.878547,-0.751189,0.762165,0.441306,-0.945567,-1.00845,-0.872136,-0.878547,-0.751189,0.762165,0.441306,0.0106613,-0.362654,1.13478,0.973571,0.00633693,0.103608,0.203434,-1.02167,-0.983298,-0.678067,-0.127517,-0.273171,1.12181,-2.91741,0.248557,-4.2405,-3.00243,0.205041,-4.26431,-0.777699,-0.789989,-0.725316,-0.691233,-0.50648,0.649408,0.290092,1
0.804935,-0.222019,-2.43119,-0.92438,2.72324,1.05763,-1.01759,0.81291,-0.213695,-2.42377,-0.91664,2.72746,1.0512,-1.02189,0.88293,-0.142446,-2.35811,-0.855071,2.77092,0.993124,-1.0482,-1.07137,-1.1213,-1.0259,-0.890152,-0.673404,0.845829,0.346516,-1.07137,-1.1213,-1.0259,-0.890152,-0.673404,0.845829,0.346516,0.00532805,-0.367613,1.13149,0.974458,0.00951118,0.103379,0.199132,-1.07947,-0.921292,-0.663901,-0.156291,-0.27206,1.07908,-2.87742,0.111172,-4.27313,-2.94983,0.189526,-4.36911,-0.77995,-0.795735,-0.730786,-0.693092,-0.476777,0.645036,0.306073,1
0.791656,-0.236952,-2.44483,-0.93587,2.71326,1.06996,-1.01134,0.803011,-0.224207,-2.43318,-0.926093,2.72085,1.05976,-1.01686,0.868675,-0.157242,-2.37173,-0.866921,2.76221,1.00447,-1.04349,-1.03457,-1.05802,-0.984366,-0.860823,-0.599862,0.834136,0.354913,-1.03457,-1.05802,-0.984366,-0.860823,-0.599862,0.834136,0.354913,-0.00905796,-0.380346,1.12252,0.976638,0.0179467,0.10268,0.187919,-0.876325,-0.716457,-0.54473,-0.185135,-0.270416,1.03535,-2.88435,0.164419,-4.37266,-2.91364,0.155699,-4.45253,-0.770183,-0.797107,-0.731053,-0.689483,-0.489509,0.654938,0.321446,1
0.784239,-0.243927,-2.45132,-0.940148,2.71646,1.07318,-1.00663,0.793122,-0.234963,-2.44304,-0.934067,2.71656,1.06768,-1.01173,0.862811,-0.163178,-2.3772,-0.87215,2.75856,1.00938,-1.04122,-1.17287,-1.18736,-1.09465,-1.04571,-0.73096,0.982901,0.454237,-1.17287,-1.18736,-1.09465,-1.04571,-0.73096,0.982901,0.454237,-0.0149202,-0.385421,1.11866,0.977411,0.0214717,0.102467,0.183597,-1.18512,-0.936564,-0.776432,-0.214157,-0.269015,0.990665,-2.90218,0.140071,-4.46886,-2.89245,0.160403,-4.53561,-0.785718,-0.807486,-0.741157,-0.679985,-0.420978,0.638025,0.345835,1
0.770269,-0.259095,-2.46513,-0.953735,2.70229,1.08743,-1.00073,0.782601,-0.245975,-2.45315,-0.942475,2.71212,1.07594,-1.00633,0.847624,-0.178604,-2.39139,-0.885756,2.74905,1.02213,-1.03521,-1.04856,-1.07183,-0.982151,-0.94807,-0.662794,0.884381,0.431207,-1.04856,-1.07183,-0.982151,-0.94807,-0.662794,0.884381,0.431207,-0.0249801,-0.393813,1.11197,0.978638,0.0274961,0.102073,0.176332,-0.961893,-0.723839,-0.636786,-0.243179,-0.267537,0.944935,-2.90221,0.147811,-4.57301,-2.89188,0.143144,-4.62168,-0.773557,-0.804917,-0.737426,-0.679795,-0.467525,0.652945,0.344784,1
0.7588,-0.270458,-2.47531,-0.963982,2.69589,1.09623,-0.995112,0.770894,-0.258144,-2.46422,-0.9529,2.70424,1.08607,-1.0008,0.836764,-0.189834,-2.40168,-0.895382,2.74257,1.03121,-1.03053,-1.02579,-1.06072,-0.972111,-0.909263,-0.611497,0.857243,0.441944,-1.02579,-1.06072,-0.972111,-0.909263,-0.611497,0.857243,0.441944,-0.0363824,-0.402872,1.10434,0.97985,0.0342955,0.101468,0.168588,-1.21089,-0.859313,-0.803727,-0.272262,-0.265047,0.898587,-2.90833,0.248995,-4.63482,-2.89985,0.169047,-4.71406,-0.779644,-0.806245,-0.736242,-0.685994,-0.466812,0.650154,0.354169,1
0.749556,-0.280194,-2.48485,-0.971845,2.68763,1.104,-0.988604,0.759356,-0.270052,-2.47515,-0.963386,2.69543,1.09597,-0.994889,0.826961,-0.199985,-2.41099,-0.903975,2.73692,1.03935,-1.02622,-1.04267,-1.08099,-0.990998,-0.904932,-0.58298,0.860076,0.467308,-1.04267,-1.08099,-0.990998,-0.904932,-0.58298,0.860076,0.467308,-0.0466904,-0.41061,1.09742,0.980821,0.0403564,0.100792,0.161871,-0.980538,-0.661761,-0.658031,-0.301518,-0.263281,0.850855,-2.92562,0.176573,-4.77326,-2.90872,0.182371,-4.81077,-0.774052,-0.802096,-0.738616,-0.678703,-0.492907,0.646504,0.376118,1
0.745153,-0.284717,-2.48897,-0.976504,2.68227,1.10767,-0.984338,0.750766,-0.278891,-2.48349,-0.971044,2.68836,1.10297,-0.989164,0.822296,-0.204821,-2.41542,-0.908024,2.73431,1.04319,-1.02412,-0.93298,-0.967265,-0.886742,-0.80973,-0.521648,0.769593,0.418146,-0.93298,-0.967265,-0.886742,-0.80973,-0.521648,0.769593,0.418146,-0.0573781,-0.418149,1.09029,0.98171,0.0465,0.0998843,0.155263,-1.01369,-0.641426,-0.677668,-0.330388,-0.261634,0.802584,-2.88701,0.164679,-4.82705,-2.90803,0.190169,-4.90243,-0.77143,-0.798957,-0.735522,-0.6848,-0.520415,0.644749,0.397868,1
0.728636,-0.301822,-2.50501,-0.988267,2.67659,1.11994,-0.976936,0.742125,-0.287862,-2.49195,-0.97828,2.68219,1.10982,-0.983554,0.806512,-0.221189,-2.4304,-0.921847,2.72486,1.05639,-1.01689,-1.10837,-1.1485,-1.05172,-0.976337,-0.69183,0.930321,0.517142,-1.10837,-1.1485,-1.05172,-0.976337,-0.69183,0.930321,0.517142,-0.0685427,-0.425675,1.0827,0.982523,0.0529428,0.0990009,0.148476,-1.05842,-0.636454,-0.720778,-0.359664,-0.260668,0.753073,-2.92753,0.0965923,-4.95113,-2.91096,0.171493,-4.99728,-0.778759,-0.806339,-0.746034,-0.664192,-0.482704,0.635502,0.39955,1
0.722179,-0.308411,-2.51082,-0.992968,2.67616,1.12427,-0.973311,0.731151,-0.299193,-2.50245,-0.986501,2.6779,1.11795,-0.97788,0.80065,-0.227257,-2.43599,-0.927021,2.72102,1.06129,-1.01398,-1.17242,-1.21357,-1.11658,-1.03469,-0.767752,0.979727,0.583147,-1.17242,-1.21357,-1.11658,-1.03469,-0.767752,0.979727,0.583147,-0.0810152,-0.433723,1.074,0.983274,0.0603113,0.0981959,0.141044,-1.28654,-0.734624,-0.89961,-0.389631,-0.258496,0.702888,-2.99677,0.217229,-5.01846,-2.92884,0.157142,-5.0918,-0.784709,-0.811545,-0.748384,-0.659474,-0.448597,0.629807,0.406647,1
0.713218,-0.317948,-2.51977,-1.00271,2.66237,1.13326,-0.966336,0.721553,-0.309148,-2.51161,-0.994227,2.67282,1.12543,-0.972473,0.79071,-0.237545,-2.44545,-0.935793,2.71451,1.06959,-1.00903,-0.938803,-0.971754,-0.89409,-0.828511,-0.614768,0.784504,0.466948,-0.938803,-0.971754,-0.89409,-0.828511,-0.614768,0.784504,0.466948,-0.0919798,-0.440426,1.06624,0.983813,0.0668325,0.0974802,0.134698,-1.03834,-0.559429,-0.734728,-0.417336,-0.256325,0.651098,-2.77045,0.217092,-5.17907,-2.90878,0.1705,-5.1921,-0.774922,-0.804024,-0.743164,-0.669123,-0.52143,0.636667,0.426958,1
0.701577,-0.329895,-2.53078,-1.01075,2.65998,1.14157,-0.96089,0.712548,-0.31855,-2.52029,-1.00228,2.66522,1.13309,-0.966718,0.779875,-0.248763,-2.45582,-0.945124,2.70762,1.07846,-1.00336,-1.14516,-1.18527,-1.09596,-0.97251,-0.698466,0.928128,0.598814,-1.14516,-1.18527,-1.09596,-0.97251,-0.698466,0.928128,0.598814,-0.104099,-0.447335,1.05768,0.98429,0.0739622,0.0965175,0.128016,-1.28524,-0.634545,-0.899953,-0.445602,-0.255718,0.598426,-2.82668,0.0606924,-5.26714,-2.88101,0.161753,-5.30291,-0.782977,-0.811315,-0.749585,-0.656284,-0.476396,0.631016,0.424678,1
0.690953,-0.340764,-2.541,-1.01987,2.65254,1.14966,-0.953255,0.701831,-0.329625,-2.53058,-1.01102,2.65872,1.14151,-0.960343,0.769157,-0.259859,-2.46608,-0.954181,2.70117,1.08712,-0.997713,-1.11884,-1.15846,-1.07009,-0.941213,-0.666183,0.900506,0.593208,-1.11884,-1.15846,-1.07009,-0.941213,-0.666183,0.900506,0.593208,-0.116245,-0.453757,1.04912,0.984668,0.0809833,0.0953267,0.121587,-1.26599,-0.580253,-0.893243,-0.47562,-0.252458,0.545746,-3.00176,0.325984,-5.26801,-2.87884,0.191978,-5.39115,-0.782032,-0.809048,-0.749188,-0.656859,-0.486258,0.625384,0.444579,1
