Afshin1997/kuka_rl_ros2/src/catch_and_throw/output_files/tm/nn_ema7.00_jvws1_realball_D22H14M15S38/recorded_data.csv
pure_target_joint_0,pure_target_joint_1,pure_target_joint_2,pure_target_joint_3,pure_target_joint_4,pure_target_joint_5,pure_target_joint_6,target_joint_0,target_joint_1,target_joint_2,target_joint_3,target_joint_4,target_joint_5,target_joint_6,pos_joint_0,pos_joint_1,pos_joint_2,pos_joint_3,pos_joint_4,pos_joint_5,pos_joint_6,vel_joint_0,vel_joint_1,vel_joint_2,vel_joint_3,vel_joint_4,vel_joint_5,vel_joint_6,vel_smooth_joint_0,vel_smooth_joint_1,vel_smooth_joint_2,vel_smooth_joint_3,vel_smooth_joint_4,vel_smooth_joint_5,vel_smooth_joint_6,ee_pos_x,ee_pos_y,ee_pos_z,ee_or_w,ee_or_x,ee_or_y,ee_or_z,ee_vel_x,ee_vel_y,ee_vel_z,ball_pos_x,ball_pos_y,ball_pos_z,ball_raw_vx,ball_raw_vy,ball_raw_vz,ball_ema_vx,ball_ema_vy,ball_ema_vz,action_0,action_1,action_2,action_3,action_4,action_5,action_6,command_published
1.822,-1.05944,-1.84246,-1.05838,1.90979,1.18851,-0.855717,1.7809,-1.06459,-1.81557,-1.11603,1.93691,1.11798,-0.915391,1.78025,-1.06467,-1.81514,-1.11695,1.93734,1.11686,-0.916338,0,0,0,0,0,0,0,0,0,0,0,0,0,0,0.53104,-0.454479,0.694297,0.574576,0.175189,0.152552,0.784792,0,0,0,2.96989,-0.460321,0.112829,-3.43861,-0.183033,6.01452,-3.29706,-0.295228,5.37813,0.417487,0.0522463,-0.273145,0.585642,-0.275527,0.716538,0.606209,1
1.81598,-1.0523,-1.84358,-1.05637,1.90458,1.18876,-0.854832,1.78472,-1.06399,-1.81815,-1.11051,1.93424,1.1247,-0.909694,1.78025,-1.06467,-1.81514,-1.11695,1.93734,1.11686,-0.916338,0,0,0,0,0,0,0,0,0,0,0,0,0,0,0.53104,-0.454479,0.694297,0.574576,0.175189,0.152552,0.784792,0,0,0,2.93914,-0.462759,0.173848,-3.10333,-0.245981,6.15697,-3.25224,-0.267272,5.64043,0.357309,0.123702,-0.284401,0.60582,-0.327604,0.718985,0.615057,1
1.81105,-1.04317,-1.84245,-1.05375,1.90026,1.18885,-0.854614,1.79386,-1.06195,-1.82464,-1.09656,1.92723,1.14152,-0.895399,1.78035,-1.06466,-1.81521,-1.11681,1.93727,1.11703,-0.916193,0.0200274,0.00250896,-0.013104,0.028097,-0.0132165,0.034376,0.029083,0.0200274,0.00250896,-0.013104,0.028097,-0.0132165,0.034376,0.029083,0.531044,-0.454466,0.694325,0.574553,0.175094,0.152554,0.78483,0.0019428,0.00144714,0.00496898,2.90705,-0.465176,0.234289,-3.35259,-0.252569,6.31462,-3.22212,-0.249259,5.82927,0.307058,0.214836,-0.272395,0.630587,-0.370108,0.718238,0.615789,1
1.80415,-1.02473,-1.83203,-1.05056,1.90631,1.18787,-0.853015,1.80493,-1.0575,-1.83317,-1.07749,1.91709,1.16396,-0.876202,1.78109,-1.06454,-1.81571,-1.11574,1.93676,1.11833,-0.915091,0.131639,0.0202637,-0.088557,0.189679,-0.0912803,0.231007,0.195764,0.131639,0.0202637,-0.088557,0.189679,-0.0912803,0.231007,0.195764,0.531063,-0.454369,0.694544,0.574386,0.174366,0.152576,0.78511,0.0114261,0.00922288,0.035237,2.87538,-0.467573,0.293205,-3.14742,-0.238204,5.85497,-3.22259,-0.238598,5.93196,0.230592,0.398091,-0.163269,0.651854,-0.30456,0.695402,0.620752,1
1.75492,-1.00574,-1.823,-1.04553,1.92636,1.18781,-0.849535,1.81026,-1.04988,-1.83854,-1.06214,1.90887,1.18076,-0.861462,1.78352,-1.06407,-1.81739,-1.11212,1.93497,1.12272,-0.911366,0.375076,0.077066,-0.262714,0.564424,-0.280745,0.68192,0.579172,0.375076,0.077066,-0.262714,0.564424,-0.280745,0.68192,0.579172,0.531082,-0.454048,0.695335,0.573865,0.171869,0.152708,0.786015,0.0258131,0.0259613,0.113815,2.84246,-0.469919,0.351775,-3.02134,-0.215296,5.37543,-3.23422,-0.230236,5.957,-0.286051,0.583289,-0.0560444,0.665876,-0.0860862,0.650925,0.618315,1
1.74597,-0.99826,-1.79291,-1.04136,1.96047,1.19273,-0.842964,1.80485,-1.03864,-1.83725,-1.05407,1.90755,1.18741,-0.8547,1.78815,-1.06279,-1.82076,-1.10478,1.93122,1.13149,-0.903893,0.608542,0.191887,-0.450163,0.989947,-0.51254,1.17771,1.00442,0.608542,0.191887,-0.450163,0.989947,-0.51254,1.17771,1.00442,0.530973,-0.453393,0.697123,0.572953,0.166712,0.153163,0.787701,0.0197677,0.0446981,0.233118,2.81116,-0.47347,0.408771,-3.12224,-0.354278,5.68607,-3.20232,-0.245992,5.93987,-0.421802,0.645275,0.278485,0.634174,0.29246,0.612347,0.609294,1
1.746,-0.995847,-1.8012,-1.02878,1.95191,1.20684,-0.836682,1.78925,-1.0248,-1.82945,-1.04959,1.91527,1.18893,-0.851589,1.79373,-1.06012,-1.8251,-1.09468,1.92595,1.14328,-0.893781,0.599803,0.371511,-0.487443,1.18058,-0.619545,1.3597,1.17228,0.599803,0.371511,-0.487443,1.18058,-0.619545,1.3597,1.17228,0.530397,-0.452496,0.700154,0.572052,0.159343,0.154129,0.78969,-0.0436717,0.0474638,0.371961,2.77869,-0.476085,0.464827,-3.30823,-0.266475,5.7123,-3.19335,-0.262352,5.86902,-0.477298,0.642702,0.238964,0.659005,0.259548,0.635615,0.570987,1
1.74517,-0.99116,-1.80045,-1.01795,1.95618,1.21795,-0.828224,1.76959,-1.01152,-1.81781,-1.04467,1.92973,1.19135,-0.847831,1.79758,-1.05549,-1.82871,-1.08422,1.92091,1.15492,-0.883581,0.263705,0.611163,-0.309716,1.09359,-0.484545,1.17833,1.04761,0.263705,0.611163,-0.309716,1.09359,-0.484545,1.17833,1.04761,0.52874,-0.451789,0.704621,0.571914,0.151168,0.155342,0.791158,-0.197595,-0.000861945,0.540761,2.74727,-0.476831,0.519728,-3.08677,-0.0732947,5.39242,-3.20189,-0.249761,5.7653,-0.524147,0.643293,0.282594,0.662686,0.352698,0.630325,0.553574,1
1.73973,-0.984363,-1.81205,-1.00774,1.94949,1.22596,-0.822128,1.75437,-1.00175,-1.80735,-1.03773,1.94388,1.19725,-0.842448,1.79725,-1.04859,-1.82993,-1.07499,1.91831,1.16436,-0.874917,-0.29005,0.862942,0.0174815,0.921183,-0.110084,0.891144,0.846163,-0.29005,0.862942,0.0174815,0.921183,-0.110084,0.891144,0.846163,0.525183,-0.452002,0.71084,0.573174,0.143193,0.155853,0.791629,-0.443959,-0.12507,0.747408,2.71484,-0.479549,0.572991,-3.10589,-0.260322,5.10112,-3.20216,-0.242153,5.65074,-0.575191,0.642253,0.178805,0.672477,0.31181,0.615945,0.52789,1
1.73023,-0.971953,-1.81056,-1.00171,1.95517,1.23133,-0.815572,1.74671,-0.995243,-1.80277,-1.02871,1.95163,1.20623,-0.835938,1.79196,-1.03981,-1.82801,-1.06703,1.91967,1.1717,-0.867727,-0.811654,1.02597,0.369906,0.81117,0.364971,0.712609,0.721683,-0.811654,1.02597,0.369906,0.81117,0.364971,0.712609,0.721683,0.519251,-0.453661,0.718894,0.575867,0.135551,0.154541,0.791277,-0.69929,-0.274073,0.932943,2.68316,-0.481701,0.625072,-3.40874,-0.231462,5.60358,-3.19923,-0.232162,5.5321,-0.617305,0.67853,0.174477,0.653194,0.355068,0.596312,0.521551,1
1.71747,-0.959796,-1.81156,-0.996717,1.96171,1.23622,-0.808557,1.74248,-0.989268,-1.80411,-1.01887,1.95354,1.21593,-0.828999,1.78329,-1.03029,-1.82351,-1.05963,1.92469,1.17817,-0.861261,-1.04874,1.03518,0.58621,0.794431,0.695904,0.691943,0.682389,-1.04874,1.03518,0.58621,0.794431,0.695904,0.691943,0.682389,0.511454,-0.456514,0.728159,0.579351,0.127974,0.151146,0.790652,-0.837301,-0.355766,1.00936,2.65135,-0.484103,0.676646,-3.12061,-0.235685,5.06,-3.18993,-0.223135,5.41207,-0.658112,0.704925,0.119518,0.629096,0.370169,0.580437,0.52704,1
1.70783,-0.950623,-1.80647,-0.989298,1.96836,1.24403,-0.801987,1.73688,-0.981511,-1.80753,-1.0099,1.95423,1.22427,-0.822123,1.77391,-1.0212,-1.81823,-1.05203,1.93132,1.18496,-0.854929,-0.986787,0.941508,0.56072,0.84614,0.736777,0.77154,0.688859,-0.986787,0.941508,0.56072,0.84614,0.736777,0.77154,0.688859,0.503043,-0.459772,0.737518,0.582879,0.120282,0.146657,0.790111,-0.830404,-0.355932,0.960128,2.62031,-0.485882,0.727275,-3.17381,-0.18193,5.17708,-3.18338,-0.207647,5.30176,-0.660837,0.705764,0.11759,0.62736,0.370367,0.590641,0.529422,1
1.70074,-0.943409,-1.80292,-0.979979,1.97008,1.25331,-0.794891,1.72855,-0.971741,-1.80955,-1.0024,1.95688,1.23111,-0.815384,1.76555,-1.01292,-1.81405,-1.04391,1.93737,1.19248,-0.84848,-0.836794,0.858079,0.360559,0.908377,0.586455,0.850576,0.706642,-0.836794,0.858079,0.360559,0.908377,0.586455,0.850576,0.706642,0.494985,-0.462869,0.746135,0.586203,0.112549,0.142489,0.789554,-0.766868,-0.330544,0.858137,2.58788,-0.489114,0.776242,-3.222,-0.321042,4.86448,-3.17803,-0.220504,5.18927,-0.648134,0.695157,0.111327,0.639314,0.32707,0.608314,0.535892,1
1.69622,-0.937128,-1.80104,-0.969982,1.96911,1.26341,-0.787488,1.71882,-0.961398,-1.80903,-0.995527,1.9614,1.23768,-0.80863,1.75815,-1.00503,-1.81176,-1.03543,1.94206,1.20041,-0.841902,-0.77165,0.853028,0.153288,0.926337,0.441388,0.865715,0.717447,-0.77165,0.853028,0.153288,0.926337,0.441388,0.865715,0.717447,0.487437,-0.465698,0.753919,0.589491,0.104972,0.139421,0.788697,-0.73108,-0.312138,0.78643,2.55633,-0.49167,0.824421,-3.32466,-0.269423,5.07736,-3.17706,-0.24224,5.08138,-0.619311,0.678995,0.107162,0.654524,0.270488,0.629981,0.544144,1
1.69053,-0.929363,-1.79722,-0.961389,1.97406,1.27107,-0.779937,1.70967,-0.952012,-1.80665,-0.988058,1.96583,1.24514,-0.801748,1.75085,-0.996862,-1.81087,-1.02704,1.94592,1.20822,-0.835261,-0.808494,0.91117,0.0479934,0.894017,0.397825,0.830286,0.720973,-0.808494,0.91117,0.0479934,0.894017,0.397825,0.830286,0.720973,0.480057,-0.46832,0.761289,0.592901,0.0976396,0.137358,0.787444,-0.74115,-0.296863,0.772353,2.52478,-0.494067,0.87142,-3.11511,-0.236648,4.6404,-3.16892,-0.244654,4.97707,-0.603158,0.674988,0.136551,0.656551,0.281456,0.628455,0.553235,1
1.68237,-0.91985,-1.79456,-0.953949,1.97969,1.27758,-0.772796,1.70213,-0.943925,-1.80358,-0.979579,1.96895,1.2536,-0.794676,1.74303,-0.988153,-1.81042,-1.019,1.94972,1.21572,-0.82859,-0.878109,0.970428,0.0502515,0.851485,0.423782,0.7966,0.723943,-0.878109,0.970428,0.0502515,0.851485,0.423782,0.7966,0.723943,0.472507,-0.470755,0.768677,0.596401,0.090439,0.135791,0.785931,-0.773366,-0.277833,0.79235,2.49267,-0.497059,0.91708,-3.02681,-0.282057,4.30418,-3.17349,-0.256402,4.86685,-0.606592,0.683034,0.158626,0.650535,0.299742,0.61858,0.557934,1
1.67371,-0.910003,-1.79242,-0.946668,1.98543,1.28438,-0.766306,1.69572,-0.936356,-1.80052,-0.970672,1.97156,1.26225,-0.787434,1.73476,-0.979128,-1.80966,-1.0112,1.95371,1.22309,-0.821875,-0.910246,0.983533,0.109172,0.839445,0.439592,0.799716,0.730037,-0.910246,0.983533,0.109172,0.839445,0.439592,0.799716,0.730037,0.464698,-0.472967,0.77624,0.599852,0.0831311,0.134297,0.784367,-0.797289,-0.252463,0.812233,2.46297,-0.498864,0.962933,-2.99076,-0.181699,4.61751,-3.15541,-0.255678,4.76303,-0.610519,0.691247,0.172372,0.645331,0.317165,0.612872,0.555692,1
1.66552,-0.900988,-1.7919,-0.938609,1.98853,1.29255,-0.760444,1.68921,-0.928344,-1.79764,-0.962102,1.97505,1.27029,-0.780197,1.72649,-0.9702,-1.80833,-1.00334,1.95763,1.23064,-0.815084,-0.883742,0.953015,0.172556,0.861799,0.410857,0.832759,0.740225,-0.883742,0.953015,0.172556,0.861799,0.410857,0.832759,0.740225,0.456755,-0.47489,0.783905,0.603112,0.0755158,0.132742,0.7829,-0.798759,-0.220165,0.816752,2.43086,-0.502189,1.00628,-3.36882,-0.348831,4.54673,-3.14943,-0.263607,4.65375,-0.60969,0.692121,0.164341,0.647307,0.309088,0.619072,0.546402,1
1.65808,-0.892519,-1.79071,-0.929982,1.99176,1.3012,-0.755123,1.68188,-0.919564,-1.79511,-0.954083,1.97959,1.27771,-0.773237,1.7186,-0.96159,-1.80652,-0.995237,1.96124,1.23848,-0.808187,-0.830075,0.91526,0.217589,0.890978,0.374357,0.862331,0.752764,-0.830075,0.91526,0.217589,0.890978,0.374357,0.862331,0.752764,0.448844,-0.476473,0.791562,0.606093,0.0675598,0.131162,0.781591,-0.786223,-0.184641,0.812323,2.40058,-0.504307,1.04934,-2.89296,-0.202412,4.11469,-3.12375,-0.255052,4.55185,-0.605176,0.690708,0.158032,0.652543,0.305264,0.627192,0.530637,1
1.6505,-0.883771,-1.78832,-0.921655,1.9958,1.30902,-0.748892,1.67392,-0.910388,-1.79316,-0.946275,1.98425,1.28508,-0.766742,1.71112,-0.953207,-1.80437,-0.986958,1.9647,1.24645,-0.801193,-0.794487,0.901806,0.244337,0.901545,0.375457,0.864862,0.761553,-0.794487,0.901806,0.244337,0.901545,0.375457,0.864862,0.761553,0.441012,-0.477724,0.799183,0.60879,0.0593868,0.129584,0.780421,-0.777421,-0.152164,0.810807,2.3701,-0.505063,1.09264,-3.02718,-0.0750668,4.30073,-3.10318,-0.234958,4.46315,-0.606203,0.694358,0.1605,0.653025,0.311042,0.625706,0.523017,1
1.64326,-0.874717,-1.78533,-0.913632,2.00012,1.31667,-0.741745,1.66591,-0.901303,-1.79164,-0.93829,1.98837,1.29284,-0.760658,1.70378,-0.944811,-1.80208,-0.978681,1.96833,1.25435,-0.794173,-0.794362,0.915737,0.252683,0.892182,0.408494,0.847405,0.75937,-0.794362,0.915737,0.252683,0.892182,0.408494,0.847405,0.75937,0.433196,-0.478701,0.806801,0.61129,0.0511516,0.12802,0.779307,-0.780874,-0.126647,0.813816,2.33884,-0.507501,1.13406,-3.11802,-0.243122,4.13123,-3.09052,-0.220546,4.37659,-0.605248,0.700945,0.16741,0.650494,0.317928,0.623228,0.524285,1
1.63592,-0.865559,-1.78312,-0.905713,2.00384,1.32382,-0.734057,1.65816,-0.892429,-1.79003,-0.930079,1.99214,1.30086,-0.754651,1.69635,-0.936246,-1.7998,-0.97051,1.97224,1.2621,-0.787241,-0.813506,0.9379,0.240912,0.879023,0.435625,0.833605,0.743543,-0.813506,0.9379,0.240912,0.879023,0.435625,0.833605,0.743543,0.425317,-0.479467,0.81442,0.61373,0.0429288,0.126536,0.778127,-0.79159,-0.107599,0.814211,2.30639,-0.510141,1.17437,-3.19741,-0.260162,3.97259,-3.09946,-0.212121,4.28748,-0.604346,0.706866,0.166799,0.647967,0.315988,0.617141,0.531846,1
1.62846,-0.856629,-1.78269,-0.897509,2.00591,1.33126,-0.726702,1.65064,-0.883592,-1.78801,-0.921835,1.99594,1.30878,-0.748295,1.68876,-0.927521,-1.79769,-0.962414,1.97627,1.26981,-0.780496,-0.828845,0.950964,0.219331,0.874999,0.43873,0.835454,0.719551,-0.828845,0.950964,0.219331,0.874999,0.43873,0.835454,0.719551,0.417353,-0.480056,0.821996,0.616211,0.0346998,0.125225,0.776787,-0.801341,-0.0912332,0.808736,2.2748,-0.512458,1.21416,-3.19329,-0.234217,4.02176,-3.12561,-0.213859,4.19497,-0.603018,0.708919,0.149938,0.649052,0.296405,0.614504,0.537942,1
1.62079,-0.84785,-1.78211,-0.88923,2.0087,1.33874,-0.719715,1.64323,-0.874656,-1.78583,-0.913687,1.99969,1.31644,-0.74141,1.6811,-0.918727,-1.79572,-0.954315,1.98028,1.27757,-0.773951,-0.832007,0.953837,0.206583,0.87907,0.430191,0.844846,0.700025,-0.832007,0.953837,0.206583,0.87907,0.430191,0.844846,0.700025,0.409329,-0.480464,0.8295,0.61874,0.026411,0.124114,0.77528,-0.806791,-0.0726179,0.802015,2.2441,-0.514526,1.25243,-3.05348,-0.205649,3.80623,-3.12688,-0.208531,4.10654,-0.603023,0.708769,0.136145,0.65085,0.284179,0.611692,0.542355,1
1.61293,-0.83912,-1.78173,-0.880947,2.01178,1.34636,-0.712924,1.63583,-0.865668,-1.78403,-0.905588,2.00309,1.3239,-0.73418,1.67344,-0.909916,-1.7938,-0.946179,1.98423,1.28539,-0.767504,-0.827022,0.954801,0.210102,0.883009,0.424705,0.848637,0.696743,-0.827022,0.954801,0.210102,0.883009,0.424705,0.848637,0.696743,0.401279,-0.480656,0.836943,0.621229,0.0180349,0.123166,0.77368,-0.808244,-0.0488527,0.798532,2.21372,-0.515903,1.28975,-3.08498,-0.139876,3.78904,-3.1308,-0.209535,4.00322,-0.605106,0.707955,0.120683,0.652327,0.275497,0.609712,0.545799,1
1.60508,-0.830386,-1.78087,-0.872659,2.01564,1.35406,-0.706289,1.62832,-0.856733,-1.78287,-0.897439,2.00608,1.33132,-0.726935,1.66584,-0.901082,-1.79182,-0.938028,1.98812,1.29319,-0.761002,-0.819944,0.958484,0.217524,0.882875,0.419658,0.843033,0.710626,-0.819944,0.958484,0.217524,0.882875,0.419658,0.843033,0.710626,0.393234,-0.480596,0.844344,0.623577,0.00959265,0.122355,0.772068,-0.806546,-0.022036,0.796159,2.18228,-0.51811,1.32539,-3.02326,-0.21221,3.42827,-3.12856,-0.215464,3.88464,-0.607555,0.706955,0.109491,0.653686,0.275216,0.608618,0.547132,1
1.59688,-0.821562,-1.78062,-0.864265,2.02018,1.36145,-0.699592,1.62067,-0.847893,-1.78216,-0.889212,2.00901,1.33882,-0.719877,1.65829,-0.892211,-1.78985,-0.929884,1.99192,1.30093,-0.754338,-0.814931,0.962763,0.211002,0.88127,0.405047,0.833082,0.73116,-0.814931,0.962763,0.211002,0.88127,0.405047,0.833082,0.73116,0.385223,-0.480284,0.851685,0.625753,0.00114005,0.121729,0.770463,-0.803096,0.00220521,0.789548,2.15018,-0.520828,1.35964,-3.53078,-0.298961,3.76663,-3.12602,-0.212018,3.7656,-0.614157,0.706488,0.0922302,0.656191,0.28256,0.605229,0.547466,1
1.58874,-0.812815,-1.78045,-0.8559,2.02454,1.36883,-0.692763,1.61287,-0.839117,-1.78161,-0.88093,2.01228,1.34637,-0.713018,1.65077,-0.883315,-1.78802,-0.921746,1.99555,1.30858,-0.747512,-0.814368,0.964226,0.18669,0.88168,0.382042,0.825017,0.746393,-0.814368,0.964226,0.18669,0.88168,0.382042,0.825017,0.746393,0.377258,-0.479763,0.858918,0.627803,-0.00726605,0.121364,0.768818,-0.800306,0.0201015,0.777119,2.12003,-0.522736,1.39432,-2.9526,-0.186893,3.39618,-3.10767,-0.207537,3.65628,-0.620352,0.705002,0.0757369,0.658459,0.289882,0.602521,0.547486,1
1.5804,-0.804065,-1.78285,-0.847365,2.02748,1.37614,-0.685777,1.60492,-0.830354,-1.78115,-0.872609,2.01602,1.35392,-0.706263,1.64323,-0.874423,-1.78645,-0.913593,1.99898,1.31618,-0.740595,-0.818468,0.9623,0.155566,0.884364,0.363641,0.82126,0.751524,-0.818468,0.9623,0.155566,0.884364,0.363641,0.82126,0.751524,0.369329,-0.479086,0.866005,0.629801,-0.0155982,0.121283,0.767071,-0.800239,0.0325105,0.762158,2.08923,-0.524223,1.42788,-2.99092,-0.144343,3.25934,-3.10139,-0.202287,3.55299,-0.628347,0.703574,0.0359869,0.662281,0.284956,0.59966,0.548186,1
1.57248,-0.795607,-1.78688,-0.83876,2.02905,1.38398,-0.678646,1.59685,-0.821591,-1.78107,-0.864243,2.01999,1.36141,-0.699503,1.63564,-0.865555,-1.78515,-0.90541,2.00233,1.32376,-0.733669,-0.826069,0.959008,0.128569,0.887965,0.360865,0.820478,0.749096,-0.826069,0.959008,0.128569,0.887965,0.360865,0.820478,0.749096,0.361403,-0.478295,0.872943,0.631792,-0.0238609,0.121429,0.765196,-0.803356,0.0423727,0.748452,2.05725,-0.526981,1.45843,-3.30119,-0.284704,3.15305,-3.11352,-0.2094,3.44,-0.631588,0.699485,-0.0172714,0.666497,0.267203,0.602258,0.550228,1
1.56446,-0.787331,-1.79124,-0.830219,2.0303,1.39174,-0.671377,1.5887,-0.812861,-1.78188,-0.855815,2.02368,1.36886,-0.692651,1.62796,-0.856715,-1.78408,-0.897193,2.00572,1.33133,-0.726778,-0.835911,0.956217,0.106109,0.891733,0.37343,0.819669,0.744133,-0.835911,0.956217,0.106109,0.891733,0.37343,0.819669,0.744133,0.353453,-0.47741,0.879751,0.633788,-0.0320666,0.121723,0.763196,-0.808692,0.0512546,0.736795,2.02632,-0.529516,1.48927,-2.87909,-0.235968,2.87044,-3.11863,-0.221343,3.3317,-0.635009,0.693847,-0.0716572,0.669744,0.245784,0.604148,0.554015,1
1.55641,-0.778936,-1.79294,-0.822039,2.034,1.39908,-0.663777,1.58056,-0.804224,-1.78394,-0.847325,2.02665,1.37636,-0.685665,1.62019,-0.847897,-1.78324,-0.88894,2.00925,1.33888,-0.719925,-0.846847,0.95421,0.0783842,0.895846,0.389695,0.817113,0.740777,-0.846847,0.95421,0.0783842,0.895846,0.389695,0.817113,0.740777,0.345467,-0.476445,0.886434,0.635795,-0.0402072,0.122129,0.761073,-0.814236,0.0587093,0.724657,1.99595,-0.532,1.51903,-3.0418,-0.248865,2.9818,-3.10532,-0.226044,3.22957,-0.63787,0.689619,-0.0970374,0.669014,0.247511,0.601978,0.561476,1
1.54878,-0.770202,-1.7941,-0.813985,2.036,1.4068,-0.65609,1.57249,-0.795709,-1.78694,-0.838826,2.02899,1.38396,-0.678518,1.61232,-0.8391,-1.78275,-0.880645,2.01286,1.34641,-0.713084,-0.856952,0.951767,0.031308,0.90069,0.392572,0.814234,0.741154,-0.856952,0.951767,0.031308,0.90069,0.392572,0.814234,0.741154,0.337462,-0.475417,0.892968,0.637834,-0.0482423,0.122704,0.758805,-0.817234,0.0634952,0.707844,1.96585,-0.534441,1.54836,-3.12487,-0.253368,3.0442,-3.08592,-0.230931,3.13204,-0.635409,0.68898,-0.113499,0.666609,0.231404,0.603872,0.569941,1
1.54097,-0.761666,-1.79661,-0.805389,2.03859,1.41461,-0.648706,1.56449,-0.787263,-1.79001,-0.830402,2.03118,1.39159,-0.671196,1.60438,-0.830336,-1.78282,-0.872303,2.01639,1.35393,-0.706219,-0.863933,0.947183,-0.0405964,0.906038,0.37246,0.813932,0.74558,-0.863933,0.947183,-0.0405964,0.906038,0.37246,0.813932,0.74558,0.329486,-0.474348,0.899296,0.639939,-0.0561118,0.123579,0.756345,-0.815724,0.0653982,0.684229,1.93503,-0.536351,1.57643,-3.06396,-0.189868,2.79055,-3.08238,-0.236788,3.0282,-0.634037,0.686698,-0.137938,0.669147,0.222086,0.606806,0.575131,1
1.53304,-0.753504,-1.79984,-0.796684,2.04102,1.42264,-0.64158,1.55658,-0.778796,-1.79254,-0.822075,2.03358,1.39922,-0.663735,1.59639,-0.821627,-1.7836,-0.863918,2.01965,1.36145,-0.699296,-0.86694,0.940138,-0.121239,0.910171,0.338444,0.81649,0.753673,-0.86694,0.940138,-0.121239,0.910171,0.338444,0.81649,0.753673,0.321585,-0.473247,0.905372,0.642127,-0.0637721,0.124867,0.753667,-0.810388,0.0671514,0.657498,1.90403,-0.538406,1.60342,-3.1495,-0.208742,2.74235,-3.07328,-0.23648,2.9347,-0.633458,0.68123,-0.16245,0.672341,0.213629,0.611867,0.577153,1
1.52468,-0.745318,-1.80416,-0.787902,2.043,1.4305,-0.634705,1.54873,-0.770297,-1.79473,-0.813737,2.03608,1.40691,-0.656252,1.58838,-0.812983,-1.78501,-0.855512,2.02264,1.369,-0.692282,-0.866687,0.932951,-0.181302,0.9108,0.310008,0.81926,0.764839,-0.866687,0.932951,-0.181302,0.9108,0.310008,0.81926,0.764839,0.313781,-0.472086,0.911208,0.644356,-0.0712354,0.126564,0.750807,-0.803732,0.0740474,0.635381,1.87345,-0.540188,1.62906,-3.27433,-0.1908,2.74467,-3.06037,-0.220535,2.84853,-0.637069,0.676655,-0.191499,0.676099,0.203674,0.614926,0.575771,1
1.51657,-0.737086,-1.80792,-0.779367,2.04507,1.4384,-0.627639,1.54085,-0.761857,-1.79724,-0.805266,2.03851,1.41471,-0.648892,1.5804,-0.804393,-1.78682,-0.847116,2.02543,1.37658,-0.685159,-0.863957,0.92848,-0.207455,0.908316,0.295614,0.82122,0.777134,-0.863957,0.92848,-0.207455,0.908316,0.295614,0.82122,0.777134,0.306067,-0.470808,0.916868,0.646544,-0.0785701,0.128567,0.747849,-0.797455,0.0891015,0.62213,1.84296,-0.542142,1.65447,-3.02927,-0.194107,2.5246,-3.06044,-0.207915,2.75258,-0.638269,0.673064,-0.210957,0.677485,0.196445,0.618242,0.575201,1
1.50903,-0.728781,-1.8115,-0.770874,2.04518,1.44648,-0.620468,1.53286,-0.753536,-1.80039,-0.796657,2.04078,1.4226,-0.641709,1.57244,-0.795832,-1.78878,-0.838737,2.02812,1.38418,-0.677937,-0.860109,0.926226,-0.215927,0.906831,0.288594,0.824483,0.786582,-0.860109,0.926226,-0.215927,0.906831,0.288594,0.824483,0.786582,0.298424,-0.469359,0.922419,0.648629,-0.0858519,0.130776,0.744854,-0.792208,0.108372,0.614265,1.8119,-0.544791,1.67878,-2.98388,-0.254499,2.33519,-3.06982,-0.205747,2.65744,-0.634106,0.670509,-0.227205,0.678636,0.170633,0.623078,0.574691,1
1.50173,-0.720565,-1.81482,-0.762373,2.04523,1.45475,-0.613049,1.52482,-0.745292,-1.80402,-0.788012,2.04274,1.43053,-0.634634,1.56451,-0.787298,-1.79085,-0.83035,2.03075,1.39182,-0.67066,-0.858176,0.92281,-0.231642,0.909872,0.281463,0.830309,0.789603,-0.858176,0.92281,-0.231642,0.909872,0.281463,0.830309,0.789603,0.290837,-0.467738,0.927879,0.650626,-0.0931091,0.133165,0.741811,-0.788833,0.124304,0.605324,1.78119,-0.547047,1.70269,-3.03725,-0.223175,2.36542,-3.07619,-0.208691,2.56694,-0.627745,0.667326,-0.239689,0.679773,0.144793,0.62932,0.576112,1
1.49495,-0.712504,-1.81792,-0.753808,2.04373,1.46322,-0.605711,1.5169,-0.737059,-1.80775,-0.779414,2.04413,1.43851,-0.62754,1.55658,-0.778809,-1.79314,-0.821918,2.0333,1.39952,-0.663387,-0.860139,0.916681,-0.262828,0.916241,0.271399,0.837094,0.786279,-0.860139,0.916681,-0.262828,0.916241,0.271399,0.837094,0.786279,0.283291,-0.465989,0.933223,0.652602,-0.100318,0.135759,0.738659,-0.787282,0.134235,0.592718,1.75044,-0.54902,1.72499,-3.22809,-0.207142,2.34025,-3.07504,-0.213905,2.47831,-0.61623,0.663046,-0.247752,0.681104,0.104295,0.636995,0.576763,1
1.48756,-0.704381,-1.82126,-0.745197,2.04335,1.47135,-0.598315,1.50927,-0.728831,-1.81132,-0.770871,2.04473,1.44661,-0.620345,1.54862,-0.770379,-1.79576,-0.81343,2.03572,1.40728,-0.656156,-0.863331,0.909952,-0.299737,0.921962,0.254608,0.843295,0.780627,-0.863331,0.909952,-0.299737,0.921962,0.254608,0.843295,0.780627,0.27579,-0.464145,0.938428,0.654604,-0.107446,0.138596,0.73535,-0.784964,0.142897,0.578536,1.7199,-0.550629,1.74548,-2.84304,-0.149756,1.90806,-3.07208,-0.211573,2.37948,-0.610573,0.659986,-0.255044,0.682335,0.0762886,0.640781,0.578409,1
1.48032,-0.696418,-1.82437,-0.736562,2.04464,1.47947,-0.59107,1.50194,-0.720643,-1.81471,-0.762336,2.04463,1.45483,-0.61305,1.54066,-0.762004,-1.79867,-0.804905,2.03792,1.41509,-0.648966,-0.861673,0.904767,-0.3292,0.924574,0.225009,0.849516,0.777144,-0.861673,0.904767,-0.3292,0.924574,0.225009,0.849516,0.777144,0.26836,-0.462183,0.943493,0.656623,-0.114486,0.14172,0.731884,-0.778215,0.156595,0.565628,1.68933,-0.552176,1.76567,-3.09294,-0.156481,2.0429,-3.07123,-0.204174,2.27888,-0.603319,0.655858,-0.257029,0.683433,0.06719,0.643766,0.578957,1
1.47304,-0.68873,-1.82876,-0.727738,2.0445,1.48773,-0.584231,1.49475,-0.71252,-1.81799,-0.753772,2.04425,1.46309,-0.605715,1.53275,-0.75367,-1.80179,-0.796368,2.03977,1.42298,-0.641788,-0.851547,0.900914,-0.345662,0.924806,0.179885,0.857352,0.777763,-0.851547,0.900914,-0.345662,0.924806,0.179885,0.857352,0.777763,0.261052,-0.460044,0.948431,0.658602,-0.121461,0.145174,0.728296,-0.765519,0.177238,0.554815,1.65778,-0.555014,1.78235,-3.18424,-0.286489,1.68322,-3.07837,-0.203457,2.14364,-0.59714,0.649399,-0.269695,0.686296,0.0472293,0.647534,0.575568,1
1.46485,-0.68116,-1.8341,-0.718763,2.04543,1.49568,-0.577743,1.48754,-0.704487,-1.82135,-0.745153,2.04409,1.47132,-0.598436,1.52497,-0.745372,-1.80501,-0.78783,2.04116,1.43094,-0.63459,-0.835314,0.896957,-0.351609,0.924679,0.12576,0.866547,0.781284,-0.835314,0.896957,-0.351609,0.924679,0.12576,0.866547,0.781284,0.253908,-0.457676,0.953259,0.660481,-0.1284,0.148984,0.724626,-0.749047,0.201764,0.54543,1.62697,-0.556761,1.79988,-3.20375,-0.181711,1.82234,-3.08105,-0.196428,2.01176,-0.60115,0.642118,-0.290872,0.690665,0.0426316,0.647453,0.568467,1
1.45715,-0.673619,-1.83934,-0.709787,2.04587,1.50376,-0.571371,1.48021,-0.696581,-1.82506,-0.736451,2.04432,1.47949,-0.591324,1.51734,-0.737115,-1.80826,-0.779288,2.04209,1.43898,-0.627358,-0.819202,0.892082,-0.352796,0.925509,0.0782671,0.874562,0.784995,-0.819202,0.892082,-0.352796,0.925509,0.0782671,0.874562,0.784995,0.246938,-0.455069,0.957984,0.662233,-0.135312,0.153128,0.720895,-0.733218,0.22525,0.536808,1.59719,-0.558082,1.81808,-2.81136,-0.124695,1.71846,-3.07514,-0.189184,1.90286,-0.601896,0.63496,-0.310782,0.695011,0.0378675,0.647851,0.559868,1
1.45015,-0.66664,-1.84549,-0.700569,2.04254,1.51227,-0.565335,1.47268,-0.688834,-1.82936,-0.727639,2.04473,1.48763,-0.584468,1.50983,-0.72891,-1.81154,-0.770732,2.04268,1.44708,-0.620105,-0.808294,0.885848,-0.356026,0.927798,0.0511617,0.879321,0.785967,-0.808294,0.885848,-0.356026,0.927798,0.0511617,0.879321,0.785967,0.240116,-0.452259,0.962612,0.663866,-0.142188,0.157536,0.71711,-0.721587,0.243681,0.528178,1.56647,-0.561155,1.83257,-3.0577,-0.305835,1.44211,-3.07026,-0.199626,1.79334,-0.596839,0.622695,-0.339473,0.701634,-0.00132076,0.651928,0.547701,1
1.44378,-0.65972,-1.85081,-0.69147,2.03832,1.52092,-0.559062,1.46506,-0.681264,-1.83429,-0.718712,2.04483,1.49576,-0.577886,1.50239,-0.720773,-1.81489,-0.762145,2.04311,1.4552,-0.612871,-0.804501,0.877471,-0.36899,0.931976,0.0438913,0.881025,0.78153,-0.804501,0.877471,-0.36899,0.931976,0.0438913,0.881025,0.78153,0.233397,-0.44931,0.967138,0.665427,-0.148996,0.162126,0.713248,-0.715069,0.254928,0.518049,1.53597,-0.563931,1.84747,-3.12483,-0.284435,1.527,-3.06456,-0.217614,1.69813,-0.586025,0.610527,-0.359185,0.70675,-0.0478772,0.657138,0.538094,1
1.43834,-0.652218,-1.85426,-0.68278,2.03583,1.52951,-0.551794,1.45762,-0.673886,-1.83964,-0.709692,2.04398,1.50399,-0.571503,1.49494,-0.712726,-1.81843,-0.753509,2.04352,1.46334,-0.605711,-0.80739,0.866576,-0.396456,0.938325,0.0439377,0.880987,0.770478,-0.80739,0.866576,-0.396456,0.938325,0.0439377,0.880987,0.770478,0.22674,-0.446294,0.971544,0.666983,-0.155691,0.166858,0.709262,-0.712446,0.259246,0.505256,1.50622,-0.565735,1.86219,-3.22931,-0.195878,1.59781,-3.04798,-0.224668,1.616,-0.566028,0.605077,-0.358233,0.707293,-0.0768311,0.661744,0.53917,1
1.43285,-0.644669,-1.85753,-0.674209,2.03396,1.53809,-0.544423,1.45066,-0.666665,-1.84498,-0.700647,2.04187,1.51238,-0.565142,1.48746,-0.704791,-1.82229,-0.744805,2.04388,1.47147,-0.598679,-0.812501,0.853375,-0.435403,0.94642,0.0345133,0.881041,0.754176,-0.812501,0.853375,-0.435403,0.94642,0.0345133,0.881041,0.754176,0.220135,-0.443257,0.975806,0.668601,-0.162231,0.171757,0.705091,-0.710176,0.259948,0.489887,1.47593,-0.568958,1.87409,-2.91529,-0.31014,1.14508,-3.02953,-0.234389,1.533,-0.546158,0.601219,-0.352382,0.705963,-0.0991411,0.666175,0.542552,1
1.4253,-0.637317,-1.8618,-0.665487,2.03589,1.54606,-0.537642,1.44427,-0.659461,-1.84983,-0.691685,2.0391,1.5209,-0.558567,1.47997,-0.696989,-1.82651,-0.736024,2.04401,1.47962,-0.591805,-0.810762,0.837981,-0.47601,0.955078,-0.0013958,0.883948,0.736357,-0.810762,0.837981,-0.47601,0.955078,-0.0013958,0.883948,0.736357,0.213615,-0.440205,0.979903,0.670306,-0.168592,0.176904,0.700693,-0.702501,0.262425,0.472734,1.4458,-0.570429,1.88491,-2.86587,-0.139972,1.02911,-3.02235,-0.240481,1.4169,-0.546661,0.596726,-0.352901,0.705366,-0.0812783,0.66444,0.54163,1
1.41647,-0.630812,-1.86843,-0.656235,2.03848,1.55391,-0.531996,1.43817,-0.652162,-1.85409,-0.682861,2.03681,1.52942,-0.551709,1.47257,-0.689332,-1.83105,-0.727171,2.04368,1.48782,-0.585073,-0.794714,0.822153,-0.505014,0.96205,-0.0655639,0.891075,0.722944,-0.794714,0.822153,-0.505014,0.96205,-0.0655639,0.891075,0.722944,0.207253,-0.437088,0.983827,0.672053,-0.174783,0.182394,0.69608,-0.685413,0.271815,0.455969,1.41649,-0.5726,1.89725,-3.0362,-0.224767,1.27786,-3.01244,-0.23974,1.31713,-0.560988,0.585199,-0.373756,0.709367,-0.0519576,0.660948,0.53077,1
1.4065,-0.625436,-1.8771,-0.646588,2.04041,1.56136,-0.52771,1.43172,-0.64487,-1.85827,-0.674087,2.03592,1.53778,-0.544834,1.46537,-0.6818,-1.83574,-0.718277,2.04274,1.49609,-0.578414,-0.765577,0.810287,-0.511065,0.964507,-0.13209,0.900102,0.71986,-0.765577,0.810287,-0.511065,0.964507,-0.13209,0.900102,0.71986,0.201122,-0.433829,0.987596,0.67373,-0.180849,0.188249,0.691335,-0.660981,0.290391,0.443399,1.38664,-0.57406,1.90773,-2.83026,-0.138517,0.993883,-2.99605,-0.216957,1.24196,-0.58874,0.56364,-0.413508,0.716891,-0.0233595,0.652707,0.507036,1
1.39851,-0.6209,-1.88575,-0.636851,2.03785,1.56916,-0.524498,1.42433,-0.637892,-1.86328,-0.665171,2.03653,1.54588,-0.538433,1.45845,-0.674347,-1.84039,-0.709384,2.04136,1.50443,-0.571735,-0.735929,0.804721,-0.496824,0.962061,-0.164972,0.906489,0.72641,-0.735929,0.804721,-0.496824,0.962061,-0.164972,0.906489,0.72641,0.195233,-0.43037,0.991261,0.675217,-0.186853,0.194362,0.686579,-0.637904,0.313609,0.436711,1.35582,-0.576504,1.91692,-3.25559,-0.258116,0.970829,-2.99672,-0.207182,1.15206,-0.599454,0.534477,-0.453622,0.725335,-0.0350553,0.647273,0.472373,1
1.39228,-0.61594,-1.8921,-0.627736,2.0334,1.57678,-0.520965,1.41602,-0.631549,-1.86966,-0.65598,2.03772,1.55374,-0.532914,1.45171,-0.666939,-1.84492,-0.700519,2.03993,1.5128,-0.565003,-0.725365,0.800511,-0.484447,0.958761,-0.145586,0.906206,0.731582,-0.725365,0.800511,-0.484447,0.958761,-0.145586,0.906206,0.731582,0.189499,-0.426739,0.99486,0.676497,-0.192817,0.200544,0.681876,-0.627932,0.329164,0.432197,1.32504,-0.578795,1.92475,-3.06012,-0.227815,0.778726,-3.01046,-0.206791,1.05771,-0.594324,0.509991,-0.471812,0.727827,-0.0653024,0.639848,0.440379,1
1.39379,-0.617631,-1.89826,-0.620716,2.03405,1.58601,-0.521718,1.40761,-0.626035,-1.87709,-0.646598,2.03808,1.56148,-0.528428,1.44604,-0.660683,-1.8487,-0.693026,2.03879,1.51988,-0.559286,-0.519747,0.573591,-0.347121,0.686982,-0.104317,0.649325,0.524202,-0.519747,0.573591,-0.347121,0.686982,-0.104317,0.649325,0.524202,0.184714,-0.423564,0.997864,0.677471,-0.197819,0.205808,0.677897,-0.445736,0.244666,0.306836,1.29442,-0.58046,1.9333,-3.06599,-0.166741,0.856247,-3.02398,-0.196939,0.989275,-0.522589,0.430525,-0.495545,0.723099,-0.0474585,0.661341,0.375674,1
1.38139,-0.602286,-1.90101,-0.611335,2.03312,1.59286,-0.509154,1.40031,-0.621389,-1.88462,-0.63735,2.03701,1.56928,-0.524831,1.43861,-0.653249,-1.85381,-0.683719,2.03834,1.52846,-0.552527,-0.819576,0.787132,-0.574675,1.0062,-0.0222697,0.917073,0.711439,-0.819576,0.787132,-0.574675,1.0062,-0.0222697,0.917073,0.711439,0.178566,-0.419956,1.00142,0.678943,-0.203723,0.211967,0.672758,-0.685678,0.308701,0.419929,1.26418,-0.582018,1.9402,-2.91538,-0.150201,0.665004,-3.03777,-0.197221,0.910737,-0.572181,0.509628,-0.471967,0.723844,-0.052161,0.64404,0.433737,1
1.36914,-0.596778,-1.9093,-0.602731,2.05458,1.60052,-0.500965,1.39442,-0.617042,-1.89138,-0.628511,2.03564,1.57723,-0.521355,1.43092,-0.646251,-1.85945,-0.674416,2.03822,1.53681,-0.546279,-0.845548,0.733295,-0.640022,1.00901,-0.00504941,0.894621,0.647502,-0.845548,0.733295,-0.640022,1.00901,-0.00504941,0.894621,0.647502,0.172359,-0.416684,1.0047,0.680747,-0.20922,0.218002,0.667297,-0.694456,0.272267,0.38716,1.23401,-0.583416,1.94517,-3.13417,-0.145217,0.516068,-3.04907,-0.186863,0.803891,-0.617733,0.494731,-0.498567,0.716841,0.163622,0.637124,0.45314,1
1.36551,-0.599752,-1.91748,-0.594307,2.06342,1.6115,-0.498249,1.38842,-0.611832,-1.89729,-0.619981,2.03652,1.58525,-0.516639,1.42319,-0.639807,-1.8656,-0.66511,2.03801,1.545,-0.540667,-0.829756,0.668082,-0.68988,1.00696,-0.0365018,0.880595,0.574409,-0.829756,0.668082,-0.68988,1.00696,-0.0365018,0.880595,0.574409,0.166227,-0.413748,1.00767,0.682872,-0.214301,0.224025,0.661494,-0.680586,0.241723,0.349488,1.20409,-0.585082,1.94853,-3.05147,-0.169917,0.3428,-3.04334,-0.17898,0.694108,-0.576793,0.400554,-0.518727,0.708031,0.254083,0.664961,0.424173,1
1.35575,-0.596029,-1.92658,-0.585159,2.07632,1.61611,-0.500477,1.38083,-0.605827,-1.90318,-0.611448,2.04198,1.59329,-0.510369,1.4158,-0.633919,-1.87203,-0.655884,2.03752,1.5531,-0.535644,-0.775461,0.612178,-0.70186,0.9929,-0.068189,0.875277,0.518318,-0.775461,0.612178,-0.70186,0.9929,-0.068189,0.875277,0.518318,0.160352,-0.411026,1.01032,0.685106,-0.219073,0.230034,0.655531,-0.647098,0.229604,0.318307,1.1737,-0.588208,1.94952,-3.09007,-0.317843,0.100608,-3.03109,-0.180874,0.561532,-0.60052,0.378896,-0.545454,0.707256,0.388036,0.630093,0.35167,1
1.34983,-0.589311,-1.93556,-0.578504,2.07898,1.62195,-0.498961,1.37228,-0.600833,-1.91,-0.602824,2.05179,1.60136,-0.504429,1.40882,-0.628335,-1.87843,-0.646815,2.03712,1.56117,-0.530869,-0.739987,0.598607,-0.684344,0.973369,-0.021781,0.873228,0.516185,-0.739987,0.598607,-0.684344,0.973369,-0.021781,0.873228,0.516185,0.154724,-0.408316,1.0128,0.687182,-0.223727,0.2359,0.649676,-0.625786,0.241569,0.31015,1.14323,-0.590244,1.95113,-2.85081,-0.190516,0.15062,-3.02502,-0.188962,0.428222,-0.58988,0.390239,-0.571331,0.683113,0.418627,0.607738,0.31908,1
1.34255,-0.581543,-1.94318,-0.571591,2.08357,1.62622,-0.493753,1.36418,-0.597436,-1.91795,-0.59431,2.06285,1.60907,-0.500793,1.40187,-0.622735,-1.88468,-0.637899,2.03779,1.56923,-0.525873,-0.763353,0.613304,-0.671086,0.959441,0.152157,0.872462,0.562389,-0.763353,0.613304,-0.671086,0.959441,0.152157,0.872462,0.562389,0.149067,-0.405507,1.01529,0.688971,-0.228434,0.24137,0.64411,-0.643249,0.256199,0.318907,1.11364,-0.591656,1.95268,-3.13084,-0.14942,0.163852,-3.01634,-0.195835,0.301206,-0.59317,0.411917,-0.585021,0.663075,0.457816,0.569829,0.321201,1
1.33759,-0.575976,-1.95113,-0.568283,2.08797,1.6306,-0.486552,1.35679,-0.593824,-1.92647,-0.586264,2.07207,1.61575,-0.498933,1.39459,-0.617175,-1.89097,-0.629077,2.04048,1.57729,-0.520566,-0.809428,0.592779,-0.690338,0.952262,0.410008,0.873231,0.585347,-0.809428,0.592779,-0.690338,0.952262,0.410008,0.873231,0.585347,0.143071,-0.402766,1.01782,0.690588,-0.233238,0.246094,0.638847,-0.685614,0.237743,0.314043,1.08307,-0.593767,1.95189,-3.12558,-0.21581,-0.0806911,-3.01764,-0.203181,0.188155,-0.570069,0.411991,-0.601635,0.607939,0.474856,0.533114,0.340144,1
1.32871,-0.571587,-1.95983,-0.567884,2.09569,1.63534,-0.483546,1.34981,-0.588633,-1.93497,-0.579179,2.0787,1.62129,-0.496656,1.38702,-0.612021,-1.89758,-0.620328,2.04538,1.5853,-0.515433,-0.828724,0.52906,-0.738637,0.94375,0.633389,0.862329,0.531042,-0.828724,0.52906,-0.738637,0.94375,0.633389,0.862329,0.531042,0.136687,-0.400379,1.02023,0.692293,-0.238048,0.24987,0.633741,-0.71672,0.19242,0.287946,1.05345,-0.596353,1.95097,-2.89472,-0.252738,-0.089927,-3.01338,-0.212958,0.0974059,-0.583118,0.404348,-0.622443,0.524435,0.503079,0.500372,0.318873,1
1.32082,-0.565928,-1.96865,-0.566901,2.10199,1.64116,-0.480653,1.34305,-0.582524,-1.94326,-0.573642,2.08396,1.62616,-0.492825,1.37941,-0.607332,-1.90466,-0.611717,2.05175,1.59306,-0.510998,-0.820746,0.489999,-0.790976,0.923273,0.737044,0.822867,0.43763,-0.820746,0.489999,-0.790976,0.923273,0.737044,0.822867,0.43763,0.130157,-0.398352,1.02245,0.694261,-0.242715,0.252935,0.628582,-0.71514,0.167804,0.266639,1.02378,-0.598166,1.9496,-2.96755,-0.18125,-0.136532,-3.0056,-0.210935,0.0245622,-0.585936,0.414042,-0.639817,0.448161,0.502402,0.480988,0.303452,1
1.31681,-0.565941,-1.9768,-0.562293,2.11232,1.64643,-0.482283,1.33621,-0.576717,-1.95151,-0.569964,2.08942,1.63088,-0.488296,1.37193,-0.602706,-1.91215,-0.603415,2.05853,1.60034,-0.507228,-0.802349,0.510439,-0.827798,0.879039,0.731576,0.759651,0.383468,-0.802349,0.510439,-0.827798,0.879039,0.731576,0.759651,0.383468,0.123822,-0.396368,1.02458,0.696405,-0.247089,0.255841,0.623307,-0.680812,0.185058,0.263775,0.993823,-0.601354,1.94463,-2.96449,-0.315565,-0.492071,-2.99538,-0.214201,-0.0693849,-0.551165,0.367655,-0.646437,0.411215,0.537896,0.460911,0.249449,1
1.31425,-0.564723,-1.98516,-0.557927,2.12132,1.65032,-0.48725,1.32923,-0.571863,-1.9599,-0.567581,2.09592,1.6358,-0.48471,1.36462,-0.597779,-1.91989,-0.595695,2.06505,1.60703,-0.503643,-0.78224,0.553317,-0.847489,0.799871,0.685643,0.693784,0.392396,-0.78224,0.553317,-0.847489,0.799871,0.685643,0.693784,0.392396,0.117946,-0.394164,1.0267,0.698472,-0.25103,0.259009,0.61809,-0.626519,0.216911,0.263427,0.964193,-0.603226,1.94041,-2.99448,-0.189165,-0.426605,-2.98582,-0.224063,-0.18049,-0.503733,0.330564,-0.652665,0.377671,0.562703,0.432934,0.163937,1
1.3083,-0.56439,-1.99411,-0.55324,2.12898,1.65424,-0.496713,1.32283,-0.568306,-1.9684,-0.5652,2.10357,1.64087,-0.48334,1.35745,-0.592563,-1.92778,-0.588879,2.07125,1.61318,-0.499881,-0.770749,0.574772,-0.860479,0.686072,0.659004,0.64228,0.420205,-0.770749,0.574772,-0.860479,0.686072,0.659004,0.64228,0.420205,0.112621,-0.391773,1.02874,0.700282,-0.254424,0.262488,0.613167,-0.570351,0.230669,0.248218,0.934912,-0.604823,1.93683,-2.73083,-0.148991,-0.333426,-2.97703,-0.226497,-0.274372,-0.491543,0.281736,-0.663324,0.356387,0.577273,0.410664,0.0316804,1
1.30131,-0.566851,-2.00312,-0.548453,2.1352,1.66138,-0.508054,1.31755,-0.566207,-1.97689,-0.561903,2.11199,1.64579,-0.485006,1.35036,-0.587326,-1.9358,-0.583151,2.0774,1.61895,-0.496047,-0.766509,0.560867,-0.874394,0.564746,0.67181,0.61124,0.41121,-0.766509,0.560867,-0.874394,0.564746,0.67181,0.61124,0.41121,0.107782,-0.389414,1.03059,0.701868,-0.25726,0.266058,0.608615,-0.525879,0.217939,0.217981,0.905073,-0.606837,1.93029,-3.25587,-0.219722,-0.713407,-2.96662,-0.218609,-0.365131,-0.490458,0.204755,-0.673217,0.346978,0.578037,0.424292,-0.120074,1
1.30294,-0.57916,-2.0116,-0.541629,2.14015,1.67403,-0.518052,1.31291,-0.565576,-1.98545,-0.557706,2.12039,1.65064,-0.490059,1.34339,-0.582397,-1.94393,-0.578372,2.08382,1.62451,-0.492623,-0.745682,0.511083,-0.887271,0.477772,0.716152,0.593617,0.336692,-0.745682,0.511083,-0.887271,0.477772,0.716152,0.593617,0.336692,0.103284,-0.387309,1.03216,0.703414,-0.259686,0.269391,0.604319,-0.496367,0.185022,0.181863,0.875096,-0.608825,1.92274,-2.94936,-0.195541,-0.743212,-2.96927,-0.207955,-0.468169,-0.404482,0.0323713,-0.676669,0.36743,0.563329,0.495291,-0.254288,1
1.3089,-0.596,-2.01982,-0.527869,2.14353,1.68704,-0.526782,1.30856,-0.567093,-1.99415,-0.552794,2.12793,1.65643,-0.49802,1.33675,-0.57808,-1.95217,-0.574132,2.09071,1.6299,-0.490247,-0.696402,0.430652,-0.896527,0.443565,0.771708,0.576265,0.190114,-0.696402,0.430652,-0.896527,0.443565,0.771708,0.576265,0.190114,0.0989764,-0.385609,1.03342,0.705159,-0.261934,0.272165,0.600056,-0.479527,0.139039,0.146295,0.845447,-0.610779,1.91625,-3.06617,-0.202141,-0.6708,-2.96988,-0.201404,-0.549749,-0.278485,-0.179193,-0.676438,0.462624,0.528153,0.571362,-0.365348,1
1.30217,-0.594373,-2.02798,-0.519742,2.14581,1.69456,-0.532041,1.30551,-0.572108,-2.00285,-0.546702,2.13419,1.66433,-0.507517,1.33059,-0.574618,-1.96049,-0.570021,2.09803,1.63515,-0.489537,-0.641532,0.327972,-0.90526,0.44668,0.810879,0.56202,-0.0189305,-0.641532,0.327972,-0.90526,0.44668,0.810879,0.56202,-0.0189305,0.0947329,-0.38442,1.03439,0.707354,-0.264194,0.274193,0.595542,-0.475524,0.0830207,0.10962,0.815642,-0.61236,1.90789,-2.85161,-0.151222,-0.799902,-2.97089,-0.186159,-0.61645,-0.284266,-0.197552,-0.674889,0.502788,0.477786,0.594123,-0.42504,1
1.29483,-0.594318,-2.03658,-0.516332,2.15041,1.6983,-0.534909,1.30444,-0.580274,-2.01141,-0.5389,2.13913,1.67419,-0.516848,1.32491,-0.572287,-1.9689,-0.565776,2.10553,1.64043,-0.490907,-0.593234,0.188424,-0.915591,0.470875,0.812674,0.580288,-0.257982,-0.593234,0.188424,-0.915591,0.470875,0.812674,0.580288,-0.257982,0.0904347,-0.383874,1.03498,0.710188,-0.26657,0.275451,0.590509,-0.485183,0.00809104,0.0593492,0.785973,-0.614423,1.89808,-2.8657,-0.199308,-0.948022,-2.97438,-0.187883,-0.710383,-0.300824,-0.220307,-0.676794,0.49444,0.448794,0.57868,-0.44002,1
1.28362,-0.597598,-2.04442,-0.508928,2.15872,1.69819,-0.53794,1.30349,-0.588312,-2.01979,-0.530138,2.14315,1.68406,-0.524679,1.31981,-0.571585,-1.97739,-0.561161,2.11284,1.64618,-0.494381,-0.518571,-0.0189732,-0.923462,0.524443,0.774431,0.658308,-0.476435,-0.518571,-0.0189732,-0.923462,0.524443,0.774431,0.658308,-0.476435,0.0859814,-0.384202,1.035,0.713676,-0.269149,0.275965,0.584866,-0.503256,-0.0983697,-0.0169528,0.756472,-0.616023,1.88791,-3.09548,-0.167882,-1.06681,-2.97491,-0.186811,-0.807296,-0.361901,-0.260133,-0.670242,0.522324,0.45877,0.520172,-0.435582,1
1.2846,-0.606284,-2.0508,-0.500618,2.16848,1.69871,-0.543638,1.30007,-0.593374,-2.02806,-0.522036,2.14722,1.69164,-0.530529,1.31559,-0.572987,-1.98593,-0.555864,2.11965,1.65284,-0.499537,-0.404601,-0.264332,-0.924403,0.615332,0.706621,0.774643,-0.627873,-0.404601,-0.264332,-0.924403,0.615332,0.706621,0.774643,-0.627873,0.0813252,-0.385586,1.03428,0.71764,-0.272029,0.27578,0.578738,-0.521782,-0.216198,-0.104635,0.726864,-0.617827,1.87504,-2.92021,-0.177854,-1.2694,-2.96911,-0.182178,-0.905693,-0.309858,-0.332973,-0.648718,0.552459,0.48834,0.458718,-0.441004,1
1.29477,-0.616766,-2.05712,-0.493258,2.17624,1.7046,-0.551821,1.29441,-0.596493,-2.03609,-0.515039,2.15257,1.6961,-0.535004,1.31228,-0.576287,-1.99444,-0.54971,2.12579,1.66041,-0.505647,-0.31893,-0.436187,-0.919711,0.709909,0.629559,0.858143,-0.690334,-0.31893,-0.436187,-0.919711,0.709909,0.629559,0.858143,-0.690334,0.0764806,-0.387841,1.03291,0.721838,-0.275201,0.275136,0.572288,-0.538159,-0.289868,-0.16216,0.697266,-0.619836,1.86185,-2.87962,-0.195481,-1.2831,-2.96367,-0.181398,-1.01812,-0.175149,-0.404798,-0.626783,0.564522,0.50448,0.44193,-0.461745,1
1.29709,-0.619727,-2.06652,-0.491127,2.1824,1.71283,-0.559452,1.28987,-0.600681,-2.04369,-0.508278,2.15962,1.69865,-0.539475,1.30979,-0.579695,-2.00162,-0.544162,2.13071,1.66711,-0.511042,-0.228523,-0.312541,-0.659002,0.508672,0.451098,0.614886,-0.494646,-0.228523,-0.312541,-0.659002,0.508672,0.451098,0.614886,-0.494646,0.0723196,-0.389982,1.03153,0.72541,-0.277979,0.274503,0.566706,-0.385169,-0.20246,-0.117524,0.667572,-0.621902,1.84755,-3.12277,-0.21735,-1.50461,-2.96245,-0.184732,-1.1473,-0.12699,-0.40032,-0.648952,0.530355,0.516955,0.457151,-0.484101,1
1.27689,-0.629383,-2.07589,-0.487143,2.18457,1.71939,-0.56427,1.28904,-0.607018,-2.05096,-0.501513,2.16752,1.70151,-0.545026,1.30617,-0.584052,-2.01035,-0.536816,2.13621,1.67475,-0.517253,-0.426482,-0.451264,-0.933733,0.789867,0.593379,0.774397,-0.643878,-0.426482,-0.451264,-0.933733,0.789867,0.593379,0.774397,-0.643878,0.0669182,-0.392639,1.0299,0.729973,-0.281054,0.27396,0.559548,-0.602178,-0.287158,-0.151396,0.638009,-0.623219,1.83315,-2.83945,-0.126412,-1.38303,-2.96037,-0.183384,-1.25488,-0.292742,-0.453311,-0.655413,0.496728,0.483566,0.446368,-0.470172,1
1.26974,-0.627201,-2.08473,-0.481183,2.1923,1.72695,-0.569282,1.28982,-0.614202,-2.05852,-0.495551,2.17485,1.70618,-0.551566,1.30214,-0.588221,-2.01881,-0.529605,2.14193,1.68119,-0.522971,-0.445032,-0.451938,-0.902217,0.773577,0.641757,0.633305,-0.598647,-0.445032,-0.451938,-0.902217,0.773577,0.641757,0.633305,-0.598647,0.0614558,-0.395225,1.02847,0.734544,-0.283631,0.273289,0.552551,-0.605606,-0.288915,-0.140523,0.608183,-0.625528,1.8171,-3.12875,-0.242218,-1.6832,-2.9628,-0.184928,-1.357,-0.323934,-0.389796,-0.659124,0.48422,0.503686,0.457547,-0.463109,1
1.27539,-0.629189,-2.09188,-0.472645,2.20241,1.7312,-0.574692,1.28753,-0.620539,-2.0668,-0.49064,2.18103,1.71249,-0.558134,1.29853,-0.592726,-2.02698,-0.522521,2.14816,1.68658,-0.528502,-0.344307,-0.518427,-0.869778,0.762035,0.702272,0.541567,-0.599376,-0.344307,-0.518427,-0.869778,0.762035,0.702272,0.541567,-0.599376,0.0561021,-0.398021,1.02703,0.739039,-0.285849,0.272024,0.545999,-0.574547,-0.321563,-0.158794,0.579095,-0.627599,1.8006,-2.95869,-0.21067,-1.6779,-2.95982,-0.191115,-1.45182,-0.231447,-0.364628,-0.648982,0.498762,0.54255,0.446192,-0.461906,1
1.27731,-0.643917,-2.09964,-0.468222,2.20783,1.73408,-0.58183,1.28161,-0.625274,-2.07548,-0.485809,2.18688,1.71925,-0.564077,1.29596,-0.59788,-2.03494,-0.515651,2.15477,1.69153,-0.53419,-0.222736,-0.592025,-0.855327,0.72906,0.728328,0.531491,-0.630284,-0.222736,-0.592025,-0.855327,0.72906,0.728328,0.531491,-0.630284,0.0510612,-0.401162,1.02537,0.743345,-0.287933,0.270095,0.539982,-0.527484,-0.357493,-0.194729,0.550018,-0.630006,1.7831,-2.84725,-0.235756,-1.71363,-2.95096,-0.198897,-1.53126,-0.186494,-0.460363,-0.647026,0.474282,0.530581,0.425454,-0.476406,1
1.26986,-0.656333,-2.10832,-0.467087,2.2117,1.73768,-0.588513,1.27641,-0.629337,-2.08396,-0.480264,2.19344,1.72534,-0.569658,1.29387,-0.60348,-2.04289,-0.509199,2.16141,1.69665,-0.540124,-0.22994,-0.618783,-0.867,0.673205,0.711617,0.574611,-0.65328,-0.22994,-0.618783,-0.867,0.673205,0.711617,0.574611,-0.65328,0.0462538,-0.404543,1.02342,0.747516,-0.289926,0.267959,0.534191,-0.517254,-0.372846,-0.225064,0.520756,-0.632396,1.76323,-2.93087,-0.239379,-1.99072,-2.94126,-0.208109,-1.63321,-0.240035,-0.528534,-0.654253,0.421118,0.502876,0.410239,-0.483897,1
1.26275,-0.662707,-2.11704,-0.464534,2.21824,1.74314,-0.594291,1.27428,-0.635114,-2.09206,-0.47461,2.20045,1.73028,-0.575484,1.29116,-0.609042,-2.051,-0.503196,2.16787,1.70218,-0.546141,-0.34641,-0.588757,-0.887977,0.630698,0.689387,0.619117,-0.650596,-0.34641,-0.588757,-0.887977,0.630698,0.689387,0.619117,-0.650596,0.0413679,-0.4079,1.02131,0.751703,-0.291794,0.266147,0.528171,-0.548541,-0.355679,-0.230447,0.491904,-0.633631,1.74322,-2.73139,-0.116872,-1.89388,-2.92742,-0.207216,-1.73857,-0.284125,-0.536643,-0.660349,0.386624,0.50363,0.409616,-0.481493,1
1.262,-0.666878,-2.12529,-0.45994,2.22608,1.75,-0.600006,1.27279,-0.643701,-2.10012,-0.470028,2.20691,1.73445,-0.581725,1.28766,-0.614267,-2.05924,-0.497416,2.17427,1.70795,-0.552082,-0.408035,-0.546621,-0.896559,0.622155,0.695435,0.630494,-0.637516,-0.408035,-0.546621,-0.896559,0.622155,0.695435,0.630494,-0.637516,0.0362962,-0.411014,1.01921,0.755905,-0.293616,0.264735,0.521835,-0.566663,-0.32425,-0.218693,0.462235,-0.636187,1.72266,-3.07978,-0.265359,-2.13463,-2.92221,-0.213964,-1.84496,-0.256552,-0.526108,-0.660467,0.374767,0.518137,0.420479,-0.479234,1
1.26007,-0.673891,-2.13359,-0.457584,2.2329,1.75416,-0.606423,1.26957,-0.65318,-2.1084,-0.466678,2.21283,1.73875,-0.588062,1.28414,-0.619426,-2.06749,-0.491686,2.18078,1.71364,-0.557959,-0.357694,-0.569043,-0.891134,0.619418,0.713429,0.603501,-0.635686,-0.357694,-0.569043,-0.891134,0.619418,0.713429,0.603501,-0.635686,0.0312372,-0.414025,1.01712,0.760023,-0.295413,0.263341,0.515507,-0.548902,-0.330213,-0.227541,0.433298,-0.637994,1.70121,-2.82939,-0.176693,-2.0968,-2.91603,-0.207862,-1.94081,-0.240692,-0.544651,-0.660946,0.341026,0.521182,0.405204,-0.484644,1
1.25319,-0.683538,-2.14218,-0.461246,2.23889,1.75484,-0.613131,1.2654,-0.661279,-2.11685,-0.463825,2.21902,1.74365,-0.594233,1.28112,-0.625191,-2.0757,-0.486142,2.18734,1.719,-0.563885,-0.301917,-0.671411,-0.885907,0.5845,0.709668,0.56047,-0.647118,-0.301917,-0.671411,-0.885907,0.5845,0.709668,0.56047,-0.647118,0.0263257,-0.417399,1.01478,0.764103,-0.29693,0.261591,0.50946,-0.530795,-0.392695,-0.276214,0.404481,-0.639694,1.67843,-2.96621,-0.174921,-2.34557,-2.91358,-0.200184,-2.03885,-0.279261,-0.583468,-0.664854,0.248963,0.515428,0.358434,-0.492466,1
1.2452,-0.692302,-2.15058,-0.464782,2.24532,1.75702,-0.619501,1.26161,-0.668156,-2.12529,-0.461462,2.22571,1.74853,-0.600344,1.27826,-0.631893,-2.08389,-0.48106,2.1938,1.72404,-0.569915,-0.315394,-0.772124,-0.889212,0.521696,0.690311,0.533777,-0.658255,-0.315394,-0.772124,-0.889212,0.521696,0.690311,0.533777,-0.658255,0.0214704,-0.421416,1.01199,0.768287,-0.297898,0.259487,0.503645,-0.534447,-0.459799,-0.333515,0.37561,-0.641585,1.6558,-2.96842,-0.194472,-2.32699,-2.9085,-0.191766,-2.11978,-0.330647,-0.604086,-0.666864,0.162782,0.515243,0.329802,-0.495864,1
1.23843,-0.700209,-2.15897,-0.468573,2.25193,1.76336,-0.625512,1.25758,-0.675323,-2.1337,-0.460641,2.23246,1.75247,-0.606598,1.27516,-0.639171,-2.09214,-0.476545,2.20014,1.72896,-0.576006,-0.353839,-0.80194,-0.896425,0.461392,0.684575,0.532795,-0.66115,-0.353839,-0.80194,-0.896425,0.461392,0.684575,0.532795,-0.66115,0.016584,-0.425854,1.00884,0.772571,-0.298391,0.257271,0.497904,-0.540192,-0.481178,-0.363001,0.346938,-0.643392,1.63174,-2.72,-0.171422,-2.28201,-2.89927,-0.18715,-2.19127,-0.367301,-0.610379,-0.668329,0.0797189,0.517814,0.34404,-0.495056,1
1.23324,-0.707529,-2.16751,-0.473705,2.25731,1.7732,-0.63167,1.25221,-0.683381,-2.14213,-0.462027,2.23898,1.75564,-0.612977,1.27181,-0.646493,-2.10044,-0.472577,2.20652,1.73387,-0.582111,-0.369954,-0.785755,-0.901426,0.403165,0.695932,0.531574,-0.661359,-0.369954,-0.785755,-0.901426,0.403165,0.695932,0.531574,-0.661359,0.0117313,-0.430355,1.00553,0.77683,-0.29864,0.255092,0.492218,-0.530529,-0.473664,-0.371531,0.318136,-0.645767,1.6061,-3.04215,-0.25086,-2.70809,-2.89138,-0.194321,-2.28081,-0.38572,-0.610357,-0.6707,-0.0112809,0.507893,0.393245,-0.495589,1
1.22788,-0.714408,-2.17628,-0.482955,2.26176,1.78301,-0.637651,1.24575,-0.691751,-2.15058,-0.465212,2.24528,1.75954,-0.619311,1.2683,-0.653734,-2.10877,-0.4693,2.213,1.73863,-0.58824,-0.388804,-0.783074,-0.904197,0.31409,0.705989,0.501813,-0.66592,-0.388804,-0.783074,-0.904197,0.31409,0.705989,0.501813,-0.66592,0.00699844,-0.434884,1.00212,0.781037,-0.298606,0.252905,0.486678,-0.515879,-0.482399,-0.389375,0.289315,-0.647633,1.57976,-2.74466,-0.177678,-2.50812,-2.88081,-0.191362,-2.37715,-0.404226,-0.60674,-0.675119,-0.136547,0.487617,0.443815,-0.494115,1
1.22264,-0.722616,-2.18484,-0.490734,2.26559,1.7908,-0.644017,1.23929,-0.699778,-2.15906,-0.469723,2.25126,1.76551,-0.625515,1.26444,-0.661091,-2.11713,-0.467058,2.21951,1.74304,-0.594423,-0.44354,-0.808495,-0.906607,0.182491,0.705994,0.457012,-0.672986,-0.44354,-0.808495,-0.906607,0.182491,0.705994,0.457012,-0.672986,0.00236281,-0.439659,0.998464,0.785294,-0.29801,0.250623,0.481343,-0.511307,-0.517083,-0.42751,0.260151,-0.649106,1.55231,-2.85392,-0.144185,-2.68696,-2.88302,-0.1907,-2.47767,-0.417975,-0.615247,-0.677046,-0.236754,0.460719,0.477631,-0.495937,1
1.21574,-0.73276,-2.1934,-0.498103,2.27043,1.79545,-0.650448,1.23337,-0.707432,-2.16761,-0.475616,2.25666,1.77339,-0.631649,1.25998,-0.668694,-2.12552,-0.466121,2.226,1.74721,-0.600655,-0.516146,-0.836277,-0.909017,0.032975,0.699258,0.447192,-0.676666,-0.516146,-0.836277,-0.909017,0.032975,0.699258,0.447192,-0.676666,-0.00224159,-0.444801,0.994455,0.789646,-0.296725,0.248264,0.476212,-0.512694,-0.552786,-0.474376,0.230687,-0.650906,1.5239,-2.91271,-0.177929,-2.80818,-2.89258,-0.189002,-2.5805,-0.442418,-0.640655,-0.678823,-0.319826,0.444279,0.482415,-0.497928,1
1.20377,-0.745645,-2.20248,-0.510897,2.27606,1.79491,-0.657017,1.22765,-0.715252,-2.17622,-0.482834,2.26147,1.78164,-0.637822,1.25495,-0.676463,-2.13392,-0.466556,2.23238,1.75162,-0.606896,-0.568317,-0.845696,-0.911797,-0.114888,0.6846,0.503694,-0.675334,-0.568317,-0.845696,-0.911797,-0.114888,0.6846,0.503694,-0.675334,-0.0067915,-0.450213,0.990045,0.793976,-0.294937,0.245963,0.471292,-0.50381,-0.571005,-0.519437,0.201303,-0.652521,1.49455,-2.9432,-0.161741,-2.94001,-2.90502,-0.182767,-2.69006,-0.511874,-0.691827,-0.685555,-0.443415,0.436749,0.432915,-0.501213,1
1.18995,-0.75775,-2.21157,-0.523602,2.27991,1.79127,-0.664998,1.22121,-0.724013,-2.18488,-0.491099,2.26604,1.78838,-0.644132,1.2496,-0.684247,-2.14236,-0.468358,2.23856,1.75677,-0.613115,-0.588991,-0.84095,-0.915825,-0.263262,0.656456,0.602815,-0.672238,-0.588991,-0.84095,-0.915825,-0.263262,0.656456,0.602815,-0.672238,-0.0111635,-0.455742,0.985229,0.798113,-0.292903,0.243863,0.466641,-0.477719,-0.577422,-0.562889,0.17257,-0.654151,1.4638,-3.04101,-0.172554,-3.25364,-2.91214,-0.175209,-2.79563,-0.596562,-0.735032,-0.692133,-0.552438,0.413437,0.345073,-0.518822,1
1.17939,-0.76764,-2.22126,-0.533545,2.27773,1.79603,-0.672283,1.21298,-0.734176,-2.19365,-0.500517,2.2706,1.79234,-0.650692,1.24412,-0.69202,-2.15084,-0.471524,2.24443,1.76275,-0.619317,-0.597429,-0.842651,-0.920599,-0.410249,0.618063,0.685374,-0.671208,-0.597429,-0.842651,-0.920599,-0.410249,0.618063,0.685374,-0.671208,-0.0152637,-0.461359,0.979999,0.802003,-0.290674,0.242001,0.462315,-0.447075,-0.589022,-0.608716,0.144117,-0.656516,1.43224,-2.70057,-0.224469,-2.99629,-2.90856,-0.173926,-2.89739,-0.647367,-0.756206,-0.704253,-0.620208,0.332992,0.332828,-0.529659,1
1.17168,-0.776568,-2.23051,-0.542714,2.27069,1.80535,-0.67937,1.20269,-0.74536,-2.20262,-0.51117,2.27451,1.79388,-0.657607,1.23847,-0.69995,-2.15936,-0.475999,2.24996,1.76914,-0.625531,-0.625852,-0.872796,-0.925565,-0.547697,0.583152,0.697978,-0.674682,-0.625852,-0.872796,-0.925565,-0.547697,0.583152,0.697978,-0.674682,-0.0191627,-0.467205,0.974329,0.805785,-0.288029,0.240239,0.458296,-0.435071,-0.620618,-0.661216,0.116422,-0.658424,1.4002,-2.82553,-0.194636,-3.26862,-2.8888,-0.180138,-2.99618,-0.66787,-0.766177,-0.711429,-0.66715,0.207256,0.362127,-0.538384,1
1.16567,-0.785409,-2.23942,-0.551158,2.26129,1.81489,-0.686351,1.19155,-0.756536,-2.2118,-0.522273,2.27623,1.79531,-0.664824,1.23231,-0.708331,-2.16794,-0.481725,2.25522,1.7752,-0.631811,-0.701274,-0.9374,-0.932402,-0.681622,0.557764,0.621689,-0.684848,-0.701274,-0.9374,-0.932402,-0.681622,0.557764,0.621689,-0.684848,-0.0230965,-0.473523,0.96817,0.809739,-0.284563,0.238335,0.454471,-0.456154,-0.676604,-0.723959,0.0876852,-0.66084,1.36734,-2.82438,-0.237414,-3.2294,-2.86826,-0.193682,-3.08789,-0.666394,-0.770779,-0.714718,-0.69433,0.0607444,0.396926,-0.545402,1
1.15953,-0.794268,-2.24782,-0.559467,2.25408,1.82508,-0.692709,1.18131,-0.76689,-2.22108,-0.532743,2.27441,1.79921,-0.672102,1.22525,-0.717375,-2.17661,-0.488687,2.26018,1.78029,-0.638225,-0.818206,-1.01509,-0.943428,-0.815459,0.519713,0.49285,-0.703011,-0.818206,-1.01509,-0.943428,-0.815459,0.519713,0.49285,-0.703011,-0.0273148,-0.48049,0.961473,0.814126,-0.279889,0.236138,0.450665,-0.501888,-0.74097,-0.792237,0.0601552,-0.662299,1.33292,-2.89645,-0.153534,-3.62138,-2.83921,-0.196745,-3.18199,-0.657233,-0.768933,-0.712152,-0.707799,-0.0610079,0.447828,-0.544842,1
1.1525,-0.804592,-2.25622,-0.568758,2.25324,1.83186,-0.69981,1.17285,-0.776398,-2.23024,-0.542233,2.26925,1.80618,-0.679218,1.21715,-0.727023,-2.18539,-0.496765,2.2645,1.78437,-0.644827,-0.928455,-1.07045,-0.957968,-0.925201,0.425162,0.397093,-0.725308,-0.928455,-1.07045,-0.957968,-0.925201,0.425162,0.397093,-0.725308,-0.0318848,-0.488026,0.954251,0.818988,-0.273944,0.233818,0.446703,-0.543551,-0.782468,-0.851752,0.0321216,-0.664058,1.29724,-2.79305,-0.175258,-3.55462,-2.81716,-0.19725,-3.28064,-0.646444,-0.775685,-0.708289,-0.719931,-0.112659,0.474941,-0.549826,1
1.14262,-0.815647,-2.265,-0.577696,2.26336,1.83144,-0.707603,1.16571,-0.785586,-2.23914,-0.551109,2.26291,1.81475,-0.686146,1.20832,-0.736979,-2.1943,-0.505603,2.26755,1.78807,-0.651613,-0.979518,-1.08491,-0.971278,-0.984391,0.248818,0.404067,-0.74317,-0.979518,-1.08491,-0.971278,-0.984391,0.248818,0.404067,-0.74317,-0.036616,-0.49579,0.946597,0.824079,-0.267108,0.231861,0.442479,-0.553395,-0.782203,-0.891773,0.00321228,-0.666064,1.26205,-2.87869,-0.199714,-3.50407,-2.81546,-0.19534,-3.36614,-0.656952,-0.786686,-0.707021,-0.720926,-0.0418397,0.43368,-0.559901,1
1.13353,-0.826213,-2.27381,-0.587175,2.27617,1.82519,-0.716235,1.15878,-0.795039,-2.2478,-0.559864,2.25871,1.82257,-0.693077,1.19936,-0.746917,-2.2033,-0.514753,2.2687,1.7923,-0.658513,-0.961611,-1.06929,-0.977228,-0.996715,0.0200683,0.503674,-0.750995,-0.961611,-1.06929,-0.977228,-0.996715,0.0200683,0.503674,-0.750995,-0.0411916,-0.503392,0.938631,0.829036,-0.259952,0.230774,0.438027,-0.527815,-0.749871,-0.914228,-0.0252532,-0.667428,1.22502,-3.0609,-0.146722,-3.98221,-2.82177,-0.182974,-3.45728,-0.658325,-0.792956,-0.705077,-0.724219,0.074661,0.328977,-0.577222,1
1.12387,-0.835893,-2.28249,-0.596712,2.27993,1.81442,-0.723936,1.15114,-0.805043,-2.25639,-0.568782,2.2594,1.82727,-0.700308,1.19075,-0.756684,-2.2123,-0.523905,2.26788,1.79755,-0.665446,-0.908336,-1.0483,-0.973337,-0.986716,-0.180322,0.624084,-0.75082,-0.908336,-1.0483,-0.973337,-0.986716,-0.180322,0.624084,-0.75082,-0.0454122,-0.510627,0.930445,0.833617,-0.25289,0.230701,0.433481,-0.48993,-0.709895,-0.928091,-0.0530183,-0.66917,1.1872,-2.87809,-0.180505,-3.92059,-2.8255,-0.175636,-3.55183,-0.66883,-0.792084,-0.701844,-0.728067,0.120434,0.168722,-0.584896,1
1.1155,-0.845326,-2.29113,-0.605831,2.2811,1.81508,-0.73006,1.14257,-0.815417,-2.26504,-0.577922,2.26492,1.82737,-0.707953,1.18259,-0.766328,-2.22124,-0.532961,2.26583,1.80363,-0.672378,-0.863637,-1.04138,-0.963375,-0.975796,-0.258114,0.687277,-0.750791,-0.863637,-1.04138,-0.963375,-0.975796,-0.258114,0.687277,-0.750791,-0.0493594,-0.517527,0.922097,0.837833,-0.246046,0.231248,0.428978,-0.471888,-0.68203,-0.940261,-0.0818823,-0.671251,1.14846,-2.8702,-0.206947,-3.85186,-2.83009,-0.172658,-3.64395,-0.670869,-0.789976,-0.698919,-0.728702,0.15266,0.114513,-0.576815,1
1.10882,-0.855137,-2.29988,-0.614786,2.28303,1.82498,-0.736185,1.13351,-0.825723,-2.27375,-0.587209,2.27212,1.8238,-0.715717,1.17467,-0.776003,-2.23009,-0.541956,2.26392,1.80972,-0.679356,-0.853365,-1.05337,-0.954189,-0.973051,-0.163829,0.636608,-0.759998,-0.853365,-1.05337,-0.954189,-0.973051,-0.163829,0.636608,-0.759998,-0.0533605,-0.524276,0.913639,0.841925,-0.239299,0.231602,0.424569,-0.492532,-0.673987,-0.950981,-0.109932,-0.673312,1.10919,-2.41442,-0.177436,-3.38066,-2.8375,-0.180463,-3.72721,-0.658485,-0.791342,-0.697922,-0.728302,0.191093,0.152649,-0.568299,1
1.10336,-0.864929,-2.30921,-0.624457,2.28695,1.84078,-0.743669,1.12465,-0.835706,-2.28248,-0.596522,2.27775,1.82037,-0.723115,1.16668,-0.785827,-2.23887,-0.550963,2.26349,1.81471,-0.686469,-0.874627,-1.07331,-0.949367,-0.977851,0.0519714,0.45917,-0.779314,-0.874627,-1.07331,-0.949367,-0.977851,0.0519714,0.45917,-0.779314,-0.057772,-0.531078,0.905153,0.846225,-0.232368,0.230935,0.42021,-0.54312,-0.681142,-0.955839,-0.138338,-0.67539,1.06884,-2.94595,-0.215537,-4.18455,-2.83677,-0.186843,-3.81253,-0.633226,-0.791013,-0.703411,-0.734932,0.23467,0.260745,-0.572003,1
1.0994,-0.874245,-2.31835,-0.634691,2.29467,1.85473,-0.750981,1.11662,-0.845449,-2.29124,-0.605801,2.2813,1.82148,-0.730016,1.15846,-0.795797,-2.24763,-0.560031,2.265,1.81775,-0.693751,-0.905012,-1.08549,-0.947677,-0.985842,0.258435,0.219586,-0.796786,-0.905012,-1.08549,-0.947677,-0.985842,0.258435,0.219586,-0.796786,-0.0627373,-0.53804,0.896722,0.850941,-0.224944,0.228896,0.41582,-0.594934,-0.690155,-0.954132,-0.165575,-0.677571,1.02594,-2.86913,-0.22971,-4.51849,-2.81945,-0.194962,-3.92395,-0.590589,-0.784472,-0.707256,-0.746603,0.296734,0.36984,-0.572301,1
1.09545,-0.883269,-2.32723,-0.644886,2.30108,1.86281,-0.758614,1.10981,-0.855107,-2.30014,-0.615164,2.28447,1.82876,-0.736781,1.15002,-0.805813,-2.25637,-0.569165,2.26788,1.81894,-0.701113,-0.920478,-1.0843,-0.946853,-0.992337,0.358,0.0519068,-0.798063,-0.920478,-1.0843,-0.946853,-0.992337,0.358,0.0519068,-0.798063,-0.0681278,-0.5451,0.888352,0.855992,-0.216955,0.225802,0.411365,-0.624428,-0.686293,-0.953754,-0.194377,-0.679236,0.983704,-2.88576,-0.166784,-4.23214,-2.81764,-0.201304,-4.02172,-0.545699,-0.774564,-0.708536,-0.757214,0.332032,0.438759,-0.57501,1
1.08682,-0.892995,-2.33567,-0.654145,2.3062,1.86216,-0.765861,1.10417,-0.864684,-2.30916,-0.624788,2.28881,1.83993,-0.743792,1.1416,-0.815782,-2.26512,-0.578344,2.27122,1.81951,-0.708409,-0.905985,-1.07609,-0.947618,-0.995936,0.36541,0.0712551,-0.783733,-0.905985,-1.07609,-0.947618,-0.995936,0.36541,0.0712551,-0.783733,-0.0736869,-0.552054,0.879938,0.861054,-0.208774,0.222331,0.406901,-0.626987,-0.661927,-0.96456,-0.222825,-0.681121,0.939353,-2.7329,-0.181128,-4.26058,-2.82161,-0.200298,-4.12962,-0.547816,-0.772129,-0.705528,-0.758004,0.349736,0.426424,-0.574513,1
1.07636,-0.90354,-2.34412,-0.662364,2.31098,1.85358,-0.773188,1.099,-0.874149,-2.31816,-0.634621,2.2944,1.85063,-0.751084,1.13347,-0.825674,-2.27389,-0.587565,2.27457,1.82119,-0.715573,-0.858266,-1.06762,-0.952096,-1.00111,0.359271,0.274555,-0.769288,-0.858266,-1.06762,-0.952096,-1.00111,0.359271,0.274555,-0.769288,-0.0791925,-0.558669,0.871324,0.865773,-0.201075,0.219017,0.40254,-0.609293,-0.621283,-0.987881,-0.250112,-0.68338,0.895028,-2.73788,-0.226632,-4.4474,-2.80898,-0.199467,-4.23251,-0.57115,-0.778655,-0.702334,-0.747994,0.364148,0.323869,-0.576155,1
1.06717,-0.913898,-2.35242,-0.670584,2.31586,1.8428,-0.780148,1.09307,-0.883654,-2.32699,-0.644321,2.30033,1.85693,-0.758475,1.1259,-0.835488,-2.28271,-0.596866,2.27804,1.82505,-0.722661,-0.788185,-1.05902,-0.959149,-1.01283,0.390611,0.539675,-0.766499,-0.788185,-1.05902,-0.959149,-1.01283,0.390611,0.539675,-0.766499,-0.084515,-0.564812,0.86242,0.869973,-0.194376,0.215988,0.39839,-0.580477,-0.576925,-1.01464,-0.277011,-0.686129,0.849702,-2.72082,-0.278064,-4.58462,-2.79298,-0.20707,-4.33094,-0.587325,-0.784098,-0.697057,-0.737184,0.378235,0.177541,-0.57487,1
1.05948,-0.924062,-2.36064,-0.678828,2.32021,1.83676,-0.785585,1.08556,-0.893436,-2.3356,-0.653541,2.30586,1.85706,-0.765786,1.11895,-0.845217,-2.29159,-0.606291,2.28195,1.83091,-0.72977,-0.723581,-1.04944,-0.963682,-1.02763,0.45147,0.715223,-0.773111,-0.723581,-1.04944,-0.963682,-1.02763,0.45147,0.715223,-0.773111,-0.0896333,-0.570516,0.853263,0.873726,-0.188672,0.213055,0.394479,-0.554721,-0.541522,-1.03347,-0.304986,-0.687388,0.802358,-2.89036,-0.130059,-4.89165,-2.78054,-0.204472,-4.4307,-0.594664,-0.788449,-0.690458,-0.725371,0.382632,0.0585117,-0.558149,1
1.05368,-0.933926,-2.36915,-0.687804,2.32579,1.84341,-0.790855,1.07687,-0.903537,-2.34404,-0.662234,2.31092,1.85221,-0.772827,1.11238,-0.854877,-2.30048,-0.615811,2.28639,1.83747,-0.736947,-0.70042,-1.04379,-0.961572,-1.03417,0.505707,0.706041,-0.780881,-0.70042,-1.04379,-0.961572,-1.03417,0.505707,0.706041,-0.780881,-0.0946705,-0.575949,0.843982,0.877296,-0.183415,0.209929,0.390692,-0.552116,-0.522229,-1.0395,-0.33349,-0.687122,0.754187,-2.71237,0.0252396,-4.58381,-2.78268,-0.17845,-4.52718,-0.587046,-0.790488,-0.68672,-0.71993,0.394019,0.0593913,-0.539078,1
1.04892,-0.943181,-2.37795,-0.697849,2.33261,1.85572,-0.796866,1.06825,-0.913749,-2.3524,-0.670687,2.31579,1.8463,-0.77938,1.10575,-0.864536,-2.30931,-0.625308,2.29119,1.843,-0.744172,-0.732564,-1.04827,-0.953311,-1.02408,0.532235,0.509817,-0.784001,-0.732564,-1.04827,-0.953311,-1.02408,0.532235,0.509817,-0.784001,-0.099871,-0.581328,0.834715,0.881013,-0.177801,0.206374,0.386797,-0.582661,-0.519048,-1.0356,-0.359228,-0.689327,0.704593,-2.7152,-0.232605,-5.23193,-2.75271,-0.165308,-4.64406,-0.568342,-0.786451,-0.686384,-0.725411,0.414157,0.12721,-0.526946,1
1.04353,-0.952097,-2.38693,-0.708224,2.33917,1.86852,-0.802746,1.06069,-0.923813,-2.3608,-0.679313,2.32087,1.84398,-0.785401,1.09869,-0.874279,-2.31806,-0.634646,2.29613,1.84624,-0.751379,-0.791722,-1.06126,-0.942318,-1.00073,0.536557,0.216456,-0.777963,-0.791722,-1.06126,-0.942318,-1.00073,0.536557,0.216456,-0.777963,-0.105447,-0.586818,0.825543,0.885096,-0.171203,0.202263,0.382602,-0.630911,-0.524744,-1.02844,-0.386596,-0.691461,0.656055,-2.8248,-0.220189,-5.00986,-2.7358,-0.156811,-4.73672,-0.551658,-0.778178,-0.688737,-0.735783,0.430439,0.222764,-0.513669,1
1.04099,-0.960689,-2.39553,-0.718527,2.34755,1.88061,-0.809088,1.05439,-0.933553,-2.36934,-0.688437,2.32651,1.84777,-0.791149,1.09119,-0.884141,-2.32671,-0.643764,2.30107,1.84703,-0.758465,-0.831809,-1.074,-0.932069,-0.976597,0.534157,-0.026484,-0.758648,-0.831809,-1.074,-0.932069,-0.976597,0.534157,-0.026484,-0.758648,-0.111414,-0.592445,0.816456,0.889517,-0.163516,0.197628,0.378108,-0.667892,-0.526504,-1.02532,-0.386596,-0.691461,0.656055,0,0,0,-2.4388,-0.131591,-4.29279,-0.501931,-0.765484,-0.688165,-0.747636,0.464773,0.335808,-0.506226,1
1.03986,-0.969925,-2.40277,-0.727836,2.35926,1.88534,-0.813619,1.04916,-0.942911,-2.37801,-0.698124,2.33294,1.85665,-0.796924,1.08352,-0.894079,-2.33528,-0.65272,2.30602,1.84646,-0.765318,-0.82817,-1.0785,-0.925656,-0.964556,0.538722,-0.0900727,-0.728433,-0.82817,-1.0785,-0.925656,-0.964556,0.538722,-0.0900727,-0.728433,-0.117592,-0.598066,0.807363,0.89402,-0.155235,0.192675,0.373507,-0.676138,-0.511935,-1.03163,-0.386596,-0.691461,0.656055,0,0,0,-1.94672,-0.101712,-3.47029,-0.436631,-0.758461,-0.674863,-0.751156,0.532418,0.388747,-0.483003,1
1.03859,-0.980542,-2.40963,-0.733405,2.36535,1.8901,-0.819155,1.04498,-0.951995,-2.3866,-0.708066,2.34034,1.86742,-0.802747,1.07608,-0.904003,-2.34383,-0.661659,2.3111,1.84634,-0.771894,-0.786837,-1.07182,-0.92533,-0.971271,0.559133,0.0518871,-0.698404,-0.786837,-1.07182,-0.92533,-0.971271,0.559133,0.0518871,-0.698404,-0.123738,-0.60344,0.798143,0.898288,-0.147173,0.187697,0.369038,-0.657447,-0.477452,-1.04725,-0.386596,-0.691461,0.656055,0,0,0,-1.35147,-0.082245,-2.44183,-0.374948,-0.765393,-0.658064,-0.717456,0.542468,0.43761,-0.472613,1
1.02895,-0.988981,-2.40977,-0.725807,2.37484,1.88882,-0.829318,1.04185,-0.961084,-2.39469,-0.717384,2.34868,1.87699,-0.808493,1.06913,-0.913816,-2.35239,-0.670737,2.31645,1.84811,-0.778238,-0.724361,-1.05532,-0.929203,-0.993371,0.597987,0.309774,-0.677758,-0.724361,-1.05532,-0.929203,-0.993371,0.597987,0.309774,-0.677758,-0.129662,-0.608363,0.78872,0.90212,-0.140005,0.182904,0.364861,-0.621993,-0.431283,-1.06573,-0.386596,-0.691461,0.656055,0,0,0,-0.764479,-0.0617172,-1.39812,-0.401855,-0.751651,-0.573799,-0.550704,0.583824,0.407101,-0.510796,1
1.06326,-0.987631,-2.38543,-0.709147,2.39008,1.89943,-0.836332,1.03966,-0.970222,-2.40119,-0.72417,2.35758,1.88385,-0.8144,1.06283,-0.923458,-2.36097,-0.680026,2.32226,1.85219,-0.784429,-0.647492,-1.03509,-0.929731,-1.01701,0.655555,0.552497,-0.664418,-0.647492,-1.03509,-0.929731,-1.01701,0.655555,0.552497,-0.664418,-0.135252,-0.612779,0.779107,0.905486,-0.133972,0.178298,0.361048,-0.576698,-0.38793,-1.0789,-0.386596,-0.691461,0.656055,0,0,0,-0.293231,-0.0228567,-0.520052,0.0043208,-0.641726,-0.244543,-0.291204,0.678197,0.472458,-0.519033,1
1.06721,-0.991524,-2.35224,-0.682226,2.39733,1.8807,-0.827484,1.03969,-0.978562,-2.40321,-0.725457,2.36689,1.88819,-0.82078,1.05729,-0.932943,-2.36948,-0.689405,2.32867,1.85797,-0.790504,-0.559982,-1.02071,-0.914606,-1.01482,0.72599,0.689731,-0.652479,-0.559982,-1.02071,-0.914606,-1.01482,0.72599,0.689731,-0.652479,-0.14046,-0.616779,0.769405,0.90848,-0.128923,0.173682,0.357601,-0.52915,-0.357219,-1.07924,-0.386596,-0.691461,0.656055,0,0,0,-4.25747e-07,8.51495e-07,4.25747e-07,0.0992075,-0.585809,0.172398,0.0717913,0.686604,0.227315,-0.3698,1
