Afshin1997/kuka_rl_ros2/src/catch_and_throw/output_files/tm/nn_ema7.00_jvws1_realball_D23H16M56S26/recorded_data.csv
pure_target_joint_0,pure_target_joint_1,pure_target_joint_2,pure_target_joint_3,pure_target_joint_4,pure_target_joint_5,pure_target_joint_6,target_joint_0,target_joint_1,target_joint_2,target_joint_3,target_joint_4,target_joint_5,target_joint_6,pos_joint_0,pos_joint_1,pos_joint_2,pos_joint_3,pos_joint_4,pos_joint_5,pos_joint_6,vel_joint_0,vel_joint_1,vel_joint_2,vel_joint_3,vel_joint_4,vel_joint_5,vel_joint_6,vel_smooth_joint_0,vel_smooth_joint_1,vel_smooth_joint_2,vel_smooth_joint_3,vel_smooth_joint_4,vel_smooth_joint_5,vel_smooth_joint_6,ee_pos_x,ee_pos_y,ee_pos_z,ee_or_w,ee_or_x,ee_or_y,ee_or_z,ee_vel_x,ee_vel_y,ee_vel_z,ball_pos_x,ball_pos_y,ball_pos_z,ball_raw_vx,ball_raw_vy,ball_raw_vz,ball_ema_vx,ball_ema_vy,ball_ema_vz,action_0,action_1,action_2,action_3,action_4,action_5,action_6,command_published
1.73217,-1.01211,-1.81616,-1.06942,1.98335,1.18078,-0.86028,1.73217,-1.01211,-1.81616,-1.06942,1.98335,1.18078,-0.86028,1.78025,-1.06468,-1.81521,-1.11695,1.93734,1.11688,-0.916309,0,0,0,0,0,0,0,0,0,0,0,0,0,0,0.531045,-0.454496,0.694264,0.574574,0.175211,0.152563,0.784787,0,0,0,2.98335,-0.492724,0.498741,-2.91045,0.117728,5.48753,-2.86145,0.108606,5.56832,-0.480734,0.525784,-0.00951345,0.475305,0.4601,0.639011,0.56029,1
1.73224,-1.01173,-1.80773,-1.06893,1.98746,1.18114,-0.863589,1.73224,-1.01173,-1.80773,-1.06893,1.98746,1.18114,-0.863589,1.78025,-1.06468,-1.81521,-1.11695,1.93734,1.11688,-0.916309,0,0,0,0,0,0,0,0,0,0,0,0,0,0,0.531045,-0.454496,0.694264,0.574574,0.175211,0.152563,0.784787,0,0,0,2.95571,-0.491761,0.552973,-2.76327,0.0962794,5.42318,-2.83386,0.113247,5.47961,-0.48012,0.529525,0.0748284,0.480155,0.501235,0.64266,0.527194,1
1.71121,-0.984325,-1.76458,-1.0742,1.99167,1.15898,-0.850235,1.71121,-0.984325,-1.76458,-1.0742,1.99167,1.15898,-0.850235,1.7746,-1.05851,-1.81532,-1.11136,1.94274,1.12439,-0.909725,-1.12978,1.23565,-0.0223564,1.11702,1.08129,1.50175,1.31675,-1.12978,1.23565,-0.0223564,1.11702,1.08129,1.50175,1.31675,0.525697,-0.4577,0.699719,0.576773,0.17026,0.149129,0.784924,-0.978351,-0.627837,1.04244,2.92807,-0.490542,0.606655,-2.76475,0.121903,5.3682,-2.82661,0.113408,5.37663,-0.633915,0.741815,0.507476,0.371666,0.489252,0.345958,0.594897,1
1.71175,-0.974035,-1.76115,-1.0642,2.00172,1.18358,-0.840149,1.71175,-0.974035,-1.76115,-1.0642,2.00172,1.18358,-0.840149,1.76522,-1.0482,-1.81452,-1.10203,1.95221,1.1369,-0.899177,-0.878392,0.971075,0.180794,0.881294,0.938738,1.17809,0.94766,-0.878392,0.971075,0.180794,0.881294,0.938738,1.17809,0.94766,0.51657,-0.462664,0.70917,0.580335,0.161549,0.143116,0.785259,-0.790794,-0.43614,0.888568,2.90011,-0.488993,0.659008,-2.79558,0.154838,5.23525,-2.8167,0.117276,5.27558,-0.534695,0.741634,0.533642,0.378313,0.495092,0.466751,0.59028,1
1.69635,-0.962943,-1.76138,-1.0515,2.0192,1.18334,-0.841535,1.69635,-0.962943,-1.76138,-1.0515,2.0192,1.18334,-0.841535,1.75545,-1.03691,-1.80795,-1.09532,1.9605,1.14409,-0.889736,-1.17826,1.40035,1.1549,0.56265,0.82998,0.396695,1.05186,-1.17826,1.40035,1.1549,0.56265,0.82998,0.396695,1.05186,0.50792,-0.465291,0.720143,0.582571,0.153248,0.137739,0.786227,-0.871425,-0.142519,1.33582,2.87142,-0.486823,0.710706,-2.86911,0.217083,5.16987,-2.81365,0.130083,5.1835,-0.591045,0.739687,0.465682,0.43828,0.586972,0.392538,0.482001,1
1.69606,-0.949495,-1.74631,-1.04832,2.02337,1.19789,-0.826844,1.69606,-0.949495,-1.74631,-1.04832,2.02337,1.19789,-0.826844,1.74573,-1.02407,-1.79795,-1.08948,1.96857,1.15027,-0.879813,-0.904824,1.3324,0.979855,0.673195,0.882536,0.886956,1.05622,-0.904824,1.3324,0.979855,0.673195,0.882536,0.886956,1.05622,0.499124,-0.466065,0.732795,0.583725,0.143805,0.132461,0.78806,-0.814169,-0.0531957,1.27656,2.84391,-0.486177,0.760805,-2.75116,0.0645339,5.00991,-2.80388,0.134787,5.08851,-0.496761,0.745752,0.516437,0.411529,0.547911,0.4762,0.529689,1
1.6829,-0.936463,-1.74237,-1.04215,2.02889,1.20463,-0.814796,1.6829,-0.936463,-1.74237,-1.04215,2.02889,1.20463,-0.814796,1.73641,-1.0117,-1.78984,-1.08239,1.97796,1.15761,-0.871202,-1.06664,1.29834,0.757856,0.822707,1.0981,0.68514,0.789997,-1.06664,1.29834,0.757856,0.822707,1.0981,0.68514,0.789997,0.490128,-0.467409,0.744815,0.585701,0.134289,0.126883,0.789191,-0.900587,-0.237645,1.20601,2.81592,-0.485023,0.810373,-2.79851,0.115392,4.95678,-2.79475,0.135668,4.99504,-0.535015,0.752367,0.474724,0.402461,0.509321,0.470196,0.564066,1
1.68041,-0.918595,-1.72701,-1.03245,2.04535,1.22053,-0.8033,1.68041,-0.918595,-1.72701,-1.03245,2.04535,1.22053,-0.8033,1.72381,-0.993478,-1.7776,-1.07203,1.99178,1.16887,-0.858675,-0.739237,1.17128,0.833458,0.631284,0.841215,0.772704,0.84768,-0.739237,1.17128,0.833458,0.631284,0.841215,0.772704,0.84768,0.477178,-0.468149,0.762385,0.587822,0.11968,0.118947,0.791198,-0.807048,0.00892345,1.24927,2.76091,-0.482079,0.906203,-2.77212,0.144318,4.74477,-2.78541,0.136185,4.79217,-0.434082,0.748836,0.505979,0.395771,0.535747,0.516527,0.55375,1
1.66541,-0.911982,-1.72471,-1.02436,2.05065,1.21964,-0.798761,1.66541,-0.911982,-1.72471,-1.02436,2.05065,1.21964,-0.798761,1.71901,-0.986779,-1.77346,-1.06852,1.99614,1.17308,-0.853519,-0.961402,1.33987,0.828124,0.70225,0.872197,0.840247,1.03118,-0.961402,1.33987,0.828124,0.70225,0.872197,0.840247,1.03118,0.472428,-0.468211,0.768557,0.588365,0.114354,0.116551,0.791938,-0.855726,-0.0263357,1.19965,2.73347,-0.480738,0.952803,-2.74429,0.134099,4.65996,-2.7722,0.131822,4.69404,-0.53595,0.747967,0.487496,0.441615,0.545073,0.465602,0.547581,1
1.66409,-0.900465,-1.71719,-1.02048,2.05825,1.23282,-0.789475,1.66409,-0.900465,-1.71719,-1.02048,2.05825,1.23282,-0.789475,1.71102,-0.975649,-1.76658,-1.06268,2.00338,1.18006,-0.844954,-0.748741,1.04349,0.644944,0.546913,0.679268,0.654385,0.803082,-0.748741,1.04349,0.644944,0.546913,0.679268,0.654385,0.803082,0.464502,-0.468122,0.778726,0.589158,0.105444,0.112688,0.793143,-0.670156,0.000565724,0.925707,2.73347,-0.480738,0.952803,-2.74429,0.134099,4.65996,-2.7722,0.131822,4.69404,-0.469315,0.751839,0.493979,0.421993,0.548636,0.527639,0.554787,1
1.64852,-0.886486,-1.70797,-1.01509,2.06765,1.23253,-0.779563,1.64852,-0.886486,-1.70797,-1.01509,2.06765,1.23253,-0.779563,1.70249,-0.962251,-1.75756,-1.05505,2.01329,1.1889,-0.835207,-0.987274,1.33863,0.874674,0.817235,0.994779,0.818391,0.970508,-0.987274,1.33863,0.874674,0.817235,0.994779,0.818391,0.970508,0.45505,-0.467373,0.791263,0.589709,0.0940712,0.107423,0.794893,-0.910093,-0.0182292,1.21856,2.67782,-0.477636,1.0416,-2.76251,0.160998,4.40736,-2.76558,0.142729,4.4812,-0.539681,0.757652,0.495869,0.399519,0.543576,0.436258,0.556436,1
1.64796,-0.874034,-1.69739,-1.00974,2.07549,1.2443,-0.770489,1.64796,-0.874034,-1.69739,-1.00974,2.07549,1.2443,-0.770489,1.69413,-0.949779,-1.74941,-1.0478,2.02244,1.19725,-0.826054,-0.799972,1.31318,0.858087,0.727434,0.95337,0.947174,0.974059,-0.799972,1.31318,0.858087,0.727434,0.95337,0.947174,0.974059,0.445981,-0.466631,0.802729,0.590255,0.0834,0.102747,0.796296,-0.81688,0.118318,1.16661,2.6503,-0.476246,1.08476,-2.75228,0.139007,4.31576,-2.7641,0.146209,4.37201,-0.461737,0.757443,0.520161,0.380588,0.53049,0.470541,0.55565,1
1.63268,-0.861119,-1.69093,-1.00337,2.08744,1.24582,-0.760446,1.63268,-0.861119,-1.69093,-1.00337,2.08744,1.24582,-0.760446,1.68566,-0.937228,-1.7412,-1.04113,2.03147,1.20508,-0.816798,-0.988924,1.3512,0.884787,0.693218,0.963367,0.730833,0.991531,-0.988924,1.3512,0.884787,0.693218,0.963367,0.730833,0.991531,0.437031,-0.465446,0.813932,0.590425,0.0729687,0.0984606,0.797734,-0.881455,0.0846818,1.1667,2.62306,-0.474006,1.12718,-2.72441,0.223979,4.24198,-2.76283,0.154701,4.26846,-0.529724,0.761085,0.502678,0.377514,0.559702,0.407336,0.563516,1
1.63044,-0.848341,-1.68105,-0.997634,2.09427,1.25802,-0.751978,1.63044,-0.848341,-1.68105,-0.997634,2.09427,1.25802,-0.751978,1.67738,-0.924541,-1.73261,-1.03474,2.04039,1.21254,-0.807495,-0.783381,1.34494,0.937689,0.665613,0.9347,0.845895,0.985449,-0.783381,1.34494,0.937689,0.665613,0.9347,0.845895,0.985449,0.428234,-0.463671,0.825074,0.590153,0.0625267,0.0944437,0.799306,-0.795805,0.226402,1.15924,2.59524,-0.474063,1.16866,-2.78182,-0.00570416,4.14788,-2.76068,0.144682,4.16906,-0.469374,0.762003,0.515618,0.371051,0.538811,0.454843,0.555171,1
1.618,-0.835189,-1.67263,-0.993233,2.10576,1.2587,-0.740533,1.618,-0.835189,-1.67263,-0.993233,2.10576,1.2587,-0.740533,1.66907,-0.911851,-1.72406,-1.02846,2.04956,1.21974,-0.798129,-0.969025,1.35094,0.882133,0.668046,1.00865,0.694348,1.00347,-0.969025,1.35094,0.882133,0.668046,1.00865,0.694348,1.00347,0.419462,-0.461653,0.836011,0.589632,0.0522062,0.090543,0.800881,-0.867887,0.151103,1.13035,2.56752,-0.473167,1.20904,-2.77178,0.0896394,4.03854,-2.76083,0.131105,4.0734,-0.510773,0.766622,0.514252,0.352285,0.561991,0.38955,0.575969,1
1.6144,-0.822556,-1.66349,-0.987766,2.11222,1.26996,-0.731737,1.6144,-0.822556,-1.66349,-0.987766,2.11222,1.26996,-0.731737,1.66076,-0.899128,-1.71557,-1.02224,2.05874,1.22694,-0.788799,-0.807451,1.35242,0.919345,0.655182,0.946174,0.82758,0.980501,-0.807451,1.35242,0.919345,0.655182,0.946174,0.82758,0.980501,0.410693,-0.459344,0.846767,0.588939,0.0418461,0.0868542,0.802407,-0.804596,0.271478,1.12393,2.53969,-0.472327,1.24836,-2.7828,0.0839174,3.9317,-2.76049,0.113844,3.98314,-0.463652,0.76572,0.520769,0.344714,0.534729,0.430117,0.570616,1
1.60433,-0.809397,-1.6548,-0.983142,2.12445,1.27212,-0.72089,1.60433,-0.809397,-1.6548,-0.983142,2.12445,1.27212,-0.72089,1.65259,-0.886348,-1.70694,-1.01628,2.06795,1.2339,-0.779309,-0.921275,1.36239,0.913707,0.613703,1.00685,0.660416,1.03264,-0.921275,1.36239,0.913707,0.613703,1.00685,0.660416,1.03264,0.402081,-0.456595,0.857349,0.587825,0.0315599,0.083384,0.80406,-0.831053,0.251574,1.10018,2.51209,-0.470701,1.28663,-2.7607,0.162652,3.82746,-2.76417,0.105289,3.8863,-0.482647,0.769514,0.521445,0.331359,0.564949,0.382254,0.584195,1
1.59838,-0.79674,-1.64591,-0.978499,2.13174,1.28074,-0.711537,1.59838,-0.79674,-1.64591,-0.978499,2.13174,1.28074,-0.711537,1.64452,-0.873548,-1.69828,-1.01054,2.07707,1.24071,-0.769698,-0.802117,1.35793,0.926422,0.606425,0.935849,0.77892,1.01092,-0.802117,1.35793,0.926422,0.606425,0.935849,0.77892,1.01092,0.393606,-0.453466,0.867719,0.586371,0.0213299,0.0801813,0.805782,-0.783287,0.341769,1.08341,2.48458,-0.469325,1.32386,-2.75092,0.137573,3.72317,-2.76665,0.103954,3.78549,-0.461408,0.768078,0.523746,0.320397,0.54663,0.400326,0.581614,1
1.59048,-0.783464,-1.63633,-0.974743,2.14354,1.28246,-0.700681,1.59048,-0.783464,-1.63633,-0.974743,2.14354,1.28246,-0.700681,1.63667,-0.860722,-1.68956,-1.00496,2.08628,1.24743,-0.760027,-0.86132,1.3668,0.925788,0.580954,1.01629,0.657565,1.04223,-0.86132,1.3668,0.925788,0.580954,1.01629,0.657565,1.04223,0.385297,-0.449944,0.877902,0.584548,0.0111205,0.0771475,0.807606,-0.792949,0.339697,1.06539,2.45726,-0.467943,1.36002,-2.73139,0.138253,3.61588,-2.76479,0.107612,3.68053,-0.461862,0.77258,0.532307,0.302152,0.572575,0.350264,0.593462,1
1.58194,-0.770663,-1.62731,-0.973529,2.15244,1.28565,-0.690497,1.58194,-0.770663,-1.62731,-0.973529,2.15244,1.28565,-0.690497,1.62882,-0.847882,-1.68083,-0.999587,2.09558,1.25391,-0.750271,-0.810665,1.36193,0.930015,0.561581,0.9628,0.714592,1.03149,-0.810665,1.36193,0.930015,0.561581,0.9628,0.714592,1.03149,0.3771,-0.446144,0.887867,0.58244,0.00105923,0.0743028,0.80947,-0.765529,0.396167,1.04208,2.42989,-0.466484,1.3952,-2.73747,0.145873,3.51772,-2.75601,0.12924,3.57537,-0.468769,0.772188,0.535242,0.260573,0.568536,0.317452,0.597742,1
1.57603,-0.757327,-1.6164,-0.971417,2.16509,1.28329,-0.680026,1.57603,-0.757327,-1.6164,-0.971417,2.16509,1.28329,-0.680026,1.62116,-0.835009,-1.67198,-0.994481,2.10497,1.26004,-0.740427,-0.816799,1.37267,0.949268,0.525627,1.02726,0.596906,1.05846,-0.816799,1.37267,0.949268,0.525627,1.02726,0.596906,1.05846,0.36913,-0.441962,0.897634,0.579926,-0.0088315,0.0716446,0.811465,-0.747437,0.422766,1.02733,2.40236,-0.465012,1.42939,-2.75252,0.147149,3.41887,-2.74966,0.138957,3.47186,-0.451245,0.77682,0.555831,0.230641,0.60128,0.232428,0.604009,1
1.56798,-0.744246,-1.60638,-0.974672,2.17634,1.27803,-0.669121,1.56798,-0.744246,-1.60638,-0.974672,2.17634,1.27803,-0.669121,1.61337,-0.822103,-1.66303,-0.989972,2.11454,1.26538,-0.730439,-0.836925,1.36988,0.951467,0.437874,1.00906,0.539914,1.06367,-0.836925,1.36988,0.951467,0.437874,1.00906,0.539914,1.06367,0.361419,-0.437506,0.90712,0.577019,-0.0181949,0.0692074,0.81359,-0.720022,0.457228,0.988031,2.37505,-0.463729,1.46259,-2.73185,0.128305,3.32025,-2.74315,0.142901,3.36982,-0.453858,0.77857,0.566573,0.153005,0.617968,0.126536,0.613176,1
1.56907,-0.730686,-1.59503,-0.978059,2.18837,1.27678,-0.659114,1.56907,-0.730686,-1.59503,-0.978059,2.18837,1.27678,-0.659114,1.60572,-0.809158,-1.65385,-0.986087,2.12441,1.26958,-0.720373,-0.790655,1.38027,0.997371,0.39067,1.08335,0.364908,1.07445,-0.790655,1.38027,0.997371,0.39067,1.08335,0.364908,1.07445,0.354131,-0.432688,0.916366,0.5736,-0.026904,0.066929,0.815953,-0.669607,0.504482,0.977725,2.34739,-0.462478,1.49475,-2.7657,0.125164,3.21537,-2.74307,0.13854,3.26842,-0.366509,0.784715,0.588195,0.0802816,0.639584,0.0720093,0.61259,1
1.56697,-0.717405,-1.58489,-0.982581,2.19996,1.26904,-0.648472,1.56697,-0.717405,-1.58489,-0.982581,2.19996,1.26904,-0.648472,1.59821,-0.796156,-1.64439,-0.983224,2.13473,1.272,-0.710167,-0.804944,1.38237,1.01223,0.227759,1.10803,0.16067,1.09307,-0.804944,1.38237,1.01223,0.227759,1.10803,0.16067,1.09307,0.34748,-0.427496,0.925305,0.569524,-0.034508,0.0648251,0.818688,-0.602517,0.547168,0.927561,2.32012,-0.461425,1.52621,-2.72655,0.105312,3.14627,-2.74271,0.133521,3.17095,-0.31233,0.787506,0.594951,0.00642884,0.652307,-0.0295216,0.616952,1
1.58236,-0.703921,-1.57503,-0.983762,2.21031,1.28279,-0.637995,1.58236,-0.703921,-1.57503,-0.983762,2.21031,1.28279,-0.637995,1.59165,-0.78308,-1.63465,-0.98173,2.14535,1.27319,-0.699912,-0.601298,1.39527,1.055,0.0977796,1.14566,0.0958506,1.08646,-0.601298,1.39527,1.055,0.0977796,1.14566,0.0958506,1.08646,0.341864,-0.421512,0.933861,0.564388,-0.0412167,0.0629757,0.822072,-0.468707,0.673971,0.896191,2.29253,-0.460965,1.55621,-2.75939,0.045979,2.9999,-2.7454,0.119952,3.07115,-0.0929058,0.791594,0.596207,-0.0203161,0.649617,0.0960853,0.619169,1
1.56879,-0.692968,-1.5702,-0.966981,2.22197,1.26139,-0.625679,1.56879,-0.692968,-1.5702,-0.966981,2.22197,1.26139,-0.625679,1.58666,-0.771491,-1.62588,-0.980918,2.15487,1.27398,-0.690888,-0.468292,1.08664,0.821635,0.0761509,0.892244,0.0746485,0.846134,-0.468292,1.08664,0.821635,0.0761509,0.892244,0.0746485,0.846134,0.337469,-0.415683,0.941216,0.5592,-0.0469177,0.0614607,0.825419,-0.360483,0.536377,0.686415,2.26574,-0.46039,1.58569,-2.67882,0.0574976,2.94827,-2.73942,0.102436,2.974,-0.178642,0.785223,0.556876,0.139374,0.671006,-0.125867,0.652089,1
1.60091,-0.67826,-1.55881,-0.973335,2.22659,1.30416,-0.61838,1.60091,-0.67826,-1.55881,-0.973335,2.22659,1.30416,-0.61838,1.58411,-0.757942,-1.61566,-0.981425,2.16606,1.27451,-0.680274,-0.0466153,1.43862,1.08202,-0.0622409,1.1785,0.220733,1.12591,-0.0466153,1.43862,1.08202,-0.0622409,1.1785,0.220733,1.12591,0.334272,-0.40735,0.949297,0.551159,-0.0529955,0.059981,0.830552,-0.19896,0.959249,0.847961,2.23877,-0.459067,1.61416,-2.69687,0.132307,2.84698,-2.72945,0.0929611,2.87846,0.168005,0.796821,0.568421,0.0808961,0.605363,0.296522,0.618945,1
1.56924,-0.664772,-1.55031,-0.964096,2.24385,1.26451,-0.60583,1.56924,-0.664772,-1.55031,-0.964096,2.24385,1.26451,-0.60583,1.58213,-0.744706,-1.6061,-0.97997,2.17722,1.27382,-0.669475,-0.355172,1.37779,0.956192,0.345907,1.19173,-0.330996,1.16631,-0.355172,1.37779,0.956192,0.345907,1.19173,-0.330996,1.16631,0.330968,-0.399565,0.957427,0.543486,-0.0587029,0.0583759,0.835326,-0.372953,0.683397,0.88548,2.21191,-0.457552,1.64184,-2.68672,0.151441,2.76837,-2.71799,0.0942422,2.78595,-0.128845,0.799344,0.557942,0.158736,0.666322,-0.0931679,0.636444,1
1.61412,-0.652943,-1.53927,-0.970531,2.24411,1.31629,-0.596269,1.61412,-0.652943,-1.53927,-0.970531,2.24411,1.31629,-0.596269,1.58295,-0.731533,-1.59682,-0.977843,2.18766,1.2761,-0.65893,0.478208,1.41861,1.0121,0.120049,1.03681,0.747155,1.0798,0.478208,1.41861,1.0121,0.120049,1.03681,0.747155,1.0798,0.328209,-0.390655,0.9654,0.534828,-0.0660445,0.0569028,0.840452,-0.0905942,1.13463,0.824048,2.1844,-0.456414,1.6682,-2.75037,0.113848,2.63525,-2.71127,0.0994069,2.69134,0.311635,0.785906,0.57553,0.073122,0.564495,0.401867,0.626607,1
1.57933,-0.638344,-1.53217,-0.960031,2.26524,1.26989,-0.585007,1.57933,-0.638344,-1.53217,-0.960031,2.26524,1.26989,-0.585007,1.5832,-0.718165,-1.58741,-0.975761,2.1983,1.27765,-0.648485,-0.371737,1.4218,0.988142,0.310609,1.21295,-0.349895,1.13586,-0.371737,1.4218,0.988142,0.310609,1.21295,-0.349895,1.13586,0.325294,-0.381752,0.973314,0.526221,-0.0730194,0.0555477,0.845384,-0.369657,0.74245,0.869643,2.15707,-0.455491,1.69337,-2.73263,0.0922322,2.51738,-2.71156,0.106209,2.59148,-0.038689,0.798208,0.552464,0.157294,0.669453,-0.0775967,0.634783,1
1.62303,-0.627585,-1.52002,-0.96028,2.26524,1.3248,-0.574774,1.62303,-0.627585,-1.52002,-0.96028,2.26524,1.3248,-0.574774,1.58539,-0.704964,-1.57791,-0.973937,2.20841,1.28082,-0.637927,0.764985,1.38528,1.02897,0.0906818,0.950748,0.94431,1.10931,0.764985,1.38528,1.02897,0.0906818,0.950748,0.94431,1.10931,0.322947,-0.371958,0.980894,0.516466,-0.0807198,0.0543454,0.850761,-0.00721964,1.25762,0.764933,2.13082,-0.454663,1.71725,-2.62582,0.0828356,2.38788,-2.703,0.11198,2.48757,0.376448,0.773795,0.57889,0.136566,0.56838,0.439775,0.631523,1
1.58396,-0.611972,-1.51591,-0.95503,2.28622,1.26747,-0.563882,1.58396,-0.611972,-1.51591,-0.95503,2.28622,1.26747,-0.563882,1.58766,-0.691742,-1.56853,-0.971949,2.21879,1.28322,-0.627389,-0.221588,1.42194,0.968223,0.317374,1.23714,-0.354951,1.12858,-0.221588,1.42194,0.968223,0.317374,1.23714,-0.354951,1.12858,0.320636,-0.362202,0.988344,0.506583,-0.0879676,0.0531379,0.856044,-0.315114,0.806583,0.834026,2.10262,-0.4527,1.7405,-2.82016,0.196347,2.32476,-2.71471,0.121207,2.37901,-0.0369198,0.797695,0.526165,0.169199,0.674348,-0.157492,0.635069,1
1.63295,-0.601805,-1.5008,-0.962382,2.28527,1.33022,-0.552632,1.63295,-0.601805,-1.5008,-0.962382,2.28527,1.33022,-0.552632,1.59095,-0.678666,-1.55906,-0.969342,2.22906,1.28672,-0.616812,0.854344,1.36024,1.03952,0.241325,0.963455,1.01407,1.11941,0.854344,1.36024,1.03952,0.241325,0.963455,1.01407,1.11941,0.318255,-0.352152,0.995695,0.49618,-0.0959048,0.0517742,0.861352,-0.0547884,1.25937,0.754941,2.07622,-0.451314,1.76338,-2.63999,0.138575,2.28866,-2.7137,0.12398,2.27867,0.420011,0.768611,0.582608,0.0696069,0.562051,0.434985,0.641793,1
1.58257,-0.585767,-1.50016,-0.956162,2.30817,1.26102,-0.542295,1.58257,-0.585767,-1.50016,-0.956162,2.30817,1.26102,-0.542295,1.59346,-0.665532,-1.54994,-0.966721,2.23953,1.28841,-0.606233,-0.252765,1.42626,0.906148,0.311329,1.24332,-0.557613,1.12777,-0.252765,1.42626,0.906148,0.311329,1.24332,-0.557613,1.12777,0.315836,-0.342481,1.00288,0.486107,-0.102759,0.0506117,0.86636,-0.299081,0.797082,0.793435,2.04919,-0.450104,1.78506,-2.70255,0.120956,2.16768,-2.71063,0.126198,2.18267,-0.108828,0.797651,0.497815,0.105591,0.686344,-0.273864,0.639378,1
1.64532,-0.576672,-1.48237,-0.959576,2.306,1.33572,-0.531058,1.64532,-0.576672,-1.48237,-0.959576,2.306,1.33572,-0.531058,1.59711,-0.65249,-1.54064,-0.964999,2.24975,1.29115,-0.595543,0.954348,1.3497,1.0609,0.0696863,0.945895,1.04041,1.14268,0.954348,1.3497,1.0609,0.0696863,0.945895,1.04041,1.14268,0.313872,-0.332106,1.00965,0.474977,-0.109843,0.0496193,0.871705,7.63666e-05,1.3413,0.674577,2.02172,-0.449562,1.80557,-2.74732,0.0542492,2.05085,-2.70866,0.123854,2.09153,0.482087,0.758178,0.582646,0.0542255,0.562548,0.445705,0.644852,1
1.57494,-0.559929,-1.48493,-0.961306,2.33024,1.25265,-0.520042,1.57494,-0.559929,-1.48493,-0.961306,2.33024,1.25265,-0.520042,1.59912,-0.639394,-1.53175,-0.963689,2.26029,1.29166,-0.584837,-0.440639,1.42803,0.841236,0.200442,1.27476,-0.8159,1.13284,-0.440639,1.42803,0.841236,0.200442,1.27476,-0.8159,1.13284,0.311817,-0.32235,1.01617,0.46447,-0.115451,0.0489266,0.876667,-0.29412,0.751403,0.730041,1.99456,-0.448355,1.82519,-2.71566,0.120676,1.96265,-2.71133,0.122168,2.00242,-0.241764,0.794654,0.468237,0.0238289,0.699406,-0.390056,0.647946,1
1.6588,-0.552373,-1.46432,-0.966177,2.32477,1.34429,-0.510078,1.6588,-0.552373,-1.46432,-0.966177,2.32477,1.34429,-0.510078,1.60283,-0.626463,-1.52267,-0.962425,2.27063,1.29366,-0.574106,1.13141,1.32589,1.07313,0.0758658,0.941936,1.12,1.14633,1.13141,1.32589,1.07313,0.0758658,0.941936,1.12,1.14633,0.310027,-0.311934,1.02243,0.452929,-0.121758,0.0481397,0.881881,0.0167887,1.39878,0.630924,1.96741,-0.446785,1.84343,-2.7151,0.157037,1.8231,-2.71726,0.121702,1.90755,0.559646,0.740898,0.583533,-0.037519,0.541384,0.506304,0.64028,1
1.57641,-0.535299,-1.47032,-0.959047,2.3532,1.25235,-0.498393,1.57641,-0.535299,-1.47032,-0.959047,2.3532,1.25235,-0.498393,1.60396,-0.613482,-1.51406,-0.961998,2.2813,1.2932,-0.563289,-0.772721,1.42608,0.775752,0.0184314,1.30307,-1.07977,1.15164,-0.772721,1.42608,0.775752,0.0184314,1.30307,-1.07977,1.15164,0.30809,-0.302355,1.02837,0.442332,-0.126296,0.0478215,0.886626,-0.301195,0.673265,0.650564,1.94024,-0.446022,1.86124,-2.71662,0.0763118,1.7815,-2.71199,0.110149,1.80876,-0.275561,0.781826,0.437399,0.0295079,0.718989,-0.408534,0.648964,1
1.66862,-0.529779,-1.44775,-0.955854,2.3416,1.35291,-0.489826,1.66862,-0.529779,-1.44775,-0.955854,2.3416,1.35291,-0.489826,1.6074,-0.600748,-1.50519,-0.962417,2.29148,1.295,-0.552552,1.36877,1.28818,1.08843,-0.100113,0.886344,1.31252,1.13105,1.36877,1.28818,1.08843,-0.100113,0.886344,1.31252,1.13105,0.306738,-0.291743,1.03381,0.430252,-0.131666,0.0475424,0.891789,0.0908538,1.51154,0.535805,1.91311,-0.444759,1.87801,-2.71313,0.126261,1.6767,-2.71969,0.109312,1.70748,0.612245,0.709694,0.5744,0.065635,0.501158,0.579068,0.627262,1
1.57337,-0.510624,-1.45617,-0.950068,2.37528,1.25326,-0.476586,1.57337,-0.510624,-1.45617,-0.950068,2.37528,1.25326,-0.476586,1.60908,-0.588041,-1.49686,-0.962411,2.30219,1.2951,-0.541784,-0.870214,1.40447,0.706688,0.089578,1.35845,-1.13842,1.15546,-0.870214,1.40447,0.706688,0.089578,1.35845,-1.13842,1.15546,0.305002,-0.282015,1.03919,0.419111,-0.136026,0.0473136,0.89644,-0.326486,0.609013,0.622435,1.88597,-0.443413,1.8934,-2.71446,0.134644,1.53937,-2.71856,0.114338,1.60697,-0.357148,0.774174,0.406819,0.123429,0.730948,-0.418454,0.651985,1
1.67698,-0.506045,-1.42998,-0.963407,2.36131,1.35719,-0.469392,1.67698,-0.506045,-1.42998,-0.963407,2.36131,1.35719,-0.469392,1.61269,-0.575726,-1.48833,-0.961292,2.31211,1.29746,-0.531179,1.48934,1.22354,1.08066,0.144809,0.785326,1.47653,1.1012,1.48934,1.22354,1.08066,0.144809,0.785326,1.47653,1.1012,0.303058,-0.271874,1.04447,0.407316,-0.141834,0.0468433,0.90099,0.00221486,1.47699,0.532954,1.85935,-0.442602,1.90814,-2.66156,0.0810206,1.47395,-2.70921,0.117106,1.50969,0.642916,0.696819,0.583531,-0.021146,0.492033,0.597317,0.61787,1
1.58067,-0.486904,-1.43807,-0.949901,2.39737,1.2553,-0.455525,1.58067,-0.486904,-1.43807,-0.949901,2.39737,1.2553,-0.455525,1.61387,-0.563312,-1.48035,-0.959409,2.32259,1.29802,-0.520476,-1.07855,1.4031,0.643737,0.24875,1.40322,-1.19198,1.16882,-1.07855,1.4031,0.643737,0.24875,1.40322,-1.19198,1.16882,0.300485,-0.262811,1.04983,0.396837,-0.146721,0.0464596,0.904895,-0.406786,0.509405,0.625633,1.83255,-0.441455,1.92153,-2.67991,0.114694,1.33891,-2.70148,0.113117,1.40928,-0.332037,0.764084,0.42272,0.0950848,0.747843,-0.427186,0.649508,1
1.68588,-0.485997,-1.41458,-0.939654,2.38102,1.36257,-0.45034,1.68588,-0.485997,-1.41458,-0.939654,2.38102,1.36257,-0.45034,1.61709,-0.551119,-1.47192,-0.95891,2.3326,1.30033,-0.509922,1.59506,1.20036,1.11691,-0.119736,0.76451,1.51431,1.07933,1.59506,1.20036,1.11691,-0.119736,0.76451,1.51431,1.07933,0.298563,-0.252713,1.05462,0.384836,-0.152052,0.0461802,0.909202,0.0680804,1.56145,0.431321,1.80602,-0.441006,1.9345,-2.653,0.0449628,1.29695,-2.69037,0.102235,1.31405,0.687951,0.651224,0.573443,0.192562,0.484175,0.622404,0.595825,1
1.57885,-0.463236,-1.4266,-0.933205,2.41813,1.25591,-0.433961,1.57885,-0.463236,-1.4266,-0.933205,2.41813,1.25591,-0.433961,1.61902,-0.5389,-1.4636,-0.958318,2.34319,1.30093,-0.499328,-1.02131,1.38467,0.679631,0.224153,1.4429,-1.2153,1.16647,-1.02131,1.38467,0.679631,0.224153,1.4429,-1.2153,1.16647,0.296494,-0.243149,1.05938,0.373332,-0.156401,0.0459114,0.913266,-0.369943,0.542945,0.593994,1.77926,-0.439768,1.946,-2.6764,0.123766,1.14958,-2.68053,0.1008,1.21206,-0.401659,0.756636,0.369941,0.251127,0.749424,-0.450262,0.653664,1
1.6924,-0.460244,-1.39919,-0.955552,2.39691,1.36516,-0.430567,1.6924,-0.460244,-1.39919,-0.955552,2.39691,1.36516,-0.430567,1.6229,-0.527292,-1.45519,-0.955252,2.35325,1.30344,-0.489029,1.67728,1.09969,1.0815,0.415377,0.739426,1.57452,1.03031,1.67728,1.09969,1.0815,0.415377,0.739426,1.57452,1.03031,0.293749,-0.233739,1.06432,0.361596,-0.162432,0.0449109,0.916977,-0.112984,1.40418,0.49439,1.75273,-0.438972,1.95675,-2.65317,0.0796348,1.07521,-2.67107,0.0937402,1.11345,0.695039,0.670482,0.560008,-0.00300299,0.436581,0.61719,0.584629,1
1.58326,-0.441756,-1.40949,-0.928642,2.44022,1.26071,-0.41404,1.58326,-0.441756,-1.40949,-0.928642,2.44022,1.26071,-0.41404,1.62425,-0.515483,-1.44762,-0.951044,2.36376,1.30399,-0.478547,-1.20905,1.39135,0.559703,0.475053,1.44805,-1.28043,1.18733,-1.20905,1.39135,0.559703,0.475053,1.44805,-1.28043,1.18733,0.290397,-0.225468,1.06944,0.351439,-0.167576,0.0441179,0.920034,-0.454813,0.42948,0.616533,1.7257,-0.438475,1.96664,-2.70308,0.0496864,0.989068,-2.66913,0.0848621,1.01924,-0.409956,0.737265,0.381338,0.22402,0.764641,-0.432737,0.645071,1
1.6984,-0.440548,-1.38569,-0.922574,2.41848,1.36895,-0.411062,1.6984,-0.440548,-1.38569,-0.922574,2.41848,1.36895,-0.411062,1.62755,-0.503574,-1.43975,-0.949724,2.37329,1.30619,-0.468286,1.72694,1.15391,1.08013,-0.155212,0.629033,1.57043,1.00447,1.72694,1.15391,1.08013,-0.155212,0.629033,1.57043,1.00447,0.288156,-0.215665,1.0737,0.33958,-0.172632,0.044076,0.923548,0.0398444,1.57895,0.335072,1.69922,-0.437535,1.97555,-2.64776,0.0939757,0.891066,-2.66932,0.0828449,0.923885,0.708489,0.630261,0.540561,0.2715,0.451843,0.62755,0.572233,1
1.70343,-0.4752,-1.4127,-0.891926,2.41567,1.37015,-0.434631,1.70343,-0.4752,-1.4127,-0.891926,2.41567,1.37015,-0.434631,1.62755,-0.503574,-1.43975,-0.949724,2.37329,1.30619,-0.468286,1.72694,1.15391,1.08013,-0.155212,0.629033,1.57043,1.00447,1.72694,1.15391,1.08013,-0.155212,0.629033,1.57043,1.00447,0.288156,-0.215665,1.0737,0.33958,-0.172632,0.044076,0.923548,0,0,0,1.67314,-0.436509,1.98365,-2.60787,0.102666,0.810158,-2.66218,0.0824119,0.832511,0.758748,0.28374,0.270465,0.577984,0.423781,0.639616,0.336547,1
1.69668,-0.450316,-1.43541,-0.916596,2.3829,1.37407,-0.416855,1.69668,-0.450316,-1.43541,-0.916596,2.3829,1.37407,-0.416855,1.62755,-0.503574,-1.43975,-0.949724,2.37329,1.30619,-0.468286,1.72694,1.15391,1.08013,-0.155212,0.629033,1.57043,1.00447,1.72694,1.15391,1.08013,-0.155212,0.629033,1.57043,1.00447,0.288156,-0.215665,1.0737,0.33958,-0.172632,0.044076,0.923548,0,0,0,1.64644,-0.435048,1.991,-2.67,0.146052,0.735211,-2.65891,0.092248,0.741501,0.691247,0.532583,0.0433846,0.33128,0.0961086,0.678745,0.514302,1
1.69259,-0.450651,-1.43097,-0.93664,2.40671,1.37061,-0.419622,1.69259,-0.450651,-1.43097,-0.93664,2.40671,1.37061,-0.419622,1.62755,-0.503574,-1.43975,-0.949724,2.37329,1.30619,-0.468286,1.72694,1.15391,1.08013,-0.155212,0.629033,1.57043,1.00447,1.72694,1.15391,1.08013,-0.155212,0.629033,1.57043,1.00447,0.288156,-0.215665,1.0737,0.33958,-0.172632,0.044076,0.923548,0,0,0,1.61939,-0.43406,1.99695,-2.70522,0.0988454,0.594759,-2.6598,0.0962138,0.651381,0.650366,0.529237,0.087761,0.130839,0.334201,0.644161,0.48664,1
1.69281,-0.450119,-1.43357,-0.949438,2.40916,1.36873,-0.419383,1.69281,-0.450119,-1.43357,-0.949438,2.40916,1.36873,-0.419383,1.62755,-0.503574,-1.43975,-0.949724,2.37329,1.30619,-0.468286,1.72694,1.15391,1.08013,-0.155212,0.629033,1.57043,1.00447,1.72694,1.15391,1.08013,-0.155212,0.629033,1.57043,1.00447,0.288156,-0.215665,1.0737,0.33958,-0.172632,0.044076,0.923548,0,0,0,1.59272,-0.43285,2.00133,-2.66664,0.120908,0.438249,-2.66219,0.106008,0.549404,0.652582,0.534552,0.0617779,0.00285806,0.358688,0.625428,0.489029,1
1.69329,-0.456339,-1.43545,-0.941084,2.41545,1.36964,-0.423679,1.69329,-0.456339,-1.43545,-0.941084,2.41545,1.36964,-0.423679,1.62755,-0.503574,-1.43975,-0.949724,2.37329,1.30619,-0.468286,1.72694,1.15391,1.08013,-0.155212,0.629033,1.57043,1.00447,1.72694,1.15391,1.08013,-0.155212,0.629033,1.57043,1.00447,0.288156,-0.215665,1.0737,0.33958,-0.172632,0.044076,0.923548,0,0,0,1.56574,-0.431426,2.00474,-2.69848,0.14247,0.340843,-2.66652,0.117734,0.439917,0.657356,0.472351,0.0430021,0.0863984,0.421558,0.634469,0.446068,1
1.69189,-0.459417,-1.44048,-0.925421,2.41745,1.36963,-0.424297,1.69189,-0.459417,-1.44048,-0.925421,2.41745,1.36963,-0.424297,1.62755,-0.503574,-1.43975,-0.949724,2.37329,1.30619,-0.468286,1.72694,1.15391,1.08013,-0.155212,0.629033,1.57043,1.00447,1.72694,1.15391,1.08013,-0.155212,0.629033,1.57043,1.00447,0.288156,-0.215665,1.0737,0.33958,-0.172632,0.044076,0.923548,0,0,0,1.5399,-0.430504,2.00823,-2.58404,0.0921518,0.349307,-2.66605,0.119485,0.337741,0.643383,0.441574,-0.00735806,0.24303,0.441593,0.634438,0.439884,1
1.69171,-0.46381,-1.4447,-0.927122,2.42332,1.36796,-0.42777,1.69171,-0.46381,-1.4447,-0.927122,2.42332,1.36796,-0.42777,1.62755,-0.503574,-1.43975,-0.949724,2.37329,1.30619,-0.468286,1.72694,1.15391,1.08013,-0.155212,0.629033,1.57043,1.00447,1.72694,1.15391,1.08013,-0.155212,0.629033,1.57043,1.00447,0.288156,-0.215665,1.0737,0.33958,-0.172632,0.044076,0.923548,0,0,0,1.51325,-0.429437,2.01043,-2.66412,0.106701,0.22006,-2.66569,0.117626,0.237881,0.641524,0.397641,-0.0494937,0.226024,0.500316,0.617695,0.40516,1
1.6953,-0.46453,-1.4354,-0.943608,2.42863,1.36635,-0.431519,1.6953,-0.46453,-1.4354,-0.943608,2.42863,1.36635,-0.431519,1.62755,-0.503574,-1.43975,-0.949724,2.37329,1.30619,-0.468286,1.72694,1.15391,1.08013,-0.155212,0.629033,1.57043,1.00447,1.72694,1.15391,1.08013,-0.155212,0.629033,1.57043,1.00447,0.288156,-0.215665,1.0737,0.33958,-0.172632,0.044076,0.923548,0,0,0,1.486,-0.428389,2.01179,-2.72563,0.104773,0.135159,-2.66577,0.112737,0.14365,0.677431,0.390446,0.0435341,0.0611605,0.55341,0.601598,0.367663,1
1.69357,-0.464387,-1.43609,-0.927145,2.42801,1.36745,-0.435301,1.69357,-0.464387,-1.43609,-0.927145,2.42801,1.36745,-0.435301,1.62755,-0.503574,-1.43975,-0.949724,2.37329,1.30619,-0.468286,1.72694,1.15391,1.08013,-0.155212,0.629033,1.57043,1.00447,1.72694,1.15391,1.08013,-0.155212,0.629033,1.57043,1.00447,0.288156,-0.215665,1.0737,0.33958,-0.172632,0.044076,0.923548,0,0,0,1.45908,-0.427599,2.0117,-2.692,0.0790834,-0.00844002,-2.66734,0.108191,0.0530592,0.660163,0.391877,0.0366365,0.225786,0.54717,0.612634,0.329849,1
1.69153,-0.468765,-1.45064,-0.913592,2.42726,1.36877,-0.439601,1.69153,-0.468765,-1.45064,-0.913592,2.42726,1.36877,-0.439601,1.62755,-0.503574,-1.43975,-0.949724,2.37329,1.30619,-0.468286,1.72694,1.15391,1.08013,-0.155212,0.629033,1.57043,1.00447,1.72694,1.15391,1.08013,-0.155212,0.629033,1.57043,1.00447,0.288156,-0.215665,1.0737,0.33958,-0.172632,0.044076,0.923548,0,0,0,1.43265,-0.427005,2.01084,-2.64232,0.0593305,-0.0866413,-2.66932,0.0975145,-0.0357756,0.639748,0.34809,-0.108933,0.36132,0.539689,0.625757,0.286848,1
1.69787,-0.470742,-1.44462,-0.935506,2.42912,1.36867,-0.441605,1.69787,-0.470742,-1.44462,-0.935506,2.42912,1.36867,-0.441605,1.62755,-0.503574,-1.43975,-0.949724,2.37329,1.30619,-0.468286,1.72694,1.15391,1.08013,-0.155212,0.629033,1.57043,1.00447,1.72694,1.15391,1.08013,-0.155212,0.629033,1.57043,1.00447,0.288156,-0.215665,1.0737,0.33958,-0.172632,0.044076,0.923548,0,0,0,1.4061,-0.425929,2.00891,-2.6552,0.107592,-0.192833,-2.66985,0.0904466,-0.13226,0.703158,0.328328,-0.0487215,0.142175,0.558308,0.624818,0.266804,1
1.69808,-0.465707,-1.43544,-0.937223,2.43029,1.36803,-0.440898,1.69808,-0.465707,-1.43544,-0.937223,2.43029,1.36803,-0.440898,1.62755,-0.503574,-1.43975,-0.949724,2.37329,1.30619,-0.468286,1.72694,1.15391,1.08013,-0.155212,0.629033,1.57043,1.00447,1.72694,1.15391,1.08013,-0.155212,0.629033,1.57043,1.00447,0.288156,-0.215665,1.0737,0.33958,-0.172632,0.044076,0.923548,0,0,0,1.37947,-0.424974,2.00609,-2.66289,0.0955731,-0.281382,-2.67468,0.0892558,-0.237243,0.705292,0.378671,0.0431166,0.125011,0.569945,0.618361,0.273873,1
1.69163,-0.464494,-1.45102,-0.911688,2.42923,1.36718,-0.447797,1.69163,-0.464494,-1.45102,-0.911688,2.42923,1.36718,-0.447797,1.62755,-0.503574,-1.43975,-0.949724,2.37329,1.30619,-0.468286,1.72694,1.15391,1.08013,-0.155212,0.629033,1.57043,1.00447,1.72694,1.15391,1.08013,-0.155212,0.629033,1.57043,1.00447,0.288156,-0.215665,1.0737,0.33958,-0.172632,0.044076,0.923548,0,0,0,1.35324,-0.423942,2.00243,-2.62389,0.103155,-0.366712,-2.66457,0.0892358,-0.336449,0.640771,0.390804,-0.11271,0.380364,0.559416,0.609924,0.204888,1
1.69616,-0.471326,-1.45126,-0.926162,2.4313,1.36736,-0.450551,1.69616,-0.471326,-1.45126,-0.926162,2.4313,1.36736,-0.450551,1.62755,-0.503574,-1.43975,-0.949724,2.37329,1.30619,-0.468286,1.72694,1.15391,1.08013,-0.155212,0.629033,1.57043,1.00447,1.72694,1.15391,1.08013,-0.155212,0.629033,1.57043,1.00447,0.288156,-0.215665,1.0737,0.33958,-0.172632,0.044076,0.923548,0,0,0,1.32697,-0.423485,1.99811,-2.62699,0.0457555,-0.431776,-2.64988,0.0859252,-0.429738,0.686022,0.322482,-0.115145,0.235621,0.580121,0.611684,0.177345,1
1.69949,-0.471458,-1.44004,-0.938337,2.43193,1.36883,-0.448163,1.69949,-0.471458,-1.44004,-0.938337,2.43193,1.36883,-0.448163,1.62755,-0.503574,-1.43975,-0.949724,2.37329,1.30619,-0.468286,1.72694,1.15391,1.08013,-0.155212,0.629033,1.57043,1.00447,1.72694,1.15391,1.08013,-0.155212,0.629033,1.57043,1.00447,0.288156,-0.215665,1.0737,0.33958,-0.172632,0.044076,0.923548,0,0,0,1.30039,-0.42284,1.9926,-2.6575,0.0644773,-0.55058,-2.64397,0.0832336,-0.518687,0.719405,0.321158,-0.00288808,0.113874,0.586345,0.626439,0.201227,1
1.69606,-0.466486,-1.44573,-0.917354,2.43173,1.36732,-0.453693,1.69606,-0.466486,-1.44573,-0.917354,2.43173,1.36732,-0.453693,1.62755,-0.503574,-1.43975,-0.949724,2.37329,1.30619,-0.468286,1.72694,1.15391,1.08013,-0.155212,0.629033,1.57043,1.00447,1.72694,1.15391,1.08013,-0.155212,0.629033,1.57043,1.00447,0.288156,-0.215665,1.0737,0.33958,-0.172632,0.044076,0.923548,0,0,0,1.27388,-0.421573,1.98571,-2.65101,0.126639,-0.689638,-2.64378,0.0855863,-0.614215,0.685104,0.370882,-0.0598505,0.323695,0.58434,0.611269,0.14593,1
1.69478,-0.471682,-1.45418,-0.918622,2.43374,1.36631,-0.455721,1.69478,-0.471682,-1.45418,-0.918622,2.43374,1.36631,-0.455721,1.62755,-0.503574,-1.43975,-0.949724,2.37329,1.30619,-0.468286,1.72694,1.15391,1.08013,-0.155212,0.629033,1.57043,1.00447,1.72694,1.15391,1.08013,-0.155212,0.629033,1.57043,1.00447,0.288156,-0.215665,1.0737,0.33958,-0.172632,0.044076,0.923548,0,0,0,1.2475,-0.421205,1.97848,-2.63766,0.0368387,-0.722277,-2.64225,0.0788425,-0.706674,0.672222,0.318926,-0.144355,0.311016,0.604457,0.601209,0.125642,1
1.69931,-0.477946,-1.44742,-0.936385,2.43377,1.36849,-0.458542,1.69931,-0.477946,-1.44742,-0.936385,2.43377,1.36849,-0.458542,1.62755,-0.503574,-1.43975,-0.949724,2.37329,1.30619,-0.468286,1.72694,1.15391,1.08013,-0.155212,0.629033,1.57043,1.00447,1.72694,1.15391,1.08013,-0.155212,0.629033,1.57043,1.00447,0.288156,-0.215665,1.0737,0.33958,-0.172632,0.044076,0.923548,0,0,0,1.2213,-0.420364,1.96966,-2.62018,0.0840783,-0.882089,-2.63952,0.075763,-0.805641,0.717535,0.256286,-0.0766844,0.13339,0.604771,0.622968,0.0974392,1
1.6984,-0.471387,-1.44754,-0.925523,2.4336,1.36831,-0.458422,1.6984,-0.471387,-1.44754,-0.925523,2.4336,1.36831,-0.458422,1.62755,-0.503574,-1.43975,-0.949724,2.37329,1.30619,-0.468286,1.72694,1.15391,1.08013,-0.155212,0.629033,1.57043,1.00447,1.72694,1.15391,1.08013,-0.155212,0.629033,1.57043,1.00447,0.288156,-0.215665,1.0737,0.33958,-0.172632,0.044076,0.923548,0,0,0,1.19539,-0.419447,1.95998,-2.59113,0.0916779,-0.968683,-2.63481,0.0762837,-0.908435,0.708465,0.32187,-0.077948,0.242007,0.603116,0.621229,0.0986411,1
1.69571,-0.473183,-1.45637,-0.922286,2.43513,1.36644,-0.461085,1.69571,-0.473183,-1.45637,-0.922286,2.43513,1.36644,-0.461085,1.62755,-0.503574,-1.43975,-0.949724,2.37329,1.30619,-0.468286,1.72694,1.15391,1.08013,-0.155212,0.629033,1.57043,1.00447,1.72694,1.15391,1.08013,-0.155212,0.629033,1.57043,1.00447,0.288156,-0.215665,1.0737,0.33958,-0.172632,0.044076,0.923548,0,0,0,1.16976,-0.418634,1.94985,-2.56339,0.0813097,-1.01217,-2.62216,0.0805157,-1.00736,0.681514,0.303913,-0.166206,0.274375,0.618384,0.602522,0.0720087,1
1.6979,-0.485695,-1.45656,-0.934118,2.43586,1.36775,-0.464543,1.6979,-0.485695,-1.45656,-0.934118,2.43586,1.36775,-0.464543,1.62755,-0.503574,-1.43975,-0.949724,2.37329,1.30619,-0.468286,1.72694,1.15391,1.08013,-0.155212,0.629033,1.57043,1.00447,1.72694,1.15391,1.08013,-0.155212,0.629033,1.57043,1.00447,0.288156,-0.215665,1.0737,0.33958,-0.172632,0.044076,0.923548,0,0,0,1.14366,-0.417863,1.93828,-2.60968,0.0770897,-1.15709,-2.60911,0.0805876,-1.10418,0.703442,0.178794,-0.168131,0.156058,0.625705,0.615558,0.0374261,1
1.69822,-0.485209,-1.45645,-0.929318,2.436,1.36816,-0.465187,1.69822,-0.485209,-1.45645,-0.929318,2.436,1.36816,-0.465187,1.62755,-0.503574,-1.43975,-0.949724,2.37329,1.30619,-0.468286,1.72694,1.15391,1.08013,-0.155212,0.629033,1.57043,1.00447,1.72694,1.15391,1.08013,-0.155212,0.629033,1.57043,1.00447,0.288156,-0.215665,1.0737,0.33958,-0.172632,0.044076,0.923548,0,0,0,1.11762,-0.416626,1.92629,-2.60425,0.123703,-1.19939,-2.60008,0.0830506,-1.1945,0.70667,0.183658,-0.167048,0.204063,0.627129,0.619693,0.0309916,1
1.69478,-0.484185,-1.46522,-0.924291,2.43706,1.36557,-0.467538,1.69478,-0.484185,-1.46522,-0.924291,2.43706,1.36557,-0.467538,1.62755,-0.503574,-1.43975,-0.949724,2.37329,1.30619,-0.468286,1.72694,1.15391,1.08013,-0.155212,0.629033,1.57043,1.00447,1.72694,1.15391,1.08013,-0.155212,0.629033,1.57043,1.00447,0.288156,-0.215665,1.0737,0.33958,-0.172632,0.044076,0.923548,0,0,0,1.0909,-0.415724,1.913,-2.67138,0.0902176,-1.32878,-2.60322,0.0910776,-1.28888,0.672252,0.193888,-0.254727,0.254332,0.63765,0.593755,0.007481,1
1.69487,-0.48838,-1.4695,-0.935489,2.43689,1.36526,-0.470115,1.69487,-0.48838,-1.4695,-0.935489,2.43689,1.36526,-0.470115,1.62755,-0.503574,-1.43975,-0.949724,2.37329,1.30619,-0.468286,1.72694,1.15391,1.08013,-0.155212,0.629033,1.57043,1.00447,1.72694,1.15391,1.08013,-0.155212,0.629033,1.57043,1.00447,0.288156,-0.215665,1.0737,0.33958,-0.172632,0.044076,0.923548,0,0,0,1.06492,-0.414946,1.8987,-2.59843,0.0778764,-1.42986,-2.60808,0.0918235,-1.37997,0.673193,0.151947,-0.297466,0.142348,0.63601,0.590685,-0.0182935,1
1.69506,-0.482476,-1.46782,-0.935552,2.43771,1.36453,-0.468422,1.69506,-0.482476,-1.46782,-0.935552,2.43771,1.36453,-0.468422,1.62755,-0.503574,-1.43975,-0.949724,2.37329,1.30619,-0.468286,1.72694,1.15391,1.08013,-0.155212,0.629033,1.57043,1.00447,1.72694,1.15391,1.08013,-0.155212,0.629033,1.57043,1.00447,0.288156,-0.215665,1.0737,0.33958,-0.172632,0.044076,0.923548,0,0,0,1.03916,-0.414118,1.88332,-2.57565,0.0827551,-1.53798,-2.61112,0.0910921,-1.47694,0.67504,0.210984,-0.280685,0.141716,0.644145,0.58335,-0.00136565,1
1.69204,-0.478812,-1.47005,-0.932641,2.43899,1.36202,-0.464376,1.69204,-0.478812,-1.47005,-0.932641,2.43899,1.36202,-0.464376,1.62755,-0.503574,-1.43975,-0.949724,2.37329,1.30619,-0.468286,1.72694,1.15391,1.08013,-0.155212,0.629033,1.57043,1.00447,1.72694,1.15391,1.08013,-0.155212,0.629033,1.57043,1.00447,0.288156,-0.215665,1.0737,0.33958,-0.172632,0.044076,0.923548,0,0,0,1.01374,-0.413224,1.86728,-2.54205,0.0893593,-1.60444,-2.6062,0.0907208,-1.57583,0.644879,0.247621,-0.302969,0.170834,0.657008,0.558257,0.0390973,1
1.69264,-0.486824,-1.46944,-0.938643,2.43958,1.3621,-0.464093,1.69264,-0.486824,-1.46944,-0.938643,2.43958,1.3621,-0.464093,1.62755,-0.503574,-1.43975,-0.949724,2.37329,1.30619,-0.468286,1.72694,1.15391,1.08013,-0.155212,0.629033,1.57043,1.00447,1.72694,1.15391,1.08013,-0.155212,0.629033,1.57043,1.00447,0.288156,-0.215665,1.0737,0.33958,-0.172632,0.044076,0.923548,0,0,0,0.987689,-0.412578,1.85033,-2.60526,0.0645876,-1.69502,-2.59786,0.0866626,-1.66987,0.650867,0.1675,-0.296922,0.110807,0.662871,0.559074,0.041927,1
1.69647,-0.523593,-1.46181,-0.923419,2.43786,1.36487,-0.475147,1.69647,-0.523593,-1.46181,-0.923419,2.43786,1.36487,-0.475147,1.62755,-0.503574,-1.43975,-0.949724,2.37329,1.30619,-0.468286,1.72694,1.15391,1.08013,-0.155212,0.629033,1.57043,1.00447,1.72694,1.15391,1.08013,-0.155212,0.629033,1.57043,1.00447,0.288156,-0.215665,1.0737,0.33958,-0.172632,0.044076,0.923548,0,0,0,0.979194,-0.428367,1.8159,-0.849491,-1.57886,-3.44256,-2.40312,-0.097176,-1.9426,0.689182,-0.200187,-0.220609,0.263046,0.645652,0.586748,-0.0686119,1
1.69892,-0.540237,-1.46899,-0.899426,2.42837,1.36713,-0.483159,1.69892,-0.540237,-1.46899,-0.899426,2.42837,1.36713,-0.483159,1.62755,-0.503574,-1.43975,-0.949724,2.37329,1.30619,-0.468286,1.72694,1.15391,1.08013,-0.155212,0.629033,1.57043,1.00447,1.72694,1.15391,1.08013,-0.155212,0.629033,1.57043,1.00447,0.288156,-0.215665,1.0737,0.33958,-0.172632,0.044076,0.923548,0,0,0,0.957272,-0.425635,1.80377,-2.19225,0.273204,-1.21326,-2.22792,-0.196558,-2.0796,0.713667,-0.366622,-0.292455,0.502983,0.550763,0.609421,-0.14873,1
1.69074,-0.520117,-1.48369,-0.901877,2.42645,1.35765,-0.492,1.69074,-0.520117,-1.48369,-0.901877,2.42645,1.35765,-0.492,1.62755,-0.503574,-1.43975,-0.949724,2.37329,1.30619,-0.468286,1.72694,1.15391,1.08013,-0.155212,0.629033,1.57043,1.00447,1.72694,1.15391,1.08013,-0.155212,0.629033,1.57043,1.00447,0.288156,-0.215665,1.0737,0.33958,-0.172632,0.044076,0.923548,0,0,0,0.909027,-0.410231,1.79292,-4.82453,1.54044,-1.08542,-2.37859,-0.0858307,-2.08516,0.631887,-0.165426,-0.439414,0.478473,0.531568,0.51455,-0.237142,1
1.67541,-0.476156,-1.49229,-0.917572,2.43264,1.34173,-0.486245,1.67541,-0.476156,-1.49229,-0.917572,2.43264,1.34173,-0.486245,1.62755,-0.503574,-1.43975,-0.949724,2.37329,1.30619,-0.468286,1.72694,1.15391,1.08013,-0.155212,0.629033,1.57043,1.00447,1.72694,1.15391,1.08013,-0.155212,0.629033,1.57043,1.00447,0.288156,-0.215665,1.0737,0.33958,-0.172632,0.044076,0.923548,0,0,0,0.883472,-0.409135,1.77198,-2.55544,0.109556,-2.09374,-2.52471,0.0281402,-2.09042,0.478532,0.274187,-0.525428,0.321516,0.593445,0.355424,-0.179592,1
1.6725,-0.46644,-1.48979,-0.937171,2.43881,1.33907,-0.469298,1.6725,-0.46644,-1.48979,-0.937171,2.43881,1.33907,-0.469298,1.62755,-0.503574,-1.43975,-0.949724,2.37329,1.30619,-0.468286,1.72694,1.15391,1.08013,-0.155212,0.629033,1.57043,1.00447,1.72694,1.15391,1.08013,-0.155212,0.629033,1.57043,1.00447,0.288156,-0.215665,1.0737,0.33958,-0.172632,0.044076,0.923548,0,0,0,0.85734,-0.408616,1.75007,-2.61325,0.0518918,-2.19103,-2.67075,0.138742,-2.09756,0.449412,0.371344,-0.500423,0.125533,0.655181,0.328763,-0.0101185,1
1.6797,-0.475404,-1.48088,-0.940906,2.4417,1.35076,-0.45312,1.6797,-0.475404,-1.48088,-0.940906,2.4417,1.35076,-0.45312,1.62755,-0.503574,-1.43975,-0.949724,2.37329,1.30619,-0.468286,1.72694,1.15391,1.08013,-0.155212,0.629033,1.57043,1.00447,1.72694,1.15391,1.08013,-0.155212,0.629033,1.57043,1.00447,0.288156,-0.215665,1.0737,0.33958,-0.172632,0.044076,0.923548,0,0,0,0.831656,-0.40781,1.72715,-2.56839,0.0806302,-2.29169,-2.80575,0.251099,-2.10354,0.521452,0.281702,-0.411324,0.0881842,0.684053,0.445661,0.151652,1
1.68146,-0.483431,-1.47879,-0.951502,2.44208,1.35436,-0.44309,1.68146,-0.483431,-1.47879,-0.951502,2.44208,1.35436,-0.44309,1.62755,-0.503574,-1.43975,-0.949724,2.37329,1.30619,-0.468286,1.72694,1.15391,1.08013,-0.155212,0.629033,1.57043,1.00447,1.72694,1.15391,1.08013,-0.155212,0.629033,1.57043,1.00447,0.288156,-0.215665,1.0737,0.33958,-0.172632,0.044076,0.923548,0,0,0,0.805672,-0.406895,1.70369,-2.59834,0.0914991,-2.346,-2.94102,0.363148,-2.10257,0.539017,0.201433,-0.390387,-0.0177824,0.687897,0.481667,0.251954,1
1.68377,-0.492528,-1.48156,-0.972549,2.44291,1.3542,-0.452732,1.68377,-0.492528,-1.48156,-0.972549,2.44291,1.3542,-0.452732,1.62755,-0.503574,-1.43975,-0.949724,2.37329,1.30619,-0.468286,1.72694,1.15391,1.08013,-0.155212,0.629033,1.57043,1.00447,1.72694,1.15391,1.08013,-0.155212,0.629033,1.57043,1.00447,0.288156,-0.215665,1.0737,0.33958,-0.172632,0.044076,0.923548,0,0,0,0.77992,-0.406306,1.67926,-2.57523,0.0589371,-2.44322,-2.8235,0.235662,-2.33147,0.562146,0.110462,-0.418069,-0.228253,0.696224,0.480074,0.155537,1
1.69024,-0.495359,-1.4817,-0.983214,2.44345,1.3582,-0.463533,1.69024,-0.495359,-1.4817,-0.983214,2.44345,1.3582,-0.463533,1.62755,-0.503574,-1.43975,-0.949724,2.37329,1.30619,-0.468286,1.72694,1.15391,1.08013,-0.155212,0.629033,1.57043,1.00447,1.72694,1.15391,1.08013,-0.155212,0.629033,1.57043,1.00447,0.288156,-0.215665,1.0737,0.33958,-0.172632,0.044076,0.923548,0,0,0,0.754519,-0.405539,1.65363,-2.54015,0.0766844,-2.56336,-2.57963,0.0766303,-2.52031,0.626881,0.0821511,-0.41949,-0.334899,0.701573,0.520126,0.0475279,1
1.68864,-0.48492,-1.48397,-0.987381,2.44295,1.35772,-0.458013,1.68864,-0.48492,-1.48397,-0.987381,2.44295,1.35772,-0.458013,1.62755,-0.503574,-1.43975,-0.949724,2.37329,1.30619,-0.468286,1.72694,1.15391,1.08013,-0.155212,0.629033,1.57043,1.00447,1.72694,1.15391,1.08013,-0.155212,0.629033,1.57043,1.00447,0.288156,-0.215665,1.0737,0.33958,-0.172632,0.044076,0.923548,0,0,0,0.728356,-0.405046,1.62697,-2.61626,0.0492752,-2.66583,-2.58117,0.0711684,-2.61361,0.610826,0.186543,-0.442256,-0.376574,0.696554,0.515273,0.102731,1
1.68106,-0.489334,-1.48856,-0.993933,2.44261,1.35449,-0.458465,1.68106,-0.489334,-1.48856,-0.993933,2.44261,1.35449,-0.458465,1.62755,-0.503574,-1.43975,-0.949724,2.37329,1.30619,-0.468286,1.72694,1.15391,1.08013,-0.155212,0.629033,1.57043,1.00447,1.72694,1.15391,1.08013,-0.155212,0.629033,1.57043,1.00447,0.288156,-0.215665,1.0737,0.33958,-0.172632,0.044076,0.923548,0,0,0,0.702683,-0.40437,1.59904,-2.56731,0.0675738,-2.79282,-2.57758,0.0700789,-2.71258,0.535014,0.142398,-0.488155,-0.44209,0.693184,0.482982,0.0982083,1
1.67942,-0.489438,-1.49088,-0.998549,2.44259,1.35526,-0.457312,1.67942,-0.489438,-1.49088,-0.998549,2.44259,1.35526,-0.457312,1.62755,-0.503574,-1.43975,-0.949724,2.37329,1.30619,-0.468286,1.72694,1.15391,1.08013,-0.155212,0.629033,1.57043,1.00447,1.72694,1.15391,1.08013,-0.155212,0.629033,1.57043,1.00447,0.288156,-0.215665,1.0737,0.33958,-0.172632,0.044076,0.923548,0,0,0,0.677494,-0.403851,1.5705,-2.51887,0.0519395,-2.8542,-2.57153,0.0649508,-2.81271,0.518683,0.141365,-0.51131,-0.488252,0.692944,0.490683,0.109736,1
1.67919,-0.484766,-1.4905,-0.996879,2.44318,1.35502,-0.45209,1.67919,-0.484766,-1.4905,-0.996879,2.44318,1.35502,-0.45209,1.62755,-0.503574,-1.43975,-0.949724,2.37329,1.30619,-0.468286,1.72694,1.15391,1.08013,-0.155212,0.629033,1.57043,1.00447,1.72694,1.15391,1.08013,-0.155212,0.629033,1.57043,1.00447,0.288156,-0.215665,1.0737,0.33958,-0.172632,0.044076,0.923548,0,0,0,0.652432,-0.403249,1.54073,-2.50627,0.0602007,-2.97697,-2.55861,0.0607725,-2.91786,0.516355,0.188081,-0.507545,-0.471548,0.698921,0.488336,0.161952,1
1.67852,-0.487084,-1.49108,-0.996995,2.4434,1.35522,-0.451038,1.67852,-0.487084,-1.49108,-0.996995,2.4434,1.35522,-0.451038,1.62755,-0.503574,-1.43975,-0.949724,2.37329,1.30619,-0.468286,1.72694,1.15391,1.08013,-0.155212,0.629033,1.57043,1.00447,1.72694,1.15391,1.08013,-0.155212,0.629033,1.57043,1.00447,0.288156,-0.215665,1.0737,0.33958,-0.172632,0.044076,0.923548,0,0,0,0.627038,-0.402551,1.51021,-2.5394,0.0697672,-3.05127,-2.54887,0.0608508,-3.01929,0.509672,0.164899,-0.513353,-0.472714,0.701096,0.490245,0.172481,1
1.67852,-0.496613,-1.49255,-1.00054,2.44352,1.35599,-0.454302,1.67852,-0.496613,-1.49255,-1.00054,2.44352,1.35599,-0.454302,1.62755,-0.503574,-1.43975,-0.949724,2.37329,1.30619,-0.468286,1.72694,1.15391,1.08013,-0.155212,0.629033,1.57043,1.00447,1.72694,1.15391,1.08013,-0.155212,0.629033,1.57043,1.00447,0.288156,-0.215665,1.0737,0.33958,-0.172632,0.044076,0.923548,0,0,0,0.601652,-0.401706,1.47909,-2.53854,0.0844955,-3.11196,-2.54103,0.0628884,-3.11217,0.509683,0.0696123,-0.528029,-0.508133,0.70232,0.49803,0.139834,1
1.67838,-0.499055,-1.49306,-1.00194,2.44372,1.35611,-0.453501,1.67838,-0.499055,-1.49306,-1.00194,2.44372,1.35611,-0.453501,1.62755,-0.503574,-1.43975,-0.949724,2.37329,1.30619,-0.468286,1.72694,1.15391,1.08013,-0.155212,0.629033,1.57043,1.00447,1.72694,1.15391,1.08013,-0.155212,0.629033,1.57043,1.00447,0.288156,-0.215665,1.0737,0.33958,-0.172632,0.044076,0.923548,0,0,0,0.576295,-0.400927,1.44699,-2.53575,0.0778824,-3.21033,-2.53108,0.0677977,-3.20034,0.508261,0.045196,-0.533097,-0.522124,0.704308,0.49917,0.147851,1
1.67639,-0.500929,-1.49409,-1.00181,2.44378,1.35494,-0.452896,1.67639,-0.500929,-1.49409,-1.00181,2.44378,1.35494,-0.452896,1.62755,-0.503574,-1.43975,-0.949724,2.37329,1.30619,-0.468286,1.72694,1.15391,1.08013,-0.155212,0.629033,1.57043,1.00447,1.72694,1.15391,1.08013,-0.155212,0.629033,1.57043,1.00447,0.288156,-0.215665,1.0737,0.33958,-0.172632,0.044076,0.923548,0,0,0,0.550655,-0.400253,1.41357,-2.56396,0.0674784,-3.34181,-2.53308,0.0705085,-3.28942,0.488325,0.0264574,-0.543425,-0.520826,0.704907,0.487444,0.153896,1
1.67481,-0.508057,-1.49547,-1.00321,2.44368,1.3549,-0.454435,1.67481,-0.508057,-1.49547,-1.00321,2.44368,1.3549,-0.454435,1.62755,-0.503574,-1.43975,-0.949724,2.37329,1.30619,-0.468286,1.72694,1.15391,1.08013,-0.155212,0.629033,1.57043,1.00447,1.72694,1.15391,1.08013,-0.155212,0.629033,1.57043,1.00447,0.288156,-0.215665,1.0737,0.33958,-0.172632,0.044076,0.923548,0,0,0,0.525504,-0.399471,1.37905,-2.51505,0.0781089,-3.45219,-2.53666,0.0741231,-3.38523,0.472585,-0.0448254,-0.557213,-0.534835,0.70389,0.487048,0.138508,1
1.67413,-0.514027,-1.49617,-1.00379,2.44386,1.35469,-0.455546,1.67413,-0.514027,-1.49617,-1.00379,2.44386,1.35469,-0.455546,1.62755,-0.503574,-1.43975,-0.949724,2.37329,1.30619,-0.468286,1.72694,1.15391,1.08013,-0.155212,0.629033,1.57043,1.00447,1.72694,1.15391,1.08013,-0.155212,0.629033,1.57043,1.00447,0.288156,-0.215665,1.0737,0.33958,-0.172632,0.044076,0.923548,0,0,0,0.500387,-0.398962,1.34387,-2.51173,0.0509411,-3.51794,-2.53642,0.0731179,-3.48004,0.465809,-0.10453,-0.564259,-0.540624,0.705662,0.485026,0.127397,1
1.67317,-0.518325,-1.49708,-1.00464,2.44394,1.35388,-0.456813,1.67317,-0.518325,-1.49708,-1.00464,2.44394,1.35388,-0.456813,1.62755,-0.503574,-1.43975,-0.949724,2.37329,1.30619,-0.468286,1.72694,1.15391,1.08013,-0.155212,0.629033,1.57043,1.00447,1.72694,1.15391,1.08013,-0.155212,0.629033,1.57043,1.00447,0.288156,-0.215665,1.0737,0.33958,-0.172632,0.044076,0.923548,0,0,0,0.475533,-0.398035,1.30793,-2.48546,0.0927448,-3.59458,-2.52798,0.0731907,-3.57589,0.456148,-0.147509,-0.573289,-0.549135,0.706534,0.476846,0.11473,1
1.67219,-0.524236,-1.49831,-1.00656,2.44378,1.35362,-0.459632,1.67219,-0.524236,-1.49831,-1.00656,2.44378,1.35362,-0.459632,1.62755,-0.503574,-1.43975,-0.949724,2.37329,1.30619,-0.468286,1.72694,1.15391,1.08013,-0.155212,0.629033,1.57043,1.00447,1.72694,1.15391,1.08013,-0.155212,0.629033,1.57043,1.00447,0.288156,-0.215665,1.0737,0.33958,-0.172632,0.044076,0.923548,0,0,0,0.450373,-0.397435,1.27103,-2.51596,0.0599205,-3.69012,-2.5201,0.0710296,-3.67157,0.446369,-0.206621,-0.585658,-0.568371,0.704924,0.474305,0.0865414,1
1.6709,-0.529292,-1.49959,-1.00853,2.44343,1.35389,-0.461616,1.6709,-0.529292,-1.49959,-1.00853,2.44343,1.35389,-0.461616,1.62755,-0.503574,-1.43975,-0.949724,2.37329,1.30619,-0.468286,1.72694,1.15391,1.08013,-0.155212,0.629033,1.57043,1.00447,1.72694,1.15391,1.08013,-0.155212,0.629033,1.57043,1.00447,0.288156,-0.215665,1.0737,0.33958,-0.172632,0.044076,0.923548,0,0,0,0.424902,-0.396732,1.23305,-2.54711,0.0703216,-3.79754,-2.51683,0.0702028,-3.76445,0.433506,-0.257173,-0.598393,-0.58811,0.701411,0.476958,0.0666957,1
1.66896,-0.534904,-1.50067,-1.0101,2.44308,1.35344,-0.465548,1.66896,-0.534904,-1.50067,-1.0101,2.44308,1.35344,-0.465548,1.62755,-0.503574,-1.43975,-0.949724,2.37329,1.30619,-0.468286,1.72694,1.15391,1.08013,-0.155212,0.629033,1.57043,1.00447,1.72694,1.15391,1.08013,-0.155212,0.629033,1.57043,1.00447,0.288156,-0.215665,1.0737,0.33958,-0.172632,0.044076,0.923548,0,0,0,0.400022,-0.396082,1.19389,-2.48801,0.0650108,-3.91576,-2.51114,0.0697025,-3.85677,0.414075,-0.313297,-0.609244,-0.603734,0.697849,0.472522,0.02738,1
1.66713,-0.539801,-1.50184,-1.01171,2.44254,1.35342,-0.47003,1.66713,-0.539801,-1.50184,-1.01171,2.44254,1.35342,-0.47003,1.62755,-0.503574,-1.43975,-0.949724,2.37329,1.30619,-0.468286,1.72694,1.15391,1.08013,-0.155212,0.629033,1.57043,1.00447,1.72694,1.15391,1.08013,-0.155212,0.629033,1.57043,1.00447,0.288156,-0.215665,1.0737,0.33958,-0.172632,0.044076,0.923548,0,0,0,0.374549,-0.395897,1.15398,-2.54731,0.0185221,-3.99159,-2.5151,0.0635219,-3.95022,0.39574,-0.362262,-0.620871,-0.619839,0.692509,0.472305,-0.0174407,1
1.66544,-0.543598,-1.50277,-1.01305,2.44196,1.35327,-0.472562,1.66544,-0.543598,-1.50277,-1.01305,2.44196,1.35327,-0.472562,1.62755,-0.503574,-1.43975,-0.949724,2.37329,1.30619,-0.468286,1.72694,1.15391,1.08013,-0.155212,0.629033,1.57043,1.00447,1.72694,1.15391,1.08013,-0.155212,0.629033,1.57043,1.00447,0.288156,-0.215665,1.0737,0.33958,-0.172632,0.044076,0.923548,0,0,0,0.349509,-0.395424,1.11396,-2.50399,0.0472844,-4.00124,-2.51769,0.0580098,-4.03842,0.378848,-0.40024,-0.630197,-0.63323,0.686644,0.470769,-0.0427659,1
1.67689,-0.552922,-1.50108,-1.01084,2.43862,1.35892,-0.483943,1.67689,-0.552922,-1.50108,-1.01084,2.43862,1.35892,-0.483943,1.62755,-0.503574,-1.43975,-0.949724,2.37329,1.30619,-0.468286,1.72694,1.15391,1.08013,-0.155212,0.629033,1.57043,1.00447,1.72694,1.15391,1.08013,-0.155212,0.629033,1.57043,1.00447,0.288156,-0.215665,1.0737,0.33958,-0.172632,0.044076,0.923548,0,0,0,0.337697,-0.415332,1.09123,-1.18119,-1.99076,-2.27367,-2.3771,-0.167974,-3.92605,0.493382,-0.493476,-0.613295,-0.611155,0.653314,0.527324,-0.156569,1
1.69998,-0.566082,-1.48913,-0.976566,2.4181,1.37664,-0.491852,1.69998,-0.566082,-1.48913,-0.976566,2.4181,1.37664,-0.491852,1.62755,-0.503574,-1.43975,-0.949724,2.37329,1.30619,-0.468286,1.72694,1.15391,1.08013,-0.155212,0.629033,1.57043,1.00447,1.72694,1.15391,1.08013,-0.155212,0.629033,1.57043,1.00447,0.288156,-0.215665,1.0737,0.33958,-0.172632,0.044076,0.923548,0,0,0,0.330609,-0.443394,1.07624,-0.70875,-2.80622,-1.49904,-2.08648,-0.622913,-3.5855,0.724299,-0.625076,-0.493859,-0.268425,0.448124,0.704531,-0.23566,1
1.69934,-0.570902,-1.48861,-0.90865,2.32821,1.37982,-0.503473,1.69934,-0.570902,-1.48861,-0.90865,2.32821,1.37982,-0.503473,1.62755,-0.503574,-1.43975,-0.949724,2.37329,1.30619,-0.468286,1.72694,1.15391,1.08013,-0.155212,0.629033,1.57043,1.00447,1.72694,1.15391,1.08013,-0.155212,0.629033,1.57043,1.00447,0.288156,-0.215665,1.0737,0.33958,-0.172632,0.044076,0.923548,0,0,0,0.323983,-0.472084,1.06013,-0.662684,-2.86901,-1.61035,-1.70869,-1.21469,-3.11718,0.717849,-0.673281,-0.488639,0.410738,-0.450862,0.736321,-0.351872,1
1.68885,-0.555379,-1.48439,-0.886065,2.31891,1.38097,-0.516231,1.68885,-0.555379,-1.48439,-0.886065,2.31891,1.38097,-0.516231,1.62755,-0.503574,-1.43975,-0.949724,2.37329,1.30619,-0.468286,1.72694,1.15391,1.08013,-0.155212,0.629033,1.57043,1.00447,1.72694,1.15391,1.08013,-0.155212,0.629033,1.57043,1.00447,0.288156,-0.215665,1.0737,0.33958,-0.172632,0.044076,0.923548,0,0,0,0.317097,-0.500983,1.04219,-0.688538,-2.8899,-1.79461,-1.31716,-1.83945,-2.63046,0.612935,-0.518045,-0.446371,0.636588,-0.54381,0.747795,-0.479454,1
1.69398,-0.540155,-1.47979,-0.883222,2.32484,1.38326,-0.512986,1.69398,-0.540155,-1.47979,-0.883222,2.32484,1.38326,-0.512986,1.62755,-0.503574,-1.43975,-0.949724,2.37329,1.30619,-0.468286,1.72694,1.15391,1.08013,-0.155212,0.629033,1.57043,1.00447,1.72694,1.15391,1.08013,-0.155212,0.629033,1.57043,1.00447,0.288156,-0.215665,1.0737,0.33958,-0.172632,0.044076,0.923548,0,0,0,0.309122,-0.530021,1.02434,-0.797555,-2.90385,-1.78428,-0.981495,-2.39373,-2.21265,0.664237,-0.365809,-0.400368,0.665018,-0.484472,0.770702,-0.447007,1
1.69527,-0.533096,-1.47669,-0.882438,2.33032,1.38386,-0.509911,1.69527,-0.533096,-1.47669,-0.882438,2.33032,1.38386,-0.509911,1.62755,-0.503574,-1.43975,-0.949724,2.37329,1.30619,-0.468286,1.72694,1.15391,1.08013,-0.155212,0.629033,1.57043,1.00447,1.72694,1.15391,1.08013,-0.155212,0.629033,1.57043,1.00447,0.288156,-0.215665,1.0737,0.33958,-0.172632,0.044076,0.923548,0,0,0,0.301868,-0.557654,1.00411,-0.725409,-2.76328,-2.02317,-0.762809,-2.76307,-1.97632,0.677147,-0.295222,-0.369423,0.672859,-0.429707,0.776676,-0.416255,1
1.6966,-0.536775,-1.47505,-0.882448,2.33263,1.38387,-0.509226,1.6966,-0.536775,-1.47505,-0.882448,2.33263,1.38387,-0.509226,1.62755,-0.503574,-1.43975,-0.949724,2.37329,1.30619,-0.468286,1.72694,1.15391,1.08013,-0.155212,0.629033,1.57043,1.00447,1.72694,1.15391,1.08013,-0.155212,0.629033,1.57043,1.00447,0.288156,-0.215665,1.0737,0.33958,-0.172632,0.044076,0.923548,0,0,0,0.294583,-0.585187,0.983912,-0.728479,-2.75327,-2.02008,-0.720311,-2.84294,-1.9928,0.690487,-0.332007,-0.352993,0.672762,-0.406569,0.776748,-0.409402,1
1.6973,-0.539712,-1.47406,-0.882562,2.33374,1.38386,-0.509173,1.6973,-0.539712,-1.47406,-0.882562,2.33374,1.38386,-0.509173,1.62755,-0.503574,-1.43975,-0.949724,2.37329,1.30619,-0.468286,1.72694,1.15391,1.08013,-0.155212,0.629033,1.57043,1.00447,1.72694,1.15391,1.08013,-0.155212,0.629033,1.57043,1.00447,0.288156,-0.215665,1.0737,0.33958,-0.172632,0.044076,0.923548,0,0,0,0.287478,-0.614091,0.963405,-0.710505,-2.89044,-2.05072,-0.726515,-2.83918,-2.08933,0.697454,-0.361382,-0.343137,0.671616,-0.395526,0.776744,-0.408874,1
1.6973,-0.540865,-1.47439,-0.882759,2.33459,1.38388,-0.509077,1.6973,-0.540865,-1.47439,-0.882759,2.33459,1.38388,-0.509077,1.62755,-0.503574,-1.43975,-0.949724,2.37329,1.30619,-0.468286,1.72694,1.15391,1.08013,-0.155212,0.629033,1.57043,1.00447,1.72694,1.15391,1.08013,-0.155212,0.629033,1.57043,1.00447,0.288156,-0.215665,1.0737,0.33958,-0.172632,0.044076,0.923548,0,0,0,0.279929,-0.642965,0.941599,-0.754905,-2.8874,-2.18059,-0.735498,-2.83581,-2.17714,0.697501,-0.372908,-0.346454,0.669651,-0.387036,0.776922,-0.407917,1
1.69732,-0.542732,-1.47483,-0.883056,2.33528,1.38383,-0.509203,1.69732,-0.542732,-1.47483,-0.883056,2.33528,1.38383,-0.509203,1.62755,-0.503574,-1.43975,-0.949724,2.37329,1.30619,-0.468286,1.72694,1.15391,1.08013,-0.155212,0.629033,1.57043,1.00447,1.72694,1.15391,1.08013,-0.155212,0.629033,1.57043,1.00447,0.288156,-0.215665,1.0737,0.33958,-0.172632,0.044076,0.923548,0,0,0,0.273879,-0.670777,0.918286,-0.604981,-2.78118,-2.33129,-0.722968,-2.82753,-2.26394,0.69768,-0.39158,-0.350827,0.666676,-0.380151,0.776367,-0.409169,1
1.69729,-0.546058,-1.4756,-0.883635,2.3367,1.38367,-0.50969,1.69729,-0.546058,-1.4756,-0.883635,2.3367,1.38367,-0.50969,1.62755,-0.503574,-1.43975,-0.949724,2.37329,1.30619,-0.468286,1.72694,1.15391,1.08013,-0.155212,0.629033,1.57043,1.00447,1.72694,1.15391,1.08013,-0.155212,0.629033,1.57043,1.00447,0.288156,-0.215665,1.0737,0.33958,-0.172632,0.044076,0.923548,0,0,0,0.258859,-0.727312,0.869685,-0.740081,-2.81338,-2.52826,-0.711677,-2.83444,-2.43675,0.6974,-0.424836,-0.358537,0.660886,-0.365906,0.774826,-0.414045,1
1.69739,-0.54784,-1.4759,-0.884052,2.33788,1.3836,-0.509987,1.69739,-0.54784,-1.4759,-0.884052,2.33788,1.3836,-0.509987,1.62755,-0.503574,-1.43975,-0.949724,2.37329,1.30619,-0.468286,1.72694,1.15391,1.08013,-0.155212,0.629033,1.57043,1.00447,1.72694,1.15391,1.08013,-0.155212,0.629033,1.57043,1.00447,0.288156,-0.215665,1.0737,0.33958,-0.172632,0.044076,0.923548,0,0,0,0.253002,-0.755014,0.844507,-0.58575,-2.77019,-2.51784,-0.698746,-2.82906,-2.52959,0.698315,-0.442656,-0.361539,0.656725,-0.3541,0.774092,-0.417012,1
1.6972,-0.549709,-1.47661,-0.884564,2.33893,1.3835,-0.510265,1.6972,-0.549709,-1.47661,-0.884564,2.33893,1.3835,-0.510265,1.62755,-0.503574,-1.43975,-0.949724,2.37329,1.30619,-0.468286,1.72694,1.15391,1.08013,-0.155212,0.629033,1.57043,1.00447,1.72694,1.15391,1.08013,-0.155212,0.629033,1.57043,1.00447,0.288156,-0.215665,1.0737,0.33958,-0.172632,0.044076,0.923548,0,0,0,0.246061,-0.78487,0.817524,-0.694041,-2.98563,-2.69823,-0.689725,-2.83204,-2.63009,0.696459,-0.461347,-0.368646,0.651603,-0.343599,0.773116,-0.419795,1
1.69711,-0.551547,-1.47719,-0.885071,2.33978,1.38339,-0.510514,1.69711,-0.551547,-1.47719,-0.885071,2.33978,1.38339,-0.510514,1.62755,-0.503574,-1.43975,-0.949724,2.37329,1.30619,-0.468286,1.72694,1.15391,1.08013,-0.155212,0.629033,1.57043,1.00447,1.72694,1.15391,1.08013,-0.155212,0.629033,1.57043,1.00447,0.288156,-0.215665,1.0737,0.33958,-0.172632,0.044076,0.923548,0,0,0,0.238578,-0.813363,0.789544,-0.748318,-2.8493,-2.79803,-0.68909,-2.84006,-2.7291,0.695581,-0.479723,-0.374414,0.646528,-0.335073,0.771966,-0.422279,1
1.69696,-0.553013,-1.47776,-0.885575,2.34046,1.38327,-0.510768,1.69696,-0.553013,-1.47776,-0.885575,2.34046,1.38327,-0.510768,1.62755,-0.503574,-1.43975,-0.949724,2.37329,1.30619,-0.468286,1.72694,1.15391,1.08013,-0.155212,0.629033,1.57043,1.00447,1.72694,1.15391,1.08013,-0.155212,0.629033,1.57043,1.00447,0.288156,-0.215665,1.0737,0.33958,-0.172632,0.044076,0.923548,0,0,0,0.231538,-0.842142,0.760562,-0.704059,-2.8779,-2.89826,-0.697092,-2.85723,-2.82922,0.694084,-0.494391,-0.38007,0.641487,-0.328282,0.77084,-0.424818,1
1.69695,-0.554944,-1.47839,-0.886248,2.34119,1.38312,-0.510897,1.69695,-0.554944,-1.47839,-0.886248,2.34119,1.38312,-0.510897,1.62755,-0.503574,-1.43975,-0.949724,2.37329,1.30619,-0.468286,1.72694,1.15391,1.08013,-0.155212,0.629033,1.57043,1.00447,1.72694,1.15391,1.08013,-0.155212,0.629033,1.57043,1.00447,0.288156,-0.215665,1.0737,0.33958,-0.172632,0.044076,0.923548,0,0,0,0.224441,-0.869319,0.729877,-0.709626,-2.71766,-3.06844,-0.694725,-2.85154,-2.94458,0.693982,-0.513696,-0.38645,0.634764,-0.321029,0.769336,-0.426111,1
1.69716,-0.556581,-1.47871,-0.886769,2.34209,1.38302,-0.511011,1.69716,-0.556581,-1.47871,-0.886769,2.34209,1.38302,-0.511011,1.62755,-0.503574,-1.43975,-0.949724,2.37329,1.30619,-0.468286,1.72694,1.15391,1.08013,-0.155212,0.629033,1.57043,1.00447,1.72694,1.15391,1.08013,-0.155212,0.629033,1.57043,1.00447,0.288156,-0.215665,1.0737,0.33958,-0.172632,0.044076,0.923548,0,0,0,0.217251,-0.897036,0.700008,-0.718999,-2.77173,-2.98694,-0.701674,-2.83948,-3.04019,0.696064,-0.530065,-0.389563,0.629546,-0.312062,0.768255,-0.427257,1
1.69734,-0.557966,-1.47903,-0.8873,2.34289,1.38292,-0.511022,1.69734,-0.557966,-1.47903,-0.8873,2.34289,1.38292,-0.511022,1.62755,-0.503574,-1.43975,-0.949724,2.37329,1.30619,-0.468286,1.72694,1.15391,1.08013,-0.155212,0.629033,1.57043,1.00447,1.72694,1.15391,1.08013,-0.155212,0.629033,1.57043,1.00447,0.288156,-0.215665,1.0737,0.33958,-0.172632,0.044076,0.923548,0,0,0,0.209941,-0.925892,0.66921,-0.731033,-2.88553,-3.07975,-0.71764,-2.83186,-3.13068,0.697834,-0.543922,-0.392834,0.624237,-0.303977,0.767298,-0.427366,1
1.69762,-0.559466,-1.47921,-0.887927,2.34367,1.38281,-0.510837,1.69762,-0.559466,-1.47921,-0.887927,2.34367,1.38281,-0.510837,1.62755,-0.503574,-1.43975,-0.949724,2.37329,1.30619,-0.468286,1.72694,1.15391,1.08013,-0.155212,0.629033,1.57043,1.00447,1.72694,1.15391,1.08013,-0.155212,0.629033,1.57043,1.00447,0.288156,-0.215665,1.0737,0.33958,-0.172632,0.044076,0.923548,0,0,0,0.20302,-0.954047,0.636436,-0.692043,-2.81559,-3.2774,-0.716725,-2.81244,-3.21602,0.700679,-0.558917,-0.394628,0.617973,-0.296245,0.766225,-0.425509,1
1.69788,-0.560694,-1.47927,-0.888554,2.34452,1.38273,-0.510551,1.69788,-0.560694,-1.47927,-0.888554,2.34452,1.38273,-0.510551,1.62755,-0.503574,-1.43975,-0.949724,2.37329,1.30619,-0.468286,1.72694,1.15391,1.08013,-0.155212,0.629033,1.57043,1.00447,1.72694,1.15391,1.08013,-0.155212,0.629033,1.57043,1.00447,0.288156,-0.215665,1.0737,0.33958,-0.172632,0.044076,0.923548,0,0,0,0.196893,-0.981673,0.602944,-0.612745,-2.76254,-3.34926,-0.702105,-2.80468,-3.30256,0.703272,-0.571201,-0.395251,0.611696,-0.287673,0.765351,-0.42265,1
1.69811,-0.56182,-1.47954,-0.889182,2.34552,1.38264,-0.510294,1.69811,-0.56182,-1.47954,-0.889182,2.34552,1.38264,-0.510294,1.62755,-0.503574,-1.43975,-0.949724,2.37329,1.30619,-0.468286,1.72694,1.15391,1.08013,-0.155212,0.629033,1.57043,1.00447,1.72694,1.15391,1.08013,-0.155212,0.629033,1.57043,1.00447,0.288156,-0.215665,1.0737,0.33958,-0.172632,0.044076,0.923548,0,0,0,0.189065,-1.01003,0.568156,-0.782847,-2.83593,-3.47879,-0.702664,-2.80496,-3.3952,0.705593,-0.582457,-0.397903,0.605424,-0.27775,0.764446,-0.420081,1
1.69839,-0.562948,-1.47965,-0.889864,2.34633,1.38253,-0.510071,1.69839,-0.562948,-1.47965,-0.889864,2.34633,1.38253,-0.510071,1.62755,-0.503574,-1.43975,-0.949724,2.37329,1.30619,-0.468286,1.72694,1.15391,1.08013,-0.155212,0.629033,1.57043,1.00447,1.72694,1.15391,1.08013,-0.155212,0.629033,1.57043,1.00447,0.288156,-0.215665,1.0737,0.33958,-0.172632,0.044076,0.923548,0,0,0,0.182839,-1.0371,0.533396,-0.622553,-2.7063,-3.47596,-0.693671,-2.80394,-3.48362,0.708338,-0.593738,-0.399035,0.598601,-0.269607,0.763355,-0.417856,1
1.6985,-0.56398,-1.47992,-0.89059,2.34706,1.38239,-0.509973,1.6985,-0.56398,-1.47992,-0.89059,2.34706,1.38239,-0.509973,1.62755,-0.503574,-1.43975,-0.949724,2.37329,1.30619,-0.468286,1.72694,1.15391,1.08013,-0.155212,0.629033,1.57043,1.00447,1.72694,1.15391,1.08013,-0.155212,0.629033,1.57043,1.00447,0.288156,-0.215665,1.0737,0.33958,-0.172632,0.044076,0.923548,0,0,0,0.176867,-1.06617,0.498076,-0.597179,-2.9078,-3.53207,-0.676113,-2.80644,-3.57752,0.709483,-0.604059,-0.401663,0.591335,-0.262293,0.762032,-0.416868,1
1.69857,-0.564937,-1.48023,-0.891346,2.34779,1.38226,-0.509852,1.69857,-0.564937,-1.48023,-0.891346,2.34779,1.38226,-0.509852,1.62755,-0.503574,-1.43975,-0.949724,2.37329,1.30619,-0.468286,1.72694,1.15391,1.08013,-0.155212,0.629033,1.57043,1.00447,1.72694,1.15391,1.08013,-0.155212,0.629033,1.57043,1.00447,0.288156,-0.215665,1.0737,0.33958,-0.172632,0.044076,0.923548,0,0,0,0.169826,-1.09541,0.460295,-0.704145,-2.92363,-3.77808,-0.666807,-2.8151,-3.67506,0.710126,-0.613626,-0.40481,0.583776,-0.254969,0.760695,-0.415665,1
1.69864,-0.565758,-1.48059,-0.89217,2.34876,1.38214,-0.509727,1.69864,-0.565758,-1.48059,-0.89217,2.34876,1.38214,-0.509727,1.62755,-0.503574,-1.43975,-0.949724,2.37329,1.30619,-0.468286,1.72694,1.15391,1.08013,-0.155212,0.629033,1.57043,1.00447,1.72694,1.15391,1.08013,-0.155212,0.629033,1.57043,1.00447,0.288156,-0.215665,1.0737,0.33958,-0.172632,0.044076,0.923548,0,0,0,0.163003,-1.12333,0.422174,-0.682259,-2.79247,-3.81203,-0.665656,-2.82669,-3.76487,0.710845,-0.621837,-0.408363,0.575539,-0.245311,0.759459,-0.414417,1
1.69868,-0.566691,-1.48107,-0.893238,2.35027,1.38197,-0.509579,1.69868,-0.566691,-1.48107,-0.893238,2.35027,1.38197,-0.509579,1.62755,-0.503574,-1.43975,-0.949724,2.37329,1.30619,-0.468286,1.72694,1.15391,1.08013,-0.155212,0.629033,1.57043,1.00447,1.72694,1.15391,1.08013,-0.155212,0.629033,1.57043,1.00447,0.288156,-0.215665,1.0737,0.33958,-0.172632,0.044076,0.923548,0,0,0,0.156496,-1.1517,0.381581,-0.650728,-2.83622,-4.05931,-0.665455,-2.83925,-3.87554,0.711297,-0.631163,-0.413218,0.564855,-0.230188,0.757756,-0.412938,1
1.69879,-0.567742,-1.48153,-0.894574,2.35196,1.38175,-0.509393,1.69879,-0.567742,-1.48153,-0.894574,2.35196,1.38175,-0.509393,1.62755,-0.503574,-1.43975,-0.949724,2.37329,1.30619,-0.468286,1.72694,1.15391,1.08013,-0.155212,0.629033,1.57043,1.00447,1.72694,1.15391,1.08013,-0.155212,0.629033,1.57043,1.00447,0.288156,-0.215665,1.0737,0.33958,-0.172632,0.044076,0.923548,0,0,0,0.149503,-1.17859,0.341572,-0.699264,-2.68948,-4.00092,-0.66155,-2.82871,-3.98315,0.712332,-0.641676,-0.41783,0.551498,-0.213339,0.7556,-0.411069,1
1.69875,-0.568639,-1.4822,-0.895806,2.35365,1.38153,-0.509257,1.69875,-0.568639,-1.4822,-0.895806,2.35365,1.38153,-0.509257,1.62755,-0.503574,-1.43975,-0.949724,2.37329,1.30619,-0.468286,1.72694,1.15391,1.08013,-0.155212,0.629033,1.57043,1.00447,1.72694,1.15391,1.08013,-0.155212,0.629033,1.57043,1.00447,0.288156,-0.215665,1.0737,0.33958,-0.172632,0.044076,0.923548,0,0,0,0.142265,-1.20621,0.301814,-0.723803,-2.76158,-3.97586,-0.677783,-2.81592,-4.08025,0.711958,-0.650646,-0.424521,0.539175,-0.196442,0.753377,-0.409709,1
1.6988,-0.569484,-1.48284,-0.897192,2.35535,1.3813,-0.509061,1.6988,-0.569484,-1.48284,-0.897192,2.35535,1.3813,-0.509061,1.62755,-0.503574,-1.43975,-0.949724,2.37329,1.30619,-0.468286,1.72694,1.15391,1.08013,-0.155212,0.629033,1.57043,1.00447,1.72694,1.15391,1.08013,-0.155212,0.629033,1.57043,1.00447,0.288156,-0.215665,1.0737,0.33958,-0.172632,0.044076,0.923548,0,0,0,0.135449,-1.23389,0.260917,-0.681657,-2.76822,-4.08962,-0.688845,-2.78571,-4.16085,0.712478,-0.659094,-0.430941,0.525319,-0.179443,0.751058,-0.407753,1
1.69882,-0.570278,-1.48344,-0.898651,2.35744,1.38104,-0.508834,1.69882,-0.570278,-1.48344,-0.898651,2.35744,1.38104,-0.508834,1.62755,-0.503574,-1.43975,-0.949724,2.37329,1.30619,-0.468286,1.72694,1.15391,1.08013,-0.155212,0.629033,1.57043,1.00447,1.72694,1.15391,1.08013,-0.155212,0.629033,1.57043,1.00447,0.288156,-0.215665,1.0737,0.33958,-0.172632,0.044076,0.923548,0,0,0,0.128825,-1.2622,0.217887,-0.662327,-2.83098,-4.30308,-0.686931,-2.77139,-4.23395,0.712626,-0.667034,-0.436913,0.510726,-0.158493,0.748471,-0.405488,1
1.69874,-0.571,-1.48408,-0.90028,2.35988,1.38078,-0.508535,1.69874,-0.571,-1.48408,-0.90028,2.35988,1.38078,-0.508535,1.62755,-0.503574,-1.43975,-0.949724,2.37329,1.30619,-0.468286,1.72694,1.15391,1.08013,-0.155212,0.629033,1.57043,1.00447,1.72694,1.15391,1.08013,-0.155212,0.629033,1.57043,1.00447,0.288156,-0.215665,1.0737,0.33958,-0.172632,0.044076,0.923548,0,0,0,0.122317,-1.29031,0.173667,-0.650871,-2.81066,-4.42194,-0.683768,-2.77577,-4.31988,0.711854,-0.674256,-0.443276,0.494442,-0.134155,0.745866,-0.402493,1
1.69942,-0.568772,-1.48254,-0.897743,2.35822,1.38156,-0.507662,1.69942,-0.568772,-1.48254,-0.897743,2.35822,1.38156,-0.507662,1.62755,-0.503574,-1.43975,-0.949724,2.37329,1.30619,-0.468286,1.72694,1.15391,1.08013,-0.155212,0.629033,1.57043,1.00447,1.72694,1.15391,1.08013,-0.155212,0.629033,1.57043,1.00447,0.288156,-0.215665,1.0737,0.33958,-0.172632,0.044076,0.923548,0,0,0,0.120048,-1.3201,0.175093,-0.226879,-2.97903,0.142568,-0.632704,-2.80221,-3.91144,0.718651,-0.651981,-0.427886,0.51981,-0.150688,0.753688,-0.393763,1
1.69967,-0.56376,-1.48013,-0.893558,2.35574,1.38258,-0.506773,1.69967,-0.56376,-1.48013,-0.893558,2.35574,1.38258,-0.506773,1.62755,-0.503574,-1.43975,-0.949724,2.37329,1.30619,-0.468286,1.72694,1.15391,1.08013,-0.155212,0.629033,1.57043,1.00447,1.72694,1.15391,1.08013,-0.155212,0.629033,1.57043,1.00447,0.288156,-0.215665,1.0737,0.33958,-0.172632,0.044076,0.923548,0,0,0,0.117567,-1.35857,0.177504,-0.248104,-3.8479,0.241163,-0.547771,-2.94338,-3.17463,0.721136,-0.601853,-0.403814,0.561663,-0.175514,0.763862,-0.384874,1
1.6991,-0.556704,-1.47774,-0.890376,2.35137,1.38333,-0.505752,1.6991,-0.556704,-1.47774,-0.890376,2.35137,1.38333,-0.505752,1.62755,-0.503574,-1.43975,-0.949724,2.37329,1.30619,-0.468286,1.72694,1.15391,1.08013,-0.155212,0.629033,1.57043,1.00447,1.72694,1.15391,1.08013,-0.155212,0.629033,1.57043,1.00447,0.288156,-0.215665,1.0737,0.33958,-0.172632,0.044076,0.923548,0,0,0,0.114805,-1.39202,0.178503,-0.27616,-3.34451,0.099808,-0.453289,-3.08824,-2.26983,0.715468,-0.531297,-0.379892,0.59348,-0.219186,0.77135,-0.374662,1
1.69768,-0.546318,-1.47552,-0.887683,2.34819,1.38378,-0.504054,1.69768,-0.546318,-1.47552,-0.887683,2.34819,1.38378,-0.504054,1.62755,-0.503574,-1.43975,-0.949724,2.37329,1.30619,-0.468286,1.72694,1.15391,1.08013,-0.155212,0.629033,1.57043,1.00447,1.72694,1.15391,1.08013,-0.155212,0.629033,1.57043,1.00447,0.288156,-0.215665,1.0737,0.33958,-0.172632,0.044076,0.923548,0,0,0,0.111207,-1.42531,0.181959,-0.359863,-3.32866,0.345659,-0.376844,-3.22201,-1.31359,0.701269,-0.427433,-0.357753,0.620413,-0.251048,0.775917,-0.357683,1
1.69594,-0.535684,-1.47502,-0.885871,2.34621,1.38404,-0.503075,1.69594,-0.535684,-1.47502,-0.885871,2.34621,1.38404,-0.503075,1.62755,-0.503574,-1.43975,-0.949724,2.37329,1.30619,-0.468286,1.72694,1.15391,1.08013,-0.155212,0.629033,1.57043,1.00447,1.72694,1.15391,1.08013,-0.155212,0.629033,1.57043,1.00447,0.288156,-0.215665,1.0737,0.33958,-0.172632,0.044076,0.923548,0,0,0,0.107739,-1.46099,0.181922,-0.346768,-3.56826,-0.00368059,-0.324008,-3.35106,-0.513925,0.68384,-0.321093,-0.3527,0.638529,-0.270854,0.778489,-0.347889,1
1.69492,-0.530342,-1.47597,-0.884746,2.34603,1.38418,-0.503373,1.69492,-0.530342,-1.47597,-0.884746,2.34603,1.38418,-0.503373,1.62755,-0.503574,-1.43975,-0.949724,2.37329,1.30619,-0.468286,1.72694,1.15391,1.08013,-0.155212,0.629033,1.57043,1.00447,1.72694,1.15391,1.08013,-0.155212,0.629033,1.57043,1.00447,0.288156,-0.215665,1.0737,0.33958,-0.172632,0.044076,0.923548,0,0,0,0.10568,-1.49393,0.181405,-0.205892,-3.29403,-0.051716,-0.288886,-3.42639,-0.0524008,0.673663,-0.26768,-0.362179,0.649775,-0.272592,0.779864,-0.350871,1
1.69486,-0.530651,-1.4763,-0.884599,2.34636,1.38425,-0.503384,1.69486,-0.530651,-1.4763,-0.884599,2.34636,1.38425,-0.503384,1.62755,-0.503574,-1.43975,-0.949724,2.37329,1.30619,-0.468286,1.72694,1.15391,1.08013,-0.155212,0.629033,1.57043,1.00447,1.72694,1.15391,1.08013,-0.155212,0.629033,1.57043,1.00447,0.288156,-0.215665,1.0737,0.33958,-0.172632,0.044076,0.923548,0,0,0,0.103885,-1.52961,0.181857,-0.179476,-3.56848,0.0451714,-0.283314,-3.45797,-0.0874522,0.673095,-0.270765,-0.365488,0.651253,-0.269321,0.780631,-0.350982,1
1.69508,-0.531581,-1.47616,-0.884739,2.34662,1.38426,-0.503351,1.69508,-0.531581,-1.47616,-0.884739,2.34662,1.38426,-0.503351,1.62755,-0.503574,-1.43975,-0.949724,2.37329,1.30619,-0.468286,1.72694,1.15391,1.08013,-0.155212,0.629033,1.57043,1.00447,1.72694,1.15391,1.08013,-0.155212,0.629033,1.57043,1.00447,0.288156,-0.215665,1.0737,0.33958,-0.172632,0.044076,0.923548,0,0,0,0.10175,-1.5651,0.178309,-0.213575,-3.54831,-0.35477,-0.267209,-3.44064,-0.169397,0.67525,-0.280067,-0.364097,0.649848,-0.266698,0.780667,-0.350649,1
1.69521,-0.532402,-1.4761,-0.884909,2.34717,1.38425,-0.503422,1.69521,-0.532402,-1.4761,-0.884909,2.34717,1.38425,-0.503422,1.62755,-0.503574,-1.43975,-0.949724,2.37329,1.30619,-0.468286,1.72694,1.15391,1.08013,-0.155212,0.629033,1.57043,1.00447,1.72694,1.15391,1.08013,-0.155212,0.629033,1.57043,1.00447,0.288156,-0.215665,1.0737,0.33958,-0.172632,0.044076,0.923548,0,0,0,0.0981425,-1.59692,0.174928,-0.360703,-3.18178,-0.338158,-0.259844,-3.4389,-0.264607,0.676547,-0.28828,-0.363473,0.648145,-0.261249,0.780594,-0.351368,1
1.69533,-0.533509,-1.47618,-0.885088,2.34774,1.38425,-0.503479,1.69533,-0.533509,-1.47618,-0.885088,2.34774,1.38425,-0.503479,1.62755,-0.503574,-1.43975,-0.949724,2.37329,1.30619,-0.468286,1.72694,1.15391,1.08013,-0.155212,0.629033,1.57043,1.00447,1.72694,1.15391,1.08013,-0.155212,0.629033,1.57043,1.00447,0.288156,-0.215665,1.0737,0.33958,-0.172632,0.044076,0.923548,0,0,0,0.0944128,-1.63203,0.171607,-0.37297,-3.51176,-0.332072,-0.262518,-3.44,-0.371937,0.677792,-0.299349,-0.364308,0.646359,-0.255533,0.780553,-0.351933,1
1.69551,-0.534765,-1.47627,-0.885306,2.34814,1.38423,-0.503456,1.69551,-0.534765,-1.47627,-0.885306,2.34814,1.38423,-0.503456,1.62755,-0.503574,-1.43975,-0.949724,2.37329,1.30619,-0.468286,1.72694,1.15391,1.08013,-0.155212,0.629033,1.57043,1.00447,1.72694,1.15391,1.08013,-0.155212,0.629033,1.57043,1.00447,0.288156,-0.215665,1.0737,0.33958,-0.172632,0.044076,0.923548,0,0,0,0.0920615,-1.6659,0.165876,-0.235134,-3.38646,-0.573075,-0.268964,-3.42226,-0.466659,0.679584,-0.311904,-0.365199,0.644176,-0.251545,0.780424,-0.351704,1
1.69564,-0.53589,-1.4763,-0.885519,2.34856,1.38421,-0.503442,1.69564,-0.53589,-1.4763,-0.885519,2.34856,1.38421,-0.503442,1.62755,-0.503574,-1.43975,-0.949724,2.37329,1.30619,-0.468286,1.72694,1.15391,1.08013,-0.155212,0.629033,1.57043,1.00447,1.72694,1.15391,1.08013,-0.155212,0.629033,1.57043,1.00447,0.288156,-0.215665,1.0737,0.33958,-0.172632,0.044076,0.923548,0,0,0,0.0909825,-1.69905,0.160755,-0.107896,-3.31489,-0.512144,-0.268132,-3.41019,-0.55934,0.680882,-0.323155,-0.36551,0.642047,-0.247351,0.780204,-0.351565,1
1.69564,-0.536904,-1.47648,-0.885703,2.34905,1.38421,-0.503534,1.69564,-0.536904,-1.47648,-0.885703,2.34905,1.38421,-0.503534,1.62755,-0.503574,-1.43975,-0.949724,2.37329,1.30619,-0.468286,1.72694,1.15391,1.08013,-0.155212,0.629033,1.57043,1.00447,1.72694,1.15391,1.08013,-0.155212,0.629033,1.57043,1.00447,0.288156,-0.215665,1.0737,0.33958,-0.172632,0.044076,0.923548,0,0,0,0.0872871,-1.73731,0.152665,-0.369543,-3.82618,-0.808969,-0.276464,-3.42843,-0.670486,0.680855,-0.3333,-0.367338,0.64021,-0.242462,0.780179,-0.352485,1
1.69578,-0.538183,-1.47653,-0.88599,2.34953,1.38419,-0.503587,1.69578,-0.538183,-1.47653,-0.88599,2.34953,1.38419,-0.503587,1.62755,-0.503574,-1.43975,-0.949724,2.37329,1.30619,-0.468286,1.72694,1.15391,1.08013,-0.155212,0.629033,1.57043,1.00447,1.72694,1.15391,1.08013,-0.155212,0.629033,1.57043,1.00447,0.288156,-0.215665,1.0737,0.33958,-0.172632,0.044076,0.923548,0,0,0,0.0863905,-1.76886,0.144215,-0.0896633,-3.15557,-0.844961,-0.254352,-3.42535,-0.763067,0.682274,-0.34609,-0.367853,0.637344,-0.237625,0.780014,-0.353017,1
1.69572,-0.53911,-1.47671,-0.886173,2.34992,1.38418,-0.503717,1.69572,-0.53911,-1.47671,-0.886173,2.34992,1.38418,-0.503717,1.62755,-0.503574,-1.43975,-0.949724,2.37329,1.30619,-0.468286,1.72694,1.15391,1.08013,-0.155212,0.629033,1.57043,1.00447,1.72694,1.15391,1.08013,-0.155212,0.629033,1.57043,1.00447,0.288156,-0.215665,1.0737,0.33958,-0.172632,0.044076,0.923548,0,0,0,0.0816297,-1.80295,0.13696,-0.476074,-3.40815,-0.725585,-0.251277,-3.43987,-0.849637,0.681706,-0.355352,-0.369651,0.635509,-0.23373,0.779857,-0.354318,1
1.69572,-0.540364,-1.47706,-0.886457,2.35022,1.38417,-0.503801,1.69572,-0.540364,-1.47706,-0.886457,2.35022,1.38417,-0.503801,1.62755,-0.503574,-1.43975,-0.949724,2.37329,1.30619,-0.468286,1.72694,1.15391,1.08013,-0.155212,0.629033,1.57043,1.00447,1.72694,1.15391,1.08013,-0.155212,0.629033,1.57043,1.00447,0.288156,-0.215665,1.0737,0.33958,-0.172632,0.044076,0.923548,0,0,0,0.077901,-1.83888,0.125637,-0.372869,-3.59302,-1.13227,-0.267825,-3.44443,-0.958152,0.681669,-0.367894,-0.373136,0.632665,-0.230663,0.779744,-0.355153,1
1.69584,-0.541734,-1.47727,-0.886756,2.35047,1.38413,-0.503873,1.69584,-0.541734,-1.47727,-0.886756,2.35047,1.38413,-0.503873,1.62755,-0.503574,-1.43975,-0.949724,2.37329,1.30619,-0.468286,1.72694,1.15391,1.08013,-0.155212,0.629033,1.57043,1.00447,1.72694,1.15391,1.08013,-0.155212,0.629033,1.57043,1.00447,0.288156,-0.215665,1.0737,0.33958,-0.172632,0.044076,0.923548,0,0,0,0.0768551,-1.87121,0.114608,-0.104588,-3.23347,-1.10286,-0.276569,-3.43298,-1.05623,0.682873,-0.381594,-0.375214,0.629681,-0.228216,0.779418,-0.355869,1
1.69591,-0.542767,-1.47741,-0.886979,2.35087,1.3841,-0.504029,1.69591,-0.542767,-1.47741,-0.886979,2.35087,1.3841,-0.504029,1.62755,-0.503574,-1.43975,-0.949724,2.37329,1.30619,-0.468286,1.72694,1.15391,1.08013,-0.155212,0.629033,1.57043,1.00447,1.72694,1.15391,1.08013,-0.155212,0.629033,1.57043,1.00447,0.288156,-0.215665,1.0737,0.33958,-0.172632,0.044076,0.923548,0,0,0,0.0755553,-1.90662,0.104875,-0.129986,-3.5414,-0.973293,-0.270125,-3.43053,-1.13689,0.6836,-0.391929,-0.376594,0.62745,-0.224177,0.779078,-0.35743,1
1.7051,-0.56324,-1.42586,-0.960127,2.43301,1.37646,-0.496534,1.7051,-0.56324,-1.42586,-0.960127,2.43301,1.37646,-0.496534,1.62755,-0.503574,-1.43975,-0.949724,2.37329,1.30619,-0.468286,1.72694,1.15391,1.08013,-0.155212,0.629033,1.57043,1.00447,1.72694,1.15391,1.08013,-0.155212,0.629033,1.57043,1.00447,0.288156,-0.215665,1.0737,0.33958,-0.172632,0.044076,0.923548,0,0,0,0.177341,-2.16656,0.100712,0.553495,0.0942945,0.565124,1.24647,0.463142,-0.0350194,0.775484,-0.596654,0.138875,-0.104034,0.597151,0.702697,-0.282485,1
1.70495,-0.564055,-1.43266,-0.949207,2.42914,1.37705,-0.494681,1.70495,-0.564055,-1.43266,-0.949207,2.42914,1.37705,-0.494681,1.62755,-0.503574,-1.43975,-0.949724,2.37329,1.30619,-0.468286,1.72694,1.15391,1.08013,-0.155212,0.629033,1.57043,1.00447,1.72694,1.15391,1.08013,-0.155212,0.629033,1.57043,1.00447,0.288156,-0.215665,1.0737,0.33958,-0.172632,0.044076,0.923548,0,0,0,0.181275,-2.16472,0.106022,0.393355,0.18394,0.530949,1.07041,0.373963,0.0412832,0.773987,-0.60481,0.0708869,0.00517339,0.55849,0.708591,-0.263952,1
1.70495,-0.563432,-1.44555,-0.933301,2.42331,1.37858,-0.493439,1.70495,-0.563432,-1.44555,-0.933301,2.42331,1.37858,-0.493439,1.62755,-0.503574,-1.43975,-0.949724,2.37329,1.30619,-0.468286,1.72694,1.15391,1.08013,-0.155212,0.629033,1.57043,1.00447,1.72694,1.15391,1.08013,-0.155212,0.629033,1.57043,1.00447,0.288156,-0.215665,1.0737,0.33958,-0.172632,0.044076,0.923548,0,0,0,0.187739,-2.16022,0.111231,0.646377,0.44961,0.520936,0.872733,0.305857,0.132875,0.773947,-0.598574,-0.0579891,0.164231,0.500205,0.723914,-0.251532,1
1.70518,-0.562323,-1.45143,-0.923963,2.42042,1.37966,-0.49277,1.70518,-0.562323,-1.45143,-0.923963,2.42042,1.37966,-0.49277,1.62755,-0.503574,-1.43975,-0.949724,2.37329,1.30619,-0.468286,1.72694,1.15391,1.08013,-0.155212,0.629033,1.57043,1.00447,1.72694,1.15391,1.08013,-0.155212,0.629033,1.57043,1.00447,0.288156,-0.215665,1.0737,0.33958,-0.172632,0.044076,0.923548,0,0,0,0.197116,-2.15542,0.115047,0.937766,0.480032,0.381574,0.736568,0.291615,0.213561,0.776252,-0.587488,-0.116802,0.25761,0.471325,0.73468,-0.244846,1
1.70482,-0.560634,-1.45669,-0.914488,2.41743,1.38008,-0.492236,1.70482,-0.560634,-1.45669,-0.914488,2.41743,1.38008,-0.492236,1.62755,-0.503574,-1.43975,-0.949724,2.37329,1.30619,-0.468286,1.72694,1.15391,1.08013,-0.155212,0.629033,1.57043,1.00447,1.72694,1.15391,1.08013,-0.155212,0.629033,1.57043,1.00447,0.288156,-0.215665,1.0737,0.33958,-0.172632,0.044076,0.923548,0,0,0,0.2031,-2.15548,0.116321,0.598341,-0.00510216,0.127438,0.652248,0.272502,0.238913,0.772625,-0.570598,-0.169423,0.35236,0.441349,0.738883,-0.239507,1
1.70461,-0.560735,-1.45768,-0.912267,2.41633,1.38025,-0.493134,1.70461,-0.560735,-1.45768,-0.912267,2.41633,1.38025,-0.493134,1.62755,-0.503574,-1.43975,-0.949724,2.37329,1.30619,-0.468286,1.72694,1.15391,1.08013,-0.155212,0.629033,1.57043,1.00447,1.72694,1.15391,1.08013,-0.155212,0.629033,1.57043,1.00447,0.288156,-0.215665,1.0737,0.33958,-0.172632,0.044076,0.923548,0,0,0,0.208614,-2.1533,0.117535,0.551403,0.217295,0.121415,0.634929,0.264527,0.184522,0.770545,-0.571609,-0.179337,0.374572,0.43035,0.740599,-0.248486,1
1.70461,-0.561225,-1.45863,-0.913075,2.41556,1.38028,-0.493582,1.70461,-0.561225,-1.45863,-0.913075,2.41556,1.38028,-0.493582,1.62755,-0.503574,-1.43975,-0.949724,2.37329,1.30619,-0.468286,1.72694,1.15391,1.08013,-0.155212,0.629033,1.57043,1.00447,1.72694,1.15391,1.08013,-0.155212,0.629033,1.57043,1.00447,0.288156,-0.215665,1.0737,0.33958,-0.172632,0.044076,0.923548,0,0,0,0.215062,-2.15194,0.118362,0.644782,0.136042,0.0826687,0.654284,0.255145,0.0895242,0.770564,-0.576505,-0.188813,0.366494,0.422683,0.740849,-0.252963,1
1.70475,-0.561959,-1.45837,-0.914054,2.41487,1.38025,-0.49392,1.70475,-0.561959,-1.45837,-0.914054,2.41487,1.38025,-0.49392,1.62755,-0.503574,-1.43975,-0.949724,2.37329,1.30619,-0.468286,1.72694,1.15391,1.08013,-0.155212,0.629033,1.57043,1.00447,1.72694,1.15391,1.08013,-0.155212,0.629033,1.57043,1.00447,0.288156,-0.215665,1.0737,0.33958,-0.172632,0.044076,0.923548,0,0,0,0.222518,-2.14952,0.119066,0.745663,0.242472,0.0704259,0.678119,0.229633,-0.000413746,0.771958,-0.583845,-0.186259,0.356695,0.415739,0.740571,-0.256339,1
1.70478,-0.56265,-1.46018,-0.913063,2.41183,1.38039,-0.494808,1.70478,-0.56265,-1.46018,-0.913063,2.41183,1.38039,-0.494808,1.62755,-0.503574,-1.43975,-0.949724,2.37329,1.30619,-0.468286,1.72694,1.15391,1.08013,-0.155212,0.629033,1.57043,1.00447,1.72694,1.15391,1.08013,-0.155212,0.629033,1.57043,1.00447,0.288156,-0.215665,1.0737,0.33958,-0.172632,0.044076,0.923548,0,0,0,0.228222,-2.14888,0.117363,0.570405,0.0634193,-0.170356,0.657916,0.176329,-0.0983046,0.772241,-0.590761,-0.204273,0.366606,0.38538,0.742023,-0.265225,1
1.70471,-0.563425,-1.46167,-0.913751,2.41023,1.38035,-0.495624,1.70471,-0.563425,-1.46167,-0.913751,2.41023,1.38035,-0.495624,1.62755,-0.503574,-1.43975,-0.949724,2.37329,1.30619,-0.468286,1.72694,1.15391,1.08013,-0.155212,0.629033,1.57043,1.00447,1.72694,1.15391,1.08013,-0.155212,0.629033,1.57043,1.00447,0.288156,-0.215665,1.0737,0.33958,-0.172632,0.044076,0.923548,0,0,0,0.234807,-2.14636,0.115232,0.658441,0.252199,-0.213045,0.63293,0.157717,-0.185106,0.771608,-0.598507,-0.219192,0.359733,0.369415,0.741584,-0.273379,1
1.70473,-0.564145,-1.46226,-0.915649,2.40922,1.38031,-0.4962,1.70473,-0.564145,-1.46226,-0.915649,2.40922,1.38031,-0.4962,1.62755,-0.503574,-1.43975,-0.949724,2.37329,1.30619,-0.468286,1.72694,1.15391,1.08013,-0.155212,0.629033,1.57043,1.00447,1.72694,1.15391,1.08013,-0.155212,0.629033,1.57043,1.00447,0.288156,-0.215665,1.0737,0.33958,-0.172632,0.044076,0.923548,0,0,0,0.238918,-2.1467,0.11086,0.411165,-0.0341177,-0.437245,0.617865,0.154502,-0.278534,0.771788,-0.605709,-0.225142,0.34075,0.359265,0.741229,-0.279142,1
1.70464,-0.564916,-1.4634,-0.917837,2.40869,1.38014,-0.496775,1.70464,-0.564916,-1.4634,-0.917837,2.40869,1.38014,-0.496775,1.62755,-0.503574,-1.43975,-0.949724,2.37329,1.30619,-0.468286,1.72694,1.15391,1.08013,-0.155212,0.629033,1.57043,1.00447,1.72694,1.15391,1.08013,-0.155212,0.629033,1.57043,1.00447,0.288156,-0.215665,1.0737,0.33958,-0.172632,0.044076,0.923548,0,0,0,0.244314,-2.1427,0.107852,0.539532,0.400639,-0.300768,0.596791,0.162338,-0.371028,0.770884,-0.613419,-0.236534,0.318872,0.354035,0.739459,-0.284897,1
1.70459,-0.565725,-1.46377,-0.921901,2.4106,1.37977,-0.497347,1.70459,-0.565725,-1.46377,-0.921901,2.4106,1.37977,-0.497347,1.62755,-0.503574,-1.43975,-0.949724,2.37329,1.30619,-0.468286,1.72694,1.15391,1.08013,-0.155212,0.629033,1.57043,1.00447,1.72694,1.15391,1.08013,-0.155212,0.629033,1.57043,1.00447,0.288156,-0.215665,1.0737,0.33958,-0.172632,0.044076,0.923548,0,0,0,0.252075,-2.13841,0.102865,0.776102,0.428748,-0.498754,0.59045,0.201516,-0.469369,0.770403,-0.621511,-0.240165,0.278225,0.373075,0.735757,-0.290617,1
