Afshin1997/kuka_rl_ros2/src/catch_and_throw/output_files/tm/nn_ema7.00_jvws1_realball_D25H14M09S42/recorded_data.csv
pure_target_joint_0,pure_target_joint_1,pure_target_joint_2,pure_target_joint_3,pure_target_joint_4,pure_target_joint_5,pure_target_joint_6,target_joint_0,target_joint_1,target_joint_2,target_joint_3,target_joint_4,target_joint_5,target_joint_6,pos_joint_0,pos_joint_1,pos_joint_2,pos_joint_3,pos_joint_4,pos_joint_5,pos_joint_6,vel_joint_0,vel_joint_1,vel_joint_2,vel_joint_3,vel_joint_4,vel_joint_5,vel_joint_6,vel_smooth_joint_0,vel_smooth_joint_1,vel_smooth_joint_2,vel_smooth_joint_3,vel_smooth_joint_4,vel_smooth_joint_5,vel_smooth_joint_6,ee_pos_x,ee_pos_y,ee_pos_z,ee_or_w,ee_or_x,ee_or_y,ee_or_z,ee_vel_x,ee_vel_y,ee_vel_z,ball_pos_x,ball_pos_y,ball_pos_z,ball_raw_vx,ball_raw_vy,ball_raw_vz,ball_ema_vx,ball_ema_vy,ball_ema_vz,action_0,action_1,action_2,action_3,action_4,action_5,action_6,command_published
1.72054,-1.01061,-1.82233,-1.16414,2.00738,1.18168,-0.908855,1.72054,-1.01061,-1.82233,-1.16414,2.00738,1.18168,-0.908855,1.78088,-1.07176,-1.81507,-1.11979,1.93712,1.11688,-0.916275,0,1.1977e-05,1.19989e-05,4.793e-05,0,0,0,0,1.1977e-05,1.19989e-05,4.793e-05,0,0,0,0.533594,-0.4554,0.692124,0.572492,0.178145,0.150854,0.785978,-8.87055e-06,-1.12406e-05,2.22946e-05,2.92895,-0.518833,0.115335,-3.50688,0.04825,5.37238,-3.50688,0.00207403,5.37238,-0.603399,0.61144,-0.0726216,-0.443461,0.702643,0.648013,0.0742047,1
1.70844,-1.00737,-1.81633,-1.15648,2.00412,1.18129,-0.920559,1.70844,-1.00737,-1.81633,-1.15648,2.00412,1.18129,-0.920559,1.78088,-1.07176,-1.81507,-1.11979,1.93712,1.11688,-0.916275,2.39552e-05,-1.19776e-05,2.39771e-05,0,0,1.19994e-05,0,2.39552e-05,-1.19776e-05,2.39771e-05,0,0,1.19994e-05,0,0.533594,-0.4554,0.692124,0.572492,0.178145,0.150854,0.785978,9.2946e-06,1.36747e-05,2.54191e-06,2.92895,-0.518833,0.115335,-3.50688,0.04825,5.37238,-3.50688,0.00207403,5.37238,-0.724381,0.643899,-0.0125601,-0.366904,0.670025,0.644153,-0.0428362,1
1.71148,-1.01135,-1.82395,-1.12209,2.00053,1.18826,-0.925583,1.71148,-1.01135,-1.82395,-1.12209,2.00053,1.18826,-0.925583,1.78088,-1.07175,-1.81501,-1.1197,1.93704,1.11675,-0.916288,0.000695116,0.00141419,0.012356,0.0174614,-0.0163181,-0.0252034,-0.00257667,0.000695116,0.00141419,0.012356,0.0174614,-0.0163181,-0.0252034,-0.00257667,0.533597,-0.455412,0.692161,0.572524,0.178152,0.150881,0.785947,0.000107101,-0.00248697,0.00767696,2.89471,-0.518998,0.171077,-3.42407,-0.0164986,5.57418,-3.42407,0.0174642,5.57418,-0.694042,0.603995,-0.0894684,-0.0238809,0.63489,0.715059,-0.092941,1
1.71327,-1.01851,-1.84086,-1.08746,1.99379,1.18607,-0.925872,1.71327,-1.01851,-1.84086,-1.08746,1.99379,1.18607,-0.925872,1.78091,-1.07198,-1.81499,-1.1181,1.93439,1.11385,-0.915649,0.00703492,-0.0408552,-0.0249997,0.214463,-0.373188,-0.397575,0.0909146,0.00703492,-0.0408552,-0.0249997,0.214463,-0.373188,-0.397575,0.0909146,0.533885,-0.455851,0.692155,0.572968,0.178936,0.152096,0.785211,0.0278292,-0.0679995,-0.0093419,2.82901,-0.520599,0.283869,-3.29618,-0.0792503,5.61809,-3.29618,-0.00307603,5.61809,-0.676394,0.534656,-0.258629,0.306421,0.594042,0.722228,-0.10223,1
1.71474,-1.01971,-1.85275,-1.07932,1.99195,1.18193,-0.910061,1.71474,-1.01971,-1.85275,-1.07932,1.99195,1.18193,-0.910061,1.78188,-1.07279,-1.81616,-1.11532,1.93032,1.11006,-0.915694,0.135413,-0.0746037,-0.124244,0.282619,-0.325001,-0.272456,-0.0474827,0.135413,-0.0746037,-0.124244,0.282619,-0.325001,-0.272456,-0.0474827,0.534724,-0.456506,0.691563,0.573948,0.180177,0.154158,0.783808,0.0678399,-0.0553065,-0.0399481,2.82901,-0.520599,0.283869,-3.29618,-0.0792503,5.61809,-3.29618,-0.00307603,5.61809,-0.671409,0.530852,-0.365887,0.359933,0.616259,0.718703,0.0563349,1
1.71727,-1.00721,-1.83622,-1.06702,1.99208,1.18465,-0.927973,1.71727,-1.00721,-1.83622,-1.06702,1.99208,1.18465,-0.927973,1.78361,-1.0728,-1.81774,-1.11427,1.93506,1.11522,-0.91693,0.160341,0.018576,-0.197265,0.0203497,0.788927,0.822426,-0.14554,0.160341,0.018576,-0.197265,0.0203497,0.788927,0.822426,-0.14554,0.5345,-0.456648,0.691735,0.574171,0.178614,0.151816,0.784459,-0.0350016,-0.00402794,0.004683,2.7951,-0.521138,0.338704,-3.39117,-0.0538647,5.48342,-3.39117,-0.0265439,5.48342,-0.66336,0.655837,-0.184795,0.47251,0.570233,0.694352,-0.11043,1
1.71608,-1.00447,-1.82107,-1.09177,2.0112,1.19296,-0.924231,1.71608,-1.00447,-1.82107,-1.09177,2.0112,1.19296,-0.924231,1.78419,-1.07228,-1.82124,-1.11673,1.95159,1.1317,-0.918835,0.0269172,0.0675687,-0.389101,-0.324289,1.91367,1.90317,-0.192136,0.0269172,0.0675687,-0.389101,-0.324289,1.91367,1.90317,-0.192136,0.532298,-0.457356,0.691733,0.573571,0.174685,0.143718,0.787304,-0.190283,-0.0472088,-0.042454,2.76227,-0.521895,0.392188,-3.28298,-0.0757754,5.34843,-3.28298,-0.0498131,5.34843,-0.681097,0.678161,0.0017004,0.249624,0.596169,0.612537,-0.0539604,1
1.71338,-1.00116,-1.81401,-1.09713,2.03796,1.21114,-0.931866,1.71338,-1.00116,-1.81401,-1.09713,2.03796,1.21114,-0.931866,1.7835,-1.07112,-1.82626,-1.12148,1.97416,1.15339,-0.919331,-0.108376,0.132633,-0.548783,-0.501169,2.25765,2.17627,-0.00156996,-0.108376,0.132633,-0.548783,-0.501169,2.25765,2.17627,-0.00156996,0.528924,-0.458624,0.691419,0.572146,0.170137,0.1328,0.791244,-0.265888,-0.0961394,-0.0910897,2.72965,-0.522328,0.445067,-3.26178,-0.0433147,5.28788,-3.26178,-0.0628952,5.28788,-0.701235,0.699516,0.122499,0.243547,0.637971,0.577458,-0.12535,1
1.70744,-0.996912,-1.83678,-1.09664,2.05688,1.22845,-0.937294,1.70744,-0.996912,-1.83678,-1.09664,2.05688,1.22845,-0.937294,1.78156,-1.06904,-1.83169,-1.12519,1.99165,1.17186,-0.91993,-0.211838,0.240529,-0.509774,-0.31101,1.53557,1.74641,-0.101785,-0.211838,0.240529,-0.509774,-0.31101,1.53557,1.74641,-0.101785,0.525427,-0.460191,0.691304,0.572154,0.165984,0.124745,0.793428,-0.284479,-0.118501,-0.00988395,2.66365,-0.523363,0.547768,-3.30527,-0.0468016,5.09539,-3.30527,-0.0587583,5.09539,-0.741227,0.721301,-0.0508842,0.285517,0.652262,0.565892,-0.173643,1
1.70797,-0.994654,-1.84154,-1.1035,2.06936,1.24601,-0.941386,1.70797,-0.994654,-1.84154,-1.1035,2.06936,1.24601,-0.941386,1.77934,-1.06655,-1.83496,-1.12547,2.00289,1.1852,-0.921283,-0.223104,0.226268,-0.276051,0.0876668,1.02166,1.22109,-0.132765,-0.223104,0.226268,-0.276051,0.0876668,1.02166,1.22109,-0.132765,0.522003,-0.461958,0.692549,0.573892,0.161717,0.119329,0.793886,-0.289371,-0.188528,0.123657,2.63072,-0.523881,0.597449,-3.29235,-0.0517905,4.96803,-3.29235,-0.0546283,4.96803,-0.713701,0.718937,-0.0658362,0.21972,0.664665,0.608076,-0.201033,1
1.70961,-0.993358,-1.84173,-1.09537,2.07795,1.2571,-0.94042,1.70961,-0.993358,-1.84173,-1.09537,2.07795,1.2571,-0.94042,1.77772,-1.0656,-1.83615,-1.12131,2.01225,1.19486,-0.923148,-0.124531,0.0505867,-0.0608574,0.51839,0.942674,0.919692,-0.213588,-0.124531,0.0505867,-0.0608574,0.51839,0.942674,0.919692,-0.213588,0.518611,-0.465037,0.69448,0.576833,0.157819,0.113635,0.793375,-0.278108,-0.302659,0.18649,2.59775,-0.524792,0.646164,-3.29785,-0.0910878,4.87159,-3.29785,-0.0570278,4.87159,-0.681112,0.72245,-0.0558409,0.259455,0.656912,0.622394,-0.172722,1
1.71053,-0.993901,-1.84671,-1.08475,2.08676,1.2672,-0.939804,1.71053,-0.993901,-1.84671,-1.08475,2.08676,1.2672,-0.939804,1.77735,-1.06553,-1.83637,-1.11515,2.02277,1.20344,-0.926221,-0.0205654,0.00829329,-0.0392493,0.620966,1.11569,0.855156,-0.336681,-0.0205654,0.00829329,-0.0392493,0.620966,1.11569,0.855156,-0.336681,0.515478,-0.468515,0.69669,0.580184,0.154041,0.106886,0.792612,-0.247417,-0.314998,0.191705,2.59775,-0.524792,0.646164,-3.29785,-0.0910878,4.87159,-3.29785,-0.0570278,4.87159,-0.668191,0.716333,-0.103335,0.303984,0.639943,0.637594,-0.135837,1
1.70939,-0.990503,-1.8576,-1.07225,2.09819,1.27689,-0.946109,1.70939,-0.990503,-1.8576,-1.07225,2.09819,1.27689,-0.946109,1.77688,-1.06406,-1.83767,-1.11007,2.03606,1.21337,-0.93027,-0.0662265,0.222433,-0.147074,0.453422,1.3974,1.0454,-0.421975,-0.0662265,0.222433,-0.147074,0.453422,1.3974,1.0454,-0.421975,0.512102,-0.4717,0.699138,0.583714,0.150022,0.0996291,0.791736,-0.28479,-0.256463,0.244517,2.53144,-0.526164,0.74085,-3.3042,-0.0552237,4.67597,-3.3042,-0.0656034,4.67597,-0.674881,0.735614,-0.199374,0.378179,0.621312,0.635188,-0.158388,1
1.70384,-0.983643,-1.86669,-1.07222,2.11311,1.28669,-0.953645,1.70384,-0.983643,-1.86669,-1.07222,2.11311,1.28669,-0.953645,1.7744,-1.05921,-1.83979,-1.10756,2.05148,1.22551,-0.934365,-0.32969,0.565547,-0.237246,0.193385,1.57377,1.26865,-0.395662,-0.32969,0.565547,-0.237246,0.193385,1.57377,1.26865,-0.395662,0.507608,-0.47416,0.702695,0.587453,0.144908,0.0926253,0.790772,-0.417723,-0.21659,0.353847,2.53144,-0.526164,0.74085,-3.3042,-0.0552237,4.67597,-3.3042,-0.0656034,4.67597,-0.705557,0.755725,-0.269068,0.353401,0.616293,0.611877,-0.192803,1
1.69567,-0.975328,-1.87418,-1.07156,2.12709,1.29598,-0.961544,1.69567,-0.975328,-1.87418,-1.07156,2.12709,1.29598,-0.961544,1.76861,-1.05218,-1.8429,-1.10624,2.06714,1.23887,-0.937663,-0.645516,0.72612,-0.334664,0.144646,1.5495,1.34954,-0.307676,-0.645516,0.72612,-0.334664,0.144646,1.5495,1.34954,-0.307676,0.501449,-0.477212,0.706886,0.592111,0.13915,0.0862001,0.789057,-0.577653,-0.310099,0.400036,2.46498,-0.527419,0.830686,-3.29344,-0.0940323,4.4119,-3.29344,-0.0669186,4.4119,-0.729423,0.768522,-0.312748,0.346766,0.599406,0.571134,-0.238809,1
1.68745,-0.968354,-1.8843,-1.06634,2.13927,1.30614,-0.967293,1.68745,-0.968354,-1.8843,-1.06634,2.13927,1.30614,-0.967293,1.76178,-1.04538,-1.84735,-1.10402,2.08136,1.25209,-0.940624,-0.667482,0.653137,-0.487783,0.262736,1.37532,1.30357,-0.297418,-0.667482,0.653137,-0.487783,0.262736,1.37532,1.30357,-0.297418,0.494764,-0.481122,0.710645,0.597657,0.133534,0.0805629,0.786437,-0.59257,-0.385119,0.331873,2.46498,-0.527419,0.830686,-3.29344,-0.0940323,4.4119,-3.29344,-0.0669186,4.4119,-0.743256,0.770299,-0.369547,0.376867,0.579073,0.540535,-0.266687,1
1.68063,-0.961665,-1.89645,-1.05513,2.14991,1.3172,-0.972593,1.68063,-0.961665,-1.89645,-1.05513,2.14991,1.3172,-0.972593,1.75565,-1.03887,-1.85354,-1.09983,2.09412,1.26423,-0.944044,-0.605058,0.660915,-0.665421,0.484128,1.25573,1.19455,-0.360453,-0.605058,0.660915,-0.665421,0.484128,1.25573,1.19455,-0.360453,0.488327,-0.485499,0.714061,0.604134,0.128271,0.0759784,0.782813,-0.587725,-0.439159,0.327841,2.43194,-0.527991,0.874126,-3.30396,-0.0572205,4.344,-3.30396,-0.0659066,4.344,-0.750104,0.772057,-0.4291,0.446964,0.557877,0.529648,-0.285491,1
1.67512,-0.954398,-1.90852,-1.04517,2.15865,1.32968,-0.978729,1.67512,-0.954398,-1.90852,-1.04517,2.15865,1.32968,-0.978729,1.74985,-1.03167,-1.86083,-1.09436,2.10641,1.27567,-0.948416,-0.565367,0.741639,-0.739901,0.540392,1.23044,1.12157,-0.463467,-0.565367,0.741639,-0.739901,0.540392,1.23044,1.12157,-0.463467,0.481865,-0.489925,0.717786,0.611519,0.122919,0.0721872,0.778283,-0.580624,-0.415784,0.363027,2.399,-0.528486,0.91661,-3.29335,-0.0495017,4.24839,-3.29335,-0.0610667,4.24839,-0.747352,0.772744,-0.476925,0.491878,0.522364,0.540091,-0.303126,1
1.66912,-0.946718,-1.9194,-1.03775,2.1672,1.34027,-0.984747,1.66912,-0.946718,-1.9194,-1.03775,2.1672,1.34027,-0.984747,1.74414,-1.02401,-1.86859,-1.08907,2.11883,1.28665,-0.953798,-0.588472,0.770412,-0.796034,0.526239,1.24894,1.08881,-0.56122,-0.588472,0.770412,-0.796034,0.526239,1.24894,1.08881,-0.56122,0.475449,-0.494094,0.721585,0.619257,0.117665,0.0687963,0.773268,-0.594784,-0.416143,0.360244,2.36603,-0.528754,0.957678,-3.29738,-0.0268042,4.10683,-3.29738,-0.0556627,4.10683,-0.750164,0.772906,-0.508129,0.513215,0.483686,0.53618,-0.309491,1
1.66127,-0.938336,-1.93059,-1.02937,2.17656,1.34757,-0.991155,1.66127,-0.938336,-1.93059,-1.02937,2.17656,1.34757,-0.991155,1.73746,-1.01582,-1.87729,-1.08353,2.13137,1.29736,-0.959871,-0.692061,0.841549,-0.889521,0.570628,1.24727,1.06643,-0.617006,-0.692061,0.841549,-0.889521,0.570628,1.24727,1.06643,-0.617006,0.468463,-0.498684,0.725457,0.627861,0.112483,0.0657914,0.767339,-0.663495,-0.459678,0.385726,2.30099,-0.530405,1.03756,-3.24981,-0.103158,3.96965,-3.24981,-0.0587448,3.96965,-0.761925,0.774877,-0.532961,0.541546,0.451896,0.502101,-0.312839,1
1.65324,-0.929638,-1.94131,-1.02285,2.18426,1.35636,-0.998856,1.65324,-0.929638,-1.94131,-1.02285,2.18426,1.35636,-0.998856,1.73015,-1.0071,-1.88651,-1.07747,2.14355,1.30835,-0.966238,-0.73917,0.870706,-0.934796,0.606556,1.19598,1.10953,-0.640758,-0.73917,0.870706,-0.934796,0.606556,1.19598,1.10953,-0.640758,0.460911,-0.503383,0.729659,0.637079,0.106839,0.0631741,0.76074,-0.707787,-0.467748,0.40327,2.30099,-0.530405,1.03756,-3.24981,-0.103158,3.96965,-3.24981,-0.0587448,3.96965,-0.769171,0.774592,-0.54802,0.546227,0.40704,0.480107,-0.326182,1
1.64518,-0.920873,-1.95188,-1.01569,2.19123,1.36595,-1.00875,1.64518,-0.920873,-1.95188,-1.01569,2.19123,1.36595,-1.00875,1.72258,-0.998237,-1.8964,-1.07115,2.15477,1.31955,-0.972705,-0.763497,0.898772,-1.00362,0.659944,1.09505,1.13043,-0.64814,-0.763497,0.898772,-1.00362,0.659944,1.09505,1.13043,-0.64814,0.453112,-0.508021,0.73384,0.64662,0.100916,0.0612111,0.753626,-0.739584,-0.46907,0.417359,2.26781,-0.531291,1.07598,-3.31833,-0.0886023,3.84172,-3.31833,-0.061886,3.84172,-0.774008,0.773648,-0.554785,0.554627,0.364658,0.463939,-0.360426,1
1.6371,-0.911691,-1.96229,-1.00792,2.20078,1.37642,-1.01566,1.6371,-0.911691,-1.96229,-1.00792,2.20078,1.37642,-1.01566,1.71481,-0.98894,-1.90675,-1.06343,2.16499,1.33081,-0.979275,-0.787274,0.926779,-1.05458,0.80072,1.00376,1.11426,-0.659453,-0.787274,0.926779,-1.05458,0.80072,1.00376,1.11426,-0.659453,0.444826,-0.512695,0.738548,0.656775,0.0943051,0.0598395,0.74577,-0.78776,-0.490329,0.460205,2.20253,-0.532646,1.14925,-3.25518,-0.0647008,3.62302,-3.25518,-0.0745873,3.62302,-0.777065,0.772491,-0.555444,0.555108,0.357896,0.456142,-0.363863,1
1.62856,-0.903284,-1.97385,-0.999335,2.20793,1.38646,-1.02258,1.62856,-0.903284,-1.97385,-0.999335,2.20793,1.38646,-1.02258,1.70666,-0.980187,-1.91761,-1.05479,2.17441,1.34146,-0.986029,-0.815975,0.865265,-1.08243,0.866416,0.91962,1.04543,-0.681096,-0.815975,0.865265,-1.08243,0.866416,0.91962,1.04543,-0.681096,0.436195,-0.517798,0.743072,0.667386,0.0878458,0.0588175,0.73717,-0.814269,-0.521021,0.4395,2.17006,-0.533217,1.1847,-3.24736,-0.0571489,3.54525,-3.24736,-0.0768853,3.54525,-0.780951,0.769034,-0.562456,0.554509,0.335243,0.449984,-0.365524,1
1.62147,-0.894875,-1.98481,-0.989898,2.21191,1.39909,-1.03107,1.62147,-0.894875,-1.98481,-0.989898,2.21191,1.39909,-1.03107,1.69906,-0.971523,-1.92832,-1.0458,2.18301,1.35151,-0.993254,-0.743053,0.860064,-1.07752,0.906346,0.839586,0.990018,-0.739266,-0.743053,0.860064,-1.07752,0.906346,0.839586,0.990018,-0.739266,0.427794,-0.522441,0.747724,0.677909,0.0813005,0.0582404,0.728312,-0.786673,-0.474895,0.45436,2.17006,-0.533217,1.1847,-3.24736,-0.0571489,3.54525,-3.24736,-0.0768853,3.54525,-0.775874,0.766484,-0.564905,0.559052,0.289068,0.475867,-0.378125,1
1.61364,-0.887258,-1.99705,-0.978877,2.21687,1.40885,-1.03945,1.61364,-0.887258,-1.99705,-0.978877,2.21687,1.40885,-1.03945,1.69153,-0.963382,-1.93987,-1.03633,2.19109,1.36105,-1.00106,-0.757553,0.799725,-1.16846,0.942825,0.800624,0.949117,-0.791133,-0.757553,0.799725,-1.16846,0.942825,0.800624,0.949117,-0.791133,0.419356,-0.527282,0.752017,0.688746,0.0750711,0.0580586,0.718764,-0.805498,-0.506792,0.410991,2.10475,-0.534609,1.25265,-3.25933,-0.0656307,3.34054,-3.25933,-0.0684136,3.34054,-0.778887,0.761243,-0.571844,0.574583,0.257785,0.477987,-0.383933,1
1.60678,-0.879578,-2.0084,-0.968639,2.2192,1.42012,-1.04896,1.60678,-0.879578,-2.0084,-0.968639,2.2192,1.42012,-1.04896,1.68426,-0.955342,-1.95129,-1.0272,2.19879,1.37035,-1.00908,-0.718149,0.806666,-1.13266,0.91195,0.764555,0.928537,-0.80343,-0.718149,0.806666,-1.13266,0.91195,0.764555,0.928537,-0.80343,0.4111,-0.531675,0.756262,0.699272,0.0688594,0.0581235,0.709154,-0.784561,-0.450384,0.424046,2.10475,-0.534609,1.25265,-3.25933,-0.0656307,3.34054,-3.25933,-0.0684136,3.34054,-0.774846,0.757643,-0.571086,0.585605,0.20412,0.497711,-0.398753,1
1.59856,-0.872278,-2.02026,-0.95745,2.224,1.42929,-1.05787,1.59856,-0.872278,-2.02026,-0.95745,2.224,1.42929,-1.05787,1.67659,-0.947482,-1.96281,-1.01779,2.20609,1.3798,-1.01719,-0.794382,0.782422,-1.16738,0.949198,0.713165,0.948922,-0.814396,-0.794382,0.782422,-1.16738,0.949198,0.713165,0.948922,-0.814396,0.402466,-0.536086,0.760527,0.709901,0.062417,0.0583341,0.699101,-0.843413,-0.476544,0.418779,2.0393,-0.536078,1.31661,-3.2939,-0.0581741,3.15901,-3.2939,-0.069033,3.15901,-0.780259,0.752039,-0.574539,0.603398,0.17914,0.494828,-0.40671,1
1.59,-0.864943,-2.03256,-0.947265,2.22934,1.43891,-1.06649,1.59,-0.864943,-2.03256,-0.947265,2.22934,1.43891,-1.06649,1.66823,-0.939832,-1.97483,-1.00834,2.21255,1.38957,-1.02545,-0.836987,0.765595,-1.20039,0.946753,0.622198,0.982455,-0.828418,-0.836987,0.765595,-1.20039,0.946753,0.622198,0.982455,-0.828418,0.393401,-0.540567,0.764614,0.72074,0.0558176,0.0590248,0.688429,-0.874155,-0.470341,0.407212,2.00633,-0.536456,1.34695,-3.29692,-0.0377953,3.03408,-3.29692,-0.0667642,3.03408,-0.782304,0.748899,-0.577318,0.610757,0.167871,0.49345,-0.410381,1
1.58207,-0.857253,-2.04427,-0.937247,2.22951,1.44976,-1.07516,1.58207,-0.857253,-2.04427,-0.937247,2.22951,1.44976,-1.07516,1.6602,-0.93193,-1.98643,-0.998638,2.21796,1.39975,-1.03391,-0.79751,0.793351,-1.1615,0.97427,0.51148,1.03182,-0.854185,-0.79751,0.793351,-1.1615,0.97427,0.51148,1.03182,-0.854185,0.384372,-0.544332,0.769093,0.73135,0.0484727,0.0601747,0.677611,-0.866965,-0.404041,0.448203,2.00633,-0.536456,1.34695,-3.29692,-0.0377953,3.03408,-3.29692,-0.0667642,3.03408,-0.781326,0.746767,-0.578375,0.613907,0.115498,0.500116,-0.412544,1
1.57339,-0.849968,-2.05697,-0.926836,2.2343,1.45908,-1.08356,1.57339,-0.849968,-2.05697,-0.926836,2.2343,1.45908,-1.08356,1.65178,-0.924297,-1.99877,-0.988846,2.22233,1.41018,-1.04267,-0.850398,0.752796,-1.24452,0.992031,0.42105,1.04378,-0.884494,-0.850398,0.752796,-1.24452,0.992031,0.42105,1.04378,-0.884494,0.375109,-0.548089,0.773298,0.742133,0.0410452,0.0619913,0.666116,-0.904674,-0.424448,0.414776,1.94059,-0.537592,1.40404,-3.29731,-0.0583291,2.81043,-3.29731,-0.0595636,2.81043,-0.783888,0.743291,-0.581997,0.6201,0.119729,0.488987,-0.408861,1
1.5656,-0.841888,-2.06862,-0.917183,2.23717,1.46994,-1.09281,1.5656,-0.841888,-2.06862,-0.917183,2.23717,1.46994,-1.09281,1.6437,-0.916372,-2.01073,-0.978598,2.22612,1.42056,-1.05164,-0.795029,0.805288,-1.18381,1.03834,0.37246,1.0387,-0.89969,-0.795029,0.805288,-1.18381,1.03834,0.37246,1.0387,-0.89969,0.365886,-0.551249,0.777953,0.752679,0.0330917,0.0640905,0.654424,-0.890016,-0.350753,0.480205,1.90814,-0.538241,1.4307,-3.24446,-0.0648797,2.66593,-3.24446,-0.0572126,2.66593,-0.780953,0.744839,-0.578895,0.61415,0.110536,0.49376,-0.41169,1
1.55705,-0.834327,-2.0814,-0.906634,2.23995,1.47968,-1.10116,1.55705,-0.834327,-2.0814,-0.906634,2.23995,1.47968,-1.10116,1.63548,-0.908612,-2.02288,-0.968198,2.22941,1.43098,-1.06073,-0.834746,0.766973,-1.23545,1.0567,0.308817,1.03616,-0.9102,-0.834746,0.766973,-1.23545,1.0567,0.308817,1.03616,-0.9102,0.356538,-0.554246,0.782556,0.763116,0.0250256,0.0664787,0.642346,-0.919425,-0.361065,0.456431,1.90814,-0.538241,1.4307,-3.24446,-0.0648797,2.66593,-3.24446,-0.0572126,2.66593,-0.784272,0.742844,-0.585256,0.615646,0.105317,0.48704,-0.40432,1
1.54848,-0.82688,-2.09395,-0.895441,2.24178,1.48953,-1.11036,1.54848,-0.82688,-2.09395,-0.895441,2.24178,1.48953,-1.11036,1.62702,-0.900983,-2.03525,-0.957256,2.23224,1.44129,-1.06981,-0.842296,0.766374,-1.22547,1.10611,0.280399,1.03204,-0.906821,-0.842296,0.766374,-1.22547,1.10611,0.280399,1.03204,-0.906821,0.346919,-0.557176,0.787229,0.773514,0.0168014,0.0691439,0.629772,-0.940565,-0.340303,0.479295,1.87573,-0.538802,1.45705,-3.24167,-0.0561237,2.63478,-3.24167,-0.0549355,2.63478,-0.785394,0.741028,-0.586951,0.61815,0.095419,0.482435,-0.405528,1
1.54034,-0.819611,-2.10579,-0.883853,2.23988,1.50074,-1.12044,1.54034,-0.819611,-2.10579,-0.883853,2.23988,1.50074,-1.12044,1.61882,-0.893264,-2.04732,-0.946381,2.23487,1.45148,-1.07889,-0.821803,0.764888,-1.21866,1.09042,0.260707,1.01601,-0.907911,-0.821803,0.764888,-1.21866,1.09042,0.260707,1.01601,-0.907911,0.337454,-0.559597,0.792057,0.783467,0.00840876,0.0719176,0.617201,-0.927455,-0.302155,0.481536,1.84301,-0.539248,1.48233,-3.27199,-0.0445366,2.52819,-3.27199,-0.0551247,2.52819,-0.784805,0.736525,-0.584732,0.62528,0.050053,0.492646,-0.415492,1
1.53119,-0.812294,-2.11891,-0.872941,2.24479,1.50876,-1.12851,1.53119,-0.812294,-2.11891,-0.872941,2.24479,1.50876,-1.12851,1.61006,-0.885907,-2.05996,-0.935141,2.23752,1.46169,-1.08794,-0.88417,0.729809,-1.2611,1.11617,0.266402,1.02764,-0.903789,-0.88417,0.729809,-1.2611,1.11617,0.266402,1.02764,-0.903789,0.327532,-0.562232,0.796697,0.793454,8.9919e-05,0.074785,0.604018,-0.977896,-0.319499,0.465563,1.77852,-0.540376,1.52923,-3.18999,-0.0648916,2.31541,-3.18999,-0.0549155,2.31541,-0.788702,0.73613,-0.589479,0.622007,0.0726509,0.470666,-0.405666,1
1.52313,-0.805336,-2.13045,-0.860814,2.23944,1.52107,-1.13978,1.52313,-0.805336,-2.13045,-0.860814,2.23944,1.52107,-1.13978,1.6017,-0.878402,-2.07228,-0.924226,2.23994,1.47178,-1.09697,-0.827471,0.758237,-1.22865,1.09597,0.232749,1.0027,-0.903705,-0.827471,0.758237,-1.22865,1.09597,0.232749,1.0027,-0.903705,0.317946,-0.564245,0.801443,0.802873,-0.008335,0.0778206,0.59099,-0.938803,-0.251769,0.488898,1.74574,-0.541293,1.55156,-3.27857,-0.0917435,2.23308,-3.27857,-0.0582035,2.23308,-0.785706,0.730655,-0.581671,0.634126,-0.00494798,0.492913,-0.428059,1
1.5138,-0.79872,-2.14326,-0.848931,2.23559,1.53061,-1.14858,1.5138,-0.79872,-2.14326,-0.848931,2.23559,1.53061,-1.14858,1.59293,-0.870897,-2.08487,-0.913059,2.24169,1.48203,-1.10609,-0.891936,0.745257,-1.2723,1.10279,0.149816,1.03118,-0.915809,-0.891936,0.745257,-1.2723,1.10279,0.149816,1.03118,-0.915809,0.308093,-0.566069,0.806225,0.812209,-0.0169943,0.0813003,0.577424,-0.978161,-0.24741,0.477703,1.7126,-0.542031,1.57259,-3.31342,-0.0737309,2.10307,-3.31342,-0.0624231,2.10307,-0.791276,0.721765,-0.583909,0.641282,-0.061004,0.485807,-0.424898,1
1.50533,-0.791633,-2.15586,-0.837878,2.2336,1.54126,-1.15756,1.50533,-0.791633,-2.15586,-0.837878,2.2336,1.54126,-1.15756,1.58427,-0.863514,-2.09735,-0.902077,2.24311,1.49217,-1.11529,-0.853341,0.746157,-1.22827,1.10877,0.144919,1.00737,-0.918905,-0.853341,0.746157,-1.22827,1.10877,0.144919,1.00737,-0.918905,0.298408,-0.567544,0.810937,0.821141,-0.0256436,0.0849641,0.563783,-0.955747,-0.201084,0.494916,1.68032,-0.543015,1.59255,-3.2289,-0.0984728,1.99521,-3.2289,-0.0706109,1.99521,-0.789344,0.718807,-0.585145,0.641988,-0.0950901,0.4909,-0.422686,1
1.49632,-0.784717,-2.16837,-0.827235,2.22936,1.55034,-1.16666,1.49632,-0.784717,-2.16837,-0.827235,2.22936,1.55034,-1.16666,1.57555,-0.856008,-2.10959,-0.891141,2.24403,1.50182,-1.12405,-0.891318,0.740908,-1.23998,1.08487,0.0548577,0.953887,-0.862293,-0.891318,0.740908,-1.23998,1.08487,0.0548577,0.953887,-0.862293,0.288831,-0.56864,0.815777,0.829591,-0.0342388,0.0889423,0.550179,-0.960492,-0.183282,0.48524,1.68032,-0.543015,1.59255,-3.2289,-0.0984728,1.99521,-3.2289,-0.0706109,1.99521,-0.79233,0.712911,-0.587761,0.639064,-0.146694,0.485232,-0.426126,1
1.48712,-0.778361,-2.18059,-0.815563,2.22688,1.56121,-1.17464,1.48712,-0.778361,-2.18059,-0.815563,2.22688,1.56121,-1.17464,1.56642,-0.848665,-2.12174,-0.879901,2.24335,1.5115,-1.1329,-0.902691,0.739913,-1.18805,1.13646,-0.107606,0.978274,-0.899539,-0.902691,0.739913,-1.18805,1.13646,-0.107606,0.978274,-0.899539,0.279146,-0.569465,0.820609,0.83786,-0.0430751,0.093678,0.53606,-0.965507,-0.138193,0.511032,1.64798,-0.543922,1.61159,-3.23383,-0.0906527,1.90448,-3.23383,-0.0794783,1.90448,-0.79294,0.703042,-0.58854,0.643378,-0.164694,0.49709,-0.41748,1
1.47766,-0.77257,-2.19296,-0.802708,2.22376,1.57211,-1.18282,1.47766,-0.77257,-2.19296,-0.802708,2.22376,1.57211,-1.18282,1.5574,-0.841465,-2.13387,-0.868751,2.24128,1.52156,-1.1423,-0.918821,0.709126,-1.23913,1.13167,-0.230629,1.01792,-0.951046,-0.918821,0.709126,-1.23913,1.13167,-0.230629,1.01792,-0.951046,0.269728,-0.569831,0.8253,0.845818,-0.0521912,0.0990857,0.521585,-0.966969,-0.123574,0.481101,1.61544,-0.544658,1.62995,-3.25396,-0.0735998,1.83545,-3.25396,-0.0843099,1.83545,-0.797389,0.688951,-0.59095,0.660427,-0.17519,0.505519,-0.405193,1
1.46825,-0.765677,-2.20539,-0.790435,2.22574,1.5821,-1.19137,1.46825,-0.765677,-2.20539,-0.790435,2.22574,1.5821,-1.19137,1.5481,-0.834168,-2.14635,-0.85672,2.23833,1.53198,-1.152,-0.917204,0.737564,-1.24413,1.19141,-0.318965,1.04548,-0.97402,-0.917204,0.737564,-1.24413,1.19141,-0.318965,1.04548,-0.97402,0.260014,-0.569907,0.830204,0.853692,-0.0618547,0.105056,0.506307,-0.973818,-0.0770896,0.514517,1.55096,-0.545594,1.66369,-3.21342,-0.0383496,1.63735,-3.21342,-0.0746546,1.63735,-0.798497,0.684909,-0.590423,0.662854,-0.125876,0.501148,-0.393664,1
1.45949,-0.759687,-2.2182,-0.778016,2.22152,1.593,-1.20096,1.45949,-0.759687,-2.2182,-0.778016,2.22152,1.593,-1.20096,1.5394,-0.827091,-2.15887,-0.845113,2.23468,1.54256,-1.16167,-0.866763,0.698892,-1.25645,1.17566,-0.373132,1.06367,-0.961952,-0.866763,0.698892,-1.25645,1.17566,-0.373132,1.06367,-0.961952,0.250902,-0.569553,0.83482,0.860899,-0.0714533,0.111394,0.491262,-0.934247,-0.0497341,0.485551,1.55096,-0.545594,1.66369,-3.21342,-0.0383496,1.63735,-3.21342,-0.0746546,1.63735,-0.799127,0.674038,-0.593255,0.670967,-0.131632,0.504427,-0.392913,1
1.44983,-0.753603,-2.23105,-0.765698,2.21868,1.60216,-1.21037,1.44983,-0.753603,-2.23105,-0.765698,2.21868,1.60216,-1.21037,1.53026,-0.820027,-2.17185,-0.832961,2.23077,1.55316,-1.17102,-0.923507,0.705639,-1.30581,1.19959,-0.393304,1.06196,-0.926647,-0.923507,0.705639,-1.30581,1.19959,-0.393304,1.06196,-0.926647,0.241477,-0.569109,0.839484,0.867843,-0.0811472,0.118072,0.475735,-0.9706,-0.0404685,0.488712,1.51825,-0.546436,1.6789,-3.27104,-0.0842333,1.52099,-3.27104,-0.0702207,1.52099,-0.804237,0.664244,-0.591988,0.672627,-0.120978,0.489973,-0.393515,1
1.44137,-0.746884,-2.24359,-0.753963,2.2183,1.61364,-1.22011,1.44137,-0.746884,-2.24359,-0.753963,2.2183,1.61364,-1.22011,1.5215,-0.812796,-2.18436,-0.820922,2.22734,1.56399,-1.18005,-0.866248,0.730446,-1.23842,1.2163,-0.323068,1.08192,-0.895165,-0.866248,0.730446,-1.23842,1.2163,-0.323068,1.08192,-0.895165,0.23231,-0.568138,0.844303,0.874109,-0.0910953,0.124473,0.460588,-0.940628,0.0208043,0.523908,1.48606,-0.546971,1.69324,-3.21933,-0.0534713,1.43366,-3.21933,-0.0636816,1.43366,-0.801267,0.659127,-0.592341,0.669596,-0.0904183,0.496587,-0.40057,1
1.43171,-0.741212,-2.25595,-0.7419,2.22319,1.62418,-1.22794,1.43171,-0.741212,-2.25595,-0.7419,2.22319,1.62418,-1.22794,1.51223,-0.806025,-2.19733,-0.80884,2.22444,1.57473,-1.18888,-0.939422,0.661071,-1.30689,1.21311,-0.283588,1.07805,-0.880976,-0.939422,0.661071,-1.30689,1.21311,-0.283588,1.07805,-0.880976,0.22284,-0.567376,0.848807,0.880124,-0.100676,0.130764,0.445137,-0.987105,-0.0130527,0.474087,1.45341,-0.54771,1.7061,-3.26508,-0.0739515,1.2863,-3.26508,-0.0614899,1.2863,-0.805185,0.648133,-0.586211,0.669398,-0.0124989,0.494451,-0.390527,1
1.42305,-0.735148,-2.26841,-0.729055,2.22076,1.63724,-1.23736,1.42305,-0.735148,-2.26841,-0.729055,2.22076,1.63724,-1.23736,1.50325,-0.798993,-2.20986,-0.796431,2.22158,1.58545,-1.19774,-0.888406,0.713093,-1.24239,1.22632,-0.286062,1.06495,-0.887807,-0.888406,0.713093,-1.24239,1.22632,-0.286062,1.06495,-0.887807,0.213544,-0.566067,0.853624,0.885638,-0.110605,0.136996,0.429702,-0.947688,0.0603252,0.520415,1.42061,-0.548415,1.71819,-3.27976,-0.0704348,1.2091,-3.27976,-0.0630272,1.2091,-0.801945,0.638451,-0.58545,0.67376,-0.0081965,0.517871,-0.396196,1
1.41356,-0.729438,-2.2812,-0.717145,2.22719,1.64847,-1.24417,1.41356,-0.729438,-2.2812,-0.717145,2.22719,1.64847,-1.24417,1.49403,-0.792247,-2.22263,-0.784018,2.21913,1.59607,-1.20671,-0.935084,0.670538,-1.28345,1.26323,-0.22549,1.06299,-0.901097,-0.935084,0.670538,-1.28345,1.26323,-0.22549,1.06299,-0.901097,0.204155,-0.564756,0.858249,0.89086,-0.120313,0.143127,0.414015,-0.98838,0.049522,0.503776,1.38836,-0.548665,1.72926,-3.22448,-0.0250399,1.10664,-3.22448,-0.0617159,1.10664,-0.804705,0.628092,-0.585709,0.668738,0.0805804,0.524042,-0.374521,1
1.40444,-0.723691,-2.29384,-0.704392,2.23208,1.66088,-1.25366,1.40444,-0.723691,-2.29384,-0.704392,2.23208,1.66088,-1.25366,1.48476,-0.785628,-2.23528,-0.771693,2.2181,1.60666,-1.21578,-0.914975,0.655007,-1.25754,1.20935,-0.0673978,1.05404,-0.905447,-0.914975,0.655007,-1.25754,1.20935,-0.0673978,1.05404,-0.905447,0.194652,-0.563332,0.862858,0.895745,-0.129923,0.148569,0.398357,-0.970398,0.0700404,0.490447,1.32396,-0.549482,1.74837,-3.26098,-0.0392497,0.913978,-3.26098,-0.0511761,0.913978,-0.803163,0.619373,-0.58555,0.673009,0.139755,0.542291,-0.378781,1
1.39499,-0.717359,-2.30666,-0.692334,2.2355,1.67232,-1.26212,1.39499,-0.717359,-2.30666,-0.692334,2.2355,1.67232,-1.26212,1.47549,-0.778888,-2.24794,-0.759074,2.218,1.61734,-1.22481,-0.946768,0.679274,-1.27713,1.27453,0.0118881,1.07705,-0.901648,-0.946768,0.679274,-1.27713,1.27453,0.0118881,1.07705,-0.901648,0.185039,-0.56159,0.867648,0.900261,-0.139741,0.153647,0.382618,-1.00824,0.102956,0.523824,1.32396,-0.549482,1.74837,-3.26098,-0.0392497,0.913978,-3.26098,-0.0511761,0.913978,-0.804953,0.61529,-0.587184,0.667397,0.175014,0.549828,-0.373119,1
1.3857,-0.711652,-2.31932,-0.680579,2.24347,1.68381,-1.26964,1.3857,-0.711652,-2.31932,-0.680579,2.24347,1.68381,-1.26964,1.46616,-0.772364,-2.26056,-0.746736,2.21903,1.62832,-1.23369,-0.909577,0.653504,-1.24379,1.23238,0.13392,1.10434,-0.880623,-0.909577,0.653504,-1.24379,1.23238,0.13392,1.10434,-0.880623,0.175385,-0.559711,0.872275,0.904361,-0.149511,0.158206,0.367082,-0.980672,0.128684,0.506567,1.2596,-0.550729,1.76335,-3.20722,-0.0633299,0.69648,-3.20722,-0.0472707,0.69648,-0.804639,0.607117,-0.587604,0.661573,0.244381,0.554828,-0.359582,1
1.37608,-0.706727,-2.33265,-0.668248,2.24914,1.69551,-1.27718,1.37608,-0.706727,-2.33265,-0.668248,2.24914,1.69551,-1.27718,1.45691,-0.766036,-2.27317,-0.734351,2.22145,1.6396,-1.2423,-0.946885,0.613655,-1.28145,1.23149,0.280246,1.1402,-0.856186,-0.946885,0.613655,-1.28145,1.23149,0.280246,1.1402,-0.856186,0.165639,-0.557658,0.876855,0.90806,-0.159361,0.162126,0.351776,-1.0158,0.125483,0.483357,1.2274,-0.551601,1.76952,-3.2197,-0.0871599,0.616825,-3.2197,-0.0524751,0.616825,-0.808314,0.593087,-0.594792,0.661032,0.2769,0.559139,-0.34875,1
1.36659,-0.701021,-2.34597,-0.655792,2.2508,1.70794,-1.28584,1.36659,-0.701021,-2.34597,-0.655792,2.2508,1.70794,-1.28584,1.44745,-0.759671,-2.2858,-0.721743,2.22505,1.65121,-1.25081,-0.934996,0.658777,-1.24785,1.27237,0.379209,1.16358,-0.850278,-0.934996,0.658777,-1.24785,1.27237,0.379209,1.16358,-0.850278,0.155639,-0.555315,0.881542,0.911425,-0.169473,0.165575,0.336405,-1.01615,0.187233,0.528865,1.19532,-0.552115,1.77475,-3.20853,-0.051415,0.523639,-3.20853,-0.0593558,0.523639,-0.808538,0.586499,-0.60169,0.659507,0.257517,0.567219,-0.350294,1
1.35696,-0.697956,-2.35952,-0.642977,2.25627,1.72012,-1.29255,1.35696,-0.697956,-2.35952,-0.642977,2.25627,1.72012,-1.29255,1.43813,-0.753361,-2.29833,-0.709458,2.22963,1.66318,-1.25924,-0.938304,0.612481,-1.26149,1.23243,0.49033,1.2076,-0.838617,-0.938304,0.612481,-1.26149,1.23243,0.49033,1.2076,-0.838617,0.14577,-0.552674,0.886129,0.914344,-0.179686,0.168588,0.32135,-1.01551,0.191358,0.491645,1.19532,-0.552115,1.77475,-3.20853,-0.051415,0.523639,-3.20853,-0.0593558,0.523639,-0.811765,0.554049,-0.611857,0.664808,0.266376,0.569403,-0.333072,1
1.34727,-0.695058,-2.37351,-0.62937,2.25526,1.73402,-1.30208,1.34727,-0.695058,-2.37351,-0.62937,2.25526,1.73402,-1.30208,1.42852,-0.747322,-2.31111,-0.696937,2.23539,1.67515,-1.26744,-0.960895,0.601287,-1.27847,1.22833,0.600357,1.20031,-0.81327,-0.960895,0.601287,-1.27847,1.22833,0.600357,1.20031,-0.81327,0.135608,-0.549978,0.890642,0.917007,-0.189824,0.171181,0.306205,-1.02977,0.207678,0.486204,1.16274,-0.553298,1.77891,-3.25781,-0.118327,0.416136,-3.25781,-0.0692763,0.416136,-0.812424,0.522644,-0.623991,0.675672,0.198673,0.588709,-0.346386,1
1.33852,-0.693691,-2.38645,-0.615893,2.25188,1.7485,-1.31124,1.33852,-0.693691,-2.38645,-0.615893,2.25188,1.7485,-1.31124,1.41919,-0.7412,-2.32375,-0.684541,2.24153,1.68722,-1.27546,-0.936578,0.625448,-1.26896,1.26286,0.612093,1.19683,-0.798313,-0.936578,0.625448,-1.26896,1.26286,0.612093,1.19683,-0.798313,0.125737,-0.546872,0.895163,0.919186,-0.200103,0.17365,0.291377,-1.01025,0.258053,0.510497,1.09841,-0.554827,1.78437,-3.22294,-0.0639498,0.227535,-3.22294,-0.0814508,0.227535,-0.806773,0.475096,-0.626947,0.686483,0.103463,0.61282,-0.357844,1
1.32886,-0.695643,-2.39971,-0.60265,2.25387,1.76159,-1.31863,1.32886,-0.695643,-2.39971,-0.60265,2.25387,1.76159,-1.31863,1.40949,-0.73516,-2.33671,-0.672164,2.24752,1.69949,-1.28332,-0.963556,0.589603,-1.28908,1.22665,0.59192,1.23973,-0.780612,-0.963556,0.589603,-1.28908,1.22665,0.59192,1.23973,-0.780612,0.115819,-0.543562,0.899531,0.920989,-0.210375,0.176447,0.276383,-1.00697,0.267191,0.473278,1.06643,-0.555299,1.78576,-3.19792,-0.0472307,0.13926,-3.19792,-0.079407,0.13926,-0.806286,0.395165,-0.629991,0.695141,0.0634954,0.621075,-0.353088,1
1.32017,-0.696197,-2.41249,-0.588932,2.25075,1.77511,-1.32754,1.32017,-0.696197,-2.41249,-0.588932,2.25075,1.77511,-1.32754,1.40002,-0.729297,-2.34965,-0.659627,2.25263,1.71185,-1.29109,-0.958067,0.57594,-1.31117,1.25008,0.478192,1.23912,-0.779389,-0.958067,0.57594,-1.31117,1.25008,0.478192,1.23912,-0.779389,0.106284,-0.539951,0.903755,0.922287,-0.220734,0.179706,0.261474,-0.984481,0.293092,0.463386,1.06643,-0.555299,1.78576,-3.19792,-0.0472307,0.13926,-3.19792,-0.079407,0.13926,-0.798599,0.330994,-0.628451,0.70695,-0.0188487,0.632658,-0.364484,1
1.31135,-0.701047,-2.4257,-0.575514,2.25326,1.78842,-1.33585,1.31135,-0.701047,-2.4257,-0.575514,2.25326,1.78842,-1.33585,1.39029,-0.723822,-2.36293,-0.646864,2.25581,1.72462,-1.29908,-0.966288,0.55607,-1.31976,1.2991,0.266229,1.27938,-0.80512,-0.966288,0.55607,-1.31976,1.2991,0.266229,1.27938,-0.80512,0.0969682,-0.536201,0.907607,0.923101,-0.23113,0.184069,0.246133,-0.964201,0.324349,0.45254,1.00223,-0.556727,1.78591,-3.22012,-0.0910342,-0.0452161,-3.22012,-0.0713719,-0.0452161,-0.789446,0.227751,-0.627695,0.713495,-0.025552,0.638026,-0.367727,1
1.30303,-0.704799,-2.43819,-0.561494,2.25638,1.80252,-1.34311,1.30303,-0.704799,-2.43819,-0.561494,2.25638,1.80252,-1.34311,1.38076,-0.718268,-2.37615,-0.633939,2.25726,1.73767,-1.30725,-0.952758,0.533575,-1.32953,1.28521,0.10508,1.32095,-0.819226,-0.952758,0.533575,-1.32953,1.28521,0.10508,1.32095,-0.819226,0.088181,-0.532008,0.911376,0.923295,-0.241774,0.189329,0.230709,-0.92248,0.345146,0.42318,1.00223,-0.556727,1.78591,-3.22012,-0.0910342,-0.0452161,-3.22012,-0.0713719,-0.0452161,-0.77725,0.134692,-0.620387,0.724451,-0.0088755,0.648531,-0.358525,1
1.29499,-0.721024,-2.45217,-0.547421,2.25189,1.81727,-1.35099,1.29499,-0.721024,-2.45217,-0.547421,2.25189,1.81727,-1.35099,1.37107,-0.713439,-2.38952,-0.620518,2.25721,1.75118,-1.31551,-0.973814,0.470884,-1.33406,1.35151,-0.0308913,1.35173,-0.826704,-0.973814,0.470884,-1.33406,1.35151,-0.0308913,1.35173,-0.826704,0.0795393,-0.52784,0.914707,0.922978,-0.252419,0.195347,0.215025,-0.923412,0.350072,0.397439,0.969953,-0.557383,1.78429,-3.22767,-0.0655949,-0.161874,-3.22767,-0.065438,-0.161874,-0.760841,-0.0758499,-0.626556,0.730966,-0.0531433,0.660912,-0.354794,1
1.28811,-0.726563,-2.46443,-0.532459,2.24004,1.83233,-1.36278,1.28811,-0.726563,-2.46443,-0.532459,2.24004,1.83233,-1.36278,1.36164,-0.709286,-2.40271,-0.607087,2.25662,1.76499,-1.32384,-0.939035,0.404993,-1.31981,1.36536,-0.0646781,1.37568,-0.833835,-0.939035,0.404993,-1.31981,1.36536,-0.0646781,1.37568,-0.833835,0.0712335,-0.523733,0.917603,0.922186,-0.262939,0.201502,0.199583,-0.892579,0.348296,0.361831,0.93744,-0.557976,1.78158,-3.2514,-0.0593364,-0.270963,-3.2514,-0.0639517,-0.270963,-0.735276,-0.172774,-0.617205,0.746277,-0.165773,0.673479,-0.389437,1
1.28025,-0.730615,-2.47771,-0.517774,2.22776,1.84757,-1.37252,1.28025,-0.730615,-2.47771,-0.517774,2.22776,1.84757,-1.37252,1.35195,-0.705624,-2.41594,-0.593246,2.25636,1.77891,-1.33215,-0.96472,0.348038,-1.31674,1.38151,-0.011217,1.40506,-0.828391,-0.96472,0.348038,-1.31674,1.38151,-0.011217,1.40506,-0.828391,0.0627974,-0.519632,0.920304,0.921033,-0.273396,0.207555,0.184047,-0.905316,0.346238,0.333841,0.904617,-0.558719,1.77766,-3.28222,-0.0743032,-0.392377,-3.28222,-0.0664204,-0.392377,-0.716991,-0.249902,-0.617711,0.754713,-0.285987,0.686597,-0.403777,1
1.27207,-0.733071,-2.49124,-0.503561,2.23144,1.86102,-1.37804,1.27207,-0.733071,-2.49124,-0.503561,2.23144,1.86102,-1.37804,1.34265,-0.702365,-2.42878,-0.579036,2.25574,1.79283,-1.34032,-0.930386,0.312434,-1.28427,1.4206,-0.0833891,1.39298,-0.81359,-0.930386,0.312434,-1.28427,1.4206,-0.0833891,1.39298,-0.81359,0.0547151,-0.515414,0.922858,0.919387,-0.28386,0.213645,0.16884,-0.869562,0.360505,0.32333,0.840566,-0.55972,1.76717,-3.19148,-0.0590265,-0.588572,-3.19148,-0.0637661,-0.588572,-0.70584,-0.307062,-0.624607,0.754742,-0.243063,0.681941,-0.377226,1
1.26441,-0.740506,-2.50462,-0.489067,2.22991,1.87538,-1.38591,1.26441,-0.740506,-2.50462,-0.489067,2.22991,1.87538,-1.38591,1.33328,-0.700176,-2.44165,-0.564528,2.25361,1.80711,-1.34862,-0.936174,0.200468,-1.28021,1.46619,-0.269073,1.43155,-0.841165,-0.936174,0.200468,-1.28021,1.46619,-0.269073,1.43155,-0.841165,0.0468268,-0.511519,0.924763,0.917273,-0.294023,0.220398,0.153573,-0.85734,0.333275,0.263036,0.808566,-0.56019,1.76054,-3.20003,-0.0469267,-0.662625,-3.20003,-0.0579195,-0.662625,-0.688738,-0.403291,-0.629611,0.754619,-0.237003,0.682655,-0.372814,1
1.25791,-0.7486,-2.51784,-0.474745,2.22775,1.89001,-1.39419,1.25791,-0.7486,-2.51784,-0.474745,2.22775,1.89001,-1.39419,1.32409,-0.698802,-2.45431,-0.549885,2.24887,1.82186,-1.35743,-0.908204,0.109485,-1.25645,1.48142,-0.542422,1.49127,-0.894494,-0.908204,0.109485,-1.25645,1.48142,-0.542422,1.49127,-0.894494,0.039484,-0.507817,0.926048,0.914538,-0.304009,0.228214,0.138262,-0.808914,0.313275,0.201136,0.776745,-0.56082,1.75294,-3.1821,-0.063026,-0.760329,-3.1821,-0.0562123,-0.760329,-0.661804,-0.497978,-0.635314,0.751395,-0.211209,0.681476,-0.367619,1
1.25004,-0.750955,-2.53066,-0.459872,2.22416,1.90489,-1.40231,1.25004,-0.750955,-2.53066,-0.459872,2.22416,1.90489,-1.40231,1.31479,-0.698335,-2.46704,-0.534738,2.24237,1.83694,-1.36642,-0.939961,0.0105459,-1.2807,1.50932,-0.659635,1.52215,-0.89441,-0.939961,0.0105459,-1.2807,1.50932,-0.659635,1.52215,-0.89441,0.0323107,-0.504391,0.926791,0.911254,-0.313731,0.23687,0.122805,-0.816971,0.280526,0.14301,0.776745,-0.56082,1.75294,-3.1821,-0.063026,-0.760329,-3.1821,-0.0562123,-0.760329,-0.647494,-0.526204,-0.636198,0.748661,-0.182023,0.679455,-0.3589,1
1.24352,-0.754255,-2.5433,-0.444852,2.21909,1.91984,-1.41019,1.24352,-0.754255,-2.5433,-0.444852,2.21909,1.91984,-1.41019,1.30574,-0.698785,-2.47959,-0.519269,2.23637,1.8521,-1.3751,-0.893727,-0.0557014,-1.25601,1.53957,-0.583609,1.51318,-0.857775,-0.893727,-0.0557014,-1.25601,1.53957,-0.583609,1.51318,-0.857775,0.025181,-0.501259,0.927143,0.907647,-0.32316,0.245186,0.10783,-0.797341,0.269429,0.119468,0.745112,-0.561099,1.74365,-3.16323,-0.0279307,-0.929177,-3.16323,-0.0522503,-0.929177,-0.62225,-0.554701,-0.637071,0.744172,-0.172766,0.677393,-0.350904,1
1.23482,-0.757432,-2.55601,-0.429848,2.21077,1.93399,-1.42015,1.23482,-0.757432,-2.55601,-0.429848,2.21077,1.93399,-1.42015,1.29685,-0.700603,-2.4921,-0.503942,2.23159,1.86684,-1.383,-0.890923,-0.21534,-1.2406,1.54023,-0.442179,1.45842,-0.769154,-0.890923,-0.21534,-1.2406,1.54023,-0.442179,1.45842,-0.769154,0.0179472,-0.498842,0.926868,0.904032,-0.331675,0.252875,0.0936607,-0.817471,0.197978,0.0470222,0.680686,-0.562958,1.72394,-3.28001,-0.125915,-1.01124,-3.28001,-0.0583996,-1.01124,-0.62037,-0.568287,-0.639039,0.740936,-0.208219,0.671472,-0.371467,1
1.22697,-0.761776,-2.5678,-0.414592,2.20839,1.94794,-1.42729,1.22697,-0.761776,-2.5678,-0.414592,2.20839,1.94794,-1.42729,1.28817,-0.703438,-2.50437,-0.488641,2.22764,1.88142,-1.39068,-0.856325,-0.308719,-1.21669,1.53768,-0.378309,1.45524,-0.771838,-0.856325,-0.308719,-1.21669,1.53768,-0.378309,1.45524,-0.771838,0.0107082,-0.496861,0.926142,0.900329,-0.33968,0.260034,0.0800485,-0.803992,0.165748,0.000793936,0.680686,-0.562958,1.72394,-3.28001,-0.125915,-1.01124,-3.28001,-0.0583996,-1.01124,-0.612035,-0.583381,-0.63428,0.740496,-0.192536,0.665199,-0.366143,1
1.22098,-0.769665,-2.58032,-0.399755,2.21348,1.96269,-1.43377,1.22098,-0.769665,-2.58032,-0.399755,2.21348,1.96269,-1.43377,1.27958,-0.707022,-2.51675,-0.473215,2.224,1.89627,-1.39859,-0.860975,-0.384697,-1.24675,1.55776,-0.360746,1.51051,-0.797017,-0.860975,-0.384697,-1.24675,1.55776,-0.360746,1.51051,-0.797017,0.00347209,-0.495129,0.925011,0.896376,-0.347487,0.26707,0.0666069,-0.811929,0.146924,-0.0425473,0.649086,-0.563698,1.71236,-3.16005,-0.0739276,-1.15858,-3.16005,-0.06553,-1.15858,-0.585993,-0.626429,-0.63565,0.734598,-0.105188,0.664175,-0.351881,1
1.21664,-0.777681,-2.59239,-0.384969,2.22415,1.97763,-1.44321,1.21664,-0.777681,-2.59239,-0.384969,2.22415,1.97763,-1.44321,1.27097,-0.711268,-2.5294,-0.457422,2.22013,1.91152,-1.40678,-0.851999,-0.433975,-1.26803,1.56912,-0.404118,1.53091,-0.828175,-0.851999,-0.433975,-1.26803,1.56912,-0.404118,1.53091,-0.828175,-0.00376471,-0.493561,0.923511,0.892051,-0.355196,0.274325,0.0531659,-0.799476,0.136348,-0.0740282,0.617138,-0.564488,1.69987,-3.1948,-0.0790596,-1.24881,-3.1948,-0.0732509,-1.24881,-0.543268,-0.664133,-0.62987,0.724533,0.0401691,0.661083,-0.36431,1
1.21383,-0.784135,-2.60331,-0.369813,2.23942,1.9925,-1.45158,1.21383,-0.784135,-2.60331,-0.369813,2.23942,1.9925,-1.45158,1.26291,-0.716015,-2.54209,-0.441448,2.21576,1.9269,-1.41523,-0.806795,-0.481671,-1.28213,1.58193,-0.442888,1.51795,-0.847625,-0.806795,-0.481671,-1.28213,1.58193,-0.442888,1.51795,-0.847625,-0.0106213,-0.492138,0.921704,0.887354,-0.362775,0.281767,0.0400673,-0.767923,0.122395,-0.100626,0.585634,-0.565339,1.6866,-3.15043,-0.0850499,-1.32737,-3.15043,-0.0797602,-1.32737,-0.490869,-0.681204,-0.612274,0.716348,0.236595,0.656078,-0.363567,1
1.20797,-0.79162,-2.61415,-0.355743,2.25026,2.00738,-1.45855,1.20797,-0.79162,-2.61415,-0.355743,2.25026,2.00738,-1.45855,1.25477,-0.721712,-2.55498,-0.42554,2.21237,1.94227,-1.42357,-0.806748,-0.583594,-1.27718,1.59329,-0.281537,1.52882,-0.826629,-0.806748,-0.583594,-1.27718,1.59329,-0.281537,1.52882,-0.826629,-0.0176743,-0.491142,0.919426,0.882621,-0.369863,0.288851,0.0273211,-0.78934,0.0908935,-0.145487,0.521685,-0.566993,1.65714,-3.19019,-0.0575423,-1.51767,-3.19019,-0.0872825,-1.51767,-0.468036,-0.699086,-0.591725,0.697964,0.37895,0.651051,-0.349817,1
1.20118,-0.797698,-2.62381,-0.340207,2.25581,2.02267,-1.46599,1.20118,-0.797698,-2.62381,-0.340207,2.25581,2.01062,-1.46599,1.24692,-0.728226,-2.56783,-0.409997,2.2118,1.95752,-1.43169,-0.775541,-0.685734,-1.27289,1.56449,0.0395183,1.52833,-0.811002,-0.775541,-0.685734,-1.27289,1.56449,0.0395183,1.52833,-0.811002,-0.0249325,-0.490464,0.916838,0.878137,-0.376653,0.294573,0.0153065,-0.805262,0.0547254,-0.191624,0.521685,-0.566993,1.65714,-3.19019,-0.0575423,-1.51767,-3.19019,-0.0872825,-1.51767,-0.457402,-0.694726,-0.559825,0.697898,0.440146,0.651462,-0.342952,1
1.18962,-0.804104,-2.63643,-0.324889,2.26211,2.03748,-1.47436,1.18962,-0.804104,-2.63643,-0.324889,2.26211,2.01062,-1.47436,1.23911,-0.735373,-2.58069,-0.394644,2.21489,1.97243,-1.4398,-0.779533,-0.730001,-1.28695,1.53693,0.408107,1.49066,-0.809674,-0.779533,-0.730001,-1.28695,1.53693,0.408107,1.49066,-0.809674,-0.0326062,-0.489921,0.914151,0.874018,-0.383313,0.29858,0.00371314,-0.833853,0.0497799,-0.203658,0.490128,-0.567752,1.6412,-3.15565,-0.0759423,-1.59372,-3.15565,-0.0817861,-1.59372,-0.494908,-0.687307,-0.557456,0.697551,0.47217,0.65047,-0.3456,1
1.17712,-0.812619,-2.65148,-0.310803,2.26437,2.0535,-1.48479,1.17712,-0.812619,-2.65148,-0.310803,2.26437,2.01062,-1.48479,1.23167,-0.742704,-2.59307,-0.379412,2.22199,1.98726,-1.44783,-0.728467,-0.742693,-1.23172,1.49306,0.796194,1.47496,-0.79914,-0.728467,-0.742693,-1.23172,1.49306,0.796194,1.47496,-0.79914,-0.0405003,-0.489141,0.911623,0.87018,-0.390393,0.300545,-0.007276,-0.825257,0.0631808,-0.199818,0.425528,-0.569542,1.60549,-3.23237,-0.0754774,-1.84151,-3.23237,-0.0835404,-1.84151,-0.545569,-0.699146,-0.584107,0.686085,0.423787,0.662414,-0.369586,1
1.1662,-0.820116,-2.66478,-0.295774,2.26705,2.06895,-1.4931,1.1662,-0.820116,-2.66478,-0.295774,2.26705,2.01062,-1.4931,1.2245,-0.750764,-2.60519,-0.364531,2.23188,2.00154,-1.4557,-0.724309,-0.815703,-1.20625,1.4778,1.0416,1.38251,-0.78235,-0.724309,-0.815703,-1.20625,1.4778,1.0416,1.38251,-0.78235,-0.0485673,-0.488592,0.908893,0.86676,-0.397219,0.30105,-0.0177185,-0.841755,0.0412974,-0.222556,0.39284,-0.570177,1.58595,-3.26882,-0.0635087,-1.95329,-3.26882,-0.0805608,-1.95329,-0.58304,-0.693521,-0.595962,0.687569,0.351685,0.674134,-0.374004,1
1.15575,-0.828371,-2.67855,-0.279867,2.26741,2.08106,-1.50297,1.15575,-0.828371,-2.67855,-0.279867,2.26741,2.01062,-1.50297,1.21744,-0.759019,-2.6168,-0.349669,2.24277,2.01372,-1.46345,-0.696564,-0.811748,-1.14202,1.50394,1.09539,1.14904,-0.774056,-0.696564,-0.811748,-1.14202,1.50394,1.09539,1.14904,-0.774056,-0.0565602,-0.48814,0.906386,0.863737,-0.403306,0.300856,-0.0280711,-0.815223,0.0506535,-0.188592,0.360787,-0.570924,1.56549,-3.20534,-0.0747681,-2.04647,-3.20534,-0.077426,-2.04647,-0.616932,-0.69352,-0.617439,0.698019,0.246363,0.673399,-0.39519,1
1.14746,-0.836472,-2.69088,-0.264111,2.27163,2.08748,-1.51354,1.14746,-0.836472,-2.69088,-0.264111,2.27163,2.01062,-1.51354,1.21029,-0.767425,-2.62825,-0.33517,2.25316,2.0226,-1.47136,-0.719874,-0.866277,-1.1457,1.44858,1.01105,0.809003,-0.801105,-0.719874,-0.866277,-1.1457,1.44858,1.01105,0.809003,-0.801105,-0.0643232,-0.488075,0.904095,0.861263,-0.407819,0.30069,-0.0386685,-0.806899,-0.00344741,-0.204975,0.329273,-0.571625,1.54378,-3.15138,-0.0700831,-2.17063,-3.15138,-0.0772583,-2.17063,-0.628368,-0.690473,-0.6263,0.710594,0.184633,0.648789,-0.421824,1
1.14075,-0.842682,-2.70345,-0.24897,2.27674,2.08909,-1.51984,1.14075,-0.842682,-2.70345,-0.24897,2.27674,2.01062,-1.51984,1.20288,-0.775886,-2.63997,-0.320551,2.26182,2.02798,-1.47966,-0.745977,-0.842428,-1.18492,1.45105,0.81257,0.447898,-0.837574,-0.745977,-0.842428,-1.18492,1.45105,0.81257,0.447898,-0.837574,-0.0718189,-0.488347,0.902097,0.85911,-0.410657,0.301325,-0.0499485,-0.781665,-0.0125531,-0.170904,0.298164,-0.572346,1.52145,-3.11087,-0.0721037,-2.23309,-3.11087,-0.0744362,-2.23309,-0.621282,-0.667964,-0.634767,0.715809,0.149244,0.611126,-0.401836,1
1.13281,-0.849709,-2.71653,-0.234801,2.27358,2.08533,-1.52258,1.13281,-0.849709,-2.71653,-0.234801,2.27358,2.01062,-1.52258,1.19543,-0.784295,-2.65196,-0.305892,2.26831,2.03053,-1.48833,-0.748529,-0.832996,-1.21004,1.45527,0.58797,0.192795,-0.876536,-0.748529,-0.832996,-1.21004,1.45527,0.58797,0.192795,-0.876536,-0.0788844,-0.488888,0.900328,0.857086,-0.412099,0.30294,-0.06169,-0.746409,-0.0234827,-0.153369,0.266737,-0.572452,1.49836,-3.14276,-0.0106037,-2.30962,-3.14276,-0.064479,-2.30962,-0.626138,-0.654139,-0.645725,0.710903,0.0526609,0.548021,-0.342529,1
1.12526,-0.858627,-2.72935,-0.221415,2.25889,2.07748,-1.52665,1.12526,-0.858627,-2.72935,-0.221415,2.25889,2.01062,-1.52665,1.18781,-0.792951,-2.66453,-0.291394,2.27271,2.03089,-1.49741,-0.765667,-0.860609,-1.26536,1.47218,0.403428,-0.00959961,-0.915809,-0.765667,-0.860609,-1.26536,1.47218,0.403428,-0.00959961,-0.915809,-0.0856498,-0.489867,0.898504,0.85514,-0.412148,0.305639,-0.0738482,-0.732428,-0.0452148,-0.156893,0.235304,-0.573415,1.4735,-3.14322,-0.0962675,-2.48545,-3.14322,-0.0628325,-2.48545,-0.62546,-0.65676,-0.648213,0.699797,-0.138258,0.465901,-0.292406,1
1.11674,-0.868727,-2.74157,-0.206626,2.26403,2.06635,-1.53252,1.11674,-0.868727,-2.74157,-0.206626,2.26403,2.01062,-1.53252,1.18024,-0.80142,-2.6774,-0.276777,2.27597,2.03009,-1.50652,-0.750734,-0.86255,-1.29034,1.45297,0.308913,-0.0926763,-0.906653,-0.750734,-0.86255,-1.29034,1.45297,0.308913,-0.0926763,-0.906653,-0.0920901,-0.490822,0.896843,0.853017,-0.41166,0.309009,-0.0860917,-0.702936,-0.0521084,-0.161161,0.203565,-0.574233,1.4482,-3.17391,-0.0817776,-2.53024,-3.17391,-0.0642012,-2.53024,-0.634931,-0.673069,-0.641723,0.701503,-0.119411,0.36265,-0.259957,1
1.10632,-0.881326,-2.75629,-0.193811,2.28857,2.05473,-1.54484,1.10632,-0.881326,-2.75629,-0.193811,2.28857,2.01062,-1.54484,1.17271,-0.810089,-2.69044,-0.262271,2.27798,2.0288,-1.51508,-0.747187,-0.873348,-1.3083,1.43275,0.148953,-0.137175,-0.829605,-0.747187,-0.873348,-1.3083,1.43275,0.148953,-0.137175,-0.829605,-0.098272,-0.491948,0.895017,0.850736,-0.410605,0.313133,-0.0979727,-0.675974,-0.0634931,-0.176769,0.172094,-0.574446,1.42212,-3.14717,-0.0213325,-2.60803,-3.14717,-0.0601743,-2.60803,-0.663965,-0.712371,-0.658498,0.6846,0.105911,0.259285,-0.297597,1
1.09815,-0.891204,-2.76799,-0.182207,2.29842,2.05825,-1.56098,1.09815,-0.891204,-2.76799,-0.182207,2.29842,2.01062,-1.56098,1.16545,-0.81865,-2.70353,-0.24758,2.27694,2.0271,-1.52235,-0.730469,-0.838665,-1.30734,1.47864,-0.187285,-0.184406,-0.692969,-0.730469,-0.838665,-1.30734,1.47864,-0.187285,-0.184406,-0.692969,-0.103837,-0.493163,0.893124,0.848014,-0.40892,0.318963,-0.109178,-0.621465,-0.0483878,-0.159256,0.140576,-0.575364,1.39529,-3.15174,-0.0918388,-2.68328,-3.15174,-0.0614207,-2.68328,-0.673018,-0.725545,-0.644594,0.653726,0.214744,0.311585,-0.38635,1
1.08761,-0.900635,-2.77979,-0.171676,2.30861,2.05729,-1.5744,1.08761,-0.900635,-2.77979,-0.171676,2.30861,2.01062,-1.5744,1.15794,-0.827448,-2.71659,-0.233239,2.27381,2.02528,-1.52851,-0.759771,-0.8823,-1.3084,1.44423,-0.318021,-0.177479,-0.595715,-0.759771,-0.8823,-1.3084,1.44423,-0.318021,-0.177479,-0.595715,-0.109218,-0.494649,0.890899,0.845076,-0.406463,0.32602,-0.119774,-0.622393,-0.071867,-0.199259,0.10913,-0.576494,1.3674,-3.14465,-0.112927,-2.78867,-3.14465,-0.0689209,-2.78867,-0.703214,-0.73187,-0.632008,0.615632,0.348003,0.320075,-0.458937,1
1.08073,-0.908102,-2.7903,-0.158003,2.30219,2.06608,-1.58353,1.08073,-0.908102,-2.7903,-0.158003,2.30219,2.01062,-1.58353,1.15025,-0.836073,-2.72962,-0.219096,2.27287,2.02328,-1.53451,-0.763821,-0.867554,-1.30284,1.4067,0.00454431,-0.203835,-0.612368,-0.763821,-0.867554,-1.30284,1.4067,0.00454431,-0.203835,-0.612368,-0.11481,-0.495852,0.888863,0.842241,-0.404183,0.332136,-0.130202,-0.636463,-0.0476118,-0.183318,0.0778059,-0.577768,1.33862,-3.13238,-0.127393,-2.8783,-3.13238,-0.0829833,-2.8783,-0.695187,-0.720289,-0.606853,0.610928,0.293233,0.428016,-0.490139,1
1.06914,-0.917021,-2.80543,-0.1449,2.30645,2.06299,-1.59116,1.06914,-0.917021,-2.80543,-0.1449,2.30645,2.01062,-1.59116,1.14229,-0.844914,-2.74278,-0.205255,2.27611,2.02155,-1.54162,-0.811649,-0.900558,-1.31634,1.34168,0.436062,-0.173168,-0.754078,-0.811649,-0.900558,-1.31634,1.34168,0.436062,-0.173168,-0.754078,-0.120961,-0.49677,0.886867,0.839673,-0.402553,0.336217,-0.140921,-0.690934,-0.0352303,-0.200735,0.0462678,-0.579047,1.30856,-3.15381,-0.127935,-3.00556,-3.15381,-0.0929058,-3.00556,-0.731476,-0.721066,-0.626447,0.603551,0.303312,0.414397,-0.49533,1
1.06113,-0.924008,-2.81914,-0.127173,2.29089,2.06434,-1.59823,1.06113,-0.924008,-2.81914,-0.127173,2.29089,2.01062,-1.59823,1.13418,-0.853898,-2.75586,-0.191886,2.28325,2.02004,-1.55063,-0.80495,-0.869951,-1.30034,1.35319,0.793817,-0.152807,-0.947847,-0.80495,-0.869951,-1.30034,1.35319,0.793817,-0.152807,-0.947847,-0.127549,-0.497409,0.884917,0.837344,-0.40171,0.338132,-0.152157,-0.698812,0.0170897,-0.165948,0.0149899,-0.57988,1.27777,-3.12779,-0.0833094,-3.07951,-3.12779,-0.101954,-3.07951,-0.730456,-0.701098,-0.632866,0.647133,0.076378,0.443036,-0.476097,1
1.05163,-0.934602,-2.83395,-0.116813,2.30686,2.06062,-1.60735,1.05163,-0.934602,-2.83395,-0.116813,2.30686,2.01062,-1.60735,1.12608,-0.862758,-2.76866,-0.17909,2.29202,2.01869,-1.56119,-0.817114,-0.904117,-1.27145,1.26801,0.87153,-0.110192,-1.08446,-0.817114,-0.904117,-1.27145,1.26801,0.87153,-0.110192,-1.08446,-0.134178,-0.497845,0.882995,0.834998,-0.401403,0.338905,-0.163698,-0.705648,0.00252723,-0.204817,-0.0158508,-0.580463,1.2462,-3.08408,-0.0582516,-3.15703,-3.08408,-0.105837,-3.15703,-0.744504,-0.718447,-0.652915,0.622774,0.14847,0.419263,-0.461577,1
1.04335,-0.945476,-2.84786,-0.112336,2.31935,2.06131,-1.61899,1.04335,-0.945476,-2.84786,-0.112336,2.31935,2.01062,-1.61899,1.11748,-0.871643,-2.7813,-0.166587,2.29947,2.01767,-1.57244,-0.864426,-0.881599,-1.25599,1.21938,0.702816,-0.10915,-1.13053,-0.864426,-0.881599,-1.25599,1.21938,0.702816,-0.10915,-1.13053,-0.140814,-0.498254,0.880863,0.832247,-0.401033,0.340233,-0.175438,-0.699975,0.0102208,-0.212667,-0.0474101,-0.581136,1.21373,-3.15593,-0.067395,-3.24632,-3.15593,-0.0977378,-3.24632,-0.741345,-0.738328,-0.665592,0.54251,0.198779,0.436359,-0.465457,1
1.03543,-0.956738,-2.86086,-0.115186,2.33354,2.06307,-1.63289,1.03543,-0.956738,-2.84842,-0.115186,2.33354,2.01062,-1.63289,1.10916,-0.880158,-2.79372,-0.153792,2.30348,2.01687,-1.5834,-0.829409,-0.845683,-1.24643,1.30115,0.278641,-0.0729703,-1.0779,-0.829409,-0.845683,-1.24643,1.30115,0.278641,-0.0729703,-1.0779,-0.146754,-0.498604,0.878722,0.828775,-0.400575,0.343181,-0.186811,-0.6294,0.0272023,-0.197838,-0.0794787,-0.582396,1.17972,-3.20685,-0.125968,-3.40145,-3.20685,-0.0923608,-3.40145,-0.737332,-0.765797,-0.671441,0.386062,0.300573,0.461961,-0.494985,1
1.02561,-0.966658,-2.8721,-0.121909,2.32893,2.06874,-1.64772,1.02561,-0.966658,-2.84842,-0.121909,2.32893,2.01062,-1.64772,1.10038,-0.889341,-2.80642,-0.14146,2.30489,2.01631,-1.59366,-0.890959,-0.93905,-1.28082,1.23988,0.142542,-0.0472287,-1.01105,-0.890959,-0.93905,-1.28082,1.23988,0.142542,-0.0472287,-1.01105,-0.152699,-0.499482,0.875894,0.82505,-0.399158,0.347653,-0.197747,-0.661419,-0.0207591,-0.276544,-0.0794787,-0.582396,1.17972,-3.20685,-0.125968,-3.40145,-3.20685,-0.0923608,-3.40145,-0.747605,-0.773172,-0.656808,0.19551,0.240435,0.524356,-0.540596,1
1.01794,-0.976602,-2.88587,-0.164104,2.34264,2.07332,-1.66183,1.01794,-0.976602,-2.84842,-0.164104,2.34264,2.01062,-1.66183,1.09181,-0.898196,-2.8194,-0.128829,2.30761,2.01569,-1.60353,-0.844413,-0.880509,-1.30617,1.22913,0.320978,-0.0662832,-0.98441,-0.844413,-0.880509,-1.30617,1.22913,0.320978,-0.0662832,-0.98441,-0.158486,-0.499987,0.873352,0.821189,-0.398118,0.351765,-0.208358,-0.625735,0.0118417,-0.238763,-0.142959,-0.584504,1.10928,-3.12338,-0.070703,-3.56736,-3.12338,-0.0933617,-3.56736,-0.73865,-0.784054,-0.664658,-0.352755,0.350347,0.576334,-0.583026,1
1.01146,-0.987629,-2.90179,-0.170341,2.369,2.07214,-1.67396,1.01146,-0.987629,-2.84842,-0.170341,2.369,2.01062,-1.67396,1.08323,-0.907775,-2.8324,-0.11771,2.31269,2.01538,-1.61364,-0.871185,-0.971335,-1.28818,1.08021,0.573945,-0.0137216,-1.02457,-0.871185,-0.971335,-1.28818,1.08021,0.573945,-0.0137216,-1.02457,-0.164639,-0.500902,0.870214,0.817945,-0.396798,0.354662,-0.218477,-0.672802,-0.0307209,-0.318285,-0.173442,-0.58457,1.07209,-3.04822,-0.00655055,-3.71975,-3.04822,-0.0886247,-3.71975,-0.717757,-0.798533,-0.693928,-0.526312,0.563153,0.567609,-0.603255,1
1.00476,-0.99441,-2.91311,-0.159138,2.38319,2.06516,-1.6793,1.00476,-0.99441,-2.84842,-0.159138,2.38319,2.01062,-1.6793,1.07452,-0.916956,-2.84402,-0.109992,2.31962,2.01517,-1.62449,-0.855438,-0.896843,-1.09416,0.6662,0.715528,-0.0211397,-1.10678,-0.855438,-0.896843,-1.09416,0.6662,0.715528,-0.0211397,-1.10678,-0.171062,-0.502108,0.866751,0.815619,-0.395126,0.355849,-0.228064,-0.665747,-0.0751862,-0.360673,-0.173442,-0.58457,1.07209,-3.04822,-0.00655055,-3.71975,-3.04822,-0.0886247,-3.71975,-0.69764,-0.774541,-0.690842,-0.491457,0.635606,0.499887,-0.5481,1
0.990655,-1.00291,-2.92269,-0.158205,2.39064,2.05378,-1.67435,0.990655,-1.00291,-2.84842,-0.158205,2.39064,2.01062,-1.67435,1.06571,-0.925285,-2.85259,-0.107626,2.32703,2.0151,-1.6364,-0.909114,-0.815436,-0.771227,0.0725149,0.759878,-0.00758583,-1.21822,-0.909114,-0.815436,-0.771227,0.0725149,0.759878,-0.00758583,-1.21822,-0.177718,-0.50388,0.862801,0.814624,-0.3927,0.355047,-0.236886,-0.702995,-0.143483,-0.444182,-0.235542,-0.586261,0.996328,-3.15644,-0.117022,-3.82909,-3.15644,-0.0769117,-3.82909,-0.750544,-0.776268,-0.700996,-0.505789,0.636076,0.386758,-0.37948,1
0.977961,-1.00813,-2.92585,-0.157873,2.39438,2.0472,-1.65812,0.977961,-1.00813,-2.84842,-0.157873,2.39438,2.01062,-1.65812,1.05582,-0.932169,-2.85763,-0.111228,2.33619,2.01505,-1.64928,-0.99891,-0.631818,-0.417449,-0.487723,0.986423,-0.00194139,-1.30759,-0.99891,-0.631818,-0.417449,-0.487723,0.986423,-0.00194139,-1.30759,-0.185206,-0.505758,0.858668,0.815107,-0.389544,0.351642,-0.245366,-0.753707,-0.133214,-0.452116,-0.235542,-0.586261,0.996328,-3.15644,-0.117022,-3.82909,-3.15644,-0.0769117,-3.82909,-0.778604,-0.759564,-0.682226,-0.466452,0.581834,0.321583,-0.0883495,1
0.967449,-1.01461,-2.92884,-0.170903,2.40408,2.0524,-1.64935,0.967449,-1.01461,-2.84842,-0.170903,2.40408,2.01062,-1.64935,1.04586,-0.937278,-2.85978,-0.119347,2.34842,2.01503,-1.66228,-1.00825,-0.483193,-0.163353,-0.900115,1.29785,-0.00075499,-1.28235,-1.00825,-0.483193,-0.163353,-0.900115,1.29785,-0.00075499,-1.28235,-0.192997,-0.507306,0.854867,0.816882,-0.386407,0.34538,-0.253194,-0.770291,-0.118737,-0.445629,-0.298719,-0.587159,0.915708,-3.19253,-0.0904083,-4.04358,-3.19253,-0.0545563,-4.04358,-0.784131,-0.773277,-0.69061,-0.515565,0.55659,0.373729,0.129299,1
0.953706,-1.0105,-2.92256,-0.112447,2.42515,1.99246,-1.65044,0.953706,-1.0105,-2.84842,-0.112447,2.42515,1.99246,-1.65044,1.0354,-0.942178,-2.86002,-0.129424,2.36327,2.01515,-1.67307,-1.05271,-0.518151,0.00759817,-1.0079,1.5177,-0.00812552,-0.980658,-1.05271,-0.518151,0.00759817,-1.0079,1.5177,-0.00812552,-0.980658,-0.201508,-0.508597,0.850985,0.819699,-0.382876,0.337434,-0.260072,-0.831775,-0.110042,-0.477967,-0.330208,-0.59108,0.901168,-3.14896,-0.392127,-1.45397,-3.14896,-0.0931025,-1.45397,-0.816905,-0.683196,-0.625412,0.169771,0.618842,-0.226935,0.226249,1
0.945567,-1.02259,-2.92521,-0.137166,2.43091,1.99697,-1.65969,0.945567,-1.02259,-2.84842,-0.137166,2.43091,1.99697,-1.65969,1.02545,-0.948071,-2.85923,-0.138097,2.37822,2.01511,-1.67807,-0.972292,-0.618905,0.0982491,-0.816997,1.46744,-0.0247241,-0.333877,-0.972292,-0.618905,0.0982491,-0.816997,1.46744,-0.0247241,-0.333877,-0.210079,-0.509843,0.846911,0.823235,-0.378647,0.329905,-0.264713,-0.810979,-0.109988,-0.48999,-0.330208,-0.59108,0.901168,-3.14896,-0.392127,-1.45397,-3.14896,-0.0931025,-1.45397,-0.798794,-0.745191,-0.659852,0.00930728,0.526884,-0.181424,0.183854,1
0.934843,-1.01963,-2.91234,-0.090258,2.45523,1.9912,-1.70411,0.934843,-1.01963,-2.84842,-0.090258,2.45523,1.9912,-1.70411,1.01633,-0.955851,-2.85776,-0.146199,2.39146,2.01493,-1.67733,-0.892559,-0.818219,0.162354,-0.789732,1.27901,-0.0255031,0.18274,-0.892559,-0.818219,0.162354,-0.789732,1.27901,-0.0255031,0.18274,-0.218607,-0.511921,0.84181,0.827754,-0.372814,0.323545,-0.266742,-0.808412,-0.19997,-0.612155,-0.39678,-0.606927,0.918194,-3.36457,-0.875288,0.910342,-3.36457,-0.336278,0.910342,-0.814909,-0.637765,-0.545808,0.559414,0.637659,-0.237294,-0.267834,1
0.92872,-1.02465,-2.9179,-0.0866644,2.45647,2.02467,-1.71027,0.92872,-1.02465,-2.84842,-0.0866644,2.45647,2.01062,-1.71027,1.0071,-0.963817,-2.85609,-0.152102,2.40348,2.01321,-1.67354,-0.943817,-0.785094,0.169365,-0.507509,1.19278,-0.231793,0.420872,-0.943817,-0.785094,0.169365,-0.507509,1.19278,-0.231793,0.420872,-0.227107,-0.513626,0.837162,0.832184,-0.366447,0.318157,-0.268258,-0.81841,-0.114198,-0.510275,-0.39678,-0.606927,0.918194,-3.36457,-0.875288,0.910342,-3.36457,-0.336278,0.910342,-0.783806,-0.608358,-0.618069,0.654372,0.529901,0.11452,-0.367266,1
0.918773,-1.03346,-2.9063,-0.0861352,2.46869,2.05268,-1.70326,0.918773,-1.03346,-2.84842,-0.0861352,2.46869,2.01062,-1.70326,0.997448,-0.972139,-2.85453,-0.153441,2.41527,2.00962,-1.67008,-0.951415,-0.86539,0.155463,0.000119842,1.17577,-0.378291,0.302765,-0.951415,-0.86539,0.155463,0.000119842,1.17577,-0.378291,0.302765,-0.235769,-0.514339,0.833521,0.835621,-0.360848,0.31299,-0.271227,-0.830368,-0.0237824,-0.417642,-0.42841,-0.61463,0.924073,-3.16299,-0.770342,0.587976,-3.16299,-0.490947,0.587976,-0.786745,-0.613238,-0.517652,0.673057,0.534209,0.430634,-0.331723,1
0.914031,-1.03308,-2.89489,-0.0760474,2.44745,2.06486,-1.70971,0.914031,-1.03308,-2.84842,-0.0760474,2.44745,2.01062,-1.70971,0.988859,-0.982646,-2.85327,-0.149659,2.42711,2.00542,-1.67035,-0.829305,-1.11541,0.112786,0.496818,1.19537,-0.429226,-0.160545,-0.829305,-1.11541,0.112786,0.496818,1.19537,-0.429226,-0.160545,-0.244269,-0.514872,0.82985,0.837898,-0.356776,0.307126,-0.276246,-0.815921,-0.0287915,-0.437549,-0.497596,-0.630763,0.93424,-3.07462,-0.867438,0.320613,-3.07462,-0.747443,0.320613,-0.74828,-0.504385,-0.416125,0.736113,0.203454,0.594416,-0.393562,1
