Afshin1997/kuka_rl_ros2/src/catch_and_throw/output_files/tm/idealpd_2/tm_actions_standard_sg_filtered.csv
joint_0,joint_1,joint_2,joint_3,joint_4,joint_5,joint_6
0.7880741717171716,0.00666650353535353,1.3342625252525255,1.2281119191919188,1.6182734343434337,-0.895217686868687,1.5846537373737377
0.7893532626262626,0.00891309686868686,1.3412144949494953,1.232828585858585,1.629051616161616,-0.8846621868686867,1.596451919191919
0.7905639011544012,0.010968138643578635,1.3475092568542573,1.2368918759018748,1.638346572871573,-0.8755639834054831,1.6066128715728714
0.7916989458874459,0.012834792900432894,1.3531842857142862,1.2403685064935053,1.6463168398268397,-0.867767647186147,1.6153128571428568
0.7927512554112542,0.01451622367965366,1.3582770562770543,1.2433251948051929,1.65312095238095,-0.8611177489177477,1.6227281385281362
0.7936063636363624,0.01600050086580084,1.3627851082251063,1.2458332034632016,1.6588996536796512,-0.8554601515151503,1.6290212121212098
0.794288238095237,0.017347527705627683,1.3667525541125523,1.247989783549782,1.663814978354976,-0.8506257359307348,1.634371991341989
0.7950644935064923,0.018591175324675295,1.370303593073591,1.2498487012986996,1.6680569264069238,-0.8464303073593061,1.638977835497833
0.7963059264069252,0.019697636363636334,1.3736234632034612,1.2514410389610373,1.6718623809523785,-0.8425141471861459,1.6430728138528115
0.7983335584415573,0.020533591774891745,1.3769189177489156,1.252723073593072,1.6754752380952356,-0.8380259567099555,1.6469062770562748
0.8013042424242413,0.02086916926406923,1.3803863636363616,1.2534744588744573,1.6791093939393913,-0.8352649047619036,1.6506974458874435
0.8051756103896093,0.020402164242424213,1.384154025974024,1.2533509956709938,1.6828991341991317,-0.8360621948051936,1.6546065367965346
0.8097063593073581,0.01889107839826837,1.388232554112552,1.2520891341991325,1.6868863636363614,-0.8412388744588732,1.6587150649350626
0.8144741125541114,0.0163073672251082,1.3925080952380933,1.2496270562770544,1.6910249350649327,-0.8506206883116871,1.6630163636363613
0.8191391774891763,0.01282928058008656,1.3968434199134179,1.2461245887445869,1.6952499567099542,-0.8631042640692629,1.6674709090909066
0.8235658787878776,0.00872296562337661,1.4011401298701278,1.2418880952380933,1.6995222943722919,-0.876797346320345,1.6720403030303004
0.8277069870129858,0.004327225861471855,1.4053142857142835,1.2373238095238077,1.7038081818181792,-0.8893148268398254,1.6766893073593048
0.8315892683982672,-0.00012693472294372305,1.4093294372294352,1.2328802164502146,1.7080987878787854,-0.8987789177489165,1.6813888311688285
0.8352538658008646,-0.00454641872727272,1.413180909090907,1.2288898701298683,1.7123932467532441,-0.9070298051948038,1.686106926406924
0.8387415151515139,-0.008910289354978342,1.4168698268398248,1.225584718614717,1.716689913419911,-0.9118214069264056,1.6908205627705604
0.842086134199133,-0.013198134658008637,1.4203945021645001,1.2231109523809507,1.7209979220779197,-0.9115498268398257,1.695511861471859
0.8452786883116871,-0.017347819744588718,1.4237358008657988,1.2214745021645004,1.725328268398266,-0.9057346450216438,1.7001687012986988
0.848290398268397,-0.021314020476190444,1.4268819047619028,1.2205392640692623,1.7297037662337638,-0.8949488701298689,1.7047864069264045
0.8510872510822499,-0.025040761601731566,1.4298030735930713,1.220056969696968,1.7341352380952355,-0.8806690735930724,1.70935411255411
0.8536327056277044,-0.028453646753246714,1.4324711255411233,1.2197252813852797,1.7386087012986988,-0.8651227056277044,1.713863809523807
0.8559606017316006,-0.03158726190476186,1.4348819047619026,1.2193064502164486,1.743121428571426,-0.8509561601731589,1.7183204329004305
0.858143515151514,-0.034534276623376575,1.4370585714285693,1.2186369264069246,1.747674415584413,-0.8402204199134187,1.7227484415584389
0.8602626623376611,-0.037369638095238036,1.439046580086578,1.2176492640692624,1.7522725541125515,-0.8314363376623364,1.7271964069264043
0.862392805194804,-0.040147427272727215,1.440905974025972,1.2163163203463185,1.7569257142857118,-0.8241362207792196,1.7317159740259715
0.864587450216449,-0.04289760043290037,1.4427177489177467,1.2146338961038943,1.761641125541123,-0.8179727445887433,1.736359610389608
0.8668902077922065,-0.04565505887445881,1.4445538961038942,1.212601948051946,1.7664276623376596,-0.812641857142856,1.741161255411253
0.8693268787878776,-0.048430010389610326,1.4464383116883097,1.2102414718614702,1.771284545454543,-0.8077154805194793,1.7461265367965342
0.8719036320346307,-0.051206507359307284,1.4483791774891754,1.2075938528138512,1.7762084848484823,-0.8030207142857131,1.7512453679653655
0.8746219220779209,-0.05396821255411248,1.450388831168829,1.2046987012986996,1.7811970129870103,-0.8005696580086569,1.7565009523809498
0.8774743809523797,-0.05670885670995663,1.4525063203463184,1.201595194805193,1.7862451082251058,-0.8018262554112542,1.761875454545452
0.880453753246752,-0.05943455281385272,1.454726103896102,1.198319956709955,1.7913431601731573,-0.8073221558441546,1.7673482251082226
0.883556740259739,-0.06214688528138518,1.4570093506493489,1.1949313419913403,1.7964858008657982,-0.8166638528138517,1.7728922943722918
0.8867682640692628,-0.06483561082251073,1.4593466233766215,1.191487099567098,1.8016651515151487,-0.8286378701298689,1.7784854978354954
0.890064398268397,-0.06750053636363626,1.4617284415584395,1.188025627705626,1.8068767965367938,-0.8413889567099555,1.7841048917748892
0.8934194545454532,-0.0701456619047618,1.4642572727272707,1.1845722943722925,1.8121190043290019,-0.8527358138528126,1.7897327272727246
0.8968295800865789,-0.07278557316017306,1.4667090043290023,1.1811613419913403,1.817390086580084,-0.8613324199134187,1.7953514718614692
0.9003061774891763,-0.07543203809523799,1.4682401731601709,1.1778473593073575,1.8226881385281357,-0.8681173636363623,1.800941255411253
0.9038571688311676,-0.07809042683982673,1.4680830735930714,1.1746910389610372,1.828004155844153,-0.8734871688311676,1.8064730735930712
0.9074924848484835,-0.08076863722943711,1.4657883549783528,1.171731645021643,1.8333304329004303,-0.8777636363636351,1.8119079653679628
0.9112148917748905,-0.08346152943722931,1.4613599134199113,1.1689924675324659,1.8386641558441532,-0.881201095238094,1.8172218614718587
0.9150077489177476,-0.0861450385281384,1.4552654545454522,1.166474458874457,1.8439981385281357,-0.8839762727272715,1.8224026839826815
0.9188478658008645,-0.08880110519480508,1.4483624675324656,1.1641536363636347,1.8493291774891747,-0.8862550995670982,1.8274258008657982
0.9227198571428559,-0.09142858787878774,1.4417505194805174,1.16196844155844,1.854652337662335,-0.8882295714285702,1.832278311688309
0.9266290606060592,-0.09403672077922064,1.4360404761904744,1.1598811255411239,1.859966060606058,-0.889977095238094,1.8369929004328975
0.9305756406926393,-0.09662244069264056,1.4311338528138506,1.157863376623375,1.8652725108225081,-0.8913306406926393,1.8416206493506466
0.9345609437229423,-0.09917494372294358,1.4269025974025955,1.1558794372294354,1.870573679653677,-0.8919586233766221,1.846195324675322
0.9385892597402584,-0.10167423160173145,1.423227619047617,1.153882510822509,1.8758718181818157,-0.8918781515151502,1.8507194372294344
0.9426597965367951,-0.1040906350649349,1.4200024675324654,1.151823679653678,1.8811686147186122,-0.8906501861471848,1.8551630735930709
0.9467734761904747,-0.10639032034632018,1.4171090043290024,1.1496805627705613,1.886464761904759,-0.8874988225108211,1.8594979220779195
0.9509246839826826,-0.1085304415584414,1.4144275757575737,1.1474430303030287,1.8917609523809493,-0.8820028225108212,1.863736190476188
0.9551097489177475,-0.11048804761904746,1.411880606060604,1.145106666666665,1.8970570562770535,-0.8743771255411243,1.86794043290043
0.9593335108225094,-0.11228443290043275,1.4094227272727253,1.1426765800865784,1.902357575757573,-0.8652616233766222,1.8721818181818153
0.9635940303030288,-0.11395175324675308,1.4070012987012968,1.1401556277056262,1.907668614718612,-0.8554311904761892,1.8765412554112526
0.9678877965367951,-0.11550514718614702,1.404567748917747,1.1375637229437214,1.9129990043290015,-0.8457314199134187,1.8811207359307334
0.9722086233766221,-0.11694220779220763,1.4020911255411235,1.134910562770561,1.918357575757573,-0.8371865714285702,1.8859795238095212
0.9765748614718601,-0.11831421212121196,1.3995724242424223,1.1321819047619033,1.923749523809521,-0.8300467575757563,1.891080259740257
0.9810218311688298,-0.11970407792207774,1.3970278787878767,1.1293576190476173,1.9291809956709929,-0.8240858917748906,1.896362640692638
0.9855545454545442,-0.12113887445887428,1.3944340259740238,1.1264203030303013,1.9346570129870102,-0.8190240519480507,1.9018193073593048
0.9901535930735916,-0.12260400432900415,1.3917712121212102,1.1233587445887427,1.9401853246753218,-0.8146205411255399,1.9074596103896075
0.9948109870129855,-0.12412015584415566,1.3890609090909072,1.1201464935064918,1.9457654545454517,-0.8107413506493495,1.9132348051948025
0.9995340562770547,-0.12574348484848466,1.3863325108225086,1.1167587012986995,1.9513902164502137,-0.8073479999999988,1.9190883982683955
1.0043107402597387,-0.12746973593073574,1.3835903463203443,1.113219220779219,1.9570585281385253,-0.8043746666666656,1.9250110822510795
1.0090924285714271,-0.1292245757575756,1.3808207792207772,1.10956515151515,1.9627626406926377,-0.8011971038961028,1.9309855411255383
1.013848545454544,-0.1309910692640691,1.3780351515151494,1.1058158874458859,1.9684962337662308,-0.7993366623376612,1.9369627272727246
1.0185942510822497,-0.13285062337662318,1.3752708225108203,1.101971904761903,1.9742585281385252,-0.8004417922077911,1.9428778354978324
1.0233435497835484,-0.13484653679653663,1.372527575757574,1.0980281818181803,1.9800476190476162,-0.8053072640692629,1.9486983982683954
1.0280709090909075,-0.13693832034632014,1.369795367965366,1.093996926406925,1.9858685714285687,-0.8137736536796525,1.954435670995668
1.0327395670995656,-0.13906809956709937,1.3671217316017295,1.089919047619046,1.9917275324675294,-0.8249596017316005,1.9601182683982654
1.0373361038961024,-0.14125275757575737,1.3645536363636346,1.0858050216450201,1.9976266233766204,-0.8374616103896091,1.9657565800865773
1.0418903030303015,-0.14353105627705606,1.3620873593073575,1.0816861038961023,2.003561904761902,-0.8494535670995659,1.9713548484848455
1.0464116450216436,-0.14587984848484825,1.3596449350649331,1.0775943290043273,2.009521212121209,-0.8590513419913407,1.9769093506493476
1.0508788311688297,-0.14822026406926384,1.3571263203463184,1.073561125541124,2.0154887445887413,-0.8667784329004318,1.9824239826839798
1.0553024242424227,-0.1504942987012985,1.3544757575757553,1.0696666666666652,2.021456839826837,-0.8730220519480507,1.987910865800863
1.0597116450216433,-0.15268212987012963,1.3516239393939373,1.0659595238095223,2.0274122943722914,-0.8780337056277043,1.9933560606060579
1.0641208658008643,-0.1547733463203461,1.3485372727272709,1.0624704329004313,2.033347878787876,-0.8823042467532454,1.998742337662335
1.0685002164502149,-0.1566685281385279,1.3452576623376604,1.0592456709956695,2.039260216450214,-0.8841914935064922,2.0040953246753217
1.0728021645021628,-0.15819718614718592,1.3418273593073573,1.0562769696969683,2.045142554112551,-0.8823954805194792,2.0094477489177462
1.077025324675323,-0.15928219047619024,1.3382841991341972,1.0535319480519465,2.0509936796536765,-0.8764860432900421,2.0148113852813827
1.0811701731601717,-0.16004179653679632,1.334622380952379,1.0508915151515135,2.0568249350649324,-0.867014623376622,2.020139220779218
1.0852073593073577,-0.160594121212121,1.3308317748917728,1.048224718614717,2.062636536796534,-0.8552440476190464,2.025383290043287
1.089109783549782,-0.1609769004329002,1.3269288744588725,1.0454748484848468,2.0684381385281356,-0.8427766320346308,2.0305393506493474
1.092880086580085,-0.16128056709956687,1.322904458874457,1.0425877922077906,2.0742377056277026,-0.8314370346320333,2.0355852813852784
1.0965670129870113,-0.1616882770562768,1.3187899999999981,1.0395410389610376,2.080044502164499,-0.8227095497835486,2.0405136796536767
1.100223506493505,-0.1622679610389608,1.3146467965367947,1.0363840259740247,2.0858654545454516,-0.8156689393939383,2.045386580086577
1.1038821212121195,-0.16277603030303006,1.310525194805193,1.033216190476189,2.0916992207792178,-0.8097522034632023,2.0503122077922047
1.1075702597402581,-0.16295025541125518,1.306463290043288,1.0301382251082236,2.097547229437226,-0.8045076666666655,2.0553838528138497
1.1113371428571412,-0.16300067532467508,1.302477445887444,1.0271192640692626,2.103424025974023,-0.7995880735930724,2.060609264069261
1.1152210389610375,-0.16334765800865778,1.2985648051948033,1.0240445021645006,2.1093391774891743,-0.7951540259740248,2.065928008658006
1.11921173160173,-0.16421473160173136,1.2946952380952363,1.0208179220779205,2.1153000865800835,-0.7928013896103885,2.0713030735930706
1.123259826839825,-0.16552918181818158,1.290822987012985,1.0174010389610375,2.121305930735928,-0.7938153939393928,2.0767182683982655
1.127316796536795,-0.16719701298701273,1.286935800865799,1.0137938874458858,2.1273465367965336,-0.7988570129870118,2.0821701298701267
1.13137489177489,-0.1692448441558439,1.2830449783549764,1.0100096709956694,2.1334238528138494,-0.8077458614718603,2.0876597402597374
1.1354349783549766,-0.17156818181818156,1.2791635497835478,1.0060987272727258,2.1395328571428545,-0.8194269264069253,2.0931994372294342
1.1394554978354963,-0.17388648917748895,1.2752987445887425,1.0021442727272714,2.145670346320343,-0.8321520216450204,2.0988167532467505
1.143383549783548,-0.17608867099567077,1.2714697835497817,0.9982034891774878,2.1518367532467506,-0.8439295194805182,2.1045240259740225
1.1472131601731586,-0.1783306969696967,1.2676442857142838,0.9942518701298686,2.1580302164502134,-0.8536237445887433,2.110256709956707
1.1509697835497819,-0.18078419480519453,1.2637608225108208,0.9902489783549769,2.1642436363636333,-0.8616717056277043,2.1159454545454515
1.1546637662337647,-0.1834011601731599,1.2597577489177472,0.9862057922077908,2.1704612987012952,-0.8683169783549771,2.1215523376623344
1.1582698701298684,-0.18590692640692613,1.2555867965367948,0.9821954155844141,2.1766580086580056,-0.8738526450216437,2.127081125541123
1.1617701731601715,-0.18788442424242396,1.2512196969696951,0.9783171818181804,2.1828180086580056,-0.8785405367965355,2.1325426406926375
1.1651571861471846,-0.18916606493506466,1.2466760606060587,0.9746413073593059,2.1889259740259708,-0.8826162857142844,2.1379348917748886
1.1684005194805178,-0.18988425108225082,1.2420289177489159,0.9711961991341977,2.1949916017315987,-0.8862785411255398,2.1432443722943693
1.1714547186147168,-0.19012293939393915,1.2373544155844136,0.9680034112554099,2.2010153246753212,-0.8896489004328991,2.1484835497835464
1.1742993506493489,-0.18951949350649322,1.2326548484848465,0.9650819913419899,2.2069969696969665,-0.8927736103896091,2.1536738095238066
1.176924155844154,-0.18783873160173137,1.2279203463203445,0.9624416450216435,2.212927445887443,-0.8956645324675312,2.1588159307359276
1.1793012121212105,-0.18549528138528112,1.2231729004328988,0.9600366147186133,2.2188112554112527,-0.8983751125541113,2.163860606060603
1.1813488744588727,-0.18321615151515125,1.2184482683982667,0.9577894329004315,2.2246624675324647,-0.900991359307358,2.1686896103896074
1.1829924242424223,-0.18131508658008633,1.2137353679653662,0.9556620259740247,2.2304817316017287,-0.9035506320346307,2.1732463203463173
1.1841758441558425,-0.17990422077922053,1.2090112554112538,0.9536395194805181,2.23626043290043,-0.9060122510822497,2.177582294372291
1.1847944155844141,-0.1792381774891772,1.2042722510822492,0.9517071385281372,2.2420061038961006,-0.9082580216450203,2.18176294372294
1.1846212121212103,-0.17957859740259713,1.1995332034632016,0.9498372770562757,2.2477377489177455,-0.9102312727272714,2.1858122943722913
1.1835155411255394,-0.1805336969696967,1.1947887445887428,0.9480261385281372,2.2534755844155807,-0.9120089177489163,2.189794632034629
1.1814801731601716,-0.1815908008658006,1.1900161904761886,0.9463283160173146,2.25920056277056,-0.913531333333332,2.1938550649350614
1.1786389610389594,-0.18259134199134172,1.1852037662337644,0.9447870216450203,2.2648976190476158,-0.9146904805194792,2.198102857142854
1.1752093506493488,-0.18377557575757553,1.1803632034632017,0.943403294372293,2.2705656277056248,-0.9154179177489163,2.2025023376623345
1.1715188744588727,-0.18522473160173136,1.1754868831168814,0.9421439264069249,2.2762087878787844,-0.9159333030303017,2.207051861471858
1.167895627705626,-0.1866052813852811,1.1705483982683964,0.9410280735930723,2.281820476190473,-0.916410675324674,2.2118241125541096
1.1645361471861455,-0.187702385281385,1.165527272727271,0.9401159826839813,2.28737636363636,-0.9169521991341978,2.2168275757575726
1.1614624242424227,-0.18876556709956682,1.1604479653679636,0.9394222380952366,2.2928654978354945,-0.9177739696969683,2.2219564069264037
1.1587109523809507,-0.1900206406926404,1.155333982683981,0.938946004329003,2.298290822510819,-0.9191766017316003,2.227111991341988
1.1562927705627688,-0.191313701298701,1.1501755411255394,0.9387634112554099,2.3036156277056246,-0.9212228138528125,2.232297792207789
1.1541741991341974,-0.19234059740259712,1.1449532034632015,0.9389695238095224,2.3088074458874424,-0.9238126060606048,2.2375260606060574
1.1523112987012971,-0.19319049783549758,1.1396843722943706,0.9395482294372282,2.313907792207789,-0.9268900995670981,2.2427190909090875
1.1506767532467514,-0.19424490043290016,1.1344174458874443,0.9403391515151501,2.319012597402594,-0.9306393116883104,2.247779307359304
1.1492446320346303,-0.1956930735930733,1.129168484848483,0.9412193939393926,2.3241728138528104,-0.9350497099567086,2.252652034632031
1.147983376623375,-0.1975477445887443,1.1239280519480501,0.9421310519480506,2.3293826839826806,-0.9399633160173146,2.25730346320346
1.146859350649349,-0.19978406493506465,1.118699653679652,0.9430593419913407,2.3346703896103858,-0.945142333333332,2.261712034632031
1.1458338961038943,-0.20231058874458846,1.1134889610389593,0.9440327402597388,2.3400867965367933,-0.9503590995670981,2.265848831168828
1.1448493939393922,-0.2049049090909088,1.108276060606059,0.9451400476190462,2.3456220779220742,-0.955409216450215,2.269718398268395
1.143854285714284,-0.207436043290043,1.1030499134199117,0.9464410779220765,2.3512290476190443,-0.9601436666666653,2.2733175757575728
1.1428260173160156,-0.20997365367965337,1.0978338528138512,0.9479247965367953,2.356933679653676,-0.9645155627705614,2.2765663636363604
1.1417510822510808,-0.2125942251082248,1.0926593939393923,0.9495619177489163,2.362768571428568,-0.9685112683982671,2.2794204329004293
1.1405980086580072,-0.21523161038961008,1.0875098268398253,0.9513586277056263,2.3686781818181784,-0.9721621038961025,2.28186991341991
1.1393253679653663,-0.21780038528138496,1.0823657142857126,0.9533197748917734,2.3745765800865763,-0.9753372597402583,2.283971385281382
1.1379212987012972,-0.2203151948051945,1.077241125541124,0.9554246493506479,2.380457056277053,-0.9775038614718601,2.28577017316017
1.1363848051948033,-0.22280063636363603,1.072156320346319,0.9576510649350636,2.386331688311685,-0.9778838354978341,2.2873790043290008
1.1346886580086566,-0.2252049047619044,1.0670899134199119,0.9600075800865786,2.392160086580083,-0.9758770649350634,2.2889593939393906
1.1328057575757557,-0.22749577489177458,1.0620216017316002,0.9624788528138514,2.3978816450216414,-0.9713492467532454,2.2907014285714253
1.130739350649349,-0.22970968398268365,1.056972164502163,0.9650329567099554,2.4035123376623346,-0.964716770562769,2.2927441558441526
1.1285190043290028,-0.23188183549783517,1.0519721212121198,0.9676471515151501,2.4090968398268364,-0.9568523116883102,2.2952443290043254
1.1261524242424226,-0.23399499567099533,1.0470087878787862,0.9703094805194792,2.4146359740259706,-0.9488656406926393,2.298314155844152
1.1236458441558428,-0.23601238528138493,1.0420601731601717,0.9730063116883103,2.420083939393936,-0.9416375064935052,2.301975367965365
1.1210315151515133,-0.23792217316017283,1.0371309523809509,0.9757257272727259,2.4254303030303,-0.9353742121212107,2.306139437229434
1.1183690909090893,-0.2396221125541122,1.0322800865800852,0.9796649480519468,2.4306147619047582,-0.9300791818181804,2.310299004329001
1.1156303463203447,-0.24123752813852775,1.0273877489177474,0.9827077662337649,2.4356663636363605,-0.9282145238095223,2.3149419913419877
1.1121460173160158,-0.24355851948051913,1.0203943290043276,0.9841387272727257,2.4400611255411215,-0.9308638138528125,2.3201708658008626
1.109043679653678,-0.24539360173160135,1.0147817748917736,0.982181519480518,2.4445645021644986,-0.9383669047619034,2.3262494805194773
1.1070907359307343,-0.24574504761904725,1.0127787012987,0.9762617662337647,2.44968978354978,-0.9500060303030289,2.3332237229437194
1.1066693939393923,-0.24411845887445854,1.0154068398268383,0.9668368528138513,2.4556948051948018,-0.96418199134199,2.340941861471858
1.107807402597401,-0.24052525541125502,1.022622467532466,0.9552087272727259,2.4625961038961,-0.9787543419913406,2.349032424242421
1.110234415584414,-0.23534465800865767,1.0334624242424226,0.9433669783549771,2.4702240259740225,-0.9914825411255397,2.3569785281385247
1.1134239393939378,-0.22922634199134168,1.0461267532467518,0.9338623506493493,2.478203679653676,-1.0012149610389596,2.364099480519477
1.1168666233766218,-0.22336864069264037,1.0578662770562755,0.9259749696969684,2.4862186580086547,-1.0094013549783534,2.3707759307359275
1.1189220779220763,-0.21908915584415553,1.0654616883116867,0.9203796277056262,2.4933177056277023,-1.0162168441558426,2.3768466666666637
1.1199711688311673,-0.21543672727272695,1.0713873593073577,0.9158543852813839,2.499890389610386,-1.022156112554111,2.382530952380949
1.1198908225108208,-0.21197426406926378,1.0759665800865785,0.9120102380952366,2.5058071861471825,-1.027487532467531,2.3879034199134166
1.1186738528138513,-0.20855676623376593,1.0795132900432884,0.9085894718614705,2.511253809523806,-1.0323927272727258,2.393037662337659
1.1164164069264053,-0.20527041125541096,1.082326666666665,0.9054377012986999,2.515486580086576,-1.0370060173160158,2.398015281385278
1.1133738528138513,-0.2022934588744586,1.084683809523808,0.9024669523809511,2.5172290043290007,-1.0414342857142842,2.4029092207792173
1.1098613419913403,-0.19939659740259713,1.086862337662336,0.8996321125541114,2.5138759740259706,-1.0457690909090893,2.407725454545451
1.1067296969696954,-0.19752891774891748,1.0888143290043275,0.8969680259740247,2.508865454545451,-1.0500632900432887,2.412613982683979
1.1038012987012973,-0.197401385281385,1.0905590909090894,0.8944603116883104,2.504667575757572,-1.0543626406926392,2.417626969696966
1.1011974891774874,-0.1992517748917746,1.092077532467531,0.8920535757575745,2.5025342857142823,-1.0587054112554097,2.4228015584415545
1.0989701731601715,-0.2030469653679651,1.0933132467532451,0.8896791904761892,2.502326796536793,-1.063115108225107,2.4281390476190436
1.0970784848484831,-0.20856873593073563,1.0941629870129854,0.8872868225108212,2.50371294372294,-1.0676093506493491,2.4336126839826804
1.095392510822509,-0.21537005194805164,1.0945610389610374,0.8848240649350636,2.505017402597399,-1.072194415584414,2.439172770562767
1.0937253246753231,-0.22275193506493474,1.0946616017316,0.8822594025974013,2.504021471861468,-1.0768661038961023,2.444742251082247
1.091886190476189,-0.2298461255411252,1.0942033333333319,0.8795551601731588,2.4986225974025937,-1.0816250216450203,2.450209567099564
1.090274675324674,-0.23697956709956675,1.0928101731601716,0.8764532294372281,2.490648528138524,-1.0865214718614702,2.4558167099567063
1.0885690476190462,-0.2440383679653676,1.0893344588744576,0.8734394069264056,2.485020735930732,-1.0914588311688296,2.4613570129870093
1.0865581818181802,-0.2509520779220776,1.0833868831168816,0.8708246969696958,2.484228311688308,-1.0963696969696954,2.4668615151515114
1.084142597402596,-0.25768977922077885,1.0752049783549769,0.8687407575757564,2.4888155844155806,-1.10122173160173,2.4712080086580057
1.0813191341991324,-0.264209017316017,1.0654884848484834,0.8671877575757563,2.4985640692640656,-1.1060116017316002,2.472932510822507
1.0781362337662324,-0.2704284935064931,1.0552972294372278,0.8661121774891762,2.512338095238092,-1.110735454545453,2.471216580086576
1.0747392640692626,-0.27626499134199095,1.0458443722943709,0.8654071818181805,2.5282069264069227,-1.115394718614717,2.4659689610389575
1.0714104761904748,-0.2817077142857139,1.0377576623376608,0.8648763376623364,2.543515281385278,-1.1199867099567082,2.457853939393936
1.068547835497834,-0.28674406493506455,1.0313740692640676,0.8642095497835486,2.5550761038961003,-1.1245328571428557,2.4481712121212085
1.0658216017316002,-0.2913102597402593,1.025897835497834,0.8640945670995658,2.565261948051944,-1.128609047619046,2.4377305194805157
1.0635240259740244,-0.2954224199134195,1.0211271428571413,0.8639451255411242,2.5741653246753207,-1.1325761904761888,2.430614069264066
1.0616361904761888,-0.2990930909090905,1.0168729870129853,0.8636299437229426,2.581946406926403,-1.1365632467532452,2.428898961038957
1.060076623376622,-0.3023324242424238,1.012979549783548,0.8632739999999988,2.5886629004328965,-1.1406906493506477,2.4331049350649314
1.0587949783549768,-0.30515023809523767,1.0093342424242409,0.8632122294372282,2.594322207792204,-1.1450385714285698,2.442772380952377
1.0578125541125527,-0.3075642770562766,1.005868796536795,0.8637556450216437,2.599035541125537,-1.1496430303030287,2.4563974891774856
1.0571761904761892,-0.3095937489177485,1.0025741255411242,0.8650904502164489,2.6030355411255375,-1.1546180952380936,2.4717090476190444
1.0569205627705613,-0.31126044588744545,0.9994467705627691,0.8672918961038949,2.6066019913419876,-1.1594860606060589,2.4860316450216415
1.0570006493506479,-0.3125959956709952,0.9964569740259726,0.8703645454545441,2.6100512121212085,-1.162002770562769,2.497143376623373
1.0577655844155829,-0.3136485281385276,0.993585965367964,0.873482515151514,2.6135952813852774,-1.1610699999999983,2.5062884848484814
1.0591344588744571,-0.3144684718614714,0.9907453636363621,0.8765393116883105,2.617421038961035,-1.1560618614718596,2.5139835497835463
1.0610238961038945,-0.31510984415584364,0.9878450606060593,0.8795308181818169,2.621522380952377,-1.1473603463203446,2.520589350649347
1.0633630303030288,-0.3156247186147182,0.9848009264069251,0.8825284069264057,2.6258302164502125,-1.1361688744588727,2.526428311688308
1.0659711688311673,-0.31605804761904716,0.9815561341991328,0.8855847965367952,2.630355108225104,-1.1242919913419898,2.531761774891771
1.0686016450216436,-0.3164453463203458,0.9781115411255397,0.8886882380952368,2.6351555411255374,-1.1137622077922062,2.5367796969696936
1.0711366233766217,-0.31680870995670946,0.9745058441558426,0.8917805194805182,2.6402760173160136,-1.105594415584414,2.541628225108221
1.0735775757575743,-0.31714985281385233,0.9707701688311674,0.8947403290043277,2.645720562770559,-1.099063809523808,2.5464390909090873
1.076084112554111,-0.3174356060606056,0.9669335541125528,0.8974075151515137,2.6514619913419875,-1.0937599999999985,2.551626666666663
1.0788062337662323,-0.31756737662337614,0.963035978354977,0.8996331688311675,2.6574499567099528,-1.0893335064935048,2.5572385281385244
1.081799004329003,-0.3174053722943718,0.9591237662337648,0.9013015670995658,2.663597619047615,-1.0854996536796522,2.5604948051948018
1.084969523809522,-0.31686069696969654,0.956532610389609,0.9023795151515139,2.669798831168827,-1.0820380519480501,2.5596249783549743
1.088007705627704,-0.31517471861471813,0.9564666190476176,0.9030445108225094,2.675960043290039,-1.0787795238095224,2.5540704761904722
1.0905141125541111,-0.31160540259740216,0.9594799696969682,0.9035382034632021,2.682031168831165,-1.0756284848484834,2.5443913852813815
1.0922294372294354,-0.3059500692640688,0.9654243333333319,0.904092913419912,2.6879951948051906,-1.0725086147186134,2.5320621212121175
1.0930534199134183,-0.298523545454545,0.9734757619047605,0.9048341645021631,2.6938430303030265,-1.0684670129870115,2.5190248051948014
1.0930174025974009,-0.29002579653679605,0.9823065627705613,0.9056808268398255,2.6995883116883075,-1.06486844155844,2.5068490909090873
1.0922288744588728,-0.28140501731601697,0.9905351818181803,0.9064473030303017,2.705252987012983,-1.0644781818181803,2.500162770562767
1.0906432034632019,-0.273751913419913,0.997176255411254,0.9067055411255398,2.7108628138528097,-1.068855757575756,2.499494242424239
1.0881341125541109,-0.2680117748917745,1.0027130086580072,0.9060517489177476,2.716445497835494,-1.078275584415583,2.505115887445884
1.0847139826839811,-0.26416876623376584,1.0074678874458858,0.9043743419913407,2.7220597402597364,-1.0918678787878773,2.516254025974022
1.0804715584415572,-0.2620260086580083,1.0115900649350635,0.9018124978354966,2.7278109956709913,-1.1077988311688296,2.5312172294372255
1.075617359307358,-0.2614487142857139,1.0151331341991328,0.8987626320346307,2.7319895238095198,-1.123487835497834,2.5475352813852776
1.070533376623375,-0.26218804761904724,1.018125887445886,0.8957452510822498,2.7330242424242384,-1.1359842857142841,2.5622251948051913
1.0656443290043276,-0.26384187012986976,1.0206002597402581,0.8931915497835485,2.7302945887445844,-1.145351904761903,2.5728831601731565
1.0613951948051934,-0.26595609090909056,1.0227271428571414,0.891366753246752,2.724077489177485,-1.1528082683982666,2.58159597402597
1.0580001298701283,-0.2681634242424239,1.0247026406926392,0.8901277619047605,2.7153959307359266,-1.1588394372294357,2.588824502164498
1.0555767532467517,-0.2702084848484845,1.0267032467532453,0.8891557792207779,2.7059072294372255,-1.1638606060606045,2.5949657575757534
1.0541992207792192,-0.271902978354978,1.028842467532466,0.8881105281385269,2.698385800865797,-1.16824147186147,2.600380432900429
1.0537125541125525,-0.2731459437229433,1.0311467532467518,0.8868711731601718,2.69534294372294,-1.1722646320346304,2.605357012987009
1.0537964069264054,-0.2739455930735927,1.0335840259740245,0.8857081341991329,2.6969872727272683,-1.1761040259740243,2.6100900432900396
1.054066363636362,-0.2743629350649347,1.036136017316016,0.8850689264069251,2.703065021645018,-1.1798342857142838,2.6147076623376586
1.0541256709956695,-0.2744914372294368,1.0388000432900417,0.8853191774891762,2.7128591774891735,-1.183477402597401,2.619311125541122
1.0537300432900418,-0.2744539567099563,1.0415956709956693,0.8866778874458862,2.7250593939393903,-1.1871259740259723,2.6239513419913383
1.052833246753245,-0.27437698701298663,1.044508398268397,0.8891458441558429,2.7379941125541087,-1.1912870562770546,2.628655800865797
1.0515569264069249,-0.27436954545454506,1.0474948051948036,0.8924885887445875,2.7501735064935025,-1.1937324242424225,2.6334273593073556
1.0500961471861456,-0.27452498701298655,1.05046199134199,0.8963135454545441,2.7611470995670953,-1.192563376623375,2.638248181818178
1.0485882251082237,-0.27488175757575717,1.0533153679653666,0.9003391298701284,2.7708610822510784,-1.186944415584414,2.6430851515151477
1.0471127705627692,-0.2754618311688307,1.0559338528138513,0.9044982251082238,2.7794886147186104,-1.177088744588743,2.6478928571428533
1.045711428571427,-0.27634678354978315,1.0581273160173144,0.9087619999999987,2.787218398268394,-1.164113809523808,2.6525909523809483
1.0443606926406912,-0.2776229826839823,1.0597555411255395,0.9130674502164489,2.794229090909087,-1.149899783549782,2.657109090909087
1.0430648917748901,-0.2793247056277053,1.0603712987012972,0.9173364372294359,2.800680173160169,-1.1367942424242408,2.6614609523809483
1.0418018181818165,-0.28131912987012947,1.059412900432899,0.9215206796536783,2.80671623376623,-1.1268144588744575,2.6658599134199097
1.0405712987012974,-0.2834755930735927,1.0564738528138513,0.9255352987012974,2.812465108225104,-1.1189370562770546,2.668620952380948
1.0393375324675311,-0.2857028614718611,1.051526060606059,0.9293155367965353,2.818039740259736,-1.1125871861471845,2.6684325541125506
1.038029610389609,-0.2881219437229433,1.0450209090909075,0.932791874458873,2.8235432034631995,-1.107402207792206,2.6648499567099524
1.0365583549783535,-0.2909691385281381,1.0377060173160157,0.9359353939393925,2.829049090909087,-1.103067445887444,2.658133290043286
1.0348469696969682,-0.29436273593073553,1.0304825541125526,0.9387397272727259,2.8345848484848446,-1.0993614285714268,2.648941601731598
1.0327959740259725,-0.29806620346320306,1.0241141558441544,0.9412993073593059,2.840159783549779,-1.0960022943722927,2.639720129870126
1.0303822077922065,-0.30159293939393894,1.0188516450216434,0.943694675324674,2.8457681385281344,-1.0921834632034615,2.6338073593073554
1.0275623376623362,-0.3042566666666663,1.0146134632034616,0.9459345844155831,2.851400822510818,-1.0889245021645007,2.633705151515148
1.0244757142857128,-0.3054988961038957,1.0111752380952368,0.9478426406926392,2.857040865800861,-1.0886675324675308,2.638963290043286
1.0213392640692627,-0.3050227489177485,1.0083177056277042,0.9492239740259726,2.8626580086580042,-1.0927741558441542,2.648648138528135
1.0184206493506478,-0.30309261038961,1.0058554285714272,0.9499456277056264,2.8681531168831125,-1.1014911688311673,2.6611863203463164
1.0158712121212106,-0.30030646320346277,1.0037231471861459,0.9498314588744574,2.8733984415584377,-1.1140240692640677,2.6744478354978316
1.013654545454544,-0.29729471428571386,1.0019746839826824,0.9487944329004314,2.8781653246753205,-1.1287161904761889,2.6863145454545414
1.0115920779220764,-0.29447557142857095,1.0006240303030287,0.9469823852813839,2.8821747619047575,-1.1431590909090894,2.696324502164498
1.0095492640692625,-0.29205495238095197,0.9995962857142843,0.9446268268398255,2.885101125541121,-1.1547976190476175,2.7047709956709918
1.007507532467531,-0.2899561774891771,0.9986792380952367,0.9419784675324662,2.8870230735930695,-1.163528008658007,2.7119948917748875
1.0056725108225093,-0.2879828701298697,0.997638268398267,0.939238177489176,2.8882298268398223,-1.1705029004328986,2.7183209956709917
1.0045545454545441,-0.28583440259740217,0.996225333333332,0.9366154588744575,2.889435021645017,-1.1761838961038944,2.724020909090905
1.0047070562770548,-0.28331594372294333,0.994230454545453,0.9343587748917734,2.8913628571428527,-1.180953246753245,2.729297316017312
1.0064206060606047,-0.28025570995670956,0.9914471471861458,0.9330069480519467,2.8942770129870086,-1.1854560173160156,2.7342974025973987
1.00959844155844,-0.2770166623376619,0.9880354588744575,0.932507610389609,2.8986616017315976,-1.1899742857142839,2.7391441125541087
1.013797229437228,-0.2739155497835494,0.9842030909090894,0.9329317056277042,2.9044741125541083,-1.1934661038961019,2.743919047619044
1.0184442424242408,-0.27117565367965324,0.9800830865800852,0.9343372683982669,2.9112432034631994,-1.1939375324675305,2.7486716017315977
1.0230022077922065,-0.26888895670995633,0.9757855367965353,0.9367230216450202,2.918528961038957,-1.1901203030303011,2.753419437229433
1.0270338528138514,-0.26708133333333295,0.971428333333332,0.9399674675324661,2.925836536796533,-1.1817517748917732,2.758150779220775
1.030411298701297,-0.26564148917748875,0.9670946190476175,0.943841294372293,2.93293926406926,-1.169585454545453,2.762841688311684
1.0331678787878773,-0.26439983982683946,0.9628037619047605,0.9481971255411241,2.9395670995670953,-1.155261904761903,2.767429740259736
1.035410822510821,-0.26315629004328966,0.9584458311688298,0.9531845844155831,2.9453461904761857,-1.1411809090909075,2.771839090909087
1.0372434199134184,-0.26208543722943684,0.9541504632034618,0.9583103982683969,2.95062216450216,-1.129229047619046,2.77602242424242
1.0387007359307343,-0.261191662337662,0.9499422380952367,0.9633529567099552,2.95555926406926,-1.1197264502164486,2.7800527705627665
1.0397823376623363,-0.2604600952380949,0.9458379870129857,0.9681477619047604,2.9603289610389565,-1.1119741558441543,2.7827293506493467
1.0404677489177474,-0.2598521818181815,0.9418559870129857,0.9725706969696956,2.96505861471861,-1.105547229437228,2.782895930735927
1.0406474891774877,-0.259324294372294,0.9380141038961025,0.9765294805194791,2.969824935064931,-1.1000683982683968,2.779989826839823
1.0401711688311672,-0.2588705930735927,0.9343562337662323,0.9799483939393925,2.974620952380948,-1.095221428571427,2.774074632034628
1.0388730303030287,-0.25852383982683946,0.9309296623376611,0.9827448138528123,2.9793658874458835,-1.0907289610389594,2.7658470129870087
1.036715930735929,-0.2583635497835494,0.927726164502163,0.9848511125541111,2.9839278787878745,-1.0855458008657992,2.756487402597399
1.0338250216450202,-0.2584968658008654,0.9247581818181805,0.986110242424241,2.9882208658008613,-1.08159502164502,2.7465885714285676
1.0303822510822496,-0.25892554545454505,0.9219669653679641,0.9863330346320333,2.992197012987009,-1.0811253679653663,2.739397748917745
1.0265522077922062,-0.25959276190476155,0.9191812770562757,0.9854185930735917,2.9958313419913374,-1.0853839393939377,2.7368515151515114
1.0226303463203448,-0.2604479220779217,0.9169589956709944,0.9834088311688298,2.9991062337662293,-1.0944601298701282,2.7398554545454505
1.0188193939393924,-0.2615297359307356,0.9162369350649338,0.9805292770562757,3.0020224242424196,-1.1073756709956692,2.7482558008657967
1.0152231168831154,-0.2629167748917745,0.917669766233765,0.9771755541125527,3.0045760606060563,-1.1222601298701282,2.760860173160169
1.0118729870129854,-0.2646056839826836,0.9213663766233753,0.9738879177489164,3.00675216450216,-1.1365870562770546,2.7756985281385242
1.0088638528138514,-0.2665406147186143,0.9268928961038948,0.971236952380951,3.008543073593069,-1.1476686147186133,2.7902454978354934
1.006390043290042,-0.26863848484848446,0.9334069264069251,0.9696542380952367,3.0099604329004284,-1.1561949783549768,2.8018819047619004
1.004699480519479,-0.27067114285714244,0.9397322727272713,0.9693077662337648,3.011045887445883,-1.1628871428571412,2.811317445887442
1.0041761471861457,-0.2722986536796533,0.9447590346320334,0.9700717272727257,3.011863636363632,-1.1681994372294353,2.8192021645021605
1.0051645454545441,-0.27342098701298667,0.9482935454545441,0.9716632380952367,3.012484069264065,-1.172517099567098,2.825925454545451
1.0076163203463189,-0.2742111125541121,0.9506191038961025,0.9735897099567086,3.0129814718614676,-1.176147142857141,2.831824805194801
1.0112190476190461,-0.2748710909090905,0.9517745887445874,0.9753588658008645,3.0133896103896056,-1.1793263203463185,2.8371829004328966
1.0154796536796522,-0.2754304891774888,0.9516409134199122,0.9766930086580072,3.0137196969696927,-1.182222337662336,2.842201255411251
1.0198060606060593,-0.2758874329004325,0.9501119480519467,0.9775171601731587,3.013974632034628,-1.1853668831168815,2.847019870129866
1.0236496969696955,-0.2762987186147182,0.946988320346319,0.978085900432899,3.0141474458874415,-1.1875073593073577,2.851745497835494
1.0266594372294358,-0.27665812121212086,0.942224822510821,0.9788122251082236,3.014241601731597,-1.1866435497835481,2.8564462337662295
1.0288338961038945,-0.2769116277056273,0.9360029956709943,0.9801266277056263,3.014258138528134,-1.1816593939393922,2.861155497835494
1.03020844155844,-0.27723366233766195,0.9287459567099554,0.9823953073593059,3.014199004329,-1.1724632900432883,2.8658705627705583
1.0308932900432886,-0.27777435930735883,0.9210313073593059,0.9857162121212107,3.0140643290043245,-1.1598900432900416,2.8705699567099527
1.0310691341991327,-0.27860056277056233,0.9133138138528125,0.9899364199134184,3.0138441558441516,-1.1455738961038944,2.875249783549779
1.0308825541125528,-0.2796208181818178,0.9060020389610377,0.9947539134199119,3.0135416450216406,-1.1316533333333316,2.8803418181818143
1.0304249350649335,-0.2806639783549779,0.8994605930735918,0.9997649567099552,3.013174978354974,-1.1202515584415567,2.8843294372294332
1.0297343290043275,-0.2816722857142853,0.8937783939393926,1.0046920476190462,3.0127599999999957,-1.111255757575756,2.885370909090905
1.028744978354977,-0.2826085411255407,0.8889645714285701,1.0093339826839811,3.012320346320342,-1.1038921645021627,2.8824809523809485
1.027462770562769,-0.2835203506493502,0.8850937705627693,1.013556203463202,3.011867792207788,-1.097752813852812,2.875648008658005
1.0258304761904746,-0.2844856839826836,0.882226714285713,1.0172794632034619,3.0114147619047573,-1.0924669264069249,2.865708354978351
1.02402528138528,-0.28553821645021604,0.8810398701298688,1.0204534199134185,3.0109578354978312,-1.0877225108225093,2.8541686580086543
1.0221998268398254,-0.28672655844155803,0.8820962857142844,1.0229857575757562,3.0104873160173113,-1.0830244588744575,2.842433160173156
1.020374415584414,-0.2880070432900429,0.8855817532467519,1.024467402597401,3.009989740259736,-1.0779167099567084,2.832849480519476
1.0186099134199118,-0.2892277359307355,0.8913900476190464,1.0243562337662322,3.0094590909090866,-1.0753545454545437,2.8279475324675287
1.0169602597402583,-0.2903192164502161,0.8989984155844144,1.022363506493505,3.008882597402593,-1.0772493073593057,2.8288628138528096
1.0154231601731587,-0.2912279090909087,0.9075181558441545,1.0185779307359293,3.0082459740259697,-1.0842526406926392,2.8357392207792165
1.0139828138528122,-0.29189085714285673,0.9159681731601718,1.0134171731601718,3.00753203463203,-1.0958393073593058,2.847664329004325
1.0125398268398254,-0.292229597402597,0.923473558441557,1.0075803939393924,3.0067270129870085,-1.1104677489177472,2.8627969696969653
1.011107532467531,-0.29224887878787836,0.9299818354978342,1.0018569956709942,3.0058117748917708,-1.12580831168831,2.8785636796536753
1.0096567532467517,-0.2919770346320342,0.9354361991341977,0.9969274199134184,3.004787359307355,-1.1391009090909074,2.8920326839826798
1.0081543290043276,-0.2914489047619043,0.9398537705627692,0.9930416709956696,3.0036768398268356,-1.1485845454545438,2.902193333333329
1.0067477489177474,-0.2907145021645018,0.9434570259740247,0.9901583593073578,3.002519220779216,-1.155999783549782,2.910524675324671
1.0056654545454529,-0.2898441861471857,0.9465222900432886,0.9881807619047605,3.0013594805194765,-1.1618567099567083,2.917475108225104
1.005153203463202,-0.28894706060606024,0.9492830909090896,0.9870451948051933,3.0002412554112508,-1.1665737662337645,2.923427705627702
1.0053893506493492,-0.28804832467532426,0.9518555627705614,0.9866303593073578,2.999189307359303,-1.170518484848483,2.9287228571428527
1.0063726406926392,-0.28703958441558397,0.9542712380952367,0.986865480519479,2.9982049350649307,-1.1739720346320328,2.933624025974022
1.0079246320346305,-0.28590879220779186,0.9565291688311675,0.9878424329004316,2.9972672727272687,-1.1771168831168812,2.9383012121212078
1.0096959307359292,-0.2847247922077918,0.9586008095238081,0.9896665238095224,2.996371645021641,-1.1800489610389593,2.9428755411255367
1.0113130303030289,-0.283622597402597,0.9604467835497822,0.9924261428571415,2.995519177489173,-1.1828392640692624,2.947435281385277
1.012500043290042,-0.28273618181818144,0.9620433896103882,0.9960913506493492,2.9947116450216407,-1.1857187878787863,2.95202203463203
1.0130568831168816,-0.28225088311688273,0.9633338095238082,1.0004829740259726,2.9939567099567057,-1.1885294805194788,2.956651601731597
1.0129167099567085,-0.28240650649350607,0.9643182943722929,1.0053173896103882,2.993265930735926,-1.1891586580086564,2.9613205194805152
1.0121667099567087,-0.283230506493506,0.9650518008657996,1.01023157142857,2.99263835497835,-1.1861374458874443,2.966011601731597
1.0108940692640678,-0.2846045497835494,0.9654130303030288,1.0149533246753233,2.992067965367961,-1.1789755411255394,2.9706920346320302
1.0092406060606047,-0.28644199567099526,0.9652541601731588,1.0194049783549768,2.9915404761904716,-1.1681278787878773,2.975315281385277
1.0073223419913404,-0.28867108225108185,0.9643016709956695,1.023533809523808,2.99105242424242,-1.1548580086580071,2.979832813852809
1.005266073593072,-0.29115940259740214,0.9622740129870115,1.027363636363635,2.990597489177485,-1.1410631601731585,2.984176969696965
1.0031762121212107,-0.29367020779220737,0.9591294718614705,1.0309516450216436,2.9901754112554073,-1.1288664502164485,2.9881901298701257
1.0011177922077907,-0.29601216883116843,0.9551316363636349,1.0343090909090895,2.989790519480515,-1.11938147186147,2.991504848484844
0.9991090173160159,-0.29803030303030265,0.9507894285714271,1.037399004329003,2.9894526406926363,-1.111654848484847,2.9932769264069217
0.997166294372293,-0.29960934199134154,0.9467963549783536,1.0401572294372279,2.9891721212121167,-1.1052649350649335,2.9931274458874415
0.9952666926406912,-0.30067878787878743,0.9438031731601718,1.0425259740259727,2.988947272727269,-1.0998764502164486,2.991778658008654
0.9934180129870116,-0.30121174025973985,0.9424795281385268,1.0444403896103882,2.9887722077922034,-1.0951746320346305,2.990477272727268
0.9916715411255397,-0.3013649090909087,0.9431297186147173,1.0458120779220765,2.988633766233762,-1.0908893073593058,2.9904729004328963
0.9900380952380938,-0.30125416017315976,0.9456971861471848,1.0465489610389596,2.98851229437229,-1.0859950649350634,2.992736190476186
0.9885519956709943,-0.3009585887445883,0.949986727272726,1.0464319913419897,2.9883919047619,-1.0825296103896087,2.997639913419909
0.9872751428571414,-0.3005326580086576,0.9556357099567085,1.0452931601731588,2.9882630303030258,-1.0826314718614705,3.0046987878787834
0.9861580822510807,-0.2999938268398264,0.9620622294372281,1.0429974458874445,2.9881186580086534,-1.0874293073593058,3.012576883116879
0.9851393160173145,-0.2994571082251078,0.9687096147186133,1.0395709090909073,2.9879549350649306,-1.0969205194805178,3.020274675324671
0.9841237922077908,-0.298952177489177,0.9752276666666653,1.0351963203463188,2.9877670129870086,-1.1100779220779204,3.0275234199134156
0.9830080952380938,-0.29840966666666624,0.981476688311687,1.0301880519480502,2.9875559307359265,-1.124995324675323,3.034229740259736
0.9817348051948037,-0.2978352987012982,0.9873753419913407,1.0249553246753231,2.987319047619043,-1.139177835497834,3.040327229437225
0.9802899047619033,-0.29725489610389566,0.9928732640692626,1.0199237662337648,2.987057922077918,-1.1500568831168814,3.045817878787874
0.9787953852813838,-0.29665365367965324,0.9979810129870116,1.0153773593073578,2.9867739393939354,-1.1585018614718599,3.0507294372294327
0.9774264761904747,-0.29594312121212074,1.0027099480519466,1.0115876623376607,2.9864746320346276,-1.1651636796536782,3.055102857142853
0.976340822510821,-0.29507168831168784,1.007057943722942,1.008706320346319,2.986157445887442,-1.1704667532467514,3.058976493506489
0.9756698658008643,-0.29406759307359265,1.0110168181818167,1.006767229437228,2.9858148917748872,-1.1747731168831153,3.062393463203459
0.9755151385281371,-0.2930137575757571,1.0145447186147172,1.0056608658008643,2.985420043290039,-1.1784061038961022,3.065388398268394
0.9759423636363622,-0.2919693593073589,1.0175778787878773,1.0052094372294356,2.9849269696969656,-1.181620865800864,3.0679935497835453
0.9769217619047604,-0.2910523073593069,1.0200671428571413,1.0052115584415569,2.984280129870126,-1.184600562770561,3.070237489177485
0.9783735670995657,-0.2904818225108221,1.0219695238095223,1.005524112554111,2.9834114718614675,-1.1874797402597386,3.0721504329004286
0.9801407619047606,-0.2904414588744585,1.0231651948051934,1.006040216450215,2.982231255411251,-1.1903427272727256,3.0737624242424197
0.9820542727272713,-0.2911162987012983,1.0234475757575743,1.0067012121212104,2.9806833766233725,-1.1932195238095222,3.075104675324671
0.9839432077922063,-0.2926795887445883,1.0225154112554098,1.0074415151515135,2.9786430735930693,-1.1961312121212107,3.0762013852813808
0.9856002424242409,-0.29513945887445847,1.0202290909090894,1.0081601731601717,2.9759638961038917,-1.1990669696969678,3.0770769264069218
0.9868932121212106,-0.29838940259740215,1.01666418181818,1.00881844155844,2.972610952380948,-1.2019686580086564,3.077755974025969
0.9877762683982669,-0.30223111255411217,1.0121059393939378,1.0094364935064921,2.9684699134199093,-1.2047604761904744,3.078271558441554
0.9882378181818169,-0.3063475497835494,1.00708686147186,1.0099838528138514,2.9635286147186104,-1.2075315151515134,3.0786611688311645
0.9882465454545439,-0.31042406926406885,1.0022152467532452,1.0104658441558427,2.9580715151515107,-1.2104188311688295,3.0789612987012944
0.9877709999999986,-0.31425387012986966,0.9979301341991327,1.0109213419913405,2.9522651948051903,-1.2117761904761886,3.079206493506489
0.9868874718614704,-0.31769200432900385,0.9944197575757561,1.0114372727272714,2.946084978354974,-1.2101637229437212,3.0794201731601687
0.9857326103896089,-0.3207162554112549,0.9915392640692626,1.0120805627705614,2.9392174025973983,-1.2049787012986997,3.0796105194805152
0.9844631991341977,-0.3233463549783545,0.9891105627705614,1.0128245887445875,2.9314888744588705,-1.196439653679652,3.0797696103896057
0.983201060606059,-0.325628216450216,0.9869392987012973,1.013710346320345,2.9230319480519436,-1.1854204761904745,3.079886320346316
0.9820483419913404,-0.32766754112554064,0.9848115974025959,1.0148193506493492,2.913927445887442,-1.1733883549783533,3.0799487012986964
0.9811036926406913,-0.3294819350649346,0.9826765930735917,1.0161209090909076,2.9045349350649308,-1.162201298701297,3.079951341991338
0.980409229437228,-0.33104401731601685,0.9805956536796523,1.0175074025974011,2.895642597402593,-1.1532556277056263,3.079895367965363
0.979955493506492,-0.3322469696969692,0.9786647056277042,1.0188776190476176,2.888809567099562,-1.1459499134199118,3.0797870562770515
0.9797537445887432,-0.3328773852813848,0.9770221255411241,1.0201864069264055,2.885281385281381,-1.139890519480518,3.0796349783549735
0.9797901255411241,-0.332764164502164,0.9760443376623362,1.0213748917748904,2.8855772727272684,-1.134807272727271,3.0794462770562725
0.979988359307358,-0.33176257142857096,0.9763976796536782,1.022250519480518,2.8896239393939354,-1.1304477489177471,3.079227359307355
0.9801386796536782,-0.3298496363636359,0.9785951038961025,1.0227298268398255,2.896744805194801,-1.1264955844155828,3.0789855411255367
0.9799766320346306,-0.32720005194805146,0.9828197229437214,1.0228403463203448,2.905642467532463,-1.1225116017316001,3.0787255411255368
0.9793300389610375,-0.32404941125541076,0.9888696493506479,1.022573030303029,2.9147974458874417,-1.1203274458874444,3.0784572727272685
0.9781673333333318,-0.3206838008658004,0.996196359307358,1.0219559740259725,2.9230437662337616,-1.1215945887445873,3.0781842424242383
0.9765254502164487,-0.3173907705627701,1.0040061818181805,1.0210746753246738,2.9303633333333288,-1.127103549783548,3.077908441558437
0.9745244372294358,-0.31447580952380905,1.011513203463202,1.0200318181818167,2.9368175324675283,-1.1366848051948035,3.0776323809523767
0.9723041125541112,-0.3121347402597398,1.0183121082251068,1.0189082683982669,2.9424856709956666,-1.1492767965367947,3.0773499134199085
0.9700005411255397,-0.3104381818181814,1.0243612251082237,1.0177408658008644,2.94744216450216,-1.163104848484847,3.0770659307359263
0.9676857445887432,-0.3093863463203459,1.0297064502164486,1.0166026406926392,2.9517690909090866,-1.1759971428571412,3.076787056277052
0.9654117012987,-0.3088830909090905,1.0344554112554096,1.0155589177489162,2.955542770562766,-1.1861833333333318,3.0765216883116837
0.9632833549783537,-0.30870554545454504,1.0386786580086564,1.0146296536796522,2.958802121212117,-1.1943563636363619,3.0762767099567054
0.9614352034632021,-0.3085754502164498,1.042413376623375,1.0139261904761891,2.961577012987009,-1.200941168831167,3.0760522510822463
0.9599504761904748,-0.30829056709956665,1.045673809523808,1.013527965367964,2.9638936796536752,-1.2062533333333316,3.0758483549783504
0.9588961818181805,-0.30781927705627665,1.0484510822510806,1.0133889610389597,2.96575597402597,-1.2105831168831152,3.075657099567095
0.9582954718614705,-0.30722035497835454,1.0506305194805179,1.0134255411255397,2.967123030303026,-1.2141621212121194,3.075471688311684
0.9581123419913407,-0.30664951515151473,1.0519965800865787,1.013562597402596,2.967939783549779,-1.2171519480519462,3.0752959740259698
0.9585395238095225,-0.30653115584415536,1.0525670562770548,1.0135640692640677,2.969866147186143,-1.2195480952380935,3.0751265800865757
0.958773913419912,-0.30631265367965327,1.0515025541125524,1.0138525541125527,2.9680594372294333,-1.2222217316017296,3.0749758874458832
0.9591318138528125,-0.30648874891774847,1.0489477056277041,1.0141723376623362,2.965406190476186,-1.2243302164502146,3.0748387878787833
0.9589147965367952,-0.30657892207792165,1.044571688311687,1.014812034632033,2.9584940692640647,-1.224517575757574,3.0747224242424203
0.9585388138528125,-0.3071014761904758,1.0390671861471847,1.0155265800865787,2.9508422077922036,-1.221510129870128,3.0746144588744544
0.9575463160173145,-0.3077664978354974,1.0326524242424229,1.0163883549783534,2.940450476190472,-1.214880562770561,3.074514805194801
0.956577887445886,-0.3090728138528134,1.0262716017316003,1.017054242424241,2.930596017316013,-1.2050298701298683,3.0744171861471816
0.9555662987012973,-0.31097471861471815,1.0203088311688298,1.0175301298701283,2.921317965367961,-1.1929838961038945,3.0743252380952337
0.9546673766233752,-0.31348554112554067,1.0151218181818167,1.0179429437229421,2.9134245021644976,-1.1803171861471844,3.074234242424238
0.9533535800865787,-0.3159340952380948,1.0102309220779206,1.0188603030303016,2.902970346320342,-1.1692828571428555,3.074148701298697
0.9520914329004315,-0.3185400909090904,1.0059277359307344,1.020191558441557,2.8935923809523763,-1.1600550649350634,3.074061341991338
0.9503745627705614,-0.32053586147186097,1.0017724112554098,1.0223850649350636,2.8822570562770524,-1.1524081385281368,3.0739753246753203
0.9488194675324662,-0.3221487012987008,0.9981117922077909,1.025229047619046,2.8727751515151474,-1.1458771861471846,3.0738811255411207
0.9470495844155831,-0.32269761471861425,0.9946174415584401,1.0287519480519465,2.8627007792207753,-1.140211904761903,3.073787359307355
0.9457485627705614,-0.3222836406926402,0.9917458917748903,1.0325622943722927,2.8549655844155803,-1.135239393939392,3.073686017316013
0.9444892554112541,-0.32085883116883074,0.9894244502164489,1.0359371428571413,2.850753419913416,-1.1307683549783532,3.073608787878783
0.9433393766233753,-0.31829079653679604,0.987335900432899,1.0391159740259726,2.8502589177489135,-1.1264439393939378,3.0735346753246713
0.9420481385281372,-0.3147845238095234,0.9870250995670982,1.0418866233766217,2.8542402164502123,-1.121396233766232,3.073457748917744
0.9405958961038947,-0.3110021255411251,0.9890437012986999,1.044179913419912,2.862613073593069,-1.1175358008657992,3.073395930735926
0.9388218181818169,-0.30707021212121166,0.9936808268398254,1.0459959740259726,2.8741275324675284,-1.1166192207792192,3.0733391774891725
0.9366251818181804,-0.30356893506493465,1.0008127099567086,1.0475049350649335,2.887075108225104,-1.1202319480519465,3.0732836796536755
0.9340536103896091,-0.30086334199134157,1.0097232857142842,1.0488948051948037,2.8993432900432854,-1.1286941558441543,3.0732251948051905
0.9312261471861458,-0.2989620952380948,1.019340125541124,1.0502880952380937,2.9094902164502123,-1.141198614718613,3.0731571861471814
0.9282715541125528,-0.29798396103896063,1.028436307359306,1.0511573160173144,2.9186492640692596,-1.1559711255411238,3.0730979220779178
0.9254844242424229,-0.29741857575757535,1.0358368831168814,1.0518504329004315,2.9258636363636317,-1.170403073593072,3.0730187012986967
0.9228410086580073,-0.2969970692640689,1.0422502597402583,1.0521437662337647,2.9319086580086537,-1.1819379653679636,3.0729303463203417
0.9205856060606048,-0.2966857748917745,1.0474069696969681,1.0520335930735916,2.937080086580082,-1.1910376190476173,3.072856796536792
0.9186358441558429,-0.2959232857142853,1.0515311688311673,1.051639480519479,2.9413741558441515,-1.1979295238095222,3.072800043290039
0.9169795281385269,-0.2947834805194801,1.0549195670995657,1.0509424242424228,2.9450350649350607,-1.20339173160173,3.072768961038957
0.9156838181818169,-0.29323150649350604,1.0577977489177475,1.0498854112554097,2.9482536363636322,-1.2077567099567084,3.0727663203463162
0.9149219090909078,-0.29126040259740216,1.0599350649350634,1.0484297402597387,2.9514453679653636,-1.2113458874458858,3.072788225108221
0.9148355541125528,-0.28899251948051907,1.0603307792207777,1.0465349783549769,2.9535939393939348,-1.2144205194805178,3.0728289177489136
0.9153657922077909,-0.2866569696969693,1.058203506493505,1.0442690043290028,2.9528101298701257,-1.2171293939393921,3.0728769696969653
0.916342714285713,-0.2844903073593069,1.0533192207792195,1.0418212554112538,2.9479747186147143,-1.219564718614717,3.0729261038960995
0.9175554415584403,-0.2827785194805191,1.0459618181818167,1.0396300432900418,2.9387997402597357,-1.2218743722943706,3.072969956709952
0.9186638095238082,-0.2817502121212117,1.036908874458873,1.038140562770561,2.925900303030298,-1.2239254978354959,3.0730071428571386
0.9194779567099555,-0.2816353160173156,1.02733173160173,1.0372299134199119,2.910690216450212,-1.2263322943722925,3.0730377489177445
0.9198059134199121,-0.2827151255411251,1.01849128138528,1.0368478354978339,2.895216320346316,-1.2276822943722925,3.073063160173156
0.9197131471861458,-0.28499987878787836,1.0109783549783535,1.0369835497835482,2.881530779220775,-1.226620562770561,3.073084069264065
0.919490307359306,-0.2884268484848481,1.0045386320346306,1.037575757575756,2.869911168831165,-1.2225295670995653,3.0730980519480475
0.919272268398267,-0.29282257142857104,0.9989883463203448,1.0385081385281372,2.85987255411255,-1.215216190476189,3.0731066666666624
0.9192737229437216,-0.29791054978354936,0.9942040303030288,1.0394973160173147,2.851284935064931,-1.2052480519480502,3.07310835497835
0.9196585930735917,-0.3033948138528134,0.9899989264069249,1.0405271428571412,2.8439512121212083,-1.1937986580086564,3.0731008658008614
0.9202912467532454,-0.3089403722943719,0.9861813939393926,1.041643636363635,2.8377047619047575,-1.1822672294372278,3.0730879220779177
0.9212348008657996,-0.31433839393939345,0.9826753246753233,1.04253528138528,2.8323744588744546,-1.1725573160173144,3.073071212121208
0.9222462077922065,-0.3194158095238091,0.9794038528138514,1.043231428571427,2.8277645454545413,-1.1642583549783532,3.0730528138528093
0.9232996450216437,-0.32380899999999957,0.9763218051948037,1.0439028571428555,2.8233807359307317,-1.1571752813852796,3.0730370562770517
0.9245187748917736,-0.3272865367965363,0.9733874155844142,1.0445973593073579,2.8193788311688266,-1.151110129870128,3.0730238961038916
0.9259135411255397,-0.3295439393939389,0.9703464891774877,1.0450093073593059,2.8179341125541084,-1.1449196969696953,3.0730151082251034
0.9276072380952367,-0.3302191212121207,0.9680228614718601,1.0446349350649335,2.820558571428567,-1.1403193939393923,3.073006277056273
0.9295829956709943,-0.32897766666666617,0.967908177489176,1.0441239393939377,2.8277316017315974,-1.1393092640692626,3.072999956709952
0.9312225930735918,-0.326589138528138,0.9705677835497821,1.0435888311688295,2.8389918614718574,-1.1427923809523794,3.0729905194805154
0.9323984285714272,-0.3235378701298696,0.9762984545454533,1.0432823376623361,2.8529239826839787,-1.151046363636362,3.072972727272723
0.9326938441558428,-0.3204508571428567,0.984674480519479,1.0438478787878773,2.8674373160173117,-1.163237272727271,3.0729487012986967
0.9320246926406912,-0.31778938961038916,0.9946777705627692,1.0457763636363622,2.880151818181814,-1.1776439393939375,3.0729147186147143
0.9304939956709943,-0.3156654935064931,1.0048257878787865,1.0490546320346306,2.8899770995670955,-1.1918065800865782,3.0728693506493463
0.928349385281384,-0.31387783549783504,1.0135998787878775,1.053131255411254,2.8978765367965327,-1.203188484848483,3.0728141125541084
0.9258762770562756,-0.3118366363636359,1.020881177489176,1.0575094372294358,2.9042237229437187,-1.2123851515151498,3.072762467532463
0.9234164502164488,-0.30964507359307314,1.026955610389609,1.0618925541125526,2.9093720779220735,-1.2198884415584397,3.0727232467532426
0.921093978354977,-0.30802413852813804,1.0316288311688298,1.0653202597402582,2.9136594805194767,-1.2258446753246737,3.0726982683982635
0.9194425974025962,-0.3069420779220775,1.0351729870129855,1.0672275324675309,2.91728532467532,-1.230720562770561,3.072689480519476
0.9186424675324661,-0.3064307142857139,1.0377675324675308,1.0672686580086566,2.9204120346320304,-1.234812510822509,3.0726990909090866
0.9188696017316005,-0.3062595757575753,1.0395741991341976,1.065376190476189,2.923112077922074,-1.2383764069264052,3.072714805194801
0.9201141991341978,-0.30602932467532423,1.0407529870129855,1.0617867099567082,2.925416536796533,-1.241601428571427,3.0727335497835453
0.9221220129870117,-0.30542828571428526,1.0415260173160157,1.0571023809523794,2.927331774891771,-1.2446327272727253,3.072747359307355
0.9244472164502151,-0.30428335497835457,1.0420866233766217,1.052124242424241,2.928853030303026,-1.2476245021645003,3.0727618614718573
0.9267707186147173,-0.30312463636363596,1.0424093939393924,1.047233679653678,2.9302341558441514,-1.2505969696969679,3.0727737662337615
0.9288941038961025,-0.30223356277056235,1.0422419047619034,1.0429037229437215,2.9304789177489132,-1.2535887445887428,3.072783549783545
0.9307099826839813,-0.30179651515151473,1.0411762337662325,1.0392592640692626,2.9283068831168793,-1.2566015151515133,3.0727912121212073
0.9321784588744575,-0.3019256839826836,1.0388685281385266,1.0362553246753232,2.92296597402597,-1.2596119480519463,3.072798095238091
0.9333040086580073,-0.3026778398268394,1.0351674891774878,1.03385212121212,2.9143827272727227,-1.262602640692639,3.072802640692636
0.9340719393939381,-0.3040508138528134,1.030203073593072,1.0319990476190462,2.9031682683982645,-1.265427142857141,3.0728083982683936
0.9345050346320333,-0.3059863073593069,1.0243904761904745,1.030587965367964,2.8905086580086534,-1.2679953246753228,3.072810735930731
0.9346093809523796,-0.30839090476190434,1.0183247705627692,1.0294762770562755,2.8779651948051903,-1.2691053246753228,3.072810129870125
0.9344397229437216,-0.31108245021644976,1.0126112640692626,1.0285590909090894,2.8670417316017276,-1.267591298701297,3.0728070129870084
0.9340614415584403,-0.31388948484848433,1.0075400649350634,1.0278288311688297,2.8577799567099524,-1.2628565800865785,3.0728007359307314
0.9343549264069251,-0.31612429004328957,1.0031595584415571,1.027060519480518,2.8477658008657967,-1.2552764069264053,3.0728015151515105
0.9339041515151502,-0.318621861471861,0.9994748874458861,1.026515757575756,2.84070887445887,-1.245276666666665,3.0727919480519432
0.9319265454545441,-0.3219199653679649,0.99637215151515,1.026530086580085,2.838726623376619,-1.2340172294372278,3.0727613419913373
0.9281199220779207,-0.3262516883116878,0.993682203463202,1.0273676623376609,2.842583376623373,-1.2229029004328988,3.0727077056277015
0.9226178311688298,-0.33157897835497785,0.9912892987012973,1.0289337229437214,2.85188281385281,-1.2131760173160155,3.072629783549779
0.9159283290043276,-0.33762182683982633,0.9891406926406913,1.030862164502163,2.8652550649350608,-1.2047561471861454,3.072536623376619
0.9088918354978341,-0.3438425844155839,0.9872612900432884,1.0325634632034617,2.880507792207788,-1.1975160606060586,3.072439610389606
0.9025461818181806,-0.34955420779220725,0.9857031212121198,1.0333762337662322,2.894748311688307,-1.1913813419913402,3.0723553679653635
0.8981361168831155,-0.3539450043290038,0.9846785021645008,1.0326625541125525,2.904505367965364,-1.1863924242424226,3.0722996103896056
0.8945387359307345,-0.35767722077922026,0.9846111385281371,1.0305554112554098,2.912599437229433,-1.1819924242424227,3.0722623809523766
0.8916298311688299,-0.3607926969696964,0.9856394242424229,1.027414242424241,2.9193443722943684,-1.178009523809522,3.0722395670995626
0.8893044458874446,-0.3633162510822505,0.987705796536795,1.0237497402597389,2.92504229437229,-1.1743268831168816,3.07222861471861
0.8874622987012974,-0.36527321212121155,0.9906403549783536,1.0199486147186132,2.9299547619047575,-1.170858614718613,3.072227012987008
0.886015095238094,-0.3667181341991337,0.9941508354978341,1.0162781818181803,2.9342839826839784,-1.1675473160173144,3.072232251082246
0.8848860779220766,-0.36773192640692587,0.9979243333333319,1.0128304329004314,2.9381661038960996,-1.1643094372294356,3.0722426839826795
0.8839850865800853,-0.3684157099567094,1.0016567792207778,1.0096013809523794,2.941663333333329,-1.1606362770562755,3.0722564502164458
0.8832334415584402,-0.36888390476190425,1.0052735627705613,1.0065447402597387,2.9448074025973985,-1.158362510822509,3.0722714285714243
0.8825653246753233,-0.3692362900432895,1.0088987316017302,1.0036075497835484,2.947625108225104,-1.159203982683981,3.0722865800865753
0.8819273549783537,-0.3695678051948047,1.0125445238095223,1.0007718701298687,2.950157316017312,-1.1639951948051932,3.0722995238095194
0.8812830476190463,-0.3699453376623371,1.0162015151515138,0.9980553290043275,2.9524451948051906,-1.1726227272727257,3.0723103030302985
0.8806062813852801,-0.3704210822510817,1.0198744588744575,0.9954631428571414,2.9545181818181776,-1.1841430303030287,3.0723209090909043
0.8798788658008645,-0.3710273246753241,1.023544545454544,0.992999294372293,2.9564030735930693,-1.1969213419913403,3.072330909090905
0.8790931861471849,-0.37177241991341936,1.0271473160173146,0.9906724112554097,2.9581244588744546,-1.2088993073593057,3.07233939393939
0.8782281645021632,-0.37263626839826786,1.030547229437228,0.9884941168831155,2.95970584415584,-1.218200562770561,3.072348311688307
0.8772708354978342,-0.37359707792207736,1.0336042857142842,0.9864770822510807,2.961160606060602,-1.2258315151515133,3.0723567532467486
0.8762008744588732,-0.37462019480519426,1.0362341558441543,0.9846917012987,2.96249571428571,-1.2320096969696952,3.072366233766229
0.8750004155844143,-0.37568475757575703,1.0384071861471846,0.9832232207792193,2.9637239826839785,-1.2347641558441542,3.0723787445887405
0.8736762510822498,-0.3767849480519475,1.0401203463203448,0.9822130779220766,2.964852900432896,-1.2328304761904745,3.0723925108225068
0.8722583376623365,-0.3779444848484843,1.0414789610389594,0.9817406709956694,2.965893463203459,-1.2259770995670978,3.072409999999995
0.8707842251082238,-0.37920498701298644,1.0425542857142842,0.982012757575756,2.966851082251078,-1.214889047619046,3.072427489177485
0.8692971038961026,-0.3806192683982678,1.0433164069264054,0.9831656190476177,2.9677275757575714,-1.2010616017316,3.07244216450216
0.8678011601731589,-0.38222358874458817,1.0435829870129856,0.9852048874458861,2.968532900432896,-1.1865865800865785,3.072454978354974
0.8662809177489165,-0.38403230303030245,1.0431480086580072,0.9879689740259726,2.9692725974025933,-1.1737822510822493,3.0724630735930694
0.8646894329004315,-0.3860423982683977,1.0419503030303015,0.9911401038961025,2.969950476190472,-1.1637251082251066,3.072467792207788
0.8629650346320334,-0.3882256753246748,1.0400980086580072,0.9941833722943708,2.9705723376623334,-1.1553777922077906,3.0724704329004284
0.8610604805194793,-0.3905339350649345,1.0378939826839813,0.9965353939393926,2.9711463636363593,-1.1483438095238079,3.0724703030302987
0.8589623809523796,-0.3929098961038955,1.0358629870129854,0.9976826060606045,2.9716881818181777,-1.1423349783549765,3.072470909090905
0.8566864935064922,-0.3952961601731596,1.0344369696969682,0.9974373116883104,2.9722039393939355,-1.1371077489177472,3.0724699999999956
0.8542772380952368,-0.39764634632034573,1.033890692640691,0.9957559393939379,2.972699826839823,-1.1324868831168815,3.0724699999999956
0.8517754069264056,-0.3999183506493501,1.034173766233765,0.9927781385281371,2.9731804329004285,-1.1283299134199118,3.072470909090905
0.8492386103896092,-0.4020756060606055,1.0351304761904747,0.9887902510822496,2.9736445021644977,-1.124368917748916,3.0724703030302987
0.8467003679653667,-0.40409954545454485,1.0364734199134182,0.9841347532467517,2.974082510822506,-1.1207007792207775,3.072469523809519
0.8441762424242413,-0.4059858181818176,1.0378575757575743,0.9790931125541111,2.9744825108225066,-1.119219913419912,3.072466580086576
0.8416679956709945,-0.4077451341991336,1.0391402597402584,0.9739321818181805,2.974839177489174,-1.1212334199134184,3.0724632467532427
0.8391849220779208,-0.40941283116883054,1.0403550216450204,0.9688538961038946,2.9751472727272685,-1.1271910389610373,3.07245887445887
0.8367256233766222,-0.4110251645021639,1.0415657575757562,0.9640039913419899,2.9754144588744547,-1.1366594805194787,3.072453246753242
0.8342954588744576,-0.4126232857142851,1.0429338528138514,0.9594483290043276,2.9756507359307314,-1.1484408658008642,3.0724465800865755
0.8318982121212108,-0.41424141558441496,1.0445843290043275,0.9552038311688298,2.975862121212117,-1.160752467532466,3.0724395238095195
0.8295581125541114,-0.41589910822510767,1.0466254978354963,0.9512572987012973,2.9760574891774847,-1.1716012554112536,3.072429393939389
0.8272843506493495,-0.4175864935064929,1.0488619913419899,0.9475975108225094,2.9762307359307316,-1.1799007792207774,3.0724187878787834
0.8250813939393928,-0.4192801948051942,1.0507785714285698,0.9442121774891762,2.976367186147182,-1.1864613419913403,3.072409870129866
0.8229361601731591,-0.42094818614718554,1.0518783549783535,0.9411200173160159,2.9764509956709917,-1.1915729437229419,3.072404372294368
0.8208376060606049,-0.4225891341991336,1.0517370129870116,0.9383146406926394,2.976455021645018,-1.195586666666665,3.0724026839826797
0.8187719696969684,-0.4242150129870124,1.050152164502163,0.9357954848484835,2.97636861471861,-1.1985737662337645,3.0724052380952336
0.8167400173160162,-0.42587043290043225,1.0472374458874443,0.9335396623376611,2.9761799567099527,-1.1992168398268381,3.072412510822507
0.8147439999999988,-0.42761659307359245,1.0433500432900418,0.9315022164502151,2.975891082251078,-1.1964564935064919,3.072421688311684
0.812801147186146,-0.42950986580086514,1.0390191341991326,0.9296386320346307,2.9755186147186103,-1.1899773593073575,3.0724295238095194
0.8109107705627694,-0.4315750649350643,1.0346758441558426,0.9278799567099554,2.975079913419909,-1.1802454545454528,3.0724351948051902
0.8090678614718603,-0.43381435497835436,1.0304899567099552,0.9261540086580073,2.974580086580082,-1.1683679653679637,3.0724398268398225
0.8072590259740248,-0.4362194632034626,1.02651515151515,0.9244324848484835,2.9740077922077877,-1.1558573593073576,3.0724421212121165
0.8054640606060595,-0.43876258874458807,1.0227180086580072,0.9226973766233753,2.973338571428567,-1.1443948484848467,3.0724421212121165
0.8036571168831157,-0.44140466233766174,1.019047402597401,0.9209363160173146,2.9725383982683944,-1.1349824242424227,3.0724389177489133
0.8018103722943711,-0.44410174458874396,1.0154626406926393,0.919096229437228,2.971570692640688,-1.127100649350648,3.0724358008657964
0.7999001904761893,-0.44681485714285646,1.0119413376623363,0.9171061818181805,2.970400173160169,-1.120413376623375,3.0724303030302984
0.7979187619047607,-0.449505705627705,1.008533082251081,0.9148808225108211,2.969026450216446,-1.1145709523809508,3.072423722943719
0.795857489177488,-0.4521269870129863,1.005294255411254,0.9122989653679641,2.9675096103896057,-1.1098835064935049,3.072417359307355
0.793726606060605,-0.4546402337662331,1.0022547619047604,0.9093010519480507,2.965938225108221,-1.1077722943722927,3.072413419913416
0.7915488095238083,-0.45703280519480455,0.9994242597402583,0.9059028701298688,2.9643930735930692,-1.1092864935064919,3.0724107792207747
0.7893524545454533,-0.45929670995670935,0.9967919350649337,0.9021805324675312,2.962958528138524,-1.1147319913419897,3.072408311688307
0.7871640606060595,-0.46145439393939325,0.9943130822510807,0.8982331125541112,2.9616333333333293,-1.1236484848484831,3.072406277056272
0.7849960995670984,-0.4635224112554106,0.9919252207792193,0.8941645497835484,2.960369610389606,-1.1348771861471845,3.0724040259740213
0.7828529134199123,-0.4655355584415578,0.9895634761904748,0.890064359307358,2.9590708658008618,-1.1467401731601714,3.072400909090905
0.7807237445887434,-0.46750655844155775,0.9871760735930721,0.8859919956709943,2.9576841125541082,-1.1574200432900417,3.0723962770562725
0.7785932943722933,-0.4694365497835491,0.9846901428571413,0.881985043290042,2.9560599999999955,-1.166083506493505,3.0723923376623334
0.7764509696969686,-0.4713248181818175,0.9820336450216436,0.8780804805194793,2.9539936796536757,-1.173140995670994,3.0723879653679607
0.7742853376623365,-0.473169614718614,0.9791508787878773,0.874282160173159,2.951250735930732,-1.178882813852812,3.072382943722939
0.7720995497835487,-0.474982272727272,0.9760146320346306,0.8705911601731589,2.9475489177489136,-1.1835641991341974,3.072377056277052
0.7699062683982673,-0.47681451515151446,0.972613073593072,0.8669855238095225,2.9426093073593034,-1.1874230303030286,3.0723729437229395
0.7677200779220767,-0.47873363203463126,0.9689527186147171,0.863448004329003,2.9363368398268355,-1.190622813852812,3.0723688744588697
0.7655412683982673,-0.48080179220779146,0.9650718614718601,0.8599466103896092,2.9289010389610346,-1.1932676623376606,3.072363549783545
0.7633571688311678,-0.48305412121212055,0.9610187835497821,0.8564554415584403,2.9206940259740213,-1.1954449783549765,3.0723561038961
0.7611458311688301,-0.48551947619047553,0.9568121558441545,0.8529632857142845,2.912086753246749,-1.1971822943722925,3.0723470129870085
0.7588950779220768,-0.4882044155844149,0.9524852121212107,0.8494590519480507,2.903499047619043,-1.1986801731601715,3.0723347619047576
0.7565939004328993,-0.49109080086580015,0.9480688917748904,0.8459429264069251,2.8952761904761863,-1.1993656709956693,3.0723196103896058
0.7542505584415573,-0.4941579999999993,0.9435995238095225,0.8424152337662325,2.8875729437229394,-1.1982786580086562,3.072299350649346
0.7518828398268387,-0.4973660779220772,0.9391087402597389,0.8388701082251069,2.8805089177489136,-1.194745324675323,3.0722764069264024
0.7495153593073581,-0.5006731904761897,0.9346183376623363,0.8352889870129858,2.8741970995670956,-1.1886283982683967,3.0722507359307314
0.7471632597402587,-0.5040181861471854,0.9301445367965355,0.8316428354978342,2.8687437662337625,-1.1803674891774874,3.0722212121212076
0.7448487272727262,-0.5073564848484841,0.9257035887445875,0.82790812121212,2.8641644155844115,-1.1708835497835484,3.0721909090909048
0.7425794372294361,-0.5106713679653672,0.9213019740259727,0.8240828917748906,2.8603273593073553,-1.1612816883116865,3.072160909090905
0.7403514588744579,-0.5139609870129863,0.9169302857142844,0.8201703809523798,2.8569725541125504,-1.1528077489177473,3.072130303030298
0.7381286493506483,-0.5172188311688304,0.9125634545454533,0.816188619047618,2.8538339393939354,-1.1456281385281368,3.072099523809519
0.7358721948051937,-0.5204469999999992,0.9081776536796523,0.812140264069263,2.8506491774891733,-1.140020389610388,3.0720656709956664
0.7335390606060596,-0.5236233982683975,0.9037599220779208,0.8080319307359296,2.8473256709956667,-1.1369770129870114,3.0720320346320302
0.7311127705627696,-0.5267353030303022,0.8993262380952368,0.8038453116883104,2.843893896103892,-1.1374379220779203,3.0719981385281336
0.7285887359307348,-0.5297803246753239,0.8948885844155829,0.7995548614718604,2.8404229437229396,-1.1417558008657993,3.071965930735926
0.7259895714285705,-0.532763246753246,0.8904742467532455,0.7951440432900422,2.837041515151511,-1.1495468398268383,3.071936926406922
0.7233494329004319,-0.5357016493506486,0.8861064718614706,0.7906217489177478,2.8338526406926365,-1.159696969696968,3.071912207792203
0.7207054329004319,-0.5385985454545447,0.8818030389610376,0.7860093376623365,2.8309966233766195,-1.1707308225108208,3.0718895670995625
0.7180881558441549,-0.5414528874458867,0.8775714935064922,0.7813233203463192,2.828604285714282,-1.181038138528137,3.0718696969696926
0.7155038484848475,-0.5442827619047611,0.8733635454545441,0.7765932683982673,2.826573593073589,-1.189823506493505,3.0718499999999955
0.7129298181818171,-0.5471102640692633,0.8691167662337649,0.7718500952380941,2.8247158441558398,-1.1971761471861455,3.071830303030299
0.7103468701298691,-0.5499585281385273,0.8647862640692627,0.767110974025973,2.822883203463199,-1.2033574458874443,3.0718095238095193
0.707737567099566,-0.5528458961038953,0.8603335844155832,0.7623865021645011,2.820989437229433,-1.2085819480519464,3.0717865800865756
0.7050980952380941,-0.5557863290043282,0.8557439220779208,0.757674870129869,2.8189872727272682,-1.2130006060606042,3.0717641558441517
0.7024341558441548,-0.5587927835497828,0.8510139740259728,0.7529654155844144,2.8167654545454504,-1.216722510822509,3.071739177489173
0.6997649004328994,-0.5618507835497828,0.8461772077922065,0.7482548354978344,2.8143638095238055,-1.2198915584415566,3.071711861471857
0.6971362554112543,-0.5649470779220771,0.8412966839826828,0.743539999999999,2.8120802164502123,-1.2226064069264053,3.0716828571428527
0.694568303030302,-0.5680715021645013,0.8363958051948039,0.7388337878787868,2.8102364935064896,-1.224435497835496,3.0716532467532423
0.6920491428571418,-0.57124151082251,0.8314715974025962,0.7341317056277046,2.8087867965367925,-1.224342683982682,3.071622597402593
0.6895410822510812,-0.5744772077922069,0.8265010346320335,0.7294337748917739,2.8075209523809486,-1.2216799567099548,3.0715918181818136
0.6870169177489167,-0.5777912900432892,0.8214801948051937,0.7247496796536785,2.806333593073589,-1.2161432900432882,3.071559826839822
0.6844679437229426,-0.581188826839826,0.8164237489177477,0.720091883116882,2.805190822510818,-1.2079710389610372,3.0715273160173115
0.6818904718614709,-0.5846679220779212,0.8113269480519468,0.7154618095238086,2.803759480519476,-1.1980225974025958,3.071489653679649
0.6792749220779211,-0.5882036277056268,0.8061849307359296,0.7108675541125531,2.801729740259736,-1.1875970129870113,3.071447316017312
0.6766402597402588,-0.5917501428571419,0.8010278528138517,0.7063039264069253,2.7991957575757533,-1.1779805194805175,3.071399826839822
0.6740224978354968,-0.5952677792207783,0.7959083203463192,0.7017487316017306,2.797052597402593,-1.1697116017316,3.071349090909086
0.6714451948051938,-0.5987665844155835,0.7908422683982672,0.6971508701298691,2.7958076623376584,-1.1625585714285696,3.0712998701298657
0.6688911341991333,-0.602274354978354,0.7858036623376612,0.6924549913419903,2.795057142857139,-1.1566285714285698,3.071254069264065
0.6663440606060596,-0.6057990519480511,0.7807879999999989,0.6876397922077913,2.7943972727272683,-1.1531110389610373,3.071213160173156
0.6637938571428561,-0.60931951082251,0.7758095584415573,0.6827289480519471,2.793811991341987,-1.1531298701298685,3.0711777489177443
0.6612284112554103,-0.61282722077922,0.7708654891774881,0.6777484848484839,2.7931221645021607,-1.1572201731601717,3.0711480519480476
0.6586212424242415,-0.616319748917748,0.7659370043290032,0.6727298571428562,2.7918673593073553,-1.1651258874458859,3.0711229870129824
0.6559614545454536,-0.619781748917748,0.7610157445887435,0.6676997792207782,2.7898921645021604,-1.1758549350649332,3.07109926406926
0.653277116883116,-0.6232026450216441,0.7561301731601721,0.6626763982683972,2.788064675324671,-1.1878205194805178,3.0710775757575712
0.6505976450216441,-0.6266004805194796,0.7512750865800855,0.6576529437229428,2.7868536363636327,-1.1991809523809507,3.071060173160169
0.6479234285714277,-0.6300029913419904,0.7464102597402587,0.6526121601731592,2.7857468831168792,-1.208696363636362,3.0710441991341946
0.6452468961038952,-0.6334134242424234,0.741506645021644,0.6475601212121203,2.784346406926403,-1.2165861471861454,3.0710296969696924
0.6425562251082242,-0.6368264675324665,0.7365469783549774,0.6425183852813843,2.782841601731598,-1.223096103896102,3.0710153679653636
0.6398412987012977,-0.6402624285714276,0.7315107878787868,0.6374848398268389,2.781317922077918,-1.2284594372294355,3.071003246753242
0.6370902640692632,-0.6437421991341983,0.7263715021645012,0.6324396147186138,2.779369740259736,-1.2328497402597383,3.0709900865800828
0.6343075714285706,-0.6472579999999991,0.7211363333333323,0.6273804545454535,2.7770224675324635,-1.236269350649349,3.070973073593069
0.6315126147186138,-0.6507899177489168,0.7158251385281373,0.622323735930735,2.77483571428571,-1.2387487012986995,3.0709535930735887
0.6287201948051939,-0.6543502640692631,0.7104427445887436,0.6172578917748909,2.773055800865797,-1.2391778354978336,3.0709305627705583
0.6259274718614709,-0.6579526233766224,0.7049960303030293,0.6121811515151507,2.771666839826836,-1.236590086580085,3.070902251082247
0.6231372034632026,-0.6615911818181808,0.699513341991341,0.6071034069264061,2.7707651082251044,-1.2306346320346302,3.07086913419913
0.6203545194805186,-0.6652626277056267,0.6940245454545444,0.6020428311688303,2.7707301298701257,-1.2216629870129854,3.070829653679649
0.6175774632034623,-0.6689884458874449,0.6885247835497825,0.5969884935064926,2.771473463203459,-1.2106829004328987,3.0707882251082204
0.6148023333333325,-0.6727724242424233,0.6830155108225098,0.5919315974025965,2.772645194805191,-1.1990732900432883,3.070740129870125
0.6120393246753237,-0.6765869567099558,0.6775248744588734,0.5868887056277048,2.7742982251082213,-1.188216969696968,3.0706895238095195
0.6092852164502156,-0.6804145541125531,0.6720532207792198,0.5818781731601723,2.776547272727268,-1.179203376623375,3.070637662337658
0.6065298268398259,-0.6842717662337653,0.6665817056277047,0.576859458874458,2.7786939393939356,-1.1717850216450199,3.0705862337662295
0.6037540432900425,-0.6881544632034622,0.661111341991341,0.5718121904761897,2.77997623376623,-1.165662510822509,3.0705369264069216
0.6009575238095229,-0.6920407186147177,0.6556627532467523,0.5667378225108217,2.7803401731601696,-1.1601742857142838,3.070489177489173
0.5981365844155835,-0.6959229134199124,0.6502394502164492,0.5616500519480511,2.7798086147186107,-1.1561825974025957,3.0704473160173116
0.5952983549783541,-0.6998142077922068,0.6448324502164493,0.5565386493506486,2.7781362337662294,-1.1552472294372278,3.070413939393935
0.5924590476190468,-0.703693935064934,0.6394512380952371,0.5514155021645013,2.775286623376619,-1.1581833333333318,3.0703870562770517
0.5896381645021636,-0.7075417705627696,0.6341031255411246,0.546301787878787,2.7716115584415544,-1.1649970562770546,3.0703682251082207
0.5868171991341984,-0.7113718744588735,0.6287585454545446,0.5412161991341984,2.7674138528138483,-1.175007835497834,3.070356363636359
0.5839778051948044,-0.71521696103896,0.6233864415584407,0.5361309523809517,2.7624954545454505,-1.1869345454545437,3.070348658008654
0.5811113203463196,-0.7190683939393928,0.6180018787878778,0.5310563116883109,2.7570935497835456,-1.1989458441558423,3.070343419913415
0.5782314155844147,-0.7229108051948041,0.6126274761904753,0.5260037922077914,2.7519972727272686,-1.209108484848483,3.0703385714285667
0.575336038961038,-0.7267583506493496,0.6072479264069255,0.5209567792207784,2.747514935064931,-1.217354285714284,3.0703344588744543
0.572432813852813,-0.7306196623376613,0.6018446493506484,0.5158811212121204,2.743601688311684,-1.2241874025974009,3.0703276190476148
0.5695209956709948,-0.7344785974025964,0.5964046839826831,0.5107616103896097,2.740381298701295,-1.2297615151515133,3.0703172727272685
0.566580601731601,-0.738340645021644,0.5909036320346313,0.5056026926406919,2.7381084415584374,-1.2345530735930719,3.0702995670995623
0.5635825800865792,-0.7422366623376612,0.585311142857142,0.5003923679653672,2.736897402597399,-1.237532207792206,3.0702737229437185
0.5605321038961031,-0.7461736753246742,0.5796423939393931,0.49510884415584344,2.736833939393936,-1.2372705194805178,3.070234458874454
0.5574498095238087,-0.7501293549783539,0.5739396536796528,0.48978213852813784,2.7382357575757537,-1.233059047619046,3.0701852813852772
0.5543531645021638,-0.7541135887445876,0.5682199264069256,0.48444703896103825,2.74126281385281,-1.2250311688311672,3.0701285281385235
0.5512590432900426,-0.7581485584415573,0.5624890649350641,0.4791066883116876,2.7455775324675287,-1.2140216017316,3.0700685714285667
0.5481819913419905,-0.7622109696969686,0.5567569653679645,0.47376805194805127,2.7504989177489136,-1.2014550216450197,3.070002900432896
0.5451204848484841,-0.7662864458874448,0.5510326753246746,0.468448627705627,2.7555108225108187,-1.1891078354978337,3.069936017316013
0.5420399350649343,-0.7703957748917738,0.5453003982683975,0.46318537662337594,2.7602815584415548,-1.1787480519480504,3.069869523809519
0.5389443722943716,-0.7745549913419901,0.5395649913419907,0.45794996536796473,2.7644690476190434,-1.1702399999999984,3.0698064069264026
0.5358523766233758,-0.778725225108224,0.5338482554112546,0.4527342987012981,2.7679454112554076,-1.1630830303030286,3.0697441125541083
0.532783259740259,-0.7828801038961029,0.5281543939393931,0.4475468051948045,2.7708116017315976,-1.1570442424242406,3.069690735930732
0.5297382943722935,-0.7870351255411244,0.5224731341991334,0.4423936017316011,2.7731990909090865,-1.1519351515151497,3.069647056277052
0.5267272727272719,-0.7911927012987001,0.5167986450216442,0.4372529307359301,2.7748100432900396,-1.1475864502164486,3.069616060606056
0.5237417748917741,-0.7953347922077911,0.511126943722943,0.4321269004328998,2.7753090909090874,-1.1452880952380935,3.069593939393935
0.5207702164502157,-0.7994584155844144,0.5054583073593066,0.4270453982683976,2.774572510822507,-1.1461673593073576,3.0695829437229394
0.5178094242424235,-0.8035770129870118,0.4997909134199128,0.42201392207792143,2.7725981385281346,-1.150739350649349,3.069582900432896
0.5148825064935058,-0.8076851298701286,0.4941353593073586,0.41700765800865747,2.769287792207788,-1.1587921645021628,3.0695916450216405
0.5119785670995664,-0.811767870129869,0.4884829523809517,0.41204529437229376,2.764749220779217,-1.1693971428571412,3.0696041125541083
0.5090880259740252,-0.8158350519480508,0.48283733766233694,0.4071520519480513,2.7593270129870087,-1.181086536796535,3.0696292640692597
0.5062089480519474,-0.8199045714285702,0.47719629004328934,0.40230630303030246,2.753391471861468,-1.1921684415584397,3.0696599999999954
0.5033312164502157,-0.8239713463203451,0.4715478441558435,0.3974693290043284,2.747140043290039,-1.2013437229437214,3.0696887878787833
0.5004193203463196,-0.8280372770562758,0.46587367099567034,0.39262375757575696,2.7410927705627666,-1.20888831168831,3.069712900432896
0.49745656277056205,-0.8321145627705615,0.460163363636363,0.38774737662337605,2.736116060606057,-1.2150140259740243,3.06973229437229
0.49445925974025906,-0.8362159177489165,0.4544104891774885,0.3827651082251077,2.732916709956706,-1.220424458874457,3.069741861471857
0.49142651948051874,-0.8403232597402586,0.4486104199134192,0.3776485541125536,2.7318251515151477,-1.223820735930734,3.0697342424242375
0.48834161038960966,-0.844434359307358,0.4427695800865794,0.37241683982683926,2.7330091774891736,-1.2236669696969678,3.0697083982683937
0.48518746753246683,-0.8485741861471849,0.4368920519480513,0.36711112987012934,2.7363290476190434,-1.2192947619047603,3.0696719913419868
0.4819760779220772,-0.852773108225107,0.4309894242424236,0.36173663636363584,2.7412436796536754,-1.2108926406926392,3.069625108225104
0.4787228225108218,-0.8570139783549771,0.4250866147186141,0.35633990909090857,2.747054632034628,-1.1993387878787862,3.06956545454545
0.4754534545454538,-0.8612709437229424,0.41919957575757516,0.35095318181818136,2.7531221212121175,-1.1861107359307344,3.0695004329004285
0.47217942424242354,-0.8655569393939381,0.4133220822510817,0.3455829047619043,2.7590840692640652,-1.173187272727271,3.069434458874455
0.4689092554112547,-0.8698828874458862,0.40744523809523747,0.34023615584415534,2.7646521645021602,-1.1625463636363618,3.069370389610385
0.46564050649350575,-0.8742325584415571,0.401573744588744,0.33494218181818136,2.7696429004328964,-1.1537851082251065,3.069308701298697
0.4623913809523803,-0.8785761818181805,0.3957254718614713,0.3297258268398263,2.7740530735930693,-1.1464045454545437,3.0692552380952334
0.4591779523809517,-0.8829147922077909,0.38988706060606004,0.3245636969696965,2.7778799134199095,-1.140216666666665,3.069212770562766
0.45601700432900366,-0.8872433722943711,0.38406898268398215,0.3194476450216446,2.781123116883113,-1.134844588744587,3.0691825108225066
0.4529111385281379,-0.8915515844155831,0.37826264069264015,0.31438726406926365,2.7838809090909047,-1.1300829870129854,3.0691632467532424
0.4498748051948045,-0.8958304502164489,0.3724718658008652,0.3093901861471857,2.7862033766233725,-1.1275611688311673,3.0691593939393895
0.4468979134199128,-0.9000915064935051,0.3666839047619042,0.30443667099567057,2.787968354978351,-1.128425887445886,3.069166796536792
0.44398367532467464,-0.904330030303029,0.3609109783549778,0.2995296147186143,2.789128614718611,-1.1331677922077905,3.069183722943719
0.44111255844155783,-0.9085476450216436,0.35514042424242376,0.29469474025973985,2.7896559307359268,-1.1415612121212106,3.0692090476190432
0.4382834415584409,-0.9127489393939381,0.34937977489177435,0.28995781385281344,2.78955545454545,-1.1526140692640676,3.0692501298701256
0.4355115064935059,-0.9169338917748904,0.3436297532467527,0.2852849004329,2.788719826839823,-1.164722510822509,3.0693040692640645
0.43280870129870064,-0.9210731948051936,0.3379016233766229,0.2806610043290039,2.7868324242424203,-1.1759134199134182,3.06935913419913
0.43013306060606005,-0.9251700129870117,0.33216874025973975,0.27608477056277014,2.783883939393935,-1.18491805194805,3.0694123809523766
0.427442034632034,-0.9292605584415571,0.32642551082251037,0.27153724675324636,2.780410692640688,-1.1923512121212103,3.0694675324675282
0.42470257575757514,-0.9333804329004316,0.32064654978354934,0.2669264025974022,2.7772071428571388,-1.1983292640692622,3.069514848484844
0.421923705627705,-0.9375152121212107,0.31483697402597355,0.26220423376623336,2.7751291774891733,-1.203175194805193,3.0695490476190432
0.419079099567099,-0.9416635584415571,0.3089782597402593,0.2573535757575754,2.7748540259740215,-1.2072103030303012,3.0695669696969654
0.4161529004328998,-0.9458487835497822,0.30307580086580044,0.25236634632034594,2.7767512554112512,-1.208943246753245,3.0695741558441516
0.4131464935064929,-0.9500896320346306,0.29713000432900394,0.24721554112554076,2.780627445887442,-1.2071911255411236,3.0695680952380906
0.41007279653679596,-0.9543544848484833,0.29116581818181775,0.24195619480519445,2.7857167532467493,-1.2014412121212104,3.069546147186143
0.40693773160173097,-0.9586161168831155,0.2852061515151511,0.2366684891774888,2.791307705627702,-1.191984588744587,3.069510952380948
0.4037574329004323,-0.9628845757575744,0.27926181818181783,0.231386978354978,2.7970161038961,-1.1798806926406908,3.069469177489173
0.40054093073593017,-0.9671874458874444,0.27332196536796494,0.2261135541125538,2.8026317316017275,-1.166794458874457,3.0694223809523766
0.3973121515151509,-0.971506835497834,0.2673980735930732,0.2209097965367962,2.807965541125537,-1.1546735064935048,3.069373722943719
0.3940894935064929,-0.9758277099567085,0.2614917575757572,0.2158032424242421,2.8129506060606024,-1.144879177489176,3.0693243722943677
0.39089636363636304,-0.9801478961038945,0.25560133333333296,0.21078849783549752,2.8175781385281344,-1.1368041991341977,3.0692779220779176
0.38775692207792145,-0.9844825497835484,0.24972937662337627,0.20583376623376592,2.8218922510822466,-1.1300743290043274,3.0692377056277014
0.3847070562770557,-0.9888052207792193,0.2438817402597399,0.2009655844155841,2.8259309956709915,-1.1243054112554096,3.0692110822510776
0.38179212987012934,-0.9930950779220764,0.23806403896103862,0.19619609956709927,2.8296995670995626,-1.1198338961038945,3.069198008658004
0.3790284632034626,-0.9973505281385266,0.23226261038961005,0.1915143246753244,2.8331748484848442,-1.117843982683981,3.0691954112554063
0.3764124069264064,-1.0015853939393926,0.22648344588744557,0.1869011601731599,2.8363772294372254,-1.1192572727272712,3.0692016883116837
0.37391965800865745,-1.0057929220779205,0.22071477056277022,0.1823775930735928,2.8393334632034595,-1.1244791341991327,3.0692176623376577
0.37154183116883055,-1.0099611991341977,0.21496234199134168,0.1779593636363634,2.8420536363636324,-1.1331222943722925,3.069246926406922
0.36927672727272676,-1.014086294372293,0.20922326406926378,0.17362675757575732,2.8445319480519435,-1.14405818181818,3.0692867532467485
0.3671332987012981,-1.0181695670995656,0.20350145021644991,0.16934676190476167,2.8468005627705586,-1.1556235930735914,3.069332857142853
0.3650879826839821,-1.022191428571427,0.1977849956709954,0.16514250216450194,2.848831385281381,-1.1661670562770545,3.0693846320346276
0.3630892727272722,-1.0261563636363622,0.19207666233766207,0.16102647619047594,2.850661948051944,-1.1749673593073577,3.069444415584411
0.36108229437229383,-1.0300903463203448,0.18636061471861443,0.15695142424242403,2.8524519047619004,-1.1821914718614703,3.069502077922073
0.35903429870129816,-1.034027402597401,0.18062818181818158,0.1528377359307357,2.8544568398268355,-1.1879332900432882,3.0695479220779176
0.3569028787878783,-1.0379686147186131,0.1748528441558439,0.1486543593073591,2.8568799134199088,-1.1924249350649334,3.0695836363636317
0.35467160606060555,-1.041926926406925,0.16904438095238072,0.1443675714285712,2.8598808658008616,-1.1958516883116865,3.069612597402593
0.3523562987012982,-1.0459240692640677,0.16319130735930715,0.1399163463203461,2.863517705627701,-1.1985264935064919,3.0696315584415537
0.3499826190476185,-1.0499754978354965,0.1572990476190474,0.13526644588744569,2.8677213852813814,-1.2005448484848467,3.069634415584411
0.3475496363636359,-1.054047965367964,0.15138835497835473,0.13047920346320327,2.872282727272723,-1.2007367532467517,3.0696213852813807
0.34507642857142806,-1.0581156277056263,0.1454800909090907,0.12559558441558422,2.8770610389610347,-1.1985869264069247,3.0696000432900385
0.3426246406926402,-1.062164978354977,0.13958683116883097,0.12063606926406908,2.8819958874458833,-1.194347878787877,3.0695746753246707
0.34024208225108177,-1.0662106060606045,0.13371359307359287,0.11560194718614702,2.8870212554112515,-1.1883435064935048,3.0695419480519437
0.3379200865800861,-1.0702444588744573,0.12786006926406907,0.11054711688311672,2.892039696969693,-1.1808157575757559,3.0695044588744542
0.335656164502164,-1.0742677056277041,0.12202669783549766,0.105506486147186,2.897016926406922,-1.1724764935064917,3.069464242424238
0.3335018658008653,-1.0782780952380935,0.11620912294372276,0.10049193982683968,2.9019559307359266,-1.1648538961038946,3.0694241991341946
0.33153201731601684,-1.0822734199134185,0.11042125108225093,0.09550313896103882,2.9068496103896058,-1.159192034632033,3.069386666666662
0.32972169696969644,-1.0862371861471845,0.10465436709956695,0.09056811731601719,2.911679437229433,-1.1541552813852798,3.0693511688311643
0.3281206926406922,-1.0901461471861458,0.09890213160173145,0.08570233809523797,2.9164400865800824,-1.150730995670994,3.0693198268398225
0.32685463203463155,-1.0939900865800851,0.09318327445887432,0.08090700129870118,2.9211496969696924,-1.1503427272727254,3.069299783549779
0.3259869610389605,-1.097730086580085,0.08754134675324662,0.07605524935064925,2.926232770562766,-1.1535919480519463,3.0693080086580045
0.32533281385281343,-1.101522034632033,0.08188631428571416,0.07131056666666657,2.9307882683982642,-1.1593567965367948,3.069310865800861
0.32479233766233717,-1.105443982683981,0.07616739783549772,0.06678599134199124,2.934332857142853,-1.1665995238095221,3.0692844155844115
0.32430143290043245,-1.109519956709955,0.07036945930735919,0.06250207012987004,2.9367796969696927,-1.174675497835496,3.0692207792207746
0.32375927272727223,-1.113739350649349,0.06450362857142847,0.05842907056277048,2.938274545454542,-1.1827762337662322,3.0691280519480473
0.3230131471861467,-1.1180980519480503,0.0585669142857142,0.05446651948051941,2.939167965367961,-1.1892721645021629,3.069012077922074
0.322057848484848,-1.1225435930735914,0.05260621038961031,0.050518444588744514,2.9399577056277013,-1.1945831601731585,3.068883073593069
0.3209475238095233,-1.127000259740258,0.04666821948051942,0.04643812597402591,2.941265541125537,-1.1991589610389592,3.0687572294372254
0.3196968398268394,-1.1313517748917734,0.0408290783549783,0.04206845151515145,2.943796796536792,-1.2033216017316,3.068661082251078
0.31819774891774844,-1.135682380952379,0.035042628138528084,0.037518846320346265,2.9468781818181773,-1.2067077922077902,3.0685761038960995
0.31649382251082203,-1.1399888311688295,0.029312875324675282,0.03281423679653675,2.950364415584411,-1.2094613852813836,3.0684976623376583
0.3145746536796532,-1.1442506060606044,0.023636413636363603,0.028008526277056234,2.9541231168831126,-1.2113016450216434,3.068424891774887
0.3123967272727268,-1.1484703463203445,0.018003850389610367,0.02314431718614715,2.957991558441554,-1.2115949350649333,3.068358311688307
0.3100420692640688,-1.152667272727271,0.012415910995670977,0.018227611688311662,2.9618702164502118,-1.210927835497834,3.0682977056277014
0.3075812077922073,-1.156872943722942,0.006860562077922069,0.01325999077922076,2.965643203463199,-1.2100927272727255,3.068237186147182
0.30498374458874417,-1.161082943722942,0.001320611428571427,0.008287106580086568,2.969238917748913,-1.2082638961038943,3.0681713852813806
0.3022139740259736,-1.165281125541124,-0.004183594199134192,0.0033328215151515106,2.9726590476190435,-1.2047498701298682,3.0680988744588698
0.29926042424242383,-1.1694551082251063,-0.00962592017316016,-0.0016153458008657988,2.9759138095238056,-1.1995493506493489,3.068026017316013
0.29614232034631993,-1.173602207792206,-0.014988795064935043,-0.0065674235064934975,2.97899519480519,-1.193123246753245,3.067953549783545
0.29287263203463165,-1.177714415584414,-0.020262023203463174,-0.011479107705627689,2.9818709956709912,-1.1858938961038945,3.067885411255407
0.28950316450216407,-1.1818174458874442,-0.025444356969696935,-0.016337091125541103,2.9845158441558395,-1.1783712121212104,3.0678160606060563
0.2861558528138525,-1.1859288311688294,-0.030552340909090866,-0.02114682359307356,2.98692887445887,-1.1718596969696953,3.067748268398264
0.282896939393939,-1.1900737662337644,-0.03559710909090904,-0.02594689255411252,2.9891029870129824,-1.1684046753246737,3.067684242424238
0.27972026406926365,-1.1942406060606043,-0.04054888138528132,-0.030719043290043248,2.991042337662333,-1.1682863203463187,3.067629480519476
0.27659496103896064,-1.1984140692640675,-0.045355763636363566,-0.03545089090909086,2.99275939393939,-1.17149818181818,3.0675886147186104
0.2734799437229434,-1.2025654545454527,-0.04994693246753239,-0.04012798311688306,2.994270303030299,-1.177644415584414,3.067570606060601
0.2703531471861468,-1.2066876190476172,-0.054281150216450136,-0.04476856363636357,2.9955954978354935,-1.185956969696968,3.067576493506489
0.26722099134199095,-1.2107846753246734,-0.058321383549783466,-0.04938528441558434,2.996747662337658,-1.1955325108225092,3.067609350649346
0.2641110129870126,-1.2148467965367948,-0.06198928831168822,-0.05395634761904754,2.997727575757571,-1.2051277056277039,3.0676613419913377
0.26104592640692603,-1.2188746320346302,-0.06524268138528129,-0.05848829913419905,2.9985463636363594,-1.213422900432899,3.0677264069264023
0.25804216883116843,-1.2228814285714267,-0.06810306277056266,-0.06301593160173151,2.9992248051948005,-1.2205788311688295,3.0677950216450176
0.2551083116883113,-1.2269033766233748,-0.07070730822510812,-0.06762264588744579,2.999779913419909,-1.2267689610389594,3.0678537662337617
0.25224046753246715,-1.2309020779220758,-0.07296470779220768,-0.07227722510822501,3.0002316017315973,-1.2321612554112535,3.067903246753242
0.24944719480519445,-1.2349574891774875,-0.07495447619047607,-0.07694262943722932,3.0005865800865754,-1.2368355411255392,3.0679319047619007
0.24671063203463167,-1.2388770562770546,-0.07537234025974014,-0.08166898268398257,3.000902380952377,-1.2409804329004313,3.0679614718614676
0.24268810389610357,-1.2423827705627688,-0.0738055722943722,-0.08678494285714274,3.001257835497831,-1.244485238095236,3.0680387445887405
0.2395285151515148,-1.2457325974025957,-0.06975110735930726,-0.0917834688311687,3.0015627705627663,-1.2478763636363617,3.0681559740259696
0.23881060606060572,-1.2491999999999983,-0.06350664372294362,-0.09626482337662323,3.0017215151515106,-1.251513852813851,3.068216969696965
0.24122012121212089,-1.2529998701298684,-0.055925546753246666,-0.10006859567099552,3.001687359307355,-1.2555620779220762,3.0681650216450174
0.2467327099567096,-1.2572703463203445,-0.04819623463203457,-0.10328252121212106,3.001459653679649,-1.2600725541125524,3.0679727272727226
0.25470747619047585,-1.261995670995669,-0.04136210995670989,-0.10607471082251066,3.001067402597398,-1.2650005194805174,3.067647229437225
0.2639472207792204,-1.2671192640692621,-0.036194487445887394,-0.10870205064935048,3.0005705194805152,-1.270178008658007,3.067219610389606
