Afshin1997/kuka_rl_ros2/src/catch_and_throw/output_files/tm/idealpd_2/tm_received_joint_target_np.csv
joint_0,joint_1,joint_2,joint_3,joint_4,joint_5,joint_6
9.168892502784729004e-01,-1.308598965406417847e-01,1.430603384971618652e+00,1.359465599060058594e+00,1.807991147041320801e+00,-1.117484688758850098e+00,1.540215015411376953e+00
9.170217514038085938e-01,-1.309178471565246582e-01,1.430785059928894043e+00,1.361669421195983887e+00,1.808413863182067871e+00,-1.117660403251647949e+00,1.416320800781250000e+00
9.170176386833190918e-01,-1.309166252613067627e-01,1.430801033973693848e+00,1.361784696578979492e+00,1.808448791503906250e+00,-1.117637276649475098e+00,1.395997047424316406e+00
9.170109033584594727e-01,-1.309148073196411133e-01,1.430799961090087891e+00,1.361767053604125977e+00,1.808451771736145020e+00,-1.117630362510681152e+00,1.394657492637634277e+00
9.170065522193908691e-01,-1.309136003255844116e-01,1.430805087089538574e+00,1.361665964126586914e+00,1.808445096015930176e+00,-1.117632865905761719e+00,1.394876718521118164e+00
9.170042276382446289e-01,-1.309113502502441406e-01,1.430819630622863770e+00,1.361479640007019043e+00,1.808432221412658691e+00,-1.117639303207397461e+00,1.395420312881469727e+00
9.170060157775878906e-01,-1.309096068143844604e-01,1.430841803550720215e+00,1.361194610595703125e+00,1.808415412902832031e+00,-1.117649078369140625e+00,1.396260976791381836e+00
9.170067906379699707e-01,-1.309063434600830078e-01,1.430860996246337891e+00,1.360886693000793457e+00,1.808397293090820312e+00,-1.117654561996459961e+00,1.397189855575561523e+00
9.170051217079162598e-01,-1.309000849723815918e-01,1.430877685546875000e+00,1.360562205314636230e+00,1.808375716209411621e+00,-1.117654919624328613e+00,1.398166894912719727e+00
9.170001149177551270e-01,-1.308902055025100708e-01,1.430891871452331543e+00,1.360228657722473145e+00,1.808350086212158203e+00,-1.117650151252746582e+00,1.399150252342224121e+00
9.169945716857910156e-01,-1.308805793523788452e-01,1.430903077125549316e+00,1.359874725341796875e+00,1.808326125144958496e+00,-1.117643237113952637e+00,1.400193929672241211e+00
9.169896841049194336e-01,-1.308714002370834351e-01,1.430914044380187988e+00,1.359444737434387207e+00,1.808302402496337891e+00,-1.117635488510131836e+00,1.401432514190673828e+00
9.148107767105102539e-01,-1.316823512315750122e-01,1.451380848884582520e+00,1.378891110420227051e+00,1.820870995521545410e+00,-1.142204165458679199e+00,1.402654767036437988e+00
9.143460988998413086e-01,-1.325379163026809692e-01,1.456403017044067383e+00,1.383208036422729492e+00,1.824260830879211426e+00,-1.148627281188964844e+00,1.447264075279235840e+00
9.139446020126342773e-01,-1.335496902465820312e-01,1.461857438087463379e+00,1.387300491333007812e+00,1.828017711639404297e+00,-1.155839204788208008e+00,1.723213911056518555e+00
9.136281609535217285e-01,-1.346629559993743896e-01,1.467672944068908691e+00,1.385558009147644043e+00,1.831997156143188477e+00,-1.163749098777770996e+00,1.768401980400085449e+00
9.133796691894531250e-01,-1.359018683433532715e-01,1.473759889602661133e+00,1.383349180221557617e+00,1.836514949798583984e+00,-1.172239184379577637e+00,1.760904192924499512e+00
9.132242798805236816e-01,-1.373242139816284180e-01,1.480114698410034180e+00,1.372324585914611816e+00,1.841442108154296875e+00,-1.181457400321960449e+00,1.751367330551147461e+00
9.132922291755676270e-01,-1.388980001211166382e-01,1.486861228942871094e+00,1.171095609664916992e+00,1.846704244613647461e+00,-1.191225647926330566e+00,1.741499662399291992e+00
9.136347770690917969e-01,-1.405676901340484619e-01,1.493884325027465820e+00,1.116023063659667969e+00,1.852200031280517578e+00,-1.201634287834167480e+00,1.731871485710144043e+00
9.140395522117614746e-01,-1.424494683742523193e-01,1.501023888587951660e+00,1.121132969856262207e+00,1.858102917671203613e+00,-1.212330460548400879e+00,1.722531557083129883e+00
9.146469831466674805e-01,-1.445914804935455322e-01,1.508381366729736328e+00,1.128428697586059570e+00,1.864376902580261230e+00,-1.223666429519653320e+00,1.714198350906372070e+00
9.154477119445800781e-01,-1.468686759471893311e-01,1.515822410583496094e+00,1.136306524276733398e+00,1.870998501777648926e+00,-1.235139966011047363e+00,1.707204103469848633e+00
9.164619445800781250e-01,-1.493173241615295410e-01,1.523354768753051758e+00,1.144406437873840332e+00,1.877870440483093262e+00,-1.247227907180786133e+00,1.701866865158081055e+00
9.178025722503662109e-01,-1.519540548324584961e-01,1.531081199645996094e+00,1.152385950088500977e+00,1.885073423385620117e+00,-1.259429931640625000e+00,1.698146700859069824e+00
9.193734526634216309e-01,-1.547145992517471313e-01,1.538845658302307129e+00,1.160388946533203125e+00,1.892447948455810547e+00,-1.272091746330261230e+00,1.695951819419860840e+00
9.212327599525451660e-01,-1.577150225639343262e-01,1.546651244163513184e+00,1.168197631835937500e+00,1.900073289871215820e+00,-1.285027623176574707e+00,1.695150613784790039e+00
9.233974218368530273e-01,-1.610088199377059937e-01,1.554503798484802246e+00,1.175601363182067871e+00,1.907873272895812988e+00,-1.298057556152343750e+00,1.695605278015136719e+00
9.258100986480712891e-01,-1.646089553833007812e-01,1.562307238578796387e+00,1.182516098022460938e+00,1.915881395339965820e+00,-1.311540365219116211e+00,1.697190523147583008e+00
9.285348653793334961e-01,-1.684235334396362305e-01,1.570103406906127930e+00,1.188484430313110352e+00,1.924087047576904297e+00,-1.325017690658569336e+00,1.699834585189819336e+00
9.315283894538879395e-01,-1.723113059997558594e-01,1.577842473983764648e+00,1.193805694580078125e+00,1.932356953620910645e+00,-1.338657140731811523e+00,1.703575968742370605e+00
9.349028468132019043e-01,-1.763824969530105591e-01,1.585661888122558594e+00,1.198559522628784180e+00,1.940838694572448730e+00,-1.352405071258544922e+00,1.708404779434204102e+00
9.387032985687255859e-01,-1.805897951126098633e-01,1.593609929084777832e+00,1.202537894248962402e+00,1.949439048767089844e+00,-1.366218447685241699e+00,1.714159488677978516e+00
9.428307414054870605e-01,-1.850076913833618164e-01,1.601513981819152832e+00,1.205979943275451660e+00,1.958104610443115234e+00,-1.380056142807006836e+00,1.720823645591735840e+00
9.472443461418151855e-01,-1.896338164806365967e-01,1.609311103820800781e+00,1.208943605422973633e+00,1.966920733451843262e+00,-1.393808364868164062e+00,1.728348135948181152e+00
9.518366456031799316e-01,-1.943030655384063721e-01,1.616885423660278320e+00,1.211452484130859375e+00,1.975741982460021973e+00,-1.407622575759887695e+00,1.736675739288330078e+00
9.568073749542236328e-01,-1.991664171218872070e-01,1.624589085578918457e+00,1.213260293006896973e+00,1.984669685363769531e+00,-1.421404957771301270e+00,1.745823621749877930e+00
9.622450470924377441e-01,-2.042147517204284668e-01,1.632596373558044434e+00,1.214257836341857910e+00,1.993685245513916016e+00,-1.435248017311096191e+00,1.755699992179870605e+00
9.678530097007751465e-01,-2.093305885791778564e-01,1.640468597412109375e+00,1.214762210845947266e+00,2.002721786499023438e+00,-1.449101209640502930e+00,1.766143083572387695e+00
9.734896421432495117e-01,-2.146029770374298096e-01,1.648002624511718750e+00,1.214754581451416016e+00,2.011837005615234375e+00,-1.462898135185241699e+00,1.777126908302307129e+00
9.792917370796203613e-01,-2.199927866458892822e-01,1.655572414398193359e+00,1.213997483253479004e+00,2.020996570587158203e+00,-1.476741790771484375e+00,1.788714528083801270e+00
9.854030013084411621e-01,-2.254791557788848877e-01,1.663443207740783691e+00,1.212328314781188965e+00,2.030260324478149414e+00,-1.490670919418334961e+00,1.800826311111450195e+00
9.915919303894042969e-01,-2.309856414794921875e-01,1.671201229095458984e+00,1.209980845451354980e+00,2.039555311203002930e+00,-1.504705071449279785e+00,1.813300013542175293e+00
9.977250695228576660e-01,-2.365171164274215698e-01,1.678704857826232910e+00,1.206998586654663086e+00,2.048914194107055664e+00,-1.518648505210876465e+00,1.826143145561218262e+00
1.004055976867675781e+00,-2.420926392078399658e-01,1.686455607414245605e+00,1.202893733978271484e+00,2.058340072631835938e+00,-1.532733559608459473e+00,1.839427709579467773e+00
1.010483741760253906e+00,-2.476943433284759521e-01,1.694188952445983887e+00,1.197958827018737793e+00,2.067842245101928711e+00,-1.546913981437683105e+00,1.853009343147277832e+00
1.016902208328247070e+00,-2.532325088977813721e-01,1.701646804809570312e+00,1.192290902137756348e+00,2.077390432357788086e+00,-1.561086297035217285e+00,1.866836547851562500e+00
1.023443102836608887e+00,-2.586230635643005371e-01,1.709162354469299316e+00,1.185797929763793945e+00,2.086904048919677734e+00,-1.575272679328918457e+00,1.880982518196105957e+00
1.030075550079345703e+00,-2.640004158020019531e-01,1.716446876525878906e+00,1.178807616233825684e+00,2.096515178680419922e+00,-1.589372634887695312e+00,1.895356416702270508e+00
1.036779522895812988e+00,-2.694226503372192383e-01,1.723241090774536133e+00,1.171354174613952637e+00,2.106187582015991211e+00,-1.603557944297790527e+00,1.909929871559143066e+00
1.043541669845581055e+00,-2.746282219886779785e-01,1.728925466537475586e+00,1.163377881050109863e+00,2.115875959396362305e+00,-1.617556095123291016e+00,1.924627542495727539e+00
1.050351381301879883e+00,-2.797459363937377930e-01,1.731746554374694824e+00,1.155163526535034180e+00,2.125633239746093750e+00,-1.631432890892028809e+00,1.939503788948059082e+00
1.057261824607849121e+00,-2.850129008293151855e-01,1.718824267387390137e+00,1.146856307983398438e+00,2.135400533676147461e+00,-1.645268440246582031e+00,1.954451084136962891e+00
1.064231514930725098e+00,-2.902889847755432129e-01,1.526379346847534180e+00,1.138189435005187988e+00,2.145257711410522461e+00,-1.658779978752136230e+00,1.969395399093627930e+00
1.070563316345214844e+00,-2.954028844833374023e-01,1.520687818527221680e+00,1.128838539123535156e+00,2.154796123504638672e+00,-1.668621778488159180e+00,1.984675049781799316e+00
1.077337026596069336e+00,-3.006735146045684814e-01,1.528135538101196289e+00,1.120029091835021973e+00,2.164652347564697266e+00,-1.680233597755432129e+00,1.999626159667968750e+00
1.084116339683532715e+00,-3.060600161552429199e-01,1.535929799079895020e+00,1.111020326614379883e+00,2.174624204635620117e+00,-1.691668033599853516e+00,2.014574289321899414e+00
1.090606689453125000e+00,-3.113424777984619141e-01,1.543377876281738281e+00,1.101967811584472656e+00,2.184614896774291992e+00,-1.700681567192077637e+00,2.029419660568237305e+00
1.096753239631652832e+00,-3.165953755378723145e-01,1.550604820251464844e+00,1.092723608016967773e+00,2.194682598114013672e+00,-1.705635190010070801e+00,2.044287443161010742e+00
1.102299451828002930e+00,-3.218910992145538330e-01,1.557551741600036621e+00,1.083453536033630371e+00,2.204780817031860352e+00,-1.699331879615783691e+00,2.059172868728637695e+00
1.106924295425415039e+00,-3.270803093910217285e-01,1.563854575157165527e+00,1.074556946754455566e+00,2.214923143386840820e+00,-1.522602081298828125e+00,2.074007749557495117e+00
1.112604379653930664e+00,-3.321441411972045898e-01,1.569564223289489746e+00,1.069356560707092285e+00,2.224664449691772461e+00,-1.347230195999145508e+00,2.089169502258300781e+00
1.116559624671936035e+00,-3.369686901569366455e-01,1.574453115463256836e+00,1.089098334312438965e+00,2.234327316284179688e+00,-1.351585626602172852e+00,2.104323863983154297e+00
9.562540650367736816e-01,-3.412572145462036133e-01,1.578241586685180664e+00,1.317479014396667480e+00,2.244806766510009766e+00,-1.364405155181884766e+00,2.119111299514770508e+00
9.028239250183105469e-01,-1.344116628170013428e-01,1.580607771873474121e+00,1.338203907012939453e+00,2.256773948669433594e+00,-1.376589655876159668e+00,2.133302211761474609e+00
9.098711013793945312e-01,-1.078444048762321472e-01,1.581987977027893066e+00,1.325743675231933594e+00,2.268310785293579102e+00,-1.388991713523864746e+00,2.147927999496459961e+00
9.175009131431579590e-01,-1.115385219454765320e-01,1.582343339920043945e+00,1.316382527351379395e+00,2.278985023498535156e+00,-1.401543140411376953e+00,2.162672758102416992e+00
9.252396225929260254e-01,-1.151998192071914673e-01,1.581646919250488281e+00,1.306779623031616211e+00,2.289643287658691406e+00,-1.413118720054626465e+00,2.177373409271240234e+00
9.329936504364013672e-01,-1.186001077294349670e-01,1.579888463020324707e+00,1.296886563301086426e+00,2.300278663635253906e+00,-1.423160314559936523e+00,2.192043066024780273e+00
9.406396746635437012e-01,-1.217834949493408203e-01,1.577097177505493164e+00,1.286980152130126953e+00,2.310966730117797852e+00,-1.431408405303955078e+00,2.206710100173950195e+00
9.481208324432373047e-01,-1.247810497879981995e-01,1.573294758796691895e+00,1.277163982391357422e+00,2.321632623672485352e+00,-1.437832713127136230e+00,2.221363544464111328e+00
9.554927349090576172e-01,-1.276174783706665039e-01,1.568761348724365234e+00,1.267868638038635254e+00,2.332288265228271484e+00,-1.442551851272583008e+00,2.236047744750976562e+00
9.627138376235961914e-01,-1.302884519100189209e-01,1.563627481460571289e+00,1.259156942367553711e+00,2.342994928359985352e+00,-1.445471405982971191e+00,2.250706672668457031e+00
9.695909023284912109e-01,-1.327881067991256714e-01,1.557752370834350586e+00,1.251388311386108398e+00,2.353732824325561523e+00,-1.446697354316711426e+00,2.265288114547729492e+00
9.760981798171997070e-01,-1.351961642503738403e-01,1.551223397254943848e+00,1.244662046432495117e+00,2.364513635635375977e+00,-1.446518301963806152e+00,2.279833793640136719e+00
9.822353720664978027e-01,-1.375730931758880615e-01,1.544218182563781738e+00,1.239047288894653320e+00,2.375264644622802734e+00,-1.445152997970581055e+00,2.294325113296508789e+00
9.880038499832153320e-01,-1.399544477462768555e-01,1.536795616149902344e+00,1.234799146652221680e+00,2.386021614074707031e+00,-1.442594766616821289e+00,2.308728694915771484e+00
9.933663010597229004e-01,-1.423166543245315552e-01,1.529045939445495605e+00,1.232032060623168945e+00,2.396737098693847656e+00,-1.438954830169677734e+00,2.322995424270629883e+00
9.982302188873291016e-01,-1.445267647504806519e-01,1.521079063415527344e+00,1.230457305908203125e+00,2.407454490661621094e+00,-1.434167742729187012e+00,2.337102890014648438e+00
1.002448916435241699e+00,-1.465095281600952148e-01,1.512809991836547852e+00,1.229961752891540527e+00,2.418198347091674805e+00,-1.428365588188171387e+00,2.351021289825439453e+00
1.006141424179077148e+00,-1.485020220279693604e-01,1.504451751708984375e+00,1.230428934097290039e+00,2.428849935531616211e+00,-1.421717643737792969e+00,2.364871740341186523e+00
1.009485840797424316e+00,-1.504648625850677490e-01,1.496216297149658203e+00,1.231809020042419434e+00,2.439427852630615234e+00,-1.414219141006469727e+00,2.378681659698486328e+00
1.012352585792541504e+00,-1.521713733673095703e-01,1.487919807434082031e+00,1.234465122222900391e+00,2.449872970581054688e+00,-1.405943512916564941e+00,2.392286062240600586e+00
1.014707565307617188e+00,-1.537602990865707397e-01,1.479454159736633301e+00,1.238201975822448730e+00,2.460239887237548828e+00,-1.396715879440307617e+00,2.405644655227661133e+00
1.016523838043212891e+00,-1.552225500345230103e-01,1.470753073692321777e+00,1.242708802223205566e+00,2.470520257949829102e+00,-1.386794090270996094e+00,2.418744802474975586e+00
1.018001794815063477e+00,-1.567529439926147461e-01,1.462098598480224609e+00,1.247709393501281738e+00,2.480441570281982422e+00,-1.376208782196044922e+00,2.431854486465454102e+00
1.019280433654785156e+00,-1.582571268081665039e-01,1.453564167022705078e+00,1.253321647644042969e+00,2.489729166030883789e+00,-1.365287542343139648e+00,2.444918394088745117e+00
1.020349621772766113e+00,-1.597426682710647583e-01,1.444995164871215820e+00,1.259745121002197266e+00,2.498108863830566406e+00,-1.353746294975280762e+00,2.457664489746093750e+00
1.021217584609985352e+00,-1.611789911985397339e-01,1.436307787895202637e+00,1.266941905021667480e+00,2.504208803176879883e+00,-1.342105627059936523e+00,2.470140218734741211e+00
1.021915555000305176e+00,-1.627802699804306030e-01,1.427502155303955078e+00,1.274781465530395508e+00,2.504117965698242188e+00,-1.329755783081054688e+00,2.482307434082031250e+00
1.022464871406555176e+00,-1.644650697708129883e-01,1.418585062026977539e+00,1.283140420913696289e+00,2.411965847015380859e+00,-1.317497849464416504e+00,2.494066476821899414e+00
1.022864699363708496e+00,-1.662348359823226929e-01,1.409426808357238770e+00,1.290607333183288574e+00,2.217678070068359375e+00,-1.304867982864379883e+00,2.502534866333007812e+00
1.023226499557495117e+00,-1.680835783481597900e-01,1.400255203247070312e+00,1.290008306503295898e+00,2.222822666168212891e+00,-1.292311191558837891e+00,2.502702474594116211e+00
1.023517966270446777e+00,-1.699663102626800537e-01,1.391216635704040527e+00,1.294690489768981934e+00,2.234092235565185547e+00,-1.279113411903381348e+00,2.501629829406738281e+00
1.023741602897644043e+00,-1.718898713588714600e-01,1.382192134857177734e+00,1.298820972442626953e+00,2.245306253433227539e+00,-1.265502691268920898e+00,2.479353427886962891e+00
1.023846864700317383e+00,-1.738043725490570068e-01,1.373113989830017090e+00,1.305007457733154297e+00,2.256479024887084961e+00,-1.251419067382812500e+00,2.229654073715209961e+00
1.023819446563720703e+00,-1.757646501064300537e-01,1.364076733589172363e+00,1.305106520652770996e+00,2.267506599426269531e+00,-1.236874222755432129e+00,2.156360864639282227e+00
1.023759007453918457e+00,-1.777045428752899170e-01,1.354988932609558105e+00,1.264039158821105957e+00,2.277833938598632812e+00,-1.222258448600769043e+00,2.166380882263183594e+00
1.023733258247375488e+00,-1.796230077743530273e-01,1.345945000648498535e+00,1.079689860343933105e+00,2.287351369857788086e+00,-1.208037853240966797e+00,2.179173469543457031e+00
1.023864269256591797e+00,-1.815229654312133789e-01,1.337033629417419434e+00,1.068013191223144531e+00,2.295940876007080078e+00,-1.194073319435119629e+00,2.192312717437744141e+00
1.023800015449523926e+00,-1.832991838455200195e-01,1.328103184700012207e+00,1.077925205230712891e+00,2.303882837295532227e+00,-1.180230975151062012e+00,2.204581260681152344e+00
1.023600697517395020e+00,-1.849903464317321777e-01,1.319169282913208008e+00,1.088418126106262207e+00,2.311057090759277344e+00,-1.166362047195434570e+00,2.215963125228881836e+00
1.023224830627441406e+00,-1.865737587213516235e-01,1.310242891311645508e+00,1.098398566246032715e+00,2.317471027374267578e+00,-1.152468562126159668e+00,2.226080656051635742e+00
1.022721171379089355e+00,-1.880992650985717773e-01,1.301382780075073242e+00,1.107513785362243652e+00,2.323096036911010742e+00,-1.138845682144165039e+00,2.234550476074218750e+00
1.022161960601806641e+00,-1.895636767148971558e-01,1.292583584785461426e+00,1.115803360939025879e+00,2.328034400939941406e+00,-1.125737667083740234e+00,2.241126775741577148e+00
1.021591544151306152e+00,-1.909891068935394287e-01,1.283895611763000488e+00,1.123591661453247070e+00,2.332155227661132812e+00,-1.114012956619262695e+00,2.245725154876708984e+00
1.020977020263671875e+00,-1.922864317893981934e-01,1.275239825248718262e+00,1.130897760391235352e+00,2.335613727569580078e+00,-1.103096008300781250e+00,2.248448371887207031e+00
1.020285129547119141e+00,-1.934250444173812866e-01,1.266715645790100098e+00,1.137356400489807129e+00,2.338339805603027344e+00,-1.094610929489135742e+00,2.249418020248413086e+00
1.019435167312622070e+00,-1.943269968032836914e-01,1.258249044418334961e+00,1.143137574195861816e+00,2.340395212173461914e+00,-1.090110778808593750e+00,2.248770952224731445e+00
1.018487572669982910e+00,-1.950148195028305054e-01,1.249905943870544434e+00,1.148014783859252930e+00,2.341817140579223633e+00,-1.101863741874694824e+00,2.246697187423706055e+00
1.017420649528503418e+00,-1.954928040504455566e-01,1.241711616516113281e+00,1.152339816093444824e+00,2.342560291290283203e+00,-1.338840007781982422e+00,2.243212223052978516e+00
1.016148090362548828e+00,-1.957775801420211792e-01,1.233437657356262207e+00,1.155843496322631836e+00,2.342846870422363281e+00,-1.440270781517028809e+00,2.237652778625488281e+00
1.014860749244689941e+00,-1.959309279918670654e-01,1.225355386734008789e+00,1.158989906311035156e+00,2.342488527297973633e+00,-1.430957674980163574e+00,2.231466770172119141e+00
1.013411283493041992e+00,-1.958647668361663818e-01,1.217389941215515137e+00,1.161706328392028809e+00,2.341569900512695312e+00,-1.416963338851928711e+00,2.224471807479858398e+00
1.011768341064453125e+00,-1.956343352794647217e-01,1.209506273269653320e+00,1.163686633110046387e+00,2.340348243713378906e+00,-1.402554392814636230e+00,2.216420888900756836e+00
1.009873390197753906e+00,-1.951537728309631348e-01,1.201652288436889648e+00,1.165050745010375977e+00,2.338996410369873047e+00,-1.387926578521728516e+00,2.207342147827148438e+00
1.007739424705505371e+00,-1.944485455751419067e-01,1.193869471549987793e+00,1.165728569030761719e+00,2.337607622146606445e+00,-1.373235225677490234e+00,2.197341918945312500e+00
1.005391716957092285e+00,-1.935238987207412720e-01,1.186262369155883789e+00,1.165702104568481445e+00,2.336193561553955078e+00,-1.358971595764160156e+00,2.186501741409301758e+00
1.002761721611022949e+00,-1.922796368598937988e-01,1.178729295730590820e+00,1.165070772171020508e+00,2.334686040878295898e+00,-1.345912098884582520e+00,2.174879074096679688e+00
9.998638629913330078e-01,-1.908003985881805420e-01,1.171319723129272461e+00,1.163722515106201172e+00,2.333000898361206055e+00,-1.334584236145019531e+00,2.162632226943969727e+00
9.967227578163146973e-01,-1.890776455402374268e-01,1.163955330848693848e+00,1.161710977554321289e+00,2.331105947494506836e+00,-1.325105071067810059e+00,2.149907350540161133e+00
9.933660030364990234e-01,-1.871609240770339966e-01,1.156567573547363281e+00,1.159047484397888184e+00,2.329006195068359375e+00,-1.317410945892333984e+00,2.136783123016357422e+00
9.898548126220703125e-01,-1.851506233215332031e-01,1.149171233177185059e+00,1.155719518661499023e+00,2.326714038848876953e+00,-1.311405897140502930e+00,2.123318672180175781e+00
9.861739873886108398e-01,-1.829979717731475830e-01,1.141598105430603027e+00,1.151956200599670410e+00,2.324324846267700195e+00,-1.307001948356628418e+00,2.109548330307006836e+00
9.823142886161804199e-01,-1.808284670114517212e-01,1.133997082710266113e+00,1.147964835166931152e+00,2.321739912033081055e+00,-1.304252028465270996e+00,2.095511198043823242e+00
9.784634113311767578e-01,-1.785783767700195312e-01,1.126515626907348633e+00,1.143474340438842773e+00,2.319028615951538086e+00,-1.303107738494873047e+00,2.081209182739257812e+00
9.745708107948303223e-01,-1.761328876018524170e-01,1.119112610816955566e+00,1.138739347457885742e+00,2.316164016723632812e+00,-1.303250670433044434e+00,2.066614627838134766e+00
9.705556035041809082e-01,-1.735164821147918701e-01,1.111681222915649414e+00,1.133920073509216309e+00,2.313148736953735352e+00,-1.304436683654785156e+00,2.051742553710937500e+00
9.663258790969848633e-01,-1.706839501857757568e-01,1.104012250900268555e+00,1.128908395767211914e+00,2.310030221939086914e+00,-1.306526422500610352e+00,2.036850214004516602e+00
9.618186354637145996e-01,-1.677613258361816406e-01,1.096337199211120605e+00,1.123272299766540527e+00,2.306765556335449219e+00,-1.309731245040893555e+00,2.021974325180053711e+00
9.571127891540527344e-01,-1.648326516151428223e-01,1.088934183120727539e+00,1.117194414138793945e+00,2.303340673446655273e+00,-1.314225316047668457e+00,2.007136106491088867e+00
9.523181915283203125e-01,-1.618224978446960449e-01,1.081572175025939941e+00,1.110931873321533203e+00,2.299793004989624023e+00,-1.319674611091613770e+00,1.992281556129455566e+00
9.473543167114257812e-01,-1.587499082088470459e-01,1.074028730392456055e+00,1.104373216629028320e+00,2.296117067337036133e+00,-1.325804948806762695e+00,1.977400779724121094e+00
9.421058893203735352e-01,-1.556601822376251221e-01,1.066230297088623047e+00,1.097434639930725098e+00,2.292366266250610352e+00,-1.332628250122070312e+00,1.962521672248840332e+00
9.366297125816345215e-01,-1.526053547859191895e-01,1.058354973793029785e+00,1.089778423309326172e+00,2.288513660430908203e+00,-1.340028047561645508e+00,1.947675704956054688e+00
9.310476779937744141e-01,-1.495960950851440430e-01,1.050724267959594727e+00,1.081202387809753418e+00,2.284515380859375000e+00,-1.348244071006774902e+00,1.932895183563232422e+00
9.254807829856872559e-01,-1.464592814445495605e-01,1.043157696723937988e+00,1.072592496871948242e+00,2.280389785766601562e+00,-1.356608510017395020e+00,1.918099045753479004e+00
9.199246168136596680e-01,-1.432151794433593750e-01,1.035499453544616699e+00,1.063952207565307617e+00,2.276158094406127930e+00,-1.364855170249938965e+00,1.903273224830627441e+00
9.142799377441406250e-01,-1.401832848787307739e-01,1.027853131294250488e+00,1.054942131042480469e+00,2.271843671798706055e+00,-1.373500943183898926e+00,1.888477206230163574e+00
9.086195826530456543e-01,-1.371660679578781128e-01,1.020190834999084473e+00,1.045822620391845703e+00,2.267405748367309570e+00,-1.382127165794372559e+00,1.873671531677246094e+00
9.029019474983215332e-01,-1.342969685792922974e-01,1.012477993965148926e+00,1.036394715309143066e+00,2.262926101684570312e+00,-1.390994429588317871e+00,1.858878135681152344e+00
8.970924019813537598e-01,-1.321549117565155029e-01,1.004766464233398438e+00,1.026678919792175293e+00,2.258346796035766602e+00,-1.400006175041198730e+00,1.844109296798706055e+00
8.912636637687683105e-01,-1.328775137662887573e-01,9.972789287567138672e-01,1.016468048095703125e+00,2.253704309463500977e+00,-1.409558057785034180e+00,1.829409956932067871e+00
8.854877948760986328e-01,-1.474583148956298828e-01,9.898560047149658203e-01,1.006299257278442383e+00,2.248925447463989258e+00,-1.419142484664916992e+00,1.814661979675292969e+00
8.796830177307128906e-01,-3.296364247798919678e-01,9.822652339935302734e-01,9.961068630218505859e-01,2.244045019149780273e+00,-1.428672432899475098e+00,1.799887299537658691e+00
8.742003440856933594e-01,-3.564299643039703369e-01,9.748344421386718750e-01,9.863759279251098633e-01,2.238246440887451172e+00,-1.439123511314392090e+00,1.785248637199401855e+00
8.682568073272705078e-01,-3.536182343959808350e-01,9.673423767089843750e-01,9.755508303642272949e-01,2.233160257339477539e+00,-1.449401617050170898e+00,1.770588397979736328e+00
8.621527552604675293e-01,-3.502272963523864746e-01,9.597604274749755859e-01,9.646494984626770020e-01,2.228076457977294922e+00,-1.459417223930358887e+00,1.755844831466674805e+00
8.558967113494873047e-01,-3.468276560306549072e-01,9.523171782493591309e-01,9.535530805587768555e-01,2.223020076751708984e+00,-1.470112919807434082e+00,1.741170644760131836e+00
8.496829867362976074e-01,-3.433874845504760742e-01,9.449319839477539062e-01,9.425257444381713867e-01,2.217896461486816406e+00,-1.480711340904235840e+00,1.726455330848693848e+00
8.433922529220581055e-01,-3.399347960948944092e-01,9.374576807022094727e-01,9.316405057907104492e-01,2.212835550308227539e+00,-1.491243839263916016e+00,1.711744427680969238e+00
8.370158672332763672e-01,-3.365742862224578857e-01,9.299494028091430664e-01,9.207919239997863770e-01,2.207822799682617188e+00,-1.501768589019775391e+00,1.697006702423095703e+00
8.305648565292358398e-01,-3.332186043262481689e-01,9.225221872329711914e-01,9.096816778182983398e-01,2.203093051910400391e+00,-1.512542724609375000e+00,1.682349443435668945e+00
8.241008520126342773e-01,-3.297978043556213379e-01,9.151819944381713867e-01,8.985538482666015625e-01,2.198718309402465820e+00,-1.523622512817382812e+00,1.667711973190307617e+00
8.176737427711486816e-01,-3.264451920986175537e-01,9.078837633132934570e-01,8.876756429672241211e-01,2.194856405258178711e+00,-1.534087061882019043e+00,1.653015375137329102e+00
8.111615777015686035e-01,-3.231961429119110107e-01,9.006290435791015625e-01,8.767327666282653809e-01,2.192067623138427734e+00,-1.544190049171447754e+00,1.638396739959716797e+00
8.046190738677978516e-01,-3.200853466987609863e-01,8.932815790176391602e-01,8.660736680030822754e-01,2.192472219467163086e+00,-1.553026437759399414e+00,1.623660922050476074e+00
7.979540824890136719e-01,-3.171141445636749268e-01,8.858794569969177246e-01,8.554111123085021973e-01,2.203932046890258789e+00,-1.559673786163330078e+00,1.609030365943908691e+00
7.912302613258361816e-01,-3.142594695091247559e-01,8.786357045173645020e-01,8.446712493896484375e-01,2.433114290237426758e+00,-1.564822196960449219e+00,1.594466209411621094e+00
7.843464612960815430e-01,-3.113766610622406006e-01,8.715870976448059082e-01,8.419669866561889648e-01,2.496474742889404297e+00,-1.510803699493408203e+00,1.580049395561218262e+00
7.775678038597106934e-01,-3.086236119270324707e-01,8.643787503242492676e-01,8.518708944320678711e-01,2.491545677185058594e+00,-1.226159334182739258e+00,1.566288709640502930e+00
7.709714174270629883e-01,-3.061778545379638672e-01,8.573334217071533203e-01,1.093642234802246094e+00,2.485570907592773438e+00,-1.206943273544311523e+00,1.555772304534912109e+00
7.637231349945068359e-01,-3.036496043205261230e-01,8.498531579971313477e-01,1.111494660377502441e+00,2.480552673339843750e+00,-1.218198060989379883e+00,1.542485952377319336e+00
7.568501234054565430e-01,-3.014189302921295166e-01,8.424693942070007324e-01,1.101795911788940430e+00,2.475584745407104492e+00,-1.229921579360961914e+00,1.528785943984985352e+00
7.501078844070434570e-01,-2.994347214698791504e-01,8.353356122970581055e-01,1.091097593307495117e+00,2.471180438995361328e+00,-1.241421818733215332e+00,1.515362143516540527e+00
7.434253096580505371e-01,-2.975335121154785156e-01,8.281878829002380371e-01,1.080464243888854980e+00,2.467289447784423828e+00,-1.251759648323059082e+00,1.501796722412109375e+00
7.367746829986572266e-01,-2.957787513732910156e-01,8.210266232490539551e-01,1.069923162460327148e+00,2.464000701904296875e+00,-1.260536789894104004e+00,1.488460779190063477e+00
7.302592992782592773e-01,-2.942540049552917480e-01,8.140934109687805176e-01,1.059176445007324219e+00,2.461198091506958008e+00,-1.267938494682312012e+00,1.475492596626281738e+00
7.238258123397827148e-01,-2.928573489189147949e-01,8.071022629737854004e-01,1.048474311828613281e+00,2.458920955657958984e+00,-1.273437619209289551e+00,1.462508440017700195e+00
7.174442410469055176e-01,-2.916800379753112793e-01,8.001092076301574707e-01,1.037706375122070312e+00,2.457125902175903320e+00,-1.277445435523986816e+00,1.449998974800109863e+00
7.112288475036621094e-01,-2.907866239547729492e-01,7.933753132820129395e-01,1.027188420295715332e+00,2.455791950225830078e+00,-1.280071020126342773e+00,1.437760829925537109e+00
7.050905823707580566e-01,-2.900882065296173096e-01,7.866020202636718750e-01,1.017721652984619141e+00,2.454911470413208008e+00,-1.281338572502136230e+00,1.424197793006896973e+00
6.990108489990234375e-01,-2.896121740341186523e-01,7.798384428024291992e-01,1.009251594543457031e+00,2.454497575759887695e+00,-1.281185388565063477e+00,1.410613894462585449e+00
6.930126547813415527e-01,-2.891925573348999023e-01,7.732993960380554199e-01,1.001682639122009277e+00,2.454586029052734375e+00,-1.280111908912658691e+00,1.397282361984252930e+00
6.870007514953613281e-01,-2.885512113571166992e-01,7.666675448417663574e-01,9.952649474143981934e-01,2.455066204071044922e+00,-1.277881026268005371e+00,1.382633328437805176e+00
6.809353232383728027e-01,-2.877269685268402100e-01,7.600612044334411621e-01,9.900990128517150879e-01,2.456024885177612305e+00,-1.274648070335388184e+00,1.368078351020812988e+00
6.748651862144470215e-01,-2.867133319377899170e-01,7.536474466323852539e-01,9.863806962966918945e-01,2.457384824752807617e+00,-1.270666003227233887e+00,1.353284716606140137e+00
6.686773300170898438e-01,-2.854252457618713379e-01,7.470818758010864258e-01,9.844298362731933594e-01,2.459107160568237305e+00,-1.265601277351379395e+00,1.337323784828186035e+00
6.623471379280090332e-01,-2.840088605880737305e-01,7.404930591583251953e-01,9.837501049041748047e-01,2.461281776428222656e+00,-1.259742856025695801e+00,1.322420597076416016e+00
6.558933854103088379e-01,-2.824966013431549072e-01,7.339553236961364746e-01,9.839825034141540527e-01,2.463922977447509766e+00,-1.253121972084045410e+00,1.308565378189086914e+00
6.491120457649230957e-01,-2.808057069778442383e-01,7.270620465278625488e-01,9.855059981346130371e-01,2.466915845870971680e+00,-1.245598077774047852e+00,1.293489336967468262e+00
6.420920491218566895e-01,-2.791756987571716309e-01,7.200537919998168945e-01,9.882501959800720215e-01,2.470376014709472656e+00,-1.237361907958984375e+00,1.279581546783447266e+00
6.349973678588867188e-01,-2.776249647140502930e-01,7.132070064544677734e-01,9.919102191925048828e-01,2.474261045455932617e+00,-1.228788137435913086e+00,1.266595363616943359e+00
6.277891993522644043e-01,-2.760041654109954834e-01,7.061541676521301270e-01,9.967132806777954102e-01,2.478493213653564453e+00,-1.219383358955383301e+00,1.252362608909606934e+00
6.204915642738342285e-01,-2.746191918849945068e-01,6.990962028503417969e-01,1.002459526062011719e+00,2.483168125152587891e+00,-1.209511637687683105e+00,1.240353703498840332e+00
6.132391691207885742e-01,-2.734632790088653564e-01,6.921420097351074219e-01,1.008955955505371094e+00,2.488220691680908203e+00,-1.199028968811035156e+00,1.230113983154296875e+00
6.059589385986328125e-01,-2.723952233791351318e-01,6.849609017372131348e-01,1.016137957572937012e+00,2.493564128875732422e+00,-1.188168644905090332e+00,1.219896674156188965e+00
5.987666249275207520e-01,-2.715921401977539062e-01,6.780095100402832031e-01,1.023937106132507324e+00,2.499308824539184570e+00,-1.176763653755187988e+00,1.215892434120178223e+00
5.917147397994995117e-01,-2.709737718105316162e-01,6.712753772735595703e-01,1.032409667968750000e+00,2.505272626876831055e+00,-1.165320038795471191e+00,1.221185922622680664e+00
5.849577188491821289e-01,-2.704390287399291992e-01,6.644988059997558594e-01,1.041487216949462891e+00,2.511533975601196289e+00,-1.153150439262390137e+00,1.282696008682250977e+00
5.783080458641052246e-01,-2.701698243618011475e-01,6.579563617706298828e-01,1.050909638404846191e+00,2.518016815185546875e+00,-1.140871882438659668e+00,1.511968970298767090e+00
5.720404982566833496e-01,-2.700153589248657227e-01,6.514254808425903320e-01,1.060334444046020508e+00,2.524641990661621094e+00,-1.128216266632080078e+00,1.530893206596374512e+00
5.659813880920410156e-01,-2.698854506015777588e-01,6.449890136718750000e-01,1.070261120796203613e+00,2.531600475311279297e+00,-1.115187287330627441e+00,1.517255067825317383e+00
5.599845051765441895e-01,-2.700288295745849609e-01,6.388682126998901367e-01,1.080380201339721680e+00,2.538886547088623047e+00,-1.102295875549316406e+00,1.502588272094726562e+00
5.543220043182373047e-01,-2.702404558658599854e-01,6.329024434089660645e-01,1.090836405754089355e+00,2.546296119689941406e+00,-1.089531064033508301e+00,1.487809658050537109e+00
5.493702888488769531e-01,-2.705558836460113525e-01,6.268512010574340820e-01,1.101408004760742188e+00,2.553832530975341797e+00,-1.076259613037109375e+00,1.473459601402282715e+00
5.443625450134277344e-01,-2.710733413696289062e-01,6.209443807601928711e-01,1.112186193466186523e+00,2.561552047729492188e+00,-1.063250422477722168e+00,1.460255384445190430e+00
5.400739312171936035e-01,-2.716258168220520020e-01,6.151531338691711426e-01,1.122975707054138184e+00,2.569369554519653320e+00,-1.050709843635559082e+00,1.448508977890014648e+00
5.371263623237609863e-01,-2.721501290798187256e-01,6.093515157699584961e-01,1.133909583091735840e+00,2.577246189117431641e+00,-1.038749694824218750e+00,1.438704252243041992e+00
5.358375310897827148e-01,-2.728662490844726562e-01,6.037089824676513672e-01,1.144879817962646484e+00,2.585222482681274414e+00,-1.027146220207214355e+00,1.431163549423217773e+00
5.405540466308593750e-01,-2.737203538417816162e-01,5.982490181922912598e-01,1.155907630920410156e+00,2.593261480331420898e+00,-1.017682433128356934e+00,1.425782203674316406e+00
7.185570597648620605e-01,-2.746408581733703613e-01,5.928480029106140137e-01,1.166918158531188965e+00,2.601346969604492188e+00,-1.011489868164062500e+00,1.422524452209472656e+00
7.494095563888549805e-01,-2.759087085723876953e-01,5.887945890426635742e-01,1.177779197692871094e+00,2.609037160873413086e+00,-1.023282051086425781e+00,1.422546267509460449e+00
7.449747323989868164e-01,-2.773535549640655518e-01,5.848526358604431152e-01,1.188688635826110840e+00,2.617149114608764648e+00,-1.186021089553833008e+00,1.423068284988403320e+00
7.401951551437377930e-01,-2.789008021354675293e-01,5.800098180770874023e-01,1.199189424514770508e+00,2.625771284103393555e+00,-1.360107660293579102e+00,1.423991322517395020e+00
7.355661392211914062e-01,-2.807100117206573486e-01,5.749112367630004883e-01,1.209550023078918457e+00,2.634480714797973633e+00,-1.355887532234191895e+00,1.426034331321716309e+00
7.311497926712036133e-01,-2.828409075736999512e-01,5.739227533340454102e-01,1.220251798629760742e+00,2.642895460128784180e+00,-1.342056155204772949e+00,1.430804371833801270e+00
7.268967032432556152e-01,-2.852660715579986572e-01,6.013087630271911621e-01,1.230942487716674805e+00,2.651247978210449219e+00,-1.328019380569458008e+00,1.436895370483398438e+00
7.228847146034240723e-01,-2.880163192749023438e-01,7.872388958930969238e-01,1.241567492485046387e+00,2.659687042236328125e+00,-1.314257860183715820e+00,1.443763136863708496e+00
7.192919850349426270e-01,-2.911356091499328613e-01,7.915477156639099121e-01,1.252535939216613770e+00,2.668350934982299805e+00,-1.301944136619567871e+00,1.449966907501220703e+00
7.157629728317260742e-01,-2.944079637527465820e-01,7.862181067466735840e-01,1.262332677841186523e+00,2.676778793334960938e+00,-1.289708018302917480e+00,1.457786321640014648e+00
7.123089432716369629e-01,-2.978784441947937012e-01,7.805547714233398438e-01,1.271365761756896973e+00,2.685123920440673828e+00,-1.279021620750427246e+00,1.466086864471435547e+00
7.089875936508178711e-01,-3.017423748970031738e-01,7.748680710792541504e-01,1.279261350631713867e+00,2.693377733230590820e+00,-1.270111441612243652e+00,1.474769353866577148e+00
7.058545947074890137e-01,-3.057520985603332520e-01,7.694064378738403320e-01,1.283197760581970215e+00,2.701782464981079102e+00,-1.263176679611206055e+00,1.483612179756164551e+00
7.028292417526245117e-01,-3.098008334636688232e-01,7.642760276794433594e-01,1.274509429931640625e+00,2.710104227066040039e+00,-1.257925033569335938e+00,1.492751121520996094e+00
6.998146176338195801e-01,-3.141058683395385742e-01,7.595929503440856934e-01,1.105303168296813965e+00,2.717816591262817383e+00,-1.254086852073669434e+00,1.502424716949462891e+00
6.968888640403747559e-01,-3.187216520309448242e-01,7.555653452873229980e-01,1.025673627853393555e+00,2.722873210906982422e+00,-1.251857638359069824e+00,1.512058377265930176e+00
6.937152743339538574e-01,-3.234879672527313232e-01,7.520256638526916504e-01,1.032322525978088379e+00,2.725525617599487305e+00,-1.250843048095703125e+00,1.522165060043334961e+00
6.903058290481567383e-01,-3.284353911876678467e-01,7.492708563804626465e-01,1.042666196823120117e+00,2.722843647003173828e+00,-1.251380920410156250e+00,1.532839536666870117e+00
6.868279576301574707e-01,-3.336437940597534180e-01,7.476235628128051758e-01,1.053358912467956543e+00,2.665379285812377930e+00,-1.252906084060668945e+00,1.543779492378234863e+00
6.832520961761474609e-01,-3.390686511993408203e-01,7.469968795776367188e-01,1.063639283180236816e+00,2.443440675735473633e+00,-1.255671501159667969e+00,1.554560422897338867e+00
6.795396208763122559e-01,-3.446396291255950928e-01,7.471921443939208984e-01,1.072983860969543457e+00,2.439562559127807617e+00,-1.259556531906127930e+00,1.563985347747802734e+00
6.752997040748596191e-01,-3.504036664962768555e-01,7.482330799102783203e-01,1.082902431488037109e+00,2.448805093765258789e+00,-1.264190912246704102e+00,1.576195001602172852e+00
6.707519292831420898e-01,-3.565404415130615234e-01,7.500555515289306641e-01,1.092102646827697754e+00,2.458084106445312500e+00,-1.269973158836364746e+00,1.588848948478698730e+00
6.660735607147216797e-01,-3.631272912025451660e-01,7.527307868003845215e-01,1.100617527961730957e+00,2.467016458511352539e+00,-1.276457309722900391e+00,1.601437807083129883e+00
6.613527536392211914e-01,-3.700991272926330566e-01,7.561799287796020508e-01,1.108343243598937988e+00,2.475408554077148438e+00,-1.283938884735107422e+00,1.614086270332336426e+00
6.566085219383239746e-01,-3.773840069770812988e-01,7.602123618125915527e-01,1.115033388137817383e+00,2.483154296875000000e+00,-1.292287349700927734e+00,1.626948356628417969e+00
6.518183350563049316e-01,-3.849778771400451660e-01,7.647289633750915527e-01,1.120938181877136230e+00,2.490229368209838867e+00,-1.301324486732482910e+00,1.640040636062622070e+00
6.470691561698913574e-01,-3.925150632858276367e-01,7.697252631187438965e-01,1.125890970230102539e+00,2.496723175048828125e+00,-1.311174154281616211e+00,1.652902245521545410e+00
6.424604654312133789e-01,-4.000214040279388428e-01,7.752965092658996582e-01,1.129884958267211914e+00,2.502563238143920898e+00,-1.321810960769653320e+00,1.665543079376220703e+00
6.380614042282104492e-01,-4.076566696166992188e-01,7.813755869865417480e-01,1.133219242095947266e+00,2.507777214050292969e+00,-1.332805395126342773e+00,1.678403854370117188e+00
6.338546276092529297e-01,-4.152766764163970947e-01,7.876355051994323730e-01,1.135627865791320801e+00,2.512318134307861328e+00,-1.344383358955383301e+00,1.691385030746459961e+00
6.298292875289916992e-01,-4.231825172901153564e-01,7.941524982452392578e-01,1.137231588363647461e+00,2.516262769699096680e+00,-1.356129765510559082e+00,1.704492688179016113e+00
6.259447336196899414e-01,-4.312959015369415283e-01,8.009980320930480957e-01,1.138135075569152832e+00,2.519598007202148438e+00,-1.368238687515258789e+00,1.716772317886352539e+00
6.222992539405822754e-01,-4.395073354244232178e-01,8.078935146331787109e-01,1.138057351112365723e+00,2.522330522537231445e+00,-1.380681633949279785e+00,1.728492975234985352e+00
6.187867522239685059e-01,-4.479289650917053223e-01,8.147363066673278809e-01,1.137394189834594727e+00,2.524432182312011719e+00,-1.393042087554931641e+00,1.740098357200622559e+00
6.150004863739013672e-01,-4.563501179218292236e-01,8.208829164505004883e-01,1.135635614395141602e+00,2.526041984558105469e+00,-1.405956983566284180e+00,1.750394582748413086e+00
6.108441352844238281e-01,-4.648194313049316406e-01,8.248456120491027832e-01,1.133011698722839355e+00,2.527053594589233398e+00,-1.418795704841613770e+00,1.759157657623291016e+00
6.015358567237854004e-01,-4.732224941253662109e-01,8.044251203536987305e-01,1.129621386528015137e+00,2.527532339096069336e+00,-1.431949734687805176e+00,1.762239933013916016e+00
4.252172410488128662e-01,-4.817137718200683594e-01,6.109151244163513184e-01,1.125276207923889160e+00,2.527554750442504883e+00,-1.445321559906005859e+00,1.758490085601806641e+00
3.711268603801727295e-01,-4.900315403938293457e-01,6.104362010955810547e-01,1.120570659637451172e+00,2.527179241180419922e+00,-1.457717299461364746e+00,1.479832053184509277e+00
3.698275983333587646e-01,-4.984680116176605225e-01,6.186131834983825684e-01,1.115031480789184570e+00,2.526353120803833008e+00,-1.471542716026306152e+00,1.421897768974304199e+00
3.695783317089080811e-01,-5.072011351585388184e-01,6.268243193626403809e-01,1.108492851257324219e+00,2.524886846542358398e+00,-1.485452890396118164e+00,1.434779405593872070e+00
3.697637319564819336e-01,-5.159381031990051270e-01,6.349501609802246094e-01,1.101225256919860840e+00,2.522937774658203125e+00,-1.499533414840698242e+00,1.449433445930480957e+00
3.703224062919616699e-01,-5.247857570648193359e-01,6.427109837532043457e-01,1.093443393707275391e+00,2.520555973052978516e+00,-1.513709187507629395e+00,1.463883876800537109e+00
3.711776733398437500e-01,-5.335924029350280762e-01,6.499828696250915527e-01,1.084938645362854004e+00,2.517966985702514648e+00,-1.528090238571166992e+00,1.477071285247802734e+00
3.723858594894409180e-01,-5.423939228057861328e-01,6.566276550292968750e-01,1.075914978981018066e+00,2.515245676040649414e+00,-1.542644739151000977e+00,1.488660097122192383e+00
3.738897442817687988e-01,-5.510191321372985840e-01,6.625112295150756836e-01,1.066527128219604492e+00,2.512399673461914062e+00,-1.557316064834594727e+00,1.498174190521240234e+00
3.756955862045288086e-01,-5.594618320465087891e-01,6.675590276718139648e-01,1.056707739830017090e+00,2.509449958801269531e+00,-1.571800827980041504e+00,1.505747795104980469e+00
3.777734041213989258e-01,-5.677185058593750000e-01,6.713854074478149414e-01,1.057540655136108398e+00,2.505873680114746094e+00,-1.584412574768066406e+00,1.509485960006713867e+00
3.839938342571258545e-01,-5.749273896217346191e-01,6.826254725456237793e-01,1.037949562072753906e+00,2.501838922500610352e+00,-1.601081490516662598e+00,1.513693809509277344e+00
3.875787854194641113e-01,-5.827040672302246094e-01,6.837766170501708984e-01,1.027193427085876465e+00,2.498301267623901367e+00,-1.615751624107360840e+00,1.515794634819030762e+00
3.907213807106018066e-01,-5.902329087257385254e-01,6.824238300323486328e-01,1.016274571418762207e+00,2.494664430618286133e+00,-1.630434870719909668e+00,1.516201972961425781e+00
3.941879570484161377e-01,-5.975427627563476562e-01,6.903864741325378418e-01,1.002018451690673828e+00,2.491093635559082031e+00,-1.646498680114746094e+00,1.516978740692138672e+00
3.982969522476196289e-01,-6.046419143676757812e-01,6.870884895324707031e-01,9.911020994186401367e-01,2.487151145935058594e+00,-1.661273002624511719e+00,1.514634966850280762e+00
4.028344154357910156e-01,-6.114370226860046387e-01,6.822910308837890625e-01,9.801446795463562012e-01,2.483005285263061523e+00,-1.675879955291748047e+00,1.511078000068664551e+00
4.079665839672088623e-01,-6.180681586265563965e-01,6.779178977012634277e-01,9.692491888999938965e-01,2.478693246841430664e+00,-1.690332174301147461e+00,1.506452322006225586e+00
4.126254022121429443e-01,-6.244995594024658203e-01,6.726889014244079590e-01,9.583442211151123047e-01,2.474272489547729492e+00,-1.704822182655334473e+00,1.500684022903442383e+00
4.186980724334716797e-01,-6.306765675544738770e-01,6.674489378929138184e-01,9.474448561668395996e-01,2.469684600830078125e+00,-1.719174861907958984e+00,1.493918657302856445e+00
4.324537217617034912e-01,-6.368330717086791992e-01,6.637572646141052246e-01,9.366576075553894043e-01,2.464863777160644531e+00,-1.733221411705017090e+00,1.486329913139343262e+00
6.001528501510620117e-01,-6.429637074470520020e-01,6.619087457656860352e-01,9.258676767349243164e-01,2.459964990615844727e+00,-1.747110843658447266e+00,1.477879405021667480e+00
6.580630540847778320e-01,-6.491501331329345703e-01,8.746873736381530762e-01,9.148515462875366211e-01,2.454946279525756836e+00,-1.761586308479309082e+00,1.470319628715515137e+00
6.623910665512084961e-01,-6.552096009254455566e-01,8.805845975875854492e-01,9.045454859733581543e-01,2.449991941452026367e+00,-1.779704332351684570e+00,1.458929181098937988e+00
6.651102304458618164e-01,-6.610870957374572754e-01,8.737966418266296387e-01,8.939186930656433105e-01,2.444828748703002930e+00,-1.793941259384155273e+00,1.448035836219787598e+00
6.673878431320190430e-01,-6.668179035186767578e-01,8.663913607597351074e-01,8.832384347915649414e-01,2.439601659774780273e+00,-1.807908415794372559e+00,1.436557054519653320e+00
6.693015098571777344e-01,-6.725248098373413086e-01,8.588277697563171387e-01,8.726575374603271484e-01,2.434316873550415039e+00,-1.821648716926574707e+00,1.424590468406677246e+00
6.709366440773010254e-01,-6.782996058464050293e-01,8.514055013656616211e-01,8.622462749481201172e-01,2.428955554962158203e+00,-1.835290670394897461e+00,1.412096500396728516e+00
6.723735928535461426e-01,-6.838787198066711426e-01,8.442176580429077148e-01,8.517464399337768555e-01,2.424162864685058594e+00,-1.849010944366455078e+00,1.399002671241760254e+00
6.736323833465576172e-01,-6.894466280937194824e-01,8.375706672668457031e-01,8.415510654449462891e-01,2.419237613677978516e+00,-1.862197995185852051e+00,1.385598659515380859e+00
6.747019886970520020e-01,-6.952658891677856445e-01,8.317695856094360352e-01,8.319026231765747070e-01,2.413873434066772461e+00,-1.874297380447387695e+00,1.372029185295104980e+00
6.755336523056030273e-01,-7.011198997497558594e-01,8.267143368721008301e-01,8.224133253097534180e-01,2.409500837326049805e+00,-1.885535955429077148e+00,1.358058094978332520e+00
6.760814785957336426e-01,-7.069854140281677246e-01,8.225919604301452637e-01,8.134993314743041992e-01,2.406135082244873047e+00,-1.894330978393554688e+00,1.343904018402099609e+00
6.763227581977844238e-01,-7.131100296974182129e-01,8.198480606079101562e-01,8.064827322959899902e-01,2.402080535888671875e+00,-1.893882274627685547e+00,1.329900622367858887e+00
6.762081384658813477e-01,-7.193537950515747070e-01,8.183815479278564453e-01,8.025512099266052246e-01,2.400224924087524414e+00,-1.848261356353759766e+00,1.316023588180541992e+00
6.757171154022216797e-01,-7.255144119262695312e-01,8.180806040763854980e-01,8.084548115730285645e-01,2.401441574096679688e+00,-1.565797328948974609e+00,1.303026556968688965e+00
6.749987006187438965e-01,-7.320314645767211914e-01,8.193709254264831543e-01,1.042487263679504395e+00,2.380618095397949219e+00,-1.542323589324951172e+00,1.300073385238647461e+00
6.712357401847839355e-01,-7.385636568069458008e-01,8.164819478988647461e-01,1.064921975135803223e+00,2.370154857635498047e+00,-1.553088665008544922e+00,1.280618667602539062e+00
6.686134338378906250e-01,-7.451346516609191895e-01,8.173099160194396973e-01,1.054323554039001465e+00,2.367161989212036133e+00,-1.567268371582031250e+00,1.267264842987060547e+00
6.655232310295104980e-01,-7.519047260284423828e-01,8.187249898910522461e-01,1.043483376502990723e+00,2.362729787826538086e+00,-1.581555485725402832e+00,1.256487727165222168e+00
6.614965200424194336e-01,-7.588799595832824707e-01,8.178919553756713867e-01,1.032621622085571289e+00,2.358982563018798828e+00,-1.595943212509155273e+00,1.247275114059448242e+00
6.581802964210510254e-01,-7.657714486122131348e-01,7.985776662826538086e-01,1.021759986877441406e+00,2.363218545913696289e+00,-1.609879255294799805e+00,1.236647009849548340e+00
6.535845994949340820e-01,-7.728679180145263672e-01,6.185740828514099121e-01,1.011043071746826172e+00,2.370753049850463867e+00,-1.622615337371826172e+00,1.233664751052856445e+00
4.874887466430664062e-01,-7.800064086914062500e-01,6.061432361602783203e-01,1.000197887420654297e+00,2.510538339614868164e+00,-1.633237123489379883e+00,1.418428421020507812e+00
4.204149842262268066e-01,-7.865763902664184570e-01,6.111999154090881348e-01,9.897332787513732910e-01,2.652293443679809570e+00,-1.642423868179321289e+00,1.576762437820434570e+00
4.181995987892150879e-01,-7.931684255599975586e-01,6.182104945182800293e-01,9.793552160263061523e-01,2.649063587188720703e+00,-1.649531960487365723e+00,1.576672196388244629e+00
4.170919656753540039e-01,-8.005691766738891602e-01,6.257806420326232910e-01,9.695355892181396484e-01,2.642060279846191406e+00,-1.655123233795166016e+00,1.562424659729003906e+00
4.161660671234130859e-01,-8.082286119461059570e-01,6.332777738571166992e-01,9.607313871383666992e-01,2.635046005249023438e+00,-1.658770322799682617e+00,1.547387003898620605e+00
4.152719378471374512e-01,-8.155624866485595703e-01,6.405994892120361328e-01,9.530106782913208008e-01,2.628285408020019531e+00,-1.660761833190917969e+00,1.532583951950073242e+00
4.142789542675018311e-01,-8.227771520614624023e-01,6.474028229713439941e-01,9.464305043220520020e-01,2.622001886367797852e+00,-1.661145448684692383e+00,1.517782688140869141e+00
4.132494330406188965e-01,-8.291141986846923828e-01,6.535796523094177246e-01,9.410642385482788086e-01,2.616119623184204102e+00,-1.660211086273193359e+00,1.504265546798706055e+00
4.122076928615570068e-01,-8.355183005332946777e-01,6.587611436843872070e-01,9.372267127037048340e-01,2.610995769500732422e+00,-1.657936215400695801e+00,1.492301940917968750e+00
4.111763834953308105e-01,-8.416340947151184082e-01,6.628097891807556152e-01,9.351196289062500000e-01,2.606554985046386719e+00,-1.654418110847473145e+00,1.482118725776672363e+00
4.102393090724945068e-01,-8.471848368644714355e-01,6.656178236007690430e-01,9.347737431526184082e-01,2.602760076522827148e+00,-1.649711132049560547e+00,1.473776817321777344e+00
4.096513986587524414e-01,-8.520461916923522949e-01,6.672855615615844727e-01,9.358879923820495605e-01,2.599569082260131836e+00,-1.643897533416748047e+00,1.467336177825927734e+00
4.107019603252410889e-01,-8.563321828842163086e-01,6.677208542823791504e-01,9.383893013000488281e-01,2.596895217895507812e+00,-1.637016773223876953e+00,1.462871313095092773e+00
4.171105623245239258e-01,-8.601328730583190918e-01,6.669036149978637695e-01,9.424618482589721680e-01,2.594750881195068359e+00,-1.629059433937072754e+00,1.460142612457275391e+00
5.023876428604125977e-01,-8.635910749435424805e-01,6.651341319084167480e-01,9.478538036346435547e-01,2.593110561370849609e+00,-1.620234727859497070e+00,1.459161281585693359e+00
6.383613944053649902e-01,-8.668433427810668945e-01,6.630662679672241211e-01,9.541704654693603516e-01,2.591805458068847656e+00,-1.610458135604858398e+00,1.461094260215759277e+00
6.400262117385864258e-01,-8.698220252990722656e-01,6.624908447265625000e-01,9.612436294555664062e-01,2.590820312500000000e+00,-1.600119590759277344e+00,1.464726567268371582e+00
6.388132572174072266e-01,-8.726698160171508789e-01,6.632282137870788574e-01,9.690502882003784180e-01,2.590500116348266602e+00,-1.588828325271606445e+00,1.468130946159362793e+00
6.376096606254577637e-01,-8.756065368652343750e-01,7.133043408393859863e-01,9.775593280792236328e-01,2.590630769729614258e+00,-1.577407836914062500e+00,1.472675561904907227e+00
6.365787386894226074e-01,-8.785600066184997559e-01,8.816267848014831543e-01,9.867568612098693848e-01,2.591209411621093750e+00,-1.565408587455749512e+00,1.478216648101806641e+00
6.356936693191528320e-01,-8.814514875411987305e-01,8.811407089233398438e-01,9.965777397155761719e-01,2.592286825180053711e+00,-1.553652048110961914e+00,1.484535455703735352e+00
6.348569989204406738e-01,-8.842114806175231934e-01,8.746326565742492676e-01,1.006714105606079102e+00,2.593654632568359375e+00,-1.541090250015258789e+00,1.492192029953002930e+00
6.341907978057861328e-01,-8.869793415069580078e-01,8.677658438682556152e-01,1.017185330390930176e+00,2.595364093780517578e+00,-1.528313875198364258e+00,1.500840902328491211e+00
6.337254643440246582e-01,-8.898273706436157227e-01,8.605633378028869629e-01,1.028051376342773438e+00,2.597315549850463867e+00,-1.515316486358642578e+00,1.510368585586547852e+00
6.334431171417236328e-01,-8.927776813507080078e-01,8.533936738967895508e-01,1.039198160171508789e+00,2.599468708038330078e+00,-1.501842141151428223e+00,1.520756006240844727e+00
6.334207057952880859e-01,-8.958197832107543945e-01,8.466408252716064453e-01,1.050317406654357910e+00,2.601917505264282227e+00,-1.488261938095092773e+00,1.531875729560852051e+00
6.335422992706298828e-01,-8.988942503929138184e-01,8.403868675231933594e-01,1.061440706253051758e+00,2.604374408721923828e+00,-1.474293947219848633e+00,1.543683528900146484e+00
6.336674094200134277e-01,-9.021270275115966797e-01,8.348596096038818359e-01,1.072557926177978516e+00,2.606112241744995117e+00,-1.460029840469360352e+00,1.556241512298583984e+00
6.334966421127319336e-01,-9.055874347686767578e-01,8.300548791885375977e-01,1.082674980163574219e+00,2.602682828903198242e+00,-1.445225477218627930e+00,1.571079373359680176e+00
6.335648894309997559e-01,-9.093842506408691406e-01,8.263885378837585449e-01,1.093616247177124023e+00,2.581818103790283203e+00,-1.430794239044189453e+00,1.584416985511779785e+00
6.335244178771972656e-01,-9.134383797645568848e-01,8.237939476966857910e-01,1.104427456855773926e+00,2.311239719390869141e+00,-1.416568517684936523e+00,1.597923755645751953e+00
6.335150599479675293e-01,-9.176331758499145508e-01,8.222672343254089355e-01,1.113722443580627441e+00,2.289931297302246094e+00,-1.404799342155456543e+00,1.609742879867553711e+00
6.331874132156372070e-01,-9.221096038818359375e-01,8.220840692520141602e-01,1.124114394187927246e+00,2.294919729232788086e+00,-1.391239047050476074e+00,1.623565196990966797e+00
6.326367259025573730e-01,-9.268127679824829102e-01,8.228614330291748047e-01,1.134633421897888184e+00,2.300059080123901367e+00,-1.377464175224304199e+00,1.637997627258300781e+00
6.318694949150085449e-01,-9.317773580551147461e-01,8.244709968566894531e-01,1.145048260688781738e+00,2.304968833923339844e+00,-1.363996863365173340e+00,1.652689933776855469e+00
6.310061216354370117e-01,-9.369201660156250000e-01,8.269045948982238770e-01,1.155441880226135254e+00,2.309496164321899414e+00,-1.351716518402099609e+00,1.667278289794921875e+00
6.301512718200683594e-01,-9.421731233596801758e-01,8.302118182182312012e-01,1.165791511535644531e+00,2.313543558120727539e+00,-1.341249585151672363e+00,1.681611418724060059e+00
6.293678283691406250e-01,-9.476386904716491699e-01,8.343493342399597168e-01,1.175846695899963379e+00,2.317193508148193359e+00,-1.332433104515075684e+00,1.695962190628051758e+00
6.285898089408874512e-01,-9.533228874206542969e-01,8.390103578567504883e-01,1.185356259346008301e+00,2.320363521575927734e+00,-1.327796220779418945e+00,1.710293054580688477e+00
6.278055310249328613e-01,-9.591065645217895508e-01,8.439922928810119629e-01,1.194180727005004883e+00,2.323160648345947266e+00,-1.338080525398254395e+00,1.724440217018127441e+00
6.271249651908874512e-01,-9.650867581367492676e-01,8.494853973388671875e-01,1.202018022537231445e+00,2.325545072555541992e+00,-1.540742158889770508e+00,1.738074064254760742e+00
6.266272068023681641e-01,-9.713844656944274902e-01,8.554855585098266602e-01,1.208123445510864258e+00,2.327840805053710938e+00,-1.675468802452087402e+00,1.743368148803710938e+00
6.263746619224548340e-01,-9.776993393898010254e-01,8.617064952850341797e-01,1.210808038711547852e+00,2.329619646072387695e+00,-1.668491959571838379e+00,1.734654784202575684e+00
6.262845993041992188e-01,-9.840347766876220703e-01,8.682200908660888672e-01,1.197836160659790039e+00,2.330721616744995117e+00,-1.654841661453247070e+00,1.714301466941833496e+00
6.263659000396728516e-01,-9.906492829322814941e-01,8.752024173736572266e-01,1.012455224990844727e+00,2.331484317779541016e+00,-1.640758991241455078e+00,1.513880610466003418e+00
6.267751455307006836e-01,-9.973301887512207031e-01,8.824501037597656250e-01,9.609923362731933594e-01,2.331710338592529297e+00,-1.627014756202697754e+00,1.395812511444091797e+00
6.272567510604858398e-01,-1.003794312477111816e+00,8.895948529243469238e-01,9.693769216537475586e-01,2.331668853759765625e+00,-1.612830042839050293e+00,1.404172897338867188e+00
6.278766393661499023e-01,-1.010541319847106934e+00,8.970319032669067383e-01,9.796515703201293945e-01,2.331330299377441406e+00,-1.599446892738342285e+00,1.418618440628051758e+00
6.286965012550354004e-01,-1.017532348632812500e+00,9.044736623764038086e-01,9.901835918426513672e-01,2.330686807632446289e+00,-1.587573766708374023e+00,1.433028578758239746e+00
6.296312808990478516e-01,-1.024396300315856934e+00,9.117507934570312500e-01,1.000685453414916992e+00,2.329657316207885742e+00,-1.577425122261047363e+00,1.446964502334594727e+00
6.306857466697692871e-01,-1.031196713447570801e+00,9.192783832550048828e-01,1.010684132575988770e+00,2.328322887420654297e+00,-1.569191336631774902e+00,1.459771394729614258e+00
6.319495439529418945e-01,-1.038164615631103516e+00,9.267436265945434570e-01,1.020178794860839844e+00,2.326622247695922852e+00,-1.562503099441528320e+00,1.470665216445922852e+00
6.334903836250305176e-01,-1.045065641403198242e+00,9.340197443962097168e-01,1.029119968414306641e+00,2.324563980102539062e+00,-1.557660579681396484e+00,1.479547858238220215e+00
6.353372335433959961e-01,-1.051467180252075195e+00,9.415007233619689941e-01,1.037234544754028320e+00,2.322230815887451172e+00,-1.554291605949401855e+00,1.486537933349609375e+00
6.375413537025451660e-01,-1.058243989944458008e+00,9.488844871520996094e-01,1.044404864311218262e+00,2.319463729858398438e+00,-1.552581548690795898e+00,1.491526722908020020e+00
6.401056647300720215e-01,-1.062969088554382324e+00,9.562078118324279785e-01,1.050449371337890625e+00,2.316443920135498047e+00,-1.552158355712890625e+00,1.494805216789245605e+00
6.429912447929382324e-01,-1.054134130477905273e+00,9.637175202369689941e-01,1.055486798286437988e+00,2.312986135482788086e+00,-1.553069591522216797e+00,1.496437907218933105e+00
6.463015675544738770e-01,-8.631380796432495117e-01,9.711161851882934570e-01,1.059579133987426758e+00,2.309235095977783203e+00,-1.554969191551208496e+00,1.496482253074645996e+00
6.499373912811279297e-01,-8.526373505592346191e-01,9.784812927246093750e-01,1.062156200408935547e+00,2.305225849151611328e+00,-1.558058023452758789e+00,1.495091080665588379e+00
6.538177132606506348e-01,-8.606599569320678711e-01,9.859283566474914551e-01,1.064353823661804199e+00,2.300787925720214844e+00,-1.562186837196350098e+00,1.492461681365966797e+00
6.579001545906066895e-01,-8.687595129013061523e-01,9.933418631553649902e-01,1.065512299537658691e+00,2.296030998229980469e+00,-1.567398667335510254e+00,1.488675236701965332e+00
6.620646715164184570e-01,-8.770143985748291016e-01,1.000952005386352539e+00,1.065991997718811035e+00,2.290931701660156250e+00,-1.573683142662048340e+00,1.483708858489990234e+00
6.665108799934387207e-01,-8.851661086082458496e-01,1.008541941642761230e+00,1.065558314323425293e+00,2.285479068756103516e+00,-1.580790281295776367e+00,1.477639317512512207e+00
6.710903048515319824e-01,-8.933195471763610840e-01,1.016207218170166016e+00,1.064266324043273926e+00,2.279747247695922852e+00,-1.588922739028930664e+00,1.470604419708251953e+00
6.758962273597717285e-01,-9.013359546661376953e-01,1.023752927780151367e+00,1.062060832977294922e+00,2.273720264434814453e+00,-1.597784161567687988e+00,1.462596058845520020e+00
6.807249784469604492e-01,-9.093037843704223633e-01,1.031250238418579102e+00,1.058942317962646484e+00,2.267529010772705078e+00,-1.607201337814331055e+00,1.453677177429199219e+00
6.854897737503051758e-01,-9.171845316886901855e-01,1.038859605789184570e+00,1.055098772048950195e+00,2.261195898056030273e+00,-1.617228150367736816e+00,1.443836331367492676e+00
6.906777620315551758e-01,-9.248992204666137695e-01,1.046399950981140137e+00,1.050232172012329102e+00,2.254703044891357422e+00,-1.627331614494323730e+00,1.433254003524780273e+00
6.959493756294250488e-01,-9.325995445251464844e-01,1.053981065750122070e+00,1.044528722763061523e+00,2.248144626617431641e+00,-1.637908458709716797e+00,1.422039151191711426e+00
7.013980746269226074e-01,-9.401440620422363281e-01,1.061476945877075195e+00,1.038176298141479492e+00,2.241433382034301758e+00,-1.648558497428894043e+00,1.410143733024597168e+00
7.067913413047790527e-01,-9.476749897003173828e-01,1.068921923637390137e+00,1.031171798706054688e+00,2.234669685363769531e+00,-1.659511327743530273e+00,1.397742748260498047e+00
7.119934558868408203e-01,-9.549936056137084961e-01,1.076396584510803223e+00,1.023676514625549316e+00,2.227816343307495117e+00,-1.670770764350891113e+00,1.384790182113647461e+00
7.177932858467102051e-01,-9.620098471641540527e-01,1.083713173866271973e+00,1.015624761581420898e+00,2.220802068710327148e+00,-1.682031989097595215e+00,1.371387124061584473e+00
7.225284576416015625e-01,-9.688551425933837891e-01,1.091078639030456543e+00,1.007009863853454590e+00,2.213759183883666992e+00,-1.693907499313354492e+00,1.357654333114624023e+00
7.277864217758178711e-01,-9.754048585891723633e-01,1.098359823226928711e+00,9.980414509773254395e-01,2.206496000289916992e+00,-1.705610394477844238e+00,1.343482971191406250e+00
7.330601811408996582e-01,-9.817709326744079590e-01,1.105560302734375000e+00,9.884400963783264160e-01,2.199231624603271484e+00,-1.717952132225036621e+00,1.329136490821838379e+00
7.359401583671569824e-01,-9.880324006080627441e-01,1.112537860870361328e+00,9.785618185997009277e-01,2.191809177398681641e+00,-1.730240464210510254e+00,1.314414739608764648e+00
7.338583469390869141e-01,-9.939622879028320312e-01,1.119068145751953125e+00,9.682402014732360840e-01,2.184293746948242188e+00,-1.742960095405578613e+00,1.299570322036743164e+00
7.162503004074096680e-01,-9.996715784072875977e-01,1.125303626060485840e+00,9.576030969619750977e-01,2.176719903945922852e+00,-1.755778193473815918e+00,1.284747719764709473e+00
5.407268404960632324e-01,-1.005260109901428223e+00,1.129483819007873535e+00,9.468554258346557617e-01,2.168974399566650391e+00,-1.768838882446289062e+00,1.269786119461059570e+00
5.329562425613403320e-01,-1.010156869888305664e+00,9.067692756652832031e-01,9.364314675331115723e-01,2.161422252655029297e+00,-1.781785845756530762e+00,1.253676295280456543e+00
5.389853119850158691e-01,-1.014879345893859863e+00,9.067274332046508789e-01,9.252435564994812012e-01,2.153407573699951172e+00,-1.792977452278137207e+00,1.239660143852233887e+00
5.452808141708374023e-01,-1.019470691680908203e+00,9.139360189437866211e-01,9.142797589302062988e-01,2.145486354827880859e+00,-1.806147336959838867e+00,1.225001454353332520e+00
5.514733195304870605e-01,-1.023747324943542480e+00,9.211752414703369141e-01,9.033539295196533203e-01,2.137428045272827148e+00,-1.819609403610229492e+00,1.210260868072509766e+00
5.575234293937683105e-01,-1.027631402015686035e+00,9.282345175743103027e-01,8.924308419227600098e-01,2.129325866699218750e+00,-1.832946538925170898e+00,1.195520758628845215e+00
5.634353160858154297e-01,-1.031290054321289062e+00,9.351673722267150879e-01,8.815317153930664062e-01,2.121089935302734375e+00,-1.846374154090881348e+00,1.180825829505920410e+00
5.692595243453979492e-01,-1.034800291061401367e+00,9.418691992759704590e-01,8.707399368286132812e-01,2.112858295440673828e+00,-1.859350442886352539e+00,1.166108250617980957e+00
5.750055909156799316e-01,-1.037993550300598145e+00,9.480169415473937988e-01,8.598806858062744141e-01,2.104749202728271484e+00,-1.871979475021362305e+00,1.151317119598388672e+00
5.807098150253295898e-01,-1.040805935859680176e+00,9.536227583885192871e-01,8.490824699401855469e-01,2.096678972244262695e+00,-1.884079694747924805e+00,1.136476874351501465e+00
5.864064693450927734e-01,-1.043289065361022949e+00,9.588489532470703125e-01,8.383148312568664551e-01,2.088822126388549805e+00,-1.895012736320495605e+00,1.121786355972290039e+00
5.920422077178955078e-01,-1.045432806015014648e+00,9.634496569633483887e-01,8.277238607406616211e-01,2.081064224243164062e+00,-1.904152035713195801e+00,1.107493996620178223e+00
5.975296497344970703e-01,-1.047140121459960938e+00,9.672789573669433594e-01,8.173353672027587891e-01,2.073683261871337891e+00,-1.911272525787353516e+00,1.093879818916320801e+00
6.029194593429565430e-01,-1.048543930053710938e+00,9.704746603965759277e-01,8.076528310775756836e-01,2.066435337066650391e+00,-1.921565175056457520e+00,1.081113338470458984e+00
6.082119941711425781e-01,-1.049647450447082520e+00,9.732257723808288574e-01,7.989722490310668945e-01,2.059572696685791016e+00,-1.931742906570434570e+00,1.069353103637695312e+00
6.131998896598815918e-01,-1.050326228141784668e+00,9.754973649978637695e-01,7.909474372863769531e-01,2.052992582321166992e+00,-1.937185883522033691e+00,1.058699488639831543e+00
6.177390813827514648e-01,-1.050723075866699219e+00,9.773708581924438477e-01,7.841891646385192871e-01,2.046622037887573242e+00,-1.936541557312011719e+00,1.049063205718994141e+00
6.218456029891967773e-01,-1.050780057907104492e+00,9.788200855255126953e-01,7.781716585159301758e-01,2.040400028228759766e+00,-1.924656510353088379e+00,1.040481090545654297e+00
6.255171895027160645e-01,-1.051539540290832520e+00,9.799136519432067871e-01,7.734141349792480469e-01,2.034386396408081055e+00,-1.872195005416870117e+00,1.032789230346679688e+00
6.287929415702819824e-01,-1.055813074111938477e+00,9.806274175643920898e-01,7.692722082138061523e-01,2.028524160385131836e+00,-1.628449082374572754e+00,1.026338100433349609e+00
6.318342089653015137e-01,-1.273701429367065430e+00,9.812442064285278320e-01,7.672734260559082031e-01,2.022269010543823242e+00,-1.580132246017456055e+00,1.023524880409240723e+00
6.319943666458129883e-01,-1.287608981132507324e+00,9.814808368682861328e-01,7.849627137184143066e-01,2.021475076675415039e+00,-1.579142808914184570e+00,1.025963068008422852e+00
6.319679021835327148e-01,-1.287707448005676270e+00,9.814646840095520020e-01,7.947223782539367676e-01,2.021458864212036133e+00,-1.579143285751342773e+00,1.026249289512634277e+00
6.319518089294433594e-01,-1.287703871726989746e+00,9.814519286155700684e-01,7.997192740440368652e-01,2.021475791931152344e+00,-1.579128146171569824e+00,1.026291966438293457e+00
6.324241161346435547e-01,-1.287730932235717773e+00,9.815250039100646973e-01,1.061250209808349609e+00,2.021311283111572266e+00,-1.583305239677429199e+00,1.022309660911560059e+00
6.314084529876708984e-01,-1.286623597145080566e+00,9.810279607772827148e-01,1.066406726837158203e+00,2.022147655487060547e+00,-1.578491330146789551e+00,1.025445222854614258e+00
6.313968896865844727e-01,-1.286620855331420898e+00,9.810195565223693848e-01,1.066494226455688477e+00,2.022158622741699219e+00,-1.578226923942565918e+00,1.025778532028198242e+00
6.314007639884948730e-01,-1.286666393280029297e+00,9.810223579406738281e-01,1.066327214241027832e+00,2.022155523300170898e+00,-1.578213930130004883e+00,1.025868415832519531e+00
6.314077377319335938e-01,-1.286676645278930664e+00,9.810280203819274902e-01,1.066324472427368164e+00,2.022158622741699219e+00,-1.578246951103210449e+00,1.025900363922119141e+00
6.314185857772827148e-01,-1.286699414253234863e+00,9.810358285903930664e-01,1.066417694091796875e+00,2.022167921066284180e+00,-1.578287720680236816e+00,1.025898575782775879e+00
6.314277648925781250e-01,-1.286719083786010742e+00,9.810426831245422363e-01,1.066466212272644043e+00,2.022174835205078125e+00,-1.578323602676391602e+00,1.025908470153808594e+00
6.314368844032287598e-01,-1.286749124526977539e+00,9.810492992401123047e-01,1.066477656364440918e+00,2.022180557250976562e+00,-1.578351378440856934e+00,1.025925397872924805e+00
6.314458847045898438e-01,-1.286783337593078613e+00,9.810557365417480469e-01,1.066471457481384277e+00,2.022185564041137695e+00,-1.578375577926635742e+00,1.025946378707885742e+00
6.314548254013061523e-01,-1.286817908287048340e+00,9.810619950294494629e-01,1.066456437110900879e+00,2.022190332412719727e+00,-1.578398108482360840e+00,1.025969743728637695e+00
6.314634680747985840e-01,-1.286851406097412109e+00,9.810680747032165527e-01,1.066436409950256348e+00,2.022194623947143555e+00,-1.578420281410217285e+00,1.025995016098022461e+00
6.314719915390014648e-01,-1.286883234977722168e+00,9.810739755630493164e-01,1.066413640975952148e+00,2.022198915481567383e+00,-1.578442215919494629e+00,1.026021480560302734e+00
6.314802765846252441e-01,-1.286913394927978516e+00,9.810797572135925293e-01,1.066389560699462891e+00,2.022202968597412109e+00,-1.578464388847351074e+00,1.026049017906188965e+00
6.314884424209594727e-01,-1.286941528320312500e+00,9.810853600502014160e-01,1.066364884376525879e+00,2.022207021713256836e+00,-1.578486919403076172e+00,1.026077270507812500e+00
6.314963698387145996e-01,-1.286967754364013672e+00,9.810909032821655273e-01,1.066341638565063477e+00,2.022211074829101562e+00,-1.578510046005249023e+00,1.026105999946594238e+00
6.319193840026855469e-01,-1.287221550941467285e+00,9.812678098678588867e-01,1.072546005249023438e+00,2.022154331207275391e+00,-1.581952095031738281e+00,1.021962881088256836e+00
6.314803957939147949e-01,-1.286817669868469238e+00,9.810888767242431641e-01,1.066459298133850098e+00,2.022235393524169922e+00,-1.578735828399658203e+00,1.025913834571838379e+00
6.314934492111206055e-01,-1.286902189254760742e+00,9.810959100723266602e-01,1.065946817398071289e+00,2.022200107574462891e+00,-1.578596591949462891e+00,1.026308059692382812e+00
6.315016150474548340e-01,-1.286885499954223633e+00,9.811019301414489746e-01,1.066059947013854980e+00,2.022204637527465820e+00,-1.578650355339050293e+00,1.026341557502746582e+00
6.315113902091979980e-01,-1.286889910697937012e+00,9.811083078384399414e-01,1.066201210021972656e+00,2.022215366363525391e+00,-1.578699350357055664e+00,1.026333928108215332e+00
6.315200924873352051e-01,-1.286893606185913086e+00,9.811141490936279297e-01,1.066312551498413086e+00,2.022224426269531250e+00,-1.578744769096374512e+00,1.026332259178161621e+00
6.315286159515380859e-01,-1.286900997161865234e+00,9.811197519302368164e-01,1.066403985023498535e+00,2.022233009338378906e+00,-1.578786373138427734e+00,1.026334404945373535e+00
6.315369009971618652e-01,-1.286909103393554688e+00,9.811251759529113770e-01,1.066484808921813965e+00,2.022241353988647461e+00,-1.578826427459716797e+00,1.026338934898376465e+00
6.315450072288513184e-01,-1.286917090415954590e+00,9.811303615570068359e-01,1.066560029983520508e+00,2.022249221801757812e+00,-1.578865766525268555e+00,1.026345014572143555e+00
6.315528750419616699e-01,-1.286924123764038086e+00,9.811354279518127441e-01,1.066632270812988281e+00,2.022256851196289062e+00,-1.578904986381530762e+00,1.026352047920227051e+00
6.315605044364929199e-01,-1.286930084228515625e+00,9.811403155326843262e-01,1.066703081130981445e+00,2.022264480590820312e+00,-1.578944206237792969e+00,1.026359558105468750e+00
6.315679550170898438e-01,-1.286934852600097656e+00,9.811450242996215820e-01,1.066773295402526855e+00,2.022271871566772461e+00,-1.578983902931213379e+00,1.026367425918579102e+00
6.315752267837524414e-01,-1.286938309669494629e+00,9.811496138572692871e-01,1.066843986511230469e+00,2.022279500961303711e+00,-1.579023957252502441e+00,1.026375412940979004e+00
6.315822601318359375e-01,-1.286940455436706543e+00,9.811540842056274414e-01,1.066915631294250488e+00,2.022286891937255859e+00,-1.579064369201660156e+00,1.026383042335510254e+00
6.315892338752746582e-01,-1.286941289901733398e+00,9.811583161354064941e-01,1.066988587379455566e+00,2.022294521331787109e+00,-1.579105496406555176e+00,1.026390552520751953e+00
6.315959692001342773e-01,-1.286940813064575195e+00,9.811624884605407715e-01,1.067063331604003906e+00,2.022302150726318359e+00,-1.579147219657897949e+00,1.026397466659545898e+00
6.316025853157043457e-01,-1.286939144134521484e+00,9.811665415763854980e-01,1.067140102386474609e+00,2.022309780120849609e+00,-1.579189538955688477e+00,1.026403903961181641e+00
6.316090822219848633e-01,-1.286936283111572266e+00,9.811704158782958984e-01,1.067219018936157227e+00,2.022317647933959961e+00,-1.579232573509216309e+00,1.026409506797790527e+00
6.316154599189758301e-01,-1.286932229995727539e+00,9.811741709709167480e-01,1.067300438880920410e+00,2.022325515747070312e+00,-1.579276323318481445e+00,1.026414275169372559e+00
6.316217184066772461e-01,-1.286926865577697754e+00,9.811778664588928223e-01,1.067384243011474609e+00,2.022333621978759766e+00,-1.579320669174194336e+00,1.026418209075927734e+00
6.316278576850891113e-01,-1.286920428276062012e+00,9.811813831329345703e-01,1.067470431327819824e+00,2.022341966629028320e+00,-1.579365968704223633e+00,1.026421189308166504e+00
6.316338777542114258e-01,-1.286912798881530762e+00,9.811847805976867676e-01,1.067559123039245605e+00,2.022350311279296875e+00,-1.579411864280700684e+00,1.026423215866088867e+00
6.316397786140441895e-01,-1.286903977394104004e+00,9.811881184577941895e-01,1.067650318145751953e+00,2.022358894348144531e+00,-1.579458475112915039e+00,1.026424050331115723e+00
6.316455602645874023e-01,-1.286893963813781738e+00,9.811912775039672852e-01,1.067743778228759766e+00,2.022367715835571289e+00,-1.579505920410156250e+00,1.026423811912536621e+00
6.316512823104858398e-01,-1.286882638931274414e+00,9.811943173408508301e-01,1.067839741706848145e+00,2.022376775741577148e+00,-1.579554200172424316e+00,1.026422381401062012e+00
6.316568255424499512e-01,-1.286870241165161133e+00,9.811972379684448242e-01,1.067937850952148438e+00,2.022385835647583008e+00,-1.579603075981140137e+00,1.026419758796691895e+00
6.316623091697692871e-01,-1.286856651306152344e+00,9.811999797821044922e-01,1.068037748336791992e+00,2.022395133972167969e+00,-1.579652667045593262e+00,1.026416063308715820e+00
6.316676735877990723e-01,-1.286842107772827148e+00,9.812026619911193848e-01,1.068139314651489258e+00,2.022404670715332031e+00,-1.579702854156494141e+00,1.026411175727844238e+00
6.316729784011840820e-01,-1.286826848983764648e+00,9.812052249908447266e-01,1.068241834640502930e+00,2.022414207458496094e+00,-1.579753518104553223e+00,1.026405096054077148e+00
6.316781044006347656e-01,-1.286810517311096191e+00,9.812076091766357422e-01,1.068345665931701660e+00,2.022424221038818359e+00,-1.579804658889770508e+00,1.026397943496704102e+00
6.316831707954406738e-01,-1.286792755126953125e+00,9.812098741531372070e-01,1.068451285362243652e+00,2.022434234619140625e+00,-1.579856634140014648e+00,1.026389479637145996e+00
6.316881179809570312e-01,-1.286774039268493652e+00,9.812120199203491211e-01,1.068558931350708008e+00,2.022444725036621094e+00,-1.579909324645996094e+00,1.026379466056823730e+00
6.316931843757629395e-01,-1.286755323410034180e+00,9.812141060829162598e-01,1.068668127059936523e+00,2.022455215454101562e+00,-1.579962372779846191e+00,1.026367545127868652e+00
6.316983699798583984e-01,-1.286737561225891113e+00,9.812161326408386230e-01,1.068778753280639648e+00,2.022466421127319336e+00,-1.580015182495117188e+00,1.026353478431701660e+00
6.317038536071777344e-01,-1.286721944808959961e+00,9.812180995941162109e-01,1.068890452384948730e+00,2.022478103637695312e+00,-1.580067515373229980e+00,1.026336908340454102e+00
6.317095160484313965e-01,-1.286707997322082520e+00,9.812200665473937988e-01,1.069002151489257812e+00,2.022489786148071289e+00,-1.580119252204895020e+00,1.026318550109863281e+00
6.317154169082641602e-01,-1.286697387695312500e+00,9.812219738960266113e-01,1.069111466407775879e+00,2.022501945495605469e+00,-1.580169320106506348e+00,1.026298880577087402e+00
6.317217946052551270e-01,-1.286693215370178223e+00,9.812239408493041992e-01,1.069215178489685059e+00,2.022514343261718750e+00,-1.580215811729431152e+00,1.026278257369995117e+00
6.317288279533386230e-01,-1.286698818206787109e+00,9.812260270118713379e-01,1.069309592247009277e+00,2.022526741027832031e+00,-1.580256700515747070e+00,1.026257514953613281e+00
6.317361593246459961e-01,-1.286710262298583984e+00,9.812281131744384766e-01,1.069396495819091797e+00,2.022538661956787109e+00,-1.580293655395507812e+00,1.026237607002258301e+00
6.317428946495056152e-01,-1.286712765693664551e+00,9.812299013137817383e-01,1.069491982460021973e+00,2.022551298141479492e+00,-1.580336332321166992e+00,1.026216387748718262e+00
6.317484378814697266e-01,-1.286694765090942383e+00,9.812313914299011230e-01,1.069609999656677246e+00,2.022564649581909180e+00,-1.580392479896545410e+00,1.026190161705017090e+00
6.317527890205383301e-01,-1.286650776863098145e+00,9.812324047088623047e-01,1.069758415222167969e+00,2.022580146789550781e+00,-1.580466508865356445e+00,1.026155591011047363e+00
6.317561864852905273e-01,-1.286582350730895996e+00,9.812330603599548340e-01,1.069933414459228516e+00,2.022597789764404297e+00,-1.580556869506835938e+00,1.026111602783203125e+00
6.317591667175292969e-01,-1.286499500274658203e+00,9.812335371971130371e-01,1.070119738578796387e+00,2.022616863250732422e+00,-1.580655813217163086e+00,1.026060938835144043e+00
6.317621469497680664e-01,-1.286411643028259277e+00,9.812338948249816895e-01,1.070304512977600098e+00,2.022636890411376953e+00,-1.580756425857543945e+00,1.026006698608398438e+00
6.317654252052307129e-01,-1.286325335502624512e+00,9.812341928482055664e-01,1.070480346679687500e+00,2.022656917572021484e+00,-1.580854296684265137e+00,1.025951385498046875e+00
6.317691206932067871e-01,-1.286244869232177734e+00,9.812345504760742188e-01,1.070644617080688477e+00,2.022676944732666016e+00,-1.580947160720825195e+00,1.025896310806274414e+00
6.317732930183410645e-01,-1.286173224449157715e+00,9.812349677085876465e-01,1.070796251296997070e+00,2.022696733474731445e+00,-1.581033706665039062e+00,1.025841951370239258e+00
6.317779421806335449e-01,-1.286112070083618164e+00,9.812354445457458496e-01,1.070935726165771484e+00,2.022716283798217773e+00,-1.581113696098327637e+00,1.025789022445678711e+00
6.317830681800842285e-01,-1.286062359809875488e+00,9.812359809875488281e-01,1.071063756942749023e+00,2.022735118865966797e+00,-1.581186890602111816e+00,1.025737524032592773e+00
6.317886710166931152e-01,-1.286024212837219238e+00,9.812365770339965820e-01,1.071181535720825195e+00,2.022753715515136719e+00,-1.581253767013549805e+00,1.025687456130981445e+00
6.317946910858154297e-01,-1.285995483398437500e+00,9.812372326850891113e-01,1.071291327476501465e+00,2.022772073745727539e+00,-1.581315636634826660e+00,1.025638461112976074e+00
6.318009495735168457e-01,-1.285974621772766113e+00,9.812378883361816406e-01,1.071394681930541992e+00,2.022790193557739258e+00,-1.581373453140258789e+00,1.025590300559997559e+00
6.318074464797973633e-01,-1.285959601402282715e+00,9.812386035919189453e-01,1.071493148803710938e+00,2.022808313369750977e+00,-1.581428408622741699e+00,1.025542616844177246e+00
6.318140625953674316e-01,-1.285948753356933594e+00,9.812392592430114746e-01,1.071587800979614258e+00,2.022826433181762695e+00,-1.581481218338012695e+00,1.025495290756225586e+00
6.318207383155822754e-01,-1.285939812660217285e+00,9.812398552894592285e-01,1.071679711341857910e+00,2.022844552993774414e+00,-1.581532955169677734e+00,1.025447964668273926e+00
6.318273544311523438e-01,-1.285930633544921875e+00,9.812403917312622070e-01,1.071770429611206055e+00,2.022862672805786133e+00,-1.581584930419921875e+00,1.025400161743164062e+00
6.323452591896057129e-01,-1.286316037178039551e+00,9.813910722732543945e-01,1.074486851692199707e+00,2.022801637649536133e+00,-1.585676789283752441e+00,1.021749615669250488e+00
6.318039894104003906e-01,-1.285436987876892090e+00,9.812301993370056152e-01,1.072013139724731445e+00,2.022913217544555664e+00,-1.582059741020202637e+00,1.025084376335144043e+00
6.318120360374450684e-01,-1.285623431205749512e+00,9.812302589416503906e-01,1.071918129920959473e+00,2.022887706756591797e+00,-1.581771850585937500e+00,1.025358438491821289e+00
6.318188905715942383e-01,-1.285686612129211426e+00,9.812306165695190430e-01,1.071954131126403809e+00,2.022895097732543945e+00,-1.581766843795776367e+00,1.025360345840454102e+00
6.318234801292419434e-01,-1.285667538642883301e+00,9.812303185462951660e-01,1.072031021118164062e+00,2.022910356521606445e+00,-1.581813931465148926e+00,1.025323867797851562e+00
6.318261623382568359e-01,-1.285600304603576660e+00,9.812293648719787598e-01,1.072124481201171875e+00,2.022928237915039062e+00,-1.581882357597351074e+00,1.025278091430664062e+00
6.318283677101135254e-01,-1.285522699356079102e+00,9.812281727790832520e-01,1.072217464447021484e+00,2.022947072982788086e+00,-1.581953406333923340e+00,1.025230765342712402e+00
6.318305730819702148e-01,-1.285447478294372559e+00,9.812268614768981934e-01,1.072306275367736816e+00,2.022965669631958008e+00,-1.582021951675415039e+00,1.025183439254760742e+00
6.318328976631164551e-01,-1.285375833511352539e+00,9.812255501747131348e-01,1.072391390800476074e+00,2.022984027862548828e+00,-1.582087993621826172e+00,1.025136470794677734e+00
6.318353414535522461e-01,-1.285305261611938477e+00,9.812242388725280762e-01,1.072474241256713867e+00,2.023002624511718750e+00,-1.582152605056762695e+00,1.025089025497436523e+00
6.318377256393432617e-01,-1.285233497619628906e+00,9.812228679656982422e-01,1.072555541992187500e+00,2.023021459579467773e+00,-1.582216739654541016e+00,1.025041222572326660e+00
6.318400502204895020e-01,-1.285158753395080566e+00,9.812214970588684082e-01,1.072635650634765625e+00,2.023040294647216797e+00,-1.582280874252319336e+00,1.024992942810058594e+00
6.318422555923461914e-01,-1.285079717636108398e+00,9.812200665473937988e-01,1.072714805603027344e+00,2.023059606552124023e+00,-1.582345485687255859e+00,1.024943828582763672e+00
6.318444013595581055e-01,-1.284995436668395996e+00,9.812185168266296387e-01,1.072793364524841309e+00,2.023079156875610352e+00,-1.582410693168640137e+00,1.024893999099731445e+00
6.318464279174804688e-01,-1.284905195236206055e+00,9.812169671058654785e-01,1.072871327400207520e+00,2.023098945617675781e+00,-1.582476735115051270e+00,1.024843335151672363e+00
6.318483352661132812e-01,-1.284808874130249023e+00,9.812153577804565430e-01,1.072948694229125977e+00,2.023118972778320312e+00,-1.582543492317199707e+00,1.024791717529296875e+00
6.318501234054565430e-01,-1.284705758094787598e+00,9.812136292457580566e-01,1.073025345802307129e+00,2.023139715194702148e+00,-1.582610845565795898e+00,1.024739384651184082e+00
6.318519115447998047e-01,-1.284595489501953125e+00,9.812119007110595703e-01,1.073101520538330078e+00,2.023160696029663086e+00,-1.582678914070129395e+00,1.024686098098754883e+00
6.318535208702087402e-01,-1.284477949142456055e+00,9.812101125717163086e-01,1.073176860809326172e+00,2.023181915283203125e+00,-1.582747697830200195e+00,1.024632096290588379e+00
6.318550705909729004e-01,-1.284352779388427734e+00,9.812083244323730469e-01,1.073251247406005859e+00,2.023203611373901367e+00,-1.582816600799560547e+00,1.024577379226684570e+00
6.318566203117370605e-01,-1.284219384193420410e+00,9.812064170837402344e-01,1.073325037956237793e+00,2.023225545883178711e+00,-1.582886219024658203e+00,1.024521827697753906e+00
6.318580508232116699e-01,-1.284077882766723633e+00,9.812045097351074219e-01,1.073397755622863770e+00,2.023247957229614258e+00,-1.582955718040466309e+00,1.024465680122375488e+00
6.318594813346862793e-01,-1.283927917480468750e+00,9.812025427818298340e-01,1.073469400405883789e+00,2.023270606994628906e+00,-1.583025336265563965e+00,1.024409055709838867e+00
6.318607926368713379e-01,-1.283769607543945312e+00,9.812005758285522461e-01,1.073539733886718750e+00,2.023293495178222656e+00,-1.583094716072082520e+00,1.024352073669433594e+00
6.318621039390563965e-01,-1.283601999282836914e+00,9.811985492706298828e-01,1.073608994483947754e+00,2.023316860198974609e+00,-1.583163857460021973e+00,1.024294734001159668e+00
6.318633556365966797e-01,-1.283425569534301758e+00,9.811964631080627441e-01,1.073676824569702148e+00,2.023340225219726562e+00,-1.583232402801513672e+00,1.024237036705017090e+00
6.318646073341369629e-01,-1.283239841461181641e+00,9.811943769454956055e-01,1.073743343353271484e+00,2.023364067077636719e+00,-1.583300471305847168e+00,1.024179220199584961e+00
6.318657994270324707e-01,-1.283044457435607910e+00,9.811922311782836914e-01,1.073808312416076660e+00,2.023387908935546875e+00,-1.583367705345153809e+00,1.024121284484863281e+00
6.318669319152832031e-01,-1.282838821411132812e+00,9.811900854110717773e-01,1.073871850967407227e+00,2.023411989212036133e+00,-1.583433985710144043e+00,1.024063229560852051e+00
6.318680047988891602e-01,-1.282622456550598145e+00,9.811878800392150879e-01,1.073933959007263184e+00,2.023436307907104492e+00,-1.583499431610107422e+00,1.024005293846130371e+00
6.318690776824951172e-01,-1.282394528388977051e+00,9.811856746673583984e-01,1.073994517326354980e+00,2.023460865020751953e+00,-1.583563804626464844e+00,1.023947477340698242e+00
6.318700313568115234e-01,-1.282154440879821777e+00,9.811834096908569336e-01,1.074053525924682617e+00,2.023485422134399414e+00,-1.583627104759216309e+00,1.023889780044555664e+00
6.318709850311279297e-01,-1.281901240348815918e+00,9.811810851097106934e-01,1.074110984802246094e+00,2.023509979248046875e+00,-1.583689212799072266e+00,1.023832321166992188e+00
6.318718194961547852e-01,-1.281634092330932617e+00,9.811787605285644531e-01,1.074166893959045410e+00,2.023534774780273438e+00,-1.583750009536743164e+00,1.023775219917297363e+00
6.318725943565368652e-01,-1.281350970268249512e+00,9.811763763427734375e-01,1.074221611022949219e+00,2.023559808731079102e+00,-1.583809614181518555e+00,1.023718357086181641e+00
6.318733096122741699e-01,-1.281051278114318848e+00,9.811739921569824219e-01,1.074274539947509766e+00,2.023584604263305664e+00,-1.583868026733398438e+00,1.023661732673645020e+00
6.318739056587219238e-01,-1.280733108520507812e+00,9.811714887619018555e-01,1.074326157569885254e+00,2.023609638214111328e+00,-1.583924889564514160e+00,1.023605585098266602e+00
6.318744421005249023e-01,-1.280394673347473145e+00,9.811690449714660645e-01,1.074376344680786133e+00,2.023634672164916992e+00,-1.583980321884155273e+00,1.023549795150756836e+00
6.318749189376831055e-01,-1.280033826828002930e+00,9.811664819717407227e-01,1.074424982070922852e+00,2.023659706115722656e+00,-1.584034442901611328e+00,1.023494482040405273e+00
6.318752765655517578e-01,-1.279647707939147949e+00,9.811639189720153809e-01,1.074472308158874512e+00,2.023684978485107422e+00,-1.584087014198303223e+00,1.023439645767211914e+00
6.318755149841308594e-01,-1.279233455657958984e+00,9.811612963676452637e-01,1.074518322944641113e+00,2.023710250854492188e+00,-1.584138035774230957e+00,1.023385167121887207e+00
6.318756341934204102e-01,-1.278787136077880859e+00,9.811586141586303711e-01,1.074562907218933105e+00,2.023735523223876953e+00,-1.584187507629394531e+00,1.023331165313720703e+00
6.318756937980651855e-01,-1.278303980827331543e+00,9.811558723449707031e-01,1.074606180191040039e+00,2.023760795593261719e+00,-1.584235429763793945e+00,1.023277521133422852e+00
6.318756341934204102e-01,-1.277778506278991699e+00,9.811531305313110352e-01,1.074648022651672363e+00,2.023786306381225586e+00,-1.584281444549560547e+00,1.023224472999572754e+00
6.318754553794860840e-01,-1.277203559875488281e+00,9.811503291130065918e-01,1.074688673019409180e+00,2.023812055587768555e+00,-1.584325909614562988e+00,1.023171782493591309e+00
6.318751573562622070e-01,-1.276569724082946777e+00,9.811474084854125977e-01,1.074728012084960938e+00,2.023837804794311523e+00,-1.584368467330932617e+00,1.023119449615478516e+00
6.318746805191040039e-01,-1.275865077972412109e+00,9.811444878578186035e-01,1.074766039848327637e+00,2.023864030838012695e+00,-1.584408998489379883e+00,1.023067593574523926e+00
6.318740844726562500e-01,-1.275073766708374023e+00,9.811414480209350586e-01,1.074802637100219727e+00,2.023890256881713867e+00,-1.584447383880615234e+00,1.023016095161437988e+00
6.318733096122741699e-01,-1.274173021316528320e+00,9.811382889747619629e-01,1.074838042259216309e+00,2.023917198181152344e+00,-1.584483504295349121e+00,1.022964954376220703e+00
6.318723559379577637e-01,-1.273131012916564941e+00,9.811350703239440918e-01,1.074872016906738281e+00,2.023944616317749023e+00,-1.584517002105712891e+00,1.022913932800292969e+00
6.318712234497070312e-01,-1.271898746490478516e+00,9.811316728591918945e-01,1.074904441833496094e+00,2.023972749710083008e+00,-1.584547638893127441e+00,1.022863149642944336e+00
6.318697929382324219e-01,-1.270398139953613281e+00,9.811280965805053711e-01,1.074935197830200195e+00,2.024002075195312500e+00,-1.584574580192565918e+00,1.022812247276306152e+00
6.318680644035339355e-01,-1.268489956855773926e+00,9.811242818832397461e-01,1.074964165687561035e+00,2.024033069610595703e+00,-1.584596991539001465e+00,1.022760987281799316e+00
6.323325634002685547e-01,-1.277441620826721191e+00,9.812136292457580566e-01,1.076063275337219238e+00,2.023991823196411133e+00,-1.588938951492309570e+00,1.020328044891357422e+00
6.318431496620178223e-01,-1.258282780647277832e+00,9.811225533485412598e-01,1.075036048889160156e+00,2.024010896682739258e+00,-1.585179567337036133e+00,1.022620201110839844e+00
6.318232417106628418e-01,-1.124152064323425293e+00,9.811019897460937500e-01,1.074986696243286133e+00,2.024123668670654297e+00,-1.584686279296875000e+00,1.022658586502075195e+00
6.317203640937805176e-01,-1.048967123031616211e+00,9.809904694557189941e-01,1.074433326721191406e+00,2.025271892547607422e+00,-1.583012580871582031e+00,1.022185921669006348e+00
6.316680908203125000e-01,-1.047087550163269043e+00,9.809397459030151367e-01,1.074080824851989746e+00,2.026205301284790039e+00,-1.581921577453613281e+00,1.021957039833068848e+00
6.316680312156677246e-01,-1.047051310539245605e+00,9.809382557868957520e-01,1.074126839637756348e+00,2.026309728622436523e+00,-1.581836938858032227e+00,1.021912932395935059e+00
6.316693425178527832e-01,-1.047040939331054688e+00,9.809363484382629395e-01,1.074176311492919922e+00,2.026356220245361328e+00,-1.581847310066223145e+00,1.021868586540222168e+00
6.316702961921691895e-01,-1.047030687332153320e+00,9.809343218803405762e-01,1.074222087860107422e+00,2.026397705078125000e+00,-1.581862807273864746e+00,1.021825313568115234e+00
6.316708922386169434e-01,-1.047019124031066895e+00,9.809322357177734375e-01,1.074265241622924805e+00,2.026437044143676758e+00,-1.581877827644348145e+00,1.021783709526062012e+00
6.316710710525512695e-01,-1.047006249427795410e+00,9.809300899505615234e-01,1.074306488037109375e+00,2.026474475860595703e+00,-1.581892490386962891e+00,1.021743774414062500e+00
6.316708922386169434e-01,-1.046992182731628418e+00,9.809278249740600586e-01,1.074345946311950684e+00,2.026510477066040039e+00,-1.581906557083129883e+00,1.021705269813537598e+00
6.316704154014587402e-01,-1.046977162361145020e+00,9.809255599975585938e-01,1.074383854866027832e+00,2.026545047760009766e+00,-1.581920266151428223e+00,1.021667957305908203e+00
6.316697001457214355e-01,-1.046961307525634766e+00,9.809232950210571289e-01,1.074420332908630371e+00,2.026578187942504883e+00,-1.581933617591857910e+00,1.021631836891174316e+00
6.316687464714050293e-01,-1.046944856643676758e+00,9.809209704399108887e-01,1.074455380439758301e+00,2.026610136032104492e+00,-1.581946492195129395e+00,1.021596670150756836e+00
6.316676139831542969e-01,-1.046928048133850098e+00,9.809186458587646484e-01,1.074489355087280273e+00,2.026641130447387695e+00,-1.581958889961242676e+00,1.021562337875366211e+00
6.316663026809692383e-01,-1.046911001205444336e+00,9.809162616729736328e-01,1.074522018432617188e+00,2.026670932769775391e+00,-1.581970810890197754e+00,1.021528840065002441e+00
6.316648125648498535e-01,-1.046893715858459473e+00,9.809139370918273926e-01,1.074553728103637695e+00,2.026699781417846680e+00,-1.581982254981994629e+00,1.021496057510375977e+00
6.316632032394409180e-01,-1.046876311302185059e+00,9.809115529060363770e-01,1.074584245681762695e+00,2.026727676391601562e+00,-1.581993222236633301e+00,1.021463990211486816e+00
6.316614747047424316e-01,-1.046858906745910645e+00,9.809091687202453613e-01,1.074614048004150391e+00,2.026754856109619141e+00,-1.582003712654113770e+00,1.021432638168334961e+00
6.316596269607543945e-01,-1.046841621398925781e+00,9.809067249298095703e-01,1.074642777442932129e+00,2.026781082153320312e+00,-1.582013726234436035e+00,1.021401762962341309e+00
6.316576600074768066e-01,-1.046824336051940918e+00,9.809043407440185547e-01,1.074670672416687012e+00,2.026806592941284180e+00,-1.582023262977600098e+00,1.021371483802795410e+00
6.316555738449096680e-01,-1.046807289123535156e+00,9.809019565582275391e-01,1.074697852134704590e+00,2.026831388473510742e+00,-1.582032203674316406e+00,1.021341800689697266e+00
6.316534876823425293e-01,-1.046790480613708496e+00,9.808995723724365234e-01,1.074724197387695312e+00,2.026855468750000000e+00,-1.582040786743164062e+00,1.021312475204467773e+00
6.316513419151306152e-01,-1.046773791313171387e+00,9.808971881866455078e-01,1.074749946594238281e+00,2.026878833770751953e+00,-1.582048892974853516e+00,1.021283626556396484e+00
6.316490769386291504e-01,-1.046757459640502930e+00,9.808948040008544922e-01,1.074774980545043945e+00,2.026901721954345703e+00,-1.582056403160095215e+00,1.021255135536193848e+00
6.316468119621276855e-01,-1.046741366386413574e+00,9.808924198150634766e-01,1.074799418449401855e+00,2.026924133300781250e+00,-1.582063555717468262e+00,1.021227002143859863e+00
6.316444873809814453e-01,-1.046725630760192871e+00,9.808900356292724609e-01,1.074823379516601562e+00,2.026945829391479492e+00,-1.582070231437683105e+00,1.021199226379394531e+00
6.316421627998352051e-01,-1.046710133552551270e+00,9.808877110481262207e-01,1.074846744537353516e+00,2.026967525482177734e+00,-1.582076549530029297e+00,1.021171569824218750e+00
6.316397786140441895e-01,-1.046694993972778320e+00,9.808853268623352051e-01,1.074869751930236816e+00,2.026988744735717773e+00,-1.582082509994506836e+00,1.021144270896911621e+00
6.316373944282531738e-01,-1.046680212020874023e+00,9.808830022811889648e-01,1.074892401695251465e+00,2.027009725570678711e+00,-1.582088112831115723e+00,1.021117091178894043e+00
6.316350698471069336e-01,-1.046665668487548828e+00,9.808806777000427246e-01,1.074914693832397461e+00,2.027030706405639648e+00,-1.582093477249145508e+00,1.021090030670166016e+00
6.316326856613159180e-01,-1.046651482582092285e+00,9.808782935142517090e-01,1.074936866760253906e+00,2.027051925659179688e+00,-1.582098603248596191e+00,1.021062970161437988e+00
6.316304206848144531e-01,-1.046637535095214844e+00,9.808759689331054688e-01,1.074958920478820801e+00,2.027073383331298828e+00,-1.582103729248046875e+00,1.021035790443420410e+00
6.316281557083129883e-01,-1.046623826026916504e+00,9.808737039566040039e-01,1.074981093406677246e+00,2.027095556259155273e+00,-1.582108736038208008e+00,1.021008253097534180e+00
6.316260099411010742e-01,-1.046610355377197266e+00,9.808713197708129883e-01,1.075003623962402344e+00,2.027119159698486328e+00,-1.582114219665527344e+00,1.020980238914489746e+00
6.316241025924682617e-01,-1.046596884727478027e+00,9.808690547943115234e-01,1.075027227401733398e+00,2.027145147323608398e+00,-1.582120537757873535e+00,1.020951271057128906e+00
6.316224932670593262e-01,-1.046583175659179688e+00,9.808667302131652832e-01,1.075052857398986816e+00,2.027175664901733398e+00,-1.582128763198852539e+00,1.020920157432556152e+00
6.316216588020324707e-01,-1.046568155288696289e+00,9.808644056320190430e-01,1.075084209442138672e+00,2.027217864990234375e+00,-1.582142472267150879e+00,1.020883560180664062e+00
6.316236853599548340e-01,-1.046546816825866699e+00,9.808619618415832520e-01,1.075136423110961914e+00,2.027302503585815430e+00,-1.582177042961120605e+00,1.020828008651733398e+00
6.316280364990234375e-01,-1.046520233154296875e+00,9.808595180511474609e-01,1.075205326080322266e+00,2.027427196502685547e+00,-1.582229375839233398e+00,1.020755887031555176e+00
6.316316127777099609e-01,-1.046484947204589844e+00,9.808567762374877930e-01,1.075276017189025879e+00,2.027562618255615234e+00,-1.582288980484008789e+00,1.020682454109191895e+00
6.316342353820800781e-01,-1.046452999114990234e+00,9.808542728424072266e-01,1.075337648391723633e+00,2.027686119079589844e+00,-1.582340478897094727e+00,1.020615816116333008e+00
6.320437192916870117e-01,-1.047074437141418457e+00,9.809069633483886719e-01,1.076319456100463867e+00,2.027523279190063477e+00,-1.585784316062927246e+00,1.018850207328796387e+00
6.315966248512268066e-01,-1.046290040016174316e+00,9.808462858200073242e-01,1.075319766998291016e+00,2.027554988861083984e+00,-1.582594633102416992e+00,1.020575284957885742e+00
6.316018104553222656e-01,-1.046305418014526367e+00,9.808458089828491211e-01,1.075343728065490723e+00,2.027575731277465820e+00,-1.582381725311279297e+00,1.020607948303222656e+00
6.316087841987609863e-01,-1.046307682991027832e+00,9.808447957038879395e-01,1.075395345687866211e+00,2.027680635452270508e+00,-1.582396745681762695e+00,1.020547151565551758e+00
6.316137313842773438e-01,-1.046304225921630859e+00,9.808434844017028809e-01,1.075442194938659668e+00,2.027784347534179688e+00,-1.582422018051147461e+00,1.020487308502197266e+00
6.316168308258056641e-01,-1.046296954154968262e+00,9.808418750762939453e-01,1.075483322143554688e+00,2.027875185012817383e+00,-1.582444667816162109e+00,1.020433902740478516e+00
6.316183805465698242e-01,-1.046287894248962402e+00,9.808400273323059082e-01,1.075518012046813965e+00,2.027950525283813477e+00,-1.582462430000305176e+00,1.020387649536132812e+00
6.316162943840026855e-01,-1.046284794807434082e+00,9.808383584022521973e-01,1.075530409812927246e+00,2.027966260910034180e+00,-1.582454800605773926e+00,1.020363569259643555e+00
6.316127777099609375e-01,-1.046275734901428223e+00,9.808363914489746094e-01,1.075539827346801758e+00,2.027966737747192383e+00,-1.582447648048400879e+00,1.020344734191894531e+00
6.316050291061401367e-01,-1.046209692955017090e+00,9.808319807052612305e-01,1.075579643249511719e+00,2.028022527694702148e+00,-1.582502245903015137e+00,1.020310044288635254e+00
6.316032409667968750e-01,-1.046199321746826172e+00,9.808313250541687012e-01,1.075591564178466797e+00,2.028032064437866211e+00,-1.582503676414489746e+00,1.020286321640014648e+00
