Afshin1997/kuka_rl_ros2/src/catch_and_throw/output_files/tm/idealpd_2/tm_received_joint_target_np.csv
joint_0,joint_1,joint_2,joint_3,joint_4,joint_5,joint_6
0.788096,0.00669183,1.33426,1.22812,1.61825,-0.895242,1.58463
0.789325,0.008879,1.34122,1.23282,1.62909,-0.884624,1.59649
0.790543,0.0109442,1.34751,1.23688,1.63836,-0.875547,1.60663
0.791704,0.0128438,1.35318,1.24037,1.6463,-0.867786,1.61529
0.792777,0.0145493,1.35827,1.24334,1.65309,-0.861148,1.6227
0.793745,0.0160471,1.36283,1.24584,1.65891,-0.855469,1.62903
0.794576,0.017319,1.36688,1.24794,1.66389,-0.850616,1.63443
0.795273,0.0184228,1.37042,1.24972,1.66814,-0.846463,1.63905
0.796026,0.0194872,1.37358,1.2513,1.67183,-0.842895,1.64305
0.797771,0.0205014,1.37675,1.25262,1.67532,-0.839687,1.64678
0.800997,0.0209688,1.38024,1.2534,1.67895,-0.836759,1.65056
0.805233,0.0206116,1.38407,1.25352,1.68282,-0.834466,1.65453
0.809903,0.0191623,1.38819,1.25254,1.68689,-0.835464,1.6587
0.814594,0.0165256,1.39252,1.24999,1.69107,-0.850255,1.66302
0.819192,0.0128282,1.3969,1.24612,1.69527,-0.865427,1.66747
0.823635,0.00856446,1.4012,1.24171,1.69951,-0.878652,1.67203
0.827775,0.00418663,1.40533,1.23721,1.70379,-0.889635,1.67668
0.831625,-0.000237689,1.40933,1.23289,1.70812,-0.898451,1.6814
0.835241,-0.00458755,1.41319,1.22889,1.71244,-0.905326,1.68613
0.838649,-0.00878427,1.41685,1.22538,1.71669,-0.910497,1.69083
0.842037,-0.0131227,1.42039,1.22282,1.72098,-0.913593,1.69551
0.845306,-0.0174326,1.42374,1.22126,1.72531,-0.911729,1.70016
0.848342,-0.0214134,1.42688,1.22056,1.7297,-0.8948,1.70479
0.851125,-0.0250723,1.42981,1.22021,1.73414,-0.877982,1.70937
0.853658,-0.0284513,1.4325,1.21985,1.73861,-0.863182,1.71389
0.85599,-0.0316231,1.43494,1.21933,1.74313,-0.850612,1.71835
0.85816,-0.0345651,1.43708,1.21863,1.74768,-0.84011,1.72276
0.860233,-0.0373274,1.43905,1.2177,1.75227,-0.831434,1.72719
0.862344,-0.0400767,1.44088,1.2164,1.75692,-0.824228,1.73169
0.864563,-0.0428741,1.4427,1.21467,1.76164,-0.81811,1.73633
0.866898,-0.0456862,1.44453,1.21257,1.76642,-0.812835,1.74114
0.869334,-0.0484469,1.4464,1.21021,1.77128,-0.808278,1.74611
0.871882,-0.051174,1.44839,1.20762,1.77621,-0.804374,1.75125
0.874595,-0.0539468,1.45043,1.20474,1.7812,-0.80128,1.75651
0.877468,-0.0567262,1.45249,1.20161,1.78624,-0.799672,1.76187
0.880474,-0.0594698,1.45463,1.1983,1.79134,-0.803148,1.76733
0.883573,-0.0621481,1.45696,1.1949,1.79649,-0.81681,1.77289
0.886744,-0.0648043,1.4594,1.19148,1.80167,-0.830607,1.7785
0.890035,-0.0674888,1.46171,1.18803,1.80688,-0.842806,1.78412
0.893448,-0.0701779,1.46391,1.1846,1.81212,-0.853077,1.78973
0.896889,-0.0728136,1.46607,1.18118,1.81738,-0.861476,1.79533
0.90032,-0.0754169,1.46798,1.17784,1.82268,-0.868176,1.80092
0.903803,-0.078044,1.46918,1.17464,1.82801,-0.873439,1.80648
0.90744,-0.0807442,1.46733,1.17168,1.83334,-0.877653,1.81194
0.911215,-0.0834763,1.46158,1.16898,1.83867,-0.881102,1.81725
0.915049,-0.0861757,1.45466,1.16648,1.84399,-0.883958,1.8224
0.91889,-0.0888285,1.44779,1.16414,1.84932,-0.886297,1.8274
0.922717,-0.0914197,1.44149,1.16195,1.85466,-0.888132,1.83231
0.926587,-0.0939913,1.43588,1.1599,1.85998,-0.889599,1.83707
0.930554,-0.096593,1.43104,1.15789,1.86528,-0.891,1.84161
0.934588,-0.099191,1.42692,1.15585,1.87056,-0.892177,1.84608
0.938633,-0.101701,1.42329,1.15387,1.87586,-0.892176,1.85065
0.942649,-0.104082,1.42,1.15185,1.88117,-0.89038,1.85522
0.94673,-0.106372,1.41706,1.14973,1.88648,-0.887138,1.85964
0.950904,-0.108537,1.41443,1.14747,1.89177,-0.883249,1.86385
0.955139,-0.110551,1.41196,1.14508,1.89705,-0.875671,1.86788
0.959383,-0.112354,1.4095,1.14264,1.90235,-0.865172,1.87203
0.963587,-0.113915,1.40697,1.14016,1.90767,-0.854419,1.87652
0.96784,-0.11541,1.4045,1.13761,1.91301,-0.844946,1.88122
0.972203,-0.116964,1.40212,1.1349,1.91836,-0.837038,1.88595
0.976629,-0.118441,1.39966,1.13212,1.92374,-0.830222,1.89094
0.981044,-0.119731,1.39705,1.12934,1.92917,-0.824135,1.89634
0.985485,-0.120983,1.39436,1.12646,1.93466,-0.818855,1.90193
0.990093,-0.122501,1.39173,1.1234,1.94019,-0.814529,1.90752
0.994848,-0.124223,1.38913,1.12015,1.94576,-0.810978,1.91316
0.999598,-0.125865,1.38639,1.11675,1.95138,-0.807692,1.919
1.00429,-0.127397,1.38355,1.11323,1.95706,-0.804519,1.92503
1.00903,-0.12909,1.38076,1.10958,1.96277,-0.801937,1.93106
1.01386,-0.131058,1.37805,1.10578,1.9685,-0.800396,1.93698
1.01867,-0.133002,1.37532,1.10195,1.97427,-0.799911,1.94286
1.02335,-0.134802,1.37254,1.09806,1.98004,-0.80123,1.9487
1.02799,-0.136745,1.36978,1.09405,1.98586,-0.812642,1.95448
1.03271,-0.139051,1.36711,1.08993,1.99173,-0.826416,1.96014
1.03742,-0.141416,1.36449,1.08576,1.99762,-0.839078,1.96572
1.04197,-0.143624,1.36198,1.08165,2.00355,-0.849973,1.9713
1.04637,-0.145725,1.35964,1.07765,2.00952,-0.859148,1.97692
1.05077,-0.148026,1.35722,1.07362,2.0155,-0.866723,1.98248
1.05531,-0.150547,1.35458,1.06967,2.02146,-0.872857,1.98793
1.0598,-0.152905,1.35163,1.06587,2.02742,-0.877734,1.99331
1.06412,-0.154806,1.34849,1.06236,2.03334,-0.881359,1.99871
1.06842,-0.156429,1.34528,1.05927,2.03926,-0.883384,2.00415
1.07276,-0.158099,1.34184,1.0563,2.04515,-0.88368,2.00947
1.07709,-0.159622,1.33826,1.05346,2.05101,-0.880596,2.01473
1.08124,-0.160428,1.3346,1.05083,2.05683,-0.867313,2.02007
1.08519,-0.160448,1.33083,1.04827,2.06262,-0.853314,2.02543
1.08907,-0.160506,1.32697,1.04564,2.06843,-0.841027,2.03067
1.09291,-0.161216,1.32295,1.04267,2.07425,-0.831082,2.03563
1.09664,-0.161956,1.31881,1.03951,2.08005,-0.822847,2.04048
1.10023,-0.162289,1.31462,1.03634,2.08586,-0.815727,2.04538
1.10381,-0.162557,1.31045,1.03319,2.09169,-0.809717,2.0503
1.10752,-0.163112,1.30643,1.03006,2.09755,-0.804742,2.05531
1.11136,-0.163571,1.3025,1.02701,2.10344,-0.80038,2.06052
1.11524,-0.163396,1.29858,1.02405,2.10934,-0.796384,2.06593
1.11915,-0.163369,1.29467,1.02099,2.11527,-0.79308,2.07141
1.12321,-0.16494,1.29082,1.01755,2.12129,-0.79173,2.07682
1.12736,-0.167629,1.28698,1.01375,2.12736,-0.795813,2.08211
1.13146,-0.170018,1.28308,1.00988,2.13345,-0.807737,2.08755
1.13543,-0.171535,1.27914,1.00608,2.13954,-0.820711,2.09319
1.13935,-0.173209,1.27524,1.00224,2.14564,-0.833207,2.09889
1.14336,-0.175908,1.27142,0.998222,2.15182,-0.844398,2.10453
1.14734,-0.178892,1.26763,0.994154,2.15803,-0.853936,2.11017
1.15106,-0.181115,1.26379,0.990208,2.16426,-0.861818,2.11591
1.15456,-0.18284,1.25984,0.986349,2.17046,-0.868273,2.12166
1.15813,-0.185176,1.25561,0.982336,2.17665,-0.873723,2.12719
1.16177,-0.188046,1.25122,0.978259,2.18282,-0.878482,2.13251
1.16528,-0.190275,1.24671,0.974428,2.18895,-0.882658,2.1378
1.16847,-0.190541,1.24205,0.971076,2.19501,-0.886278,2.1432
1.17139,-0.189092,1.23728,0.968137,2.201,-0.889508,2.14859
1.17419,-0.188371,1.23257,0.965259,2.20696,-0.892645,2.15377
1.17689,-0.188693,1.22796,0.962371,2.21294,-0.895723,2.15871
1.17935,-0.187584,1.22328,0.959783,2.21885,-0.898547,2.16367
1.18139,-0.183293,1.21845,0.957718,2.22468,-0.901,2.16871
1.18297,-0.179197,1.21361,0.955899,2.23044,-0.90329,2.17354
1.18409,-0.178442,1.20894,0.953864,2.23623,-0.905784,2.17783
1.18468,-0.180217,1.20437,0.951625,2.24204,-0.908399,2.18158
1.18471,-0.181195,1.19964,0.949595,2.24778,-0.910615,2.1855
1.18388,-0.180448,1.19476,0.947978,2.25345,-0.912111,2.18984
1.18182,-0.180166,1.18989,0.946553,2.25913,-0.913126,2.19416
1.17855,-0.182119,1.18517,0.944946,2.26489,-0.9144,2.19813
1.17501,-0.184702,1.18045,0.943251,2.27064,-0.915931,2.20222
1.17145,-0.186125,1.17557,0.941936,2.27624,-0.916504,2.20689
1.16789,-0.186306,1.17052,0.941066,2.28177,-0.916322,2.21193
1.16446,-0.186957,1.16546,0.940343,2.28731,-0.916281,2.21694
1.16137,-0.188639,1.16044,0.939496,2.29288,-0.917631,2.22195
1.15866,-0.19032,1.15537,0.938834,2.29836,-0.919411,2.22706
1.1563,-0.191601,1.1502,0.938615,2.30365,-0.921388,2.23225
1.15421,-0.19254,1.14497,0.938861,2.30882,-0.923754,2.23751
1.15233,-0.193274,1.13969,0.939511,2.31395,-0.926741,2.24272
1.15065,-0.19395,1.13438,0.940431,2.31899,-0.930483,2.24783
1.1492,-0.195253,1.12912,0.94139,2.32406,-0.934894,2.25272
1.14798,-0.197493,1.12393,0.942199,2.32936,-0.939955,2.2573
1.14689,-0.20009,1.11876,0.942977,2.33478,-0.945275,2.26165
1.14585,-0.202437,1.1135,0.943993,2.34012,-0.950448,2.26584
1.14483,-0.204762,1.10823,0.945163,2.3455,-0.955439,2.26976
1.14385,-0.207397,1.10304,0.946437,2.35117,-0.96014,2.27332
1.14286,-0.2101,1.09788,0.947871,2.35701,-0.964536,2.27653
1.14176,-0.212607,1.09266,0.949571,2.36281,-0.968458,2.27947
1.14057,-0.215117,1.08746,0.951388,2.36859,-0.971941,2.28201
1.13932,-0.217786,1.08236,0.953317,2.37455,-0.974906,2.28401
1.13796,-0.220415,1.07729,0.955405,2.38054,-0.977182,2.28578
1.1364,-0.222843,1.07216,0.957637,2.38637,-0.978417,2.28736
1.13466,-0.225146,1.06705,0.960018,2.3921,-0.97711,2.28901
1.13281,-0.22747,1.06202,0.962478,2.39787,-0.972258,2.29067
1.13079,-0.229756,1.05702,0.965026,2.40358,-0.964645,2.2927
1.12854,-0.231883,1.05197,0.967659,2.40912,-0.956247,2.29514
1.12612,-0.233941,1.04695,0.970326,2.41455,-0.948332,2.2982
1.12362,-0.235986,1.04204,0.973004,2.42001,-0.941542,2.30185
1.12106,-0.237953,1.03718,0.975724,2.42546,-0.935933,2.30609
1.11836,-0.239738,1.03225,0.978486,2.43072,-0.931452,2.31074
1.11558,-0.241338,1.02729,0.981234,2.43568,-0.928543,2.31543
1.11278,-0.242774,1.02238,0.984035,2.44047,-0.928119,2.32017
1.10997,-0.244024,1.01747,0.986883,2.44501,-0.933904,2.32477
1.10686,-0.246055,1.01192,0.976591,2.44967,-0.951237,2.33329
1.10374,-0.247697,1.0064,0.967743,2.45375,-0.966233,2.34101
1.10775,-0.240977,1.02268,0.953514,2.46261,-0.980211,2.34948
1.11126,-0.233982,1.03669,0.942089,2.47088,-0.991798,2.35719
1.11419,-0.228064,1.04839,0.933092,2.47867,-1.00134,2.36424
1.11654,-0.223255,1.05795,0.926046,2.48606,-1.0093,2.37075
1.11845,-0.219108,1.06558,0.920426,2.49308,-1.01613,2.37681
1.12004,-0.215402,1.07145,0.915889,2.49977,-1.02211,2.38252
1.12134,-0.212135,1.07581,0.912172,2.50616,-1.02742,2.38798
1.11865,-0.209004,1.07944,0.908791,2.51071,-1.03232,2.39303
1.11593,-0.205443,1.08231,0.905512,2.51457,-1.03698,2.39797
1.11311,-0.202073,1.08465,0.90241,2.51722,-1.04143,2.40286
1.11007,-0.199551,1.08669,0.899597,2.5181,-1.04575,2.40775
1.10686,-0.198011,1.0886,0.896974,2.51255,-1.05004,2.41268
1.10366,-0.197338,1.09051,0.89448,2.50259,-1.05433,2.41762
1.10058,-0.197379,1.09238,0.892024,2.49213,-1.0587,2.42256
1.09903,-0.202877,1.09326,0.889687,2.50237,-1.06312,2.42812
1.0973,-0.209119,1.094,0.887291,2.50889,-1.06761,2.43368
1.09551,-0.215779,1.0945,0.884858,2.50882,-1.07217,2.43923
1.09371,-0.222808,1.0945,0.882293,2.50331,-1.07685,2.44474
1.09192,-0.229964,1.0938,0.879573,2.49735,-1.08164,2.4502
1.0901,-0.237017,1.09245,0.876714,2.49185,-1.08648,2.45559
1.08827,-0.243942,1.09015,0.873771,2.48717,-1.09139,2.4609
1.08658,-0.250948,1.08458,0.870702,2.4832,-1.09637,2.46607
1.08502,-0.257791,1.07674,0.867569,2.48017,-1.10144,2.47106
1.08134,-0.264172,1.06458,0.867318,2.49888,-1.10599,2.47352
1.07785,-0.270411,1.05409,0.866644,2.51546,-1.11063,2.47382
1.07457,-0.276297,1.04524,0.865686,2.53032,-1.11531,2.46719
1.07146,-0.281749,1.03777,0.864728,2.54355,-1.11998,2.45715
1.06849,-0.286745,1.03141,0.864096,2.55515,-1.12453,2.44744
1.06585,-0.291313,1.02593,0.863803,2.56525,-1.12887,2.43872
1.06357,-0.295441,1.02116,0.863815,2.57407,-1.1329,2.43165
1.06158,-0.299104,1.01691,0.864052,2.58182,-1.13657,2.42699
1.05964,-0.302324,1.013,0.864597,2.58872,-1.13968,2.42717
1.05925,-0.305151,1.00944,0.862504,2.59445,-1.14514,2.44247
1.05804,-0.307572,1.00592,0.8628,2.59933,-1.14972,2.45892
1.05706,-0.309607,1.00255,0.864668,2.60309,-1.15415,2.47373
1.05672,-0.311278,0.999374,0.867596,2.60634,-1.15825,2.48652
1.057,-0.31261,0.996396,0.87072,2.6098,-1.16166,2.49731
1.05779,-0.313645,0.993598,0.873674,2.61357,-1.16339,2.50632
1.05907,-0.314458,0.990789,0.87654,2.61747,-1.15946,2.51393
1.06088,-0.315102,0.987874,0.879393,2.62152,-1.14722,2.52052
1.06329,-0.315617,0.984828,0.88248,2.6258,-1.13447,2.52636
1.066,-0.316041,0.981598,0.885628,2.63037,-1.12301,2.5317
1.06878,-0.316415,0.978174,0.888705,2.63518,-1.11335,2.53671
1.07145,-0.31676,0.974545,0.89166,2.64023,-1.10545,2.54154
1.07368,-0.317082,0.970789,0.894643,2.64563,-1.09903,2.54627
1.07582,-0.317351,0.967038,0.897449,2.6514,-1.09382,2.55093
1.0785,-0.317469,0.963404,0.899829,2.65747,-1.08942,2.55548
1.08159,-0.317296,0.959905,0.901548,2.66364,-1.08557,2.55967
1.08497,-0.316593,0.95692,0.902477,2.66983,-1.08209,2.56271
1.08813,-0.315013,0.955301,0.903015,2.67598,-1.07885,2.55938
1.09069,-0.312237,0.956728,0.903372,2.68205,-1.07573,2.54361
1.0924,-0.307613,0.965015,0.90384,2.68802,-1.07267,2.52936
1.09316,-0.29896,0.974652,0.904679,2.69385,-1.06968,2.51772
1.09296,-0.289253,0.983468,0.905584,2.69959,-1.0669,2.50866
1.09204,-0.280683,0.991009,0.906396,2.70522,-1.06456,2.50185
1.09056,-0.273541,0.997256,0.906806,2.71078,-1.06336,2.49724
1.0883,-0.267888,1.00247,0.906414,2.71629,-1.07478,2.49774
1.08519,-0.263913,1.00731,0.904958,2.72167,-1.09371,2.5169
1.08068,-0.261813,1.01162,0.902004,2.72679,-1.11055,2.53452
1.07543,-0.261404,1.01529,0.898494,2.73133,-1.12466,2.54969
1.0704,-0.26217,1.01824,0.895341,2.73452,-1.13619,2.56246
1.06561,-0.26382,1.02062,0.892875,2.73411,-1.14541,2.57301
1.06131,-0.26605,1.02264,0.89122,2.7247,-1.15275,2.58161
1.05786,-0.268363,1.02463,0.890145,2.71393,-1.15875,2.58873
1.05536,-0.27036,1.02665,0.889256,2.70506,-1.16378,2.59487
1.05397,-0.27195,1.02879,0.888434,2.69849,-1.16816,2.6003
1.05354,-0.273168,1.0311,0.887311,2.69467,-1.17214,2.60529
1.05384,-0.274004,1.03358,0.885931,2.69498,-1.17595,2.61003
1.05428,-0.27445,1.0362,0.884677,2.70202,-1.17972,2.61466
1.05436,-0.274527,1.03883,0.884659,2.71307,-1.18341,2.61927
1.05393,-0.274415,1.04153,0.886421,2.72591,-1.18686,2.62392
1.05294,-0.274286,1.04438,0.889322,2.73871,-1.1899,2.62863
1.0515,-0.274327,1.04742,0.892697,2.75062,-1.19246,2.63341
1.04996,-0.274551,1.05051,0.896348,2.76136,-1.19402,2.63822
1.04851,-0.274908,1.05335,0.900342,2.77094,-1.19224,2.64306
1.0471,-0.275468,1.05586,0.904508,2.7795,-1.17773,2.64786
1.04577,-0.276343,1.05792,0.908777,2.78719,-1.16197,2.65255
1.04437,-0.277518,1.05958,0.913072,2.79422,-1.14802,2.65705
1.04299,-0.279123,1.06035,0.917344,2.80069,-1.13629,2.66123
1.04176,-0.281308,1.05971,0.9215,2.8067,-1.12667,2.66489
1.04055,-0.283702,1.05739,0.92553,2.81243,-1.11891,2.66792
1.03937,-0.28605,1.05215,0.929353,2.818,-1.11265,2.66982
1.03799,-0.288133,1.04502,0.932872,2.82351,-1.1075,2.66864
1.03658,-0.290571,1.03724,0.935972,2.82901,-1.10317,2.6585
1.03485,-0.293615,1.02998,0.938781,2.83456,-1.09941,2.64806
1.03287,-0.297734,1.02376,0.941252,2.84015,-1.09619,2.63952
1.0305,-0.30198,1.01867,0.943548,2.84577,-1.0933,2.63323
1.0277,-0.304946,1.01469,0.945701,2.85138,-1.09082,2.63058
1.02454,-0.305932,1.01123,0.947824,2.85699,-1.08861,2.63692
1.02133,-0.305246,1.00839,0.949432,2.86257,-1.08812,2.64913
1.01815,-0.303169,1.00589,0.950203,2.86807,-1.0982,2.66267
1.01558,-0.300237,1.00379,0.949838,2.87336,-1.11562,2.6755
1.01359,-0.296981,1.00197,0.948776,2.87821,-1.13118,2.68682
1.01187,-0.29409,1.00042,0.947213,2.8823,-1.14428,2.69651
1.00997,-0.291771,0.999376,0.944705,2.88553,-1.15501,2.7048
1.00777,-0.28997,0.998647,0.941861,2.88755,-1.1636,2.71197
1.00565,-0.28817,0.99788,0.939154,2.88853,-1.17044,2.71827
1.00432,-0.286034,0.996426,0.936657,2.88901,-1.17605,2.72397
1.00432,-0.283389,0.994264,0.934511,2.89078,-1.18082,2.72924
1.00584,-0.280486,0.991513,0.932929,2.89375,-1.18498,2.73425
1.00932,-0.277186,0.988194,0.932055,2.8988,-1.18872,2.73912
1.01394,-0.273797,0.984298,0.932499,2.90466,-1.19207,2.74389
1.01879,-0.270499,0.979727,0.935062,2.91052,-1.19501,2.74861
1.02329,-0.26886,0.975755,0.936657,2.91866,-1.19362,2.75338
1.02714,-0.267285,0.971512,0.939648,2.92626,-1.18403,2.75813
1.03043,-0.265797,0.967132,0.943658,2.93324,-1.16853,2.76281
1.03321,-0.264405,0.962742,0.948337,2.9396,-1.15345,2.76738
1.03543,-0.263141,0.958433,0.953247,2.94542,-1.14015,2.77174
1.03718,-0.262047,0.954172,0.958267,2.9507,-1.12891,2.77581
1.03858,-0.261145,0.949967,0.963336,2.95557,-1.11959,2.77937
1.03972,-0.260463,0.945816,0.968262,2.96018,-1.11196,2.7822
1.04047,-0.259894,0.941834,0.972679,2.9649,-1.10562,2.78375
1.04066,-0.259382,0.938025,0.976524,2.96976,-1.1002,2.78268
1.0402,-0.258927,0.934387,0.979867,2.97464,-1.09538,2.77472
1.03903,-0.258539,0.930924,0.982643,2.97939,-1.09101,2.76497
1.03693,-0.258313,0.927664,0.984864,2.98395,-1.08697,2.7557
1.03396,-0.258403,0.924773,0.986218,2.98825,-1.08336,2.74745
1.03026,-0.258832,0.92215,0.986473,2.99222,-1.08051,2.74082
1.0264,-0.25961,0.91968,0.985663,2.99584,-1.0796,2.7361
1.02266,-0.26067,0.917589,0.983642,2.99911,-1.09262,2.73422
1.01887,-0.261618,0.915958,0.98065,3.00202,-1.1093,2.74668
1.01509,-0.262717,0.915811,0.977199,3.00457,-1.12454,2.76286
1.01194,-0.26429,0.920186,0.973803,3.00676,-1.1374,2.7779
1.00903,-0.266472,0.927316,0.970938,3.00859,-1.14791,2.79101
1.00651,-0.268804,0.934355,0.969231,3.01001,-1.15628,2.80212
1.0047,-0.270782,0.940264,0.968993,3.01106,-1.16285,2.81139
1.00394,-0.272399,0.944908,0.969952,3.01184,-1.16809,2.81916
1.00461,-0.273651,0.948299,0.971756,3.01244,-1.17241,2.82585
1.00706,-0.274367,0.950493,0.973759,3.01295,-1.17603,2.83176
1.01129,-0.274524,0.951623,0.97553,3.01338,-1.17916,2.83712
1.01588,-0.275117,0.951569,0.977064,3.01372,-1.18195,2.84214
1.02002,-0.276021,0.950399,0.977839,3.01399,-1.18432,2.84697
1.02372,-0.276658,0.947252,0.978163,3.01414,-1.18622,2.85171
1.02678,-0.276734,0.942433,0.978656,3.01423,-1.18714,2.8564
1.029,-0.276756,0.936283,0.979731,3.01426,-1.18577,2.8611
1.03034,-0.277105,0.928704,0.982073,3.0142,-1.1746,2.86581
1.03088,-0.277654,0.920807,0.985572,3.01407,-1.15851,2.87048
1.03096,-0.27854,0.913081,0.989938,3.01385,-1.14362,2.87504
1.03069,-0.279709,0.905975,0.994783,3.01356,-1.13075,2.87933
1.03041,-0.280702,0.899425,0.999864,3.01318,-1.12,2.88316
1.02982,-0.28176,0.893693,1.0048,3.01275,-1.11119,2.88606
1.0288,-0.282715,0.888958,1.0094,3.0123,-1.10395,2.88667
1.02748,-0.28344,0.885343,1.01353,3.01186,-1.09784,2.87719
1.02591,-0.284401,0.882647,1.01723,3.01141,-1.09258,2.86426
1.02402,-0.285491,0.881067,1.02034,3.01096,-1.08793,2.85248
1.02217,-0.286709,0.881445,1.02276,3.01048,-1.0837,2.84261
1.02015,-0.287937,0.884171,1.02436,3.00999,-1.07981,2.83465
1.01865,-0.289252,0.89123,1.02473,3.00946,-1.07649,2.82859
1.01711,-0.290422,0.899516,1.02331,3.00888,-1.07441,2.82488
1.01535,-0.291268,0.907856,1.01913,3.00824,-1.07809,2.83081
1.01387,-0.291823,0.91613,1.01319,3.00754,-1.09649,2.84895
1.01253,-0.292225,0.923737,1.00706,3.00674,-1.1134,2.86569
1.01123,-0.292364,0.930254,1.00155,3.00583,-1.12769,2.88013
1.00979,-0.292063,0.935572,0.996798,3.00482,-1.13936,2.89228
1.00829,-0.291418,0.939891,0.992975,3.0037,-1.14868,2.90231
1.00678,-0.290653,0.943447,0.990061,3.0025,-1.15599,2.91051
1.00556,-0.289808,0.946433,0.988115,3.00133,-1.16177,2.91738
1.00494,-0.288938,0.949138,0.987117,3.00022,-1.16647,2.92334
1.00516,-0.288016,0.951747,0.986748,2.99917,-1.17042,2.92865
1.00619,-0.287015,0.954263,0.986975,2.9982,-1.17387,2.93356
1.00784,-0.286093,0.956606,0.98791,2.99729,-1.177,2.93824
1.00981,-0.28495,0.958624,0.989481,2.99639,-1.17995,2.94283
1.01149,-0.283526,0.960376,0.992075,2.99552,-1.18268,2.9474
1.0127,-0.282582,0.96198,0.995992,2.99469,-1.18516,2.95199
1.01312,-0.282196,0.96337,1.00052,2.99395,-1.18723,2.95663
1.01294,-0.282362,0.964394,1.00541,2.99327,-1.18866,2.96131
1.01224,-0.283055,0.965008,1.01038,2.99264,-1.18856,2.96599
1.01091,-0.284533,0.965136,1.01509,2.99206,-1.1829,2.97066
1.00921,-0.286574,0.965086,1.01945,2.99154,-1.1678,2.97528
1.00732,-0.288664,0.96462,1.02352,2.99106,-1.15286,2.97977
1.00521,-0.291036,0.962734,1.02735,2.99061,-1.1397,2.98404
1.00312,-0.293562,0.959672,1.03093,2.99018,-1.12853,2.98797
1.0011,-0.296132,0.955299,1.03425,2.98979,-1.11927,2.99137
0.999109,-0.298277,0.95051,1.03736,2.98944,-1.11167,2.99383
0.997143,-0.299725,0.946508,1.04017,2.98916,-1.10532,2.99466
0.995318,-0.300624,0.943812,1.04255,2.98894,-1.09995,2.99315
0.993445,-0.30114,0.942321,1.04442,2.98877,-1.09533,2.98951
0.991662,-0.301495,0.942616,1.04573,2.98864,-1.0912,2.98823
0.989994,-0.301301,0.9452,1.04647,2.98851,-1.08748,2.9917
0.988513,-0.300814,0.949949,1.04647,2.9884,-1.08419,2.99791
0.987265,-0.30049,0.955859,1.0455,2.98827,-1.0818,3.00519
0.98607,-0.3,0.96222,1.04334,2.98812,-1.08158,3.01288
0.985115,-0.299515,0.96886,1.03969,2.98795,-1.09549,3.02046
0.984212,-0.298937,0.975349,1.03524,2.98777,-1.11214,3.02765
0.983081,-0.298274,0.981527,1.03012,2.98756,-1.12717,3.0343
0.981836,-0.29784,0.987395,1.02493,2.98732,-1.13988,3.04037
0.980397,-0.297382,0.992915,1.01986,2.98706,-1.15028,3.04584
0.978825,-0.29661,0.99799,1.01525,2.98677,-1.15857,3.05074
0.977354,-0.295844,1.00268,1.01143,2.98646,-1.16512,3.0551
0.976235,-0.295209,1.00703,1.00856,2.98614,-1.17039,3.05897
0.975617,-0.294228,1.01097,1.00663,2.98579,-1.17472,3.06239
0.975504,-0.293022,1.01453,1.00561,2.9854,-1.17835,3.06539
0.975915,-0.291965,1.0176,1.00531,2.98491,-1.18156,3.06799
0.976772,-0.291025,1.02008,1.00531,2.98428,-1.18451,3.07024
0.978242,-0.290511,1.02187,1.00556,2.9834,-1.18741,3.07215
0.980179,-0.290468,1.02302,1.00603,2.98222,-1.19031,3.07376
0.982146,-0.291006,1.02343,1.00663,2.98067,-1.19321,3.0751
0.984023,-0.292433,1.02281,1.00744,2.97863,-1.19611,3.0762
0.985578,-0.294901,1.02073,1.00826,2.976,-1.199,3.07708
0.98692,-0.298337,1.01702,1.00896,2.97277,-1.20187,3.07777
0.987878,-0.302334,1.012,1.00942,2.96856,-1.20471,3.07828
0.988281,-0.30644,1.00683,1.00985,2.96357,-1.20731,3.07865
0.988222,-0.310465,1.00197,1.01045,2.95817,-1.2094,3.07894
0.987801,-0.314354,0.997634,1.0111,2.95188,-1.21092,3.07919
0.987048,-0.317783,0.994234,1.01151,2.94555,-1.21155,3.07941
0.985783,-0.320774,0.991537,1.01194,2.93956,-1.20865,3.0796
0.984352,-0.323407,0.989198,1.01265,2.93232,-1.19689,3.07977
0.983054,-0.325537,0.987106,1.01374,2.92356,-1.18385,3.07989
0.982,-0.327568,0.984892,1.01498,2.91375,-1.17205,3.07996
0.981196,-0.329402,0.982759,1.01602,2.90447,-1.16185,3.07996
0.980435,-0.330967,0.98071,1.01733,2.89626,-1.15313,3.0799
0.979851,-0.332245,0.978742,1.01889,2.88907,-1.14588,3.07978
0.979614,-0.332925,0.977203,1.02032,2.88412,-1.13989,3.07963
0.979737,-0.332913,0.976305,1.0214,2.88327,-1.13491,3.07945
0.979919,-0.331943,0.976269,1.02221,2.88909,-1.13065,3.07923
0.980155,-0.330035,0.977717,1.02278,2.8975,-1.12696,3.07899
0.980123,-0.327291,0.981977,1.02296,2.90652,-1.12377,3.07872
0.979556,-0.323967,0.988801,1.02259,2.9152,-1.12128,3.07845
0.978304,-0.32056,0.996567,1.02195,2.92324,-1.12015,3.07818
0.976466,-0.3174,1.00445,1.02111,2.93049,-1.12273,3.07791
0.974414,-0.314459,1.01177,1.01996,2.93686,-1.13608,3.07764
0.972287,-0.311953,1.0184,1.01887,2.94247,-1.15098,3.07735
0.970062,-0.310199,1.02437,1.01779,2.94742,-1.1647,3.07707
0.967719,-0.309303,1.02976,1.01664,2.95177,-1.17653,3.07679
0.965404,-0.308881,1.03446,1.01553,2.95553,-1.18639,3.07651
0.963278,-0.308758,1.03861,1.0146,2.95878,-1.19442,3.07627
0.961371,-0.308717,1.04233,1.01391,2.96155,-1.2009,3.07605
0.959877,-0.308464,1.04561,1.01343,2.96387,-1.20618,3.07585
0.95886,-0.307962,1.04839,1.01326,2.96572,-1.21052,3.07566
0.958282,-0.307247,1.05055,1.01347,2.9671,-1.21411,3.07548
0.958035,-0.30656,1.05198,1.01372,2.96797,-1.21704,3.0753
0.958264,-0.306187,1.05246,1.01378,2.96822,-1.21954,3.07512
0.958726,-0.306211,1.05166,1.01385,2.96778,-1.22155,3.07497
0.959273,-0.306682,1.04936,1.01398,2.96669,-1.22304,3.07484
0.959941,-0.307532,1.04575,1.01414,2.96501,-1.22387,3.07471
0.957642,-0.306113,1.03835,1.01622,2.94396,-1.22484,3.07463
0.958238,-0.308218,1.03281,1.01619,2.94397,-1.21702,3.07451
0.95571,-0.308184,1.02536,1.01754,2.92522,-1.20491,3.07443
0.956148,-0.311512,1.02056,1.0174,2.9256,-1.19138,3.07431
0.953767,-0.312795,1.01447,1.01836,2.9092,-1.17931,3.07424
0.954316,-0.316562,1.01087,1.01831,2.90756,-1.16897,3.07414
0.952098,-0.318422,1.00598,1.01993,2.89361,-1.15996,3.07407
0.95028,-0.320412,1.00171,1.0224,2.88167,-1.15236,3.07398
0.948687,-0.322182,0.998,1.02513,2.87155,-1.14593,3.07388
0.946949,-0.322842,0.994707,1.02861,2.86317,-1.14027,3.07379
0.945619,-0.322568,0.991921,1.03247,2.85638,-1.13529,3.07369
0.944477,-0.321106,0.9896,1.03619,2.85118,-1.1308,3.0736
0.94336,-0.318351,0.987883,1.03954,2.84812,-1.12668,3.07352
0.94216,-0.314631,0.98732,1.04237,2.85038,-1.12289,3.07345
0.940502,-0.31151,0.988233,1.04302,2.86449,-1.11932,3.07345
0.939048,-0.306713,0.990913,1.04639,2.87412,-1.11587,3.07331
0.936452,-0.303063,1.00147,1.04789,2.88795,-1.11505,3.07325
0.934448,-0.301171,1.01038,1.04891,2.90022,-1.1272,3.07325
0.931277,-0.298251,1.01978,1.04976,2.90984,-1.14193,3.07317
0.928101,-0.29787,1.02874,1.05101,2.91864,-1.15812,3.0731
0.92531,-0.297731,1.03622,1.05207,2.92589,-1.17156,3.07302
0.922773,-0.297213,1.04233,1.05258,2.93192,-1.18241,3.07293
0.920639,-0.296619,1.04735,1.05217,2.93699,-1.19106,3.07286
0.918753,-0.295934,1.05147,1.05123,2.9413,-1.19787,3.07279
0.91703,-0.294857,1.05474,1.05048,2.94495,-1.20329,3.07276
0.915656,-0.293401,1.05733,1.04998,2.948,-1.20769,3.07276
0.914851,-0.2915,1.05928,1.04916,2.95047,-1.21133,3.07279
0.914597,-0.289021,1.06029,1.0468,2.95231,-1.21435,3.07283
0.915065,-0.286535,1.05967,1.04408,2.95322,-1.21695,3.07288
0.916409,-0.284447,1.05506,1.04154,2.9515,-1.2195,3.07293
0.917784,-0.282798,1.04586,1.03954,2.94103,-1.22181,3.07297
0.918752,-0.281785,1.03594,1.03811,2.92487,-1.22377,3.07301
0.919548,-0.281586,1.02672,1.03702,2.90911,-1.22547,3.07304
0.920011,-0.282491,1.01826,1.03686,2.89438,-1.22688,3.07306
0.919771,-0.284579,1.01079,1.0372,2.88127,-1.22686,3.07308
0.919643,-0.288309,1.00446,1.03738,2.86979,-1.22617,3.0731
0.919054,-0.293132,0.99901,1.03831,2.85989,-1.21603,3.07311
0.918917,-0.297904,0.994234,1.03964,2.85129,-1.20405,3.07311
0.919688,-0.303299,0.990016,1.04079,2.84391,-1.19286,3.0731
0.92033,-0.308873,0.986226,1.04169,2.83771,-1.18188,3.07309
0.921319,-0.314348,0.982756,1.04228,2.83244,-1.17236,3.07307
0.922377,-0.319478,0.979477,1.04327,2.82795,-1.16406,3.07305
0.923211,-0.323856,0.976354,1.04417,2.82412,-1.15704,3.07304
0.924583,-0.32726,0.973585,1.04424,2.8209,-1.15137,3.07302
0.925747,-0.329566,0.971012,1.04476,2.81844,-1.14641,3.07301
0.927449,-0.330499,0.9689,1.0453,2.81768,-1.14214,3.07301
0.929243,-0.329812,0.967537,1.04504,2.8237,-1.13854,3.073
0.931164,-0.327188,0.967945,1.04341,2.83945,-1.13741,3.07299
0.932874,-0.323038,0.97484,1.04208,2.85504,-1.14952,3.07297
0.933385,-0.318866,0.985754,1.04421,2.86879,-1.16518,3.07296
0.931767,-0.317929,0.995384,1.04536,2.88058,-1.17925,3.07291
0.930574,-0.315886,1.00532,1.04858,2.8901,-1.19254,3.07287
0.9282,-0.314253,1.01391,1.05314,2.89788,-1.20355,3.07283
0.925886,-0.312261,1.02107,1.05772,2.90416,-1.21256,3.07276
0.923658,-0.309793,1.02687,1.06172,2.90933,-1.21985,3.07271
0.921264,-0.307572,1.03163,1.06526,2.91361,-1.22577,3.07268
0.919059,-0.305837,1.03542,1.06796,2.91713,-1.23079,3.0727
0.918207,-0.30662,1.03777,1.06767,2.92034,-1.23474,3.0727
0.91865,-0.306802,1.03945,1.06586,2.92307,-1.23827,3.07272
0.920098,-0.306415,1.04065,1.06191,2.92539,-1.24151,3.07273
0.922203,-0.305547,1.04147,1.0568,2.92728,-1.24461,3.07275
0.924555,-0.304303,1.04192,1.05174,2.92866,-1.24761,3.07276
0.926848,-0.303039,1.04213,1.04708,2.9295,-1.25055,3.07278
0.929016,-0.302086,1.04207,1.04289,2.9297,-1.25352,3.07278
0.930779,-0.301677,1.04136,1.03919,2.92884,-1.25654,3.07279
0.932157,-0.301871,1.03952,1.03611,2.92572,-1.25954,3.0728
0.933288,-0.302734,1.03566,1.03379,2.9156,-1.26245,3.0728
0.934088,-0.30399,1.03024,1.03203,2.90238,-1.26512,3.07281
0.93454,-0.305828,1.02417,1.03063,2.88933,-1.26736,3.07281
0.93469,-0.308309,1.0181,1.02951,2.87738,-1.26885,3.07281
0.934453,-0.311125,1.01241,1.02863,2.86684,-1.26851,3.07281
0.934011,-0.314022,1.00736,1.02784,2.85769,-1.26534,3.0728
0.933481,-0.316807,1.00308,1.0272,2.84987,-1.25572,3.07279
0.932995,-0.319245,0.999478,1.02679,2.84323,-1.24418,3.07278
0.932378,-0.321564,0.99637,1.02658,2.83764,-1.23303,3.07277
0.931791,-0.323879,0.993667,1.02633,2.83287,-1.22332,3.07275
0.922358,-0.331735,0.991462,1.02836,2.8524,-1.21279,3.07263
0.914494,-0.338549,0.989284,1.03097,2.86898,-1.2043,3.07252
0.907952,-0.344427,0.987297,1.0332,2.88298,-1.19733,3.07243
0.902553,-0.349507,0.985768,1.0339,2.89473,-1.19147,3.07235
0.898154,-0.353903,0.984741,1.03303,2.90452,-1.18645,3.0723
0.894591,-0.357664,0.984463,1.03063,2.91263,-1.18206,3.07226
0.89167,-0.36082,0.98514,1.02729,2.9193,-1.17809,3.07224
0.889299,-0.363349,0.987357,1.02358,2.92493,-1.1744,3.07223
0.887441,-0.365285,0.990894,1.01979,2.92984,-1.17091,3.07223
0.886013,-0.366743,0.994443,1.01616,2.93422,-1.16764,3.07223
0.884916,-0.367754,0.998015,1.01278,2.93815,-1.1646,3.07224
0.884011,-0.368411,1.00165,1.0096,2.94166,-1.16182,3.07226
0.883244,-0.368864,1.00529,1.00656,2.9448,-1.15949,3.07227
0.882573,-0.369206,1.00895,1.00365,2.94762,-1.15811,3.07229
0.881929,-0.369528,1.01252,1.00081,2.95016,-1.15941,3.0723
0.881309,-0.369936,1.01613,0.998031,2.95244,-1.17179,3.07231
0.880629,-0.370411,1.01983,0.995419,2.9545,-1.18589,3.07232
0.879876,-0.370999,1.02353,0.993001,2.9564,-1.19858,3.07233
0.879069,-0.371728,1.0271,0.990737,2.95813,-1.20932,3.07234
0.878221,-0.372629,1.03055,0.988541,2.9597,-1.21819,3.07235
0.877284,-0.373619,1.0337,0.98651,2.96115,-1.22523,3.07236
0.876237,-0.374662,1.03635,0.984704,2.96249,-1.2306,3.07236
0.875025,-0.375709,1.03846,0.983235,2.96373,-1.23425,3.07238
0.873689,-0.376794,1.04009,0.982196,2.96486,-1.23557,3.07239
0.872252,-0.377944,1.0414,0.981761,2.96589,-1.22999,3.07241
0.870755,-0.379211,1.04243,0.981937,2.96684,-1.21428,3.07243
0.869262,-0.380605,1.04316,0.982985,2.96772,-1.19885,3.07244
0.867766,-0.382179,1.04366,0.984795,2.96855,-1.1852,3.07246
0.866259,-0.383991,1.04346,0.987802,2.96928,-1.17347,3.07246
0.864709,-0.386028,1.04235,0.991143,2.96994,-1.16362,3.07247
0.862997,-0.388228,1.04025,0.994293,2.97057,-1.15539,3.07247
0.861113,-0.390531,1.03778,0.996754,2.97115,-1.14843,3.07247
0.859,-0.392916,1.03562,0.998032,2.97169,-1.14242,3.07247
0.85669,-0.395297,1.03412,0.997675,2.9722,-1.13719,3.07247
0.854251,-0.397659,1.03361,0.995847,2.97269,-1.13256,3.07247
0.851769,-0.399942,1.03414,0.992793,2.97317,-1.1285,3.07247
0.849237,-0.402092,1.03517,0.988814,2.97364,-1.12494,3.07247
0.846689,-0.404119,1.03657,0.9841,2.97409,-1.12191,3.07247
0.844147,-0.406005,1.03794,0.97902,2.97449,-1.11964,3.07247
0.84167,-0.40776,1.03941,0.97385,2.97485,-1.119,3.07246
0.839198,-0.409415,1.04048,0.968771,2.97515,-1.12362,3.07246
0.836739,-0.411021,1.0414,0.963922,2.97541,-1.13696,3.07245
0.834293,-0.412593,1.04278,0.959429,2.97565,-1.15022,3.07245
0.831896,-0.414222,1.04446,0.955197,2.97585,-1.16199,3.07244
0.829544,-0.415879,1.04638,0.951262,2.97605,-1.17189,3.07243
0.827275,-0.417573,1.04859,0.947617,2.97622,-1.17998,3.07242
0.825067,-0.419293,1.05074,0.944218,2.97636,-1.18641,3.07241
0.822941,-0.420997,1.05228,0.941089,2.97646,-1.19141,3.0724
0.820848,-0.422628,1.05235,0.938294,2.97647,-1.19513,3.0724
0.818792,-0.424229,1.05045,0.935772,2.97638,-1.19768,3.07241
0.816742,-0.425856,1.04722,0.933534,2.97619,-1.19882,3.07241
0.814737,-0.427592,1.04318,0.931493,2.97589,-1.19809,3.07242
0.812782,-0.429468,1.03886,0.929644,2.97552,-1.19287,3.07243
0.810896,-0.431551,1.03453,0.927872,2.97506,-1.18032,3.07244
0.809061,-0.433811,1.03034,0.926172,2.97455,-1.16688,3.07244
0.807272,-0.43622,1.02648,0.924498,2.97399,-1.15465,3.07244
0.80546,-0.438746,1.02277,0.922682,2.97335,-1.14409,3.07244
0.803645,-0.441382,1.0191,0.920843,2.97256,-1.135,3.07244
0.801819,-0.444113,1.01549,0.919036,2.97159,-1.12718,3.07244
0.799923,-0.446831,1.01195,0.917126,2.97044,-1.12057,3.07243
0.797944,-0.44952,1.00852,0.914958,2.96908,-1.11513,3.07242
0.795866,-0.452119,1.00527,0.912384,2.96756,-1.11084,3.07242
0.793724,-0.454655,1.00221,0.909377,2.9659,-1.10791,3.07241
0.791548,-0.457072,0.999391,0.905943,2.96429,-1.10719,3.07241
0.789347,-0.459324,0.996782,0.902161,2.96287,-1.1122,3.07241
0.787154,-0.46145,0.994304,0.898211,2.96159,-1.12379,3.07241
0.784974,-0.463502,0.991918,0.894141,2.96035,-1.13624,3.0724
0.78284,-0.465504,0.989581,0.890051,2.95912,-1.14775,3.0724
0.780726,-0.467509,0.987177,0.885966,2.95762,-1.15781,3.0724
0.778608,-0.46945,0.98467,0.881972,2.9559,-1.16627,3.07239
0.77647,-0.471357,0.982051,0.878062,2.95388,-1.17321,3.07239
0.774285,-0.473178,0.979223,0.874256,2.95141,-1.17886,3.07238
0.772096,-0.475001,0.976051,0.870579,2.94773,-1.18349,3.07238
0.769906,-0.476841,0.972617,0.866997,2.94284,-1.18734,3.07237
0.767706,-0.47872,0.968945,0.863445,2.93666,-1.19056,3.07237
0.76552,-0.480744,0.965072,0.859953,2.92907,-1.19323,3.07236
0.763352,-0.48301,0.961024,0.856462,2.92059,-1.1954,3.07236
0.761169,-0.485526,0.956812,0.852978,2.91187,-1.19702,3.07235
0.758918,-0.488209,0.952487,0.849459,2.90339,-1.19817,3.07233
0.756615,-0.491077,0.948074,0.845939,2.89525,-1.1988,3.07232
0.754242,-0.49413,0.943584,0.842406,2.88753,-1.19845,3.0723
0.751875,-0.497339,0.939097,0.838842,2.88051,-1.19662,3.07228
0.749505,-0.500675,0.934606,0.835295,2.87415,-1.18988,3.07225
0.747168,-0.504075,0.930145,0.83166,2.86854,-1.18006,3.07222
0.744842,-0.507396,0.925701,0.827945,2.86397,-1.16993,3.07219
0.742555,-0.510679,0.921285,0.824096,2.86023,-1.16075,3.07216
0.740307,-0.513923,0.9169,0.820157,2.85705,-1.15283,3.07213
0.738118,-0.517185,0.912565,0.81615,2.85406,-1.14614,3.0721
0.735912,-0.52046,0.908228,0.812133,2.85088,-1.14059,3.07207
0.733598,-0.523672,0.903802,0.808044,2.84734,-1.13698,3.07203
0.731133,-0.526752,0.899327,0.803852,2.84387,-1.1358,3.072
0.728579,-0.529773,0.894849,0.799557,2.84037,-1.13987,3.07196
0.725969,-0.532738,0.89044,0.79517,2.83707,-1.1493,3.07194
0.723361,-0.535688,0.886127,0.790645,2.83395,-1.16065,3.07191
0.720713,-0.538624,0.881806,0.786005,2.83092,-1.17168,3.07189
0.718064,-0.541483,0.877528,0.781311,2.82834,-1.18155,3.07187
0.71545,-0.5443,0.873292,0.776584,2.82627,-1.19001,3.07185
0.712909,-0.547079,0.869129,0.771853,2.82486,-1.19721,3.07183
0.710402,-0.549924,0.864895,0.767096,2.82333,-1.20331,3.07181
0.707799,-0.552844,0.860394,0.762377,2.82115,-1.20851,3.07179
0.705099,-0.555812,0.85572,0.757664,2.81871,-1.21295,3.07176
0.702395,-0.558795,0.850971,0.752968,2.81656,-1.21669,3.07174
0.699747,-0.561814,0.846188,0.748282,2.81469,-1.21972,3.07171
0.697147,-0.564937,0.84133,0.743553,2.81253,-1.22207,3.07169
0.694562,-0.568118,0.836375,0.738813,2.80994,-1.22379,3.07165
0.692,-0.571284,0.8314,0.734108,2.80786,-1.2246,3.07162
0.689532,-0.574461,0.826497,0.729442,2.80729,-1.22326,3.07159
0.687064,-0.577715,0.821551,0.724788,2.80719,-1.21753,3.07156
0.684526,-0.581152,0.816477,0.720092,2.8057,-1.20774,3.07153
0.68188,-0.58469,0.811287,0.715425,2.80339,-1.19749,3.07149
0.679237,-0.588244,0.806136,0.710825,2.80142,-1.18708,3.07145
0.676639,-0.591756,0.801057,0.706298,2.79987,-1.17759,3.0714
0.67405,-0.595276,0.795939,0.701749,2.79751,-1.16956,3.07135
0.671428,-0.598787,0.790806,0.697175,2.79493,-1.16293,3.0713
0.668842,-0.602261,0.785746,0.692491,2.79343,-1.15761,3.07125
0.666339,-0.605751,0.780817,0.687685,2.79484,-1.15362,3.07121
0.663832,-0.609306,0.775858,0.682748,2.79561,-1.15165,3.07118
0.661248,-0.612873,0.770855,0.677708,2.79338,-1.15434,3.07115
0.658623,-0.616355,0.765905,0.672688,2.79091,-1.16462,3.07112
0.655966,-0.619764,0.761009,0.667706,2.78965,-1.17703,3.0711
0.653286,-0.623185,0.756142,0.662693,2.78857,-1.18904,3.07108
0.650578,-0.626615,0.751259,0.657646,2.78666,-1.1997,3.07106
0.647884,-0.630013,0.746381,0.652613,2.78514,-1.20886,3.07104
0.645243,-0.633399,0.741527,0.647574,2.7846,-1.2166,3.07103
0.642591,-0.636824,0.736584,0.642506,2.78349,-1.22307,3.07102
0.639865,-0.640276,0.731513,0.637456,2.78126,-1.22839,3.071
0.637092,-0.643728,0.72637,0.632439,2.77894,-1.23263,3.07099
0.634297,-0.647225,0.721155,0.627424,2.77737,-1.23588,3.07097
0.631501,-0.650806,0.715827,0.622342,2.77531,-1.23818,3.07096
0.628709,-0.654398,0.710422,0.617222,2.77259,-1.23906,3.07093
0.625937,-0.657953,0.705019,0.612153,2.77119,-1.23759,3.0709
0.623151,-0.661538,0.69953,0.607139,2.77101,-1.23303,3.07087
0.620353,-0.665256,0.693993,0.602051,2.77084,-1.22202,3.07083
0.617555,-0.669014,0.688492,0.596976,2.7712,-1.20964,3.07079
0.614799,-0.672771,0.683034,0.591923,2.77246,-1.19801,3.07074
0.612054,-0.676566,0.677561,0.586898,2.77449,-1.18779,3.07069
0.609282,-0.680431,0.672027,0.581847,2.7762,-1.17913,3.07064
0.606511,-0.684287,0.666552,0.576839,2.7782,-1.17183,3.07058
0.603764,-0.688129,0.661134,0.571855,2.78047,-1.16578,3.07054
0.600977,-0.692026,0.655691,0.566801,2.78159,-1.16095,3.07049
0.598155,-0.695953,0.650222,0.561622,2.77973,-1.15742,3.07045
0.595293,-0.699825,0.644808,0.556489,2.77706,-1.15501,3.07041
0.592446,-0.703671,0.639451,0.551415,2.77539,-1.15474,3.07038
0.589595,-0.707546,0.634088,0.546342,2.77234,-1.16314,3.07037
0.586806,-0.711419,0.628759,0.541213,2.76768,-1.17617,3.07036
0.584018,-0.715202,0.623429,0.536111,2.76232,-1.1885,3.07035
0.581171,-0.719015,0.618042,0.531036,2.75706,-1.19954,3.07034
0.578213,-0.722904,0.612578,0.526008,2.75186,-1.20926,3.07034
0.575275,-0.726817,0.607164,0.520932,2.74706,-1.21746,3.07033
0.5724,-0.730633,0.601853,0.515904,2.74363,-1.22415,3.07033
0.569551,-0.734449,0.596482,0.510806,2.7409,-1.2295,3.07032
0.566619,-0.738339,0.590943,0.505597,2.73828,-1.23367,3.0703
0.563612,-0.742233,0.585304,0.500357,2.73641,-1.23661,3.07027
0.560536,-0.746156,0.579631,0.495115,2.73654,-1.23787,3.07024
0.557413,-0.750138,0.573916,0.489853,2.73823,-1.23648,3.07019
0.554327,-0.754157,0.5682,0.484446,2.74104,-1.22639,3.07013
0.551281,-0.758124,0.562518,0.479043,2.74516,-1.21273,3.07006
0.5482,-0.762152,0.55678,0.473741,2.75047,-1.19991,3.07
0.545085,-0.766311,0.550996,0.468493,2.75606,-1.1886,3.06994
0.542031,-0.770461,0.545279,0.463199,2.7608,-1.17864,3.06988
0.538986,-0.774521,0.539592,0.457923,2.76443,-1.17013,3.0698
0.535896,-0.778656,0.533879,0.452707,2.76762,-1.16304,3.06974
0.532739,-0.782901,0.528122,0.447577,2.77074,-1.15727,3.06969
0.529695,-0.787108,0.522442,0.442389,2.77309,-1.15244,3.06965
0.526707,-0.791198,0.516799,0.437266,2.77478,-1.14845,3.06961
0.523777,-0.79529,0.511159,0.432147,2.77557,-1.14569,3.0696
0.520816,-0.799435,0.505492,0.427037,2.77503,-1.14487,3.06958
0.517827,-0.803581,0.499777,0.421958,2.77245,-1.14785,3.06958
0.514822,-0.807721,0.494086,0.417004,2.76912,-1.15849,3.06959
0.511911,-0.811798,0.488465,0.412121,2.76505,-1.17055,3.06961
0.509116,-0.815829,0.482874,0.407139,2.75972,-1.18208,3.06963
0.506287,-0.819855,0.47723,0.402213,2.75337,-1.19254,3.06965
0.503328,-0.823948,0.471515,0.397431,2.74703,-1.20154,3.06968
0.500357,-0.82808,0.465845,0.392692,2.74129,-1.20895,3.06973
0.497452,-0.832166,0.460166,0.387781,2.7362,-1.21489,3.06974
0.494503,-0.836186,0.454454,0.38277,2.73239,-1.2194,3.06973
0.491443,-0.840261,0.448643,0.377674,2.73098,-1.22256,3.06973
0.488325,-0.844446,0.44276,0.372446,2.73269,-1.22434,3.06972
0.485183,-0.84865,0.436851,0.367085,2.73642,-1.22351,3.06968
0.481983,-0.852766,0.430978,0.361733,2.74132,-1.21212,3.06962
0.47876,-0.856934,0.425136,0.356347,2.74722,-1.19765,3.06956
0.475452,-0.861239,0.419194,0.350947,2.75327,-1.18446,3.0695
0.472139,-0.86563,0.413284,0.345546,2.75915,-1.17278,3.06944
0.468873,-0.869925,0.407433,0.340269,2.76482,-1.16248,3.06937
0.465685,-0.87418,0.401608,0.334959,2.76981,-1.15364,3.06931
0.462437,-0.878532,0.395739,0.329678,2.77409,-1.14634,3.06925
0.459176,-0.882921,0.389876,0.32453,2.77778,-1.14036,3.06921
0.455957,-0.887301,0.384042,0.319469,2.78109,-1.13541,3.06918
0.452869,-0.891572,0.378253,0.314456,2.78391,-1.13127,3.06917
0.449898,-0.895827,0.372482,0.309365,2.78617,-1.12816,3.06916
0.446954,-0.90003,0.366732,0.304409,2.78787,-1.12656,3.06916
0.443983,-0.904318,0.360895,0.299509,2.78917,-1.12973,3.06918
0.441073,-0.908593,0.355113,0.294742,2.78982,-1.14176,3.06922
0.438253,-0.912792,0.349357,0.289944,2.78942,-1.15403,3.06925
0.435544,-0.916898,0.343668,0.28523,2.78863,-1.16569,3.06929
0.4328,-0.921027,0.337892,0.28065,2.78706,-1.17623,3.06935
0.430095,-0.925217,0.33216,0.27611,2.78473,-1.18518,3.06943
0.427435,-0.929323,0.326408,0.271511,2.78117,-1.19246,3.06948
0.42477,-0.933353,0.320662,0.266893,2.77675,-1.19821,3.0695
0.421947,-0.937426,0.314855,0.262284,2.77391,-1.20271,3.06954
0.419051,-0.941658,0.309006,0.257429,2.77412,-1.20611,3.06958
0.416115,-0.945927,0.303059,0.252335,2.77679,-1.2083,3.06958
0.413183,-0.950096,0.297127,0.247219,2.78074,-1.20875,3.06957
0.410113,-0.954299,0.291175,0.241996,2.78579,-1.20493,3.06954
0.406949,-0.958584,0.285205,0.236677,2.79142,-1.19217,3.06951
0.403732,-0.96295,0.279233,0.2313,2.79722,-1.17847,3.06947
0.400505,-0.967212,0.273317,0.226122,2.80277,-1.16555,3.06943
0.397329,-0.971472,0.267424,0.220942,2.80802,-1.15419,3.06937
0.394142,-0.975779,0.261498,0.215794,2.81295,-1.14464,3.06932
0.39091,-0.980169,0.255587,0.210723,2.81758,-1.13681,3.06928
0.387722,-0.984509,0.249725,0.205851,2.82193,-1.13037,3.06924
0.384681,-0.988807,0.243876,0.201012,2.82593,-1.12504,3.06921
0.381777,-0.993087,0.238059,0.196205,2.82964,-1.12072,3.06919
0.379012,-0.997356,0.232278,0.191468,2.83316,-1.11764,3.06919
0.376413,-1.00158,0.226485,0.186878,2.83646,-1.11727,3.06921
0.373934,-1.00578,0.220711,0.182417,2.83937,-1.12257,3.06923
0.371542,-1.00997,0.214948,0.177973,2.84198,-1.13321,3.06924
0.369284,-1.0141,0.209243,0.173589,2.84451,-1.14496,3.06927
0.367094,-1.01817,0.203479,0.169329,2.84683,-1.15654,3.06933
0.365032,-1.02219,0.197794,0.16518,2.84894,-1.16667,3.0694
0.363079,-1.02618,0.192072,0.160998,2.85082,-1.17517,3.06945
0.361166,-1.03012,0.186356,0.156857,2.8526,-1.18218,3.06949
0.359084,-1.03399,0.180617,0.152862,2.85426,-1.18788,3.06954
0.356886,-1.03793,0.174886,0.148747,2.85659,-1.19243,3.0696
0.354651,-1.04193,0.169061,0.144404,2.85976,-1.1959,3.06962
0.352374,-1.04597,0.163185,0.13987,2.86355,-1.19819,3.06962
0.350001,-1.04994,0.157295,0.135306,2.86772,-1.1997,3.06963
0.347567,-1.054,0.151402,0.130529,2.8723,-1.20047,3.06963
0.345106,-1.05812,0.145469,0.125583,2.87712,-1.20019,3.06961
0.34261,-1.06224,0.139567,0.120571,2.88201,-1.19649,3.06957
0.340171,-1.06624,0.133718,0.115614,2.887,-1.18719,3.06953
0.337883,-1.0702,0.127852,0.110585,2.89204,-1.17935,3.0695
0.335752,-1.0742,0.12204,0.105523,2.8971,-1.17304,3.06948
0.333614,-1.07828,0.116224,0.100437,2.90201,-1.16602,3.06943
0.331465,-1.08233,0.110408,0.0954682,2.90679,-1.15835,3.06938
0.329582,-1.08627,0.104629,0.0905928,2.91161,-1.15301,3.06934
0.328138,-1.09013,0.0989098,0.0857287,2.91646,-1.15154,3.06932
0.326984,-1.09397,0.0932258,0.0808767,2.92121,-1.15176,3.06931
0.32578,-1.09782,0.0874704,0.076114,2.92577,-1.15048,3.06929
0.325115,-1.10161,0.0818052,0.07144,2.93026,-1.15753,3.06928
0.324895,-1.10538,0.0762034,0.066767,2.93468,-1.16761,3.06929
0.324597,-1.1092,0.070586,0.0620528,2.93893,-1.17723,3.06931
0.323686,-1.11379,0.0644873,0.0584097,2.93807,-1.1831,3.06913
0.322968,-1.11824,0.058484,0.0546444,2.93822,-1.18867,3.06897
0.322087,-1.1226,0.0525542,0.0506532,2.93941,-1.19404,3.06885
0.320937,-1.12693,0.0466861,0.0464905,2.94129,-1.19919,3.06877
0.319678,-1.13134,0.0408447,0.0420346,2.94385,-1.20374,3.06868
0.31825,-1.13571,0.0350579,0.0375153,2.94684,-1.20697,3.06858
0.316519,-1.14004,0.0292638,0.0328208,2.95028,-1.20904,3.06848
0.31455,-1.14424,0.0236193,0.0280581,2.95412,-1.2107,3.06841
0.31241,-1.14845,0.0180291,0.0231076,2.95811,-1.21201,3.06837
0.310111,-1.15267,0.0124448,0.018155,2.96197,-1.21239,3.06831
0.307525,-1.15685,0.0068634,0.0132937,2.96565,-1.20969,3.06824
0.304815,-1.16108,0.00130735,0.00833473,2.9692,-1.20559,3.06816
0.302268,-1.16527,-0.00416074,0.00334085,2.97268,-1.20499,3.0681
0.299444,-1.1695,-0.00963195,-0.00171433,2.97593,-1.20304,3.06803
0.296199,-1.1736,-0.015004,-0.00653422,2.97898,-1.19413,3.06796
0.292823,-1.17773,-0.0202827,-0.0114435,2.98187,-1.1846,3.06788
0.289432,-1.18181,-0.0254489,-0.0163309,2.98452,-1.17704,3.06781
0.286105,-1.18591,-0.0305319,-0.0212124,2.98696,-1.17178,3.06775
0.282878,-1.19004,-0.0355365,-0.025954,2.98912,-1.16922,3.0677
0.279733,-1.19423,-0.0404864,-0.030665,2.99104,-1.16822,3.06763
0.276582,-1.19843,-0.0453899,-0.0354087,2.99274,-1.16903,3.06758
0.273487,-1.20259,-0.0500115,-0.0401634,2.99427,-1.17685,3.06756
0.270408,-1.20672,-0.0543075,-0.0448598,2.99561,-1.1868,3.06757
0.267251,-1.21076,-0.0582751,-0.0493683,2.99674,-1.19667,3.06761
0.264088,-1.21481,-0.0619284,-0.0538862,2.99773,-1.20551,3.06767
0.261001,-1.21889,-0.0653159,-0.0584846,2.99855,-1.21346,3.06772
0.258015,-1.22294,-0.0682406,-0.0631173,2.99924,-1.22058,3.06779
0.255121,-1.22687,-0.0705291,-0.067604,2.99977,-1.22687,3.06786
0.252283,-1.23083,-0.0724724,-0.0721759,3.00023,-1.23228,3.06792
0.249427,-1.23485,-0.0742736,-0.0769034,3.0006,-1.23684,3.06795
0.246625,-1.23887,-0.0755654,-0.0818188,3.0009,-1.24088,3.06796
0.243934,-1.24265,-0.0748313,-0.0865193,3.00118,-1.24463,3.068
0.241283,-1.24641,-0.0719223,-0.091271,3.0014,-1.2481,3.06803
0.238439,-1.24906,-0.0629239,-0.0963493,3.00178,-1.25155,3.0682
0.235372,-1.25197,-0.0555093,-0.101472,3.002,-1.25454,3.06834
0.246409,-1.25707,-0.0472205,-0.103448,3.00153,-1.26002,3.06814
0.256876,-1.26231,-0.040981,-0.105499,3.00093,-1.26532,3.06758
0.265545,-1.26741,-0.035986,-0.108179,3.00046,-1.27042,3.06713
0.272794,-1.27233,-0.0319925,-0.111508,3.00009,-1.2754,3.06675
0.278767,-1.27704,-0.0287615,-0.115248,2.99975,-1.28026,3.06643
0.283628,-1.2817,-0.0258181,-0.119092,2.99949,-1.28502,3.06619
0.287532,-1.28641,-0.0230141,-0.12307,2.99923,-1.28975,3.06601
0.290699,-1.29114,-0.0202516,-0.127156,2.99897,-1.29446,3.06586
0.293339,-1.29569,-0.0174066,-0.131324,2.99868,-1.29914,3.06576
0.295431,-1.30011,-0.0144926,-0.135435,2.99833,-1.30379,3.0657
0.296954,-1.30458,-0.0114121,-0.139468,2.99796,-1.30851,3.06566
0.297958,-1.30908,-0.00830207,-0.143489,2.99754,-1.31332,3.06564
0.298638,-1.31347,-0.00507946,-0.147561,2.99712,-1.31819,3.06564
0.299109,-1.31764,-0.00167562,-0.151465,2.9967,-1.32302,3.06568
0.299277,-1.32181,0.00181033,-0.155391,2.99624,-1.32793,3.06572
0.299295,-1.32599,0.00549766,-0.159059,2.99579,-1.33288,3.06579
0.299187,-1.3302,0.00927764,-0.162803,2.99532,-1.33796,3.06588
0.29905,-1.33426,0.0132169,-0.16632,2.99488,-1.34299,3.06598
0.298921,-1.3382,0.0172867,-0.169916,2.99443,-1.34799,3.06609
0.298788,-1.34209,0.0214554,-0.17353,2.99395,-1.35306,3.06621
0.298598,-1.34603,0.0257702,-0.176769,2.9935,-1.35817,3.06633
0.298353,-1.34997,0.0301272,-0.179908,2.99303,-1.36331,3.06645
0.298236,-1.3538,0.0346206,-0.182978,2.99258,-1.3684,3.06657
0.298188,-1.35754,0.0392628,-0.185877,2.9922,-1.37341,3.0667
0.29816,-1.36124,0.0439386,-0.188677,2.99181,-1.37841,3.06681
0.298273,-1.36505,0.0487323,-0.191278,2.99144,-1.38348,3.06693
0.298414,-1.36883,0.0535966,-0.193379,2.99109,-1.38839,3.06706
0.298612,-1.37243,0.0585109,-0.195131,2.99076,-1.39298,3.06718
0.298943,-1.37599,0.0635554,-0.197076,2.9905,-1.39733,3.0673
0.299243,-1.37949,0.0685433,-0.198513,2.99023,-1.40116,3.06741
0.299668,-1.38313,0.0736356,-0.199067,2.98997,-1.40498,3.06751
0.300178,-1.38679,0.0788257,-0.198792,2.98976,-1.40827,3.0676
0.300661,-1.39028,0.0839669,-0.198245,2.98954,-1.40903,3.06769
0.301227,-1.39365,0.0891676,-0.19661,2.98934,-1.40039,3.06776
0.285718,-1.39474,0.0933293,-0.192828,2.98897,-1.3829,3.06792
0.287041,-1.39834,0.0988047,-0.191224,2.98883,-1.371,3.0681
0.289842,-1.40197,0.104201,-0.18855,2.98869,-1.36171,3.06812
0.29238,-1.40543,0.10957,-0.185387,2.98851,-1.35374,3.06813
0.278883,-1.40664,0.113843,-0.182713,2.98818,-1.34595,3.06822
0.267613,-1.40806,0.117621,-0.178652,2.98775,-1.33984,3.06817
0.258234,-1.40985,0.12161,-0.175097,2.98737,-1.33493,3.06812
0.250406,-1.41197,0.125707,-0.171905,2.987,-1.33078,3.06809
0.243795,-1.41437,0.129761,-0.169076,2.98663,-1.32714,3.06807
0.238302,-1.41705,0.133899,-0.166536,2.98631,-1.32379,3.06805
0.233701,-1.41997,0.137994,-0.164262,2.98597,-1.32066,3.06805
0.229848,-1.42306,0.142064,-0.162015,2.98561,-1.31756,3.06809
0.22671,-1.42636,0.146258,-0.159876,2.98532,-1.31449,3.06814
0.224051,-1.42974,0.150353,-0.157864,2.98501,-1.31139,3.0682
0.221849,-1.43313,0.154503,-0.155955,2.98472,-1.30835,3.06826
0.220041,-1.43647,0.158631,-0.154225,2.98443,-1.30542,3.06832
0.218586,-1.43977,0.162805,-0.152617,2.98415,-1.3026,3.06838
0.217422,-1.44299,0.166899,-0.151137,2.98387,-1.29996,3.06845
0.216475,-1.44612,0.170762,-0.149878,2.98353,-1.29773,3.06852
0.215763,-1.44918,0.1745,-0.148817,2.98319,-1.29634,3.06857
0.215213,-1.45214,0.17803,-0.147798,2.98284,-1.2967,3.06863
0.214792,-1.45505,0.181318,-0.146965,2.98243,-1.30665,3.06868
0.233633,-1.4387,0.165204,-0.142058,2.95609,-1.29834,3.06885
0.249591,-1.42496,0.152023,-0.137475,2.93354,-1.29053,3.06899
0.263099,-1.41354,0.14138,-0.133188,2.91423,-1.28316,3.0691
0.274491,-1.40411,0.132857,-0.129049,2.89771,-1.27615,3.06919
0.284021,-1.39649,0.126122,-0.125059,2.88353,-1.26948,3.06927
0.291947,-1.39043,0.120937,-0.121204,2.87139,-1.26322,3.06933
0.298534,-1.3856,0.116992,-0.117464,2.86102,-1.25737,3.06937
0.304026,-1.38174,0.113826,-0.113845,2.85216,-1.25178,3.06941
0.308586,-1.37867,0.111011,-0.110324,2.84459,-1.24643,3.06944
0.312271,-1.37634,0.108352,-0.106833,2.83813,-1.24119,3.06947
0.31512,-1.37466,0.105684,-0.103308,2.83256,-1.23602,3.06949
0.317243,-1.37354,0.102933,-0.099667,2.8277,-1.23085,3.06952
0.318764,-1.37294,0.100019,-0.0959048,2.82336,-1.22563,3.06954
0.31982,-1.37275,0.0969226,-0.0919768,2.81939,-1.22033,3.06957
0.320518,-1.37281,0.0936809,-0.0879531,2.81566,-1.21494,3.06959
0.320901,-1.37299,0.0902766,-0.0839571,2.81209,-1.20952,3.06962
0.320997,-1.37321,0.0867238,-0.0798769,2.80859,-1.20401,3.06964
0.320856,-1.37355,0.0830355,-0.0756619,2.80511,-1.19841,3.06966
0.320529,-1.37404,0.0792238,-0.071301,2.8016,-1.19274,3.06969
0.32008,-1.37466,0.0753071,-0.0668,2.79807,-1.18698,3.06971
0.317946,-1.37676,0.0678856,-0.0577012,2.79157,-1.17551,3.06977
0.319058,-1.37586,0.0671767,-0.0576744,2.7909,-1.17535,3.06975
0.31857,-1.37639,0.0629824,-0.0528678,2.7872,-1.16939,3.06978
0.318132,-1.37686,0.0587133,-0.0479742,2.78344,-1.1634,3.0698
0.317754,-1.37722,0.0543526,-0.0431066,2.77961,-1.15739,3.06982
0.317462,-1.3774,0.0499774,-0.0382062,2.77575,-1.15131,3.06985
0.317257,-1.37745,0.0455686,-0.0331248,2.77185,-1.14521,3.06987
0.317171,-1.37745,0.0411211,-0.0280012,2.7679,-1.1391,3.06989
0.317231,-1.37731,0.0366423,-0.0227943,2.76391,-1.1329,3.06991
0.31739,-1.37701,0.0320948,-0.0176044,2.75988,-1.12671,3.06993
0.317649,-1.37655,0.0275238,-0.0121991,2.75579,-1.12039,3.06994
0.318016,-1.37598,0.0228965,-0.0067552,2.75165,-1.11401,3.06997
0.318566,-1.37526,0.0182201,-0.00128599,2.74749,-1.10761,3.06999
0.319329,-1.37433,0.0135093,0.00423507,2.7433,-1.10117,3.07001
0.320256,-1.37327,0.00873036,0.00998072,2.73905,-1.09461,3.07003
0.321336,-1.37213,0.00394619,0.0157569,2.73479,-1.08804,3.07005
0.322541,-1.37083,-0.000859043,0.0214173,2.73052,-1.08149,3.07007
0.323877,-1.36939,-0.0057007,0.0272346,2.72621,-1.07481,3.07009
0.325275,-1.36791,-0.010604,0.0331554,2.72185,-1.06815,3.07011
0.326804,-1.36638,-0.0155211,0.0389735,2.71747,-1.06149,3.07013
0.328554,-1.36468,-0.0204159,0.0447379,2.71312,-1.05476,3.07014
0.330499,-1.36291,-0.0253935,0.0506577,2.7087,-1.04803,3.07016
0.332612,-1.36123,-0.0303866,0.0565994,2.70425,-1.04127,3.07018
0.334841,-1.35949,-0.0353935,0.062412,2.6998,-1.0345,3.07021
0.337169,-1.35762,-0.0403852,0.0682929,2.69534,-1.02772,3.07023
0.339523,-1.35577,-0.0454677,0.0742235,2.69078,-1.02094,3.07024
0.34189,-1.35385,-0.0505619,0.0800615,2.68619,-1.01411,3.07026
0.34432,-1.35175,-0.0556019,0.0858127,2.68165,-1.00734,3.07028
0.34684,-1.34961,-0.0607106,0.0916668,2.67706,-1.00051,3.0703
0.349506,-1.34756,-0.0658462,0.097561,2.67242,-0.993641,3.07032
0.352315,-1.3455,-0.0709635,0.103363,2.66783,-0.986828,3.07034
0.355244,-1.34341,-0.076068,0.109272,2.66321,-0.979956,3.07035
0.358209,-1.34143,-0.0812502,0.115269,2.65849,-0.973035,3.07037
0.361104,-1.33948,-0.0864654,0.121143,2.65372,-0.96615,3.07039
0.363905,-1.33741,-0.0916669,0.127058,2.6489,-0.959193,3.07041
0.366657,-1.3353,-0.0968892,0.133033,2.64404,-0.952247,3.07042
0.369473,-1.3332,-0.102139,0.138918,2.6392,-0.945318,3.07044
0.372434,-1.33093,-0.107324,0.144788,2.63446,-0.938352,3.07045
0.375534,-1.32865,-0.112507,0.150766,2.62974,-0.931402,3.07046
0.37871,-1.32652,-0.117713,0.156759,2.62495,-0.924444,3.07048
0.381872,-1.32435,-0.122955,0.162696,2.62015,-0.91749,3.07049
0.38494,-1.3221,-0.128182,0.168716,2.61529,-0.910531,3.0705
0.387932,-1.31997,-0.133431,0.174745,2.61036,-0.903604,3.07051
0.390981,-1.31784,-0.138703,0.180704,2.60548,-0.896642,3.07052
0.394133,-1.31557,-0.143906,0.186729,2.60074,-0.889722,3.07053
0.397354,-1.3133,-0.149129,0.192804,2.596,-0.882751,3.07054
0.400577,-1.31101,-0.154321,0.198789,2.59131,-0.875805,3.07054
0.403773,-1.30859,-0.159538,0.204738,2.58669,-0.868871,3.07055
0.406945,-1.30621,-0.164746,0.210829,2.58193,-0.861898,3.07056
0.410153,-1.30395,-0.169976,0.21689,2.57718,-0.854983,3.07056
0.413494,-1.30161,-0.175131,0.222864,2.57265,-0.848053,3.07056
0.416944,-1.29928,-0.180307,0.228981,2.56811,-0.841072,3.07057
0.420339,-1.29706,-0.18554,0.235147,2.56341,-0.834138,3.07057
0.423611,-1.29473,-0.190743,0.241129,2.55878,-0.827242,3.07058
0.426842,-1.29221,-0.195949,0.247187,2.55415,-0.820272,3.07058
0.430134,-1.28971,-0.201128,0.253269,2.54964,-0.813373,3.07058
0.433589,-1.28724,-0.206254,0.259254,2.54543,-0.806453,3.07058
0.437237,-1.2847,-0.211262,0.265311,2.54151,-0.799484,3.07058
0.44092,-1.28229,-0.216365,0.271444,2.53745,-0.79254,3.07058
0.444443,-1.28,-0.22155,0.277552,2.53294,-0.785615,3.07058
0.447809,-1.27758,-0.226726,0.283636,2.52837,-0.778736,3.07057
0.451198,-1.27512,-0.231873,0.289752,2.52388,-0.771826,3.07057
0.454741,-1.27264,-0.236973,0.295847,2.51983,-0.764902,3.07057
0.458458,-1.27001,-0.241955,0.301836,2.51669,-0.757973,3.07056
0.462208,-1.26734,-0.246894,0.307907,2.51355,-0.75104,3.07056
0.46589,-1.26483,-0.251981,0.314026,2.5097,-0.744092,3.07055
0.469491,-1.26234,-0.257034,0.32008,2.50584,-0.737236,3.07055
0.47314,-1.25983,-0.26208,0.326205,2.50205,-0.730331,3.07054
0.476886,-1.25737,-0.267055,0.3324,2.49843,-0.723404,3.07053
0.4807,-1.25487,-0.272038,0.33843,2.49582,-0.716498,3.07053
0.484444,-1.25216,-0.276959,0.344502,2.49322,-0.709576,3.07052
0.488114,-1.24946,-0.281931,0.350617,2.49017,-0.702662,3.07051
0.491838,-1.24683,-0.286815,0.356631,2.48776,-0.695782,3.0705
0.495746,-1.24419,-0.291608,0.362678,2.48677,-0.68886,3.07049
0.499721,-1.24161,-0.296441,0.368865,2.48546,-0.681919,3.07048
0.503596,-1.23915,-0.301336,0.375005,2.48309,-0.675012,3.07047
0.507404,-1.23656,-0.306246,0.381033,2.48048,-0.668138,3.07046
0.511246,-1.23388,-0.311043,0.387142,2.47803,-0.661354,3.07045
0.515164,-1.23124,-0.315837,0.393206,2.47581,-0.654618,3.07044
0.519183,-1.22851,-0.320479,0.399148,2.47469,-0.647905,3.07043
0.523206,-1.22575,-0.32523,0.405157,2.47285,-0.641254,3.07043
0.527132,-1.22313,-0.330089,0.411255,2.46826,-0.634689,3.07042
0.53106,-1.22059,-0.334963,0.41723,2.46369,-0.62818,3.07041
0.535166,-1.21798,-0.339563,0.423242,2.46048,-0.621668,3.07041
0.539361,-1.21543,-0.344219,0.429303,2.45728,-0.61519,3.0704
0.543442,-1.21283,-0.348966,0.435291,2.453,-0.608819,3.0704
0.547363,-1.21004,-0.35376,0.441198,2.44842,-0.602567,3.07039
0.551339,-1.20725,-0.358428,0.447162,2.44405,-0.596328,3.07038
0.555504,-1.20463,-0.362991,0.453129,2.44065,-0.590052,3.07037
0.559782,-1.20204,-0.367502,0.459038,2.43805,-0.583796,3.07037
0.563946,-1.19946,-0.372215,0.465103,2.43366,-0.577697,3.07036
0.567965,-1.19694,-0.377059,0.471149,2.42874,-0.571749,3.07035
0.572057,-1.19428,-0.381657,0.477009,2.42546,-0.565747,3.07034
0.576327,-1.19149,-0.386031,0.482935,2.42375,-0.559638,3.07033
0.580607,-1.1888,-0.390458,0.488942,2.42154,-0.55359,3.07032
0.584749,-1.18615,-0.395077,0.494839,2.41861,-0.547769,3.07031
0.588868,-1.18343,-0.399719,0.500762,2.41543,-0.542124,3.07029
0.593078,-1.18086,-0.404304,0.506774,2.4126,-0.536362,3.07028
0.597378,-1.17839,-0.408782,0.512745,2.41081,-0.530523,3.07027
0.601684,-1.17578,-0.41314,0.518628,2.40999,-0.524809,3.07025
0.605872,-1.17307,-0.417673,0.524601,2.40789,-0.51935,3.07024
0.610005,-1.17039,-0.422266,0.530517,2.40552,-0.514126,3.07022
0.614268,-1.1677,-0.426643,0.536326,2.40549,-0.508765,3.0702
0.618693,-1.16503,-0.430831,0.542265,2.40686,-0.503195,3.07019
0.623044,-1.16258,-0.435252,0.548241,2.4059,-0.497983,3.07017
0.627231,-1.16012,-0.439885,0.55413,2.40318,-0.493651,3.07015
0.631399,-1.1575,-0.44443,0.56001,2.40101,-0.489399,3.07013
0.631288,-1.15786,-0.432063,0.548394,2.40786,-0.507061,3.06737
0.63203,-1.1577,-0.421882,0.538752,2.41381,-0.521343,3.06518
