Afshin1997/kuka_rl_ros2/src/catch_and_throw/output_files/tm/nn_ema1.00_jvws1_simball_D11H11M05S53/recorded_data.csv
pure_target_joint_0,pure_target_joint_1,pure_target_joint_2,pure_target_joint_3,pure_target_joint_4,pure_target_joint_5,pure_target_joint_6,target_joint_0,target_joint_1,target_joint_2,target_joint_3,target_joint_4,target_joint_5,target_joint_6,pos_joint_0,pos_joint_1,pos_joint_2,pos_joint_3,pos_joint_4,pos_joint_5,pos_joint_6,vel_joint_0,vel_joint_1,vel_joint_2,vel_joint_3,vel_joint_4,vel_joint_5,vel_joint_6,vel_smooth_joint_0,vel_smooth_joint_1,vel_smooth_joint_2,vel_smooth_joint_3,vel_smooth_joint_4,vel_smooth_joint_5,vel_smooth_joint_6,ee_pos_x,ee_pos_y,ee_pos_z,ee_or_w,ee_or_x,ee_or_y,ee_or_z,ee_vel_x,ee_vel_y,ee_vel_z,ball_pos_x,ball_pos_y,ball_pos_z,ball_raw_vx,ball_raw_vy,ball_raw_vz,ball_ema_vx,ball_ema_vy,ball_ema_vz,action_0,action_1,action_2,action_3,action_4,action_5,action_6,command_published
1.80737,-1.14231,-1.86817,-1.0436,1.87786,1.18584,-0.888034,1.80737,-1.14231,-1.86817,-1.0436,1.87786,1.18584,-0.888034,1.78144,-1.07395,-1.82004,-1.12085,1.93559,1.11257,-0.916323,0,0,0,-1.1977e-05,-1.91633e-05,-2.39541e-05,0,0,0,0,-1.1977e-05,-1.91633e-05,-2.39541e-05,0,0.538651,-0.456214,0.694843,0.57234,0.182441,0.153032,0.784681,5.02681e-06,5.28378e-06,-4.53217e-06,1.2889,-0.919009,-0.620124,-0.000829922,-0.0127539,0.00227008,-0.000829922,-0.0127539,0.00227008,0.259285,-0.683542,-0.481262,0.772489,-0.577327,0.732695,0.282891,1
-nan,-nan,-nan,-nan,-nan,-nan,-nan,-nan,-nan,-nan,-nan,-nan,-nan,-nan,1.78144,-1.07395,-1.82004,-1.12085,1.93559,1.11257,-0.916323,0,0,0,-1.1977e-05,-1.91633e-05,-2.39541e-05,0,0,0,0,-1.1977e-05,-1.91633e-05,-2.39541e-05,0,0.538651,-0.456214,0.694843,0.57234,0.182441,0.153032,0.784681,5.02681e-06,5.28378e-06,-4.53217e-06,1.2889,-0.919009,-0.620124,-0.000829922,-0.0127539,0.00227008,-0.000829922,-0.0127539,0.00227008,-nan,-nan,-nan,-nan,-nan,-nan,-nan,1
1.7541,-1.14227,-1.87308,-1.04199,1.86933,1.18641,-0.87614,1.7541,-1.14227,-1.87308,-1.04199,1.86933,1.18641,-0.87614,1.78144,-1.07395,-1.82004,-1.12085,1.93559,1.11257,-0.916323,0,0,5.98852e-06,-1.1977e-05,9.59909e-06,0,-5.98852e-06,0,0,5.98852e-06,-1.1977e-05,9.59909e-06,0,-5.98852e-06,0.538651,-0.456214,0.694843,0.57234,0.182441,0.153032,0.784681,5.02681e-06,5.28378e-06,-4.53217e-06,1.28895,-0.918944,-0.620152,0.000674669,0.000896557,-0.000396286,0.000674669,0.000896557,-0.000396286,-0.273382,-0.683212,-0.530359,0.788604,-0.662564,0.738382,0.40183,1
-nan,-nan,-nan,-nan,-nan,-nan,-nan,-nan,-nan,-nan,-nan,-nan,-nan,-nan,1.78144,-1.07395,-1.82004,-1.12085,1.93559,1.11257,-0.916323,0,0,0,1.1977e-05,0,-1.19989e-05,0,0,0,0,1.1977e-05,0,-1.19989e-05,0,0.538652,-0.456214,0.694843,0.57234,0.182441,0.153032,0.784681,-5.99478e-07,-4.81168e-06,2.21099e-06,1.28894,-0.918915,-0.620153,0.00344165,0.00545917,0.00405877,0.00344165,0.00545917,0.00405877,-nan,-nan,-nan,-nan,-nan,-nan,-nan,1
1.80739,-1.14231,-1.86816,-1.0436,1.87786,1.18584,-0.888028,1.80739,-1.14231,-1.86816,-1.0436,1.87786,1.18584,-0.888028,1.78144,-1.07395,-1.82004,-1.12085,1.93559,1.11257,-0.916323,0,0,0,0,-1.91642e-05,1.19994e-05,5.99099e-05,0,0,0,0,-1.91642e-05,1.19994e-05,5.99099e-05,0.538651,-0.456214,0.694843,0.57234,0.182441,0.153032,0.784681,-6.3419e-07,2.55257e-06,2.39917e-07,1.28893,-0.918943,-0.62012,0.00141835,0.00625037,-0.00346175,0.00141835,0.00625037,-0.00346175,0.259469,-0.683607,-0.481219,0.772483,-0.577282,0.732689,0.282952,1
-nan,-nan,-nan,-nan,-nan,-nan,-nan,-nan,-nan,-nan,-nan,-nan,-nan,-nan,1.78144,-1.07395,-1.82004,-1.12085,1.93559,1.11257,-0.916323,0,0,0,0,-1.91982e-05,0,-5.99071e-05,0,0,0,0,-1.91982e-05,0,-5.99071e-05,0.538651,-0.456214,0.694843,0.57234,0.182441,0.153032,0.784681,0,0,0,1.28888,-0.918929,-0.620159,-0.00146904,0.00641738,-0.000515452,-0.00146904,0.00641738,-0.000515452,-nan,-nan,-nan,-nan,-nan,-nan,-nan,1
-nan,-nan,-nan,-nan,-nan,-nan,-nan,-nan,-nan,-nan,-nan,-nan,-nan,-nan,1.78144,-1.07395,-1.82004,-1.12085,1.93559,1.11257,-0.916323,-2.39771e-05,1.19776e-05,-1.19776e-05,3.59547e-05,-5.75275e-05,2.39552e-05,-2.39771e-05,-2.39771e-05,1.19776e-05,-1.19776e-05,3.59547e-05,-5.75275e-05,2.39552e-05,-2.39771e-05,0.538651,-0.456214,0.694843,0.57234,0.182441,0.153032,0.784681,1.49025e-05,1.7761e-05,-9.72451e-06,1.28889,-0.918931,-0.620099,-0.00554918,0.00731849,0.00394072,-0.00554918,0.00731849,0.00394072,-nan,-nan,-nan,-nan,-nan,-nan,-nan,1
1.729,-1.1231,-1.89284,-1.19042,1.87505,1.16402,-0.855192,1.729,-1.1231,-1.89284,-1.19042,1.87505,1.16402,-0.855192,1.78144,-1.07395,-1.82004,-1.12085,1.93559,1.11257,-0.916323,3.59547e-05,-1.19994e-05,0,0,0,-3.59547e-05,-3.59547e-05,3.59547e-05,-1.19994e-05,0,0,0,-3.59547e-05,-3.59547e-05,0.538652,-0.456214,0.694843,0.57234,0.182441,0.153032,0.784681,-6.77833e-06,-7.66658e-06,1.29241e-05,1.2889,-0.918938,-0.620143,-0.00482025,0.00814712,-0.00552998,-0.00482025,0.00814712,-0.00552998,-0.524383,-0.491514,-0.728027,-0.695704,-0.605362,0.514524,0.611311,1
1.72639,-1.13293,-1.87423,-1.18969,1.976,1.0721,-0.867137,1.72639,-1.13293,-1.87423,-1.18969,1.976,1.0721,-0.867137,1.78144,-1.07395,-1.82004,-1.12085,1.93559,1.11257,-0.916323,0,-2.39771e-05,1.19776e-05,-1.19994e-05,1.91991e-05,0,-2.39771e-05,0,-2.39771e-05,1.19776e-05,-1.19994e-05,1.91991e-05,0,-2.39771e-05,0.538651,-0.456214,0.694843,0.57234,0.182441,0.153032,0.784681,-7.76952e-06,5.58452e-07,-1.36922e-05,1.28889,-0.919019,-0.620156,0.00500146,-0.00929461,0.00130096,0.00500146,-0.00929461,0.00130096,-0.550574,-0.589814,-0.541854,-0.688361,0.404153,-0.404701,0.491862,1
1.72746,-1.12101,-1.89264,-1.1897,1.8743,1.16446,-0.854862,1.72746,-1.12101,-1.89264,-1.1897,1.8743,1.16446,-0.854862,1.78144,-1.07395,-1.82004,-1.12085,1.93559,1.11257,-0.916323,-1.1977e-05,2.39759e-05,-2.39541e-05,1.19989e-05,-1.91982e-05,0,5.99071e-05,-1.1977e-05,2.39759e-05,-2.39541e-05,1.19989e-05,-1.91982e-05,0,5.99071e-05,0.538651,-0.456214,0.694843,0.57234,0.182441,0.153032,0.784681,0,0,0,1.28893,-0.918914,-0.620093,0.00719829,0.0117664,0.0317555,0.00719829,0.0117664,0.0317555,-0.539791,-0.470559,-0.725966,-0.688452,-0.612923,0.518898,0.614604,1
1.7325,-1.15821,-1.89902,-1.1887,1.9588,1.16589,-0.946404,1.7325,-1.15821,-1.89902,-1.1887,1.9588,1.16589,-0.946404,1.78144,-1.07395,-1.82004,-1.12085,1.93559,1.11257,-0.916323,-3.59547e-05,1.19776e-05,1.19776e-05,2.39552e-05,0,-3.59547e-05,0,-3.59547e-05,1.19776e-05,1.19776e-05,2.39552e-05,0,-3.59547e-05,0,0.538651,-0.456214,0.694843,0.57234,0.182441,0.153032,0.784681,1.58296e-05,1.64391e-05,4.01671e-07,1.28892,-0.9189,-0.620115,0.000560694,0.0202735,0.0183259,0.000560694,0.0202735,0.0183259,-0.489472,-0.842632,-0.789739,-0.678532,0.232165,0.533144,-0.300807,1
1.7325,-1.15821,-1.89902,-1.1887,1.95881,1.16589,-0.946404,1.7325,-1.15821,-1.89902,-1.1887,1.95881,1.16589,-0.946404,1.78144,-1.07395,-1.82004,-1.12085,1.93559,1.11257,-0.916323,0,0,0,-3.5953e-05,1.91633e-05,2.39541e-05,0,0,0,0,-3.5953e-05,1.91633e-05,2.39541e-05,0,0.538651,-0.456214,0.694843,0.57234,0.182441,0.153032,0.784681,2.44063e-06,1.18884e-05,-6.88041e-06,1.28889,-0.918988,-0.620185,-0.00687202,-0.011364,-0.016761,-0.00687202,-0.011364,-0.016761,-0.489459,-0.842633,-0.789737,-0.678529,0.232184,0.533151,-0.300816,1
1.72639,-1.13293,-1.87423,-1.18969,1.976,1.0721,-0.867137,1.72639,-1.13293,-1.87423,-1.18969,1.976,1.0721,-0.867137,1.78144,-1.07395,-1.82004,-1.12085,1.93559,1.11257,-0.916323,1.19776e-05,0,-1.19776e-05,3.59547e-05,1.91642e-05,0,-2.39771e-05,1.19776e-05,0,-1.19776e-05,3.59547e-05,1.91642e-05,0,-2.39771e-05,0.538651,-0.456214,0.694843,0.57234,0.182441,0.153032,0.784681,-1.4049e-06,6.15709e-06,6.90205e-06,1.28893,-0.919005,-0.620162,0.00133525,-0.0312244,-0.0304027,0.00133525,-0.0312244,-0.0304027,-0.550571,-0.589812,-0.541851,-0.688361,0.404149,-0.404699,0.491863,1
1.72639,-1.13293,-1.87423,-1.18969,1.976,1.0721,-0.867137,1.72639,-1.13293,-1.87423,-1.18969,1.976,1.0721,-0.867137,1.78144,-1.07395,-1.82004,-1.12085,1.93559,1.11257,-0.916323,0,0,-1.1977e-05,-3.5953e-05,0,2.39541e-05,0,0,0,-1.1977e-05,-3.5953e-05,0,2.39541e-05,0,0.538652,-0.456214,0.694843,0.57234,0.182441,0.153032,0.784681,4.64926e-06,-8.75149e-07,-4.70063e-06,1.28891,-0.918956,-0.620094,0.00306709,0.00685584,0.0110656,0.00306709,0.00685584,0.0110656,-0.550573,-0.589815,-0.54185,-0.688357,0.404164,-0.404716,0.491862,1
1.73251,-1.15822,-1.89901,-1.1887,1.95883,1.16589,-0.946414,1.73251,-1.15822,-1.89901,-1.1887,1.95883,1.16589,-0.946414,1.78144,-1.07395,-1.82004,-1.12085,1.93559,1.11257,-0.916323,2.39759e-05,2.39759e-05,0,-3.5953e-05,0,-1.19989e-05,-5.99071e-05,2.39759e-05,2.39759e-05,0,-3.5953e-05,0,-1.19989e-05,-5.99071e-05,0.538652,-0.456213,0.694843,0.57234,0.182441,0.153032,0.784681,-8.29479e-06,-6.92525e-06,1.96901e-05,1.28895,-0.918919,-0.62013,0.00319973,0.016229,0.00296935,0.00319973,0.016229,0.00296935,-0.489314,-0.842637,-0.789716,-0.678493,0.2324,0.533232,-0.300914,1
1.73251,-1.15822,-1.89901,-1.1887,1.95882,1.16589,-0.946413,1.73251,-1.15822,-1.89901,-1.1887,1.95882,1.16589,-0.946413,1.78144,-1.07395,-1.82004,-1.12085,1.93559,1.11257,-0.916323,-2.39771e-05,-1.19994e-05,-2.39771e-05,0,-1.91991e-05,-2.39552e-05,2.39771e-05,-2.39771e-05,-1.19994e-05,-2.39771e-05,0,-1.91991e-05,-2.39552e-05,2.39771e-05,0.538652,-0.456214,0.694843,0.57234,0.182441,0.153032,0.784681,-5.94752e-06,-1.9447e-05,-1.69164e-05,1.28887,-0.918987,-0.620198,-0.0112165,0.00367704,-0.0148936,-0.0112165,0.00367704,-0.0148936,-0.489338,-0.842637,-0.78972,-0.678499,0.232366,0.533219,-0.300899,1
1.73251,-1.15822,-1.89901,-1.1887,1.95883,1.16589,-0.946415,1.73251,-1.15822,-1.89901,-1.1887,1.95883,1.16589,-0.946415,1.78144,-1.07395,-1.82004,-1.12085,1.93559,1.11257,-0.916323,2.39759e-05,0,0,0,-1.91982e-05,-2.39759e-05,-1.1977e-05,2.39759e-05,0,0,0,-1.91982e-05,-2.39759e-05,-1.1977e-05,0.538652,-0.456214,0.694843,0.57234,0.182441,0.153032,0.784681,-5.46561e-06,-1.85147e-05,2.31239e-06,1.28891,-0.918968,-0.6201,-0.00410129,-0.0028709,0.0058937,-0.00410129,-0.0028709,0.0058937,-0.489301,-0.842638,-0.789714,-0.67849,0.23242,0.53324,-0.300923,1
1.72639,-1.13293,-1.87423,-1.18969,1.976,1.0721,-0.867137,1.72639,-1.13293,-1.87423,-1.18969,1.976,1.0721,-0.867137,1.78144,-1.07395,-1.82004,-1.12085,1.93559,1.11257,-0.916323,-3.5953e-05,0,2.39759e-05,0,1.91982e-05,0,0,-3.5953e-05,0,2.39759e-05,0,1.91982e-05,0,0,0.538651,-0.456214,0.694843,0.57234,0.182441,0.153032,0.784681,-9.90733e-07,-6.16225e-06,-1.20316e-05,1.28892,-0.918944,-0.620157,0.00300969,-0.000283265,-0.0231924,0.00300969,-0.000283265,-0.0231924,-0.55057,-0.589812,-0.541848,-0.688358,0.404158,-0.404694,0.491858,1
1.72639,-1.13293,-1.87423,-1.18969,1.976,1.0721,-0.867137,1.72639,-1.13293,-1.87423,-1.18969,1.976,1.0721,-0.867137,1.78144,-1.07395,-1.82004,-1.12085,1.93559,1.11257,-0.916323,-2.39541e-05,0,-2.39759e-05,1.19989e-05,1.91982e-05,-3.5953e-05,3.5953e-05,-2.39541e-05,0,-2.39759e-05,1.19989e-05,1.91982e-05,-3.5953e-05,3.5953e-05,0.538652,-0.456214,0.694843,0.57234,0.182441,0.153032,0.784681,2.83318e-05,5.44629e-05,6.26999e-06,1.28888,-0.918988,-0.620157,0.00311803,-0.0114435,-0.0118292,0.00311803,-0.0114435,-0.0118292,-0.550559,-0.589798,-0.541848,-0.688352,0.404156,-0.404678,0.491856,1
-nan,-nan,-nan,-nan,-nan,-nan,-nan,-nan,-nan,-nan,-nan,-nan,-nan,-nan,1.78144,-1.07395,-1.82004,-1.12085,1.93559,1.11257,-0.916323,-2.39759e-05,0,0,-2.39759e-05,-1.91633e-05,1.19989e-05,-2.39759e-05,-2.39759e-05,0,0,-2.39759e-05,-1.91633e-05,1.19989e-05,-2.39759e-05,0.538652,-0.456214,0.694843,0.57234,0.182441,0.153032,0.784681,-2.61201e-06,-3.24996e-06,-2.60236e-06,1.2889,-0.918938,-0.620136,-0.00572368,0.0101025,-0.00613028,-0.00572368,0.0101025,-0.00613028,-nan,-nan,-nan,-nan,-nan,-nan,-nan,1
-nan,-nan,-nan,-nan,-nan,-nan,-nan,-nan,-nan,-nan,-nan,-nan,-nan,-nan,1.78144,-1.07395,-1.82004,-1.12085,1.93559,1.11257,-0.916323,2.39759e-05,-1.1977e-05,0,-2.39541e-05,0,-2.39541e-05,3.5953e-05,2.39759e-05,-1.1977e-05,0,-2.39541e-05,0,-2.39541e-05,3.5953e-05,0.538652,-0.456214,0.694843,0.57234,0.182441,0.153032,0.784681,-7.84826e-06,-1.09168e-05,2.36276e-05,1.28895,-0.918948,-0.620119,0.00741648,0.00668029,0.00376277,0.00741648,0.00668029,0.00376277,-nan,-nan,-nan,-nan,-nan,-nan,-nan,1
-nan,-nan,-nan,-nan,-nan,-nan,-nan,-nan,-nan,-nan,-nan,-nan,-nan,-nan,1.78144,-1.07395,-1.82004,-1.12085,1.93559,1.11257,-0.916323,2.39759e-05,0,-1.1977e-05,0,-1.91982e-05,2.39541e-05,-1.1977e-05,2.39759e-05,0,-1.1977e-05,0,-1.91982e-05,2.39541e-05,-1.1977e-05,0.538652,-0.456213,0.694843,0.57234,0.182441,0.153032,0.784681,-1.36737e-05,-2.86347e-06,5.71322e-06,1.28891,-0.918975,-0.620109,0.00700736,-0.0127424,0.0126446,0.00700736,-0.0127424,0.0126446,-nan,-nan,-nan,-nan,-nan,-nan,-nan,1
-nan,-nan,-nan,-nan,-nan,-nan,-nan,-nan,-nan,-nan,-nan,-nan,-nan,-nan,1.78144,-1.07395,-1.82004,-1.12085,1.93559,1.11257,-0.916323,0,2.39759e-05,0,3.5953e-05,0,0,-3.5953e-05,0,2.39759e-05,0,3.5953e-05,0,0,-3.5953e-05,0.538651,-0.456214,0.694843,0.57234,0.182441,0.153032,0.784681,-8.99908e-06,-1.11022e-05,3.0033e-06,1.28888,-0.918974,-0.620131,-0.0141568,-0.00958009,-0.00508094,-0.0141568,-0.00958009,-0.00508094,-nan,-nan,-nan,-nan,-nan,-nan,-nan,1
-nan,-nan,-nan,-nan,-nan,-nan,-nan,-nan,-nan,-nan,-nan,-nan,-nan,-nan,1.78144,-1.07395,-1.82004,-1.12085,1.93559,1.11257,-0.916323,2.39771e-05,-1.19994e-05,0,-3.59547e-05,1.91991e-05,-3.59547e-05,0,2.39771e-05,-1.19994e-05,0,-3.59547e-05,1.91991e-05,-3.59547e-05,0,0.538652,-0.456213,0.694843,0.57234,0.182441,0.153032,0.784681,2.05124e-05,1.80012e-05,-1.67414e-05,1.28893,-0.918968,-0.620118,0.00186479,0.00327796,0.00396269,0.00186479,0.00327796,0.00396269,-nan,-nan,-nan,-nan,-nan,-nan,-nan,1
1.78176,-1.14781,-1.87339,-1.04345,1.87204,1.18478,-0.873354,1.78176,-1.14781,-1.87339,-1.04345,1.87204,1.18478,-0.873354,1.78144,-1.07395,-1.82004,-1.12085,1.93559,1.11257,-0.916323,0,1.1977e-05,0,3.5953e-05,9.58862e-05,1.19989e-05,0,0,1.1977e-05,0,3.5953e-05,9.58862e-05,1.19989e-05,0,0.538651,-0.456214,0.694843,0.57234,0.182441,0.153032,0.784681,-1.21044e-05,-1.28432e-05,-5.7723e-06,1.28891,-0.918925,-0.620103,0.00586806,0.036951,0.0163595,0.00586806,0.036951,0.0163595,0.00313429,-0.73861,-0.533467,0.773975,-0.635532,0.722044,0.429692,1
1.78176,-1.14781,-1.87339,-1.04345,1.87203,1.18478,-0.873354,1.78176,-1.14781,-1.87339,-1.04345,1.87203,1.18478,-0.873354,1.78144,-1.07395,-1.82004,-1.12085,1.93559,1.11257,-0.916323,0,-1.19989e-05,0,-3.5953e-05,-5.75247e-05,1.19989e-05,0,0,-1.19989e-05,0,-3.5953e-05,-5.75247e-05,1.19989e-05,0,0.538651,-0.456214,0.694843,0.57234,0.182441,0.153032,0.784681,4.95817e-07,3.08393e-06,6.02127e-06,1.28895,-0.918943,-0.620104,0.0105503,0.0140671,0.00433846,0.0105503,0.0140671,0.00433846,0.00312689,-0.738609,-0.533467,0.773976,-0.635532,0.722044,0.429691,1
1.72639,-1.13293,-1.87423,-1.18969,1.976,1.0721,-0.867137,1.72639,-1.13293,-1.87423,-1.18969,1.976,1.0721,-0.867137,1.78144,-1.07395,-1.82004,-1.12085,1.93559,1.11257,-0.916323,0,-2.39771e-05,0,2.39552e-05,0,2.39552e-05,0,0,-2.39771e-05,0,2.39552e-05,0,2.39552e-05,0,0.538651,-0.456214,0.694843,0.57234,0.182441,0.153032,0.784681,9.87866e-06,4.42335e-06,-3.79298e-06,1.28896,-0.918904,-0.620071,0.0280548,0.0247361,0.0211095,0.0280548,0.0247361,0.0211095,-0.550572,-0.589813,-0.541855,-0.68836,0.40415,-0.404714,0.49186,1
-nan,-nan,-nan,-nan,-nan,-nan,-nan,-nan,-nan,-nan,-nan,-nan,-nan,-nan,1.78144,-1.07395,-1.82004,-1.12085,1.93559,1.11257,-0.916323,2.39771e-05,1.19776e-05,-1.19776e-05,-3.59547e-05,-1.91642e-05,0,0,2.39771e-05,1.19776e-05,-1.19776e-05,-3.59547e-05,-1.91642e-05,0,0,0.538652,-0.456213,0.694843,0.57234,0.182441,0.153032,0.784681,-1.06227e-05,-8.18899e-06,1.24337e-05,1.28891,-0.918968,-0.620118,-0.00174224,0.00259482,0.00248362,-0.00174224,0.00259482,0.00248362,-nan,-nan,-nan,-nan,-nan,-nan,-nan,1
1.73251,-1.15822,-1.89901,-1.1887,1.95882,1.16589,-0.946413,1.73251,-1.15822,-1.89901,-1.1887,1.95882,1.16589,-0.946413,1.78144,-1.07395,-1.82004,-1.12085,1.93559,1.11257,-0.916323,0,-1.19776e-05,0,-2.39552e-05,0,0,0,0,-1.19776e-05,0,-2.39552e-05,0,0,0,0.538651,-0.456214,0.694843,0.57234,0.182441,0.153032,0.784681,-2.1981e-05,-2.70666e-05,1.24425e-05,1.28892,-0.918968,-0.620109,-0.000340702,0.011175,0.00756357,-0.000340702,0.011175,0.00756357,-0.489336,-0.842637,-0.789719,-0.678498,0.232369,0.53322,-0.3009,1
1.73251,-1.15822,-1.89901,-1.1887,1.95883,1.1659,-0.946416,1.73251,-1.15822,-1.89901,-1.1887,1.95883,1.1659,-0.946416,1.78144,-1.07395,-1.82004,-1.12085,1.93559,1.11257,-0.916323,0,1.19994e-05,0,0,1.91642e-05,-1.19994e-05,0,0,1.19994e-05,0,0,1.91642e-05,-1.19994e-05,0,0.538651,-0.456214,0.694843,0.57234,0.182441,0.153032,0.784681,5.1584e-06,-5.33907e-06,-1.04603e-05,1.28894,-0.918986,-0.620145,0.0117892,-0.0019385,0.00170113,0.0117892,-0.0019385,0.00170113,-0.489289,-0.842638,-0.789713,-0.678487,0.232439,0.533247,-0.300932,1
-nan,-nan,-nan,-nan,-nan,-nan,-nan,-nan,-nan,-nan,-nan,-nan,-nan,-nan,1.78144,-1.07395,-1.82004,-1.12085,1.93559,1.11257,-0.916323,0,1.1977e-05,0,-2.39759e-05,-1.91633e-05,1.19989e-05,0,0,1.1977e-05,0,-2.39759e-05,-1.91633e-05,1.19989e-05,0,0.538651,-0.456214,0.694843,0.57234,0.182441,0.153032,0.784681,2.33191e-06,1.47405e-05,1.18105e-06,1.28893,-0.91899,-0.620121,0.0129301,-0.00853841,0.00851956,0.0129301,-0.00853841,0.00851956,-nan,-nan,-nan,-nan,-nan,-nan,-nan,1
1.75493,-1.14226,-1.87298,-1.04201,1.86948,1.18643,-0.876376,1.75493,-1.14226,-1.87298,-1.04201,1.86948,1.18643,-0.876376,1.78144,-1.07395,-1.82004,-1.12085,1.93559,1.11257,-0.916323,0,1.19776e-05,0,1.19776e-05,0,0,-1.19776e-05,0,1.19776e-05,0,1.19776e-05,0,0,-1.19776e-05,0.538651,-0.456214,0.694843,0.57234,0.182441,0.153032,0.784681,-3.73542e-06,-8.58999e-06,5.70889e-06,1.28891,-0.918934,-0.620136,0.00423237,0.0251297,0.00908196,0.00423237,0.0251297,0.00908196,-0.265141,-0.683131,-0.529414,0.788444,-0.661085,0.738561,0.399471,1
1.73136,-1.1257,-1.8931,-1.19138,1.87611,1.16345,-0.855656,1.73136,-1.1257,-1.8931,-1.19138,1.87611,1.16345,-0.855656,1.78144,-1.07395,-1.82004,-1.12085,1.93559,1.11257,-0.916323,-1.1977e-05,-1.1977e-05,0,-1.1977e-05,0,0,-2.39759e-05,-1.1977e-05,-1.1977e-05,0,-1.1977e-05,0,0,-2.39759e-05,0.538651,-0.456214,0.694843,0.57234,0.182441,0.153032,0.784681,-2.84906e-06,-5.46138e-06,-9.50186e-06,1.28894,-0.918972,-0.620109,0.0152733,-0.0107762,0.00844275,0.0152733,-0.0107762,0.00844275,-0.500857,-0.517501,-0.730604,-0.705252,-0.594786,0.508745,0.606669,1
1.73251,-1.15822,-1.89901,-1.1887,1.95883,1.16589,-0.946415,1.73251,-1.15822,-1.89901,-1.1887,1.95883,1.16589,-0.946415,1.78144,-1.07395,-1.82004,-1.12085,1.93559,1.11257,-0.916323,0,5.98867e-06,0,5.98867e-06,9.58187e-06,0,1.79769e-05,0,5.98867e-06,0,5.98867e-06,9.58187e-06,0,1.79769e-05,0.538651,-0.456214,0.694843,0.57234,0.182441,0.153032,0.784681,-3.26766e-06,-2.7251e-06,9.9028e-06,1.2889,-0.918992,-0.620149,-0.00281038,-0.0107918,-0.00322257,-0.00281038,-0.0107918,-0.00322257,-0.489309,-0.842637,-0.789716,-0.678492,0.232408,0.533235,-0.300918,1
1.72639,-1.13293,-1.87423,-1.18969,1.976,1.0721,-0.867137,1.72639,-1.13293,-1.87423,-1.18969,1.976,1.0721,-0.867137,1.78144,-1.07395,-1.82004,-1.12085,1.93559,1.11257,-0.916323,0,-5.98867e-06,0,0,-9.58187e-06,0,-1.79769e-05,0,-5.98867e-06,0,0,-9.58187e-06,0,-1.79769e-05,0.538651,-0.456214,0.694843,0.57234,0.182441,0.153032,0.784681,1.40165e-06,-1.56599e-06,-7.05096e-06,1.28887,-0.918981,-0.620144,-0.0130277,-0.0236481,-0.0126737,-0.0130277,-0.0236481,-0.0126737,-0.550571,-0.589814,-0.541854,-0.688359,0.404159,-0.404704,0.491863,1
1.72639,-1.13293,-1.87423,-1.18969,1.976,1.0721,-0.867137,1.72639,-1.13293,-1.87423,-1.18969,1.976,1.0721,-0.867137,1.78144,-1.07395,-1.82004,-1.12085,1.93559,1.11257,-0.916323,0,5.98867e-06,0,-5.98867e-06,0,0,1.79769e-05,0,5.98867e-06,0,-5.98867e-06,0,0,1.79769e-05,0.538651,-0.456214,0.694843,0.57234,0.182441,0.153032,0.784681,1.0967e-06,7.88906e-06,3.79817e-06,1.28893,-0.918995,-0.620132,0.00552734,-0.0182292,-0.00336765,0.00552734,-0.0182292,-0.00336765,-0.550566,-0.589809,-0.541845,-0.688355,0.404164,-0.404698,0.491858,1
1.72639,-1.13293,-1.87423,-1.18969,1.976,1.0721,-0.867137,1.72639,-1.13293,-1.87423,-1.18969,1.976,1.0721,-0.867137,1.78144,-1.07395,-1.82004,-1.12085,1.93559,1.11257,-0.916323,0,0,0,0,0,0,0,0,0,0,0,0,0,0,0.538651,-0.456214,0.694843,0.57234,0.182441,0.153032,0.784681,-3.93151e-06,2.61183e-06,8.34246e-06,1.2889,-0.918986,-0.620113,-0.000819112,-0.0133478,0.00431895,-0.000819112,-0.0133478,0.00431895,-0.550569,-0.589813,-0.541851,-0.688358,0.404161,-0.404701,0.49186,1
1.82203,-1.14807,-1.8664,-1.04479,1.88245,1.18502,-0.884791,1.82203,-1.14807,-1.8664,-1.04479,1.88245,1.18502,-0.884791,1.78144,-1.07395,-1.82004,-1.12085,1.93559,1.11257,-0.916323,1.1977e-05,1.1977e-05,0,-2.39759e-05,1.91633e-05,0,0,1.1977e-05,1.1977e-05,0,-2.39759e-05,1.91633e-05,0,0,0.538651,-0.456214,0.694843,0.57234,0.182441,0.153032,0.784681,4.70083e-06,-6.2098e-06,-1.49925e-05,1.28895,-0.918907,-0.620087,0.0167188,0.0303488,0.0126147,0.0167188,0.0303488,0.0126147,0.40586,-0.741229,-0.463567,0.760594,-0.531418,0.724483,0.315318,1
1.75494,-1.14226,-1.87298,-1.04201,1.86948,1.18643,-0.876379,1.75494,-1.14226,-1.87298,-1.04201,1.86948,1.18643,-0.876379,1.78144,-1.07395,-1.82004,-1.12085,1.93559,1.11257,-0.916323,2.39759e-05,-1.1977e-05,0,0,-1.91982e-05,1.19989e-05,0,2.39759e-05,-1.1977e-05,0,0,-1.91982e-05,1.19989e-05,0,0.538652,-0.456214,0.694843,0.57234,0.182441,0.153032,0.784681,-3.70255e-06,-1.13697e-05,7.51893e-06,1.28889,-0.918942,-0.620137,-0.0101093,0.00100002,-0.00763651,-0.0101093,0.00100002,-0.00763651,-0.265027,-0.683129,-0.529401,0.788442,-0.661065,0.738563,0.399437,1
-nan,-nan,-nan,-nan,-nan,-nan,-nan,-nan,-nan,-nan,-nan,-nan,-nan,-nan,1.78144,-1.07395,-1.82004,-1.12085,1.93559,1.11257,-0.916323,-2.39771e-05,0,0,0,3.83633e-05,-3.59547e-05,0,-2.39771e-05,0,0,0,3.83633e-05,-3.59547e-05,0,0.538651,-0.456214,0.694843,0.57234,0.182441,0.153032,0.784681,-8.4496e-06,-1.79478e-05,-1.11763e-06,1.28894,-0.918951,-0.620103,0.00477576,-0.0115019,0.00386435,0.00477576,-0.0115019,0.00386435,-nan,-nan,-nan,-nan,-nan,-nan,-nan,1
-nan,-nan,-nan,-nan,-nan,-nan,-nan,-nan,-nan,-nan,-nan,-nan,-nan,-nan,1.78144,-1.07395,-1.82004,-1.12085,1.93559,1.11257,-0.916323,0,0,-3.59547e-05,-1.19994e-05,-3.83633e-05,3.59547e-05,-2.39771e-05,0,0,-3.59547e-05,-1.19994e-05,-3.83633e-05,3.59547e-05,-2.39771e-05,0.538651,-0.456214,0.694843,0.57234,0.182441,0.153032,0.784681,-1.86941e-06,-4.29891e-06,2.85704e-06,1.28888,-0.918931,-0.620134,-0.015298,0.00663195,-0.00533946,-0.015298,0.00663195,-0.00533946,-nan,-nan,-nan,-nan,-nan,-nan,-nan,1
-nan,-nan,-nan,-nan,-nan,-nan,-nan,-nan,-nan,-nan,-nan,-nan,-nan,-nan,1.78144,-1.07395,-1.82004,-1.12085,1.93559,1.11257,-0.916323,0,0,1.19882e-05,0,9.59932e-06,-5.99958e-06,0,0,0,1.19882e-05,0,9.59932e-06,-5.99958e-06,0,0.538651,-0.456214,0.694843,0.57234,0.182441,0.153032,0.784681,-4.65531e-07,1.96239e-06,8.33399e-06,1.28891,-0.91896,-0.620111,0.00602725,0.00421908,-0.00515434,0.00602725,0.00421908,-0.00515434,-nan,-nan,-nan,-nan,-nan,-nan,-nan,1
1.82196,-1.14803,-1.8664,-1.04477,1.88243,1.18503,-0.884802,1.82196,-1.14803,-1.8664,-1.04477,1.88243,1.18503,-0.884802,1.78144,-1.07395,-1.82004,-1.12085,1.93559,1.11257,-0.916323,2.39759e-05,1.19989e-05,0,3.5953e-05,0,0,0,2.39759e-05,1.19989e-05,0,3.5953e-05,0,0,0,0.538651,-0.456214,0.694843,0.57234,0.182441,0.153032,0.784681,1.14739e-06,1.4958e-05,5.86987e-06,1.28892,-0.91894,-0.620096,0.00406679,0.0246826,0.0266959,0.00406679,0.0246826,0.0266959,0.405178,-0.74077,-0.463545,0.760774,-0.53162,0.724629,0.315214,1
1.7547,-1.14227,-1.87301,-1.042,1.86944,1.18642,-0.87631,1.7547,-1.14227,-1.87301,-1.042,1.86944,1.18642,-0.87631,1.78144,-1.07395,-1.82004,-1.12085,1.93559,1.11257,-0.916323,2.39759e-05,0,2.39759e-05,0,-1.91982e-05,0,1.1977e-05,2.39759e-05,0,2.39759e-05,0,-1.91982e-05,0,1.1977e-05,0.538651,-0.456213,0.694843,0.57234,0.182441,0.153032,0.784681,-8.01078e-06,-1.254e-05,-1.14302e-05,1.28885,-0.919007,-0.620176,-0.0179587,-0.00336473,-0.0102969,-0.0179587,-0.00336473,-0.0102969,-0.267418,-0.683159,-0.529661,0.788489,-0.661499,0.738511,0.400129,1
1.73252,-1.15822,-1.89901,-1.1887,1.95884,1.1659,-0.946418,1.73252,-1.15822,-1.89901,-1.1887,1.95884,1.1659,-0.946418,1.78144,-1.07395,-1.82004,-1.12085,1.93559,1.11257,-0.916323,0,0,-3.5953e-05,0,3.83615e-05,-2.39541e-05,-3.5953e-05,0,0,-3.5953e-05,0,3.83615e-05,-2.39541e-05,-3.5953e-05,0.538651,-0.456214,0.694843,0.57234,0.182441,0.153032,0.784681,-1.89612e-06,3.07126e-06,8.78444e-07,1.28896,-0.918945,-0.620112,0.00660533,0.0159414,0.00907772,0.00660533,0.0159414,0.00907772,-0.489261,-0.842639,-0.789709,-0.67848,0.232481,0.533263,-0.300951,1
1.72639,-1.13293,-1.87423,-1.18969,1.976,1.0721,-0.867138,1.72639,-1.13293,-1.87423,-1.18969,1.976,1.0721,-0.867138,1.78144,-1.07395,-1.82004,-1.12085,1.93559,1.11257,-0.916323,-2.39771e-05,-1.19994e-05,1.19776e-05,1.19994e-05,0,0,3.59547e-05,-2.39771e-05,-1.19994e-05,1.19776e-05,1.19994e-05,0,0,3.59547e-05,0.538651,-0.456214,0.694843,0.57234,0.182441,0.153032,0.784681,-1.26262e-05,-1.79664e-05,4.77596e-07,1.28889,-0.918978,-0.620164,-0.00113799,-0.00924126,-0.00431651,-0.00113799,-0.00924126,-0.00431651,-0.550564,-0.589812,-0.541845,-0.688358,0.404164,-0.404693,0.491848,1
1.7263,-1.13313,-1.87479,-1.18981,1.97561,1.07179,-0.867146,1.7263,-1.13313,-1.87479,-1.18981,1.97561,1.07179,-0.867146,1.78144,-1.07395,-1.82004,-1.12085,1.93559,1.11257,-0.916323,1.1977e-05,-1.19989e-05,2.39541e-05,3.5953e-05,-1.91633e-05,4.793e-05,0,1.1977e-05,-1.19989e-05,2.39541e-05,3.5953e-05,-1.91633e-05,4.793e-05,0,0.538651,-0.456214,0.694843,0.57234,0.182441,0.153032,0.784681,-4.87077e-06,-1.70505e-06,1.2623e-05,1.28889,-0.918965,-0.620136,0.0035325,-0.00265601,-0.000903044,0.0035325,-0.00265601,-0.000903044,-0.551414,-0.591835,-0.547509,-0.689569,0.400231,-0.407824,0.491772,1
1.73251,-1.15822,-1.89901,-1.1887,1.95883,1.1659,-0.946416,1.73251,-1.15822,-1.89901,-1.1887,1.95883,1.1659,-0.946416,1.78144,-1.07395,-1.82004,-1.12085,1.93559,1.11257,-0.916323,-1.19776e-05,1.19994e-05,0,-1.19994e-05,0,-4.79323e-05,0,-1.19776e-05,1.19994e-05,0,-1.19994e-05,0,-4.79323e-05,0,0.538651,-0.456214,0.694843,0.57234,0.182441,0.153032,0.784681,0,0,0,1.28887,-0.918998,-0.620142,-0.0131957,-0.000111828,-0.00280812,-0.0131957,-0.000111828,-0.00280812,-0.489295,-0.842638,-0.789714,-0.678488,0.23243,0.533243,-0.300927,1
1.7287,-1.12269,-1.8928,-1.19028,1.87489,1.16411,-0.855122,1.7287,-1.12269,-1.8928,-1.19028,1.87489,1.16411,-0.855122,1.78144,-1.07395,-1.82004,-1.12085,1.93559,1.11257,-0.916323,0,0,0,0,1.91633e-05,0,0,0,0,0,0,1.91633e-05,0,0,0.538651,-0.456214,0.694843,0.57234,0.182441,0.153032,0.784681,-6.32341e-07,-2.03198e-06,4.00941e-07,1.28892,-0.91898,-0.620139,-0.00204807,0.000168664,-0.00252996,-0.00204807,0.000168664,-0.00252996,-0.527434,-0.487409,-0.727573,-0.69429,-0.606933,0.515362,0.612012,1
1.7325,-1.15821,-1.89901,-1.1887,1.95882,1.16589,-0.946409,1.7325,-1.15821,-1.89901,-1.1887,1.95882,1.16589,-0.946409,1.78144,-1.07395,-1.82004,-1.12085,1.93559,1.11257,-0.916323,0,2.39759e-05,1.19989e-05,2.39541e-05,0,-2.39541e-05,-1.1977e-05,0,2.39759e-05,1.19989e-05,2.39541e-05,0,-2.39541e-05,-1.1977e-05,0.538651,-0.456214,0.694843,0.57234,0.182441,0.153032,0.784681,-6.61119e-06,-6.68121e-06,-5.77157e-06,1.28892,-0.91902,-0.620129,0.00165634,-0.00804167,0.00211244,0.00165634,-0.00804167,0.00211244,-0.489387,-0.842635,-0.789727,-0.678511,0.232291,0.533191,-0.300865,1
1.69873,-1.01208,-1.79506,-1.14091,1.98903,1.03654,-0.88468,1.69873,-1.01208,-1.79506,-1.14091,1.98903,1.03654,-0.88468,1.78144,-1.07395,-1.82004,-1.12085,1.93559,1.11257,-0.916323,-1.1977e-05,0,0,-1.1977e-05,3.83615e-05,-1.19989e-05,0,-1.1977e-05,0,0,-1.1977e-05,3.83615e-05,-1.19989e-05,0,0.538651,-0.456214,0.694843,0.57234,0.182441,0.153032,0.784681,7.43838e-06,2.32427e-06,-1.13543e-05,1.2889,-0.918896,-0.620092,-0.00409596,0.0218677,0.0139466,-0.00409596,0.0218677,0.0139466,-0.827122,0.61873,0.249788,-0.200633,0.534461,-0.760275,0.316429,1
1.69754,-1.00604,-1.88464,-1.04091,1.8613,1.16719,-0.859864,1.69754,-1.00604,-1.88464,-1.04091,1.8613,1.16719,-0.859864,1.78144,-1.07395,-1.82004,-1.12085,1.93559,1.11257,-0.916323,0,1.19989e-05,0,0,-1.91633e-05,1.19989e-05,-3.5953e-05,0,1.19989e-05,0,0,-1.91633e-05,1.19989e-05,-3.5953e-05,0.538651,-0.456214,0.694843,0.57234,0.182441,0.153032,0.784681,-1.4049e-06,6.15709e-06,6.90205e-06,1.28888,-0.918988,-0.620138,-0.00517703,-0.00491413,0.000485347,-0.00517703,-0.00491413,0.000485347,-0.839041,0.679104,-0.645948,0.799384,-0.742852,0.546195,0.564586,1
1.72639,-1.13293,-1.87423,-1.18969,1.976,1.0721,-0.867137,1.72639,-1.13293,-1.87423,-1.18969,1.976,1.0721,-0.867137,1.78144,-1.07395,-1.82004,-1.12085,1.93559,1.11257,-0.916323,0,1.19994e-05,2.39771e-05,2.39771e-05,0,1.19994e-05,3.59547e-05,0,1.19994e-05,2.39771e-05,2.39771e-05,0,1.19994e-05,3.59547e-05,0.538651,-0.456214,0.694843,0.57234,0.182441,0.153032,0.784681,6.95494e-06,4.24328e-06,-1.76962e-05,1.28892,-0.918975,-0.620124,0.00732042,-0.00211479,0.017325,0.00732042,-0.00211479,0.017325,-0.550565,-0.589803,-0.541833,-0.688351,0.404163,-0.404696,0.491855,1
1.71861,-1.15069,-1.90017,-1.18761,1.96276,1.06206,-0.891086,1.71861,-1.15069,-1.90017,-1.18761,1.96276,1.06206,-0.891086,1.78144,-1.07395,-1.82004,-1.12085,1.93559,1.11257,-0.916323,-2.39771e-05,0,0,-2.39552e-05,0,-3.59547e-05,0,-2.39771e-05,0,0,-2.39552e-05,0,-3.59547e-05,0,0.538651,-0.456214,0.694843,0.57234,0.182441,0.153032,0.784681,-2.58206e-06,-1.06201e-05,-6.36027e-07,1.2889,-0.918972,-0.620092,-0.0069344,-0.0125409,-0.00432786,-0.0069344,-0.0125409,-0.00432786,-0.628305,-0.767392,-0.801326,-0.667586,0.271714,-0.505073,0.252366,1
1.75493,-1.14226,-1.87298,-1.04201,1.86948,1.18643,-0.876377,1.75493,-1.14226,-1.87298,-1.04201,1.86948,1.18643,-0.876377,1.78144,-1.07395,-1.82004,-1.12085,1.93559,1.11257,-0.916323,0,0,-1.19776e-05,1.19994e-05,1.91991e-05,0,-1.19776e-05,0,0,-1.19776e-05,1.19994e-05,1.91991e-05,0,-1.19776e-05,0.538651,-0.456214,0.694843,0.57234,0.182441,0.153032,0.784681,-3.56475e-06,4.13567e-09,1.34743e-05,1.28888,-0.918961,-0.620164,-0.0150413,-4.2975e-05,-0.0204561,-0.0150413,-4.2975e-05,-0.0204561,-0.265099,-0.683129,-0.529409,0.788444,-0.661077,0.738562,0.399457,1
1.80739,-1.14231,-1.86816,-1.0436,1.87786,1.18584,-0.888027,1.80739,-1.14231,-1.86816,-1.0436,1.87786,1.18584,-0.888027,1.78144,-1.07395,-1.82004,-1.12085,1.93559,1.11257,-0.916323,0,0,0,-2.39771e-05,0,0,-1.19776e-05,0,0,0,-2.39771e-05,0,0,-1.19776e-05,0.538651,-0.456214,0.694843,0.57234,0.182441,0.153032,0.784681,-2.24963e-05,-2.23719e-05,4.28269e-06,1.28891,-0.918959,-0.620111,0.0055301,-0.00816697,0.00245375,0.0055301,-0.00816697,0.00245375,0.259474,-0.68361,-0.481222,0.772482,-0.577281,0.732688,0.282955,1
1.72639,-1.13293,-1.87423,-1.18969,1.976,1.0721,-0.867137,1.72639,-1.13293,-1.87423,-1.18969,1.976,1.0721,-0.867137,1.78144,-1.07395,-1.82004,-1.12085,1.93559,1.11257,-0.916323,-2.39771e-05,0,-1.19776e-05,2.39552e-05,0,3.59547e-05,3.59547e-05,-2.39771e-05,0,-1.19776e-05,2.39552e-05,0,3.59547e-05,3.59547e-05,0.538651,-0.456214,0.694843,0.57234,0.182441,0.153032,0.784681,1.28448e-05,1.66113e-05,-2.85185e-06,1.28892,-0.918992,-0.620157,-0.00709891,-0.0199914,-0.012549,-0.00709891,-0.0199914,-0.012549,-0.550566,-0.589809,-0.541846,-0.688355,0.404157,-0.404713,0.491855,1
1.7818,-1.1478,-1.87338,-1.04345,1.87204,1.18478,-0.873375,1.7818,-1.1478,-1.87338,-1.04345,1.87204,1.18478,-0.873375,1.78144,-1.07395,-1.82004,-1.12085,1.93559,1.11257,-0.916323,0,0,0,0,-1.91991e-05,0,0,0,0,0,0,-1.91991e-05,0,0,0.538651,-0.456214,0.694843,0.57234,0.182441,0.153032,0.784681,2.51937e-05,2.53266e-05,2.36244e-06,1.28891,-0.918994,-0.62013,-0.014464,-0.0208817,-0.00162866,-0.014464,-0.0208817,-0.00162866,0.00351998,-0.738532,-0.533404,0.773997,-0.635482,0.722065,0.429476,1
-nan,-nan,-nan,-nan,-nan,-nan,-nan,-nan,-nan,-nan,-nan,-nan,-nan,-nan,1.78144,-1.07395,-1.82004,-1.12085,1.93559,1.11257,-0.916323,4.79323e-05,1.19994e-05,0,-1.19776e-05,0,3.59547e-05,3.59547e-05,4.79323e-05,1.19994e-05,0,-1.19776e-05,0,3.59547e-05,3.59547e-05,0.538651,-0.456214,0.694843,0.57234,0.182441,0.153032,0.784681,-8.96554e-06,-1.36581e-05,-9.1123e-06,1.28886,-0.918962,-0.620152,-0.016391,-0.00631149,-0.01722,-0.016391,-0.00631149,-0.01722,-nan,-nan,-nan,-nan,-nan,-nan,-nan,1
1.80739,-1.14231,-1.86816,-1.0436,1.87786,1.18584,-0.888028,1.80739,-1.14231,-1.86816,-1.0436,1.87786,1.18584,-0.888028,1.78144,-1.07395,-1.82004,-1.12085,1.93559,1.11257,-0.916323,-2.39771e-05,-1.19776e-05,0,-2.39771e-05,0,0,-3.59547e-05,-2.39771e-05,-1.19776e-05,0,-2.39771e-05,0,0,-3.59547e-05,0.538651,-0.456214,0.694843,0.57234,0.182441,0.153032,0.784681,5.11449e-06,-7.42167e-06,-1.28651e-05,1.2889,-0.918978,-0.620139,0.0078055,-0.00151671,0.00969214,0.0078055,-0.00151671,0.00969214,0.25947,-0.683608,-0.48122,0.772483,-0.577282,0.732688,0.282953,1
-nan,-nan,-nan,-nan,-nan,-nan,-nan,-nan,-nan,-nan,-nan,-nan,-nan,-nan,1.78144,-1.07395,-1.82004,-1.12085,1.93559,1.11257,-0.916323,0,0,0,0,1.91991e-05,1.19994e-05,0,0,0,0,0,1.91991e-05,1.19994e-05,0,0.538651,-0.456214,0.694843,0.57234,0.182441,0.153032,0.784681,-1.03526e-05,-9.1561e-06,2.1312e-05,1.28892,-0.91898,-0.620148,0.000480542,-0.00249882,-0.00910627,0.000480542,-0.00249882,-0.00910627,-nan,-nan,-nan,-nan,-nan,-nan,-nan,1
1.73059,-1.12493,-1.89303,-1.19108,1.87578,1.16362,-0.855516,1.73059,-1.12493,-1.89303,-1.19108,1.87578,1.16362,-0.855516,1.78144,-1.07395,-1.82004,-1.12085,1.93559,1.11257,-0.916323,2.39552e-05,0,-1.19776e-05,1.19776e-05,0,3.59547e-05,1.19776e-05,2.39552e-05,0,-1.19776e-05,1.19776e-05,0,3.59547e-05,1.19776e-05,0.538651,-0.456214,0.694843,0.57234,0.182441,0.153032,0.784681,-3.44176e-06,-5.28671e-06,-7.62394e-06,1.28895,-0.91895,-0.620142,0.00511962,0.00480205,0.000962335,0.00511962,0.00480205,0.000962335,-0.50856,-0.509806,-0.729887,-0.702319,-0.598036,0.510535,0.608069,1
1.78673,-1.14957,-1.8739,-1.04446,1.87178,1.18407,-0.870488,1.78673,-1.14957,-1.8739,-1.04446,1.87178,1.18407,-0.870488,1.78144,-1.07395,-1.82004,-1.12085,1.93559,1.11257,-0.916323,0,0,2.39771e-05,1.19994e-05,-1.91991e-05,-3.59547e-05,1.19776e-05,0,0,2.39771e-05,1.19994e-05,-1.91991e-05,-3.59547e-05,1.19776e-05,0.538651,-0.456214,0.694843,0.57234,0.182441,0.153032,0.784681,3.18663e-06,1.08473e-05,-1.4262e-06,1.28891,-0.919001,-0.620177,-0.00198673,-0.00961082,-0.00628304,-0.00198673,-0.00961082,-0.00628304,0.0529033,-0.756218,-0.538582,0.763892,-0.638028,0.714946,0.458351,1
1.72883,-1.12286,-1.89282,-1.19034,1.87496,1.16407,-0.855151,1.72883,-1.12286,-1.89282,-1.19034,1.87496,1.16407,-0.855151,1.78144,-1.07395,-1.82004,-1.12085,1.93559,1.11257,-0.916323,0,0,0,0,1.91982e-05,1.19989e-05,-2.39759e-05,0,0,0,0,1.91982e-05,1.19989e-05,-2.39759e-05,0.538651,-0.456214,0.694843,0.57234,0.182441,0.153032,0.784681,-5.16191e-06,-1.20616e-05,-1.59009e-06,1.28892,-0.918963,-0.620114,0.00268511,0.00759983,0.0126104,0.00268511,0.00759983,0.0126104,-0.526177,-0.489095,-0.727756,-0.694872,-0.606295,0.51502,0.611726,1
1.73189,-1.15818,-1.89911,-1.18909,1.95871,1.16542,-0.946715,1.73189,-1.15818,-1.89911,-1.18909,1.95871,1.16542,-0.946715,1.78144,-1.07395,-1.82004,-1.12085,1.93559,1.11257,-0.916323,2.39759e-05,-2.39541e-05,2.39759e-05,0,1.91982e-05,0,3.5953e-05,2.39759e-05,-2.39541e-05,2.39759e-05,0,1.91982e-05,0,3.5953e-05,0.538651,-0.456214,0.694843,0.57234,0.182441,0.153032,0.784681,-9.05131e-07,9.23161e-06,1.28984e-05,1.28894,-0.918978,-0.62012,0.00360719,-0.00835472,-0.00404936,0.00360719,-0.00835472,-0.00404936,-0.495547,-0.842253,-0.79073,-0.682354,0.231227,0.528461,-0.303918,1
1.69889,-1.00619,-1.77715,-1.12992,1.9855,1.03746,-0.883706,1.69889,-1.00619,-1.77715,-1.12992,1.9855,1.03746,-0.883706,1.78144,-1.07395,-1.82004,-1.12085,1.93559,1.11257,-0.916323,-2.39759e-05,0,0,0,0,5.99071e-05,-2.39759e-05,-2.39759e-05,0,0,0,0,5.99071e-05,-2.39759e-05,0.538651,-0.456214,0.694843,0.57234,0.182441,0.153032,0.784681,-1.73022e-05,-9.72105e-06,3.19963e-06,1.28892,-0.918957,-0.620103,0.00133217,-0.00118943,-0.00444848,0.00133217,-0.00118943,-0.00444848,-0.825545,0.677564,0.428874,-0.0907088,0.499154,-0.75112,0.326166,1
1.69888,-1.00613,-1.77713,-1.12924,1.98552,1.03745,-0.883631,1.69888,-1.00613,-1.77713,-1.12924,1.98552,1.03745,-0.883631,1.78144,-1.07395,-1.82004,-1.12085,1.93559,1.11257,-0.916323,-2.39759e-05,0,0,0,-1.91982e-05,0,1.1977e-05,-2.39759e-05,0,0,0,-1.91982e-05,0,1.1977e-05,0.538651,-0.456214,0.694843,0.57234,0.182441,0.153032,0.784681,-1.03453e-05,-1.02845e-05,-4.01672e-07,1.28893,-0.918947,-0.620103,0.0173624,0.00365869,0.0207457,0.0173624,0.00365869,0.0207457,-0.825638,0.67819,0.429075,-0.0838552,0.499362,-0.751169,0.326923,1
1.69886,-1.00606,-1.77716,-1.12861,1.98543,1.03745,-0.883613,1.69886,-1.00606,-1.77716,-1.12861,1.98543,1.03745,-0.883613,1.78144,-1.07395,-1.82004,-1.12085,1.93559,1.11257,-0.916323,0,0,1.1977e-05,2.39759e-05,-1.91982e-05,0,-2.39759e-05,0,0,1.1977e-05,2.39759e-05,-1.91982e-05,0,-2.39759e-05,0.538651,-0.456214,0.694843,0.57234,0.182441,0.153032,0.784681,-3.65071e-06,-4.29704e-06,9.5899e-06,1.28888,-0.918959,-0.620149,-0.00645119,0.00704163,-0.00443929,-0.00645119,0.00704163,-0.00443929,-0.825804,0.678901,0.428788,-0.0775639,0.498449,-0.751199,0.327102,1
1.69886,-1.00599,-1.77711,-1.12812,1.98543,1.03746,-0.88355,1.69886,-1.00599,-1.77711,-1.12812,1.98543,1.03746,-0.88355,1.78144,-1.07395,-1.82004,-1.12085,1.93559,1.11257,-0.916323,2.39759e-05,0,0,-1.19989e-05,1.91633e-05,3.5953e-05,0,2.39759e-05,0,0,-1.19989e-05,1.91633e-05,3.5953e-05,0,0.538651,-0.456214,0.694843,0.57234,0.182441,0.153032,0.784681,8.42084e-06,1.6147e-05,-5.35855e-07,1.28888,-0.918943,-0.620147,-0.00600597,0.0114813,0.00400398,-0.00600597,0.0114813,0.00400398,-0.825875,0.679652,0.429309,-0.0727009,0.49839,-0.751155,0.327728,1
1.69885,-1.00595,-1.77702,-1.12786,1.98549,1.03746,-0.883537,1.69885,-1.00595,-1.77702,-1.12786,1.98549,1.03746,-0.883537,1.78144,-1.07395,-1.82004,-1.12085,1.93559,1.11257,-0.916323,-2.39759e-05,0,1.1977e-05,1.19989e-05,1.91633e-05,0,-3.59311e-05,-2.39759e-05,0,1.1977e-05,1.19989e-05,1.91633e-05,0,-3.59311e-05,0.538651,-0.456214,0.694843,0.57234,0.182441,0.153032,0.784681,-1.40293e-05,-1.63938e-05,7.54067e-06,1.28893,-0.918986,-0.620124,0.00217322,-0.000840831,0.000879638,0.00217322,-0.000840831,0.000879638,-0.825908,0.679995,0.430175,-0.0701051,0.499067,-0.751089,0.327862,1
1.69884,-1.00594,-1.77702,-1.12769,1.98546,1.03746,-0.883633,1.69884,-1.00594,-1.77702,-1.12769,1.98546,1.03746,-0.883633,1.78144,-1.07395,-1.82004,-1.12085,1.93559,1.11257,-0.916323,-2.39541e-05,-2.39541e-05,1.1977e-05,1.19989e-05,0,2.39541e-05,-1.1977e-05,-2.39541e-05,-2.39541e-05,1.1977e-05,1.19989e-05,0,2.39541e-05,-1.1977e-05,0.538651,-0.456214,0.694843,0.57234,0.182441,0.153032,0.784681,-1.43768e-05,-2.05073e-05,-4.88092e-06,1.28892,-0.918976,-0.620131,0.00203437,0.0088043,0.0016727,0.00203437,0.0088043,0.0016727,-0.826036,0.680072,0.430263,-0.0684024,0.498721,-0.751062,0.326901,1
1.69883,-1.00587,-1.77698,-1.12731,1.98538,1.03747,-0.883634,1.69883,-1.00587,-1.77698,-1.12731,1.98538,1.03747,-0.883634,1.78144,-1.07395,-1.82004,-1.12085,1.93559,1.11257,-0.916323,-2.39541e-05,0,-1.1977e-05,1.19989e-05,0,1.19989e-05,3.5953e-05,-2.39541e-05,0,-1.1977e-05,1.19989e-05,0,1.19989e-05,3.5953e-05,0.538651,-0.456214,0.694843,0.57234,0.182441,0.153032,0.784681,-1.35559e-05,-1.83446e-05,-7.84785e-07,1.28891,-0.918979,-0.620157,-0.00315838,-0.00634069,-0.00760882,-0.00315838,-0.00634069,-0.00760882,-0.826151,0.680807,0.430576,-0.0645582,0.497958,-0.750979,0.326885,1
1.69882,-1.00578,-1.77692,-1.12667,1.9853,1.03749,-0.883553,1.69882,-1.00578,-1.77692,-1.12667,1.9853,1.03749,-0.883553,1.78144,-1.07395,-1.82004,-1.12085,1.93559,1.11257,-0.916323,2.39541e-05,0,1.1977e-05,-1.1977e-05,1.91633e-05,3.5953e-05,0,2.39541e-05,0,1.1977e-05,-1.1977e-05,1.91633e-05,3.5953e-05,0,0.538651,-0.456214,0.694843,0.57234,0.182441,0.153032,0.784681,7.85866e-06,1.83853e-05,3.75202e-06,1.28888,-0.918933,-0.620134,-0.00464189,0.00585762,-0.00304547,-0.00464189,0.00585762,-0.00304547,-0.826273,0.681714,0.431258,-0.0582444,0.497153,-0.750847,0.327701,1
1.6988,-1.00572,-1.77686,-1.1262,1.98521,1.0375,-0.883544,1.6988,-1.00572,-1.77686,-1.1262,1.98521,1.0375,-0.883544,1.78144,-1.07395,-1.82004,-1.12085,1.93559,1.11257,-0.916323,-4.793e-05,0,0,0,-3.83615e-05,2.39541e-05,-3.5953e-05,-4.793e-05,0,0,0,-3.83615e-05,2.39541e-05,-3.5953e-05,0.538651,-0.456214,0.694843,0.57234,0.182441,0.153032,0.78468,-2.32102e-05,-1.95223e-05,4.76773e-07,1.28892,-0.918999,-0.62016,0.0045715,-0.010995,-0.00391508,0.0045715,-0.010995,-0.00391508,-0.826429,0.682281,0.431775,-0.0535022,0.496193,-0.750714,0.327786,1
1.69878,-1.00562,-1.7768,-1.12591,1.98499,1.03752,-0.883536,1.69878,-1.00562,-1.7768,-1.12591,1.98499,1.03752,-0.883536,1.78144,-1.07395,-1.82004,-1.12085,1.93559,1.11257,-0.916323,0,0,0,-1.19989e-05,1.91633e-05,1.19989e-05,2.39759e-05,0,0,0,-1.19989e-05,1.91633e-05,1.19989e-05,2.39759e-05,0.538651,-0.456214,0.694843,0.57234,0.182441,0.153032,0.78468,-8.4711e-08,-4.29295e-06,-3.88101e-06,1.28892,-0.918911,-0.620117,-0.00396467,0.00543544,0.000200974,-0.00396467,0.00543544,0.000200974,-0.826606,0.683273,0.432377,-0.0505748,0.494032,-0.750484,0.327874,1
1.69876,-1.0056,-1.77679,-1.12604,1.98476,1.03754,-0.883693,1.69876,-1.0056,-1.77679,-1.12604,1.98476,1.03754,-0.883693,1.78144,-1.07395,-1.82004,-1.12085,1.93559,1.11257,-0.916323,0,0,2.39541e-05,1.19989e-05,1.91633e-05,3.5953e-05,2.39759e-05,0,0,2.39541e-05,1.19989e-05,1.91633e-05,3.5953e-05,2.39759e-05,0.538651,-0.456214,0.694843,0.57234,0.182441,0.153032,0.784681,-1.05706e-06,-5.68241e-06,-2.32119e-06,1.28893,-0.91897,-0.620113,0.00923258,0.00684834,0.0121495,0.00923258,0.00684834,0.0121495,-0.826812,0.68351,0.432525,-0.0519367,0.491672,-0.750358,0.326298,1
1.69874,-1.00563,-1.77684,-1.12602,1.9846,1.03753,-0.883815,1.69874,-1.00563,-1.77684,-1.12602,1.9846,1.03753,-0.883815,1.78144,-1.07395,-1.82004,-1.12085,1.93559,1.11257,-0.916323,2.39771e-05,-2.39552e-05,-1.19776e-05,0,-3.83633e-05,-2.39552e-05,-3.59547e-05,2.39771e-05,-2.39552e-05,-1.19776e-05,0,-3.83633e-05,-2.39552e-05,-3.59547e-05,0.538651,-0.456214,0.694843,0.57234,0.182441,0.153032,0.78468,-7.84282e-06,-8.5419e-06,-3.4979e-06,1.28891,-0.918963,-0.620185,0.00561133,0.00922199,-0.0102282,0.00561133,0.00922199,-0.0102282,-0.827009,0.683191,0.432029,-0.0516523,0.490151,-0.750398,0.325077,1
1.6987,-1.00563,-1.77703,-1.12557,1.98422,1.03752,-0.883914,1.6987,-1.00563,-1.77703,-1.12557,1.98422,1.03752,-0.883914,1.78144,-1.07395,-1.82004,-1.12085,1.93559,1.11257,-0.916323,1.1977e-05,2.39541e-05,1.1977e-05,1.19989e-05,3.83615e-05,2.39541e-05,3.5953e-05,1.1977e-05,2.39541e-05,1.1977e-05,1.19989e-05,3.83615e-05,2.39541e-05,3.5953e-05,0.538651,-0.456214,0.694843,0.57234,0.182441,0.153032,0.784681,-2.26672e-06,8.28045e-06,2.25218e-05,1.2889,-0.918982,-0.620133,-0.00928579,-0.0067064,-0.00659316,-0.00928579,-0.0067064,-0.00659316,-0.827381,0.683197,0.430139,-0.0471922,0.486282,-0.750519,0.324094,1
1.6987,-1.00568,-1.7771,-1.1255,1.98418,1.03751,-0.883963,1.6987,-1.00568,-1.7771,-1.1255,1.98418,1.03751,-0.883963,1.78144,-1.07395,-1.82004,-1.12085,1.93559,1.11257,-0.916323,2.39552e-05,-1.19994e-05,-1.19776e-05,0,0,0,1.19776e-05,2.39552e-05,-1.19994e-05,-1.19776e-05,0,0,0,1.19776e-05,0.538651,-0.456214,0.694843,0.57234,0.182441,0.153032,0.784681,1.27365e-05,1.48855e-05,5.38274e-06,1.28894,-0.918995,-0.620164,0.00623592,-0.0179973,-0.00726208,0.00623592,-0.0179973,-0.00726208,-0.827468,0.682735,0.429428,-0.0464902,0.485968,-0.750619,0.323598,1
1.69868,-1.00604,-1.77734,-1.12658,1.98436,1.03746,-0.884663,1.69868,-1.00604,-1.77734,-1.12658,1.98436,1.03746,-0.884663,1.78144,-1.07395,-1.82004,-1.12085,1.93559,1.11257,-0.916323,2.39771e-05,0,2.39771e-05,0,1.91642e-05,2.39552e-05,1.19776e-05,2.39771e-05,0,2.39771e-05,0,1.91642e-05,2.39552e-05,1.19776e-05,0.538651,-0.456214,0.694843,0.57234,0.182441,0.153032,0.784681,1.95297e-06,8.58816e-06,1.0247e-06,1.28889,-0.919021,-0.620176,-0.00448222,-0.0234392,-0.0145788,-0.00448222,-0.0234392,-0.0145788,-0.827602,0.679135,0.42698,-0.0572593,0.4877,-0.751127,0.316604,1
1.69867,-1.00652,-1.77769,-1.12815,1.98465,1.0374,-0.885537,1.69867,-1.00652,-1.77769,-1.12815,1.98465,1.0374,-0.885537,1.78144,-1.07395,-1.82004,-1.12085,1.93559,1.11257,-0.916323,0,2.39759e-05,-3.5953e-05,3.5953e-05,0,-2.39541e-05,0,0,2.39759e-05,-3.5953e-05,3.5953e-05,0,-2.39541e-05,0,0.538651,-0.456214,0.694843,0.57234,0.182441,0.153032,0.784681,-2.96565e-06,-1.34938e-05,7.73764e-06,1.2889,-0.918993,-0.620128,0.00474059,-0.00546198,0.00861092,0.00474059,-0.00546198,0.00861092,-0.827696,0.674306,0.423548,-0.0730101,0.490648,-0.751682,0.307854,1
1.69868,-1.00637,-1.77766,-1.1276,1.98451,1.03741,-0.885204,1.69868,-1.00637,-1.77766,-1.1276,1.98451,1.03741,-0.885204,1.78144,-1.07395,-1.82004,-1.12085,1.93559,1.11257,-0.916323,-1.19882e-05,0,0,-2.99542e-05,-9.58187e-06,0,-2.99652e-05,-1.19882e-05,0,0,-2.99542e-05,-9.58187e-06,0,-2.99652e-05,0.538651,-0.456214,0.694843,0.57234,0.182441,0.153032,0.784681,-1.01297e-06,1.1175e-05,-1.46654e-05,1.28894,-0.918989,-0.620174,0.00667124,-0.00461363,-0.00447305,0.00667124,-0.00461363,-0.00447305,-0.827644,0.675803,0.423799,-0.067539,0.489204,-0.751601,0.311191,1
1.69868,-1.00619,-1.77768,-1.12666,1.98434,1.03742,-0.884774,1.69868,-1.00619,-1.77768,-1.12666,1.98434,1.03742,-0.884774,1.78144,-1.07395,-1.82004,-1.12085,1.93559,1.11257,-0.916323,-2.39552e-05,2.39771e-05,0,-1.19994e-05,0,2.39552e-05,0,-2.39552e-05,2.39771e-05,0,-1.19994e-05,0,2.39552e-05,0,0.538651,-0.456214,0.694843,0.57234,0.182441,0.153032,0.784681,-3.97669e-06,-1.57906e-05,-8.70397e-07,1.28886,-0.918995,-0.620178,-0.00937072,-0.00334006,-0.0063322,-0.00937072,-0.00334006,-0.0063322,-0.827644,0.677628,0.423662,-0.058111,0.4875,-0.751503,0.315492,1
1.69868,-1.00611,-1.77771,-1.12622,1.9843,1.03742,-0.88451,1.69868,-1.00611,-1.77771,-1.12622,1.9843,1.03742,-0.88451,1.78144,-1.07395,-1.82004,-1.12085,1.93559,1.11257,-0.916323,-2.39759e-05,2.39541e-05,1.19989e-05,0,1.91982e-05,1.19989e-05,0,-2.39759e-05,2.39541e-05,1.19989e-05,0,1.91982e-05,1.19989e-05,0,0.538651,-0.456214,0.694843,0.57234,0.182441,0.153032,0.78468,0,0,0,1.28891,-0.918993,-0.620134,-0.00410801,-0.00793536,0.000510312,-0.00410801,-0.00793536,0.000510312,-0.82759,0.678454,0.423349,-0.0537303,0.48708,-0.751466,0.318128,1
1.69869,-1.00607,-1.77774,-1.12588,1.9843,1.03742,-0.884362,1.69869,-1.00607,-1.77774,-1.12588,1.9843,1.03742,-0.884362,1.78144,-1.07395,-1.82004,-1.12085,1.93559,1.11257,-0.916323,0,0,0,0,-1.91642e-05,3.59547e-05,0,0,0,0,0,-1.91642e-05,3.59547e-05,0,0.538651,-0.456214,0.694843,0.57234,0.182441,0.153032,0.78468,-1.46201e-05,-2.86269e-05,-2.95275e-06,1.28889,-0.919007,-0.620167,-0.0118797,-0.000105027,0.00105027,-0.0118797,-0.000105027,0.00105027,-0.827554,0.678782,0.423008,-0.0502906,0.487116,-0.751471,0.319611,1
1.69869,-1.00619,-1.77784,-1.12625,1.98442,1.03741,-0.884492,1.69869,-1.00619,-1.77784,-1.12625,1.98442,1.03741,-0.884492,1.78144,-1.07395,-1.82004,-1.12085,1.93559,1.11257,-0.916323,-3.59547e-05,0,0,1.19994e-05,3.83284e-05,2.39552e-05,1.19776e-05,-3.59547e-05,0,0,1.19994e-05,3.83284e-05,2.39552e-05,1.19776e-05,0.538651,-0.456214,0.694843,0.57234,0.182441,0.153032,0.78468,6.10445e-06,6.17481e-08,-9.50415e-06,1.28893,-0.918979,-0.620124,-0.00159764,0.000367026,0.00185672,-0.00159764,0.000367026,0.00185672,-0.827499,0.6776,0.421985,-0.0539517,0.488303,-0.751656,0.31831,1
1.69871,-1.00615,-1.7778,-1.12599,1.98454,1.03741,-0.88425,1.69871,-1.00615,-1.7778,-1.12599,1.98454,1.03741,-0.88425,1.78144,-1.07395,-1.82004,-1.12085,1.93559,1.11257,-0.916323,1.19776e-05,0,1.19776e-05,0,-3.83284e-05,0,-3.59547e-05,1.19776e-05,0,1.19776e-05,0,-3.83284e-05,0,-3.59547e-05,0.538651,-0.456214,0.694843,0.57234,0.182441,0.153032,0.78468,3.80817e-07,-6.25535e-06,-1.2215e-05,1.28889,-0.918968,-0.620148,-0.0013931,0.00718166,-0.00348274,-0.0013931,0.00718166,-0.00348274,-0.827316,0.678021,0.42242,-0.0514424,0.489493,-0.751576,0.320734,1
1.78176,-1.14781,-1.87339,-1.04345,1.87203,1.18478,-0.873354,1.78176,-1.14781,-1.87339,-1.04345,1.87203,1.18478,-0.873354,1.78144,-1.07395,-1.82004,-1.12085,1.93559,1.11257,-0.916323,0,2.39541e-05,0,-1.19989e-05,1.91633e-05,-3.5953e-05,2.39759e-05,0,2.39541e-05,0,-1.19989e-05,1.91633e-05,-3.5953e-05,2.39759e-05,0.538651,-0.456214,0.694843,0.57234,0.182441,0.153032,0.78468,3.49343e-06,7.90299e-06,8.92369e-06,1.28893,-0.918937,-0.620109,0.00485676,0.00630635,0.000545147,0.00485676,0.00630635,0.000545147,0.00313814,-0.738611,-0.533467,0.773975,-0.635531,0.722043,0.429693,1
1.72871,-1.12251,-1.89275,-1.19024,1.87481,1.16414,-0.855093,1.72871,-1.12251,-1.89275,-1.19024,1.87481,1.16414,-0.855093,1.78144,-1.07395,-1.82004,-1.12085,1.93559,1.11257,-0.916323,0,-1.19773e-05,1.19882e-05,0,0,1.79769e-05,5.98867e-06,0,-1.19773e-05,1.19882e-05,0,0,1.79769e-05,5.98867e-06,0.538651,-0.456214,0.694843,0.57234,0.182441,0.153032,0.78468,-3.35493e-06,-1.11739e-06,-2.80662e-06,1.28891,-0.918964,-0.620127,-0.00207858,-0.00244823,-0.0016393,-0.00207858,-0.00244823,-0.0016393,-0.527296,-0.4856,-0.727053,-0.693892,-0.607816,0.515732,0.612301,1
1.78183,-1.14781,-1.87338,-1.04345,1.87204,1.18478,-0.87338,1.78183,-1.14781,-1.87338,-1.04345,1.87204,1.18478,-0.87338,1.78144,-1.07395,-1.82004,-1.12085,1.93559,1.11257,-0.916323,0,-2.39552e-05,-3.59547e-05,3.59547e-05,0,0,2.39771e-05,0,-2.39552e-05,-3.59547e-05,3.59547e-05,0,0,2.39771e-05,0.538651,-0.456214,0.694843,0.57234,0.182441,0.153032,0.78468,0,0,0,1.2889,-0.918999,-0.620128,-0.0013402,-0.0218844,-0.00974094,-0.0013402,-0.0218844,-0.00974094,0.0038681,-0.738545,-0.53338,0.773988,-0.635451,0.722057,0.429424,1
1.69876,-1.00626,-1.77769,-1.12673,1.98502,1.03742,-0.884122,1.69876,-1.00626,-1.77769,-1.12673,1.98502,1.03742,-0.884122,1.78144,-1.07395,-1.82004,-1.12085,1.93559,1.11257,-0.916323,0,0,0,-1.19989e-05,0,0,2.39541e-05,0,0,0,-1.19989e-05,0,0,2.39541e-05,0.538651,-0.456214,0.694843,0.57234,0.182441,0.153032,0.784681,1.86941e-06,4.2989e-06,-2.85704e-06,1.28892,-0.918988,-0.62014,0.00501345,-0.00122421,0.0119856,0.00501345,-0.00122421,0.0119856,-0.826851,0.676954,0.423562,-0.058792,0.494295,-0.751561,0.322011,1
1.69876,-1.0063,-1.77773,-1.12702,1.98503,1.03741,-0.884186,1.69876,-1.0063,-1.77773,-1.12702,1.98503,1.03741,-0.884186,1.78144,-1.07395,-1.82004,-1.12085,1.93559,1.11257,-0.916323,-2.39759e-05,2.39541e-05,2.39759e-05,1.19989e-05,0,1.19989e-05,0,-2.39759e-05,2.39541e-05,2.39759e-05,1.19989e-05,0,1.19989e-05,0,0.538651,-0.456214,0.694843,0.57234,0.182441,0.153032,0.78468,-1.67519e-05,-4.38392e-06,2.53711e-05,1.28893,-0.918909,-0.620085,-0.000585905,0.0106049,0.0121868,-0.000585905,0.0106049,0.0121868,-0.82683,0.676468,0.423112,-0.0617154,0.494378,-0.751601,0.321369,1
1.69875,-1.00653,-1.77795,-1.12728,1.98514,1.03737,-0.884467,1.69875,-1.00653,-1.77795,-1.12728,1.98514,1.03737,-0.884467,1.78144,-1.07395,-1.82004,-1.12085,1.93559,1.11257,-0.916323,0,0,-2.39759e-05,2.39541e-05,0,-1.19989e-05,0,0,0,-2.39759e-05,2.39541e-05,0,-1.19989e-05,0,0.538651,-0.456214,0.694843,0.57234,0.182441,0.153032,0.78468,-1.36693e-06,-1.36214e-05,-3.51033e-06,1.28891,-0.918986,-0.620114,0.000855656,-0.00408813,0.00527654,0.000855656,-0.00408813,0.00527654,-0.82692,0.674251,0.420891,-0.06432,0.49549,-0.751999,0.318555,1
1.6987,-1.00682,-1.7785,-1.12753,1.98491,1.03732,-0.885039,1.6987,-1.00682,-1.7785,-1.12753,1.98491,1.03732,-0.885039,1.78144,-1.07395,-1.82004,-1.12085,1.93559,1.11257,-0.916323,0,2.39759e-05,-2.39759e-05,-1.19989e-05,-3.83615e-05,0,0,0,2.39759e-05,-2.39759e-05,-1.19989e-05,-3.83615e-05,0,0,0.538651,-0.456214,0.694843,0.57234,0.182441,0.153032,0.78468,2.69379e-06,1.10504e-05,1.07931e-06,1.2889,-0.918996,-0.620132,-0.00757525,-0.0139822,-0.00757525,-0.00757525,-0.0139822,-0.00757525,-0.827422,0.671299,0.415379,-0.0668121,0.493211,-0.752515,0.312841,1
1.69869,-1.00592,-1.77779,-1.12556,1.98393,1.03747,-0.883903,1.69869,-1.00592,-1.77779,-1.12556,1.98393,1.03747,-0.883903,1.78144,-1.07395,-1.82004,-1.12085,1.93559,1.11257,-0.916323,-2.39759e-05,2.39541e-05,1.1977e-05,0,0,-3.5953e-05,2.39759e-05,-2.39759e-05,2.39541e-05,1.1977e-05,0,0,-3.5953e-05,2.39759e-05,0.538651,-0.456214,0.694843,0.57234,0.182441,0.153032,0.78468,-9.27118e-06,-4.42687e-06,1.56625e-05,1.28891,-0.918944,-0.620113,0.00699966,0.00643278,0.0103023,0.00699966,0.00643278,0.0103023,-0.827494,0.680271,0.422565,-0.0470604,0.483463,-0.751035,0.324198,1
1.8074,-1.14232,-1.86817,-1.0436,1.87786,1.18584,-0.88802,1.8074,-1.14232,-1.86817,-1.0436,1.87786,1.18584,-0.88802,1.78144,-1.07395,-1.82004,-1.12085,1.93559,1.11257,-0.916323,0,2.39541e-05,0,-2.39541e-05,-1.91982e-05,-3.5953e-05,0,0,2.39541e-05,0,-2.39541e-05,-1.91982e-05,-3.5953e-05,0,0.538651,-0.456214,0.694843,0.57234,0.182441,0.153032,0.78468,6.62189e-06,1.62539e-05,5.27442e-06,1.2889,-0.919028,-0.620174,-0.00947607,-0.0220038,-0.0122524,-0.00947607,-0.0220038,-0.0122524,0.259589,-0.683661,-0.481292,0.772466,-0.577257,0.732683,0.28303,1
1.71104,-1.1459,-1.90009,-1.19121,1.96354,1.05683,-0.880419,1.71104,-1.1459,-1.90009,-1.19121,1.96354,1.05683,-0.880419,1.78144,-1.07395,-1.82004,-1.12085,1.93559,1.11257,-0.916323,2.39541e-05,0,-1.1977e-05,-2.39541e-05,1.91982e-05,-2.39541e-05,0,2.39541e-05,0,-1.1977e-05,-2.39541e-05,1.91982e-05,-2.39541e-05,0,0.538651,-0.456214,0.694843,0.57234,0.182441,0.153032,0.78468,1.71445e-05,1.55589e-05,-1.08641e-05,1.2889,-0.918973,-0.620112,-0.00411778,-0.00844587,0.00181536,-0.00411778,-0.00844587,0.00181536,-0.703975,-0.719488,-0.800476,-0.703558,0.279489,-0.557364,0.359043,1
