Afshin1997/kuka_rl_ros2/src/catch_and_throw/output_files/tm/nn_ema7.00_jvws1_realball_D23H16M09S58/recorded_data.csv
pure_target_joint_0,pure_target_joint_1,pure_target_joint_2,pure_target_joint_3,pure_target_joint_4,pure_target_joint_5,pure_target_joint_6,target_joint_0,target_joint_1,target_joint_2,target_joint_3,target_joint_4,target_joint_5,target_joint_6,pos_joint_0,pos_joint_1,pos_joint_2,pos_joint_3,pos_joint_4,pos_joint_5,pos_joint_6,vel_joint_0,vel_joint_1,vel_joint_2,vel_joint_3,vel_joint_4,vel_joint_5,vel_joint_6,vel_smooth_joint_0,vel_smooth_joint_1,vel_smooth_joint_2,vel_smooth_joint_3,vel_smooth_joint_4,vel_smooth_joint_5,vel_smooth_joint_6,ee_pos_x,ee_pos_y,ee_pos_z,ee_or_w,ee_or_x,ee_or_y,ee_or_z,ee_vel_x,ee_vel_y,ee_vel_z,ball_pos_x,ball_pos_y,ball_pos_z,ball_raw_vx,ball_raw_vy,ball_raw_vz,ball_ema_vx,ball_ema_vy,ball_ema_vz,action_0,action_1,action_2,action_3,action_4,action_5,action_6,command_published
1.76706,-1.03501,-1.8379,-1.11184,1.97687,1.18465,-0.858548,1.76706,-1.03501,-1.8379,-1.11184,1.97687,1.18465,-0.858548,1.78024,-1.06467,-1.81518,-1.11708,1.93732,1.11689,-0.916307,0,0,0,0,0,0,0,0,0,0,0,0,0,0,0.531062,-0.454435,0.694249,0.574521,0.175212,0.152587,0.784821,0,0,0,2.9699,-0.484546,0.174106,-3.6942,0.0101924,4.87899,-3.66786,-0.0383803,4.82634,-0.131806,0.296595,-0.22725,0.052442,0.395514,0.677623,0.577592,1
1.7536,-1.04496,-1.85176,-1.06842,1.96381,1.18762,-0.860651,1.7536,-1.04496,-1.85176,-1.06842,1.96381,1.18762,-0.860651,1.78024,-1.06467,-1.81518,-1.11708,1.93732,1.11689,-0.916307,0,0,0,0,0,0,0,0,0,0,0,0,0,0,0.531062,-0.454435,0.694249,0.574521,0.175212,0.152587,0.784821,0,0,0,2.9334,-0.484928,0.220975,-3.64962,-0.0382066,4.68695,-3.65785,-0.0340432,4.76934,-0.26647,0.197093,-0.365852,0.486675,0.26495,0.707318,0.55656,1
1.7405,-0.99567,-1.76156,-1.0836,1.99462,1.16958,-0.847052,1.7405,-0.99567,-1.76156,-1.0836,1.99462,1.16958,-0.847052,1.77869,-1.06119,-1.81785,-1.11647,1.94196,1.12485,-0.90952,-0.309761,0.697034,-0.534065,0.123246,0.929504,1.5925,1.35741,-0.309761,0.697034,-0.534065,0.123246,0.929504,1.5925,1.35741,0.528861,-0.454978,0.696031,0.573287,0.172328,0.150415,0.786778,-0.382291,-0.115843,0.326873,2.89754,-0.485887,0.266746,-3.58648,-0.0959277,4.57702,-3.65241,-0.0347742,4.67516,-0.381894,0.65517,0.562898,0.328645,0.52651,0.447267,0.624685,1
1.71706,-0.998338,-1.77913,-1.0998,1.99691,1.17197,-0.8331,1.71706,-0.998338,-1.77913,-1.0998,1.99691,1.17197,-0.8331,1.77454,-1.05657,-1.82391,-1.11034,1.94815,1.13843,-0.898492,-0.557718,0.30901,-0.741662,1.11648,0.417057,1.31002,1.00772,-0.557718,0.30901,-0.741662,1.11648,0.417057,1.31002,1.00772,0.52377,-0.459003,0.698998,0.574127,0.167189,0.14666,0.787983,-0.58099,-0.700533,0.255985,2.86126,-0.486578,0.312315,-3.6272,-0.0690788,4.55699,-3.64974,-0.041409,4.57425,-0.5748,0.582292,0.447788,0.105459,0.487577,0.335442,0.653927,1
1.73433,-0.977022,-1.76383,-1.07129,2.01321,1.19525,-0.842171,1.73433,-0.977022,-1.76383,-1.07129,2.01321,1.19525,-0.842171,1.76837,-1.04821,-1.81947,-1.10285,1.95523,1.14719,-0.888524,-0.74201,1.39909,1.54231,0.512608,1.04873,0.596217,1.10442,-0.74201,1.39909,1.54231,0.512608,1.04873,0.596217,1.10442,0.516956,-0.461506,0.707909,0.57531,0.159417,0.141296,0.789709,-0.697462,0.118096,1.47979,2.82512,-0.487237,0.356908,-3.61474,-0.0658602,4.45924,-3.63907,-0.0497741,4.47767,-0.340394,0.711861,0.556388,0.315662,0.579713,0.480663,0.463534,1
1.70413,-0.966686,-1.76039,-1.0742,2.02207,1.19693,-0.822923,1.70413,-0.966686,-1.76039,-1.0742,2.02207,1.19693,-0.822923,1.75945,-1.0369,-1.80873,-1.1005,1.96421,1.15242,-0.877711,-1.12888,1.02693,0.788103,0.0186775,0.870639,0.520601,1.18801,-1.12888,1.02693,0.788103,0.0186775,0.870639,0.520601,1.18801,0.50946,-0.461607,0.719172,0.57429,0.151604,0.135441,0.793009,-0.720997,-0.13394,0.877281,2.78863,-0.487698,0.400003,-3.64904,-0.0461429,4.30953,-3.62978,-0.0577927,4.37502,-0.553244,0.70214,0.483337,0.263011,0.578525,0.44512,0.547878,1
1.73665,-0.95486,-1.74796,-1.06892,2.017,1.21781,-0.812965,1.73665,-0.95486,-1.74796,-1.06892,2.017,1.21781,-0.812965,1.7521,-1.02587,-1.80038,-1.09699,1.97336,1.15948,-0.868909,-0.473293,1.30066,0.973273,0.684527,1.06101,0.952589,0.712015,-0.473293,1.30066,0.973273,0.684527,1.06101,0.952589,0.712015,0.502359,-0.461565,0.729716,0.574092,0.143264,0.130088,0.795595,-0.622768,0.112959,1.26485,2.75268,-0.488198,0.442134,-3.59416,-0.0499755,4.21304,-3.62003,-0.0637335,4.2725,-0.154561,0.710059,0.524254,0.280696,0.436361,0.583238,0.559437,1
1.69655,-0.942582,-1.7474,-1.05369,2.03503,1.222,-0.800342,1.69655,-0.942582,-1.7474,-1.05369,2.03503,1.222,-0.800342,1.74462,-1.01385,-1.79189,-1.09165,1.98322,1.16759,-0.860733,-1.07838,1.25585,0.838838,0.464727,1.03456,0.781343,1.00683,-1.07838,1.25585,0.838838,0.464727,1.03456,0.781343,1.00683,0.494488,-0.461612,0.741268,0.574745,0.133632,0.124464,0.797696,-0.839879,-0.128127,1.12238,2.71676,-0.489023,0.483451,-3.59228,-0.082472,4.13172,-3.61521,-0.0643751,4.17818,-0.480668,0.712647,0.444948,0.379567,0.518139,0.544065,0.603912,1
1.71883,-0.932442,-1.72888,-1.0564,2.04561,1.23406,-0.798213,1.71883,-0.932442,-1.72888,-1.0564,2.04561,1.23406,-0.798213,1.73949,-1.00203,-1.78347,-1.08717,1.99121,1.17654,-0.851199,-0.0756048,1.25598,0.945527,0.485859,0.686585,1.099,1.01814,-0.0756048,1.25598,0.945527,0.485859,0.686585,1.099,1.01814,0.48781,-0.459742,0.752331,0.573564,0.123474,0.119916,0.800874,-0.412424,0.43795,1.15551,2.68088,-0.489811,0.523783,-3.58863,-0.0788242,4.03321,-3.61221,-0.062931,4.08074,-0.206565,0.695832,0.545899,0.307704,0.544007,0.575294,0.529863,1
1.68277,-0.918272,-1.72822,-1.04815,2.05173,1.23814,-0.780371,1.68277,-0.918272,-1.72822,-1.04815,2.05173,1.23814,-0.780371,1.73415,-0.99015,-1.77555,-1.08134,1.99904,1.18616,-0.841259,-1.00102,1.26668,0.749496,0.736323,0.958479,0.954438,1.08958,-1.00102,1.26668,0.749496,0.736323,0.958479,0.954438,1.08958,0.480643,-0.45821,0.763479,0.572731,0.112793,0.115426,0.8037,-0.878727,-0.127279,1.14719,2.64472,-0.490389,0.562692,-3.61507,-0.0577718,3.89087,-3.60701,-0.0639439,3.97259,-0.513806,0.718782,0.473289,0.331897,0.526898,0.519803,0.608878,1
1.71007,-0.907331,-1.71326,-1.05327,2.05919,1.25334,-0.776458,1.71007,-0.907331,-1.71326,-1.05327,2.05919,1.25334,-0.776458,1.72845,-0.978436,-1.76714,-1.07554,2.00824,1.1955,-0.831958,-0.256162,1.22478,1.01903,0.509851,0.995209,1.02686,0.898592,-0.256162,1.22478,1.01903,0.509851,0.995209,1.02686,0.898592,0.47318,-0.456802,0.774576,0.571902,0.102217,0.110316,0.806418,-0.520874,0.351661,1.14533,2.6085,-0.49103,0.600589,-3.62258,-0.0641197,3.78976,-3.60522,-0.0656188,3.86454,-0.183751,0.711055,0.538811,0.222786,0.509462,0.578335,0.554993,1
1.67068,-0.895096,-1.71134,-1.03912,2.07216,1.25563,-0.761688,1.67068,-0.895096,-1.71134,-1.03912,2.07216,1.25563,-0.761688,1.72208,-0.966597,-1.7586,-1.07034,2.01723,1.20451,-0.822397,-1.04698,1.28687,0.809102,0.59083,0.918687,0.895427,1.11912,-1.04698,1.28687,0.809102,0.59083,0.918687,0.895427,1.11912,0.465531,-0.455199,0.785462,0.570835,0.0917847,0.105563,0.809061,-0.877061,-0.0295764,1.11284,2.57229,-0.491478,0.637648,-3.62115,-0.0447869,3.70584,-3.60509,-0.0656013,3.76102,-0.514062,0.715016,0.472632,0.312197,0.549298,0.511187,0.607093,1
1.69635,-0.884089,-1.69527,-1.05103,2.07904,1.27038,-0.757571,1.69635,-0.884089,-1.69527,-1.05103,2.07904,1.27038,-0.757571,1.71659,-0.954622,-1.75012,-1.06603,2.02573,1.21374,-0.812641,-0.173662,1.25932,0.981566,0.339986,0.890827,1.05454,0.963511,-0.173662,1.25932,0.981566,0.339986,0.890827,1.05454,0.963511,0.458441,-0.452557,0.796011,0.568887,0.0812607,0.101417,0.812083,-0.455283,0.498158,1.07942,2.53607,-0.492064,0.673528,-3.62213,-0.0586063,3.58804,-3.61136,-0.0633078,3.65494,-0.202491,0.705326,0.548524,0.14999,0.533083,0.566465,0.550701,1
1.66064,-0.870822,-1.69372,-1.03704,2.09038,1.27337,-0.741154,1.66064,-0.870822,-1.69372,-1.03704,2.09038,1.27337,-0.741154,1.71052,-0.942724,-1.74174,-1.06155,2.03466,1.22276,-0.802902,-1.06107,1.26829,0.809665,0.597193,0.998539,0.875177,1.0975,-1.06107,1.26829,0.809665,0.597193,0.998539,0.875177,1.0975,0.451032,-0.450156,0.806383,0.567052,0.0708642,0.0972039,0.814851,-0.890156,-0.00575129,1.07914,2.49995,-0.492534,0.70836,-3.61168,-0.047043,3.48318,-3.61604,-0.0576036,3.54705,-0.498859,0.719013,0.480238,0.2451,0.557183,0.506064,0.617478,1
1.68446,-0.860148,-1.67837,-1.05187,2.09757,1.28732,-0.737283,1.68446,-0.860148,-1.67837,-1.05187,2.09757,1.28732,-0.737283,1.70473,-0.930895,-1.73313,-1.05799,2.04376,1.23177,-0.793302,-0.223142,1.24639,1.00815,0.185125,0.939496,1.02826,0.951474,-0.223142,1.24639,1.00815,0.185125,0.939496,1.02826,0.951474,0.443919,-0.447158,0.816401,0.564592,0.0605864,0.093152,0.817856,-0.450024,0.550891,1.0128,2.46407,-0.493289,0.742193,-3.58839,-0.0755131,3.38333,-3.61576,-0.0562868,3.44109,-0.202652,0.707471,0.547608,0.061135,0.53812,0.555529,0.560188,1
1.64972,-0.84742,-1.67522,-1.03787,2.11093,1.2896,-0.72138,1.64972,-0.84742,-1.67522,-1.03787,2.11093,1.2896,-0.72138,1.69868,-0.918983,-1.72457,-1.0548,2.0529,1.24066,-0.783469,-1.01294,1.28247,0.821602,0.473108,0.998023,0.87105,1.12681,-1.01294,1.28247,0.821602,0.473108,0.998023,0.87105,1.12681,0.43679,-0.443949,0.826186,0.561847,0.0504242,0.0893501,0.820855,-0.843232,0.106461,1.03085,2.42843,-0.493886,0.775085,-3.56393,-0.059697,3.28919,-3.6075,-0.0573878,3.33964,-0.489576,0.715623,0.493495,0.169357,0.580309,0.489432,0.620891,1
1.63621,-0.83825,-1.67393,-1.02663,2.12404,1.30007,-0.714313,1.63621,-0.83825,-1.67393,-1.02663,2.12404,1.30007,-0.714313,1.69026,-0.90833,-1.71775,-1.05087,2.06119,1.2479,-0.774109,-0.788876,0.998789,0.639864,0.368457,0.777261,0.678375,0.877558,-0.788876,0.998789,0.639864,0.368457,0.777261,0.678375,0.877558,0.429005,-0.442768,0.834818,0.560813,0.0418252,0.086051,0.822395,-0.656478,0.100844,0.793268,2.3925,-0.49428,0.807155,-3.59244,-0.0393778,3.20699,-3.59899,-0.0564052,3.24013,-0.540497,0.700799,0.438139,0.242448,0.62855,0.521786,0.597954,1
1.63276,-0.822388,-1.65767,-1.0385,2.12987,1.30201,-0.705978,1.63276,-0.822388,-1.65767,-1.0385,2.12987,1.30201,-0.705978,1.6849,-0.896176,-1.70867,-1.04945,2.07081,1.25688,-0.764094,-0.936754,1.29833,0.890592,0.308395,1.06843,0.871267,1.13745,-0.936754,1.29833,0.890592,0.308395,1.06843,0.871267,1.13745,0.422515,-0.438217,0.844136,0.556629,0.0317507,0.0825955,0.826035,-0.778252,0.242992,0.991018,2.35645,-0.494569,0.83816,-3.60544,-0.0288606,3.10053,-3.59347,-0.053777,3.14113,-0.521322,0.737884,0.510025,0.109486,0.590642,0.451277,0.581161,1
1.62638,-0.810943,-1.64994,-1.04334,2.13811,1.30935,-0.689755,1.62638,-0.810943,-1.64994,-1.04334,2.13811,1.30935,-0.689755,1.67553,-0.884314,-1.70112,-1.04557,2.08122,1.26535,-0.753816,-1.04694,1.22665,0.723894,0.504297,1.14029,0.924615,1.05191,-1.04694,1.22665,0.723894,0.504297,1.14029,0.924615,1.05191,0.413873,-0.436483,0.853339,0.554956,0.0221288,0.0787854,0.827845,-0.863974,0.0924086,0.945837,2.32043,-0.495007,0.868041,-3.60208,-0.043866,2.98809,-3.59102,-0.0496085,3.04322,-0.491498,0.733714,0.511837,0.0222612,0.568838,0.440001,0.640603,1
1.61803,-0.799525,-1.64332,-1.0429,2.15134,1.31824,-0.68292,1.61803,-0.799525,-1.64332,-1.0429,2.15134,1.31824,-0.68292,1.66643,-0.872261,-1.69319,-1.04277,2.09138,1.27326,-0.744098,-0.896435,1.32813,0.946133,0.113769,1.02504,0.765667,1.01515,-0.896435,1.32813,0.946133,0.113769,1.02504,0.765667,1.01515,0.405713,-0.433929,0.862297,0.552829,0.0127767,0.0754975,0.829769,-0.698587,0.383474,0.940771,2.28504,-0.495463,0.897429,-3.53913,-0.0455678,2.93878,-3.58571,-0.0460893,2.94992,-0.483992,0.727359,0.498729,-0.00123325,0.599592,0.449806,0.611787,1
1.60442,-0.786724,-1.63429,-1.04111,2.16219,1.3196,-0.674441,1.60442,-0.786724,-1.63429,-1.04111,2.16219,1.3196,-0.674441,1.65823,-0.859884,-1.68443,-1.0424,2.10086,1.28048,-0.73376,-0.848218,1.30333,0.918525,-0.0251456,0.99185,0.768806,1.17186,-0.848218,1.30333,0.918525,-0.0251456,0.99185,0.768806,1.17186,0.398681,-0.429744,0.87085,0.548979,0.00393142,0.0730749,0.832626,-0.632747,0.444777,0.870639,2.24893,-0.496213,0.924589,-3.61087,-0.0750154,2.71604,-3.58669,-0.0451859,2.84558,-0.538118,0.731605,0.501391,0.012818,0.613338,0.391201,0.593187,1
1.59881,-0.774358,-1.62468,-1.05243,2.17148,1.32461,-0.660617,1.59881,-0.774358,-1.62468,-1.05243,2.17148,1.32461,-0.660617,1.6502,-0.847717,-1.67602,-1.04255,2.11065,1.28791,-0.723223,-0.856856,1.28336,0.870784,-0.00913356,1.08342,0.807639,1.07329,-0.856856,1.28336,0.870784,-0.00913356,1.08342,0.807639,1.07329,0.391931,-0.425394,0.878919,0.544706,-0.00465967,0.0707548,0.835624,-0.638226,0.426391,0.838837,2.21306,-0.49713,0.951982,-3.58663,-0.0917375,2.73928,-3.58808,-0.0517615,2.74582,-0.513968,0.73359,0.513409,-0.0987539,0.60822,0.366979,0.626059,1
1.58671,-0.762025,-1.61807,-1.05878,2.18414,1.32224,-0.648982,1.58671,-0.762025,-1.61807,-1.05878,2.18414,1.32224,-0.648982,1.64149,-0.835553,-1.66773,-1.04242,2.12093,1.29478,-0.713312,-0.987149,1.30033,0.890464,0.0347533,1.09891,0.660998,1.03513,-0.987149,1.30033,0.890464,0.0347533,1.09891,0.660998,1.03513,0.384945,-0.421352,0.886879,0.54094,-0.0129597,0.0684005,0.838175,-0.684306,0.386764,0.847747,2.17691,-0.497773,0.97803,-3.61543,-0.064218,2.60476,-3.5895,-0.0600266,2.64577,-0.547776,0.735278,0.496596,-0.163649,0.632069,0.274584,0.643298,1
1.57776,-0.749231,-1.6086,-1.05841,2.19311,1.32117,-0.640531,1.57776,-0.749231,-1.6086,-1.05841,2.19311,1.32117,-0.640531,1.63263,-0.823299,-1.6592,-1.04346,2.13115,1.30086,-0.703089,-0.900679,1.30331,0.919303,-0.238825,1.07396,0.632482,1.13105,-0.900679,1.30331,0.919303,-0.238825,1.07396,0.632482,1.13105,0.378404,-0.416838,0.894487,0.536554,-0.0206198,0.0664694,0.840991,-0.566823,0.515754,0.772367,2.14072,-0.498411,1.00263,-3.61869,-0.0638217,2.45991,-3.59357,-0.0668751,2.54263,-0.548684,0.740676,0.505987,-0.149497,0.61966,0.203119,0.625579,1
1.56552,-0.736083,-1.60207,-1.06207,2.20513,1.30853,-0.628096,1.56552,-0.736083,-1.60207,-1.06207,2.20513,1.30853,-0.628096,1.62372,-0.811024,-1.65079,-1.04619,2.14156,1.30584,-0.692327,-0.985746,1.30486,0.871373,-0.335371,1.13392,0.436857,1.1543,-0.985746,1.30486,0.871373,-0.335371,1.13392,0.436857,1.1543,0.37259,-0.41188,0.901503,0.531329,-0.027167,0.0649931,0.844232,-0.543995,0.496305,0.723057,2.10495,-0.498684,1.02639,-3.57723,-0.027284,2.37581,-3.59676,-0.0660164,2.43885,-0.582078,0.749407,0.48721,-0.158752,0.635714,0.0269081,0.642314,1
1.55801,-0.723469,-1.59344,-1.06333,2.21597,1.30303,-0.617394,1.55801,-0.723469,-1.59344,-1.06333,2.21597,1.30303,-0.617394,1.61448,-0.798682,-1.64244,-1.04893,2.15203,1.30934,-0.681746,-0.97803,1.3169,0.901056,-0.252387,1.09409,0.315134,1.09757,-0.97803,1.3169,0.901056,-0.252387,1.09409,0.315134,1.09757,0.366976,-0.406986,0.90839,0.526269,-0.0329199,0.0637868,0.847283,-0.538469,0.505887,0.741681,2.06934,-0.499505,1.0494,-3.56045,-0.0820875,2.3016,-3.59779,-0.0655234,2.3363,-0.564751,0.752131,0.489976,-0.143927,0.639416,-0.0630971,0.643519,1
1.54612,-0.709411,-1.58805,-1.0601,2.22861,1.28729,-0.607432,1.54612,-0.709411,-1.58805,-1.0601,2.22861,1.28729,-0.607432,1.60492,-0.786199,-1.63418,-1.05146,2.16253,1.31047,-0.671168,-1.0494,1.33459,0.855333,-0.282483,1.13441,-0.0517714,1.14704,-1.0494,1.33459,0.855333,-0.282483,1.13441,-0.0517714,1.14704,0.361657,-0.402221,0.915242,0.521422,-0.037499,0.0629188,0.85015,-0.504533,0.478132,0.71893,2.03312,-0.500022,1.07127,-3.62203,-0.0517905,2.1863,-3.59574,-0.0610266,2.2401,-0.588038,0.767874,0.461328,-0.0864462,0.660839,-0.231856,0.637359,1
1.53961,-0.696002,-1.57902,-1.06466,2.24017,1.27793,-0.59688,1.53961,-0.696002,-1.57902,-1.06466,2.24017,1.27793,-0.59688,1.59532,-0.773631,-1.62607,-1.05395,2.17323,1.30939,-0.660383,-0.993688,1.33583,0.868869,-0.249591,1.13832,-0.169514,1.14481,-0.993688,1.33583,0.868869,-0.249591,1.13832,-0.169514,1.14481,0.356778,-0.397491,0.921992,0.516512,-0.0408911,0.0622917,0.853032,-0.466345,0.503722,0.717974,1.99735,-0.500973,1.09203,-3.57742,-0.0950098,2.07618,-3.59315,-0.061142,2.13351,-0.557167,0.77629,0.470503,-0.107068,0.669423,-0.314645,0.635036,1
1.53303,-0.682633,-1.57227,-1.063,2.25367,1.2591,-0.58788,1.53303,-0.682633,-1.57227,-1.063,2.25367,1.2591,-0.58788,1.58567,-0.760883,-1.61822,-1.05565,2.18417,1.30614,-0.649704,-1.05334,1.37072,0.803287,-0.118655,1.18362,-0.502025,1.12569,-1.05334,1.37072,0.803287,-0.118655,1.18362,-0.502025,1.12569,0.352118,-0.39296,0.928849,0.511961,-0.0433216,0.0618058,0.855686,-0.472029,0.448934,0.739844,1.96128,-0.501744,1.11156,-3.60723,-0.0771105,1.95345,-3.59093,-0.0656264,2.02955,-0.526385,0.782498,0.459483,-0.0735503,0.695019,-0.470386,0.618235,1
1.53461,-0.670264,-1.56711,-1.0705,2.26687,1.25322,-0.578665,1.53461,-0.670264,-1.56711,-1.0705,2.26687,1.25322,-0.578665,1.57616,-0.747922,-1.61048,-1.05717,2.19536,1.30087,-0.639113,-0.97337,1.38265,0.837956,-0.199493,1.19337,-0.610827,1.1247,-0.97337,1.38265,0.837956,-0.199493,1.19337,-0.610827,1.1247,0.347893,-0.388342,0.935708,0.507432,-0.0447519,0.0615063,0.858328,-0.396617,0.520306,0.719318,1.92557,-0.502023,1.13047,-3.57015,-0.0279069,1.89075,-3.58847,-0.0657984,1.93035,-0.415532,0.776577,0.43376,-0.133337,0.715106,-0.476453,0.604484,1
1.53711,-0.660019,-1.56797,-1.05612,2.2812,1.25238,-0.570851,1.53711,-0.660019,-1.56797,-1.05612,2.2812,1.25238,-0.570851,1.5673,-0.734866,-1.60273,-1.05863,2.20685,1.29358,-0.628714,-0.912534,1.39098,0.811186,-0.116418,1.24667,-0.918292,1.08741,-0.912534,1.39098,0.811186,-0.116418,1.24667,-0.918292,1.08741,0.344321,-0.383482,0.942523,0.502666,-0.0451668,0.0612753,0.861123,-0.348167,0.514429,0.727635,1.88981,-0.502757,1.14816,-3.57594,-0.0734031,1.7686,-3.5885,-0.0677739,1.82763,-0.301869,0.748479,0.347614,0.0251007,0.743456,-0.412056,0.57863,1
1.5208,-0.646507,-1.56639,-1.04587,2.2925,1.2407,-0.557141,1.5208,-0.646507,-1.56639,-1.04587,2.2925,1.2407,-0.557141,1.55991,-0.721859,-1.59538,-1.06048,2.21876,1.28526,-0.618599,-0.673731,1.37392,0.753027,-0.266906,1.28101,-0.853215,1.0634,-0.673731,1.37392,0.753027,-0.266906,1.28101,-0.853215,1.0634,0.34173,-0.378157,0.949014,0.497295,-0.044767,0.0610698,0.864271,-0.206678,0.618452,0.654129,1.85395,-0.50341,1.1648,-3.58652,-0.065273,1.66397,-3.58774,-0.0651206,1.72286,-0.391101,0.753521,0.289952,0.146054,0.737352,-0.44559,0.614577,1
1.5021,-0.630756,-1.56746,-1.0452,2.3021,1.23291,-0.545151,1.5021,-0.630756,-1.56746,-1.0452,2.3021,1.23291,-0.545151,1.5546,-0.709243,-1.58923,-1.06101,2.23109,1.27808,-0.608847,-0.465744,1.31079,0.566212,0.130098,1.3345,-0.684386,1.01181,-0.465744,1.31079,0.566212,0.130098,1.3345,-0.684386,1.01181,0.339563,-0.372814,0.955303,0.49177,-0.0448602,0.0604701,0.867463,-0.236661,0.532623,0.679567,1.81849,-0.504103,1.18035,-3.54574,-0.0693142,1.55596,-3.5791,-0.06474,1.61927,-0.525019,0.784864,0.217699,0.158032,0.710139,-0.451695,0.636957,1
1.48767,-0.619218,-1.56302,-1.04316,2.31521,1.22595,-0.535965,1.48767,-0.619218,-1.56302,-1.04316,2.31521,1.22595,-0.535965,1.54882,-0.696767,-1.58434,-1.05872,2.2435,1.27102,-0.598831,-0.746203,1.33837,0.47806,0.342128,1.30476,-0.80728,1.11018,-0.746203,1.33837,0.47806,0.342128,1.30476,-0.80728,1.11018,0.336544,-0.368543,0.961893,0.487483,-0.0454168,0.0596136,0.86991,-0.372051,0.394674,0.717071,1.78303,-0.504681,1.19535,-3.5465,-0.0578523,1.49941,-3.57197,-0.061538,1.52098,-0.611453,0.775486,0.21322,0.155651,0.717117,-0.450671,0.628662,1
1.47622,-0.606852,-1.56445,-1.05162,2.32695,1.22139,-0.525648,1.47622,-0.606852,-1.56445,-1.05162,2.32695,1.22139,-0.525648,1.54042,-0.683798,-1.5805,-1.0558,2.25547,1.2634,-0.588201,-1.02044,1.41247,0.347137,0.282208,1.24184,-0.811949,1.14636,-1.02044,1.41247,0.347137,0.282208,1.24184,-0.811949,1.14636,0.332688,-0.365094,0.968504,0.484562,-0.0455964,0.0594028,0.871546,-0.432594,0.345113,0.688603,1.74744,-0.505338,1.20933,-3.5589,-0.0656903,1.39774,-3.56403,-0.0623073,1.4259,-0.642011,0.769468,0.160433,0.0418257,0.714847,-0.420095,0.625522,1
1.46612,-0.595183,-1.56488,-1.04222,2.3397,1.21743,-0.516409,1.46612,-0.595183,-1.56488,-1.04222,2.3397,1.21743,-0.516409,1.53025,-0.67071,-1.57709,-1.05322,2.26732,1.25584,-0.577599,-1.13382,1.37118,0.374709,0.267881,1.27524,-0.795765,1.10866,-1.13382,1.37118,0.374709,0.267881,1.27524,-0.795765,1.10866,0.328439,-0.36204,0.974877,0.482401,-0.0455191,0.0595005,0.872741,-0.466036,0.306962,0.666396,1.71173,-0.505835,1.22206,-3.57033,-0.0497401,1.27301,-3.56141,-0.0638298,1.32734,-0.641268,0.755269,0.122145,0.109957,0.723809,-0.384031,0.611902,1
1.45399,-0.581866,-1.56877,-1.05267,2.35131,1.21225,-0.504846,1.45399,-0.581866,-1.56877,-1.05267,2.35131,1.21225,-0.504846,1.51949,-0.657867,-1.57415,-1.05198,2.27929,1.24869,-0.567177,-1.15212,1.35848,0.258137,0.00977251,1.26904,-0.727012,1.10587,-1.15212,1.35848,0.258137,0.00977251,1.26904,-0.727012,1.10587,0.324498,-0.359038,0.980605,0.480238,-0.0449549,0.0597513,0.873945,-0.383487,0.330659,0.556529,1.6766,-0.506461,1.23388,-3.51379,-0.0625551,1.18186,-3.55406,-0.0614285,1.2309,-0.654996,0.760008,0.0537781,-0.00684115,0.720153,-0.364361,0.623315,1
1.44343,-0.570178,-1.57896,-1.05294,2.36323,1.22409,-0.495784,1.44343,-0.570178,-1.57896,-1.05294,2.36323,1.22409,-0.495784,1.50873,-0.645211,-1.57205,-1.0508,2.29133,1.24219,-0.556905,-1.13457,1.33221,0.191084,0.228461,1.288,-0.659146,1.07839,-1.13457,1.33221,0.191084,0.228461,1.288,-0.659146,1.07839,0.320672,-0.356218,0.985982,0.478322,-0.0443676,0.0600277,0.875007,-0.435036,0.274564,0.58375,1.64112,-0.507003,1.24484,-3.54754,-0.0541925,1.09667,-3.54845,-0.0594697,1.13531,-0.652987,0.750331,-0.0690826,-0.0213697,0.718944,-0.180973,0.61121,1
1.43561,-0.560666,-1.60694,-1.05021,2.37108,1.2685,-0.48854,1.43561,-0.560666,-1.60694,-1.05021,2.37108,1.2685,-0.48854,1.49931,-0.634145,-1.57047,-1.0489,2.30203,1.23671,-0.547947,-0.883601,1.03752,0.148816,0.177926,1.0031,-0.513343,0.839853,-0.883601,1.03752,0.148816,0.177926,1.0031,-0.513343,0.839853,0.317108,-0.353891,0.990801,0.476917,-0.0441539,0.0601087,0.875778,-0.331281,0.22315,0.448852,1.60548,-0.507469,1.25457,-3.5646,-0.0466108,0.973105,-3.54893,-0.0566632,1.03639,-0.636926,0.734786,-0.364712,-0.0130341,0.69046,0.317929,0.594078,1
1.42318,-0.547953,-1.60648,-1.05466,2.37708,1.28265,-0.483166,1.42318,-0.547953,-1.60648,-1.05466,2.37708,1.28265,-0.483166,1.48804,-0.621207,-1.57129,-1.04977,2.31433,1.23269,-0.537349,-1.18791,1.35887,-0.204331,-0.0844122,1.30203,-0.229084,1.10682,-1.18791,1.35887,-0.204331,-0.0844122,1.30203,-0.229084,1.10682,0.313905,-0.351155,0.994931,0.475269,-0.043197,0.0611134,0.876652,-0.35978,0.260967,0.406345,1.56979,-0.508198,1.26366,-3.5688,-0.0728667,0.909197,-3.55092,-0.0570672,0.936521,-0.648644,0.732543,-0.351915,-0.0489083,0.627474,0.49957,0.541822,1
1.40325,-0.533953,-1.6237,-1.05881,2.36784,1.27188,-0.466372,1.40325,-0.533953,-1.6237,-1.05881,2.36784,1.27188,-0.466372,1.47725,-0.608802,-1.57627,-1.05015,2.32607,1.23601,-0.527303,-1.10888,1.28181,-0.816561,-0.00155678,1.19851,0.865343,1.03224,-1.10888,1.28181,-0.816561,-0.00155678,1.19851,0.865343,1.03224,0.310086,-0.349201,0.998019,0.475025,-0.044769,0.0624685,0.87661,-0.434622,0.127221,0.26524,1.53392,-0.508847,1.27161,-3.58713,-0.0648975,0.794387,-3.55565,-0.0580656,0.838432,-0.740009,0.748492,-0.474248,-0.0866199,0.417676,0.358702,0.609314,1
1.3976,-0.521746,-1.62343,-1.07795,2.37903,1.28336,-0.45651,1.3976,-0.521746,-1.62343,-1.07795,2.37903,1.28336,-0.45651,1.46658,-0.596661,-1.583,-1.05068,2.33673,1.24486,-0.518097,-1.15585,1.29704,-0.625192,-0.105837,1.07445,1.00633,0.930181,-1.15585,1.29704,-0.625192,-0.105837,1.07445,1.00633,0.930181,0.305797,-0.347229,1.00049,0.475613,-0.0485334,0.0643958,0.875951,-0.432504,0.221713,0.270082,1.49814,-0.50963,1.27834,-3.57791,-0.0783384,0.673461,-3.56246,-0.061965,0.739821,-0.689838,0.749144,-0.404265,-0.27263,0.422937,0.385019,0.615879,1
1.38971,-0.512319,-1.61926,-1.08108,2.40306,1.30286,-0.448474,1.38971,-0.512319,-1.61926,-1.08108,2.40306,1.30286,-0.448474,1.45464,-0.584242,-1.59022,-1.05205,2.34457,1.25195,-0.508397,-1.36837,1.33914,-0.891522,-0.179986,0.619596,0.530618,1.1191,-1.36837,1.33914,-0.891522,-0.179986,0.619596,0.530618,1.1191,0.301945,-0.345157,1.00265,0.476959,-0.0510012,0.0680589,0.874801,-0.383918,0.14177,0.205528,1.46259,-0.510208,1.28395,-3.5543,-0.0577509,0.560796,-3.56977,-0.0638264,0.636669,-0.649259,0.719223,-0.290411,-0.290263,0.584928,0.509065,0.599238,1
1.38115,-0.503082,-1.62676,-1.07731,2.40981,1.31453,-0.440004,1.38115,-0.503082,-1.62676,-1.07731,2.40981,1.31453,-0.440004,1.44261,-0.571683,-1.59759,-1.05579,2.35103,1.25771,-0.497943,-1.19859,1.32978,-0.687992,-0.589895,0.745439,0.683071,1.10332,-1.19859,1.32978,-0.687992,-0.589895,0.745439,0.683071,1.10332,0.299273,-0.34262,1.00408,0.477694,-0.0518229,0.0728157,0.873968,-0.223594,0.301602,0.116247,1.42728,-0.510781,1.28884,-3.5314,-0.0573277,0.488424,-3.56763,-0.0651551,0.53363,-0.614615,0.686013,-0.291636,-0.215117,0.587803,0.568241,0.57938,1
1.37552,-0.496085,-1.65633,-1.08305,2.40643,1.32929,-0.433723,1.37552,-0.496085,-1.65633,-1.08305,2.40643,1.32929,-0.433723,1.43265,-0.560637,-1.60331,-1.06069,2.35722,1.26338,-0.488778,-0.933505,1.03568,-0.535834,-0.459432,0.580576,0.532002,0.859309,-0.933505,1.03568,-0.535834,-0.459432,0.580576,0.532002,0.859309,0.297566,-0.339796,1.00495,0.477308,-0.0524006,0.0768558,0.873799,-0.168968,0.232635,0.0850091,1.39173,-0.51179,1.29294,-3.55536,-0.100935,0.410235,-3.5628,-0.0696093,0.434924,-0.571301,0.645527,-0.530231,-0.223559,0.492016,0.659086,0.550547,1
1.36436,-0.480048,-1.65813,-1.10303,2.40957,1.32937,-0.430083,1.36436,-0.480048,-1.65813,-1.10303,2.40957,1.32937,-0.430083,1.42215,-0.548864,-1.60772,-1.06476,2.36816,1.27349,-0.478867,-1.09186,1.21919,-0.507021,-0.334107,1.1093,1.09308,1.03493,-1.09186,1.21919,-0.507021,-0.334107,1.1093,1.09308,1.03493,0.294415,-0.336677,1.0065,0.475735,-0.0558463,0.0788516,0.874265,-0.332958,0.271126,0.177972,1.35605,-0.512497,1.29579,-3.56801,-0.0706971,0.284863,-3.55878,-0.0712007,0.333985,-0.577877,0.688156,-0.504154,-0.382713,0.414146,0.558835,0.48784,1
1.34672,-0.470934,-1.67095,-1.11965,2.43116,1.32559,-0.416794,1.34672,-0.470934,-1.67095,-1.11965,2.43116,1.32559,-0.416794,1.41242,-0.537915,-1.6154,-1.06821,2.37697,1.2843,-0.469533,-0.982533,1.11395,-1.0899,-0.395202,0.784342,1.19814,0.953628,-0.982533,1.11395,-1.0899,-0.395202,0.784342,1.19814,0.953628,0.291544,-0.334582,1.00728,0.47569,-0.0588426,0.0817653,0.873826,-0.260924,0.110005,0.0134325,1.32011,-0.513185,1.29752,-3.59381,-0.0687897,0.17364,-3.55883,-0.0726146,0.234341,-0.656971,0.669811,-0.555429,-0.514399,0.541907,0.41295,0.527384,1
1.34107,-0.456038,-1.68235,-1.12611,2.43702,1.34175,-0.41098,1.34107,-0.456038,-1.68235,-1.12611,2.43702,1.34175,-0.41098,1.40295,-0.526778,-1.62467,-1.07384,2.38386,1.29426,-0.461184,-1.02752,1.24442,-0.891162,-0.777359,0.684763,0.934956,0.828222,-1.02752,1.24442,-0.891162,-0.777359,0.684763,0.934956,0.828222,0.289906,-0.332364,1.00711,0.476285,-0.0601584,0.0860486,0.873,-0.113762,0.26909,-0.0310337,1.28485,-0.513718,1.29834,-3.52594,-0.0533223,0.081718,-3.55739,-0.0711999,0.136017,-0.618763,0.707398,-0.576872,-0.522705,0.53165,0.474875,0.502038,1
1.33374,-0.444456,-1.69371,-1.12269,2.44383,1.35317,-0.409263,1.33374,-0.444456,-1.69371,-1.12269,2.44383,1.35317,-0.409263,1.39234,-0.51537,-1.63358,-1.08225,2.39208,1.30158,-0.452743,-1.21479,1.18336,-0.99518,-0.995968,1.04074,0.63943,0.957327,-1.21479,1.18336,-0.99518,-0.995968,1.04074,0.63943,0.957327,0.289126,-0.330394,1.00629,0.476516,-0.0590953,0.0900185,0.872546,-0.106738,0.103837,-0.127244,1.24946,-0.514355,1.29829,-3.53932,-0.0636935,-0.00513792,-3.55677,-0.070402,0.0378796,-0.585931,0.709139,-0.601335,-0.404402,0.517444,0.515868,0.434799,1
1.31884,-0.433061,-1.70566,-1.1322,2.45116,1.35857,-0.397075,1.31884,-0.433061,-1.70566,-1.1322,2.45116,1.35857,-0.397075,1.38158,-0.503791,-1.64318,-1.09128,2.40142,1.30879,-0.444108,-1.07891,1.27167,-1.04317,-0.927505,0.948221,0.87762,0.882207,-1.07891,1.27167,-1.04317,-0.927505,0.948221,0.87762,0.882207,0.288468,-0.328779,1.00518,0.47676,-0.0574848,0.0936082,0.872143,-0.0926811,0.189806,-0.101745,1.21419,-0.51508,1.29694,-3.52646,-0.072515,-0.134432,-3.55359,-0.0687493,-0.0657806,-0.627469,0.7073,-0.624786,-0.409143,0.497396,0.497747,0.47033,1
1.30363,-0.423647,-1.71933,-1.15122,2.45473,1.36294,-0.393705,1.30363,-0.423647,-1.71933,-1.15122,2.45473,1.36294,-0.393705,1.37176,-0.491867,-1.65318,-1.09858,2.41009,1.31742,-0.436578,-1.01238,1.26256,-1.07926,-0.641951,0.898388,0.951914,0.727416,-1.01238,1.26256,-1.07926,-0.641951,0.898388,0.951914,0.727416,0.287435,-0.326819,1.00452,0.477697,-0.0572428,0.0974774,0.871221,-0.1633,0.168739,-0.0286607,1.17918,-0.515761,1.29458,-3.50094,-0.0680327,-0.235963,-3.54285,-0.0651721,-0.17135,-0.681355,0.682199,-0.661534,-0.526326,0.446407,0.455193,0.428735,1
1.29523,-0.410662,-1.72823,-1.15891,2.46687,1.37168,-0.387187,1.29523,-0.410662,-1.72823,-1.15891,2.46687,1.37168,-0.387187,1.3616,-0.480041,-1.66355,-1.10503,2.41842,1.32597,-0.429104,-1.13881,1.25109,-1.12141,-0.723357,0.871889,0.868195,0.852948,-1.13881,1.25109,-1.12141,-0.723357,0.871889,0.868195,0.852948,0.286037,-0.325234,1.00399,0.479249,-0.057117,0.101399,0.869929,-0.174683,0.109559,-0.067384,1.14403,-0.5164,1.29162,-3.51502,-0.0638902,-0.296855,-3.53056,-0.0650734,-0.270653,-0.663748,0.693783,-0.646837,-0.538748,0.484499,0.457158,0.419174,1
1.28406,-0.402633,-1.74076,-1.16735,2.47782,1.38066,-0.382881,1.28406,-0.402633,-1.74076,-1.16735,2.47782,1.38066,-0.382881,1.35035,-0.468543,-1.67447,-1.11328,2.42608,1.33369,-0.421623,-1.24438,1.19559,-1.19471,-1.01035,0.763091,0.779002,0.743476,-1.24438,1.19559,-1.19471,-1.01035,0.763091,0.779002,0.743476,0.284985,-0.324299,1.00268,0.48124,-0.0555332,0.105597,0.868432,-0.121873,0.0388948,-0.190765,1.10859,-0.516754,1.28776,-3.54447,-0.0354171,-0.385594,-3.52312,-0.0624082,-0.365855,-0.662929,0.659101,-0.662861,-0.540788,0.517432,0.469689,0.387428,1
1.27299,-0.391146,-1.75236,-1.17823,2.48438,1.38819,-0.378243,1.27299,-0.391146,-1.75236,-1.17823,2.48438,1.38819,-0.378243,1.33903,-0.457086,-1.68544,-1.12257,2.43384,1.34119,-0.414682,-1.16654,1.23628,-1.13959,-0.967621,0.879428,0.812033,0.732206,-1.16654,1.23628,-1.13959,-0.967621,0.879428,0.812033,0.732206,0.284222,-0.32351,1.00099,0.483342,-0.053348,0.109689,0.866892,-0.118143,0.0802542,-0.160094,1.0735,-0.517229,1.28258,-3.50834,-0.0475645,-0.518131,-3.52119,-0.0594637,-0.463101,-0.660407,0.659404,-0.669144,-0.556593,0.505388,0.470059,0.364388,1
1.26085,-0.382726,-1.76444,-1.18933,2.49133,1.39481,-0.373861,1.26085,-0.382726,-1.76444,-1.18933,2.49133,1.39481,-0.373861,1.32803,-0.445874,-1.69638,-1.1316,2.44243,1.34899,-0.408094,-1.17089,1.15153,-1.18184,-0.952111,0.942368,0.843426,0.671442,-1.17089,1.15153,-1.18184,-0.952111,0.942368,0.843426,0.671442,0.283267,-0.322977,0.9993,0.485488,-0.0514096,0.113158,0.865363,-0.151951,0.000162084,-0.186208,1.03816,-0.517945,1.27664,-3.53425,-0.0715077,-0.593984,-3.52091,-0.0573541,-0.558943,-0.671825,0.631472,-0.680656,-0.577256,0.488925,0.458267,0.342328,1
1.24904,-0.373079,-1.77592,-1.20039,2.49947,1.40104,-0.371292,1.24904,-0.373079,-1.77592,-1.20039,2.49947,1.40104,-0.371292,1.317,-0.434959,-1.70756,-1.14079,2.45103,1.35688,-0.401972,-1.17207,1.16677,-1.19298,-0.997117,0.888076,0.833925,0.631907,-1.17207,1.16677,-1.19298,-0.997117,0.888076,0.833925,0.631907,0.282225,-0.322808,0.997415,0.487981,-0.0493337,0.116411,0.863649,-0.140617,0.00274448,-0.203421,1.00299,-0.518459,1.26945,-3.51748,-0.0514328,-0.719035,-3.52209,-0.0547592,-0.655056,-0.679577,0.618804,-0.683605,-0.595993,0.484353,0.441625,0.306796,1
1.23729,-0.365171,-1.78789,-1.2112,2.50712,1.40796,-0.369784,1.23729,-0.365171,-1.78789,-1.2112,2.50712,1.40796,-0.369784,1.30584,-0.424278,-1.71889,-1.15037,2.45922,1.36458,-0.396208,-1.19813,1.10649,-1.21313,-1.03728,0.854829,0.805019,0.595082,-1.19813,1.10649,-1.21313,-1.03728,0.854829,0.805019,0.595082,0.281208,-0.322928,0.995279,0.490789,-0.046889,0.119662,0.861747,-0.15225,-0.0535789,-0.238446,0.967662,-0.519407,1.26149,-3.53238,-0.0948608,-0.795519,-3.52527,-0.0580336,-0.752606,-0.685533,0.59107,-0.690064,-0.608219,0.478906,0.433807,0.264243,1
1.22619,-0.358338,-1.79975,-1.22257,2.51433,1.41658,-0.369986,1.22619,-0.358338,-1.79975,-1.22257,2.51433,1.41658,-0.369986,1.2945,-0.413953,-1.73031,-1.16029,2.46728,1.372,-0.390963,-1.21045,1.08846,-1.21443,-1.06775,0.857057,0.773282,0.523817,-1.21045,1.08846,-1.21443,-1.06775,0.857057,0.773282,0.523817,0.280134,-0.323459,0.992908,0.493981,-0.044077,0.122696,0.859643,-0.158233,-0.078897,-0.255524,0.932597,-0.520238,1.25279,-3.5065,-0.0830472,-0.87018,-3.52382,-0.0644697,-0.850489,-0.683123,0.55615,-0.694333,-0.622785,0.470526,0.445752,0.209775,1
1.21539,-0.354208,-1.81167,-1.23352,2.51979,1.42541,-0.372434,1.21539,-0.354208,-1.81167,-1.23352,2.51979,1.42541,-0.372434,1.28306,-0.403983,-1.74181,-1.17043,2.4753,1.37924,-0.386435,-1.21901,1.03352,-1.22723,-1.08557,0.84721,0.764923,0.443398,-1.21901,1.03352,-1.22723,-1.08557,0.84721,0.764923,0.443398,0.278955,-0.32437,0.990347,0.497604,-0.0410306,0.125455,0.857303,-0.176443,-0.125596,-0.279331,0.897312,-0.520661,1.24295,-3.52849,-0.0423491,-0.984466,-3.52191,-0.068582,-0.946996,-0.676715,0.497745,-0.698576,-0.630943,0.444896,0.461709,0.140005,1
1.20558,-0.355711,-1.82398,-1.24345,2.52384,1.43416,-0.38605,1.20558,-0.355711,-1.82398,-1.24345,2.52384,1.43416,-0.38605,1.27163,-0.394595,-1.75339,-1.18078,2.48319,1.38661,-0.382775,-1.21018,0.965476,-1.2343,-1.1127,0.829463,0.798134,0.340576,-1.21018,0.965476,-1.2343,-1.1127,0.829463,0.798134,0.340576,0.277609,-0.325733,0.987538,0.501683,-0.0378949,0.127887,0.854707,-0.193603,-0.168193,-0.308894,0.861891,-0.521483,1.23196,-3.54211,-0.0821471,-1.09837,-3.52472,-0.0713327,-1.04246,-0.660576,0.388838,-0.705802,-0.62669,0.406517,0.475521,-0.0327487,1
1.19595,-0.353942,-1.83562,-1.2485,2.52613,1.44072,-0.389646,1.19595,-0.353942,-1.83562,-1.2485,2.52613,1.44072,-0.389646,1.26031,-0.38609,-1.76505,-1.19131,2.49072,1.39427,-0.380234,-1.19619,0.848971,-1.24138,-1.12402,0.77418,0.829154,0.207699,-1.19619,0.848971,-1.24138,-1.12402,0.77418,0.829154,0.207699,0.276043,-0.32764,0.984422,0.506289,-0.0347622,0.129959,0.851806,-0.220821,-0.232794,-0.34508,0.826833,-0.521874,1.22003,-3.50579,-0.0390828,-1.19327,-3.5233,-0.0681771,-1.14051,-0.643645,0.321472,-0.705744,-0.571852,0.354152,0.464501,-0.0941215,1
1.1836,-0.354454,-1.84744,-1.25282,2.52832,1.44609,-0.392775,1.1836,-0.354454,-1.84744,-1.25282,2.52832,1.44609,-0.392775,1.24922,-0.379214,-1.77681,-1.20182,2.49762,1.40219,-0.380109,-1.16227,0.625865,-1.25605,-1.10871,0.698057,0.851306,-0.158219,-1.16227,0.625865,-1.25605,-1.10871,0.698057,0.851306,-0.158219,0.274101,-0.330479,0.980892,0.512012,-0.0316891,0.131422,0.848274,-0.268826,-0.351464,-0.398202,0.791942,-0.52267,1.20698,-3.48908,-0.0796616,-1.30496,-3.51962,-0.0671855,-1.23985,-0.656255,0.247596,-0.706309,-0.510032,0.306934,0.439011,-0.126667,1
1.17276,-0.352859,-1.85956,-1.26273,2.53061,1.45409,-0.397697,1.17276,-0.352859,-1.85956,-1.26273,2.53061,1.45409,-0.397697,1.23844,-0.373807,-1.78861,-1.21162,2.50369,1.41003,-0.381845,-1.13144,0.528984,-1.25194,-0.982057,0.597569,0.817295,-0.207726,-1.13144,0.528984,-1.25194,-0.982057,0.597569,0.817295,-0.207726,0.271697,-0.334077,0.977232,0.518698,-0.0288122,0.132454,0.844143,-0.314001,-0.392338,-0.378893,0.756685,-0.523335,1.19326,-3.52572,-0.066483,-1.37188,-3.51686,-0.0637868,-1.34011,-0.656736,0.209488,-0.709547,-0.511102,0.269172,0.440567,-0.158517,1
1.16287,-0.35237,-1.87222,-1.27498,2.53247,1.46563,-0.400804,1.16287,-0.35237,-1.87222,-1.27498,2.53247,1.46563,-0.400804,1.22759,-0.369473,-1.8004,-1.22029,2.50891,1.41745,-0.383939,-1.17141,0.399941,-1.25266,-0.866381,0.516732,0.762616,-0.235314,-1.17141,0.399941,-1.25266,-0.866381,0.516732,0.762616,-0.235314,0.268714,-0.338268,0.973702,0.525911,-0.0260887,0.133273,0.839628,-0.387217,-0.47152,-0.370311,0.721471,-0.523879,1.1785,-3.52144,-0.0543833,-1.47667,-3.51636,-0.0623503,-1.44015,-0.647126,0.171037,-0.718245,-0.546959,0.235532,0.481817,-0.168658,1
1.15159,-0.35812,-1.8845,-1.28642,2.53653,1.47244,-0.408147,1.15159,-0.35812,-1.8845,-1.28642,2.53653,1.47244,-0.408147,1.21658,-0.365964,-1.81223,-1.22865,2.51347,1.42473,-0.386472,-1.16689,0.348979,-1.26053,-0.907616,0.456291,0.781896,-0.298924,-1.16689,0.348979,-1.26053,-0.907616,0.456291,0.781896,-0.298924,0.265338,-0.342928,0.970065,0.53352,-0.0233146,0.133937,0.834789,-0.401355,-0.491491,-0.399899,0.686493,-0.524474,1.16261,-3.49777,-0.0594795,-1.58881,-3.51231,-0.0631818,-1.5383,-0.649896,0.0784421,-0.722711,-0.577688,0.230543,0.477117,-0.216751,1
1.1394,-0.381311,-1.89634,-1.297,2.54368,1.4744,-0.420918,1.1394,-0.381311,-1.89634,-1.297,2.54368,1.4744,-0.420918,1.20573,-0.363007,-1.82419,-1.23763,2.51748,1.43258,-0.38932,-1.14117,0.283273,-1.27916,-0.994754,0.398984,0.880237,-0.305825,-1.14117,0.283273,-1.27916,-0.994754,0.398984,0.880237,-0.305825,0.261859,-0.347782,0.966036,0.541128,-0.0204608,0.134573,0.82985,-0.410252,-0.510532,-0.452128,0.651472,-0.525003,1.14597,-3.50212,-0.0528872,-1.66354,-3.50861,-0.0606009,-1.63324,-0.663306,-0.183032,-0.72157,-0.593699,0.261963,0.418194,-0.315979,1
1.13187,-0.391136,-1.90834,-1.30723,2.53427,1.48562,-0.431161,1.13187,-0.391136,-1.90834,-1.30723,2.53427,1.48562,-0.431161,1.19492,-0.36133,-1.83625,-1.24723,2.52127,1.44069,-0.392723,-1.15383,0.0854918,-1.28471,-1.04342,0.406207,0.845443,-0.410721,-1.15383,0.0854918,-1.28471,-1.04342,0.406207,0.845443,-0.410721,0.258069,-0.353339,0.961459,0.54889,-0.0173318,0.13463,0.824799,-0.463558,-0.621338,-0.518507,0.616168,-0.525826,1.12808,-3.53037,-0.0823736,-1.78883,-3.51117,-0.0630758,-1.7304,-0.630534,-0.298064,-0.720839,-0.600025,0.129929,0.449336,-0.384377,1
1.12638,-0.403913,-1.92138,-1.31994,2.51074,1.50758,-0.443893,1.12638,-0.403913,-1.92138,-1.31994,2.51074,1.50758,-0.443893,1.18391,-0.363345,-1.84832,-1.25714,2.52549,1.44794,-0.397635,-1.18522,-0.478412,-1.27888,-1.06124,0.48439,0.704468,-0.61999,-1.18522,-0.478412,-1.27888,-1.06124,0.48439,0.704468,-0.61999,0.253277,-0.36117,0.955921,0.557444,-0.0134093,0.13252,0.81946,-0.609315,-0.93671,-0.663478,0.580847,-0.526766,1.10927,-3.53206,-0.0939608,-1.88119,-3.51542,-0.0656899,-1.8286,-0.575231,-0.40568,-0.730593,-0.628017,-0.147477,0.596349,-0.462582,1
1.10992,-0.4206,-1.93397,-1.3328,2.495,1.50788,-0.452749,1.10992,-0.4206,-1.93397,-1.3328,2.495,1.50788,-0.452749,1.17318,-0.368473,-1.86035,-1.26716,2.52841,1.45511,-0.403989,-1.09995,-0.603493,-1.27787,-1.06712,0.156065,0.812445,-0.723557,-1.09995,-0.603493,-1.27787,-1.06712,0.156065,0.812445,-0.723557,0.247815,-0.370436,0.949499,0.566535,-0.00909766,0.129428,0.813759,-0.608912,-0.927393,-0.715362,0.546044,-0.527891,1.08916,-3.48032,-0.112492,-2.01075,-3.51248,-0.0742644,-1.93309,-0.63259,-0.521266,-0.736188,-0.656396,-0.334102,0.527687,-0.487604,1
1.09027,-0.436708,-1.94574,-1.34273,2.49799,1.45859,-0.462528,1.09027,-0.436708,-1.94574,-1.34273,2.49799,1.45859,-0.462528,1.16339,-0.374988,-1.8725,-1.27752,2.52694,1.46444,-0.411495,-0.985635,-0.770286,-1.30168,-1.12981,-0.431339,1.14872,-0.862772,-0.985635,-0.770286,-1.30168,-1.12981,-0.431339,1.14872,-0.862772,0.24248,-0.379384,0.942318,0.575624,-0.00523945,0.127914,0.807631,-0.590948,-0.896727,-0.813635,0.511237,-0.528457,1.06874,-3.4807,-0.0566363,-2.04277,-3.50794,-0.0797591,-2.03166,-0.731287,-0.617206,-0.73247,-0.652132,-0.289433,-0.0584895,-0.510323,1
1.0819,-0.448414,-1.95832,-1.35642,2.51407,1.49255,-0.465919,1.0819,-0.448414,-1.95832,-1.35642,2.51407,1.49255,-0.465919,1.15327,-0.383347,-1.88479,-1.28841,2.52151,1.47402,-0.419702,-1.15458,-0.992069,-1.30968,-1.18204,-0.705952,0.901781,-0.880049,-1.15458,-0.992069,-1.30968,-1.18204,-0.705952,0.901781,-0.880049,0.236918,-0.388846,0.934199,0.585058,-0.000656126,0.12737,0.800926,-0.673678,-1.02966,-0.910078,0.476177,-0.529297,1.0473,-3.50603,-0.0839233,-2.14348,-3.50551,-0.0837211,-2.1261,-0.713772,-0.650674,-0.735329,-0.680031,-0.0743048,0.18533,-0.462162,1
1.09493,-0.434806,-1.97207,-1.37477,2.55208,1.53768,-0.466992,1.09493,-0.434806,-1.97207,-1.37477,2.55208,1.53768,-0.466992,1.14137,-0.39348,-1.89705,-1.2994,2.51599,1.47572,-0.428161,-1.36101,-1.15119,-1.29671,-1.15397,-0.47932,-0.456049,-0.915187,-1.36101,-1.15119,-1.29671,-1.15397,-0.47932,-0.456049,-0.915187,0.230909,-0.400447,0.92553,0.595581,0.00810716,0.125107,0.793452,-0.732953,-1.26996,-0.942382,0.441403,-0.529966,1.02448,-3.47738,-0.0669241,-2.28217,-3.49928,-0.084003,-2.22348,-0.464403,-0.413262,-0.75021,-0.753732,0.360839,0.619581,-0.388311,1
1.0635,-0.476842,-1.98278,-1.38089,2.5222,1.52625,-0.490671,1.0635,-0.476842,-1.98278,-1.38089,2.5222,1.52625,-0.490671,1.12909,-0.404417,-1.9093,-1.31059,2.5139,1.47592,-0.436162,-1.25667,-1.17165,-1.30547,-1.22033,0.00460247,0.442915,-0.79244,-1.25667,-1.17165,-1.30547,-1.22033,0.00460247,0.442915,-0.79244,0.22403,-0.412865,0.916549,0.605876,0.0174999,0.120526,0.786182,-0.831881,-1.17995,-0.980177,0.406206,-0.53078,1.00086,-3.51969,-0.081414,-2.36237,-3.49515,-0.0809499,-2.31831,-0.655875,-0.724247,-0.734825,-0.702985,0.0829727,0.503335,-0.545094,1
1.05131,-0.473837,-1.99328,-1.39175,2.48331,1.49848,-0.494838,1.05131,-0.473837,-1.99328,-1.39175,2.48331,1.49848,-0.494838,1.12018,-0.412551,-1.92176,-1.32289,2.51841,1.4849,-0.44287,-0.672298,-0.592675,-1.33985,-1.38176,0.8967,1.40541,-0.642389,-0.672298,-0.592675,-1.33985,-1.38176,0.8967,1.40541,-0.642389,0.217397,-0.422447,0.908005,0.613535,0.0220685,0.114931,0.780948,-0.608133,-0.738081,-0.862299,0.371302,-0.531741,0.976253,-3.49043,-0.0961304,-2.46034,-3.49338,-0.07933,-2.41403,-0.688685,-0.612862,-0.715254,-0.68863,-0.350929,0.135771,-0.519679,1
1.05147,-0.483815,-2.00442,-1.40667,2.47992,1.54943,-0.495177,1.05147,-0.483815,-2.00442,-1.40667,2.47992,1.54943,-0.495177,1.1109,-0.422413,-1.93415,-1.33508,2.52234,1.49523,-0.450988,-1.26236,-1.44947,-1.29518,-1.21991,-0.00383287,0.826094,-1.05677,-1.26236,-1.44947,-1.29518,-1.21991,-0.00383287,0.826094,-1.05677,0.209876,-0.432467,0.898871,0.621787,0.0260958,0.108863,0.775144,-0.973876,-1.20444,-1.08991,0.336432,-0.532635,0.950626,-3.48701,-0.0893772,-2.56276,-3.49528,-0.0795837,-2.51082,-0.594346,-0.614018,-0.702748,-0.715913,-0.424232,0.54202,-0.441885,1
1.04244,-0.489272,-2.02094,-1.42016,2.50289,1.55918,-0.500299,1.04244,-0.489272,-2.02094,-1.42016,2.50289,1.55918,-0.500299,1.09898,-0.434099,-1.94614,-1.34649,2.51774,1.49883,-0.460256,-1.26955,-1.05822,-1.2555,-1.20524,-0.91686,-0.00938995,-0.92094,-1.26955,-1.05822,-1.2555,-1.20524,-0.91686,-0.00938995,-0.92094,0.20223,-0.443531,0.889084,0.631638,0.0341385,0.105249,0.767327,-0.754119,-0.994016,-1.0005,0.301954,-0.53352,0.924123,-3.44777,-0.0885189,-2.65028,-3.49086,-0.0844317,-2.61222,-0.565472,-0.551728,-0.748026,-0.736731,-0.148547,0.603446,-0.400432,1
1.02986,-0.496136,-2.03164,-1.42937,2.48866,1.55381,-0.508556,1.02986,-0.496136,-2.03164,-1.42937,2.48866,1.55381,-0.508556,1.08844,-0.442889,-1.95657,-1.3565,2.51013,1.49875,-0.467905,-0.988723,-0.824142,-0.977784,-0.938638,-0.714051,-0.0073129,-0.717229,-0.988723,-0.824142,-0.977784,-0.938638,-0.714051,-0.0073129,-0.717229,0.196457,-0.452343,0.880682,0.639963,0.0430186,0.104069,0.760109,-0.603839,-0.753135,-0.788978,0.26658,-0.534162,0.896871,-3.53742,-0.06423,-2.72522,-3.49094,-0.0841494,-2.708,-0.585741,-0.532469,-0.750755,-0.728636,-0.214623,0.550539,-0.406512,1
1.00888,-0.523442,-2.04112,-1.44103,2.47631,1.50107,-0.52968,1.00888,-0.523442,-2.04112,-1.44103,2.47631,1.50107,-0.52968,1.0792,-0.452583,-1.96909,-1.36919,2.50614,1.51111,-0.474539,-0.979005,-0.977041,-1.38072,-1.35759,-0.0867122,1.28005,-0.68598,-0.979005,-0.977041,-1.38072,-1.35759,-0.0867122,1.28005,-0.68598,0.189298,-0.460392,0.870764,0.646977,0.0472582,0.101876,0.754194,-0.816799,-0.806866,-1.04478,0.231371,-0.535741,0.869173,-3.52084,-0.157839,-2.76976,-3.49534,-0.092391,-2.79294,-0.703196,-0.70859,-0.720267,-0.718419,-0.298374,-0.100407,-0.551405,1
1.00566,-0.529431,-2.05359,-1.45511,2.48195,1.54984,-0.525854,1.00566,-0.529431,-2.05359,-1.45511,2.48195,1.54984,-0.525854,1.06959,-0.461505,-1.98182,-1.38154,2.50375,1.52111,-0.481208,-1.05791,-0.922231,-1.32681,-1.27354,-0.401791,0.870733,-0.728304,-1.05791,-0.922231,-1.32681,-1.27354,-0.401791,0.870733,-0.728304,0.181896,-0.468385,0.861131,0.654248,0.0523147,0.0989676,0.74795,-0.801334,-0.772119,-1.00655,0.196623,-0.53535,0.839103,-3.47483,0.0391304,-3.00698,-3.49451,-0.0829841,-2.88991,-0.639283,-0.679259,-0.717722,-0.735685,-0.217997,0.287281,-0.446463,1
1.00797,-0.534768,-2.068,-1.46693,2.50986,1.58441,-0.521827,1.00797,-0.534768,-2.068,-1.46693,2.50986,1.58441,-0.521827,1.05834,-0.472374,-1.99395,-1.39349,2.49896,1.52215,-0.489739,-1.31707,-1.35996,-1.25605,-1.26589,-0.603348,-0.561311,-1.06363,-1.31707,-1.35996,-1.25605,-1.26589,-0.603348,-0.561311,-1.06363,0.174268,-0.478107,0.850832,0.662759,0.0618525,0.0951706,0.74018,-0.908545,-1.07732,-1.16904,0.16271,-0.537046,0.808585,-3.39136,-0.169683,-3.05185,-3.48563,-0.0841613,-2.98929,-0.503712,-0.623937,-0.740435,-0.734363,0.109021,0.622652,-0.320875,1
0.977309,-0.560968,-2.07842,-1.47895,2.48668,1.54637,-0.55102,0.977309,-0.560968,-2.07842,-1.47895,2.48668,1.54637,-0.55102,1.04702,-0.484374,-2.00585,-1.40566,2.49461,1.52321,-0.498125,-1.10135,-1.19989,-1.27131,-1.31687,-0.337195,0.709014,-0.738443,-1.10135,-1.19989,-1.27131,-1.31687,-0.337195,0.709014,-0.738443,0.166146,-0.487973,0.839978,0.670883,0.0714868,0.0904859,0.732543,-0.895612,-0.826297,-1.13067,0.12767,-0.536882,0.777303,-3.50398,0.0164747,-3.12813,-3.48119,-0.0749269,-3.08861,-0.697092,-0.76594,-0.725674,-0.732898,-0.0793017,0.231598,-0.528957,1
0.969835,-0.564628,-2.08817,-1.49203,2.46832,1.53543,-0.557778,0.969835,-0.564628,-2.08817,-1.49203,2.46832,1.53543,-0.557778,1.03814,-0.494968,-2.0181,-1.41799,2.49509,1.53316,-0.503785,-0.803552,-1.05984,-1.32858,-1.30322,0.393348,1.36461,-0.480435,-0.803552,-1.05984,-1.32858,-1.30322,0.393348,1.36461,-0.480435,0.157864,-0.495759,0.829662,0.676995,0.0762848,0.0851077,0.72706,-0.865876,-0.685348,-1.0696,0.0930171,-0.537142,0.745186,-3.46526,-0.0260532,-3.21174,-3.47605,-0.0628931,-3.18762,-0.683058,-0.696605,-0.700661,-0.740434,-0.267734,0.0226432,-0.539932,1
0.975641,-0.574436,-2.10149,-1.50342,2.4755,1.58653,-0.552114,0.975641,-0.574436,-2.10149,-1.50342,2.4755,1.58653,-0.552114,1.02786,-0.50685,-2.03037,-1.43023,2.49564,1.54003,-0.511206,-1.34622,-1.44111,-1.27964,-1.2975,-0.238409,0.168885,-1.06021,-1.34622,-1.44111,-1.27964,-1.2975,-0.238409,0.168885,-1.06021,0.148669,-0.504395,0.818763,0.684199,0.0826344,0.0786457,0.720318,-1.08204,-0.939205,-1.23923,0.058161,-0.537952,0.711818,-3.48561,-0.0809789,-3.33683,-3.46757,-0.0560829,-3.28905,-0.522231,-0.675858,-0.711272,-0.731937,-0.201354,0.464955,-0.409078,1
0.958077,-0.585183,-2.11572,-1.51609,2.48796,1.59452,-0.556378,0.958077,-0.585183,-2.11572,-1.51609,2.48796,1.59452,-0.556378,1.0158,-0.519251,-2.04214,-1.44254,2.4915,1.54015,-0.520807,-1.22408,-1.20835,-1.22574,-1.31788,-0.617233,-0.125649,-0.984508,-1.22408,-1.20835,-1.22574,-1.31788,-0.617233,-0.125649,-0.984508,0.139655,-0.513535,0.80731,0.692338,0.0927261,0.0732806,0.711828,-0.90797,-0.786062,-1.18034,0.0232208,-0.538968,0.677695,-3.49402,-0.101632,-3.4123,-3.4681,-0.0535096,-3.38716,-0.577263,-0.659316,-0.735821,-0.73553,-0.0354278,0.543693,-0.355704,1
0.936331,-0.608116,-2.12523,-1.52675,2.48648,1.53282,-0.582803,0.936331,-0.608116,-2.12523,-1.52675,2.48648,1.53282,-0.582803,1.00632,-0.530441,-2.05389,-1.45483,2.48722,1.54511,-0.52832,-0.816882,-1.17155,-1.26767,-1.294,-0.311932,1.10293,-0.633624,-0.816882,-1.17155,-1.26767,-1.294,-0.311932,1.10293,-0.633624,0.131716,-0.520736,0.796297,0.698553,0.10033,0.069109,0.705111,-0.824979,-0.582443,-1.14499,-0.011952,-0.539607,0.642255,-3.51728,-0.0638783,-3.54396,-3.47933,-0.063166,-3.47789,-0.699864,-0.776748,-0.713457,-0.719202,-0.00733109,-0.122833,-0.54483,1
0.935302,-0.613212,-2.13544,-1.54047,2.48741,1.54493,-0.583623,0.935302,-0.613212,-2.13544,-1.54047,2.48741,1.54493,-0.583623,0.997468,-0.541435,-2.06609,-1.46706,2.48609,1.55521,-0.534084,-1.04895,-1.16495,-1.32168,-1.30561,0.0497432,1.04674,-0.59366,-1.04895,-1.16495,-1.32168,-1.30561,0.0497432,1.04674,-0.59366,0.12305,-0.527065,0.785431,0.704054,0.105188,0.0640273,0.699389,-0.999766,-0.609664,-1.15772,-0.0460257,-0.540408,0.60577,-3.40737,-0.0801325,-3.64848,-3.48302,-0.062011,-3.57868,-0.621663,-0.717763,-0.693542,-0.734102,0.0132662,-0.102822,-0.495387,1
0.952288,-0.62158,-2.15009,-1.55024,2.51204,1.60824,-0.570448,0.952288,-0.62158,-2.15009,-1.55024,2.51204,1.60824,-0.570448,0.986199,-0.553807,-2.07819,-1.47916,2.48633,1.55665,-0.54212,-1.32795,-1.44619,-1.25282,-1.26715,0.00411442,-0.634566,-1.08333,-1.32795,-1.44619,-1.25282,-1.26715,0.00411442,-0.634566,-1.08333,0.113173,-0.535175,0.773803,0.711071,0.114073,0.0564653,0.691503,-1.10221,-0.855154,-1.28934,-0.0798951,-0.541784,0.568609,-3.38694,-0.137573,-3.71615,-3.46748,-0.0817682,-3.68028,-0.339119,-0.677729,-0.719086,-0.71078,0.257171,0.515846,-0.283278,1
0.925718,-0.634553,-2.1624,-1.56414,2.4956,1.60583,-0.591495,0.925718,-0.634553,-2.1624,-1.56414,2.4956,1.60583,-0.591495,0.975048,-0.566419,-2.08979,-1.4913,2.48647,1.55281,-0.551215,-1.0584,-1.24605,-1.21566,-1.30947,0.0251059,-0.209811,-0.86297,-1.0584,-1.24605,-1.21566,-1.30947,0.0251059,-0.209811,-0.86297,0.103729,-0.543589,0.761834,0.717966,0.125351,0.0481364,0.683004,-0.935397,-0.664216,-1.22321,-0.114189,-0.543005,0.530607,-3.42941,-0.122094,-3.80017,-3.45349,-0.0953329,-3.77885,-0.493295,-0.681339,-0.726034,-0.728374,0.0912641,0.530241,-0.402792,1
0.903899,-0.65155,-2.17045,-1.57725,2.49774,1.55667,-0.61354,0.903899,-0.65155,-2.17045,-1.57725,2.49774,1.55667,-0.61354,0.968252,-0.577753,-2.10161,-1.50333,2.48957,1.5585,-0.556836,-0.425112,-1.16708,-1.29104,-1.24929,0.598372,1.32445,-0.362479,-0.425112,-1.16708,-1.29104,-1.24929,0.598372,1.32445,-0.362479,0.0956109,-0.549617,0.750657,0.722399,0.131514,0.040218,0.677662,-0.761344,-0.43378,-1.13983,-0.148233,-0.543821,0.492007,-3.40437,-0.0816405,-3.85997,-3.43552,-0.0994963,-3.86876,-0.643525,-0.737977,-0.688341,-0.739244,0.0816397,-0.0182768,-0.567046,1
0.904742,-0.658966,-2.18266,-1.58849,2.49098,1.56795,-0.609612,0.904742,-0.658966,-2.18266,-1.58849,2.49098,1.56795,-0.609612,0.961599,-0.588971,-2.11378,-1.51534,2.49261,1.56922,-0.56232,-0.955463,-1.21378,-1.29455,-1.29956,0.079511,0.974858,-0.776897,-0.955463,-1.21378,-1.29455,-1.29956,0.079511,0.974858,-0.776897,0.0870881,-0.554585,0.739569,0.72683,0.135345,0.0329751,0.672542,-0.977903,-0.458636,-1.20322,-0.182115,-0.545029,0.451698,-3.3882,-0.120729,-4.0309,-3.4169,-0.104311,-3.96303,-0.568561,-0.699948,-0.688728,-0.731521,-0.016316,-0.0126622,-0.472926,1
0.918188,-0.670486,-2.19675,-1.59708,2.50792,1.62262,-0.599905,0.918188,-0.670486,-2.19675,-1.59708,2.50792,1.62262,-0.599905,0.951098,-0.601051,-2.12548,-1.52767,2.49352,1.57154,-0.571364,-1.25686,-1.34474,-1.19737,-1.32022,0.112214,-0.395929,-1.12313,-1.25686,-1.34474,-1.19737,-1.32022,0.112214,-0.395929,-1.12313,0.0773135,-0.560743,0.727635,0.733053,0.143534,0.0251311,0.664379,-1.07214,-0.606827,-1.29526,-0.216511,-0.546048,0.411162,-3.43958,-0.101894,-4.05369,-3.40783,-0.109286,-4.05009,-0.329099,-0.694345,-0.712708,-0.694083,0.143989,0.510741,-0.28541,1
0.890954,-0.682535,-2.20881,-1.61254,2.50362,1.61778,-0.621701,0.890954,-0.682535,-2.20881,-1.61254,2.50362,1.61778,-0.621701,0.940757,-0.613093,-2.13686,-1.53996,2.49366,1.56958,-0.580232,-0.959028,-1.22156,-1.21942,-1.29229,-0.071409,-0.0432676,-0.782384,-0.959028,-1.22156,-1.21942,-1.29229,-0.071409,-0.0432676,-0.782384,0.0680662,-0.566972,0.715484,0.73868,0.153724,0.017063,0.656071,-0.896931,-0.467512,-1.23959,-0.249881,-0.5465,0.369405,-3.33707,-0.045222,-4.17567,-3.40259,-0.102947,-4.13893,-0.49803,-0.69442,-0.719491,-0.725854,0.0995802,0.482056,-0.414692,1
0.873511,-0.698407,-2.21687,-1.62496,2.51623,1.55617,-0.640039,0.873511,-0.698407,-2.21687,-1.62496,2.51623,1.55617,-0.640039,0.93437,-0.624594,-2.14865,-1.5517,2.49506,1.57564,-0.58559,-0.430919,-1.22206,-1.28098,-1.20835,0.342531,1.25087,-0.38119,-0.430919,-1.22206,-1.28098,-1.20835,0.342531,1.25087,-0.38119,0.0601663,-0.571418,0.703987,0.742279,0.159744,0.00974623,0.650699,-0.747085,-0.303732,-1.17549,-0.284488,-0.547768,0.32669,-3.46069,-0.126761,-4.2715,-3.40515,-0.0970227,-4.23217,-0.60859,-0.738128,-0.682173,-0.732551,0.211687,-0.194767,-0.544493,1
0.874025,-0.707383,-2.22853,-1.63689,2.51259,1.59251,-0.633993,0.874025,-0.707383,-2.22853,-1.63689,2.51259,1.59251,-0.633993,0.927591,-0.636161,-2.16071,-1.56356,2.4974,1.58547,-0.591317,-0.975607,-1.2349,-1.28101,-1.30447,0.165654,0.86063,-0.80908,-0.975607,-1.2349,-1.28101,-1.30447,0.165654,0.86063,-0.80908,0.05157,-0.575128,0.692509,0.746274,0.16396,0.00236755,0.645125,-0.996864,-0.318925,-1.23613,-0.319901,-0.548539,0.283409,-3.54125,-0.0771582,-4.32807,-3.41933,-0.0927338,-4.32329,-0.535656,-0.712223,-0.678198,-0.733338,0.151905,0.0704693,-0.426755,1
0.895391,-0.718888,-2.24296,-1.64371,2.51967,1.64166,-0.628268,0.895391,-0.718888,-2.24296,-1.64371,2.51967,1.64166,-0.628268,0.917437,-0.648284,-2.17229,-1.57585,2.50026,1.58537,-0.600193,-1.16976,-1.33479,-1.18698,-1.30771,0.425322,-0.777822,-1.06112,-1.16976,-1.33479,-1.18698,-1.30771,0.425322,-0.777822,-1.06112,0.0417152,-0.580163,0.680149,0.751554,0.17289,-0.00694934,0.636574,-1.04491,-0.484784,-1.33037,-0.35449,-0.548962,0.239034,-3.45888,-0.0422835,-4.43753,-3.43685,-0.0862935,-4.41418,-0.220457,-0.706043,-0.706694,-0.678587,0.194106,0.562894,-0.280745,1
0.85593,-0.734743,-2.25398,-1.65976,2.52477,1.62332,-0.650108,0.85593,-0.734743,-2.25398,-1.65976,2.52477,1.62332,-0.650108,0.907781,-0.660426,-2.18352,-1.58812,2.50336,1.58318,-0.608297,-0.898934,-1.2505,-1.19845,-1.29889,0.245732,0.248417,-0.684304,-0.898934,-1.2505,-1.19845,-1.29889,0.245732,0.248417,-0.684304,0.0323148,-0.585031,0.667655,0.756006,0.18263,-0.0167368,0.628347,-0.908923,-0.296092,-1.25871,-0.389066,-0.550295,0.193063,-3.45763,-0.13333,-4.5971,-3.45296,-0.0845253,-4.5077,-0.518512,-0.743177,-0.704585,-0.716422,0.214109,0.401337,-0.418114,1
0.84775,-0.745398,-2.26221,-1.67294,2.53128,1.58222,-0.665709,0.84775,-0.745398,-2.26221,-1.67294,2.53128,1.58222,-0.665709,0.902825,-0.672164,-2.19517,-1.59971,2.50623,1.59102,-0.613308,-0.197958,-1.24426,-1.27263,-1.17184,0.357711,1.34858,-0.398383,-0.197958,-1.24426,-1.27263,-1.17184,0.357711,1.34858,-0.398383,0.0248909,-0.587918,0.65601,0.758685,0.187461,-0.0247,0.623414,-0.611735,-0.158724,-1.18068,-0.423912,-0.551438,0.146464,-3.48459,-0.114256,-4.6599,-3.46633,-0.0891251,-4.60869,-0.550753,-0.732335,-0.670369,-0.732349,0.250481,-0.088022,-0.52401,1
