Afshin1997/kuka_rl_ros2/src/catch_and_throw/output_files/tm/nn_ema7.00_jvws1_realball_D01H12M30S00/recorded_data.csv
pure_target_joint_0,pure_target_joint_1,pure_target_joint_2,pure_target_joint_3,pure_target_joint_4,pure_target_joint_5,pure_target_joint_6,target_joint_0,target_joint_1,target_joint_2,target_joint_3,target_joint_4,target_joint_5,target_joint_6,pos_joint_0,pos_joint_1,pos_joint_2,pos_joint_3,pos_joint_4,pos_joint_5,pos_joint_6,vel_joint_0,vel_joint_1,vel_joint_2,vel_joint_3,vel_joint_4,vel_joint_5,vel_joint_6,vel_smooth_joint_0,vel_smooth_joint_1,vel_smooth_joint_2,vel_smooth_joint_3,vel_smooth_joint_4,vel_smooth_joint_5,vel_smooth_joint_6,ee_pos_x,ee_pos_y,ee_pos_z,ee_or_w,ee_or_x,ee_or_y,ee_or_z,eep_vel_x,eep_vel_y,eep_vel_z,ee_vel_offset_x,ee_vel_offset_y,ee_vel_offset_z,ball_pos_x,ball_pos_y,ball_pos_z,ball_raw_vx,ball_raw_vy,ball_raw_vz,ball_ema_vx,ball_ema_vy,ball_ema_vz,action_0,action_1,action_2,action_3,action_4,action_5,action_6,command_published
1.81945,-1.01643,-1.87055,-1.11714,1.94202,1.17444,-0.930213,1.81945,-1.01643,-1.87055,-1.11714,1.94202,1.17444,-0.930213,1.78116,-1.07422,-1.81961,-1.12058,1.93733,1.11687,-0.916308,0,0,2.39759e-05,0,1.91982e-05,-3.5953e-05,0,0,0,2.39759e-05,0,1.91982e-05,-3.5953e-05,0,0.545155,-0.45597,0.709744,0.572447,0.180645,0.151365,0.785341,2.06292e-06,9.10859e-07,7.05808e-06,2.51626e-06,-9.96027e-07,6.89134e-06,2.97983,-0.569102,0.25287,-2.92604,0.0710189,5.55558,-2.92604,-0.0595459,5.35558,0.382863,0.577957,-0.509438,0.0344775,0.0468968,0.575633,-0.139046,1
1.73726,-1.09899,-1.87685,-1.08114,1.91619,1.18049,-0.934327,1.73726,-1.09899,-1.87685,-1.08114,1.91619,1.18049,-0.934327,1.78116,-1.07422,-1.81961,-1.12058,1.93733,1.11687,-0.916308,-3.59311e-05,-1.1977e-05,-1.1977e-05,-3.5953e-05,0,-3.5953e-05,3.5953e-05,-3.59311e-05,-1.1977e-05,-1.1977e-05,-3.5953e-05,0,-3.5953e-05,3.5953e-05,0.545155,-0.455969,0.709744,0.572447,0.180645,0.151365,0.785341,-5.7205e-06,-1.29845e-05,-2.13744e-05,-1.66089e-06,-1.51163e-05,-2.33875e-05,2.95094,-0.568543,0.307898,-2.88894,0.0559151,5.5028,-2.88894,-0.0172843,5.3028,-0.439051,-0.247667,-0.572463,0.394491,-0.211386,0.636154,-0.180188,1
1.72329,-1.01356,-1.87788,-1.07755,1.95791,1.17028,-0.967956,1.72329,-1.01356,-1.87788,-1.07755,1.95791,1.17028,-0.967956,1.78125,-1.07432,-1.81988,-1.12083,1.93733,1.11688,-0.916309,0.0130266,-0.0145006,-0.0407334,-0.0311703,0.000728623,0.000826896,-5.99071e-05,0.0130266,-0.0145006,-0.0407334,-0.0311703,0.000728623,0.000826896,-5.99071e-05,0.545271,-0.455922,0.709524,0.572351,0.180803,0.151455,0.785357,0.013525,0.00578194,-0.0299512,0.0167621,0.00570778,-0.0316145,2.89258,-0.566752,0.416224,-2.93515,0.0955164,5.36203,-2.93515,0.0514595,5.16202,-0.579526,0.607572,-0.579947,0.432794,0.205783,0.534067,-0.516472,1
1.79218,-1.00647,-1.84717,-1.13519,1.97507,1.14787,-0.947541,1.79218,-1.00647,-1.84717,-1.13519,1.97507,1.14787,-0.947541,1.78128,-1.0746,-1.821,-1.12077,1.93752,1.11795,-0.916969,-0.000491343,-0.0366948,-0.169213,0.0121757,0.028704,0.189586,-0.109282,-0.000491343,-0.0366948,-0.169213,0.0121757,0.028704,0.189586,-0.109282,0.545225,-0.456197,0.709044,0.572757,0.18073,0.151495,0.78507,-0.0130591,-0.0422643,-0.0672898,-0.0153859,-0.0425127,-0.066084,2.86347,-0.566556,0.467692,-2.91133,0.0196815,5.14676,-2.91133,0.0639558,4.94676,0.108992,0.681267,-0.261715,-0.144153,0.37556,0.299188,-0.305726,1
1.73587,-1.03384,-1.85763,-1.08395,1.90063,1.16847,-0.964871,1.73587,-1.03384,-1.85763,-1.08395,1.90063,1.16847,-0.964871,1.78192,-1.07477,-1.82509,-1.12003,1.93735,1.12489,-0.918806,0.0879143,0.00638745,-0.481168,0.129834,-0.0554905,0.868201,-0.211277,0.0879143,0.00638745,-0.481168,0.129834,-0.0554905,0.868201,-0.211277,0.544664,-0.45648,0.708127,0.57425,0.178525,0.15179,0.784427,-0.0489712,-0.0459063,-0.092673,-0.0768372,-0.0224992,-0.0793186,2.83537,-0.565893,0.517917,-2.81007,0.0662267,5.02259,-2.81007,0.0665752,4.82259,-0.460489,0.409304,-0.325367,0.360727,-0.367206,0.435841,-0.460652,1
1.79644,-1.03848,-1.82009,-1.08678,1.97169,1.16243,-0.972612,1.79644,-1.03848,-1.82009,-1.08678,1.97169,1.16243,-0.972612,1.7833,-1.074,-1.83252,-1.11677,1.93519,1.13668,-0.922542,0.156235,0.0982804,-0.836576,0.387237,-0.243514,1.24215,-0.446642,0.156235,0.0982804,-0.836576,0.387237,-0.243514,1.24215,-0.446642,0.543535,-0.456915,0.707423,0.577941,0.173815,0.153406,0.782457,-0.0825768,-0.103678,-0.090848,-0.118248,-0.0571811,-0.0749297,2.80684,-0.564597,0.568302,-2.85242,0.129622,5.03849,-2.85242,0.0713097,4.83849,0.131345,0.355178,0.124297,0.299901,0.364909,0.257416,-0.500701,1
1.76947,-1.0471,-1.85717,-1.06436,1.97323,1.18334,-0.965175,1.76947,-1.0471,-1.85717,-1.06436,1.97323,1.18334,-0.965175,1.78541,-1.07233,-1.84247,-1.11182,1.9354,1.14868,-0.929705,0.231446,0.190041,-1.00992,0.509234,0.147086,1.14027,-0.788963,0.231446,0.190041,-1.00992,0.509234,0.147086,1.14027,-0.788963,0.542418,-0.458104,0.70679,0.583591,0.169202,0.155005,0.778952,-0.0708424,-0.157539,-0.0661483,-0.103307,-0.13025,-0.0513603,2.7776,-0.563192,0.618081,-2.92439,0.140464,4.97786,-2.92439,0.0826135,4.77786,-0.159323,0.252383,-0.146961,0.474576,0.378235,0.346563,-0.354693,1
1.76739,-1.03514,-1.85427,-1.09336,1.98971,1.20613,-0.982488,1.76739,-1.03514,-1.85427,-1.09336,1.98971,1.20613,-0.982488,1.78806,-1.06976,-1.85116,-1.108,1.94052,1.15672,-0.937908,0.257355,0.271029,-0.813183,0.305974,0.593925,0.708599,-0.824208,0.257355,0.271029,-0.813183,0.305974,0.593925,0.708599,-0.824208,0.541935,-0.459079,0.706742,0.588526,0.166512,0.155146,0.775784,-0.0122609,-0.0788636,-0.00949258,-0.0343078,-0.0789071,0.00135513,2.74894,-0.562432,0.66601,-2.86598,0.0760198,4.79292,-2.86598,0.088944,4.59292,-0.206718,0.346191,-0.0310824,0.146404,0.491944,0.494073,-0.445796,1
1.76832,-1.0401,-1.86217,-1.08718,1.98403,1.21645,-0.991187,1.76832,-1.0401,-1.86217,-1.08718,1.98403,1.21645,-0.991187,1.78904,-1.06737,-1.85714,-1.10645,1.94432,1.16229,-0.946513,0.0372839,0.223224,-0.502451,0.116621,0.233152,0.517288,-0.872761,0.0372839,0.223224,-0.502451,0.116621,0.233152,0.517288,-0.872761,0.541328,-0.459642,0.706809,0.59303,0.164471,0.15563,0.772687,-0.0608083,-0.0511853,0.00975351,-0.0748278,-0.040275,0.0160551,2.72092,-0.561732,0.713116,-2.80142,0.0699878,4.71057,-2.80142,0.0928843,4.51057,-0.207208,0.272739,-0.0503343,0.192623,0.397114,0.541604,-0.446738,1
1.78118,-1.04496,-1.84877,-1.11385,1.9843,1.22762,-0.992339,1.78118,-1.04496,-1.84877,-1.11385,1.9843,1.22762,-0.992339,1.78792,-1.06556,-1.85854,-1.10563,1.94255,1.16588,-0.955152,-0.165554,0.164212,-0.0413706,0.0926284,-0.262624,0.32502,-0.844693,-0.165554,0.164212,-0.0413706,0.0926284,-0.262624,0.32502,-0.844693,0.540147,-0.459605,0.707735,0.59763,0.161529,0.157399,0.769397,-0.125765,-0.031921,0.110384,-0.141805,-0.00430875,0.116672,2.6921,-0.561211,0.759456,-2.88196,0.0521243,4.63402,-2.88196,0.0947145,4.43402,-0.067339,0.20596,0.0976696,-0.0821484,0.417489,0.617394,-0.371873,1
1.75675,-1.02816,-1.84274,-1.0691,1.99481,1.23139,-1.00806,1.75675,-1.02816,-1.84274,-1.0691,1.99481,1.23139,-1.00806,1.78522,-1.06466,-1.85865,-1.10338,1.94252,1.16977,-0.962363,-0.277466,0.0664182,-0.0345394,0.269316,0.153153,0.423245,-0.696085,-0.277466,0.0664182,-0.0345394,0.269316,0.153153,0.423245,-0.696085,0.537776,-0.461276,0.70908,0.602463,0.158637,0.157188,0.766266,-0.225975,-0.216531,0.115414,-0.260065,-0.222884,0.132143,2.66328,-0.560686,0.804225,-2.88198,0.0525355,4.47687,-2.88198,0.085195,4.27687,-0.284707,0.364959,0.159143,0.342863,0.522888,0.616224,-0.456939,1
1.74956,-1.00739,-1.8267,-1.05762,2.01566,1.22233,-1.02569,1.74956,-1.00739,-1.8267,-1.05762,2.01566,1.22233,-1.02569,1.78398,-1.06367,-1.85968,-1.09948,1.94994,1.17585,-0.969386,-0.0601623,0.11909,-0.12555,0.413586,0.924304,0.683214,-0.71073,-0.0601623,0.11909,-0.12555,0.413586,0.924304,0.683214,-0.71073,0.535038,-0.463965,0.710992,0.60708,0.155772,0.153367,0.763981,-0.206357,-0.2267,0.178748,-0.27284,-0.264479,0.21182,2.63503,-0.560006,0.847203,-2.82536,0.0680208,4.29778,-2.82536,0.0714609,4.09778,-0.344235,0.562765,0.32978,0.418657,0.657142,0.464794,-0.563073,1
1.7522,-1.01694,-1.82301,-1.04736,2.02248,1.23551,-1.03422,1.7522,-1.01694,-1.82301,-1.04736,2.02248,1.23551,-1.03422,1.78435,-1.06195,-1.86203,-1.09633,1.96209,1.18432,-0.976845,0.05266,0.197073,-0.250477,0.263456,1.2593,0.90156,-0.751681,0.05266,0.197073,-0.250477,0.263456,1.2593,0.90156,-0.751681,0.532556,-0.466123,0.712965,0.611038,0.152671,0.147892,0.76253,-0.167368,-0.144062,0.15967,-0.244503,-0.186321,0.19655,2.6071,-0.559035,0.890327,-2.79329,0.0970602,4.31242,-2.79329,0.0656158,4.11242,-0.321592,0.450064,0.390178,0.489689,0.603958,0.511939,-0.573767,1
1.76141,-1.0211,-1.82772,-1.04287,2.03057,1.2435,-1.04119,1.76141,-1.0211,-1.82772,-1.04287,2.03057,1.2435,-1.04119,1.78445,-1.05917,-1.86303,-1.09551,1.97372,1.19454,-0.984243,-0.0242087,0.291104,-0.0458528,0.0280318,1.11602,1.04506,-0.742897,-0.0242087,0.291104,-0.0458528,0.0280318,1.11602,1.04506,-0.742897,0.529908,-0.466749,0.715514,0.61419,0.148335,0.142626,0.761856,-0.189039,-0.0141445,0.22661,-0.277587,-0.037318,0.266313,2.57846,-0.557982,0.932962,-2.86379,0.105327,4.26356,-2.86379,0.0712574,4.06356,-0.230396,0.380695,0.353064,0.526362,0.568523,0.489568,-0.569468,1
1.74409,-1.01647,-1.83128,-1.0401,2.04056,1.25398,-1.04934,1.74409,-1.01647,-1.83128,-1.0401,2.04056,1.25398,-1.04934,1.78249,-1.05665,-1.86212,-1.09547,1.98404,1.20508,-0.992287,-0.256085,0.235951,0.142939,0.0280318,1.00923,1.03839,-0.834578,-0.256085,0.235951,0.142939,0.0280318,1.00923,1.03839,-0.834578,0.526309,-0.467688,0.718348,0.617865,0.143441,0.137242,0.760811,-0.297501,-0.0999109,0.254474,-0.393309,-0.126521,0.295725,2.55009,-0.557396,0.974081,-2.83694,0.0586033,4.11186,-2.83694,0.075428,3.91186,-0.383986,0.40178,0.308444,0.55365,0.565259,0.489029,-0.570498,1
1.73156,-1.0054,-1.82097,-1.04303,2.05437,1.25554,-1.0583,1.73156,-1.0054,-1.82097,-1.04303,2.05437,1.25554,-1.0583,1.77878,-1.05467,-1.85835,-1.09367,1.99409,1.21417,-1.00184,-0.390743,0.187426,0.442433,0.249254,1.00998,0.865199,-0.997268,-0.390743,0.187426,0.442433,0.249254,1.00998,0.865199,-0.997268,0.521554,-0.469846,0.722217,0.622924,0.138213,0.130854,0.758775,-0.390085,-0.205694,0.371616,-0.499312,-0.245162,0.416635,2.52215,-0.556527,1.01426,-2.79365,0.0868618,4.01832,-2.79365,0.0809156,3.81832,-0.472222,0.492612,0.373808,0.50644,0.602831,0.413661,-0.564629,1
1.72687,-0.998327,-1.80745,-1.04419,2.06575,1.25417,-1.07052,1.72687,-0.998327,-1.80745,-1.04419,2.06575,1.25417,-1.07052,1.7751,-1.05291,-1.85317,-1.08951,2.00409,1.22191,-1.01257,-0.349852,0.169725,0.532952,0.483611,0.996671,0.752808,-1.09314,-0.349852,0.169725,0.532952,0.483611,0.996671,0.752808,-1.09314,0.516396,-0.472687,0.726924,0.628992,0.132756,0.123886,0.755908,-0.405414,-0.252868,0.440104,-0.521232,-0.296176,0.485255,2.49392,-0.555745,1.0542,-2.82323,0.0781655,3.99364,-2.82323,0.083634,3.79364,-0.482344,0.545797,0.457179,0.453146,0.6166,0.322671,-0.579535,1
1.72515,-0.994795,-1.79832,-1.04157,2.07587,1.25417,-1.08316,1.72515,-0.994795,-1.79832,-1.04157,2.07587,1.25417,-1.08316,1.77253,-1.05118,-1.84809,-1.08264,2.0139,1.22913,-1.02356,-0.225009,0.174435,0.484918,0.752532,0.977784,0.71568,-1.09461,-0.225009,0.174435,0.484918,0.752532,0.977784,0.71568,-1.09461,0.511242,-0.47587,0.732166,0.635649,0.126954,0.116717,0.752469,-0.393606,-0.284145,0.485561,-0.514473,-0.325626,0.529812,2.46531,-0.555355,1.09233,-2.86157,0.039041,3.81329,-2.86157,0.07852,3.61329,-0.473826,0.563857,0.497631,0.410708,0.619627,0.250446,-0.595956,1
1.72904,-0.993722,-1.79094,-1.03676,2.08562,1.25807,-1.09375,1.72904,-0.993722,-1.79094,-1.03676,2.08562,1.25807,-1.09375,1.77073,-1.04881,-1.84374,-1.07439,2.0237,1.23654,-1.03419,-0.174603,0.27242,0.438849,0.823708,0.980967,0.750866,-1.05234,-0.174603,0.27242,0.438849,0.823708,0.980967,0.750866,-1.05234,0.506067,-0.478955,0.737809,0.642454,0.120754,0.109693,0.748758,-0.397826,-0.254508,0.539672,-0.523411,-0.287429,0.582671,2.43713,-0.554668,1.12858,-2.81732,0.0686884,3.62505,-2.81732,0.071444,3.42505,-0.416842,0.550926,0.527982,0.376298,0.619228,0.215231,-0.595575,1
1.71617,-0.979495,-1.7906,-1.02481,2.09899,1.26759,-1.10555,1.71617,-0.979495,-1.7906,-1.02481,2.09899,1.26759,-1.10555,1.76837,-1.04489,-1.83898,-1.06678,2.03393,1.24364,-1.04442,-0.263252,0.429981,0.487195,0.742393,1.04135,0.68422,-1.02023,-0.263252,0.429981,0.487195,0.742393,1.04135,0.68422,-1.02023,0.500552,-0.481464,0.744239,0.649019,0.114257,0.102843,0.745079,-0.439508,-0.214715,0.618986,-0.565664,-0.24318,0.659355,2.40868,-0.553581,1.16441,-2.84514,0.108761,3.58304,-2.84514,0.0708244,3.38304,-0.522024,0.653963,0.483848,0.419711,0.650617,0.239523,-0.611278,1
1.70772,-0.969027,-1.78388,-1.02391,2.11094,1.2633,-1.11692,1.70772,-0.969027,-1.78388,-1.02391,2.11094,1.2633,-1.11692,1.76513,-1.04015,-1.83322,-1.05983,2.04494,1.24922,-1.05463,-0.341435,0.475691,0.611505,0.667051,1.12243,0.513201,-1.02794,-0.341435,0.475691,0.611505,0.667051,1.12243,0.513201,-1.02794,0.494726,-0.483859,0.751177,0.655388,0.108197,0.0957985,0.741338,-0.462475,-0.200377,0.657352,-0.586205,-0.235584,0.694289,2.38006,-0.55255,1.19974,-2.86264,0.103092,3.53255,-2.86264,0.0768168,3.33255,-0.574166,0.711237,0.493434,0.359247,0.659987,0.140763,-0.622943,1
1.70584,-0.962133,-1.771,-1.04448,2.12497,1.23928,-1.12673,1.70584,-0.962133,-1.771,-1.04448,2.12497,1.23928,-1.12673,1.76131,-1.03571,-1.82639,-1.05425,2.0564,1.25319,-1.06516,-0.397651,0.429385,0.705004,0.528205,1.15113,0.365259,-1.0644,-0.397651,0.429385,0.705004,0.528205,1.15113,0.365259,-1.0644,0.48902,-0.486161,0.757816,0.661274,0.103113,0.0885297,0.737731,-0.4541,-0.185932,0.618341,-0.570104,-0.229523,0.65051,2.35197,-0.551797,1.23413,-2.80855,0.0752866,3.43914,-2.80855,0.079847,3.23914,-0.554687,0.735807,0.553905,0.0977448,0.685629,-0.139089,-0.615624,1
1.69743,-0.957126,-1.76112,-1.06758,2.13696,1.21462,-1.13622,1.69743,-0.957126,-1.76112,-1.06758,2.13696,1.21462,-1.13622,1.75655,-1.03169,-1.81889,-1.04912,2.06797,1.25618,-1.07608,-0.507161,0.394152,0.756822,0.524561,1.15418,0.290119,-1.09958,-0.507161,0.394152,0.756822,0.524561,1.15418,0.290119,-1.09958,0.483026,-0.488847,0.76421,0.667218,0.0986371,0.0810404,0.733842,-0.504318,-0.236717,0.606571,-0.619079,-0.28607,0.635926,2.32428,-0.55113,1.26703,-2.76937,0.0666499,3.29021,-2.76937,0.0824309,3.09021,-0.591191,0.745675,0.57766,-0.184593,0.689926,-0.415635,-0.601453,1
1.68589,-0.955717,-1.75118,-1.06927,2.14549,1.21763,-1.14764,1.68589,-0.955717,-1.75118,-1.06927,2.14549,1.21763,-1.14764,1.75093,-1.02769,-1.81134,-1.04357,2.07965,1.25902,-1.08728,-0.566925,0.404422,0.755169,0.569669,1.17123,0.275739,-1.12528,-0.566925,0.404422,0.755169,0.569669,1.17123,0.275739,-1.12528,0.476455,-0.492037,0.770632,0.673582,0.0942228,0.073369,0.729402,-0.549047,-0.270605,0.617006,-0.666123,-0.320853,0.644453,2.29618,-0.550486,1.29922,-2.80979,0.0644028,3.21876,-2.80979,0.0838071,3.01876,-0.650364,0.719765,0.601662,-0.25701,0.658459,-0.413858,-0.60363,1
1.6955,-0.953679,-1.74178,-1.07744,2.15943,1.23066,-1.16198,1.6955,-0.953679,-1.74178,-1.07744,2.15943,1.23066,-1.16198,1.74566,-1.02339,-1.80382,-1.03862,2.0915,1.26035,-1.09866,-0.508203,0.441201,0.746612,0.440123,1.19119,0.0579784,-1.14015,-0.508203,0.441201,0.746612,0.440123,1.19119,0.0579784,-1.14015,0.47037,-0.494806,0.776938,0.679531,0.0905755,0.0660611,0.725031,-0.476195,-0.198352,0.593879,-0.575918,-0.250973,0.615025,2.26791,-0.549874,1.3305,-2.82643,0.0612259,3.12748,-2.82643,0.0785376,2.92748,-0.501626,0.69708,0.62036,-0.388152,0.679277,-0.296892,-0.633178,1
1.69611,-0.946661,-1.73693,-1.0822,2.17529,1.25454,-1.17718,1.69611,-0.946661,-1.73693,-1.0822,2.17529,1.25454,-1.17718,1.74063,-1.01836,-1.79642,-1.03652,2.10381,1.2582,-1.1101,-0.517599,0.532806,0.74231,0.132483,1.2485,-0.304273,-1.14231,-0.517599,0.532806,0.74231,0.132483,1.2485,-0.304273,-1.14231,0.46562,-0.496568,0.782725,0.684309,0.0890256,0.0598684,0.721257,-0.383607,-0.094062,0.558864,-0.451336,-0.152523,0.571324,2.23995,-0.549358,1.35989,-2.79665,0.0516236,2.93899,-2.79665,0.0690367,2.73899,-0.445152,0.716941,0.594865,-0.456741,0.714832,-0.0366376,-0.670817,1
1.68462,-0.939572,-1.73467,-1.08191,2.18838,1.25029,-1.18842,1.68462,-0.939572,-1.73467,-1.08191,2.18838,1.25029,-1.18842,1.7345,-1.01246,-1.7885,-1.03771,2.11671,1.2522,-1.1214,-0.648619,0.601906,0.818348,-0.213866,1.30138,-0.690755,-1.12413,-0.648619,0.601906,0.818348,-0.213866,1.30138,-0.690755,-1.12413,0.461683,-0.497688,0.788168,0.688074,0.0896942,0.054709,0.717994,-0.33866,-0.0260465,0.526172,-0.374885,-0.0940043,0.530613,2.21231,-0.548649,1.38865,-2.76325,0.0708699,2.87626,-2.76325,0.0637003,2.67626,-0.498804,0.728861,0.538324,-0.442046,0.71664,-0.0190749,-0.670229,1
1.67726,-0.932533,-1.7236,-1.08616,2.20035,1.24754,-1.1988,1.67726,-0.932533,-1.7236,-1.08616,2.20035,1.24754,-1.1988,1.72679,-1.00615,-1.77933,-1.0423,2.12967,1.2443,-1.13251,-0.808329,0.640051,0.941783,-0.527941,1.29337,-0.790533,-1.11216,-0.808329,0.640051,0.941783,-0.527941,1.29337,-0.790533,-1.11216,0.458033,-0.498157,0.793289,0.690895,0.0915916,0.0501962,0.715371,-0.342236,0.0397062,0.504468,-0.36618,-0.028412,0.505561,2.18449,-0.547743,1.41706,-2.7822,0.0905573,2.84088,-2.7822,0.0651815,2.64088,-0.495252,0.7362,0.55723,-0.43865,0.706788,0.0323876,-0.66291,1
1.67263,-0.927071,-1.7111,-1.08857,2.21238,1.2573,-1.21046,1.67263,-0.927071,-1.7111,-1.08857,2.21238,1.2573,-1.21046,1.71773,-0.99929,-1.76982,-1.04929,2.14241,1.23854,-1.14385,-0.930158,0.702164,0.947164,-0.72256,1.26957,-0.481971,-1.14813,-0.930158,0.702164,0.947164,-0.72256,1.26957,-0.481971,-1.14813,0.453963,-0.497888,0.798274,0.693476,0.092744,0.0459753,0.713005,-0.392155,0.0968518,0.497643,-0.427101,0.0426989,0.501153,2.15656,-0.547145,1.44453,-2.79353,0.0598729,2.74744,-2.79353,0.066668,2.54744,-0.451059,0.72219,0.587211,-0.392797,0.699637,0.187597,-0.666024,1
1.66765,-0.923685,-1.69976,-1.08946,2.22461,1.25981,-1.22193,1.66765,-0.923685,-1.69976,-1.08946,2.22461,1.25981,-1.22193,1.70837,-0.99209,-1.76038,-1.05671,2.15531,1.23692,-1.15584,-0.92606,0.713836,0.937289,-0.746792,1.29682,-0.0619091,-1.21715,-0.92606,0.713836,0.937289,-0.746792,1.29682,-0.0619091,-1.21715,0.449155,-0.497098,0.80342,0.696334,0.0920381,0.0412674,0.710595,-0.429324,0.135598,0.500283,-0.488784,0.0927321,0.508668,2.12885,-0.546733,1.47075,-2.77102,0.0412107,2.62223,-2.77102,0.065477,2.42223,-0.407162,0.68405,0.606228,-0.327495,0.693013,0.228923,-0.660826,1
1.66617,-0.921366,-1.69176,-1.09108,2.23723,1.26646,-1.23382,1.66617,-0.921366,-1.69176,-1.09108,2.23723,1.26646,-1.23382,1.69982,-0.985351,-1.75152,-1.06446,2.16844,1.2378,-1.16831,-0.829014,0.663192,0.866667,-0.775314,1.31906,0.121266,-1.25121,-0.829014,0.663192,0.866667,-0.775314,1.31906,0.121266,-1.25121,0.44453,-0.49592,0.808082,0.699049,0.0906712,0.0362362,0.708375,-0.386012,0.167054,0.443059,-0.450457,0.126075,0.451676,2.10123,-0.546325,1.496,-2.76132,0.0407457,2.525,-2.76132,0.0621461,2.325,-0.336537,0.639848,0.597558,-0.266225,0.687936,0.286683,-0.655111,1
1.65368,-0.915357,-1.68785,-1.07726,2.24997,1.27563,-1.24606,1.65368,-0.915357,-1.68785,-1.07726,2.24997,1.27563,-1.24606,1.692,-0.978465,-1.74344,-1.07153,2.18164,1.23948,-1.18083,-0.767884,0.708228,0.797676,-0.680628,1.32188,0.187069,-1.24989,-0.767884,0.708228,0.797676,-0.680628,1.32188,0.187069,-1.24989,0.440062,-0.494584,0.812702,0.701854,0.0890165,0.0312749,0.706044,-0.379893,0.179342,0.464224,-0.447903,0.143803,0.473044,2.07325,-0.545703,1.52092,-2.7988,0.0622034,2.4915,-2.7988,0.0593656,2.2915,-0.383205,0.631077,0.55592,-0.0573861,0.683308,0.361516,-0.652252,1
1.65473,-0.912676,-1.68017,-1.08426,2.26247,1.27863,-1.25796,1.65473,-0.912676,-1.68017,-1.08426,2.26247,1.27863,-1.25796,1.68495,-0.97117,-1.73515,-1.0778,2.19469,1.24252,-1.1932,-0.682234,0.724526,0.838829,-0.621835,1.29676,0.334832,-1.23049,-0.682234,0.724526,0.838829,-0.621835,1.29676,0.334832,-1.23049,0.435525,-0.49272,0.81778,0.704552,0.0863942,0.0261043,0.70389,-0.367262,0.229745,0.496097,-0.447408,0.201649,0.506576,2.04518,-0.545185,1.54399,-2.80674,0.0517666,2.30687,-2.80674,0.0546104,2.10687,-0.302198,0.58494,0.549721,-0.0646891,0.67774,0.361166,-0.647531,1
1.64805,-0.906729,-1.67248,-1.06802,2.27506,1.28411,-1.26941,1.64805,-0.906729,-1.67248,-1.06802,2.27506,1.28411,-1.26941,1.67867,-0.964386,-1.72659,-1.08374,2.20743,1.24657,-1.20533,-0.613679,0.663032,0.858164,-0.581849,1.25837,0.432833,-1.20758,-0.613679,0.663032,0.858164,-0.581849,1.25837,0.432833,-1.20758,0.431157,-0.490614,0.822703,0.706922,0.0833849,0.0206367,0.702056,-0.348307,0.240469,0.474492,-0.434688,0.213629,0.484893,2.01736,-0.544737,1.56585,-2.78199,0.0448465,2.18661,-2.78199,0.0498836,1.98661,-0.306278,0.576579,0.541069,0.157152,0.67629,0.375403,-0.640777,1
1.63137,-0.899008,-1.67009,-1.05649,2.28685,1.29094,-1.28039,1.63137,-0.899008,-1.67009,-1.05649,2.28685,1.29094,-1.28039,1.67266,-0.957634,-1.71787,-1.08814,2.21985,1.2515,-1.21728,-0.6036,0.685095,0.882708,-0.375391,1.23604,0.51567,-1.19341,-0.6036,0.685095,0.882708,-0.375391,1.23604,0.51567,-1.19341,0.426374,-0.488655,0.827985,0.709552,0.0796296,0.0147929,0.699983,-0.40077,0.210287,0.537393,-0.501787,0.188112,0.548879,1.98929,-0.543897,1.58714,-2.80726,0.0839531,2.12876,-2.80726,0.0531169,1.92876,-0.412911,0.58626,0.477751,0.316449,0.67003,0.394371,-0.63111,1
1.62584,-0.895906,-1.66242,-1.05471,2.29614,1.29325,-1.29134,1.62584,-0.895906,-1.66242,-1.05471,2.29614,1.29325,-1.29134,1.66714,-0.950946,-1.70875,-1.09056,2.232,1.25749,-1.22913,-0.515275,0.656932,0.921586,-0.228545,1.2135,0.617946,-1.18217,-0.515275,0.656932,0.921586,-0.228545,1.2135,0.617946,-1.18217,0.42108,-0.486843,0.833779,0.712457,0.0748989,0.00832534,0.697657,-0.403839,0.213433,0.563894,-0.518229,0.193747,0.575464,1.96149,-0.542813,1.60742,-2.78013,0.108486,2.02769,-2.78013,0.0627914,1.82769,-0.413005,0.5504,0.463315,0.358513,0.641392,0.357575,-0.622066,1
1.61832,-0.889334,-1.65626,-1.05438,2.30796,1.29716,-1.30198,1.61832,-0.889334,-1.65626,-1.05438,2.30796,1.29716,-1.30198,1.66276,-0.944597,-1.69975,-1.09205,2.24407,1.264,-1.24096,-0.435613,0.634317,0.883727,-0.0911063,1.21207,0.659173,-1.18225,-0.435613,0.634317,0.883727,-0.0911063,1.21207,0.659173,-1.18225,0.416031,-0.484906,0.839509,0.715172,0.0699526,0.00155105,0.695437,-0.399205,0.196145,0.566857,-0.51935,0.176318,0.576971,1.93369,-0.542395,1.62692,-2.77982,0.0417709,1.95055,-2.77982,0.0673567,1.75055,-0.444424,0.552635,0.434849,0.376741,0.638967,0.331605,-0.610138,1
1.60763,-0.880922,-1.65052,-1.05174,2.31973,1.29726,-1.31341,1.60763,-0.880922,-1.65052,-1.05174,2.31973,1.29726,-1.31341,1.65803,-0.938048,-1.69156,-1.09064,2.25628,1.2706,-1.25278,-0.468379,0.659341,0.805312,0.205786,1.21793,0.658082,-1.17832,-0.468379,0.659341,0.805312,0.205786,1.21793,0.658082,-1.17832,0.410048,-0.483988,0.845699,0.718889,0.064548,-0.00565665,0.692098,-0.482489,0.0974182,0.618941,-0.612559,0.0789065,0.627715,1.90612,-0.542204,1.64494,-2.75669,0.0191271,1.80185,-2.75669,0.0643002,1.60185,-0.504011,0.571262,0.41047,0.388987,0.634433,0.266566,-0.606335,1
1.60476,-0.877118,-1.64529,-1.04753,2.32934,1.3054,-1.32535,1.60476,-0.877118,-1.64529,-1.04753,2.32934,1.3054,-1.32535,1.65428,-0.931723,-1.68357,-1.08737,2.26832,1.27725,-1.26443,-0.349325,0.617431,0.790907,0.380221,1.19264,0.660287,-1.16026,-0.349325,0.617431,0.790907,0.380221,1.19264,0.660287,-1.16026,0.404032,-0.483248,0.852059,0.722657,0.0588773,-0.0132184,0.688568,-0.466407,0.0837377,0.626876,-0.60225,0.0648867,0.633395,1.87865,-0.54155,1.66236,-2.747,0.0653565,1.74142,-2.747,0.0624127,1.54142,-0.495168,0.546051,0.382808,0.398357,0.610236,0.281442,-0.609256,1
1.60171,-0.872313,-1.64423,-1.0436,2.34171,1.30868,-1.33729,1.60171,-0.872313,-1.64423,-1.0436,2.34171,1.30868,-1.33729,1.65098,-0.92582,-1.67645,-1.08204,2.28005,1.28345,-1.27587,-0.32357,0.584245,0.68476,0.571566,1.1667,0.604907,-1.13981,-0.32357,0.584245,0.68476,0.571566,1.1667,0.604907,-1.13981,0.397836,-0.483211,0.858332,0.72682,0.0533242,-0.0209116,0.684435,-0.487805,0.0102032,0.616663,-0.622725,-0.00970329,0.620321,1.85095,-0.541139,1.67846,-2.77005,0.041151,1.61085,-2.77005,0.057497,1.41085,-0.492725,0.535067,0.322187,0.384333,0.61661,0.252267,-0.614177,1
1.60081,-0.86448,-1.63803,-1.04206,2.35332,1.31079,-1.34962,1.60081,-0.86448,-1.63803,-1.04206,2.35332,1.31079,-1.34962,1.64815,-0.919696,-1.66981,-1.07614,2.29145,1.2888,-1.28712,-0.274038,0.626767,0.665453,0.587865,1.13669,0.512147,-1.12036,-0.274038,0.626767,0.665453,0.587865,1.13669,0.512147,-1.12036,0.391894,-0.483061,0.864612,0.730899,0.0480566,-0.0282281,0.680206,-0.458935,0.0465346,0.629223,-0.586739,0.0298198,0.630496,1.8233,-0.540806,1.6934,-2.76484,0.0332952,1.49308,-2.76484,0.048102,1.29308,-0.4734,0.552164,0.317774,0.340759,0.618721,0.219916,-0.624925,1
1.5969,-0.856445,-1.6327,-1.04084,2.36517,1.31236,-1.361,1.5969,-0.856445,-1.6327,-1.04084,2.36517,1.31236,-1.361,1.64492,-0.913312,-1.66314,-1.07041,2.30274,1.29346,-1.29824,-0.347311,0.637289,0.666184,0.572812,1.12775,0.459966,-1.11236,-0.347311,0.637289,0.666184,0.572812,1.12775,0.459966,-1.11236,0.385908,-0.482829,0.870898,0.734886,0.0430656,-0.0352888,0.675902,-0.486109,0.0333673,0.624452,-0.610137,0.0169717,0.623414,1.79624,-0.540261,1.70769,-2.70582,0.0544667,1.42958,-2.70582,0.0424953,1.22958,-0.480217,0.568667,0.304403,0.295637,0.624288,0.18903,-0.627628,1
1.58855,-0.848956,-1.62983,-1.03483,2.37605,1.31338,-1.37178,1.58855,-0.848956,-1.62983,-1.03483,2.37605,1.31338,-1.37178,1.64071,-0.907067,-1.65679,-1.06479,2.31393,1.29798,-1.30937,-0.441354,0.61646,0.618341,0.562613,1.1169,0.447358,-1.11713,-0.441354,0.61646,0.618341,0.562613,1.1169,0.447358,-1.11713,0.379539,-0.482988,0.876915,0.739123,0.0383156,-0.0422557,0.671151,-0.523912,-0.0108024,0.592369,-0.644524,-0.0274794,0.589127,1.76894,-0.539456,1.72132,-2.72998,0.0805318,1.36274,-2.72998,0.0480275,1.16274,-0.521585,0.581112,0.269665,0.299671,0.621193,0.153983,-0.624029,1
1.58126,-0.841855,-1.6251,-1.03146,2.38637,1.31522,-1.38252,1.58126,-0.841855,-1.6251,-1.03146,2.38637,1.31522,-1.38252,1.63587,-0.900849,-1.65104,-1.05925,2.32507,1.30231,-1.32062,-0.494937,0.631476,0.56851,0.550725,1.11469,0.425726,-1.12904,-0.494937,0.631476,0.56851,0.550725,1.11469,0.425726,-1.12904,0.372983,-0.483421,0.882661,0.7436,0.0338527,-0.0490157,0.665966,-0.542005,-0.0233454,0.577835,-0.658524,-0.0383383,0.572826,1.74126,-0.538981,1.73399,-2.768,0.0474632,1.2674,-2.768,0.052623,1.0674,-0.546062,0.589934,0.259402,0.277894,0.613007,0.129075,-0.619024,1
1.57794,-0.836558,-1.6161,-1.03674,2.39727,1.31337,-1.3937,1.57794,-0.836558,-1.6161,-1.03674,2.39727,1.31337,-1.3937,1.63074,-0.894362,-1.6455,-1.05419,2.33627,1.30638,-1.33207,-0.51863,0.648159,0.545248,0.479033,1.1238,0.405281,-1.14747,-0.51863,0.648159,0.545248,0.479033,1.1238,0.405281,-1.14747,0.366494,-0.483663,0.888297,0.748033,0.0296283,-0.0555077,0.660672,-0.531754,-0.00321944,0.557957,-0.642579,-0.0175034,0.551359,1.71416,-0.538543,1.74548,-2.70988,0.0438273,1.14846,-2.70988,0.0524542,0.948462,-0.527987,0.578036,0.293998,0.174472,0.610083,0.0698975,-0.616259,1
1.5696,-0.830221,-1.61083,-1.03691,2.4088,1.31801,-1.40527,1.5696,-0.830221,-1.61083,-1.03691,2.4088,1.31801,-1.40527,1.62533,-0.88811,-1.64033,-1.04969,2.34763,1.31002,-1.34368,-0.552101,0.616646,0.504476,0.444137,1.14312,0.344838,-1.1619,-0.552101,0.616646,0.504476,0.444137,1.14312,0.344838,-1.1619,0.360161,-0.484034,0.893519,0.752413,0.0259891,-0.0618282,0.655269,-0.528469,-0.0265563,0.518382,-0.632077,-0.0448262,0.510001,1.68714,-0.538149,1.75638,-2.70222,0.0393331,1.09032,-2.70222,0.0527616,0.890324,-0.557259,0.578891,0.295038,0.127775,0.611627,0.0799728,-0.615878,1
1.56064,-0.822607,-1.60991,-1.02969,2.41888,1.3295,-1.41674,1.56064,-0.822607,-1.60991,-1.02969,2.41888,1.3295,-1.41674,1.61948,-0.882062,-1.63577,-1.04534,2.35912,1.31299,-1.35529,-0.595351,0.606687,0.444197,0.439404,1.15182,0.277321,-1.15734,-0.595351,0.606687,0.444197,0.439404,1.15182,0.277321,-1.15734,0.353856,-0.484741,0.898384,0.756896,0.0229556,-0.0679096,0.649592,-0.535809,-0.0541836,0.492239,-0.632303,-0.0740559,0.482655,1.65926,-0.537971,1.76662,-2.78835,0.0178039,1.02367,-2.78835,0.04871,0.823674,-0.588347,0.59455,0.25862,0.156503,0.597573,0.165141,-0.614481,1
1.55883,-0.815576,-1.6033,-1.04228,2.42997,1.32852,-1.42849,1.55883,-0.815576,-1.6033,-1.04228,2.42997,1.32852,-1.42849,1.61337,-0.875635,-1.6313,-1.04136,2.37055,1.31529,-1.36676,-0.610498,0.651064,0.454731,0.365031,1.13853,0.212907,-1.14236,-0.610498,0.651064,0.454731,0.365031,1.13853,0.212907,-1.14236,0.347677,-0.485196,0.903283,0.761239,0.0201926,-0.0735914,0.643965,-0.515643,-0.00959348,0.496328,-0.60446,-0.026898,0.486399,1.63128,-0.537738,1.77492,-2.79754,0.0233769,0.829947,-2.79754,0.040608,0.629947,-0.545462,0.60059,0.280026,-0.00918501,0.594175,0.132346,-0.617293,1
1.55414,-0.807899,-1.58923,-1.05506,2.44207,1.32743,-1.44048,1.55414,-0.807899,-1.58923,-1.05506,2.44207,1.32743,-1.44048,1.60722,-0.869085,-1.62642,-1.03867,2.38186,1.31695,-1.37808,-0.626401,0.653029,0.496219,0.248727,1.12801,0.160693,-1.13174,-0.626401,0.653029,0.496219,0.248727,1.12801,0.160693,-1.13174,0.341988,-0.485132,0.90802,0.765065,0.0179015,-0.0788487,0.638857,-0.485455,0.030445,0.478013,-0.566468,0.0122028,0.467618,1.60387,-0.537307,1.78208,-2.74103,0.0430644,0.71671,-2.74103,0.0339438,0.51671,-0.5308,0.611867,0.371877,-0.163877,0.602127,0.104804,-0.623919,1
1.54306,-0.80343,-1.58109,-1.04975,2.45126,1.33957,-1.4521,1.54306,-0.80343,-1.58109,-1.04975,2.45126,1.33957,-1.4521,1.60034,-0.862845,-1.62156,-1.03631,2.39314,1.31871,-1.38933,-0.711343,0.619594,0.475727,0.234993,1.12402,0.197436,-1.12593,-0.711343,0.619594,0.475727,0.234993,1.12402,0.197436,-1.12593,0.336066,-0.485322,0.91247,0.768942,0.0157851,-0.0841238,0.633563,-0.522438,-0.00663448,0.449214,-0.604458,-0.0247195,0.437708,1.57647,-0.53655,1.78857,-2.74022,0.07568,0.648344,-2.74022,0.0363427,0.448344,-0.572807,0.594155,0.404714,-0.134375,0.581197,0.208676,-0.627725,1
1.54248,-0.8019,-1.57513,-1.04871,2.46166,1.34411,-1.46329,1.54248,-0.8019,-1.57513,-1.04871,2.46166,1.34411,-1.46329,1.59309,-0.856523,-1.61683,-1.03456,2.40422,1.32135,-1.40057,-0.713393,0.637762,0.481395,0.130949,1.10139,0.291965,-1.12495,-0.713393,0.637762,0.481395,0.130949,1.10139,0.291965,-1.12495,0.330065,-0.485287,0.916743,0.772778,0.0134142,-0.0893157,0.628218,-0.501716,0.0432558,0.431779,-0.583857,0.0300357,0.419873,1.54933,-0.535713,1.79426,-2.71437,0.0837505,0.56895,-2.71437,0.0441185,0.36895,-0.506119,0.546236,0.417039,-0.141492,0.574324,0.227581,-0.627181,1
1.54293,-0.796506,-1.5729,-1.04472,2.47338,1.34617,-1.47453,1.54293,-0.796506,-1.5729,-1.04472,2.47338,1.34617,-1.47453,1.58628,-0.849974,-1.61166,-1.03451,2.41524,1.32439,-1.41187,-0.683612,0.660244,0.527665,-0.0307987,1.10036,0.297334,-1.13281,-0.683612,0.660244,0.527665,-0.0307987,1.10036,0.297334,-1.13281,0.32477,-0.48437,0.920811,0.775971,0.0111786,-0.0941962,0.623596,-0.440861,0.120731,0.413436,-0.51617,0.107656,0.401499,1.52157,-0.535537,1.79882,-2.77575,0.0175476,0.455916,-2.77575,0.0483628,0.255916,-0.433502,0.534686,0.387561,-0.102023,0.581454,0.217856,-0.626579,1
1.53582,-0.791334,-1.57248,-1.04198,2.48493,1.34349,-1.48552,1.53582,-0.791334,-1.57248,-1.04198,2.48493,1.34349,-1.48552,1.57891,-0.84355,-1.60627,-1.03586,2.42641,1.3274,-1.42334,-0.761436,0.639368,0.538906,-0.168854,1.12011,0.305363,-1.15228,-0.761436,0.639368,0.538906,-0.168854,1.12011,0.305363,-1.15228,0.319706,-0.483301,0.924507,0.778963,0.00938773,-0.0988767,0.619154,-0.43522,0.123786,0.370348,-0.504815,0.10794,0.358021,1.49469,-0.535146,1.80233,-2.68755,0.0390887,0.351274,-2.68755,0.05168,0.151274,-0.430958,0.522153,0.337882,-0.0612168,0.585139,0.160838,-0.621774,1
1.52266,-0.786932,-1.57222,-1.02576,2.49292,1.35095,-1.49637,1.52266,-0.786932,-1.57222,-1.02576,2.49292,1.35095,-1.49637,1.57086,-0.837233,-1.59996,-1.03797,2.43756,1.33118,-1.43493,-0.809396,0.626545,0.669064,-0.218276,1.11226,0.400048,-1.15993,-0.809396,0.626545,0.669064,-0.218276,1.11226,0.400048,-1.15993,0.314389,-0.482022,0.928137,0.781782,0.00735104,-0.103817,0.614804,-0.458143,0.152921,0.378998,-0.536525,0.138516,0.364668,1.4676,-0.534807,1.80533,-2.7095,0.0339389,0.299799,-2.7095,0.0504515,0.0997994,-0.482023,0.503011,0.27743,0.122121,0.553651,0.197619,-0.614369,1
1.5194,-0.787477,-1.57121,-1.02374,2.49994,1.35724,-1.50732,1.5194,-0.787477,-1.57121,-1.02374,2.49994,1.35724,-1.50732,1.5629,-0.831349,-1.59281,-1.04019,2.4484,1.3355,-1.44651,-0.790234,0.575769,0.717263,-0.207934,1.07779,0.435041,-1.15628,-0.790234,0.575769,0.717263,-0.207934,1.07779,0.435041,-1.15628,0.309039,-0.48061,0.931675,0.784321,0.00512325,-0.109087,0.610667,-0.453458,0.152387,0.364306,-0.53491,0.137341,0.348372,1.44022,-0.53457,1.80692,-2.73763,0.0236869,0.158954,-2.73763,0.0437988,-0.0410463,-0.435035,0.438721,0.216026,0.164517,0.515408,0.217349,-0.608003,1
1.51714,-0.782501,-1.56677,-1.03034,2.51123,1.36045,-1.51775,1.51714,-0.782501,-1.56677,-1.03034,2.51123,1.36045,-1.51775,1.5554,-0.825941,-1.58622,-1.04172,2.45904,1.33971,-1.45804,-0.733046,0.535683,0.636216,-0.134268,1.06193,0.408293,-1.14948,-0.733046,0.535683,0.636216,-0.134268,1.06193,0.408293,-1.14948,0.303812,-0.479522,0.934955,0.786927,0.00310326,-0.114388,0.606343,-0.435446,0.120827,0.338792,-0.513886,0.104273,0.322153,1.41351,-0.534267,1.80724,-2.67105,0.030309,0.0327826,-2.67105,0.0352327,-0.167217,-0.382599,0.434397,0.19448,0.113778,0.521882,0.207396,-0.597187,1
1.51219,-0.777117,-1.56818,-1.03801,2.51839,1.37059,-1.52834,1.51219,-0.777117,-1.56818,-1.03801,2.51839,1.37059,-1.52834,1.54879,-0.820239,-1.58032,-1.04209,2.46965,1.34343,-1.46944,-0.638541,0.586363,0.572929,0.0011864,1.06069,0.369729,-1.13477,-0.638541,0.586363,0.572929,0.0011864,1.06069,0.369729,-1.13477,0.298816,-0.478364,0.938424,0.789549,0.00111196,-0.119542,0.601931,-0.419111,0.136056,0.373486,-0.497862,0.123019,0.356337,1.38699,-0.533755,1.80708,-2.65242,0.0511467,-0.0164151,-2.65242,0.0321009,-0.216415,-0.366022,0.431224,0.121444,0.0407928,0.487403,0.271649,-0.588997,1
1.50809,-0.772711,-1.5695,-1.03951,2.52179,1.38119,-1.53858,1.50809,-0.772711,-1.5695,-1.03951,2.52179,1.38119,-1.53858,1.54289,-0.814157,-1.57548,-1.04113,2.47998,1.34728,-1.48066,-0.575325,0.611158,0.453449,0.131979,1.02257,0.392283,-1.11623,-0.575325,0.611158,0.453449,0.131979,1.02257,0.392283,-1.11623,0.293842,-0.477162,0.942072,0.792371,-0.00120803,-0.124534,0.597192,-0.418807,0.123651,0.382114,-0.498811,0.117108,0.364708,1.36006,-0.533177,1.80624,-2.69254,0.0578046,-0.0844002,-2.69254,0.0371458,-0.2844,-0.348004,0.414467,0.0597831,0.0161976,0.418131,0.339087,-0.579202,1
1.50456,-0.768382,-1.57,-1.04086,2.52583,1.38735,-1.54903,1.50456,-0.768382,-1.57,-1.04086,2.52583,1.38735,-1.54903,1.53747,-0.807969,-1.57187,-1.0388,2.48973,1.35148,-1.49171,-0.526408,0.620199,0.338539,0.25086,0.959836,0.423377,-1.10103,-0.526408,0.620199,0.338539,0.25086,0.959836,0.423377,-1.10103,0.288745,-0.476127,0.94575,0.795544,-0.00391052,-0.129369,0.591911,-0.423102,0.1057,0.383019,-0.504266,0.106542,0.365472,1.33284,-0.532716,1.8041,-2.72255,0.0460982,-0.213397,-2.72255,0.0405822,-0.413397,-0.329131,0.395874,0.0187204,-0.0205362,0.360923,0.358637,-0.573222,1
1.50226,-0.762559,-1.56922,-1.04307,2.53243,1.39146,-1.55926,1.50226,-0.762559,-1.56922,-1.04307,2.53243,1.39146,-1.55926,1.53281,-0.801531,-1.569,-1.03692,2.49904,1.35588,-1.50263,-0.449084,0.651994,0.269867,0.159838,0.925301,0.447886,-1.08914,-0.449084,0.651994,0.269867,0.159838,0.925301,0.447886,-1.08914,0.284283,-0.474633,0.949256,0.798543,-0.00656589,-0.133676,0.586871,-0.352714,0.160795,0.358522,-0.425568,0.165146,0.342469,1.30626,-0.532429,1.80104,-2.65768,0.0287533,-0.306451,-2.65768,0.0426094,-0.506451,-0.305504,0.38972,-0.00219349,-0.0614757,0.333919,0.355823,-0.566325,1
1.49239,-0.757882,-1.57777,-1.02191,2.53532,1.40173,-1.56947,1.49239,-0.757882,-1.57777,-1.02191,2.53532,1.40173,-1.56947,1.52827,-0.795028,-1.56688,-1.03581,2.50806,1.36105,-1.51341,-0.463178,0.641963,0.19011,0.0937789,0.889232,0.544912,-1.07523,-0.463178,0.641963,0.19011,0.0937789,0.889232,0.544912,-1.07523,0.28015,-0.472916,0.952415,0.801505,-0.00926228,-0.137641,0.581859,-0.340686,0.160431,0.316997,-0.411803,0.169216,0.301215,1.2794,-0.532298,1.79791,-2.68579,0.013113,-0.312495,-2.68579,0.0411851,-0.512495,-0.358774,0.371467,-0.108932,0.139054,0.272673,0.406833,-0.560596,1
1.48645,-0.755274,-1.58274,-1.0096,2.53186,1.41154,-1.57909,1.48645,-0.755274,-1.58274,-1.0096,2.53186,1.41154,-1.57909,1.52329,-0.788938,-1.56555,-1.03545,2.51622,1.36717,-1.52402,-0.51223,0.596685,0.112127,0.0202179,0.786281,0.640429,-1.05651,-0.51223,0.596685,0.112127,0.0202179,0.786281,0.640429,-1.05651,0.276072,-0.471334,0.955024,0.804671,-0.0120763,-0.141228,0.576552,-0.340406,0.139192,0.260726,-0.408298,0.154734,0.245986,1.25183,-0.532582,1.79314,-2.7575,-0.0283778,-0.477636,-2.7575,0.031143,-0.677636,-0.368432,0.336643,-0.171953,0.258451,0.156448,0.443721,-0.550753,1
1.48104,-0.750403,-1.57748,-1.00223,2.5365,1.41876,-1.58922,1.48104,-0.750403,-1.57748,-1.00223,2.5365,1.41876,-1.58922,1.51773,-0.783072,-1.56492,-1.03541,2.52313,1.37419,-1.53448,-0.566592,0.589027,0.0538465,-0.00445825,0.663732,0.719874,-1.0447,-0.566592,0.589027,0.0538465,-0.00445825,0.663732,0.719874,-1.0447,0.271859,-0.469811,0.957301,0.808188,-0.0153002,-0.14434,0.570757,-0.355447,0.132402,0.237725,-0.421995,0.158773,0.224158,1.22461,-0.532092,1.78693,-2.72191,0.0489652,-0.620151,-2.72191,0.0235753,-0.820151,-0.366874,0.326689,-0.125635,0.331841,0.133741,0.445762,-0.54748,1
1.47117,-0.744646,-1.58072,-0.996578,2.54129,1.42494,-1.59921,1.47117,-0.744646,-1.58072,-0.996578,2.54129,1.42494,-1.59921,1.51199,-0.777301,-1.565,-1.03518,2.52906,1.38172,-1.54483,-0.574322,0.564663,-0.0388658,0.0516054,0.574298,0.766015,-1.03236,-0.574322,0.564663,-0.0388658,0.0516054,0.574298,0.766015,-1.03236,0.267565,-0.468332,0.959419,0.81199,-0.0188739,-0.147093,0.564517,-0.370646,0.100431,0.217829,-0.437049,0.134444,0.204575,1.19777,-0.531449,1.77991,-2.68427,0.0642598,-0.702751,-2.68427,0.0224314,-0.902751,-0.408143,0.326549,-0.157238,0.386059,0.122301,0.432232,-0.543764,1
1.46492,-0.742573,-1.58415,-0.991562,2.53576,1.43627,-1.60939,1.46492,-0.742573,-1.58415,-0.991562,2.53576,1.43627,-1.60939,1.5066,-0.771981,-1.56628,-1.03391,2.53383,1.38967,-1.55504,-0.519613,0.523652,-0.163864,0.157321,0.434319,0.799931,-1.01664,-0.519613,0.523652,-0.163864,0.157321,0.434319,0.799931,-1.01664,0.263182,-0.467213,0.961309,0.816175,-0.0227939,-0.149596,0.557637,-0.369049,0.0652753,0.197161,-0.434158,0.108893,0.18469,1.17091,-0.530625,1.77216,-2.68512,0.0824153,-0.775087,-2.68512,0.0301391,-0.975087,-0.416775,0.294086,-0.178667,0.423488,0.0193192,0.465995,-0.543467,1
1.46471,-0.740752,-1.58799,-0.991,2.52641,1.44771,-1.61839,1.46471,-0.740752,-1.58799,-0.991,2.52641,1.44771,-1.61839,1.50182,-0.766769,-1.56885,-1.03107,2.53671,1.39804,-1.56509,-0.464724,0.527343,-0.273295,0.344004,0.245654,0.843914,-1.00044,-0.464724,0.527343,-0.273295,0.344004,0.245654,0.843914,-1.00044,0.258699,-0.466144,0.963258,0.820825,-0.0275045,-0.15158,0.550012,-0.392448,0.0495779,0.219397,-0.460282,0.110616,0.207313,1.14402,-0.529808,1.7631,-2.68899,0.081712,-0.905931,-2.68899,0.0440719,-1.10593,-0.371117,0.260179,-0.191437,0.400734,-0.103015,0.496712,-0.53297,1
1.46393,-0.73404,-1.58573,-0.990176,2.52647,1.45454,-1.62882,1.46393,-0.73404,-1.58573,-0.990176,2.52647,1.45454,-1.62882,1.49765,-0.76116,-1.57143,-1.02645,2.53849,1.40656,-1.57507,-0.401398,0.565106,-0.266644,0.492732,0.166211,0.850086,-0.994679,-0.401398,0.565106,-0.266644,0.492732,0.166211,0.850086,-0.994679,0.25392,-0.464722,0.96577,0.825554,-0.0331594,-0.153547,0.542019,-0.406016,0.0765326,0.270993,-0.47893,0.147601,0.257142,1.11724,-0.529749,1.75281,-2.67866,0.00591278,-1.02861,-2.67866,0.0523586,-1.22861,-0.337262,0.271192,-0.142974,0.36275,-0.120242,0.479856,-0.537519,1
1.46071,-0.726195,-1.58331,-0.986246,2.54,1.45733,-1.64031,1.46071,-0.726195,-1.58331,-0.986246,2.54,1.45733,-1.64031,1.49416,-0.75584,-1.57406,-1.02063,2.53982,1.41483,-1.585,-0.334045,0.521926,-0.261766,0.603852,0.111389,0.827196,-0.990341,-0.334045,0.521926,-0.261766,0.603852,0.111389,0.827196,-0.990341,0.249091,-0.463385,0.968398,0.830184,-0.038998,-0.155705,0.533881,-0.407394,0.0627553,0.278668,-0.482377,0.13549,0.262722,1.09119,-0.529378,1.74211,-2.6044,0.0371158,-1.06966,-2.6044,0.0569239,-1.26967,-0.334478,0.296456,-0.092442,0.343845,0.00177194,0.424951,-0.553098,1
1.45721,-0.726902,-1.59656,-0.97689,2.52837,1.47125,-1.65026,1.45721,-0.726902,-1.59656,-0.97689,2.52837,1.47125,-1.65026,1.49091,-0.751045,-1.57701,-1.01415,2.53959,1.42325,-1.59488,-0.325955,0.464149,-0.305929,0.653264,-0.0724824,0.845616,-0.987956,-0.325955,0.464149,-0.305929,0.653264,-0.0724824,0.845616,-0.987956,0.24423,-0.462128,0.970902,0.834954,-0.0452237,-0.157546,0.525343,-0.413037,0.0420177,0.25838,-0.484321,0.125518,0.242925,1.06485,-0.528836,1.73054,-2.63425,0.0541627,-1.15774,-2.63425,0.0528097,-1.35774,-0.337029,0.241434,-0.195544,0.372594,-0.112224,0.479982,-0.553779,1
1.46089,-0.734,-1.61276,-0.975591,2.5049,1.4888,-1.65881,1.46089,-0.734,-1.61276,-0.975591,2.5049,1.4888,-1.65881,1.48768,-0.746495,-1.58009,-1.00758,2.53751,1.43199,-1.60466,-0.32224,0.456191,-0.29591,0.649681,-0.248032,0.880023,-0.97524,-0.32224,0.456191,-0.29591,0.649681,-0.248032,0.880023,-0.97524,0.239446,-0.460632,0.973321,0.839802,-0.0519883,-0.158809,0.516536,-0.405731,0.0697323,0.258125,-0.473247,0.165682,0.243009,1.03752,-0.529147,1.71763,-2.73356,-0.0311375,-1.29097,-2.73356,0.0389778,-1.49097,-0.267892,0.124955,-0.326721,0.319888,-0.326028,0.568041,-0.541472,1
1.46461,-0.721484,-1.60229,-0.977161,2.50113,1.49461,-1.66828,1.46461,-0.721484,-1.60229,-0.977161,2.50113,1.49461,-1.66828,1.48415,-0.742006,-1.5823,-1.00126,2.53512,1.44091,-1.61447,-0.371898,0.442687,-0.19287,0.619594,-0.207946,0.896963,-0.981761,-0.371898,0.442687,-0.19287,0.619594,-0.207946,0.896963,-0.981761,0.234555,-0.458878,0.975795,0.844371,-0.0589665,-0.160211,0.507832,-0.426836,0.0804326,0.262832,-0.497909,0.173886,0.244159,1.01187,-0.528634,1.70382,-2.565,0.0513494,-1.3811,-2.565,0.0293119,-1.5811,-0.195374,0.205219,-0.199882,0.240991,-0.339946,0.536971,-0.53812,1
1.44675,-0.707102,-1.58549,-0.961028,2.52391,1.49192,-1.67989,1.44675,-0.707102,-1.58549,-0.961028,2.52391,1.49192,-1.67989,1.4799,-0.738283,-1.58435,-0.995579,2.53432,1.44946,-1.62445,-0.437678,0.348014,-0.225538,0.552005,-0.0657296,0.843347,-1.00273,-0.437678,0.348014,-0.225538,0.552005,-0.0657296,0.843347,-1.00273,0.229483,-0.45788,0.97776,0.848765,-0.0649792,-0.162253,0.499048,-0.438211,0.00113134,0.197426,-0.504676,0.0795994,0.177653,0.98578,-0.528062,1.68958,-2.60862,0.0571847,-1.42354,-2.60862,0.0274918,-1.62354,-0.33152,0.311805,-0.0113782,0.345511,-0.104046,0.424624,-0.554451,1
1.44286,-0.710327,-1.59258,-0.960566,2.53989,1.49942,-1.69279,1.44286,-0.710327,-1.59258,-0.960566,2.53989,1.49942,-1.69279,1.47557,-0.735167,-1.58716,-0.990055,2.53258,1.45819,-1.63453,-0.42875,0.305543,-0.311727,0.548434,-0.227791,0.893523,-1.00825,-0.42875,0.305543,-0.311727,0.548434,-0.227791,0.893523,-1.00825,0.224531,-0.457169,0.979292,0.853338,-0.0709299,-0.163893,0.489818,-0.427518,-0.0124378,0.162271,-0.487328,0.0769543,0.143734,0.958816,-0.527623,1.67415,-2.69634,0.0439227,-1.54276,-2.69634,0.0328973,-1.74276,-0.327122,0.2484,-0.0542246,0.29489,0.0730782,0.412334,-0.582588,1
1.4412,-0.725084,-1.62475,-0.955236,2.49653,1.52477,-1.69988,1.4412,-0.725084,-1.62475,-0.955236,2.49653,1.52477,-1.69988,1.47159,-0.732046,-1.59157,-0.984931,2.528,1.46791,-1.64453,-0.382695,0.324358,-0.469951,0.501612,-0.539891,0.995854,-0.994368,-0.382695,0.324358,-0.469951,0.501612,-0.539891,0.995854,-0.994368,0.220125,-0.456006,0.980481,0.858254,-0.0777024,-0.164089,0.48004,-0.375943,0.0284468,0.13166,-0.421436,0.142819,0.117267,0.931988,-0.527796,1.65752,-2.68286,-0.0173032,-1.6636,-2.68286,0.0294896,-1.8636,-0.303931,0.0696116,-0.331739,0.296957,-0.3147,0.56858,-0.553478,1
1.45136,-0.728802,-1.64129,-0.959147,2.47797,1.53961,-1.70736,1.45136,-0.728802,-1.64129,-0.959147,2.47797,1.53961,-1.70736,1.46807,-0.728051,-1.59549,-0.980222,2.5212,1.47809,-1.65441,-0.353778,0.420409,-0.333813,0.475835,-0.682146,1.01246,-0.986902,-0.353778,0.420409,-0.333813,0.475835,-0.682146,1.01246,-0.986902,0.216251,-0.453539,0.982071,0.862878,-0.085543,-0.163323,0.470584,-0.346157,0.146199,0.193653,-0.389898,0.273755,0.17748,0.905864,-0.52764,1.64024,-2.61239,0.0156045,-1.72819,-2.61239,0.0260813,-1.92819,-0.167123,-0.00750353,-0.458051,0.210752,-0.432295,0.615186,-0.529469,1
1.43744,-0.697949,-1.61539,-0.950595,2.47933,1.53945,-1.71578,1.43744,-0.697949,-1.61539,-0.950595,2.47933,1.53945,-1.71578,1.46374,-0.724143,-1.59702,-0.975556,2.5174,1.48738,-1.66443,-0.459273,0.364144,-0.107196,0.4627,-0.255344,0.890419,-1.00864,-0.459273,0.364144,-0.107196,0.4627,-0.255344,0.890419,-1.00864,0.211754,-0.451345,0.983944,0.866748,-0.0925475,-0.164246,0.461743,-0.411263,0.0908089,0.203188,-0.468821,0.184325,0.179369,0.879267,-0.527683,1.62245,-2.65971,-0.00433922,-1.7784,-2.65971,0.023739,-1.9784,-0.263026,0.261941,-0.183692,0.249605,-0.38065,0.520733,-0.51348,1
1.41655,-0.684912,-1.60061,-0.966305,2.53243,1.49479,-1.72969,1.41655,-0.684912,-1.60061,-0.966305,2.53243,1.49479,-1.72969,1.45889,-0.721498,-1.59768,-0.970771,2.51784,1.49578,-1.67478,-0.484391,0.235796,-0.0810594,0.485721,0.104711,0.835976,-1.0412,-0.484391,0.235796,-0.0810594,0.485721,0.104711,0.835976,-1.0412,0.206615,-0.450662,0.985334,0.87017,-0.0977112,-0.167305,0.453062,-0.453088,-0.0245288,0.151485,-0.520716,0.0385558,0.122464,0.852927,-0.52692,1.60295,-2.63392,0.076282,-1.94985,-2.63392,0.0210045,-2.14985,-0.423378,0.365861,-0.0292799,0.0446592,0.145912,-0.00990509,-0.549091,1
1.40057,-0.704411,-1.58663,-0.952055,2.53065,1.53682,-1.7436,1.40057,-0.704411,-1.58663,-0.952055,2.53065,1.53682,-1.7436,1.45453,-0.719364,-1.60031,-0.965738,2.5169,1.505,-1.6851,-0.412883,0.219474,-0.332183,0.501528,-0.198473,0.958824,-1.02314,-0.412883,0.219474,-0.332183,0.501528,-0.198473,0.958824,-1.02314,0.201746,-0.450256,0.986187,0.873916,-0.103161,-0.169667,0.443668,-0.411107,-0.0281704,0.101017,-0.464607,0.0598898,0.075632,0.826738,-0.526789,1.58265,-2.61891,0.013113,-2.03065,-2.61891,0.0190569,-2.23065,-0.539558,0.149535,0.136775,0.13683,0.137503,0.31821,-0.584979,1
1.43421,-0.73694,-1.64357,-0.9469,2.47291,1.57917,-1.74911,1.43421,-0.73694,-1.64357,-0.9469,2.47291,1.57917,-1.74911,1.45112,-0.716466,-1.60573,-0.961061,2.51089,1.51572,-1.69496,-0.322644,0.316784,-0.599305,0.470106,-0.732747,1.10728,-0.971683,-0.322644,0.316784,-0.599305,0.470106,-0.732747,1.10728,-0.971683,0.197992,-0.448624,0.986863,0.878141,-0.110426,-0.169244,0.433626,-0.324104,0.0675231,0.0892015,-0.3524,0.201138,0.0702301,0.800491,-0.52641,1.56144,-2.62467,0.0379324,-2.12084,-2.62467,0.0227547,-2.32084,-0.169067,-0.204733,-0.378378,0.141606,-0.379759,0.634561,-0.541494,1
1.43299,-0.707571,-1.66396,-0.954069,2.45311,1.58661,-1.75357,1.43299,-0.707571,-1.66396,-0.954069,2.45311,1.58661,-1.75357,1.44802,-0.712778,-1.61137,-0.956789,2.50193,1.52615,-1.70435,-0.312482,0.377506,-0.518593,0.381797,-0.881654,0.952197,-0.934329,-0.312482,0.377506,-0.518593,0.381797,-0.881654,0.952197,-0.934329,0.194978,-0.445901,0.987835,0.882264,-0.118582,-0.167158,0.4238,-0.261488,0.144175,0.118411,-0.27272,0.281839,0.103409,0.773466,-0.525666,1.53934,-2.70251,0.0744224,-2.2102,-2.70251,0.0348006,-2.4102,-0.150254,0.0520752,-0.525874,0.027198,-0.48818,0.604663,-0.492184,1
1.41364,-0.679821,-1.61524,-0.984275,2.49554,1.53413,-1.76312,1.41364,-0.679821,-1.61524,-0.984275,2.49554,1.53413,-1.76312,1.44423,-0.709471,-1.61406,-0.954562,2.49805,1.53103,-1.71396,-0.417605,0.306993,-0.176811,0.189442,-0.181159,0.339529,-0.97523,-0.417605,0.306993,-0.176811,0.189442,-0.181159,0.339529,-0.97523,0.192565,-0.444131,0.988961,0.885624,-0.1228,-0.166109,0.415931,-0.243861,0.0654971,0.124471,-0.251519,0.127394,0.115784,0.747142,-0.525429,1.51562,-2.63246,0.0236452,-2.37197,-2.63246,0.0399183,-2.57197,-0.305845,0.296499,-0.0117979,-0.297133,-0.0250771,0.0309482,-0.491642,1
1.39896,-0.67702,-1.58848,-1.00899,2.54413,1.47949,-1.77792,1.39896,-0.67702,-1.58848,-1.00899,2.54413,1.47949,-1.77792,1.4389,-0.707412,-1.61316,-0.953126,2.50126,1.53372,-1.72422,-0.559627,0.168051,0.167176,0.129247,0.439916,0.315789,-1.0383,-0.559627,0.168051,0.167176,0.129247,0.439916,0.315789,-1.0383,0.189036,-0.444054,0.989949,0.888172,-0.123963,-0.168564,0.409109,-0.346251,-0.0309778,0.104644,-0.387213,-0.0188513,0.0855546,0.721731,-0.525187,1.49115,-2.54102,0.0242174,-2.44664,-2.54102,0.0414078,-2.64664,-0.399442,0.303919,0.246827,-0.55866,0.428639,-0.542319,-0.536978,1
1.382,-0.711068,-1.6497,-1.00819,2.48357,1.57776,-1.78172,1.382,-0.711068,-1.6497,-1.00819,2.48357,1.57776,-1.78172,1.43359,-0.706586,-1.61162,-0.952226,2.50363,1.5403,-1.73456,-0.508036,0.0602313,0.108742,0.0739769,0.0874157,0.791097,-1.02192,-0.508036,0.0602313,0.108742,0.0739769,0.0874157,0.791097,-1.02192,0.185064,-0.444031,0.990145,0.890338,-0.126325,-0.172126,0.402135,-0.334163,-0.0174982,0.0195741,-0.384115,0.0242514,-0.00683006,0.695566,-0.525079,1.46616,-2.61658,0.010854,-2.49866,-2.61658,0.0346805,-2.69866,-0.515931,-0.0448143,-0.380836,-0.559594,-0.200599,0.374596,-0.471604,1
1.39071,-0.717856,-1.66875,-0.970398,2.44587,1.61349,-1.79098,1.39071,-0.717856,-1.66875,-0.970398,2.44587,1.61349,-1.79098,1.42962,-0.705856,-1.61338,-0.952036,2.49883,1.55094,-1.74408,-0.358565,0.0878226,-0.290169,-0.0111456,-0.658516,1.10301,-0.929436,-0.358565,0.0878226,-0.290169,-0.0111456,-0.658516,1.10301,-0.929436,0.182325,-0.442784,0.989509,0.892924,-0.131632,-0.172725,0.394368,-0.203618,0.0566267,-0.0614793,-0.221683,0.155881,-0.0805351,0.669276,-0.524914,1.43992,-2.62893,0.0164628,-2.62393,-2.62893,0.0313122,-2.82393,-0.389082,-0.119996,-0.553628,-0.183621,-0.529604,0.625493,-0.468957,1
1.40029,-0.68381,-1.6678,-0.995369,2.45353,1.60302,-1.80269,1.40029,-0.68381,-1.6678,-0.995369,2.45353,1.60302,-1.80269,1.42677,-0.703966,-1.61888,-0.95386,2.49157,1.55861,-1.75296,-0.272756,0.228976,-0.609149,-0.257308,-0.648545,0.595427,-0.881498,-0.272756,0.228976,-0.609149,-0.257308,-0.648545,0.595427,-0.881498,0.181959,-0.441032,0.988654,0.896098,-0.135921,-0.169551,0.387023,-0.0118071,0.082336,-0.0880829,0.0236565,0.166987,-0.0825655,0.643827,-0.524762,1.41317,-2.54489,0.0151932,-2.67508,-2.54489,0.0242791,-2.87508,-0.264794,0.201568,-0.489149,-0.41509,-0.38037,0.444104,-0.497309,1
1.40037,-0.679321,-1.61007,-1.01187,2.5049,1.52893,-1.81165,1.40037,-0.679321,-1.61007,-1.01187,2.5049,1.52893,-1.81165,1.42332,-0.700281,-1.62449,-0.958743,2.49104,1.55807,-1.76193,-0.387807,0.411992,-0.500006,-0.554584,0.164907,-0.25086,-0.903297,-0.387807,0.411992,-0.500006,-0.554584,0.164907,-0.25086,-0.903297,0.18319,-0.439966,0.988384,0.899278,-0.135032,-0.165556,0.38165,0.0742329,0.0772296,-0.029568,0.135334,0.0869949,-0.00386849,0.618008,-0.524924,1.38549,-2.58193,-0.0162005,-2.76822,-2.58193,0.0136888,-2.96822,-0.229518,0.209602,0.144167,-0.53129,0.138603,-0.291401,-0.497234,1
1.38584,-0.680196,-1.64076,-1.03026,2.51621,1.51165,-1.81422,1.38584,-0.680196,-1.64076,-1.03026,2.51621,1.51165,-1.81422,1.41741,-0.696331,-1.62715,-0.96589,2.49592,1.55435,-1.77091,-0.665117,0.354047,-0.201472,-0.760993,0.50707,-0.320862,-0.892463,-0.665117,0.354047,-0.201472,-0.760993,0.50707,-0.320862,-0.892463,0.183905,-0.43964,0.988333,0.902042,-0.131389,-0.162985,0.377484,-0.0107123,0.0302085,-0.0506934,0.0384042,0.0103247,-0.0270393,0.591692,-0.524595,1.3569,-2.63159,0.0329375,-2.8594,-2.63159,0.0119524,-3.0594,-0.315709,0.161346,-0.136139,-0.643655,0.202874,-0.427027,-0.433108,1
1.35351,-0.698157,-1.67789,-1.02659,2.4555,1.59437,-1.81577,1.35351,-0.698157,-1.67789,-1.02659,2.4555,1.59437,-1.81577,1.4095,-0.694967,-1.62793,-0.972779,2.4962,1.55673,-1.77966,-0.808308,0.0759579,-0.0691507,-0.638583,-0.186728,0.451721,-0.87354,-0.808308,0.0759579,-0.0691507,-0.638583,-0.186728,0.451721,-0.87354,0.182819,-0.43961,0.987193,0.904712,-0.130822,-0.161399,0.371931,-0.172408,-0.020715,-0.14307,-0.151635,0.0162822,-0.138941,0.565682,-0.524302,1.32709,-2.60098,0.0292599,-2.9804,-2.60098,0.0129036,-3.1804,-0.559894,-0.0319058,-0.499569,-0.538119,-0.40701,0.37642,-0.36107,1
1.35275,-0.710063,-1.68762,-1.01336,2.43865,1.62456,-1.83776,1.35275,-0.710063,-1.68762,-1.01336,2.43865,1.62456,-1.83776,1.40229,-0.694903,-1.63066,-0.978233,2.48819,1.56657,-1.78847,-0.666076,0.00729858,-0.362076,-0.514388,-0.953278,1.09352,-0.886723,-0.666076,0.00729858,-0.362076,-0.514388,-0.953278,1.09352,-0.886723,0.181263,-0.43867,0.9851,0.907671,-0.135136,-0.158677,0.364271,-0.159268,0.0147265,-0.218614,-0.13633,0.119655,-0.223811,0.540022,-0.52414,1.29637,-2.56598,0.0162184,-3.07252,-2.56598,0.0150261,-3.27252,-0.495434,-0.151598,-0.569527,-0.351223,-0.4954,0.579922,-0.492889,1
1.36806,-0.687515,-1.68681,-1.03791,2.44067,1.61973,-1.84837,1.36806,-0.687515,-1.68681,-1.03791,2.44067,1.61973,-1.84837,1.39773,-0.693722,-1.63599,-0.9834,2.47988,1.5753,-1.79736,-0.389329,0.16915,-0.572596,-0.546171,-0.685304,0.704978,-0.884817,-0.389329,0.16915,-0.572596,-0.546171,-0.685304,0.704978,-0.884817,0.181271,-0.437182,0.983151,0.910623,-0.139158,-0.154676,0.357037,0.0137125,0.0655086,-0.184988,0.0585703,0.144407,-0.178625,0.514157,-0.52399,1.26481,-2.58656,0.0150144,-3.15615,-2.58656,0.0165677,-3.35615,-0.296692,0.0620745,-0.508179,-0.545101,-0.392067,0.444302,-0.510049,1
1.36611,-0.685664,-1.66522,-1.05008,2.45621,1.57133,-1.85023,1.36611,-0.685664,-1.66522,-1.05008,2.45621,1.57133,-1.85023,1.39471,-0.690483,-1.64091,-0.990549,2.47947,1.57546,-1.80565,-0.295047,0.367937,-0.42575,-0.765775,0.163469,-0.203353,-0.803119,-0.295047,0.367937,-0.42575,-0.765775,0.163469,-0.203353,-0.803119,0.18329,-0.436087,0.982164,0.913107,-0.137837,-0.150663,0.352897,0.170289,0.102113,-0.0961542,0.233981,0.0987348,-0.0697395,0.487828,-0.523642,1.23215,-2.63286,0.0348032,-3.26571,-2.63286,0.0203013,-3.46571,-0.285991,0.0481876,-0.243083,-0.595295,-0.232574,-0.0413034,-0.445732,1
1.35879,-0.690593,-1.68153,-1.06232,2.45251,1.54209,-1.8409,1.35879,-0.690593,-1.68153,-1.06232,2.45251,1.54209,-1.8409,1.39048,-0.687245,-1.64395,-0.999211,2.48284,1.57134,-1.81295,-0.476792,0.284393,-0.285136,-0.88109,0.292499,-0.384404,-0.720078,-0.476792,0.284393,-0.285136,-0.88109,0.292499,-0.384404,-0.720078,0.185431,-0.435791,0.981386,0.915328,-0.133686,-0.147027,0.350265,0.122876,0.0324322,-0.127483,0.190489,0.00854432,-0.0971733,0.46239,-0.523578,1.19845,-2.54383,0.00633001,-3.3697,-2.54383,0.0223398,-3.5697,-0.316983,-0.0334797,-0.375758,-0.631072,-0.303278,-0.292524,-0.279546,1
1.33713,-0.68589,-1.698,-1.05741,2.43729,1.60363,-1.8541,1.33713,-0.68589,-1.698,-1.05741,2.43729,1.60363,-1.8541,1.38474,-0.686063,-1.64748,-1.00765,2.48046,1.57264,-1.8207,-0.587313,0.0639254,-0.412507,-0.841781,-0.448049,0.342074,-0.80403,-0.587313,0.0639254,-0.412507,-0.841781,-0.448049,0.342074,-0.80403,0.186426,-0.43572,0.979413,0.917946,-0.132543,-0.142936,0.34551,0.019491,-0.024517,-0.25956,0.0803266,0.0127629,-0.242085,0.437087,-0.524062,1.16426,-2.53032,-0.048393,-3.41957,-2.53032,0.0126517,-3.61957,-0.476123,0.00173559,-0.505122,-0.497581,-0.431671,0.309945,-0.333936,1
1.32797,-0.702683,-1.7107,-1.0578,2.43124,1.63339,-1.87695,1.32797,-0.702683,-1.7107,-1.0578,2.43124,1.63339,-1.87695,1.3796,-0.685758,-1.65396,-1.01613,2.47091,1.58151,-1.82954,-0.483887,0.0428926,-0.715812,-0.831187,-1.06561,1.01862,-0.902387,-0.483887,0.0428926,-0.715812,-0.831187,-1.06561,1.01862,-0.902387,0.187403,-0.434795,0.976106,0.920909,-0.135653,-0.137489,0.33856,0.0391269,0.0222079,-0.351588,0.101912,0.119665,-0.344683,0.410634,-0.523154,1.12924,-2.64525,0.0907838,-3.50159,-2.64525,0.0143183,-3.70159,-0.516306,-0.16925,-0.56736,-0.416722,-0.396695,0.518826,-0.474117,1
1.33775,-0.690204,-1.71455,-1.08117,2.41956,1.63258,-1.88139,1.33775,-0.690204,-1.71455,-1.08117,2.41956,1.63258,-1.88139,1.3752,-0.68459,-1.66214,-1.02484,2.46101,1.59011,-1.83806,-0.428195,0.139224,-0.822486,-0.902327,-0.921543,0.727257,-0.810717,-0.428195,0.139224,-0.822486,-0.902327,-0.921543,0.727257,-0.810717,0.189043,-0.433566,0.97276,0.923852,-0.13885,-0.131048,0.331729,0.11149,0.0319816,-0.343107,0.193757,0.112586,-0.328193,0.38514,-0.523037,1.09262,-2.54949,0.0117302,-3.66234,-2.54949,0.0162782,-3.86234,-0.374513,-0.0561438,-0.524124,-0.563272,-0.41447,0.424657,-0.433352,1
1.33591,-0.688004,-1.71776,-1.08975,2.40583,1.61754,-1.88182,1.33591,-0.688004,-1.71776,-1.08975,2.40583,1.61754,-1.88182,1.37101,-0.68306,-1.66946,-1.03446,2.45333,1.59176,-1.84438,-0.432213,0.142525,-0.712805,-0.962934,-0.732747,-0.0101624,-0.58858,-0.432213,0.142525,-0.712805,-0.962934,-0.732747,-0.0101624,-0.58858,0.191835,-0.432964,0.969909,0.926569,-0.13875,-0.123359,0.327111,0.180438,-0.00902204,-0.308923,0.291888,0.02868,-0.277838,0.360056,-0.522947,1.05509,-2.50834,0.00904799,-3.75292,-2.50834,0.0170071,-3.95292,-0.350953,-0.0494426,-0.48306,-0.552915,-0.474952,0.257819,-0.374349,1
1.32662,-0.702992,-1.72446,-1.09484,2.40057,1.59738,-1.88258,1.32662,-0.702992,-1.72446,-1.09484,2.40057,1.59738,-1.88258,1.36573,-0.682333,-1.6771,-1.04365,2.44638,1.59096,-1.85002,-0.551537,0.0598838,-0.778202,-0.898113,-0.688627,-0.0136257,-0.575397,-0.551537,0.0598838,-0.778202,-0.898113,-0.688627,-0.0136257,-0.575397,0.194166,-0.433603,0.966879,0.929551,-0.137295,-0.115371,0.322141,0.0901579,-0.110983,-0.343858,0.201769,-0.077769,-0.314143,0.334739,-0.523019,1.01664,-2.53172,-0.00722408,-3.84513,-2.53172,0.0148456,-4.04513,-0.391123,-0.206591,-0.473584,-0.511892,-0.458108,0.0642576,-0.325576,1
1.31657,-0.701981,-1.73834,-1.10896,2.39173,1.62577,-1.89301,1.31657,-0.701981,-1.73834,-1.10896,2.39173,1.62577,-1.89301,1.36058,-0.681641,-1.68491,-1.05248,2.43944,1.59685,-1.85716,-0.489389,0.0678411,-0.778993,-0.878867,-0.699901,0.777003,-0.765379,-0.489389,0.0678411,-0.778993,-0.878867,-0.699901,0.777003,-0.765379,0.195392,-0.433632,0.963361,0.932159,-0.138479,-0.109446,0.316108,0.0333006,-0.0419859,-0.375372,0.102733,0.0209217,-0.366459,0.309759,-0.523575,0.977163,-2.49801,-0.0556469,-3.9474,-2.49801,0.00822672,-4.1474,-0.440097,-0.203392,-0.53436,-0.564809,-0.477055,0.289228,-0.35844,1
1.34474,-0.722188,-1.73527,-1.11306,2.40481,1.62143,-1.89572,1.34474,-0.722188,-1.73527,-1.11306,2.40481,1.62143,-1.89572,1.356,-0.680633,-1.69337,-1.06143,2.43189,1.60686,-1.86538,-0.455378,0.104308,-0.871041,-0.905951,-0.779129,0.991109,-0.833292,-0.455378,0.104308,-0.871041,-0.905951,-0.779129,0.991109,-0.833292,0.196397,-0.432993,0.959488,0.934509,-0.141424,-0.104254,0.309554,0.0407326,-0.0141005,-0.399282,0.10862,0.061864,-0.395023,0.301179,-0.536887,0.940505,-0.858003,-1.33116,-3.66576,-0.858003,-0.140349,-3.86576,-0.112626,-0.415551,-0.418947,-0.516313,-0.270772,0.145679,-0.303364,1
1.37105,-0.733507,-1.73265,-1.11262,2.40205,1.63658,-1.88984,1.37105,-0.733507,-1.73265,-1.11262,2.40205,1.63658,-1.88984,1.3519,-0.680025,-1.70159,-1.07055,2.42347,1.61595,-1.87317,-0.402601,0.0420157,-0.802002,-0.913441,-0.873448,0.756858,-0.750543,-0.402601,0.0420157,-0.802002,-0.913441,-0.873448,0.756858,-0.750543,0.197787,-0.432441,0.955473,0.936687,-0.144047,-0.0986085,0.303553,0.0835997,-0.0283147,-0.406578,0.163472,0.0368229,-0.397993,0.301059,-0.549781,0.905004,-0.0120252,-1.28939,-3.55012,-0.0120252,-0.386455,-3.75012,0.191555,-0.534819,-0.310622,-0.420736,-0.214258,0.206307,-0.166705,1
1.37427,-0.740091,-1.75394,-1.13585,2.38248,1.68107,-1.91096,1.37427,-0.740091,-1.75394,-1.13585,2.38248,1.68107,-1.91096,1.34737,-0.680487,-1.70954,-1.07953,2.41459,1.62064,-1.87975,-0.480485,-0.0823777,-0.798778,-0.910684,-0.890513,0.395003,-0.629673,-0.480485,-0.0823777,-0.798778,-0.910684,-0.890513,0.395003,-0.629673,0.199452,-0.433004,0.951372,0.939042,-0.144725,-0.0918084,0.298037,0.0629991,-0.136997,-0.442911,0.16227,-0.0931069,-0.42575,0.300454,-0.58113,0.831721,-0.525981,-1.7656,-3.77297,-0.525981,-1.00595,-3.97297,0.268952,-0.596038,-0.443972,-0.563279,-0.321104,0.604239,-0.312177,1
1.37386,-0.748071,-1.76889,-1.14855,2.36588,1.69006,-1.92145,1.37386,-0.748071,-1.76889,-1.14855,2.36588,1.69006,-1.92145,1.34217,-0.681988,-1.71758,-1.0884,2.40593,1.62434,-1.88573,-0.522344,-0.161052,-0.795495,-0.892073,-0.840295,0.393829,-0.58526,-0.522344,-0.161052,-0.795495,-0.892073,-0.840295,0.393829,-0.58526,0.200714,-0.434525,0.946892,0.941471,-0.144554,-0.0849917,0.292425,0.0192655,-0.194776,-0.472598,0.115512,-0.159139,-0.456057,0.299775,-0.59681,0.793424,-0.0678807,-1.56804,-3.82978,-0.0678807,-1.29668,-4.02978,0.316925,-0.660829,-0.513088,-0.60145,-0.400495,0.657214,-0.35718,1
1.36187,-0.753102,-1.77619,-1.1647,2.34645,1.69479,-1.93481,1.36187,-0.753102,-1.77619,-1.1647,2.34645,1.69479,-1.93481,1.33758,-0.683902,-1.72474,-1.09718,2.39979,1.62771,-1.89084,-0.436575,-0.20145,-0.682965,-0.885051,-0.539029,0.329355,-0.4717,-0.436575,-0.20145,-0.682965,-0.885051,-0.539029,0.329355,-0.4717,0.20181,-0.436406,0.942426,0.943502,-0.143475,-0.0795125,0.287919,0.0299782,-0.204535,-0.464139,0.108678,-0.19362,-0.447382,0.299428,-0.612199,0.754213,-0.0347674,-1.53887,-3.92107,-0.0347674,-1.48953,-4.12107,0.242851,-0.691992,-0.514465,-0.675221,-0.533385,0.670817,-0.439691,1
1.34757,-0.760035,-1.78071,-1.17509,2.3387,1.69713,-1.94607,1.34757,-0.760035,-1.78071,-1.17509,2.3387,1.69713,-1.94607,1.33387,-0.68689,-1.73097,-1.10632,2.39575,1.63192,-1.89455,-0.350123,-0.344706,-0.623753,-0.936294,-0.387475,0.468453,-0.36599,-0.350123,-0.344706,-0.623753,-0.936294,-0.387475,0.468453,-0.36599,0.202795,-0.438714,0.937557,0.944983,-0.14169,-0.0755812,0.284987,0.036873,-0.243293,-0.529734,0.0967514,-0.248432,-0.514399,0.298895,-0.628295,0.714303,-0.0532657,-1.60959,-3.99102,-0.0532657,-1.54428,-4.19102,0.137086,-0.731443,-0.497358,-0.687729,-0.570515,0.652087,-0.515246,1
1.35205,-0.767163,-1.78426,-1.17952,2.33905,1.70547,-1.95373,1.35205,-0.767163,-1.78426,-1.17952,2.33905,1.70547,-1.95373,1.33131,-0.691395,-1.73726,-1.11564,2.39135,1.63955,-1.89914,-0.225862,-0.472168,-0.623801,-0.919361,-0.4742,0.879658,-0.499911,-0.225862,-0.472168,-0.623801,-0.919361,-0.4742,0.879658,-0.499911,0.203618,-0.441205,0.931811,0.946216,-0.140581,-0.0729605,0.282117,0.0352292,-0.240821,-0.59474,0.0723374,-0.234862,-0.587658,0.297709,-0.644489,0.672552,-0.118586,-1.61936,-4.17507,-0.118586,-1.5887,-4.37507,0.207412,-0.757685,-0.469933,-0.63882,-0.523003,0.659171,-0.545948,1
1.35902,-0.773338,-1.79109,-1.18044,2.34363,1.71829,-1.95539,1.35902,-0.773338,-1.79109,-1.18044,2.34363,1.71829,-1.95539,1.32956,-0.696182,-1.74407,-1.12514,2.38482,1.6513,-1.90548,-0.161903,-0.475775,-0.705519,-0.971647,-0.718884,1.26491,-0.678016,-0.161903,-0.475775,-0.705519,-0.971647,-0.718884,1.26491,-0.678016,0.204424,-0.442976,0.925513,0.947306,-0.141396,-0.0707205,0.2786,0.0538216,-0.186554,-0.646482,0.0861042,-0.155032,-0.646833,0.296741,-0.660126,0.629939,-0.0968546,-1.56373,-4.26133,-0.0968546,-1.60056,-4.46133,0.294534,-0.771558,-0.470179,-0.553025,-0.411984,0.66989,-0.499114,1
1.36004,-0.778686,-1.80116,-1.18215,2.34419,1.73318,-1.95919,1.36004,-0.778686,-1.80116,-1.18215,2.34419,1.73318,-1.95919,1.32836,-0.700991,-1.75164,-1.13498,2.37551,1.66568,-1.91362,-0.111415,-0.485494,-0.768986,-0.979137,-0.9981,1.46819,-0.859273,-0.111415,-0.485494,-0.768986,-0.979137,-0.9981,1.46819,-0.859273,0.205484,-0.444047,0.918747,0.948399,-0.143768,-0.0679817,0.274316,0.0729002,-0.148026,-0.679044,0.108947,-0.0954001,-0.684202,0.295925,-0.675666,0.586678,-0.0815153,-1.55395,-4.32613,-0.0815153,-1.58045,-4.52613,0.31686,-0.776949,-0.495256,-0.47174,-0.313223,0.674987,-0.455649,1
1.36007,-0.783675,-1.81025,-1.18667,2.34043,1.74746,-1.96576,1.36007,-0.783675,-1.81025,-1.18667,2.34043,1.74746,-1.96576,1.3274,-0.706282,-1.75959,-1.14495,2.36403,1.68008,-1.92336,-0.0866799,-0.551262,-0.797915,-1.01445,-1.18263,1.43104,-1.00738,-0.0866799,-0.551262,-0.797915,-1.01445,-1.18263,1.43104,-1.00738,0.206837,-0.445045,0.911616,0.949655,-0.146417,-0.0645085,0.269363,0.0971013,-0.157436,-0.724967,0.144051,-0.102969,-0.72897,0.29578,-0.690604,0.542575,-0.0145614,-1.49382,-4.41028,-0.0145614,-1.57194,-4.61028,0.32671,-0.773931,-0.506659,-0.417159,-0.235979,0.673849,-0.423995,1
1.35793,-0.790477,-1.81984,-1.199,2.32805,1.75929,-1.97167,1.35793,-0.790477,-1.81984,-1.199,2.32805,1.75929,-1.97167,1.32697,-0.712506,-1.76754,-1.15512,2.35255,1.69329,-1.9338,-0.0310399,-0.638499,-0.795724,-1.00201,-1.10864,1.28645,-1.04486,-0.0310399,-0.638499,-0.795724,-1.00201,-1.10864,1.28645,-1.04486,0.208474,-0.446514,0.904099,0.950987,-0.148094,-0.0610143,0.264515,0.111335,-0.19893,-0.753942,0.159272,-0.161193,-0.754039,0.2955,-0.705968,0.497995,-0.0279486,-1.53643,-4.45796,-0.0279486,-1.56108,-4.65796,0.309628,-0.779714,-0.523021,-0.438801,-0.245055,0.660027,-0.378665,1
1.34978,-0.798916,-1.83053,-1.21737,2.3044,1.77009,-1.98189,1.34978,-0.798916,-1.83053,-1.21737,2.3044,1.77009,-1.98189,1.3271,-0.719438,-1.77546,-1.16468,2.34377,1.70579,-1.94354,0.0345274,-0.714781,-0.79147,-0.945051,-0.791688,1.23634,-0.942846,0.0345274,-0.714781,-0.79147,-0.945051,-0.791688,1.23634,-0.942846,0.209798,-0.448713,0.896507,0.952237,-0.148571,-0.0587532,0.260228,0.0931316,-0.252277,-0.767101,0.124952,-0.238298,-0.764473,0.294783,-0.721881,0.452098,-0.0717044,-1.59124,-4.58974,-0.0717044,-1.55069,-4.78974,0.22679,-0.794783,-0.550669,-0.526851,-0.393789,0.643057,-0.383568,1
1.34063,-0.807577,-1.83815,-1.23318,2.28903,1.78003,-1.99723,1.34063,-0.807577,-1.83815,-1.23318,2.28903,1.78003,-1.99723,1.32862,-0.727232,-1.7834,-1.17336,2.33829,1.71803,-1.95188,0.19856,-0.80095,-0.792225,-0.826069,-0.475047,1.23274,-0.801033,0.19856,-0.80095,-0.792225,-0.826069,-0.475047,1.23274,-0.801033,0.210971,-0.451601,0.888831,0.953246,-0.147833,-0.0581644,0.257068,0.101563,-0.29166,-0.770317,0.111384,-0.299174,-0.766391,0.294316,-0.737663,0.405558,-0.0467211,-1.57821,-4.65394,-0.0467211,-1.54762,-4.85394,0.120072,-0.803452,-0.547513,-0.598217,-0.492535,0.620069,-0.453439,1
1.33701,-0.816897,-1.84503,-1.24322,2.28463,1.78977,-2.0087,1.33701,-0.816897,-1.84503,-1.24322,2.28463,1.78977,-2.0087,1.33168,-0.735668,-1.79176,-1.18086,2.33491,1.73035,-1.95907,0.335195,-0.845268,-0.858751,-0.724321,-0.309949,1.22658,-0.695306,0.335195,-0.845268,-0.858751,-0.724321,-0.309949,1.22658,-0.695306,0.21213,-0.454921,0.881103,0.954055,-0.146466,-0.0587532,0.254705,0.118974,-0.316058,-0.778059,0.119234,-0.334451,-0.773177,0.29345,-0.753269,0.357748,-0.0865638,-1.56063,-4.78106,-0.0865638,-1.5525,-4.98106,0.0532489,-0.812286,-0.532757,-0.623604,-0.502784,0.594123,-0.496287,1
1.34374,-0.825778,-1.85266,-1.24932,2.28368,1.80224,-2.01628,1.34374,-0.825778,-1.85266,-1.24932,2.28368,1.80224,-2.01628,1.33574,-0.744219,-1.80063,-1.18771,2.33156,1.743,-1.96558,0.425942,-0.85983,-0.893866,-0.679666,-0.363562,1.26529,-0.641783,0.425942,-0.85983,-0.893866,-0.679666,-0.363562,1.26529,-0.641783,0.213496,-0.45814,0.873325,0.954704,-0.145242,-0.0594602,0.252803,0.148163,-0.297551,-0.786649,0.147395,-0.312587,-0.78289,0.292692,-0.768471,0.308904,-0.0758559,-1.52024,-4.8844,-0.0758559,-1.55515,-5.0844,0.0799823,-0.815584,-0.520305,-0.616165,-0.478802,0.592461,-0.507036,1
1.35847,-0.833726,-1.86288,-1.25362,2.28102,1.8176,-2.02067,1.35847,-0.833726,-1.86288,-1.25362,2.28102,1.8176,-2.02067,1.34036,-0.752951,-1.80964,-1.19466,2.32604,1.75538,-1.97217,0.465802,-0.877746,-0.903813,-0.710143,-0.628277,1.242,-0.6751,0.465802,-0.877746,-0.903813,-0.710143,-0.628277,1.242,-0.6751,0.215428,-0.460955,0.865348,0.955273,-0.144393,-0.0592366,0.251188,0.195161,-0.259879,-0.811097,0.207368,-0.264801,-0.807441,0.291883,-0.78383,0.258599,-0.0809133,-1.53585,-5.0305,-0.0809133,-1.5574,-5.23049,0.181138,-0.807749,-0.532315,-0.589556,-0.450142,0.622144,-0.485019,1
1.37083,-0.841834,-1.87425,-1.25542,2.28149,1.8323,-2.02345,1.37083,-0.841834,-1.87425,-1.25542,2.28149,1.8323,-2.02345,1.34472,-0.761709,-1.81887,-1.20229,2.31736,1.76731,-1.97983,0.421268,-0.878465,-0.92898,-0.795569,-0.941773,1.1695,-0.800506,0.421268,-0.878465,-0.92898,-0.795569,-0.941773,1.1695,-0.800506,0.217871,-0.463292,0.857071,0.955941,-0.144039,-0.057478,0.24925,0.2236,-0.228185,-0.845473,0.257459,-0.222094,-0.840589,0.291426,-0.799038,0.207702,-0.0456959,-1.52078,-5.08968,-0.0456959,-1.5497,-5.28968,0.261112,-0.801251,-0.553724,-0.531274,-0.358716,0.649973,-0.436151,1
1.37112,-0.851535,-1.88588,-1.26137,2.28066,1.84338,-2.02559,1.37112,-0.851535,-1.88588,-1.26137,2.28066,1.84338,-2.02559,1.34845,-0.770587,-1.82815,-1.21125,2.30663,1.77867,-1.98877,0.356815,-0.89317,-0.920399,-0.916444,-1.09951,1.12632,-0.922425,0.356815,-0.89317,-0.920399,-0.916444,-1.09951,1.12632,-0.922425,0.220672,-0.46534,0.848348,0.956752,-0.143631,-0.0545484,0.247024,0.234207,-0.206123,-0.887067,0.280477,-0.198187,-0.880617,0.291065,-0.813929,0.156073,-0.0360996,-1.48913,-5.16288,-0.0360996,-1.53377,-5.36288,0.226736,-0.809481,-0.577362,-0.501181,-0.259711,0.647083,-0.368129,1
1.36736,-0.861031,-1.89706,-1.27147,2.26717,1.85298,-2.03313,1.36736,-0.861031,-1.89706,-1.27147,2.26717,1.85298,-2.03313,1.35124,-0.779463,-1.83719,-1.22097,2.29606,1.78945,-1.99842,0.251267,-0.889563,-0.903741,-0.996189,-1.0289,1.07798,-0.970638,0.251267,-0.889563,-0.903741,-0.996189,-1.0289,1.07798,-0.970638,0.22327,-0.467425,0.83947,0.957702,-0.142762,-0.0514451,0.244497,0.198735,-0.211138,-0.904973,0.247228,-0.210807,-0.896501,0.291007,-0.828479,0.104053,-0.00575185,-1.455,-5.20199,-0.00575185,-1.51548,-5.40199,0.161215,-0.815686,-0.598735,-0.504981,-0.288851,0.635267,-0.347094,1
1.38634,-0.898628,-1.93203,-1.22055,2.22035,1.91585,-2.05411,1.38634,-0.898628,-1.93203,-1.22055,2.22035,1.91585,-2.05411,1.36814,-0.867042,-1.89977,-1.2752,2.26661,1.85506,-2.03439,0.0176772,0.0424252,0.0159274,-8.3887e-05,1.91991e-05,3.59547e-05,0.000467389,0.0176772,0.0424252,0.0159274,-8.3887e-05,1.91991e-05,3.59547e-05,0.000467389,0.229987,-0.499291,0.770066,0.964033,-0.112068,-0.0503294,0.235686,0.0131456,0.0226803,0.0233459,0.0125404,0.025371,0.0227187,0.283147,-1.1869,0.102611,0.000593066,-0.556231,1.48902,0.000593066,-0.507654,1.28902,0.181977,-0.315866,-0.322633,0.546502,-0.462614,0.607878,-0.197211,1
1.38751,-0.901458,-1.93338,-1.22058,2.22023,1.91684,-2.05546,1.38751,-0.901458,-1.93338,-1.22058,2.22023,1.91684,-2.05546,1.36831,-0.866681,-1.89963,-1.2752,2.26661,1.85506,-2.03439,0.0161551,0.0336166,0.0129912,-2.39552e-05,0,0,0.000407457,0.0161551,0.0336166,0.0129912,-2.39552e-05,0,0,0.000407457,0.230101,-0.49907,0.770261,0.96398,-0.112246,-0.0503142,0.23582,0.0115308,0.0185686,0.0185996,0.0110006,0.0206803,0.018098,0.28307,-1.19289,0.116077,-0.00773072,-0.598919,1.34666,-0.00773072,-0.530883,1.14666,0.191961,-0.347777,-0.337566,0.546247,-0.46373,0.617841,-0.21073,1
1.38905,-0.904035,-1.93356,-1.22074,2.22036,1.91738,-2.05639,1.38905,-0.904035,-1.93356,-1.22074,2.22036,1.91738,-2.05639,1.36846,-0.866402,-1.89952,-1.2752,2.26661,1.85506,-2.03439,0.0148009,0.0260783,0.0103067,2.39552e-05,-5.75275e-05,2.39771e-05,0.000215706,0.0148009,0.0260783,0.0103067,2.39552e-05,-5.75275e-05,2.39771e-05,0.000215706,0.230202,-0.498894,0.770411,0.963937,-0.112384,-0.0503049,0.235935,0.010111,0.0150055,0.0144936,0.00965486,0.0166261,0.0141006,0.28323,-1.1985,0.128426,0.0160068,-0.560439,1.23489,0.0160068,-0.544835,1.03489,0.205892,-0.376338,-0.340386,0.54458,-0.462414,0.623213,-0.220019,1
