Afshin1997/kuka_rl_ros2/src/catch_and_throw/output_files/tm/nn_ema7.00_jvws1_realball_D23H14M58S16/recorded_data.csv
pure_target_joint_0,pure_target_joint_1,pure_target_joint_2,pure_target_joint_3,pure_target_joint_4,pure_target_joint_5,pure_target_joint_6,target_joint_0,target_joint_1,target_joint_2,target_joint_3,target_joint_4,target_joint_5,target_joint_6,pos_joint_0,pos_joint_1,pos_joint_2,pos_joint_3,pos_joint_4,pos_joint_5,pos_joint_6,vel_joint_0,vel_joint_1,vel_joint_2,vel_joint_3,vel_joint_4,vel_joint_5,vel_joint_6,vel_smooth_joint_0,vel_smooth_joint_1,vel_smooth_joint_2,vel_smooth_joint_3,vel_smooth_joint_4,vel_smooth_joint_5,vel_smooth_joint_6,ee_pos_x,ee_pos_y,ee_pos_z,ee_or_w,ee_or_x,ee_or_y,ee_or_z,ee_vel_x,ee_vel_y,ee_vel_z,ball_pos_x,ball_pos_y,ball_pos_z,ball_raw_vx,ball_raw_vy,ball_raw_vz,ball_ema_vx,ball_ema_vy,ball_ema_vz,action_0,action_1,action_2,action_3,action_4,action_5,action_6,command_published
1.73366,-1.02453,-1.84118,-1.06169,1.98374,1.18022,-0.862278,1.73366,-1.02453,-1.84118,-1.06169,1.98374,1.18022,-0.862278,1.78025,-1.06472,-1.81514,-1.11705,1.93725,1.11685,-0.916322,0,0,0,0,0,0,0,0,0,0,0,0,0,0,0.531067,-0.454446,0.694243,0.574533,0.175214,0.152594,0.78481,0,0,0,2.99006,-0.494808,0.272931,-3.11844,0.243023,5.21694,-3.15392,0.209216,5.33803,-0.465885,0.401916,-0.260412,0.553576,0.464909,0.633684,0.540436,1
1.73152,-1.01961,-1.81716,-1.06429,1.98536,1.17606,-0.858938,1.73152,-1.01961,-1.81716,-1.06429,1.98536,1.17606,-0.858938,1.78025,-1.06472,-1.81514,-1.11705,1.93725,1.11685,-0.916322,0,0,0,0,0,0,0,0,0,0,0,0,0,0,0.531067,-0.454446,0.694243,0.574533,0.175214,0.152594,0.78481,0,0,0,2.95796,-0.492567,0.324049,-3.20976,0.22411,5.11188,-3.14985,0.221655,5.2495,-0.487278,0.451077,-0.0202244,0.527553,0.481101,0.592096,0.573839,1
1.70608,-0.989843,-1.7719,-1.0964,1.9954,1.13995,-0.848343,1.70608,-0.989843,-1.7719,-1.0964,1.9954,1.13995,-0.848343,1.77477,-1.06,-1.8182,-1.11054,1.94271,1.1243,-0.909972,-1.09488,0.944548,-0.611998,1.30097,1.09259,1.48923,1.27009,-1.09488,0.944548,-0.611998,1.30097,1.09259,1.48923,1.27009,0.525986,-0.458987,0.698032,0.57738,0.171579,0.149359,0.784146,-0.945892,-0.881982,0.720157,2.92644,-0.490712,0.373887,-3.15213,0.185487,4.98377,-3.15737,0.224633,5.13943,-0.686944,0.701525,0.463021,0.141393,0.526898,0.156476,0.616292,1
1.71163,-0.978708,-1.76109,-1.0914,2.0082,1.16399,-0.84033,1.71163,-0.978708,-1.76109,-1.0914,2.0082,1.16399,-0.84033,1.76543,-1.05157,-1.82046,-1.10004,1.95198,1.13618,-0.89903,-0.902976,0.851151,0.0878457,0.95204,0.888965,1.06208,1.06765,-0.902976,0.851151,0.0878457,0.95204,0.888965,1.06208,1.06765,0.517125,-0.465651,0.705593,0.581513,0.164606,0.143507,0.783679,-0.789966,-0.532182,0.804165,2.89518,-0.488944,0.422586,-3.12574,0.176769,4.86988,-3.15582,0.217444,5.02332,-0.538017,0.728646,0.593727,0.0863824,0.5622,0.278069,0.586995,1
1.70022,-0.96885,-1.7608,-1.07661,2.02523,1.14607,-0.845099,1.70022,-0.96885,-1.7608,-1.07661,2.02523,1.14607,-0.845099,1.75494,-1.041,-1.81441,-1.09591,1.96054,1.14076,-0.888916,-1.30113,1.36245,1.13218,-0.0132043,0.928336,-0.021619,1.08049,-1.30113,1.36245,1.13218,-0.0132043,0.928336,-0.021619,1.08049,0.509094,-0.468375,0.715224,0.582798,0.158581,0.138496,0.784868,-0.77957,-0.0634797,1.15493,2.86383,-0.486854,0.470371,-3.13473,0.209075,4.7785,-3.15137,0.209076,4.90452,-0.547184,0.721546,0.536134,0.192953,0.646886,0.0531687,0.438176,1
1.71032,-0.955111,-1.74601,-1.08381,2.02755,1.18326,-0.828499,1.71032,-0.955111,-1.74601,-1.08381,2.02755,1.18326,-0.828499,1.74478,-1.02838,-1.80374,-1.09543,1.96975,1.1434,-0.879,-0.882959,1.32277,1.13578,0.107208,1.02371,0.548143,1.02979,-0.882959,1.32277,1.13578,0.107208,1.02371,0.548143,1.02979,0.501631,-0.467944,0.726519,0.581925,0.151914,0.133651,0.787669,-0.669579,0.132224,1.17952,2.83306,-0.484937,0.517572,-3.07772,0.19162,4.72014,-3.14208,0.201549,4.79232,-0.344642,0.73268,0.577267,0.116203,0.577967,0.398595,0.505014,1
1.69537,-0.942568,-1.73878,-1.07513,2.04476,1.1749,-0.81593,1.69537,-0.942568,-1.73878,-1.07513,2.04476,1.1749,-0.81593,1.73611,-1.01623,-1.79427,-1.0928,1.98026,1.14585,-0.871007,-0.955714,1.26184,0.89134,0.431117,1.19755,0.0059454,0.689933,-0.955714,1.26184,0.89134,0.431117,1.19755,0.0059454,0.689933,0.494487,-0.467873,0.737578,0.581933,0.145357,0.128455,0.789762,-0.700712,-0.10075,1.11333,2.80182,-0.482519,0.564491,-3.12355,0.241828,4.69189,-3.13257,0.199943,4.70075,-0.40743,0.736653,0.554852,0.176706,0.644969,0.290538,0.550762,1
1.70209,-0.931309,-1.72738,-1.07971,2.04652,1.19703,-0.809516,1.70209,-0.931309,-1.72738,-1.07971,2.04652,1.19703,-0.809516,1.72936,-1.00414,-1.78513,-1.09007,1.99048,1.15027,-0.863325,-0.506964,1.30554,1.04165,0.166602,0.987191,0.87855,0.927401,-0.506964,1.30554,1.04165,0.166602,0.987191,0.87855,0.927401,0.487945,-0.466568,0.748509,0.581292,0.137715,0.123513,0.792388,-0.539113,0.333346,1.14206,2.77075,-0.479936,0.610416,-3.10652,0.258285,4.5925,-3.11775,0.20816,4.61891,-0.272695,0.728285,0.577474,0.103537,0.560445,0.467596,0.538087,1
1.68119,-0.917935,-1.72125,-1.05901,2.06193,1.19955,-0.801956,1.68119,-0.917935,-1.72125,-1.05901,2.06193,1.19955,-0.801956,1.72339,-0.991819,-1.77563,-1.08766,2.0007,1.15659,-0.854145,-0.746224,1.31152,0.98107,0.333705,1.17314,0.487815,1.01762,-0.746224,1.31152,0.98107,0.333705,1.17314,0.487815,1.01762,0.481482,-0.46426,0.75957,0.579437,0.129021,0.118487,0.795969,-0.649451,0.139046,1.14215,2.73901,-0.477865,0.65474,-3.17416,0.207096,4.43243,-3.11834,0.217467,4.53693,-0.421998,0.738845,0.543804,0.286491,0.612295,0.429688,0.521887,1
1.68346,-0.906219,-1.71071,-1.06745,2.06787,1.21228,-0.791376,1.68346,-0.906219,-1.71071,-1.06745,2.06787,1.21228,-0.791376,1.71798,-0.979602,-1.76614,-1.08543,2.01065,1.16324,-0.844938,-0.423201,1.28599,1.03204,0.15222,0.955185,0.899848,0.943246,-0.423201,1.28599,1.03204,0.15222,0.955185,0.899848,0.943246,0.475257,-0.461404,0.770393,0.577131,0.120119,0.113731,0.799723,-0.503223,0.412081,1.09724,2.70765,-0.475759,0.697701,-3.13604,0.210592,4.29607,-3.12329,0.223331,4.44618,-0.345196,0.733832,0.554268,0.179817,0.572147,0.490418,0.535626,1
1.66489,-0.893086,-1.70527,-1.05516,2.07759,1.21792,-0.779748,1.66489,-0.893086,-1.70527,-1.05516,2.07759,1.21792,-0.779748,1.71201,-0.967348,-1.75684,-1.08173,2.0204,1.17101,-0.836215,-0.820705,1.31583,0.947925,0.60498,1.10596,0.760142,0.91227,-0.820705,1.31583,0.947925,0.60498,1.10596,0.760142,0.91227,0.46827,-0.459,0.781445,0.575661,0.110339,0.108914,0.802856,-0.771656,0.0804063,1.18327,2.67621,-0.473654,0.739853,-3.14441,0.2105,4.21522,-3.1303,0.223598,4.34627,-0.471185,0.742624,0.515705,0.265689,0.57188,0.469131,0.564667,1
1.66307,-0.880934,-1.69407,-1.056,2.08786,1.22715,-0.77316,1.66307,-0.880934,-1.69407,-1.056,2.08786,1.22715,-0.77316,1.70546,-0.955041,-1.74773,-1.0777,2.03028,1.17882,-0.827393,-0.58579,1.3001,0.985835,0.272967,1.00086,0.891032,0.959121,-0.58579,1.3001,0.985835,0.272967,1.00086,0.891032,0.959121,0.460905,-0.456784,0.792401,0.574352,0.100497,0.104152,0.805712,-0.607998,0.332421,1.09173,2.64482,-0.471184,0.781102,-3.13857,0.24702,4.12484,-3.13936,0.225593,4.23785,-0.423912,0.741077,0.536616,0.217017,0.575736,0.483273,0.54233,1
1.64646,-0.868316,-1.68736,-1.04925,2.09895,1.23021,-0.761596,1.64646,-0.868316,-1.68736,-1.04925,2.09895,1.23021,-0.761596,1.69841,-0.942699,-1.7389,-1.07399,2.03974,1.18688,-0.81806,-0.892609,1.32115,0.895551,0.501257,1.00785,0.826545,1.02022,-0.892609,1.32115,0.895551,0.501257,1.00785,0.826545,1.02022,0.453379,-0.454432,0.803042,0.572838,0.0906272,0.0998164,0.808505,-0.78788,0.134531,1.11567,2.6135,-0.468687,0.820893,-3.13241,0.249761,3.97914,-3.14154,0.22576,4.12032,-0.519544,0.743831,0.51543,0.247326,0.592073,0.433267,0.564637,1
1.64309,-0.85574,-1.67705,-1.05016,2.1082,1.23962,-0.75339,1.64309,-0.85574,-1.67705,-1.05016,2.1082,1.23962,-0.75339,1.69078,-0.930296,-1.73015,-1.06992,2.04932,1.19483,-0.808811,-0.738007,1.31448,0.960728,0.370809,1.02626,0.860469,0.949352,-0.738007,1.31448,0.960728,0.370809,1.02626,0.860469,0.949352,0.445501,-0.45223,0.813621,0.571551,0.0807162,0.095564,0.810976,-0.698556,0.277019,1.08595,2.58203,-0.465954,0.859292,-3.14691,0.273213,3.83989,-3.14298,0.231707,4.00119,-0.476933,0.745561,0.530987,0.197619,0.588828,0.447904,0.554217,1
1.62846,-0.843074,-1.6692,-1.04835,2.1207,1.23845,-0.74206,1.62846,-0.843074,-1.6692,-1.04835,2.1207,1.23845,-0.74206,1.6827,-0.917895,-1.72138,-1.06605,2.05914,1.20234,-0.799567,-0.965125,1.32025,0.905886,0.447218,1.05985,0.742139,1.01111,-0.965125,1.32025,0.905886,0.447218,1.05985,0.742139,1.01111,0.43751,-0.449995,0.823986,0.570184,0.0710538,0.0914243,0.813316,-0.803783,0.161655,1.07476,2.551,-0.464144,0.896751,-3.1033,0.181043,3.7459,-3.13573,0.234791,3.88662,-0.5424,0.748204,0.521746,0.177019,0.615556,0.361046,0.575065,1
1.62392,-0.830583,-1.65873,-1.04979,2.13006,1.24697,-0.733287,1.62392,-0.830583,-1.65873,-1.04979,2.13006,1.24697,-0.733287,1.67429,-0.90545,-1.71264,-1.06244,2.06904,1.20961,-0.790203,-0.830781,1.32373,0.947817,0.327031,1.04289,0.79919,0.980311,-0.830781,1.32373,0.947817,0.327031,1.04289,0.79919,0.980311,0.429475,-0.447595,0.834128,0.568646,0.0615434,0.0875074,0.815596,-0.723165,0.293614,1.04452,2.51977,-0.462314,0.933633,-3.12235,0.183025,3.68819,-3.13163,0.230669,3.77779,-0.503684,0.748671,0.539143,0.126488,0.610284,0.373595,0.569163,1
1.61115,-0.817582,-1.65028,-1.05195,2.14309,1.24129,-0.72177,1.61115,-0.817582,-1.65028,-1.05195,2.14309,1.24129,-0.72177,1.66567,-0.892966,-1.70385,-1.05951,2.07917,1.21611,-0.780729,-0.990795,1.32857,0.922514,0.297282,1.10597,0.594723,1.02972,-0.990795,1.32857,0.922514,0.297282,1.10597,0.594723,1.02972,0.421633,-0.444907,0.843958,0.566719,0.0525396,0.0838318,0.817949,-0.763887,0.237976,1.01455,2.48829,-0.460151,0.969627,-3.14815,0.216237,3.59938,-3.12983,0.224259,3.67229,-0.545211,0.753846,0.535657,0.0755985,0.639228,0.251738,0.589586,1
1.60636,-0.805132,-1.63936,-1.06052,2.15289,1.24648,-0.712002,1.60636,-0.805132,-1.63936,-1.06052,2.15289,1.24648,-0.712002,1.6569,-0.880462,-1.69495,-1.05721,2.08946,1.22205,-0.771144,-0.878347,1.32824,0.964647,0.197579,1.08139,0.663526,1.00811,-0.878347,1.32824,0.964647,0.197579,1.08139,0.663526,1.00811,0.413988,-0.4419,0.853496,0.564401,0.0439225,0.0803934,0.820402,-0.695646,0.350653,0.98682,2.45661,-0.457734,1.00418,-3.16811,0.241685,3.4555,-3.13324,0.218071,3.56803,-0.505417,0.753305,0.555965,-0.0330488,0.634348,0.244294,0.591422,1
1.59266,-0.791931,-1.63021,-1.06086,2.16748,1.22469,-0.701943,1.59266,-0.791931,-1.63021,-1.06086,2.16748,1.22469,-0.701943,1.64811,-0.867901,-1.68595,-1.05582,2.09997,1.2269,-0.761417,-0.984219,1.33997,0.949757,0.103126,1.1483,0.383144,1.05576,-0.984219,1.33997,0.949757,0.103126,1.1483,0.383144,1.05576,0.406757,-0.438489,0.862686,0.561542,0.036031,0.0772625,0.823045,-0.685013,0.335606,0.946717,2.42562,-0.455529,1.03807,-3.09935,0.220531,3.38857,-3.13282,0.213944,3.47207,-0.554423,0.759705,0.557419,-0.0503461,0.675163,-0.0220724,0.594746,1
1.59264,-0.779237,-1.61831,-1.07094,2.1773,1.23206,-0.690623,1.59264,-0.779237,-1.61831,-1.07094,2.1773,1.23206,-0.690623,1.63937,-0.855308,-1.67678,-1.05597,2.11066,1.23069,-0.751499,-0.878943,1.33614,0.996406,-0.120965,1.12459,0.420538,1.05178,-0.878943,1.33614,0.996406,-0.120965,1.12459,0.420538,1.05178,0.400164,-0.434476,0.871374,0.557878,0.0290071,0.0745371,0.82606,-0.58234,0.471382,0.88582,2.39498,-0.453402,1.07072,-3.06396,0.212738,3.26514,-3.12528,0.21238,3.37665,-0.467256,0.760711,0.584674,-0.149666,0.666399,0.0137305,0.608761,1
1.57619,-0.765534,-1.61057,-1.05927,2.19168,1.2043,-0.68195,1.57619,-0.765534,-1.61057,-1.05927,2.19168,1.2043,-0.68195,1.63046,-0.842658,-1.66742,-1.05702,2.12172,1.23162,-0.741581,-1.00646,1.35087,0.991095,-0.102255,1.21886,-0.184634,1.05558,-1.00646,1.35087,0.991095,-0.102255,1.21886,-0.184634,1.05558,0.394213,-0.430288,0.879726,0.55382,0.0236068,0.072159,0.829167,-0.570252,0.399241,0.877021,2.36395,-0.451163,1.10243,-3.10233,0.223911,3.1716,-3.11926,0.219249,3.27737,-0.542627,0.771236,0.56856,-0.0224843,0.699637,-0.273181,0.59631,1
1.58474,-0.75286,-1.59787,-1.07605,2.20188,1.21837,-0.670501,1.58474,-0.75286,-1.59787,-1.07605,2.20188,1.21837,-0.670501,1.62209,-0.829945,-1.65779,-1.05905,2.13299,1.23096,-0.731483,-0.784332,1.35039,1.0515,-0.31657,1.17988,0.0295002,1.0881,-0.784332,1.35039,1.0515,-0.31657,1.17988,0.0295002,1.0881,0.389062,-0.425489,0.887766,0.548945,0.0191887,0.0700917,0.832694,-0.437639,0.588907,0.824317,2.33261,-0.449099,1.13314,-3.1347,0.206387,3.07053,-3.11359,0.221267,3.17384,-0.373547,0.770852,0.599241,-0.169988,0.688871,-0.125853,0.609817,1
1.56048,-0.739081,-1.58856,-1.05119,2.21532,1.17818,-0.661661,1.56048,-0.739081,-1.58856,-1.05119,2.21532,1.17818,-0.661661,1.61365,-0.817119,-1.64815,-1.06031,2.14448,1.22794,-0.721425,-0.997378,1.37371,1.00082,0.0277894,1.25685,-0.629388,1.05125,-0.997378,1.37371,1.00082,0.0277894,1.25685,-0.629388,1.05125,0.384092,-0.420881,0.895898,0.544274,0.0157432,0.0681568,0.835986,-0.533754,0.393793,0.891869,2.30134,-0.447026,1.16268,-3.12667,0.207296,2.95411,-3.10901,0.217909,3.06946,-0.531641,0.78038,0.59587,0.0912163,0.708415,-0.497626,0.597647,1
1.58325,-0.726236,-1.57681,-1.0812,2.22681,1.19967,-0.649347,1.58325,-0.726236,-1.57681,-1.0812,2.22681,1.19967,-0.649347,1.60637,-0.804219,-1.63834,-1.06205,2.15612,1.22436,-0.711348,-0.575929,1.3677,1.07787,-0.372812,1.21856,-0.159609,1.08777,-0.575929,1.3677,1.07787,-0.372812,1.21856,-0.159609,1.08777,0.379901,-0.41551,0.903834,0.538777,0.0126547,0.066423,0.839731,-0.299875,0.716842,0.792927,2.27023,-0.444983,1.19101,-3.11081,0.204286,2.83281,-3.10735,0.212729,2.96476,-0.23121,0.779826,0.615296,-0.191518,0.706869,-0.246893,0.620014,1
1.55507,-0.713845,-1.56999,-1.04916,2.24026,1.1652,-0.642382,1.55507,-0.713845,-1.56999,-1.04916,2.24026,1.1652,-0.642382,1.59873,-0.791239,-1.6283,-1.06223,2.16782,1.21832,-0.701274,-1.0186,1.389,1.05816,0.293953,1.26499,-1.06891,1.05492,-1.0186,1.389,1.05816,0.293953,1.26499,-1.06891,1.05492,0.375548,-0.410575,0.912117,0.533789,0.010319,0.0646786,0.843078,-0.549543,0.356385,0.951618,2.23927,-0.442819,1.21854,-3.09579,0.216392,2.75328,-3.11119,0.211089,2.85804,-0.43659,0.773941,0.583062,0.130618,0.724379,-0.531125,0.588918,1
1.58505,-0.699579,-1.55873,-1.0811,2.25079,1.18269,-0.630938,1.58505,-0.699579,-1.55873,-1.0811,2.25079,1.18269,-0.630938,1.59295,-0.778193,-1.61813,-1.06331,2.17968,1.21196,-0.691065,-0.258335,1.38361,1.10018,-0.476455,1.25505,-0.327236,1.11096,-0.258335,1.38361,1.10018,-0.476455,1.25505,-0.327236,1.11096,0.372329,-0.404521,0.920076,0.52749,0.00834547,0.0631855,0.847167,-0.110337,0.893098,0.746389,2.20827,-0.440712,1.24534,-3.10073,0.210753,2.67986,-3.1138,0.210263,2.75696,-0.0789386,0.786134,0.594002,-0.177913,0.711085,-0.292745,0.601272,1
1.54486,-0.688028,-1.55034,-1.04368,2.26495,1.15181,-0.620182,1.54486,-0.688028,-1.55034,-1.04368,2.26495,1.15181,-0.620182,1.58749,-0.765244,-1.60819,-1.0635,2.19168,1.20519,-0.681018,-0.86327,1.36876,1.01718,0.381876,1.29359,-1.06498,1.02889,-0.86327,1.36876,1.01718,0.381876,1.29359,-1.06498,1.02889,0.36914,-0.398572,0.928028,0.521322,0.00647661,0.0616236,0.851107,-0.490799,0.405599,0.927822,2.1773,-0.438532,1.27172,-3.09668,0.217921,2.63841,-3.10967,0.210258,2.66476,-0.426341,0.772155,0.578471,0.198266,0.732603,-0.533869,0.608365,1
1.57064,-0.672871,-1.54202,-1.07206,2.2742,1.1669,-0.612621,1.57064,-0.672871,-1.54202,-1.07206,2.2742,1.1669,-0.612621,1.58384,-0.752198,-1.59841,-1.06409,2.20367,1.1984,-0.671127,0.0322267,1.40126,1.05689,-0.453181,1.25485,-0.418481,1.07027,0.0322267,1.40126,1.05689,-0.453181,1.25485,-0.418481,1.07027,0.36688,-0.391692,0.935728,0.51424,0.00476081,0.0603422,0.855508,0.0235867,1.0152,0.716313,2.14633,-0.436172,1.29685,-3.09732,0.235993,2.51225,-3.10316,0.214421,2.57693,-0.132056,0.793268,0.56392,-0.0797888,0.705298,-0.315018,0.585058,1
1.52706,-0.661472,-1.53235,-1.03248,2.28806,1.13842,-0.600315,1.52706,-0.661472,-1.53235,-1.03248,2.28806,1.13842,-0.600315,1.57939,-0.739202,-1.58865,-1.06345,2.21575,1.1913,-0.660974,-0.919563,1.36276,1.02022,0.526593,1.30999,-1.05166,1.0863,-0.919563,1.36276,1.02022,0.526593,1.30999,-1.05166,1.0863,0.364042,-0.385323,0.943587,0.507625,0.00296014,0.058907,0.859557,-0.539932,0.382036,0.936502,2.115,-0.433989,1.32075,-3.13308,0.218314,2.39033,-3.10292,0.21792,2.48952,-0.523226,0.777299,0.562968,0.309676,0.723073,-0.52879,0.606586,1
1.54695,-0.64623,-1.52565,-1.07322,2.2994,1.14063,-0.592343,1.54695,-0.64623,-1.52565,-1.07322,2.2994,1.14063,-0.592343,1.57478,-0.726101,-1.5792,-1.06241,2.22772,1.18434,-0.651062,-0.11028,1.41753,0.990015,-0.257002,1.23764,-0.46431,1.02369,-0.11028,1.41753,0.990015,-0.257002,1.23764,-0.46431,1.02369,0.361109,-0.378948,0.951374,0.501272,0.00108686,0.0576541,0.863366,-0.0653672,0.934945,0.72656,2.08359,-0.431986,1.34355,-3.14026,0.200358,2.27959,-3.10861,0.218538,2.39834,-0.278323,0.798716,0.535531,-0.108094,0.716747,-0.437025,0.587192,1
1.51045,-0.635545,-1.51623,-1.02141,2.31133,1.12259,-0.580635,1.51045,-0.635545,-1.51623,-1.02141,2.31133,1.12259,-0.580635,1.56874,-0.712987,-1.56984,-1.0599,2.23963,1.17713,-0.641113,-1.1099,1.37188,0.998259,0.730018,1.2897,-1.03096,1.08647,-1.1099,1.37188,0.998259,0.730018,1.2897,-1.03096,1.08647,0.357305,-0.373302,0.959399,0.495877,-0.00099897,0.0562984,0.866565,-0.652797,0.30735,0.960895,2.05297,-0.429652,1.3652,-3.06189,0.233376,2.165,-3.1091,0.219629,2.29786,-0.582872,0.774421,0.536068,0.384899,0.716977,-0.545459,0.604777,1
1.52719,-0.620488,-1.51078,-1.0612,2.3246,1.11646,-0.571127,1.52719,-0.620488,-1.51078,-1.0612,2.3246,1.11646,-0.571127,1.56186,-0.699801,-1.56076,-1.05862,2.25168,1.16883,-0.631152,-0.397149,1.42663,0.935089,-0.388861,1.27082,-0.750864,1.03349,-0.397149,1.42663,0.935089,-0.388861,1.27082,-0.750864,1.03349,0.353861,-0.367626,0.966907,0.490424,-0.00199906,0.0553626,0.869721,-0.0835415,0.864599,0.650097,2.02195,-0.42763,1.38592,-3.10283,0.202173,2.07235,-3.10838,0.218542,2.19064,-0.346738,0.793132,0.499811,-0.0257892,0.729245,-0.523696,0.600248,1
1.49301,-0.60921,-1.50125,-1.01519,2.33502,1.10551,-0.560221,1.49301,-0.60921,-1.50125,-1.01519,2.33502,1.10551,-0.560221,1.55427,-0.686696,-1.55189,-1.05576,2.26363,1.16047,-0.621192,-1.16682,1.36209,0.949422,0.914829,1.27008,-1.00885,1.07998,-1.16682,1.36209,0.949422,0.914829,1.27008,-1.00885,1.07998,0.349798,-0.362493,0.974626,0.485706,-0.00331599,0.0542719,0.872429,-0.704929,0.271259,0.968211,1.99076,-0.425429,1.40545,-3.11856,0.220123,1.95278,-3.10857,0.2169,2.07771,-0.612629,0.774857,0.506398,0.405707,0.713902,-0.549649,0.609702,1
1.50268,-0.594601,-1.49673,-1.04057,2.34862,1.09716,-0.550635,1.50268,-0.594601,-1.49673,-1.04057,2.34862,1.09716,-0.550635,1.54655,-0.673612,-1.54336,-1.05284,2.27574,1.15137,-0.611103,-0.515555,1.41464,0.867587,-0.222644,1.30102,-0.929674,1.06453,-0.515555,1.41464,0.867587,-0.222644,1.30102,-0.929674,1.06453,0.345914,-0.357431,0.982142,0.480987,-0.00410868,0.0532811,0.875098,-0.128193,0.777078,0.645446,1.95953,-0.423206,1.42377,-3.12299,0.222334,1.83238,-3.10895,0.21563,1.96621,-0.438646,0.790109,0.466244,0.122721,0.728784,-0.542116,0.604686,1
1.47346,-0.582593,-1.4888,-1.00852,2.35832,1.08607,-0.539116,1.47346,-0.582593,-1.4888,-1.00852,2.35832,1.08607,-0.539116,1.53825,-0.660536,-1.53503,-1.04928,2.28777,1.14236,-0.600979,-1.20465,1.36676,0.89968,0.907799,1.25819,-0.981423,1.08534,-1.20465,1.36676,0.89968,0.907799,1.25819,-0.981423,1.08534,0.341742,-0.352577,0.989648,0.476637,-0.00502869,0.0523189,0.877528,-0.694911,0.29468,0.92978,1.92828,-0.421089,1.44141,-3.12487,0.211674,1.76358,-3.10886,0.216015,1.85954,-0.647828,0.779428,0.462288,0.407592,0.705499,-0.562885,0.618635,1
1.47411,-0.568869,-1.48321,-1.02181,2.3723,1.07887,-0.528897,1.47411,-0.568869,-1.48321,-1.02181,2.3723,1.07887,-0.528897,1.52938,-0.647466,-1.52703,-1.04472,2.29982,1.13323,-0.590837,-0.710895,1.40774,0.806703,0.11068,1.29943,-0.960484,1.07055,-0.710895,1.40774,0.806703,0.11068,1.29943,-0.960484,1.07055,0.337204,-0.348062,0.997225,0.472799,-0.00605962,0.0512962,0.879655,-0.264964,0.64682,0.692084,1.89723,-0.419102,1.45824,-3.10544,0.198722,1.68359,-3.11035,0.21501,1.75844,-0.552632,0.785966,0.438181,0.229156,0.724754,-0.543568,0.619399,1
1.45348,-0.556406,-1.47748,-1.0003,2.38193,1.06719,-0.518411,1.45348,-0.556406,-1.47748,-1.0003,2.38193,1.06719,-0.518411,1.52004,-0.634361,-1.5194,-1.04004,2.31176,1.12395,-0.580591,-1.24024,1.37854,0.814645,0.839227,1.24003,-1.00856,1.10445,-1.24024,1.37854,0.814645,0.839227,1.24003,-1.00856,1.10445,0.332648,-0.343623,1.00464,0.469177,-0.0069101,0.0504598,0.881634,-0.653674,0.325481,0.869885,1.86555,-0.416997,1.47392,-3.16782,0.210491,1.56813,-3.12211,0.212009,1.65996,-0.66561,0.779552,0.419201,0.397369,0.701719,-0.567602,0.621794,1
1.44753,-0.542859,-1.47144,-1.00589,2.39505,1.05897,-0.507601,1.44753,-0.542859,-1.47144,-1.00589,2.39505,1.05897,-0.507601,1.50981,-0.621298,-1.51197,-1.03463,2.3237,1.11472,-0.570216,-0.950632,1.39611,0.765878,0.341405,1.29414,-0.954701,1.10028,-0.950632,1.39611,0.765878,0.341405,1.29414,-0.954701,1.10028,0.327672,-0.339522,1.01206,0.466038,-0.00790179,0.0495722,0.88334,-0.391331,0.536513,0.715455,1.83456,-0.415115,1.48843,-3.09905,0.188226,1.45022,-3.1246,0.208983,1.56052,-0.622876,0.784388,0.40529,0.287367,0.713528,-0.557538,0.626153,1
1.43319,-0.530358,-1.46604,-0.99238,2.40609,1.04904,-0.497301,1.43319,-0.530358,-1.46604,-0.99238,2.40609,1.04904,-0.497301,1.49949,-0.608236,-1.50494,-1.02927,2.33558,1.10542,-0.559844,-1.2253,1.38018,0.73124,0.771275,1.2342,-1.01811,1.10331,-1.2253,1.38018,0.73124,0.771275,1.2342,-1.01811,1.10331,0.322864,-0.335361,1.01927,0.462952,-0.00869183,0.0488512,0.884993,-0.595038,0.365285,0.808283,1.80362,-0.413296,1.50179,-3.09435,0.18186,1.3366,-3.12183,0.202406,1.46022,-0.663039,0.778783,0.388999,0.368851,0.705068,-0.563834,0.625436,1
1.42482,-0.517167,-1.45981,-0.993115,2.41871,1.0401,-0.486506,1.42482,-0.517167,-1.45981,-0.993115,2.41871,1.0401,-0.486506,1.48861,-0.595179,-1.49815,-1.02352,2.34738,1.096,-0.549409,-1.09415,1.39325,0.711268,0.469308,1.2696,-0.986016,1.11332,-1.09415,1.39325,0.711268,0.469308,1.2696,-0.986016,1.11332,0.317913,-0.331335,1.02641,0.460178,-0.00943802,0.0482067,0.886467,-0.44432,0.485925,0.711932,1.77335,-0.411375,1.51445,-3.02641,0.192043,1.26615,-3.10907,0.196655,1.36072,-0.637904,0.780123,0.383417,0.303998,0.713347,-0.558988,0.629027,1
1.41314,-0.504425,-1.45361,-0.984801,2.43055,1.03086,-0.476156,1.41314,-0.504425,-1.45361,-0.984801,2.43055,1.03086,-0.476156,1.47784,-0.582137,-1.49161,-1.01803,2.35922,1.08664,-0.538951,-1.18906,1.37884,0.680992,0.683014,1.2481,-1.00134,1.10911,-1.18906,1.37884,0.680992,0.683014,1.2481,-1.00134,1.10911,0.313236,-0.327119,1.03329,0.457234,-0.0100168,0.047683,0.888011,-0.526791,0.418895,0.747688,1.74324,-0.408844,1.52612,-3.0115,0.253195,1.16633,-3.08866,0.199604,1.25865,-0.647035,0.777126,0.379965,0.332281,0.713344,-0.557802,0.627946,1
1.40453,-0.491519,-1.44718,-0.983717,2.4431,1.02206,-0.465475,1.40453,-0.491519,-1.44718,-0.983717,2.4431,1.02206,-0.465475,1.46698,-0.569134,-1.48522,-1.01244,2.37107,1.07727,-0.528469,-1.1226,1.38382,0.676645,0.514651,1.26864,-0.989884,1.11744,-1.1226,1.38382,0.676645,0.514651,1.26864,-0.989884,1.11744,0.308648,-0.32284,1.04004,0.454285,-0.0105341,0.0472093,0.889542,-0.437057,0.489133,0.68854,1.71253,-0.406705,1.53686,-3.07111,0.213873,1.07398,-3.07122,0.204414,1.15805,-0.6245,0.776145,0.380436,0.287251,0.720269,-0.552086,0.629945,1
1.39422,-0.478761,-1.44055,-0.977418,2.45536,1.01313,-0.455175,1.39422,-0.478761,-1.44055,-0.977418,2.45536,1.01313,-0.455175,1.45628,-0.556142,-1.47887,-1.00719,2.383,1.06796,-0.517971,-1.14892,1.37717,0.672632,0.596196,1.26632,-0.988042,1.11349,-1.14892,1.37717,0.672632,0.596196,1.26632,-0.988042,1.11349,0.304366,-0.318301,1.04656,0.451056,-0.010904,0.0468325,0.891199,-0.458043,0.479531,0.695251,1.68157,-0.404501,1.54642,-3.09539,0.220364,0.955868,-3.0585,0.209853,1.0595,-0.620631,0.77381,0.383252,0.297719,0.723561,-0.548343,0.627958,1
1.38558,-0.465859,-1.43438,-0.975262,2.46782,1.00452,-0.444548,1.38558,-0.465859,-1.43438,-0.975262,2.46782,1.00452,-0.444548,1.44573,-0.543185,-1.47253,-1.00211,2.39499,1.05872,-0.507466,-1.09703,1.37582,0.675076,0.489796,1.28098,-0.976205,1.1182,-1.09703,1.37582,0.675076,0.489796,1.28098,-0.976205,1.1182,0.300326,-0.313553,1.0529,0.447595,-0.0111888,0.0465137,0.892956,-0.392617,0.528941,0.652206,1.64985,-0.40282,1.55506,-3.17211,0.168067,0.864339,-3.068,0.211222,0.962671,-0.601462,0.773268,0.381466,0.268479,0.728321,-0.542063,0.62918,1
1.37858,-0.446846,-1.42499,-0.979024,2.48645,0.991383,-0.428775,1.37858,-0.446846,-1.42499,-0.979024,2.48645,0.991383,-0.428775,1.43056,-0.524207,-1.46313,-0.994965,2.41275,1.04528,-0.492057,-0.967821,1.21019,0.601484,0.467263,1.13464,-0.856213,0.982128,-0.967821,1.21019,0.601484,0.467263,1.13464,-0.856213,0.982128,0.294854,-0.306162,1.06188,0.442037,-0.0114729,0.0461385,0.895736,-0.391967,0.537361,0.649561,1.61947,-0.400555,1.56259,-3.03785,0.226513,0.753427,-3.07535,0.213122,0.863974,-0.519822,0.773607,0.381405,0.159414,0.737064,-0.539002,0.632821,1
1.37813,-0.434723,-1.41782,-0.973875,2.49967,0.983544,-0.419444,1.37813,-0.434723,-1.41782,-0.973875,2.49967,0.983544,-0.419444,1.42061,-0.5113,-1.45677,-0.990607,2.42493,1.03627,-0.481548,-0.932884,1.21006,0.596289,0.408612,1.14224,-0.845445,0.985267,-0.932884,1.21006,0.596289,0.408612,1.14224,-0.845445,0.985267,0.291606,-0.300785,1.06768,0.437815,-0.0114593,0.0460146,0.897813,-0.342176,0.572346,0.616105,1.55812,-0.396436,1.57571,-3.0864,0.21278,0.656378,-3.08768,0.205174,0.669843,-0.424841,0.765771,0.389523,0.167314,0.747423,-0.527219,0.621045,1
1.36927,-0.420937,-1.41201,-0.9658,2.51347,0.975064,-0.408348,1.36927,-0.420937,-1.41201,-0.9658,2.51347,0.975064,-0.408348,1.41132,-0.497043,-1.44974,-0.988045,2.43854,1.02634,-0.469875,-0.871692,1.3367,0.659087,0.24022,1.27592,-0.930808,1.09445,-0.871692,1.3367,0.659087,0.24022,1.27592,-0.930808,1.09445,0.290496,-0.297139,1.07069,0.43457,-0.0109841,0.0461503,0.899388,-0.222451,0.733587,0.596831,1.52694,-0.394216,1.58074,-3.11806,0.222,0.502956,-3.08768,0.206613,0.579825,-0.420503,0.761057,0.377315,0.222442,0.749273,-0.512737,0.615266,1
1.36135,-0.406601,-1.40813,-0.962333,2.52666,0.965983,-0.397217,1.36135,-0.406601,-1.40813,-0.962333,2.52666,0.965983,-0.397217,1.40398,-0.483258,-1.44268,-0.98491,2.45206,1.01687,-0.458719,-0.688251,1.29244,0.662033,0.293853,1.26783,-0.887492,1.04588,-0.688251,1.29244,0.662033,0.293853,1.26783,-0.887492,1.04588,0.287925,-0.286682,1.07882,0.424925,-0.00997147,0.0463276,0.903987,-0.147993,0.682323,0.508997,1.52694,-0.394216,1.58074,-3.11806,0.222,0.502956,-3.08768,0.206613,0.579825,-0.426216,0.76657,0.345505,0.225773,0.745963,-0.508886,0.615023,1
1.35026,-0.392874,-1.40252,-0.955982,2.54027,0.957504,-0.38571,1.35026,-0.392874,-1.40252,-0.955982,2.54027,0.957504,-0.38571,1.3963,-0.469472,-1.4359,-0.980683,2.46564,1.00762,-0.447577,-0.719828,1.29245,0.636062,0.396316,1.27345,-0.867041,1.04464,-0.719828,1.29245,0.636062,0.396316,1.27345,-0.867041,1.04464,0.285912,-0.27968,1.08444,0.41855,-0.00977357,0.0462458,0.906963,-0.180218,0.662658,0.519604,1.49602,-0.392407,1.58465,-3.09172,0.180945,0.390363,-3.08516,0.20575,0.489955,-0.460358,0.765988,0.333817,0.247013,0.746249,-0.501198,0.618675,1
1.34373,-0.379341,-1.39883,-0.951829,2.55404,0.949738,-0.374815,1.34373,-0.379341,-1.39883,-0.951829,2.55404,0.949738,-0.374815,1.38857,-0.455565,-1.42976,-0.976624,2.47914,0.998413,-0.436438,-0.724693,1.30388,0.575838,0.38056,1.26535,-0.863577,1.04441,-0.724693,1.30388,0.575838,0.38056,1.26535,-0.863577,1.04441,0.284179,-0.272651,1.08978,0.412319,-0.00930008,0.0464042,0.909809,-0.156774,0.664183,0.494326,1.43424,-0.388725,1.58905,-3.07679,0.191027,0.174153,-3.09191,0.197776,0.29502,-0.448387,0.762239,0.309288,0.247954,0.748996,-0.486754,0.616229,1
1.33278,-0.36558,-1.39383,-0.945431,2.56751,0.940846,-0.363349,1.33278,-0.36558,-1.39383,-0.945431,2.56751,0.940846,-0.363349,1.3801,-0.441698,-1.42373,-0.972058,2.49266,0.989364,-0.425217,-0.794422,1.30015,0.564921,0.428095,1.26773,-0.848399,1.05203,-0.794422,1.30015,0.564921,0.428095,1.26773,-0.848399,1.05203,0.282187,-0.265839,1.0951,0.406429,-0.00897218,0.0465264,0.912453,-0.179585,0.64369,0.49128,1.43424,-0.388725,1.58905,-3.07679,0.191027,0.174153,-3.09191,0.197776,0.29502,-0.473189,0.761176,0.299019,0.266275,0.748514,-0.485181,0.618679,1
1.32629,-0.35179,-1.39073,-0.943131,2.58104,0.933374,-0.352353,1.32629,-0.35179,-1.39073,-0.943131,2.58104,0.933374,-0.352353,1.37205,-0.427905,-1.41822,-0.967583,2.50624,0.980599,-0.414068,-0.754171,1.2932,0.516465,0.419531,1.2729,-0.821803,1.04527,-0.754171,1.2932,0.516465,0.419531,1.2729,-0.821803,1.04527,0.280494,-0.258987,1.10015,0.400438,-0.00854675,0.0466987,0.915093,-0.152636,0.646952,0.466773,1.40339,-0.386769,1.58983,-3.08529,0.195634,0.0781178,-3.09448,0.194246,0.190218,-0.457586,0.761148,0.274922,0.244524,0.747965,-0.472246,0.617147,1
1.33453,-0.340248,-1.38143,-0.939805,2.59569,0.928255,-0.342825,1.33453,-0.340248,-1.38143,-0.939805,2.59569,0.928255,-0.342825,1.36336,-0.414119,-1.41283,-0.962683,2.51979,0.971806,-0.402849,-0.814514,1.29253,0.505887,0.459421,1.27076,-0.824422,1.05185,-0.814514,1.29253,0.505887,0.459421,1.27076,-0.824422,1.05185,0.278646,-0.252294,1.10516,0.394746,-0.00815669,0.0468809,0.917557,-0.166767,0.6319,0.462907,1.34142,-0.382505,1.58809,-5.47458,1.32156,1.38751,-2.92102,0.115611,-0.136894,-0.288329,0.738705,0.313983,0.228782,0.759015,-0.435504,0.600235,1
1.34899,-0.327166,-1.37657,-0.946582,2.60932,0.921089,-0.332036,1.34899,-0.327166,-1.37657,-0.946582,2.60932,0.921089,-0.332036,1.35516,-0.400332,-1.40794,-0.958358,2.53334,0.963305,-0.391679,-0.768805,1.29262,0.458251,0.405489,1.27009,-0.797016,1.04722,-0.768805,1.29262,0.458251,0.405489,1.27009,-0.797016,1.04722,0.277314,-0.245438,1.10979,0.38884,-0.00748907,0.047244,0.920063,-0.145274,0.727441,0.491701,1.34142,-0.382505,1.58809,-5.47458,1.32156,1.38751,-2.92102,0.115611,-0.136894,-0.0617097,0.731659,0.313682,0.117766,0.759834,-0.42216,0.596436,1
1.3661,-0.314634,-1.37998,-0.948219,2.62183,0.919298,-0.322339,1.3661,-0.314634,-1.37998,-0.948219,2.62183,0.919298,-0.322339,1.3506,-0.387041,-1.40208,-0.954254,2.54713,0.955552,-0.380873,-0.427899,1.24606,0.549796,0.384771,1.29316,-0.726882,1.01317,-0.427899,1.24606,0.549796,0.384771,1.29316,-0.726882,1.01317,0.277042,-0.241232,1.11218,0.384583,-0.00738235,0.0472714,0.92185,-0.0495985,0.842665,0.472937,1.31067,-0.380445,1.58609,-3.07447,0.206074,-0.199676,-3.00463,0.161253,-0.181992,0.15499,0.724076,0.220975,0.0603559,0.746937,-0.362537,0.585341,1
1.33835,-0.307572,-1.38081,-0.921037,2.62853,0.921275,-0.314576,1.33835,-0.307572,-1.38081,-0.921037,2.62853,0.921275,-0.314576,1.35041,-0.380006,-1.39908,-0.953353,2.55444,0.951502,-0.375134,-0.0377658,1.40715,0.599378,0.180315,1.46155,-0.809923,1.14773,-0.0377658,1.40715,0.599378,0.180315,1.46155,-0.809923,1.14773,0.277655,-0.232556,1.11616,0.37526,-0.00662332,0.0475686,0.925674,0.159206,0.989923,0.379394,1.27951,-0.37856,1.58287,-3.11623,0.18844,-0.322044,-3.09143,0.20375,-0.22492,-0.120624,0.724341,0.182678,0.323162,0.740949,-0.302277,0.605585,1
1.31763,-0.290714,-1.3917,-0.923213,2.63901,0.909435,-0.302051,1.31763,-0.290714,-1.3917,-0.923213,2.63901,0.909435,-0.302051,1.35211,-0.366845,-1.3945,-0.952047,2.56805,0.944564,-0.364461,0.372598,1.39041,0.386735,0.101957,1.4321,-0.672851,1.12174,0.372598,1.39041,0.386735,0.101957,1.4321,-0.672851,1.12174,0.279821,-0.222925,1.1194,0.364266,-0.00533745,0.0482046,0.930031,0.275505,1.04868,0.313451,1.24838,-0.376381,1.5786,-3.11277,0.21798,-0.426424,-3.18149,0.245455,-0.269196,-0.344787,0.761312,0.0280271,0.288345,0.709621,-0.351299,0.624103,1
1.29155,-0.277654,-1.41424,-0.920846,2.6517,0.900556,-0.291373,1.29155,-0.277654,-1.41424,-0.920846,2.6517,0.900556,-0.291373,1.35194,-0.354466,-1.39139,-0.948007,2.58073,0.939208,-0.354232,-0.361967,1.24876,0.281605,0.718185,1.27292,-0.477544,1.056,-0.361967,1.24876,0.281605,0.718185,1.27292,-0.477544,1.056,0.280233,-0.214865,1.12301,0.355604,-0.00556514,0.0485024,0.933361,-0.148906,0.678901,0.446091,1.21762,-0.374783,1.57304,-3.07649,0.159705,-0.556147,-3.26706,0.280652,-0.317106,-0.603939,0.768121,-0.228532,0.271605,0.709654,-0.386516,0.628583,1
1.27758,-0.265662,-1.42635,-0.909105,2.66186,0.911051,-0.28138,1.27758,-0.265662,-1.42635,-0.909105,2.66186,0.911051,-0.28138,1.3465,-0.342112,-1.39033,-0.942297,2.59254,0.93385,-0.343988,-0.76882,1.36869,-0.0365264,0.50818,1.23755,-0.650154,1.11674,-0.76882,1.36869,-0.0365264,0.50818,1.23755,-0.650154,1.11674,0.279055,-0.20894,1.12677,0.350743,-0.0059518,0.0490002,0.93517,-0.0948718,0.574628,0.358125,1.18716,-0.372875,1.56665,-3.04568,0.190803,-0.639117,-3.34605,0.314448,-0.365168,-0.6892,0.764497,-0.360227,0.33192,0.693241,-0.227984,0.626086,1
1.26585,-0.254379,-1.43778,-0.9218,2.67216,0.931322,-0.271054,1.26585,-0.254379,-1.43778,-0.9218,2.67216,0.931322,-0.271054,1.33705,-0.329208,-1.39328,-0.937797,2.60431,0.927406,-0.333457,-1.21166,1.37285,-0.558174,0.451391,1.26195,-0.714984,1.12065,-1.21166,1.37285,-0.558174,0.451391,1.26195,-0.714984,1.12065,0.278147,-0.204883,1.12974,0.349122,-0.00441664,0.0500938,0.935727,-0.128162,0.295779,0.280412,1.15691,-0.37088,1.5596,-3.02511,0.199509,-0.705159,-3.08014,0.19211,-0.629133,-0.71202,0.748291,-0.444985,0.159966,0.678488,0.0391646,0.624033,1
1.25262,-0.241377,-1.45186,-0.953745,2.67748,0.954035,-0.262407,1.25262,-0.241377,-1.45186,-0.953745,2.67748,0.954035,-0.262407,1.32534,-0.316395,-1.39934,-0.932668,2.61598,0.9227,-0.322974,-1.27188,1.35097,-0.719281,0.62747,1.22165,-0.310192,1.10762,-1.27188,1.35097,-0.719281,0.62747,1.22165,-0.310192,1.10762,0.276488,-0.202376,1.13251,0.349995,-0.00340172,0.0511849,0.935346,-0.242737,0.230576,0.307817,1.12653,-0.369255,1.55164,-3.03841,0.162563,-0.795507,-3.06737,0.187267,-0.727932,-0.727252,0.750182,-0.525219,-0.210774,0.614963,0.313346,0.605674,1
1.24488,-0.231613,-1.45899,-0.974147,2.68421,0.971155,-0.256467,1.24488,-0.231613,-1.45899,-0.974147,2.68421,0.971155,-0.256467,1.3134,-0.303848,-1.40665,-0.928948,2.62734,0.922505,-0.31256,-1.26627,1.3173,-0.828733,0.190319,1.19336,0.234792,1.10527,-1.26627,1.3173,-0.828733,0.190319,1.19336,0.234792,1.10527,0.274759,-0.200038,1.13465,0.351282,-0.00378563,0.0525845,0.934784,-0.134869,0.237851,0.158889,1.09583,-0.367342,1.5426,-3.06964,0.191283,-0.904751,-3.05523,0.185035,-0.822053,-0.685151,0.722346,-0.523315,-0.451998,0.568656,0.486502,0.560931,1
1.23824,-0.21993,-1.46899,-0.978438,2.69637,0.976087,-0.25016,1.23824,-0.21993,-1.46899,-0.978438,2.69637,0.976087,-0.25016,1.30133,-0.291377,-1.41519,-0.93112,2.63788,0.927124,-0.302363,-1.29706,1.33146,-0.976367,-0.602486,1.05451,0.716596,1.064,-1.29706,1.33146,-0.976367,-0.602486,1.05451,0.716596,1.064,0.274857,-0.197425,1.13485,0.352417,-0.00369006,0.0551661,0.934208,0.120005,0.26723,-0.0965285,1.0651,-0.365282,1.53247,-3.07311,0.205976,-1.01312,-3.05023,0.184996,-0.915399,-0.630849,0.714476,-0.537936,-0.47318,0.584865,0.489622,0.522031,1
1.23183,-0.207832,-1.4802,-0.986344,2.70663,0.977524,-0.243904,1.23183,-0.207832,-1.4802,-0.986344,2.70663,0.977524,-0.243904,1.28964,-0.27917,-1.42414,-0.938522,2.64743,0.935089,-0.292827,-1.19189,1.2664,-0.927885,-0.948664,0.979347,0.960426,0.968224,-1.19189,1.2664,-0.927885,-0.948664,0.979347,0.960426,0.968224,0.276756,-0.194563,1.13333,0.353256,-0.00277465,0.0586901,0.93368,0.235775,0.282867,-0.213574,1.03469,-0.363605,1.52115,-3.04117,0.167701,-1.1317,-3.05,0.186643,-1.01091,-0.578156,0.713377,-0.560549,-0.478214,0.591979,0.424354,0.489228,1
1.22073,-0.195822,-1.49329,-0.999127,2.71507,0.985607,-0.238412,1.22073,-0.195822,-1.49329,-0.999127,2.71507,0.985607,-0.238412,1.27896,-0.267278,-1.43302,-0.946907,2.65699,0.943646,-0.284043,-1.08435,1.26083,-0.95766,-0.839657,1.04846,0.863863,0.902274,-1.08435,1.26083,-0.95766,-0.839657,1.04846,0.863863,0.902274,0.279117,-0.191739,1.13139,0.353838,-0.00169102,0.0620982,0.933242,0.224667,0.266283,-0.190767,1.00485,-0.361229,1.50912,-2.98371,0.237629,-1.20291,-3.04574,0.190938,-1.10955,-0.582319,0.714552,-0.602702,-0.522206,0.580703,0.419611,0.456309,1
1.20913,-0.184603,-1.50646,-1.00792,2.7235,0.99844,-0.231404,1.20913,-0.184603,-1.50646,-1.00792,2.7235,0.99844,-0.231404,1.2692,-0.255383,-1.4423,-0.95481,2.66691,0.950991,-0.275813,-0.995217,1.26623,-1.00924,-0.839705,1.05769,0.706557,0.849706,-0.995217,1.26623,-1.00924,-0.839705,1.05769,0.706557,0.849706,0.281636,-0.189095,1.12951,0.354499,-0.000164168,0.065186,0.932781,0.260242,0.252279,-0.201407,0.974339,-0.359367,1.49649,-3.05099,0.186223,-1.26321,-3.04359,0.194035,-1.20655,-0.600751,0.707802,-0.641619,-0.531047,0.565933,0.474491,0.444092,1
1.19701,-0.173722,-1.51812,-1.01769,2.73345,1.00334,-0.223473,1.19701,-0.173722,-1.51812,-1.01769,2.73345,1.00334,-0.223473,1.25963,-0.243454,-1.45222,-0.963288,2.67669,0.95781,-0.268109,-1.03587,1.26837,-1.09381,-0.954375,1.02198,0.740219,0.790813,-1.03587,1.26837,-1.09381,-0.954375,1.02198,0.740219,0.790813,0.284514,-0.186774,1.12733,0.355642,0.00200841,0.0682864,0.932122,0.28912,0.203605,-0.251546,0.943833,-0.357353,1.4829,-3.05064,0.201374,-1.35919,-3.04038,0.198962,-1.29933,-0.62622,0.697312,-0.659047,-0.544024,0.567589,0.45531,0.446363,1
1.18497,-0.163577,-1.52878,-1.02881,2.74485,1.00024,-0.215867,1.18497,-0.163577,-1.52878,-1.02881,2.74485,1.00024,-0.215867,1.24966,-0.231599,-1.46285,-0.972248,2.68617,0.965466,-0.260717,-1.07943,1.25147,-1.16121,-0.949784,0.994213,0.878054,0.78058,-1.07943,1.25147,-1.16121,-0.949784,0.994213,0.878054,0.78058,0.287352,-0.184943,1.12486,0.357484,0.00414164,0.0714503,0.931173,0.255262,0.148502,-0.26398,0.913038,-0.355352,1.46826,-3.07953,0.200039,-1.46387,-3.04019,0.200232,-1.38865,-0.646875,0.680218,-0.659298,-0.565668,0.586797,0.347704,0.448493,1
1.17481,-0.151914,-1.53977,-1.03883,2.75449,1.00882,-0.208853,1.17481,-0.151914,-1.53977,-1.03883,2.75449,1.00882,-0.208853,1.23927,-0.219925,-1.47387,-0.981286,2.69559,0.973336,-0.253301,-1.12543,1.23034,-1.17849,-0.969407,1.00794,0.798999,0.79429,-1.12543,1.23034,-1.17849,-0.969407,1.00794,0.798999,0.79429,0.290018,-0.183663,1.12226,0.359751,0.00630916,0.0744579,0.930051,0.250392,0.0899771,-0.278917,0.882089,-0.353532,1.45239,-3.09483,0.182089,-1.5864,-3.04765,0.19869,-1.47938,-0.644582,0.680115,-0.659016,-0.575478,0.58894,0.354829,0.444477,1
1.16492,-0.142641,-1.55187,-1.04825,2.76408,1.02718,-0.205089,1.16492,-0.142641,-1.55187,-1.04825,2.76408,1.02718,-0.205089,1.22851,-0.208513,-1.48491,-0.990646,2.70531,0.979608,-0.245809,-1.15928,1.19659,-1.16826,-1.0164,1.05292,0.549317,0.797323,-1.15928,1.19659,-1.16826,-1.0164,1.05292,0.549317,0.797323,0.292834,-0.183054,1.11949,0.362187,0.00945475,0.0770277,0.928869,0.270778,0.0209565,-0.300907,0.851703,-0.351796,1.43515,-3.03863,0.173563,-1.72437,-3.05633,0.195843,-1.57744,-0.635877,0.658719,-0.669631,-0.576021,0.587774,0.475737,0.407201,1
1.15487,-0.134292,-1.56368,-1.06014,2.77329,1.03409,-0.201158,1.15487,-0.134292,-1.56368,-1.06014,2.77329,1.03409,-0.201158,1.21768,-0.197203,-1.49591,-1.00027,2.71519,0.98518,-0.238362,-1.14169,1.20606,-1.16812,-1.02708,1.04663,0.629519,0.78583,-1.14169,1.20606,-1.16812,-1.02708,1.04663,0.629519,0.78583,0.295729,-0.182806,1.11658,0.364683,0.0130707,0.0793142,0.927655,0.263011,0.0180523,-0.30894,0.821301,-0.349849,1.41723,-3.0402,0.194654,-1.79235,-3.06308,0.189646,-1.68165,-0.628162,0.629107,-0.677725,-0.598699,0.581085,0.489085,0.372037,1
1.14334,-0.127466,-1.57553,-1.07312,2.78394,1.02496,-0.195392,1.14334,-0.127466,-1.57553,-1.07312,2.78394,1.02496,-0.195392,1.20704,-0.186095,-1.50703,-1.0099,2.72501,0.992566,-0.231392,-1.12163,1.1572,-1.19417,-1.02113,1.04063,0.921825,0.700464,-1.12163,1.1572,-1.19417,-1.02113,1.04063,0.921825,0.700464,0.29825,-0.182733,1.1136,0.367405,0.0157968,0.0815211,0.926347,0.209635,-0.0179151,-0.316483,0.790772,-0.347956,1.39839,-3.05289,0.189337,-1.88386,-3.06107,0.188554,-1.78839,-0.636945,0.586289,-0.684994,-0.632143,0.589305,0.323896,0.360001,1
1.13541,-0.11949,-1.58664,-1.08468,2.79266,1.03298,-0.19019,1.13541,-0.11949,-1.58664,-1.08468,2.79266,1.03298,-0.19019,1.19654,-0.175502,-1.51834,-1.01978,2.73473,1.00103,-0.225112,-1.10976,1.09744,-1.20745,-1.07464,1.0269,0.880221,0.637902,-1.10976,1.09744,-1.20745,-1.07464,1.0269,0.880221,0.637902,0.300488,-0.183141,1.11045,0.370494,0.0180979,0.0834904,0.924898,0.207437,-0.0807584,-0.343311,0.760373,-0.346446,1.37854,-3.03994,0.151029,-1.98438,-3.05607,0.182844,-1.89273,-0.61131,0.560119,-0.683045,-0.648944,0.579276,0.319452,0.349222,1
1.13471,-0.119092,-1.59808,-1.09434,2.80452,1.05853,-0.190199,1.13471,-0.119092,-1.59808,-1.09434,2.80452,1.05853,-0.190199,1.18597,-0.165585,-1.52976,-1.03023,2.74451,1.00727,-0.219136,-1.13511,1.0151,-1.2189,-1.14202,1.04988,0.470901,0.632306,-1.13511,1.0151,-1.2189,-1.14202,1.04988,0.470901,0.632306,0.302928,-0.184509,1.10703,0.373899,0.0217624,0.0848224,0.923326,0.23085,-0.197853,-0.375818,0.730143,-0.344539,1.3581,-3.02303,0.190699,-2.04436,-3.04661,0.180188,-1.98905,-0.512631,0.464921,-0.683209,-0.641049,0.600053,0.512611,0.289374,1
1.12999,-0.124016,-1.60996,-1.10676,2.81438,1.06363,-0.19597,1.12999,-0.124016,-1.60996,-1.10676,2.81438,1.06363,-0.19597,1.17561,-0.156216,-1.54119,-1.04108,2.75426,1.01213,-0.213273,-1.07049,0.978007,-1.21041,-1.16105,1.02265,0.555314,0.614701,-1.07049,0.978007,-1.21041,-1.16105,1.02265,0.555314,0.614701,0.305446,-0.186534,1.1034,0.377367,0.0262579,0.085647,0.921721,0.216468,-0.211122,-0.387568,0.699393,-0.342967,1.33629,-3.07497,0.157207,-2.18133,-3.04335,0.177188,-2.08251,-0.456184,0.321999,-0.687666,-0.656862,0.601164,0.515044,0.173027,1
1.11604,-0.137713,-1.62038,-1.11892,2.81785,1.05677,-0.208071,1.11604,-0.137713,-1.62038,-1.11892,2.81785,1.05677,-0.208071,1.16663,-0.148045,-1.55259,-1.05186,2.76415,1.01974,-0.208168,-0.850246,0.771024,-1.21148,-1.1313,1.07512,1.03303,0.478524,-0.850246,0.771024,-1.21148,-1.1313,1.07512,1.03303,0.478524,0.307284,-0.188891,1.09972,0.380489,0.0292233,0.0859443,0.920319,0.121668,-0.266239,-0.389152,0.668834,-0.340737,1.31367,-3.05588,0.222936,-2.26146,-3.04662,0.179852,-2.17357,-0.505919,0.10332,-0.677965,-0.670625,0.537074,0.370319,0.000968809,1
1.11775,-0.172979,-1.63083,-1.12893,2.82394,1.07713,-0.206986,1.11775,-0.172979,-1.63083,-1.12893,2.82394,1.07713,-0.206986,1.15902,-0.142219,-1.56405,-1.06271,2.77424,1.02892,-0.204871,-0.773007,0.484772,-1.2226,-1.17307,1.06895,0.924327,0.237044,-0.773007,0.484772,-1.2226,-1.17307,1.06895,0.924327,0.237044,0.308292,-0.192497,1.09589,0.383824,0.0312568,0.0850676,0.918948,0.0614399,-0.454425,-0.423072,0.638186,-0.338858,1.28954,-3.06484,0.187892,-2.4129,-3.05072,0.181749,-2.27406,-0.412627,-0.307591,-0.667799,-0.662112,0.497014,0.482041,-0.0211444,1
1.10426,-0.183768,-1.64473,-1.14235,2.83835,1.09059,-0.206146,1.10426,-0.183768,-1.64473,-1.14235,2.83835,1.09059,-0.206146,1.15096,-0.139802,-1.57543,-1.07389,2.78352,1.03579,-0.204324,-0.929815,0.0556309,-1.19723,-1.19926,0.91425,0.558712,-0.0997778,-0.929815,0.0556309,-1.19723,-1.19926,0.91425,0.558712,-0.0997778,0.308492,-0.198806,1.09173,0.3889,0.0344256,0.082551,0.916928,-0.0568614,-0.792466,-0.464142,0.60743,-0.337387,1.26474,-3.07556,0.147125,-2.48061,-3.0561,0.18101,-2.37636,-0.466987,-0.43966,-0.693028,-0.684659,0.5483,0.547933,-0.0182189,1
1.08673,-0.212984,-1.65589,-1.15526,2.83794,1.09303,-0.246416,1.08673,-0.212984,-1.65589,-1.15526,2.83794,1.09303,-0.246416,1.14344,-0.143484,-1.5866,-1.08502,2.79183,1.04283,-0.205025,-0.683888,-0.785451,-1.1778,-1.16913,0.854966,0.913417,-0.0522016,-0.683888,-0.785451,-1.1778,-1.16913,0.854966,0.913417,-0.0522016,0.306766,-0.208951,1.08717,0.394465,0.0373448,0.0773675,0.914886,-0.313971,-1.21731,-0.515456,0.577347,-0.336111,1.2386,-3.00836,0.127566,-2.61375,-3.05611,0.17648,-2.48322,-0.567027,-0.695003,-0.692959,-0.702414,0.461119,0.502007,-0.413907,1
1.07667,-0.219746,-1.66924,-1.16902,2.83427,1.09612,-0.252146,1.07667,-0.219746,-1.66924,-1.16902,2.83427,1.09612,-0.252146,1.13617,-0.151276,-1.59801,-1.09631,2.80063,1.052,-0.20536,-0.84978,-0.865282,-1.24402,-1.22606,1.00465,1.02773,-0.0209229,-0.84978,-0.865282,-1.24402,-1.22606,1.00465,1.02773,-0.0209229,0.303253,-0.221709,1.0822,0.39969,0.0391846,0.07004,0.91313,-0.412458,-1.34034,-0.55738,0.547685,-0.334369,1.21195,-2.96619,0.174236,-2.66453,-3.04597,0.169892,-2.58838,-0.594965,-0.684703,-0.712306,-0.727052,0.336411,0.441252,-0.467859,1
1.08009,-0.234965,-1.67979,-1.17651,2.84109,1.11934,-0.252723,1.08009,-0.234965,-1.67979,-1.17651,2.84109,1.11934,-0.252723,1.12705,-0.161896,-1.60966,-1.10801,2.80892,1.06082,-0.210266,-1.0737,-1.36049,-1.23123,-1.25832,0.772798,0.857726,-0.96269,-1.0737,-1.36049,-1.23123,-1.25832,0.772798,0.857726,-0.96269,0.298344,-0.23691,1.07666,0.408018,0.0412659,0.0614367,0.909969,-0.601761,-1.69258,-0.6372,0.517651,-0.332312,1.18401,-3.0034,0.205728,-2.79489,-3.02988,0.169456,-2.69009,-0.469573,-0.730683,-0.701288,-0.684959,0.321631,0.58524,-0.424569,1
1.06292,-0.247587,-1.69347,-1.19245,2.8447,1.12589,-0.267649,1.06292,-0.247587,-1.69347,-1.19245,2.8447,1.12589,-0.267649,1.11695,-0.173991,-1.62145,-1.12008,2.81491,1.06831,-0.218936,-1.07262,-1.21847,-1.27266,-1.30318,0.515483,0.740696,-0.88441,-1.07262,-1.21847,-1.27266,-1.30318,0.515483,0.740696,-0.88441,0.29286,-0.253164,1.07055,0.418976,0.0442382,0.0529276,0.905373,-0.560869,-1.58676,-0.67236,0.487406,-0.330249,1.1559,-3.02449,0.206327,-2.81061,-3.01822,0.169919,-2.78277,-0.540284,-0.735951,-0.720161,-0.72365,0.297877,0.575879,-0.487134,1
1.05134,-0.25979,-1.70524,-1.20462,2.82835,1.12621,-0.279724,1.05134,-0.25979,-1.70524,-1.20462,2.82835,1.12621,-0.279724,1.10844,-0.185901,-1.63326,-1.13179,2.81999,1.07719,-0.22635,-0.754915,-1.30653,-1.23887,-1.19094,0.561687,1.12255,-0.702297,-0.754915,-1.30653,-1.23887,-1.19094,0.561687,1.12255,-0.702297,0.28727,-0.268354,1.06435,0.428773,0.0464204,0.0450046,0.901096,-0.602816,-1.48379,-0.65888,0.457375,-0.328524,1.12608,-3.00305,0.172409,-2.98166,-3.00777,0.175281,-2.87375,-0.571036,-0.738892,-0.71977,-0.728388,0.0835999,0.490201,-0.533747,1
1.05216,-0.268762,-1.71627,-1.21726,2.81629,1.1434,-0.282238,1.05216,-0.268762,-1.71627,-1.21726,2.81629,1.1434,-0.282238,1.10015,-0.198237,-1.64516,-1.14355,2.82508,1.08728,-0.233937,-0.991463,-1.31414,-1.28638,-1.30202,0.52232,1.02821,-0.897715,-0.991463,-1.31414,-1.28638,-1.30202,0.52232,1.02821,-0.897715,0.281144,-0.283469,1.05784,0.4385,0.048043,0.0369421,0.896685,-0.664511,-1.56088,-0.73052,0.427401,-0.327207,1.09643,-2.99744,0.131708,-2.96562,-3.00111,0.177978,-2.95722,-0.479941,-0.705253,-0.711033,-0.737097,-0.0879285,0.561153,-0.483014,1
1.03655,-0.281805,-1.72853,-1.22953,2.81577,1.1438,-0.293485,1.03655,-0.281805,-1.72853,-1.22953,2.81577,1.1438,-0.293485,1.09056,-0.210587,-1.65723,-1.1558,2.8275,1.09586,-0.242813,-1.04435,-1.31023,-1.27845,-1.30022,0.0226793,0.808136,-0.98291,-1.04435,-1.31023,-1.27845,-1.30022,0.0226793,0.808136,-0.98291,0.274905,-0.298695,1.05084,0.449836,0.05091,0.0298101,0.891161,-0.654523,-1.51954,-0.76055,0.408432,-0.331574,1.06858,-1.89685,-0.436661,-2.78485,-2.88423,0.113297,-3.00372,-0.540104,-0.712188,-0.713023,-0.737283,-0.117343,0.479363,-0.506725,1
1.0147,-0.293201,-1.7395,-1.23965,2.80783,1.08591,-0.305465,1.0147,-0.293201,-1.7395,-1.23965,2.80783,1.08591,-0.305465,1.08198,-0.222525,-1.66915,-1.16808,2.82627,1.10459,-0.251273,-0.794045,-1.23126,-1.25475,-1.30956,-0.265814,1.03333,-0.824577,-0.794045,-1.23126,-1.25475,-1.30956,-0.265814,1.03333,-0.824577,0.269172,-0.312671,1.04362,0.460989,0.0540723,0.0244958,0.885418,-0.575257,-1.33279,-0.772942,0.414321,-0.350278,1.0483,0.588903,-1.87041,-2.02758,-2.42333,-0.154321,-2.9403,-0.672835,-0.706767,-0.703497,-0.715698,-0.184413,-0.18679,-0.54192,1
1.00822,-0.298598,-1.74714,-1.24993,2.80209,1.0781,-0.310238,1.00822,-0.298598,-1.74714,-1.24993,2.80209,1.0781,-0.310238,1.07355,-0.234285,-1.68101,-1.1804,2.824,1.11322,-0.259444,-0.985311,-1.26543,-1.26549,-1.30812,-0.219309,0.814136,-0.906487,-0.985311,-1.26543,-1.26549,-1.30812,-0.219309,0.814136,-0.906487,0.263417,-0.326158,1.03619,0.471956,0.0574528,0.0196861,0.879528,-0.657643,-1.40428,-0.802573,0.420539,-0.369512,1.02722,0.621817,-1.92344,-2.10794,-1.7373,-0.552538,-2.80374,-0.653247,-0.643126,-0.661306,-0.695226,-0.219122,-0.35128,-0.507937,1
1.04692,-0.309274,-1.75744,-1.26287,2.87149,1.1318,-0.31415,1.04692,-0.309274,-1.75744,-1.26287,2.84842,1.1318,-0.31415,1.0628,-0.246136,-1.69281,-1.19246,2.82125,1.11318,-0.268382,-1.28088,-1.25332,-1.24318,-1.25675,-0.357294,-0.726198,-0.987497,-1.28088,-1.25332,-1.24318,-1.25675,-0.357294,-0.726198,-0.987497,0.257647,-0.340967,1.02847,0.484186,0.0650215,0.0139664,0.872434,-0.642491,-1.55512,-0.825641,0.426002,-0.387382,1.0048,0.546283,-1.78692,-2.2419,-0.967717,-0.987308,-2.6469,-0.158758,-0.631386,-0.646262,-0.704072,0.502398,0.186125,-0.457683,1
1.09598,-0.312659,-1.74899,-1.23745,2.87417,1.16211,-0.309218,1.09598,-0.312659,-1.74899,-1.23745,2.84842,1.16211,-0.309218,1.0514,-0.25718,-1.70404,-1.20411,2.81761,1.10623,-0.277145,-1.14963,-1.1029,-1.14786,-1.22015,-0.413161,-0.749298,-0.881223,-1.14963,-1.1029,-1.14786,-1.22015,-0.413161,-0.749298,-0.881223,0.252498,-0.355718,1.0207,0.496316,0.0758007,0.00815476,0.864788,-0.570251,-1.38029,-0.801166,0.432816,-0.406296,0.982503,0.681341,-1.8914,-2.2301,-0.229886,-1.39858,-2.4905,0.445857,-0.554789,-0.449493,-0.333429,0.565611,0.558787,-0.320724,1
1.11127,-0.336229,-1.72472,-1.18116,2.86443,1.15436,-0.324384,1.11127,-0.336229,-1.72472,-1.18116,2.84842,1.15436,-0.324384,1.04639,-0.267596,-1.71478,-1.21576,2.81962,1.10632,-0.284925,0.0140406,-1.10984,-1.1359,-1.25436,0.766837,0.678442,-0.778233,0.0140406,-1.10984,-1.1359,-1.25436,0.766837,0.678442,-0.778233,0.248221,-0.367946,1.01307,0.50399,0.0825232,0.00110934,0.859757,-0.380043,-1.05172,-0.801219,0.439188,-0.42459,0.958328,0.637192,-1.82938,-2.41742,0.342173,-1.70962,-2.39979,0.64872,-0.686324,-0.0993962,0.346036,0.448061,0.480389,-0.394586,1
1.12351,-0.348686,-1.74739,-1.23169,2.86331,1.17736,-0.324343,1.12351,-0.348686,-1.74739,-1.23169,2.84842,1.17736,-0.324343,1.05228,-0.277213,-1.72322,-1.22319,2.82599,1.11552,-0.29081,1.16387,-0.943897,-0.686024,-0.379575,0.597213,1.24078,-0.49018,1.16387,-0.943897,-0.686024,-0.379575,0.597213,1.24078,-0.49018,0.245865,-0.375147,1.00761,0.505191,0.0821036,-0.00572858,0.859074,-0.0639079,-0.414348,-0.385467,0.445551,-0.443349,0.933513,0.636286,-1.87599,-2.48153,0.619155,-1.85976,-2.39951,0.712331,-0.714728,-0.241702,-0.0849452,0.373209,0.618424,-0.335327,1
1.13679,-0.358917,-1.73658,-1.22947,2.85332,1.19324,-0.331563,1.13679,-0.358917,-1.73658,-1.22947,2.84842,1.19324,-0.331563,1.06374,-0.287823,-1.72607,-1.21973,2.83095,1.12491,-0.296664,1.26559,-1.28899,0.0359522,1.02722,0.46511,0.784104,-0.738154,1.26559,-1.28899,0.0359522,1.02722,0.46511,0.784104,-0.738154,0.243483,-0.378589,1.00671,0.503416,0.0759256,-0.0113861,0.860627,-0.280985,-0.298334,0.142192,0.451694,-0.462133,0.907982,0.6143,-1.87839,-2.55309,0.626157,-1.85874,-2.48876,0.730519,-0.710938,-0.105113,-0.0973649,0.22371,0.683275,-0.348993,1
1.14729,-0.375166,-1.75444,-1.26453,2.87697,1.19389,-0.336613,1.14729,-0.375166,-1.75444,-1.26453,2.84842,1.19389,-0.336613,1.07569,-0.299994,-1.72844,-1.21714,2.83481,1.13413,-0.302791,1.27335,-1.29661,-0.504815,-0.38748,0.362228,1.15119,-0.573911,1.27335,-1.29661,-0.504815,-0.38748,0.362228,1.15119,-0.573911,0.241385,-0.382725,1.00504,0.501371,0.0704286,-0.0174405,0.862185,-0.0341493,-0.519756,-0.470878,0.457667,-0.480871,0.881205,0.597364,-1.87378,-2.67773,0.626786,-1.8594,-2.58102,0.716003,-0.751711,-0.26008,-0.473972,0.421561,0.597641,-0.338222,1
1.16426,-0.384915,-1.74357,-1.25529,2.87681,1.21299,-0.341002,1.16426,-0.384915,-1.74357,-1.25529,2.84842,1.21299,-0.341002,1.08783,-0.311967,-1.73136,-1.2201,2.83782,1.14556,-0.308406,1.30383,-1.25024,-0.139081,-0.249618,0.282103,1.26975,-0.616645,1.30383,-1.25024,-0.139081,-0.249618,0.282103,1.26975,-0.616645,0.240917,-0.387016,1.0011,0.498684,0.0667675,-0.0231644,0.863898,0.0390266,-0.348166,-0.375566,0.462871,-0.50016,0.853448,0.520429,-1.92891,-2.77573,0.6172,-1.87511,-2.67503,0.764309,-0.729482,-0.12208,-0.351971,0.389903,0.674297,-0.325956,1
1.17347,-0.399007,-1.76285,-1.27989,2.8904,1.2151,-0.349992,1.17347,-0.399007,-1.76285,-1.27989,2.84842,1.2151,-0.349992,1.09989,-0.324262,-1.73461,-1.22629,2.84017,1.15618,-0.314122,1.26217,-1.35552,-0.528079,-1.01844,0.219702,1.00422,-0.59891,1.26217,-1.35552,-0.528079,-1.01844,0.219702,1.00422,-0.59891,0.241559,-0.391847,0.995662,0.495841,0.0652648,-0.0290548,0.86547,0.166962,-0.581808,-0.756538,0.468769,-0.519146,0.824446,0.589806,-1.89859,-2.9002,0.597663,-1.88291,-2.77943,0.735727,-0.747451,-0.282348,-0.536011,0.502323,0.589224,-0.358696,1
1.18856,-0.409835,-1.75578,-1.27705,2.88659,1.23327,-0.353273,1.18856,-0.409835,-1.75578,-1.27705,2.84842,1.23327,-0.353273,1.11237,-0.336667,-1.73772,-1.23366,2.84199,1.16677,-0.319613,1.38181,-1.28486,-0.155662,-0.575997,0.171113,1.23086,-0.569605,1.38181,-1.28486,-0.155662,-0.575997,0.171113,1.23086,-0.569605,0.242944,-0.396547,0.989637,0.492567,0.0644849,-0.0348464,0.867182,0.188219,-0.349399,-0.532292,0.474993,-0.537482,0.794594,0.622353,-1.83362,-2.98517,0.589401,-1.88678,-2.87812,0.761849,-0.73168,-0.180576,-0.433863,0.44597,0.665054,-0.336606,1
1.19896,-0.42354,-1.77011,-1.29502,2.89325,1.23743,-0.360287,1.19896,-0.42354,-1.77011,-1.29502,2.84842,1.23743,-0.360287,1.12493,-0.348995,-1.74128,-1.24134,2.84341,1.17724,-0.3254,1.29251,-1.33182,-0.574357,-1.02667,0.133263,1.00834,-0.654875,1.29251,-1.33182,-0.574357,-1.02667,0.133263,1.00834,-0.654875,0.244628,-0.401222,0.983338,0.489584,0.0641214,-0.0404588,0.868654,0.222445,-0.544346,-0.785124,0.480876,-0.555966,0.763983,0.588289,-1.8484,-3.06105,0.584562,-1.88151,-2.97902,0.740324,-0.745444,-0.288266,-0.536851,0.498426,0.601877,-0.348863,1
1.21281,-0.435151,-1.76896,-1.29784,2.89098,1.25273,-0.365031,1.21281,-0.435151,-1.76896,-1.29784,2.84842,1.25273,-0.365031,1.13744,-0.36133,-1.74522,-1.24953,2.84452,1.18775,-0.331226,1.36125,-1.2917,-0.281186,-0.732805,0.103785,1.21228,-0.587141,1.36125,-1.2917,-0.281186,-0.732805,0.103785,1.21228,-0.587141,0.246582,-0.405917,0.976671,0.486757,0.0641822,-0.0459707,0.869962,0.237538,-0.37681,-0.631851,0.48657,-0.574412,0.732642,0.569448,-1.8446,-3.13419,0.582749,-1.87268,-3.07614,0.753701,-0.738207,-0.237418,-0.48305,0.46457,0.649773,-0.338056,1
