Afshin1997/kuka_rl_ros2/src/catch_and_throw/output_files/ft/idealpd/harsh trajectory_stiff500/ft_received_joint_vel_np.csv
joint_0,joint_1,joint_2,joint_3,joint_4,joint_5,joint_6
-1.497165247332787885e-05,-1.499892324230422957e-05,0.000000000000000000e+00,0.000000000000000000e+00,-4.790928792575144257e-05,0.000000000000000000e+00,2.997057574338768404e-05
1.497165247332787885e-05,0.000000000000000000e+00,-1.497165247332787885e-05,2.997057574338768404e-05,0.000000000000000000e+00,2.997057571563210843e-05,-2.997057574338768404e-05
-1.168470662116227743e-03,-1.423125107990336202e-03,-4.898566518585223406e-03,5.063309237329782775e-03,-2.181137963741530683e-03,4.883567595342919176e-03,-5.362933182151419231e-03
-9.991846331630638289e-03,-1.116031699373645769e-02,-3.509878938368071744e-02,4.597450862653396086e-02,-1.411744470447562350e-02,2.308462459588156435e-02,-3.707619288234598187e-02
-1.366200103666836974e-02,-1.751192465449316615e-02,-4.571982690987352882e-02,9.925932881676979846e-02,-1.768869378254711577e-02,1.691273130635662092e-02,-4.458132682355619991e-02
-2.022345726909735575e-03,-7.639960625718117404e-03,4.928537094273099939e-03,9.476526962265419129e-02,1.464470867085232442e-02,-5.851298122933057400e-02,3.613243336120230964e-02
7.924558376559698303e-03,1.838079864252550877e-02,1.077681361597582210e-01,5.229614571156115943e-02,9.167930934250723141e-02,-2.429501861200000778e-01,2.342916077107681794e-01
-5.422847062841462673e-03,4.789197097384775836e-02,2.267565031938700848e-01,-9.332711832066298285e-03,2.151887554491804799e-01,-5.345863316687793354e-01,5.552141599083348922e-01
-3.565306777436605401e-02,7.103648217963304257e-02,3.640957255656163127e-01,-8.372478039020414542e-02,3.579208652163545779e-01,-8.677327881425611622e-01,9.198791355171653805e-01
-6.348643328107916872e-02,7.070694220061984892e-02,5.424809194695678904e-01,-1.798982034683094255e-01,4.984478823757965138e-01,-1.167248522568942182e+00,1.263586715636588753e+00
-8.973187641947433235e-02,3.671665505686552700e-02,7.259444488049160427e-01,-3.254615808906957675e-01,6.322877141470839568e-01,-1.461491208269466435e+00,1.584134758356170458e+00
-1.134306932867312767e-01,-2.043308767437149176e-02,8.828478848629806031e-01,-4.914431016057041468e-01,7.558929788297197305e-01,-1.741068192260747383e+00,1.845930164323883460e+00
-1.246509241611681862e-01,-8.913268307133084822e-02,1.016202329661541892e+00,-6.567505161686471027e-01,8.437373634775369169e-01,-2.004825975533086613e+00,1.999882521327822626e+00
-1.131011260369629845e-01,-1.480950593117751068e-01,1.139070618159987447e+00,-8.018345280041971890e-01,8.907155618684270415e-01,-2.216722090993994421e+00,2.007582368563465280e+00
-8.484830882410365760e-02,-1.997320705238066207e-01,1.230195676382550563e+00,-9.410612421474895406e-01,8.926090259385177639e-01,-2.424573487730369070e+00,1.907813703584171350e+00
-3.804992297926079736e-02,-2.298124928983256987e-01,1.307958302971590214e+00,-1.080962116984329757e+00,8.941669940935592642e-01,-2.518829393919646886e+00,1.776346750557156184e+00
1.063600917872165041e-02,-2.302918857559135835e-01,1.339701505976786944e+00,-1.185000157287563471e+00,9.041857948537956879e-01,-2.630627249880779228e+00,1.687453750279233056e+00
5.731456726229544607e-02,-2.078214261606314839e-01,1.334203773380837621e+00,-1.209013542481429671e+00,9.137252409354701399e-01,-2.590704806782362368e+00,1.619158689477484536e+00
1.244561563251422864e-01,-1.580419634152202546e-01,1.329724658568398610e+00,-1.212548897772669498e+00,9.173923958559204728e-01,-2.626522644546269714e+00,1.537755796946704834e+00
2.123305115487861272e-01,-1.050716842808004092e-01,1.313965399000860401e+00,-1.211275571001757534e+00,9.124789013180700792e-01,-2.494141902573854264e+00,1.422572438572966558e+00
2.919207432995896134e-01,-5.556187490451253153e-02,1.251572523578048379e+00,-1.242734148985236153e+00,9.067264706429933874e-01,-2.432288306618402007e+00,1.301277100790310115e+00
3.659383023797424528e-01,-1.063600917872858931e-02,1.196100533129906829e+00,-1.219035359388775941e+00,9.136053804492672015e-01,-2.312700746236184823e+00,1.205598042222255639e+00
4.271777060637638179e-01,4.419184569307704757e-02,1.123835666407502210e+00,-1.169195982762716302e+00,9.163617789337830111e-01,-2.252150447627443430e+00,1.105679578905949256e+00
4.754441592447755660e-01,1.103297613541213973e-01,1.043571328504688811e+00,-1.144088985169100514e+00,9.152832090905116402e-01,-2.143108984696717734e+00,1.021790001255407088e+00
5.175836886352758182e-01,1.713444538971736764e-01,9.691193187950641885e-01,-1.158559973583994651e+00,9.306469497791791667e-01,-2.085824388010193431e+00,9.496749055993292110e-01
5.623297854482900426e-01,2.218429922935909182e-01,9.112654993361224420e-01,-1.141692157235030258e+00,9.410252883649272704e-01,-2.031206272626817633e+00,8.852896822960087952e-01
6.143563050615419296e-01,2.856739644769082376e-01,8.820838942545372596e-01,-1.110203608675752740e+00,9.607993015354199251e-01,-2.007852021932599040e+00,8.389107208865431708e-01
6.629373811106731296e-01,3.361874472550228643e-01,8.518237029672692806e-01,-1.099148175061626098e+00,9.750125648156915403e-01,-2.003657532141767117e+00,7.939848551607453508e-01
7.044177487308123098e-01,3.547480420810697477e-01,8.006660846128776932e-01,-1.099972079550759485e+00,9.862777488265916936e-01,-1.960034963762624649e+00,7.295996045867392255e-01
7.438758251655519516e-01,3.684250420410012383e-01,7.468568747953097109e-01,-1.125663271569155022e+00,9.959370117613719486e-01,-1.932471224354304074e+00,6.786067562217779070e-01
7.886968075117295474e-01,3.778026961012495577e-01,7.041630942849486097e-01,-1.085381290645337504e+00,1.001497718018273808e+00,-1.877853163512521739e+00,6.398826998197382210e-01
8.365887784855807752e-01,3.884536496616824985e-01,6.715360456392427402e-01,-1.055840175009092885e+00,1.010869350692666924e+00,-1.850289396833404432e+00,6.058325260661079348e-01
8.838815288405299508e-01,4.149538017875209484e-01,6.577541895704808184e-01,-1.047930588285006515e+00,1.025897595466229717e+00,-1.838170375936809542e+00,5.898934975858138863e-01
9.415556066575125893e-01,4.362257928742091506e-01,6.794156617876412341e-01,-1.069876685523718507e+00,1.053341458025824906e+00,-1.829167231354567047e+00,5.861184867719804181e-01
1.000652809582558422e+00,4.514757162791642187e-01,7.056012183161430862e-01,-1.020936126190641335e+00,1.071869087945709342e+00,-1.880999010402562011e+00,5.733253324525233730e-01
1.049263856207377499e+00,4.589957946020232771e-01,7.020358924491598707e-01,-9.375558574319375893e-01,1.075224657961726393e+00,-1.854858396102221363e+00,5.280998427819039165e-01
1.081890877582258881e+00,4.497679661495772030e-01,6.740976708336510193e-01,-9.179317025941324815e-01,1.076279273161062644e+00,-1.817677347110968622e+00,4.767174860157430416e-01
1.109514503600472768e+00,4.315519374965582911e-01,6.653941229254334289e-01,-9.427690195478177770e-01,1.086226166356174527e+00,-1.821107846293468224e+00,4.736165540831227538e-01
1.147369713285273374e+00,4.157627346241272170e-01,6.821720275472231698e-01,-9.436528651883269170e-01,1.107510151127311104e+00,-1.797199289937656541e+00,4.801929274263483371e-01
1.194153100206929441e+00,4.187887264820808753e-01,7.151286707134385523e-01,-8.889298664254141613e-01,1.113286580079586585e+00,-1.813932279602026298e+00,4.767174860157430416e-01
1.230000908546496907e+00,4.162870424391333368e-01,7.303785941183971175e-01,-8.152868168231353074e-01,1.120525027711372079e+00,-1.805798009007819616e+00,4.675795147489059111e-01
1.242764119561007297e+00,3.964381491896595833e-01,7.094960568913566412e-01,-7.614177476665817679e-01,1.132077798349395703e+00,-1.768002740474450274e+00,4.603889764050461686e-01
1.251542580273073968e+00,3.758252926025391627e-01,6.948303824528823114e-01,-6.525110841495984637e-01,1.136631842328206243e+00,-1.767493404311926142e+00,4.568086788856451363e-01
1.291045571665289105e+00,3.607551381103364374e-01,7.318466614545382498e-01,-5.195460932107542895e-01,1.148975552549114099e+00,-1.734192222243413628e+00,4.525692741373377181e-01
1.314025312881550445e+00,3.418500043820306145e-01,7.260043354148093542e-01,-3.834502543050288814e-01,1.147153996044092406e+00,-1.677626701207857174e+00,4.375740051782983642e-01
1.300138600703937275e+00,3.339104743530132424e-01,6.639709978174535010e-01,-1.886466936047437315e-01,1.141761059561374747e+00,-1.610440142646052397e+00,4.331548315173461283e-01
1.324901004853717978e+00,3.286823405846354129e-01,6.977515454727467592e-01,5.729959560984987377e-02,1.156597536283554550e+00,-1.579041478543152799e+00,4.718189467678990390e-01
1.375938822717581722e+00,3.349890605587428349e-01,7.859104711763764683e-01,3.332213692777141745e-01,1.179870934600313337e+00,-1.574082998143933043e+00,5.172091791573185660e-01
1.379429208509891369e+00,3.425540811097891325e-01,7.964566231695724419e-01,6.187305364943607167e-01,1.205876645857917318e+00,-1.589497718809118609e+00,5.628690921865020513e-01
1.341199543888671464e+00,3.038450236309692132e-01,7.538377009214669577e-01,8.756274032141742047e-01,1.240822675298958178e+00,-1.570218075602869412e+00,5.974585454076586366e-01
1.326354100537413538e+00,2.621100015649611148e-01,7.630056427640474759e-01,1.104211484298955881e+00,1.273875197036755669e+00,-1.574667219839565035e+00,6.200488054934893967e-01
1.337259735814472217e+00,2.511593967889167445e-01,8.114668365102883918e-01,1.279735456334529786e+00,1.290844815168279425e+00,-1.606365507887286270e+00,6.382798330697991851e-01
1.335791668478331085e+00,2.212138010989645465e-01,8.298626340760839604e-01,1.465251274701651063e+00,1.303380337073778428e+00,-1.612117949470692757e+00,6.526908530623543037e-01
1.318055005412099856e+00,1.644535122274030092e-01,8.227769791118721976e-01,1.656100028404550173e+00,1.321788106507404414e+00,-1.633839335568487705e+00,6.614842581562085932e-01
1.301741494724673043e+00,1.269728665621167041e-01,8.231214907433725969e-01,1.714687922437785339e+00,1.326461923706001578e+00,-1.658586768065795081e+00,6.741725836375556113e-01
1.294026648565815840e+00,8.651111672552426468e-02,8.367236051701198996e-01,1.754041115492877001e+00,1.334179813282709848e+00,-1.681851134303635753e+00,6.854826716975459533e-01
1.267751234851705044e+00,2.659000931144045454e-02,8.108826148146563995e-01,1.839039222654104133e+00,1.342353015627517632e+00,-1.695228537589521522e+00,6.986653344182025549e-01
1.226240869385081256e+00,-1.847068309890169402e-02,7.625712194053724247e-01,1.850529106897591536e+00,1.342712553453029312e+00,-1.705010644432680689e+00,7.086721524022787655e-01
1.229985936894023579e+00,-6.293215489033658627e-02,7.843525193838574161e-01,1.898286251186875884e+00,1.339213168306763180e+00,-1.724125490378647374e+00,7.175255259183055401e-01
1.253190389251285231e+00,-1.190782514905158046e-01,8.231814318948038611e-01,1.963914857956161608e+00,1.335713783160552559e+00,-1.727750730126320633e+00,7.302287685105879333e-01
1.231079494752207459e+00,-1.748648375359644624e-01,7.822403164713387369e-01,1.977696714024923530e+00,1.326006523671430237e+00,-1.739555182696361779e+00,7.428272095355570315e-01
1.194093213597036129e+00,-2.506200900506683205e-01,7.333446993664782809e-01,2.055519254494764247e+00,1.320733491308068164e+00,-1.736469249687011551e+00,7.602642486568833569e-01
1.182004081463794432e+00,-3.163086379713748730e-01,7.251804309257314785e-01,2.060297993251969384e+00,1.316658889274291422e+00,-1.729488423560854304e+00,7.783454233546427403e-01
1.171907406294137033e+00,-3.516171668434958653e-01,7.127318155085715645e-01,2.095981004331337605e+00,1.300695846154387159e+00,-1.745757019290861134e+00,8.010555657432805177e-01
1.155129474401550560e+00,-4.040930814678510008e-01,6.842093449265784777e-01,2.143108984696717734e+00,1.290389415133708084e+00,-1.722852190878476630e+00,8.240952208402041457e-01
1.143085311767266798e+00,-4.497829378020505309e-01,6.699181799660336445e-01,2.150973629192642900e+00,1.288112458594226073e+00,-1.716096048622550718e+00,8.463109714481054091e-01
1.135100866780869300e+00,-4.774814766241690100e-01,6.679257775440983202e-01,2.222699216447576731e+00,1.259685844767099994e+00,-1.731555711515897489e+00,8.678975854028436743e-01
1.120000714442181966e+00,-5.295379668131330320e-01,6.463242464784246799e-01,2.206101053467746098e+00,1.260165199445661965e+00,-1.694509489209294895e+00,8.929445873034347336e-01
1.074969992607532898e+00,-5.719021800737640326e-01,5.925000650083833698e-01,2.269362775607852711e+00,1.237898507040313678e+00,-1.705145471117219813e+00,9.186357793219412926e-01
1.035556858401009972e+00,-6.073455356304501285e-01,5.449077452501782659e-01,2.267400371032401996e+00,1.224787811880456712e+00,-1.680293209781857922e+00,9.445816257862560406e-01
1.012502231651557505e+00,-6.598514208305191753e-01,4.745453419518486093e-01,2.296956458321119943e+00,1.206260181960627786e+00,-1.658137345783905481e+00,9.734036930422740319e-01
9.893426942517713485e-01,-7.192931899285514019e-01,3.335958787556991822e-01,2.313974073007096788e+00,1.188307768928309471e+00,-1.666810923116379684e+00,1.011438617098348036e+00
9.601012025602928546e-01,-7.822702870470751302e-01,1.282761366380169576e-01,2.308641083129892024e+00,1.169109103545118433e+00,-1.669207805592043403e+00,1.058147145757526442e+00
9.397579720715754092e-01,-8.185525187453073226e-01,-8.745487624672865223e-02,2.309689698759886944e+00,1.141257706605669497e+00,-1.648235383908625007e+00,1.094893744119418422e+00
9.494052795009366719e-01,-8.252187492741452912e-01,-2.718771367556382934e-01,2.291129131204661107e+00,1.100151843009267161e+00,-1.645898469855244795e+00,1.126352376644434994e+00
9.685051265237443197e-01,-8.219979623094244570e-01,-4.494983127804608181e-01,2.319426890645626127e+00,1.070430980276926292e+00,-1.667799624865740071e+00,1.193134455152622397e+00
9.589926730496634022e-01,-8.163504313764314846e-01,-6.499794022601923515e-01,2.292582226888328911e+00,1.057320241483861167e+00,-1.681162056499097002e+00,1.276364871032775739e+00
9.090783563489024388e-01,-8.408881243852569520e-01,-8.755225471053229569e-01,2.291593525138968523e+00,1.037042918990871421e+00,-1.728544664039710632e+00,1.361333062159741925e+00
8.460413180789716492e-01,-8.520334424557546305e-01,-1.071090098414051450e+00,2.237050322559552828e+00,1.036947013148603602e+00,-1.755838750078841937e+00,1.436608949087592180e+00
8.133543828233724682e-01,-8.533666831073670744e-01,-1.137752349160858767e+00,2.232241640497290014e+00,9.978545177418696177e-01,-1.755823778426424120e+00,1.476696189446236041e+00
7.932957500855208899e-01,-8.538460759649548759e-01,-1.119071926573456111e+00,2.190281880019573357e+00,9.731430117563277804e-01,-1.756812480175728997e+00,1.493054669632676301e+00
7.381982963860500568e-01,-8.770654999746447800e-01,-1.106713222883470849e+00,2.228631399672942326e+00,9.483117325510548312e-01,-1.778698636263065236e+00,1.544631766964010833e+00
6.414706221880006609e-01,-9.047340682210476270e-01,-1.097035944878366198e+00,2.140667187263689542e+00,9.392995940689652379e-01,-1.748947835679914853e+00,1.578187576207590315e+00
5.173140352661698138e-01,-9.636964717322573648e-01,-1.060678800376246844e+00,2.077195752905880433e+00,9.213711793139012229e-01,-1.760018240946459311e+00,1.576539767229434563e+00
3.952397624933379205e-01,-1.025924549894835502e+00,-9.958291558678222799e-01,2.024165532620025854e+00,9.040659343675372384e-01,-1.706358884007497245e+00,1.579311131912286559e+00
2.863930128571556821e-01,-1.079404165191789833e+00,-9.285377411971662553e-01,1.982984761673967089e+00,8.913147333999837940e-01,-1.707826951343749400e+00,1.608657479712560789e+00
2.011701945550115056e-01,-1.171727610110588014e+00,-8.713280573145465446e-01,2.013814175733652512e+00,8.966118076736973030e-01,-1.764781980780449899e+00,1.670675845657387804e+00
1.241116174229284219e-01,-1.237805666432507889e+00,-8.314205858686030126e-01,1.920981367381557892e+00,9.016451190645424774e-01,-1.763838221259361738e+00,1.726402517822245297e+00
3.867908690308174968e-02,-1.274177755316345584e+00,-8.120211149010292395e-01,1.899949059088301695e+00,8.925611166505920124e-01,-1.791521761158210158e+00,1.759164365881693559e+00
-4.291851892213038866e-02,-1.307493936308058657e+00,-8.107028459019005595e-01,1.881553261522506126e+00,8.849391329162070718e-01,-1.783522317248487088e+00,1.789289703213570171e+00
-1.078130783879194254e-01,-1.338218466988123856e+00,-7.937152290624083228e-01,1.886811338595861809e+00,8.773411474589098979e-01,-1.763703394574767103e+00,1.811175913842444363e+00
-1.670301363450032994e-01,-1.381601352573834429e+00,-7.797985190383105447e-01,1.926119616693533487e+00,8.627203497987290248e-01,-1.761126797727885496e+00,1.827279712312224191e+00
-2.342915804399714474e-01,-1.423336429181382146e+00,-7.880976141635964716e-01,1.867891233215068780e+00,8.647577162654851435e-01,-1.731855308190033416e+00,1.835249212916945094e+00
-3.181062725573502448e-01,-1.443964284691741318e+00,-8.331133643457167004e-01,1.945848654910931064e+00,8.544272869676627913e-01,-1.720844816804067978e+00,1.871141990755498252e+00
-3.797351573717744344e-01,-1.474104593676146768e+00,-8.343117783128350951e-01,1.930179252529085066e+00,8.536603020287691912e-01,-1.726432461127136442e+00,1.879396089111029511e+00
-4.283311778026099859e-01,-1.477654947890649773e+00,-7.909288654562862675e-01,1.862977722314751450e+00,8.422273482436848369e-01,-1.665837220290289356e+00,1.849959856854377360e+00
-4.947387468327568705e-01,-1.442091737301878673e+00,-7.935204884972346662e-01,1.890092012170441205e+00,8.075210397751608760e-01,-1.593707152981682640e+00,1.813782481265013846e+00
-5.627042949262750504e-01,-1.437762448097255952e+00,-8.166050858222639874e-01,1.847248433323012140e+00,8.063945606439637537e-01,-1.542234939029940577e+00,1.785964087410829571e+00
-6.275389677821707757e-01,-1.469610507211248418e+00,-8.358397595296662708e-01,1.905971126769989699e+00,7.939788555914595314e-01,-1.529786296341983931e+00,1.791491817853263502e+00
-6.903812382161866879e-01,-1.490208392145891958e+00,-8.799566924188040318e-01,1.904847598336090186e+00,7.999230543179192132e-01,-1.515555045262073630e+00,1.828208500180894536e+00
-7.446547874264131117e-01,-1.488755323732958491e+00,-9.020675869177985362e-01,1.799206664012120704e+00,7.954649161813764913e-01,-1.508634160287403159e+00,1.851143299169022427e+00
-7.891012875654301872e-01,-1.504904064430899524e+00,-8.793574717999019796e-01,1.819519923925150273e+00,7.737015330984697847e-01,-1.481205247563566196e+00,1.836627395796708306e+00
-8.416521149937072899e-01,-1.490627843852051937e+00,-8.891546048370724264e-01,1.767058980953306602e+00,7.467370688506447252e-01,-1.405300169441126013e+00,1.804284972172665036e+00
-9.141117495520267866e-01,-1.449551929014851526e+00,-9.359829339868896980e-01,1.753906316079079097e+00,7.117191318444793247e-01,-1.350142774590279426e+00,1.783851884498255380e+00
-9.899269159474588520e-01,-1.455948506174559176e+00,-9.883539925024109607e-01,1.822246319109044332e+00,6.474597304176876733e-01,-1.320661572834669339e+00,1.768002740474505785e+00
-1.056514308431899529e+00,-1.431725381492270133e+00,-1.036994982432204448e+00,1.748932836756644793e+00,5.742600980738754579e-01,-1.256890541802835326e+00,1.756138346752922352e+00
-1.094594147445282495e+00,-1.382754851583463340e+00,-1.044155550200320803e+00,1.715931278633009427e+00,4.421220059545594161e-01,-1.205403301657026471e+00,1.754730220568156973e+00
-1.106548425623188336e+00,-1.400042092367791202e+00,-1.040380539386431824e+00,1.732289758819394176e+00,2.778422794331159018e-01,-1.182588330430223156e+00,1.753022443167884248e+00
-1.144268781352653086e+00,-1.369437389449036591e+00,-1.104001772081308896e+00,1.673447210340295310e+00,8.353006164157905644e-02,-1.149017522263429125e+00,1.748288701180267246e+00
-1.218720763791425465e+00,-1.296483390380583023e+00,-1.227903677286479311e+00,1.651560999711421118e+00,-1.146410791216245784e-01,-1.136763647411498379e+00,1.745472394269254046e+00
-1.269174359959712728e+00,-1.318819023291298187e+00,-1.311928081621505093e+00,1.620896382912018208e+00,-2.719220789838550090e-01,-1.123266416364343545e+00,1.737248211947872711e+00
-1.282836360996353342e+00,-1.295090235848311844e+00,-1.332271312110278050e+00,1.532198123199324247e+00,-4.433204362840892365e-01,-1.119236723833738623e+00,1.732379643275772096e+00
-1.288708657611825625e+00,-1.212488983892020977e+00,-1.356314640609090905e+00,1.423845765343934033e+00,-6.183380828500006920e-01,-1.119027011616036127e+00,1.737308125828618266e+00
-1.332031602046146457e+00,-1.187232215232189469e+00,-1.470449410623575481e+00,1.278147533966211835e+00,-7.722155161418164937e-01,-1.132014906500722340e+00,1.756452942350272828e+00
-1.384971937875567605e+00,-1.167727888155750682e+00,-1.595609670947240044e+00,1.106263800601581249e+00,-9.251342400766193741e-01,-1.173944696402695609e+00,1.791087365070276327e+00
-1.375624227120286758e+00,-1.113424368369711370e+00,-1.635801767414735153e+00,8.909072971948761577e-01,-1.085459181417280927e+00,-1.213088177240195797e+00,1.822441059674329011e+00
-1.348105457210924119e+00,-1.074984964260019993e+00,-1.698808807838181334e+00,6.840895171652539020e-01,-1.228910323202159205e+00,-1.266208281982372785e+00,1.864910183585255510e+00
-1.353303620403589758e+00,-1.034942693400348057e+00,-1.798038193350004477e+00,5.520682857475534000e-01,-1.343910983782559132e+00,-1.296468418728102812e+00,1.880729357033428251e+00
-1.330383793067935194e+00,-9.930278478800652620e-01,-1.817063154839593242e+00,2.843556954777448631e-01,-1.404910721035601551e+00,-1.263197234506130417e+00,1.844926490922049744e+00
-1.299883918987276843e+00,-9.360428751383209622e-01,-1.839413759402830362e+00,2.285991345496451999e-02,-1.451337569916333337e+00,-1.258748062998638062e+00,1.820508625674510661e+00
-1.305321792244129586e+00,-8.906226449024862157e-01,-1.939916444414824248e+00,-1.718687617121572586e-01,-1.491460725878468452e+00,-1.255467416694799887e+00,1.818021886013210242e+00
-1.274552264794309719e+00,-8.662497491539328243e-01,-1.956874117949314318e+00,-3.801396101547060979e-01,-1.512025678631845338e+00,-1.240756745486570889e+00,1.790023750517066858e+00
-1.204744167157462131e+00,-8.067480661752418625e-01,-1.914000541255456156e+00,-5.971289781578903444e-01,-1.534460184444530473e+00,-1.192235637859639930e+00,1.761516278858343831e+00
-1.155668781139790324e+00,-7.646834223179188594e-01,-1.911708596700922858e+00,-8.187622582337406030e-01,-1.559842725893489934e+00,-1.197538657161101305e+00,1.759104452001003516e+00
-1.145302398059433457e+00,-7.516505852050714420e-01,-1.956664378460870601e+00,-9.940914624333441196e-01,-1.576237170770711238e+00,-1.206796456189318523e+00,1.764617183520278410e+00
-1.131161031435901076e+00,-7.204316627441725851e-01,-1.973996588744197922e+00,-1.080767349148359369e+00,-1.601571802931689437e+00,-1.220758108441577505e+00,1.768287365496057362e+00
-1.066536098068476823e+00,-7.159376035500431001e-01,-1.896024222666548020e+00,-1.248441648340425925e+00,-1.615473524940902461e+00,-1.220803023399053000e+00,1.787252413104956084e+00
-1.009326386915004869e+00,-6.944558729748834258e-01,-1.811625308853537231e+00,-1.392701755686953646e+00,-1.629519018447045386e+00,-1.259781706976159654e+00,1.799730971827173676e+00
-9.876050008172376771e-01,-6.552674499092359106e-01,-1.758415374196520276e+00,-1.499316420107754677e+00,-1.625348510570945315e+00,-1.254943108879802427e+00,1.776286809405669409e+00
-9.748717603784706753e-01,-6.318982275625162348e-01,-1.692442201254196199e+00,-1.541366065041904765e+00,-1.592080309771093383e+00,-1.240337293780424677e+00,1.721758633020264995e+00
-9.682654437302984363e-01,-6.166482768868025710e-01,-1.643187019053027331e+00,-1.616372325871362481e+00,-1.570460785451699426e+00,-1.232682388772943227e+00,1.693715500754366943e+00
-9.324925481945800509e-01,-6.271644583042135235e-01,-1.544886448680671265e+00,-1.720290538413382642e+00,-1.525208324989979491e+00,-1.263526801755954221e+00,1.677551815674749314e+00
-8.764063654750908761e-01,-6.448112369140251987e-01,-1.419096997162361262e+00,-1.674990190480341035e+00,-1.445513231676187615e+00,-1.278447157911033472e+00,1.629614902472709126e+00
-8.508200295654633205e-01,-6.705623155423834358e-01,-1.343821110234455496e+00,-1.639636692109314176e+00,-1.315676138006871554e+00,-1.245924965374289872e+00,1.545994978191411739e+00
-8.591341236139915516e-01,-6.936768834432255337e-01,-1.315987717457001160e+00,-1.669043008331705380e+00,-1.118008350199262146e+00,-1.174454032565275252e+00,1.480785795857419984e+00
-8.427007306236744544e-01,-7.065449778373145140e-01,-1.269938350568100560e+00,-1.558593391945584106e+00,-9.001111928199634349e-01,-1.065472483515184088e+00,1.446151400408157706e+00
-7.797386051576482568e-01,-7.135407483451622346e-01,-1.211635108827269214e+00,-1.439470198226822095e+00,-6.787625159490606741e-01,-8.077067973488727404e-01,1.450675430177961189e+00
-7.128816138456117724e-01,-6.834453543181906454e-01,-1.145257455831216742e+00,-1.306849746190164030e+00,-4.711717895903300146e-01,-4.304434079858698858e-01,1.450196091861921666e+00
-6.625179294044991618e-01,-6.665775652400091067e-01,-1.093036222923504663e+00,-1.101320319125576042e+00,-2.662655105178379777e-01,1.610379846972431750e-02,1.416026035805484362e+00
-6.283778439237219793e-01,-6.473878337608790501e-01,-1.099043291682033630e+00,-8.599580008323282065e-01,-6.854976978915017227e-02,4.478505038023050666e-01,1.387353794157220044e+00
-6.000501411777825478e-01,-5.969342375926611766e-01,-1.100796011310578582e+00,-5.665841891197564983e-01,1.105904317317829566e-01,8.523180674773200849e-01,1.365063158016210920e+00
-5.656853718268017861e-01,-5.627941793826390926e-01,-1.067180233644771103e+00,-2.791875028608226117e-01,3.009478643424268185e-01,1.234884476141895338e+00,1.314190082871036225e+00
-5.447579196423690817e-01,-5.244446597293256351e-01,-1.050327443489873502e+00,-8.299095125285926855e-03,4.822931584710365982e-01,1.594980507023391336e+00,1.245610369776994908e+00
-5.298974773678688521e-01,-4.641789861422052077e-01,-1.033085117662979613e+00,2.795020984581175760e-01,6.518219627118515547e-01,1.923123540869764447e+00,1.180011733583397060e+00
-4.930909378546011190e-01,-4.315819080722704815e-01,-9.431285573733294569e-01,5.462409586309835419e-01,8.016727468910245236e-01,2.156471389059388954e+00,1.118532647106040834e+00
-4.668454947162059554e-01,-4.037485425655990001e-01,-8.074820862079556960e-01,7.738064219323104176e-01,9.400665790079143491e-01,2.324370372121631334e+00,1.068992867154006099e+00
-4.856157744891897998e-01,-3.802145229585968123e-01,-6.920140755418136003e-01,8.918660283684931578e-01,1.046941902898113064e+00,2.266321784826663688e+00,1.030148982990586326e+00
-5.300772462806246921e-01,-3.998237061438869588e-01,-5.702244005199030852e-01,9.759353476609389233e-01,1.123305337206559340e+00,2.091651715126707778e+00,1.005776087242060690e+00
-5.519334590629587645e-01,-4.544118236807365152e-01,-3.959288402978766719e-01,1.032935319325911649e+00,1.187013520023039170e+00,1.700037219651728826e+00,1.001881194125253671e+00
-5.284593806074155964e-01,-5.171642641998708267e-01,-1.479452609747800018e-01,1.075464357117639214e+00,1.236532350569863326e+00,1.249685004535705524e+00,1.034088818335554549e+00
-4.800880440467281129e-01,-6.047539398603557492e-01,1.224787800972459983e-01,1.041309299984360948e+00,1.297316277861115807e+00,7.292101234562808898e-01,1.112974946087863515e+00
-4.463974081185817511e-01,-7.073538834031639633e-01,3.070957811713848074e-01,9.166583758231650059e-01,1.346499568859682583e+00,2.537359936357619361e-01,1.180595955279084563e+00
-4.066996488904239815e-01,-8.142532001163965694e-01,4.779608422110226407e-01,7.702710666410150786e-01,1.389283261097273847e+00,-1.815460124465206881e-01,1.234554936162868266e+00
-3.212820900231061483e-01,-9.115051548587299601e-01,6.944708446273151203e-01,6.054280732831762712e-01,1.414617936891460204e+00,-5.540906587451766008e-01,1.292408782892606744e+00
-2.018892429352658890e-01,-1.005551376101115890e+00,9.171677119857446492e-01,4.068045049993029849e-01,1.432306587040799162e+00,-9.142615206183535292e-01,1.325275487060850743e+00
-7.848170224011852270e-02,-1.100691127930958357e+00,1.087808089155151148e+00,1.739959635478904865e-01,1.453494753236139747e+00,-1.255871869477731551e+00,1.369047908318599127e+00
4.789197097385122781e-02,-1.172671396902524865e+00,1.224757830396439040e+00,1.075583694004622615e-02,1.471902479036502065e+00,-1.569633853907181908e+00,1.423411314714573273e+00
1.790892433609636569e-01,-1.233176726012266577e+00,1.351026620230788566e+00,-1.525142329727446899e-01,1.487242308714442629e+00,-1.853854722700387647e+00,1.457746140760440845e+00
3.117396659733373543e-01,-1.265339407994350740e+00,1.467468333723020990e+00,-4.017561674143910189e-01,1.491149184607354350e+00,-2.095996003254552154e+00,1.480950593117813519e+00
4.444948901530243468e-01,-1.299224811758481479e+00,1.547058565473879987e+00,-7.001783439825604027e-01,1.508694063259763407e+00,-2.370045256803399170e+00,1.503046515964223673e+00
5.652359768156811626e-01,-1.337634245292457225e+00,1.528393141809691880e+00,-9.291219628928537588e-01,1.510060263363366406e+00,-2.478172930788613559e+00,1.529516642972850171e+00
7.048821426651474820e-01,-1.363819774550217856e+00,1.441552457834394119e+00,-1.089021502045428580e+00,1.512025722265053496e+00,-2.578765500256985366e+00,1.558638334173800821e+00
8.846754900246611708e-01,-1.380507794715629677e+00,1.366980620363500432e+00,-1.205777811135011479e+00,1.498819033996456884e+00,-2.396755093876157261e+00,1.577004161163797491e+00
1.054372107672896242e+00,-1.383219245517819385e+00,1.241535735018228781e+00,-1.388507265896066212e+00,1.508789969102031225e+00,-2.179675841416595095e+00,1.583161055530024619e+00
1.165106321809938894e+00,-1.347895717722438658e+00,1.020396819452373816e+00,-1.495526410370651149e+00,1.506488970652031245e+00,-1.705205412268651077e+00,1.572330305786184823e+00
1.269429041676345404e+00,-1.265039811320284313e+00,7.589160363528080211e-01,-1.556586017871119942e+00,1.505889755487321846e+00,-1.229221946285607991e+00,1.554383930502223343e+00
1.405345111669287217e+00,-1.180071647464059348e+00,5.327586992363575469e-01,-1.608028315788712082e+00,1.499562107924623522e+00,-6.608550942323598854e-01,1.530295632504508063e+00
1.536886950229437998e+00,-1.111941329381069155e+00,3.110205903223417501e-01,-1.634858007893535969e+00,1.491796309060045012e+00,-1.861299833678109472e-01,1.502507209225956153e+00
1.623023584747779191e+00,-1.017715339225927496e+00,2.916660615825961145e-02,-1.589572604342281981e+00,1.486643093549677719e+00,2.461709458139726969e-01,1.461281468781105985e+00
1.678465604620177354e+00,-8.973488165827381291e-01,-2.418416566093428699e-01,-1.572225449677278064e+00,1.470224694028465784e+00,6.690043637498366280e-01,1.407427371276859240e+00
1.726552288888516529e+00,-7.900600187390610651e-01,-4.380533707650791087e-01,-1.551223084688968523e+00,1.465718646604052822e+00,1.011154019347482169e+00,1.344090763603533745e+00
1.734836385090532396e+00,-7.028448252857782963e-01,-6.513576124108078069e-01,-1.514820997958632454e+00,1.460972878207178471e+00,1.382170602617027733e+00,1.249430350089841824e+00
1.736019854675890928e+00,-6.347145072027882140e-01,-8.882857308490366144e-01,-1.507750314646838508e+00,1.456898276173290707e+00,1.691483470080523688e+00,1.075494300422530358e+00
1.763778280107874963e+00,-5.781639578196773321e-01,-1.045938185863015679e+00,-1.440279131063482154e+00,1.449587877343283537e+00,1.989261483801629815e+00,8.026584324932750647e-01
1.780496298119799148e+00,-5.579405550922428292e-01,-1.200160223506940849e+00,-1.371669447393586427e+00,1.444027171086270656e+00,2.233410111159406242e+00,4.274922743903175615e-01
1.808269749745822219e+00,-5.329085248441112199e-01,-1.354277323229735597e+00,-1.351341188557342310e+00,1.447862139414057836e+00,2.468196056109484005e+00,-3.872402913129846524e-02
1.824658145966384648e+00,-4.627259177292786241e-01,-1.501099055770505064e+00,-1.305591418342466614e+00,1.438250829400467001e+00,2.556969201355285826e+00,-5.156811979404318791e-01
1.814965923579603402e+00,-4.225637645667579267e-01,-1.656204911784142642e+00,-1.293232687381684620e+00,1.443212276859451304e+00,2.649742095826745913e+00,-9.626628004839599129e-01
1.858393751393461191e+00,-4.036436591859787759e-01,-1.728304981246264749e+00,-1.242149954560400893e+00,1.440431923731000374e+00,2.593581000303324391e+00,-1.376418215575214710e+00
1.903394529923163603e+00,-3.501191562023664439e-01,-1.796600096589495710e+00,-1.158844571334805007e+00,1.431036292779408470e+00,2.621983615853140659e+00,-1.760527577108983444e+00
1.911918281647884132e+00,-3.333561959622949322e-01,-1.904038692770282371e+00,-1.154530281053389729e+00,1.427896401825501371e+00,2.516896959919967536e+00,-2.101808331447796441e+00
1.938043924295695941e+00,-3.439472356420586463e-01,-1.942792637935730760e+00,-1.100586271822079354e+00,1.425978939478156349e+00,2.498366335669577332e+00,-2.413458112964894653e+00
1.932830762179815753e+00,-3.272292721717001696e-01,-2.020390521806136874e+00,-1.029834387393346873e+00,1.417733829568335047e+00,2.396245784984374350e+00,-2.674594357162107805e+00
1.940560607261943016e+00,-3.263753698361515632e-01,-2.066859340401239198e+00,-1.019542971658349284e+00,1.412604568701847363e+00,2.354795306127643872e+00,-2.847496790122527877e+00
1.958462013046835537e+00,-3.187204648287117470e-01,-2.059369205383299040e+00,-9.701679344251146198e-01,1.407187677575194584e+00,2.269063206204569028e+00,-2.929304080894756801e+00
1.942433127381015812e+00,-3.049236371074764973e-01,-2.078454080753577848e+00,-9.746620208899714477e-01,1.403664337784937821e+00,2.209980947661283057e+00,-2.940374513432209014e+00
1.940515665033726300e+00,-2.947519945923071649e-01,-2.058245704220140748e+00,-9.526110675424637186e-01,1.401866648657379422e+00,2.158598590895122182e+00,-2.894549857684114436e+00
1.905356934498614319e+00,-2.728508395817702548e-01,-2.055758937288154620e+00,-8.576959995827415639e-01,1.390793276331070416e+00,2.088685609878626614e+00,-2.819348801747834088e+00
1.881343549304803631e+00,-2.803559735229249616e-01,-2.017993666601214375e+00,-8.578907401479707318e-01,1.392351244486222939e+00,2.046441224379302870e+00,-2.727654548023705772e+00
1.863022664542968165e+00,-2.700645032464588091e-01,-1.940830260631076776e+00,-8.267617021434636726e-01,1.379480139399036354e+00,1.975030205450922782e+00,-2.627780972393911618e+00
1.812239501124912611e+00,-2.627391382180460644e-01,-1.899739319599802467e+00,-8.207845766898813622e-01,1.380918290701083073e+00,1.932006857690737878e+00,-2.528266989131333631e+00
1.775777500513997520e+00,-2.622897432069393187e-01,-1.824882857107301692e+00,-8.140434606279667307e-01,1.371762293455591752e+00,1.867426866551502584e+00,-2.432917497813158469e+00
1.720545220129987563e+00,-2.289736167567779646e-01,-1.771448211309367693e+00,-7.719488734656554385e-01,1.369844831108246730e+00,1.837691010349973286e+00,-2.357312016364576657e+00
1.662301864998994017e+00,-2.182177525459488843e-01,-1.730102615832174173e+00,-7.783903928535451655e-01,1.379216507415903514e+00,1.788525712605182338e+00,-2.292102861301548167e+00
1.639037498761153344e+00,-1.929160416579422943e-01,-1.623862488160099371e+00,-7.381533541578888524e-01,1.363660998675797487e+00,1.728799345756315553e+00,-2.202370957611221591e+00
1.582921372736689758e+00,-1.558099054706219011e-01,-1.554818353860898394e+00,-7.133759510848936003e-01,1.352299952455893184e+00,1.681057200390301265e+00,-2.109388378192855740e+00
1.498372633315814273e+00,-1.466719342037847706e-01,-1.512409171101292138e+00,-7.332847582150470167e-01,1.347961631172456265e+00,1.587685085299939125e+00,-2.023371571435950145e+00
1.440294129986696703e+00,-9.979863555500956274e-02,-1.403307794289931909e+00,-6.877447274886150375e-01,1.334635169684017519e+00,1.531928497100987219e+00,-1.950342741375843403e+00
1.394244708556202639e+00,-4.005726978290047313e-02,-1.234704734499825207e+00,-6.527357680198297984e-01,1.320134276143303254e+00,1.420100670564139467e+00,-1.889972184409116629e+00
1.325215600451012943e+00,-1.333240651615885675e-03,-1.039691434311151852e+00,-5.927547467250438018e-01,1.321069074489700235e+00,1.314684447381142540e+00,-1.843338568553787304e+00
1.247108407688879428e+00,3.121889519012988057e-02,-8.167698558118607899e-01,-5.161605635272681347e-01,1.306831769298910650e+00,1.238854282062551437e+00,-1.798652385621379857e+00
1.154185714880351377e+00,5.801861671927976971e-02,-6.000051989495380766e-01,-4.668005524880447510e-01,1.304578767403308248e+00,1.179232744051739168e+00,-1.741472672314392511e+00
1.029250165697659369e+00,6.718655856183253228e-02,-4.283911189540412501e-01,-4.160323607224625242e-01,1.298275030851336886e+00,1.112210982750161392e+00,-1.676368346089418537e+00
9.090034708157945786e-01,7.425726914435382131e-02,-2.847152060325153222e-01,-3.784018894493756946e-01,1.296429476069227427e+00,1.056004944998578665e+00,-1.597826757239295681e+00
8.336975860414042039e-01,9.454055848168163578e-02,-1.522745774500955385e-01,-3.681404170194357839e-01,1.286099090404668743e+00,1.045189194177897907e+00,-1.516573690316436185e+00
7.944043068669470742e-01,1.185389447522638973e-01,-5.610115437199025834e-02,-3.447711674018916206e-01,1.274546276133325939e+00,1.032396039858440862e+00,-1.441267832812842542e+00
7.591407202229838447e-01,1.450241252256290192e-01,-4.426673122626123558e-02,-3.304799751706055666e-01,1.266876383110959736e+00,1.047046742644497375e+00,-1.385705957908212049e+00
7.112038342916848777e-01,2.026382618912220268e-01,-1.189134542302072717e-01,-3.472579070631365283e-01,1.269393104256222315e+00,1.075913752128732082e+00,-1.354247379924733430e+00
6.670269602511713636e-01,2.936284934291627513e-01,-2.236106563038298134e-01,-3.441270318255695848e-01,1.263760446800987758e+00,1.082490098201160933e+00,-1.301606640769392698e+00
6.465938725767061968e-01,3.955093613209614833e-01,-3.113950998003267578e-01,-3.610996770125884936e-01,1.249619134718993330e+00,1.074730309814142526e+00,-1.237146531932964422e+00
6.425342094705244200e-01,5.164002463206862625e-01,-3.888731286386115649e-01,-3.851879477395625528e-01,1.238617539058073369e+00,1.068753157089818995e+00,-1.198197791660637890e+00
6.494101794877749079e-01,6.349092750387724804e-01,-4.635498222183564998e-01,-3.654289934880150525e-01,1.231954351947117665e+00,1.058371856898498997e+00,-1.165885311341652297e+00
6.521515463241422950e-01,7.277420561201120019e-01,-5.327137570081408313e-01,-3.524710146374787634e-01,1.220785073778429819e+00,1.030972914750460934e+00,-1.133542887717498004e+00
6.414706221879451498e-01,8.075869423167930661e-01,-6.001100823291860564e-01,-3.528605230387338310e-01,1.209711614185815520e+00,1.000128501767505451e+00,-1.098803608888698768e+00
6.131279205188189252e-01,8.579356823761596917e-01,-6.706521999987336002e-01,-3.655188779443929725e-01,1.198782013356325393e+00,9.578990879207105458e-01,-1.059914809767747990e+00
5.684117942814648217e-01,8.818741820368625195e-01,-7.412992010479291238e-01,-3.644702350435458094e-01,1.186390350214283629e+00,9.199840188967578491e-01,-1.021145865679140563e+00
5.202801405141954660e-01,8.982925488331544583e-01,-7.943743635620004184e-01,-3.473028220206120231e-01,1.178504690863446669e+00,8.482284337953949205e-01,-9.855077422864511050e-01
4.837132837943736163e-01,9.313690197606666610e-01,-8.049054620903328683e-01,-3.572048111665782066e-01,1.162589644297828961e+00,7.751696331596003020e-01,-9.561763661385391799e-01
4.559548038208238729e-01,9.767592521500445546e-01,-7.898802770970880793e-01,-3.768439649275978631e-01,1.152738656945095919e+00,6.638062278279122097e-01,-9.270996444367129996e-01
4.268781093896834022e-01,1.011588442706101709e+00,-7.680390086964306029e-01,-3.844239571311747206e-01,1.137422781911090475e+00,5.249839391968103008e-01,-8.995958461798236883e-01
3.910602443549793250e-01,1.033789194390718924e+00,-7.525793730737695419e-01,-3.542387059184970433e-01,1.115156089505742187e+00,3.901314564863089807e-01,-8.494418466856723526e-01
3.355433116787320813e-01,1.038957387007668931e+00,-7.614027487432561969e-01,-3.455501569336050238e-01,1.093200982004716160e+00,2.154613867863530707e-01,-7.974452976481360977e-01
2.508897434197465692e-01,1.068183934317401551e+00,-8.139385772483187509e-01,-3.695185998991989962e-01,1.078556273333752813e+00,-2.438789467179569570e-02,-7.946140463553907907e-01
1.911184343427740906e-01,1.103597319298349477e+00,-8.314505564443464003e-01,-3.892925530739610451e-01,1.081696164287881956e+00,-3.356931100156890224e-01,-8.011753935046606045e-01
1.648879355860555229e-01,1.122652224092926421e+00,-8.118563176408022386e-01,-3.751212158747962988e-01,1.074649397440952114e+00,-6.818574592207249374e-01,-8.082460768162880171e-01
1.428369822384367716e-01,1.140718427138156965e+00,-7.990781622445597421e-01,-3.387490997202036169e-01,1.067362996888032711e+00,-1.035212319498712841e+00,-8.051901143827366880e-01
1.039032408894358106e-01,1.153047214793978537e+00,-8.142981150738304308e-01,-3.344497538204649345e-01,1.061059303969269507e+00,-1.303928610441040803e+00,-7.968161337242873898e-01
4.588459689947033127e-02,1.193568878511241937e+00,-8.394350559723373628e-01,-3.372510618082635858e-01,1.047732842481052806e+00,-1.475228122110094908e+00,-7.857756717626340759e-01
-1.391668275335655736e-02,1.214496330695674642e+00,-8.490823088601606727e-01,-3.440221757167738481e-01,1.046846040689053403e+00,-1.542085113422075882e+00,-7.775814327460883746e-01
-6.360626104240374445e-02,1.207081108481666831e+00,-8.488875955656727257e-01,-3.373858884928027102e-01,1.035844488661341600e+00,-1.554069362175725111e+00,-7.690576810215343784e-01
-1.133108655254067010e-01,1.196894494314038049e+00,-8.524379225094413925e-01,-2.804008884803588231e-01,1.030259827760393598e+00,-1.502911689279684548e+00,-7.603541331132612768e-01
-1.597197429690777604e-01,1.188760223719803610e+00,-8.383414708433845064e-01,-2.288237911489687804e-01,1.017077181402314956e+00,-1.408550872440017532e+00,-7.534032775629029288e-01
-2.094692896803529436e-01,1.181449830343864082e+00,-8.043811815460766290e-01,-1.933654912105731150e-01,1.017340857018766975e+00,-1.324945947081879183e+00,-7.427373250791236003e-01
-2.803559462521421075e-01,1.177450081118247560e+00,-7.997522683966251655e-01,-1.121723381682926401e-01,1.013697656742196251e+00,-1.200100282355509584e+00,-7.344831721821654114e-01
-3.676909947375461840e-01,1.162964175592487326e+00,-8.326040281831925682e-01,-1.246358706963324181e-02,1.009431286657092031e+00,-1.061053309854231852e+00,-7.276821422393942029e-01
-4.437608701203243911e-01,1.157870868508672935e+00,-8.408281832338326822e-01,1.319163480381080333e-01,1.007585688241774413e+00,-9.099622019894115788e-01,-7.223791229379328271e-01
-4.978996199168084225e-01,1.151639061338485703e+00,-8.050253443931676411e-01,3.017178490660188395e-01,1.003487087930632349e+00,-7.429770078725694837e-01,-7.133609794324202724e-01
-5.453571129905299131e-01,1.130202300262270088e+00,-7.649380767638103151e-01,4.896304953672658833e-01,1.003079597184042271e+00,-5.450125740882882930e-01,-6.969276137128721516e-01
-6.087986313141335870e-01,1.128015157275091829e+00,-7.508266807159935663e-01,6.995940950160761673e-01,9.995323027499614099e-01,-2.721617617772453812e-01,-6.768690082457062829e-01
-6.838798049476069174e-01,1.155039589945172640e+00,-7.327903937049684568e-01,8.499212395432498290e-01,9.812923030904086019e-01,2.170644171611835205e-02,-6.740078136480143201e-01
-7.605039314502737291e-01,1.137497694714967311e+00,-6.897970165204714288e-01,9.801747796799875623e-01,9.907358869630789044e-01,3.290268794868822511e-01,-6.978863448865446628e-01
-8.507002018041665004e-01,1.147893993829515624e+00,-6.644803339799776332e-01,1.177015657759628020e+00,9.708899662275172204e-01,6.088585451948236305e-01,-7.249257764798677783e-01
-9.414357516254190372e-01,1.144508464146057225e+00,-6.581586423534124819e-01,1.318324658781233616e+00,9.592173787364988158e-01,8.528573742155876047e-01,-7.286558450655400421e-01
-1.019468058854500203e+00,1.107731867937763903e+00,-6.287673523249492913e-01,1.390274957177084492e+00,9.494861646033303515e-01,9.978814721704476476e-01,-6.367368529297534607e-01
-1.083239117157130948e+00,1.067449887013918630e+00,-5.725912851490266853e-01,1.459124323640315080e+00,9.365671938617037284e-01,1.063794703961340460e+00,-4.283761200307711903e-01
-1.134591503347548436e+00,1.032201299293225460e+00,-5.081161501186426399e-01,1.490642815504539254e+00,9.081405800345221380e-01,1.058656454649364864e+00,-1.400955881313281637e-01
-1.195666109771287289e+00,9.745871080860946112e-01,-4.652875156528901712e-01,1.503121401497442555e+00,8.684728241070693855e-01,1.010629684261687977e+00,1.985186849042808177e-01
-1.285083417864152366e+00,8.914316050098597399e-01,-4.920423222246061989e-01,1.509562948156073503e+00,8.424190726618041580e-01,1.015977645791366069e+00,6.084540924119474781e-01
-1.358262100802865024e+00,8.034673653298657348e-01,-5.216733223172564937e-01,1.500409977965966313e+00,8.105171155988744047e-01,1.056634136193224105e+00,1.028486175089216026e+00
-1.368074150950915335e+00,7.099155358682995853e-01,-4.833836892738085922e-01,1.494013373535496569e+00,7.800052696504966576e-01,1.113394397794009727e+00,1.396836304326298794e+00
-1.356269725651670921e+00,6.258012470768820057e-01,-4.315369658440815215e-01,1.476995813391113188e+00,7.508116708844214671e-01,1.109619386980065237e+00,1.664878489116672355e+00
-1.385466275114877188e+00,5.340020827023228556e-01,-4.639692739245304676e-01,1.495840978697149382e+00,7.267952859060233806e-01,1.025490126536243718e+00,1.825586933835054992e+00
-1.420924602324014074e+00,4.367051311902625521e-01,-5.183776498193792825e-01,1.525696689930799987e+00,7.164649438745618326e-01,8.973338176594958249e-01,1.856116751220659999e+00
-1.419486505563560819e+00,3.661180712924982927e-01,-5.058691205215848363e-01,1.510776333775609714e+00,6.922087942904386892e-01,6.939315651598443324e-01,1.798442673403677361e+00
-1.421089372313555366e+00,3.161438679818717734e-01,-5.076817267599953443e-01,1.544377112518091621e+00,6.755507610631816817e-01,4.110589086707694406e-01,1.720485278978611809e+00
-1.438406610944353847e+00,2.616455803598483065e-01,-5.335077181922442957e-01,1.579985210793555250e+00,6.630871903560153768e-01,8.378472154163540964e-02,1.613780757372063057e+00
-1.449237333417507934e+00,2.298724067789775782e-01,-5.293132556722091042e-01,1.570427815091368640e+00,6.445355621590431738e-01,-2.633083882612186066e-01,1.473460458099817849e+00
-1.459453890890138883e+00,1.955376080037540820e-01,-5.416869582854644261e-01,1.582711660518931751e+00,6.410122223687864107e-01,-6.235392458273647520e-01,1.359445515846657848e+00
-1.481444930357012080e+00,1.245760386280048149e-01,-6.070908811845465713e-01,1.645613817562840975e+00,6.559685159440720170e-01,-9.900018287513079329e-01,1.263317062267454993e+00
-1.480950593117758007e+00,5.628089601397712194e-02,-6.407515738077740330e-01,1.652504786503417034e+00,6.704934513951377184e-01,-1.299194841182793603e+00,1.122472482450898035e+00
-1.439215516510161663e+00,1.802128808779668301e-02,-5.774748527443973600e-01,1.595924239273793788e+00,6.525649930068100346e-01,-1.482868055464992008e+00,8.700397316203645204e-01
-1.405764563375488940e+00,-2.717423100710714134e-02,-4.832638615124840165e-01,1.560376054879020202e+00,5.874666990760557539e-01,-1.499496189020566028e+00,4.883122263681372033e-01
-1.412655505045212756e+00,-8.242151031430389185e-02,-4.040781098153811701e-01,1.461760834367831219e+00,4.609372661348309919e-01,-1.384627371702529253e+00,2.208092392330662790e-02
-1.436893574109199267e+00,-1.383728390784988438e-01,-2.873367723783271099e-01,1.333035302718721393e+00,2.875734499329096749e-01,-1.271840868533713476e+00,-4.225337939910422946e-01
-1.453806332686380376e+00,-2.301720307238269703e-01,-1.186288292086279395e-01,1.200175167888617445e+00,8.772452416161424793e-02,-1.161526051561223571e+00,-8.365738068331074473e-01
-1.473999737567288637e+00,-3.596765519046085657e-01,7.114133828847735153e-02,9.827214332218670023e-01,-9.227852450721663047e-02,-1.144388609113977662e+00,-1.225072398723048295e+00
-1.486193671267788119e+00,-4.956076208208065603e-01,3.229448979245042040e-01,7.509614801298192255e-01,-2.599138646779408646e-01,-1.271061879002000072e+00,-1.583880103910306758e+00
-1.492874900719920461e+00,-6.339355449418992983e-01,5.812498908290553157e-01,5.032176108707986373e-01,-4.275731594928222634e-01,-1.483632046073435351e+00,-1.905207136161601866e+00
-1.534130584469828307e+00,-8.042163842858079947e-01,7.322960837364556053e-01,2.821835514138504308e-01,-5.739485131694976872e-01,-1.703467691563376185e+00,-2.204393303338103571e+00
-1.570008363385166916e+00,-9.722202507277122319e-01,8.737248852485890449e-01,5.617606717589485044e-02,-7.240868839758496378e-01,-1.901222385859269171e+00,-2.475791074507016631e+00
-1.552496411459880488e+00,-1.119521348855359477e+00,1.024052002504993730e+00,-1.873134256823449917e-01,-8.740094884535087871e-01,-2.118076927177858781e+00,-2.713498155206162110e+00
-1.522880410290528008e+00,-1.248246880504469303e+00,1.083793395547844041e+00,-4.372594368518001318e-01,-1.007298101614595431e+00,-2.208258225879167203e+00,-2.915027887586685296e+00
-1.483721930529813271e+00,-1.341918619539667068e+00,1.096871147618083686e+00,-6.907407760415873454e-01,-1.110266505978563245e+00,-2.290559881161446931e+00,-3.077743679108846386e+00
-1.410663129894018653e+00,-1.445791862582646026e+00,1.084871981753582348e+00,-9.442670301889610762e-01,-1.154895796631638660e+00,-2.326272862816447518e+00,-3.186485572636121866e+00
-1.324541467028206299e+00,-1.543523237453339636e+00,1.001162145745054799e+00,-1.174603830902287704e+00,-1.154080858771555640e+00,-2.290679736193512728e+00,-3.210753612275962787e+00
-1.223095022495068740e+00,-1.581093767575009190e+00,9.063069916660781988e-01,-1.375759053804825882e+00,-1.125102982700854071e+00,-2.282560409980982641e+00,-3.197211439000535727e+00
-1.094504262988904575e+00,-1.613001767840418932e+00,8.817093847765800074e-01,-1.550743719102132268e+00,-1.074817210848233451e+00,-2.247626390586843215e+00,-3.184178574616836066e+00
-9.775682122574180788e-01,-1.665462710812304348e+00,8.838815288405021953e-01,-1.637045123609959241e+00,-9.929888888587923290e-01,-2.272733360909606759e+00,-3.149873746417397591e+00
-9.087338174466608187e-01,-1.639981258282310783e+00,8.517937596623503804e-01,-1.730267413092512196e+00,-9.334273029075745853e-01,-2.205202236174763630e+00,-3.093832533196894108e+00
-8.726463263136474691e-01,-1.625555239366430094e+00,7.970857870933933942e-01,-1.859771934273279914e+00,-9.148757619771297200e-01,-2.162523427316820346e+00,-2.990423629546656858e+00
-8.268216160240982049e-01,-1.710822999896721708e+00,7.861351823173490239e-01,-1.837855807610255798e+00,-9.365431955844494283e-01,-2.039250686035498639e+00,-2.829490473687246155e+00
-7.556503344307019532e-01,-1.735405662404501559e+00,8.069727773162005402e-01,-1.864595587988016057e+00,-1.035221318852697081e+00,-1.984977109554364461e+00,-2.697604096224881509e+00
-6.871155362939973532e-01,-1.742850827923456025e+00,8.199307016250878544e-01,-1.897462319427001276e+00,-1.151348458564127597e+00,-1.913925655722292785e+00,-2.596532106628135494e+00
-6.485562771522124237e-01,-1.872984567569638159e+00,7.992129889291543776e-01,-1.838844482088874965e+00,-1.255467383969977035e+00,-1.887620298703207578e+00,-2.512163190661609313e+00
-6.366919107015089896e-01,-1.898960330068158342e+00,7.587062968643643046e-01,-1.832672616070063487e+00,-1.365003200502257208e+00,-1.883920146151685238e+00,-2.463657027416410461e+00
-6.173673525377842974e-01,-1.904218434412255245e+00,7.294198356739556299e-01,-1.862947751739063573e+00,-1.441198952303102132e+00,-1.850499136321848148e+00,-2.433606602888327419e+00
-5.763063820823088879e-01,-1.960379529935663001e+00,7.211956806233987827e-01,-1.825631903334012929e+00,-1.461739863146127583e+00,-1.824972768834476344e+00,-2.378838661897197948e+00
-5.315453136167935799e-01,-1.912936953972918408e+00,7.212406228515044759e-01,-1.760587490989673487e+00,-1.458719832678312400e+00,-1.779522568022939844e+00,-2.305794832913876657e+00
-4.644486395113112120e-01,-1.927183203976057246e+00,7.353370472468756525e-01,-1.772706539157065109e+00,-1.426290568015797788e+00,-1.706778335713643457e+00,-2.239537062220797736e+00
-4.143096389404299362e-01,-1.893926964135775215e+00,7.236075074806835872e-01,-1.712605662830157804e+00,-1.416966800996122267e+00,-1.688232739810890948e+00,-2.177968091287008079e+00
-3.757653787218873109e-01,-1.850049741310769047e+00,7.212106522758721106e-01,-1.682330499890472009e+00,-1.412077261102262504e+00,-1.660893711543542928e+00,-2.148367034499276684e+00
-3.163985224277354735e-01,-1.910285444322173953e+00,7.263488743170509743e-01,-1.617870363783302512e+00,-1.410806923207608143e+00,-1.647905843929597935e+00,-2.131139734866394075e+00
-2.614208692189035066e-01,-1.881763001010977598e+00,7.038634976108681940e-01,-1.435545361805123932e+00,-1.443068461729257734e+00,-1.638573104826790416e+00,-2.086258811368812971e+00
-2.048703198358203803e-01,-1.935931694112449808e+00,6.715809878674039446e-01,-1.288963312057744837e+00,-1.468690724150678584e+00,-1.563102450062914262e+00,-2.011582117789068036e+00
-1.454884918891952150e-01,-1.974940348265327605e+00,6.870855657183372323e-01,-1.088107685829231563e+00,-1.469409799801590921e+00,-1.516049382501383214e+00,-1.956185040144831078e+00
-1.151085001113993922e-01,-1.915468608591597288e+00,6.958040852789726394e-01,-9.572399806918596710e-01,-1.479116972024296928e+00,-1.514686198544834550e+00,-1.939916444414824248e+00
-1.275121460296013698e-01,-1.933250213885989721e+00,6.634167466974538740e-01,-8.495766733702669882e-01,-1.425715307495023509e+00,-1.482538488215223715e+00,-1.918344829383300532e+00
-1.647531361722298637e-01,-1.881613202673937391e+00,6.069859978049541027e-01,-6.647799306540580488e-01,-1.395491091806810857e+00,-1.448623141146188065e+00,-1.858049212491219571e+00
-1.488141076920190820e-01,-1.880579558696388043e+00,6.086488329771211347e-01,-6.251421125773037879e-01,-1.361407953147097949e+00,-1.409404774775524505e+00,-1.798232933915233644e+00
-1.156178090031545480e-01,-1.877553512296903371e+00,6.650495840231918088e-01,-5.743439775068304165e-01,-1.352084229760519563e+00,-1.432818939350488652e+00,-1.767927827670545682e+00
-9.409113619981979149e-02,-1.831474202103028359e+00,6.807788730149311185e-01,-5.586746023956701279e-01,-1.387078124856389039e+00,-1.444009226919951150e+00,-1.778069499609957749e+00
-8.230165528222421756e-02,-1.917386098209628020e+00,6.551326232246967862e-01,-5.755573903971078487e-01,-1.396809338989335458e+00,-1.472052304644311249e+00,-1.804075259954962540e+00
-7.105148110286840790e-02,-1.923932473706396751e+00,6.220412079154247209e-01,-5.209842172420042772e-01,-1.429742000240930011e+00,-1.498117978869950573e+00,-1.829107290203135783e+00
-2.531681889433867738e-03,-1.946073338781106887e+00,6.231946523835851792e-01,-5.822086220027000714e-01,-1.429214692641234130e+00,-1.451724073078808352e+00,-1.847263404975429957e+00
9.148459604801928435e-02,-2.012660703994806344e+00,6.658884874354842331e-01,-5.087303423900180199e-01,-1.413036014092483583e+00,-1.434991083414383084e+00,-1.859622135936267462e+00
1.870288006607656595e-01,-1.984602627347176185e+00,6.744721803116360270e-01,-3.576991484058877901e-01,-1.401818739369509181e+00,-1.409854169786672884e+00,-1.857584818556856643e+00
2.800563495780894474e-01,-2.034591802310303787e+00,6.680905748043808323e-01,-2.701244443978900733e-01,-1.373464076740771311e+00,-1.385406361234242656e+00,-1.846304673801868468e+00
3.322326675283537867e-01,-2.011731916126108022e+00,6.453654880339554367e-01,-1.030343669013999985e-01,-1.352923122264648725e+00,-1.346113082059730015e+00,-1.801738345901526817e+00
3.710915233442468875e-01,-1.991403684560577592e+00,6.127234677358872617e-01,-3.187802968973585394e-02,-1.331854860188719236e+00,-1.314085254032981709e+00,-1.733473173863187000e+00
3.961086092106325118e-01,-1.984707483456027433e+00,6.133376327364659097e-01,8.535764498668330091e-02,-1.313495000043185534e+00,-1.316961447553888220e+00,-1.677237220077454349e+00
3.996739078068467510e-01,-1.912068079984896585e+00,5.794073140149014201e-01,1.592254057297681769e-01,-1.312919783155508391e+00,-1.311883139393343889e+00,-1.602305844780993471e+00
4.101600913777869728e-01,-1.945638915422487347e+00,5.750330825821103886e-01,1.550159442865184367e-01,-1.294152475896370724e+00,-1.300602994638300203e+00,-1.548841228407316084e+00
4.242715146963449424e-01,-1.910180588213322705e+00,5.709883911282909175e-01,2.648213978255764545e-01,-1.303524152204027509e+00,-1.330773274198393530e+00,-1.531494046471570947e+00
4.544717648321816572e-01,-1.906600290693866162e+00,5.289387461942518520e-01,3.325472631257042622e-01,-1.288903354543902147e+00,-1.262463187202633730e+00,-1.513487784577827178e+00
4.946189190714322947e-01,-1.945608972117540691e+00,5.011652945682287807e-01,4.552806976687584495e-01,-1.232745335163154543e+00,-1.160357580899162855e+00,-1.468292238212098866e+00
5.668987847171069738e-01,-1.874242868146580587e+00,5.106328603555754242e-01,6.049337360438666877e-01,-1.196576920748704254e+00,-1.039691434311151852e+00,-1.452862573165181193e+00
6.581586423534124819e-01,-1.884953817399975806e+00,5.359944578535169590e-01,7.135706916501227681e-01,-1.154919751275573780e+00,-9.813432230713070581e-01,-1.472426814122240746e+00
7.053615355227249584e-01,-1.863262320065589561e+00,5.393051020037842314e-01,9.735984336075587109e-01,-1.127188258455480430e+00,-9.755458938012773196e-01,-1.495481440871693213e+00
7.372994790931231002e-01,-1.836897076436638798e+00,5.314404575079700876e-01,1.133752627205997232e+00,-1.111464936308204088e+00,-9.851781750366273016e-01,-1.546369487669341236e+00
7.428271822647880551e-01,-1.858303866937111026e+00,5.354851216909928269e-01,1.324032130865626655e+00,-1.085339364564230635e+00,-1.009745838621234348e+00,-1.583910074485994635e+00
7.353969883982791611e-01,-1.800090482381833112e+00,5.407132281885496106e-01,1.554428872730440059e+00,-1.071725272815515773e+00,-1.034223645020093674e+00,-1.602200988672197735e+00
7.595751435816311403e-01,-1.810277096549461895e+00,5.633784283490816946e-01,1.654032767720192698e+00,-1.052286842826433144e+00,-1.049937935088673946e+00,-1.622798873606834391e+00
7.707654311510658829e-01,-1.811715193309942906e+00,5.780590744400848635e-01,1.755688951741884996e+00,-1.026712489693104580e+00,-1.060394175354639756e+00,-1.616402269176364648e+00
8.079614517947641961e-01,-1.753456893797245009e+00,5.762914377005490252e-01,1.850544078550064864e+00,-1.020336932842536015e+00,-1.062086953831753444e+00,-1.625824892735550087e+00
8.742791636393298926e-01,-1.813632682927973638e+00,5.755423914738933000e-01,1.885103588466219282e+00,-9.990289497942006491e-01,-1.060124521985505996e+00,-1.647606219984776299e+00
9.167332886270973535e-01,-1.812359328886264942e+00,5.267366315545585209e-01,1.935632097438411137e+00,-9.831139032285829416e-01,-1.062326636625143816e+00,-1.646797287148171751e+00
9.757406070957652666e-01,-1.790083691668498123e+00,4.610181675996916084e-01,1.959435743143722597e+00,-9.755159177714523011e-01,-1.052978953140604190e+00,-1.664893460769145683e+00
1.070161337816066816e+00,-1.877718309557185883e+00,4.594302452314291685e-01,1.943212089641876972e+00,-9.526979194892648550e-01,-1.044739771896008307e+00,-1.711212508297921264e+00
1.158125522954578379e+00,-1.860161415403738250e+00,4.740210341367956381e-01,2.010173964333561436e+00,-9.596487804938158561e-01,-1.050746895196019715e+00,-1.767972769898706886e+00
1.249475292318003028e+00,-1.880429760359347835e+00,4.562993427231210042e-01,1.975779251677634019e+00,-9.475687022560963513e-01,-9.962635792264973311e-01,-1.815055808035981322e+00
1.288978283710218165e+00,-1.940425780577348380e+00,4.343532727550947214e-01,1.937085165851337720e+00,-9.144682712304286198e-01,-9.315637603258819510e-01,-1.821617155185195625e+00
1.300932561888068495e+00,-1.900922761914392023e+00,3.953895335596646632e-01,1.973861762059603286e+00,-8.923453939553294134e-01,-8.619354316017902029e-01,-1.801888144238539269e+00
1.372223698513586054e+00,-1.943257059140862664e+00,4.163020140915962841e-01,1.880909125946184091e+00,-8.621451329111629036e-01,-7.597399408419414080e-01,-1.811700194386700602e+00
1.435350621239894764e+00,-1.922179781348620775e+00,4.761332370493143173e-01,1.927752454019215911e+00,-8.644221330839085837e-01,-6.771386616148400428e-01,-1.829092345821403676e+00
1.462689622236501563e+00,-1.906435520704352626e+00,4.674896302925279912e-01,1.931033127593850818e+00,-8.602995781289424215e-01,-5.119361304314895555e-01,-1.850334339061621147e+00
1.471078601818220921e+00,-1.944350589728277567e+00,4.324208114845906614e-01,1.844926490922049744e+00,-8.401181178451233578e-01,-3.252668403254665996e-01,-1.860970375511084018e+00
1.496185517599446513e+00,-1.880444732011848918e+00,4.278667838682470581e-01,1.888339319812637473e+00,-8.378651159495209555e-01,-1.570982038940349490e-01,-1.833841086732179715e+00
1.547522959408187404e+00,-1.910210558789038338e+00,4.169311780155005032e-01,1.780091845336895240e+00,-8.080243927308661256e-01,5.132244288547083144e-02,-1.766384847530499957e+00
1.598755545108077047e+00,-1.910510155463118753e+00,4.362707351023842328e-01,1.791851328407978450e+00,-8.051241791160457240e-01,2.756821181452706604e-01,-1.722148114150723330e+00
1.663799902910878536e+00,-1.876055501655760072e+00,4.627258904584818922e-01,1.846079962660895912e+00,-8.329755324224530355e-01,6.251271136540892392e-01,-1.713324711210439943e+00
1.704711047758600273e+00,-1.928756127421077382e+00,4.653923990325381510e-01,1.766834269812334046e+00,-8.419876709043760954e-01,1.010509856500363401e+00,-1.709774384266671277e+00
1.684742326747812324e+00,-1.889867328300293137e+00,4.737813513434052659e-01,1.835279183492632971e+00,-8.756154095297397078e-01,1.353078909262672713e+00,-1.732124961559167176e+00
1.681806192075474549e+00,-1.902585569815790079e+00,4.651227456633488799e-01,1.775283163274687936e+00,-8.881269331580954329e-01,1.618035133772788292e+00,-1.747479741072921477e+00
1.682405412694376601e+00,-1.913416346830509873e+00,4.953229957992411059e-01,1.728364922397696013e+00,-8.899725315735240727e-01,1.738371740381772224e+00,-1.743989355280584075e+00
1.662391749455371937e+00,-1.861404771598962338e+00,5.326388714749774600e-01,1.781095491467932224e+00,-8.888939180968780107e-01,1.642857479074000260e+00,-1.768497077713759857e+00
1.673641950905524478e+00,-1.921475731891636451e+00,5.430801400885254537e-01,1.660549172641245796e+00,-8.254015016091464929e-01,1.426032881060357305e+00,-1.802697077075143817e+00
1.657358383522988809e+00,-1.893567453581046500e+00,5.557983816039668845e-01,1.649224085657985395e+00,-7.140201302944237938e-01,1.052948982564916314e+00,-1.816613759828555885e+00
1.621855114085690719e+00,-1.877898078469913967e+00,5.240252352939345215e-01,1.644804911996977648e+00,-5.423820520217281782e-01,6.000651128302281201e-01,-1.795656337068352038e+00
1.646317921561335496e+00,-1.929085694670873430e+00,5.041014292405665564e-01,1.530999709232261363e+00,-3.301893287630530693e-01,1.735615401892709464e-01,-1.693610644645515695e+00
1.652414874776242382e+00,-1.844102559162175137e+00,5.237555819248007616e-01,1.507390804092179071e+00,-1.467588461463442684e-01,-1.933354933640885065e-01,-1.516558718663962857e+00
1.657613065239649242e+00,-1.849630289604609068e+00,5.367135062337435869e-01,1.463303814507876943e+00,4.045873914360065271e-02,-4.038833692501797579e-01,-1.358576669129363257e+00
1.710897912700626300e+00,-1.868864990582697061e+00,5.610115164491613626e-01,1.445731948702011493e+00,1.766235240089342184e-01,-4.677143414334450355e-01,-1.280154908040675998e+00
1.704501308270156557e+00,-1.811086002115297466e+00,5.692207271180693695e-01,1.463243900627242411e+00,2.493677563181195822e-01,-3.770686487977736867e-01,-1.279885254671542238e+00
1.664713691856334332e+00,-1.862603212836794198e+00,5.536412364633425121e-01,1.420774803987001622e+00,2.770992491381019107e-01,-1.699363004416531986e-01,-1.349303898448728223e+00
1.662466662259276529e+00,-1.842200095738127930e+00,5.679773436520485497e-01,1.404685977169750632e+00,2.228826031155373144e-01,8.246642527170999770e-02,-1.443320121844615667e+00
1.627442758408814694e+00,-1.804090231607463624e+00,5.543453131910958120e-01,1.322249495202931779e+00,1.098953543579028747e-01,2.938831751458370611e-01,-1.517217853163499441e+00
1.574592334306401664e+00,-1.831998482647256843e+00,5.386309958517743190e-01,1.182093965920172352e+00,-2.876215337532794791e-02,4.396412931333415486e-01,-1.559492209238511062e+00
1.577123988925122067e+00,-1.779193028043912772e+00,5.719321506494901008e-01,1.100481415713283617e+00,-1.718538009680692369e-01,4.695568909768854660e-01,-1.590396508831359856e+00
1.580150035324578983e+00,-1.789918867137446634e+00,5.608766897645667271e-01,9.548281538345193553e-01,-2.805986342843125314e-01,3.527256963541391954e-01,-1.586876152463334577e+00
1.560450940412183574e+00,-1.815640029731641070e+00,5.374325818847114355e-01,7.378837007887550925e-01,-3.449059886323491142e-01,1.551507709710575611e-01,-1.542219940106670517e+00
1.565004940757730445e+00,-1.773006163101858990e+00,5.390504202871793105e-01,5.145426978541145502e-01,-3.538462195492586559e-01,-4.251403886840199320e-02,-1.481220246486891767e+00
1.585018603996735109e+00,-1.824058952618279328e+00,5.270662260751235451e-01,3.186904942529822371e-01,-2.915282351138026584e-01,-1.698913582134919942e-01,-1.427246293950579226e+00
1.616372325871362481e+00,-1.814306789080011306e+00,5.269014288148965441e-01,1.632850688360609759e-01,-2.189038632907092108e-01,-1.961967425033184220e-01,-1.390140103221748635e+00
1.672922902525297850e+00,-1.770669221777654290e+00,5.596183619168693113e-01,-6.411576082943071242e-03,-1.621465851121550727e-01,-9.322228948255295577e-02,-1.376178505511027605e+00
1.691783066754604103e+00,-1.812404298385250634e+00,5.991213533090289367e-01,-1.055510498676470732e-01,-1.338637864152225632e-01,6.420548166130579659e-02,-1.385810841287915540e+00
1.655770461154781881e+00,-1.753456866526448277e+00,6.035405542408334156e-01,-2.059788766172188090e-01,-1.724529724995704782e-01,2.246293286288780777e-01,-1.408475986906854160e+00
1.610110575396228594e+00,-1.716350730339155639e+00,5.898785259333960695e-01,-3.762447170379545902e-01,-2.485288638141014417e-01,3.573396105804316214e-01,-1.433552986653985339e+00
1.545740323745437017e+00,-1.738761248783027291e+00,6.005145078413209880e-01,-4.576026673405175771e-01,-3.356062198898168702e-01,3.484113788019826963e-01,-1.450465717960258694e+00
1.479018131847253947e+00,-1.679469278022038825e+00,5.784186395363377642e-01,-5.907773432263230262e-01,-4.320552959063972409e-01,2.118811165376932593e-01,-1.447619467744354349e+00
1.472441785774714074e+00,-1.672997788058405710e+00,5.490572382713110322e-01,-7.402955276461509193e-01,-5.219849126757436508e-01,-3.778026961009928186e-02,-1.416400545283413859e+00
1.488275958146156874e+00,-1.691423528929092424e+00,5.676478036730214782e-01,-7.428571528405036872e-01,-6.095656217072198402e-01,-3.763945426457637744e-01,-1.362336735561575640e+00
1.489848854320408034e+00,-1.635981536327490993e+00,5.582252073846327711e-01,-8.465506815122370021e-01,-6.820701766772074848e-01,-7.276671705869763862e-01,-1.300752792975312655e+00
1.505023919462999960e+00,-1.628835912941051234e+00,5.340769682354307157e-01,-9.509482323702411755e-01,-7.278738557492947514e-01,-1.050462242903671406e+00,-1.235468725108268551e+00
1.527659094506195192e+00,-1.605466690594303802e+00,5.517387457685263286e-01,-8.430602684492138899e-01,-7.748520541400738537e-01,-1.367205331504417476e+00,-1.166963897547335094e+00
1.524513247616210432e+00,-1.523674344203862496e+00,5.378070640919552226e-01,-7.948237585730932864e-01,-8.080483473748012457e-01,-1.580599403064930630e+00,-1.103492435918729253e+00
1.518086727151535253e+00,-1.520828093987902641e+00,4.987534677108329539e-01,-7.842326916225328404e-01,-8.169646236478311785e-01,-1.649149200124877535e+00,-1.023872260863034622e+00
1.519854363891015581e+00,-1.515135593555927418e+00,5.432599090012812937e-01,-5.648614673377516660e-01,-8.280380396073483418e-01,-1.551612565819371348e+00,-9.467237992744625963e-01
1.493039670709350730e+00,-1.453222110990692872e+00,6.213820461450914046e-01,-3.701177932473043164e-01,-8.519345640995990010e-01,-1.293966734685181308e+00,-9.230399813304202006e-01
1.415052332979338523e+00,-1.464906708528612711e+00,6.376356702226249062e-01,-2.183226086548417655e-01,-8.703183788892343564e-01,-9.080896545995420510e-01,-9.370765191158980656e-01
1.317036360357848324e+00,-1.491077266133955526e+00,6.717307862045274192e-01,1.010120211745735297e-01,-8.862813783758749508e-01,-4.568087061563863571e-01,-9.488510011101958241e-01
1.225416964895975624e+00,-1.441762170052096614e+00,7.165368241689451523e-01,3.512126867897813476e-01,-8.981457339182763455e-01,3.879894193481447928e-03,-9.710967222937849641e-01
1.140988080507276958e+00,-1.422931949127681506e+00,7.545717209541669135e-01,4.945889757665411501e-01,-9.120714105714244901e-01,4.089167351825628849e-01,-1.039661463735463975e+00
1.054521906009964205e+00,-1.452622890371790820e+00,7.962768542568166019e-01,7.300939418259932978e-01,-9.292088857436597849e-01,7.805625369174951089e-01,-1.125213849287320933e+00
9.950801641826489963e-01,-1.435335622316624704e+00,8.195412204946572743e-01,9.053782310681213197e-01,-9.473289812836349633e-01,1.044799713047384060e+00,-1.214721041836563931e+00
9.495401061855313074e-01,-1.417988467651676299e+00,8.017296718953459411e-01,9.019028169283127561e-01,-9.511160403234408811e-01,1.185164927277160274e+00,-1.305681302798900045e+00
8.801514329840331996e-01,-1.497458871641210720e+00,7.501974895213758820e-01,9.256914909812063996e-01,-9.156427032828151624e-01,1.116914781432776227e+00,-1.362411621094683500e+00
8.441687979598433422e-01,-1.547687729397673184e+00,6.917144788677331846e-01,9.488959433384125397e-01,-8.692158544019723543e-01,8.848552589373892552e-01,-1.387953014776122096e+00
9.036105670578997717e-01,-1.487287256396796487e+00,6.670269875219125844e-01,8.696203071849040178e-01,-8.537561642378288518e-01,5.510795839981930122e-01,-1.427336151136215925e+00
9.834404543313524094e-01,-1.487227342516106443e+00,6.419050455466202010e-01,7.361759506592235880e-01,-8.660759634480097446e-01,1.468816736922562427e-01,-1.432923822730081120e+00
1.019003664920081764e+00,-1.539223864282901477e+00,6.103415841834380906e-01,6.185208242766582210e-01,-9.039461175145424576e-01,-2.404485020771063297e-01,-1.404296496039292297e+00
1.025639924873256170e+00,-1.486463351907718611e+00,5.539857753655841321e-01,3.983406671552169875e-01,-9.562692558338081739e-01,-5.998703722649989523e-01,-1.376927524466942110e+00
1.024651250394637003e+00,-1.454884891621266441e+00,4.406749371109186519e-01,9.235341549451714371e-02,-1.004302025790715369e+00,-9.420799144725378049e-01,-1.324556438680679626e+00
1.047556078807021507e+00,-1.537006805261531550e+00,4.056210626847134293e-01,-9.924435716429647059e-02,-1.039295920886473823e+00,-1.239603301018465942e+00,-1.249714975111393400e+00
1.129737879057179928e+00,-1.546908767136812024e+00,4.476107937381179624e-01,-2.906324448761488100e-01,-1.080905181071734056e+00,-1.414423141784693083e+00,-1.185254839004279415e+00
1.209462964763319270e+00,-1.493234438545376630e+00,4.271327638355471024e-01,-5.929494872902729696e-01,-1.103675226432732082e+00,-1.405120427799111393e+00,-1.105305042157167517e+00
1.220668196714402853e+00,-1.541021498868866413e+00,4.132610233104072606e-01,-7.951532985521203578e-01,-1.111968289263853826e+00,-1.245880023146128668e+00,-1.036560559073584908e+00
1.209717619209182971e+00,-1.570517699547691048e+00,4.489290627372466425e-01,-9.338557594218976909e-01,-1.126061735691075150e+00,-9.320131553369748190e-01,-9.850433756228293980e-01
1.226510522754242771e+00,-1.497698554434601093e+00,4.816909380674916363e-01,-1.124644599244106757e+00,-1.146722550653567207e+00,-5.138985350069957825e-01,-9.404470498761141606e-01
1.231079494752207459e+00,-1.513712468447947490e+00,5.236057563169915774e-01,-1.205568071646567763e+00,-1.150365750929971398e+00,-7.770273997920185138e-02,-9.162239524645454658e-01
1.179112916290414592e+00,-1.565169710747216225e+00,5.647116690006837025e-01,-1.135250665117881752e+00,-1.149335090374625779e+00,2.987517438179376761e-01,-9.107112209453815943e-01
1.126322406068802628e+00,-1.515195534707358682e+00,5.628840638390308904e-01,-1.110488233697359828e+00,-1.149071458391381917e+00,6.833105549043372307e-01,-9.358930495305117780e-01
1.115656426314282079e+00,-1.499690902314998464e+00,6.004995361888476602e-01,-1.055255926042664161e+00,-1.148280475175345039e+00,1.047361338241847850e+00,-1.004008423231839142e+00
1.109918983654145652e+00,-1.529876208069158583e+00,6.942611324096681358e-01,-8.696053355324306899e-01,-1.163500444367027153e+00,1.328421361221687746e+00,-1.112540522729188464e+00
1.070206280044283531e+00,-1.476935872239626413e+00,7.111438931403091246e-01,-7.119977682050748768e-01,-1.176994719262747235e+00,1.476726160021979428e+00,-1.227124715025562640e+00
1.012502204380816284e+00,-1.443230237388293258e+00,6.653192373922700575e-01,-6.385045442107162295e-01,-1.193868475185322353e+00,1.475347949871363973e+00,-1.324901004853717978e+00
9.863167023937968736e-01,-1.484291180572971935e+00,6.669670463704813201e-01,-5.372527857012143748e-01,-1.202449211909983884e+00,1.306145696733207462e+00,-1.381391640356166572e+00
1.002780011418291650e+00,-1.464876765223721566e+00,6.697683816290211922e-01,-4.344880721688926251e-01,-1.210214967141465259e+00,9.898969726425121962e-01,-1.377526717815047430e+00
1.020936126190641335e+00,-1.429762976916826300e+00,6.388191125372144619e-01,-4.516704568444107615e-01,-1.208752861195427908e+00,5.849050738816474748e-01,-1.324391668691193846e+00
1.012217579359209196e+00,-1.485399710083656899e+00,6.160041140397254367e-01,-5.019143135241432852e-01,-1.200339981511422405e+00,1.507166256575764862e-01,-1.291509965599624277e+00
1.001461769689904191e+00,-1.498507487271205640e+00,5.423760633607166426e-01,-5.439489868057645339e-01,-1.196001660227874464e+00,-2.717572817235724969e-01,-1.258073984117369370e+00
1.042372887266829196e+00,-1.420175610638840791e+00,4.718788606485890824e-01,-6.313439491718031427e-01,-1.195881843374879683e+00,-6.126934971601438740e-01,-1.207425620113167231e+00
1.113109800043143860e+00,-1.434541661132548995e+00,4.862149951080918520e-01,-7.415239121888461682e-01,-1.195714073600750993e+00,-9.724599335211303597e-01,-1.156792282302920860e+00
1.140673512180778726e+00,-1.485160054561007748e+00,4.849116977614364998e-01,-7.826897387532283368e-01,-1.189650014388032861e+00,-1.245160974765846529e+00,-1.085246463960798380e+00
1.136464023466621232e+00,-1.408236304113463788e+00,4.286158028242170737e-01,-8.991763944736774761e-01,-1.184568706442845620e+00,-1.371654448470427390e+00,-1.026523770513709799e+00
1.128404665676319141e+00,-1.358666553585741177e+00,3.520066479739125676e-01,-1.051645685218260962e+00,-1.178864272322166507e+00,-1.368987967167112352e+00,-9.818375875814133735e-01
1.134876128369155524e+00,-1.423875735919621910e+00,2.858237628139415065e-01,-1.103058039830850934e+00,-1.170019859980997445e+00,-1.293562254631508424e+00,-9.470234232192842327e-01
1.168162338785139198e+00,-1.423291486953193186e+00,1.911334059952474185e-01,-1.151054839642839944e+00,-1.170523212936702695e+00,-1.078295608410329010e+00,-9.306200008047382788e-01
1.187172301351513415e+00,-1.329080495721279842e+00,8.224174140153417412e-02,-1.220653225061929525e+00,-1.188163997431379570e+00,-7.143946506807385965e-01,-9.233096074288127397e-01
1.186722879069679326e+00,-1.326563812755143790e+00,2.068776939107008772e-02,-1.209807503665560890e+00,-1.187109382232043320e+00,-3.127133415286587059e-01,-8.871622296858783230e-01
1.188655340340183386e+00,-1.346951985472022439e+00,2.747382768114592366e-02,-1.108915310252367448e+00,-1.195282628210170284e+00,1.084422423117681333e-01,-8.658302701770037579e-01
1.178618551780363788e+00,-1.258208783531167274e+00,7.154581834217799141e-02,-1.005551348830346914e+00,-1.212635782444404509e+00,4.960869864076289382e-01,-8.723617012920681368e-01
1.091118733305473931e+00,-1.187801465275417634e+00,1.262088759537149940e-01,-8.801664319072477483e-01,-1.209639706620579958e+00,8.592689230277894552e-01,-8.730807496722392536e-01
9.495251345330579795e-01,-1.240621946072717474e+00,2.095741185184074595e-01,-6.804043635370016219e-01,-1.185934950179767799e+00,1.203276099821293244e+00,-8.751030681284355239e-01
8.522132113684688370e-01,-1.277024032803109055e+00,3.053730321185277319e-01,-4.827395536974865564e-01,-1.162397876246556994e+00,1.485474650158358223e+00,-9.098573458805603309e-01
8.203801239070052098e-01,-1.259901562008280962e+00,4.019509079796756978e-01,-3.276187533021723830e-01,-1.140346950169734974e+00,1.676083721067755938e+00,-9.439973768198273163e-01
8.020142696461562970e-01,-1.335836583435723313e+00,5.396646398292959113e-01,-1.824298580869743169e-01,-1.121100288232146358e+00,1.751779086972604649e+00,-1.000263355722841307e+00
7.630655566446820082e-01,-1.470539322350750133e+00,6.439273640027609602e-01,-6.354634716171370101e-02,-1.118200074617436979e+00,1.701879796465910477e+00,-1.083538713831211364e+00
7.176004114514689114e-01,-1.513113247828989927e+00,6.604506414494282218e-01,-2.279999957432998769e-02,-1.124623628022292099e+00,1.538399959793768090e+00,-1.154665080467187632e+00
6.993394405702124672e-01,-1.505428372245931623e+00,6.631920355565923408e-01,-4.687329864877520791e-02,-1.137806274380537275e+00,1.273563590315773819e+00,-1.191366763871604117e+00
7.297044879663316941e-01,-1.591594950069163961e+00,7.369998551482459526e-01,-7.520100139474239498e-02,-1.138093904640924414e+00,8.632536733301221510e-01,-1.204968878298406931e+00
7.901948454236418229e-01,-1.650527355733899526e+00,7.740611036489153385e-01,-9.978366390250847928e-02,-1.136296259146629684e+00,3.858021400109379329e-01,-1.169585436622377905e+00
8.480786627290681778e-01,-1.561080131606773502e+00,6.606154114389695131e-01,-2.085854440398438037e-01,-1.122826026161316548e+00,-3.807986628417969754e-02,-1.109409674762362741e+00
8.782639139417458551e-01,-1.520888007868537173e+00,5.220178612194703582e-01,-3.948652257446116920e-01,-1.098402106802953693e+00,-4.454985635548580625e-01,-1.080003358539971536e+00
8.894841448160439867e-01,-1.551178142460807319e+00,4.359860828100359242e-01,-5.815045452749467714e-01,-1.072300533336290052e+00,-8.521233541828876490e-01,-1.062236752168765896e+00
9.527908091844228267e-01,-1.447769266081311290e+00,2.880857913342693699e-01,-7.889664608808910629e-01,-1.067267134678973051e+00,-1.193778590728944433e+00,-1.060169491484463933e+00
1.068693270479925683e+00,-1.342308100670153159e+00,6.236290484712414539e-02,-9.818975014620479058e-01,-1.083325996374728817e+00,-1.449327217873941365e+00,-1.056019916651051993e+00
1.179562311301507460e+00,-1.369407418873314075e+00,-1.520798096141251499e-01,-1.078415463442394806e+00,-1.079083580933504205e+00,-1.559731892031901435e+00,-1.019557943310822612e+00
1.246149676515262428e+00,-1.316661850879807805e+00,-3.567254183090007302e-01,-1.184595704504687319e+00,-1.086058396581990326e+00,-1.496410228740363557e+00,-9.656588763077289528e-01
1.264155965679747418e+00,-1.126097694927830073e+00,-5.742690919737225563e-01,-1.367549843135917875e+00,-1.108804443665900585e+00,-1.237071619129059830e+00,-9.303353757831311910e-01
1.253804581522632855e+00,-1.033369742684586701e+00,-7.131362682914477169e-01,-1.477654947890649773e+00,-1.124192182631766901e+00,-8.735002013784409769e-01,-8.820239803739027273e-01
1.225147311526897376e+00,-1.037294579106284864e+00,-7.646834495886878358e-01,-1.444863074713975681e+00,-1.145380305193788306e+00,-4.594601885363758242e-01,-8.598381730710036308e-01
1.190183321557014562e+00,-9.978665005179743197e-01,-8.136090099985504587e-01,-1.485339823473819099e+00,-1.167071780711625983e+00,-2.220077895537242441e-02,-8.697850771743897980e-01
1.125288762091170014e+00,-9.321779525972573310e-01,-8.625346249498955231e-01,-1.559836748140752682e+00,-1.177282305889926217e+00,3.664326396190520363e-01,-8.663695769152712778e-01
1.056079857802483257e+00,-9.612846448749379213e-01,-8.385811536367748786e-01,-1.535553709577863746e+00,-1.168198259842767595e+00,7.275173722499084228e-01,-8.588045290934265275e-01
1.038597876452940216e+00,-1.032845434869533729e+00,-7.251205170450969462e-01,-1.505683053962536544e+00,-1.157508379985905389e+00,1.048919262763625682e+00,-8.797769507768449238e-01
1.067105348111663243e+00,-1.049084060023852683e+00,-5.784935250694456244e-01,-1.506012593941563615e+00,-1.147129997766949128e+00,1.297247408259760704e+00,-8.828778281679272588e-01
1.067315060329365739e+00,-1.065577366894832068e+00,-4.140249866480538721e-01,-1.500664632411885524e+00,-1.121196150441206019e+00,1.352674456479685539e+00,-8.729758935634435169e-01
1.027122963861926142e+00,-1.118652474867309898e+00,-2.050650876718185245e-01,-1.510911160460148839e+00,-1.094471319899315009e+00,1.220368600040377949e+00,-8.892294903701802866e-01
1.021565290114490043e+00,-1.184490848395836071e+00,-1.093557858211635647e-03,-1.550474065732998508e+00,-1.057631782754975269e+00,9.675913375782885240e-01,-8.886302697513337456e-01
1.063869616765189541e+00,-1.241580677246445497e+00,1.788495878383700166e-01,-1.537321400858882026e+00,-1.013026534012417823e+00,5.976982282010490088e-01,-8.722119029550001734e-01
1.093710329075625598e+00,-1.295344890294147788e+00,3.625976876536762816e-01,-1.490567929971375882e+00,-9.852950411923799834e-01,1.575176556002366723e-01,-8.776047794420982484e-01
1.084482473352355036e+00,-1.335866581282263432e+00,4.747101392121311214e-01,-1.548646487842086916e+00,-9.516673025671273933e-01,-2.262321953788726248e-01,-8.653209612852486021e-01
1.072408367413124619e+00,-1.354921486076743342e+00,5.065282550211214208e-01,-1.620372047826224016e+00,-9.177040243935064012e-01,-5.777445061135311200e-01,-8.417120288743418222e-01
1.094878772466945094e+00,-1.358741439118904548e+00,5.330433242579091235e-01,-1.537471199195894478e+00,-9.078529497741905097e-01,-8.685267493267478933e-01,-8.372928552133340752e-01
1.156957079563203372e+00,-1.321155937344720144e+00,5.423460927850287661e-01,-1.493908544697442053e+00,-9.027956401061465463e-01,-1.032755550413155810e+00,-8.367984907032832709e-01
1.189584128208909242e+00,-1.216683446412070158e+00,5.309760635736071599e-01,-1.552256728666490115e+00,-9.169609940984924101e-01,-1.012592116107935425e+00,-8.611264987651578995e-01
1.143804360147493426e+00,-1.133123463282204035e+00,5.340320532780107321e-01,-1.467363477614169742e+00,-9.388921033223751600e-01,-8.635832405799459544e-01,-8.806607691465850873e-01
1.105829377242961709e+00,-1.078864858453487674e+00,5.513941795954879765e-01,-1.401060737422132885e+00,-9.529855497495964833e-01,-5.464207275437393818e-01,-8.717924239780572293e-01
1.108361031861626600e+00,-9.896872604248097005e-01,5.872420152058799303e-01,-1.406049188397040517e+00,-9.586421182156690257e-01,-1.584464434689070167e-01,-8.436295184924003099e-01
1.071179982870373859e+00,-8.868476068178421379e-01,6.504138256188674028e-01,-1.333694437218257978e+00,-9.704106551822189175e-01,2.268164443453013490e-01,-8.535614236725996840e-01
9.839947599928344779e-01,-8.794623551794944483e-01,6.646451312402601452e-01,-1.277158832216906958e+00,-9.740058589043365522e-01,5.733253324525233730e-01,-8.499362111957231569e-01
9.409563860386382927e-01,-9.271445866648742040e-01,6.175920364079323654e-01,-1.320317033932427719e+00,-9.519549328274590216e-01,9.202236744194070006e-01,-8.150171907247982794e-01
9.567156728768622109e-01,-9.381101358226784370e-01,6.016530351984905600e-01,-1.302130975855131378e+00,-9.395392714082739793e-01,1.200354936801373285e+00,-7.899401637069813908e-01
9.827663481793424971e-01,-9.592922697237438179e-01,6.427888911871293409e-01,-1.224847714852761449e+00,-9.343860558979066866e-01,1.341619022865614408e+00,-7.805026230368328211e-01
9.879645113719526250e-01,-9.622733193534460661e-01,6.677010936739780078e-01,-1.249670032883232196e+00,-9.315337952043312164e-01,1.399877295107487818e+00,-7.980295193437958456e-01
9.527758648026907196e-01,-8.944276535629014369e-01,6.446763829586754646e-01,-1.296004024793795395e+00,-9.435899187981156011e-01,1.364523851277998912e+00,-8.388358353534075551e-01
9.111905592614211180e-01,-8.514941629882422092e-01,5.992711789168936320e-01,-1.287270560851372370e+00,-9.490547628460133112e-01,1.237356244150611406e+00,-8.580105679092953075e-01
9.118197504560665578e-01,-8.419666833202610334e-01,5.837815454476924515e-01,-1.256860543956295206e+00,-9.481439191436624725e-01,1.071854089022439283e+00,-8.595685469726388472e-01
9.431285573732739458e-01,-8.062836722408928125e-01,5.790627751126598000e-01,-1.239813013236168437e+00,-9.479042418044092422e-01,8.669687975341733299e-01,-8.616957215376030987e-01
9.427989628528199439e-01,-7.311725553025283375e-01,5.423760633607721537e-01,-1.221507100126806300e+00,-9.349852710626715968e-01,6.045591992951404592e-01,-8.438692012857906821e-01
8.912218655213743901e-01,-6.492603538799657237e-01,5.045208809467127686e-01,-1.267975945992594333e+00,-9.046411948883115173e-01,3.073504083465072867e-01,-8.373377974415230351e-01
8.573814039854465996e-01,-6.020874585571101001e-01,4.207811016332385634e-01,-1.301337014671000158e+00,-8.696233015154097856e-01,1.053115306992591371e-02,-8.332631626827846638e-01
9.041648181778438875e-01,-5.798267657211031434e-01,3.377004840901531857e-01,-1.299119928378833499e+00,-8.358037948387742055e-01,-1.729173773422076898e-01,-8.060739327524213405e-01
9.845490383835753256e-01,-5.541056031269087079e-01,2.532566280489811916e-01,-1.280139936388202671e+00,-8.006900392568128133e-01,-2.888198386377660576e-01,-7.723383545961137742e-01
1.015887761334988149e+00,-5.183477065144326268e-01,1.612477514567056680e-01,-1.247003524309231448e+00,-7.827137152138230469e-01,-3.633467066096462972e-01,-7.647583351217956960e-01
9.764147132477751789e-01,-4.748599375491435737e-01,3.484413493776150617e-02,-1.215350205760468150e+00,-7.644257626331918409e-01,-4.319564175502277337e-01,-7.667956525011787594e-01
9.230549529829490396e-01,-4.203466782746190233e-01,-1.370695690026124680e-01,-1.281203523670726430e+00,-7.470007008338330756e-01,-5.405035159709026260e-01,-7.948237585730932864e-01
9.137222684216239621e-01,-3.531900902885021232e-01,-2.496763578002658690e-01,-1.284004858929210791e+00,-7.192931626577858673e-01,-6.627725838503906175e-01,-8.077667112295350282e-01
9.568504722906601145e-01,-2.956807824610052648e-01,-3.308245140728471867e-01,-1.236232715716711894e+00,-6.676171924244189704e-01,-7.877680469137726682e-01,-8.109425286953186873e-01
1.001371857962729539e+00,-2.400739925991213219e-01,-4.693771493348708468e-01,-1.195036945847438581e+00,-5.899834202213183332e-01,-8.909522121522961413e-01,-8.395698553861075109e-01
1.007798405698201449e+00,-1.678240702583932986e-01,-6.369016501899804616e-01,-1.190243235437649094e+00,-4.876380983994121898e-01,-9.185608665179811894e-01,-8.676129603812643420e-01
9.880993653272884814e-01,-9.404622124237205227e-02,-7.718140195103195822e-01,-1.204204887690019099e+00,-3.406875714683232914e-01,-8.327538265202605317e-01,-8.648565673508856744e-01
9.885487330676401285e-01,-2.109222217394624010e-02,-8.291735562715452090e-01,-1.195516311434219325e+00,-1.785169880789694297e-01,-6.056976993815132992e-01,-8.469850776001430770e-01
1.015378452443260748e+00,4.515054959597364359e-02,-8.313756436404418082e-01,-1.135040925629438036e+00,1.299087830680667466e-02,-2.776894922197348237e-01,-8.639427784054298787e-01
1.031302454729488005e+00,8.141783691245629839e-02,-7.848169133182203439e-01,-1.071329781207441822e+00,1.856356624909683006e-01,8.433899993237625736e-02,-8.827280571016560273e-01
9.984507222136618232e-01,9.024121258199846451e-02,-7.127767577367327689e-01,-1.076842539997402426e+00,3.567703878079586666e-01,4.279266977489371016e-01,-8.773650966487078762e-01
9.349792605850559823e-01,7.816710664282355836e-02,-6.046341120990450513e-01,-1.106069032765610860e+00,5.064293603025404877e-01,7.170011908325113481e-01,-8.336825871181896552e-01
9.104715381519357109e-01,5.013900057093678697e-02,-4.485096110311004303e-01,-1.063210482265652956e+00,5.926918221514365648e-01,8.874318557842708621e-01,-7.433814879262701236e-01
9.394883187024416493e-01,-5.258077073355682529e-03,-2.905275887672975621e-01,-1.019138491604676400e+00,6.183140845728574142e-01,8.957159519862867292e-01,-6.586679785159366141e-01
9.528806936408007466e-01,-6.687196296450981237e-02,-1.517801856693035134e-01,-1.024995762026137403e+00,5.708086658487987464e-01,7.316818641942557377e-01,-6.539042386819182706e-01
9.053332888399601153e-01,-1.230480301404046628e-01,-4.736766315888152334e-02,-1.062042011603536729e+00,4.663301589843404926e-01,4.533932058972123258e-01,-7.302287957813291541e-01
8.446631624699496577e-01,-1.696217321150994550e-01,-5.168192616922251403e-03,-1.149586772306643301e+00,3.204821129071944164e-01,1.031092524345633699e-01,-8.311659041519980917e-01
8.366337207137419796e-01,-2.036119919880952089e-01,1.498037911884519957e-03,-1.162140243832654463e+00,1.705115555083458467e-01,-2.425906482944606424e-01,-9.260210582309746918e-01
8.886003264463315787e-01,-2.093344357250170873e-01,3.415500259174031328e-03,-1.128434636252007017e+00,2.734800035053552847e-02,-5.775347938958286242e-01,-9.805642608104181424e-01
9.468735976115305597e-01,-1.667904535516129272e-01,-1.614874069794103306e-02,-1.138591225302409971e+00,-1.041189254056829050e-01,-8.686016348598557535e-01,-1.010195260903068437e+00
9.470833370999742762e-01,-9.036106761406426102e-02,-9.635316472011989930e-02,-1.169810175034091682e+00,-2.349866796304000971e-01,-1.087373665796531608e+00,-1.066371328078963288e+00
8.884355291861045778e-01,-1.730221243684271215e-02,-2.253933192373214212e-01,-1.133617773250661376e+00,-3.546851120533323076e-01,-1.241296052224838409e+00,-1.110937628708452696e+00
8.505204328913551493e-01,3.870905747882513737e-02,-3.733685235169925676e-01,-1.150485589599625769e+00,-4.170030964888438163e-01,-1.279915225247230115e+00,-1.137153155812725691e+00
8.576210867788924830e-01,9.764146314356070278e-02,-5.001017072857050216e-01,-1.160672176496457819e+00,-4.187048797740788864e-01,-1.283046100484852570e+00,-1.169390696057148737e+00
8.810203069720690117e-01,1.688727131591849506e-01,-5.713629006062759252e-01,-1.109709271436443156e+00,-3.577770500861610081e-01,-1.180476100246963256e+00,-1.188924993709289391e+00
8.939482607052684493e-01,2.419315410656652787e-01,-6.144461895179476052e-01,-1.101080636332185669e+00,-2.318947415975713966e-01,-9.098423469573457822e-01,-1.207919984623218035e+00
8.794174129513332439e-01,2.966245419822044482e-01,-6.402871798734111053e-01,-1.087373665796531608e+00,-7.061104726663325337e-02,-5.256281020438735574e-01,-1.157975724617510416e+00
8.385661819843015508e-01,3.001299266977008884e-01,-6.137421127901387941e-01,-1.067869338720051076e+00,9.855826278198920321e-02,-1.016562112924335182e-01,-1.006585020078692994e+00
8.027033747214362691e-01,2.539607047767344916e-01,-5.323991886815870878e-01,-1.045413878048073730e+00,2.601535420172496060e-01,2.940928873635395568e-01,-8.332182204545679483e-01
7.782405945164772021e-01,1.973502142421645900e-01,-4.149238312118330718e-01,-9.840546738734690102e-01,4.159964342106969859e-01,6.372611607446954096e-01,-6.728243440627112992e-01
7.430968356339495706e-01,1.477205498338074463e-01,-2.616156370549016508e-01,-9.116699521189985944e-01,5.385950366150749069e-01,8.568870667461370161e-01,-5.106927469654687357e-01
6.908006899222773889e-01,8.582203892099071751e-02,-1.019857512714050785e-01,-8.808704813642598275e-01,6.171396525205263828e-01,9.218864823208328119e-01,-3.399175703822920891e-01
6.319131992150173183e-01,9.976874679185065986e-03,2.994559568997301469e-02,-8.846155761439988829e-01,6.223407773187084047e-01,8.680473837398561265e-01,-1.426871839014243193e-01
5.769056027011831844e-01,-6.443019280222284095e-02,1.486643093549511185e-01,-9.017380196680302440e-01,5.605501441161009346e-01,7.820755464818529568e-01,5.341970141631291469e-02
5.472896015318307050e-01,-1.369197706655445046e-01,2.457814646835143613e-01,-9.311892508479524544e-01,4.340446658188112927e-01,5.736848430072938321e-01,1.975599264598670857e-01
5.437392473172653062e-01,-1.923168483098369741e-01,2.832771092720620665e-01,-9.108160770542328422e-01,2.727609714878176383e-01,2.997554172197158806e-01,2.460960602808093256e-01
5.673332080757265139e-01,-2.189368009261616344e-01,2.609565025553095552e-01,-8.762415682147528528e-01,1.051016330398946153e-01,-4.982440497358631148e-02,1.565589244265641611e-01
6.012485551448176757e-01,-2.010653384462157689e-01,2.095741185184074595e-01,-8.600179419837594708e-01,-4.853612291261244494e-02,-3.330116570600116788e-01,-4.369748118299154882e-02
6.145061306693788694e-01,-1.493084722020698862e-01,1.275121733003703461e-01,-7.986736821908868578e-01,-1.882002492908929625e-01,-5.927697183775726408e-01,-3.262255714991113553e-01
5.952714296912353653e-01,-8.749981847483434549e-02,5.602615975541791471e-03,-6.819922859052640618e-01,-3.226872491481347360e-01,-7.518453257702728543e-01,-6.531402480735026828e-01
5.425708039259458104e-01,-1.108540418987002951e-02,-1.196325298812306315e-01,-5.436793334366307739e-01,-4.342843431580645230e-01,-7.738963063886883376e-01,-9.491955672832619317e-01
4.571382461354134286e-01,7.479654861186624260e-02,-2.247641280426759813e-01,-3.558116566343416665e-01,-5.119660682822435582e-01,-6.321678809316222392e-01,-1.198018022747937561e+00
3.642904661308454806e-01,1.463573386064620507e-01,-2.973585892856456248e-01,-1.553604831887045457e-01,-5.573143909530786644e-01,-3.420747155229442171e-01,-1.347895717722452646e+00
2.932839545268794978e-01,1.925715300264418950e-01,-3.154098206784028413e-01,6.339654882464573760e-02,-5.620122500620272632e-01,1.535477951375430195e-02,-1.347356465525750835e+00
2.318348386252666593e-01,2.123005409730427395e-01,-2.762363692652147762e-01,2.980776376659277638e-01,-5.186772519475968402e-01,3.979511860248141630e-01,-1.219619581084435689e+00
1.493234438544877030e-01,2.035370791841906168e-01,-2.130196166240660993e-01,5.180930247977721947e-01,-4.605058207441947715e-01,7.549312587796785934e-01,-1.024756079232719275e+00
5.093293448432678616e-02,1.602141074791840758e-01,-1.224488095215026107e-01,6.835502104270418933e-01,-3.753459270157133432e-01,1.111387050990342296e+00,-7.569086622783993690e-01
-4.020706811996843655e-02,8.448877099859197770e-02,-3.520356368025279181e-03,8.228818352206679343e-01,-2.531307734475740645e-01,1.432249716578071208e+00,-4.070442150634345779e-01
-1.077831078122315489e-01,-5.632586551285179155e-03,1.107492130602572011e-01,9.258263176658010352e-01,-1.122922150169625155e-01,1.709729442038510072e+00,-4.014720878103839041e-03
-1.553754821119746055e-01,-9.537943462323283939e-02,2.148022522868164863e-01,1.047361310970995607e+00,3.427490671120692056e-02,1.894601097558568092e+00,4.323758692564294570e-01
-1.912232904515698273e-01,-1.707902027772156828e-01,3.141814361355965701e-01,1.187981234188173474e+00,1.918914024884865732e-01,2.053856446593338436e+00,8.560331916813435083e-01
-2.289286472578200282e-01,-2.123005409730427395e-01,3.634365910660242172e-01,1.260231129258049254e+00,3.418620035205988117e-01,2.143243811381312369e+00,1.242179870594550817e+00
-2.694653098983534889e-01,-2.229964640324544334e-01,3.429285905877654805e-01,1.319762782812483604e+00,4.644126966371064924e-01,2.124458505414317244e+00,1.566832545919411013e+00
-3.029312346854995397e-01,-2.005110600554749212e-01,3.259409737482732439e-01,1.356853947347302913e+00,5.538389604507476527e-01,2.152067187050854535e+00,1.800824529685329800e+00
-3.214618589358342327e-01,-1.441402523143509029e-01,3.392883791876744048e-01,1.356149870619549613e+00,6.155816843654848824e-01,2.115410445874654766e+00,1.950043117430994011e+00
-3.475275331615290675e-01,-8.460862603071328536e-02,3.754507831245645910e-01,1.414677823501353515e+00,6.335820066856734378e-01,2.113837495158810142e+00,2.018802599437874434e+00
-3.705372722242472605e-01,-4.789197097387898339e-02,4.087219946173337171e-01,1.429628150232231665e+00,6.306099291391031869e-01,2.040224416132385699e+00,2.023461483163013774e+00
-4.062502266085621372e-01,-5.003414446203002797e-02,3.933821867559972318e-01,1.350816880742344850e+00,6.179545467473457343e-01,1.982445454935699569e+00,1.959510655947654945e+00
-4.635797927940443763e-01,-7.271428900429421915e-02,3.588975623729506736e-01,1.325934648831239571e+00,5.959755282356482553e-01,1.869224501137412009e+00,1.863007665619698106e+00
-4.918475543886358103e-01,-1.027647135323217498e-01,3.122190315601458543e-01,1.274312582000891592e+00,5.814505927845270428e-01,1.778488951316159472e+00,1.794442951448843582e+00
-5.033374659029199449e-01,-1.161271451656786802e-01,2.863480706289389666e-01,1.089231214263131076e+00,5.698738675024572764e-01,1.723930749813473717e+00,1.748842952300266873e+00
-5.300772462806246921e-01,-1.102398768977330690e-01,3.032158597071066275e-01,9.306349997280083386e-01,5.107437269420422865e-01,1.665103172986792668e+00,1.732799067711149332e+00
-5.478588243041926376e-01,-1.116630292765097288e-01,2.857938195089948508e-01,7.788997017453280769e-01,4.263267762421030227e-01,1.581423334824805238e+00,1.718657701087672462e+00
-5.283545244985643485e-01,-1.360359250250353647e-01,2.263520504109939324e-01,5.541805159308133000e-01,3.167670486988738432e-01,1.468427092167434722e+00,1.684143133399679249e+00
-4.885668808140009034e-01,-1.548212037212892689e-01,2.245843591299201414e-01,3.485312338341040039e-01,1.890391854281192607e-01,1.286132033494202798e+00,1.637149979718782733e+00
-4.415138405232665875e-01,-1.493534144302310906e-01,3.056127149119736153e-01,8.658602952937854980e-02,5.198755513774466763e-02,1.079134511822676945e+00,1.624251942019788730e+00
-3.957340724619062833e-01,-1.490238199097215777e-01,3.752710142118087511e-01,-1.729623195703688943e-01,-8.259526329529309763e-02,9.656588763077289528e-01,1.620027536194751372e+00
-3.645900900756671170e-01,-1.860101556064863715e-01,3.781472622743087264e-01,-4.069243600313687814e-01,-1.870977248036864715e-01,8.535913942482875605e-01,1.613226478981349965e+00
-3.424492250009292249e-01,-2.407031565229145187e-01,3.667771785212936564e-01,-6.722251507145227123e-01,-2.634372481014057854e-01,7.615825176560675480e-01,1.594141576340302180e+00
-3.077998306283968866e-01,-2.725961851358649213e-01,3.626576288051630570e-01,-9.119395782173911336e-01,-3.106311255543503513e-01,6.679557481197861968e-01,1.568735036614227196e+00
-2.574960600679743195e-01,-2.873068018026114778e-01,3.684100703885140327e-01,-1.098578925018411923e+00,-3.390336974710139728e-01,5.547048237458107600e-01,1.537890650902040690e+00
-2.077764839324425239e-01,-2.931341561898670456e-01,3.835551104138801293e-01,-1.256111552271177434e+00,-3.640567883608780697e-01,4.527640147026223971e-01,1.500439921270940724e+00
-1.766474731986766855e-01,-2.749780414175173604e-01,3.986852060574586076e-01,-1.394544332501024275e+00,-3.905419415634603375e-01,3.176269069705139891e-01,1.459423947585164472e+00
-1.688876848116582785e-01,-2.425307344138261101e-01,4.035388030771414059e-01,-1.513547671187664978e+00,-4.232827911303527202e-01,1.804374829358357246e-01,1.410543247591183880e+00
-1.645583956069729403e-01,-2.255431175743893846e-01,3.814129369256735735e-01,-1.573573661981408911e+00,-4.616563417857988405e-01,-1.018658689688756169e-02,1.341873677311478108e+00
-1.535628758735918531e-01,-2.301570318005707882e-01,3.457748408037253363e-01,-1.635951565751747605e+00,-5.047755299384393268e-01,-2.154314162106096830e-01,1.199950484018469377e+00
-1.471512997905932707e-01,-2.309659919079720680e-01,3.380749935681381935e-01,-1.700097133532363358e+00,-5.541984982762593326e-01,-4.599395813939533006e-01,9.605955397996301937e-01
-1.500424922347698420e-01,-2.272059254757596847e-01,3.340153304618453944e-01,-1.680338124739277905e+00,-6.137840825044538207e-01,-7.779559694949256254e-01,6.505935945315954871e-01
-1.382829818928899002e-01,-2.353102527650197118e-01,2.561628194163723116e-01,-1.700187017988741278e+00,-6.748556400561489532e-01,-1.071629377881522238e+00,2.690158876164361335e-01
-1.168611651983786359e-01,-2.430550422288790813e-01,1.396911080775997682e-01,-1.688052970898190619e+00,-7.342734545102147514e-01,-1.320077351139037347e+00,-1.674795313561239229e-01
-1.023602607493900862e-01,-2.290485022898858247e-01,4.844622209382309919e-02,-1.519389997227393874e+00,-7.956566842327594813e-01,-1.456367957880677633e+00,-6.261008437509485436e-01
-8.417420267209374529e-02,-1.912682326797865429e-01,-2.489723083431982786e-02,-1.408520929135070876e+00,-8.371220856545069644e-01,-1.441282804465315870e+00,-1.054417049901085202e+00
-1.059705015737932854e-01,-1.385376363387536003e-01,-6.567354899750244002e-02,-1.256920485107726471e+00,-8.535404415425107416e-01,-1.238869253714969254e+00,-1.443769544126533022e+00
