Afshin1997/kuka_rl_ros2/src/catch_and_throw/input_files/idealpd/ballistic motion dataset/magnus_effect/15.csv
pure_target_joint_0,pure_target_joint_1,pure_target_joint_2,pure_target_joint_3,pure_target_joint_4,pure_target_joint_5,pure_target_joint_6,target_joint_0,target_joint_1,target_joint_2,target_joint_3,target_joint_4,target_joint_5,target_joint_6,pos_joint_0,pos_joint_1,pos_joint_2,pos_joint_3,pos_joint_4,pos_joint_5,pos_joint_6,vel_joint_0,vel_joint_1,vel_joint_2,vel_joint_3,vel_joint_4,vel_joint_5,vel_joint_6,vel_smooth_joint_0,vel_smooth_joint_1,vel_smooth_joint_2,vel_smooth_joint_3,vel_smooth_joint_4,vel_smooth_joint_5,vel_smooth_joint_6,ee_pos_x,ee_pos_y,ee_pos_z,ee_or_w,ee_or_x,ee_or_y,ee_or_z,ee_vel_x,ee_vel_y,ee_vel_z,ball_pos_x,ball_pos_y,ball_pos_z,ball_raw_vx,ball_raw_vy,ball_raw_vz,ball_ema_vx,ball_ema_vy,ball_ema_vz,action_0,action_1,action_2,action_3,action_4,action_5,action_6,command_published
2.67792,-1.68309,1.69882,1.0643,1.36534,-1.3477,-2.8013,-66.439,-18.9425,-6.18604,1.18907,-22.0107,16.0628,0.511687,2.65011,-1.60871,1.77353,1.00332,1.42838,-1.42069,-2.85376,0,0,0,0,0,0,0,0,0,0,0,0,0,0,0.700032,9.78038e-05,0.564306,-0.382539,0.000111541,0.000126889,0.923939,0,0,0,2.99724,-0.59461,0.918176,-3.21328,0.23371,3.74971,-3.19987,0.237783,3.80157,0.278138,-0.743782,-0.747193,0.60981,-0.630387,0.729967,0.524621,1
2.6797,-1.68326,1.69892,1.06429,1.36566,-1.3477,-2.80166,-66.4702,-18.9505,-6.18576,1.19007,-22.0007,16.0631,0.503255,2.65011,-1.60871,1.77353,1.00332,1.42838,-1.42069,-2.85376,0,0,0,0,0,0,0,0,0,0,0,0,0,0,0.700032,9.78038e-05,0.564306,-0.382539,0.000111541,0.000126889,0.923939,0,0,0,2.96636,-0.592242,0.954471,-3.05794,0.234504,3.59424,-3.10052,0.235488,3.65644,0.29594,-0.745473,-0.746138,0.609683,-0.627242,0.729928,0.520974,1
2.67697,-1.68344,1.6988,1.06469,1.36563,-1.34756,-2.8015,-66.4792,-18.9494,-6.18648,1.18905,-22.0268,16.0819,0.520692,2.65011,-1.60871,1.77353,1.00332,1.42838,-1.42069,-2.85376,0,0,0,0,0,0,0,0,0,0,0,0,0,0,0.700032,9.78038e-05,0.564306,-0.382539,0.000111541,0.000126889,0.923939,0,0,0,2.93525,-0.589782,0.989935,-3.1318,0.247703,3.57035,-3.12241,0.244039,3.59618,0.268589,-0.747321,-0.747374,0.613766,-0.627576,0.731277,0.522581,1
2.67462,-1.68362,1.6987,1.06499,1.36566,-1.34746,-2.80141,-66.4908,-18.9501,-6.18761,1.18815,-22.0478,16.0984,0.534477,2.65011,-1.60871,1.77353,1.00332,1.42838,-1.42069,-2.85376,0,0,0,0,0,0,0,0,0,0,0,0,0,0,0.700032,9.78038e-05,0.564306,-0.382539,0.000111541,0.000126889,0.923939,0,0,0,2.90417,-0.587225,1.02467,-3.13149,0.257613,3.4997,-3.12877,0.25354,3.52865,0.245073,-0.749135,-0.748299,0.616732,-0.62725,0.73232,0.523443,1
2.67542,-1.68378,1.69872,1.06511,1.36575,-1.34743,-2.80159,-66.5101,-18.9543,-6.18794,1.18874,-22.044,16.0994,0.531253,2.65011,-1.60871,1.77353,1.00332,1.42838,-1.42069,-2.85376,0,0,0,0,0,0,0,0,0,0,0,0,0,0,0.700032,9.78038e-05,0.564306,-0.382539,0.000111541,0.000126889,0.923939,0,0,0,2.87289,-0.584764,1.0584,-3.06629,0.241204,3.30583,-3.08503,0.244905,3.37268,0.25308,-0.750665,-0.748193,0.6179,-0.626375,0.732574,0.521683,1
2.67109,-1.68387,1.69853,1.0658,1.3655,-1.34721,-2.80126,-66.5132,-18.9465,-6.1869,1.18707,-22.0915,16.1285,0.563181,2.65011,-1.60871,1.77353,1.00332,1.42838,-1.42069,-2.85376,0,0,0,0,0,0,0,0,0,0,0,0,0,0,0.700032,9.78038e-05,0.564306,-0.382539,0.000111541,0.000126889,0.923939,0,0,0,2.84148,-0.582473,1.09094,-3.17837,0.231866,3.29324,-3.15037,0.235777,3.31707,0.209832,-0.751583,-0.750053,0.624826,-0.628814,0.73483,0.524981,1
2.66949,-1.68405,1.6984,1.06575,1.36551,-1.34716,-2.80122,-66.5136,-18.9511,-6.19113,1.18632,-22.0923,16.1309,0.563998,2.65011,-1.60871,1.77353,1.00332,1.42838,-1.42069,-2.85376,0,0,0,0,0,0,0,0,0,0,0,0,0,0,0.700032,9.78038e-05,0.564306,-0.382539,0.000111541,0.000126889,0.923939,0,0,0,2.80988,-0.580041,1.12228,-3.16822,0.243792,3.14272,-3.16287,0.241387,3.19502,0.193788,-0.753433,-0.751303,0.624335,-0.628723,0.735305,0.525411,1
2.67244,-1.6842,1.69847,1.06552,1.36574,-1.34721,-2.80155,-66.5299,-18.9604,-6.19227,1.18775,-22.0633,16.1161,0.543836,2.65011,-1.60871,1.77353,1.00332,1.42838,-1.42069,-2.85376,0,0,0,0,0,0,0,0,0,0,0,0,0,0,0.700032,9.78038e-05,0.564306,-0.382539,0.000111541,0.000126889,0.923939,0,0,0,2.77844,-0.57773,1.15239,-3.04724,0.223917,2.91745,-3.08192,0.229158,3.00072,0.2233,-0.754901,-0.750643,0.622001,-0.626475,0.734805,0.522056,1
2.66593,-1.68431,1.69821,1.06602,1.36562,-1.347,-2.80114,-66.5193,-18.9564,-6.19531,1.18484,-22.1134,16.1478,0.578215,2.65011,-1.60871,1.77353,1.00332,1.42838,-1.42069,-2.85376,0,0,0,0,0,0,0,0,0,0,0,0,0,0,0.700032,9.78038e-05,0.564306,-0.382539,0.000111541,0.000126889,0.923939,0,0,0,2.74735,-0.575402,1.18136,-3.20175,0.23986,2.98392,-3.1658,0.23665,2.98896,0.158245,-0.756013,-0.753226,0.627074,-0.627638,0.736947,0.526234,1
2.6686,-1.68446,1.69831,1.06572,1.36594,-1.34706,-2.80148,-66.539,-18.9659,-6.19618,1.18605,-22.0874,16.1363,0.559426,2.65011,-1.60871,1.77353,1.00332,1.42838,-1.42069,-2.85376,0,0,0,0,0,0,0,0,0,0,0,0,0,0,0.700032,9.78038e-05,0.564306,-0.382539,0.000111541,0.000126889,0.923939,0,0,0,2.71657,-0.572982,1.20946,-3.03865,0.238856,2.77397,-3.0768,0.238194,2.83847,0.184904,-0.757518,-0.752297,0.624049,-0.624407,0.736318,0.522751,1
2.663,-1.68456,1.69811,1.06611,1.36592,-1.3469,-2.80113,-66.5259,-18.9651,-6.19997,1.18351,-22.1259,16.1613,0.586458,2.65011,-1.60871,1.77353,1.00332,1.42838,-1.42069,-2.85376,0,0,0,0,0,0,0,0,0,0,0,0,0,0,0.700032,9.78038e-05,0.564306,-0.382539,0.000111541,0.000126889,0.923939,0,0,0,2.68577,-0.570564,1.23676,-3.15417,0.247655,2.79553,-3.13096,0.244817,2.80841,0.128874,-0.758507,-0.754206,0.627901,-0.624662,0.737906,0.52625,1
2.66611,-1.68468,1.69823,1.06584,1.36633,-1.34694,-2.80154,-66.5499,-18.9739,-6.19878,1.18494,-22.1027,16.1519,0.568803,2.65011,-1.60871,1.77353,1.00332,1.42838,-1.42069,-2.85376,0,0,0,0,0,0,0,0,0,0,0,0,0,0,0.700032,9.78038e-05,0.564306,-0.382539,0.000111541,0.000126889,0.923939,0,0,0,2.65474,-0.568127,1.26332,-3.01688,0.236873,2.58254,-3.0511,0.239256,2.6503,0.160007,-0.759653,-0.753001,0.625199,-0.620547,0.737529,0.522186,1
2.65728,-1.68477,1.69794,1.06629,1.36597,-1.34678,-2.80077,-66.5045,-18.9714,-6.20804,1.18083,-22.1494,16.1783,0.60481,2.65011,-1.60871,1.77353,1.00332,1.42838,-1.42069,-2.85376,0,0,0,0,0,0,0,0,0,0,0,0,0,0,0.700032,9.78038e-05,0.564306,-0.382539,0.000111541,0.000126889,0.923939,0,0,0,2.62338,-0.565725,1.28882,-3.21037,0.245964,2.6105,-3.16259,0.243952,2.62244,0.0717489,-0.760594,-0.755918,0.629777,-0.624135,0.739164,0.529863,1
2.66235,-1.68482,1.69812,1.06624,1.36636,-1.34678,-2.8013,-66.5448,-18.9752,-6.20111,1.18337,-22.1307,16.171,0.588559,2.65011,-1.60871,1.77353,1.00332,1.42838,-1.42069,-2.85376,0,0,0,0,0,0,0,0,0,0,0,0,0,0,0.700032,9.78038e-05,0.564306,-0.382539,0.000111541,0.000126889,0.923939,0,0,0,2.59229,-0.56358,1.31323,-3.0226,0.208561,2.37347,-3.0646,0.219178,2.44816,0.122442,-0.761104,-0.754115,0.629261,-0.6202,0.739146,0.524547,1
2.66432,-1.68491,1.6982,1.06625,1.36665,-1.34677,-2.80158,-66.5656,-18.9802,-6.19913,1.1844,-22.122,16.1693,0.581132,2.65011,-1.60871,1.77353,1.00332,1.42838,-1.42069,-2.85376,0,0,0,0,0,0,0,0,0,0,0,0,0,0,0.700032,9.78038e-05,0.564306,-0.382539,0.000111541,0.000126889,0.923939,0,0,0,2.56128,-0.561524,1.33662,-2.99248,0.198422,2.2569,-3.01412,0.204649,2.31428,0.142095,-0.761959,-0.753339,0.629306,-0.617303,0.739237,0.521745,1
2.65166,-1.68512,1.69786,1.06612,1.36639,-1.3468,-2.80091,-66.5243,-18.9865,-6.21981,1.17811,-22.1655,16.201,0.61551,2.65011,-1.60871,1.77353,1.00332,1.42838,-1.42069,-2.85376,0,0,0,0,0,0,0,0,0,0,0,0,0,0,0.700032,9.78038e-05,0.564306,-0.382539,0.000111541,0.000126889,0.923939,0,0,0,2.52969,-0.558855,1.35884,-3.21509,0.271563,2.26107,-3.1548,0.251489,2.27703,0.0155479,-0.764077,-0.756751,0.628032,-0.619898,0.738882,0.528501,1
2.64134,-1.68513,1.69773,1.06693,1.36626,-1.34679,-2.80074,-66.5309,-18.9878,-6.23066,1.17365,-22.2354,16.2514,0.664993,2.65011,-1.60871,1.77353,1.00332,1.42838,-1.42069,-2.85376,0,0,0,0,0,0,0,0,0,0,0,0,0,0,0.700032,9.78038e-05,0.564306,-0.382539,0.000111541,0.000126889,0.923939,0,0,0,2.49847,-0.556567,1.38023,-3.23148,0.236807,2.21412,-3.20848,0.241212,2.23299,-0.0876605,-0.764173,-0.758091,0.636082,-0.62121,0.739058,0.530161,1
2.66334,-1.6853,1.69818,1.06569,1.36728,-1.34682,-2.80182,-66.5755,-19.0004,-6.20824,1.18367,-22.0981,16.1647,0.564841,2.65011,-1.60871,1.77353,1.00332,1.42838,-1.42069,-2.85376,0,0,0,0,0,0,0,0,0,0,0,0,0,0,0.700032,9.78038e-05,0.564306,-0.382539,0.000111541,0.000126889,0.923939,0,0,0,2.4675,-0.554216,1.4007,-2.86433,0.217428,1.89288,-2.96757,0.224563,1.99491,0.132259,-0.765903,-0.753497,0.623706,-0.611055,0.738676,0.519435,1
2.65099,-1.68534,1.69791,1.06629,1.36686,-1.34675,-2.80121,-66.5577,-18.995,-6.22037,1.17799,-22.1756,16.2162,0.620339,2.65011,-1.60871,1.77353,1.00332,1.42838,-1.42069,-2.85376,0,0,0,0,0,0,0,0,0,0,0,0,0,0,0.700032,9.78038e-05,0.564306,-0.382539,0.000111541,0.000126889,0.923939,0,0,0,2.43622,-0.551936,1.4201,-3.13795,0.22882,1.94698,-3.08684,0.227543,1.96136,0.0088165,-0.766268,-0.756237,0.6297,-0.615263,0.739441,0.525521,1
2.64785,-1.68538,1.69788,1.0665,1.36688,-1.34673,-2.80124,-66.5701,-18.996,-6.22339,1.17664,-22.1992,16.2349,0.635931,2.65011,-1.60871,1.77353,1.00332,1.42838,-1.42069,-2.85376,0,0,0,0,0,0,0,0,0,0,0,0,0,0,0.700032,9.78038e-05,0.564306,-0.382539,0.000111541,0.000126889,0.923939,0,0,0,2.40481,-0.549803,1.43851,-3.09949,0.210422,1.81617,-3.0957,0.215558,1.85972,-0.022587,-0.766723,-0.756589,0.63181,-0.614996,0.739622,0.525187,1
2.6594,-1.68551,1.69808,1.06576,1.36741,-1.34671,-2.80165,-66.5704,-19.0067,-6.21394,1.18182,-22.1149,16.1792,0.577073,2.65011,-1.60871,1.77353,1.00332,1.42838,-1.42069,-2.85376,0,0,0,0,0,0,0,0,0,0,0,0,0,0,0.700032,9.78038e-05,0.564306,-0.382539,0.000111541,0.000126889,0.923939,0,0,0,2.37365,-0.547589,1.45607,-2.91984,0.207488,1.64507,-2.9726,0.209909,1.70946,0.0928545,-0.768014,-0.754512,0.624478,-0.609696,0.739795,0.521079,1
2.62812,-1.68542,1.69748,1.06766,1.3666,-1.34686,-2.80077,-66.5054,-19.02,-6.25968,1.16794,-22.2706,16.2836,0.697068,2.65011,-1.60871,1.77353,1.00332,1.42838,-1.42069,-2.85376,0,0,0,0,0,0,0,0,0,0,0,0,0,0,0.700032,9.78038e-05,0.564306,-0.382539,0.000111541,0.000126889,0.923939,0,0,0,2.34261,-0.545574,1.47253,-3.3716,0.218917,1.78828,-3.2519,0.216214,1.76464,-0.219925,-0.767088,-0.760594,0.643456,-0.617853,0.738334,0.52985,1
2.6436,-1.68554,1.69783,1.06666,1.36706,-1.34673,-2.80131,-66.5816,-19.0042,-6.23071,1.17476,-22.2189,16.2542,0.649862,2.65011,-1.60871,1.77353,1.00332,1.42838,-1.42069,-2.85376,0,0,0,0,0,0,0,0,0,0,0,0,0,0,0.700032,9.78038e-05,0.564306,-0.382539,0.000111541,0.000126889,0.923939,0,0,0,2.31171,-0.543651,1.48789,-3.00285,0.186802,1.49305,-3.07756,0.195626,1.57453,-0.0651393,-0.768331,-0.757011,0.633426,-0.613204,0.739631,0.524473,1
2.64454,-1.68557,1.69785,1.06661,1.36707,-1.34671,-2.80128,-66.5781,-19.0044,-6.22964,1.17518,-22.2123,16.2493,0.645482,2.65011,-1.60871,1.77353,1.00332,1.42838,-1.42069,-2.85376,0,0,0,0,0,0,0,0,0,0,0,0,0,0,0.700032,9.78038e-05,0.564306,-0.382539,0.000111541,0.000126889,0.923939,0,0,0,2.28137,-0.541904,1.50209,-3.05706,0.175988,1.43031,-3.06321,0.181879,1.47358,-0.0556692,-0.768572,-0.756816,0.632979,-0.613087,0.73986,0.524825,1
2.6276,-1.68558,1.69733,1.06717,1.36691,-1.34693,-2.80053,-66.4418,-19.0393,-6.27153,1.16731,-22.2224,16.25,0.67051,2.65011,-1.60871,1.77353,1.00332,1.42838,-1.42069,-2.85376,0,0,0,0,0,0,0,0,0,0,0,0,0,0,0.700032,9.78038e-05,0.564306,-0.382539,0.000111541,0.000126889,0.923939,0,0,0,2.25042,-0.539905,1.51531,-3.35012,0.216467,1.43107,-3.26405,0.206091,1.44383,-0.225098,-0.768727,-0.762001,0.638516,-0.614723,0.737654,0.532337,1
2.62736,-1.68567,1.69727,1.06685,1.36711,-1.347,-2.80045,-66.413,-19.0499,-6.27814,1.16697,-22.1959,16.2327,0.655468,2.65011,-1.60871,1.77353,1.00332,1.42838,-1.42069,-2.85376,0,0,0,0,0,0,0,0,0,0,0,0,0,0,0.700032,9.78038e-05,0.564306,-0.382539,0.000111541,0.000126889,0.923939,0,0,0,2.21967,-0.537813,1.52764,-3.2558,0.221483,1.30617,-3.25827,0.216866,1.34746,-0.227467,-0.76958,-0.762651,0.635336,-0.612773,0.736895,0.533066,1
2.64441,-1.6859,1.69762,1.06513,1.36792,-1.347,-2.80101,-66.4668,-19.0456,-6.254,1.17406,-22.1038,16.1788,0.582109,2.65011,-1.60871,1.77353,1.00332,1.42838,-1.42069,-2.85376,0,0,0,0,0,0,0,0,0,0,0,0,0,0,0.700032,9.78038e-05,0.564306,-0.382539,0.000111541,0.000126889,0.923939,0,0,0,2.18865,-0.535401,1.53904,-2.94639,0.229085,1.08219,-3.03996,0.22542,1.16177,-0.057029,-0.771934,-0.759184,0.618176,-0.604606,0.736921,0.527442,1
2.63369,-1.68597,1.69732,1.06492,1.36815,-1.34717,-2.80057,-66.3696,-19.0749,-6.28375,1.16863,-22.0926,16.1709,0.586052,2.65011,-1.60871,1.77353,1.00332,1.42838,-1.42069,-2.85376,0,0,0,0,0,0,0,0,0,0,0,0,0,0,0.700032,9.78038e-05,0.564306,-0.382539,0.000111541,0.000126889,0.923939,0,0,0,2.15743,-0.532852,1.54949,-3.20329,0.261472,1.07255,-3.15429,0.250656,1.09931,-0.164224,-0.772569,-0.762132,0.616024,-0.602326,0.735198,0.531853,1
2.63577,-1.68601,1.69733,1.06464,1.36825,-1.34717,-2.80052,-66.3583,-19.0766,-6.28247,1.16942,-22.0723,16.1566,0.572459,2.65011,-1.60871,1.77353,1.00332,1.42838,-1.42069,-2.85376,0,0,0,0,0,0,0,0,0,0,0,0,0,0,0.700032,9.78038e-05,0.564306,-0.382539,0.000111541,0.000126889,0.923939,0,0,0,2.12619,-0.530507,1.5588,-3.12265,0.234508,0.930427,-3.13214,0.239352,0.981093,-0.143424,-0.772964,-0.762047,0.613279,-0.601349,0.735193,0.532393,1
2.6361,-1.68599,1.69734,1.06479,1.36815,-1.34713,-2.80047,-66.3609,-19.0733,-6.28033,1.16968,-22.0776,16.1588,0.575793,2.65011,-1.60871,1.77353,1.00332,1.42838,-1.42069,-2.85376,0,0,0,0,0,0,0,0,0,0,0,0,0,0,0.700032,9.78038e-05,0.564306,-0.382539,0.000111541,0.000126889,0.923939,0,0,0,2.09515,-0.528387,1.56713,-3.10717,0.212154,0.833684,-3.11466,0.220313,0.877907,-0.140141,-0.772816,-0.761984,0.614713,-0.602321,0.73558,0.532847,1
2.63542,-1.686,1.69733,1.06478,1.36814,-1.34716,-2.8004,-66.3505,-19.0752,-6.28262,1.16934,-22.075,16.1567,0.575368,2.65011,-1.60871,1.77353,1.00332,1.42838,-1.42069,-2.85376,0,0,0,0,0,0,0,0,0,0,0,0,0,0,0.700032,9.78038e-05,0.564306,-0.382539,0.000111541,0.000126889,0.923939,0,0,0,2.06409,-0.526308,1.5745,-3.10814,0.208004,0.737345,-3.1101,0.211696,0.779513,-0.146931,-0.772885,-0.762088,0.614666,-0.602475,0.735354,0.533638,1
2.63857,-1.68607,1.6974,1.06427,1.36842,-1.34719,-2.80046,-66.3474,-19.079,-6.28041,1.17049,-22.0466,16.1397,0.555104,2.65011,-1.60871,1.77353,1.00332,1.42838,-1.42069,-2.85376,0,0,0,0,0,0,0,0,0,0,0,0,0,0,0.700032,9.78038e-05,0.564306,-0.382539,0.000111541,0.000126889,0.923939,0,0,0,2.03333,-0.5242,1.58081,-3.01877,0.206926,0.61965,-3.04616,0.208357,0.667609,-0.115414,-0.773563,-0.761346,0.609508,-0.599643,0.735047,0.533003,1
2.63557,-1.68607,1.69734,1.06426,1.3684,-1.34726,-2.80029,-66.3189,-19.086,-6.28884,1.16901,-22.0436,16.1373,0.556859,2.65011,-1.60871,1.77353,1.00332,1.42838,-1.42069,-2.85376,0,0,0,0,0,0,0,0,0,0,0,0,0,0,0.700032,9.78038e-05,0.564306,-0.382539,0.000111541,0.000126889,0.923939,0,0,0,2.00265,-0.52213,1.58631,-3.08217,0.207913,0.551996,-3.07137,0.208046,0.58668,-0.145403,-0.773639,-0.761997,0.609409,-0.599804,0.734335,0.5347,1
2.63729,-1.68613,1.69737,1.06382,1.36862,-1.3473,-2.8003,-66.309,-19.0908,-6.28933,1.16952,-22.02,16.1229,0.540903,2.65011,-1.60871,1.77353,1.00332,1.42838,-1.42069,-2.85376,0,0,0,0,0,0,0,0,0,0,0,0,0,0,0.700032,9.78038e-05,0.564306,-0.382539,0.000111541,0.000126889,0.923939,0,0,0,1.97176,-0.520026,1.59082,-3.01255,0.205252,0.440587,-3.0302,0.20609,0.484415,-0.128237,-0.774197,-0.761646,0.605011,-0.597646,0.733958,0.534572,1
2.63123,-1.68608,1.69719,1.06417,1.36826,-1.34738,-2.79998,-66.2647,-19.0972,-6.30313,1.16684,-22.0306,16.1259,0.554758,2.65011,-1.60871,1.77353,1.00332,1.42838,-1.42069,-2.85376,0,0,0,0,0,0,0,0,0,0,0,0,0,0,0.700032,9.78038e-05,0.564306,-0.382539,0.000111541,0.000126889,0.923939,0,0,0,1.94085,-0.518151,1.5943,-3.18052,0.19292,0.358039,-3.13542,0.196871,0.395952,-0.188767,-0.773683,-0.763407,0.608536,-0.601232,0.73314,0.537838,1
2.62954,-1.68615,1.69712,1.06369,1.36841,-1.34748,-2.79987,-66.2272,-19.1102,-6.31369,1.16568,-22.0032,16.1084,0.540083,2.65011,-1.60871,1.77353,1.00332,1.42838,-1.42069,-2.85376,0,0,0,0,0,0,0,0,0,0,0,0,0,0,0.700032,9.78038e-05,0.564306,-0.382539,0.000111541,0.000126889,0.923939,0,0,0,1.90984,-0.516185,1.59675,-3.1718,0.201109,0.250355,-3.16089,0.199838,0.294034,-0.205702,-0.774348,-0.764112,0.603689,-0.599755,0.732114,0.53885,1
2.63633,-1.68625,1.69727,1.06281,1.36879,-1.34745,-2.80006,-66.2461,-19.1085,-6.30355,1.16834,-21.9655,16.0865,0.509447,2.65011,-1.60871,1.77353,1.00332,1.42838,-1.42069,-2.85376,0,0,0,0,0,0,0,0,0,0,0,0,0,0,0.700032,9.78038e-05,0.564306,-0.382539,0.000111541,0.000126889,0.923939,0,0,0,1.87881,-0.514179,1.59811,-2.97016,0.191973,0.130462,-3.02738,0.194332,0.179533,-0.137776,-0.775395,-0.762649,0.594889,-0.595978,0.732427,0.536965,1
2.63396,-1.68632,1.69718,1.06218,1.36892,-1.34757,-2.79994,-66.2038,-19.1229,-6.31632,1.16675,-21.9359,16.0678,0.493587,2.65011,-1.60871,1.77353,1.00332,1.42838,-1.42069,-2.85376,0,0,0,0,0,0,0,0,0,0,0,0,0,0,0.700032,9.78038e-05,0.564306,-0.382539,0.000111541,0.000126889,0.923939,0,0,0,1.84785,-0.512154,1.59844,-3.07721,0.201304,0.0321731,-3.06226,0.199212,0.0763811,-0.161509,-0.776129,-0.763532,0.588615,-0.594678,0.731268,0.538142,1
2.63301,-1.68638,1.69713,1.06166,1.36897,-1.34764,-2.79987,-66.1772,-19.1314,-6.32395,1.16593,-21.9126,16.0528,0.480152,2.65011,-1.60871,1.77353,1.00332,1.42838,-1.42069,-2.85376,0,0,0,0,0,0,0,0,0,0,0,0,0,0,0.700032,9.78038e-05,0.564306,-0.382539,0.000111541,0.000126889,0.923939,0,0,0,1.81725,-0.510216,1.59767,-3.0819,0.195177,-0.0776484,-3.07601,0.196388,-0.0314395,-0.171011,-0.77666,-0.763998,0.583411,-0.594127,0.730553,0.538899,1
2.63475,-1.68646,1.69716,1.06088,1.36923,-1.34769,-2.79989,-66.1612,-19.1391,-6.32663,1.16622,-21.8781,16.032,0.456874,2.65011,-1.60871,1.77353,1.00332,1.42838,-1.42069,-2.85376,0,0,0,0,0,0,0,0,0,0,0,0,0,0,0.700032,9.78038e-05,0.564306,-0.382539,0.000111541,0.000126889,0.923939,0,0,0,1.78688,-0.50821,1.59602,-3.00806,0.198634,-0.162499,-3.02845,0.19796,-0.123181,-0.153586,-0.777505,-0.763777,0.575612,-0.591565,0.730036,0.538662,1
2.63795,-1.6865,1.69723,1.06042,1.36935,-1.34766,-2.79992,-66.163,-19.1383,-6.32226,1.16743,-21.8576,16.0188,0.441082,2.65011,-1.60871,1.77353,1.00332,1.42838,-1.42069,-2.85376,0,0,0,0,0,0,0,0,0,0,0,0,0,0,0.700032,9.78038e-05,0.564306,-0.382539,0.000111541,0.000126889,0.923939,0,0,0,1.75624,-0.506251,1.5935,-2.91721,0.18658,-0.240184,-2.95058,0.189994,-0.205083,-0.12155,-0.777929,-0.763073,0.571011,-0.590366,0.730271,0.538419,1
2.63122,-1.68657,1.69702,1.05973,1.36932,-1.34786,-2.79969,-66.0926,-19.1608,-6.3472,1.16371,-21.8271,15.9991,0.428931,2.65011,-1.60871,1.77353,1.00332,1.42838,-1.42069,-2.85376,0,0,0,0,0,0,0,0,0,0,0,0,0,0,0.700032,9.78038e-05,0.564306,-0.382539,0.000111541,0.000126889,0.923939,0,0,0,1.72545,-0.504243,1.59015,-3.11691,0.203205,-0.339642,-3.06701,0.199242,-0.299275,-0.188904,-0.778552,-0.765107,0.564105,-0.59064,0.728289,0.540652,1
2.6334,-1.68667,1.69705,1.05861,1.36967,-1.34793,-2.79973,-66.0699,-19.1713,-6.35116,1.16396,-21.7803,15.9708,0.3972,2.65011,-1.60871,1.77353,1.00332,1.42838,-1.42069,-2.85376,0,0,0,0,0,0,0,0,0,0,0,0,0,0,0.700032,9.78038e-05,0.564306,-0.382539,0.000111541,0.000126889,0.923939,0,0,0,1.69479,-0.502105,1.58587,-2.97825,0.20773,-0.415368,-3.00488,0.205184,-0.38054,-0.167069,-0.779605,-0.76484,0.552902,-0.587106,0.727592,0.540274,1
2.62913,-1.6867,1.69689,1.05801,1.3695,-1.34809,-2.79951,-66.0118,-19.1862,-6.3694,1.1615,-21.7507,15.9497,0.383868,2.65011,-1.60871,1.77353,1.00332,1.42838,-1.42069,-2.85376,0,0,0,0,0,0,0,0,0,0,0,0,0,0,0.700032,9.78038e-05,0.564306,-0.382539,0.000111541,0.000126889,0.923939,0,0,0,1.66414,-0.500148,1.58053,-3.13434,0.200181,-0.546172,-3.0955,0.201682,-0.496482,-0.209812,-0.779852,-0.766424,0.546963,-0.588804,0.726044,0.542469,1
2.62888,-1.68672,1.69685,1.05744,1.36942,-1.34814,-2.79941,-65.9873,-19.1909,-6.3751,1.16098,-21.7271,15.9332,0.369586,2.65011,-1.60871,1.77353,1.00332,1.42838,-1.42069,-2.85376,0,0,0,0,0,0,0,0,0,0,0,0,0,0,0.700032,9.78038e-05,0.564306,-0.382539,0.000111541,0.000126889,0.923939,0,0,0,1.63344,-0.498278,1.57417,-3.1016,0.188845,-0.642686,-3.09977,0.192696,-0.598825,-0.212308,-0.780085,-0.766867,0.541196,-0.589611,0.725495,0.543459,1
2.63066,-1.6868,1.69685,1.05616,1.36965,-1.34823,-2.79942,-65.9597,-19.2007,-6.38063,1.16093,-21.6776,15.9024,0.336353,2.65011,-1.60871,1.77353,1.00332,1.42838,-1.42069,-2.85376,0,0,0,0,0,0,0,0,0,0,0,0,0,0,0.700032,9.78038e-05,0.564306,-0.382539,0.000111541,0.000126889,0.923939,0,0,0,1.60274,-0.496321,1.56672,-3.04502,0.19408,-0.738669,-3.06144,0.193665,-0.696716,-0.194548,-0.780926,-0.766872,0.528448,-0.587304,0.724643,0.543388,1
2.62395,-1.68687,1.69656,1.0548,1.36956,-1.34849,-2.79933,-65.8688,-19.2317,-6.41355,1.15683,-21.6149,15.8608,0.304012,2.65011,-1.60871,1.77353,1.00332,1.42838,-1.42069,-2.85376,0,0,0,0,0,0,0,0,0,0,0,0,0,0,0.700032,9.78038e-05,0.564306,-0.382539,0.000111541,0.000126889,0.923939,0,0,0,1.572,-0.494381,1.55848,-3.29068,0.207754,-0.882321,-3.22191,0.203527,-0.826639,-0.261643,-0.781599,-0.769749,0.514866,-0.588234,0.721986,0.544324,1
2.62902,-1.6869,1.6967,1.0541,1.3697,-1.34844,-2.79931,-65.8833,-19.2233,-6.40239,1.15871,-21.5969,15.8496,0.286932,2.65011,-1.60871,1.77353,1.00332,1.42838,-1.42069,-2.85376,0,0,0,0,0,0,0,0,0,0,0,0,0,0,0.700032,9.78038e-05,0.564306,-0.382539,0.000111541,0.000126889,0.923939,0,0,0,1.5413,-0.49251,1.54919,-3.03509,0.184969,-0.918391,-3.09114,0.190536,-0.890866,-0.210937,-0.781865,-0.768351,0.507814,-0.586818,0.722567,0.544499,1
2.6312,-1.68695,1.69672,1.05291,1.36985,-1.34849,-2.79929,-65.8608,-19.229,-6.40509,1.15889,-21.5538,15.8222,0.257279,2.65011,-1.60871,1.77353,1.00332,1.42838,-1.42069,-2.85376,0,0,0,0,0,0,0,0,0,0,0,0,0,0,0.700032,9.78038e-05,0.564306,-0.382539,0.000111541,0.000126889,0.923939,0,0,0,1.51057,-0.490612,1.53895,-3.0149,0.186173,-1.00427,-3.03777,0.187482,-0.970251,-0.189126,-0.782382,-0.76815,0.495919,-0.585303,0.721996,0.544691,1
2.63174,-1.68695,1.69669,1.05221,1.3697,-1.34853,-2.79919,-65.8406,-19.2302,-6.4085,1.15867,-21.5296,15.8046,0.241549,2.65011,-1.60871,1.77353,1.00332,1.42838,-1.42069,-2.85376,0,0,0,0,0,0,0,0,0,0,0,0,0,0,0.700032,9.78038e-05,0.564306,-0.382539,0.000111541,0.000126889,0.923939,0,0,0,1.48004,-0.488919,1.52776,-3.02976,0.168057,-1.11041,-3.03217,0.173885,-1.06836,-0.183684,-0.782365,-0.768468,0.488965,-0.586882,0.721576,0.545685,1
2.63024,-1.68704,1.69655,1.04984,1.36985,-1.34877,-2.7992,-65.7658,-19.2552,-6.43147,1.15629,-21.4411,15.7485,0.186233,2.65011,-1.60871,1.77353,1.00332,1.42838,-1.42069,-2.85376,0,0,0,0,0,0,0,0,0,0,0,0,0,0,0.700032,9.78038e-05,0.564306,-0.382539,0.000111541,0.000126889,0.923939,0,0,0,1.44975,-0.48714,1.51549,-3.11535,0.182943,-1.26288,-3.0904,0.180225,-1.20452,-0.198652,-0.783305,-0.769871,0.465208,-0.585296,0.719183,0.545629,1
2.63016,-1.68705,1.69649,1.04882,1.36975,-1.34885,-2.7991,-65.7322,-19.2613,-6.43918,1.15552,-21.4046,15.7234,0.163244,2.65011,-1.60871,1.77353,1.00332,1.42838,-1.42069,-2.85376,0,0,0,0,0,0,0,0,0,0,0,0,0,0,0.700032,9.78038e-05,0.564306,-0.382539,0.000111541,0.000126889,0.923939,0,0,0,1.4189,-0.485454,1.50226,-3.08968,0.168894,-1.32457,-3.0899,0.172294,-1.28856,-0.199544,-0.783393,-0.770405,0.455001,-0.586354,0.718395,0.546583,1
2.632,-1.6871,1.6965,1.04694,1.3699,-1.34896,-2.79905,-65.6883,-19.2719,-6.447,1.15505,-21.3394,15.6813,0.119647,2.65011,-1.60871,1.77353,1.00332,1.42838,-1.42069,-2.85376,0,0,0,0,0,0,0,0,0,0,0,0,0,0,0.700032,9.78038e-05,0.564306,-0.382539,0.000111541,0.000126889,0.923939,0,0,0,1.38803,-0.483667,1.48814,-3.02552,0.175153,-1.38438,-3.04484,0.174295,-1.35564,-0.181059,-0.783926,-0.770342,0.436249,-0.584845,0.717357,0.54714,1
2.63279,-1.6872,1.69643,1.04355,1.3701,-1.3492,-2.79906,-65.6049,-19.2965,-6.46855,1.15301,-21.2229,15.6073,0.0434762,2.65011,-1.60871,1.77353,1.00332,1.42838,-1.42069,-2.85376,0,0,0,0,0,0,0,0,0,0,0,0,0,0,0.700032,9.78038e-05,0.564306,-0.382539,0.000111541,0.000126889,0.923939,0,0,0,1.35769,-0.481869,1.47288,-3.07309,0.182028,-1.54513,-3.06461,0.179708,-1.48829,-0.173189,-0.784849,-0.771085,0.402352,-0.582835,0.714876,0.547009,1
2.63324,-1.68727,1.69637,1.04031,1.37025,-1.34942,-2.79902,-65.5198,-19.3194,-6.48931,1.15089,-21.1127,15.5366,-0.0280048,2.65011,-1.60871,1.77353,1.00332,1.42838,-1.42069,-2.85376,0,0,0,0,0,0,0,0,0,0,0,0,0,0,0.700032,9.78038e-05,0.564306,-0.382539,0.000111541,0.000126889,0.923939,0,0,0,1.3269,-0.479974,1.45658,-3.06845,0.18884,-1.62455,-3.0673,0.186101,-1.58367,-0.168743,-0.785555,-0.771657,0.369951,-0.581339,0.71269,0.547412,1
2.63575,-1.68741,1.69637,1.03482,1.37082,-1.34972,-2.79907,-65.3911,-19.3572,-6.5179,1.14809,-20.9297,15.4215,-0.149087,2.65011,-1.60871,1.77353,1.00332,1.42838,-1.42069,-2.85376,0,0,0,0,0,0,0,0,0,0,0,0,0,0,0.700032,9.78038e-05,0.564306,-0.382539,0.000111541,0.000126889,0.923939,0,0,0,1.29661,-0.477769,1.43953,-3.00162,0.218536,-1.68933,-3.02132,0.208805,-1.65763,-0.143613,-0.786959,-0.771659,0.315025,-0.575653,0.709675,0.54693,1
2.63235,-1.68746,1.69614,1.02957,1.3707,-1.35006,-2.79897,-65.2234,-19.3995,-6.56297,1.14268,-20.7504,15.3036,-0.260546,2.65011,-1.60871,1.77353,1.00332,1.42838,-1.42069,-2.85376,0,0,0,0,0,0,0,0,0,0,0,0,0,0,0.700032,9.78038e-05,0.564306,-0.382539,0.000111541,0.000126889,0.923939,0,0,0,1.26598,-0.475688,1.42137,-3.16659,0.215116,-1.87781,-3.12301,0.213223,-1.81176,-0.177606,-0.787487,-0.773942,0.262531,-0.5768,0.70627,0.547938,1
2.63555,-1.68748,1.69616,1.02604,1.37072,-1.35018,-2.79863,-65.1212,-19.4139,-6.5753,1.14154,-20.6315,15.2224,-0.338637,2.65011,-1.60871,1.77353,1.00332,1.42838,-1.42069,-2.85376,0,0,0,0,0,0,0,0,0,0,0,0,0,0,0.700032,9.78038e-05,0.564306,-0.382539,0.000111541,0.000126889,0.923939,0,0,0,1.2355,-0.473587,1.40232,-3.0266,0.208663,-1.8919,-3.05553,0.210031,-1.86786,-0.145617,-0.787739,-0.773791,0.22725,-0.57661,0.705072,0.551328,1
2.63757,-1.68746,1.69611,1.02348,1.37038,-1.35027,-2.79822,-65.0364,-19.42,-6.58487,1.14056,-20.5449,15.1596,-0.394442,2.65011,-1.60871,1.77353,1.00332,1.42838,-1.42069,-2.85376,0,0,0,0,0,0,0,0,0,0,0,0,0,0,0.700032,9.78038e-05,0.564306,-0.382539,0.000111541,0.000126889,0.923939,0,0,0,1.20515,-0.471739,1.38216,-3.02302,0.184145,-2.00726,-3.03277,0.191911,-1.96544,-0.125381,-0.78747,-0.774234,0.201649,-0.57999,0.704213,0.555361,1
2.64101,-1.68748,1.69606,1.02043,1.37025,-1.35035,-2.79784,-64.9396,-19.4307,-6.59419,1.13988,-20.4375,15.0832,-0.464723,2.65011,-1.60871,1.77353,1.00332,1.42838,-1.42069,-2.85376,0,0,0,0,0,0,0,0,0,0,0,0,0,0,0.700032,9.78038e-05,0.564306,-0.382539,0.000111541,0.000126889,0.923939,0,0,0,1.17471,-0.469945,1.36088,-2.93067,0.172707,-2.04919,-2.9613,0.178468,-2.02407,-0.0910371,-0.787684,-0.774754,0.171179,-0.581329,0.703414,0.559213,1
2.63726,-1.68768,1.69551,1.01164,1.3702,-1.35068,-2.7978,-64.6497,-19.5044,-6.66559,1.13167,-20.1239,14.8735,-0.660389,2.65011,-1.60871,1.77353,1.00332,1.42838,-1.42069,-2.85376,0,0,0,0,0,0,0,0,0,0,0,0,0,0,0.700032,9.78038e-05,0.564306,-0.382539,0.000111541,0.000126889,0.923939,0,0,0,1.14434,-0.468265,1.33857,-3.05271,0.168807,-2.24216,-3.02529,0.171705,-2.17674,-0.128456,-0.789731,-0.78028,0.0832165,-0.581815,0.70011,0.559627,1
2.63376,-1.68794,1.69498,0.997965,1.37054,-1.35118,-2.79784,-64.2007,-19.6176,-6.76824,1.11984,-19.6337,14.549,-0.965932,2.65011,-1.60871,1.77353,1.00332,1.42838,-1.42069,-2.85376,0,0,0,0,0,0,0,0,0,0,0,0,0,0,0.700032,9.78038e-05,0.564306,-0.382539,0.000111541,0.000126889,0.923939,0,0,0,1.11393,-0.466469,1.31551,-3.10826,0.183649,-2.35744,-3.08337,0.180066,-2.30323,-0.163544,-0.792262,-0.785572,-0.0535202,-0.578434,0.695099,0.55916,1
2.63231,-1.68804,1.69475,0.993797,1.37068,-1.3515,-2.79787,-64.042,-19.6593,-6.80571,1.11608,-19.4633,14.4359,-1.06929,2.65011,-1.60871,1.77353,1.00332,1.42838,-1.42069,-2.85376,0,0,0,0,0,0,0,0,0,0,0,0,0,0,0.700032,9.78038e-05,0.564306,-0.382539,0.000111541,0.000126889,0.923939,0,0,0,1.08352,-0.46472,1.29155,-2.99285,0.17201,-2.35747,-3.02001,0.174427,-2.3412,-0.177986,-0.793326,-0.787826,-0.0952036,-0.577013,0.691925,0.558939,1
2.6298,-1.68828,1.69427,0.982912,1.37109,-1.3521,-2.79803,-63.6443,-19.7612,-6.8948,1.10676,-19.0336,14.1503,-1.33179,2.65011,-1.60871,1.77353,1.00332,1.42838,-1.42069,-2.85376,0,0,0,0,0,0,0,0,0,0,0,0,0,0,0.700032,9.78038e-05,0.564306,-0.382539,0.000111541,0.000126889,0.923939,0,0,0,1.05321,-0.462921,1.26672,-3.08683,0.183256,-2.52907,-3.06679,0.180607,-2.47271,-0.203115,-0.795672,-0.792654,-0.204048,-0.572903,0.685937,0.557306,1
2.62966,-1.68837,1.69405,0.979313,1.37121,-1.3524,-2.7982,-63.522,-19.7934,-6.92318,1.10404,-18.888,14.0537,-1.42156,2.65011,-1.60871,1.77353,1.00332,1.42838,-1.42069,-2.85376,0,0,0,0,0,0,0,0,0,0,0,0,0,0,0.700032,9.78038e-05,0.564306,-0.382539,0.000111541,0.000126889,0.923939,0,0,0,1.02297,-0.461307,1.24076,-2.97616,0.158844,-2.55485,-3.00335,0.165373,-2.53021,-0.204533,-0.796551,-0.794844,-0.240041,-0.571747,0.682932,0.555627,1
2.63026,-1.68838,1.69407,0.978458,1.37141,-1.35255,-2.7983,-63.504,-19.7999,-6.92703,1.10368,-18.8565,14.0352,-1.44198,2.65011,-1.60871,1.77353,1.00332,1.42838,-1.42069,-2.85376,0,0,0,0,0,0,0,0,0,0,0,0,0,0,0.700032,9.78038e-05,0.564306,-0.382539,0.000111541,0.000126889,0.923939,0,0,0,0.992791,-0.459742,1.21379,-2.77572,0.143936,-2.48042,-2.84401,0.150367,-2.49536,-0.198545,-0.796651,-0.794637,-0.248593,-0.569686,0.681407,0.55464,1
2.62518,-1.68866,1.69321,0.964961,1.37326,-1.35322,-2.79912,-62.9039,-19.9719,-7.05833,1.09097,-18.2517,13.6306,-1.80303,2.65011,-1.60871,1.77353,1.00332,1.42838,-1.42069,-2.85376,0,0,0,0,0,0,0,0,0,0,0,0,0,0,0.700032,9.78038e-05,0.564306,-0.382539,0.000111541,0.000126889,0.923939,0,0,0,0.962411,-0.458253,1.18591,-3.3044,0.162038,-3.03318,-3.16628,0.158537,-2.87183,-0.249288,-0.799465,-0.803255,-0.383559,-0.551239,0.674682,0.54641,1
2.62362,-1.68874,1.69292,0.960596,1.37446,-1.35357,-2.79958,-62.6849,-20.0413,-7.10524,1.08683,-18.0337,13.4866,-1.93168,2.65011,-1.60871,1.77353,1.00332,1.42838,-1.42069,-2.85376,0,0,0,0,0,0,0,0,0,0,0,0,0,0,0.700032,9.78038e-05,0.564306,-0.382539,0.000111541,0.000126889,0.923939,0,0,0,0.931851,-0.456748,1.15713,-3.21118,0.158106,-3.02404,-3.19771,0.158235,-2.97838,-0.264916,-0.800322,-0.806114,-0.427206,-0.539227,0.671209,0.541814,1
2.62333,-1.68885,1.6928,0.957966,1.37581,-1.35403,-2.79999,-62.5444,-20.0939,-7.13541,1.08461,-17.8841,13.3923,-2.01975,2.65011,-1.60871,1.77353,1.00332,1.42838,-1.42069,-2.85376,0,0,0,0,0,0,0,0,0,0,0,0,0,0,0.700032,9.78038e-05,0.564306,-0.382539,0.000111541,0.000126889,0.923939,0,0,0,0.901796,-0.45503,1.12731,-3.00318,0.171701,-2.97943,-3.06154,0.167661,-2.97912,-0.267768,-0.801376,-0.807359,-0.453511,-0.525697,0.666636,0.537695,1
2.62276,-1.68892,1.69248,0.954832,1.37694,-1.35459,-2.80048,-62.378,-20.1503,-7.17225,1.08193,-17.7064,13.2759,-2.1244,2.65011,-1.60871,1.77353,1.00332,1.42838,-1.42069,-2.85376,0,0,0,0,0,0,0,0,0,0,0,0,0,0,0.700032,9.78038e-05,0.564306,-0.382539,0.000111541,0.000126889,0.923939,0,0,0,0.871722,-0.453209,1.09645,-3.02342,0.183012,-3.10268,-3.03485,0.178407,-3.06561,-0.273504,-0.802117,-0.810542,-0.484855,-0.514406,0.661035,0.532778,1
2.62133,-1.68887,1.69242,0.954128,1.37709,-1.35471,-2.80047,-62.3095,-20.1676,-7.18664,1.08068,-17.6562,13.2406,-2.15084,2.65011,-1.60871,1.77353,1.00332,1.42838,-1.42069,-2.85376,0,0,0,0,0,0,0,0,0,0,0,0,0,0,0.700032,9.78038e-05,0.564306,-0.382539,0.000111541,0.000126889,0.923939,0,0,0,0.841754,-0.451335,1.06495,-2.81972,0.176348,-2.96335,-2.88426,0.176965,-2.99403,-0.287793,-0.8016,-0.811109,-0.491889,-0.5129,0.659851,0.532881,1
2.62028,-1.68892,1.69182,0.949846,1.37763,-1.35542,-2.80123,-62.1175,-20.2264,-7.23422,1.07711,-17.4332,13.0902,-2.28379,2.65011,-1.60871,1.77353,1.00332,1.42838,-1.42069,-2.85376,0,0,0,0,0,0,0,0,0,0,0,0,0,0,0.700032,9.78038e-05,0.564306,-0.382539,0.000111541,0.000126889,0.923939,0,0,0,0.811516,-0.449643,1.03251,-3.13382,0.175394,-3.36227,-3.05895,0.175865,-3.2518,-0.298282,-0.802063,-0.817143,-0.534707,-0.50754,0.652729,0.525326,1
2.61944,-1.6889,1.69161,0.947857,1.37827,-1.35591,-2.80165,-62.0109,-20.2621,-7.25988,1.07523,-17.3165,13.014,-2.35167,2.65011,-1.60871,1.77353,1.00332,1.42838,-1.42069,-2.85376,0,0,0,0,0,0,0,0,0,0,0,0,0,0,0.700032,9.78038e-05,0.564306,-0.382539,0.000111541,0.000126889,0.923939,0,0,0,0.78147,-0.447725,0.998894,-2.94497,0.187984,-3.29499,-2.97917,0.184348,-3.28203,-0.306682,-0.801927,-0.819225,-0.554597,-0.501149,0.647837,0.521072,1
2.61797,-1.68892,1.69142,0.946399,1.3791,-1.35634,-2.80199,-61.893,-20.3037,-7.28753,1.07342,-17.2044,12.9404,-2.41427,2.65011,-1.60871,1.77353,1.00332,1.42838,-1.42069,-2.85376,0,0,0,0,0,0,0,0,0,0,0,0,0,0,0.700032,9.78038e-05,0.564306,-0.382539,0.000111541,0.000126889,0.923939,0,0,0,0.751429,-0.445773,0.964201,-2.90823,0.188936,-3.35863,-2.92951,0.18756,-3.33565,-0.321413,-0.802064,-0.821149,-0.569182,-0.492852,0.643537,0.517694,1
2.61691,-1.6891,1.69109,0.94475,1.37978,-1.35723,-2.80279,-61.815,-20.3465,-7.31996,1.07201,-17.0749,12.8616,-2.48955,2.65011,-1.60871,1.77353,1.00332,1.42838,-1.42069,-2.85376,0,0,0,0,0,0,0,0,0,0,0,0,0,0,0.700032,9.78038e-05,0.564306,-0.382539,0.000111541,0.000126889,0.923939,0,0,0,0.721673,-0.443973,0.928719,-2.9933,0.18106,-3.56914,-2.97417,0.18301,-3.4991,-0.331964,-0.803859,-0.824458,-0.585668,-0.486022,0.634611,0.509689,1
2.61561,-1.68917,1.69088,0.943958,1.38002,-1.35777,-2.8033,-61.7715,-20.3707,-7.34086,1.07105,-17.003,12.8175,-2.53021,2.65011,-1.60871,1.77353,1.00332,1.42838,-1.42069,-2.85376,0,0,0,0,0,0,0,0,0,0,0,0,0,0,0.700032,9.78038e-05,0.564306,-0.382539,0.000111541,0.000126889,0.923939,0,0,0,0.691746,-0.442366,0.892157,-2.9638,0.159163,-3.62095,-2.96691,0.166317,-3.58439,-0.345007,-0.804612,-0.826541,-0.593586,-0.483655,0.629238,0.504638,1
2.61445,-1.68936,1.69056,0.942392,1.38085,-1.35887,-2.80429,-61.7018,-20.4164,-7.37513,1.06973,-16.8686,12.7384,-2.60826,2.65011,-1.60871,1.77353,1.00332,1.42838,-1.42069,-2.85376,0,0,0,0,0,0,0,0,0,0,0,0,0,0,0.700032,9.78038e-05,0.564306,-0.382539,0.000111541,0.000126889,0.923939,0,0,0,0.661866,-0.440764,0.854913,-3.08141,0.165258,-3.84087,-3.04706,0.165575,-3.76393,-0.356587,-0.806456,-0.829781,-0.60925,-0.475365,0.618179,0.494719,1
2.6128,-1.68944,1.69043,0.941848,1.38109,-1.35949,-2.80468,-61.6528,-20.4416,-7.39715,1.06879,-16.7975,12.6956,-2.64646,2.65011,-1.60871,1.77353,1.00332,1.42838,-1.42069,-2.85376,0,0,0,0,0,0,0,0,0,0,0,0,0,0,0.700032,9.78038e-05,0.564306,-0.382539,0.000111541,0.000126889,0.923939,0,0,0,0.631937,-0.439098,0.816775,-2.96907,0.165197,-3.78342,-2.99246,0.16531,-3.77758,-0.373059,-0.807244,-0.831093,-0.614695,-0.472952,0.612004,0.490765,1
2.61102,-1.68962,1.69019,0.941056,1.38126,-1.36032,-2.8053,-61.6057,-20.4729,-7.42562,1.06779,-16.7042,12.6403,-2.69819,2.65011,-1.60871,1.77353,1.00332,1.42838,-1.42069,-2.85376,0,0,0,0,0,0,0,0,0,0,0,0,0,0,0.700032,9.78038e-05,0.564306,-0.382539,0.000111541,0.000126889,0.923939,0,0,0,0.601836,-0.437693,0.777581,-3.09888,0.144719,-4.03493,-3.06695,0.150896,-3.95773,-0.390945,-0.809123,-0.833433,-0.622607,-0.471239,0.603758,0.484617,1
2.60869,-1.68975,1.69005,0.940723,1.38176,-1.36105,-2.80567,-61.5289,-20.5104,-7.4547,1.06671,-16.6143,12.5855,-2.74452,2.65011,-1.60871,1.77353,1.00332,1.42838,-1.42069,-2.85376,0,0,0,0,0,0,0,0,0,0,0,0,0,0,0.700032,9.78038e-05,0.564306,-0.382539,0.000111541,0.000126889,0.923939,0,0,0,0.571867,-0.436139,0.737353,-2.9907,0.155077,-4.01453,-3.01357,0.153823,-3.99749,-0.414194,-0.810438,-0.834805,-0.625942,-0.46626,0.596464,0.480929,1
2.60603,-1.68991,1.68988,0.940134,1.38243,-1.36195,-2.80651,-61.4673,-20.5542,-7.48838,1.06545,-16.5117,12.5265,-2.79977,2.65011,-1.60871,1.77353,1.00332,1.42838,-1.42069,-2.85376,0,0,0,0,0,0,0,0,0,0,0,0,0,0,0.700032,9.78038e-05,0.564306,-0.382539,0.000111541,0.000126889,0.923939,0,0,0,0.542011,-0.434607,0.696049,-3.03451,0.15567,-4.19813,-3.02823,0.155116,-4.13794,-0.440816,-0.811988,-0.836503,-0.631832,-0.45957,0.587406,0.47249,1
2.60358,-1.68999,1.68977,0.939862,1.38279,-1.36263,-2.80714,-61.4226,-20.5855,-7.51423,1.06446,-16.44,12.4849,-2.83717,2.65011,-1.60871,1.77353,1.00332,1.42838,-1.42069,-2.85376,0,0,0,0,0,0,0,0,0,0,0,0,0,0,0.700032,9.78038e-05,0.564306,-0.382539,0.000111541,0.000126889,0.923939,0,0,0,0.512043,-0.433059,0.653551,-2.98003,0.153901,-4.22597,-2.99449,0.154265,-4.19956,-0.465265,-0.812812,-0.837683,-0.634552,-0.455961,0.580628,0.466234,1
2.6014,-1.69012,1.68961,0.939116,1.38384,-1.36379,-2.80838,-61.3794,-20.6322,-7.5473,1.06338,-16.3317,12.4268,-2.89788,2.65011,-1.60871,1.77353,1.00332,1.42838,-1.42069,-2.85376,0,0,0,0,0,0,0,0,0,0,0,0,0,0,0.700032,9.78038e-05,0.564306,-0.382539,0.000111541,0.000126889,0.923939,0,0,0,0.48235,-0.431369,0.610284,-3.02518,0.172255,-4.40802,-3.01597,0.166858,-4.34549,-0.48712,-0.81406,-0.839251,-0.642008,-0.445439,0.56898,0.453815,1
2.59941,-1.69014,1.68954,0.93899,1.38424,-1.36444,-2.80889,-61.3386,-20.6587,-7.56823,1.06263,-16.2721,12.3923,-2.92843,2.65011,-1.60871,1.77353,1.00332,1.42838,-1.42069,-2.85376,0,0,0,0,0,0,0,0,0,0,0,0,0,0,0.700032,9.78038e-05,0.564306,-0.382539,0.000111541,0.000126889,0.923939,0,0,0,0.452848,-0.429605,0.566485,-2.9043,0.173596,-4.31193,-2.9378,0.171575,-4.32199,-0.506969,-0.814325,-0.839986,-0.64327,-0.441472,0.562538,0.448732,1
2.59761,-1.69017,1.68945,0.938827,1.38465,-1.36509,-2.80952,-61.3104,-20.6837,-7.58785,1.06198,-16.2163,12.3612,-2.95795,2.65011,-1.60871,1.77353,1.00332,1.42838,-1.42069,-2.85376,0,0,0,0,0,0,0,0,0,0,0,0,0,0,0.700032,9.78038e-05,0.564306,-0.382539,0.000111541,0.000126889,0.923939,0,0,0,0.423226,-0.427986,0.521577,-2.89317,0.158122,-4.38612,-2.90656,0.162158,-4.36688,-0.524987,-0.814595,-0.840838,-0.644897,-0.437311,0.555986,0.442402,1
2.596,-1.69024,1.68929,0.938129,1.38575,-1.36622,-2.81051,-61.2503,-20.7281,-7.61744,1.06107,-16.109,12.3006,-3.01761,2.65011,-1.60871,1.77353,1.00332,1.42838,-1.42069,-2.85376,0,0,0,0,0,0,0,0,0,0,0,0,0,0,0.700032,9.78038e-05,0.564306,-0.382539,0.000111541,0.000126889,0.923939,0,0,0,0.393384,-0.426389,0.475971,-3.02497,0.161861,-4.62283,-2.98944,0.16195,-4.54605,-0.541053,-0.815344,-0.842439,-0.651879,-0.426294,0.544704,0.432459,1
2.59448,-1.69027,1.68918,0.937657,1.38699,-1.36721,-2.81128,-61.1757,-20.7721,-7.64413,1.06021,-16.0103,12.2435,-3.07101,2.65011,-1.60871,1.77353,1.00332,1.42838,-1.42069,-2.85376,0,0,0,0,0,0,0,0,0,0,0,0,0,0,0.700032,9.78038e-05,0.564306,-0.382539,0.000111541,0.000126889,0.923939,0,0,0,0.363613,-0.424736,0.429029,-2.99717,0.166414,-4.72588,-2.99485,0.165075,-4.67193,-0.556299,-0.815587,-0.843573,-0.656601,-0.413948,0.534846,0.424777,1
2.59304,-1.69023,1.6891,0.937529,1.38797,-1.36778,-2.81154,-61.0869,-20.8075,-7.66425,1.05942,-15.9368,12.1966,-3.10817,2.65011,-1.60871,1.77353,1.00332,1.42838,-1.42069,-2.85376,0,0,0,0,0,0,0,0,0,0,0,0,0,0,0.700032,9.78038e-05,0.564306,-0.382539,0.000111541,0.000126889,0.923939,0,0,0,0.334148,-0.423085,0.380955,-2.90432,0.162826,-4.73851,-2.93148,0.1635,-4.71854,-0.570669,-0.815189,-0.844319,-0.657884,-0.404113,0.529155,0.422226,1
2.59175,-1.6902,1.68902,0.937276,1.38901,-1.36858,-2.81203,-61.0144,-20.8432,-7.68544,1.05873,-15.8574,12.1491,-3.15001,2.65011,-1.60871,1.77353,1.00332,1.42838,-1.42069,-2.85376,0,0,0,0,0,0,0,0,0,0,0,0,0,0,0.700032,9.78038e-05,0.564306,-0.382539,0.000111541,0.000126889,0.923939,0,0,0,0.304755,-0.421582,0.331974,-2.92962,0.149747,-4.88193,-2.93018,0.153873,-4.83291,-0.583578,-0.814937,-0.845164,-0.660412,-0.393753,0.521111,0.417247,1
2.59061,-1.69025,1.68891,0.936336,1.39104,-1.37084,-2.81362,-60.9517,-20.9033,-7.72292,1.05802,-15.7014,12.0682,-3.23772,2.65011,-1.60871,1.77353,1.00332,1.42838,-1.42069,-2.85376,0,0,0,0,0,0,0,0,0,0,0,0,0,0,0.700032,9.78038e-05,0.564306,-0.382539,0.000111541,0.000126889,0.923939,0,0,0,0.275084,-0.419884,0.281974,-3.10675,0.177849,-5.23554,-3.05378,0.170656,-5.11475,-0.595044,-0.815349,-0.846207,-0.669807,-0.373451,0.49854,0.401364,1
2.58943,-1.69021,1.68888,0.936615,1.39152,-1.37078,-2.8136,-60.8985,-20.9217,-7.73161,1.05758,-15.6797,12.0511,-3.24635,2.65011,-1.60871,1.77353,1.00332,1.42838,-1.42069,-2.85376,0,0,0,0,0,0,0,0,0,0,0,0,0,0,0.700032,9.78038e-05,0.564306,-0.382539,0.000111541,0.000126889,0.923939,0,0,0,0.246098,-0.418444,0.23153,-2.91166,0.144647,-5.06713,-2.9543,0.15245,-5.08141,-0.606798,-0.815004,-0.846532,-0.667018,-0.368587,0.499084,0.401583,1
2.5883,-1.69023,1.68886,0.937016,1.39206,-1.37062,-2.81359,-60.8533,-20.9411,-7.73954,1.05726,-15.6642,12.0387,-3.25169,2.65011,-1.60871,1.77353,1.00332,1.42838,-1.42069,-2.85376,0,0,0,0,0,0,0,0,0,0,0,0,0,0,0.700032,9.78038e-05,0.564306,-0.382539,0.000111541,0.000126889,0.923939,0,0,0,0.217006,-0.417034,0.18,-2.788,0.135104,-4.93816,-2.83789,0.140308,-4.98114,-0.618096,-0.81524,-0.846794,-0.663013,-0.363208,0.500723,0.401673,1
2.58729,-1.69031,1.68879,0.937082,1.39274,-1.37104,-2.81432,-60.8534,-20.9632,-7.7517,1.0571,-15.6322,12.0244,-3.26983,2.65011,-1.60871,1.77353,1.00332,1.42838,-1.42069,-2.85376,0,0,0,0,0,0,0,0,0,0,0,0,0,0,0.700032,9.78038e-05,0.564306,-0.382539,0.000111541,0.000126889,0.923939,0,0,0,0.187469,-0.415927,0.127873,-2.86944,0.107563,-5.06418,-2.85998,0.117386,-5.03927,-0.628161,-0.816001,-0.847444,-0.662347,-0.356464,0.496525,0.394411,1
2.58636,-1.69061,1.68873,0.936798,1.39807,-1.37338,-2.81782,-60.8452,-21.0774,-7.79415,1.05705,-15.4689,11.9599,-3.36814,2.65011,-1.60871,1.77353,1.00332,1.42838,-1.42069,-2.85376,0,0,0,0,0,0,0,0,0,0,0,0,0,0,0.700032,9.78038e-05,0.564306,-0.382539,0.000111541,0.000126889,0.923939,0,0,0,0.158116,-0.413697,0.0739009,-2.99256,0.227306,-5.50246,-2.95278,0.19433,-5.3635,-0.637463,-0.818995,-0.848082,-0.665187,-0.303135,0.473125,0.359342,1
2.58556,-1.69068,1.6887,0.937187,1.39895,-1.37309,-2.81856,-60.8673,-21.0956,-7.79698,1.05705,-15.4792,11.9706,-3.36405,2.65011,-1.60871,1.77353,1.00332,1.42838,-1.42069,-2.85376,0,0,0,0,0,0,0,0,0,0,0,0,0,0,0.700032,9.78038e-05,0.564306,-0.382539,0.000111541,0.000126889,0.923939,0,0,0,0.128683,-0.412554,0.0193809,-2.97048,0.115341,-5.50235,-2.96517,0.139038,-5.4607,-0.645536,-0.819716,-0.848365,-0.661301,-0.294368,0.476063,0.352037,1
2.58565,-1.69074,1.68872,0.936752,1.40247,-1.37406,-2.8209,-60.8854,-21.1582,-7.81254,1.05697,-15.41,11.9497,-3.41092,2.65011,-1.60871,1.77353,1.00332,1.42838,-1.42069,-2.85376,0,0,0,0,0,0,0,0,0,0,0,0,0,0,0.700032,9.78038e-05,0.564306,-0.382539,0.000111541,0.000126889,0.923939,0,0,0,0.10053,-0.410903,-0.0365527,-2.90596,0.170389,-5.77343,-2.92373,0.160984,-5.67961,-0.64463,-0.820277,-0.848137,-0.665646,-0.25915,0.466316,0.328555,1
2.58549,-1.69067,1.68871,0.936462,1.4025,-1.37394,-2.82077,-60.8521,-21.1614,-7.81447,1.05656,-15.397,11.9376,-3.41766,2.65011,-1.60871,1.77353,1.00332,1.42838,-1.42069,-2.85376,0,0,0,0,0,0,0,0,0,0,0,0,0,0,0.700032,9.78038e-05,0.564306,-0.382539,0.000111541,0.000126889,0.923939,0,0,0,0.0715544,-0.409738,-0.0920017,-2.90359,0.116826,-5.5564,-2.90963,0.130073,-5.59336,-0.646201,-0.819611,-0.848236,-0.668549,-0.258854,0.467492,0.329843,1
