Afshin1997/kuka_rl_ros2/src/catch_and_throw/input_files/idealpd/ballistic motion dataset/magnus_effect/3.csv
pure_target_joint_0,pure_target_joint_1,pure_target_joint_2,pure_target_joint_3,pure_target_joint_4,pure_target_joint_5,pure_target_joint_6,target_joint_0,target_joint_1,target_joint_2,target_joint_3,target_joint_4,target_joint_5,target_joint_6,pos_joint_0,pos_joint_1,pos_joint_2,pos_joint_3,pos_joint_4,pos_joint_5,pos_joint_6,vel_joint_0,vel_joint_1,vel_joint_2,vel_joint_3,vel_joint_4,vel_joint_5,vel_joint_6,vel_smooth_joint_0,vel_smooth_joint_1,vel_smooth_joint_2,vel_smooth_joint_3,vel_smooth_joint_4,vel_smooth_joint_5,vel_smooth_joint_6,ee_pos_x,ee_pos_y,ee_pos_z,ee_or_w,ee_or_x,ee_or_y,ee_or_z,ee_vel_x,ee_vel_y,ee_vel_z,ball_pos_x,ball_pos_y,ball_pos_z,ball_raw_vx,ball_raw_vy,ball_raw_vz,ball_ema_vx,ball_ema_vy,ball_ema_vz,action_0,action_1,action_2,action_3,action_4,action_5,action_6,command_published
2.6812,-1.68278,1.69817,1.0649,1.36356,-1.34785,-2.80027,-66.283,-18.9382,-6.1988,1.19112,-21.9271,15.9707,0.472035,2.65011,-1.60869,1.77353,1.00333,1.42838,-1.42072,-2.85376,0,0,0,0,0,0,0,0,0,0,0,0,0,0,0.700021,0.000103266,0.564321,-0.382543,9.10E-05,0.00013545,0.923938,0,0,0,2.99515,-0.623902,0.893932,-3.57647,0.0742848,3.2251,-3.52575,0.081627,3.23261,0.310887,-0.740959,-0.753671,0.61574,-0.648244,0.728662,0.534852,1
2.67742,-1.68293,1.698,1.06534,1.36349,-1.34765,-2.80004,-66.2922,-18.9333,-6.198,1.18956,-21.967,15.9977,0.497878,2.65011,-1.60869,1.77353,1.00333,1.42838,-1.42072,-2.85376,0,0,0,0,0,0,0,0,0,0,0,0,0,0,0.700021,0.000103266,0.564321,-0.382543,9.10E-05,0.00013545,0.923938,0,0,0,2.96011,-0.622988,0.924977,-3.59179,0.093716,3.1822,-3.57198,0.0900893,3.19733,0.273076,-0.742432,-0.755301,0.620111,-0.648982,0.730665,0.537242,1
2.67917,-1.68337,1.69801,1.06451,1.36377,-1.34776,-2.80051,-66.3257,-18.9513,-6.20656,1.19016,-21.9246,15.9815,0.46759,2.65011,-1.60869,1.77353,1.00333,1.42838,-1.42072,-2.85376,0,0,0,0,0,0,0,0,0,0,0,0,0,0,0.700021,0.000103266,0.564321,-0.382543,9.10E-05,0.00013545,0.923938,0,0,0,2.92461,-0.621592,0.955183,-3.45932,0.136084,2.9433,-3.49312,0.122285,3.0195,0.290581,-0.746816,-0.75528,0.611878,-0.646159,0.729603,0.53254,1
2.67654,-1.68357,1.69782,1.06451,1.36368,-1.34765,-2.80035,-66.3244,-18.9528,-6.21027,1.18892,-21.9358,15.9897,0.475094,2.65011,-1.60869,1.77353,1.00333,1.42838,-1.42072,-2.85376,0,0,0,0,0,0,0,0,0,0,0,0,0,0,0.700021,0.000103266,0.564321,-0.382543,9.10E-05,0.00013545,0.923938,0,0,0,2.88886,-0.620183,0.9843,-3.55323,0.139977,2.89393,-3.5352,0.134669,2.93161,0.264297,-0.748797,-0.75715,0.611854,-0.646994,0.730668,0.534143,1
2.67412,-1.68366,1.69768,1.06479,1.36358,-1.34752,-2.80013,-66.3183,-18.9512,-6.21129,1.18791,-21.9548,16.0009,0.488428,2.65011,-1.60869,1.77353,1.00333,1.42838,-1.42072,-2.85376,0,0,0,0,0,0,0,0,0,0,0,0,0,0,0.700021,0.000103266,0.564321,-0.382543,9.10E-05,0.00013545,0.923938,0,0,0,2.85293,-0.61898,1.01218,-3.59364,0.120381,2.78863,-3.5761,0.124667,2.83152,0.240062,-0.749765,-0.758574,0.614611,-0.648039,0.73198,0.53633,1
2.67016,-1.68371,1.69748,1.06522,1.3634,-1.34734,-2.79977,-66.3044,-18.9464,-6.21213,1.1862,-21.988,16.0193,0.511585,2.65011,-1.60869,1.77353,1.00333,1.42838,-1.42072,-2.85376,0,0,0,0,0,0,0,0,0,0,0,0,0,0,0.700021,0.000103266,0.564321,-0.382543,9.10E-05,0.00013545,0.923938,0,0,0,2.81748,-0.617941,1.03843,-3.67854,0.107792,2.72344,-3.64781,0.112855,2.75587,0.200519,-0.750195,-0.760577,0.618901,-0.649813,0.733732,0.539892,1
2.67493,-1.6839,1.69773,1.06505,1.36383,-1.34742,-2.80031,-66.3431,-18.9581,-6.21066,1.18862,-21.9551,16.0065,0.487739,2.65011,-1.60869,1.77353,1.00333,1.42838,-1.42072,-2.85376,0,0,0,0,0,0,0,0,0,0,0,0,0,0,0.700021,0.000103266,0.564321,-0.382543,9.10E-05,0.00013545,0.923938,0,0,0,2.78239,-0.617037,1.06397,-3.43017,0.0883318,2.49742,-3.49547,0.0956887,2.57495,0.248139,-0.752169,-0.758021,0.617241,-0.645568,0.732939,0.534469,1
2.66926,-1.68393,1.6975,1.06563,1.36369,-1.3472,-2.79989,-66.3332,-18.9506,-6.21061,1.18612,-22.0078,16.0383,0.523347,2.65011,-1.60869,1.77353,1.00333,1.42838,-1.42072,-2.85376,0,0,0,0,0,0,0,0,0,0,0,0,0,0,0.700021,0.000103266,0.564321,-0.382543,9.10E-05,0.00013545,0.923938,0,0,0,2.7473,-0.616061,1.08909,-3.60225,0.100193,2.57828,-3.57021,0.0988417,2.57728,0.191424,-0.752456,-0.760288,0.623069,-0.64696,0.735208,0.538679,1
2.66922,-1.68411,1.69749,1.0655,1.36383,-1.34717,-2.80002,-66.3466,-18.9564,-6.2128,1.18611,-22.0023,16.0389,0.518834,2.65011,-1.60869,1.77353,1.00333,1.42838,-1.42072,-2.85376,0,0,0,0,0,0,0,0,0,0,0,0,0,0,0.700021,0.000103266,0.564321,-0.382543,9.10E-05,0.00013545,0.923938,0,0,0,2.71169,-0.615017,1.11338,-3.52715,0.103461,2.40594,-3.54007,0.102075,2.45734,0.191104,-0.754247,-0.760438,0.621793,-0.645558,0.735462,0.537411,1
2.67098,-1.68429,1.69756,1.06514,1.36408,-1.3472,-2.80031,-66.3663,-18.9652,-6.21458,1.18685,-21.9813,16.0311,0.50328,2.65011,-1.60869,1.77353,1.00333,1.42838,-1.42072,-2.85376,0,0,0,0,0,0,0,0,0,0,0,0,0,0,0.700021,0.000103266,0.564321,-0.382543,9.10E-05,0.00013545,0.923938,0,0,0,2.67591,-0.613964,1.13644,-3.46295,0.10186,2.23171,-3.48609,0.101924,2.2994,0.208674,-0.756073,-0.759762,0.618159,-0.643078,0.735215,0.534503,1
2.66938,-1.68448,1.69741,1.06474,1.3641,-1.34717,-2.80033,-66.3672,-18.9712,-6.22044,1.18587,-21.9745,16.0294,0.498244,2.65011,-1.60869,1.77353,1.00333,1.42838,-1.42072,-2.85376,0,0,0,0,0,0,0,0,0,0,0,0,0,0,0.700021,0.000103266,0.564321,-0.382543,9.10E-05,0.00013545,0.923938,0,0,0,2.64053,-0.612741,1.15773,-3.52479,0.121906,2.12106,-3.51318,0.115911,2.17456,0.192636,-0.757946,-0.761218,0.614128,-0.64288,0.735449,0.534271,1
2.66253,-1.68462,1.69706,1.06485,1.36399,-1.34712,-2.79991,-66.3362,-18.9744,-6.23075,1.18254,-21.9993,16.0444,0.517783,2.65011,-1.60869,1.77353,1.00333,1.42838,-1.42072,-2.85376,0,0,0,0,0,0,0,0,0,0,0,0,0,0,0.700021,0.000103266,0.564321,-0.382543,9.10E-05,0.00013545,0.923938,0,0,0,2.60567,-0.611404,1.17812,-3.65064,0.139952,2.13524,-3.6094,0.13274,2.14704,0.124193,-0.75931,-0.764725,0.615209,-0.64399,0.735941,0.538523,1
2.6695,-1.68463,1.69749,1.06485,1.36438,-1.34711,-2.80058,-66.3997,-18.9749,-6.21877,1.18608,-21.9842,16.0423,0.502381,2.65011,-1.60869,1.77353,1.00333,1.42838,-1.42072,-2.85376,0,0,0,0,0,0,0,0,0,0,0,0,0,0,0.700021,0.000103266,0.564321,-0.382543,9.10E-05,0.00013545,0.923938,0,0,0,2.57075,-0.610401,1.19803,-3.35404,0.0963643,1.91215,-3.43065,0.107277,1.98262,0.193825,-0.75941,-0.76048,0.615211,-0.639997,0.736086,0.531794,1
2.66677,-1.68466,1.69737,1.06521,1.36431,-1.34699,-2.80038,-66.394,-18.9723,-6.21923,1.18495,-22.0088,16.0569,0.519457,2.65011,-1.60869,1.77353,1.00333,1.42838,-1.42072,-2.85376,0,0,0,0,0,0,0,0,0,0,0,0,0,0,0.700021,0.000103266,0.564321,-0.382543,9.10E-05,0.00013545,0.923938,0,0,0,2.53569,-0.60955,1.21699,-3.47248,0.0842747,1.87848,-3.45993,0.0911754,1.90972,0.166559,-0.759706,-0.761626,0.618859,-0.640709,0.737244,0.533769,1
2.66463,-1.68473,1.69724,1.06529,1.36427,-1.34696,-2.80025,-66.3847,-18.974,-6.22272,1.18396,-22.0162,16.0613,0.525433,2.65011,-1.60869,1.77353,1.00333,1.42838,-1.42072,-2.85376,0,0,0,0,0,0,0,0,0,0,0,0,0,0,0.700021,0.000103266,0.564321,-0.382543,9.10E-05,0.00013545,0.923938,0,0,0,2.50058,-0.60879,1.23465,-3.51134,0.076044,1.76592,-3.49592,0.0805834,1.80906,0.145198,-0.760415,-0.762898,0.619669,-0.641117,0.737552,0.535077,1
2.66322,-1.68498,1.69706,1.06445,1.36451,-1.34719,-2.80031,-66.3642,-18.9914,-6.23682,1.18281,-21.9749,16.0392,0.500059,2.65011,-1.60869,1.77353,1.00333,1.42838,-1.42072,-2.85376,0,0,0,0,0,0,0,0,0,0,0,0,0,0,0.700021,0.000103266,0.564321,-0.382543,9.10E-05,0.00013545,0.923938,0,0,0,2.46533,-0.607421,1.2512,-3.50657,0.136204,1.64594,-3.50338,0.119518,1.69488,0.13104,-0.762946,-0.764685,0.611241,-0.638785,0.735226,0.534513,1
2.65935,-1.68513,1.69687,1.06416,1.36444,-1.3473,-2.80001,-66.3315,-18.9993,-6.2483,1.18073,-21.9664,16.0342,0.49807,2.65011,-1.60869,1.77353,1.00333,1.42838,-1.42072,-2.85376,0,0,0,0,0,0,0,0,0,0,0,0,0,0,0.700021,0.000103266,0.564321,-0.382543,9.10E-05,0.00013545,0.923938,0,0,0,2.43021,-0.606007,1.26681,-3.56915,0.143624,1.58705,-3.54942,0.136392,1.6194,0.0923483,-0.764429,-0.766599,0.608343,-0.639429,0.73418,0.537487,1
2.6577,-1.68511,1.69688,1.06462,1.36435,-1.34717,-2.79985,-66.3324,-18.9944,-6.24572,1.1802,-21.9929,16.0501,0.51605,2.65011,-1.60869,1.77353,1.00333,1.42838,-1.42072,-2.85376,0,0,0,0,0,0,0,0,0,0,0,0,0,0,0.700021,0.000103266,0.564321,-0.382543,9.10E-05,0.00013545,0.923938,0,0,0,2.39514,-0.604979,1.28189,-3.54996,0.104147,1.52639,-3.5498,0.11382,1.5543,0.0758773,-0.764191,-0.766581,0.612966,-0.640298,0.735508,0.539099,1
2.65602,-1.68511,1.69684,1.06483,1.3643,-1.3471,-2.79967,-66.3213,-18.9935,-6.24649,1.17949,-22.0053,16.0567,0.525469,2.65011,-1.60869,1.77353,1.00333,1.42838,-1.42072,-2.85376,0,0,0,0,0,0,0,0,0,0,0,0,0,0,0.700021,0.000103266,0.564321,-0.382543,9.10E-05,0.00013545,0.923938,0,0,0,2.36012,-0.60409,1.29594,-3.5681,0.0905063,1.43144,-3.56261,0.0975005,1.4683,0.059121,-0.764193,-0.766972,0.615069,-0.640866,0.736206,0.540884,1
2.65823,-1.68507,1.69697,1.06501,1.36425,-1.34703,-2.79981,-66.3469,-18.9874,-6.23945,1.18071,-22.0131,16.0625,0.528319,2.65011,-1.60869,1.77353,1.00333,1.42838,-1.42072,-2.85376,0,0,0,0,0,0,0,0,0,0,0,0,0,0,0.700021,0.000103266,0.564321,-0.382543,9.10E-05,0.00013545,0.923938,0,0,0,2.32517,-0.603486,1.30894,-3.4866,0.0603008,1.29645,-3.5094,0.0714607,1.348,0.081175,-0.763837,-0.765642,0.616892,-0.641312,0.736921,0.539465,1
2.66099,-1.68508,1.69711,1.06497,1.36443,-1.34702,-2.80006,-66.3704,-18.9876,-6.23466,1.18207,-22.0063,16.0609,0.521465,2.65011,-1.60869,1.77353,1.00333,1.42838,-1.42072,-2.85376,0,0,0,0,0,0,0,0,0,0,0,0,0,0,0.700021,0.000103266,0.564321,-0.382543,9.10E-05,0.00013545,0.923938,0,0,0,2.29053,-0.602908,1.32086,-3.36039,0.0560139,1.15627,-3.4051,0.0606479,1.21379,0.108769,-0.763985,-0.764196,0.616462,-0.639544,0.737021,0.536969,1
2.65822,-1.68529,1.69682,1.064,1.36468,-1.34718,-2.79965,-66.283,-19.0111,-6.25387,1.18001,-21.9476,16.02,0.489359,2.65011,-1.60869,1.77353,1.00333,1.42838,-1.42072,-2.85376,0,0,0,0,0,0,0,0,0,0,0,0,0,0,0.700021,0.000103266,0.564321,-0.382543,9.10E-05,0.00013545,0.923938,0,0,0,2.25535,-0.60168,1.33178,-3.5052,0.122338,1.08817,-3.47517,0.103831,1.12586,0.0810558,-0.766057,-0.767138,0.606778,-0.637032,0.735349,0.541095,1
2.6534,-1.68534,1.69665,1.06398,1.36468,-1.34722,-2.79932,-66.2459,-19.0174,-6.26364,1.17757,-21.9543,16.0234,0.497715,2.65011,-1.60869,1.77353,1.00333,1.42838,-1.42072,-2.85376,0,0,0,0,0,0,0,0,0,0,0,0,0,0,0.700021,0.000103266,0.564321,-0.382543,9.10E-05,0.00013545,0.923938,0,0,0,2.21984,-0.600598,1.34183,-3.55684,0.108461,1.00696,-3.53234,0.107072,1.04263,0.0328532,-0.766513,-0.768879,0.606532,-0.637015,0.73502,0.544395,1
2.65236,-1.68532,1.69664,1.06414,1.36459,-1.34716,-2.79918,-66.239,-19.0154,-6.26358,1.17715,-21.9642,16.0284,0.505041,2.65011,-1.60869,1.77353,1.00333,1.42838,-1.42072,-2.85376,0,0,0,0,0,0,0,0,0,0,0,0,0,0,0.700021,0.000103266,0.564321,-0.382543,9.10E-05,0.00013545,0.923938,0,0,0,2.18441,-0.599803,1.35071,-3.52347,0.0790033,0.883386,-3.52613,0.087424,0.93116,0.0224986,-0.766328,-0.768978,0.608184,-0.637897,0.735524,0.545754,1
2.64801,-1.68547,1.69641,1.06361,1.36475,-1.3473,-2.79897,-66.1894,-19.0325,-6.28003,1.17466,-21.9399,16.0135,0.493812,2.65011,-1.60869,1.77353,1.00333,1.42838,-1.42072,-2.85376,0,0,0,0,0,0,0,0,0,0,0,0,0,0,0.700021,0.000103266,0.564321,-0.382543,9.10E-05,0.00013545,0.923938,0,0,0,2.14929,-0.598731,1.35822,-3.60508,0.110122,0.771046,-3.58139,0.103313,0.81908,-0.0210359,-0.767792,-0.771242,0.602801,-0.636296,0.734133,0.547897,1
2.65493,-1.68547,1.69657,1.0634,1.36479,-1.3472,-2.7991,-66.1969,-19.0292,-6.26949,1.1779,-21.9081,15.9897,0.470077,2.65011,-1.60869,1.77353,1.00333,1.42838,-1.42072,-2.85376,0,0,0,0,0,0,0,0,0,0,0,0,0,0,0.700021,0.000103266,0.564321,-0.382543,9.10E-05,0.00013545,0.923938,0,0,0,2.1143,-0.597982,1.36454,-3.41476,0.0730755,0.616668,-3.46475,0.0821467,0.677392,0.0481811,-0.76782,-0.769598,0.600756,-0.635921,0.735125,0.546635,1
2.64855,-1.68547,1.69645,1.06371,1.36465,-1.34726,-2.79883,-66.182,-19.0303,-6.2784,1.17498,-21.9395,16.0115,0.494311,2.65011,-1.60869,1.77353,1.00333,1.42838,-1.42072,-2.85376,0,0,0,0,0,0,0,0,0,0,0,0,0,0,0.700021,0.000103266,0.564321,-0.382543,9.10E-05,0.00013545,0.923938,0,0,0,2.07953,-0.597215,1.37032,-3.5513,0.078315,0.589575,-3.52534,0.0794645,0.61592,-0.015643,-0.767805,-0.770867,0.603884,-0.637299,0.734532,0.549323,1
2.64733,-1.68552,1.69644,1.06351,1.36477,-1.3473,-2.79875,-66.1681,-19.036,-6.28288,1.17423,-21.9324,16.0083,0.490932,2.65011,-1.60869,1.77353,1.00333,1.42838,-1.42072,-2.85376,0,0,0,0,0,0,0,0,0,0,0,0,0,0,0.700021,0.000103266,0.564321,-0.382543,9.10E-05,0.00013545,0.923938,0,0,0,2.04458,-0.596348,1.37548,-3.47958,0.0863674,0.514037,-3.4933,0.0842965,0.544602,-0.0278426,-0.768377,-0.770917,0.601811,-0.636169,0.734183,0.55012,1
2.6453,-1.68561,1.69636,1.06296,1.36489,-1.34741,-2.7986,-66.1331,-19.0475,-6.29324,1.17286,-21.9083,15.9936,0.477998,2.65011,-1.60869,1.77353,1.00333,1.42838,-1.42072,-2.85376,0,0,0,0,0,0,0,0,0,0,0,0,0,0,0.700021,0.000103266,0.564321,-0.382543,9.10E-05,0.00013545,0.923938,0,0,0,2.00962,-0.595418,1.37933,-3.51948,0.0936157,0.38824,-3.51163,0.09082,0.435148,-0.048141,-0.769269,-0.771708,0.596347,-0.634903,0.733107,0.551595,1
2.64064,-1.6857,1.69621,1.06252,1.36494,-1.34755,-2.79836,-66.0853,-19.062,-6.30923,1.17028,-21.8904,15.9826,0.471393,2.65011,-1.60869,1.77353,1.00333,1.42838,-1.42072,-2.85376,0,0,0,0,0,0,0,0,0,0,0,0,0,0,0.700021,0.000103266,0.564321,-0.382543,9.10E-05,0.00013545,0.923938,0,0,0,1.9745,-0.594498,1.38186,-3.63522,0.095146,0.261159,-3.59814,0.0938482,0.313356,-0.0947191,-0.770089,-0.773271,0.591987,-0.634492,0.731628,0.553953,1
2.64579,-1.68582,1.69629,1.06144,1.36523,-1.34759,-2.79851,-66.0786,-19.0689,-6.3077,1.17206,-21.8366,15.949,0.433166,2.65011,-1.60869,1.77353,1.00333,1.42838,-1.42072,-2.85376,0,0,0,0,0,0,0,0,0,0,0,0,0,0,0.700021,0.000103266,0.564321,-0.382543,9.10E-05,0.00013545,0.923938,0,0,0,1.93972,-0.593465,1.38324,-3.44899,0.102502,0.136681,-3.49374,0.0999057,0.189683,-0.0432635,-0.771301,-0.772436,0.58118,-0.631569,0.73128,0.552471,1
2.66002,-1.68585,1.69683,1.06149,1.36591,-1.34752,-2.79959,-66.1904,-19.0614,-6.27942,1.17919,-21.8113,15.9412,0.40435,2.65011,-1.60869,1.77353,1.00333,1.42838,-1.42072,-2.85376,0,0,0,0,0,0,0,0,0,0,0,0,0,0,0.700021,0.000103266,0.564321,-0.382543,9.10E-05,0.00013545,0.923938,0,0,0,1.90527,-0.592681,1.38397,-2.93602,0.0668015,0.0628445,-3.10334,0.0767327,0.100896,0.099045,-0.771603,-0.767045,0.58163,-0.624746,0.731948,0.541739,1
2.63016,-1.68574,1.69589,1.06254,1.36465,-1.34777,-2.79769,-65.9778,-19.0859,-6.33993,1.16519,-21.8761,15.9688,0.475711,2.65011,-1.60869,1.77353,1.00333,1.42838,-1.42072,-2.85376,0,0,0,0,0,0,0,0,0,0,0,0,0,0,0.700021,0.000103266,0.564321,-0.382543,9.10E-05,0.00013545,0.923938,0,0,0,1.87059,-0.592027,1.38408,-4.0626,0.0766017,0.0124713,-3.77482,0.076641,0.0389988,-0.199487,-0.770512,-0.776409,0.592142,-0.637295,0.729461,0.560685,1
2.63584,-1.68586,1.69602,1.06136,1.36495,-1.34777,-2.79789,-65.9906,-19.087,-6.33434,1.16714,-21.832,15.9434,0.441431,2.65011,-1.60869,1.77353,1.00333,1.42838,-1.42072,-2.85376,0,0,0,0,0,0,0,0,0,0,0,0,0,0,0.700021,0.000103266,0.564321,-0.382543,9.10E-05,0.00013545,0.923938,0,0,0,1.83586,-0.591182,1.38293,-3.55964,0.0865851,-0.118062,-3.6242,0.0836019,-0.0709435,-0.142742,-0.771751,-0.775185,0.580326,-0.634366,0.729453,0.55871,1
2.63951,-1.68594,1.69607,1.06051,1.36504,-1.34779,-2.79797,-65.9894,-19.0887,-6.3324,1.16834,-21.7964,15.9209,0.415382,2.65011,-1.60869,1.77353,1.00333,1.42838,-1.42072,-2.85376,0,0,0,0,0,0,0,0,0,0,0,0,0,0,0.700021,0.000103266,0.564321,-0.382543,9.10E-05,0.00013545,0.923938,0,0,0,1.80058,-0.590399,1.38048,-3.50834,0.0778423,-0.243145,-3.5431,0.0795702,-0.191485,-0.106024,-0.772523,-0.774661,0.571813,-0.633399,0.729296,0.557946,1
2.64078,-1.68611,1.69605,1.05891,1.36545,-1.34794,-2.79804,-65.9541,-19.1072,-6.34343,1.16787,-21.7307,15.882,0.372163,2.65011,-1.60869,1.77353,1.00333,1.42838,-1.42072,-2.85376,0,0,0,0,0,0,0,0,0,0,0,0,0,0,0.700021,0.000103266,0.564321,-0.382543,9.10E-05,0.00013545,0.923938,0,0,0,1.76634,-0.589314,1.37721,-3.47219,0.110035,-0.331447,-3.49346,0.100896,-0.289458,-0.0933101,-0.774258,-0.774832,0.555897,-0.629374,0.727748,0.557188,1
2.64066,-1.68617,1.69604,1.05831,1.36555,-1.34799,-2.79799,-65.9333,-19.1145,-6.34877,1.16738,-21.7065,15.8672,0.357073,2.65011,-1.60869,1.77353,1.00333,1.42838,-1.42072,-2.85376,0,0,0,0,0,0,0,0,0,0,0,0,0,0,0.700021,0.000103266,0.564321,-0.382543,9.10E-05,0.00013545,0.923938,0,0,0,1.73189,-0.588249,1.37338,-3.4384,0.106294,-0.383013,-3.45492,0.104674,-0.354946,-0.0945125,-0.774861,-0.774922,0.549831,-0.628316,0.727252,0.55769,1
2.63784,-1.68615,1.69593,1.05835,1.36527,-1.34804,-2.79776,-65.906,-19.1166,-6.35617,1.16605,-21.7067,15.8645,0.360802,2.65011,-1.60869,1.77353,1.00333,1.42838,-1.42072,-2.85376,0,0,0,0,0,0,0,0,0,0,0,0,0,0,0.700021,0.000103266,0.564321,-0.382543,9.10E-05,0.00013545,0.923938,0,0,0,1.69729,-0.587466,1.36847,-3.53823,0.0801251,-0.502156,-3.51324,0.0874899,-0.457993,-0.122714,-0.774653,-0.77599,0.55029,-0.631096,0.72677,0.56001,1
2.64136,-1.68615,1.69601,1.05808,1.3652,-1.34798,-2.79777,-65.9151,-19.1104,-6.34908,1.16756,-21.695,15.8553,0.350377,2.65011,-1.60869,1.77353,1.00333,1.42838,-1.42072,-2.85376,0,0,0,0,0,0,0,0,0,0,0,0,0,0,0.700021,0.000103266,0.564321,-0.382543,9.10E-05,0.00013545,0.923938,0,0,0,1.6627,-0.586823,1.36247,-3.38999,0.0629634,-0.588184,-3.42696,0.0703214,-0.549127,-0.0874923,-0.774626,-0.775238,0.5475,-0.631867,0.727375,0.559921,1
2.64201,-1.68614,1.696,1.05784,1.36505,-1.34798,-2.79767,-65.9047,-19.1091,-6.34935,1.1677,-21.6848,15.8466,0.343826,2.65011,-1.60869,1.77353,1.00333,1.42838,-1.42072,-2.85376,0,0,0,0,0,0,0,0,0,0,0,0,0,0,0.700021,0.000103266,0.564321,-0.382543,9.10E-05,0.00013545,0.923938,0,0,0,1.62821,-0.586348,1.35544,-3.39219,0.0467696,-0.691237,-3.40262,0.0538351,-0.648604,-0.0809795,-0.774572,-0.775334,0.545111,-0.633323,0.727413,0.560901,1
2.63798,-1.6863,1.69581,1.056,1.36529,-1.34828,-2.79753,-65.8245,-19.1379,-6.37615,1.16448,-21.6109,15.8014,0.300899,2.65011,-1.60869,1.77353,1.00333,1.42838,-1.42072,-2.85376,0,0,0,0,0,0,0,0,0,0,0,0,0,0,0.700021,0.000103266,0.564321,-0.382543,9.10E-05,0.00013545,0.923938,0,0,0,1.59366,-0.585482,1.34765,-3.52142,0.0882286,-0.793821,-3.48578,0.0779105,-0.750256,-0.121313,-0.776174,-0.777214,0.526712,-0.630958,0.72439,0.562343,1
2.63571,-1.68641,1.69569,1.05442,1.3654,-1.3485,-2.79742,-65.7629,-19.1584,-6.39559,1.16229,-21.549,15.7626,0.263894,2.65011,-1.60869,1.77353,1.00333,1.42838,-1.42072,-2.85376,0,0,0,0,0,0,0,0,0,0,0,0,0,0,0.700021,0.000103266,0.564321,-0.382543,9.10E-05,0.00013545,0.923938,0,0,0,1.55899,-0.584585,1.33885,-3.56259,0.0922254,-0.904063,-3.53955,0.0879309,-0.857921,-0.144043,-0.777192,-0.778449,0.510926,-0.629833,0.722194,0.563378,1
2.64172,-1.68648,1.69585,1.05296,1.36564,-1.34847,-2.79752,-65.7617,-19.1588,-6.38927,1.16415,-21.4989,15.7312,0.22558,2.65011,-1.60869,1.77353,1.00333,1.42838,-1.42072,-2.85376,0,0,0,0,0,0,0,0,0,0,0,0,0,0,0.700021,0.000103266,0.564321,-0.382543,9.10E-05,0.00013545,0.923938,0,0,0,1.52415,-0.583602,1.32889,-3.30027,0.0930921,-0.943424,-3.37205,0.0915438,-0.917773,-0.0839253,-0.777898,-0.776838,0.496369,-0.627419,0.722462,0.562437,1
2.6382,-1.68649,1.69568,1.05208,1.36542,-1.34866,-2.79738,-65.7161,-19.1699,-6.40581,1.16185,-21.4672,15.7098,0.208819,2.65011,-1.60869,1.77353,1.00333,1.42838,-1.42072,-2.85376,0,0,0,0,0,0,0,0,0,0,0,0,0,0,0.700021,0.000103266,0.564321,-0.382543,9.10E-05,0.00013545,0.923938,0,0,0,1.48921,-0.582909,1.31781,-3.54504,0.070256,-1.12423,-3.49314,0.0766423,-1.06229,-0.119169,-0.778039,-0.778566,0.48755,-0.629639,0.720557,0.563829,1
2.63777,-1.68654,1.69556,1.05044,1.36533,-1.3488,-2.79734,-65.6722,-19.1814,-6.41886,1.16052,-21.4108,15.6727,0.172594,2.65011,-1.60869,1.77353,1.00333,1.42838,-1.42072,-2.85376,0,0,0,0,0,0,0,0,0,0,0,0,0,0,0.700021,0.000103266,0.564321,-0.382543,9.10E-05,0.00013545,0.923938,0,0,0,1.45461,-0.582315,1.30542,-3.57541,0.0614339,-1.28022,-3.55073,0.0659964,-1.21484,-0.123451,-0.778509,-0.779717,0.471167,-0.630531,0.719136,0.564188,1
2.63857,-1.68652,1.69556,1.0497,1.36522,-1.34883,-2.79721,-65.6478,-19.1826,-6.42132,1.16035,-21.3856,15.6541,0.156158,2.65011,-1.60869,1.77353,1.00333,1.42838,-1.42072,-2.85376,0,0,0,0,0,0,0,0,0,0,0,0,0,0,0.700021,0.000103266,0.564321,-0.382543,9.10E-05,0.00013545,0.923938,0,0,0,1.41952,-0.581801,1.29233,-3.49663,0.0511957,-1.30487,-3.51286,0.0556359,-1.27786,-0.115471,-0.778322,-0.779751,0.463798,-0.63163,0.718893,0.565521,1
2.63996,-1.6867,1.69547,1.04555,1.36566,-1.3491,-2.79705,-65.5248,-19.2179,-6.44825,1.15801,-21.2322,15.5553,0.0571973,2.65011,-1.60869,1.77353,1.00333,1.42838,-1.42072,-2.85376,0,0,0,0,0,0,0,0,0,0,0,0,0,0,0.700021,0.000103266,0.564321,-0.382543,9.10E-05,0.00013545,0.923938,0,0,0,1.38543,-0.580795,1.2785,-3.4644,0.102217,-1.40457,-3.47894,0.0882426,-1.36656,-0.101563,-0.78011,-0.780663,0.422289,-0.627285,0.716161,0.567115,1
2.64203,-1.6867,1.69555,1.04437,1.36574,-1.34924,-2.79685,-65.485,-19.2234,-6.45178,1.15811,-21.1837,15.5227,0.0259885,2.65011,-1.60869,1.77353,1.00333,1.42838,-1.42072,-2.85376,0,0,0,0,0,0,0,0,0,0,0,0,0,0,0.700021,0.000103266,0.564321,-0.382543,9.10E-05,0.00013545,0.923938,0,0,0,1.35104,-0.57996,1.26365,-3.33442,0.0809979,-1.4398,-3.37778,0.0831713,-1.41783,-0.0807827,-0.780173,-0.779876,0.410406,-0.626466,0.714821,0.569056,1
2.64112,-1.68672,1.69539,1.04188,1.3656,-1.34941,-2.79661,-65.396,-19.2408,-6.4714,1.15585,-21.0959,15.4623,-0.0287359,2.65011,-1.60869,1.77353,1.00333,1.42838,-1.42072,-2.85376,0,0,0,0,0,0,0,0,0,0,0,0,0,0,0.700021,0.000103266,0.564321,-0.382543,9.10E-05,0.00013545,0.923938,0,0,0,1.31654,-0.579256,1.24777,-3.46792,0.0707047,-1.59627,-3.44088,0.0744447,-1.54274,-0.0898827,-0.780369,-0.781401,0.385561,-0.627884,0.713062,0.57149,1
2.64019,-1.6869,1.69522,1.03831,1.36594,-1.34969,-2.79672,-65.3029,-19.2749,-6.49995,1.15289,-20.9697,15.3839,-0.109898,2.65011,-1.60869,1.77353,1.00333,1.42838,-1.42072,-2.85376,0,0,0,0,0,0,0,0,0,0,0,0,0,0,0.700021,0.000103266,0.564321,-0.382543,9.10E-05,0.00013545,0.923938,0,0,0,1.28228,-0.5785,1.23058,-3.35661,0.074099,-1.68469,-3.38189,0.0742027,-1.64211,-0.0992267,-0.782174,-0.783152,0.349831,-0.624409,0.710272,0.570394,1
2.63795,-1.68707,1.69495,1.03472,1.36611,-1.34991,-2.7968,-65.1978,-19.31,-6.53199,1.14928,-20.8435,15.3032,-0.189695,2.65011,-1.60869,1.77353,1.00333,1.42838,-1.42072,-2.85376,0,0,0,0,0,0,0,0,0,0,0,0,0,0,0.700021,0.000103266,0.564321,-0.382543,9.10E-05,0.00013545,0.923938,0,0,0,1.24806,-0.577829,1.21256,-3.36568,0.0660391,-1.77259,-3.37054,0.0684882,-1.73345,-0.121608,-0.783792,-0.785812,0.313982,-0.622694,0.708111,0.569625,1
2.63606,-1.68717,1.69472,1.03193,1.3661,-1.35004,-2.79687,-65.1163,-19.3353,-6.55694,1.14641,-20.7473,15.2403,-0.250583,2.65011,-1.60869,1.77353,1.00333,1.42838,-1.42072,-2.85376,0,0,0,0,0,0,0,0,0,0,0,0,0,0,0.700021,0.000103266,0.564321,-0.382543,9.10E-05,0.00013545,0.923938,0,0,0,1.21374,-0.577418,1.19351,-3.36667,0.0403305,-1.86829,-3.36783,0.0487778,-1.82784,-0.140526,-0.784794,-0.788173,0.286049,-0.622829,0.706747,0.568942,1
2.63793,-1.68724,1.69493,1.03156,1.36665,-1.35021,-2.79708,-65.1354,-19.3401,-6.55444,1.14705,-20.7348,15.2401,-0.260864,2.65011,-1.60869,1.77353,1.00333,1.42838,-1.42072,-2.85376,0,0,0,0,0,0,0,0,0,0,0,0,0,0,0.700021,0.000103266,0.564321,-0.382543,9.10E-05,0.00013545,0.923938,0,0,0,1.17964,-0.576743,1.17357,-2.94124,0.0581906,-1.7199,-3.06922,0.0553668,-1.75228,-0.12182,-0.785493,-0.786056,0.282369,-0.617321,0.705033,0.56685,1
2.62663,-1.68763,1.69354,1.01053,1.36612,-1.35089,-2.79683,-64.4216,-19.5187,-6.73261,1.12639,-19.988,14.7364,-0.72526,2.65011,-1.60869,1.77353,1.00333,1.42838,-1.42072,-2.85376,0,0,0,0,0,0,0,0,0,0,0,0,0,0,0.700021,0.000103266,0.564321,-0.382543,9.10E-05,0.00013545,0.923938,0,0,0,1.14491,-0.576495,1.15249,-4.08752,0.0292082,-2.48151,-3.78203,0.0370558,-2.26274,-0.234874,-0.789451,-0.799965,0.0720726,-0.622634,0.698306,0.569324,1
2.62789,-1.6879,1.69363,1.00001,1.36751,-1.3515,-2.79723,-64.1391,-19.6057,-6.7971,1.11913,-19.6224,14.5097,-0.958765,2.65011,-1.60869,1.77353,1.00333,1.42838,-1.42072,-2.85376,0,0,0,0,0,0,0,0,0,0,0,0,0,0,0.700021,0.000103266,0.564321,-0.382543,9.10E-05,0.00013545,0.923938,0,0,0,1.11133,-0.575407,1.13059,-3.29019,0.106565,-2.14592,-3.43774,0.0857125,-2.18097,-0.222238,-0.792172,-0.799031,-0.0331456,-0.60879,0.692214,0.565329,1
2.62536,-1.68798,1.6934,0.995032,1.36752,-1.3517,-2.7971,-63.9347,-19.6548,-6.84263,1.1142,-19.4237,14.3752,-1.07809,2.65011,-1.60869,1.77353,1.00333,1.42838,-1.42072,-2.85376,0,0,0,0,0,0,0,0,0,0,0,0,0,0,0.700021,0.000103266,0.564321,-0.382543,9.10E-05,0.00013545,0.923938,0,0,0,1.07755,-0.57468,1.10863,-3.45111,0.0743024,-2.24308,-3.4471,0.0777254,-2.22444,-0.247513,-0.79293,-0.801294,-0.0829317,-0.608681,0.690133,0.566563,1
2.62352,-1.68814,1.69316,0.987635,1.36794,-1.35209,-2.79726,-63.6666,-19.7267,-6.90367,1.10782,-19.1327,14.1837,-1.25595,2.65011,-1.60869,1.77353,1.00333,1.42838,-1.42072,-2.85376,0,0,0,0,0,0,0,0,0,0,0,0,0,0,0.700021,0.000103266,0.564321,-0.382543,9.10E-05,0.00013545,0.923938,0,0,0,1.04356,-0.573909,1.0852,-3.40869,0.0773503,-2.35006,-3.42022,0.0774628,-2.31237,-0.265908,-0.794544,-0.803784,-0.156905,-0.604442,0.686298,0.565024,1
2.62261,-1.68812,1.69297,0.987713,1.36776,-1.35194,-2.79745,-63.6697,-19.7277,-6.90634,1.10751,-19.1371,14.1836,-1.25368,2.65011,-1.60869,1.77353,1.00333,1.42838,-1.42072,-2.85376,0,0,0,0,0,0,0,0,0,0,0,0,0,0,0.700021,0.000103266,0.564321,-0.382543,9.10E-05,0.00013545,0.923938,0,0,0,1.00894,-0.573892,1.0603,-3.43044,0.00165962,-2.46718,-3.42737,0.0244006,-2.42074,-0.274983,-0.79433,-0.80567,-0.156123,-0.60622,0.687806,0.563127,1
2.62126,-1.6883,1.69266,0.97907,1.36892,-1.35233,-2.79798,-63.3539,-19.8209,-6.97636,1.10033,-18.7892,13.9564,-1.46718,2.65011,-1.60869,1.77353,1.00333,1.42838,-1.42072,-2.85376,0,0,0,0,0,0,0,0,0,0,0,0,0,0,0.700021,0.000103266,0.564321,-0.382543,9.10E-05,0.00013545,0.923938,0,0,0,0.975,-0.573441,1.03452,-3.40972,0.0453039,-2.58943,-3.41501,0.0390329,-2.53882,-0.28857,-0.796147,-0.808753,-0.242547,-0.594653,0.683859,0.557765,1
2.61955,-1.68843,1.69232,0.970742,1.37007,-1.3529,-2.79845,-63.0127,-19.9175,-7.04987,1.09317,-18.4291,13.7192,-1.6841,2.65011,-1.60869,1.77353,1.00333,1.42838,-1.42072,-2.85376,0,0,0,0,0,0,0,0,0,0,0,0,0,0,0.700021,0.000103266,0.564321,-0.382543,9.10E-05,0.00013545,0.923938,0,0,0,0.941353,-0.572527,1.00806,-3.36037,0.091275,-2.64329,-3.37676,0.0756024,-2.61195,-0.305632,-0.797448,-0.812088,-0.325828,-0.583157,0.678148,0.553065,1
2.61756,-1.68845,1.69205,0.966706,1.37051,-1.35319,-2.79867,-62.8142,-19.9713,-7.09306,1.08916,-18.2373,13.5891,-1.79662,2.65011,-1.60869,1.77353,1.00333,1.42838,-1.42072,-2.85376,0,0,0,0,0,0,0,0,0,0,0,0,0,0,0.700021,0.000103266,0.564321,-0.382543,9.10E-05,0.00013545,0.923938,0,0,0,0.907366,-0.571692,0.980919,-3.38478,0.0831335,-2.70257,-3.38237,0.0808742,-2.67539,-0.325513,-0.797673,-0.814792,-0.366186,-0.578745,0.675312,0.550923,1
2.61614,-1.68842,1.69185,0.964923,1.37052,-1.3533,-2.79884,-62.7239,-19.9945,-7.11436,1.08718,-18.1516,13.529,-1.84654,2.65011,-1.60869,1.77353,1.00333,1.42838,-1.42072,-2.85376,0,0,0,0,0,0,0,0,0,0,0,0,0,0,0.700021,0.000103266,0.564321,-0.382543,9.10E-05,0.00013545,0.923938,0,0,0,0.872861,-0.571109,0.952576,-3.35586,0.0567113,-2.75655,-3.36382,0.0639602,-2.7322,-0.33972,-0.797314,-0.816796,-0.384025,-0.578635,0.674176,0.549231,1
2.61444,-1.6885,1.69135,0.958717,1.37121,-1.35376,-2.79961,-62.4673,-20.0708,-7.17473,1.08178,-17.8685,13.3395,-2.0168,2.65011,-1.60869,1.77353,1.00333,1.42838,-1.42072,-2.85376,0,0,0,0,0,0,0,0,0,0,0,0,0,0,0.700021,0.000103266,0.564321,-0.382543,9.10E-05,0.00013545,0.923938,0,0,0,0.838221,-0.570682,0.922817,-3.66061,0.0450997,-3.14488,-3.57157,0.0507579,-3.02108,-0.356697,-0.798137,-0.821841,-0.44608,-0.571718,0.669558,0.54155,1
2.61381,-1.68851,1.6911,0.956187,1.37138,-1.35407,-2.80011,-62.3819,-20.0985,-7.19884,1.07971,-17.7564,13.2656,-2.08526,2.65011,-1.60869,1.77353,1.00333,1.42838,-1.42072,-2.85376,0,0,0,0,0,0,0,0,0,0,0,0,0,0,0.700021,0.000103266,0.564321,-0.382543,9.10E-05,0.00013545,0.923938,0,0,0,0.803975,-0.570484,0.892081,-3.60926,0.0209309,-3.23923,-3.59796,0.029879,-3.17379,-0.36299,-0.798277,-0.8243,-0.47138,-0.57002,0.666519,0.536463,1
2.61292,-1.68847,1.69108,0.955495,1.37186,-1.35438,-2.80032,-62.3288,-20.1183,-7.21224,1.07876,-17.7039,13.233,-2.11418,2.65011,-1.60869,1.77353,1.00333,1.42838,-1.42072,-2.85376,0,0,0,0,0,0,0,0,0,0,0,0,0,0,0.700021,0.000103266,0.564321,-0.382543,9.10E-05,0.00013545,0.923938,0,0,0,0.770116,-0.569991,0.860585,-3.27858,0.0477723,-3.04987,-3.37439,0.0424043,-3.08705,-0.371933,-0.797816,-0.824491,-0.478301,-0.565238,0.663358,0.534369,1
2.61206,-1.68874,1.69069,0.950856,1.37319,-1.35553,-2.80113,-62.1046,-20.2006,-7.27093,1.07506,-17.4298,13.0588,-2.27488,2.65011,-1.60869,1.77353,1.00333,1.42838,-1.42072,-2.85376,0,0,0,0,0,0,0,0,0,0,0,0,0,0,0.700021,0.000103266,0.564321,-0.382543,9.10E-05,0.00013545,0.923938,0,0,0,0.73661,-0.568911,0.828395,-3.45247,0.11123,-3.31682,-3.42905,0.0905823,-3.24789,-0.380508,-0.800545,-0.828445,-0.524689,-0.551905,0.651832,0.526318,1
2.6108,-1.68878,1.69056,0.950312,1.37343,-1.35592,-2.80137,-62.0524,-20.2224,-7.28854,1.07418,-17.3702,13.0208,-2.30713,2.65011,-1.60869,1.77353,1.00333,1.42838,-1.42072,-2.85376,0,0,0,0,0,0,0,0,0,0,0,0,0,0,0.700021,0.000103266,0.564321,-0.382543,9.10E-05,0.00013545,0.923938,0,0,0,0.70263,-0.568009,0.795164,-3.31892,0.0881012,-3.24574,-3.35196,0.0888455,-3.24639,-0.39315,-0.800948,-0.829766,-0.530135,-0.549508,0.648003,0.523926,1
2.60981,-1.6889,1.69035,0.949065,1.37363,-1.35643,-2.80192,-62.0067,-20.248,-7.3107,1.07305,-17.2865,12.9696,-2.35623,2.65011,-1.60869,1.77353,1.00333,1.42838,-1.42072,-2.85376,0,0,0,0,0,0,0,0,0,0,0,0,0,0,0.700021,0.000103266,0.564321,-0.382543,9.10E-05,0.00013545,0.923938,0,0,0,0.668669,-0.567437,0.760699,-3.40039,0.0572514,-3.45091,-3.38586,0.0667296,-3.38955,-0.403014,-0.802171,-0.831827,-0.542601,-0.547536,0.64284,0.518441,1
2.60899,-1.68913,1.69007,0.94698,1.37423,-1.35746,-2.80292,-61.9456,-20.2903,-7.34445,1.07156,-17.1478,12.8887,-2.43881,2.65011,-1.60869,1.77353,1.00333,1.42838,-1.42072,-2.85376,0,0,0,0,0,0,0,0,0,0,0,0,0,0,0.700021,0.000103266,0.564321,-0.382543,9.10E-05,0.00013545,0.923938,0,0,0,0.635049,-0.566915,0.725173,-3.52773,0.0548111,-3.72762,-3.48517,0.0583866,-3.6262,-0.411227,-0.804436,-0.834607,-0.56345,-0.541504,0.63253,0.508387,1
2.60737,-1.68901,1.69015,0.948354,1.37387,-1.35732,-2.80259,-61.9548,-20.2817,-7.34146,1.0718,-17.1931,12.9146,-2.40695,2.65011,-1.60869,1.77353,1.00333,1.42838,-1.42072,-2.85376,0,0,0,0,0,0,0,0,0,0,0,0,0,0,0.700021,0.000103266,0.564321,-0.382543,9.10E-05,0.00013545,0.923938,0,0,0,0.601682,-0.566573,0.688856,-3.14145,0.0322226,-3.41922,-3.24456,0.0400718,-3.48131,-0.427398,-0.803255,-0.833801,-0.549712,-0.545139,0.633929,0.51168,1
2.60538,-1.68924,1.68989,0.9471,1.37418,-1.35809,-2.80297,-61.8509,-20.3256,-7.37755,1.07025,-17.064,12.8326,-2.47777,2.65011,-1.60869,1.77353,1.00333,1.42838,-1.42072,-2.85376,0,0,0,0,0,0,0,0,0,0,0,0,0,0,0.700021,0.000103266,0.564321,-0.382543,9.10E-05,0.00013545,0.923938,0,0,0,0.56793,-0.566362,0.651506,-3.40661,0.0212246,-3.76989,-3.358,0.0268788,-3.68332,-0.447329,-0.805563,-0.836477,-0.562252,-0.542054,0.626308,0.50793,1
2.6037,-1.68948,1.68964,0.945581,1.37506,-1.35923,-2.80351,-61.7255,-20.3817,-7.41879,1.06863,-16.9033,12.734,-2.56649,2.65011,-1.60869,1.77353,1.00333,1.42838,-1.42072,-2.85376,0,0,0,0,0,0,0,0,0,0,0,0,0,0,0.700021,0.000103266,0.564321,-0.382543,9.10E-05,0.00013545,0.923938,0,0,0,0.534254,-0.565848,0.613218,-3.44998,0.0526659,-3.92234,-3.42239,0.0449298,-3.85064,-0.464137,-0.80796,-0.838895,-0.577442,-0.533264,0.614892,0.502537,1
2.60199,-1.68969,1.68946,0.944232,1.37628,-1.36046,-2.80425,-61.6106,-20.4406,-7.45909,1.06713,-16.7474,12.6415,-2.65258,2.65011,-1.60869,1.77353,1.00333,1.42838,-1.42072,-2.85376,0,0,0,0,0,0,0,0,0,0,0,0,0,0,0.700021,0.000103266,0.564321,-0.382543,9.10E-05,0.00013545,0.923938,0,0,0,0.500754,-0.565013,0.573848,-3.41975,0.0852323,-4.01898,-3.42054,0.0731416,-3.96847,-0.481258,-0.809998,-0.840752,-0.59093,-0.52109,0.602539,0.495109,1
2.60005,-1.68979,1.68936,0.943962,1.37681,-1.3611,-2.80472,-61.5562,-20.4735,-7.48326,1.06628,-16.6739,12.5984,-2.69104,2.65011,-1.60869,1.77353,1.00333,1.42838,-1.42072,-2.85376,0,0,0,0,0,0,0,0,0,0,0,0,0,0,0.700021,0.000103266,0.564321,-0.382543,9.10E-05,0.00013545,0.923938,0,0,0,0.467556,-0.564237,0.533816,-3.31292,0.0774387,-3.99489,-3.3452,0.0761495,-3.98697,-0.500629,-0.811014,-0.841744,-0.593635,-0.515784,0.596147,0.490356,1
2.59821,-1.68978,1.6893,0.944501,1.37655,-1.36118,-2.80482,-61.5487,-20.4795,-7.4918,1.06599,-16.6721,12.5958,-2.68832,2.65011,-1.60869,1.77353,1.00333,1.42838,-1.42072,-2.85376,0,0,0,0,0,0,0,0,0,0,0,0,0,0,0.700021,0.000103266,0.564321,-0.382543,9.10E-05,0.00013545,0.923938,0,0,0,0.434242,-0.563852,0.493173,-3.22961,0.0373105,-3.9401,-3.26429,0.0489622,-3.95416,-0.518982,-0.810924,-0.842333,-0.588245,-0.518333,0.595413,0.489437,1
2.59656,-1.6899,1.68913,0.943818,1.37707,-1.36203,-2.80529,-61.4739,-20.5167,-7.52032,1.065,-16.5714,12.5345,-2.7427,2.65011,-1.60869,1.77353,1.00333,1.42838,-1.42072,-2.85376,0,0,0,0,0,0,0,0,0,0,0,0,0,0,0.700021,0.000103266,0.564321,-0.382543,9.10E-05,0.00013545,0.923938,0,0,0,0.400497,-0.563498,0.451779,-3.36412,0.0352963,-4.12665,-3.33417,0.0393961,-4.0749,-0.535554,-0.812158,-0.844021,-0.595067,-0.513109,0.586899,0.484668,1
2.59508,-1.68997,1.68901,0.943574,1.37779,-1.36253,-2.80574,-61.415,-20.5492,-7.54099,1.06427,-16.5036,12.4934,-2.77859,2.65011,-1.60869,1.77353,1.00333,1.42838,-1.42072,-2.85376,0,0,0,0,0,0,0,0,0,0,0,0,0,0,0.700021,0.000103266,0.564321,-0.382543,9.10E-05,0.00013545,0.923938,0,0,0,0.366949,-0.563403,0.40896,-3.32358,0.00944205,-4.24205,-3.32676,0.0184283,-4.19191,-0.550331,-0.812796,-0.845213,-0.597507,-0.505937,0.581846,0.480239,1
2.59368,-1.69006,1.6889,0.942799,1.37904,-1.36341,-2.80667,-61.3541,-20.5944,-7.56817,1.06331,-16.4033,12.4374,-2.83484,2.65011,-1.60869,1.77353,1.00333,1.42838,-1.42072,-2.85376,0,0,0,0,0,0,0,0,0,0,0,0,0,0,0.700021,0.000103266,0.564321,-0.382543,9.10E-05,0.00013545,0.923938,0,0,0,0.334121,-0.563055,0.365038,-3.28555,0.0348507,-4.39598,-3.29791,0.0299239,-4.33476,-0.564302,-0.813691,-0.846308,-0.605258,-0.493443,0.573058,0.470865,1
2.59237,-1.69012,1.68879,0.94199,1.38023,-1.36446,-2.80756,-61.2879,-20.6384,-7.59595,1.06236,-16.2969,12.3773,-2.89417,2.65011,-1.60869,1.77353,1.00333,1.42838,-1.42072,-2.85376,0,0,0,0,0,0,0,0,0,0,0,0,0,0,0.700021,0.000103266,0.564321,-0.382543,9.10E-05,0.00013545,0.923938,0,0,0,0.301304,-0.562475,0.320269,-3.28692,0.058076,-4.48403,-3.29022,0.0496304,-4.43925,-0.577378,-0.814318,-0.847394,-0.613347,-0.481533,0.562597,0.462029,1
2.59111,-1.69013,1.68868,0.94148,1.38077,-1.36526,-2.80793,-61.2185,-20.6683,-7.6181,1.06157,-16.2137,12.3261,-2.93855,2.65011,-1.60869,1.77353,1.00333,1.42838,-1.42072,-2.85376,0,0,0,0,0,0,0,0,0,0,0,0,0,0,0.700021,0.000103266,0.564321,-0.382543,9.10E-05,0.00013545,0.923938,0,0,0,0.267853,-0.561887,0.275187,-3.34011,0.058747,-4.50143,-3.32514,0.056012,-4.48278,-0.590039,-0.814423,-0.848565,-0.618451,-0.476105,0.554563,0.458304,1
2.58996,-1.6902,1.68855,0.940532,1.38189,-1.36663,-2.80908,-61.175,-20.7101,-7.64678,1.06077,-16.1017,12.2659,-3.00247,2.65011,-1.60869,1.77353,1.00333,1.42838,-1.42072,-2.85376,0,0,0,0,0,0,0,0,0,0,0,0,0,0,0.700021,0.000103266,0.564321,-0.382543,9.10E-05,0.00013545,0.923938,0,0,0,0.234117,-0.561307,0.228883,-3.48131,0.0598649,-4.77819,-3.43446,0.0587091,-4.68957,-0.601541,-0.815095,-0.849804,-0.627929,-0.464942,0.540898,0.446753,1
2.58871,-1.69011,1.68851,0.94126,1.38172,-1.36592,-2.80866,-61.1403,-20.7111,-7.6455,1.06051,-16.1286,12.2733,-2.98297,2.65011,-1.60869,1.77353,1.00333,1.42838,-1.42072,-2.85376,0,0,0,0,0,0,0,0,0,0,0,0,0,0,0.700021,0.000103266,0.564321,-0.382543,9.10E-05,0.00013545,0.923938,0,0,0,0.200345,-0.561441,0.181543,-3.30735,-0.0131688,-4.6361,-3.34548,0.00839456,-4.65214,-0.614065,-0.814252,-0.850248,-0.620651,-0.466636,0.547965,0.451002,1
2.58777,-1.69021,1.68848,0.940097,1.38405,-1.36775,-2.81077,-61.1272,-20.7714,-7.6781,1.0598,-15.9975,12.2136,-3.06115,2.65011,-1.60869,1.77353,1.00333,1.42838,-1.42072,-2.85376,0,0,0,0,0,0,0,0,0,0,0,0,0,0,0.700021,0.000103266,0.564321,-0.382543,9.10E-05,0.00013545,0.923938,0,0,0,0.167534,-0.560909,0.132258,-3.331,0.0540316,-5.00354,-3.33535,0.0403405,-4.89812,-0.623467,-0.81528,-0.850584,-0.632282,-0.443326,0.529701,0.429868,1
2.58675,-1.6902,1.68844,0.939927,1.38498,-1.36842,-2.8113,-61.0812,-20.8004,-7.69447,1.05932,-15.9375,12.18,-3.09309,2.65011,-1.60869,1.77353,1.00333,1.42838,-1.42072,-2.85376,0,0,0,0,0,0,0,0,0,0,0,0,0,0,0.700021,0.000103266,0.564321,-0.382543,9.10E-05,0.00013545,0.923938,0,0,0,0.134895,-0.560389,0.0828097,-3.25036,0.0517651,-4.9243,-3.27585,0.0483377,-4.91645,-0.633607,-0.815153,-0.85093,-0.633977,-0.434029,0.522965,0.424603,1
2.58608,-1.69039,1.68843,0.939083,1.38781,-1.37021,-2.81308,-61.0292,-20.8716,-7.72863,1.05877,-15.7939,12.111,-3.17573,2.65011,-1.60869,1.77353,1.00333,1.42838,-1.42072,-2.85376,0,0,0,0,0,0,0,0,0,0,0,0,0,0,0.700021,0.000103266,0.564321,-0.382543,9.10E-05,0.00013545,0.923938,0,0,0,0.101864,-0.559373,0.0329209,-3.43904,0.1058,-5.19412,-3.39008,0.0885616,-5.11082,-0.6403,-0.816999,-0.851053,-0.642425,-0.40571,0.505031,0.406821,1
2.58548,-1.69043,1.68842,0.939114,1.3888,-1.37035,-2.81364,-61.0139,-20.8952,-7.73683,1.05855,-15.7689,12.0995,-3.19004,2.65011,-1.60869,1.77353,1.00333,1.42838,-1.42072,-2.85376,0,0,0,0,0,0,0,0,0,0,0,0,0,0,0.700021,0.000103266,0.564321,-0.382543,9.10E-05,0.00013545,0.923938,0,0,0,0.0686113,-0.558724,-0.0181257,-3.34292,0.0652126,-5.13179,-3.35707,0.0722173,-5.1255,-0.646283,-0.817433,-0.851166,-0.642113,-0.39585,0.503704,0.401235,1
2.58543,-1.69038,1.68845,0.938602,1.3899,-1.37063,-2.81408,-60.973,-20.9182,-7.7448,1.05805,-15.7253,12.0752,-3.21546,2.65011,-1.60869,1.77353,1.00333,1.42838,-1.42072,-2.85376,0,0,0,0,0,0,0,0,0,0,0,0,0,0,0.700021,0.000103266,0.564321,-0.382543,9.10E-05,0.00013545,0.923938,0,0,0,0.0352826,-0.557912,-0.0707024,-3.1983,0.0779266,-5.04539,-3.24593,0.0762138,-5.06943,-0.646823,-0.816915,-0.850877,-0.647236,-0.384858,0.500831,0.396757,1
