Afshin1997/kuka_rl_ros2/src/catch_and_throw/input_files/idealpd/ballistic motion dataset/magnus_effect/7.csv
pure_target_joint_0,pure_target_joint_1,pure_target_joint_2,pure_target_joint_3,pure_target_joint_4,pure_target_joint_5,pure_target_joint_6,target_joint_0,target_joint_1,target_joint_2,target_joint_3,target_joint_4,target_joint_5,target_joint_6,pos_joint_0,pos_joint_1,pos_joint_2,pos_joint_3,pos_joint_4,pos_joint_5,pos_joint_6,vel_joint_0,vel_joint_1,vel_joint_2,vel_joint_3,vel_joint_4,vel_joint_5,vel_joint_6,vel_smooth_joint_0,vel_smooth_joint_1,vel_smooth_joint_2,vel_smooth_joint_3,vel_smooth_joint_4,vel_smooth_joint_5,vel_smooth_joint_6,ee_pos_x,ee_pos_y,ee_pos_z,ee_or_w,ee_or_x,ee_or_y,ee_or_z,ee_vel_x,ee_vel_y,ee_vel_z,ball_pos_x,ball_pos_y,ball_pos_z,ball_raw_vx,ball_raw_vy,ball_raw_vz,ball_ema_vx,ball_ema_vy,ball_ema_vz,action_0,action_1,action_2,action_3,action_4,action_5,action_6,command_published
2.68447,-1.68003,1.69947,1.06856,1.36307,-1.34755,-2.79963,-66.2657,-18.8399,-6.1302,1.19375,-22.1362,16.0712,0.608224,2.65011,-1.60869,1.77354,1.00336,1.42838,-1.4207,-2.85376,0,0,0,0,0,0,0,0,0,0,0,0,0,0,0.700018,0.000115963,0.564321,-0.382558,9.96545e-05,0.0001362,0.923931,0,0,0,2.99725,-0.636212,0.730338,-3.38411,-0.18352,3.8256,-3.36592,-0.17981,3.83719,0.343598,-0.713416,-0.74067,0.652076,-0.653174,0.731435,0.541278,1
2.68625,-1.68041,1.69951,1.0683,1.3633,-1.34759,-2.79996,-66.29,-18.8551,-6.13588,1.19471,-22.1052,16.0593,0.587291,2.65011,-1.60869,1.77354,1.00336,1.42838,-1.4207,-2.85376,0,0,0,0,0,0,0,0,0,0,0,0,0,0,0.700018,0.000115963,0.564321,-0.382558,9.96545e-05,0.0001362,0.923931,0,0,0,2.9635,-0.638095,0.767228,-3.2218,-0.179774,3.52165,-3.26504,-0.179785,3.61631,0.36137,-0.717149,-0.740231,0.649401,-0.650847,0.731057,0.538007,1
2.67878,-1.68015,1.69921,1.06993,1.36311,-1.34708,-2.79908,-66.2626,-18.8295,-6.12271,1.19173,-22.2159,16.1194,0.661269,2.65011,-1.60869,1.77354,1.00336,1.42838,-1.4207,-2.85376,0,0,0,0,0,0,0,0,0,0,0,0,0,0,0.700018,0.000115963,0.564321,-0.382558,9.96545e-05,0.0001362,0.923931,0,0,0,2.93016,-0.640407,0.802556,-3.5616,-0.246964,3.7737,-3.47263,-0.226811,3.72648,0.286693,-0.714568,-0.743242,0.665723,-0.652745,0.736172,0.546765,1
2.6792,-1.68024,1.69928,1.0702,1.36323,-1.347,-2.79919,-66.2807,-18.8307,-6.12047,1.19217,-22.224,16.1275,0.665809,2.65011,-1.60869,1.77354,1.00336,1.42838,-1.4207,-2.85376,0,0,0,0,0,0,0,0,0,0,0,0,0,0,0.700018,0.000115963,0.564321,-0.382558,9.96545e-05,0.0001362,0.923931,0,0,0,2.89653,-0.643075,0.836942,-3.42943,-0.271971,3.50626,-3.44239,-0.258423,3.57233,0.290828,-0.715466,-0.742593,0.6684,-0.65159,0.736969,0.545719,1
2.68009,-1.68074,1.69915,1.06977,1.36336,-1.34704,-2.79937,-66.2881,-18.8499,-6.13103,1.19263,-22.1814,16.1065,0.638595,2.65011,-1.60869,1.77354,1.00336,1.42838,-1.4207,-2.85376,0,0,0,0,0,0,0,0,0,0,0,0,0,0,0.700018,0.000115963,0.564321,-0.382558,9.96545e-05,0.0001362,0.923931,0,0,0,2.86258,-0.645267,0.870231,-3.34989,-0.216396,3.28525,-3.37764,-0.229004,3.37137,0.299806,-0.720507,-0.743838,0.664155,-0.650218,0.73659,0.543853,1
2.67978,-1.68128,1.69895,1.06934,1.36347,-1.34705,-2.79946,-66.2907,-18.8685,-6.14267,1.19247,-22.1449,16.0892,0.615605,2.65011,-1.60869,1.77354,1.00336,1.42838,-1.4207,-2.85376,0,0,0,0,0,0,0,0,0,0,0,0,0,0,0.700018,0.000115963,0.564321,-0.382558,9.96545e-05,0.0001362,0.923931,0,0,0,2.82879,-0.646909,0.902397,-3.31862,-0.161186,3.15836,-3.33633,-0.181531,3.22227,0.296668,-0.725872,-0.745879,0.659876,-0.649097,0.736432,0.542994,1
2.67705,-1.68155,1.69874,1.06948,1.36344,-1.34694,-2.79928,-66.291,-18.8719,-6.14686,1.19131,-22.1564,16.0985,0.623777,2.65011,-1.60869,1.77354,1.00336,1.42838,-1.4207,-2.85376,0,0,0,0,0,0,0,0,0,0,0,0,0,0,0.700018,0.000115963,0.564321,-0.382558,9.96545e-05,0.0001362,0.923931,0,0,0,2.79507,-0.648424,0.933388,-3.40803,-0.15314,3.13281,-3.38652,-0.161658,3.15965,0.269335,-0.728638,-0.74796,0.66125,-0.649474,0.737529,0.544798,1
2.67399,-1.68166,1.69863,1.06991,1.36342,-1.34678,-2.79911,-66.3013,-18.8678,-6.14541,1.19008,-22.1921,16.1229,0.646766,2.65011,-1.60869,1.77354,1.00336,1.42838,-1.4207,-2.85376,0,0,0,0,0,0,0,0,0,0,0,0,0,0,0.700018,0.000115963,0.564321,-0.382558,9.96545e-05,0.0001362,0.923931,0,0,0,2.76148,-0.650054,0.963473,-3.46484,-0.168138,3.10293,-3.44134,-0.166194,3.11995,0.238777,-0.729658,-0.749042,0.665511,-0.649606,0.739128,0.546518,1
2.67667,-1.68188,1.69876,1.06975,1.36368,-1.34682,-2.79949,-66.3305,-18.878,-6.14671,1.19148,-22.1682,16.1144,0.629672,2.65011,-1.60869,1.77354,1.00336,1.42838,-1.4207,-2.85376,0,0,0,0,0,0,0,0,0,0,0,0,0,0,0.700018,0.000115963,0.564321,-0.382558,9.96545e-05,0.0001362,0.923931,0,0,0,2.72795,-0.651876,0.99262,-3.27115,-0.177763,2.84344,-3.32221,-0.174292,2.92639,0.265576,-0.731852,-0.747735,0.66395,-0.647066,0.738718,0.542673,1
2.67399,-1.68196,1.69867,1.07009,1.36363,-1.34669,-2.79933,-66.3394,-18.8738,-6.14552,1.19038,-22.1991,16.1354,0.649587,2.65011,-1.60869,1.77354,1.00336,1.42838,-1.4207,-2.85376,0,0,0,0,0,0,0,0,0,0,0,0,0,0,0.700018,0.000115963,0.564321,-0.382558,9.96545e-05,0.0001362,0.923931,0,0,0,2.69417,-0.653759,1.0207,-3.40493,-0.189789,2.83022,-3.38012,-0.18514,2.85907,0.238733,-0.732708,-0.748686,0.667366,-0.647578,0.740103,0.544263,1
2.67454,-1.68207,1.69873,1.0702,1.36375,-1.34664,-2.79947,-66.3585,-18.8762,-6.14446,1.1908,-22.2014,16.1405,0.65008,2.65011,-1.60869,1.77354,1.00336,1.42838,-1.4207,-2.85376,0,0,0,0,0,0,0,0,0,0,0,0,0,0,0.700018,0.000115963,0.564321,-0.382558,9.96545e-05,0.0001362,0.923931,0,0,0,2.66093,-0.655865,1.0474,-3.2949,-0.208808,2.64711,-3.32047,-0.201707,2.7107,0.244224,-0.733795,-0.748098,0.668454,-0.646356,0.740534,0.542857,1
2.6731,-1.68205,1.69874,1.07062,1.36378,-1.34652,-2.79941,-66.3707,-18.8708,-6.14032,1.19032,-22.2316,16.1606,0.669072,2.65011,-1.60869,1.77354,1.00336,1.42838,-1.4207,-2.85376,0,0,0,0,0,0,0,0,0,0,0,0,0,0,0.700018,0.000115963,0.564321,-0.382558,9.96545e-05,0.0001362,0.923931,0,0,0,2.62772,-0.658285,1.07319,-3.32769,-0.242434,2.58412,-3.32552,-0.230216,2.6221,0.229847,-0.73361,-0.747966,0.672601,-0.646045,0.741793,0.543527,1
2.67188,-1.68226,1.69866,1.07063,1.36387,-1.34646,-2.79944,-66.383,-18.8755,-6.14298,1.18983,-22.2359,16.1674,0.671408,2.65011,-1.60869,1.77354,1.00336,1.42838,-1.4207,-2.85376,0,0,0,0,0,0,0,0,0,0,0,0,0,0,0.700018,0.000115963,0.564321,-0.382558,9.96545e-05,0.0001362,0.923931,0,0,0,2.59476,-0.660408,1.0982,-3.28696,-0.211768,2.49446,-3.29853,-0.217302,2.53275,0.217687,-0.735727,-0.748724,0.672735,-0.645124,0.742354,0.543196,1
2.66724,-1.68251,1.69835,1.07066,1.36377,-1.34636,-2.7992,-66.3761,-18.8785,-6.15,1.18763,-22.2542,16.1803,0.684302,2.65011,-1.60869,1.77354,1.00336,1.42838,-1.4207,-2.85376,0,0,0,0,0,0,0,0,0,0,0,0,0,0,0.700018,0.000115963,0.564321,-0.382558,9.96545e-05,0.0001362,0.923931,0,0,0,2.56126,-0.662133,1.12239,-3.44514,-0.17736,2.48814,-3.40116,-0.189343,2.50153,0.171308,-0.738185,-0.751832,0.673038,-0.646183,0.743407,0.545594,1
2.66685,-1.68269,1.69832,1.07063,1.36386,-1.34632,-2.79928,-66.3883,-18.8834,-6.15216,1.18751,-22.2526,16.1829,0.682784,2.65011,-1.60869,1.77354,1.00336,1.42838,-1.4207,-2.85376,0,0,0,0,0,0,0,0,0,0,0,0,0,0,0.700018,0.000115963,0.564321,-0.382558,9.96545e-05,0.0001362,0.923931,0,0,0,2.52811,-0.663943,1.14559,-3.33291,-0.18198,2.33137,-3.35338,-0.184189,2.38242,0.16738,-0.739992,-0.752133,0.672776,-0.645246,0.743737,0.544818,1
2.66548,-1.68291,1.69822,1.07054,1.36391,-1.34629,-2.79928,-66.3943,-18.8894,-6.15669,1.18688,-22.251,16.1854,0.681745,2.65011,-1.60869,1.77354,1.00336,1.42838,-1.4207,-2.85376,0,0,0,0,0,0,0,0,0,0,0,0,0,0,0.700018,0.000115963,0.564321,-0.382558,9.96545e-05,0.0001362,0.923931,0,0,0,2.49507,-0.665513,1.16795,-3.32386,-0.157984,2.24999,-3.33272,-0.165845,2.28972,0.15367,-0.742224,-0.753134,0.671858,-0.644741,0.744061,0.544758,1
2.66782,-1.683,1.69838,1.07052,1.36411,-1.34629,-2.79949,-66.4128,-18.8934,-6.15449,1.18808,-22.2394,16.1817,0.672983,2.65011,-1.60869,1.77354,1.00336,1.42838,-1.4207,-2.85376,0,0,0,0,0,0,0,0,0,0,0,0,0,0,0.700018,0.000115963,0.564321,-0.382558,9.96545e-05,0.0001362,0.923931,0,0,0,2.46199,-0.667447,1.18962,-3.13208,-0.183099,2.05126,-3.19227,-0.177923,2.1228,0.177045,-0.743122,-0.751587,0.671631,-0.642762,0.744095,0.542649,1
2.66112,-1.68288,1.69815,1.07113,1.36389,-1.34605,-2.79898,-66.3929,-18.8822,-6.15365,1.18501,-22.3029,16.2179,0.715982,2.65011,-1.60869,1.77354,1.00336,1.42838,-1.4207,-2.85376,0,0,0,0,0,0,0,0,0,0,0,0,0,0,0.700018,0.000115963,0.564321,-0.382558,9.96545e-05,0.0001362,0.923931,0,0,0,2.42862,-0.669517,1.21026,-3.43086,-0.212765,2.12202,-3.35928,-0.202312,2.12226,0.110028,-0.741908,-0.753843,0.677789,-0.644973,0.746421,0.54778,1
2.66406,-1.68298,1.69826,1.07101,1.36401,-1.34607,-2.7992,-66.406,-18.8868,-6.15245,1.18646,-22.2813,16.2063,0.700904,2.65011,-1.60869,1.77354,1.00336,1.42838,-1.4207,-2.85376,0,0,0,0,0,0,0,0,0,0,0,0,0,0,0.700018,0.000115963,0.564321,-0.382558,9.96545e-05,0.0001362,0.923931,0,0,0,2.39508,-0.671882,1.22955,-3.1892,-0.224907,1.83477,-3.24023,-0.218128,1.92101,0.13941,-0.742843,-0.752798,0.676508,-0.643757,0.746242,0.545614,1
2.66363,-1.68307,1.69822,1.07099,1.36402,-1.34603,-2.79918,-66.4066,-18.8891,-6.15386,1.18628,-22.2806,16.2067,0.700517,2.65011,-1.60869,1.77354,1.00336,1.42838,-1.4207,-2.85376,0,0,0,0,0,0,0,0,0,0,0,0,0,0,0.700018,0.000115963,0.564321,-0.382558,9.96545e-05,0.0001362,0.923931,0,0,0,2.36165,-0.674237,1.24767,-3.20127,-0.225514,1.73479,-3.21296,-0.223298,1.79066,0.135182,-0.743788,-0.75316,0.676356,-0.643685,0.746671,0.545794,1
2.65495,-1.68304,1.69789,1.07142,1.36372,-1.34582,-2.79856,-66.3723,-18.8835,-6.15987,1.18216,-22.3376,16.2392,0.740984,2.65011,-1.60869,1.77354,1.00336,1.42838,-1.4207,-2.85376,0,0,0,0,0,0,0,0,0,0,0,0,0,0,0.700018,0.000115963,0.564321,-0.382558,9.96545e-05,0.0001362,0.923931,0,0,0,2.32822,-0.676419,1.26484,-3.51012,-0.229105,1.80273,-3.42097,-0.227363,1.79911,0.0483782,-0.743539,-0.756484,0.680608,-0.646672,0.748742,0.55195,1
2.6586,-1.68337,1.69797,1.07097,1.36391,-1.34591,-2.79898,-66.4057,-18.8944,-6.1624,1.1839,-22.2993,16.2222,0.713719,2.65011,-1.60869,1.77354,1.00336,1.42838,-1.4207,-2.85376,0,0,0,0,0,0,0,0,0,0,0,0,0,0,0.700018,0.000115963,0.564321,-0.382558,9.96545e-05,0.0001362,0.923931,0,0,0,2.29483,-0.678411,1.28112,-3.18859,-0.190237,1.55465,-3.2583,-0.201375,1.62798,0.0848244,-0.746785,-0.755641,0.676131,-0.644766,0.747856,0.547835,1
2.65355,-1.68358,1.6977,1.07083,1.36371,-1.34586,-2.79873,-66.3895,-18.9003,-6.17306,1.18141,-22.309,16.2294,0.722133,2.65011,-1.60869,1.77354,1.00336,1.42838,-1.4207,-2.85376,0,0,0,0,0,0,0,0,0,0,0,0,0,0,0.700018,0.000115963,0.564321,-0.382558,9.96545e-05,0.0001362,0.923931,0,0,0,2.2614,-0.680067,1.29603,-3.4053,-0.168706,1.51934,-3.3612,-0.178507,1.55193,0.0343832,-0.748928,-0.758336,0.674751,-0.646719,0.748382,0.550294,1
2.65331,-1.68371,1.69771,1.0708,1.36375,-1.34583,-2.79881,-66.4033,-18.9027,-6.17413,1.18135,-22.31,16.2332,0.722078,2.65011,-1.60869,1.77354,1.00336,1.42838,-1.4207,-2.85376,0,0,0,0,0,0,0,0,0,0,0,0,0,0,0.700018,0.000115963,0.564321,-0.382558,9.96545e-05,0.0001362,0.923931,0,0,0,2.22829,-0.681802,1.31018,-3.28643,-0.17222,1.40388,-3.30886,-0.174106,1.44829,0.0319991,-0.750159,-0.758295,0.674414,-0.64633,0.748629,0.549487,1
2.64545,-1.68353,1.69749,1.07137,1.36335,-1.34566,-2.79815,-66.3557,-18.8962,-6.17943,1.1777,-22.3624,16.2598,0.761192,2.65011,-1.60869,1.77354,1.00336,1.42838,-1.4207,-2.85376,0,0,0,0,0,0,0,0,0,0,0,0,0,0,0.700018,0.000115963,0.564321,-0.382558,9.96545e-05,0.0001362,0.923931,0,0,0,2.19493,-0.683887,1.32314,-3.56655,-0.222878,1.38619,-3.48925,-0.208246,1.40482,-0.0466613,-0.748428,-0.760419,0.680139,-0.650384,0.750407,0.556056,1
2.64927,-1.68375,1.6976,1.07102,1.36355,-1.34571,-2.79855,-66.3939,-18.9011,-6.17749,1.17951,-22.3371,16.25,0.741262,2.65011,-1.60869,1.77354,1.00336,1.42838,-1.4207,-2.85376,0,0,0,0,0,0,0,0,0,0,0,0,0,0,0.700018,0.000115963,0.564321,-0.382558,9.96545e-05,0.0001362,0.923931,0,0,0,2.16144,-0.68583,1.33497,-3.29621,-0.191187,1.16369,-3.35412,-0.196305,1.23603,-0.00839177,-0.750593,-0.759318,0.676646,-0.648293,0.749909,0.552085,1
2.65009,-1.68372,1.69769,1.07121,1.36363,-1.34565,-2.79862,-66.4084,-18.898,-6.17296,1.18002,-22.3472,16.2576,0.746634,2.65011,-1.60869,1.77354,1.00336,1.42838,-1.4207,-2.85376,0,0,0,0,0,0,0,0,0,0,0,0,0,0,0.700018,0.000115963,0.564321,-0.382558,9.96545e-05,0.0001362,0.923931,0,0,0,2.1283,-0.688103,1.34601,-3.25853,-0.223551,1.08613,-3.28721,-0.215377,1.1311,-0.000245273,-0.7503,-0.75842,0.678529,-0.647558,0.750463,0.551359,1
2.64954,-1.6838,1.6977,1.07119,1.36362,-1.34562,-2.79863,-66.4155,-18.899,-6.17394,1.17978,-22.3503,16.2615,0.748409,2.65011,-1.60869,1.77354,1.00336,1.42838,-1.4207,-2.85376,0,0,0,0,0,0,0,0,0,0,0,0,0,0,0.700018,0.000115963,0.564321,-0.382558,9.96545e-05,0.0001362,0.923931,0,0,0,2.09579,-0.690258,1.35591,-3.25314,-0.215614,0.990085,-3.26336,-0.215543,1.03239,-0.00572614,-0.751063,-0.758386,0.678299,-0.647638,0.750735,0.551243,1
2.64833,-1.6839,1.69766,1.07111,1.36357,-1.3456,-2.7986,-66.4177,-18.9013,-6.17695,1.17919,-22.3523,16.2646,0.749918,2.65011,-1.60869,1.77354,1.00336,1.42838,-1.4207,-2.85376,0,0,0,0,0,0,0,0,0,0,0,0,0,0,0.700018,0.000115963,0.564321,-0.382558,9.96545e-05,0.0001362,0.923931,0,0,0,2.06281,-0.692366,1.36499,-3.2572,-0.208189,0.897374,-3.25905,-0.210395,0.937879,-0.0178417,-0.752084,-0.758712,0.677537,-0.64817,0.750946,0.551563,1
2.65162,-1.68404,1.6978,1.07087,1.36378,-1.34563,-2.79894,-66.4515,-18.9044,-6.17386,1.18076,-22.3354,16.2593,0.735815,2.65011,-1.60869,1.77354,1.00336,1.42838,-1.4207,-2.85376,0,0,0,0,0,0,0,0,0,0,0,0,0,0,0.700018,0.000115963,0.564321,-0.382558,9.96545e-05,0.0001362,0.923931,0,0,0,2.02947,-0.694524,1.37313,-3.08173,-0.199477,0.751903,-3.13493,-0.202752,0.807696,0.0150865,-0.753503,-0.757378,0.675179,-0.646025,0.750659,0.548157,1
2.63968,-1.684,1.69731,1.0712,1.36297,-1.3455,-2.79789,-66.3497,-18.908,-6.19461,1.17502,-22.3684,16.2686,0.768081,2.65011,-1.60869,1.77354,1.00336,1.42838,-1.4207,-2.85376,0,0,0,0,0,0,0,0,0,0,0,0,0,0,0.700018,0.000115963,0.564321,-0.382558,9.96545e-05,0.0001362,0.923931,0,0,0,1.9968,-0.696436,1.38035,-3.60744,-0.21112,0.79768,-3.46569,-0.20861,0.800684,-0.104386,-0.75305,-0.76227,0.67844,-0.654101,0.751927,0.558685,1
2.64173,-1.6842,1.69741,1.07086,1.36316,-1.34554,-2.79821,-66.387,-18.9117,-6.19381,1.17595,-22.3556,16.2677,0.756564,2.65011,-1.60869,1.77354,1.00336,1.42838,-1.4207,-2.85376,0,0,0,0,0,0,0,0,0,0,0,0,0,0,0.700018,0.000115963,0.564321,-0.382558,9.96545e-05,0.0001362,0.923931,0,0,0,1.96395,-0.698213,1.38682,-3.29722,-0.178359,0.6495,-3.34776,-0.187434,0.694855,-0.0837963,-0.755085,-0.761275,0.675065,-0.652287,0.75155,0.555516,1
2.6453,-1.68424,1.69759,1.0708,1.36338,-1.34554,-2.79855,-66.4292,-18.9087,-6.186,1.1777,-22.3531,16.2712,0.750774,2.65011,-1.60869,1.77354,1.00336,1.42838,-1.4207,-2.85376,0,0,0,0,0,0,0,0,0,0,0,0,0,0,0.700018,0.000115963,0.564321,-0.382558,9.96545e-05,0.0001362,0.923931,0,0,0,1.93138,-0.700276,1.39225,-3.13765,-0.198779,0.52314,-3.20068,-0.195375,0.574655,-0.0481402,-0.755509,-0.759445,0.67446,-0.65,0.751556,0.552094,1
2.64993,-1.68432,1.69775,1.0706,1.36366,-1.34559,-2.79895,-66.4659,-18.9096,-6.17988,1.17992,-22.3336,16.2634,0.734293,2.65011,-1.60869,1.77354,1.00336,1.42838,-1.4207,-2.85376,0,0,0,0,0,0,0,0,0,0,0,0,0,0,0.700018,0.000115963,0.564321,-0.382558,9.96545e-05,0.0001362,0.923931,0,0,0,1.8981,-0.702428,1.39674,-2.9799,-0.192637,0.402105,-3.04613,-0.193458,0.45387,-0.0018441,-0.756277,-0.757843,0.672464,-0.647251,0.751047,0.548081,1
2.63241,-1.68402,1.69699,1.07144,1.36228,-1.34554,-2.79738,-66.2954,-18.9132,-6.21159,1.17171,-22.3789,16.2691,0.782505,2.65011,-1.60869,1.77354,1.00336,1.42838,-1.4207,-2.85376,0,0,0,0,0,0,0,0,0,0,0,0,0,0,0.700018,0.000115963,0.564321,-0.382558,9.96545e-05,0.0001362,0.923931,0,0,0,1.86453,-0.704837,1.40024,-3.86488,-0.277425,0.402321,-3.61925,-0.252235,0.417786,-0.17706,-0.753255,-0.765422,0.680802,-0.661019,0.751553,0.563836,1
2.63574,-1.68404,1.69708,1.07126,1.3623,-1.3455,-2.79742,-66.3072,-18.9086,-6.20527,1.17321,-22.3677,16.2617,0.772872,2.65011,-1.60869,1.77354,1.00336,1.42838,-1.4207,-2.85376,0,0,0,0,0,0,0,0,0,0,0,0,0,0,0.700018,0.000115963,0.564321,-0.382558,9.96545e-05,0.0001362,0.923931,0,0,0,1.83207,-0.707323,1.4024,-3.49576,-0.267638,0.233354,-3.5328,-0.263017,0.288684,-0.143778,-0.753522,-0.764516,0.679026,-0.66088,0.751998,0.563395,1
2.63978,-1.68428,1.69722,1.07074,1.3626,-1.34563,-2.79785,-66.3515,-18.9134,-6.20329,1.175,-22.3395,16.2524,0.750373,2.65011,-1.60869,1.77354,1.00336,1.42838,-1.4207,-2.85376,0,0,0,0,0,0,0,0,0,0,0,0,0,0,0.700018,0.000115963,0.564321,-0.382558,9.96545e-05,0.0001362,0.923931,0,0,0,1.79883,-0.709582,1.40354,-3.29281,-0.223785,0.112722,-3.36481,-0.235554,0.165511,-0.103387,-0.755894,-0.763154,0.673883,-0.6578,0.750692,0.559104,1
2.6381,-1.68439,1.69713,1.07053,1.36245,-1.34576,-2.79769,-66.3298,-18.9202,-6.21241,1.17411,-22.3223,16.2413,0.742194,2.65011,-1.60869,1.77354,1.00336,1.42838,-1.4207,-2.85376,0,0,0,0,0,0,0,0,0,0,0,0,0,0,0.700018,0.000115963,0.564321,-0.382558,9.96545e-05,0.0001362,0.923931,0,0,0,1.76565,-0.711672,1.40405,-3.43569,-0.216414,0.0523431,-3.41442,-0.222156,0.0862933,-0.120174,-0.756995,-0.764104,0.67172,-0.659314,0.749322,0.560655,1
2.64206,-1.68466,1.6972,1.06979,1.36276,-1.34596,-2.79805,-66.3548,-18.9301,-6.21481,1.17572,-22.2763,16.2194,0.709617,2.65011,-1.60869,1.77354,1.00336,1.42838,-1.4207,-2.85376,0,0,0,0,0,0,0,0,0,0,0,0,0,0,0.700018,0.000115963,0.564321,-0.382558,9.96545e-05,0.0001362,0.923931,0,0,0,1.73249,-0.713309,1.40338,-3.18222,-0.157094,-0.0644437,-3.25188,-0.176612,-0.0192226,-0.0805828,-0.759687,-0.763348,0.664358,-0.656202,0.74733,0.557055,1
2.64158,-1.68459,1.69718,1.06996,1.36253,-1.34592,-2.79791,-66.3475,-18.9249,-6.21363,1.17557,-22.2851,16.2218,0.716084,2.65011,-1.60869,1.77354,1.00336,1.42838,-1.4207,-2.85376,0,0,0,0,0,0,0,0,0,0,0,0,0,0,0.700018,0.000115963,0.564321,-0.382558,9.96545e-05,0.0001362,0.923931,0,0,0,1.69943,-0.715508,1.40148,-3.3012,-0.21966,-0.189431,-3.28641,-0.206745,-0.138369,-0.0853325,-0.758969,-0.763526,0.666013,-0.658529,0.747732,0.558527,1
2.64108,-1.68458,1.6971,1.06987,1.36234,-1.34595,-2.79768,-66.3186,-18.9263,-6.21736,1.17524,-22.2729,16.2099,0.710591,2.65011,-1.60869,1.77354,1.00336,1.42838,-1.4207,-2.85376,0,0,0,0,0,0,0,0,0,0,0,0,0,0,0.700018,0.000115963,0.564321,-0.382558,9.96545e-05,0.0001362,0.923931,0,0,0,1.66648,-0.717697,1.39849,-3.3547,-0.222867,-0.303893,-3.33421,-0.218031,-0.254236,-0.0903696,-0.758886,-0.764393,0.665121,-0.660413,0.747482,0.560793,1
2.64243,-1.68471,1.69706,1.0695,1.36244,-1.34607,-2.79778,-66.3162,-18.9334,-6.22139,1.17574,-22.2446,16.1935,0.692234,2.65011,-1.60869,1.77354,1.00336,1.42838,-1.4207,-2.85376,0,0,0,0,0,0,0,0,0,0,0,0,0,0,0.700018,0.000115963,0.564321,-0.382558,9.96545e-05,0.0001362,0.923931,0,0,0,1.63344,-0.719642,1.39437,-3.25461,-0.191567,-0.406134,-3.27849,-0.199506,-0.360564,-0.0768628,-0.760239,-0.764771,0.661431,-0.65946,0.746314,0.559821,1
2.64209,-1.68465,1.69705,1.06968,1.36223,-1.34603,-2.79767,-66.3145,-18.9279,-6.2196,1.17567,-22.2549,16.1977,0.699343,2.65011,-1.60869,1.77354,1.00336,1.42838,-1.4207,-2.85376,0,0,0,0,0,0,0,0,0,0,0,0,0,0,0.700018,0.000115963,0.564321,-0.382558,9.96545e-05,0.0001362,0.923931,0,0,0,1.60078,-0.721971,1.38955,-3.28708,-0.234437,-0.485494,-3.2845,-0.223958,-0.448015,-0.0802293,-0.759544,-0.76481,0.663225,-0.661537,0.746682,0.560852,1
2.64253,-1.68469,1.697,1.06952,1.36214,-1.34608,-2.79764,-66.3064,-18.9298,-6.22198,1.17582,-22.2413,16.1879,0.691118,2.65011,-1.60869,1.77354,1.00336,1.42838,-1.4207,-2.85376,0,0,0,0,0,0,0,0,0,0,0,0,0,0,0.700018,0.000115963,0.564321,-0.382558,9.96545e-05,0.0001362,0.923931,0,0,0,1.56817,-0.724263,1.38363,-3.27362,-0.230128,-0.594189,-3.27689,-0.228277,-0.550337,-0.0758244,-0.759979,-0.765323,0.661665,-0.662432,0.746213,0.561182,1
2.64249,-1.68477,1.69691,1.06926,1.36206,-1.34614,-2.79755,-66.287,-18.9349,-6.22718,1.17566,-22.2206,16.1732,0.679215,2.65011,-1.60869,1.77354,1.00336,1.42838,-1.4207,-2.85376,0,0,0,0,0,0,0,0,0,0,0,0,0,0,0.700018,0.000115963,0.564321,-0.382558,9.96545e-05,0.0001362,0.923931,0,0,0,1.53575,-0.726462,1.37692,-3.2798,-0.222377,-0.678395,-3.27893,-0.224147,-0.639978,-0.0762728,-0.760761,-0.766211,0.659055,-0.663209,0.745591,0.562116,1
2.6436,-1.68489,1.69688,1.06889,1.36212,-1.34624,-2.79765,-66.287,-18.9409,-6.23094,1.17603,-22.1959,16.1592,0.662942,2.65011,-1.60869,1.77354,1.00336,1.42838,-1.4207,-2.85376,0,0,0,0,0,0,0,0,0,0,0,0,0,0,0.700018,0.000115963,0.564321,-0.382558,9.96545e-05,0.0001362,0.923931,0,0,0,1.50295,-0.728491,1.3693,-3.17639,-0.196476,-0.737782,-3.20715,-0.204778,-0.708441,-0.0651352,-0.761995,-0.766554,0.655315,-0.662627,0.744582,0.561118,1
2.64266,-1.68497,1.69672,1.06852,1.36198,-1.34631,-2.79742,-66.2463,-18.9488,-6.2399,1.17534,-22.1674,16.1373,0.647666,2.65011,-1.60869,1.77354,1.00336,1.42838,-1.4207,-2.85376,0,0,0,0,0,0,0,0,0,0,0,0,0,0,0.700018,0.000115963,0.564321,-0.382558,9.96545e-05,0.0001362,0.923931,0,0,0,1.4705,-0.730485,1.36085,-3.29632,-0.20256,-0.858936,-3.26957,-0.203226,-0.813788,-0.0745613,-0.762828,-0.768164,0.651598,-0.664015,0.743838,0.563431,1
2.64578,-1.68503,1.69689,1.06841,1.3622,-1.34637,-2.79787,-66.3008,-18.9459,-6.23328,1.1769,-22.1676,16.1446,0.643033,2.65011,-1.60869,1.77354,1.00336,1.42838,-1.4207,-2.85376,0,0,0,0,0,0,0,0,0,0,0,0,0,0,0.700018,0.000115963,0.564321,-0.382558,9.96545e-05,0.0001362,0.923931,0,0,0,1.4378,-0.732532,1.35141,-2.98703,-0.187006,-0.861594,-3.07179,-0.191872,-0.847252,-0.0433637,-0.76338,-0.766452,0.650571,-0.661868,0.743221,0.55892,1
2.64381,-1.68502,1.69669,1.06819,1.36185,-1.3464,-2.79746,-66.247,-18.9493,-6.24174,1.17575,-22.1495,16.1256,0.635619,2.65011,-1.60869,1.77354,1.00336,1.42838,-1.4207,-2.85376,0,0,0,0,0,0,0,0,0,0,0,0,0,0,0.700018,0.000115963,0.564321,-0.382558,9.96545e-05,0.0001362,0.923931,0,0,0,1.40529,-0.73479,1.34101,-3.28441,-0.22815,-1.05099,-3.22062,-0.217266,-0.989867,-0.063055,-0.763261,-0.76845,0.64836,-0.665366,0.742979,0.563004,1
2.64096,-1.68503,1.69647,1.0677,1.36153,-1.34644,-2.79696,-66.175,-18.9573,-6.25439,1.17396,-22.1213,16.0999,0.622743,2.65011,-1.60869,1.77354,1.00336,1.42838,-1.4207,-2.85376,0,0,0,0,0,0,0,0,0,0,0,0,0,0,0.700018,0.000115963,0.564321,-0.382558,9.96545e-05,0.0001362,0.923931,0,0,0,1.37254,-0.737163,1.32965,-3.47865,-0.252058,-1.20737,-3.40124,-0.241621,-1.14212,-0.0915194,-0.763356,-0.770672,0.643413,-0.668509,0.742544,0.568037,1
2.64435,-1.68508,1.6967,1.06744,1.36189,-1.34651,-2.79747,-66.2357,-18.9549,-6.24666,1.17552,-22.1218,16.1094,0.61725,2.65011,-1.60869,1.77354,1.00336,1.42838,-1.4207,-2.85376,0,0,0,0,0,0,0,0,0,0,0,0,0,0,0.700018,0.000115963,0.564321,-0.382558,9.96545e-05,0.0001362,0.923931,0,0,0,1.33984,-0.739589,1.31728,-3.06141,-0.227066,-1.15744,-3.16336,-0.231433,-1.15284,-0.0576618,-0.76385,-0.76834,0.640894,-0.664964,0.741901,0.56287,1
2.64656,-1.68514,1.6968,1.06689,1.36211,-1.34661,-2.79775,-66.257,-18.9581,-6.24611,1.17628,-22.1022,16.1019,0.601603,2.65011,-1.60869,1.77354,1.00336,1.42838,-1.4207,-2.85376,0,0,0,0,0,0,0,0,0,0,0,0,0,0,0.700018,0.000115963,0.564321,-0.382558,9.96545e-05,0.0001362,0.923931,0,0,0,1.30727,-0.742088,1.30357,-2.98734,-0.229234,-1.25795,-3.04015,-0.229894,-1.22642,-0.0355354,-0.764517,-0.767316,0.635351,-0.662775,0.740898,0.560084,1
2.6402,-1.68534,1.69619,1.06477,1.36167,-1.34686,-2.79667,-66.064,-18.993,-6.28616,1.17164,-21.9884,16.0139,0.541002,2.65011,-1.60869,1.77354,1.00336,1.42838,-1.4207,-2.85376,0,0,0,0,0,0,0,0,0,0,0,0,0,0,0.700018,0.000115963,0.564321,-0.382558,9.96545e-05,0.0001362,0.923931,0,0,0,1.27471,-0.744299,1.28905,-3.74502,-0.254245,-1.66931,-3.53356,-0.246939,-1.53644,-0.0991027,-0.766452,-0.773472,0.614117,-0.667126,0.738372,0.570857,1
2.64232,-1.6854,1.69636,1.06443,1.36202,-1.34693,-2.79706,-66.106,-18.9939,-6.28217,1.1725,-21.9851,16.0196,0.534565,2.65011,-1.60869,1.77354,1.00336,1.42838,-1.4207,-2.85376,0,0,0,0,0,0,0,0,0,0,0,0,0,0,0.700018,0.000115963,0.564321,-0.382558,9.96545e-05,0.0001362,0.923931,0,0,0,1.2419,-0.746545,1.27382,-3.22569,-0.220834,-1.49812,-3.31805,-0.228666,-1.50962,-0.0779478,-0.767093,-0.771754,0.610791,-0.663659,0.737705,0.566967,1
2.6424,-1.68561,1.69628,1.06285,1.36234,-1.34719,-2.79693,-66.0441,-19.017,-6.29924,1.17147,-21.9074,15.9714,0.486934,2.65011,-1.60869,1.77354,1.00336,1.42838,-1.4207,-2.85376,0,0,0,0,0,0,0,0,0,0,0,0,0,0,0.700018,0.000115963,0.564321,-0.382558,9.96545e-05,0.0001362,0.923931,0,0,0,1.20923,-0.748455,1.2574,-3.29491,-0.192604,-1.65529,-3.30185,-0.203422,-1.61159,-0.0771726,-0.769159,-0.772599,0.594975,-0.660474,0.735061,0.568304,1
2.64255,-1.68557,1.69626,1.06258,1.36222,-1.34723,-2.79676,-66.0216,-19.0173,-6.30136,1.17132,-21.8936,15.9597,0.479199,2.65011,-1.60869,1.77354,1.00336,1.42838,-1.4207,-2.85376,0,0,0,0,0,0,0,0,0,0,0,0,0,0,0.700018,0.000115963,0.564321,-0.382558,9.96545e-05,0.0001362,0.923931,0,0,0,1.17616,-0.750872,1.23982,-3.31151,-0.24213,-1.76123,-3.30861,-0.230518,-1.71634,-0.0756444,-0.7688,-0.772775,0.592271,-0.66169,0.73465,0.569975,1
2.64504,-1.68564,1.69639,1.06202,1.3625,-1.34738,-2.79682,-66.0168,-19.0231,-6.30202,1.17215,-21.862,15.9424,0.458019,2.65011,-1.60869,1.77354,1.00336,1.42838,-1.4207,-2.85376,0,0,0,0,0,0,0,0,0,0,0,0,0,0,0.700018,0.000115963,0.564321,-0.382558,9.96545e-05,0.0001362,0.923931,0,0,0,1.14337,-0.75326,1.22089,-3.07341,-0.223789,-1.77407,-3.14397,-0.225808,-1.75675,-0.0507044,-0.769475,-0.77147,0.586695,-0.658866,0.733117,0.569389,1
2.63788,-1.68605,1.69534,1.05843,1.36238,-1.34772,-2.7967,-65.8506,-19.0799,-6.35782,1.16635,-21.7017,15.8315,0.3619,2.65011,-1.60869,1.77354,1.00336,1.42838,-1.4207,-2.85376,0,0,0,0,0,0,0,0,0,0,0,0,0,0,0.700018,0.000115963,0.564321,-0.382558,9.96545e-05,0.0001362,0.923931,0,0,0,1.11102,-0.755438,1.20108,-3.67332,-0.247365,-2.24873,-3.51452,-0.240898,-2.10113,-0.122323,-0.773567,-0.78191,0.550716,-0.660056,0.72976,0.570595,1
2.63945,-1.68623,1.69541,1.05796,1.36285,-1.34787,-2.7971,-65.8787,-19.0898,-6.35996,1.16691,-21.6804,15.8264,0.345381,2.65011,-1.60869,1.77354,1.00336,1.42838,-1.4207,-2.85376,0,0,0,0,0,0,0,0,0,0,0,0,0,0,0.700018,0.000115963,0.564321,-0.382558,9.96545e-05,0.0001362,0.923931,0,0,0,1.07906,-0.757644,1.18042,-3.12152,-0.215428,-2.01883,-3.23942,-0.223069,-2.04352,-0.10661,-0.775404,-0.781265,0.546035,-0.655339,0.72827,0.566608,1
2.63842,-1.6864,1.69527,1.0571,1.36309,-1.348,-2.79733,-65.8683,-19.1055,-6.37155,1.16591,-21.6457,15.8084,0.322792,2.65011,-1.60869,1.77354,1.00336,1.42838,-1.4207,-2.85376,0,0,0,0,0,0,0,0,0,0,0,0,0,0,0.700018,0.000115963,0.564321,-0.382558,9.96545e-05,0.0001362,0.923931,0,0,0,1.04712,-0.759934,1.15885,-3.05473,-0.218997,-2.06264,-3.11014,-0.220218,-2.0569,-0.116986,-0.777129,-0.782621,0.537487,-0.6529,0.72701,0.564334,1
2.63518,-1.68659,1.69478,1.05521,1.36302,-1.34818,-2.79736,-65.7893,-19.1341,-6.39951,1.16314,-21.5624,15.7514,0.272278,2.65011,-1.60869,1.77354,1.00336,1.42838,-1.4207,-2.85376,0,0,0,0,0,0,0,0,0,0,0,0,0,0,0.700018,0.000115963,0.564321,-0.382558,9.96545e-05,0.0001362,0.923931,0,0,0,1.01495,-0.762345,1.13649,-3.26449,-0.244726,-2.26879,-3.21819,-0.237374,-2.20522,-0.149308,-0.778993,-0.78754,0.518557,-0.653597,0.72521,0.564035,1
2.63235,-1.6869,1.69437,1.05222,1.36333,-1.3485,-2.79744,-65.6844,-19.1775,-6.43618,1.15979,-21.4338,15.6698,0.192912,2.65011,-1.60869,1.77354,1.00336,1.42838,-1.4207,-2.85376,0,0,0,0,0,0,0,0,0,0,0,0,0,0,0.700018,0.000115963,0.564321,-0.382558,9.96545e-05,0.0001362,0.923931,0,0,0,0.982683,-0.764409,1.11319,-3.2381,-0.207036,-2.33811,-3.23213,-0.216137,-2.29824,-0.177605,-0.782048,-0.791689,0.488641,-0.650495,0.721923,0.563214,1
2.62982,-1.68713,1.69402,1.04948,1.36355,-1.34879,-2.79748,-65.5849,-19.2155,-6.46909,1.15674,-21.317,15.5948,0.121168,2.65011,-1.60869,1.77354,1.00336,1.42838,-1.4207,-2.85376,0,0,0,0,0,0,0,0,0,0,0,0,0,0,0.700018,0.000115963,0.564321,-0.382558,9.96545e-05,0.0001362,0.923931,0,0,0,0.950146,-0.766372,1.08909,-3.2381,-0.19537,-2.39821,-3.23631,-0.2016,-2.36822,-0.202943,-0.784438,-0.795153,0.461215,-0.648298,0.719069,0.562827,1
2.62848,-1.6873,1.69383,1.04801,1.36376,-1.34899,-2.79762,-65.5396,-19.2384,-6.48783,1.15515,-21.2521,15.555,0.0809405,2.65011,-1.60869,1.77354,1.00336,1.42838,-1.4207,-2.85376,0,0,0,0,0,0,0,0,0,0,0,0,0,0,0.700018,0.000115963,0.564321,-0.382558,9.96545e-05,0.0001362,0.923931,0,0,0,0.9177,-0.768422,1.06404,-3.1142,-0.196816,-2.4051,-3.15083,-0.198252,-2.39404,-0.216369,-0.786111,-0.797077,0.446516,-0.646262,0.71711,0.561416,1
2.62638,-1.68755,1.69339,1.04328,1.36397,-1.34935,-2.79794,-65.416,-19.2868,-6.53159,1.15095,-21.078,15.4442,-0.030733,2.65011,-1.60869,1.77354,1.00336,1.42838,-1.4207,-2.85376,0,0,0,0,0,0,0,0,0,0,0,0,0,0,0.700018,0.000115963,0.564321,-0.382558,9.96545e-05,0.0001362,0.923931,0,0,0,0.885932,-0.770536,1.03799,-3.28317,-0.218408,-2.69202,-3.24347,-0.212361,-2.60262,-0.237325,-0.788564,-0.801481,0.399203,-0.644173,0.713428,0.55821,1
2.625,-1.68761,1.69317,1.04177,1.36383,-1.34947,-2.79807,-65.3762,-19.3015,-6.5477,1.14931,-21.0235,15.4081,-0.0652841,2.65011,-1.60869,1.77354,1.00336,1.42838,-1.4207,-2.85376,0,0,0,0,0,0,0,0,0,0,0,0,0,0,0.700018,0.000115963,0.564321,-0.382558,9.96545e-05,0.0001362,0.923931,0,0,0,0.853741,-0.773072,1.01097,-3.25556,-0.256494,-2.73278,-3.25193,-0.243254,-2.69373,-0.251109,-0.789171,-0.803641,0.384183,-0.645507,0.712301,0.556847,1
2.62373,-1.68765,1.69307,1.04086,1.36372,-1.34964,-2.79806,-65.3406,-19.3126,-6.56048,1.14812,-20.9831,15.3816,-0.089095,2.65011,-1.60869,1.77354,1.00336,1.42838,-1.4207,-2.85376,0,0,0,0,0,0,0,0,0,0,0,0,0,0,0.700018,0.000115963,0.564321,-0.382558,9.96545e-05,0.0001362,0.923931,0,0,0,0.821613,-0.775625,0.983003,-3.04358,-0.241895,-2.64906,-3.10608,-0.242303,-2.66246,-0.263833,-0.789584,-0.804685,0.37503,-0.646602,0.710551,0.556961,1
2.62132,-1.6878,1.69258,1.03331,1.36374,-1.3501,-2.79838,-65.1373,-19.3749,-6.62142,1.1417,-20.7215,15.211,-0.256946,2.65011,-1.60869,1.77354,1.00336,1.42838,-1.4207,-2.85376,0,0,0,0,0,0,0,0,0,0,0,0,0,0,0.700018,0.000115963,0.564321,-0.382558,9.96545e-05,0.0001362,0.923931,0,0,0,0.789337,-0.778139,0.953877,-3.29606,-0.25676,-2.97433,-3.23907,-0.252423,-2.88077,-0.287907,-0.791096,-0.809581,0.29957,-0.646421,0.705972,0.553829,1
2.6191,-1.68798,1.69219,1.02391,1.36399,-1.35066,-2.79864,-64.8685,-19.4532,-6.6945,1.13395,-20.3901,14.9962,-0.467581,2.65011,-1.60869,1.77354,1.00336,1.42838,-1.4207,-2.85376,0,0,0,0,0,0,0,0,0,0,0,0,0,0,0.700018,0.000115963,0.564321,-0.382558,9.96545e-05,0.0001362,0.923931,0,0,0,0.757174,-0.78041,0.92375,-3.32719,-0.234876,-3.11654,-3.30075,-0.24014,-3.04581,-0.310119,-0.792856,-0.813431,0.205513,-0.643916,0.700327,0.551204,1
2.61729,-1.68804,1.69188,1.01569,1.36424,-1.35096,-2.7989,-64.6253,-19.5193,-6.75492,1.12712,-20.1065,14.8098,-0.647713,2.65011,-1.60869,1.77354,1.00336,1.42838,-1.4207,-2.85376,0,0,0,0,0,0,0,0,0,0,0,0,0,0,0.700018,0.000115963,0.564321,-0.382558,9.96545e-05,0.0001362,0.923931,0,0,0,0.724852,-0.782762,0.892909,-3.39735,-0.247171,-3.24164,-3.36837,-0.245062,-3.18289,-0.328244,-0.793523,-0.816512,0.123385,-0.641461,0.697341,0.548545,1
2.61626,-1.688,1.69181,1.01583,1.36414,-1.35114,-2.79885,-64.6051,-19.5235,-6.76101,1.12676,-20.0953,14.8007,-0.651653,2.65011,-1.60869,1.77354,1.00336,1.42838,-1.4207,-2.85376,0,0,0,0,0,0,0,0,0,0,0,0,0,0,0.700018,0.000115963,0.564321,-0.382558,9.96545e-05,0.0001362,0.923931,0,0,0,0.69229,-0.785115,0.861172,-3.12007,-0.22548,-3.04106,-3.19456,-0.231355,-3.08361,-0.338563,-0.793086,-0.817296,0.124781,-0.642446,0.695545,0.549042,1
2.61495,-1.68809,1.69146,1.00167,1.36479,-1.35151,-2.7995,-64.203,-19.6315,-6.85566,1.11572,-19.6154,14.4874,-0.957966,2.65011,-1.60869,1.77354,1.00336,1.42838,-1.4207,-2.85376,0,0,0,0,0,0,0,0,0,0,0,0,0,0,0.700018,0.000115963,0.564321,-0.382558,9.96545e-05,0.0001362,0.923931,0,0,0,0.659947,-0.7875,0.828199,-3.35458,-0.247407,-3.41996,-3.30657,-0.242591,-3.31906,-0.351668,-0.794006,-0.82072,-0.0168781,-0.635938,0.691827,0.542586,1
2.6141,-1.68815,1.69124,0.991989,1.3654,-1.35197,-2.80006,-63.9106,-19.7112,-6.92393,1.10817,-19.2674,14.2611,-1.17675,2.65011,-1.60869,1.77354,1.00336,1.42838,-1.4207,-2.85376,0,0,0,0,0,0,0,0,0,0,0,0,0,0,0.700018,0.000115963,0.564321,-0.382558,9.96545e-05,0.0001362,0.923931,0,0,0,0.627791,-0.789765,0.793636,-3.22756,-0.22733,-3.46903,-3.25126,-0.231908,-3.42404,-0.360129,-0.794606,-0.822907,-0.113668,-0.62982,0.687255,0.537001,1
2.61295,-1.6882,1.69107,0.985179,1.36595,-1.35243,-2.8005,-63.6805,-19.7754,-6.97777,1.10259,-19.003,14.0889,-1.33973,2.65011,-1.60869,1.77354,1.00336,1.42838,-1.4207,-2.85376,0,0,0,0,0,0,0,0,0,0,0,0,0,0,0.700018,0.000115963,0.564321,-0.382558,9.96545e-05,0.0001362,0.923931,0,0,0,0.596107,-0.791891,0.758403,-3.16287,-0.212201,-3.51725,-3.18939,-0.218113,-3.48929,-0.37162,-0.795074,-0.824662,-0.181762,-0.62433,0.682687,0.53261,1
2.61194,-1.6882,1.69095,0.981512,1.36648,-1.35289,-2.80083,-63.5375,-19.8182,-7.01209,1.09939,-18.8421,13.9849,-1.43664,2.65011,-1.60869,1.77354,1.00336,1.42838,-1.4207,-2.85376,0,0,0,0,0,0,0,0,0,0,0,0,0,0,0.700018,0.000115963,0.564321,-0.382558,9.96545e-05,0.0001362,0.923931,0,0,0,0.564808,-0.793783,0.722438,-2.99347,-0.180958,-3.43973,-3.05224,-0.192105,-3.45459,-0.381755,-0.795082,-0.82587,-0.218434,-0.619043,0.678073,0.529321,1
2.61075,-1.68819,1.69078,0.977767,1.36674,-1.35297,-2.80112,-63.3962,-19.8562,-7.04354,1.09603,-18.6944,13.8856,-1.52681,2.65011,-1.60869,1.77354,1.00336,1.42838,-1.4207,-2.85376,0,0,0,0,0,0,0,0,0,0,0,0,0,0,0.700018,0.000115963,0.564321,-0.382558,9.96545e-05,0.0001362,0.923931,0,0,0,0.533236,-0.796272,0.685661,-3.17496,-0.250299,-3.69837,-3.13814,-0.232841,-3.62524,-0.39367,-0.795002,-0.827537,-0.25589,-0.61645,0.677217,0.526355,1
2.60895,-1.6882,1.69061,0.975656,1.36751,-1.35315,-2.80122,-63.2448,-19.9019,-7.07408,1.09349,-18.5676,13.7994,-1.59849,2.65011,-1.60869,1.77354,1.00336,1.42838,-1.4207,-2.85376,0,0,0,0,0,0,0,0,0,0,0,0,0,0,0.700018,0.000115963,0.564321,-0.382558,9.96545e-05,0.0001362,0.923931,0,0,0,0.50168,-0.798765,0.647558,-3.11184,-0.245836,-3.75745,-3.11973,-0.241938,-3.71779,-0.411654,-0.795115,-0.829234,-0.276997,-0.608741,0.675449,0.525402,1
2.60664,-1.68844,1.69034,0.971203,1.3685,-1.35397,-2.80186,-63.033,-19.9795,-7.1326,1.08929,-18.3213,13.6426,-1.7424,2.65011,-1.60869,1.77354,1.00336,1.42838,-1.4207,-2.85376,0,0,0,0,0,0,0,0,0,0,0,0,0,0,0.700018,0.000115963,0.564321,-0.382558,9.96545e-05,0.0001362,0.923931,0,0,0,0.469802,-0.800893,0.608741,-3.16891,-0.211591,-3.85872,-3.15416,-0.220695,-3.81644,-0.434736,-0.797466,-0.831944,-0.321523,-0.598801,0.667292,0.519002,1
2.60455,-1.68868,1.69005,0.967325,1.36942,-1.35481,-2.8025,-62.8397,-20.052,-7.1873,1.08565,-18.0928,13.4971,-1.87518,2.65011,-1.60869,1.77354,1.00336,1.42838,-1.4207,-2.85376,0,0,0,0,0,0,0,0,0,0,0,0,0,0,0.700018,0.000115963,0.564321,-0.382558,9.96545e-05,0.0001362,0.923931,0,0,0,0.437951,-0.802898,0.569356,-3.2537,-0.204812,-4.02342,-3.22384,-0.209577,-3.96133,-0.455631,-0.799854,-0.834821,-0.360301,-0.589628,0.658912,0.512629,1
2.6024,-1.68894,1.68978,0.96487,1.37005,-1.35544,-2.80294,-62.6899,-20.1112,-7.23197,1.08305,-17.9202,13.3865,-1.97319,2.65011,-1.60869,1.77354,1.00336,1.42838,-1.4207,-2.85376,0,0,0,0,0,0,0,0,0,0,0,0,0,0,0.700018,0.000115963,0.564321,-0.382558,9.96545e-05,0.0001362,0.923931,0,0,0,0.406503,-0.804897,0.529291,-3.29833,-0.209696,-4.20201,-3.27598,-0.20966,-4.1298,-0.47717,-0.802505,-0.837558,-0.384857,-0.583337,0.652615,0.508144,1
2.60076,-1.68889,1.68968,0.966158,1.37015,-1.35524,-2.8028,-62.6716,-20.1173,-7.23398,1.08318,-17.9425,13.3957,-1.95474,2.65011,-1.60869,1.77354,1.00336,1.42838,-1.4207,-2.85376,0,0,0,0,0,0,0,0,0,0,0,0,0,0,0.700018,0.000115963,0.564321,-0.382558,9.96545e-05,0.0001362,0.923931,0,0,0,0.374783,-0.807489,0.488014,-3.19051,-0.260638,-4.15183,-3.21615,-0.245345,-4.14522,-0.493523,-0.801972,-0.838599,-0.371979,-0.582351,0.654533,0.509626,1
2.59921,-1.68888,1.68959,0.966655,1.37072,-1.35531,-2.80278,-62.6149,-20.1393,-7.24514,1.08274,-17.9174,13.377,-1.96408,2.65011,-1.60869,1.77354,1.00336,1.42838,-1.4207,-2.85376,0,0,0,0,0,0,0,0,0,0,0,0,0,0,0.700018,0.000115963,0.564321,-0.382558,9.96545e-05,0.0001362,0.923931,0,0,0,0.343444,-0.809991,0.445502,-2.99583,-0.239221,-4.06377,-3.06193,-0.241058,-4.0882,-0.509043,-0.801881,-0.839422,-0.367001,-0.576654,0.653902,0.509777,1
2.59726,-1.68917,1.68933,0.963848,1.37147,-1.35606,-2.80345,-62.4675,-20.2027,-7.29261,1.08006,-17.7295,13.259,-2.07228,2.65011,-1.60869,1.77354,1.00336,1.42838,-1.4207,-2.85376,0,0,0,0,0,0,0,0,0,0,0,0,0,0,0.700018,0.000115963,0.564321,-0.382558,9.96545e-05,0.0001362,0.923931,0,0,0,0.312142,-0.812461,0.402253,-3.19069,-0.251729,-4.40857,-3.15206,-0.248528,-4.31246,-0.528511,-0.804812,-0.842091,-0.395078,-0.569176,0.646336,0.503117,1
2.59549,-1.68941,1.68912,0.961274,1.37239,-1.35689,-2.80404,-62.3162,-20.2655,-7.33789,1.07756,-17.5463,13.1443,-2.17667,2.65011,-1.60869,1.77354,1.00336,1.42838,-1.4207,-2.85376,0,0,0,0,0,0,0,0,0,0,0,0,0,0,0.700018,0.000115963,0.564321,-0.382558,9.96545e-05,0.0001362,0.923931,0,0,0,0.280697,-0.814645,0.358002,-3.17876,-0.220841,-4.4734,-3.17075,-0.229147,-4.42512,-0.546262,-0.807199,-0.844145,-0.420814,-0.559987,0.638039,0.497148,1
2.59396,-1.68948,1.689,0.960879,1.37298,-1.35715,-2.80432,-62.2482,-20.2967,-7.35753,1.07662,-17.4822,13.1031,-2.21061,2.65011,-1.60869,1.77354,1.00336,1.42838,-1.4207,-2.85376,0,0,0,0,0,0,0,0,0,0,0,0,0,0,0.700018,0.000115963,0.564321,-0.382558,9.96545e-05,0.0001362,0.923931,0,0,0,0.249407,-0.817089,0.312644,-3.09061,-0.24133,-4.48009,-3.11465,-0.237675,-4.4636,-0.561507,-0.807908,-0.84532,-0.424766,-0.554086,0.635499,0.494423,1
2.59245,-1.68964,1.68882,0.959293,1.37354,-1.35772,-2.80484,-62.1526,-20.3399,-7.38931,1.07498,-17.3606,13.0269,-2.27964,2.65011,-1.60869,1.77354,1.00336,1.42838,-1.4207,-2.85376,0,0,0,0,0,0,0,0,0,0,0,0,0,0,0.700018,0.000115963,0.564321,-0.382558,9.96545e-05,0.0001362,0.923931,0,0,0,0.217706,-0.819709,0.266533,-3.241,-0.2679,-4.71424,-3.20309,-0.258833,-4.63905,-0.576597,-0.80952,-0.847137,-0.440627,-0.548421,0.629737,0.489148,1
2.59114,-1.68974,1.6887,0.958246,1.37429,-1.35828,-2.80521,-62.0593,-20.3797,-7.41591,1.0737,-17.2581,12.9626,-2.33619,2.65011,-1.60869,1.77354,1.00336,1.42838,-1.4207,-2.85376,0,0,0,0,0,0,0,0,0,0,0,0,0,0,0.700018,0.000115963,0.564321,-0.382558,9.96545e-05,0.0001362,0.923931,0,0,0,0.186009,-0.8222,0.219567,-3.16697,-0.248882,-4.69247,-3.17781,-0.251867,-4.67644,-0.589759,-0.810476,-0.848372,-0.451093,-0.540973,0.624145,0.485497,1
2.59034,-1.68991,1.68857,0.954937,1.37586,-1.35955,-2.80616,-61.8961,-20.4507,-7.46326,1.07108,-17.0407,12.8313,-2.46246,2.65011,-1.60869,1.77354,1.00336,1.42838,-1.4207,-2.85376,0,0,0,0,0,0,0,0,0,0,0,0,0,0,0.700018,0.000115963,0.564321,-0.382558,9.96545e-05,0.0001362,0.923931,0,0,0,0.154943,-0.824272,0.171637,-3.16743,-0.211232,-4.88689,-3.17054,-0.223423,-4.82375,-0.597744,-0.812238,-0.849621,-0.48419,-0.525265,0.611499,0.476033,1
2.59006,-1.68989,1.68851,0.952881,1.37677,-1.36015,-2.80664,-61.7937,-20.4874,-7.48699,1.06942,-16.9217,12.7569,-2.5321,2.65011,-1.60869,1.77354,1.00336,1.42838,-1.4207,-2.85376,0,0,0,0,0,0,0,0,0,0,0,0,0,0,0.700018,0.000115963,0.564321,-0.382558,9.96545e-05,0.0001362,0.923931,0,0,0,0.12369,-0.826628,0.121952,-3.10406,-0.234044,-4.9347,-3.124,-0.230858,-4.90142,-0.600549,-0.812041,-0.850223,-0.50474,-0.516189,0.605468,0.471156,1
2.5896,-1.68986,1.68846,0.950779,1.37764,-1.36084,-2.80741,-61.7141,-20.5227,-7.51081,1.06776,-16.8071,12.6881,-2.60044,2.65011,-1.60869,1.77354,1.00336,1.42838,-1.4207,-2.85376,0,0,0,0,0,0,0,0,0,0,0,0,0,0,0.700018,0.000115963,0.564321,-0.382558,9.96545e-05,0.0001362,0.923931,0,0,0,0.0927497,-0.828917,0.0710234,-3.06833,-0.226989,-5.05061,-3.08503,-0.22815,-5.00585,-0.605187,-0.811738,-0.85072,-0.525769,-0.507434,0.598613,0.463453,1
2.58894,-1.68993,1.68838,0.948316,1.37857,-1.36203,-2.80867,-61.6521,-20.5655,-7.54284,1.06606,-16.6635,12.6071,-2.68684,2.65011,-1.60869,1.77354,1.00336,1.42838,-1.4207,-2.85376,0,0,0,0,0,0,0,0,0,0,0,0,0,0,0.700018,0.000115963,0.564321,-0.382558,9.96545e-05,0.0001362,0.923931,0,0,0,0.0619594,-0.831048,0.0200221,-3.21745,-0.222648,-5.32941,-3.17772,-0.224298,-5.23234,-0.611789,-0.812434,-0.851543,-0.550394,-0.498129,0.586686,0.450861,1
2.58864,-1.68973,1.68836,0.947682,1.37858,-1.36198,-2.80846,-61.5899,-20.5694,-7.54662,1.06523,-16.6363,12.5827,-2.70117,2.65011,-1.60869,1.77354,1.00336,1.42838,-1.4207,-2.85376,0,0,0,0,0,0,0,0,0,0,0,0,0,0,0.700018,0.000115963,0.564321,-0.382558,9.96545e-05,0.0001362,0.923931,0,0,0,0.0309175,-0.833571,-0.0321297,-3.04469,-0.247523,-5.11521,-3.0846,-0.240555,-5.15035,-0.614771,-0.810436,-0.85178,-0.556731,-0.498072,0.587209,0.453037,1
2.58831,-1.68958,1.68834,0.946603,1.37902,-1.36233,-2.8087,-61.5284,-20.5854,-7.5576,1.06422,-16.5774,12.5441,-2.7351,2.65011,-1.60869,1.77354,1.00336,1.42838,-1.4207,-2.85376,0,0,0,0,0,0,0,0,0,0,0,0,0,0,0.700018,0.000115963,0.564321,-0.382558,9.96545e-05,0.0001362,0.923931,0,0,0,0.000227702,-0.83606,-0.0851208,-2.96398,-0.240382,-5.11782,-3.00017,-0.240434,-5.12758,-0.618074,-0.808921,-0.85193,-0.567529,-0.493626,0.583635,0.450563,1
