Afshin1997/kuka_rl_ros2/src/catch_and_throw/output_files/ft/idealpd_6_2/ft_received_joint_pos_np.csv
joint_0,joint_1,joint_2,joint_3,joint_4,joint_5,joint_6
7.720814715829327213e-01,1.460086054598609510e-02,1.342347637177281339e+00,1.204898704390651387e+00,1.619561670031554712e+00,-9.259287788556253007e-01,1.554742916476446135e+00
7.720814715829327213e-01,1.460080065937620353e-02,1.342347816946193984e+00,1.204899003932783819e+00,1.619561670031554712e+00,-9.259288987379281632e-01,1.554743036358749109e+00
7.720814715829327213e-01,1.460098042828895416e-02,1.342347876941887064e+00,1.204899303583999437e+00,1.619561861843239248e+00,-9.259289586245380566e-01,1.554742796594143384e+00
7.720814715829327213e-01,1.460080065937620353e-02,1.342347816946193984e+00,1.204899123815086792e+00,1.619561861843239248e+00,-9.259288987379281632e-01,1.554742796594143384e+00
7.720814715829327213e-01,1.460080065937620353e-02,1.342346378903975124e+00,1.204897086470436696e+00,1.619560231880252665e+00,-9.259262022042369367e-01,1.554745792669967042e+00
7.720809322761944538e-01,1.460086054598609510e-02,1.342333136327373833e+00,1.204881926431488059e+00,1.619544316920953575e+00,-9.259004961223782360e-01,1.554770480134042066e+00
7.720796140071952696e-01,1.460080065937620353e-02,1.342296464560003511e+00,1.204843636852986233e+00,1.619494846086961148e+00,-9.258330848526755696e-01,1.554839748979482295e+00
7.720789549272373264e-01,1.460104031489884401e-02,1.342227315596866255e+00,1.204773708927587839e+00,1.619388138401945287e+00,-9.256952662374462459e-01,1.554990091095661997e+00
7.720827898519317944e-01,1.460373673950701723e-02,1.342129883900482046e+00,1.204658660314086527e+00,1.619215661474801893e+00,-9.254579785811823944e-01,1.555251287253739845e+00
7.720971709286195139e-01,1.461236542915285951e-02,1.342020767442935192e+00,1.204519583425550877e+00,1.618994960053283361e+00,-9.251441716545247829e-01,1.555614888642066207e+00
7.721311461622984984e-01,1.463321796853339109e-02,1.341924354364334215e+00,1.204365586153589573e+00,1.618763712479771577e+00,-9.247785929172412933e-01,1.556044583031096051e+00
7.721905879313964993e-01,1.467564212294545332e-02,1.341872462671405586e+00,1.204202001460808580e+00,1.618579730691277918e+00,-9.244027675700972058e-01,1.556484823572119147e+00
7.722771140470453544e-01,1.474688831734278192e-02,1.341883787785659754e+00,1.204027630960512019e+00,1.618535436852906795e+00,-9.240960912951735606e-01,1.556843032002146021e+00
7.723837736264236309e-01,1.484857447194012567e-02,1.341973969057090210e+00,1.203845770379738944e+00,1.618721623864907810e+00,-9.239316676444387921e-01,1.557023035116264831e+00
7.724999007443185128e-01,1.497398935943892312e-02,1.342154691246860043e+00,1.203684582569433559e+00,1.619233494027347842e+00,-9.239989591409217828e-01,1.556921528730580206e+00
7.726151291267328025e-01,1.510971074340820494e-02,1.342430987448193447e+00,1.203570492687105808e+00,1.620160593726326148e+00,-9.243916821113657978e-01,1.556452226494049240e+00
7.727123810542043669e-01,1.524585155181287614e-02,1.342807591757598562e+00,1.203525312221475740e+00,1.621546257741790953e+00,-9.251753905769857234e-01,1.555521591521592084e+00
7.727809908196864308e-01,1.536868989700636116e-02,1.343296008840075384e+00,1.203567916144800520e+00,1.623398827176760761e+00,-9.263985605122846412e-01,1.554061193816639319e+00
7.728183216670146960e-01,1.547031605591073569e-02,1.343910799541224943e+00,1.203706094188772280e+00,1.625727985117914942e+00,-9.280919314195952285e-01,1.552068936257013920e+00
7.728241339406664023e-01,1.553646894322425163e-02,1.344678688778855102e+00,1.203946258147639892e+00,1.628493656711278215e+00,-9.302545447859099648e-01,1.549538527148935918e+00
7.728019032456768800e-01,1.555798067164589245e-02,1.345621068290001610e+00,1.204309619771360529e+00,1.631679063583171274e+00,-9.328503878147336170e-01,1.546497829692133674e+00
7.727525282084436453e-01,1.552514393805331377e-02,1.346743211259744388e+00,1.204812238161612425e+00,1.635253238880310711e+00,-9.358465038901706556e-01,1.542972550077549077e+00
7.726733724000514059e-01,1.542915028388792270e-02,1.348040203931745840e+00,1.205458787091961081e+00,1.639181859481264381e+00,-9.391618198505647941e-01,1.539040226302442749e+00
7.725629976691983369e-01,1.526868144015057840e-02,1.349502519099045950e+00,1.206274373559999891e+00,1.643446517922031225e+00,-9.426960876926206989e-01,1.534767790216388761e+00
7.724234414696176110e-01,1.504391739392018854e-02,1.351123565307565944e+00,1.207265169377206071e+00,1.648023245421488481e+00,-9.463879479667268724e-01,1.530238891632432097e+00
7.722553626631010193e-01,1.475264081346770381e-02,1.352896631330006816e+00,1.208408344546158864e+00,1.652854517847418103e+00,-9.501577656625288526e-01,1.525561388734813395e+00
7.720685885441569418e-01,1.439946569483165767e-02,1.354830765389533287e+00,1.209713426601068065e+00,1.657892973770759282e+00,-9.539912795856420047e-01,1.520834570795654317e+00
7.718670738106996332e-01,1.399008453844400104e-02,1.356929802410839825e+00,1.211184190689101214e+00,1.663097195306678655e+00,-9.578073563605506990e-01,1.516127526782399482e+00
7.716535747739471374e-01,1.352845215130215641e-02,1.359196738360667123e+00,1.212805776095276400e+00,1.668423560044968168e+00,-9.615040103996080889e-01,1.511506469578054901e+00
7.714252154585449217e-01,1.301151268005553210e-02,1.361613656888848611e+00,1.214547203879904114e+00,1.673762580165649272e+00,-9.650525993226587440e-01,1.507056966567096312e+00
7.711627009223847029e-01,1.245340732770301717e-02,1.364149938375354365e+00,1.216374019171011067e+00,1.679056731361971311e+00,-9.684640287104380185e-01,1.502855357251004165e+00
7.708515905294183179e-01,1.186312432171595342e-02,1.366776880444336095e+00,1.218275436270164880e+00,1.684277922559655583e+00,-9.717370403987229954e-01,1.498921415555682923e+00
7.704969772594801869e-01,1.123425208601139084e-02,1.369487352553142578e+00,1.220240429714326780e+00,1.689347824952758481e+00,-9.748050019709886271e-01,1.495244116127177225e+00
7.701084487515561516e-01,1.057176415445336068e-02,1.372305742623716851e+00,1.222255876700115262e+00,1.694256371656698956e+00,-9.777414966174979849e-01,1.491783311593081640e+00
7.697045803266877595e-01,9.889142650082718630e-03,1.375251944573348650e+00,1.224299007334885836e+00,1.699007781306806963e+00,-9.805595870368566391e-01,1.488534388284606713e+00
7.692951392836901992e-01,9.192499715932968968e-03,1.378327755763916196e+00,1.226363409933472370e+00,1.703525354711059814e+00,-9.832078011787372951e-01,1.485470081868122794e+00
7.688650254702248388e-01,8.496695630653999798e-03,1.381525326686200650e+00,1.228441534419705272e+00,1.707789821340142344e+00,-9.857400079759427447e-01,1.482604533873878250e+00
7.684072880034705788e-01,7.806464163504125107e-03,1.384810082913174867e+00,1.230540631327621703e+00,1.711851418925719237e+00,-9.881935382758014752e-01,1.479919468304797814e+00
7.679016735373949132e-01,7.107544229181594203e-03,1.388152603102422722e+00,1.232655187925702389e+00,1.715725679152786620e+00,-9.904826451430914780e-01,1.477414465627362672e+00
7.673512380344315043e-01,6.383637070485281839e-03,1.391532813676824132e+00,1.234753385989055152e+00,1.719370129957644266e+00,-9.925756900127504778e-01,1.475103847140734059e+00
7.667665876422664617e-01,5.634742905581344163e-03,1.394960301948115822e+00,1.236809040124775771e+00,1.722802507725196497e+00,-9.945964699611454796e-01,1.473007446766508854e+00
7.661685149045873722e-01,4.857146473911922412e-03,1.398454961833587529e+00,1.238828262148649051e+00,1.726069886952375843e+00,-9.964911160554738023e-01,1.471092008019410091e+00
7.655655885153471729e-01,4.040421505786749926e-03,1.402017452522280605e+00,1.240788941247987998e+00,1.729131712470597160e+00,-9.982009053841222057e-01,1.469325413459661833e+00
7.649433676203313270e-01,3.187384417199937928e-03,1.405619491062781723e+00,1.242674718997147876e+00,1.732022595206085924e+00,-9.998704277853115441e-01,1.467697176712798202e+00
7.642844749579451591e-01,2.287668715988031530e-03,1.409212121951376018e+00,1.244482958749047352e+00,1.734779446254485435e+00,-1.001458816920068440e+00,1.466211672119334786e+00
7.635912474149715301e-01,1.329230321329093797e-03,1.412782102720545385e+00,1.246239306808017977e+00,1.737374078897474083e+00,-1.002847668779408341e+00,1.464874472297400976e+00
7.628772872149202078e-01,3.103315397885937675e-04,1.416341597224331617e+00,1.247994156829076662e+00,1.739810327972480142e+00,-1.004188403874821223e+00,1.463656994971617165e+00
7.621413359754020123e-01,-7.626760482434844033e-04,1.419903608492896208e+00,1.249776870268030082e+00,1.742131240978257223e+00,-1.005514158809281078e+00,1.462535031770787253e+00
7.613844123142002873e-01,-1.871396672472140687e-03,1.423457290723030733e+00,1.251595775945142375e+00,1.744343720691989175e+00,-1.006708566591204779e+00,1.461490486793997956e+00
7.605849447253668627e-01,-2.990723226220734672e-03,1.426961238378106289e+00,1.253431040156982590e+00,1.746440672350274559e+00,-1.007773364914026359e+00,1.460537081710729934e+00
7.597361020993000924e-01,-4.111967351399687352e-03,1.430396216838957457e+00,1.255243354598182037e+00,1.748435134958874260e+00,-1.008767096920446527e+00,1.459676314777060835e+00
7.588598754754669606e-01,-5.242798788315046823e-03,1.433790988258959453e+00,1.257037572811219306e+00,1.750334586730026176e+00,-1.009687365509823298e+00,1.458886913920092177e+00
7.579739416575946853e-01,-6.378184225575968778e-03,1.437182703607444489e+00,1.258840479600512152e+00,1.752157051678894462e+00,-1.010530455748848144e+00,1.458139337915104417e+00
7.570929213778933020e-01,-7.504222006623125288e-03,1.440595930793434398e+00,1.260661542504577293e+00,1.753934743696512699e+00,-1.011329683682159031e+00,1.457425737252878495e+00
7.562047704464580633e-01,-8.611085055114391443e-03,1.443999570449521874e+00,1.262470021911999307e+00,1.755651843467624262e+00,-1.012093438343879104e+00,1.456757317165365828e+00
7.552915125174293198e-01,-9.699072913182296696e-03,1.447356052291021822e+00,1.264265498507425756e+00,1.757302119119609651e+00,-1.012758442931132485e+00,1.456145342662044539e+00
7.543508108131072865e-01,-1.076752650086881292e-02,1.450668132520069653e+00,1.266081887528842431e+00,1.758919030708586018e+00,-1.013356515777894540e+00,1.455565605808050611e+00
7.533948891832268346e-01,-1.181033378422351697e-02,1.453954326789262952e+00,1.267938603473411474e+00,1.760509289549118561e+00,-1.013939248707712348e+00,1.455000609568569692e+00
7.524279419812249792e-01,-1.281904595159639136e-02,1.457233869826850547e+00,1.269838822185868743e+00,1.762071648952524106e+00,-1.014502207602542949e+00,1.454428542563964921e+00
7.514494898960563107e-01,-1.378827015377109486e-02,1.460499511207878909e+00,1.271765226400313198e+00,1.763616559252219718e+00,-1.015006084375184026e+00,1.453877867405478863e+00
7.504490467714206581e-01,-1.472591589565939128e-02,1.463731237241838290e+00,1.273706431224963742e+00,1.765143445536750733e+00,-1.015467237342197571e+00,1.453362365976451187e+00
7.494170252955817402e-01,-1.565121790551014108e-02,1.466921138314733586e+00,1.275662256672741579e+00,1.766648855893926395e+00,-1.015922877577691841e+00,1.452858129775067564e+00
7.483580991330217591e-01,-1.657154649057993728e-02,1.470083295852037120e+00,1.277632223541684375e+00,1.768160881572558241e+00,-1.016342025814728656e+00,1.452347122350692521e+00
7.472837733850735686e-01,-1.748875911752309498e-02,1.473231851383996815e+00,1.279617829869704071e+00,1.769698984913645967e+00,-1.016743617239424413e+00,1.451822992341102125e+00
7.461923700267465431e-01,-1.840555232003086156e-02,1.476361172187707904e+00,1.281564008119135734e+00,1.771228267884302987e+00,-1.017135261705474969e+00,1.451302397604990579e+00
7.450752604774777410e-01,-1.932540148497229743e-02,1.479463887955913437e+00,1.283467762105072074e+00,1.772754482915204433e+00,-1.017499282518236736e+00,1.450800378408086733e+00
7.439285499259628009e-01,-2.025735483551172056e-02,1.482532268952614363e+00,1.285390451277124590e+00,1.774302173698928176e+00,-1.017838316215707639e+00,1.450294883824313930e+00
7.427457668004258107e-01,-2.121411542334601663e-02,1.485567753329112950e+00,1.287363773759716778e+00,1.775867984490925533e+00,-1.018167103412401131e+00,1.449769854861076679e+00
7.415225968651267818e-01,-2.219784047542818980e-02,1.488572557980805788e+00,1.289411997592488035e+00,1.777444820876861176e+00,-1.018516803144168259e+00,1.449216782929197977e+00
7.402653918095389862e-01,-2.320235818028100125e-02,1.491541589818775160e+00,1.291530688766478807e+00,1.779054158435024124e+00,-1.018848706189905196e+00,1.448658377925629903e+00
7.389750502600599402e-01,-2.422964599594470622e-02,1.494478324120807056e+00,1.293700492562054327e+00,1.780670303126328236e+00,-1.019147113422091744e+00,1.448108302069575082e+00
7.376468985522073307e-01,-2.527347200616601730e-02,1.497386476038376601e+00,1.295878505622840349e+00,1.782288556873497853e+00,-1.019478057845738084e+00,1.447551694755134566e+00
7.362667952648161984e-01,-2.632293052112631357e-02,1.500255799070705720e+00,1.298029314454772765e+00,1.783926369129308798e+00,-1.019819548312294710e+00,1.446964887136016564e+00
7.348259918259377743e-01,-2.738215622581884404e-02,1.503071492716671731e+00,1.300147106784199647e+00,1.785621417887077289e+00,-1.020144740239816272e+00,1.446352133779517324e+00
7.333122043901443288e-01,-2.846031700754462698e-02,1.505817318323849463e+00,1.302205577117748536e+00,1.787347050398359283e+00,-1.020450517779259325e+00,1.445731290931027369e+00
7.317331629116011760e-01,-2.955687355956540877e-02,1.508501245392843693e+00,1.304227915099748447e+00,1.789073258170162273e+00,-1.020766302054874064e+00,1.445117219305528833e+00
7.301093005052534668e-01,-3.066110007005839327e-02,1.511164020380324935e+00,1.306274820663520408e+00,1.790834459793427591e+00,-1.021093411444742971e+00,1.444488826489952693e+00
7.284642859083094724e-01,-3.175657811768575062e-02,1.513839019217540605e+00,1.308367206453221465e+00,1.792622506151354322e+00,-1.021437478562687851e+00,1.443836644945782011e+00
7.268041111633338769e-01,-3.282718882324218990e-02,1.516555962789040146e+00,1.310476549861915307e+00,1.794421769740370598e+00,-1.021828703604303223e+00,1.443157139399538158e+00
7.251208069878880558e-01,-3.385771237025231306e-02,1.519285549852875894e+00,1.312587091657305693e+00,1.796243563610142369e+00,-1.022245994265602587e+00,1.442467087701300832e+00
7.234001718560310046e-01,-3.486294915075612705e-02,1.521995782306159839e+00,1.314683432254003970e+00,1.798080313904389049e+00,-1.022635661382696126e+00,1.441786383768360658e+00
7.216284241025890944e-01,-3.587375854938903291e-02,1.524686899913497928e+00,1.316751010588243842e+00,1.799922624817626327e+00,-1.023037013042786159e+00,1.441090220145256229e+00
7.198056833916992581e-01,-3.690727806313986309e-02,1.527350573636459652e+00,1.318785452646758616e+00,1.801793218442294009e+00,-1.023496068778539492e+00,1.440368949524558184e+00
7.179326089124024035e-01,-3.796836134356978282e-02,1.530003761203121204e+00,1.320778848706470443e+00,1.803704942147001278e+00,-1.023989579168100406e+00,1.439624189826481215e+00
7.159993736974397116e-01,-3.904778050768481501e-02,1.532613685657417069e+00,1.322710406114608439e+00,1.805632484817898842e+00,-1.024479614170791919e+00,1.438871400741189799e+00
7.139947724057768008e-01,-4.013558859683997310e-02,1.535166325569567780e+00,1.324587854825338029e+00,1.807567697512718397e+00,-1.024975820984960873e+00,1.438123105769633980e+00
7.119179661885428612e-01,-4.123088687555458154e-02,1.537672586520308915e+00,1.326435342886912894e+00,1.809522084918277152e+00,-1.025490004144989475e+00,1.437367320608518684e+00
7.097768645506498109e-01,-4.234577931126046885e-02,1.540142535241505239e+00,1.328268929291928524e+00,1.811483566912704513e+00,-1.026022043768574754e+00,1.436586368672283065e+00
7.075753624124850871e-01,-4.348895448021337928e-02,1.542590972343363287e+00,1.330100298692464156e+00,1.813467579362419979e+00,-1.026583684503489469e+00,1.435782107318498424e+00
7.053238261571289636e-01,-4.466077202932187962e-02,1.545019215985798722e+00,1.331926874328048571e+00,1.815469807638984578e+00,-1.027164380088656959e+00,1.434976467809104594e+00
7.030355582477928467e-01,-4.585607854672611033e-02,1.547439370245326407e+00,1.333728283079429699e+00,1.817477692702181624e+00,-1.027747891980735684e+00,1.434180715262662886e+00
7.007223632188589457e-01,-4.706516705655296867e-02,1.549878699346493249e+00,1.335487507331921231e+00,1.819486440481626888e+00,-1.028338894062373665e+00,1.433381547215961893e+00
6.983944874620217069e-01,-4.827503441955764696e-02,1.552340319029259508e+00,1.337189926462396095e+00,1.821497393484579508e+00,-1.028943138720612938e+00,1.432564942130139629e+00
6.960328760179450569e-01,-4.947489504639052127e-02,1.554804036052368721e+00,1.338846026518071497e+00,1.823536437387277775e+00,-1.029568175922539908e+00,1.431724907853548334e+00
6.936116431449407260e-01,-5.067511521104889338e-02,1.557215321966728183e+00,1.340442505035735810e+00,1.825574810210879750e+00,-1.030172660236301940e+00,1.430887270459432647e+00
6.911183252286683398e-01,-5.189193345687476838e-02,1.559542778299130017e+00,1.341993743092077418e+00,1.827609348197053452e+00,-1.030727350088395333e+00,1.430068867793566012e+00
6.885541804333509264e-01,-5.313661501151226846e-02,1.561791977667703391e+00,1.343536532227685765e+00,1.829656637209661652e+00,-1.031292885634614187e+00,1.429248847207484463e+00
6.859365261339731568e-01,-5.440856079069632950e-02,1.563996535768301888e+00,1.345077404010029731e+00,1.831716389967510183e+00,-1.031878794409168520e+00,1.428411449468891536e+00
6.832919672569572889e-01,-5.569350938187597050e-02,1.566198457330902016e+00,1.346617736376552577e+00,1.833784963095789422e+00,-1.032497599913008379e+00,1.427551821035309088e+00
6.806501646911595760e-01,-5.696982928340976748e-02,1.568422789357404312e+00,1.348120737895747157e+00,1.835858713394222796e+00,-1.033143070229880278e+00,1.426694349719596522e+00
6.780099200498836964e-01,-5.822487722112764524e-02,1.570677022037368697e+00,1.349575862524703407e+00,1.837925560740939490e+00,-1.033794592585009831e+00,1.425855993249829812e+00
6.753771057115572907e-01,-5.946686246024004974e-02,1.572935808717678352e+00,1.351020740652882024e+00,1.839975917693303487e+00,-1.034451747553961409e+00,1.425013741968758740e+00
6.727250566449820557e-01,-6.071202332592283424e-02,1.575181652472602556e+00,1.352473228634756941e+00,1.842034615923219043e+00,-1.035131133326985697e+00,1.424160584997869128e+00
6.700428672694224153e-01,-6.197869602911033199e-02,1.577383574035202685e+00,1.353931289343843991e+00,1.844101079646566665e+00,-1.035851505103120074e+00,1.423286096067470474e+00
6.673178942016252391e-01,-6.327389112106748814e-02,1.579520001790447381e+00,1.355360827664161549e+00,1.846170803295887453e+00,-1.036547608730531422e+00,1.422418258477760711e+00
6.645539125887581777e-01,-6.459706940413913190e-02,1.581592373889638470e+00,1.356746144140939414e+00,1.848239376424166691e+00,-1.037235263546292918e+00,1.421566000242351580e+00
6.617638651380409742e-01,-6.593444899498571155e-02,1.583629752028284265e+00,1.358092751614779825e+00,1.850314181250533041e+00,-1.037946587208345983e+00,1.420710146846853927e+00
6.589705220693673482e-01,-6.727452501044045574e-02,1.585671684276358517e+00,1.359401548712080743e+00,1.852378344106330399e+00,-1.038670134829216884e+00,1.419846323950751277e+00
6.561815532321264577e-01,-6.860872875655051051e-02,1.587723023958173219e+00,1.360682962029781340e+00,1.854453053114120786e+00,-1.039431972028589612e+00,1.418960869443924189e+00
6.533906669325384442e-01,-6.992711338375394436e-02,1.589755908092166381e+00,1.361942444085542103e+00,1.856540513497411782e+00,-1.040180326886755102e+00,1.418081467084437719e+00
6.505943278971241250e-01,-7.123603036335768302e-02,1.591755296194442559e+00,1.363188983324999937e+00,1.858604101092688365e+00,-1.040898481658409702e+00,1.417213988923470058e+00
6.477981086349295925e-01,-7.254093275843717659e-02,1.593732873135247585e+00,1.364441394724719592e+00,1.860653403517119608e+00,-1.041648574210009892e+00,1.416351664065279570e+00
6.450120758778196128e-01,-7.384907077578002632e-02,1.595715782929576276e+00,1.365720530933164367e+00,1.862714402614585429e+00,-1.042416703103162590e+00,1.415482328328574679e+00
6.422478545003468264e-01,-7.516266163803217437e-02,1.597713493334110835e+00,1.367018961756468087e+00,1.864784605531318196e+00,-1.043187288765401011e+00,1.414592200048182091e+00
6.394960967372145255e-01,-7.647649226489004748e-02,1.599710424667301512e+00,1.368296779804996754e+00,1.866838126416546562e+00,-1.043957994309942183e+00,1.413713037344218382e+00
6.367352908600010242e-01,-7.779008312714220941e-02,1.601653846496432054e+00,1.369544996742196208e+00,1.868889154622540127e+00,-1.044729958127789571e+00,1.412852510066072043e+00
6.339566284101475491e-01,-7.910996579225754166e-02,1.603523265819946975e+00,1.370798187104176780e+00,1.870938169416710872e+00,-1.045460336749178820e+00,1.412000431599575778e+00
6.311587913368214009e-01,-8.045094054319296140e-02,1.605329588109499106e+00,1.372057489500107641e+00,1.872982774112932791e+00,-1.046173158449143603e+00,1.411138346396907828e+00
6.283655680413675615e-01,-8.181606366963138643e-02,1.607108466514674872e+00,1.373317930287041966e+00,1.875037924786614907e+00,-1.046923670534262385e+00,1.410262539306593066e+00
6.255948153145920454e-01,-8.320191945314747706e-02,1.608896393033931949e+00,1.374554222916639201e+00,1.877099115695765263e+00,-1.047662198425169056e+00,1.409393323452191149e+00
6.228692430534467084e-01,-8.460149712431014324e-02,1.610711763437565169e+00,1.375764449926552446e+00,1.879143720217454128e+00,-1.048369747049137324e+00,1.408543402212647733e+00
6.201890310268443063e-01,-8.600251294677481451e-02,1.612574830962524075e+00,1.376975036365208238e+00,1.881182476664425174e+00,-1.049101324057222895e+00,1.407703667587272278e+00
6.175430339985265027e-01,-8.739873500428821385e-02,1.614440894672389604e+00,1.378176395029953039e+00,1.883209344626676884e+00,-1.049874306492853737e+00,1.406855723696686100e+00
6.148932020455141201e-01,-8.878692778367004712e-02,1.616265732614539541e+00,1.379379551274742211e+00,1.885239951607780684e+00,-1.050602468000680023e+00,1.405992799645147340e+00
6.122253937466421991e-01,-9.017691803401324535e-02,1.617999969751740430e+00,1.380588819444398707e+00,1.887282255436452338e+00,-1.051283531580528896e+00,1.405138204522955681e+00
6.095264864076122002e-01,-9.158344658799712212e-02,1.619637733923730671e+00,1.381801982534442752e+00,1.889309986289485099e+00,-1.051941765053873823e+00,1.404311412932048864e+00
6.068232048371493548e-01,-9.301783845079261703e-02,1.621230856827745814e+00,1.383045825240209359e+00,1.891322089638946435e+00,-1.052622469095897184e+00,1.403488995463491706e+00
6.041452698107196984e-01,-9.447631869339814803e-02,1.622818826647150381e+00,1.384308423254096754e+00,1.893319907817562209e+00,-1.053265362761380830e+00,1.402685632954270734e+00
6.015185673972606173e-01,-9.594486555878536937e-02,1.624435138977328830e+00,1.385567306225592210e+00,1.895291935963982599e+00,-1.053892677072563622e+00,1.401907617098165915e+00
5.989431574833822269e-01,-9.741413160890666223e-02,1.626081292183442217e+00,1.386811748124707089e+00,1.897218424106947410e+00,-1.054575837774589520e+00,1.401127863439543431e+00
5.964007041853991442e-01,-9.888279835659674610e-02,1.627723310704562332e+00,1.388048819716565241e+00,1.899128326036983339e+00,-1.055251508396138904e+00,1.400341878082833835e+00
5.938744295441481524e-01,-1.003574571468513060e-01,1.629335848105739171e+00,1.389318248730970984e+00,1.901058553373333293e+00,-1.055911839209827008e+00,1.399533422266528992e+00
5.913481549028972717e-01,-1.018479951607885181e-01,1.630906920083677658e+00,1.390619495861185495e+00,1.903001723547802504e+00,-1.056601531370238600e+00,1.398703634490715331e+00
5.888246366819475108e-01,-1.033550713692833467e-01,1.632449589446066218e+00,1.391932367756869793e+00,1.904964356063271191e+00,-1.057322861768463351e+00,1.397854731978038778e+00
5.863088483060797662e-01,-1.048753901543794803e-01,1.633981473000938989e+00,1.393230798580173291e+00,1.906952203350414710e+00,-1.058008838886483449e+00,1.397015896088143805e+00
5.838146315452436008e-01,-1.064024200576910856e-01,1.635517011711593582e+00,1.394490460404846699e+00,1.908946090698493858e+00,-1.058677318969688974e+00,1.396208339116402630e+00
5.813416866391402094e-01,-1.079295698433055534e-01,1.637073702612844350e+00,1.395719502609490181e+00,1.910944867760999699e+00,-1.059385047362570109e+00,1.395410609221003684e+00
5.788875571459334290e-01,-1.094597755913536974e-01,1.638627457324881131e+00,1.396940095893400846e+00,1.912957067103569608e+00,-1.060106198100965180e+00,1.394601434329047818e+00
5.764303116946000172e-01,-1.110011865713529944e-01,1.640157543299709531e+00,1.398157093908139359e+00,1.914992947073403728e+00,-1.060797927496943904e+00,1.393782132818617292e+00
5.739665946714906930e-01,-1.125618322796011483e-01,1.641642568473044461e+00,1.399351741454668785e+00,1.917042057860683268e+00,-1.061507992885690754e+00,1.392973557120009698e+00
5.714956872191205850e-01,-1.141484238343136448e-01,1.643080136180576467e+00,1.400527813352907103e+00,1.919088388163934455e+00,-1.062210567975795161e+00,1.392191706339210411e+00
5.690383817720942039e-01,-1.157573659663185678e-01,1.644513269660982768e+00,1.401719165172397030e+00,1.921124555938561906e+00,-1.062908828939242767e+00,1.391417825059015678e+00
5.666113366254381667e-01,-1.173847637552283829e-01,1.645981876522062848e+00,1.402932268266748217e+00,1.923163024755272454e+00,-1.063633275295594149e+00,1.390638550820521679e+00
5.642352243314541216e-01,-1.190167155444837588e-01,1.647505910458633815e+00,1.404159572777957221e+00,1.925210505579565412e+00,-1.064407036802569095e+00,1.389845015278559748e+00
5.619000381539701605e-01,-1.206378216396134795e-01,1.649066855709014456e+00,1.405379027561781458e+00,1.927259808003996433e+00,-1.065169353312987122e+00,1.389063524035585750e+00
5.595886407050807421e-01,-1.222408915022736992e-01,1.650617794223223411e+00,1.406582902882221653e+00,1.929280252456476497e+00,-1.065907581552678174e+00,1.388306720256686999e+00
5.572786214118002901e-01,-1.238280223637244493e-01,1.652135176819105711e+00,1.407785639702575420e+00,1.931297245345831692e+00,-1.066653959061886647e+00,1.387558784713873505e+00
5.549599136513471143e-01,-1.254138349561760568e-01,1.653613790525440663e+00,1.409005813562050680e+00,1.933311458100224423e+00,-1.067429038837860666e+00,1.386804557586363229e+00
5.526339553568572205e-01,-1.270091149780612216e-01,1.655072929738921284e+00,1.410242106191647915e+00,1.935340435292874695e+00,-1.068171761191287317e+00,1.386036788231035821e+00
5.503168654075357713e-01,-1.286233301860627010e-01,1.656512714560016031e+00,1.411465156244644081e+00,1.937368070327331715e+00,-1.068927007045664235e+00,1.385278006994096867e+00
5.480128382659028574e-01,-1.302535442818835432e-01,1.657961008188454155e+00,1.412640688836144243e+00,1.939387747707606247e+00,-1.069707899095289960e+00,1.384551703062008032e+00
5.457369739752141458e-01,-1.318920874161346179e-01,1.659431951936316985e+00,1.413783983887400009e+00,1.941394769880022020e+00,-1.070511741024639418e+00,1.383830732092525606e+00
5.434943060650265778e-01,-1.335275147013421371e-01,1.660953708763631909e+00,1.414913437168706434e+00,1.943411283501965237e+00,-1.071282506455790484e+00,1.383105446778220227e+00
5.412857332708208569e-01,-1.351518565278182760e-01,1.662500932126365960e+00,1.416039175407620920e+00,1.945427413500539160e+00,-1.072098032928136435e+00,1.382362364886968065e+00
5.390911820154772327e-01,-1.367801531612918287e-01,1.664034673256976182e+00,1.417144180771291673e+00,1.947435010933475708e+00,-1.072926442439257944e+00,1.381626952954188026e+00
5.368950727265288103e-01,-1.384257670606669766e-01,1.665524971506307628e+00,1.418241935819091859e+00,1.949438773354451149e+00,-1.073736036755649215e+00,1.380920842372438617e+00
5.346980647020996846e-01,-1.400918139659041717e-01,1.666986927135782226e+00,1.419364378330967069e+00,1.951441481072961004e+00,-1.074506622417887414e+00,1.380221982324725927e+00
5.325060900981445355e-01,-1.417726014856545702e-01,1.668432943654964307e+00,1.420514624265044157e+00,1.953425781152936747e+00,-1.075325624386185508e+00,1.379512875776235825e+00
5.303316723065305549e-01,-1.434508124630996528e-01,1.669902269591695632e+00,1.421689617549805940e+00,1.955421777731414457e+00,-1.076185912008809087e+00,1.378793223075752472e+00
5.281855972438564972e-01,-1.451221923309433115e-01,1.671400896879457365e+00,1.422855023522831663e+00,1.957420842424180574e+00,-1.077027444214229135e+00,1.378079562417833692e+00
5.260779316419872398e-01,-1.467831460381797681e-01,1.672929784358506256e+00,1.423985435535311650e+00,1.959399006450112335e+00,-1.077830626954537463e+00,1.377392147366677921e+00
5.239989083111904478e-01,-1.484363697912510771e-01,1.674494444760361800e+00,1.425099848550889003e+00,1.961362310044677759e+00,-1.078706434153935190e+00,1.376716296976215670e+00
5.219427148687313389e-01,-1.500934285781000133e-01,1.676066415582863955e+00,1.426217976827024447e+00,1.963330023911725064e+00,-1.079601176321282940e+00,1.376035772703105176e+00
5.198822071905324638e-01,-1.517683438285057085e-01,1.677619151677117282e+00,1.427355399608935649e+00,1.965311351870520973e+00,-1.080463501288556838e+00,1.375335834150999137e+00
5.178025846663875109e-01,-1.534665085007675678e-01,1.679108371422055379e+00,1.428482755549898675e+00,1.967300541490390797e+00,-1.081336911605478734e+00,1.374655669415713932e+00
5.156991734136481265e-01,-1.551816907877153762e-01,1.680534913557465870e+00,1.429589378942867306e+00,1.969282444709707480e+00,-1.082212419153660843e+00,1.374004087064891522e+00
5.135875530047814275e-01,-1.569105949623098017e-01,1.681924184841241177e+00,1.430694863726666544e+00,1.971254568674703611e+00,-1.083061561430943343e+00,1.373364728672886725e+00
5.114953469839932376e-01,-1.586406976326835694e-01,1.683329395126225814e+00,1.431811853393632372e+00,1.973229281312043337e+00,-1.083910883368055300e+00,1.372718359511450936e+00
5.094455652267001478e-01,-1.603551608439803822e-01,1.684795425335917640e+00,1.432933636825549639e+00,1.975220388350627188e+00,-1.084818748338784555e+00,1.372064260504933131e+00
5.074480345910782342e-01,-1.620466143980267559e-01,1.686325631193048791e+00,1.434033908529045220e+00,1.977196155690432722e+00,-1.085704082963308892e+00,1.371424063264057525e+00
5.055054516108187235e-01,-1.637130208410894627e-01,1.687909825865285818e+00,1.435122375698158370e+00,1.979151214175088214e+00,-1.086572999166495190e+00,1.370811070142952559e+00
5.036046937007060409e-01,-1.653643271318134822e-01,1.689537702965240751e+00,1.436215396976700198e+00,1.981112792162624148e+00,-1.087487335599917504e+00,1.370210001329449812e+00
5.017242489141526818e-01,-1.670124576868840527e-01,1.691166538905452654e+00,1.437311653877505480e+00,1.983062289853756210e+00,-1.088407843953900000e+00,1.369596528897299548e+00
4.998379918539476163e-01,-1.686652021289100634e-01,1.692772245306111145e+00,1.438414322463476669e+00,1.985017348512944757e+00,-1.089291680540512397e+00,1.368978981775848869e+00
4.979311817964944820e-01,-1.703266351471918183e-01,1.694310300781544321e+00,1.439501890897109115e+00,1.986995608357452037e+00,-1.090200144704589924e+00,1.368371681155175823e+00
4.959929731567508382e-01,-1.719971761661646947e-01,1.695773754339847672e+00,1.440562674526323361e+00,1.988972046776354308e+00,-1.091089074598285968e+00,1.367798655419397491e+00
4.940415219404058478e-01,-1.736750874923941590e-01,1.697187413545565571e+00,1.441622499424364046e+00,1.990928926861148085e+00,-1.091921858340840545e+00,1.367231322293134044e+00
4.920967818422763429e-01,-1.753518004319273293e-01,1.698594960717332958e+00,1.442700420550567353e+00,1.992898558146909416e+00,-1.092763630310866318e+00,1.366659854481877323e+00
4.901862566333484161e-01,-1.770279140690293185e-01,1.700045471350250637e+00,1.443808002674709545e+00,1.994891870409000401e+00,-1.093667420701378346e+00,1.366074664782974013e+00
4.883279827642578175e-01,-1.787010917350835559e-01,1.701546495520487978e+00,1.444938953884844723e+00,1.996863610925160293e+00,-1.094541909522693812e+00,1.365512904274839734e+00
4.865280120550957710e-01,-1.803580306396296296e-01,1.703094977265611432e+00,1.446095431626091887e+00,1.998822216791516615e+00,-1.095389134337628967e+00,1.364983201538037205e+00
4.847760982232509064e-01,-1.819893832355368446e-01,1.704684984320583130e+00,1.447285644945495386e+00,2.000777275276171885e+00,-1.096274289193240437e+00,1.364459850381624539e+00
4.830547440157427763e-01,-1.836049167125374804e-01,1.706287814418637527e+00,1.448512410149966234e+00,2.002708748777606296e+00,-1.097167054011631171e+00,1.363931406027211191e+00
4.813478907672251728e-01,-1.852158960801094656e-01,1.707879379398131059e+00,1.449771832319116882e+00,2.004643961472425850e+00,-1.098036569408165741e+00,1.363396669869934463e+00
4.796404383253594084e-01,-1.868320886370681277e-01,1.709428220681079802e+00,1.451028438181356517e+00,2.006610716630116364e+00,-1.098913994418694973e+00,1.362881228327516681e+00
4.779206421514561320e-01,-1.884622428462790766e-01,1.710925589695535320e+00,1.452245615965007897e+00,2.008559639235260263e+00,-1.099773023658929372e+00,1.362391133547298239e+00
4.761919177457744623e-01,-1.901110924770006427e-01,1.712391619905227147e+00,1.453431874477413954e+00,2.010487852985254786e+00,-1.100640621702199784e+00,1.361906910927341174e+00
4.744655302268754871e-01,-1.917673123058957207e-01,1.713851657963271435e+00,1.454620649645515407e+00,2.012445116693417635e+00,-1.101514451443557308e+00,1.361421190269472392e+00
4.727569991715332431e-01,-1.934212552437011012e-01,1.715331290287390065e+00,1.455811641927179823e+00,2.014410529518381399e+00,-1.102386483495787273e+00,1.360936967649515550e+00
4.710743540760454762e-01,-1.950699848830367289e-01,1.716830337108670168e+00,1.456976328824554523e+00,2.016354178960262811e+00,-1.103262410577487751e+00,1.360469882526547547e+00
4.694178944825446731e-01,-1.967123031644555375e-01,1.718337892628210239e+00,1.458142154222015430e+00,2.018301567595528923e+00,-1.104145228437233506e+00,1.360032218636912926e+00
4.677897776179838485e-01,-1.983491084961890027e-01,1.719866899989562103e+00,1.459344831155759303e+00,2.020253078873016861e+00,-1.105021634829979282e+00,1.359604142059014587e+00
4.661841910996282201e-01,-1.999801615499637031e-01,1.721416580121381878e+00,1.460603534249258928e+00,2.022173814585306317e+00,-1.105867421493612390e+00,1.359175885821286567e+00
4.646010750408678946e-01,-2.016032451031336825e-01,1.722978484102936081e+00,1.461911492606772223e+00,2.024100973807367865e+00,-1.106768874888258924e+00,1.358743734663171221e+00
4.630226327556728472e-01,-2.032162618153558198e-01,1.724525407923537701e+00,1.463229757351672822e+00,2.026050567491608501e+00,-1.107680514897072976e+00,1.358339327040647637e+00
4.614395166969125217e-01,-2.048286793342297962e-01,1.726043869132896535e+00,1.464531963213060894e+00,2.027979452495232593e+00,-1.108511740715105498e+00,1.357970272807411893e+00
4.598547827179373937e-01,-2.064387599663211059e-01,1.727542855958483781e+00,1.465824102342584423e+00,2.029901434547139338e+00,-1.109359145298953297e+00,1.357613502419603879e+00
4.582695693188339470e-01,-2.080450655603277577e-01,1.729046576553329162e+00,1.467121454552411608e+00,2.031830223557654413e+00,-1.110279294115110504e+00,1.357260566956490555e+00
4.566948421851136919e-01,-2.096543072344652092e-01,1.730576003339116431e+00,1.468435285179269467e+00,2.033767545482872752e+00,-1.111174755358109278e+00,1.356910687564893969e+00
4.551400687462102135e-01,-2.112649271732947587e-01,1.732128799429062838e+00,1.469742164923306005e+00,2.035691924395438779e+00,-1.112025755102046043e+00,1.356587832524154935e+00
4.536032716531663844e-01,-2.128660795736077027e-01,1.733697234869002957e+00,1.471019563438316302e+00,2.037628287436767049e+00,-1.112943626918030171e+00,1.356307102095695605e+00
4.520837318303311814e-01,-2.144554873261481642e-01,1.735283107348064346e+00,1.472275210569382375e+00,2.039559665119625720e+00,-1.113882231391092104e+00,1.356038475634668172e+00
4.505775544664000765e-01,-2.160439364565980569e-01,1.736882462059249788e+00,1.473533134700621083e+00,2.041467266182111384e+00,-1.114751866669929647e+00,1.355765055517772266e+00
4.490786275274227246e-01,-2.176286704355731572e-01,1.738492842233473779e+00,1.474823715905623001e+00,2.043402862325767178e+00,-1.115667761136956537e+00,1.355502960515130528e+00
4.475834756265300585e-01,-2.192067531829426652e-01,1.740097290251742868e+00,1.476118012262099377e+00,2.045344785986086045e+00,-1.116635187650003802e+00,1.355286165969505019e+00
4.460896419946365210e-01,-2.207823791612266440e-01,1.741686877882279161e+00,1.477388759545504193e+00,2.047252770497407948e+00,-1.117533465199913811e+00,1.355109878006861113e+00
4.446015608588679280e-01,-2.223478784119529150e-01,1.743278862286208097e+00,1.478667715985036102e+00,2.049161905529771843e+00,-1.118429405863041071e+00,1.354947132162950929e+00
4.431177939588391568e-01,-2.239054081620744097e-01,1.744879475379782718e+00,1.479967764728554513e+00,2.051089352382093445e+00,-1.119373463181012163e+00,1.354781390352300052e+00
4.416415172483698637e-01,-2.254535303693722681e-01,1.746497645394781584e+00,1.481279258359546658e+00,2.053011526071152115e+00,-1.120349937808140739e+00,1.354626374462555072e+00
4.401765056564616030e-01,-2.269959600762381791e-01,1.748124084452517879e+00,1.482583801107717481e+00,2.054921044552351805e+00,-1.121289620894679206e+00,1.354509648042228953e+00
4.387192239096354140e-01,-2.285334761358499556e-01,1.749754777859384047e+00,1.483877078737327437e+00,2.056850600635072190e+00,-1.122225289287610339e+00,1.354423361691185823e+00
4.372728477435448013e-01,-2.300736887291529587e-01,1.751395118682762542e+00,1.485167240517893728e+00,2.058769035479811826e+00,-1.123191757069483820e+00,1.354363260733046692e+00
4.358354598049254958e-01,-2.316130624735852073e-01,1.753044567506832241e+00,1.486470165454933046e+00,2.060669062336951463e+00,-1.124172366272522483e+00,1.354337614537798107e+00
4.344075394048228511e-01,-2.331454253395032761e-01,1.754709056487547603e+00,1.487806047007867560e+00,2.062592003098215443e+00,-1.125148002050780027e+00,1.354338872920187287e+00
4.329898656145808045e-01,-2.346755113143316196e-01,1.756374024888391450e+00,1.489156609179622670e+00,2.064521271550675330e+00,-1.126095774520226023e+00,1.354348999538661946e+00
4.315768056022110666e-01,-2.362090126803360890e-01,1.758024432334551745e+00,1.490503216653463081e+00,2.066416696672714437e+00,-1.127065897457881549e+00,1.354382255805772983e+00
4.301672809724034208e-01,-2.377413756553372060e-01,1.759673701389708578e+00,1.491855336858822989e+00,2.068313272141262260e+00,-1.128043330816183465e+00,1.354440618961394449e+00
4.287698005325007999e-01,-2.392714016344726080e-01,1.761335973365944385e+00,1.493212969686618763e+00,2.070221735919996142e+00,-1.128980976558071836e+00,1.354518756042920158e+00
4.273880793248948651e-01,-2.407950759241349326e-01,1.763031081966689451e+00,1.494569584005714269e+00,2.072121283509723799e+00,-1.129952897293937886e+00,1.354617386235083876e+00
4.260220574629757784e-01,-2.423119792089718783e-01,1.764744945984638047e+00,1.495895099175568621e+00,2.074016612638653889e+00,-1.130964545541441435e+00,1.354714218847203000e+00
4.246666416396597254e-01,-2.438233097665966631e-01,1.766461925960713497e+00,1.497189635187567758e+00,2.075916256046957287e+00,-1.131919568435841184e+00,1.354806976660938966e+00
4.233209330103828716e-01,-2.453291277017853322e-01,1.768180763403442990e+00,1.498482733048264848e+00,2.077800751568167126e+00,-1.132851641559600386e+00,1.354911838660272760e+00
4.219751046078862866e-01,-2.468310507165864531e-01,1.769899001652824655e+00,1.499788174640999561e+00,2.079680932635470825e+00,-1.133862870491751718e+00,1.355057147355978486e+00
4.206281375962202529e-01,-2.483300974287835916e-01,1.771619936326814138e+00,1.501116266462242166e+00,2.081580576043774222e+00,-1.134876256541773154e+00,1.355253209353609600e+00
4.192794928868125992e-01,-2.498260881785470400e-01,1.773325651075245535e+00,1.502448372977092106e+00,2.083485492615340551e+00,-1.135826725435827411e+00,1.355481269126879385e+00
4.179228785677171487e-01,-2.513175849236579107e-01,1.775004581019258509e+00,1.503764720259645582e+00,2.085374781683335232e+00,-1.136784145103619581e+00,1.355748217671999045e+00
4.165626090928399305e-01,-2.527976366722118895e-01,1.776661699692717367e+00,1.505081307197721374e+00,2.087259277030012239e+00,-1.137778536189997913e+00,1.356071731901779209e+00
4.152083317696102505e-01,-2.542783476098069428e-01,1.778324570862301002e+00,1.506436003945386570e+00,2.089146073418772342e+00,-1.138736195622395808e+00,1.356459301678529572e+00
4.138770642127140853e-01,-2.557699641281376279e-01,1.780012848571610906e+00,1.507840495154720184e+00,2.091041977808223429e+00,-1.139685945440799042e+00,1.356921293603496892e+00
4.125731805445012057e-01,-2.572692506049404360e-01,1.781724075942478169e+00,1.509260506049911132e+00,2.092945552047063451e+00,-1.140692800032434562e+00,1.357439311688219963e+00
4.112982387985764099e-01,-2.587673386950470333e-01,1.783454238499461830e+00,1.510672547335414118e+00,2.094821706465254341e+00,-1.141703669426760381e+00,1.358012097768475757e+00
4.100500218613769010e-01,-2.602535622550782302e-01,1.785210586667515642e+00,1.512080274276094372e+00,2.096690862113153031e+00,-1.142646108933599969e+00,1.358652894202699413e+00
4.088275110060359818e-01,-2.617227084228966882e-01,1.786989884497126813e+00,1.513483507212121992e+00,2.098561935179765747e+00,-1.143628575603292896e+00,1.359378479168220411e+00
4.076208193786847733e-01,-2.631782524762882880e-01,1.788787398328120171e+00,1.514878770538461650e+00,2.100445280005400761e+00,-1.144683487072245542e+00,1.360204791448081929e+00
4.064203596675868280e-01,-2.646260666845978715e-01,1.790577182423114699e+00,1.516245571362641709e+00,2.102323831284250932e+00,-1.145674702313887128e+00,1.361110619074161310e+00
4.052158251581055026e-01,-2.660690872370392035e-01,1.792334009902213587e+00,1.517593377223178441e+00,2.104195000169439389e+00,-1.146608992442126329e+00,1.362078824549469269e+00
4.039947524540666302e-01,-2.675088719490510414e-01,1.794050150920335041e+00,1.518945377546235376e+00,2.106077961546238164e+00,-1.147610094646719814e+00,1.363139907829899355e+00
4.027577408579013363e-01,-2.689526714637532900e-01,1.795729859826608932e+00,1.520317151904279518e+00,2.107952294364290768e+00,-1.148597474963666931e+00,1.364287816877193471e+00
4.015168342322654182e-01,-2.703957519028045153e-01,1.797386439302412597e+00,1.521720564500136597e+00,2.109829695122099391e+00,-1.149539554932681007e+00,1.365530341313961227e+00
4.002783244891051639e-01,-2.718272076854691965e-01,1.799029416554706495e+00,1.523141893664326618e+00,2.111732118839897865e+00,-1.150500390100732462e+00,1.366852201328033534e+00
3.990560533983699698e-01,-2.732532106232246072e-01,1.800669098189043860e+00,1.524559088143523367e+00,2.113618148330985491e+00,-1.151459847113174950e+00,1.368227870497382037e+00
3.978618853810521050e-01,-2.746825091789362738e-01,1.802333167745324038e+00,1.526004745124879936e+00,2.115474648596492369e+00,-1.152378797542635835e+00,1.369663400860263947e+00
3.967002544461112334e-01,-2.761156426593425195e-01,1.804039301918190619e+00,1.527511162253416765e+00,2.117344283511803038e+00,-1.153340351786338314e+00,1.371161129303462012e+00
3.955767333207594882e-01,-2.775486563665289785e-01,1.805790197241335049e+00,1.529055689191542777e+00,2.119231655161083694e+00,-1.154327791989895324e+00,1.372732081508180713e+00
3.944871276515599101e-01,-2.789765168800217299e-01,1.807565779919471316e+00,1.530592965595631849e+00,2.121091606815182384e+00,-1.155289945536029039e+00,1.374343180758055505e+00
3.934142398367476146e-01,-2.803904756278721155e-01,1.809345017971555780e+00,1.532106872804644970e+00,2.122947052378223454e+00,-1.156231605971524523e+00,1.375978068736524840e+00
3.923464454381022093e-01,-2.817857390632949599e-01,1.811120900300907888e+00,1.533598249667452951e+00,2.124816495656382198e+00,-1.157192321366356191e+00,1.377640100948154700e+00
3.912722394633738610e-01,-2.831754896581155090e-01,1.812887614742958897e+00,1.535070272028792315e+00,2.126654588108822352e+00,-1.158160047530619075e+00,1.379328378657464382e+00
3.901873075677396163e-01,-2.845614053282414790e-01,1.814643363608581250e+00,1.536532527200399567e+00,2.128504281241188067e+00,-1.159122141081059931e+00,1.381046077600107669e+00
3.890887136710687311e-01,-2.859493583430176011e-01,1.816372747203303994e+00,1.537984356102316319e+00,2.130388584950713149e+00,-1.160089747472102806e+00,1.382774622236876638e+00
3.879767573154936366e-01,-2.873452209717885508e-01,1.818073788069086927e+00,1.539424140923411288e+00,2.132258603489392890e+00,-1.161048185866761839e+00,1.384479737791959764e+00
3.868613255730494749e-01,-2.887472554120367740e-01,1.819759489127008356e+00,1.540878726245629382e+00,2.134100051511849117e+00,-1.162010878610550746e+00,1.386177123501960651e+00
3.857526050579039301e-01,-2.901391632338103377e-01,1.821453339454447207e+00,1.542366148301439921e+00,2.135952620946818925e+00,-1.162956074428608266e+00,1.387873670254007763e+00
3.846568873547538958e-01,-2.915144129787233807e-01,1.823169300703656015e+00,1.543891320629014130e+00,2.137824365092527934e+00,-1.163939799480690596e+00,1.389576568695527925e+00
3.835779476107672448e-01,-2.928815133450359265e-01,1.824899403374029783e+00,1.545415893872323254e+00,2.139670127394357024e+00,-1.164907345876040612e+00,1.391251064521498160e+00
3.825174635236854859e-01,-2.942540666653408188e-01,1.826639572667185130e+00,1.546957424734625386e+00,2.141499591288051008e+00,-1.165847388500404591e+00,1.392892603731573198e+00
3.814699823576823134e-01,-2.956351886795985928e-01,1.828399456108717791e+00,1.548538203906603128e+00,2.143338067189327401e+00,-1.166802531277107091e+00,1.394503523212535123e+00
3.804357437682804877e-01,-2.970216436564628304e-01,1.830178873820631935e+00,1.550129768886096659e+00,2.145163408440799557e+00,-1.167783140480145754e+00,1.396099282654548634e+00
3.794042614900967614e-01,-2.984062410575896718e-01,1.831974829836186647e+00,1.551710727826987046e+00,2.146987311715502944e+00,-1.168761892107446965e+00,1.397680661128957613e+00
3.783651093625238770e-01,-2.997799927645908857e-01,1.833761198321838926e+00,1.553256273382896513e+00,2.148821569155981770e+00,-1.169717933619630168e+00,1.399222731188914937e+00
3.773082205446139925e-01,-3.011481118577699623e-01,1.835517007183154359e+00,1.554749687590354590e+00,2.150655059698788119e+00,-1.170677750169898168e+00,1.400705299702247331e+00
3.762371904146221691e-01,-3.025176691022511410e-01,1.837261610703435633e+00,1.556210684379572440e+00,2.152468512640074216e+00,-1.171634450871122723e+00,1.402148739679124123e+00
3.751625050197654465e-01,-3.038900426536432775e-01,1.839012505917496876e+00,1.557678392396088851e+00,2.154285321151376387e+00,-1.172585099534089625e+00,1.403562518658061808e+00
3.740970475079027358e-01,-3.052619966715169331e-01,1.840792762587364795e+00,1.559179955873064571e+00,2.156131467076574548e+00,-1.173576015124515592e+00,1.404950831210663331e+00
3.730458511904248264e-01,-3.066384448031262977e-01,1.842594890305313760e+00,1.560682478081213853e+00,2.157957862855979680e+00,-1.174578795135933884e+00,1.406299236264548336e+00
3.720113130588904582e-01,-3.080098596233448172e-01,1.844410680242465572e+00,1.562179487557843860e+00,2.159763070687355846e+00,-1.175551794376193282e+00,1.407582986469031683e+00
3.709919947438314880e-01,-3.093630583330980177e-01,1.846244326534090874e+00,1.563699446805114412e+00,2.161577482337998735e+00,-1.176521557885106262e+00,1.408830544217190228e+00
3.699866980767178015e-01,-3.107015764240310118e-01,1.848097087671662253e+00,1.565241576860764816e+00,2.163388538418625995e+00,-1.177512713131054767e+00,1.410050358538839754e+00
3.689901498724696971e-01,-3.120302674386218333e-01,1.849967465617267770e+00,1.566818221456832250e+00,2.165183391735160612e+00,-1.178526039294466310e+00,1.411249320321108947e+00
3.679921635169196015e-01,-3.133653101426857601e-01,1.851827177637660471e+00,1.568419194088232604e+00,2.166985243996520261e+00,-1.179510663191112085e+00,1.412412089756136302e+00
3.669805751560258344e-01,-3.147143742765287633e-01,1.853651716037677755e+00,1.570013395605724282e+00,2.168792177434926138e+00,-1.180485699776021802e+00,1.413525304385017556e+00
3.659479543777556798e-01,-3.160778195961425618e-01,1.855436706367721067e+00,1.571580153238839817e+00,2.170579456720647116e+00,-1.181483746018181735e+00,1.414601667586698808e+00
3.648943612868851827e-01,-3.174473767315406092e-01,1.857198027960555775e+00,1.573126597639312951e+00,2.172364243501666792e+00,-1.182464954414568448e+00,1.415661372711519705e+00
3.638310608928924106e-01,-3.188087847065042002e-01,1.858957611750872818e+00,1.574660698198665498e+00,2.174173190351894824e+00,-1.183442567541783230e+00,1.416706816532872670e+00
3.627753105750688989e-01,-3.201592271050393568e-01,1.860723966655098316e+00,1.576160104557771335e+00,2.175981753578754230e+00,-1.184443969397592555e+00,1.417721820503108798e+00
3.617297468714130715e-01,-3.215002618516677457e-01,1.862506020905010606e+00,1.577628052229810285e+00,2.177767594887706437e+00,-1.185421942062632850e+00,1.418685471978071266e+00
3.607072528207006523e-01,-3.228341660556452442e-01,1.864322709577643122e+00,1.579117691399183787e+00,2.179547491954298977e+00,-1.186379601495030967e+00,1.419624196333436172e+00
3.597108244987554104e-01,-3.241634562635842265e-01,1.866173852794999588e+00,1.580645320495843498e+00,2.181333524900403109e+00,-1.187364824585025014e+00,1.420548359843200492e+00
3.587335708002830081e-01,-3.254883123534805245e-01,1.868051720930164583e+00,1.582202670586135396e+00,2.183121858888589895e+00,-1.188386419900256730e+00,1.421473841621963885e+00
3.577642867114984027e-01,-3.268092136363793809e-01,1.869932165716718053e+00,1.583767810299036238e+00,2.184906166227664315e+00,-1.189357082144650413e+00,1.422372478709699406e+00
3.567902089668456567e-01,-3.281214862296323864e-01,1.871784207778638409e+00,1.585332111163066049e+00,2.186692582797137518e+00,-1.190320673733002987e+00,1.423229350722980735e+00
3.558037873810722118e-01,-3.294289051713242267e-01,1.873608626296352941e+00,1.586916305944386041e+00,2.188466823251630888e+00,-1.191302481431820937e+00,1.424074598188958651e+00
3.548063403322603837e-01,-3.307389607600974557e-01,1.875406080240736628e+00,1.588526506349697165e+00,2.190223710595522899e+00,-1.192249594712225802e+00,1.424925298390762762e+00
3.538041595141902529e-01,-3.320578845849560534e-01,1.877201317180640316e+00,1.590164570172903025e+00,2.191997088333768051e+00,-1.193213905376229400e+00,1.425785406135390510e+00
3.528047950030311353e-01,-3.333986796760617932e-01,1.878986906704031679e+00,1.591780223423123308e+00,2.193789832419903885e+00,-1.194196432041615408e+00,1.426633709563802199e+00
3.518122614923903657e-01,-3.347574511130271824e-01,1.880775432416636805e+00,1.593349497711934237e+00,2.195559950406708705e+00,-1.195154151360623418e+00,1.427463497230532674e+00
3.508354872140463376e-01,-3.361179602434270497e-01,1.882586548471140153e+00,1.594889470649714536e+00,2.197308688459266968e+00,-1.196099467060983912e+00,1.428292685812998286e+00
3.498753111259528259e-01,-3.374672042552658846e-01,1.884426905880981051e+00,1.596420695015546398e+00,2.199067301584721523e+00,-1.197069170574203811e+00,1.429138472476631394e+00
3.489316732324169723e-01,-3.387978726188138889e-01,1.886296924397844021e+00,1.597965162067062295e+00,2.200829941359288888e+00,-1.198060565584758264e+00,1.429998819985864866e+00
3.479985814908742592e-01,-3.401170362082782672e-01,1.888166283725666084e+00,1.599519635854750099e+00,2.202571393011294454e+00,-1.199028531404543685e+00,1.430846943536280724e+00
3.470609357489859437e-01,-3.414288893770958677e-01,1.890010655938197504e+00,1.601080161680695557e+00,2.204310927244585550e+00,-1.199962462104040117e+00,1.431678828543354376e+00
3.461044748123672798e-01,-3.427327131586988540e-01,1.891823689345965009e+00,1.602662738541800636e+00,2.206056980980757309e+00,-1.200922518309830878e+00,1.432512031819427323e+00
3.451275207651104959e-01,-3.440340201755233696e-01,1.893602867402356393e+00,1.604271021484764415e+00,2.207788749371550452e+00,-1.201874185590581234e+00,1.433354223213888501e+00
3.441289352162122395e-01,-3.453353871880408543e-01,1.895358736150281720e+00,1.605917594115313207e+00,2.209528379423417732e+00,-1.202806857907688709e+00,1.434206241684691685e+00
3.431223202800994243e-01,-3.466354958181690482e-01,1.897099205094652907e+00,1.607581843331423066e+00,2.211281815378717930e+00,-1.203745462380750642e+00,1.435043819083114292e+00
3.421150461549454791e-01,-3.479339865280825506e-01,1.898832423614070120e+00,1.609224581037277169e+00,2.213023075219038738e+00,-1.204690238774372757e+00,1.435851256281635679e+00
3.411229320687400590e-01,-3.492289419645170367e-01,1.900589131210866256e+00,1.610842631169973282e+00,2.214740750250671297e+00,-1.205607571283618951e+00,1.436649046172727706e+00
3.401520900554337312e-01,-3.505141302112192991e-01,1.902390599848857056e+00,1.612459422920279994e+00,2.216465519871172241e+00,-1.206514537409784538e+00,1.437452109030733061e+00
3.392044374682905428e-01,-3.517993185670046929e-01,1.904238627326253264e+00,1.614071241245805810e+00,2.218207546783698358e+00,-1.207482503229569959e+00,1.438264579540645238e+00
3.382703271089642638e-01,-3.530968505457445228e-01,1.906109065158468674e+00,1.615648245379698977e+00,2.219925509445590972e+00,-1.208444596889093781e+00,1.439064167011781414e+00
3.373440663679398988e-01,-3.544111005970377870e-01,1.907978664250896461e+00,1.617203857667473210e+00,2.221631104355352715e+00,-1.209349825212741925e+00,1.439834572905107191e+00
3.364100157861404372e-01,-3.557294852242411931e-01,1.909841132582507095e+00,1.618778045603538107e+00,2.223343314586570418e+00,-1.210280759836414699e+00,1.440599406180303577e+00
3.354596667743890981e-01,-3.570461919355369385e-01,1.911683287681475552e+00,1.620364517275947769e+00,2.225038842611751111e+00,-1.211228292541254969e+00,1.441375504574061051e+00
3.344917608412135146e-01,-3.583567268353554103e-01,1.913505309316714476e+00,1.621980889601819298e+00,2.226737438751220211e+00,-1.212158867627102232e+00,1.442156276850466989e+00
3.335025829442220258e-01,-3.596600113102201846e-01,1.915296531563010829e+00,1.623612661622161779e+00,2.228450224242958910e+00,-1.213070507635916284e+00,1.442925544243706337e+00
3.324996231638910338e-01,-3.609652731340420861e-01,1.917065163467409183e+00,1.625248927756240080e+00,2.230148532577634679e+00,-1.213989757607509601e+00,1.443671322559566539e+00
3.314948058078225901e-01,-3.622743699916416427e-01,1.918833375947372133e+00,1.626910241001302104e+00,2.231825557145705297e+00,-1.214919793386618707e+00,1.444412486879388391e+00
3.305049088351800779e-01,-3.635825680046774755e-01,1.920635683434233743e+00,1.628596301597049045e+00,2.233497787992458239e+00,-1.215826040437133271e+00,1.445167672847155638e+00
3.295340668218737501e-01,-3.648847139794558214e-01,1.922485388718454535e+00,1.630283500692882415e+00,2.235190056440731432e+00,-1.216756735405283507e+00,1.445938018853871299e+00
3.285824594277331201e-01,-3.661792498823718822e-01,1.924356365857408324e+00,1.631932050672388446e+00,2.236873408525465123e+00,-1.217716192417725996e+00,1.446703211557810231e+00
3.276316909915463760e-01,-3.674625806624198243e-01,1.926224646571753629e+00,1.633534940766135923e+00,2.238534517959703596e+00,-1.218651800814964048e+00,1.447450248256059835e+00
3.266731327145845909e-01,-3.687341069080854461e-01,1.928090230861491117e+00,1.635122131514196608e+00,2.240195052133421960e+00,-1.219555531209783439e+00,1.448195726920704640e+00
3.256931825915040379e-01,-3.700022775401017316e-01,1.929941613843453529e+00,1.636713396842474300e+00,2.241854915228043144e+00,-1.220488742833628848e+00,1.448958582846943788e+00
3.246904025800857463e-01,-3.712793166263695932e-01,1.931771245441471496e+00,1.638321739781131159e+00,2.243516312292542114e+00,-1.221454371766631741e+00,1.449740673283265835e+00
3.236636541802433431e-01,-3.725807435254969713e-01,1.933566782032591025e+00,1.639938471644827978e+00,2.245183941229661695e+00,-1.222389560739434389e+00,1.450520906252933617e+00
3.226131170518065638e-01,-3.739052999641776509e-01,1.935333496365558847e+00,1.641559338084435105e+00,2.246852432883029049e+00,-1.223287838289344398e+00,1.451288915372866528e+00
3.215538912380309644e-01,-3.752385449791140748e-01,1.937092061538092436e+00,1.643193267222647691e+00,2.248505872467878586e+00,-1.224217934064146363e+00,1.452063156190886772e+00
3.204931076088166630e-01,-3.765714903428348803e-01,1.938871239594483820e+00,1.644848827971584715e+00,2.250144451621362229e+00,-1.225171998227372550e+00,1.452856212312720441e+00
3.194482030942019102e-01,-3.778961067772084736e-01,1.940693440998635388e+00,1.646543457370367669e+00,2.251786098714601447e+00,-1.226084836622882923e+00,1.453670720058199528e+00
3.184232521653208581e-01,-3.792132929086325932e-01,1.942546921211857791e+00,1.648243599391586711e+00,2.253427745633307389e+00,-1.227000011905175825e+00,1.454487325144021792e+00
3.174163975736853938e-01,-3.805311981157076251e-01,1.944419096846590866e+00,1.649913421334908481e+00,2.255042739803569951e+00,-1.227961206720135978e+00,1.455287991228634725e+00
3.164184112181352981e-01,-3.818509608985201087e-01,1.946308469755839488e+00,1.651566765079365728e+00,2.256650255761595059e+00,-1.228882014616251128e+00,1.456089735926723971e+00
3.154210840516263326e-01,-3.831675478365960674e-01,1.948214980271160135e+00,1.653216273790045321e+00,2.258257675901043982e+00,-1.229771963127730627e+00,1.456909996168328281e+00
3.144092559261268405e-01,-3.844762251606771430e-01,1.950119273563834854e+00,1.654849483961690071e+00,2.259870752652592074e+00,-1.230740588136557179e+00,1.457749790680313628e+00
3.133716018364658407e-01,-3.857820862869302814e-01,1.951994325392088614e+00,1.656448179483834382e+00,2.261475584119697846e+00,-1.231705018573780785e+00,1.458588207145773197e+00
3.123041668665628712e-01,-3.870878274217974813e-01,1.953820841141063358e+00,1.658037167921022403e+00,2.263072266470001814e+00,-1.232588675391480315e+00,1.459408647156290151e+00
3.112127635082357902e-01,-3.883907523588367439e-01,1.955620991510055084e+00,1.659639159170206213e+00,2.264666455966538372e+00,-1.233489230050646146e+00,1.460231783591415144e+00
3.101129712248685832e-01,-3.896937971781788690e-01,1.957416647874394178e+00,1.661269792690462488e+00,2.266247990080683117e+00,-1.234441796175960393e+00,1.461075832561613774e+00
3.090207290176706922e-01,-3.910015757667792968e-01,1.959240287320764606e+00,1.662934581322393468e+00,2.267828565660003903e+00,-1.235359607996251663e+00,1.461937797991061938e+00
3.079440062781638732e-01,-3.923178031670296884e-01,1.961085438495556943e+00,1.664619803069269599e+00,2.269413263532480407e+00,-1.236264536777767153e+00,1.462801620887164589e+00
3.068792079553422369e-01,-3.936433183368840405e-01,1.962939637784430369e+00,1.666309039400670100e+00,2.270983868220328716e+00,-1.237189659018705035e+00,1.463651182588882271e+00
3.058297493312988613e-01,-3.949693129268667113e-01,1.964800188762776845e+00,1.668004327879410997e+00,2.272530120852750635e+00,-1.238139768374933780e+00,1.464503500710901296e+00
3.047811296652093160e-01,-3.962887760584635766e-01,1.966667091321513183e+00,1.669703690938369123e+00,2.274066786042536314e+00,-1.239031694344453705e+00,1.465371398187220953e+00
3.037311917301206976e-01,-3.975985918826310250e-01,1.968533394577818507e+00,1.671400777106237578e+00,2.275622530124485454e+00,-1.239930870738927382e+00,1.466260507849829864e+00
3.026591428732622324e-01,-3.989006179751065639e-01,1.970374291403480749e+00,1.673062329897738953e+00,2.277177507308762117e+00,-1.240870673707768601e+00,1.467156029088521718e+00
3.015639045902405724e-01,-4.002071381813177009e-01,1.972171685461254320e+00,1.674679541181564257e+00,2.278709570588914435e+00,-1.241787047376758046e+00,1.468029918716489135e+00
3.004391850781925610e-01,-4.015243244218248964e-01,1.973940557021175435e+00,1.676292498007176501e+00,2.280242017492435824e+00,-1.242640384116560304e+00,1.468909021533843173e+00
2.992972082959359792e-01,-4.028485812092899576e-01,1.975701159538358898e+00,1.677929842754731338e+00,2.281784147482636360e+00,-1.243522902434173627e+00,1.469802445541274816e+00
2.981536135934645948e-01,-4.041777516440091533e-01,1.977471589131884810e+00,1.679583066507802647e+00,2.283313334634717862e+00,-1.244470734790229516e+00,1.470727148357777514e+00
2.970208046985090000e-01,-4.055062028939942498e-01,1.979260294613402804e+00,1.681238627256739671e+00,2.284842713423950400e+00,-1.245374704840571445e+00,1.471649514178414275e+00
2.959054329517578075e-01,-4.068271041768931062e-01,1.981073328021170310e+00,1.682894547543502206e+00,2.286355793805048275e+00,-1.246215997499551920e+00,1.472557259266841001e+00
2.948119922487805744e-01,-4.081408749171411277e-01,1.982914764153570708e+00,1.684574675983294689e+00,2.287853534312834558e+00,-1.247116911587460075e+00,1.473469558464695961e+00
2.937401231608349206e-01,-4.094490728210938291e-01,1.984786040943740115e+00,1.686293753081546942e+00,2.289332387565609306e+00,-1.248047606446527125e+00,1.474397497012545077e+00
2.926801184938814804e-01,-4.107679367593425335e-01,1.986677571079941806e+00,1.688053816291992248e+00,2.290810473920711576e+00,-1.248909451993672537e+00,1.475342453065997095e+00
2.916219114069724672e-01,-4.121051965769693681e-01,1.988553701412589136e+00,1.689799079001314652e+00,2.292294792148433569e+00,-1.249772196385381617e+00,1.476288308073095745e+00
2.905433910874211656e-01,-4.134600730935472090e-01,1.990386928279779033e+00,1.691497423442489323e+00,2.293763578691160099e+00,-1.250686233167588313e+00,1.477217684663163721e+00
2.894333523032764921e-01,-4.148214810685108000e-01,1.992174255605688060e+00,1.693162152078727223e+00,2.295213382334831742e+00,-1.251572226981153557e+00,1.478150117324748436e+00
2.882862822139360404e-01,-4.161825295056489904e-01,1.993925210815442384e+00,1.694819810058924459e+00,2.296667691895028174e+00,-1.252395003878453261e+00,1.479090459491244847e+00
2.871102702023074493e-01,-4.175368068288786705e-01,1.995652017758776653e+00,1.696481243077206047e+00,2.298129575660571078e+00,-1.253270451540025476e+00,1.480055788882115086e+00
2.859191581474233024e-01,-4.188879083073718257e-01,1.997359530087252422e+00,1.698131950174581961e+00,2.299572476352526262e+00,-1.254173762510409240e+00,1.481021477701727873e+00
2.847260086388059275e-01,-4.202448221685997631e-01,1.999066563104682670e+00,1.699775886267132607e+00,2.301006364862365761e+00,-1.255011699446657358e+00,1.481962419061572334e+00
2.835435851601774693e-01,-4.216011967230894886e-01,2.000801878855360094e+00,1.701445648323844484e+00,2.302441212081562938e+00,-1.255841966642599505e+00,1.482906236724021110e+00
2.823777597627165070e-01,-4.229515192393217826e-01,2.002577341760276575e+00,1.703139558537893228e+00,2.303855638250402738e+00,-1.256720050733086902e+00,1.483864435463157383e+00
2.812276337109424484e-01,-4.242948310952059932e-01,2.004397266164255509e+00,1.704874994170873626e+00,2.305251273157340020e+00,-1.257631391090685335e+00,1.484846722473020630e+00
2.800878739331655876e-01,-4.256318511482271028e-01,2.006234148296310416e+00,1.706630083956538035e+00,2.306658508918736139e+00,-1.258496532364870024e+00,1.485821039873195915e+00
2.789457772686061432e-01,-4.269619802050368396e-01,2.008058446931721974e+00,1.708365879018260758e+00,2.308054527274509216e+00,-1.259334828838943654e+00,1.486783792612677901e+00
2.777910373298765889e-01,-4.282925886819750061e-01,2.009861893027753421e+00,1.710073331460126411e+00,2.309420920586125803e+00,-1.260218425770033290e+00,1.487740253549296510e+00
2.766149654316381046e-01,-4.296307472350824330e-01,2.011651557240444976e+00,1.711777907708471158e+00,2.310785013030192570e+00,-1.261103640512254653e+00,1.488712413940685098e+00
2.754149250358924883e-01,-4.309886798231770122e-01,2.013437206759529197e+00,1.713483981994727845e+00,2.312168663633834331e+00,-1.261963268945837324e+00,1.489705666526977001e+00
2.741966087521547357e-01,-4.323727978041755349e-01,2.015215066437838320e+00,1.715162192972172983e+00,2.313535632380504747e+00,-1.262811632260858685e+00,1.490698978999878577e+00
2.729634319716008894e-01,-4.337760307402031001e-01,2.016974590341545248e+00,1.716818053263242660e+00,2.314873263538746340e+00,-1.263693191847298225e+00,1.491674854433658881e+00
2.717283977243927784e-01,-4.351816604496231977e-01,2.018740765476858101e+00,1.718478227899135069e+00,2.316210127799315011e+00,-1.264574691547127872e+00,1.492655163985481925e+00
2.704975579397047025e-01,-4.365786615784805758e-01,2.020531448416416520e+00,1.720159914263449163e+00,2.317525708118746142e+00,-1.265410950676551405e+00,1.493648536344993394e+00
2.692800206182278666e-01,-4.379636784040428221e-01,2.022351792244830637e+00,1.721871501281225125e+00,2.318832276256061586e+00,-1.266261471218525836e+00,1.494660903777231153e+00
2.680715912974420689e-01,-4.393384488379105668e-01,2.024177409149241491e+00,1.723602682455992241e+00,2.320138844393377475e+00,-1.267159269348307360e+00,1.495667279057821375e+00
2.668556119004870109e-01,-4.407114214735677882e-01,2.025985109594402367e+00,1.725352499165660136e+00,2.321424416219815878e+00,-1.268022972471190224e+00,1.496661070950851435e+00
2.656260902757149878e-01,-4.420860720251327258e-01,2.027769620613400381e+00,1.727112142951670259e+00,2.322678445408850489e+00,-1.268819204328677230e+00,1.497645215427368948e+00
2.643813488344676221e-01,-4.434652165813502966e-01,2.029529683823845687e+00,1.728866453665990788e+00,2.323929310839553342e+00,-1.269661395723138408e+00,1.498644040740872985e+00
2.631116201688464273e-01,-4.448487354780836789e-01,2.031265179343435978e+00,1.730606083761490943e+00,2.325199830422941094e+00,-1.270555898344046808e+00,1.499662520097978069e+00
2.618227167706693725e-01,-4.462333328792105203e-01,2.032973111205429895e+00,1.732310120703097533e+00,2.326450312404807708e+00,-1.271390839313554233e+00,1.500679381534868462e+00
2.605173350645446084e-01,-4.476188890115110341e-01,2.034662287650220502e+00,1.733974609683812895e+00,2.327673182754340875e+00,-1.272175506401264533e+00,1.501674551583507489e+00
2.592049425889887404e-01,-4.489985729835498929e-01,2.036353321670748340e+00,1.735636701891135836e+00,2.328891067570871609e+00,-1.273038190797280755e+00,1.502667444631973659e+00
2.579032760343387132e-01,-4.503885632338930911e-01,2.038072159222561019e+00,1.737315032641800761e+00,2.330088531337045410e+00,-1.273906088382683599e+00,1.503677055643910299e+00
2.566219227123309743e-01,-4.517985072881361419e-01,2.039830005319443806e+00,1.739018590163278866e+00,2.331271997562634368e+00,-1.274725629657719850e+00,1.504702186232621086e+00
2.553611822741811976e-01,-4.532249896460198713e-01,2.041614276573835873e+00,1.740734611408180532e+00,2.332459586255911876e+00,-1.275569558745615506e+00,1.505723901321072589e+00
2.541121263790278029e-01,-4.546542283151216446e-01,2.043401124479616193e+00,1.742452550006346579e+00,2.333623206517131621e+00,-1.276444586873669351e+00,1.506729917063837298e+00
2.528652277108273672e-01,-4.560812498706605655e-01,2.045188571687828194e+00,1.744196374564366936e+00,2.334743204368142866e+00,-1.277295526840079187e+00,1.507734254999777423e+00
2.516131758489332793e-01,-4.574991634255083373e-01,2.046969547324263949e+00,1.745976091927496476e+00,2.335844123152458263e+00,-1.278107458043252986e+00,1.508748659776665280e+00
2.503471623347869324e-01,-4.589150996313989261e-01,2.048731288341533840e+00,1.747769890716098340e+00,2.336962299228798390e+00,-1.278953724017931393e+00,1.509784036866153478e+00
2.490581390543069873e-01,-4.603344512284656687e-01,2.050444073746006346e+00,1.749531871279807804e+00,2.338076736286286206e+00,-1.279818026334162306e+00,1.510823009224813607e+00
2.477355000779735972e-01,-4.617612931241749097e-01,2.052098735650379702e+00,1.751250289298102114e+00,2.339160110322848762e+00,-1.280625942843728993e+00,1.511841488581918691e+00
2.463805036790928937e-01,-4.631962841803185515e-01,2.053717564745336510e+00,1.752946716276929440e+00,2.340232746221200255e+00,-1.281437814160292898e+00,1.512859908052413882e+00
2.450048345097444458e-01,-4.646385257704989669e-01,2.055323750457040077e+00,1.754627803447895484e+00,2.341304135954467291e+00,-1.282264306318150249e+00,1.513893906986293114e+00
2.436274276469614364e-01,-4.660838832097229933e-01,2.056945455854600979e+00,1.756314463236990475e+00,2.342359323098174961e+00,-1.283095112711747587e+00,1.514940609190035259e+00
2.422593684403921976e-01,-4.675236679217348312e-01,2.058583459682114203e+00,1.757993393181003672e+00,2.343404634994453506e+00,-1.283919267764656036e+00,1.515988689549386592e+00
2.409034733060308464e-01,-4.689543447421386513e-01,2.060232488972665088e+00,1.759667949002666765e+00,2.344430964166209996e+00,-1.284742164653341678e+00,1.517017115756053691e+00
2.395623785637094882e-01,-4.703828044489795634e-01,2.061904348369720363e+00,1.761368750212926937e+00,2.345424312549261092e+00,-1.285544748200301735e+00,1.518040928184848148e+00
2.382378820116387019e-01,-4.718181550429486615e-01,2.063599217314942891e+00,1.763117787851250950e+00,2.346389569858033042e+00,-1.286341399482224146e+00,1.519076005623120951e+00
2.369232725316030019e-01,-4.732616549064352918e-01,2.065311643181589663e+00,1.764918118098238509e+00,2.347352334662103246e+00,-1.287181553641118192e+00,1.520133433747768992e+00
2.356102208670060316e-01,-4.747104877325283856e-01,2.067009927736154218e+00,1.766718628005055747e+00,2.348294965871544626e+00,-1.287998638037985977e+00,1.521181993527248588e+00
2.342898588908454149e-01,-4.761602194031852031e-01,2.068674956023607958e+00,1.768482346371282876e+00,2.349199439296658642e+00,-1.288764190279750199e+00,1.522209700658264664e+00
2.329500225309133199e-01,-4.776047978801483684e-01,2.070304511039470885e+00,1.770224792773694267e+00,2.350094996358233601e+00,-1.289540708207026265e+00,1.523233632860279130e+00
2.315880753582945095e-01,-4.790500954327624461e-01,2.071907161368612638e+00,1.771947045716683045e+00,2.350980582702868915e+00,-1.290349044141028134e+00,1.524273923487938331e+00
2.302113275754695265e-01,-4.804995275612867767e-01,2.073497767616932386e+00,1.773657554120982471e+00,2.351851116804453135e+00,-1.291150009767773721e+00,1.525329314267936276e+00
2.288242135186472626e-01,-4.819576481569837201e-01,2.075069678443741683e+00,1.775359793482544690e+00,2.352703530723231129e+00,-1.291916520849794692e+00,1.526380810127546672e+00
2.274247556207043830e-01,-4.834284721316268185e-01,2.076616003070995031e+00,1.777054183116721697e+00,2.353535523591652634e+00,-1.292700768513069809e+00,1.527415707905989573e+00
2.260178076422851012e-01,-4.849079845734425298e-01,2.078147826630174499e+00,1.778748632637508820e+00,2.354333577136544342e+00,-1.293501134946466902e+00,1.528445871915174337e+00
2.246094813991737216e-01,-4.863876767841709969e-01,2.079680968567436672e+00,1.780464354231194868e+00,2.355110058935505180e+00,-1.294262732490317092e+00,1.529487420816139753e+00
2.232070874211000422e-01,-4.878546058384265471e-01,2.081230408934650722e+00,1.782216148289820001e+00,2.355883472969242831e+00,-1.295038171695033435e+00,1.530556953017302657e+00
2.218093073299817752e-01,-4.893118276986428428e-01,2.082783983986857823e+00,1.783995865543866577e+00,2.356634835815104356e+00,-1.295834643317126167e+00,1.531623129604816391e+00
2.204152423903383007e-01,-4.907741428659429528e-01,2.084328510924983835e+00,1.785777620251646436e+00,2.357335481661888998e+00,-1.296604809554929183e+00,1.532672528233166798e+00
2.190230350264322223e-01,-4.922491013074131172e-01,2.085869082947028996e+00,1.787556618539125175e+00,2.358014651581318066e+00,-1.297354722446699693e+00,1.533718870899083653e+00
2.176320260492224379e-01,-4.937367630187463052e-01,2.087403842804505860e+00,1.789322913447657593e+00,2.358680399220683288e+00,-1.298125727533373519e+00,1.534775220410255159e+00
2.162361035338415671e-01,-4.952329336465056131e-01,2.088935726250295666e+00,1.791069254770456531e+00,2.359325725809691576e+00,-1.298927472122379800e+00,1.535851823267459171e+00
2.148310130220766334e-01,-4.967304224341809737e-01,2.090447596223741655e+00,1.792782879023799403e+00,2.359939030493884538e+00,-1.299686672783754160e+00,1.536916801359193618e+00
2.134089050047087710e-01,-4.982293493731583256e-01,2.091928007510121201e+00,1.794478347271453167e+00,2.360524627552634591e+00,-1.300431792019656418e+00,1.537963743327541488e+00
2.119764306042605517e-01,-4.997269580431364933e-01,2.093386967063771920e+00,1.796181425481886196e+00,2.361081750262802537e+00,-1.301207830526804221e+00,1.539009786342242725e+00
2.105389227833384114e-01,-5.012261246376364943e-01,2.094835200696516964e+00,1.797901101773486499e+00,2.361598605958245223e+00,-1.301967810150439497e+00,1.540064038622154241e+00
2.091020142648475078e-01,-5.027325416570902483e-01,2.096280618022350772e+00,1.799651757332025204e+00,2.362112489532508075e+00,-1.302705319314479526e+00,1.541136147365622655e+00
2.076550389054087342e-01,-5.042474675929700112e-01,2.097705602342322617e+00,1.801412239966905915e+00,2.362617073294395187e+00,-1.303458767479728886e+00,1.542205499797872914e+00
2.061987758854491593e-01,-5.057689847647623971e-01,2.099096970857357913e+00,1.803172542941957168e+00,2.363067200863820272e+00,-1.304224919023924567e+00,1.543253819812746785e+00
2.047389174872346063e-01,-5.072906817054675388e-01,2.100471861064445722e+00,1.804949563771395482e+00,2.363475814904369088e+00,-1.304969798495221323e+00,1.544297466054055379e+00
2.032812163159730401e-01,-5.088100417593900415e-01,2.101839021426451293e+00,1.806735752597218081e+00,2.363871773737059367e+00,-1.305665303038367586e+00,1.545355733027574230e+00
2.018245337624950120e-01,-5.103304204310959991e-01,2.103204923406067461e+00,1.808510017006355275e+00,2.364244243405104307e+00,-1.306412759161052595e+00,1.546433354502561697e+00
2.003690497047963537e-01,-5.118521773674942210e-01,2.104554167417906019e+00,1.810247849521811281e+00,2.364564270117976985e+00,-1.307178850709555418e+00,1.547505942666158374e+00
1.989085321175406706e-01,-5.133739940814191494e-01,2.105880042125586105e+00,1.811946913038636753e+00,2.364837031045831761e+00,-1.307888915989219081e+00,1.548561932639504590e+00
1.974474154460199304e-01,-5.148907774839531770e-01,2.107190277374189069e+00,1.813635010869950825e+00,2.365082851594982216e+00,-1.308578608149630673e+00,1.549617922612850585e+00
1.959844411987618218e-01,-5.164040854996182484e-01,2.108487449924186130e+00,1.815338149076076713e+00,2.365291281257477785e+00,-1.309302814850459518e+00,1.550685417469363614e+00
1.945191899513309119e-01,-5.179188915531951487e-01,2.109765567514847451e+00,1.817067352792803625e+00,2.365457334674849754e+00,-1.310059618629358491e+00,1.551777539903341552e+00
1.930487855102062944e-01,-5.194374126491637655e-01,2.111006114493574781e+00,1.818806923001694109e+00,2.365589065145322856e+00,-1.310776574905233582e+00,1.552865887190151950e+00
1.915728083418695160e-01,-5.209614465857347332e-01,2.112205975120407864e+00,1.820543856672586225e+00,2.365667969386320291e+00,-1.311452245526782967e+00,1.553933741584490269e+00
1.900937153244891820e-01,-5.224953674852576002e-01,2.113369223975563482e+00,1.822302062307294301e+00,2.365692992346310142e+00,-1.312175553383047921e+00,1.554999618520788385e+00
1.886063531552884809e-01,-5.240414523479053344e-01,2.114494602567569714e+00,1.824099696020590633e+00,2.365670174435294815e+00,-1.312906471311175327e+00,1.556077719415904337e+00
1.871124596367850501e-01,-5.255919114419859151e-01,2.115580732849899892e+00,1.825921717655829335e+00,2.365607185328129081e+00,-1.313605391245497911e+00,1.557172957698925941e+00
1.856147310845039922e-01,-5.271429097337215763e-01,2.116607301589912726e+00,1.827704910405828054e+00,2.365512078497572279e+00,-1.314306048982338160e+00,1.558264181397423398e+00
1.841097521072692089e-01,-5.286901930921485970e-01,2.117571372598393786e+00,1.829429140697774070e+00,2.365400960889140425e+00,-1.315017432531001118e+00,1.559334432565154360e+00
1.826026758987743803e-01,-5.302421502241411178e-01,2.118497812999247998e+00,1.831123110907515894e+00,2.365250726612492027e+00,-1.315706645380367412e+00,1.560398511921408105e+00
1.811024906864908690e-01,-5.317974029740898390e-01,2.119384106354945452e+00,1.832789157812753089e+00,2.365044981440915350e+00,-1.316371410312098256e+00,1.561445753322805441e+00
1.796118328993338564e-01,-5.333497795305176536e-01,2.120222702589317887e+00,1.834436749061085337e+00,2.364774904829447522e+00,-1.317032579974657169e+00,1.562462435099866154e+00
1.781372937732159933e-01,-5.348941266997307986e-01,2.121013961022024219e+00,1.836091111423326261e+00,2.364432827103231549e+00,-1.317707711289468175e+00,1.563480195381320215e+00
1.766785140975610235e-01,-5.364307440238619273e-01,2.121745777685632106e+00,1.837767524711643841e+00,2.364013475273537779e+00,-1.318381164797454819e+00,1.564509400659331195e+00
1.752296811623848538e-01,-5.379677807724283500e-01,2.122395562347326958e+00,1.839484924112154474e+00,2.363509274960486906e+00,-1.319051382574095044e+00,1.565560896518941592e+00
1.737838444121155568e-01,-5.395030198318673254e-01,2.122955645157719839e+00,1.841239594364300514e+00,2.362917254217431928e+00,-1.319740715196681125e+00,1.566645348994447628e+00
1.723409437419770873e-01,-5.410382590003893766e-01,2.123426085894337234e+00,1.843033812577337560e+00,2.362235495625659265e+00,-1.320473550587155653e+00,1.567753829854070524e+00
1.709015783453175508e-01,-5.425803890560396692e-01,2.123820067247170762e+00,1.844824435521202899e+00,2.361480872853824575e+00,-1.321180619790995880e+00,1.568867224360947610e+00
1.694623928266538460e-01,-5.441280318432092367e-01,2.124129859480221150e+00,1.846570656961698864e+00,2.360670451731334385e+00,-1.321863181408756471e+00,1.569968394799923672e+00
1.680139793159130812e-01,-5.456760341682042048e-01,2.124339223831980039e+00,1.848274394252089836e+00,2.359791864156991270e+00,-1.322546042459566751e+00,1.571069385579070277e+00
1.665517241443059404e-01,-5.472158872236817517e-01,2.124439232179752945e+00,1.849949129842665796e+00,2.358838111709569141e+00,-1.323237172771280390e+00,1.572190090397511009e+00
1.650717922780548241e-01,-5.487433366605117824e-01,2.124427547636756231e+00,1.851609244591948311e+00,2.357804112688423714e+00,-1.323949754815722635e+00,1.573326794103771187e+00
1.635823927642039988e-01,-5.502539481424856271e-01,2.124326580557810207e+00,1.853251203226458754e+00,2.356697633285118165e+00,-1.324654547019389783e+00,1.574460801385423103e+00
1.620911956703087464e-01,-5.517494595812038050e-01,2.124151550868472071e+00,1.854881836746714807e+00,2.355527301709332999e+00,-1.325328180296289071e+00,1.575575514052216075e+00
1.606054514213228201e-01,-5.532282530564516243e-01,2.123894549172914203e+00,1.856520919187704344e+00,2.354285544279321130e+00,-1.326007506073620501e+00,1.576684174680751838e+00
1.591294742529860140e-01,-5.546944031484462023e-01,2.123550841592794836e+00,1.858179955432593511e+00,2.352964978601420398e+00,-1.326694381927121080e+00,1.577803321574670736e+00
1.576640432366423761e-01,-5.561491082438839717e-01,2.123117012736937870e+00,1.859871169222033993e+00,2.351549401911538606e+00,-1.327401930551089348e+00,1.578945418130147216e+00
1.562135924903345352e-01,-5.575980010656700347e-01,2.122615712615685268e+00,1.861591624475895435e+00,2.350058851985729280e+00,-1.328106063674798554e+00,1.580082900907751275e+00
1.547738076692396214e-01,-5.590375461221592790e-01,2.122047780186990362e+00,1.863328258495571932e+00,2.348513941511500835e+00,-1.328788085985821210e+00,1.581203246079283309e+00
1.533388166130959795e-01,-5.604709792537810875e-01,2.121401231256641928e+00,1.865072562473720552e+00,2.346903549425404911e+00,-1.329490421420402857e+00,1.582321074704203134e+00
1.519005898256059195e-01,-5.618966226537109865e-01,2.120669774021776366e+00,1.866803923417400535e+00,2.345234674148668041e+00,-1.330210074120885988e+00,1.583448011329813943e+00
1.504484612724734383e-01,-5.633192699778171164e-01,2.119842263355218304e+00,1.868521922011259440e+00,2.343510767418948593e+00,-1.330930146354887933e+00,1.584598616692633355e+00
1.489714054906601526e-01,-5.647365843393167273e-01,2.118919957421191658e+00,1.870195219450533353e+00,2.341745251341777134e+00,-1.331649499404155446e+00,1.585745267357538513e+00
1.474685238537684906e-01,-5.661461688557343219e-01,2.117912263871601919e+00,1.871811352011799157e+00,2.339958259686316211e+00,-1.332373825987287264e+00,1.586871065483062893e+00
1.459386176478528752e-01,-5.675496414472844808e-01,2.116811153210152785e+00,1.873406512260464396e+00,2.338151422066486518e+00,-1.333079936459953485e+00,1.587997043268417174e+00
1.443867205115534069e-01,-5.689493988873599584e-01,2.115624055848875695e+00,1.875010421081078515e+00,2.336333463034142799e+00,-1.333795814122352263e+00,1.589137821663977546e+00
1.428206219583959546e-01,-5.703485572431702399e-01,2.114351870414169277e+00,1.876627272717995343e+00,2.334491919018577999e+00,-1.334538356706866047e+00,1.590304126481566716e+00
1.412549429387569555e-01,-5.717367499134690112e-01,2.113030130282399277e+00,1.878245382846384315e+00,2.332645102014283101e+00,-1.335264241214519698e+00,1.591465038340856619e+00
1.396979523862905970e-01,-5.731110409272084372e-01,2.111687357842336521e+00,1.879863972176735398e+00,2.330814295962396088e+00,-1.335975325221050003e+00,1.592608692929937897e+00
1.381586386375513453e-01,-5.744710706374800413e-01,2.110326429178418284e+00,1.881515278576542549e+00,2.328994515504447360e+00,-1.336677540882411863e+00,1.593747194216242447e+00
1.366325074697203878e-01,-5.758239099184907506e-01,2.108946685428852330e+00,1.883204994328071313e+00,2.327182404721354292e+00,-1.337393358658200748e+00,1.594900615995055837e+00
1.351154844116636555e-01,-5.771851980111515346e-01,2.107524936949310312e+00,1.884914424227977392e+00,2.325387551404819675e+00,-1.338144769587883198e+00,1.596069437468340624e+00
1.336004985891739993e-01,-5.785512797596805701e-01,2.106069452782528550e+00,1.886591137058427403e+00,2.323625103267404235e+00,-1.338869695255279879e+00,1.597234663563370294e+00
1.320770639550342962e-01,-5.799211965419871495e-01,2.104586464844760751e+00,1.888218594843030118e+00,2.321909154017333776e+00,-1.339560525915777900e+00,1.598384310304099110e+00
1.305293012855619494e-01,-5.812954275600336063e-01,2.103053323016581544e+00,1.889813515436173041e+00,2.320244784831654972e+00,-1.340277002880607693e+00,1.599525628006397859e+00
1.289426498442395597e-01,-5.826778678432905645e-01,2.101445279729140303e+00,1.891379853644852949e+00,2.318618765241987401e+00,-1.340989105504921675e+00,1.600678450482780013e+00
1.273181881354605582e-01,-5.840652815513284191e-01,2.099745856674489541e+00,1.892941817513017266e+00,2.317024000484930291e+00,-1.341682812358940602e+00,1.601847331842674693e+00
1.256659830001727873e-01,-5.854565301840608527e-01,2.097975666845569354e+00,1.894485445606579388e+00,2.315472762494038328e+00,-1.342342364101284824e+00,1.603009561970963670e+00
1.240011943682417517e-01,-5.868468201947026897e-01,2.096163112748846924e+00,1.896007681854022797e+00,2.313988540084892076e+00,-1.343007488679924144e+00,1.604150939559872091e+00
1.223329903451346318e-01,-5.882480756726901072e-01,2.094323054881138457e+00,1.897536389564159043e+00,2.312555897914669867e+00,-1.343685136650430767e+00,1.605289440955259606e+00
1.206749728271120509e-01,-5.896661091098407415e-01,2.092470952823525021e+00,1.899095776999101037e+00,2.311156428170304533e+00,-1.344360387738461782e+00,1.606436391162297195e+00
1.190445189666854975e-01,-5.910989429390313132e-01,2.090617892034738023e+00,1.900694112983419837e+00,2.309796362375350576e+00,-1.345026051514756293e+00,1.607603055408628911e+00
1.174505571047163993e-01,-5.925371099489945559e-01,2.088787421478766060e+00,1.902300119035293946e+00,2.308471674055228462e+00,-1.345689857824396540e+00,1.608765585188133729e+00
1.158946452748096378e-01,-5.939735390473571686e-01,2.086975646344304991e+00,1.903887070018748906e+00,2.307200866841580655e+00,-1.346353664024953600e+00,1.609913074701909474e+00
1.143634207998948799e-01,-5.954072119435847021e-01,2.085163092356665526e+00,1.905459879690121872e+00,2.305980776976075841e+00,-1.347008721762645189e+00,1.611057508253251669e+00
1.128332150518467358e-01,-5.968476558446377256e-01,2.083324772073308573e+00,1.907025858360976489e+00,2.304804788962724338e+00,-1.347663779500336778e+00,1.612213926107888939e+00
1.112850329579389980e-01,-5.982963089018180636e-01,2.081426650701194703e+00,1.908584167182441949e+00,2.303651331230128552e+00,-1.348324949162895692e+00,1.613389039274953696e+00
1.096994601300931016e-01,-5.997595828002917351e-01,2.079438887255304902e+00,1.910114073279274516e+00,2.302514747340721257e+00,-1.349005832864748733e+00,1.614588120830442675e+00
1.080739198078376068e-01,-6.012447278559295283e-01,2.077359144848856864e+00,1.911612281142600844e+00,2.301408171944307135e+00,-1.349707209677239783e+00,1.615806556996483234e+00
1.064160820587277678e-01,-6.027506655643379840e-01,2.075225892829265728e+00,1.913077951923550346e+00,2.300331413403733816e+00,-1.350371435302232470e+00,1.617018881237656469e+00
1.047457806952775405e-01,-6.042669696558268244e-01,2.073081675342328900e+00,1.914513901710867438e+00,2.299298660722205678e+00,-1.351011512769888068e+00,1.618209453985802515e+00
1.030850068660369018e-01,-6.057850713273600363e-01,2.070951479394254502e+00,1.915948173800443355e+00,2.298312982188543963e+00,-1.351650092199631947e+00,1.619389780342253893e+00
1.014498193454350938e-01,-6.073077868858487438e-01,2.068858374528902644e+00,1.917396287550885425e+00,2.297350601007842830e+00,-1.352285136246813790e+00,1.620574420934445259e+00
9.984752844503577696e-02,-6.088454229368464032e-01,2.066800982808830511e+00,1.918874182181569354e+00,2.296386398227003411e+00,-1.352923835558860421e+00,1.621777217641408919e+00
9.827927277400838602e-02,-6.103974998420585996e-01,2.064786194902999750e+00,1.920377003931851290e+00,2.295435713719336857e+00,-1.353562295106301328e+00,1.622965693267377940e+00
9.672857402440521168e-02,-6.119493370917481467e-01,2.062805382230848306e+00,1.921888933791907172e+00,2.294525775493807984e+00,-1.354185714497096571e+00,1.624136312320707098e+00
9.517356082089603597e-02,-6.134984180302196499e-01,2.060817618784958505e+00,1.923406196614569685e+00,2.293640189149172670e+00,-1.354784805852559337e+00,1.625295246831039764e+00
9.359038487552578944e-02,-6.150419862371719892e-01,2.058783176835526696e+00,1.924879717013820990e+00,2.292784419660378603e+00,-1.355380601590065570e+00,1.626462210728587099e+00
9.196292709092300510e-02,-6.165942429112969414e-01,2.056669519082010122e+00,1.926271145415466179e+00,2.292019154917975143e+00,-1.355996231249168682e+00,1.627648888665428561e+00
9.028495587808364753e-02,-6.181564465440668732e-01,2.054478682869058215e+00,1.927543510510002500e+00,2.291387826044084530e+00,-1.356594064331325233e+00,1.628837723829223094e+00
8.857660459165415945e-02,-6.197378849050856342e-01,2.052256148422600290e+00,1.928678596405130952e+00,2.290954572317848825e+00,-1.357210472952689262e+00,1.630013376193943042e+00
8.686465803605275537e-02,-6.213418536123096469e-01,2.050075438937205785e+00,1.929673646571467005e+00,2.290799927768718103e+00,-1.357884465767414062e+00,1.631203050206608163e+00
8.517302482217671555e-02,-6.229579861735753399e-01,2.047995396988625760e+00,1.930544660114996480e+00,2.290979020191850957e+00,-1.358612926817373001e+00,1.632421905797084349e+00
8.351944142219683287e-02,-6.245677672635341349e-01,2.046062641084708034e+00,1.931328967664881491e+00,2.291504696083191295e+00,-1.359401428938860956e+00,1.633691035269357217e+00
8.190702390332284255e-02,-6.261470483975999368e-01,2.044287118293181660e+00,1.932048141054319546e+00,2.292399198616833278e+00,-1.360277895218216626e+00,1.634989406206051044e+00
8.032504634464887605e-02,-6.276908562600748143e-01,2.042674101580959523e+00,1.932679769601242104e+00,2.293666554441889271e+00,-1.361220694153798760e+00,1.636304195454999499e+00
7.874690371066947470e-02,-6.292027261244378389e-01,2.041197644992494453e+00,1.933196948837094364e+00,2.295286917593990506e+00,-1.362179252430760545e+00,1.637653918777883577e+00
7.714557154144378870e-02,-6.306802013306865851e-01,2.039833121168487029e+00,1.933563006994506228e+00,2.297213213925270558e+00,-1.363128822480250912e+00,1.639006877941197260e+00
7.550517083145531771e-02,-6.321304723080816146e-01,2.038550869001915622e+00,1.933737736923545336e+00,2.299402300292932910e+00,-1.364127887340194523e+00,1.640354623806041134e+00
7.381761219779647831e-02,-6.335589319058394508e-01,2.037330994793656203e+00,1.933687882575266803e+00,2.301817744868746018e+00,-1.365132465040740151e+00,1.641715073049831108e+00
7.209416075902830290e-02,-6.349788828053373191e-01,2.036170802010017322e+00,1.933414881882806524e+00,2.304406049820538982e+00,-1.366098213746962831e+00,1.643100509408911725e+00
7.035189423461281344e-02,-6.364010508183981507e-01,2.035077121651517551e+00,1.932941445179448436e+00,2.307108444501943190e+00,-1.367115015297243330e+00,1.644522317775064080e+00
6.861256368124506178e-02,-6.378248366425907090e-01,2.034051511642678278e+00,1.932310176061268203e+00,2.309861364894338909e+00,-1.368147935726728992e+00,1.645956709637859561e+00
6.689977827677287547e-02,-6.392544947361278318e-01,2.033090676365543636e+00,1.931497346013530514e+00,2.312606423451128101e+00,-1.369145262893237902e+00,1.647385409000223122e+00
6.523241310253653780e-02,-6.407025485999600090e-01,2.032183470583855733e+00,1.930461729268519777e+00,2.315300189573786138e+00,-1.370140612710789796e+00,1.648819321551973305e+00
6.361843755005769374e-02,-6.421688784608674538e-01,2.031306944417889948e+00,1.929186667640292008e+00,2.317921283328067350e+00,-1.371149924071510817e+00,1.650278101336711378e+00
6.205755218628689757e-02,-6.436452750536396650e-01,2.030419572448715737e+00,1.927696249508657811e+00,2.320487633259625593e+00,-1.372193270770686757e+00,1.651758452736481031e+00
6.055119505344306458e-02,-6.451197541840645311e-01,2.029480488555525319e+00,1.925996466916181094e+00,2.322979201592407783e+00,-1.373178913285116209e+00,1.653234549678037402e+00
5.910745553443379902e-02,-6.465786537420223912e-01,2.028466742967678371e+00,1.924060655158913002e+00,2.325356008941949160e+00,-1.374137950873123293e+00,1.654687517080040804e+00
5.772849063804594283e-02,-6.480123266382499247e-01,2.027375938802699729e+00,1.921870238370396500e+00,2.327639051619126764e+00,-1.375110770344470046e+00,1.656133174170480338e+00
5.640944693088447565e-02,-6.494199336966272051e-01,2.026213948439016033e+00,1.919436122458616500e+00,2.329838971943575920e+00,-1.376046858161836584e+00,1.657586081685873625e+00
5.514601006812647199e-02,-6.507851167096755374e-01,2.024991197928152520e+00,1.916818947579367105e+00,2.331948866614513172e+00,-1.376948491325395763e+00,1.659046419395133531e+00
5.393146882247337737e-02,-6.520979886053597241e-01,2.023720570527050899e+00,1.914048614167943807e+00,2.333945055004675417e+00,-1.377874811953029965e+00,1.660497289565876722e+00
5.274988408363264630e-02,-6.533488420805575458e-01,2.022396912823850812e+00,1.911140042825939078e+00,2.335827920562898452e+00,-1.378775007074370285e+00,1.661918858385589504e+00
5.158214122382442229e-02,-6.545306064792280054e-01,2.021009858653638691e+00,1.908114685176998337e+00,2.337610310308726014e+00,-1.379603476472101686e+00,1.663319874098970974e+00
5.040822655253897333e-02,-6.556454389192408749e-01,2.019552576906812114e+00,1.904983087373114614e+00,2.339298360296202084e+00,-1.380426972554135379e+00,1.664726522535257880e+00
4.921507704392158455e-02,-6.566861490804186685e-01,2.018030820079497190e+00,1.901746927221112493e+00,2.340904342284348960e+00,-1.381291514525889053e+00,1.666133530509370075e+00
4.800275291183137699e-02,-6.576468644752503367e-01,2.016482637985589577e+00,1.898391883530914592e+00,2.342433049994485206e+00,-1.382104524342539387e+00,1.667531670029230639e+00
4.677430990053587506e-02,-6.585275851037361017e-01,2.014953450855324846e+00,1.894904354188093665e+00,2.343876429953852369e+00,-1.382841494199841037e+00,1.668895414890976925e+00
4.552753111463834351e-02,-6.593317265752179912e-01,2.013463032723690649e+00,1.891298780265030510e+00,2.345225757959661372e+00,-1.383625322438680749e+00,1.670246396596250404e+00
4.425983979366731463e-02,-6.600555138516114306e-01,2.012028580974285052e+00,1.887650782296638408e+00,2.346507207143878393e+00,-1.384437912830895678e+00,1.671592644532265526e+00
4.296949824418825475e-02,-6.607054782822191497e-01,2.010639908883858240e+00,1.883999668261036708e+00,2.347732186549277067e+00,-1.385213052493479591e+00,1.672948479780016928e+00
4.166243873123882946e-02,-6.612863537453825824e-01,2.009298993910449305e+00,1.880347715485647164e+00,2.348874522869359271e+00,-1.385922219037662773e+00,1.674281904563866163e+00
4.033842159929641041e-02,-6.618080269858874765e-01,2.008010090512272416e+00,1.876657233367150068e+00,2.349948021833025091e+00,-1.386670334240305724e+00,1.675581533882948948e+00
3.897881131346026679e-02,-6.622939872992789079e-01,2.006764749877676834e+00,1.872911144404249439e+00,2.350980870333128969e+00,-1.387427976977158472e+00,1.676869178898736878e+00
3.756700968347983366e-02,-6.627664653805463990e-01,2.005557159405761958e+00,1.869177219404473567e+00,2.351974122897604325e+00,-1.388128095407260343e+00,1.678148015565049000e+00
3.610211797387442162e-02,-6.632310938435120873e-01,2.004359396010189087e+00,1.865483741210152591e+00,2.352925862107736243e+00,-1.388845710763093599e+00,1.679430267622537443e+00
3.459174614742328152e-02,-6.636752291958395444e-01,2.003165108110568138e+00,1.861836282439415680e+00,2.353860248032734859e+00,-1.389585317158393618e+00,1.680698737905769402e+00
3.304841759599362605e-02,-6.640904825124889221e-01,2.001965846786166736e+00,1.858201586934234761e+00,2.354778431542706496e+00,-1.390257512393074046e+00,1.681934431342018588e+00
3.146877692410233324e-02,-6.644811682473659165e-01,2.000756997931862458e+00,1.854543042704766442e+00,2.355676768913776531e+00,-1.390891897251214537e+00,1.683155743701580276e+00
2.984569348001544012e-02,-6.648522598252516458e-01,1.999529573647433445e+00,1.850913620166499074e+00,2.356541262954425342e+00,-1.391540663295126157e+00,1.684375438250010015e+00
2.817946669678240978e-02,-6.651987237165891687e-01,1.998262121981985162e+00,1.847368087314965157e+00,2.357351971881708863e+00,-1.392207405684897203e+00,1.685603341954567291e+00
2.649310655890292285e-02,-6.655157664836762743e-01,1.996929416273786950e+00,1.843909260238909775e+00,2.358051083584082885e+00,-1.392853355421897588e+00,1.686822317318263043e+00
2.481777177497876755e-02,-6.658067434129132378e-01,1.995518873026195905e+00,1.840486625510096230e+00,2.358553270659843548e+00,-1.393450828966228405e+00,1.688017564058140518e+00
2.317107937121020561e-02,-6.660691380667704831e-01,1.994037622781862362e+00,1.837047152935509464e+00,2.358774163893047060e+00,-1.394053695359775746e+00,1.689205620150590947e+00
2.155830231451072096e-02,-6.662993549579102615e-01,1.992517423879069272e+00,1.833611934819135758e+00,2.358632174726308151e+00,-1.394681129444178325e+00,1.690400687012472591e+00
1.997962037379306249e-02,-6.664945181109775962e-01,1.990978050243719988e+00,1.830262583629369555e+00,2.358059712317361889e+00,-1.395319049684881074e+00,1.691607917946562178e+00
1.844324270518461067e-02,-6.666448602271571877e-01,1.989417883955600264e+00,1.827029179897668776e+00,2.357001169603638147e+00,-1.395934918999506946e+00,1.692809096842394112e+00
1.695480203159050250e-02,-6.667468459238869993e-01,1.987808642172379736e+00,1.823883260903707226e+00,2.355462491002029424e+00,-1.396545934771654673e+00,1.693985947702893569e+00
1.549835913363510967e-02,-6.668033515037711245e-01,1.986119945038634427e+00,1.820753999986606253e+00,2.353445114489305379e+00,-1.397141011433509883e+00,1.695155068718310787e+00
1.404269530702368859e-02,-6.668234250808907637e-01,1.984339508708936828e+00,1.817612934644205813e+00,2.350946068118818122e+00,-1.397725901590280762e+00,1.696333717267937580e+00
1.256174471390595314e-02,-6.668109615756334652e-01,1.982456307611165425e+00,1.814478880071236588e+00,2.347978678177524259e+00,-1.398343987909386410e+00,1.697524469894079235e+00
1.103537389055237600e-02,-6.667659607698330770e-01,1.980493651053786275e+00,1.811431890920654375e+00,2.344586950699000472e+00,-1.398953984954667717e+00,1.698708990603967850e+00
9.477664371518109906e-03,-6.666834493477915569e-01,1.978453157066097035e+00,1.808471068347895505e+00,2.340828985425052355e+00,-1.399516584420755771e+00,1.699870441769995910e+00
7.904255397713938827e-03,-6.665615098471618927e-01,1.976339619085800026e+00,1.805553448891809465e+00,2.336750609989394878e+00,-1.400079064004541074e+00,1.701025721124546752e+00
6.326412414950141096e-03,-6.663922926496419485e-01,1.974178743522002843e+00,1.802658839092973864e+00,2.332416826561951151e+00,-1.400651850084796868e+00,1.702187651601620111e+00
4.742876822671313053e-03,-6.661698054945012215e-01,1.972021762769510245e+00,1.799783703677909852e+00,2.327904046879016420e+00,-1.401247945364435754e+00,1.703368217613594249e+00
3.163535801995625164e-03,-6.658884758726937303e-01,1.969909363398382629e+00,1.796933675260439234e+00,2.323279382340911692e+00,-1.401832595756600686e+00,1.704540214822532596e+00
1.600133673446328328e-03,-6.655457270237480349e-01,1.967864375296957791e+00,1.794122116190383531e+00,2.318621737363167234e+00,-1.402407179416901073e+00,1.705690161214477030e+00
5.368938205618750236e-05,-6.651516856752216489e-01,1.965863788698902104e+00,1.791368021431385404e+00,2.314017685861636586e+00,-1.402995305305018148e+00,1.706838489577123585e+00
-1.480351399769593923e-03,-6.647131229410232489e-01,1.963871591025886598e+00,1.788681278055480162e+00,2.309539037139383133e+00,-1.403586606928788783e+00,1.708001318898760612e+00
-3.019545266206000167e-03,-6.642429218599285035e-01,1.961855065426621580e+00,1.786051639561890392e+00,2.305217813275755478e+00,-1.404188994011290603e+00,1.709178709065998225e+00
-4.573419860545703715e-03,-6.637363487717622412e-01,1.959828892519927201e+00,1.783467600958366095e+00,2.301094377104054622e+00,-1.404781853668666036e+00,1.710350286959584132e+00
-6.144971258612484666e-03,-6.631880703866688265e-01,1.957805296264621076e+00,1.780906272469959584e+00,2.297255494177286028e+00,-1.405355178946577022e+00,1.711497476822144481e+00
-7.735217969106797375e-03,-6.626021017255045997e-01,1.955784875744968510e+00,1.778317679866089795e+00,2.293719285027322030e+00,-1.405934496376135767e+00,1.712640352448964842e+00
-9.338647369592516581e-03,-6.619884495244416911e-01,1.953756485833794132e+00,1.775696370410930092e+00,2.290447783332454357e+00,-1.406514952305780719e+00,1.713787063000479671e+00
-1.095004616159989119e-02,-6.613444772454815102e-01,1.951732829582795148e+00,1.773107358382624898e+00,2.287446741697890751e+00,-1.407127645775670066e+00,1.714945218548551420e+00
-1.255569267564850093e-02,-6.606632938924128506e-01,1.949724872677482956e+00,1.770624886160478084e+00,2.284771479206875178e+00,-1.407723501508869157e+00,1.716099658945148487e+00
-1.414504054157906393e-02,-6.599407050027156219e-01,1.947745018845588039e+00,1.768247335715191992e+00,2.282402533518407495e+00,-1.408297006555693009e+00,1.717221981574720946e+00
-1.571395540164756410e-02,-6.591816242236441248e-01,1.945779546090380840e+00,1.765941211342298978e+00,2.280348916814603388e+00,-1.408875185485165105e+00,1.718337233548252296e+00
-1.726818953381276806e-02,-6.583752057519893786e-01,1.943818627226436169e+00,1.763664867740565079e+00,2.278627694401270443e+00,-1.409445754451857935e+00,1.719457998253302922e+00
-1.881469382089587597e-02,-6.575254042856659709e-01,1.941852794933403459e+00,1.761397931790737781e+00,2.277255356847293744e+00,-1.410031842995325135e+00,1.720592544841692995e+00
-2.034795553137768928e-02,-6.566288045425806574e-01,1.939906856448577743e+00,1.759143219690645132e+00,2.276177927053091299e+00,-1.410611519962709171e+00,1.721719002047175540e+00
-2.186114366473985993e-02,-6.556890615694322966e-01,1.937993754697344473e+00,1.756917329630537816e+00,2.275401061805294667e+00,-1.411171243126193353e+00,1.722825325788928552e+00
-2.334772687167965821e-02,-6.547176202536947320e-01,1.936111212679531235e+00,1.754742911948006912e+00,2.274942209684014838e+00,-1.411729648129761427e+00,1.723923140723338632e+00
-2.480255184942029706e-02,-6.537197537804475544e-01,1.934245987927619259e+00,1.752634107736968039e+00,2.274795426970491086e+00,-1.412296621718199363e+00,1.725024371158007774e+00
-2.622477974909100118e-02,-6.526944434228241221e-01,1.932402574446261623e+00,1.750578034285894979e+00,2.274961768018123109e+00,-1.412877616954582471e+00,1.726147233094318389e+00
