Afshin1997/kuka_rl_ros2/src/catch_and_throw/output_files/tm/nn_ema5.00_jvws3_realball_D22H16M50S36/recorded_data.csv
pure_target_joint_0,pure_target_joint_1,pure_target_joint_2,pure_target_joint_3,pure_target_joint_4,pure_target_joint_5,pure_target_joint_6,target_joint_0,target_joint_1,target_joint_2,target_joint_3,target_joint_4,target_joint_5,target_joint_6,pos_joint_0,pos_joint_1,pos_joint_2,pos_joint_3,pos_joint_4,pos_joint_5,pos_joint_6,vel_joint_0,vel_joint_1,vel_joint_2,vel_joint_3,vel_joint_4,vel_joint_5,vel_joint_6,vel_smooth_joint_0,vel_smooth_joint_1,vel_smooth_joint_2,vel_smooth_joint_3,vel_smooth_joint_4,vel_smooth_joint_5,vel_smooth_joint_6,ee_pos_x,ee_pos_y,ee_pos_z,ee_or_w,ee_or_x,ee_or_y,ee_or_z,ee_vel_x,ee_vel_y,ee_vel_z,ball_pos_x,ball_pos_y,ball_pos_z,ball_raw_vx,ball_raw_vy,ball_raw_vz,ball_ema_vx,ball_ema_vy,ball_ema_vz,action_0,action_1,action_2,action_3,action_4,action_5,action_6,command_published
1.76093,-1.04196,-1.84245,-1.07975,1.95475,1.18467,-0.858814,1.77906,-1.06324,-1.81696,-1.11473,1.93838,1.12133,-0.912649,1.78027,-1.06466,-1.81526,-1.11706,1.93729,1.11711,-0.916238,0,0,0,0,0,0,0,0,0,0,0,0,0,0,0.531047,-0.45442,0.694247,0.57451,0.175123,0.15259,0.784848,0,0,0,2.97614,-0.467385,0.144032,-3.52321,-0.296847,5.13551,-3.49382,-0.243346,4.75076,-0.193374,0.227033,-0.271879,0.373188,0.174616,0.675534,0.574245,1
1.79316,-1.05118,-1.83774,-1.07906,1.95431,1.18584,-0.857807,1.77624,-1.05814,-1.82346,-1.10536,1.94272,1.1383,-0.89823,1.78027,-1.06466,-1.81526,-1.11706,1.93729,1.11711,-0.916238,0,0,0,0,0,0,0,0,0,0,0,0,0,0,0.531047,-0.45442,0.694247,0.57451,0.175123,0.15259,0.784848,0,0,0,2.94229,-0.470488,0.194482,-3.42289,-0.313854,5.10251,-3.44564,-0.276371,4.87988,0.128853,0.134783,-0.22478,0.380077,0.170193,0.687268,0.584315,1
1.76784,-1.05668,-1.84217,-1.06105,1.94404,1.18545,-0.853787,1.77546,-1.05228,-1.83276,-1.09007,1.94851,1.1639,-0.876193,1.78009,-1.06444,-1.81552,-1.11671,1.93746,1.11776,-0.915687,-0.0371059,0.043566,-0.0521705,0.0716128,0.033507,0.129629,0.110195,-0.0123686,0.014522,-0.0173902,0.0238709,0.011169,0.0432097,0.0367316,0.530805,-0.45461,0.69441,0.574566,0.174845,0.152443,0.784898,-0.0435172,-0.0387478,0.0301659,2.9088,-0.474068,0.244283,-3.26475,-0.348962,4.85416,-3.40397,-0.304567,4.96305,-0.122483,0.0775924,-0.266466,0.556527,0.0658919,0.676947,0.619004,1
1.74977,-1.03328,-1.84293,-1.04985,1.91699,1.18918,-0.851266,1.77525,-1.04997,-1.83894,-1.07528,1.94846,1.18136,-0.860297,1.77936,-1.06332,-1.81693,-1.11471,1.93838,1.12138,-0.912613,-0.113185,0.18778,-0.237032,0.339083,0.157192,0.613657,0.521666,-0.0500969,0.0771153,-0.0964007,0.136898,0.0635662,0.247762,0.21062,0.529594,-0.455523,0.695288,0.57474,0.173278,0.151616,0.785278,-0.177423,-0.154276,0.136259,2.87522,-0.477622,0.293674,-3.41462,-0.361324,5.02213,-3.38132,-0.329669,5.00047,-0.295943,0.300362,-0.260066,0.648543,-0.213954,0.67806,0.613464,1
1.75471,-1.01623,-1.81036,-1.04644,1.94579,1.19502,-0.845411,1.7684,-1.04601,-1.83928,-1.06301,1.94062,1.18703,-0.853952,1.77836,-1.06095,-1.8202,-1.10971,1.9405,1.1301,-0.905153,-0.104997,0.314582,-0.45522,0.712471,0.290589,1.22576,1.0504,-0.085096,0.181976,-0.248141,0.374389,0.160429,0.656348,0.560753,0.526983,-0.457453,0.6973,0.574864,0.169455,0.149606,0.786406,-0.303676,-0.267814,0.253634,2.84271,-0.480928,0.342735,-3.28667,-0.334301,4.96109,-3.3392,-0.342193,4.96599,-0.236456,0.447173,0.0984695,0.632714,0.0528402,0.649161,0.597412,1
1.74582,-0.992511,-1.79006,-1.04475,1.96658,1.20538,-0.830557,1.75799,-1.03344,-1.83097,-1.05331,1.93638,1.19051,-0.849547,1.77751,-1.05814,-1.82471,-1.10187,1.94276,1.14236,-0.894503,-0.0816792,0.296135,-0.516108,0.964569,0.206463,1.41454,1.2407,-0.0999538,0.266166,-0.402787,0.672041,0.218081,1.08465,0.937589,0.523447,-0.460167,0.700061,0.575017,0.163881,0.146912,0.787982,-0.351891,-0.337795,0.290999,2.80983,-0.484211,0.391101,-3.24823,-0.324327,4.77711,-3.31016,-0.343061,4.91691,-0.316902,0.656266,0.346544,0.57123,0.238166,0.630138,0.639457,1
1.73061,-0.989489,-1.79182,-1.03341,1.97346,1.21777,-0.820177,1.75057,-1.01542,-1.81426,-1.04697,1.94541,1.19697,-0.842108,1.77582,-1.05521,-1.8288,-1.09245,1.94317,1.15429,-0.883833,-0.269017,0.333939,-0.380199,1.06785,-0.0925297,1.18759,1.08379,-0.151898,0.314885,-0.450509,0.914962,0.134841,1.27596,1.12497,0.519281,-0.463442,0.703355,0.576116,0.157715,0.144841,0.78882,-0.43536,-0.400603,0.367126,2.7749,-0.488618,0.436857,-3.46218,-0.436853,4.53584,-3.33181,-0.356895,4.82575,-0.452082,0.657257,0.36982,0.590425,0.302899,0.634796,0.636555,1
1.73383,-0.985629,-1.79036,-1.02303,1.97526,1.22826,-0.81208,1.74374,-0.999804,-1.7989,-1.0413,1.96055,1.2063,-0.831815,1.77211,-1.05068,-1.83049,-1.08262,1.9418,1.16411,-0.874686,-0.51243,0.625152,-0.0172182,1.06306,-0.196493,0.957854,0.911828,-0.287709,0.418409,-0.304508,1.03183,-0.0275199,1.18666,1.07878,0.514129,-0.46665,0.708322,0.578588,0.15084,0.143755,0.788554,-0.562172,-0.347736,0.639796,2.74232,-0.491699,0.482722,-3.44976,-0.326217,4.8566,-3.33598,-0.358447,4.72217,-0.382894,0.650459,0.401361,0.595855,0.33461,0.641554,0.626063,1
1.72611,-0.980673,-1.79363,-1.01052,1.97581,1.23508,-0.808271,1.73644,-0.9904,-1.79228,-1.03303,1.97061,1.21695,-0.821581,1.76697,-1.04302,-1.82806,-1.07333,1.94165,1.17258,-0.866418,-0.594997,1.00117,0.500773,0.956286,0.136223,0.884697,0.88176,-0.458815,0.653421,0.0344518,1.02906,-0.0509332,1.01005,0.959128,0.507912,-0.468617,0.716293,0.581262,0.142413,0.142303,0.788418,-0.643743,-0.154493,1.00083,2.71088,-0.494776,0.527866,-3.03442,-0.296918,4.35676,-3.3117,-0.35183,4.61881,-0.408622,0.623497,0.344304,0.628122,0.341585,0.625008,0.581473,1
1.71611,-0.968944,-1.78736,-1.00245,1.98431,1.24378,-0.803821,1.73073,-0.984742,-1.79133,-1.02257,1.97497,1.22688,-0.813791,1.76127,-1.0328,-1.82179,-1.06499,1.94504,1.18093,-0.857947,-0.63606,1.19686,0.830416,0.859341,0.562445,0.920373,0.947823,-0.581163,0.941062,0.43799,0.959563,0.167392,0.920975,0.913804,0.500863,-0.469179,0.726853,0.583031,0.132523,0.139211,0.789387,-0.704508,-0.0350995,1.20034,2.67763,-0.497788,0.571799,-3.18301,-0.288447,4.20614,-3.28409,-0.333115,4.52406,-0.451653,0.638571,0.344325,0.625389,0.392744,0.628525,0.541259,1
1.70402,-0.953367,-1.77801,-0.998106,1.99272,1.25159,-0.796133,1.72444,-0.977824,-1.79015,-1.01229,1.97871,1.2355,-0.808096,1.75518,-1.022,-1.81429,-1.057,1.95098,1.18976,-0.848968,-0.679779,1.14632,0.798018,0.869512,0.711997,0.986471,0.99337,-0.636946,1.11478,0.709736,0.895047,0.470222,0.930514,0.940985,0.493253,-0.469459,0.738073,0.584172,0.122171,0.134859,0.790968,-0.745194,-0.0712786,1.16024,2.64462,-0.500953,0.614518,-3.40305,-0.326209,4.40344,-3.25253,-0.307592,4.444,-0.511641,0.68637,0.362795,0.588993,0.417424,0.61828,0.528353,1
1.69588,-0.9416,-1.76935,-0.992504,2.00261,1.25979,-0.786905,1.71543,-0.967316,-1.78565,-1.00405,1.98487,1.24359,-0.80247,1.74899,-1.01218,-1.8079,-1.0486,1.95721,1.19899,-0.840009,-0.662266,0.995071,0.600965,0.944311,0.644123,1.01169,0.950965,-0.659368,1.11275,0.743133,0.891055,0.639522,0.972843,0.964053,0.48551,-0.470303,0.748401,0.585453,0.112192,0.130388,0.792248,-0.739936,-0.14805,1.0216,2.61187,-0.504542,0.655872,-3.29622,-0.361181,4.16205,-3.27168,-0.31863,4.32951,-0.53113,0.705762,0.385527,0.560993,0.454008,0.608024,0.531036,1
1.69182,-0.933243,-1.76407,-0.984556,2.00672,1.27011,-0.77682,1.70562,-0.954768,-1.77829,-0.997721,1.99291,1.25181,-0.7953,1.74285,-1.00334,-1.80302,-1.03964,1.96282,1.20822,-0.831703,-0.667837,0.925403,0.466834,0.99235,0.576252,0.989513,0.856234,-0.669961,1.02226,0.621939,0.935391,0.644124,0.99589,0.933523,0.477828,-0.471693,0.757708,0.587267,0.10272,0.126384,0.792839,-0.743397,-0.190883,0.942788,2.57787,-0.508583,0.69583,-3.40315,-0.404533,4.00025,-3.31776,-0.343673,4.20001,-0.510254,0.700943,0.389536,0.550888,0.438972,0.618852,0.548828,1
1.68892,-0.925245,-1.75956,-0.975709,2.00988,1.27965,-0.767482,1.69773,-0.943139,-1.77071,-0.991489,2.00048,1.26056,-0.786534,1.73625,-0.994492,-1.79868,-1.03062,1.96827,1.2172,-0.824147,-0.755155,0.98572,0.472793,0.963998,0.601993,0.957317,0.786249,-0.695086,0.968731,0.513531,0.966886,0.607456,0.986172,0.864483,0.469931,-0.473212,0.766758,0.589565,0.0934016,0.122766,0.792854,-0.789111,-0.181938,0.963663,2.54581,-0.511732,0.736066,-3.22034,-0.316285,4.04074,-3.30395,-0.355167,4.09845,-0.473286,0.692475,0.391219,0.549156,0.416106,0.624511,0.56665,1
1.68315,-0.915859,-1.7558,-0.967234,2.01364,1.28854,-0.759246,1.69233,-0.933504,-1.76462,-0.984095,2.00604,1.26991,-0.777115,1.72884,-0.984862,-1.79386,-1.02212,1.97421,1.22594,-0.816902,-0.842152,1.0916,0.564914,0.885008,0.678332,0.93849,0.783574,-0.755048,1.00091,0.501514,0.947119,0.618859,0.961773,0.808686,0.461601,-0.474386,0.776184,0.591927,0.0838638,0.11926,0.792696,-0.834697,-0.124365,1.024,2.51244,-0.515038,0.774751,-3.32082,-0.328981,3.84956,-3.30428,-0.353603,4.00661,-0.456897,0.690034,0.380635,0.548847,0.394286,0.625963,0.576557,1
1.67345,-0.905185,-1.75217,-0.958667,2.01984,1.29704,-0.752248,1.68767,-0.924667,-1.7599,-0.975786,2.0102,1.27933,-0.768019,1.72105,-0.974546,-1.78828,-1.01425,1.98067,1.23462,-0.809433,-0.845821,1.13922,0.637439,0.825468,0.718388,0.941025,0.830594,-0.814376,1.07218,0.558382,0.891491,0.666238,0.94561,0.800139,0.453029,-0.47494,0.785976,0.593861,0.0740169,0.115754,0.792749,-0.839019,-0.0544449,1.04901,2.47828,-0.518831,0.812039,-3.45703,-0.383931,3.77391,-3.32617,-0.350349,3.91256,-0.475945,0.693612,0.361117,0.555792,0.391662,0.624244,0.571847,1
1.66296,-0.894246,-1.74753,-0.950384,2.02793,1.30552,-0.745813,1.68145,-0.915273,-1.75583,-0.967241,2.01471,1.28835,-0.759814,1.71361,-0.964164,-1.78236,-1.00666,1.98714,1.24341,-0.801496,-0.771782,1.11214,0.643747,0.818501,0.685564,0.961289,0.884339,-0.819918,1.11432,0.615367,0.842992,0.694095,0.946934,0.832835,0.444589,-0.4749,0.79573,0.595169,0.0639751,0.112354,0.793132,-0.806483,-0.000959699,1.02416,2.4454,-0.522356,0.848402,-3.17524,-0.340417,3.51208,-3.32471,-0.346463,3.81117,-0.506462,0.699187,0.348345,0.562761,0.407877,0.621144,0.556829,1
1.65481,-0.883719,-1.74218,-0.942453,2.03523,1.31432,-0.738739,1.67306,-0.905031,-1.75175,-0.95879,2.02065,1.29703,-0.752496,1.70686,-0.954116,-1.77661,-0.998988,1.99314,1.25236,-0.793188,-0.696089,1.06824,0.606182,0.841599,0.618868,0.978118,0.912948,-0.771231,1.10653,0.629123,0.828523,0.674273,0.960144,0.87596,0.436456,-0.474451,0.805152,0.595993,0.0538664,0.109236,0.793699,-0.773667,0.0295989,0.983927,2.41442,-0.524997,0.884351,-3.10196,-0.264375,3.59928,-3.29806,-0.338473,3.70223,-0.520517,0.703976,0.344265,0.565356,0.420906,0.61952,0.544489,1
1.64815,-0.87362,-1.737,-0.93457,2.04043,1.32317,-0.730517,1.66388,-0.894411,-1.74721,-0.950537,2.02762,1.30564,-0.745537,1.70047,-0.944326,-1.77125,-0.991099,1.99867,1.26139,-0.784794,-0.689842,1.05386,0.559196,0.865427,0.581972,0.97779,0.906088,-0.719238,1.07808,0.603042,0.841842,0.628802,0.972399,0.901125,0.428472,-0.473821,0.814248,0.596682,0.0437695,0.106471,0.794178,-0.774779,0.0351189,0.957851,2.38017,-0.52837,0.917989,-3.53117,-0.347798,3.46827,-3.28383,-0.328287,3.58789,-0.523136,0.707059,0.342434,0.565289,0.417687,0.617786,0.542766,1
1.64213,-0.863316,-1.73062,-0.927553,2.04576,1.33172,-0.721558,1.65556,-0.883892,-1.74213,-0.942547,2.0344,1.31434,-0.738223,1.69379,-0.934518,-1.76625,-0.983039,2.00413,1.27037,-0.77659,-0.751979,1.06959,0.525876,0.879579,0.599406,0.967058,0.87393,-0.712637,1.06389,0.563751,0.862201,0.600082,0.974322,0.897655,0.42032,-0.473209,0.823173,0.597567,0.0337088,0.103965,0.794335,-0.810364,0.0247207,0.950752,2.34874,-0.531112,0.952006,-3.20264,-0.279457,3.46624,-3.24302,-0.305754,3.49521,-0.516552,0.712016,0.356366,0.554857,0.416385,0.613545,0.550318,1
1.63484,-0.85288,-1.72593,-0.920358,2.05074,1.34021,-0.712496,1.64841,-0.873562,-1.73667,-0.934887,2.04033,1.32306,-0.730163,1.6865,-0.924529,-1.76144,-0.974898,2.00988,1.27925,-0.768691,-0.820469,1.09248,0.516274,0.883652,0.643464,0.957414,0.839893,-0.754097,1.07198,0.533782,0.876219,0.608281,0.967421,0.873304,0.411829,-0.472651,0.832056,0.598734,0.0236521,0.10157,0.794129,-0.849652,0.021658,0.952194,2.31607,-0.534128,0.984769,-3.09265,-0.285371,3.10074,-3.24352,-0.296589,3.40388,-0.516657,0.716491,0.355192,0.545395,0.408568,0.609619,0.56195,1
1.62701,-0.842262,-1.72107,-0.913244,2.05676,1.34871,-0.704093,1.64166,-0.863243,-1.73117,-0.927546,2.0457,1.33168,-0.721515,1.67881,-0.914377,-1.75663,-0.966766,2.01595,1.28806,-0.761005,-0.843549,1.10575,0.526076,0.878482,0.669294,0.953091,0.826386,-0.805332,1.08928,0.522742,0.880571,0.637388,0.959188,0.846736,0.403096,-0.471994,0.840919,0.599992,0.0135438,0.0992346,0.793712,-0.864646,0.0426916,0.950926,2.28428,-0.536463,1.01581,-3.27786,-0.240827,3.20075,-3.244,-0.286913,3.29702,-0.518014,0.721141,0.355571,0.53522,0.408079,0.606498,0.569117,1
1.61931,-0.831816,-1.7158,-0.905931,2.06333,1.35729,-0.696516,1.63457,-0.852814,-1.72594,-0.920365,2.05114,1.34022,-0.712788,1.67112,-0.904149,-1.75168,-0.958724,2.02209,1.29685,-0.753309,-0.824008,1.1095,0.544571,0.864668,0.661529,0.950586,0.839609,-0.829342,1.10258,0.528974,0.875601,0.658096,0.953697,0.835296,0.394349,-0.471025,0.849719,0.601051,0.00335434,0.0970228,0.793292,-0.854629,0.0838123,0.943667,2.25253,-0.539433,1.04649,-3.20535,-0.299845,3.09765,-3.19756,-0.274771,3.20809,-0.518097,0.723335,0.358764,0.527934,0.41243,0.604364,0.567939,1
1.61179,-0.821592,-1.71224,-0.897419,2.06784,1.36629,-0.688767,1.62704,-0.842329,-1.72101,-0.913099,2.0569,1.34877,-0.704433,1.66365,-0.893895,-1.74658,-0.95084,2.02808,1.3056,-0.74542,-0.797517,1.11184,0.55909,0.844967,0.639076,0.945889,0.867135,-0.821692,1.10903,0.543246,0.862705,0.656633,0.949855,0.844377,0.385733,-0.46964,0.85841,0.601742,-0.00689708,0.0950258,0.792988,-0.837453,0.128044,0.93237,2.21859,-0.543145,1.07623,-3.35989,-0.36752,2.94373,-3.23841,-0.293711,3.10161,-0.518579,0.723027,0.343431,0.534216,0.397543,0.606821,0.566535,1
1.60488,-0.811703,-1.70925,-0.887888,2.0707,1.37579,-0.681173,1.61942,-0.831931,-1.71645,-0.905405,2.06249,1.35748,-0.696513,1.65633,-0.883605,-1.74141,-0.943135,2.03391,1.31431,-0.737304,-0.789282,1.11686,0.560946,0.825922,0.624913,0.93984,0.889262,-0.803603,1.11273,0.554869,0.845186,0.641839,0.945439,0.865335,0.377248,-0.467878,0.866964,0.602087,-0.0171627,0.0932817,0.792777,-0.827918,0.162028,0.919163,2.18467,-0.548183,1.10471,-3.34399,-0.496567,2.80783,-3.28483,-0.347927,3.00297,-0.514488,0.719014,0.321561,0.552464,0.367901,0.614883,0.561313,1
1.59728,-0.801682,-1.70674,-0.878677,2.0739,1.3851,-0.673281,1.61199,-0.821723,-1.71259,-0.896982,2.06712,1.36649,-0.688796,1.649,-0.873267,-1.73627,-0.935565,2.03968,1.32296,-0.729072,-0.796738,1.12221,0.553364,0.814881,0.624611,0.935986,0.893725,-0.794513,1.11697,0.5578,0.82859,0.629534,0.940572,0.883374,0.368816,-0.465842,0.875372,0.602223,-0.0274131,0.0917668,0.792562,-0.827696,0.184839,0.905769,2.15211,-0.551033,1.13131,-3.24342,-0.283899,2.64987,-3.32196,-0.378889,2.89217,-0.517225,0.715852,0.295297,0.568872,0.342198,0.621371,0.557908,1
1.58972,-0.791376,-1.7023,-0.870655,2.07853,1.39406,-0.665006,1.60466,-0.811657,-1.70935,-0.888019,2.07082,1.37573,-0.681047,1.64161,-0.862901,-1.73124,-0.928015,2.04542,1.33162,-0.720872,-0.804575,1.12331,0.5365,0.820097,0.61908,0.938227,0.883536,-0.796865,1.12079,0.55027,0.8203,0.622868,0.938018,0.888841,0.360379,-0.463618,0.883631,0.602288,-0.0376605,0.0904633,0.792242,-0.831054,0.20067,0.891639,2.11973,-0.554477,1.15806,-3.1324,-0.333144,2.58718,-3.3209,-0.379751,2.78218,-0.518901,0.715248,0.289415,0.573599,0.331112,0.624425,0.558662,1
1.58234,-0.780738,-1.69528,-0.863967,2.08526,1.40226,-0.656398,1.59726,-0.801546,-1.70589,-0.879227,2.07459,1.38491,-0.673098,1.63418,-0.852555,-1.72646,-0.920313,2.05097,1.34033,-0.712782,-0.80487,1.1183,0.502969,0.846247,0.585623,0.948839,0.870018,-0.802061,1.12127,0.530944,0.827075,0.609771,0.941017,0.882427,0.351928,-0.461253,0.891722,0.602394,-0.0479369,0.0894341,0.791723,-0.833927,0.211434,0.874725,2.08962,-0.557228,1.18469,-3.16703,-0.289422,2.80159,-3.22876,-0.344588,2.70267,-0.518344,0.71817,0.311829,0.563462,0.342947,0.619289,0.563844,1
1.57507,-0.769826,-1.68885,-0.858039,2.0916,1.41002,-0.647349,1.5898,-0.791216,-1.70125,-0.871277,2.07939,1.39373,-0.664829,1.62676,-0.84227,-1.72203,-0.912323,2.05611,1.34916,-0.704793,-0.801652,1.11037,0.46005,0.881556,0.533241,0.963492,0.8613,-0.803699,1.11733,0.499839,0.8493,0.579315,0.950186,0.871618,0.343474,-0.458772,0.899623,0.602605,-0.0582609,0.0887749,0.790944,-0.835889,0.220269,0.856094,2.05691,-0.559831,1.20879,-3.28053,-0.261042,2.41686,-3.18007,-0.294915,2.61533,-0.516883,0.724437,0.331745,0.542845,0.354901,0.60855,0.574442,1
1.56814,-0.759392,-1.68471,-0.850556,2.09529,1.4184,-0.6388,1.58241,-0.780644,-1.69548,-0.864238,2.08508,1.40209,-0.656243,1.61936,-0.83204,-1.7179,-0.904084,2.06086,1.3581,-0.696842,-0.801579,1.10604,0.435874,0.90161,0.497998,0.972272,0.861208,-0.8027,1.11157,0.466297,0.876471,0.538954,0.961534,0.864176,0.335027,-0.456154,0.907343,0.602872,-0.0686263,0.0884787,0.789941,-0.83662,0.234931,0.840687,2.02475,-0.562587,1.23209,-3.30772,-0.283494,2.39681,-3.1753,-0.284625,2.52287,-0.51223,0.726476,0.331964,0.535282,0.344252,0.602916,0.580417,1
1.56103,-0.74905,-1.68118,-0.842604,2.09904,1.42684,-0.630285,1.57519,-0.769994,-1.68978,-0.857474,2.09059,1.41023,-0.647511,1.61195,-0.82181,-1.71378,-0.895817,2.06549,1.36706,-0.688842,-0.803561,1.10966,0.454679,0.890098,0.504025,0.967326,0.870949,-0.802264,1.10869,0.450201,0.891088,0.511755,0.967696,0.864486,0.326604,-0.453317,0.914936,0.603015,-0.0790172,0.0883924,0.78887,-0.833297,0.26324,0.832549,1.99268,-0.565489,1.25469,-3.17519,-0.287353,2.23766,-3.18955,-0.273839,2.40666,-0.509184,0.727595,0.326012,0.532138,0.335527,0.597852,0.585564,1
1.55359,-0.738976,-1.6794,-0.833724,2.10097,1.43606,-0.622283,1.56807,-0.759473,-1.68519,-0.850225,2.09503,1.41851,-0.638876,1.60454,-0.811515,-1.70935,-0.88778,2.0703,1.3759,-0.680717,-0.802412,1.11971,0.502823,0.853904,0.536065,0.949804,0.887698,-0.802517,1.1118,0.464459,0.881871,0.512696,0.963134,0.873285,0.318245,-0.450159,0.922455,0.602822,-0.0894106,0.0883495,0.787912,-0.823257,0.302981,0.828505,1.96059,-0.570101,1.27656,-3.10649,-0.446332,2.11632,-3.22298,-0.314044,2.29638,-0.509424,0.72539,0.299432,0.540565,0.306665,0.601633,0.584335,1
1.54523,-0.728495,-1.67541,-0.826425,2.10698,1.44437,-0.61369,1.56084,-0.749131,-1.68174,-0.842325,2.09862,1.42708,-0.630443,1.59716,-0.801129,-1.70454,-0.880068,2.07534,1.38457,-0.672439,-0.79663,1.1293,0.535266,0.819532,0.553137,0.930551,0.90416,-0.800868,1.11956,0.497589,0.854511,0.531076,0.949227,0.887602,0.310005,-0.446645,0.929897,0.602227,-0.0997665,0.0883432,0.787124,-0.808403,0.340904,0.820269,1.92813,-0.571823,1.29673,-3.30636,-0.175398,2.05518,-3.21723,-0.314972,2.2035,-0.519244,0.726341,0.291332,0.536433,0.316464,0.597988,0.587481,1
1.53652,-0.717908,-1.67196,-0.819791,2.11298,1.45275,-0.60522,1.55321,-0.738833,-1.67872,-0.8343,2.10239,1.43577,-0.622101,1.58984,-0.790688,-1.69965,-0.872551,2.08034,1.39312,-0.664047,-0.789423,1.1322,0.524528,0.809794,0.532846,0.921027,0.912975,-0.796155,1.12707,0.520872,0.827743,0.540683,0.933794,0.901611,0.30191,-0.44284,0.937202,0.601364,-0.110045,0.0885304,0.786393,-0.794731,0.36567,0.804009,1.8957,-0.574869,1.31539,-3.15618,-0.296472,1.81569,-3.22659,-0.308973,2.08637,-0.533189,0.727794,0.276924,0.527594,0.326366,0.596346,0.588272,1
1.52811,-0.707211,-1.66918,-0.813582,2.11774,1.46106,-0.596471,1.54506,-0.728423,-1.67552,-0.8268,2.10715,1.44434,-0.613682,1.58256,-0.780252,-1.69502,-0.865009,2.08506,1.40163,-0.655617,-0.78778,1.1288,0.481899,0.822777,0.491808,0.92309,0.913104,-0.791278,1.1301,0.513897,0.817368,0.52593,0.924889,0.91008,0.293937,-0.438858,0.94431,0.600441,-0.120233,0.0890684,0.785545,-0.787346,0.376974,0.782844,1.86368,-0.577679,1.33366,-3.29509,-0.289194,1.88105,-3.22888,-0.291474,1.96781,-0.544494,0.730407,0.258471,0.514277,0.326782,0.594327,0.591463,1
1.51993,-0.696832,-1.66718,-0.807073,2.11994,1.46971,-0.587824,1.53663,-0.71788,-1.67229,-0.819973,2.11235,1.45275,-0.605129,1.57523,-0.769849,-1.69079,-0.857347,2.08948,1.41018,-0.6472,-0.798853,1.12498,0.438079,0.835935,0.46815,0.928345,0.910372,-0.792019,1.12866,0.481502,0.822835,0.497601,0.924154,0.91215,0.286026,-0.434783,0.951203,0.599578,-0.130329,0.0899713,0.784491,-0.786869,0.382482,0.762021,1.83225,-0.581235,1.35205,-3.13832,-0.35514,1.83576,-3.21111,-0.281253,1.87919,-0.552996,0.730172,0.236116,0.502736,0.304563,0.595364,0.593765,1
1.51268,-0.686869,-1.66738,-0.799365,2.11927,1.47953,-0.579147,1.52827,-0.707349,-1.66965,-0.813421,2.11652,1.46126,-0.59649,1.56774,-0.759459,-1.68688,-0.849663,2.09387,1.41875,-0.638793,-0.822419,1.12572,0.412122,0.829262,0.48184,0.928106,0.910812,-0.803017,1.1265,0.444033,0.829325,0.480599,0.926514,0.911429,0.278132,-0.430638,0.957896,0.598748,-0.140321,0.0911218,0.783267,-0.788784,0.390123,0.743687,1.79959,-0.584371,1.36762,-3.26155,-0.313112,1.55434,-3.20532,-0.314642,1.78434,-0.550519,0.725899,0.194933,0.502972,0.253948,0.607859,0.596458,1
1.50554,-0.676987,-1.66685,-0.792017,2.11892,1.48884,-0.569849,1.5203,-0.697013,-1.66801,-0.806627,2.11872,1.47014,-0.58778,1.56001,-0.749043,-1.68316,-0.842134,2.09843,1.42729,-0.630362,-0.848317,1.1303,0.394267,0.803786,0.504876,0.923367,0.915214,-0.823196,1.127,0.414823,0.822994,0.484955,0.926606,0.912133,0.270266,-0.426396,0.964401,0.597868,-0.150174,0.0924371,0.781957,-0.785781,0.402816,0.725007,1.76699,-0.588486,1.38256,-3.25429,-0.410833,1.49168,-3.21513,-0.339277,1.68294,-0.544731,0.72056,0.163151,0.501163,0.204839,0.615465,0.605133,1
1.4978,-0.666833,-1.66267,-0.786439,2.12294,1.49689,-0.560068,1.51274,-0.686908,-1.66702,-0.799536,2.11948,1.47934,-0.578882,1.5521,-0.738592,-1.67968,-0.834846,2.10302,1.43582,-0.621883,-0.864296,1.13322,0.363612,0.777107,0.489687,0.922845,0.92104,-0.845011,1.12975,0.390001,0.803385,0.492134,0.924773,0.915689,0.2625,-0.422017,0.970697,0.596911,-0.159856,0.0940104,0.78058,-0.773554,0.418412,0.702176,1.73516,-0.590341,1.39703,-3.16096,-0.184222,1.43753,-3.22304,-0.325758,1.57245,-0.543045,0.717596,0.170031,0.48407,0.199169,0.610712,0.618144,1
1.48846,-0.656787,-1.66183,-0.781008,2.13069,1.50539,-0.551289,1.50522,-0.676897,-1.66565,-0.792713,2.12081,1.48836,-0.569692,1.54412,-0.728149,-1.67658,-0.82773,2.10718,1.44439,-0.613348,-0.864104,1.1294,0.310975,0.765449,0.418424,0.934019,0.927407,-0.858906,1.13098,0.356285,0.782114,0.470996,0.926744,0.92122,0.254928,-0.417478,0.976737,0.595928,-0.169356,0.0960619,0.779076,-0.753447,0.433068,0.674446,1.70311,-0.59348,1.4105,-3.11246,-0.304835,1.30835,-3.22707,-0.304593,1.46328,-0.556642,0.713619,0.147545,0.467213,0.235096,0.610005,0.620586,1
1.47903,-0.647142,-1.66381,-0.775475,2.13459,1.51449,-0.543561,1.49716,-0.666881,-1.66387,-0.786599,2.12437,1.49702,-0.560479,1.53621,-0.717772,-1.674,-0.820659,2.11057,1.4531,-0.604734,-0.851207,1.11951,0.25327,0.766204,0.323159,0.951562,0.93773,-0.859869,1.12738,0.309286,0.769587,0.410423,0.936142,0.928726,0.247608,-0.412779,0.982495,0.594962,-0.178689,0.0987447,0.777393,-0.729873,0.446478,0.645811,1.67128,-0.596881,1.42295,-3.43174,-0.366609,1.34211,-3.20491,-0.300124,1.38622,-0.571781,0.706299,0.101926,0.451839,0.240207,0.613877,0.611726,1
1.46976,-0.638127,-1.6669,-0.770345,2.14025,1.52321,-0.535987,1.48834,-0.656983,-1.66316,-0.781004,2.12959,1.50562,-0.551756,1.5284,-0.707486,-1.67181,-0.813624,2.1133,1.46193,-0.595995,-0.840845,1.10957,0.223598,0.758513,0.272365,0.95904,0.954096,-0.852052,1.11949,0.262614,0.763389,0.337983,0.948207,0.939745,0.240534,-0.40793,0.987993,0.593948,-0.187865,0.101958,0.775588,-0.70907,0.460357,0.622235,1.64038,-0.599615,1.43461,-3.06317,-0.271032,1.15495,-3.17111,-0.28797,1.30019,-0.586395,0.693585,0.049103,0.432792,0.269492,0.612839,0.600083,1
1.46235,-0.630039,-1.67464,-0.766089,2.14244,1.53336,-0.528782,1.4792,-0.647461,-1.66469,-0.775674,2.13479,1.51447,-0.543708,1.52059,-0.697277,-1.66979,-0.806758,2.11598,1.47075,-0.587124,-0.850163,1.10255,0.214709,0.731227,0.304497,0.952862,0.966499,-0.847405,1.11054,0.230525,0.751981,0.300007,0.954488,0.952775,0.233633,-0.402981,0.993275,0.592789,-0.19686,0.105386,0.773783,-0.696866,0.468578,0.602072,1.60783,-0.602709,1.44493,-2.95213,-0.280581,0.936684,-3.17397,-0.308692,1.199,-0.58249,0.672381,-0.0485078,0.40669,0.264648,0.626083,0.583424,1
1.45246,-0.619067,-1.68815,-0.766253,2.1451,1.54792,-0.518457,1.47031,-0.638334,-1.66907,-0.770974,2.13909,1.524,-0.53594,1.50887,-0.682512,-1.66726,-0.79724,2.12076,1.48352,-0.574167,-0.744857,0.925942,0.148575,0.588882,0.320342,0.801481,0.81291,-0.811955,1.04602,0.195627,0.692874,0.299068,0.904461,0.911169,0.226827,-0.398052,0.998335,0.59154,-0.2056,0.108799,0.771992,-0.691564,0.461403,0.575872,1.57607,-0.605846,1.45449,-3.556,-0.351288,1.06973,-3.17549,-0.305607,1.09947,-0.564149,0.634451,-0.208938,0.309865,0.243415,0.644021,0.557106,1
1.44569,-0.617524,-1.7043,-0.760619,2.1544,1.55813,-0.516408,1.46173,-0.629605,-1.67726,-0.767439,2.14281,1.53483,-0.528152,1.50046,-0.672576,-1.66653,-0.791127,2.12474,1.4923,-0.565533,-0.771109,0.910942,0.0667738,0.560474,0.364777,0.804419,0.791639,-0.78871,0.979811,0.143352,0.626861,0.329872,0.852921,0.857016,0.217087,-0.39113,1.00518,0.589927,-0.217716,0.113861,0.769169,-0.573984,0.377257,0.45109,1.54402,-0.609302,1.46254,-3.26566,-0.352205,0.820779,-3.18827,-0.310743,0.990579,-0.547737,0.550523,-0.377684,0.305077,0.296582,0.658304,0.491252,1
1.44401,-0.613739,-1.71931,-0.76008,2.13711,1.56893,-0.51549,1.45379,-0.622282,-1.68943,-0.764674,2.14596,1.5466,-0.521436,1.49192,-0.662869,-1.66725,-0.785414,2.12881,1.50128,-0.557144,-0.783537,0.889934,-0.0660315,0.523757,0.372996,0.823887,0.769111,-0.766501,0.908939,0.0497724,0.557705,0.352705,0.809929,0.79122,0.213636,-0.388774,1.00741,0.589565,-0.221854,0.115956,0.767951,-0.657476,0.408186,0.483791,1.51244,-0.612208,1.47041,-3.13938,-0.288834,0.78213,-3.19675,-0.317789,0.89216,-0.479046,0.491309,-0.52054,0.25334,0.0830892,0.676444,0.416542,1
1.44117,-0.615884,-1.72836,-0.737361,2.13612,1.57679,-0.519965,1.44772,-0.617643,-1.70367,-0.760781,2.14586,1.55789,-0.517686,1.48336,-0.65344,-1.67009,-0.780319,2.13278,1.51079,-0.548926,-0.784508,0.864531,-0.260097,0.467173,0.364088,0.871892,0.75349,-0.779718,0.888469,-0.0864516,0.517135,0.367287,0.8334,0.771413,0.204864,-0.382727,1.01271,0.58893,-0.23229,0.122321,0.764356,-0.518239,0.316555,0.346492,1.48089,-0.615023,1.47738,-3.16398,-0.282291,0.699236,-3.17501,-0.309899,0.808203,-0.421911,0.375559,-0.582744,0.429576,0.0334487,0.659935,0.289611,1
1.43595,-0.604742,-1.73271,-0.732054,2.11314,1.58198,-0.518533,1.44374,-0.614992,-1.71671,-0.753169,2.14019,1.56769,-0.517214,1.47882,-0.648657,-1.67306,-0.777917,2.1348,1.51629,-0.544706,-0.907872,0.956677,-0.593875,0.480374,0.404692,1.09948,0.844061,-0.825306,0.903714,-0.306668,0.490435,0.380592,0.931754,0.788887,0.20199,-0.380905,1.01411,0.589093,-0.23559,0.125145,0.762762,-0.564916,0.298579,0.319389,1.44915,-0.618142,1.48263,-2.92459,-0.287426,0.483536,-3.16966,-0.303125,0.711253,-0.428667,0.439143,-0.596524,0.458629,-0.216578,0.656857,0.261725,1
1.4268,-0.585795,-1.73439,-0.721985,2.1075,1.5914,-0.502149,1.43996,-0.610784,-1.72606,-0.742207,2.12998,1.57587,-0.517152,1.47079,-0.640468,-1.67988,-0.773565,2.13795,1.52662,-0.537534,-0.836932,0.827941,-0.862597,0.463715,0.287061,1.13457,0.719929,-0.843104,0.883049,-0.57219,0.470421,0.351947,1.03531,0.772494,0.197048,-0.378,1.0162,0.589895,-0.241167,0.130702,0.75946,-0.508948,0.201231,0.219682,1.41725,-0.622172,1.48767,-3.27332,-0.413501,0.516719,-3.16845,-0.316749,0.624707,-0.439948,0.546734,-0.54507,0.515799,-0.304484,0.647839,0.353852,1
1.42331,-0.582551,-1.73951,-0.721246,2.13011,1.60463,-0.485224,1.43468,-0.601966,-1.73163,-0.73194,2.12003,1.58363,-0.512523,1.46364,-0.633591,-1.68863,-0.768773,2.13932,1.53699,-0.531835,-0.721765,0.67464,-1.0186,0.565985,0.0314531,1.11386,0.530359,-0.82219,0.819753,-0.825024,0.503358,0.241069,1.11597,0.698117,0.192646,-0.375919,1.01756,0.591797,-0.246,0.136828,0.75534,-0.471136,0.116811,0.155046,1.38611,-0.624346,1.49101,-2.93622,-0.204921,0.315649,-3.16314,-0.314251,0.514929,-0.403349,0.510399,-0.508773,0.475273,-0.0921452,0.676402,0.466113,1
1.413,-0.610714,-1.75754,-0.720356,2.16867,1.61492,-0.482119,1.42825,-0.593159,-1.73632,-0.725177,2.12017,1.59291,-0.501875,1.45742,-0.627673,-1.69802,-0.762667,2.138,1.54695,-0.527681,-0.633365,0.612599,-1.01691,0.742146,-0.290934,1.04901,0.381904,-0.730687,0.70506,-0.966038,0.590615,0.0091934,1.09915,0.544064,0.188534,-0.374169,1.01867,0.594749,-0.250559,0.143653,0.750239,-0.463607,0.114297,0.16487,1.35437,-0.627755,1.49349,-3.08718,-0.331646,0.240697,-3.16086,-0.316679,0.405958,-0.444231,0.169591,-0.595115,0.423108,0.306684,0.679717,0.455622,1
1.4163,-0.621953,-1.77636,-0.714578,2.17071,1.62272,-0.504539,1.42195,-0.594252,-1.74461,-0.721467,2.13557,1.60361,-0.491968,1.44905,-0.618528,-1.71063,-0.751706,2.13202,1.56053,-0.522226,-0.521337,0.600745,-0.761615,0.716982,-0.434893,0.838169,0.351959,-0.625489,0.629328,-0.932377,0.675037,-0.231458,1.00035,0.421407,0.184519,-0.371834,1.02014,0.597985,-0.255314,0.151427,0.744512,-0.462468,0.220341,0.236242,1.32288,-0.630677,1.49498,-3.41322,-0.316647,0.161199,-3.15422,-0.306513,0.30513,-0.327584,-0.0342494,-0.657295,0.371279,0.386906,0.621904,0.176874,1
1.39954,-0.610902,-1.78334,-0.69265,2.15316,1.62394,-0.543308,1.41642,-0.604937,-1.7579,-0.717504,2.15475,1.61339,-0.493576,1.44316,-0.611337,-1.71792,-0.744186,2.12866,1.56971,-0.516457,-0.540716,0.659366,-0.667582,0.689515,-0.308002,0.841575,0.528931,-0.56514,0.624237,-0.815371,0.716214,-0.344609,0.909584,0.420931,0.178581,-0.367159,1.02299,0.601233,-0.262711,0.163225,0.73679,-0.396105,0.243856,0.228864,1.29125,-0.633715,1.49528,-3.5101,-0.337158,0.0336285,-3.15229,-0.29416,0.191867,-0.436199,0.0043409,-0.654268,0.515362,0.244994,0.542296,-0.26851,1
1.40173,-0.588863,-1.78798,-0.685741,2.11787,1.62865,-0.545971,1.41081,-0.61185,-1.77182,-0.709155,2.15997,1.62031,-0.510009,1.4399,-0.608714,-1.72201,-0.740698,2.12973,1.57491,-0.512698,-0.650962,0.524542,-0.819715,0.697535,0.212082,1.04089,0.751897,-0.571005,0.594884,-0.749638,0.701344,-0.176938,0.906878,0.544262,0.17606,-0.366447,1.02361,0.601807,-0.265199,0.165926,0.734824,-0.510753,0.0873344,0.161381,1.25976,-0.637183,1.49502,-2.99713,-0.330198,-0.0242174,-3.15807,-0.316352,0.0981116,-0.381707,0.198508,-0.659618,0.549569,-0.118526,0.537404,-0.332732,1
1.39461,-0.57844,-1.79563,-0.69861,2.14466,1.62759,-0.531598,1.40481,-0.606115,-1.78191,-0.698509,2.14917,1.62447,-0.529725,1.43396,-0.606255,-1.73046,-0.734638,2.13433,1.58455,-0.507068,-0.636346,0.0477891,-0.995329,0.621478,0.740672,1.04613,0.489374,-0.609342,0.410566,-0.827542,0.669509,0.214917,0.976199,0.590067,0.171087,-0.367079,1.02383,0.603567,-0.269141,0.168857,0.731271,-0.565793,-0.276444,-0.0368235,1.22822,-0.639949,1.49319,-3.06129,-0.268387,-0.178169,-3.15413,-0.308943,-0.00551224,-0.393495,0.278144,-0.651704,0.360277,0.103336,0.430453,-0.245296,1
1.42106,-0.61314,-1.80673,-0.731297,2.18246,1.63833,-0.540159,1.40152,-0.595353,-1.78918,-0.695335,2.14073,1.62744,-0.538759,1.42813,-0.606942,-1.74038,-0.728499,2.14092,1.59379,-0.505766,-0.628246,-0.177995,-1.14063,0.701655,0.691224,0.962161,-0.153864,-0.638518,0.131446,-0.985225,0.673556,0.547992,1.01639,0.362469,0.165707,-0.370237,1.02293,0.607601,-0.272255,0.169419,0.726633,-0.598082,-0.44172,-0.117554,1.19685,-0.643039,1.49076,-3.09383,-0.304742,-0.239081,-3.15087,-0.309589,-0.105135,-0.0707201,-0.0619761,-0.663546,-0.0279753,0.41546,0.445445,-0.343921,1
1.39106,-0.651463,-1.81883,-0.697713,2.18862,1.63753,-0.555298,1.40309,-0.596314,-1.79717,-0.703136,2.15069,1.63093,-0.539545,1.4223,-0.607453,-1.75084,-0.721381,2.14466,1.60194,-0.509996,-0.634395,0.0485495,-1.12702,0.829623,0.163439,0.817221,-0.715613,-0.632996,-0.0272186,-1.08766,0.717585,0.531778,0.941838,-0.126701,0.160497,-0.373109,1.0222,0.614265,-0.275283,0.170699,0.719556,-0.564448,-0.259084,-0.00971871,1.16574,-0.645899,1.48783,-3.10275,-0.285315,-0.29233,-3.13928,-0.302248,-0.191507,-0.312392,-0.440096,-0.679884,0.23668,0.439608,0.355834,-0.453019,1
1.37018,-0.644,-1.83108,-0.692266,2.15594,1.65293,-0.562511,1.40256,-0.614457,-1.80733,-0.709443,2.16886,1.63575,-0.543563,1.41684,-0.605421,-1.76076,-0.714411,2.14464,1.60879,-0.516975,-0.555483,0.36521,-1.03065,0.691891,-0.141849,0.676649,-0.790127,-0.606041,0.0785883,-1.09943,0.741056,0.237605,0.818677,-0.553201,0.156317,-0.373783,1.02237,0.621553,-0.278366,0.174138,0.711239,-0.418441,-0.00231455,0.0940119,1.13473,-0.648561,1.48394,-3.22689,-0.277012,-0.404918,-3.12543,-0.287067,-0.275195,-0.466528,-0.385785,-0.703219,0.221444,0.112949,0.441402,-0.455357,1
1.36363,-0.614731,-1.83983,-0.679458,2.15407,1.65662,-0.563201,1.39185,-0.633157,-1.81873,-0.703663,2.174,1.64215,-0.552329,1.41274,-0.602715,-1.77005,-0.710201,2.14506,1.61461,-0.523271,-0.349862,0.232177,-0.983997,0.256246,0.204197,0.592062,-0.590261,-0.513247,0.215312,-1.04722,0.592587,0.0752623,0.695311,-0.698667,0.153683,-0.373754,1.02244,0.627236,-0.280562,0.177459,0.704535,-0.232594,-0.0654147,-0.0229375,1.10357,-0.651798,1.47856,-2.86798,-0.297826,-0.495553,-3.11418,-0.292197,-0.360837,-0.491059,-0.120165,-0.69781,0.307425,0.0900503,0.420127,-0.399304,1
1.3904,-0.623055,-1.84598,-0.663852,2.19428,1.66057,-0.572568,1.37821,-0.635311,-1.82961,-0.69109,2.1677,1.64957,-0.560112,1.40992,-0.603686,-1.77929,-0.709166,2.14945,1.61998,-0.528501,-0.266963,-0.390698,-1.01689,-0.0100244,0.704007,0.572175,-0.546335,-0.390769,0.0688961,-1.01051,0.312704,0.255452,0.613629,-0.642241,0.151727,-0.376391,1.02083,0.631711,-0.28102,0.177557,0.700316,-0.225172,-0.486776,-0.298272,1.07264,-0.655094,1.47252,-3.25881,-0.347323,-0.635822,-3.10588,-0.30008,-0.457573,-0.195221,-0.193698,-0.66688,0.453141,0.448316,0.405905,-0.440669,1
1.42396,-0.64862,-1.85566,-0.666528,2.20842,1.66995,-0.58026,1.37744,-0.628543,-1.83886,-0.679092,2.17014,1.65632,-0.565943,1.40619,-0.60961,-1.78899,-0.708357,2.15574,1.62543,-0.534116,-0.520178,-0.854078,-1.07865,0.170285,0.662456,0.606421,-0.660593,-0.379001,-0.337533,-1.02651,0.138836,0.523553,0.590219,-0.599063,0.148678,-0.382696,1.01745,0.637311,-0.280191,0.175027,0.696199,-0.440238,-0.821636,-0.450447,1.04089,-0.658661,1.4648,-3.25139,-0.365296,-0.790405,-3.11796,-0.320561,-0.574765,0.177665,-0.390106,-0.666651,0.418295,0.526762,0.445192,-0.461434,1
1.36976,-0.66825,-1.86869,-0.679509,2.17963,1.682,-0.589093,1.38954,-0.631499,-1.84735,-0.671177,2.18445,1.66279,-0.572554,1.40003,-0.616615,-1.79909,-0.705096,2.15995,1.63131,-0.540474,-0.791536,-0.678106,-1.10708,0.508045,0.280986,0.66221,-0.712291,-0.526226,-0.640961,-1.06754,0.222769,0.54915,0.613602,-0.63974,0.143929,-0.38981,1.01394,0.644808,-0.279585,0.17336,0.689928,-0.620539,-0.716099,-0.336347,1.00918,-0.661949,1.45721,-3.20433,-0.332238,-0.767399,-3.13793,-0.336397,-0.672188,-0.302707,-0.516343,-0.695998,0.255877,0.196861,0.506943,-0.486194,1
1.35853,-0.660584,-1.88,-0.709611,2.14575,1.69576,-0.594012,1.39416,-0.645766,-1.85703,-0.672605,2.19037,1.6714,-0.580339,1.39373,-0.620876,-1.80916,-0.699284,2.16252,1.63752,-0.546936,-0.590559,-0.278105,-1.07701,0.732404,0.276535,0.681998,-0.689401,-0.634091,-0.60343,-1.08758,0.470245,0.406659,0.65021,-0.687428,0.138674,-0.394776,1.01179,0.65245,-0.280496,0.173532,0.682289,-0.576582,-0.413259,-0.134826,0.97794,-0.665011,1.44813,-3.20014,-0.313681,-0.930075,-3.14723,-0.332826,-0.761664,-0.351943,-0.397081,-0.708337,-0.103266,-0.167703,0.582389,-0.470762,1
1.34444,-0.658679,-1.88792,-0.674238,2.15836,1.68694,-0.600804,1.38021,-0.658003,-1.86804,-0.682481,2.17794,1.6814,-0.587814,1.39097,-0.623503,-1.81888,-0.692345,2.16688,1.64384,-0.553339,-0.0517404,-0.29003,-1.03249,0.767788,0.637334,0.687163,-0.696952,-0.477945,-0.415414,-1.07219,0.669412,0.398285,0.677124,-0.699548,0.134295,-0.398111,1.01053,0.658555,-0.282843,0.172959,0.675567,-0.404275,-0.346974,-0.118618,0.946965,-0.667519,1.43759,-2.8998,-0.234787,-0.986521,-3.14301,-0.312004,-0.865326,-0.465246,-0.351761,-0.690349,0.181067,-0.085163,0.43099,-0.47465,1
1.38286,-0.672063,-1.89385,-0.653958,2.20989,1.68821,-0.610324,1.36343,-0.661994,-1.8785,-0.687071,2.1653,1.68803,-0.59464,1.39127,-0.62796,-1.82844,-0.686564,2.17277,1.65054,-0.559981,0.10465,-0.645879,-1.03702,0.506326,0.638591,0.756722,-0.738448,-0.179217,-0.404671,-1.04884,0.66884,0.517487,0.708628,-0.708267,0.131049,-0.402254,1.00838,0.663521,-0.285005,0.170565,0.670388,-0.294057,-0.540685,-0.321835,0.915634,-0.670438,1.42626,-3.15423,-0.293822,-1.14082,-3.1272,-0.291225,-0.967014,-0.0841411,-0.441032,-0.654118,0.326059,0.371187,0.376784,-0.503439,1
1.42515,-0.683283,-1.90396,-0.644927,2.22249,1.70668,-0.615624,1.3642,-0.664637,-1.88722,-0.676509,2.17343,1.69039,-0.60168,1.38995,-0.634886,-1.83823,-0.684123,2.17585,1.65799,-0.566899,-0.353294,-0.838523,-1.08121,0.0595615,0.0759527,0.84927,-0.758639,-0.100128,-0.591477,-1.05024,0.444559,0.450626,0.764385,-0.731347,0.128367,-0.408025,1.00444,0.668884,-0.285266,0.169008,0.665322,-0.309007,-0.692202,-0.522857,0.884533,-0.673461,1.41411,-3.12282,-0.303603,-1.22012,-3.11591,-0.284501,-1.08068,0.35196,-0.483968,-0.657208,0.39196,0.466392,0.486899,-0.487247,1
1.37424,-0.703626,-1.91705,-0.663604,2.18666,1.71332,-0.623638,1.38177,-0.672777,-1.89548,-0.660851,2.1947,1.69455,-0.609082,1.38461,-0.642052,-1.84829,-0.684362,2.1745,1.66564,-0.573876,-0.768458,-0.723364,-1.09571,-0.0982567,-0.333842,0.812214,-0.753195,-0.339034,-0.735922,-1.07131,0.155877,0.1269,0.806069,-0.750094,0.125547,-0.41418,0.999654,0.675282,-0.283763,0.170206,0.659168,-0.385299,-0.654358,-0.523625,0.854024,-0.676134,1.40083,-3.18961,-0.279427,-1.38852,-3.10264,-0.28188,-1.18088,-0.103716,-0.615739,-0.687622,0.20758,0.121596,0.476786,-0.49762,1
1.33881,-0.712648,-1.92944,-0.721849,2.20089,1.70475,-0.635832,1.39141,-0.685861,-1.90529,-0.658494,2.20502,1.70237,-0.616639,1.37872,-0.648111,-1.85819,-0.683509,2.17314,1.67235,-0.580842,-0.527001,-0.599475,-1.05304,0.253907,0.0103694,0.654369,-0.755846,-0.549585,-0.720454,-1.07665,0.0717373,-0.0825068,0.771951,-0.755893,0.122263,-0.419654,0.995569,0.681907,-0.282443,0.171784,0.652471,-0.417103,-0.555606,-0.37732,0.823237,-0.679312,1.38691,-3.05556,-0.315396,-1.38133,-3.09065,-0.29282,-1.26797,-0.399176,-0.645378,-0.712461,-0.3834,0.277455,0.323973,-0.549895,1
1.33663,-0.719836,-1.93624,-0.701887,2.19433,1.70751,-0.640768,1.3763,-0.699836,-1.91662,-0.675286,2.20111,1.70758,-0.624921,1.3773,-0.654045,-1.86769,-0.679121,2.17649,1.6781,-0.587886,0.161919,-0.679478,-1.00803,0.662679,0.66047,0.596689,-0.768839,-0.377847,-0.667439,-1.05226,0.272776,0.112332,0.687757,-0.759293,0.118988,-0.424666,0.992485,0.687543,-0.282882,0.170315,0.646726,-0.323031,-0.530978,-0.302345,0.792323,-0.682331,1.37171,-3.14847,-0.307507,-1.54833,-3.07917,-0.296377,-1.36306,-0.406703,-0.657912,-0.685542,-0.227667,0.178461,0.294106,-0.528823,1
1.34393,-0.719615,-1.94396,-0.689982,2.22455,1.69832,-0.646987,1.35284,-0.71079,-1.92736,-0.695498,2.19852,1.7073,-0.633452,1.38005,-0.661364,-1.87707,-0.67358,2.18324,1.68397,-0.595054,0.412003,-0.888602,-1.02366,0.547226,0.790357,0.66749,-0.782948,0.0156402,-0.722518,-1.02825,0.487938,0.487066,0.639516,-0.769211,0.116413,-0.430166,0.989149,0.692091,-0.284129,0.166118,0.642406,-0.210722,-0.627491,-0.42473,0.761534,-0.68519,1.35557,-2.99404,-0.277959,-1.56925,-3.07699,-0.296538,-1.46199,-0.361233,-0.582511,-0.668849,-0.164022,0.41314,0.143566,-0.519327,1
1.36293,-0.736156,-1.952,-0.675752,2.24019,1.71182,-0.654517,1.34299,-0.717991,-1.93626,-0.699875,2.20591,1.70516,-0.640877,1.38095,-0.670453,-1.88681,-0.671881,2.18881,1.68998,-0.602444,-0.168761,-1.0658,-1.08135,-0.123491,0.446025,0.638428,-0.815307,0.135054,-0.87796,-1.03768,0.362138,0.632284,0.634202,-0.789031,0.114328,-0.437091,0.984197,0.696939,-0.283303,0.162243,0.638508,-0.235877,-0.811961,-0.662484,0.730559,-0.688235,1.33866,-3.04115,-0.299021,-1.66042,-3.08634,-0.3008,-1.5568,-0.180224,-0.657021,-0.651896,-0.0387099,0.51382,0.218364,-0.520727,1
1.34787,-0.750367,-1.96338,-0.683574,2.23716,1.73026,-0.663799,1.34678,-0.725292,-1.94435,-0.690992,2.22022,1.70639,-0.647668,1.37603,-0.680464,-1.89691,-0.675949,2.1919,1.69493,-0.610125,-0.841201,-1.1,-1.1044,-0.709086,0.240237,0.448775,-0.846109,-0.19932,-1.01814,-1.0698,-0.095117,0.492206,0.584898,-0.814788,0.111954,-0.445482,0.977648,0.703115,-0.278991,0.160038,0.634177,-0.338796,-0.930284,-0.805683,0.699823,-0.689986,1.32044,-3.08053,-0.17546,-1.82594,-3.08593,-0.27252,-1.6599,-0.281612,-0.699032,-0.664745,-0.076245,0.452585,0.353277,-0.536736,1
1.31977,-0.760117,-1.97716,-0.72566,2.21804,1.74135,-0.672691,1.35007,-0.736051,-1.95342,-0.686018,2.23127,1.71463,-0.655232,1.36794,-0.690166,-1.90691,-0.682163,2.19491,1.69811,-0.617878,-0.905011,-1.00929,-1.06456,-0.642483,0.399073,0.255714,-0.834268,-0.638324,-1.05836,-1.08344,-0.491687,0.361778,0.447639,-0.831895,0.108933,-0.454237,0.970879,0.710067,-0.273005,0.158186,0.629484,-0.404061,-0.88888,-0.740491,0.669006,-0.693294,1.30034,-3.06871,-0.329405,-2.0015,-3.08347,-0.267218,-1.77866,-0.481702,-0.699509,-0.702533,-0.434976,0.231267,0.432393,-0.548136,1
1.30763,-0.761099,-1.98899,-0.741727,2.17844,1.75356,-0.675486,1.34185,-0.748,-1.96437,-0.696175,2.22868,1.72788,-0.663381,1.36145,-0.699174,-1.91647,-0.68582,2.20023,1.70029,-0.62544,-0.532233,-0.947367,-1.01122,-0.187608,0.72509,0.221165,-0.806291,-0.759482,-1.01889,-1.06006,-0.513059,0.4548,0.308551,-0.82889,0.105445,-0.462364,0.965028,0.716737,-0.268071,0.155052,0.624808,-0.410226,-0.795278,-0.607284,0.638142,-0.696309,1.28034,-3.23936,-0.31641,-2.09945,-3.08339,-0.272969,-1.88786,-0.538235,-0.61925,-0.725248,-0.559067,-0.217891,0.532616,-0.500457,1
1.29811,-0.754115,-2.00354,-0.747213,2.16249,1.75944,-0.680743,1.3251,-0.756052,-1.97675,-0.717383,2.21083,1.74091,-0.670534,1.35661,-0.712501,-1.93001,-0.686445,2.21123,1.70503,-0.63633,-0.237244,-0.854199,-0.84922,0.0154932,0.727126,0.348259,-0.685583,-0.558163,-0.936951,-0.974998,-0.271533,0.617096,0.275046,-0.775381,0.101819,-0.469965,0.959682,0.722747,-0.26496,0.150581,0.620288,-0.392153,-0.774266,-0.608845,0.60707,-0.700566,1.26049,-3.16586,-0.433791,-2.02203,-3.08658,-0.309844,-1.96437,-0.585025,-0.416148,-0.735336,-0.607675,-0.487358,0.544064,-0.44413,1
1.28265,-0.772527,-2.0128,-0.747042,2.18845,1.70398,-0.689456,1.30924,-0.759151,-1.98956,-0.735779,2.18865,1.74742,-0.676244,1.35243,-0.722564,-1.93975,-0.689203,2.21617,1.71151,-0.643998,-0.383721,-0.922623,-0.892956,-0.252881,0.453598,0.593877,-0.703046,-0.3844,-0.908063,-0.917798,-0.141666,0.635271,0.387767,-0.73164,0.0983766,-0.477587,0.953541,0.728421,-0.26228,0.146634,0.615719,-0.372429,-0.805275,-0.758987,0.576896,-0.702763,1.23847,-2.97914,-0.216899,-2.17472,-3.07789,-0.328263,-2.03798,-0.697757,-0.499637,-0.730475,-0.578387,-0.277199,-0.0753133,-0.454574,1
1.27575,-0.792022,-2.02328,-0.761768,2.18747,1.69575,-0.700159,1.29658,-0.763209,-2.0018,-0.745361,2.178,1.73899,-0.682317,1.34468,-0.732057,-1.95024,-0.697191,2.21466,1.71984,-0.65152,-0.710141,-0.870395,-0.961682,-0.732415,-0.13885,0.76425,-0.689688,-0.443702,-0.882406,-0.901286,-0.323268,0.347291,0.568796,-0.692772,0.0943774,-0.488511,0.942269,0.736665,-0.256052,0.146157,0.608605,-0.280486,-0.654445,-0.77,0.546786,-0.705706,1.21576,-3.06084,-0.299189,-2.30839,-3.05685,-0.312786,-2.11038,-0.689363,-0.599652,-0.730371,-0.645762,-0.271875,-0.240896,-0.486385,1
1.27214,-0.804052,-2.02658,-0.771227,2.18882,1.71583,-0.703576,1.28569,-0.774054,-2.01248,-0.751945,2.18111,1.71962,-0.689963,1.33924,-0.736216,-1.95628,-0.703115,2.21066,1.72408,-0.655316,-1.08819,-0.831882,-1.20728,-1.18476,-0.798647,0.846678,-0.759093,-0.727352,-0.874967,-1.02064,-0.723353,-0.1613,0.734935,-0.717276,0.0935134,-0.491997,0.937812,0.739722,-0.252435,0.148785,0.605764,-0.271357,-0.682089,-0.913517,0.51557,-0.708944,1.19213,-3.18595,-0.330429,-2.41103,-3.05428,-0.304102,-2.21142,-0.67099,-0.678357,-0.703061,-0.681117,-0.218449,-0.0824508,-0.482598,1
1.25658,-0.812345,-2.03944,-0.781979,2.17447,1.71706,-0.711421,1.27677,-0.789057,-2.02126,-0.760804,2.18568,1.70814,-0.697828,1.32879,-0.74334,-1.96759,-0.713845,2.20279,1.7294,-0.662181,-1.16836,-0.720642,-1.24098,-1.14311,-0.899122,0.347893,-0.730373,-0.9889,-0.80764,-1.13665,-1.0201,-0.612207,0.65294,-0.726385,0.0918327,-0.498396,0.929969,0.745648,-0.244635,0.15387,0.600405,-0.295547,-0.666219,-0.837525,0.485092,-0.712155,1.16754,-2.88675,-0.304157,-2.32913,-3.05282,-0.293584,-2.32229,-0.722077,-0.690047,-0.718545,-0.681333,-0.283203,-0.123369,-0.492401,1
1.24796,-0.809275,-2.05221,-0.79587,2.15963,1.75916,-0.717363,1.2683,-0.801474,-2.02971,-0.771579,2.18305,1.71309,-0.704662,1.31799,-0.750637,-1.97893,-0.72379,2.19624,1.72914,-0.669062,-1.17145,-0.849351,-1.21691,-1.02123,-0.54867,-0.345303,-0.758076,-1.14267,-0.800625,-1.22172,-1.11637,-0.748813,0.283089,-0.74918,0.0896902,-0.505618,0.922606,0.752433,-0.234511,0.157614,0.594985,-0.376274,-0.799488,-0.829493,0.454725,-0.7151,1.14175,-2.8876,-0.280052,-2.45278,-3.06037,-0.311232,-2.41647,-0.700265,-0.586376,-0.73283,-0.720796,-0.366127,0.300189,-0.483003,1
1.24958,-0.811076,-2.06372,-0.809627,2.16543,1.77736,-0.728742,1.25908,-0.808155,-2.03993,-0.783228,2.17459,1.72972,-0.711324,1.30747,-0.759578,-1.98979,-0.733131,2.19265,1.72468,-0.676194,-1.11332,-1.06921,-1.14161,-1.00375,-0.252936,-0.600036,-0.784662,-1.15105,-0.879736,-1.19983,-1.05603,-0.56691,-0.199149,-0.757704,0.086885,-0.514283,0.914976,0.759852,-0.222642,0.158562,0.589842,-0.420868,-0.92269,-0.915581,0.424617,-0.71724,1.11473,-3.10314,-0.220577,-2.78524,-3.05183,-0.292245,-2.52449,-0.578891,-0.514971,-0.739336,-0.764956,-0.272221,0.526741,-0.525474,1
1.24883,-0.824472,-2.0745,-0.820352,2.17979,1.78048,-0.737074,1.25209,-0.811116,-2.05169,-0.795826,2.16787,1.75181,-0.719092,1.29746,-0.769841,-2.00001,-0.74263,2.19027,1.72075,-0.683376,-1.05785,-1.14737,-1.07747,-1.05001,-0.262051,-0.278077,-0.772069,-1.11421,-1.02198,-1.14533,-1.025,-0.354553,-0.407806,-0.771602,0.0837625,-0.523443,0.906599,0.766934,-0.210943,0.158135,0.585071,-0.421787,-0.902088,-0.992641,0.394238,-0.720089,1.08712,-2.98757,-0.280144,-2.71467,-3.03139,-0.273756,-2.62843,-0.486343,-0.546313,-0.744943,-0.777226,-0.104809,0.597308,-0.53698,1
1.23291,-0.842853,-2.08494,-0.829767,2.16557,1.77707,-0.746789,1.24838,-0.81604,-2.06335,-0.8084,2.16814,1.7698,-0.728025,1.28778,-0.779833,-2.00999,-0.752624,2.18693,1.72113,-0.690432,-1.04108,-1.02725,-1.08569,-1.11005,-0.447319,0.311333,-0.757748,-1.07075,-1.08128,-1.10159,-1.0546,-0.320769,-0.188927,-0.771493,0.0806546,-0.531662,0.897734,0.773017,-0.201121,0.158565,0.580389,-0.405386,-0.75987,-1.00152,0.363818,-0.723224,1.05831,-3.08848,-0.318277,-2.92463,-3.03036,-0.271263,-2.73085,-0.548663,-0.630191,-0.749436,-0.771422,-0.21359,0.559395,-0.563562,1
1.21259,-0.858153,-2.09474,-0.837972,2.14757,1.76275,-0.75124,1.24272,-0.826873,-2.07429,-0.819596,2.16937,1.77641,-0.737073,1.27857,-0.788316,-2.02028,-0.763234,2.1824,1.72696,-0.697547,-0.960607,-0.826977,-1.13902,-1.18218,-0.526858,0.90145,-0.78147,-1.01985,-1.00053,-1.10073,-1.11408,-0.412076,0.311569,-0.770429,0.0778513,-0.538182,0.888826,0.777921,-0.19387,0.160677,0.575705,-0.350426,-0.587127,-0.972343,0.333841,-0.726694,1.02943,-3.01501,-0.348993,-2.905,-3.02566,-0.291705,-2.81044,-0.659818,-0.698365,-0.744525,-0.747388,-0.348315,0.357915,-0.536927,1
1.19968,-0.869646,-2.10349,-0.845664,2.15245,1.72636,-0.756456,1.23078,-0.841771,-2.08461,-0.829199,2.16379,1.77119,-0.744949,1.2705,-0.795535,-2.03098,-0.774403,2.17832,1.73676,-0.705026,-0.802038,-0.743734,-1.1741,-1.2331,-0.369217,1.19837,-0.834223,-0.934576,-0.865986,-1.13294,-1.17511,-0.447798,0.803716,-0.791147,0.0755204,-0.543408,0.879962,0.781841,-0.188705,0.163366,0.571338,-0.284748,-0.504709,-0.969461,0.303559,-0.729704,0.998934,-3.05827,-0.304033,-3.08012,-3.02513,-0.315323,-2.89273,-0.708109,-0.741107,-0.725111,-0.712614,-0.258761,-0.104058,-0.514304,1
1.19992,-0.879903,-2.11067,-0.857188,2.18827,1.73921,-0.765542,1.21592,-0.856455,-2.09421,-0.837944,2.15784,1.75687,-0.75144,1.26336,-0.803011,-2.04183,-0.785759,2.17563,1.74714,-0.712934,-0.748609,-0.865524,-1.17716,-1.22731,-0.226864,1.06143,-0.875534,-0.837084,-0.812078,-1.16343,-1.2142,-0.374313,1.05375,-0.830409,0.0733085,-0.548611,0.87082,0.785523,-0.183891,0.16518,0.567321,-0.298872,-0.56414,-1.02957,0.273641,-0.732342,0.966972,-2.85065,-0.251362,-3.04534,-3.01453,-0.309869,-2.9968,-0.634399,-0.768917,-0.688347,-0.714291,0.126427,-0.079369,-0.526079,1
1.19477,-0.891211,-2.12162,-0.868399,2.20462,1.76789,-0.772561,1.20474,-0.86901,-2.10307,-0.847049,2.16426,1.74443,-0.757826,1.25567,-0.812062,-2.05262,-0.796825,2.173,1.75464,-0.720986,-0.90305,-1.07758,-1.16049,-1.17427,-0.333759,0.600415,-0.869167,-0.817899,-0.895612,-1.17058,-1.21156,-0.309947,0.953405,-0.859641,0.0704934,-0.554885,0.861084,0.789885,-0.177343,0.165978,0.563101,-0.413294,-0.694107,-1.1139,0.243488,-0.734856,0.934018,-3.09306,-0.257845,-3.38033,-3.0086,-0.289124,-3.11053,-0.609029,-0.791491,-0.690072,-0.715743,0.316226,0.132552,-0.515753,1
1.18376,-0.899694,-2.13412,-0.882135,2.20142,1.78666,-0.783548,1.19835,-0.880043,-2.11208,-0.857468,2.18168,1.7476,-0.765257,1.24634,-0.822738,-2.06316,-0.807344,2.16947,1.75713,-0.728775,-1.10328,-1.22297,-1.1261,-1.10987,-0.42183,-0.00954181,-0.822066,-0.918312,-1.05536,-1.15459,-1.17048,-0.327484,0.550769,-0.855589,0.0666536,-0.56249,0.850892,0.795321,-0.167937,0.166069,0.558286,-0.543928,-0.803673,-1.15368,0.213521,-0.737395,0.900216,-3.04248,-0.257771,-3.43191,-3.00712,-0.26554,-3.23347,-0.625786,-0.769558,-0.709644,-0.747904,0.319457,0.295296,-0.547729,1
1.18271,-0.906351,-2.14441,-0.894174,2.20472,1.79591,-0.793196,1.19286,-0.890103,-2.1223,-0.86922,2.19648,1.76457,-0.773836,1.236,-0.834223,-2.07332,-0.817416,2.16716,1.75515,-0.73618,-1.13375,-1.26176,-1.07901,-1.07484,-0.105196,-0.388638,-0.785115,-1.04669,-1.18744,-1.12187,-1.11966,-0.286929,0.0674119,-0.825449,0.0619327,-0.570966,0.840656,0.801456,-0.156468,0.164714,0.553223,-0.609908,-0.842138,-1.14519,0.184691,-0.74323,0.870287,-2.89619,-0.586246,-3.00659,-2.97856,-0.321053,-3.2405,-0.532851,-0.72128,-0.710914,-0.767576,0.375575,0.407637,-0.57016,1
1.18165,-0.914294,-2.1553,-0.905162,2.20515,1.80119,-0.800508,1.18713,-0.898913,-2.13343,-0.88159,2.20246,1.78222,-0.783148,1.22616,-0.845778,-2.08314,-0.827416,2.16901,1.7526,-0.743457,-1.00843,-1.2429,-1.04991,-1.09008,0.459361,-0.181147,-0.790752,-1.08182,-1.24254,-1.08501,-1.0916,-0.0225552,-0.193109,-0.799311,0.0566937,-0.579468,0.830502,0.807492,-0.145382,0.161052,0.548528,-0.617116,-0.797015,-1.14184,0.153439,-0.746541,0.834338,-3.1223,-0.330781,-3.59156,-2.99201,-0.36773,-3.29,-0.445072,-0.685156,-0.721653,-0.777461,0.361402,0.48591,-0.570509,1
1.16761,-0.92956,-2.16543,-0.914186,2.19555,1.80169,-0.810254,1.18252,-0.907177,-2.14445,-0.893551,2.20342,1.79353,-0.792389,1.21743,-0.857035,-2.09291,-0.837739,2.17488,1.75379,-0.750954,-0.891366,-1.19946,-1.06605,-1.14192,0.783523,0.391115,-0.830025,-1.01118,-1.23471,-1.06499,-1.10228,0.379229,-0.059557,-0.801964,0.0512286,-0.587219,0.820216,0.812876,-0.136659,0.155775,0.544326,-0.605035,-0.701142,-1.1633,0.119953,-0.749314,0.796226,-3.22515,-0.267008,-3.67065,-3.07152,-0.380623,-3.41463,-0.498217,-0.725241,-0.725173,-0.76447,0.206783,0.478986,-0.593003,1
1.1529,-0.942742,-2.17424,-0.923994,2.20489,1.79253,-0.817625,1.17674,-0.91699,-2.15497,-0.904409,2.2024,1.79854,-0.801126,1.20959,-0.867762,-2.10295,-0.848562,2.18192,1.75955,-0.75887,-0.814633,-1.12996,-1.10554,-1.19805,0.745009,0.822336,-0.880648,-0.904811,-1.19077,-1.07383,-1.14335,0.662631,0.344101,-0.833808,0.0458919,-0.593913,0.8097,0.81757,-0.130247,0.150508,0.540336,-0.563477,-0.60227,-1.1771,0.0931022,-0.748964,0.755214,-2.50509,0.0326596,-3.8263,-3.05576,-0.292209,-3.64064,-0.566904,-0.7498,-0.712943,-0.754326,0.229682,0.32978,-0.587551,1
1.14703,-0.95522,-2.1833,-0.93396,2.22231,1.78947,-0.82526,1.1671,-0.929192,-2.1649,-0.914367,2.20253,1.79815,-0.809532,1.20251,-0.877861,-2.11328,-0.859761,2.18789,1.76772,-0.767171,-0.725267,-1.06338,-1.13062,-1.22567,0.563559,0.936313,-0.914737,-0.810422,-1.13093,-1.10074,-1.18855,0.697364,0.716588,-0.875137,0.0411058,-0.599729,0.799098,0.821759,-0.124875,0.146158,0.53643,-0.488689,-0.532967,-1.17092,0.0641731,-0.752839,0.719656,-3.14836,-0.421738,-3.86975,-3.01373,-0.216389,-3.80385,-0.554805,-0.773588,-0.700132,-0.741995,0.344226,0.217513,-0.580894,1
1.13929,-0.966322,-2.19274,-0.943843,2.23246,1.7899,-0.832866,1.15605,-0.942261,-2.17428,-0.924097,2.20865,1.79443,-0.817574,1.19596,-0.887677,-2.12373,-0.871006,2.19213,1.7758,-0.775661,-0.697078,-1.06326,-1.13312,-1.21162,0.372219,0.824925,-0.923725,-0.745659,-1.08553,-1.12309,-1.21178,0.560262,0.861191,-0.90637,0.0368479,-0.605135,0.788468,0.825725,-0.119316,0.142647,0.532535,-0.458273,-0.514141,-1.17696,0.034603,-0.753213,0.678584,-2.96223,-0.0374559,-4.1145,-2.93452,-0.168679,-3.88078,-0.566657,-0.786445,-0.690101,-0.72837,0.403217,0.140982,-0.572056,1
1.13086,-0.976599,-2.20333,-0.954447,2.23416,1.79343,-0.839955,1.14684,-0.954608,-2.18353,-0.933984,2.21956,1.79135,-0.825233,1.18903,-0.89786,-2.13411,-0.882003,2.19506,1.78219,-0.78417,-0.79549,-1.13651,-1.11689,-1.17393,0.270901,0.578907,-0.919966,-0.739278,-1.08771,-1.12688,-1.20374,0.402226,0.780048,-0.919476,0.0324465,-0.610667,0.777667,0.829888,-0.112741,0.139392,0.528342,-0.525839,-0.541473,-1.2076,0.00524725,-0.756751,0.639702,-2.91566,-0.35139,-3.86181,-2.8791,-0.19123,-3.89678,-0.581683,-0.787392,-0.692146,-0.72444,0.390963,0.112366,-0.557849,1
1.12426,-0.986551,-2.21378,-0.965759,2.23661,1.79767,-0.847289,1.13903,-0.965906,-2.19319,-0.944152,2.22888,1.79132,-0.832686,1.18112,-0.908748,-2.14428,-0.892671,2.19812,1.78614,-0.792594,-0.90909,-1.21563,-1.08803,-1.13991,0.381917,0.300653,-0.906101,-0.800552,-1.13847,-1.11268,-1.17515,0.341679,0.568161,-0.916597,0.0272787,-0.616624,0.766629,0.834523,-0.104903,0.135502,0.523647,-0.624905,-0.577923,-1.23499,-0.0242217,-0.759671,0.598936,-3.12958,-0.310187,-4.32927,-2.93574,-0.253274,-3.9251,-0.568587,-0.77803,-0.695035,-0.730879,0.384859,0.11524,-0.546952,1
1.11819,-0.997198,-2.22363,-0.976943,2.24349,1.80637,-0.854008,1.13154,-0.976469,-2.20331,-0.95475,2.23419,1.79417,-0.839976,1.1726,-0.920143,-2.1542,-0.903097,2.20278,1.78802,-0.800851,-0.934395,-1.25014,-1.06376,-1.12035,0.608642,0.120923,-0.884432,-0.879658,-1.20076,-1.08956,-1.14473,0.420487,0.333494,-0.9035,0.0213771,-0.622907,0.755462,0.839507,-0.0962075,0.130348,0.518634,-0.676277,-0.587788,-1.24365,-0.0537773,-0.762364,0.55667,-2.98476,-0.271936,-4.26841,-2.94725,-0.255094,-4.0562,-0.544122,-0.77055,-0.694306,-0.738454,0.407124,0.18354,-0.531577,1
1.11236,-1.00847,-2.23382,-0.987291,2.2487,1.81339,-0.861655,1.12459,-0.986831,-2.21357,-0.965703,2.23821,1.79928,-0.847132,1.1641,-0.931647,-2.164,-0.913414,2.20897,1.78896,-0.808906,-0.909273,-1.24266,-1.05871,-1.11499,0.722364,0.085741,-0.86254,-0.917586,-1.23615,-1.07017,-1.12508,0.570974,0.169105,-0.884358,0.0151646,-0.629175,0.744263,0.844516,-0.0872612,0.124234,0.51356,-0.680626,-0.563699,-1.24393,-0.0826464,-0.765249,0.513462,-2.76324,-0.276139,-4.13573,-2.93523,-0.296866,-4.13277,-0.517392,-0.768256,-0.698189,-0.738772,0.397291,0.244324,-0.527483,1
1.10572,-1.0195,-2.24368,-0.997789,2.25506,1.81747,-0.868961,1.11826,-0.997461,-2.2237,-0.976631,2.24321,1.80584,-0.854296,1.15584,-0.94298,-2.17383,-0.923754,2.21543,1.79007,-0.816766,-0.881592,-1.21473,-1.06952,-1.1243,0.680522,0.148729,-0.841887,-0.90842,-1.23584,-1.064,-1.11988,0.670509,0.118464,-0.862953,0.00898778,-0.635113,0.733033,0.849298,-0.0784418,0.118013,0.50854,-0.663782,-0.518267,-1.2456,-0.112646,-0.767005,0.469053,-3.00757,-0.17601,-4.45214,-2.94212,-0.260861,-4.26774,-0.50124,-0.76516,-0.698503,-0.740352,0.396355,0.274,-0.521945,1
1.09714,-1.03052,-2.25339,-1.00828,2.26164,1.8171,-0.876459,1.11195,-1.00842,-2.23371,-0.987294,2.24904,1.8119,-0.861597,1.14788,-0.954064,-2.18376,-0.934222,2.22136,1.79201,-0.824444,-0.845077,-1.18854,-1.08127,-1.14191,0.611171,0.263587,-0.822947,-0.878647,-1.21531,-1.06983,-1.12707,0.671352,0.166019,-0.842458,0.00301058,-0.640564,0.721735,0.853736,-0.0699517,0.112173,0.503645,-0.637425,-0.467113,-1.25128,-0.141618,-0.769805,0.424912,-2.97492,-0.287575,-4.53243,-2.93662,-0.249087,-4.35666,-0.507459,-0.764566,-0.696286,-0.740542,0.402747,0.250889,-0.52015,1
1.08856,-1.04154,-2.26314,-1.0188,2.2678,1.8159,-0.88372,1.10494,-1.01948,-2.2436,-0.997797,2.25519,1.81557,-0.868997,1.14031,-0.964984,-2.19376,-0.944823,2.22691,1.79508,-0.831975,-0.799785,-1.17804,-1.08585,-1.15375,0.591419,0.390134,-0.809652,-0.842151,-1.19377,-1.07888,-1.13999,0.627704,0.267484,-0.824829,-0.00274825,-0.645522,0.710336,0.857828,-0.0619348,0.106634,0.498924,-0.613146,-0.421047,-1.26069,-0.171463,-0.77253,0.379121,-2.82132,-0.257597,-4.32879,-2.94344,-0.248888,-4.43648,-0.517533,-0.76559,-0.693757,-0.739801,0.408966,0.208247,-0.517451,1
1.07998,-1.05279,-2.27276,-1.02913,2.27424,1.81615,-0.889865,1.09702,-1.03053,-2.25339,-1.00828,2.26151,1.8166,-0.876312,1.13309,-0.975873,-2.20379,-0.955477,2.23242,1.79906,-0.839423,-0.766863,-1.18046,-1.08525,-1.15406,0.602706,0.465887,-0.804271,-0.803908,-1.18235,-1.08412,-1.14991,0.601765,0.373203,-0.81229,-0.00837405,-0.650075,0.698826,0.861663,-0.0543457,0.101143,0.494322,-0.601371,-0.385672,-1.27064,-0.199704,-0.774935,0.333213,-2.97884,-0.253677,-4.8423,-2.92932,-0.248979,-4.50428,-0.531044,-0.769217,-0.689689,-0.736522,0.418131,0.170912,-0.504418,1
1.07231,-1.06399,-2.28224,-1.03937,2.2806,1.81753,-0.895499,1.08862,-1.04163,-2.26308,-1.01872,2.26787,1.81646,-0.883255,1.12602,-0.986796,-2.21379,-0.966108,2.23808,1.80326,-0.846845,-0.764646,-1.1855,-1.08146,-1.14938,0.620615,0.446223,-0.803479,-0.777098,-1.18133,-1.08419,-1.1524,0.604913,0.434081,-0.805801,-0.0140036,-0.654356,0.687226,0.865377,-0.0468771,0.0955286,0.489694,-0.60706,-0.361787,-1.27749,-0.229448,-0.777787,0.284967,-2.99305,-0.286999,-4.85481,-2.9169,-0.266953,-4.5987,-0.537121,-0.77196,-0.684564,-0.732602,0.425236,0.142675,-0.486537,1
1.0658,-1.07496,-2.29176,-1.04982,2.2874,1.82166,-0.901418,1.08039,-1.05277,-2.2727,-1.0291,2.27426,1.81684,-0.889621,1.11883,-0.997758,-2.22374,-0.9767,2.2439,1.80691,-0.854247,-0.791145,-1.18883,-1.07525,-1.14537,0.638916,0.351561,-0.800328,-0.774218,-1.18493,-1.08065,-1.1496,0.620746,0.421224,-0.802693,-0.0197751,-0.658484,0.675566,0.869077,-0.0391551,0.0896998,0.484899,-0.627696,-0.345159,-1.28167,-0.257937,-0.781139,0.238259,-2.78833,-0.328086,-4.57165,-2.90622,-0.279255,-4.67461,-0.530308,-0.771988,-0.680153,-0.731206,0.43505,0.147465,-0.471703,1
1.05961,-1.08573,-2.30123,-1.06047,2.29502,1.82591,-0.907354,1.07282,-1.06389,-2.28224,-1.03946,2.28081,1.81864,-0.895575,1.11136,-1.00875,-2.23363,-0.987255,2.24987,1.80964,-0.861568,-0.824802,-1.19236,-1.0682,-1.14145,0.653068,0.247681,-0.786614,-0.793531,-1.1889,-1.07497,-1.1454,0.637533,0.348488,-0.796807,-0.0257647,-0.662504,0.663856,0.872785,-0.0309977,0.0836326,0.479887,-0.651916,-0.328701,-1.286,-0.286801,-0.783522,0.188505,-2.91534,-0.240599,-5.0253,-2.88908,-0.281868,-4.76187,-0.51748,-0.769751,-0.675957,-0.73211,0.451517,0.162782,-0.45786,1
1.05367,-1.09637,-2.31088,-1.07112,2.30219,1.83062,-0.913487,1.06601,-1.07486,-2.29175,-1.04991,2.28771,1.82191,-0.901454,1.10365,-1.01978,-2.24346,-0.997768,2.25595,1.81163,-0.868693,-0.843432,-1.19666,-1.06068,-1.13635,0.663868,0.188927,-0.759105,-0.819793,-1.19262,-1.06804,-1.14105,0.651951,0.262723,-0.782016,-0.0319469,-0.666382,0.652088,0.876437,-0.0224942,0.0773601,0.474729,-0.667368,-0.306833,-1.29109,-0.316082,-0.786491,0.140562,-2.9207,-0.296231,-4.78215,-2.90107,-0.288463,-4.81765,-0.499813,-0.765843,-0.674239,-0.733515,0.462396,0.189931,-0.447938,1
