Afshin1997/kuka_rl_ros2/src/catch_and_throw/output_files/ft/old/idealpd_6/ft_received_joint_effort_np.csv
joint_0,joint_1,joint_2,joint_3,joint_4,joint_5,joint_6
0.360828,-2.94304,0.189927,20.8816,-0.74865,-0.175135,-0.0406584
0.359498,-2.94314,0.188092,20.8822,-0.748921,-0.175145,-0.0409007
0.357692,-2.94308,0.187404,20.8824,-0.749264,-0.175115,-0.0408792
0.357835,-2.94333,0.187314,20.8826,-0.749877,-0.174892,-0.0406249
0.35891,-2.94403,0.188063,20.882,-0.750522,-0.175126,-0.0404789
0.359542,-2.9437,0.188309,20.8825,-0.750573,-0.175176,-0.0405462
0.359469,-2.94278,0.188734,20.8815,-0.750619,-0.175025,-0.0404095
0.360667,-2.94165,0.189212,20.8804,-0.751176,-0.175204,-0.0404849
0.362041,-2.94144,0.18984,20.8808,-0.751357,-0.175324,-0.0403162
0.361989,-2.94204,0.190188,20.8818,-0.752345,-0.175194,-0.0401281
0.361312,-2.94321,0.190082,20.8823,-0.751872,-0.175315,-0.0398836
0.359609,-2.94329,0.18916,20.8811,-0.752075,-0.175421,-0.0399424
0.35858,-2.94384,0.18814,20.8812,-0.751944,-0.175397,-0.0399159
0.359567,-2.94432,0.187757,20.8817,-0.751104,-0.175377,-0.0398924
0.360912,-2.94443,0.188143,20.8819,-0.75057,-0.17528,-0.0398718
0.362099,-2.94421,0.188897,20.8811,-0.750409,-0.175429,-0.0399319
0.361882,-2.94323,0.188839,20.881,-0.750163,-0.175326,-0.0398282
0.361218,-2.94299,0.189615,20.8818,-0.750154,-0.175471,-0.0398543
0.361579,-2.94357,0.189989,20.8817,-0.749938,-0.175324,-0.0397989
0.360792,-2.94551,0.19032,20.8814,-0.748817,-0.175154,-0.03975
0.35915,-2.94658,0.18937,20.8812,-0.749068,-0.175241,-0.039746
0.357227,-2.94611,0.189153,20.8809,-0.749187,-0.175199,-0.0399778
0.358215,-2.94712,0.189581,20.8807,-0.748878,-0.175201,-0.0398687
0.360193,-2.94611,0.190167,20.881,-0.74964,-0.175164,-0.0399292
0.361148,-2.94553,0.190787,20.8818,-0.749175,-0.175092,-0.0399435
0.361202,-2.94487,0.190817,20.8824,-0.749488,-0.175343,-0.0396815
0.360775,-2.94444,0.190947,20.8813,-0.749661,-0.175289,-0.0396464
0.359924,-2.94422,0.191061,20.8812,-0.749296,-0.175359,-0.0396938
0.359174,-2.94371,0.190645,20.8811,-0.749595,-0.175225,-0.0396573
0.359301,-2.9431,0.189761,20.8814,-0.749549,-0.175185,-0.0396642
0.358782,-2.94351,0.189497,20.8809,-0.749404,-0.175307,-0.0396311
0.358798,-2.94292,0.188955,20.8811,-0.749173,-0.175375,-0.0393666
0.359601,-2.94225,0.189717,20.8806,-0.749797,-0.175357,-0.0392509
0.360468,-2.94292,0.189976,20.8811,-0.749727,-0.175302,-0.039384
0.361707,-2.94319,0.189998,20.8819,-0.750596,-0.175213,-0.0394623
0.361221,-2.9447,0.189396,20.8811,-0.751259,-0.175097,-0.0397275
0.359845,-2.94524,0.188762,20.8809,-0.751224,-0.174954,-0.0397654
0.358314,-2.9454,0.188306,20.88,-0.750986,-0.175103,-0.0396028
0.3587,-2.94538,0.188006,20.8801,-0.751086,-0.175234,-0.0396553
0.359673,-2.94505,0.188673,20.881,-0.750451,-0.175115,-0.0394664
0.360848,-2.9446,0.189262,20.8809,-0.749993,-0.175127,-0.0394566
0.360621,-2.94452,0.188747,20.8796,-0.750417,-0.175138,-0.0396832
0.360262,-2.94445,0.188396,20.8792,-0.751102,-0.175108,-0.039844
0.359788,-2.94549,0.189121,20.8804,-0.751395,-0.175004,-0.0400251
0.359211,-2.94578,0.189139,20.881,-0.750827,-0.174872,-0.0401065
0.359492,-2.9454,0.188432,20.8805,-0.750532,-0.174756,-0.0400999
0.358161,-2.94459,0.188325,20.8799,-0.750479,-0.174536,-0.0401332
0.359829,-2.94388,0.188851,20.8798,-0.750432,-0.174617,-0.0401235
0.361459,-2.94357,0.189936,20.8801,-0.75008,-0.174452,-0.0402325
0.363214,-2.94329,0.190273,20.8799,-0.749873,-0.174189,-0.0403288
0.362708,-2.94368,0.190259,20.8805,-0.750001,-0.174232,-0.0405313
0.360525,-2.94134,0.189524,20.8797,-0.751045,-0.174074,-0.040514
0.360494,-2.94069,0.189185,20.8794,-0.751552,-0.174051,-0.0406556
0.360466,-2.94075,0.188989,20.8798,-0.752206,-0.17411,-0.0409374
0.3606,-2.94176,0.189851,20.8805,-0.751957,-0.174241,-0.0409116
0.36056,-2.94185,0.190301,20.8805,-0.750805,-0.174316,-0.0408104
0.360998,-2.94225,0.190181,20.8799,-0.75072,-0.174109,-0.0407603
0.361069,-2.94197,0.189972,20.8794,-0.751472,-0.174082,-0.0405984
0.360974,-2.9422,0.190408,20.8806,-0.751826,-0.174177,-0.0406124
0.361206,-2.94161,0.191517,20.8812,-0.751517,-0.174299,-0.0407424
0.360937,-2.94156,0.191668,20.881,-0.751555,-0.17429,-0.0410141
0.360067,-2.94247,0.191594,20.8803,-0.751278,-0.174242,-0.0408224
0.358194,-2.94327,0.190288,20.8806,-0.751137,-0.174553,-0.040614
0.357489,-2.94303,0.190376,20.8808,-0.750496,-0.174749,-0.0406262
0.357973,-2.94329,0.190661,20.8797,-0.750654,-0.174844,-0.0405585
0.358399,-2.94321,0.190292,20.8799,-0.751517,-0.175045,-0.0403027
0.357354,-2.94313,0.190173,20.8794,-0.751762,-0.175065,-0.0403514
0.357538,-2.94259,0.189758,20.8791,-0.752082,-0.175044,-0.0402768
0.357225,-2.94259,0.190219,20.8791,-0.752053,-0.175143,-0.0403286
0.358056,-2.94274,0.190626,20.8802,-0.751511,-0.175113,-0.0400998
0.358473,-2.94177,0.190675,20.8806,-0.750722,-0.175282,-0.0402509
0.358209,-2.94218,0.190925,20.8799,-0.749922,-0.175314,-0.0403449
0.35845,-2.94238,0.190732,20.8792,-0.749631,-0.175342,-0.0402711
0.358504,-2.9413,0.191492,20.8799,-0.749373,-0.175485,-0.0403236
0.359658,-2.9405,0.191853,20.8805,-0.749559,-0.175493,-0.040213
0.362098,-2.94122,0.192378,20.8796,-0.748896,-0.175578,-0.0403115
0.362198,-2.9409,0.192428,20.8799,-0.749035,-0.175497,-0.0400455
0.361654,-2.9411,0.191851,20.88,-0.749572,-0.175464,-0.0398892
0.361648,-2.94174,0.191653,20.8806,-0.750252,-0.175436,-0.0400258
0.361327,-2.942,0.19096,20.8808,-0.750128,-0.175253,-0.039911
0.360412,-2.94254,0.190763,20.881,-0.75033,-0.175249,-0.0400058
0.35992,-2.94238,0.190796,20.8813,-0.750404,-0.175089,-0.040011
0.359802,-2.94209,0.190928,20.8815,-0.750159,-0.175104,-0.0398587
0.360645,-2.94262,0.191872,20.8815,-0.750563,-0.175,-0.0399205
0.360916,-2.94277,0.191878,20.8819,-0.75061,-0.175065,-0.0397788
0.36147,-2.94227,0.191056,20.8818,-0.750651,-0.174848,-0.0396539
0.360696,-2.94309,0.19064,20.8808,-0.75017,-0.174656,-0.0400142
0.359381,-2.94351,0.189239,20.8806,-0.749539,-0.174644,-0.03994
0.358853,-2.94355,0.189761,20.8811,-0.749706,-0.174398,-0.0401098
0.359492,-2.94296,0.189187,20.8824,-0.749956,-0.174455,-0.0402596
0.35974,-2.94276,0.189819,20.8814,-0.750281,-0.174506,-0.0403135
0.360748,-2.94258,0.19048,20.8805,-0.750051,-0.174707,-0.0402825
0.360059,-2.94273,0.189511,20.8803,-0.749951,-0.174768,-0.0404513
0.360241,-2.94161,0.190933,20.8809,-0.749242,-0.174899,-0.0406395
0.36119,-2.9414,0.191049,20.8813,-0.749857,-0.175055,-0.0406487
0.361555,-2.94186,0.190634,20.8811,-0.75009,-0.175113,-0.0404215
0.361561,-2.94083,0.190475,20.8815,-0.749365,-0.175126,-0.0403386
0.361092,-2.94025,0.190645,20.8813,-0.748828,-0.175372,-0.0403048
0.361942,-2.94036,0.191002,20.8811,-0.749182,-0.175315,-0.0400788
0.362376,-2.94125,0.191317,20.8808,-0.749288,-0.175068,-0.0401538
0.361653,-2.94172,0.191285,20.8818,-0.749587,-0.175086,-0.0400632
0.360699,-2.94277,0.190946,20.8813,-0.750059,-0.175063,-0.0401009
0.360016,-2.94338,0.190026,20.8804,-0.749958,-0.175081,-0.0400557
0.359255,-2.94312,0.189731,20.8809,-0.749248,-0.174901,-0.0398198
0.359215,-2.94369,0.189885,20.8818,-0.749035,-0.175017,-0.0398861
0.359969,-2.94387,0.189814,20.8816,-0.749262,-0.175119,-0.0397093
0.359687,-2.9434,0.190889,20.8809,-0.749151,-0.175249,-0.0397101
0.358649,-2.9433,0.19039,20.8806,-0.749156,-0.175245,-0.0397893
0.358364,-2.94322,0.189846,20.8805,-0.749265,-0.175164,-0.0397415
0.358587,-2.94361,0.19009,20.881,-0.749671,-0.175131,-0.0399347
0.358783,-2.94381,0.190615,20.8818,-0.749305,-0.175181,-0.0398698
0.358641,-2.94271,0.190355,20.8809,-0.749086,-0.175146,-0.0398126
0.358041,-2.94175,0.190229,20.8799,-0.748685,-0.175155,-0.0400758
0.358776,-2.94168,0.189807,20.8794,-0.748642,-0.175084,-0.0402297
0.360371,-2.94179,0.190573,20.88,-0.749328,-0.1751,-0.0400125
0.36178,-2.94141,0.190731,20.8808,-0.74921,-0.174996,-0.040213
0.361759,-2.94123,0.190871,20.8806,-0.749208,-0.174866,-0.0402331
0.360793,-2.94154,0.191098,20.8795,-0.749828,-0.174829,-0.0402508
0.361046,-2.94087,0.191091,20.8791,-0.750478,-0.17511,-0.040188
0.361112,-2.94075,0.191603,20.8805,-0.751052,-0.175045,-0.0400542
0.362907,-2.94128,0.191744,20.8806,-0.751145,-0.174869,-0.0400929
0.363386,-2.94159,0.192075,20.88,-0.750813,-0.174989,-0.0401663
0.361912,-2.94186,0.191333,20.8797,-0.750623,-0.174898,-0.0401919
0.360928,-2.94258,0.191299,20.8801,-0.750145,-0.175171,-0.0400184
0.361797,-2.94289,0.191061,20.8811,-0.750551,-0.175295,-0.0401006
0.362248,-2.94317,0.190852,20.881,-0.749979,-0.175325,-0.0400554
0.362015,-2.9442,0.191081,20.8804,-0.750301,-0.175391,-0.0402509
0.360703,-2.94401,0.189318,20.8808,-0.750171,-0.175489,-0.0403842
0.359861,-2.94368,0.190038,20.8812,-0.750367,-0.175731,-0.0404626
0.359592,-2.9445,0.189742,20.881,-0.750127,-0.175593,-0.0403749
0.359196,-2.94506,0.189584,20.8815,-0.750225,-0.175667,-0.0403368
0.358847,-2.94524,0.189755,20.8811,-0.74969,-0.175614,-0.0402639
0.359329,-2.94493,0.1897,20.8796,-0.74984,-0.175529,-0.0403172
0.360386,-2.94481,0.189857,20.8796,-0.749661,-0.175453,-0.0402858
0.361161,-2.9436,0.190514,20.8804,-0.750227,-0.175582,-0.0403758
0.361687,-2.94332,0.191093,20.8801,-0.751141,-0.17554,-0.0404552
0.361993,-2.9426,0.191397,20.8795,-0.751326,-0.175777,-0.0402115
0.361789,-2.94149,0.191459,20.8786,-0.751283,-0.175711,-0.040271
0.361293,-2.94145,0.191099,20.879,-0.751349,-0.175771,-0.0403627
0.36212,-2.94174,0.190886,20.8803,-0.751613,-0.175706,-0.0404436
0.363007,-2.94215,0.191525,20.8805,-0.75133,-0.175649,-0.0405543
0.361578,-2.94236,0.191261,20.8809,-0.750769,-0.175638,-0.0408088
0.361107,-2.94254,0.190925,20.8813,-0.750998,-0.175824,-0.0406412
0.360376,-2.9427,0.190732,20.881,-0.750994,-0.175792,-0.0404933
0.360204,-2.94442,0.190871,20.8808,-0.750679,-0.175803,-0.0406373
0.360368,-2.94499,0.190271,20.8805,-0.750402,-0.175774,-0.0404115
0.359408,-2.9455,0.189741,20.881,-0.750364,-0.175591,-0.0405651
0.359824,-2.94547,0.189997,20.8807,-0.750951,-0.17543,-0.0404654
0.360191,-2.94465,0.19012,20.8806,-0.750539,-0.175484,-0.0405343
0.360515,-2.94425,0.189814,20.8813,-0.750795,-0.175374,-0.0402421
0.360958,-2.94405,0.189855,20.8818,-0.750814,-0.17516,-0.0401803
0.361508,-2.94372,0.18927,20.881,-0.750107,-0.175049,-0.0401258
0.361361,-2.94374,0.189789,20.8804,-0.750518,-0.17503,-0.0401169
0.3606,-2.94297,0.189108,20.8808,-0.75057,-0.174974,-0.0401875
0.361034,-2.94292,0.189335,20.8804,-0.750409,-0.174885,-0.0403283
0.361417,-2.94256,0.189846,20.8801,-0.749956,-0.174807,-0.0401779
0.361123,-2.94241,0.189883,20.8801,-0.750591,-0.174698,-0.0401237
0.361337,-2.94242,0.189605,20.88,-0.750842,-0.174799,-0.0400366
0.361526,-2.94197,0.189774,20.8803,-0.750545,-0.174691,-0.0402735
0.362483,-2.94188,0.190233,20.8797,-0.75049,-0.17491,-0.0402473
0.361906,-2.94133,0.190225,20.8798,-0.750649,-0.174868,-0.0401457
0.361554,-2.94147,0.189597,20.8799,-0.750686,-0.175027,-0.0400168
0.361718,-2.94128,0.189663,20.88,-0.751028,-0.17505,-0.0401776
0.361705,-2.94112,0.189928,20.8802,-0.750606,-0.175031,-0.0402019
0.361377,-2.94176,0.189852,20.8801,-0.750544,-0.175053,-0.0401448
0.362193,-2.94107,0.190406,20.8809,-0.75049,-0.175033,-0.0398592
0.361492,-2.94108,0.19048,20.8809,-0.750131,-0.175055,-0.0398424
0.361347,-2.94221,0.189615,20.8807,-0.750229,-0.175035,-0.0397492
0.360587,-2.94383,0.189059,20.8808,-0.749487,-0.175135,-0.0397846
0.359443,-2.94399,0.188361,20.8812,-0.74966,-0.175302,-0.0396197
0.358433,-2.94477,0.188469,20.8807,-0.749399,-0.175332,-0.0396703
0.358174,-2.94483,0.188461,20.8806,-0.749065,-0.175475,-0.0396757
0.358261,-2.94362,0.188764,20.8802,-0.749288,-0.175445,-0.039602
0.358496,-2.94365,0.189135,20.8804,-0.750001,-0.17538,-0.0396939
0.359335,-2.94289,0.189566,20.8807,-0.750528,-0.175322,-0.0396181
0.360549,-2.94301,0.189429,20.8802,-0.75151,-0.175153,-0.0395905
0.360515,-2.94312,0.189722,20.8791,-0.750928,-0.175121,-0.0397229
0.358905,-2.94242,0.189049,20.8785,-0.750621,-0.174937,-0.0398006
0.358591,-2.94165,0.18918,20.8779,-0.750247,-0.174931,-0.0401044
0.359102,-2.94096,0.189709,20.8791,-0.749917,-0.174847,-0.0403334
0.360502,-2.94178,0.190176,20.8794,-0.749833,-0.174734,-0.0405746
0.361737,-2.94251,0.190588,20.8799,-0.749551,-0.174517,-0.0403561
0.361247,-2.94236,0.190848,20.8791,-0.750027,-0.174325,-0.0402417
0.360657,-2.94238,0.190974,20.8797,-0.749102,-0.174234,-0.0402585
0.360769,-2.94209,0.190879,20.8807,-0.749424,-0.174114,-0.040234
0.360077,-2.94151,0.190174,20.8814,-0.750329,-0.174087,-0.0402908
0.360888,-2.94132,0.190172,20.8813,-0.750196,-0.174181,-0.0400665
0.358761,-2.94146,0.189757,20.8814,-0.750182,-0.174303,-0.0400253
0.357831,-2.94143,0.190218,20.8818,-0.750377,-0.174254,-0.039793
0.357642,-2.94157,0.190108,20.8813,-0.750032,-0.174407,-0.0397055
0.357792,-2.94121,0.190321,20.881,-0.750037,-0.174385,-0.0395892
0.358556,-2.94137,0.189992,20.8816,-0.750249,-0.174365,-0.0398394
0.35765,-2.94151,0.188667,20.8817,-0.750953,-0.174269,-0.039825
0.358115,-2.94084,0.189153,20.8815,-0.751058,-0.174459,-0.0400083
0.358683,-2.94073,0.189375,20.8814,-0.751253,-0.17451,-0.0400524
0.358868,-2.94126,0.189053,20.8818,-0.751012,-0.174397,-0.0401698
0.358873,-2.9411,0.188977,20.8818,-0.751212,-0.174258,-0.040195
0.359036,-2.9419,0.188599,20.8813,-0.751597,-0.174332,-0.0404133
0.357916,-2.94198,0.188265,20.8813,-0.75266,-0.174319,-0.040253
0.357876,-2.94221,0.189005,20.8819,-0.752046,-0.174189,-0.0399154
0.359893,-2.9432,0.189865,20.8821,-0.751815,-0.174153,-0.039892
0.359778,-2.94375,0.189279,20.8818,-0.751197,-0.174318,-0.0398714
0.358571,-2.9433,0.189279,20.8817,-0.751169,-0.174502,-0.0398924
0.35798,-2.94384,0.189176,20.8817,-0.750834,-0.174312,-0.0398717
0.358405,-2.94322,0.189188,20.8817,-0.750746,-0.174576,-0.0398143
0.359571,-2.94267,0.189303,20.8824,-0.750771,-0.174534,-0.0398812
0.359652,-2.94313,0.188783,20.8819,-0.750276,-0.174497,-0.0399403
0.359091,-2.94306,0.188738,20.8818,-0.750563,-0.174621,-0.0396787
0.359702,-2.94364,0.189008,20.8813,-0.750817,-0.174613,-0.0397223
0.360242,-2.94351,0.189661,20.8806,-0.750109,-0.174409,-0.0394471
0.361191,-2.9434,0.189616,20.8819,-0.749795,-0.17474,-0.0393611
0.361082,-2.94393,0.18968,20.8816,-0.750243,-0.174796,-0.039246
0.360511,-2.94393,0.190047,20.8801,-0.749499,-0.174689,-0.0391836
0.360008,-2.94361,0.189957,20.8792,-0.749361,-0.174712,-0.0393639
0.359563,-2.94365,0.189878,20.8801,-0.749548,-0.175046,-0.0394838
0.359329,-2.94383,0.189497,20.881,-0.749818,-0.17491,-0.0391581
0.358807,-2.94432,0.188954,20.8807,-0.749745,-0.17475,-0.0393022
0.358503,-2.94364,0.1892,20.8803,-0.749784,-0.174688,-0.0392724
0.358552,-2.94335,0.189313,20.8801,-0.749819,-0.174593,-0.0395207
0.358752,-2.94326,0.189619,20.8801,-0.74985,-0.174824,-0.0397006
0.360351,-2.94286,0.18989,20.8805,-0.750084,-0.174949,-0.0398985
0.360182,-2.94346,0.190542,20.882,-0.75029,-0.174902,-0.040034
0.359243,-2.94304,0.190291,20.8816,-0.750162,-0.174743,-0.0401143
0.359679,-2.94361,0.190275,20.8809,-0.749738,-0.17476,-0.0397931
0.359115,-2.94302,0.189952,20.8807,-0.750399,-0.174618,-0.0396664
0.359249,-2.94359,0.19039,20.881,-0.750982,-0.17461,-0.0396331
0.359368,-2.94395,0.190053,20.8811,-0.750773,-0.174643,-0.0398389
0.360105,-2.94331,0.190583,20.8806,-0.750898,-0.174789,-0.0397461
0.360597,-2.94259,0.190843,20.8798,-0.750698,-0.1748,-0.0396642
0.361978,-2.94196,0.191177,20.8803,-0.750419,-0.174614,-0.0395919
0.362882,-2.94219,0.191265,20.8812,-0.750482,-0.174842,-0.0398026
0.362732,-2.9427,0.190928,20.8809,-0.749918,-0.175043,-0.0398317
0.362125,-2.94205,0.190631,20.8806,-0.749626,-0.175025,-0.0400143
0.361432,-2.94148,0.189748,20.8801,-0.74968,-0.174969,-0.0400577
0.361136,-2.94145,0.189693,20.8801,-0.749416,-0.174764,-0.0400176
0.361823,-2.94221,0.189024,20.8805,-0.749598,-0.174699,-0.0402959
0.362587,-2.94115,0.189468,20.8807,-0.749861,-0.174761,-0.0403847
0.36105,-2.94163,0.189136,20.881,-0.750507,-0.174775,-0.0406199
0.361115,-2.94079,0.189256,20.8807,-0.750768,-0.174867,-0.0404746
0.361962,-2.94021,0.189983,20.8796,-0.75079,-0.174751,-0.0406992
0.363183,-2.94065,0.189797,20.8802,-0.750914,-0.174846,-0.0407406
0.361418,-2.94119,0.18953,20.8806,-0.752057,-0.17489,-0.0406203
0.36065,-2.94151,0.188673,20.8793,-0.752031,-0.174968,-0.0406317
0.359814,-2.94305,0.18802,20.8791,-0.75263,-0.175036,-0.0405634
0.360183,-2.94299,0.187547,20.8791,-0.752951,-0.174783,-0.0403854
0.360665,-2.94342,0.187958,20.8797,-0.752924,-0.175031,-0.0399931
0.362039,-2.94363,0.188424,20.8799,-0.752589,-0.175053,-0.0397645
0.361672,-2.94351,0.188421,20.8784,-0.752191,-0.175073,-0.0396804
0.361348,-2.94308,0.188522,20.8781,-0.75215,-0.175011,-0.0397631
0.361536,-2.94239,0.188921,20.8786,-0.752113,-0.175075,-0.039836
0.361702,-2.94304,0.188964,20.8797,-0.751047,-0.17521,-0.0399789
0.361532,-2.94235,0.189415,20.8793,-0.751037,-0.17525,-0.0400657
0.360435,-2.9419,0.188675,20.8793,-0.751131,-0.175247,-0.0399854
0.361046,-2.94166,0.188849,20.8802,-0.750697,-0.175361,-0.0401499
0.363323,-2.9413,0.190038,20.8797,-0.750521,-0.175344,-0.0402558
0.3647,-2.94034,0.19057,20.88,-0.749952,-0.175291,-0.0403101
0.365758,-2.94107,0.190211,20.8803,-0.750484,-0.175165,-0.0402403
0.364006,-2.94157,0.189481,20.8799,-0.751368,-0.175328,-0.0400219
0.362776,-2.94058,0.188837,20.879,-0.751423,-0.175198,-0.0400645
0.361691,-2.94223,0.187441,20.8792,-0.750955,-0.175004,-0.040102
0.360891,-2.94227,0.187347,20.8805,-0.750852,-0.175069,-0.0402528
0.360027,-2.94309,0.187988,20.8805,-0.751692,-0.175204,-0.0401898
0.36037,-2.94303,0.188036,20.8793,-0.751296,-0.175284,-0.040291
0.360041,-2.94329,0.186838,20.8791,-0.75136,-0.175198,-0.0402235
0.360382,-2.94321,0.187332,20.8789,-0.750899,-0.175279,-0.04036
0.361316,-2.94329,0.188078,20.8792,-0.750389,-0.175507,-0.0402452
0.361823,-2.94336,0.188116,20.8789,-0.749628,-0.175787,-0.0403791
0.361481,-2.94295,0.187942,20.8786,-0.749164,-0.175878,-0.0403013
0.36118,-2.94259,0.1881,20.8784,-0.749686,-0.175839,-0.0403502
0.362019,-2.94259,0.189066,20.8782,-0.750766,-0.175845,-0.0403149
0.363234,-2.94258,0.189815,20.8783,-0.750789,-0.175811,-0.0404407
0.362569,-2.94274,0.189546,20.8788,-0.750395,-0.175467,-0.040434
0.361665,-2.94256,0.189514,20.8786,-0.749944,-0.17532,-0.0404282
0.361816,-2.94225,0.188039,20.8779,-0.750788,-0.175544,-0.0404622
0.362581,-2.94276,0.188598,20.8778,-0.751118,-0.175349,-0.0406098
0.36294,-2.94305,0.189092,20.8792,-0.751824,-0.175412,-0.0405833
0.362467,-2.9422,0.189425,20.8795,-0.751929,-0.175507,-0.0406775
0.360944,-2.94209,0.189925,20.879,-0.752022,-0.175591,-0.0407215
0.360231,-2.94214,0.189436,20.8788,-0.752415,-0.175626,-0.0407602
0.358971,-2.94203,0.189521,20.8795,-0.752451,-0.175617,-0.0408337
0.358806,-2.9421,0.188768,20.8805,-0.753,-0.175374,-0.0407024
0.359293,-2.94199,0.189656,20.8802,-0.752243,-0.175278,-0.0403512
0.359249,-2.94285,0.189405,20.8798,-0.751782,-0.175075,-0.0403943
0.358893,-2.94155,0.189494,20.8792,-0.752202,-0.175013,-0.0403931
0.358738,-2.94183,0.189676,20.8789,-0.752367,-0.175038,-0.040392
0.358917,-2.94223,0.188905,20.8792,-0.752719,-0.174981,-0.0404303
0.357969,-2.9429,0.188225,20.8797,-0.752719,-0.175126,-0.0405033
0.356184,-2.94318,0.186694,20.8799,-0.752926,-0.175294,-0.0402932
0.355873,-2.94311,0.186481,20.879,-0.753419,-0.175246,-0.0405391
0.357652,-2.94352,0.186706,20.8791,-0.753337,-0.175322,-0.0404817
0.358433,-2.94356,0.187216,20.8795,-0.752023,-0.175427,-0.0405486
0.359121,-2.94408,0.187355,20.8798,-0.752105,-0.175403,-0.0407254
0.359255,-2.94311,0.187995,20.8789,-0.75135,-0.17542,-0.0407245
0.360005,-2.94225,0.188767,20.8783,-0.751304,-0.175358,-0.0408805
0.360034,-2.94276,0.18831,20.8786,-0.750539,-0.17542,-0.0408222
0.360061,-2.94227,0.188527,20.8795,-0.750796,-0.175514,-0.0405354
0.360242,-2.94246,0.188719,20.8798,-0.750505,-0.175479,-0.0404392
0.360402,-2.94279,0.188578,20.8792,-0.750765,-0.175449,-0.0404719
0.360069,-2.94292,0.188454,20.8792,-0.750374,-0.175344,-0.0404223
0.360249,-2.94256,0.189275,20.8794,-0.750753,-0.17529,-0.0404571
0.36104,-2.94304,0.189793,20.8799,-0.750674,-0.175203,-0.0405269
0.36158,-2.94361,0.19056,20.8804,-0.751018,-0.174891,-0.0405885
0.361267,-2.94396,0.19041,20.8806,-0.751115,-0.17493,-0.0405253
0.360675,-2.94348,0.189553,20.8797,-0.752027,-0.175042,-0.0406263
0.362205,-2.94385,0.190349,20.8796,-0.752419,-0.174946,-0.0406371
0.362135,-2.94433,0.190327,20.8797,-0.752248,-0.175017,-0.0408426
0.362862,-2.94475,0.190307,20.8794,-0.752407,-0.174923,-0.0407887
0.362714,-2.94402,0.189669,20.8784,-0.752237,-0.175076,-0.0408196
0.361636,-2.94385,0.1889,20.8777,-0.751776,-0.175014,-0.0406508
0.361,-2.94354,0.188013,20.8784,-0.752508,-0.175077,-0.0407763
0.362177,-2.94311,0.188162,20.8796,-0.752223,-0.175094,-0.0407694
0.363215,-2.94415,0.189121,20.8804,-0.751454,-0.17503,-0.0405672
0.362236,-2.94349,0.188312,20.8798,-0.751292,-0.174896,-0.0406241
0.361056,-2.94291,0.187909,20.8797,-0.751253,-0.174934,-0.0404783
0.360488,-2.94224,0.187656,20.8787,-0.751322,-0.174771,-0.0401927
0.360461,-2.94306,0.187744,20.8792,-0.751486,-0.174667,-0.0401367
0.360753,-2.94253,0.188131,20.8799,-0.751011,-0.174693,-0.0403226
0.360853,-2.9419,0.18837,20.8799,-0.750591,-0.174912,-0.0402122
0.361257,-2.94087,0.187753,20.8789,-0.750427,-0.174987,-0.0402324
0.362246,-2.94044,0.189174,20.8789,-0.750386,-0.175014,-0.0401325
0.363276,-2.94101,0.188876,20.8795,-0.750557,-0.175038,-0.0402797
0.364027,-2.94151,0.18913,20.8799,-0.751122,-0.174942,-0.0403704
0.363426,-2.94195,0.188631,20.8795,-0.75162,-0.174975,-0.0404504
0.361948,-2.9417,0.1885,20.8789,-0.751336,-0.175004,-0.0404818
0.361118,-2.94117,0.188178,20.8792,-0.750878,-0.17495,-0.0400782
0.361017,-2.94228,0.188411,20.8805,-0.751611,-0.174943,-0.0401141
0.362034,-2.94358,0.188203,20.8803,-0.752362,-0.175171,-0.040185
0.361193,-2.94393,0.187916,20.8788,-0.752301,-0.175138,-0.0400515
0.359188,-2.94567,0.186731,20.8786,-0.752557,-0.175069,-0.0398553
0.358998,-2.94688,0.185479,20.8784,-0.752783,-0.175204,-0.0398782
0.358988,-2.94685,0.185305,20.8784,-0.752569,-0.175206,-0.0398984
0.358664,-2.94666,0.185048,20.8779,-0.751966,-0.175208,-0.0397202
0.357588,-2.94634,0.184821,20.8783,-0.750607,-0.17517,-0.0399158
0.358217,-2.94589,0.185035,20.878,-0.750338,-0.175411,-0.0397355
0.35751,-2.94566,0.184499,20.8774,-0.7501,-0.175585,-0.0396548
0.357833,-2.94545,0.184441,20.8783,-0.749788,-0.17562,-0.0397405
0.359223,-2.9448,0.184492,20.8792,-0.750546,-0.175691,-0.0396593
0.358871,-2.94438,0.185158,20.8793,-0.751112,-0.175479,-0.0397052
0.359034,-2.9429,0.185643,20.8778,-0.751404,-0.175605,-0.0397849
0.359494,-2.94223,0.185139,20.8776,-0.751456,-0.175717,-0.0398945
0.360216,-2.94179,0.185522,20.8786,-0.751087,-0.175776,-0.0399913
0.360379,-2.94173,0.186791,20.8792,-0.751279,-0.175593,-0.0401158
0.360996,-2.94135,0.186567,20.8798,-0.750931,-0.17551,-0.0401866
0.360594,-2.94181,0.186265,20.8799,-0.751038,-0.175515,-0.0404058
0.359765,-2.94158,0.186205,20.88,-0.751236,-0.175402,-0.0404817
0.361402,-2.94122,0.186463,20.88,-0.750893,-0.175341,-0.0406663
0.36269,-2.94217,0.186898,20.8796,-0.751211,-0.175288,-0.0404763
0.36272,-2.94127,0.187798,20.8799,-0.750871,-0.17524,-0.0406615
0.363063,-2.94158,0.187662,20.8795,-0.750778,-0.17512,-0.0407073
0.362259,-2.94248,0.187956,20.8791,-0.750593,-0.174936,-0.0407478
0.36155,-2.9436,0.187698,20.8794,-0.750739,-0.174773,-0.0405089
0.360293,-2.94458,0.186849,20.8794,-0.750869,-0.174983,-0.0401805
0.358551,-2.94514,0.185687,20.8792,-0.750776,-0.175206,-0.0400475
0.35891,-2.94641,0.184661,20.8783,-0.751832,-0.175247,-0.0400086
0.358753,-2.94564,0.184169,20.8788,-0.751833,-0.175244,-0.039739
0.359877,-2.9456,0.184563,20.8803,-0.752558,-0.175163,-0.0396187
0.360396,-2.94572,0.185428,20.8805,-0.752267,-0.175013,-0.0396694
0.360854,-2.94613,0.185053,20.8792,-0.751596,-0.174998,-0.0397926
0.359678,-2.94556,0.184618,20.8786,-0.751314,-0.175024,-0.0397836
0.358957,-2.94457,0.184442,20.8795,-0.750859,-0.175125,-0.039462
0.359426,-2.94402,0.185528,20.8809,-0.750353,-0.174862,-0.0395311
0.360945,-2.94417,0.186796,20.8807,-0.749183,-0.174904,-0.0394352
0.361022,-2.94382,0.187295,20.8809,-0.749185,-0.175019,-0.0394291
0.360775,-2.9432,0.187632,20.8805,-0.749394,-0.174925,-0.0391883
0.36103,-2.94344,0.187929,20.8804,-0.749578,-0.174921,-0.0389759
0.360466,-2.94381,0.187674,20.8809,-0.749844,-0.175113,-0.0389844
0.359494,-2.94382,0.187656,20.8821,-0.749871,-0.175047,-0.0391881
0.358636,-2.94288,0.18733,20.8819,-0.749999,-0.175106,-0.0392894
0.358195,-2.94237,0.187559,20.8798,-0.750216,-0.17512,-0.0394572
0.358121,-2.94129,0.187968,20.8791,-0.75051,-0.175092,-0.0397622
0.359162,-2.94191,0.189053,20.8801,-0.750563,-0.175107,-0.0397568
0.360713,-2.94294,0.188873,20.8806,-0.75092,-0.17512,-0.0398305
0.359712,-2.94352,0.1883,20.8792,-0.750718,-0.17525,-0.039974
0.359302,-2.94357,0.186864,20.8785,-0.750953,-0.175364,-0.0398261
0.357519,-2.9444,0.186734,20.8781,-0.751057,-0.175347,-0.039774
0.357999,-2.94387,0.186516,20.8794,-0.751563,-0.175332,-0.0398849
0.358265,-2.94482,0.186634,20.8795,-0.751906,-0.175476,-0.0401004
0.357867,-2.94455,0.186428,20.8785,-0.752622,-0.175445,-0.0400553
0.3572,-2.94353,0.186039,20.8784,-0.753151,-0.17538,-0.0400155
0.35756,-2.9431,0.186109,20.8784,-0.752687,-0.175361,-0.0402548
0.360246,-2.94177,0.187206,20.8799,-0.752484,-0.17554,-0.0401916
0.361195,-2.94155,0.18745,20.8812,-0.752098,-0.175463,-0.0403318
0.360216,-2.94211,0.188621,20.8812,-0.751242,-0.175177,-0.0399283
0.360216,-2.94211,0.188621,20.8812,-0.751242,-0.175177,-0.0399283
0.360853,-2.94137,0.189216,20.881,-0.750795,-0.175143,-0.0396289
0.361257,-2.9412,0.189534,20.8805,-0.750504,-0.175308,-0.0394823
0.360508,-2.94151,0.18878,20.8798,-0.750351,-0.17518,-0.0393137
0.359847,-2.94164,0.188321,20.8797,-0.750733,-0.175263,-0.0393218
0.360053,-2.94222,0.189055,20.8799,-0.751173,-0.175454,-0.0396819
0.360077,-2.94147,0.188771,20.8806,-0.751562,-0.175388,-0.0399605
0.358677,-2.94176,0.188107,20.8805,-0.750664,-0.175368,-0.0398534
0.357757,-2.94138,0.188245,20.8798,-0.750802,-0.175233,-0.0398765
0.357261,-2.94136,0.188056,20.8792,-0.751338,-0.175427,-0.0397008
0.358561,-2.9415,0.188303,20.8793,-0.751397,-0.175638,-0.0395066
0.359551,-2.94084,0.189142,20.8795,-0.75269,-0.175628,-0.0396097
0.360266,-2.94151,0.190193,20.8786,-0.752694,-0.17558,-0.0397791
0.360107,-2.94179,0.190396,20.8772,-0.752904,-0.175381,-0.0398502
0.359651,-2.94188,0.190058,20.8775,-0.752779,-0.175205,-0.0395992
0.358775,-2.94307,0.18976,20.878,-0.752979,-0.17505,-0.0398875
0.358317,-2.94348,0.189704,20.8776,-0.752845,-0.175109,-0.0398674
0.358387,-2.94227,0.189654,20.8772,-0.753451,-0.175161,-0.0400457
0.360503,-2.94246,0.18992,20.8771,-0.753262,-0.175247,-0.0398109
0.360158,-2.94232,0.190466,20.8775,-0.752784,-0.175126,-0.0395253
0.360644,-2.94219,0.19012,20.8777,-0.752363,-0.174941,-0.0394301
0.36123,-2.94192,0.190331,20.8772,-0.752302,-0.175013,-0.0395814
0.360011,-2.9412,0.189484,20.8764,-0.752041,-0.174841,-0.0396365
0.358302,-2.94089,0.18946,20.8767,-0.752845,-0.174729,-0.0397636
0.35869,-2.94077,0.189542,20.8768,-0.75283,-0.174747,-0.0397188
0.35919,-2.94145,0.189615,20.8767,-0.753024,-0.174685,-0.0396401
0.359158,-2.94079,0.189679,20.8769,-0.753092,-0.17463,-0.0397275
0.359603,-2.94053,0.189736,20.8771,-0.753359,-0.17466,-0.0398046
0.360154,-2.94045,0.189475,20.8769,-0.753387,-0.174608,-0.0399119
0.359851,-2.94023,0.189556,20.8768,-0.753309,-0.174759,-0.0400458
0.360372,-2.94018,0.189627,20.8771,-0.753343,-0.174773,-0.0399287
0.360675,-2.94031,0.189483,20.8769,-0.753684,-0.174591,-0.0396684
0.361574,-2.94089,0.189252,20.8759,-0.75326,-0.174782,-0.0397917
0.362683,-2.94108,0.189566,20.8761,-0.752576,-0.174716,-0.0399005
0.36382,-2.94157,0.189946,20.877,-0.752179,-0.174775,-0.040075
0.364507,-2.94106,0.190385,20.8779,-0.752139,-0.174945,-0.0401897
0.364482,-2.94092,0.190566,20.8776,-0.752001,-0.174977,-0.0400949
0.363828,-2.94064,0.189794,20.8763,-0.751775,-0.175045,-0.0398151
0.36325,-2.94086,0.190044,20.8763,-0.751576,-0.175065,-0.0399604
0.363373,-2.94154,0.189437,20.8763,-0.75171,-0.175123,-0.0402455
0.362849,-2.94229,0.189108,20.8765,-0.752139,-0.17533,-0.0405755
0.361913,-2.94374,0.189646,20.8766,-0.752311,-0.175239,-0.0405138
0.360613,-2.94345,0.189189,20.8763,-0.752566,-0.175158,-0.0406162
0.359623,-2.94271,0.188786,20.8759,-0.751446,-0.175009,-0.0402751
0.359698,-2.94317,0.188741,20.8768,-0.750975,-0.174876,-0.0401703
0.359606,-2.94373,0.188494,20.8786,-0.750663,-0.174642,-0.0401169
0.359209,-2.94343,0.189104,20.8781,-0.750388,-0.174357,-0.0400307
0.359174,-2.94302,0.188711,20.8765,-0.750972,-0.174458,-0.0399545
0.358512,-2.94201,0.189088,20.8767,-0.751281,-0.174705,-0.0398481
0.359033,-2.94129,0.188593,20.8778,-0.751036,-0.174608,-0.040068
0.360599,-2.94065,0.189709,20.8789,-0.750821,-0.174641,-0.0399874
0.361665,-2.9404,0.190693,20.8783,-0.751044,-0.174552,-0.0398772
0.360868,-2.93971,0.189803,20.8765,-0.750827,-0.174513,-0.039623
0.36048,-2.93988,0.188914,20.8757,-0.750429,-0.174635,-0.039634
0.362034,-2.93957,0.189578,20.876,-0.750388,-0.174625,-0.039526
0.363563,-2.93945,0.190577,20.8769,-0.751076,-0.174656,-0.0394307
0.363964,-2.93918,0.190321,20.8776,-0.750855,-0.174918,-0.0395035
0.362423,-2.93942,0.189578,20.8773,-0.750247,-0.174797,-0.0396854
0.361379,-2.93995,0.189336,20.8761,-0.74971,-0.174847,-0.0396106
0.360142,-2.93931,0.18933,20.8763,-0.750167,-0.17489,-0.0398191
0.360156,-2.94095,0.189221,20.8782,-0.750157,-0.17489,-0.0400032
0.360326,-2.94256,0.188814,20.8795,-0.749837,-0.174889,-0.0400871
0.360002,-2.94351,0.189283,20.8783,-0.749452,-0.174928,-0.0400043
0.357979,-2.94372,0.188144,20.8771,-0.749319,-0.174845,-0.0394999
0.357931,-2.94405,0.18745,20.8771,-0.749098,-0.175085,-0.0394077
0.358362,-2.94388,0.187872,20.8783,-0.749524,-0.175101,-0.0392871
0.359691,-2.94309,0.188245,20.8782,-0.750106,-0.175272,-0.0391415
0.359758,-2.94256,0.188263,20.8781,-0.75031,-0.175187,-0.0392483
0.359816,-2.94208,0.1889,20.8773,-0.751007,-0.175269,-0.0393817
0.35971,-2.94103,0.189255,20.876,-0.750381,-0.175067,-0.0394995
0.360881,-2.94169,0.189465,20.876,-0.750138,-0.175203,-0.039525
0.361281,-2.94179,0.189547,20.8769,-0.749718,-0.175283,-0.0393514
0.360845,-2.94251,0.189412,20.8775,-0.750174,-0.175197,-0.0393551
0.360461,-2.94173,0.1895,20.877,-0.749542,-0.1752,-0.0395936
0.360753,-2.94151,0.189991,20.8771,-0.749916,-0.17532,-0.0396865
0.3618,-2.94148,0.191149,20.8781,-0.749831,-0.175191,-0.0397292
0.362409,-2.94239,0.191654,20.8791,-0.750378,-0.175116,-0.0397669
0.361998,-2.94178,0.191375,20.8793,-0.751688,-0.175167,-0.0398394
0.360215,-2.94093,0.191129,20.8784,-0.751395,-0.175173,-0.0400211
0.359272,-2.9408,0.190912,20.8788,-0.751447,-0.1751,-0.0400245
0.359546,-2.94085,0.191134,20.8797,-0.750976,-0.174957,-0.0400275
0.359788,-2.94121,0.190606,20.8801,-0.751699,-0.175027,-0.039991
0.359843,-2.94153,0.189933,20.8796,-0.752026,-0.174932,-0.0398803
0.359102,-2.94212,0.189753,20.8788,-0.751797,-0.174652,-0.039861
0.358606,-2.94312,0.190008,20.8786,-0.752009,-0.174797,-0.0397656
0.358011,-2.94369,0.189715,20.8787,-0.752506,-0.174808,-0.0398383
0.357485,-2.94292,0.18894,20.8795,-0.752428,-0.174817,-0.0399416
0.357653,-2.94383,0.188566,20.8799,-0.752049,-0.175021,-0.0400328
0.357643,-2.94321,0.187926,20.8786,-0.752128,-0.174966,-0.0399956
0.358898,-2.94297,0.189016,20.8787,-0.75168,-0.17527,-0.0398452
0.35969,-2.94261,0.189771,20.8785,-0.751595,-0.175382,-0.03983
0.361021,-2.9426,0.190748,20.8793,-0.752141,-0.175128,-0.0398951
0.361405,-2.94212,0.190265,20.8786,-0.751692,-0.175256,-0.0399918
0.360796,-2.94186,0.19015,20.8783,-0.750779,-0.175409,-0.0403516
0.360417,-2.94178,0.18922,20.8785,-0.751007,-0.175269,-0.0405907
0.360399,-2.94156,0.189641,20.8782,-0.751208,-0.175185,-0.0407625
0.360856,-2.94215,0.189599,20.8776,-0.751489,-0.175228,-0.0407964
0.361102,-2.9422,0.191216,20.8767,-0.751117,-0.175227,-0.0409833
0.360687,-2.94319,0.192023,20.8769,-0.750788,-0.175148,-0.0409129
0.360637,-2.94327,0.192529,20.8777,-0.750291,-0.175195,-0.0408899
0.361066,-2.94366,0.192975,20.877,-0.750059,-0.17512,-0.0409089
0.360497,-2.9448,0.192747,20.8774,-0.750786,-0.175171,-0.0409257
0.35968,-2.94469,0.191926,20.8781,-0.751634,-0.175176,-0.0409797
0.35959,-2.9446,0.191926,20.8786,-0.750727,-0.175338,-0.0405175
0.359668,-2.94389,0.191201,20.8778,-0.750547,-0.175324,-0.0406587
0.359896,-2.94452,0.19201,20.878,-0.750492,-0.17543,-0.0405872
0.359307,-2.94477,0.191896,20.8792,-0.750444,-0.175484,-0.0402888
0.358787,-2.94451,0.190968,20.8794,-0.751229,-0.175492,-0.0403
0.358486,-2.94428,0.191287,20.879,-0.7513,-0.175577,-0.0399177
0.35822,-2.94313,0.190638,20.8796,-0.751674,-0.175614,-0.0393842
0.359566,-2.9418,0.190995,20.8806,-0.751487,-0.175724,-0.0392664
0.361069,-2.94205,0.191828,20.8805,-0.752459,-0.175508,-0.0392016
0.362237,-2.94179,0.191943,20.8789,-0.751973,-0.175278,-0.0393405
0.361847,-2.94172,0.190906,20.8789,-0.751957,-0.175311,-0.0393455
0.361344,-2.94151,0.190715,20.8789,-0.751116,-0.175104,-0.0395067
0.360585,-2.94242,0.190236,20.8788,-0.750891,-0.174882,-0.0395706
0.361652,-2.94338,0.18971,20.8789,-0.751002,-0.174804,-0.0394701
0.360541,-2.94376,0.189142,20.8793,-0.75079,-0.174853,-0.039499
0.360666,-2.94267,0.189158,20.8793,-0.751017,-0.1747,-0.0397991
0.360776,-2.94313,0.188966,20.879,-0.751321,-0.1748,-0.0397109
0.361821,-2.94307,0.188796,20.8791,-0.751382,-0.174771,-0.0396332
0.361163,-2.94364,0.188543,20.8794,-0.752367,-0.174863,-0.0396037
0.360109,-2.94351,0.187388,20.8788,-0.752512,-0.174983,-0.039617
0.357916,-2.94419,0.186576,20.8779,-0.752226,-0.174933,-0.0396679
0.358507,-2.94479,0.186894,20.8772,-0.752491,-0.175006,-0.0394383
0.359029,-2.94437,0.188209,20.8772,-0.753242,-0.174835,-0.0393141
0.359805,-2.94368,0.188645,20.8778,-0.753284,-0.17488,-0.0393222
0.3597,-2.9445,0.188513,20.878,-0.752701,-0.174763,-0.0392901
0.358818,-2.94443,0.1885,20.8781,-0.752496,-0.174895,-0.0391833
0.358356,-2.94326,0.187764,20.8784,-0.752316,-0.174894,-0.0390499
0.358106,-2.94255,0.187942,20.8784,-0.752053,-0.174775,-0.0390498
0.358359,-2.94302,0.18841,20.8783,-0.751718,-0.174788,-0.0391673
0.358898,-2.94218,0.188615,20.8784,-0.752249,-0.174604,-0.0391534
0.359216,-2.94033,0.188797,20.8783,-0.752408,-0.174519,-0.039298
0.359338,-2.94012,0.189268,20.877,-0.752134,-0.174641,-0.0391903
0.360552,-2.94009,0.189786,20.8767,-0.752721,-0.174591,-0.0392521
0.360992,-2.94054,0.190141,20.8776,-0.752824,-0.174665,-0.0393067
0.360747,-2.94014,0.190143,20.8779,-0.751777,-0.174612,-0.0393548
0.3599,-2.94027,0.189421,20.8777,-0.751681,-0.174605,-0.0394365
0.359153,-2.94086,0.189301,20.8771,-0.751907,-0.17456,-0.0395871
0.358651,-2.94074,0.189092,20.8773,-0.752106,-0.174598,-0.0397199
0.358682,-2.94143,0.189631,20.8773,-0.75042,-0.174554,-0.0399156
0.359025,-2.94267,0.18959,20.8777,-0.750483,-0.174553,-0.0396961
0.35838,-2.94266,0.189967,20.878,-0.750642,-0.17424,-0.0396201
0.358127,-2.94233,0.189163,20.8778,-0.750473,-0.174472,-0.0397098
0.358536,-2.94157,0.189487,20.8775,-0.750634,-0.174443,-0.0396714
0.358106,-2.94247,0.189152,20.8779,-0.750258,-0.174534,-0.0397159
0.356938,-2.94264,0.188857,20.8781,-0.750237,-0.174497,-0.0395199
0.356538,-2.942,0.18839,20.8784,-0.750219,-0.174503,-0.0393469
0.357765,-2.94222,0.188598,20.8782,-0.751444,-0.174627,-0.0391942
0.358848,-2.94242,0.188781,20.8783,-0.750352,-0.174461,-0.0390203
0.358698,-2.94307,0.18853,20.8788,-0.750631,-0.174393,-0.038906
0.358091,-2.94301,0.188411,20.879,-0.750669,-0.174373,-0.0388836
0.357556,-2.94264,0.187996,20.8786,-0.750496,-0.174394,-0.039256
0.358348,-2.94184,0.18794,20.8781,-0.750654,-0.174373,-0.0392709
0.359836,-2.94256,0.188925,20.879,-0.75038,-0.174394,-0.0395585
0.360675,-2.94272,0.18876,20.8794,-0.750655,-0.174648,-0.0396947
0.3611,-2.94254,0.189442,20.8796,-0.751208,-0.174676,-0.0395404
0.36037,-2.94254,0.189009,20.8784,-0.751179,-0.174779,-0.0394042
0.360041,-2.94255,0.188524,20.8786,-0.75105,-0.174909,-0.0393625
0.36054,-2.94286,0.188509,20.8785,-0.750936,-0.174985,-0.0393256
0.361297,-2.9433,0.189221,20.8783,-0.751456,-0.175052,-0.0393323
0.360543,-2.94369,0.188917,20.8778,-0.751915,-0.174954,-0.0394167
0.359562,-2.94435,0.188546,20.8773,-0.75232,-0.174907,-0.0392166
0.359012,-2.94414,0.188839,20.877,-0.751953,-0.175022,-0.03904
0.359159,-2.94332,0.189926,20.8768,-0.751629,-0.174849,-0.0388058
0.360236,-2.94355,0.190057,20.8773,-0.751758,-0.174775,-0.0389912
0.360238,-2.94438,0.189448,20.8783,-0.751974,-0.174553,-0.0391157
0.358819,-2.94448,0.188808,20.8778,-0.752579,-0.174435,-0.0391078
0.358357,-2.94489,0.188243,20.8774,-0.752182,-0.174253,-0.0392186
0.358738,-2.94383,0.188261,20.8779,-0.752452,-0.174523,-0.039081
0.358759,-2.94368,0.187967,20.8779,-0.75238,-0.17437,-0.0389203
0.359409,-2.94386,0.188018,20.8772,-0.75242,-0.174313,-0.0390923
0.358719,-2.9426,0.188477,20.8765,-0.752042,-0.174458,-0.0395186
0.360006,-2.94197,0.188882,20.8766,-0.751811,-0.174509,-0.0395419
0.361141,-2.94204,0.188929,20.8765,-0.751918,-0.174553,-0.0394447
0.361511,-2.94194,0.189177,20.8763,-0.751495,-0.174592,-0.0395551
0.361206,-2.94138,0.188568,20.876,-0.750605,-0.17447,-0.0397309
0.359831,-2.94026,0.187618,20.8754,-0.75106,-0.174636,-0.0397684
0.360197,-2.93926,0.187813,20.876,-0.750635,-0.174587,-0.0399192
0.361152,-2.93918,0.188399,20.8764,-0.750673,-0.174662,-0.040013
0.362785,-2.93958,0.188296,20.8769,-0.75081,-0.174884,-0.0398997
0.362172,-2.93914,0.188205,20.8768,-0.750414,-0.174806,-0.0399174
0.361789,-2.94001,0.188641,20.8768,-0.751202,-0.174894,-0.0398938
0.361768,-2.93937,0.188923,20.8763,-0.75107,-0.174893,-0.0399906
0.361432,-2.94037,0.189483,20.8766,-0.751471,-0.175049,-0.040076
0.361294,-2.94047,0.189459,20.8775,-0.751307,-0.174951,-0.0402299
0.360857,-2.94119,0.188714,20.8775,-0.750646,-0.174904,-0.0403656
0.359523,-2.94135,0.188574,20.876,-0.750579,-0.174745,-0.0402501
0.358504,-2.94055,0.188553,20.8757,-0.750521,-0.174762,-0.0400698
0.359184,-2.94063,0.189466,20.8755,-0.751193,-0.174776,-0.0399106
0.360258,-2.94101,0.189341,20.8764,-0.750752,-0.175025,-0.0399662
0.361838,-2.94088,0.189024,20.8758,-0.750983,-0.174734,-0.0399761
0.36023,-2.94155,0.188433,20.8753,-0.75098,-0.174556,-0.0401809
0.359602,-2.94119,0.187498,20.8758,-0.751185,-0.174359,-0.040244
0.360311,-2.94136,0.187811,20.8763,-0.751676,-0.174421,-0.0402996
0.362042,-2.94166,0.188604,20.8767,-0.751798,-0.174593,-0.0401527
0.361359,-2.94192,0.188477,20.8769,-0.751596,-0.17451,-0.0402583
0.36044,-2.94168,0.187847,20.8766,-0.751315,-0.174319,-0.0401554
0.359471,-2.94131,0.188429,20.8759,-0.751376,-0.174229,-0.0399077
0.359721,-2.94114,0.188633,20.876,-0.750914,-0.174345,-0.0398853
0.360732,-2.94068,0.188812,20.8768,-0.751436,-0.174409,-0.0399831
0.360677,-2.94074,0.189074,20.8774,-0.751277,-0.174543,-0.0398341
0.35968,-2.94111,0.188892,20.8764,-0.751033,-0.174701,-0.0397418
0.35959,-2.9416,0.188731,20.8763,-0.75061,-0.174958,-0.0396604
0.360458,-2.94124,0.188071,20.8772,-0.750238,-0.174871,-0.0395101
0.361857,-2.94108,0.188937,20.8782,-0.750219,-0.174951,-0.0394559
0.362617,-2.94046,0.189805,20.8773,-0.749996,-0.174826,-0.0396434
0.361234,-2.93992,0.189744,20.8774,-0.750006,-0.174637,-0.0395344
0.360014,-2.94007,0.189275,20.8772,-0.749704,-0.174588,-0.0395165
0.361148,-2.94005,0.188966,20.8773,-0.749851,-0.174505,-0.0393047
0.362307,-2.94098,0.18921,20.8772,-0.749878,-0.174471,-0.0393531
0.36333,-2.94148,0.189735,20.8778,-0.750419,-0.174324,-0.0393566
0.362653,-2.94208,0.189475,20.8778,-0.750069,-0.174468,-0.0393989
0.361424,-2.94229,0.188624,20.8771,-0.749967,-0.174439,-0.0397107
0.36034,-2.94185,0.188081,20.8776,-0.75029,-0.174256,-0.0396722
0.358751,-2.94273,0.187498,20.8775,-0.750265,-0.174487,-0.0396381
