Afshin1997/kuka_rl_ros2/src/catch_and_throw/input_files/idealpd/recorded_trajectories/env_239_data.csv
torque0,torque1,torque2,torque3,torque4,torque5,torque6,action0,action1,action2,action3,action4,action5,action6,set_target_0,set_target_1,set_target_2,set_target_3,set_target_4,set_target_5,set_target_6,joint_pos_0,joint_pos_1,joint_pos_2,joint_pos_3,joint_pos_4,joint_pos_5,joint_pos_6,joint_vel_0,joint_vel_1,joint_vel_2,joint_vel_3,joint_vel_4,joint_vel_5,joint_vel_6,tennisball_pos_0,tennisball_pos_1,tennisball_pos_2,tennisball_lin_vel_0,tennisball_lin_vel_1,tennisball_lin_vel_2,end_effector_pos_0,end_effector_pos_1,end_effector_pos_2,end_effector_rot_0,end_effector_rot_1,end_effector_rot_2,end_effector_rot_3,end_effector_lin_vel_0,end_effector_lin_vel_1,end_effector_lin_vel_2,obs_task_0,obs_task_1,obs_task_2,obs_task_3,obs_task_4,obs_task_5,obs_task_6,to_final_target_0,to_final_target_1,to_final_target_2,joint_acc_0,joint_acc_1,joint_acc_2,joint_acc_3,joint_acc_4,joint_acc_5,joint_acc_6
0.0,0.0,0.0,0.0,0.0,0.0,0.0,0.0,0.0,0.0,0.0,0.0,0.0,0.0,1.7802359,-1.0646509,-1.8151424,-1.1170107,1.9373155,1.1170107,-0.91629785,1.7802359,-1.0646509,-1.8151424,-1.1170107,1.9373155,1.1170107,-0.91629785,0.0,0.0,0.0,0.0,0.0,0.0,0.0,2.7119284,-0.22646713,0.18855104,-2.6127293,-0.2403352,5.3813057,0.530416,-0.45449448,0.693097,0.5745483,0.17512383,0.15255436,0.7848268,0.0,0.0,0.0,1.0,0.0,0.0,0.0,0.0,0.0,0.0,-3.3619285,-0.17353287,0.36144897,0.0,0.0,0.0,0.0,0.0,0.0,0.0
0.0,0.0,0.0,0.0,0.0,0.0,0.0,0.0,0.0,0.0,0.0,0.0,0.0,0.0,1.7802359,-1.0646509,-1.8151424,-1.1170107,1.9373155,1.1170107,-0.91629785,1.7802359,-1.0646509,-1.8151424,-1.1170107,1.9373155,1.1170107,-0.91629785,0.0,0.0,0.0,0.0,0.0,0.0,0.0,2.7119284,-0.22646713,0.18855104,-2.6127293,-0.2403352,5.3813057,0.530416,-0.45449448,0.693097,0.5745483,0.17512383,0.15255436,0.7848268,0.0,0.0,0.0,1.0,0.0,0.0,0.0,0.0,0.0,0.0,-3.3619285,-0.17353287,0.36144897,0.0,0.0,0.0,0.0,0.0,0.0,0.0
0.0,0.0,0.0,0.0,0.0,0.0,0.0,0.0,0.0,0.0,0.0,0.0,0.0,0.0,1.7802359,-1.0646509,-1.8151424,-1.1170107,1.9373155,1.1170107,-0.91629785,1.7802359,-1.0646509,-1.8151424,-1.1170107,1.9373155,1.1170107,-0.91629785,0.0,0.0,0.0,0.0,0.0,0.0,0.0,2.7119284,-0.22646713,0.18855104,-2.6127293,-0.2403352,5.3813057,0.530416,-0.45449448,0.693097,0.5745483,0.17512383,0.15255436,0.7848268,0.0,0.0,0.0,1.0,0.0,0.0,0.0,0.0,0.0,0.0,-3.3619285,-0.17353287,0.36144897,0.0,0.0,0.0,0.0,0.0,0.0,0.0
-176.0,84.44208,0.40775108,110.0,11.085623,5.4116416,-3.7932456,-0.8259318,0.42728558,-0.5283826,0.7238796,0.40459377,0.63878846,-0.5795492,1.6976427,-1.0219223,-1.8679806,-1.0446228,1.9777749,1.1808896,-0.97425276,1.7786185,-1.0620626,-1.8205764,-1.1130663,1.9435334,1.1220213,-0.91927713,-0.21571329,0.34454042,-0.7235918,0.5259979,0.82802016,0.66590375,-0.39671007,2.6858206,-0.22887039,0.24158728,-2.610117,-0.2400949,5.2777395,0.5282335,-0.45752335,0.6940327,0.5785779,0.17374629,0.15081957,0.78250456,-0.29083568,-0.4045907,0.12462272,1.0,0.0,0.0,0.0,0.0,0.0,0.0,-3.3358207,-0.17112961,0.30841273,-21.539898,34.25606,-72.11951,52.641445,82.51165,65.97932,-39.52823
-176.0,-3.4697397,-35.66026,110.0,12.462443,2.4768176,-3.1164765,-0.8053193,-0.027529726,-0.5340524,0.70297265,0.46342164,0.63565373,-0.62786996,1.6980865,-1.0648156,-1.8739817,-1.0427691,1.9898756,1.1855867,-0.9820641,1.7763926,-1.0579389,-1.8350894,-1.1012369,1.9569516,1.1353194,-0.92317575,-0.22294062,0.43340325,-1.6950225,1.4043254,1.5122466,1.5445637,-0.3838601,2.6597385,-0.23126984,0.29358864,-2.6075075,-0.23985484,5.1742764,0.5233402,-0.46541977,0.69528556,0.587369,0.17039202,0.14641589,0.7775131,-0.5569044,-0.91614324,0.12595509,1.0,0.0,0.0,0.0,0.0,0.0,0.0,-3.3097386,-0.16873017,0.25641137,-0.13303757,8.379232,-97.47231,88.55188,68.168785,85.87985,2.3739457
-158.52412,104.21287,27.198612,92.98572,8.4232025,7.42091,-1.6704484,-0.7701704,0.26254582,0.07218655,0.5714332,0.53355795,0.65837675,-0.57791233,1.6993755,-1.0316844,-1.8278708,-1.0440936,2.0103073,1.201157,-0.980967,1.7709719,-1.0531019,-1.8501766,-1.0855337,1.972302,1.150622,-0.92715067,-0.64877236,0.49755803,-1.4401853,1.6269118,1.5380116,1.5181,-0.4035223,2.6336832,-0.23366547,0.34455615,-2.6049004,-0.23961502,5.070917,0.5155721,-0.47616577,0.6980257,0.598959,0.16554211,0.14044948,0.7707904,-0.85754716,-1.1210561,0.3275055,1.0,0.0,0.0,0.0,0.0,0.0,0.0,-3.2836833,-0.16633454,0.20544386,-42.688267,5.4857674,27.41978,22.612953,1.2417078,-4.832411,-2.4291813
-102.072205,105.26062,39.558434,60.19231,5.2072387,7.582361,-0.3306797,-0.77981853,0.13950409,0.18950573,0.5983635,0.5234933,0.62989664,-0.593637,1.6929901,-1.0391514,-1.831226,-1.0256974,2.0246513,1.2136117,-0.9865144,1.761397,-1.0485891,-1.8597705,-1.0695559,1.9863687,1.1648184,-0.93124765,-1.0615422,0.43389013,-0.7921184,1.5889024,1.3583556,1.3827664,-0.41401887,2.6076536,-0.2360611,0.39449084,-2.602296,-0.23937544,4.967661,0.50527954,-0.48777008,0.70260763,0.61144614,0.15935098,0.13332216,0.7635221,-1.0979375,-1.1636052,0.50641745,1.0,0.0,0.0,0.0,0.0,0.0,0.0,-3.2576537,-0.16393891,0.15550917,-41.602684,-7.015574,66.95837,-3.5907984,-19.277836,-14.716768,-1.7517924
-45.20561,117.263855,49.016155,33.669083,2.221914,6.8439174,0.39961988,-0.7977314,0.209934,0.24044596,0.59962595,0.57564855,0.6271779,-0.5828208,1.6816238,-1.0275958,-1.8357259,-1.0095932,2.0439334,1.2275362,-0.9895297,1.748448,-1.0445589,-1.8625152,-1.0549799,1.9984078,1.177487,-0.9354343,-1.3738053,0.39132404,-0.09606643,1.4137436,1.1492836,1.2267183,-0.422703,2.5816498,-0.23845291,0.44339374,-2.5996943,-0.23913613,4.8645077,0.4931903,-0.49891663,0.7088206,0.6236413,0.15190665,0.12530594,0.7565013,-1.2582086,-1.0858384,0.6616295,1.0,0.0,0.0,0.0,0.0,0.0,0.0,-3.2316499,-0.1615471,0.106606275,-31.564426,-4.7023478,71.36769,-17.541145,-21.836163,-16.025162,-1.6120493
-3.7052398,123.337746,50.12877,16.754704,-0.007902384,5.2956424,0.50640064,-0.8105699,0.31222373,0.23749307,0.5966109,0.58150166,0.61743695,-0.58878314,1.6673911,-1.0133365,-1.8387659,-0.99531883,2.056558,1.2392308,-0.9943126,1.7334105,-1.0403818,-1.8597858,-1.0422465,2.008665,1.1887251,-0.9396953,-1.5479156,0.4252447,0.39987648,1.2261817,0.9830441,1.0895343,-0.42943856,2.5556726,-0.24084091,0.49126586,-2.5970953,-0.23889706,4.761458,0.4800849,-0.50886154,0.71634394,0.63509506,0.14347918,0.11700851,0.749918,-1.3392402,-0.9510971,0.7817815,1.0,0.0,0.0,0.0,0.0,0.0,0.0,-3.2056727,-0.1591591,0.05873415,-17.672205,3.0649245,50.762688,-18.872595,-17.09777,-13.70337,-1.3306022
18.080868,127.59382,47.210503,9.150605,-1.4386077,3.7855158,0.23626167,-0.823153,0.4366645,0.17697039,0.585149,0.5671144,0.61067694,-0.588148,1.6510952,-0.99671537,-1.8420887,-0.98373157,2.0653765,1.2497928,-0.9985101,1.7174612,-1.0351518,-1.8542011,-1.0310732,2.0176563,1.1987559,-0.94400877,-1.6114073,0.5545295,0.6137702,1.0807512,0.8708785,0.9750328,-0.43376842,2.5297213,-0.24322891,0.5381083,-2.5944986,-0.23865822,4.6585116,0.46659613,-0.5173416,0.7248588,0.6458779,0.1344208,0.1092297,0.74353325,-1.3620526,-0.80034363,0.8721378,1.0,0.0,0.0,0.0,0.0,0.0,0.0,-3.1797214,-0.1567711,0.011891723,-6.572008,12.669987,22.11219,-14.637065,-11.386072,-11.237931,-0.97492933
29.956924,122.960106,42.278576,4.195638,-2.0979295,2.5271912,0.08427107,-0.8258598,0.5141434,0.16606207,0.53702915,0.6075148,0.6095677,-0.5902278,1.6348753,-0.98373747,-1.8375949,-0.9773703,2.0784078,1.2597126,-1.0030315,1.7014128,-1.0283026,-1.8479755,-1.0210959,2.0260296,1.2077948,-0.9483537,-1.6034367,0.7277109,0.6269571,0.9697756,0.8260779,0.88116807,-0.4362511,2.5037956,-0.24561691,0.583922,-2.5919046,-0.23841962,4.5556674,0.45316076,-0.5243492,0.7340588,0.656138,0.12509058,0.102456704,0.7371145,-1.3458257,-0.6543408,0.9329137,1.0,0.0,0.0,0.0,0.0,0.0,0.0,-3.1537957,-0.1543831,-0.033922017,0.5794287,17.120625,1.8132567,-11.187374,-4.522407,-9.102178,-0.6839812
33.351078,119.844864,39.37272,3.697051,-2.1795647,1.9212487,-0.03536417,-0.82038903,0.59743303,0.16691495,0.5176821,0.6147846,0.61769754,-0.59855217,1.6193739,-0.96855927,-1.831284,-0.9693277,2.087508,1.2695645,-1.0082089,1.6857096,-1.019607,-1.8423698,-1.0119082,2.0342464,1.216025,-0.95272154,-1.5599694,0.91646314,0.53969496,0.90135455,0.8201808,0.80458903,-0.4381774,2.4778967,-0.24799728,0.6287081,-2.5893133,-0.23818126,4.452926,0.439991,-0.52999115,0.7437907,0.66602266,0.115669586,0.096854515,0.73051596,-1.313725,-0.520338,0.98357826,1.0,0.0,0.0,0.0,0.0,0.0,0.0,-3.1278968,-0.15200272,-0.07870811,4.1458845,18.714596,-8.336854,-6.9278955,-0.58180094,-7.4169755,-0.5591214
31.113527,113.843475,36.925594,5.0710163,-1.7924798,1.7068138,-0.04118413,-0.8166509,0.6564879,0.18820496,0.50201935,0.63802797,0.62108326,-0.5952461,1.6040446,-0.95395815,-1.8235493,-0.9617062,2.0980492,1.2781333,-1.0122461,1.6704851,-1.0091699,-1.8377082,-1.0031668,2.0426044,1.2235914,-0.9571008,-1.5104598,1.085697,0.44297308,0.86491215,0.841013,0.7412765,-0.4389001,2.4520226,-0.25037766,0.6724675,-2.5867245,-0.23794314,4.350288,0.4271207,-0.53442764,0.7539969,0.67561555,0.1061975,0.09227979,0.72370577,-1.2829758,-0.4033659,1.0302199,1.0,0.0,0.0,0.0,0.0,0.0,0.0,-3.1020226,-0.14962235,-0.12246752,4.7738075,16.788435,-9.318197,-3.7386537,2.0995975,-6.186199,-0.3930211
26.042868,100.67924,32.147823,5.8639355,-1.3372803,1.418993,-0.01717544,-0.8087927,0.6895169,0.17475323,0.48538557,0.63950694,0.63077486,-0.58933115,1.5896058,-0.94021827,-1.8202329,-0.9546282,2.1065552,1.2866689,-1.0160339,1.6557032,-0.99736917,-1.8339145,-0.9946616,2.0512066,1.2306143,-0.9614782,-1.4679058,1.2112578,0.35921228,0.8453804,0.86694664,0.6897049,-0.43839097,2.426175,-0.25275803,0.7152013,-2.5841384,-0.23770526,4.247752,0.4145112,-0.53785324,0.7645524,0.6849481,0.09671008,0.088487685,0.71670294,-1.2570968,-0.307719,1.0612092,1.0,0.0,0.0,0.0,0.0,0.0,0.0,-3.0761752,-0.14724198,-0.1652013,4.100132,12.452269,-8.056492,-2.0803452,2.6192665,-5.06711,-0.23599267
20.458931,87.00111,27.450733,6.5852394,-0.85308707,1.182946,0.02823812,-0.8010969,0.7108683,0.16467169,0.47484902,0.65397364,0.6347657,-0.5815276,1.5755935,-0.92628235,-1.8174473,-0.94717675,2.1166039,1.2940909,-1.0196309,1.6412588,-0.9846672,-1.8307579,-0.9862855,2.0600834,1.2371947,-0.96584314,-1.4371284,1.2894869,0.30197662,0.8345523,0.8948388,0.6475648,-0.4367712,2.4003525,-0.25513077,0.75691056,-2.5815547,-0.23746762,4.145319,0.40209913,-0.54047394,0.77529866,0.6940225,0.08725095,0.08520887,0.7095488,-1.238262,-0.23276149,1.0762131,1.0,0.0,0.0,0.0,0.0,0.0,0.0,-3.0503526,-0.14486924,-0.20691055,2.9395819,7.7469587,-5.427271,-1.2429476,2.8251886,-4.1499734,-0.106316805
15.520078,75.47651,23.416807,6.8106947,-0.5146177,0.9932723,0.07250557,-0.8014964,0.72699887,0.15433344,0.45275295,0.6636817,0.6424643,-0.5802433,1.5611092,-0.9119673,-1.8153245,-0.94101024,2.1264515,1.3014411,-1.0238675,1.6270033,-0.9714645,-1.827996,-0.97806007,2.0692196,1.2434145,-0.97019,-1.4220408,1.330286,0.26856196,0.81788176,0.9198752,0.61386037,-0.4349419,2.3745565,-0.2575035,0.79759616,-2.5789738,-0.23723021,4.0429883,0.3898239,-0.5424652,0.7860807,0.7028245,0.07786958,0.08223272,0.7022904,-1.2252027,-0.17290196,1.0759782,1.0,0.0,0.0,0.0,0.0,0.0,0.0,-3.0245566,-0.1424965,-0.24759614,1.3754845,4.0262938,-3.0552745,-1.8570423,2.547896,-3.3009887,-0.07300973
15.163986,68.73869,21.44928,5.835308,-0.42184526,0.85453886,0.14762872,-0.7909108,0.7366441,0.15922505,0.4303784,0.6690067,0.6443228,-0.57109904,1.5479122,-0.8978001,-1.8120735,-0.93502223,2.1361203,1.3078468,-1.0272999,1.6128603,-0.95804536,-1.8253772,-0.97007304,2.0785618,1.2493464,-0.97451395,-1.412125,1.345717,0.26058176,0.79154545,0.9393552,0.5868179,-0.4324127,2.3487864,-0.25987625,0.8372593,-2.5763953,-0.23699303,3.9407604,0.37768126,-0.54390335,0.7967903,0.7113036,0.06858486,0.07941893,0.6950079,-1.2114655,-0.11818405,1.0664413,1.0,0.0,0.0,0.0,0.0,0.0,0.0,-2.9987864,-0.14012375,-0.28725928,0.8612156,1.504302,-0.50444007,-2.8434396,1.9919634,-2.606964,-0.00538826
13.215399,64.30353,19.863283,5.865561,-0.31861532,0.7722757,0.17395818,-0.7960669,0.7424149,0.16077001,0.4076365,0.6749657,0.6416136,-0.571239,1.5332537,-0.88380384,-1.8093002,-0.92930937,2.1460583,1.3135078,-1.0316379,1.5987421,-0.94457567,-1.8227279,-0.96241695,2.0880642,1.2550455,-0.97881407,-1.4120482,1.347338,0.26736957,0.75620323,0.95401436,0.56472695,-0.43009102,2.323042,-0.26224136,0.87590086,-2.5738194,-0.23675607,3.8386345,0.3656597,-0.54481506,0.8073596,0.71943396,0.059407555,0.07668921,0.687753,-1.199256,-0.06855922,1.0507791,1.0,0.0,0.0,0.0,0.0,0.0,0.0,-2.973042,-0.13775864,-0.32590085,-0.12345314,0.1341343,0.97044706,-3.7507534,1.5156388,-2.0946026,-0.017666817
14.930796,62.75132,19.478971,4.825038,-0.39403588,0.6744396,0.22512028,-0.7881527,0.74556416,0.16751169,0.3797905,0.6838537,0.6444582,-0.5558429,1.5199269,-0.87001926,-1.8059767,-0.9244379,2.1564496,1.3194914,-1.0343983,1.5846335,-0.9311317,-1.8199413,-0.9551824,2.0976963,1.2605597,-0.98308176,-1.4109372,1.343427,0.2833755,0.7117833,0.9664888,0.5472535,-0.4265602,2.2973232,-0.26460648,0.913522,-2.5712461,-0.23651935,3.7366107,0.35378838,-0.5452385,0.8177492,0.72717917,0.05033923,0.074010774,0.6805871,-1.1826034,-0.018066663,1.0318922,1.0,0.0,0.0,0.0,0.0,0.0,0.0,-2.9473233,-0.13539353,-0.363522,-0.017380714,-0.41134357,1.8919826,-4.660547,1.3000011,-1.6031861,0.10488629
18.566566,65.447495,20.740257,3.352593,-0.60996485,0.6761668,0.3029718,-0.7866422,0.75525904,0.19809546,0.33166403,0.6871621,0.637511,-0.5534227,1.5059693,-0.85560584,-1.8001317,-0.92201596,2.1664126,1.3243108,-1.038424,1.5705363,-0.91769445,-1.8168571,-0.9485305,2.1074314,1.2659174,-0.9873161,-1.409799,1.343818,0.3176616,0.6489512,0.9757465,0.5326576,-0.42318967,2.2716303,-0.2669716,0.95012367,-2.5686753,-0.23628287,3.6346889,0.3421321,-0.5450783,0.8279663,0.7344735,0.04136089,0.071380444,0.6736043,-1.1591233,0.040852323,1.0149982,1.0,0.0,0.0,0.0,0.0,0.0,0.0,-2.9216304,-0.13302842,-0.40012366,-0.019598007,0.020098686,3.7433326,-6.4935327,0.9731293,-1.2843609,0.08531809
21.538403,68.12008,21.700636,2.562138,-0.7936942,0.64150786,0.33549032,-0.77815205,0.76578,0.21060894,0.30035055,0.68779993,0.6458715,-0.53694314,1.4927211,-0.8411164,-1.7957962,-0.9184954,2.1762114,1.3305045,-1.0410104,1.5564867,-0.90419614,-1.8134105,-0.9425414,2.1172314,1.2711569,-0.9915075,-1.4036245,1.3517287,0.3548606,0.58146834,0.9817177,0.52171373,-0.41860318,2.2459621,-0.2693329,0.98570687,-2.5661073,-0.23604663,3.532869,0.33075237,-0.54429245,0.8380357,0.74128145,0.032439094,0.06883227,0.66686696,-1.1291525,0.10520591,1.000755,1.0,0.0,0.0,0.0,0.0,0.0,0.0,-2.8959622,-0.13066712,-0.43570685,0.49033165,0.77631474,4.0246487,-6.9422364,0.65375566,-0.89689493,0.21345615
20.885191,66.34641,20.572582,2.375595,-0.8508894,0.4852306,0.3171546,-0.783053,0.7698139,0.20636576,0.25789848,0.68974984,0.64388835,-0.526243,1.4781815,-0.8272148,-1.792774,-0.91675156,2.1862063,1.3355458,-1.0441318,1.5424753,-0.89059865,-1.8096893,-0.9372733,2.127077,1.2763029,-0.9956474,-1.4008707,1.3625125,0.37862298,0.50789595,0.9857751,0.5130055,-0.4132145,2.2203207,-0.27169037,1.0202726,-2.5635417,-0.23581062,3.4311512,0.31969357,-0.5428734,0.84793043,0.74761456,0.023600928,0.0664217,0.6603814,-1.0958056,0.16633603,0.9819118,1.0,0.0,0.0,0.0,0.0,0.0,0.0,-2.8703208,-0.12830964,-0.4702726,0.15246868,1.0754347,2.644211,-7.5466394,0.4814744,-0.64913034,0.31849742
23.825508,64.761375,20.049427,0.09134054,-1.0694383,0.2836448,0.38353848,-0.7805706,0.77194434,0.22967806,0.18275365,0.69686383,0.6407709,-0.5255726,1.4644183,-0.8134042,-1.7867215,-0.91899794,2.1967635,1.3403801,-1.0482047,1.5284907,-0.87689817,-1.8057182,-0.93291885,2.1369724,1.2813746,-0.9997367,-1.3981931,1.3726195,0.40411326,0.41055948,0.99093115,0.5061951,-0.40825912,2.194704,-0.27404785,1.0538219,-2.5609787,-0.23557486,3.329535,0.3090377,-0.5408325,0.8575871,0.7534412,0.014910034,0.0641852,0.654205,-1.0524927,0.22917049,0.9562742,1.0,0.0,0.0,0.0,0.0,0.0,0.0,-2.8447042,-0.12595215,-0.5038219,0.14891624,1.0205984,2.80115,-9.923047,0.5981326,-0.40425062,0.28999448
29.279303,62.722057,19.408802,-4.1035924,-1.4978566,-0.03252074,0.49119532,-0.7746565,0.77864236,0.24051882,0.077379085,0.6972522,0.6428661,-0.51650107,1.451025,-0.79903394,-1.7816663,-0.9251809,2.2066977,1.3456612,-1.0513868,1.5145499,-0.8630899,-1.8015144,-0.92984325,2.1469097,1.2863928,-1.0037745,-1.3930688,1.3836035,0.4265687,0.27259886,0.99498796,0.5018004,-0.40295407,2.169114,-0.27640152,1.0863558,-2.5584183,-0.23533933,3.2280204,0.29894304,-0.5381241,0.86690277,0.75867957,0.006475462,0.06219059,0.64845645,-0.9914096,0.29624885,0.91903746,1.0,0.0,0.0,0.0,0.0,0.0,0.0,-2.8191142,-0.123598486,-0.5363558,0.40204525,1.1245728,2.4779737,-13.985843,0.49090385,-0.073421,0.3469944
34.850433,60.633842,18.924116,-8.340862,-1.8880936,-0.3485456,0.61582035,-0.76945233,0.78217024,0.2625026,-0.04002765,0.7044454,0.64463174,-0.50736433,1.4376047,-0.7848729,-1.7752641,-0.933846,2.2173543,1.350856,-1.054511,1.5006777,-0.84918153,-1.7970512,-0.9284566,2.1569004,1.2913805,-1.0077571,-1.3854219,1.393376,0.45365673,0.09337208,1.0006261,0.49946132,-0.39723486,2.143549,-0.27875137,1.1178753,-2.5558603,-0.23510404,3.1266072,0.2895856,-0.53471756,0.87576497,0.7632313,-0.0015818084,0.060485963,0.64328605,-0.9126555,0.36627263,0.87090987,1.0,0.0,0.0,0.0,0.0,0.0,0.0,-2.793549,-0.12124863,-0.5678753,0.67453384,1.0224104,2.905029,-18.09946,0.65829754,0.21502972,0.41652322
41.15286,58.82572,18.7239,-13.3439865,-2.3467019,-0.669891,0.77954125,-0.769668,0.7843577,0.30323672,-0.19885644,0.7038407,0.6356023,-0.4992271,1.423711,-0.77074575,-1.7667276,-0.94834226,2.2272844,1.3549408,-1.0576798,1.4868723,-0.83519304,-1.7921894,-0.9292701,2.1669369,1.2963492,-1.0116805,-1.3791307,1.400939,0.49758124,-0.14002758,1.0049679,0.49785128,-0.39111,2.1180096,-0.28110123,1.1483815,-2.553305,-0.23486899,3.0252955,0.28116035,-0.53055954,0.8840569,0.7669706,-0.009128352,0.05911247,0.63888854,-0.81390035,0.44111302,0.81072557,1.0,0.0,0.0,0.0,0.0,0.0,0.0,-2.7680097,-0.11889878,-0.59838146,0.5701542,0.8210659,4.541045,-23.484116,0.54080486,0.3750801,0.4974842
45.335995,60.508896,19.72726,-15.060442,-2.5406604,-0.81374687,0.85632074,-0.7509698,0.79390496,0.3411362,-0.3073796,0.7068188,0.63055706,-0.47693282,1.4117754,-0.7558025,-1.7580757,-0.960008,2.2376187,1.3594049,-1.0593737,1.4732023,-0.8211082,-1.7867839,-0.9324792,2.1770153,1.3013026,-1.0155295,-1.3629714,1.4112082,0.554957,-0.38150883,1.009555,0.4964628,-0.38318196,2.092496,-0.28345108,1.1778753,-2.5507522,-0.23463418,2.924085,0.27379465,-0.52562714,0.89175874,0.76982856,-0.016125511,0.058074567,0.63539857,-0.7049516,0.5181746,0.7516688,1.0,0.0,0.0,0.0,0.0,0.0,0.0,-2.742496,-0.116548926,-0.62787527,1.6150951,1.1162043,5.770695,-24.23023,0.6205559,0.42538643,0.723809
45.95357,62.8432,21.021797,-14.005591,-2.435944,-0.7869029,0.8803334,-0.73636097,0.7984054,0.40088105,-0.4030883,0.71256125,0.6227866,-0.44573396,1.3995663,-0.7412677,-1.7466959,-0.97278804,2.2482715,1.3635812,-1.0601029,1.4597479,-0.8069204,-1.7806365,-0.9379714,2.1871548,1.3062388,-1.0192813,-1.3394464,1.4217421,0.63431555,-0.6051632,1.0159911,0.49448904,-0.37265155,2.067007,-0.2857933,1.2063577,-2.5482018,-0.2343996,2.8229759,0.26750183,-0.519928,0.89893353,0.77179193,-0.022628581,0.057304036,0.6328833,-0.59739065,0.5944043,0.7008584,1.0,0.0,0.0,0.0,0.0,0.0,0.0,-2.7170072,-0.1142067,-0.6563577,2.4084568,1.1683702,7.828927,-22.38466,0.8892298,0.35758615,1.0273874
43.9081,64.59743,21.87319,-11.096657,-2.1762497,-0.70651996,0.8277188,-0.7147624,0.80481523,0.44690183,-0.47391513,0.7130893,0.6181519,-0.41175607,1.3882717,-0.7264389,-1.7359464,-0.98536295,2.2584636,1.3680539,-1.0604569,1.4465967,-0.792621,-1.773629,-0.9454015,2.1973553,1.3111521,-1.022911,-1.3066888,1.4331707,0.7220048,-0.78879225,1.0223244,0.49201024,-0.35955003,2.041544,-0.28813553,1.2338299,-2.545654,-0.23416524,2.7219677,0.2622223,-0.51348114,0.90568537,0.77290773,-0.028742427,0.0567308,0.63132334,-0.49787137,0.666405,0.66089267,1.0,0.0,0.0,0.0,0.0,0.0,0.0,-2.691544,-0.11186448,-0.68382984,3.3786774,1.2838125,8.522093,-18.33874,0.965786,0.28000474,1.3184309
38.941734,63.73938,21.609613,-6.8751173,-1.762763,-0.6186464,0.7170722,-0.69304156,0.804613,0.48816916,-0.51842934,0.70461273,0.6068574,-0.36920586,1.3772926,-0.7121597,-1.724812,-0.9972444,2.2678165,1.3718379,-1.0598315,1.4338194,-0.77823484,-1.7657516,-0.9542764,2.2075825,1.3160311,-1.026388,-1.267664,1.4410734,0.8084856,-0.920245,1.0242013,0.48822927,-0.34353435,2.0161066,-0.29047775,1.2602926,-2.543109,-0.23393111,2.6210604,0.25783157,-0.5063858,0.9121144,0.77327675,-0.034579422,0.056296226,0.63061714,-0.41227096,0.729124,0.63072246,1.0,0.0,0.0,0.0,0.0,0.0,0.0,-2.6661067,-0.10952225,-0.71029264,4.0285826,0.95169544,8.298958,-13.113129,0.5850792,0.10726452,1.6235888
28.627922,62.832973,20.792404,0.6333885,-1.0568058,-0.36466965,0.5008786,-0.685937,0.81375504,0.5153143,-0.5130012,0.7058707,0.60826,-0.3175941,1.3652257,-0.69685936,-1.7142202,-1.0055765,2.2781696,1.376857,-1.0581474,1.4213835,-0.76375425,-1.7571094,-0.96393234,2.2178211,1.320872,-1.0296782,-1.2351518,1.4509647,0.88143384,-0.9808123,1.0253431,0.48410645,-0.32417783,1.990694,-0.29281235,1.2857472,-2.5405662,-0.23369722,2.5202541,0.25409126,-0.4987526,0.91835773,0.7730817,-0.040290114,0.055946838,0.63054836,-0.35372365,0.7782195,0.61554176,1.0,0.0,0.0,0.0,0.0,0.0,0.0,-2.6406941,-0.10718766,-0.73574716,3.343296,1.1684418,6.907475,-6.058538,0.5592346,-0.008022785,1.9566119
16.475225,58.705406,18.715706,8.520633,-0.25561014,-0.13104582,0.25897628,-0.6859142,0.8123338,0.5364013,-0.48180395,0.69769925,0.6066194,-0.2626002,1.352792,-0.68252087,-1.7034693,-1.0121127,2.287591,1.3815339,-1.0559382,1.4091707,-0.74920404,-1.7478664,-0.9736722,2.2280407,1.3256708,-1.032751,-1.216394,1.4570127,0.93736756,-0.9720145,1.0225934,0.4794082,-0.3017447,1.9653072,-0.29514694,1.3101944,-2.538026,-0.23346357,2.4195485,0.2507105,-0.490757,0.92453814,0.77254593,-0.04601751,0.055633027,0.63084066,-0.32519132,0.809488,0.61195606,1.0,0.0,0.0,0.0,0.0,0.0,0.0,-2.6153073,-0.104853064,-0.76019436,1.8993139,0.7922411,5.231476,0.8074641,0.18296242,-0.15508533,2.2427142
8.07416,52.450012,15.860651,12.482571,0.21539271,-0.11751184,0.11666607,-0.6945374,0.810868,0.54363805,-0.48592094,0.7002371,0.60062224,-0.19113107,1.339717,-0.6681172,-1.6935025,-1.0222644,2.2980645,1.385733,-1.051864,1.3970133,-0.7346252,-1.7382267,-0.98314124,2.2382374,1.3304182,-1.0355681,-1.2156101,1.4587663,0.97183025,-0.9390215,1.0201613,0.47400308,-0.2749638,1.9399462,-0.29748154,1.3336353,-2.5354886,-0.23323016,2.3189437,0.24749184,-0.48257065,0.9306786,0.77183056,-0.051786173,0.05534713,0.63129425,-0.31312677,0.82576126,0.6075627,1.0,0.0,0.0,0.0,0.0,0.0,0.0,-2.5899463,-0.10251847,-0.7836353,0.03838539,0.3553152,3.1623363,3.1701088,0.17693043,-0.28977394,2.6630342
2.1150417,45.76724,12.877842,14.432278,0.494709,-0.20156407,0.012339314,-0.70921844,0.80799925,0.541247,-0.48348528,0.6989363,0.6016139,-0.15146543,1.3260914,-0.6538253,-1.6841019,-1.0314897,2.308131,1.3905796,-1.0507146,1.3847338,-0.72006166,-1.7284076,-0.9922498,2.2484074,1.3351141,-1.0381087,-1.2323573,1.4561609,0.9846367,-0.9020246,1.0172129,0.46881467,-0.24736364,1.9146099,-0.29981232,1.3560709,-2.5329535,-0.23299699,2.2184396,0.24432516,-0.47431183,0.93673205,0.77105004,-0.057543598,0.05512067,0.6317691,-0.31000468,0.82938665,0.59740067,1.0,0.0,0.0,0.0,0.0,0.0,0.0,-2.56461,-0.10018769,-0.80607086,-1.7690897,-0.09357929,1.0835171,3.5250068,0.07212162,-0.31496882,2.7365355
-1.0135994,42.647266,11.544824,15.78072,0.6520261,-0.21692349,-0.044613667,-0.7235312,0.8089586,0.54876155,-0.46324253,0.6993151,0.61044735,-0.11146442,1.3123807,-0.6391658,-1.6735314,-1.038574,2.3183389,1.3961588,-1.0492551,1.3722025,-0.70552766,-1.7185276,-1.0009654,2.2585506,1.33977,-1.0403708,-1.2603421,1.4530861,0.9887606,-0.86206895,1.0148252,0.4649371,-0.21937193,1.8892994,-0.30213928,1.3775022,-2.530421,-0.23276404,2.1180358,0.241148,-0.46605682,0.9426748,0.770276,-0.06326537,0.05497557,0.6321788,-0.31241524,0.827449,0.5859977,1.0,0.0,0.0,0.0,0.0,0.0,0.0,-2.5392995,-0.097860724,-0.8275022,-2.9285192,-0.14719963,0.26564598,3.7997007,0.10454655,-0.21328926,2.7732162
-1.5350819,40.36963,10.881358,16.171785,0.7227667,-0.27005115,-0.04964686,-0.72924364,0.8029462,0.5535037,-0.43394563,0.69610447,0.60750574,-0.035818808,1.2992781,-0.62523305,-1.6631771,-1.0443599,2.328161,1.4005206,-1.0439527,1.3593966,-0.691048,-1.7086284,-1.0092375,2.2686672,1.3443877,-1.0423259,-1.287687,1.446744,0.9897453,-0.8165164,1.0117974,0.46138018,-0.18775669,1.8640146,-0.30446625,1.3979303,-2.5278912,-0.23253131,2.0177324,0.23793554,-0.45784378,0.94850224,0.76952654,-0.06894909,0.05490708,0.63250303,-0.315826,0.8224206,0.5742153,1.0,0.0,0.0,0.0,0.0,0.0,0.0,-2.5140147,-0.09553376,-0.84793025,-2.8707266,-0.47819614,-0.031363964,4.349947,0.029611588,-0.1919508,3.128475
-1.2190619,38.820618,10.473967,15.923172,0.7091884,-0.3344193,-0.038258027,-0.7434933,0.7995397,0.5534899,-0.4163594,0.6938236,0.6125773,0.02677801,1.2850473,-0.61109406,-1.6532794,-1.0508735,2.3380497,1.4056454,-1.039648,1.346316,-0.6766399,-1.698735,-1.0170767,2.2787533,1.3489786,-1.0439471,-1.315145,1.4392545,0.98876643,-0.77372086,1.0084727,0.4588388,-0.15379481,1.8387547,-0.3067894,1.417356,-2.5253637,-0.23229882,1.9175291,0.2347002,-0.44968414,0.95420057,0.76879555,-0.07458648,0.054918636,0.6327512,-0.31776726,0.81649244,0.56107235,1.0,0.0,0.0,0.0,0.0,0.0,0.0,-2.4887547,-0.09321061,-0.867356,-2.8840065,-0.5981207,-0.20992756,4.0750384,-0.013947487,-0.09573698,3.3614545
0.6339531,37.034668,10.101412,14.544628,0.6083633,-0.4667434,0.0077809654,-0.75022846,0.79098696,0.5528704,-0.40632185,0.6905511,0.6161148,0.09482144,1.2712932,-0.5975412,-1.643448,-1.0577089,2.3478084,1.4105902,-1.034465,1.3330027,-0.66233385,-1.6888587,-1.0245574,2.2887974,1.3535525,-1.0452117,-1.3370205,1.4282489,0.98681736,-0.7400851,1.0043793,0.45726112,-0.11735728,1.8135195,-0.30910873,1.4357804,-2.5228388,-0.23206657,1.817426,0.23148584,-0.44159317,0.9597384,0.7680512,-0.080148764,0.055017356,0.6329665,-0.31391647,0.8103135,0.5441771,1.0,0.0,0.0,0.0,0.0,0.0,0.0,-2.4635196,-0.09089127,-0.8857804,-2.3078442,-0.9569645,-0.29881,3.1677485,-0.112104416,0.008094311,3.605999
2.7590718,38.651535,11.2415085,14.304356,0.53879905,-0.4566421,0.062526874,-0.7528875,0.7887078,0.56877095,-0.37706146,0.68987906,0.6208483,0.18429491,1.2577139,-0.5834631,-1.6319816,-1.0622635,2.3577852,1.4156373,-1.0267822,1.3195311,-0.6481298,-1.6789272,-1.0316756,2.2988071,1.3581167,-1.0460795,-1.3507564,1.418346,0.9948126,-0.7031244,1.0010055,0.4565977,-0.07665747,1.78831,-0.31142807,1.4532046,-2.5203166,-0.23183456,1.717423,0.22832966,-0.43352127,0.96513444,0.76723975,-0.08566244,0.05518137,0.63321406,-0.30750722,0.80877495,0.53095746,1.0,0.0,0.0,0.0,0.0,0.0,0.0,-2.4383101,-0.088571936,-0.9032046,-1.4750481,-0.8441925,0.67589283,3.5194993,-0.027179718,0.10601282,4.031555
3.8523145,39.272713,11.93385,14.32086,0.507228,-0.4386168,0.10221693,-0.76078683,0.78216195,0.58443767,-0.3545299,0.68351305,0.63008773,0.26513758,1.2434524,-0.5699136,-1.6204834,-1.0671285,2.3671584,1.4211255,-1.0195657,1.3059489,-0.63402784,-1.6688373,-1.0384123,2.308775,1.362681,-1.0465163,-1.361197,1.407929,1.0131247,-0.664505,0.9963479,0.457113,-0.032888897,1.7631254,-0.3137474,1.4696295,-2.5177968,-0.23160277,1.6175199,0.22524261,-0.42544174,0.9704174,0.7663119,-0.09116908,0.05538927,0.63355047,-0.30024245,0.8104789,0.520166,1.0,0.0,0.0,0.0,0.0,0.0,0.0,-2.4131255,-0.0862526,-0.9196295,-1.136756,-0.8949995,1.699853,3.6981583,-0.14716387,0.22525787,4.3374887
3.8653407,36.654045,11.06211,13.706,0.49116147,-0.53484017,0.10716596,-0.7716093,0.77017653,0.584849,-0.34759003,0.67758965,0.6375474,0.29698107,1.2287879,-0.5570102,-1.6103524,-1.0731714,2.376534,1.4264357,-1.0168182,1.2922522,-0.6200603,-1.6585777,-1.0448267,2.3186855,1.3672587,-1.0465335,-1.3728402,1.3935225,1.0299491,-0.6342339,0.9900627,0.45849413,0.008482487,1.7379665,-0.3160591,1.4850562,-2.5152795,-0.23137121,1.5177166,0.22224331,-0.4173622,0.9755622,0.7652584,-0.096650615,0.055643026,0.63398904,-0.29092088,0.80978155,0.50552684,1.0,0.0,0.0,0.0,0.0,0.0,0.0,-2.3879666,-0.08394089,-0.93505615,-1.25494,-1.3009548,1.5701294,2.8632998,-0.33215284,0.3105402,4.096803
2.7050142,36.874702,11.301242,15.602381,0.6232728,-0.46287265,0.062157877,-0.7743096,0.76960933,0.5889109,-0.29392695,0.6778703,0.6407433,0.351474,1.2148212,-0.5430994,-1.5996866,-1.0742195,2.3864725,1.431333,-1.011386,1.2784544,-0.606212,-1.6481712,-1.0507853,2.328539,1.3718516,-1.0461425,-1.3824283,1.3823853,1.0437368,-0.58380884,0.9852091,0.46003163,0.049248792,1.7128325,-0.31837082,1.4994855,-2.5127647,-0.23113988,1.4180132,0.2192955,-0.40928268,0.98060876,0.76410633,-0.10215387,0.05593159,0.6344901,-0.28711763,0.80887216,0.4972632,1.0,0.0,0.0,0.0,0.0,0.0,0.0,-2.3628325,-0.08162919,-0.9494855,-1.0623932,-0.96879005,1.2630224,4.875362,-0.17471313,0.30976534,4.036162
1.2497668,35.18846,10.644374,17.165108,0.7587949,-0.46503124,-0.002763521,-0.7738439,0.76353455,0.5766173,-0.24458122,0.6704398,0.6436795,0.39247397,1.2010701,-0.5298586,-1.5905094,-1.0752435,2.395583,1.4362195,-1.0068951,1.2645918,-0.5924686,-1.6377285,-1.0560954,2.338335,1.3764597,-1.0453566,-1.3878093,1.3721675,1.0439383,-0.51393706,0.97898686,0.46150658,0.08818983,1.6877232,-0.32068253,1.5129185,-2.5102525,-0.2309088,1.3184094,0.21635151,-0.4012413,0.98559785,0.7629076,-0.10772501,0.0562499,0.63498276,-0.28770694,0.80455935,0.49243298,1.0,0.0,0.0,0.0,0.0,0.0,0.0,-2.3377233,-0.07931748,-0.96291846,-0.6506443,-0.87583065,-0.09183884,6.8089485,-0.31172037,0.28675795,3.8497329
0.18880749,34.638794,10.694312,19.048084,0.92668533,-0.40554115,-0.04982538,-0.7717166,0.7574245,0.57997704,-0.18364081,0.67456543,0.6373888,0.4167191,1.1874201,-0.5167262,-1.5797307,-1.0744594,2.4057915,1.4401987,-1.0036848,1.250712,-0.5788244,-1.6273086,-1.0605395,2.348093,1.3810755,-1.0442065,-1.3883795,1.3623307,1.0410314,-0.4219714,0.97614354,0.46196553,0.12379905,1.6626396,-0.32299042,1.5253563,-2.5077426,-0.23067793,1.2189053,0.21335745,-0.39326096,0.99058455,0.7617049,-0.11342816,0.05656216,0.63540554,-0.2942191,0.7991091,0.49382567,1.0,0.0,0.0,0.0,0.0,0.0,0.0,-2.3126397,-0.07700959,-0.9753563,-0.17514229,-0.83494186,-0.40967464,9.014654,0.03848076,0.16815662,3.512676
2.1003966,34.549595,10.736044,17.398819,0.75474036,-0.5287422,-0.0152665675,-0.77015245,0.7558598,0.5757742,-0.17435338,0.67964125,0.6405594,0.4310235,1.1736968,-0.50323844,-1.5697312,-1.0779748,2.416057,1.4451314,-1.0011041,1.2368532,-0.5652584,-1.6169441,-1.0641901,2.357851,1.385697,-1.0427321,-1.3855288,1.3551,1.0343863,-0.34668556,0.9766821,0.46260142,0.15534957,1.6375809,-0.3252945,1.5367997,-2.5052354,-0.23044729,1.1195006,0.21035194,-0.3853073,0.99555504,0.76048416,-0.11923979,0.056872077,0.635776,-0.29361767,0.7958687,0.49121928,1.0,0.0,0.0,0.0,0.0,0.0,0.0,-2.287581,-0.07470551,-0.98679966,0.18439293,-0.5830288,-0.76801777,7.3683023,0.35133362,0.1937747,3.110221
0.3558836,33.71209,10.841363,20.179138,0.9899552,-0.39875138,-0.070596084,-0.762508,0.74637544,0.5771762,-0.0743642,0.6686606,0.6393459,0.46928003,1.1606025,-0.49062085,-1.5592265,-1.0716265,2.4247172,1.4496316,-0.99580413,1.2230612,-0.55178297,-1.6066368,-1.0668471,2.36759,1.3903223,-1.0409507,-1.3773721,1.3454677,1.0292406,-0.23929979,0.974162,0.46275288,0.18554972,1.6125469,-0.32759857,1.5472498,-2.5027308,-0.23021689,1.0201954,0.20728159,-0.3773842,1.0005639,0.7592665,-0.12523681,0.05714531,0.63605374,-0.30250993,0.7918882,0.49738714,1.0,0.0,0.0,0.0,0.0,0.0,0.0,-2.262547,-0.072401434,-0.9972498,0.7077694,-0.81768036,-0.6360769,10.569981,0.07172823,0.12012124,2.9676647
-1.6761465,31.307545,9.812032,21.6244,1.130492,-0.38604477,-0.14064892,-0.76757973,0.74381405,0.553877,-0.0127309235,0.6686722,0.6443549,0.4787618,1.1463032,-0.47740155,-1.551249,-1.0681201,2.434457,1.4547578,-0.9930745,1.2093207,-0.53839624,-1.5964744,-1.0683501,2.377306,1.3949496,-1.0388945,-1.3733453,1.3369418,1.0116603,-0.12125288,0.9716373,0.4631027,0.21218702,1.5875387,-0.32989883,1.5567076,-2.5002286,-0.22998673,0.9209894,0.20408154,-0.3695488,1.0056458,0.7581087,-0.13146475,0.057372328,0.63615763,-0.31683484,0.78465396,0.5051404,1.0,0.0,0.0,0.0,0.0,0.0,0.0,-2.2375388,-0.07010117,-1.0067077,0.2724409,-0.7100105,-1.860714,11.627584,0.070261955,0.118517876,2.6134431
-3.281293,28.984467,8.789228,22.558884,1.2080653,-0.39532626,-0.20296817,-0.77203315,0.74045235,0.5324099,0.05070155,0.65998405,0.64479214,0.47669512,1.1321174,-0.464351,-1.5432334,-1.0632799,2.4433043,1.4594288,-0.991225,1.1955801,-0.52508676,-1.5865715,-1.0686362,2.3869724,1.3995787,-1.0366057,-1.374639,1.3294418,0.982861,0.0016087755,0.96615225,0.46326563,0.23437624,1.5625553,-0.33219528,1.5651741,-2.4977288,-0.22975679,0.8218826,0.20071316,-0.3617859,1.010806,0.75707114,-0.13793452,0.057579108,0.6360046,-0.33458245,0.7750401,0.5130693,1.0,0.0,0.0,0.0,0.0,0.0,0.0,-2.2125554,-0.067804724,-1.0151742,-0.27959347,-0.6117821,-2.9634714,12.1044855,-0.22801161,0.08298755,2.1726818
-1.9477406,25.968561,7.1278567,19.04505,0.93783295,-0.6785928,-0.17387956,-0.7797151,0.7359371,0.5001263,0.04628048,0.6557667,0.64575815,0.46666598,1.1176087,-0.45149305,-1.5365589,-1.0640081,2.452549,1.4641545,-0.9899391,1.1817786,-0.5118507,-1.5770671,-1.0680182,2.396574,1.4042135,-1.03413,-1.3824725,1.3220457,0.93942356,0.081416264,0.9591109,0.4637365,0.25182542,1.5375967,-0.33449173,1.5726503,-2.4952316,-0.22952707,0.7228749,0.19726086,-0.35415268,1.015941,0.756168,-0.14451292,0.057848357,0.63559383,-0.33990857,0.7624057,0.5072503,1.0,0.0,0.0,0.0,0.0,0.0,0.0,-2.1875968,-0.065508276,-1.0226502,-0.9269953,-0.6191015,-4.3811917,7.8092628,-0.4351735,0.13849735,1.7069459
4.9543304,26.993965,7.115674,10.324331,0.15401316,-1.1835102,0.03476852,-0.7816637,0.735609,0.49268797,-0.03837988,0.65893316,0.642691,0.46855113,1.1036122,-0.43828982,-1.5277983,-1.0718561,2.4624674,1.4684826,-0.9872749,1.167893,-0.4986719,-1.5679615,-1.0673144,2.4061184,1.4088541,-1.0315017,-1.3909485,1.3168423,0.9010698,0.06622462,0.9536775,0.46464214,0.26627383,1.5126629,-0.33678818,1.5791372,-2.4927368,-0.2292976,0.62396616,0.19400406,-0.3466034,1.0208355,0.75528604,-0.15090945,0.05831228,0.6351134,-0.3122345,0.75428355,0.47729146,1.0,0.0,0.0,0.0,0.0,0.0,0.0,-2.162663,-0.06321183,-1.0291371,-0.93364716,-0.43022633,-3.8081646,-1.6399012,-0.3798604,0.25908947,1.4117181
10.23693,28.670835,7.7703705,4.5196395,-0.36669087,-1.5112011,0.20495051,-0.7769196,0.7308657,0.49366418,-0.08441187,0.65816164,0.63993275,0.47828487,1.0902011,-0.42558533,-1.518595,-1.0757556,2.4719346,1.4728475,-0.98367316,1.1539637,-0.48554838,-1.5591285,-1.0672133,2.415617,1.4135042,-1.0287417,-1.3936832,1.311085,0.8774644,-0.008921924,0.9490607,0.4656829,0.27907583,1.4877539,-0.339077,1.5846357,-2.4902446,-0.22906835,0.5251563,0.19119215,-0.33911133,1.0253264,0.75428796,-0.15690082,0.059046406,0.6347797,-0.26194346,0.7501185,0.43358785,1.0,0.0,0.0,0.0,0.0,0.0,0.0,-2.137754,-0.06092301,-1.0346358,-0.2957344,-0.5013466,-2.3152232,-7.589642,-0.36776066,0.32091737,1.2477636
12.529774,29.9436,8.479284,2.7234259,-0.53218687,-1.6276697,0.28404072,-0.7684761,0.7276009,0.4894374,-0.10473224,0.6581703,0.6403443,0.50380474,1.077116,-0.41278827,-1.5101848,-1.0776865,2.481434,1.4775387,-0.97836125,1.1400706,-0.47248304,-1.5504482,-1.06798,2.4250813,1.4181639,-1.0258521,-1.3877194,1.3052864,0.8649179,-0.09946813,0.94587475,0.4667707,0.29227915,1.4628696,-0.3413658,1.5891469,-2.4877548,-0.22883932,0.42644534,0.18894291,-0.3316307,1.0293634,0.75309104,-0.1624081,0.06005368,0.63472116,-0.20372272,0.7480805,0.3877961,1.0,0.0,0.0,0.0,0.0,0.0,0.0,-2.1128697,-0.05863419,-1.0391469,0.6222248,-0.50566196,-1.2346268,-9.099504,-0.24249554,0.3327906,1.2897491
13.659731,26.898344,7.0293684,-0.54017305,-0.6726587,-1.9113357,0.34005427,-0.7681941,0.715031,0.47106063,-0.19631809,0.65896034,0.6350039,0.49764892,1.0632511,-0.40097994,-1.5033422,-1.0876119,2.4909773,1.4816643,-0.9760872,1.1262537,-0.45952022,-1.541909,-1.0699217,2.4345226,1.4228293,-1.022848,-1.3794551,1.2935117,0.8502424,-0.22593746,0.9438238,0.46735546,0.30306876,1.4380112,-0.34365463,1.5926716,-2.4852676,-0.22861053,0.32783303,0.18735838,-0.32422638,1.0328588,0.7516619,-0.16729754,0.06134407,0.6350218,-0.1347156,0.739022,0.33097503,1.0,0.0,0.0,0.0,0.0,0.0,0.0,-2.0880113,-0.056345373,-1.0426717,0.91073513,-1.1087179,-1.4663935,-12.669974,-0.17533302,0.29735565,1.057136
14.266568,27.932606,7.6605964,-0.7703562,-0.70539224,-1.9256105,0.37591496,-0.76511294,0.7140048,0.48581374,-0.2536669,0.66074234,0.6354381,0.51139927,1.0497425,-0.38811973,-1.4933276,-1.0952884,2.5005968,1.4863731,-0.97170806,1.1125246,-0.4466647,-1.5334079,-1.07317,2.4439602,1.4275004,-1.019739,-1.3702699,1.2831802,0.84982145,-0.35762897,0.9434937,0.46770266,0.31345725,1.4131775,-0.34593582,1.595211,-2.4827828,-0.22838198,0.22931932,0.18647528,-0.31689453,1.0357947,0.74997115,-0.17152835,0.06289914,0.63573974,-0.06419593,0.731822,0.27543095,1.0,0.0,0.0,0.0,0.0,0.0,0.0,-2.0631776,-0.054064184,-1.0452111,1.0286331,-0.9594679,-0.071406364,-13.168245,0.0015258789,0.2567172,1.0260403
14.140903,27.633501,7.8075814,-0.18456936,-0.6471604,-1.925084,0.3796328,-0.7471137,0.7060017,0.48610657,-0.305038,0.65065813,0.63060856,0.52435505,1.0378133,-0.3760645,-1.4847972,-1.1036737,2.509026,1.4905612,-0.9673035,1.0989558,-0.43392217,-1.5248764,-1.0776656,2.4533672,1.4321696,-1.016529,-1.3521192,1.2715155,0.8539626,-0.48017308,0.9399174,0.46731353,0.32352573,1.3883686,-0.348217,1.5967661,-2.4803007,-0.22815363,0.13090411,0.18629074,-0.3096199,1.0381966,0.74800605,-0.17512502,0.06469244,0.6368932,0.0049527157,0.72438335,0.2227068,1.0,0.0,0.0,0.0,0.0,0.0,0.0,-2.0383687,-0.051782995,-1.046766,1.9632101,-1.0846615,0.3290534,-12.240982,-0.30828714,0.16362667,0.9981811
11.705345,22.33372,5.600031,0.12803459,-0.43299288,-2.0026534,0.32822374,-0.74936485,0.687639,0.47383392,-0.3836217,0.6498361,0.6298975,0.5037293,1.0240192,-0.36515826,-1.4774929,-1.1160277,2.5183508,1.4951593,-0.966156,1.0855337,-0.42135465,-1.5163505,-1.0834124,2.4627361,1.436833,-1.0132445,-1.3383182,1.2521068,0.8516423,-0.6062045,0.9359855,0.46652284,0.33003014,1.3635845,-0.3504982,1.5973377,-2.4778209,-0.22792552,0.032587286,0.18676662,-0.30249786,1.0400468,0.74581295,-0.17805384,0.06669535,0.63844454,0.06986877,0.7068572,0.16678782,1.0,0.0,0.0,0.0,0.0,0.0,0.0,-2.0135846,-0.049501806,-1.0473378,1.5405893,-1.8612862,-0.32923222,-12.60041,-0.35692453,0.09640455,0.6439686
11.661812,21.084114,5.103896,-0.7565193,-0.4570065,-2.0828228,0.3445747,-0.73907346,0.6782698,0.4813545,-0.47460195,0.643258,0.6265924,0.4978964,1.0116264,-0.35352767,-1.4682151,-1.1308726,2.527062,1.4994923,-0.96345484,1.0722586,-0.4089955,-1.5078228,-1.0905192,2.4720516,1.441485,-1.0099105,-1.3232495,1.230787,0.85260046,-0.7452402,0.9301512,0.4652553,0.33454823,1.3388252,-0.35277557,1.5969269,-2.4753435,-0.22769766,-0.06563124,0.18791533,-0.29556274,1.0413113,0.74340504,-0.18025579,0.068902135,0.6403976,0.13743685,0.68702984,0.10740304,1.0,0.0,0.0,0.0,0.0,0.0,0.0,-1.9888252,-0.047224432,-1.046927,1.7111063,-2.0534277,-0.03618002,-13.881529,-0.5594611,0.029152632,0.4512787
8.987238,16.831215,3.9626896,2.025404,-0.098383844,-1.9597144,0.29135352,-0.71539176,0.6510093,0.4812265,-0.496682,0.6191362,0.6323667,0.52116334,1.0007194,-0.34389457,-1.4597001,-1.1401874,2.5339653,1.5047218,-0.95779413,1.0592066,-0.39693105,-1.4992874,-1.0987914,2.4812489,1.4461275,-1.0065211,-1.2984464,1.1986125,0.8532049,-0.854584,0.9160515,0.46434063,0.34019125,1.3140907,-0.35504913,1.5955347,-2.4728687,-0.22747,-0.16375156,0.18965006,-0.2888565,1.0420291,0.74080384,-0.18179414,0.071255066,0.6427155,0.19270901,0.66210485,0.054250006,1.0,0.0,0.0,0.0,0.0,0.0,0.0,-1.9640907,-0.044950873,-1.0455346,2.6911974,-3.1331062,-0.1183629,-10.943079,-1.3542295,0.031530857,0.55265427
3.6467044,5.2481256,-0.2522862,4.8073444,0.5169432,-1.9194088,0.18819858,-0.69425994,0.5953497,0.45817173,-0.5315446,0.5762638,0.6309735,0.53425866,0.9897806,-0.3373961,-1.4534702,-1.1519458,2.5388753,1.5092249,-0.95309526,1.0464655,-0.3853954,-1.490855,-1.1079676,2.4901867,1.4507586,-1.0030745,-1.265456,1.1388183,0.8390901,-0.93875265,0.88624316,0.46307537,0.34608072,1.289381,-0.3573227,1.593162,-2.4703963,-0.22724257,-0.2617738,0.19181347,-0.28254318,1.0422246,0.73808736,-0.1827214,0.07366957,0.6453005,0.23080373,0.61895,0.0023796167,1.0,0.0,0.0,0.0,0.0,0.0,0.0,-1.939381,-0.042677313,-1.0431619,3.5214424,-5.907631,-1.6139269,-8.489454,-2.9302597,-0.042784214,0.5445123
-0.84307957,-3.0058603,-3.4914665,7.4661584,0.99147815,-1.8680987,0.07728573,-0.6763773,0.5560773,0.42509732,-0.5632201,0.5459062,0.62567896,0.53714955,0.9788278,-0.32978767,-1.4483453,-1.1642896,2.5447774,1.5133265,-0.9493596,1.0340754,-0.37456453,-1.482722,-1.1178305,2.4987583,1.4553744,-0.9995729,-1.2293104,1.0646653,0.8041941,-1.0024184,0.8474919,0.46101475,0.3512293,1.2646952,-0.35959625,1.5898097,-2.4679265,-0.22701538,-0.35969803,0.1942563,-0.27674866,1.0419201,0.7353598,-0.1830711,0.07609199,0.64802843,0.25470382,0.562735,-0.046671797,1.0,0.0,0.0,0.0,0.0,0.0,0.0,-1.9146951,-0.040403754,-1.0398097,3.8153887,-7.3563814,-3.6756516,-6.4884543,-3.8352966,-0.1643002,0.44738054
-4.2650566,-13.359023,-6.7887936,8.606485,1.5069537,-1.841457,0.0798512,-0.6369102,0.4691422,0.42932257,-0.608037,0.49576727,0.61203974,0.548608,0.97038436,-0.3276503,-1.4397898,-1.1786342,2.548335,1.5165783,-0.94471204,1.0221545,-0.3647455,-1.4748943,-1.1283038,2.5068455,1.4599577,-0.9960185,-1.1787567,0.9544793,0.77490383,-1.0627446,0.7958582,0.45747304,0.3564453,1.2400341,-0.36186218,1.5854789,-2.465459,-0.2267884,-0.45752436,0.19685364,-0.27162933,1.0411122,0.73263854,-0.18284753,0.07839934,0.65089244,0.26636857,0.4914364,-0.097079776,1.0,0.0,0.0,0.0,0.0,0.0,0.0,-1.8900341,-0.038137823,-1.0354788,5.318022,-10.980474,-3.1785846,-6.184101,-5.1323175,-0.34210682,0.42734742
-14.586128,-43.947742,-18.35941,9.759334,2.9579515,-2.0333042,-0.009200901,-0.5693942,0.2867917,0.3618031,-0.64806443,0.45121878,0.5878652,0.5423477,0.965215,-0.33606634,-1.438714,-1.1931102,2.5519674,1.5187442,-0.9417838,1.0109717,-0.35670125,-1.4676006,-1.1393912,2.5143528,1.4644858,-0.992427,-1.0967458,0.7542778,0.7129972,-1.1248446,0.73567265,0.45097515,0.35951546,1.2153978,-0.3641281,1.5801706,-2.462994,-0.22656167,-0.55525297,0.19935513,-0.26764297,1.0397049,0.7299965,-0.18192762,0.08026852,0.65388405,0.24894327,0.36490366,-0.15955666,1.0,0.0,0.0,0.0,0.0,0.0,0.0,-1.8653978,-0.035871893,-1.0301707,8.61764,-20.053577,-6.529081,-6.440687,-6.0854435,-0.7149875,0.1385808
-29.423426,-89.91337,-35.221878,11.334175,5.159271,-2.2460794,-0.076414175,-0.45563924,-0.008928205,0.3000918,-0.68744266,0.360926,0.5354918,0.5332099,0.9654077,-0.35759407,-1.4375914,-1.2081355,2.5504453,1.5180349,-0.939106,1.0010287,-0.35178554,-1.4611423,-1.1511271,2.521082,1.4689051,-0.9888221,-0.9580821,0.4035273,0.6219693,-1.1909002,0.6516731,0.43812907,0.3600038,1.1907864,-0.36639404,1.5738858,-2.4605315,-0.22633514,-0.6528838,0.20135689,-0.26552582,1.0375373,0.727515,-0.18011199,0.081132814,0.6570381,0.18670799,0.15782292,-0.23906805,1.0,0.0,0.0,0.0,0.0,0.0,0.0,-1.8407863,-0.033605963,-1.0238857,14.480448,-35.222797,-9.563351,-6.907344,-8.590913,-1.508832,-0.21375418
-41.329033,-141.8796,-54.86521,8.621165,6.7102036,-2.8744996,-0.09361504,-0.08716131,-0.4183391,0.056285635,-0.6873678,-0.13770367,0.4987875,0.55076736,0.99231255,-0.39361945,-1.4555137,-1.2198639,2.5073116,1.5187838,-0.9337454,0.9940125,-0.35183752,-1.456599,-1.1633608,2.525591,1.4731604,-0.98520863,-0.61368394,-0.14235832,0.39662588,-1.2351329,0.38315013,0.41949344,0.3604259,1.1661997,-0.36865616,1.5666254,-2.4580715,-0.22610885,-0.7504171,0.20260143,-0.26612854,1.0343357,0.7252367,-0.17723474,0.080743775,0.66037863,0.104521304,-0.13410561,-0.34897572,1.0,0.0,0.0,0.0,0.0,0.0,0.0,-1.8161997,-0.031343848,-1.0166254,35.180794,-54.874336,-23.055721,-4.697609,-27.169722,-2.380532,-0.353688
-31.8601,-141.10506,-54.366127,2.5085769,6.093071,-3.482872,0.11513756,0.4345946,-0.65731966,-0.28989157,-0.63833296,-0.4231768,0.5146939,0.52134,1.0374719,-0.4175695,-1.4855882,-1.2271941,2.4832733,1.5246298,-0.93307465,0.9925133,-0.35764873,-1.455672,-1.1756289,2.5267277,1.4772402,-0.9816104,0.0040117824,-0.72840077,-0.007570526,-1.2243372,0.02309999,0.40163484,0.35860938,1.1416378,-0.37091446,1.5583903,-2.4556139,-0.22588278,-0.8478529,0.20332527,-0.2696762,1.0299491,0.72299016,-0.17330748,0.07916554,0.6640652,0.060650054,-0.42831597,-0.4691628,1.0,0.0,0.0,0.0,0.0,0.0,0.0,-1.7916378,-0.029085547,-1.0083902,61.57061,-58.920765,-40.11196,0.9733677,-36.231186,-2.540487,-0.49236417
-19.645144,-102.95282,-41.212955,2.7145405,4.3900323,-3.3199286,0.014671789,0.60705745,-0.7210757,-0.49952486,-0.5943624,-0.5049059,0.5579203,0.36019439,1.0532191,-0.4297563,-1.5056245,-1.2350651,2.476237,1.5330322,-0.945591,0.99717104,-0.36831367,-1.459214,-1.187443,2.5244884,1.4811903,-0.9781419,0.6151813,-1.1801692,-0.465023,-1.166897,-0.3064568,0.39020094,0.34247968,1.1170998,-0.37317276,1.5491817,-2.4531589,-0.22565694,-0.9451912,0.20390654,-0.2757187,1.0244739,0.72077066,-0.16852786,0.076802365,0.66797405,0.056381065,-0.6596008,-0.5747054,1.0,0.0,0.0,0.0,0.0,0.0,0.0,-1.7670997,-0.026827246,-0.9991817,59.732468,-45.46995,-44.361893,5.8119774,-33.07624,-1.9210458,-1.7324626
-6.9793415,-56.207596,-24.92134,1.3278923,2.2962284,-2.9918854,-0.05788401,0.658156,-0.76932424,-0.59576654,-0.6374872,-0.5443561,0.59413683,0.20999356,1.0629866,-0.4452461,-1.5187906,-1.2511917,2.4700527,1.540604,-0.95714253,1.0067225,-0.38220727,-1.4668262,-1.1988719,2.5195484,1.4850775,-0.97493947,1.0632964,-1.4598825,-0.8550592,-1.1344513,-0.5567021,0.38604292,0.31284383,1.0925865,-0.37542725,1.5390004,-2.4507062,-0.22543134,-1.0424322,0.20472622,-0.28347397,1.0180324,0.7186597,-0.1630205,0.07418825,0.67189914,0.09252932,-0.8114946,-0.6705827,1.0,0.0,0.0,0.0,0.0,0.0,0.0,-1.7425865,-0.02457276,-0.9890004,43.23969,-28.20201,-37.520363,3.3887863,-25.076412,-1.076293,-2.9542983
5.5577145,-11.312592,-7.617639,0.3461094,0.5433775,-2.4976308,-0.06854493,0.71392125,-0.8005132,-0.63054353,-0.6798049,-0.486331,0.6065648,-0.15289746,1.0781146,-0.4622586,-1.5298805,-1.2668524,2.4709153,1.5457339,-0.9902292,1.0194254,-0.397766,-1.4773586,-1.2102969,2.512991,1.4889551,-0.97228825,1.3356072,-1.5883152,-1.1160687,-1.1448554,-0.6886817,0.38685197,0.24944066,1.0680981,-0.37767792,1.5278474,-2.448256,-0.22520594,-1.139576,0.20608187,-0.29216766,1.0107647,0.71668184,-0.15686756,0.071617745,0.6757444,0.15585001,-0.88394403,-0.7514344,1.0,0.0,0.0,0.0,0.0,0.0,0.0,-1.718098,-0.022322088,-0.9778474,26.144005,-12.985277,-25.182987,-0.9470701,-13.197386,-0.3910601,-6.26159
19.165642,30.065712,10.689598,0.03491974,-0.8311861,-1.9133363,0.13452034,0.787713,-0.7993002,-0.60469997,-0.7125559,-0.3528572,0.54788804,-0.35790628,1.0981967,-0.477696,-1.5378286,-1.2815524,2.4777052,1.543744,-1.0080789,1.0339384,-0.41375053,-1.4893425,-1.2220881,2.5060825,1.4928156,-0.9703933,1.4881493,-1.6020132,-1.2248206,-1.1906456,-0.69109374,0.38480383,0.16999766,1.0436344,-0.3799286,1.5157237,-2.4458082,-0.22498079,-1.2366226,0.20818567,-0.30101395,1.002882,0.71464986,-0.15019032,0.06907044,0.67966723,0.23720595,-0.87982905,-0.8084131,1.0,0.0,0.0,0.0,0.0,0.0,0.0,-1.6936344,-0.020071417,-0.9657237,14.706683,-1.4146566,-10.593104,-4.6288013,-0.1855135,-0.46579838,-7.792887
24.750092,53.83894,23.09103,4.722148,-0.43967092,-1.1596978,0.342259,0.807666,-0.7892509,-0.54324186,-0.71903837,0.1329332,0.5150327,-0.38604227,1.114705,-0.49267563,-1.5436666,-1.2939919,2.5193758,1.5443189,-1.0089976,1.0492678,-0.42938554,-1.5013816,-1.2343714,2.500948,1.4966418,-0.9692508,1.5477629,-1.5506799,-1.1976135,-1.2413381,-0.45405766,0.38190183,0.096572,1.0191946,-0.38217926,1.5026304,-2.443363,-0.22475585,-1.3335723,0.2109294,-0.30956268,0.99469197,0.71227807,-0.14311427,0.06583863,0.68399084,0.29682648,-0.8413262,-0.83127755,1.0,0.0,0.0,0.0,0.0,0.0,0.0,-1.6691946,-0.017820746,-0.95263034,5.9045315,5.1356077,2.537036,-5.19104,23.744541,-0.3227234,-7.078013
31.411156,77.32242,37.266594,9.454395,-0.65980583,-0.18989052,0.65872973,0.7861951,-0.76170206,-0.32484877,-0.74640954,0.35768488,0.5174185,-0.35982916,1.1278872,-0.50555575,-1.5338665,-1.3090124,2.5367165,1.5483836,-1.0052338,1.0646372,-0.44426334,-1.5117633,-1.2471983,2.4989338,1.5004565,-0.9687406,1.5340847,-1.4665816,-0.9869921,-1.296943,-0.11657569,0.38219315,0.037023604,0.9947791,-0.3844223,1.4885682,-2.44092,-0.22453114,-1.4304249,0.21415138,-0.31734085,0.98654234,0.70916504,-0.13593581,0.06133179,0.68908983,0.3406389,-0.75071937,-0.81797254,1.0,0.0,0.0,0.0,0.0,0.0,0.0,-1.6447791,-0.015577704,-0.9385682,-1.0766029,8.476281,20.49105,-5.7451963,33.866493,0.26760697,-5.6198807
32.565483,89.87012,45.702972,15.238965,-1.3279537,0.6637878,0.7754669,0.7459469,-0.7327769,-0.130973,-0.73762715,0.23257977,0.53838915,-0.2384959,1.1392319,-0.51754105,-1.5248606,-1.320961,2.5221918,1.5542954,-0.9925902,1.0794764,-0.45825374,-1.5191276,-1.2604105,2.4995518,1.5043055,-0.9686595,1.4689423,-1.3761232,-0.6556724,-1.3296151,0.12208363,0.38711953,-0.0006218305,0.9703884,-0.38666534,1.4735382,-2.4384797,-0.22430666,-1.5271808,0.21772623,-0.32388306,0.9787394,0.70505553,-0.12910765,0.055701897,0.69507205,0.37220764,-0.6146056,-0.77497774,1.0,0.0,0.0,0.0,0.0,0.0,0.0,-1.6203884,-0.013334662,-0.92353815,-5.996728,9.163308,32.322025,-3.4309149,24.080986,0.93768835,-3.498835
14.620352,62.379257,30.58031,20.859653,-0.21033144,0.51304185,0.32323673,0.70943433,-0.74152803,-0.25185022,-0.7102932,0.22164991,0.5326188,-0.0005013545,1.1504198,-0.53240657,-1.5443126,-1.3314399,2.5217168,1.5575674,-0.96870965,1.0934839,-0.4715823,-1.5241706,-1.2736685,2.5018635,1.5081927,-0.9687177,1.3796453,-1.3182762,-0.45597494,-1.3244054,0.26763403,0.39034593,-0.0070579792,0.94602156,-0.3889084,1.4575413,-2.4360416,-0.2240824,-1.6238399,0.22139406,-0.3294754,0.9712785,0.7002887,-0.12265695,0.049367595,0.7015083,0.37269658,-0.53500944,-0.7422661,1.0,0.0,0.0,0.0,0.0,0.0,0.0,-1.5960215,-0.01109162,-0.90754133,-8.405304,5.837536,19.355988,0.5338669,14.639619,0.6414771,-0.512983
-5.7337413,24.099838,8.530849,23.07944,0.9135438,-0.12651907,-0.26671004,0.694577,-0.77422,-0.42513636,-0.683736,0.028261248,0.51966983,0.14510122,1.1629416,-0.5490043,-1.5666842,-1.3420421,2.5046897,1.5601597,-0.9542076,1.106658,-0.4847244,-1.5288036,-1.2866423,2.504488,1.5120836,-0.96869195,1.297757,-1.3129926,-0.46635944,-1.2877388,0.26004475,0.38883373,0.0056689256,0.9216795,-0.3911476,1.4405787,-2.4336061,-0.22385836,-1.7204024,0.22493744,-0.334877,0.96387434,0.69553876,-0.116310455,0.042971697,0.7077083,0.3550847,-0.5347227,-0.7444507,1.0,0.0,0.0,0.0,0.0,0.0,0.0,-1.5716795,-0.008852392,-0.8905787,-7.8508377,0.47364235,-1.2678504,3.8166285,-0.8796036,-0.127244,1.2665097
-11.977661,7.8599215,-1.7296605,21.223011,0.60664475,-0.6256997,-0.55031586,0.71282184,-0.77986926,-0.504504,-0.65811276,-0.32606822,0.5509726,0.16516265,1.1779401,-0.56271136,-1.579254,-1.3524536,2.4718812,1.5671809,-0.9521757,1.1193075,-0.49801624,-1.5345104,-1.2991145,2.5056133,1.5159689,-0.96851456,1.2546846,-1.3349414,-0.60539496,-1.2330025,0.062354837,0.38791078,0.02140515,0.89736176,-0.39338303,1.4226512,-2.431173,-0.22363454,-1.8168683,0.22840214,-0.3404503,0.9562522,0.6912745,-0.109932646,0.037365124,0.71320266,0.34987497,-0.55851984,-0.7724624,1.0,0.0,0.0,0.0,0.0,0.0,0.0,-1.5473617,-0.00661698,-0.87265116,-4.1388273,-2.303028,-13.913811,5.6690693,-19.984987,-0.26896596,1.4695379
-11.439497,2.626614,-5.423396,18.046398,0.21614802,-0.97856104,-0.6015202,0.73283005,-0.7904005,-0.586474,-0.6387553,-0.53203636,0.58239746,0.17566566,1.1925905,-0.5770563,-1.5931578,-1.36299,2.4524097,1.5742086,-0.950948,1.131835,-0.5116271,-1.542094,-1.3110201,2.504076,1.5198637,-0.9681827,1.252237,-1.3702328,-0.80899787,-1.1758299,-0.22666791,0.38918406,0.03666304,0.87306833,-0.39561844,1.4037596,-2.4287424,-0.22341095,-1.9132378,0.2319355,-0.34630966,0.9482257,0.6876693,-0.103467114,0.03309608,0.717851,0.36032552,-0.58827925,-0.8172195,1.0,0.0,0.0,0.0,0.0,0.0,0.0,-1.5230683,-0.0043815672,-0.8537596,-0.18188953,-3.6602736,-20.270718,5.9417725,-29.142511,-0.13930798,1.3801612
-8.921199,3.3386497,-5.3555913,15.768898,0.15582263,-1.1321561,-0.5626747,0.7402057,-0.8012815,-0.67151386,-0.6178148,-0.5917897,0.58947384,0.10532488,1.2058556,-0.5917552,-1.6092454,-1.3728017,2.444897,1.5788112,-0.9576502,1.1445093,-0.5256032,-1.5518291,-1.3223879,2.4997845,1.5237757,-0.9677659,1.2724338,-1.4071532,-1.0279567,-1.1229186,-0.49744877,0.39118677,0.04287118,0.8487992,-0.39785385,1.383905,-2.426314,-0.22318758,-2.0095108,0.23562908,-0.35248184,0.9397024,0.68473,-0.09684394,0.030211397,0.7217017,0.37831074,-0.6196268,-0.86902845,1.0,0.0,0.0,0.0,0.0,0.0,0.0,-1.4987992,-0.0021461546,-0.83390504,2.0499468,-3.8293839,-21.787596,5.5372,-27.309132,-0.07326603,0.4794821
-3.0346203,10.112656,-1.3687017,11.716485,-0.09966314,-1.165791,-0.3563651,0.73237556,-0.8129768,-0.7039612,-0.6530725,-0.61640656,0.58366185,0.039522536,1.2177469,-0.6069009,-1.6222252,-1.3876952,2.4381437,1.5821419,-0.96381366,1.157382,-0.5399188,-1.5634181,-1.3335402,2.4932728,1.5277048,-0.9673501,1.2923015,-1.4400119,-1.2024658,-1.111904,-0.70301473,0.39248237,0.040895566,0.82455444,-0.40008163,1.3630886,-2.4238882,-0.22296444,-2.1056876,0.23957491,-0.3588791,0.9306179,0.68227834,-0.08994822,0.028472263,0.7249793,0.40610224,-0.6385806,-0.9271715,1.0,0.0,0.0,0.0,0.0,0.0,0.0,-1.4745544,8.162856e-05,-0.8130886,2.0462036,-3.4018755,-17.440891,1.3448,-20.743895,-0.14440417,-0.2889499
2.4794207,22.267757,6.541608,12.559677,-0.2364769,-0.74487484,-0.16904019,0.7329755,-0.81770265,-0.6914394,-0.6129409,-0.63433206,0.6286941,-0.06379847,1.2306795,-0.621689,-1.632562,-1.3948343,2.4298396,1.5905743,-0.97372997,1.1704187,-0.55448806,-1.5761306,-1.344538,2.4852314,1.5316836,-0.96703637,1.3075889,-1.4628493,-1.2944093,-1.0952007,-0.83840525,0.39886603,0.028026603,0.8003335,-0.40230942,1.3413111,-2.421465,-0.22274151,-2.2017682,0.24376154,-0.36528778,0.921093,0.680072,-0.0828867,0.027506199,0.72792524,0.42908734,-0.6339598,-0.96720076,1.0,0.0,0.0,0.0,0.0,0.0,0.0,-1.4503335,0.0023094118,-0.7913111,1.6065359,-2.3801565,-9.242272,1.857233,-13.708758,0.44540763,-1.3191156
9.873902,34.088326,13.987568,10.489431,-0.64186907,-0.5546544,0.08621373,0.74458414,-0.8192993,-0.68130404,-0.6380825,-0.6449812,0.6236256,-0.065209895,1.2448771,-0.636418,-1.644261,-1.4083462,2.4207332,1.5940461,-0.97355735,1.18361,-0.5692023,-1.5892341,-1.3555472,2.4762707,1.5357214,-0.9668485,1.3232204,-1.4744841,-1.3159013,-1.102363,-0.9155386,0.40477505,0.015739657,0.7761369,-0.4045372,1.3185735,-2.419044,-0.22251882,-2.2977526,0.24822474,-0.3714714,0.91123796,0.6778215,-0.07573623,0.027003223,0.73081654,0.45835435,-0.60477555,-0.9981527,1.0,0.0,0.0,0.0,0.0,0.0,0.0,-1.4261369,0.004537195,-0.76857346,1.644063,-1.2278557,-2.275157,-0.5899906,-7.850921,0.42452216,-1.191466
11.297178,40.686115,18.351557,12.018719,-0.60019934,-0.20665081,0.18976861,0.7300111,-0.8221934,-0.6652541,-0.622513,-0.64352024,0.6525343,-0.021968035,1.2566111,-0.65142167,-1.6557596,-1.4177985,2.4119186,1.6009748,-0.9690453,1.1968489,-0.5839795,-1.6021831,-1.3665965,2.4668674,1.5398375,-0.9667398,1.3243394,-1.4789453,-1.2884238,-1.1055043,-0.94939184,0.41342947,0.009553084,0.75196457,-0.40676117,1.2948767,-2.4166255,-0.22229634,-2.393641,0.25291872,-0.3772812,0.9011787,0.67534745,-0.06860122,0.026711876,0.7338162,0.47912169,-0.56424886,-1.0150875,1.0,0.0,0.0,0.0,0.0,0.0,0.0,-1.4019645,0.0067611635,-0.7448767,0.22642612,-0.5000353,2.5833845,-0.21808147,-3.5380244,0.75354576,-0.5450273
10.6907215,43.532993,20.310226,14.13631,-0.44259223,0.03954112,0.21198416,0.7279866,-0.82641935,-0.6555662,-0.5965472,-0.6593038,0.6616305,0.033528034,1.2696475,-0.66662145,-1.6677397,-1.4262512,2.400937,1.6060005,-0.96338695,1.2100477,-0.5987834,-1.6147087,-1.3775542,2.4572659,1.5440432,-0.9666368,1.3188877,-1.4809731,-1.2411456,-1.0921212,-0.9639992,0.42263338,0.010792761,0.7278166,-0.40898132,1.2702218,-2.4142094,-0.22207409,-2.4894335,0.25775623,-0.38267136,0.8910342,0.67258847,-0.06159657,0.02648452,0.736973,0.4912086,-0.52149624,-1.0205199,1.0,0.0,0.0,0.0,0.0,0.0,0.0,-1.3778166,0.008981317,-0.7202218,-0.42037964,-0.25663376,4.5695543,1.4238119,-1.6320944,0.8553803,0.21184963
9.187992,42.604523,19.153982,14.115444,-0.29837817,0.0063296873,0.17533022,0.72428966,-0.8217581,-0.68019557,-0.60541177,-0.6548308,0.6498579,0.08310188,1.2824767,-0.68095917,-1.6827282,-1.4380953,2.3917828,1.6090289,-0.9583266,1.2231627,-0.61356914,-1.6269176,-1.388407,2.447626,1.5483233,-0.9664775,1.3096323,-1.4779149,-1.2146436,-1.0826813,-0.96452785,0.4295029,0.017988348,0.70369244,-0.41120148,1.2446097,-2.4117956,-0.22185206,-2.5851305,0.2627039,-0.3876953,0.8808131,0.66957057,-0.054689143,0.02627884,0.740266,0.50145733,-0.485358,-1.0286019,1.0,0.0,0.0,0.0,0.0,0.0,0.0,-1.3536924,0.011201471,-0.6946097,-0.7831335,0.24881363,2.494526,1.0489941,-0.23424625,0.61627626,0.7994918
8.081001,41.271416,18.090893,13.958344,-0.17815024,-0.022282023,0.1446499,0.72277236,-0.8243446,-0.6808483,-0.60366446,-0.6517667,0.6454743,0.094422385,1.2954398,-0.6960036,-1.6950024,-1.4487734,2.3824494,1.6128707,-0.9570353,1.2361898,-0.62832916,-1.638974,-1.3991816,2.4380322,1.5526587,-0.9662372,1.3008235,-1.4755732,-1.2032641,-1.0751787,-0.958299,0.434588,0.026343044,0.6795926,-0.41341782,1.2180413,-2.4093843,-0.22163026,-2.6807315,0.2677474,-0.3923874,0.87048644,0.6663313,-0.04781332,0.026081618,0.7436641,0.51045513,-0.45487973,-1.0396965,1.0,0.0,0.0,0.0,0.0,0.0,0.0,-1.3295926,0.01341781,-0.6680413,-0.7391453,0.17371178,0.992918,0.8726835,0.43940544,0.4290521,0.9126719
7.171309,40.828846,17.460047,13.726824,-0.16821963,-0.020102281,0.13444403,0.71446145,-0.82094777,-0.68179613,-0.6030249,-0.6681382,0.6487547,0.16825184,1.307636,-0.71042395,-1.7071536,-1.4594841,2.3712184,1.6175342,-0.949412,1.2491121,-0.64305484,-1.6510055,-1.4099047,2.428461,1.557038,-0.9658643,1.2898153,-1.4717587,-1.2035257,-1.0708158,-0.95756793,0.43885797,0.0411575,0.6555166,-0.41563034,1.1905177,-2.4069753,-0.22140868,-2.7762372,0.27287865,-0.39679337,0.86002743,0.66289073,-0.04092535,0.025926415,0.7471471,0.51884955,-0.4263819,-1.0533155,1.0,0.0,0.0,0.0,0.0,0.0,0.0,-1.3055166,0.015630335,-0.64051765,-0.9533644,0.31938553,-0.16796589,0.5719423,-0.11199713,0.33753514,1.5472777
5.691448,39.841496,16.503984,13.194565,-0.12565768,-0.0053416044,0.11489671,0.69532454,-0.81892407,-0.6852677,-0.6176339,-0.6637135,0.6458845,0.19006072,1.3186445,-0.7249473,-1.7195323,-1.4716681,2.3620896,1.6216264,-0.9468582,1.2618589,-0.6577395,-1.6630962,-1.4206717,2.4188976,1.5614516,-0.96533597,1.2701089,-1.4675932,-1.2114221,-1.0781336,-0.95637184,0.44191685,0.056906756,0.63146496,-0.41784286,1.1620396,-2.4045687,-0.22118731,-2.8716471,0.27808428,-0.40093994,0.8493961,0.6592692,-0.03396698,0.025845466,0.7506946,0.52540576,-0.40050307,-1.0715879,1.0,0.0,0.0,0.0,0.0,0.0,0.0,-1.2814649,0.017842859,-0.6120396,-1.8039465,0.35333633,-0.94411373,-0.57747364,-0.06775856,0.20149946,1.631783
5.097621,40.846706,17.16762,13.747824,-0.11287254,0.12058779,0.10780118,0.68534535,-0.8189347,-0.6724702,-0.60719097,-0.67364246,0.65895784,0.19148067,1.3303934,-0.73963296,-1.7303432,-1.4813908,2.3515334,1.6273474,-0.9461879,1.2743883,-0.6723918,-1.6752136,-1.4314768,2.4093113,1.5659033,-0.9646627,1.2478096,-1.4646277,-1.2121311,-1.0807326,-0.9598232,0.4457717,0.07092487,0.60743713,-0.4200554,1.1326083,-2.4021647,-0.22096618,-2.9669616,0.28333044,-0.4048195,0.8386049,0.6554757,-0.026957,0.025839033,0.7542925,0.5284943,-0.37311554,-1.086489,1.0,0.0,0.0,0.0,0.0,0.0,0.0,-1.2574371,0.020055383,-0.5826083,-2.06604,0.23424625,-0.21994114,-0.10621548,-0.5361557,0.2911508,1.458837
4.4945626,38.800842,15.644734,11.638483,-0.14032298,0.031029552,0.10670557,0.66660416,-0.8208574,-0.6943269,-0.6527417,-0.6644747,0.6393368,0.17274922,1.3410487,-0.7544775,-1.7446463,-1.496751,2.3428638,1.629837,-0.94738775,1.2866526,-0.68703353,-1.6874244,-1.4425089,2.3997173,1.5703722,-0.96388066,1.2201176,-1.464294,-1.2247051,-1.109981,-0.9597261,0.44677535,0.080856465,0.5834336,-0.42226028,1.1022245,-2.399763,-0.22074525,-3.0621812,0.28862667,-0.40843964,0.82757986,0.6515138,-0.01979442,0.025914414,0.75793546,0.53365135,-0.34810263,-1.1125873,1.0,0.0,0.0,0.0,0.0,0.0,0.0,-1.2334336,0.022260278,-0.55222446,-2.5874853,-0.028300285,-1.4340162,-2.7427912,-0.1719594,-0.03489256,1.048246
2.5784512,37.514553,14.835006,11.007837,-0.08900803,0.11120059,0.07729897,0.6322933,-0.82719666,-0.68713486,-0.681289,-0.6652163,0.618074,0.08239601,1.3498819,-0.7697532,-1.7561378,-1.5106379,2.3331957,1.6321796,-0.95564103,1.2985392,-0.7017106,-1.699723,-1.4539549,2.390131,1.5748297,-0.96308243,1.1788205,-1.469061,-1.2321095,-1.1555159,-0.95929563,0.4449778,0.07971091,0.55945396,-0.42446518,1.0708891,-2.397364,-0.22052455,-3.1573055,0.29394817,-0.41181564,0.8162569,0.6474076,-0.012391957,0.026057221,0.76159745,0.5347351,-0.32405955,-1.1434032,1.0,0.0,0.0,0.0,0.0,0.0,0.0,-1.2094539,0.024465173,-0.5208891,-3.9251328,-0.53858757,-0.94344616,-4.349518,-0.13976097,-0.3296554,-0.05891919
-0.06957054,40.702744,16.62803,13.589992,-0.013969541,0.47579527,0.010554969,0.5918222,-0.8201979,-0.6557559,-0.66696346,-0.6881263,0.64435345,-0.010867907,1.3577213,-0.7837304,-1.7652986,-1.5206513,2.3213184,1.6392651,-0.9641692,1.3098917,-0.7164048,-1.7119224,-1.4657309,2.380476,1.5792891,-0.9623767,1.1216291,-1.4697962,-1.2165834,-1.1843019,-0.96799195,0.4460653,0.06763676,0.53549814,-0.42667007,1.0386033,-2.394967,-0.22030407,-3.2523346,0.29920006,-0.41493607,0.8047221,0.6432183,-0.004862918,0.026267996,0.7652167,0.5244648,-0.2962583,-1.1611978,1.0,0.0,0.0,0.0,0.0,0.0,0.0,-1.1854981,0.026670069,-0.4886033,-5.502534,-0.13279915,1.3541937,-2.6896715,-1.0699749,0.007766485,-1.1585027
-8.137073,38.279045,13.888123,15.726249,0.32177347,0.742707,-0.15292698,0.50989205,-0.8166524,-0.67304444,-0.69809604,-0.7119695,0.6372054,-0.116719395,1.3608809,-0.79807,-1.7792269,-1.5355405,2.309279,1.6430097,-0.9740487,1.3203917,-0.7310809,-1.7240245,-1.4778292,2.3706608,1.5837561,-0.9618751,1.0269732,-1.4672042,-1.2088989,-1.2177409,-0.986783,0.446747,0.04439164,0.51156664,-0.42887115,1.0053679,-2.3925726,-0.2200838,-3.3472686,0.30423355,-0.41784286,0.79299784,0.6391068,0.0027627589,0.026593823,0.76865304,0.49832845,-0.2783188,-1.180217,1.0,0.0,0.0,0.0,0.0,0.0,0.0,-1.1615666,0.028871149,-0.45536786,-9.196687,0.18758774,0.5591631,-3.1232834,-2.1139503,-0.018274784,-2.311223
-31.384415,29.51252,5.33768,22.855045,1.5578628,1.4264635,-0.531437,0.31160492,-0.812067,-0.6943016,-0.7203768,-0.7182555,0.64347845,-0.15295357,1.3515521,-0.81228757,-1.7934546,-1.5498669,2.2988353,1.648104,-0.97717047,1.3291636,-0.74570835,-1.7361763,-1.4902766,2.3606472,1.5882384,-0.9616271,0.82840323,-1.4616266,-1.2180803,-1.2526941,-1.0072815,0.4484929,0.018053748,0.48765898,-0.43106842,0.97118384,-2.3901806,-0.21986377,-3.4421077,0.30866528,-0.42084503,0.7810588,0.63546103,0.010527234,0.027071822,0.7715864,0.42599395,-0.29605934,-1.2020798,1.0,0.0,0.0,0.0,0.0,0.0,0.0,-1.137659,0.031068414,-0.42118382,-19.455921,0.4382372,-1.1387587,-3.1885147,-2.3968577,0.13403893,-2.6989727
-102.98021,2.769827,-20.285276,45.700012,5.4990005,3.543823,-1.6067541,-0.26309115,-0.81163675,-0.716255,-0.7421648,-0.6987738,0.6203161,-0.123854876,1.3028544,-0.826872,-1.8078017,-1.5644931,2.2907698,1.65027,-0.9740126,1.333499,-0.760291,-1.7485511,-1.5030768,2.350504,1.5927225,-0.96160805,0.30463362,-1.45825,-1.2449031,-1.2869277,-1.0192593,0.44858953,-0.004335874,0.46377516,-0.4332657,0.9360521,-2.387791,-0.21964395,-3.5368521,0.31130552,-0.42485428,0.7688657,0.6333651,0.018535309,0.027645426,0.77313703,0.2107286,-0.4248506,-1.2283485,1.0,0.0,0.0,0.0,0.0,0.0,0.0,-1.1137751,0.03326568,-0.38605207,-51.561703,0.034952164,-2.9551983,-2.810979,-1.9215822,0.045633316,-2.4934297
-144.95297,-7.2038584,-33.178135,58.51035,7.764038,4.884332,-2.0779448,-0.65397674,-0.7820173,-0.73664653,-0.77195835,-0.63425404,0.59239393,0.24640882,1.2681013,-0.8384927,-1.8222158,-1.5802727,2.2870786,1.6519619,-0.9369672,1.3312311,-0.7747258,-1.7612789,-1.516249,2.340456,1.5971743,-0.9615079,-0.40008244,-1.4401753,-1.2832264,-1.3240405,-1.0033543,0.4433469,0.013912526,0.43991518,-0.43546295,0.89997363,-2.3854036,-0.21942435,-3.6315017,0.31115913,-0.43059158,0.75642073,0.63357407,0.026894083,0.02818535,0.7727006,-0.090542346,-0.6138608,-1.2528335,1.0,0.0,0.0,0.0,0.0,0.0,0.0,-1.0899152,0.035462946,-0.34997362,-69.36968,1.2944698,-4.1561127,-2.7460814,0.5171776,-0.723356,1.5537715
-121.85797,5.092247,-21.877924,50.694424,6.7471247,4.507589,-1.5380429,-0.7066156,-0.8004129,-0.6808809,-0.7831053,-0.52560395,0.5377841,0.39138302,1.2605696,-0.8547671,-1.8293669,-1.5945594,2.2878957,1.6509527,-0.9223696,1.3228273,-0.7890786,-1.7740695,-1.5297472,2.330923,1.6015192,-0.96107876,-0.9838683,-1.4354663,-1.2788513,-1.3550518,-0.93990535,0.4299613,0.052477263,0.41607904,-0.4376526,0.86294943,-2.3830187,-0.21920498,-3.7260568,0.30828285,-0.43793106,0.7438063,0.6357519,0.03559775,0.028336124,0.7705513,-0.3565053,-0.7642845,-1.266951,1.0,0.0,0.0,0.0,0.0,0.0,0.0,-1.066079,0.037652582,-0.31294942,-57.4224,-0.07092953,0.11496544,-2.0636559,5.315542,-1.8054128,3.8175962
-77.25532,21.737213,-5.2620745,35.858078,4.6172857,3.326812,-0.8221165,-0.7123073,-0.81338084,-0.68776274,-0.7825586,-0.419572,0.49489135,0.3922241,1.2515966,-0.8704167,-1.8428458,-1.6080031,2.288966,1.6510084,-0.92185634,1.3102751,-0.80347717,-1.7867534,-1.5434668,2.3223362,1.6057001,-0.9602605,-1.3433744,-1.4426916,-1.2657583,-1.3747143,-0.83382183,0.41250795,0.09204313,0.39226675,-0.43984222,0.82497233,-2.3806362,-0.21898581,-3.8215826,0.30338287,-0.4463005,0.7310701,0.639098,0.044627573,0.027759407,0.76732755,-0.54009813,-0.85026276,-1.2781433,1.0,0.0,0.0,0.0,0.0,0.0,0.0,-1.0422667,0.03984222,-0.27497232,-35.322834,-1.1292219,1.0525227,-1.1296034,9.86917,-2.2371948,4.100941
-39.225033,33.270924,7.1752963,23.26915,2.9294214,2.1963413,-0.35100833,-0.7414258,-0.8208159,-0.7206036,-0.7737291,-0.26019135,0.48191085,0.21295202,1.2361325,-0.8855588,-1.8588138,-1.6208397,2.296317,1.6538912,-0.9389653,1.2955904,-0.81799686,-1.7994392,-1.5572684,2.315199,1.6097132,-0.9592105,-1.5092684,-1.4557961,-1.2700288,-1.3801805,-0.6753277,0.39630783,0.11005416,0.3684783,-0.44203186,0.7860407,-2.378256,-0.21876687,-3.917013,0.29720974,-0.45519638,0.7182032,0.64298046,0.054003455,0.026175257,0.76352775,-0.65074056,-0.88968855,-1.2916256,1.0,0.0,0.0,0.0,0.0,0.0,0.0,-1.0184783,0.042031854,-0.23604071,-16.256832,-1.5530825,-0.5881548,0.01616478,15.421068,-2.0074368,2.0312877
-17.583612,39.99974,14.001605,17.023277,2.2684636,1.5085399,-0.25249332,-0.7847907,-0.81849766,-0.75394684,-0.7514541,-0.0008372295,0.45214355,-0.21084197,1.2171113,-0.8998466,-1.8748338,-1.6324137,2.3151152,1.6549275,-0.9802947,1.2801237,-0.83261955,-1.8123462,-1.5709727,2.310236,1.6135641,-0.95833695,-1.5588585,-1.464808,-1.2978855,-1.3659586,-0.4375165,0.38021138,0.080733314,0.3447137,-0.44421768,0.7461555,-2.3758783,-0.21854815,-4.0123477,0.29024172,-0.4643631,0.7052002,0.64718086,0.06377389,0.0232778,0.75930756,-0.7207511,-0.91209376,-1.3051285,1.0,0.0,0.0,0.0,0.0,0.0,0.0,-0.99471366,0.044217676,-0.19615549,-4.8056602,-1.0397196,-2.847314,1.7868519,23.564041,-1.9193649,-2.657944
-5.53111,46.408215,19.423065,14.897283,1.9965453,1.2846582,-0.21542618,-0.8043233,-0.8096956,-0.7561751,-0.71847403,0.2639069,0.47336847,-0.40370592,1.1996914,-0.9135891,-1.8879638,-1.6428201,2.3366268,1.660901,-0.99870753,1.2646116,-0.8472164,-1.825859,-1.5845685,2.3076887,1.617536,-0.95774055,-1.5495481,-1.450556,-1.4346249,-1.3974229,-0.28841117,0.41528344,0.07410032,0.32466745,-0.44805145,0.7198774,-1.3609252,-0.6646795,0.8364739,0.282732,-0.47363663,0.69199204,0.6515826,0.07389887,0.019040313,0.75472933,-0.7607153,-0.90863776,-1.3567308,0.0,1.0,0.0,0.0,0.0,0.0,0.0,-0.97466743,0.048051447,-0.16987741,0.7317543,2.6389122,-24.49062,-9.699154,-0.70138574,7.8666925,4.1282654
82.56958,176.0,110.0,98.493256,-7.012075,10.054145,-0.3081135,-0.64720035,0.56606364,0.7153037,0.72680545,-0.2880314,0.6377971,-0.33425388,1.1998916,-0.7906101,-1.7543286,-1.5118879,2.2788856,1.6813157,-0.99116594,1.2551645,-0.8602112,-1.8409327,-1.5860028,2.2932692,1.6326326,-0.95449424,-0.74725056,-1.2482172,-1.5245155,0.26928815,-1.8215119,1.8827736,0.40298414,0.31106853,-0.45469284,0.72749144,-1.3595645,-0.664015,0.73638636,0.27500486,-0.48089218,0.6825004,0.65622747,0.07333996,0.019674629,0.7507327,-0.78438175,-0.65095437,-0.81372905,1.0,0.0,0.0,0.0,0.0,0.0,0.0,-0.9610685,0.054692835,-0.17749143,78.998116,20.523596,-6.829262,165.06543,-151.70724,149.2624,31.36639
5.2067204,176.0,104.5004,96.72909,0.649268,6.8436313,-0.87608397,-0.79631966,-0.47266743,0.2793664,0.79313844,-0.6558835,0.5392049,-0.32049838,1.1755326,-0.9074779,-1.812996,-1.506689,2.227681,1.6865531,-0.9865441,1.2479872,-0.87134534,-1.8509654,-1.5760064,2.2733412,1.6513933,-0.9509475,-0.70800036,-1.070085,-0.82592154,1.242027,-2.0542305,1.8798168,0.33857477,0.29748297,-0.4613266,0.73410535,-1.3582052,-0.6633511,0.636399,0.26664686,-0.48691177,0.6783666,0.66179854,0.06452922,0.022700377,0.7465544,-0.85554326,-0.5729301,-0.28402075,1.0,0.0,0.0,0.0,0.0,0.0,0.0,-0.94748294,0.061326593,-0.18410534,3.8870335,17.347313,70.932076,96.960106,-24.639416,1.5362501,-6.452477
-39.607533,130.22353,58.87258,75.241394,3.3683982,4.5578566,-1.3852726,-0.78939843,-0.3581811,-0.2781928,0.75596285,-0.6513445,0.61346245,-0.27833727,1.1690474,-0.90716344,-1.8787847,-1.5004101,2.2082067,1.7127396,-0.9787812,1.239715,-0.88033754,-1.8565692,-1.5596528,2.2538214,1.6691126,-0.948097,-0.865275,-0.8438444,-0.47169262,1.7674562,-1.9220423,1.7391855,0.2677197,0.28391075,-0.46795654,0.7397201,-1.3568473,-0.6626879,0.53651154,0.2571907,-0.4927826,0.67791295,0.66877365,0.052358612,0.026250372,0.7411553,-0.97655445,-0.58438265,0.027270548,1.0,0.0,0.0,0.0,0.0,0.0,0.0,-0.9339107,0.06795654,-0.1897201,-15.181124,22.15221,35.468174,52.826954,12.082028,-13.09123,-6.912404
-41.243744,130.7988,51.89913,52.199257,2.1645083,3.6688788,-1.0927364,-0.8033967,-0.10627097,-0.14474782,0.7962998,-0.65559244,0.60525,-0.2508593,1.1593753,-0.8909646,-1.8710439,-1.4800228,2.1882622,1.7296376,-0.9731829,1.2292017,-0.88637334,-1.8593444,-1.5408635,2.2367735,1.685016,-0.945976,-1.112067,-0.52499163,-0.21354596,1.9166335,-1.6358826,1.5428234,0.19348128,0.27035284,-0.47457886,0.7443367,-1.3554908,-0.66202533,0.43672398,0.24665928,-0.49840546,0.67988914,0.6769162,0.039141383,0.030058967,0.7344037,-1.0808436,-0.5476597,0.24692698,1.0,0.0,0.0,0.0,0.0,0.0,0.0,-0.9203528,0.07457885,-0.19433671,-24.265457,31.442022,25.556347,15.065503,27.619148,-19.01884,-7.464981
-49.952843,70.0565,13.701758,28.428669,2.5813818,1.4333098,-1.0099682,-0.82190615,-0.18920437,-0.39794728,0.78597313,-0.6166368,0.5944657,-0.2669155,1.147011,-0.90529376,-1.899139,-1.4622662,2.1751099,1.7444626,-0.9726676,1.216411,-0.8901594,-1.8618926,-1.5222993,2.2226553,1.6990389,-0.944535,-1.334082,-0.3305516,-0.26951364,1.8366194,-1.3379489,1.3560477,0.12732267,0.25680828,-0.48119354,0.7479563,-1.3541355,-0.6613634,0.33703616,0.23521042,-0.5040703,0.6825714,0.6860111,0.026873222,0.03394433,0.7263018,-1.1696153,-0.5639632,0.26909614,1.0,0.0,0.0,0.0,0.0,0.0,0.0,-0.90680826,0.08119354,-0.19795626,-21.985317,19.23995,-5.9402823,-7.8762054,29.557943,-18.450832,-6.6798954
-40.786556,35.83738,-2.8433623,12.83101,2.007518,0.07261437,-0.7254326,-0.82705516,-0.196685,-0.461688,0.7838445,-0.60190827,0.60411924,-0.3024649,1.1337055,-0.90982795,-1.9080614,-1.4439149,2.1624644,1.7594508,-0.9747815,1.201959,-0.8928068,-1.8660334,-1.5051885,2.211051,1.7113813,-0.9437063,-1.4821563,-0.24307501,-0.46318823,1.6693565,-1.1013309,1.193698,0.067771845,0.24327707,-0.4878006,0.7505797,-1.3527817,-0.6607022,0.237448,0.22312784,-0.510025,0.684714,0.6957962,0.016654126,0.037813317,0.7170497,-1.2252557,-0.59521264,0.19142053,1.0,0.0,0.0,0.0,0.0,0.0,0.0,-0.89327705,0.08780059,-0.2005797,-14.719677,8.663124,-19.598919,-16.668224,23.628998,-16.209602,-6.03905
-23.512003,28.840708,-1.1213503,6.167852,1.0998762,-0.36914772,-0.38531002,-0.8273894,-0.17359208,-0.425071,0.7900586,-0.5849667,0.62647486,-0.3396483,1.11922,-0.910166,-1.9085405,-1.4261826,2.1525543,1.7740288,-0.9776711,1.1866182,-0.89506036,-1.871992,-1.4896646,2.2012434,1.7223123,-0.94342875,-1.5513967,-0.21966216,-0.6403372,1.5134593,-0.94085026,1.0593835,0.014064251,0.22975922,-0.49440384,0.752208,-1.3514292,-0.66004163,0.13795945,0.21073294,-0.5161972,0.6859728,0.70592767,0.008521019,0.041642703,0.7070073,-1.2485023,-0.61268115,0.100990824,1.0,0.0,0.0,0.0,0.0,0.0,0.0,-0.8797592,0.09440383,-0.20220798,-6.9031477,2.282101,-17.789602,-15.572,15.929556,-13.466597,-5.460985
-10.563165,23.039389,2.1774235,4.2757597,0.8297017,-0.4733318,-0.1260182,-0.82169753,-0.23860109,-0.39873925,0.79410565,-0.54403365,0.63843864,-0.38307893,1.1044484,-0.91892046,-1.911866,-1.410254,2.14684,1.7861562,-0.98173666,1.1710466,-0.89768296,-1.8791751,-1.4752984,2.1926336,1.7320856,-0.9436538,-1.5591244,-0.2764958,-0.7441367,1.4111111,-0.8348615,0.949753,-0.034812517,0.21625471,-0.50099945,0.75283915,-1.350078,-0.65938175,0.03817662,0.19822454,-0.52251434,0.6863643,0.71611565,0.0020613172,0.04522426,0.6965119,-1.2561957,-0.6268228,0.016537935,1.0,0.0,0.0,0.0,0.0,0.0,0.0,-0.8662547,0.100999445,-0.20283914,-0.7711649,-5.7180166,-10.340786,-10.2029085,10.435068,-11.008823,-4.9232936
0.3290286,35.50176,13.090134,6.3450804,0.44735295,-0.095023274,0.060313344,-0.82572174,-0.2293733,-0.32916933,0.7875644,-0.484666,0.62730026,-0.40286925,1.0884744,-0.9206203,-1.912092,-1.396542,2.144167,1.7948157,-0.9839407,1.1556085,-0.900935,-1.886587,-1.4615712,2.1848783,1.7409033,-0.94432425,-1.5388176,-0.34163344,-0.7395965,1.3598737,-0.75649756,0.85918224,-0.07787532,0.20276403,-0.50758743,0.7524732,-1.3487282,-0.65872246,-0.06150645,0.18571377,-0.5288086,0.6862278,0.7261424,-0.0033586149,0.048407577,0.6858298,-1.2540475,-0.6185124,-0.025348743,1.0,0.0,0.0,0.0,0.0,0.0,0.0,-0.852764,0.10758743,-0.20247316,1.9761324,-6.5767946,0.616765,-5.126977,7.5692415,-9.066725,-4.336399
11.653307,56.991306,28.018406,9.601332,-0.07917985,0.47792795,0.24105988,-0.81621164,-0.21358182,-0.18881224,0.79173464,-0.45659694,0.6377735,-0.4288496,1.0739874,-0.9222932,-1.9054682,-1.3823978,2.1392186,1.8046806,-0.9872092,1.1404756,-0.90467054,-1.8929671,-1.4480386,2.1777334,1.7489485,-0.9453933,-1.5052817,-0.38445544,-0.60303503,1.3509519,-0.7019096,0.7866155,-0.116787635,0.18928719,-0.5141716,0.7511112,-1.3473798,-0.6580639,-0.16108985,0.173316,-0.5347595,0.6861133,0.73580194,-0.008505596,0.051148143,0.6752088,-1.2399367,-0.5759452,-0.008289429,1.0,0.0,0.0,0.0,0.0,0.0,0.0,-0.83928716,0.114171594,-0.2011112,3.2196522,-4.392618,13.963485,-0.9771824,5.0480127,-7.194543,-3.9496586
13.774805,59.200462,31.419909,10.929603,0.0468162,0.7228691,0.3234723,-0.8152819,-0.2877095,-0.08307499,0.7829881,-0.42383125,0.63260317,-0.43359348,1.0589474,-0.93344146,-1.9012746,-1.3697398,2.1353502,1.8122088,-0.98875266,1.125646,-0.90901643,-1.8974246,-1.4344659,2.17105,1.7563661,-0.9468076,-1.4757497,-0.4516188,-0.39201057,1.3590751,-0.6584524,0.7271273,-0.14967364,0.17582369,-0.52074814,0.7487541,-1.3460326,-0.657406,-0.2605737,0.16103697,-0.54024506,0.68628687,0.7449831,-0.013861098,0.053291265,0.66480684,-1.2282214,-0.528572,0.02431774,1.0,0.0,0.0,0.0,0.0,0.0,0.0,-0.82582366,0.12074813,-0.19875407,2.8279305,-6.8315325,21.447872,0.74174404,3.9061427,-5.865419,-3.3175588
18.947569,63.25744,36.278618,10.5336895,-0.19195062,0.95087385,0.4841006,-0.801447,-0.34884137,0.1140391,0.7726806,-0.46921632,0.6441802,-0.42666113,1.0455014,-0.9439006,-1.8860207,-1.3571979,2.1241283,1.8207841,-0.98947376,1.1110986,-0.9141939,-1.8991145,-1.4208093,2.1645346,1.7632822,-0.94850326,-1.4481936,-0.5401288,-0.09346315,1.3675001,-0.6509725,0.6801131,-0.17622334,0.16237354,-0.52731705,0.74540293,-1.3446869,-0.6567487,-0.3599581,0.14892006,-0.5451431,0.68690217,0.7535375,-0.019808933,0.05471265,0.6548247,-1.2101523,-0.46688965,0.07201446,1.0,0.0,0.0,0.0,0.0,0.0,0.0,-0.8123735,0.12731704,-0.19540292,2.6360273,-8.973318,30.246597,0.7651806,0.23795366,-4.567218,-2.6736708
18.054777,56.87883,32.311752,9.010111,-0.28031388,0.7493998,0.4902711,-0.7783658,-0.40454203,0.17697957,0.763718,-0.5444676,0.65756506,-0.39684388,1.033262,-0.95464814,-1.8814166,-1.3444375,2.1100879,1.8290387,-0.9881877,1.0968565,-0.9203566,-1.898033,-1.4071202,2.157775,1.7698053,-0.95040584,-1.4163213,-0.6419229,0.17655398,1.3692555,-0.6861258,0.6433807,-0.19492841,0.14893675,-0.5338783,0.74105865,-1.3433425,-0.6560921,-0.45924315,0.13700438,-0.549469,0.68785906,0.7614283,-0.026390031,0.05550635,0.645329,-1.1890703,-0.41146433,0.10138351,1.0,0.0,0.0,0.0,0.0,0.0,0.0,-0.7989367,0.13387832,-0.19105864,3.1179667,-10.286307,27.338842,0.13136864,-3.9833665,-3.5213947,-1.8799484
7.968876,40.045464,19.485714,7.9924035,0.06091115,0.26103777,0.29787257,-0.7652615,-0.46261492,0.117663056,0.7566315,-0.5960144,0.64789647,-0.35799342,1.0203303,-0.96661806,-1.8862667,-1.3314571,2.0981734,1.834595,-0.98620516,1.0829252,-0.9275883,-1.8952616,-1.3934636,2.1504812,1.7760023,-0.95243526,-1.385532,-0.7504836,0.31123316,1.3643646,-0.744908,0.61244655,-0.20559768,0.1355133,-0.5404358,0.7357223,-1.3419994,-0.65543616,-0.5584289,0.12522364,-0.55345535,0.6887635,0.76882225,-0.03320456,0.05591922,0.6361467,-1.1784424,-0.38542268,0.084179014,1.0,0.0,0.0,0.0,0.0,0.0,0.0,-0.7855133,0.14043579,-0.18572229,3.070116,-10.921884,13.667742,-0.46143532,-6.175077,-2.965784,-1.0486841
-0.47806263,28.729704,9.295849,7.8997965,0.34465507,-0.18067151,0.09200089,-0.74062455,-0.4949392,0.052209917,0.7626401,-0.62078846,0.64374524,-0.3191742,1.0088627,-0.9770822,-1.8900406,-1.3171996,2.0884023,1.8403769,-0.98435265,1.0693392,-0.93579656,-1.8921851,-1.3798356,2.1425848,1.7819284,-0.95452094,-1.3498158,-0.84444016,0.30689174,1.3626901,-0.8051402,0.5864201,-0.20941839,0.122103214,-0.5469856,0.72939485,-1.3406577,-0.65478086,-0.6575154,0.11348677,-0.5573616,0.6892332,0.77595,-0.03976606,0.056233414,0.6270231,-1.1762183,-0.38426772,0.03175168,0.0,1.0,0.0,0.0,0.0,0.0,0.0,-0.7721032,0.14698562,-0.17939484,3.5836935,-9.429539,-0.34410357,-0.08041859,-6.156683,-2.4928093,-0.35294294
-9.04805,25.24077,2.3580194,9.504867,0.5502288,-0.47305757,-0.1357424,-0.7249539,-0.48430583,-0.07133627,0.7751541,-0.6327977,0.6443828,-0.2785563,0.99684376,-0.9842271,-1.8993187,-1.3023202,2.079305,1.8463666,-0.9823766,1.0561022,-0.9446133,-1.8901786,-1.3661523,2.1341696,1.7876295,-0.9566009,-1.3150276,-0.894197,0.16511272,1.3706219,-0.85372394,0.56501544,-0.20758773,0.108706474,-0.55352783,0.72207725,-1.3393173,-0.6541262,-0.7565029,0.101707935,-0.56137085,0.68903327,0.783054,-0.045645,0.05680163,0.6176702,-1.1824334,-0.39976364,-0.040373992,0.0,1.0,0.0,0.0,0.0,0.0,0.0,-0.75870645,0.15352783,-0.17207724,3.5067797,-4.9961567,-14.194873,0.94521046,-4.842031,-2.0328403,0.1947999
-17.772188,20.922464,-2.730724,11.042108,0.95256424,-0.50808007,-0.30733138,-0.7344194,-0.5111516,-0.15965961,0.7737718,-0.5946257,0.6301369,-0.3085883,0.98266023,-0.99572843,-1.9061445,-1.2887751,2.074707,1.8506432,-0.9874597,1.0431125,-0.95378584,-1.8903066,-1.3524739,2.1255004,1.792944,-0.9587263,-1.2935869,-0.9248672,-0.073234394,1.3672848,-0.8683186,0.53203785,-0.21249983,0.0935235,-0.55734634,0.72275084,-1.51054,-0.33187336,0.37312797,0.08979607,-0.56567764,0.6879479,0.7903579,-0.050349563,0.057790585,0.6078317,-1.1996683,-0.43210903,-0.1347914,0.0,1.0,0.0,0.0,0.0,0.0,0.0,-0.7435235,0.15734634,-0.17275083,1.7720461,-3.2511115,-20.977201,1.1081696,-1.4692664,-1.8467546,-0.046491623
-2.9904299,123.29209,43.107933,24.326126,-0.8483796,1.0288093,-0.19684425,-0.7803778,-0.022505702,0.013666571,0.791413,-0.55570847,0.6254429,-0.31819376,0.9650747,-0.9560364,-1.88894,-1.2733326,2.0699296,1.8554883,-0.9905457,1.0299919,-0.96083826,-1.8914968,-1.3386856,2.1168983,1.7981491,-0.9608778,-1.3184438,-0.63290936,-0.13377242,1.3823409,-0.8589718,0.5174714,-0.21709812,0.0784297,-0.56066513,0.7257403,-1.5090297,-0.33154157,0.27423325,0.077970505,-0.569355,0.6874301,0.7977181,-0.05490449,0.060019113,0.59751904,-1.1799787,-0.33818656,-0.027362019,0.0,1.0,0.0,0.0,0.0,0.0,0.0,-0.7284297,0.16066512,-0.1757403,-2.528143,28.937733,-5.938986,1.4474154,0.5171418,-1.1765957,-0.77170134
-4.318688,124.13305,44.94298,25.509068,-0.47620472,1.2387486,-0.15781124,-0.7935279,-0.08702677,-0.0032145411,0.7866978,-0.5334473,0.6238495,-0.35988086,0.95063907,-0.96954095,-1.8918183,-1.2600158,2.0635536,1.8605341,-0.99686587,1.0164955,-0.9651813,-1.8928052,-1.3247677,2.1085098,1.8032417,-0.9630989,-1.3604429,-0.36898023,-0.12928472,1.3946878,-0.8342502,0.5070094,-0.2246651,0.06335068,-0.5639763,0.72774166,-1.507521,-0.33121008,0.17543739,0.06628084,-0.57208633,0.6880618,0.8050261,-0.05978177,0.06353633,0.5867898,-1.1678946,-0.24283631,0.09070998,0.0,1.0,0.0,0.0,0.0,0.0,0.0,-0.71335065,0.16397628,-0.17774165,-4.2685986,26.120073,0.64832866,1.1841297,1.9843698,-0.8799076,-1.0152161
-10.830889,96.04016,31.29531,22.652441,0.10238692,0.77362424,-0.2100794,-0.79351866,-0.111299716,-0.16021559,0.78849775,-0.55796874,0.63054246,-0.34455225,0.9371436,-0.97631127,-1.9088268,-1.2459179,2.052713,1.8662959,-0.9975541,1.0026138,-0.9675521,-1.8945295,-1.3107449,2.1002853,1.8082409,-0.96537817,-1.3975847,-0.19380236,-0.18624528,1.4049519,-0.8195915,0.49782586,-0.22958794,0.048286438,-0.56728745,0.72874254,-1.5060139,-0.33087894,0.074982785,0.054603577,-0.5741272,0.6894437,0.8123128,-0.06472099,0.068076044,0.575608,-1.1696632,-0.18263485,0.15225962,0.0,1.0,0.0,0.0,0.0,0.0,0.0,-0.6982864,0.16728744,-0.17874253,-3.7560225,17.308014,-5.547607,1.0402441,1.1351705,-0.84251165,-0.6788045
-9.910092,84.62836,26.560974,20.097315,0.21526515,0.5176251,-0.16720158,-0.7958384,-0.026864836,-0.19293606,0.78907096,-0.5436661,0.6227645,-0.32092795,0.92302996,-0.9702386,-1.9138231,-1.2318377,2.0459187,1.8705174,-0.997471,0.9884482,-0.9684858,-1.8969442,-1.2966496,2.0922058,1.8131523,-0.96768034,-1.4231243,-0.060429584,-0.25935754,1.4108907,-0.80477524,0.48896256,-0.2310257,0.033237457,-0.570591,0.7287397,-1.5045081,-0.33054814,-0.02537139,0.0429101,-0.5756645,0.69126475,0.81956416,-0.069502994,0.07344401,0.5639946,-1.1706699,-0.1351711,0.19071929,0.0,1.0,0.0,0.0,0.0,0.0,0.0,-0.68323743,0.17059097,-0.17873967,-2.6055336,13.1532755,-7.1481285,0.59394836,1.1887074,-0.85802674,-0.3188461
-10.192814,57.1981,16.439209,15.5164,0.71256196,0.18931925,-0.12632017,-0.79540086,-0.089519694,-0.20102935,0.7880705,-0.51023704,0.6306786,-0.35180697,0.9089081,-0.97743773,-1.9170471,-1.2178426,2.041182,1.8762202,-1.002861,0.97413164,-0.968893,-1.9000188,-1.2825276,2.0843475,1.8179893,-0.9700111,-1.4345783,-0.034564484,-0.32319194,1.41268,-0.7801328,0.48181713,-0.23414159,0.018203735,-0.5738945,0.727734,-1.5030038,-0.33021766,-0.12562522,0.031119823,-0.5769386,0.69312227,0.82675385,-0.07396303,0.07917037,0.5520321,-1.1825728,-0.11608783,0.18312581,0.0,1.0,0.0,0.0,0.0,0.0,0.0,-0.6682037,0.1738945,-0.17773402,-1.1640549,2.4709113,-6.2433424,0.19431114,2.2728443,-0.72473884,-0.42981207
-7.1903925,42.886242,12.779088,12.2314,0.94620717,0.07061833,-0.040057562,-0.7926562,-0.12559374,-0.16558206,0.7870507,-0.4890187,0.63086015,-0.3636632,0.89486605,-0.98145235,-1.916577,-1.2038225,2.0354457,1.8810754,-1.0063775,0.9597962,-0.96958375,-1.9034336,-1.2684319,2.0768487,1.822773,-0.97235817,-1.4326862,-0.08068512,-0.35143572,1.406885,-0.7341474,0.4789354,-0.23366547,0.003255844,-0.57650757,0.727658,-1.4850277,-0.18287385,0.20319319,0.01917553,-0.5781212,0.69473433,0.83382463,-0.078082,0.08474794,0.53986806,-1.1993858,-0.11087877,0.15167288,0.0,1.0,0.0,0.0,0.0,0.0,0.0,-0.6532558,0.17650756,-0.17765796,0.34000874,-4.641207,-3.7580192,-1.0050297,6.0976744,0.0023126602,0.37311912
1.7099738,70.98876,26.53109,14.42827,0.50999874,0.41576618,0.0797397,-0.7998457,0.008835375,-0.07309743,0.7870992,-0.46001154,0.60743994,-0.35729337,0.87981164,-0.96870023,-1.9107434,-1.189722,2.0308475,1.883517,-1.0080875,0.9454768,-0.97024846,-1.906491,-1.2543938,2.0697992,1.8275241,-0.974707,-1.4319788,-0.062255204,-0.28949946,1.4025396,-0.6965476,0.4736724,-0.23568296,-0.011531353,-0.57806396,0.729933,-1.4766947,-0.14635637,0.2353814,0.007218361,-0.57899857,0.6964392,0.84064627,-0.0822085,0.090147115,0.52766365,-1.1949205,-0.07029554,0.17602581,0.0,1.0,0.0,0.0,0.0,0.0,0.0,-0.6384686,0.17806396,-0.17993301,-0.022220612,1.6941979,6.5194964,-0.481081,3.39787,-0.5674243,-0.31726956
2.3576508,67.37822,25.479853,13.6050005,0.61991346,0.37523288,0.09729481,-0.80065113,-0.039253946,-0.06458868,0.7796682,-0.42993546,0.5993284,-0.36527893,0.86541164,-0.97417384,-1.9129499,-1.176427,2.0268056,1.8874569,-1.0112349,0.93116593,-0.9708798,-1.9087989,-1.2404263,2.0631387,1.8322217,-0.97707963,-1.4310721,-0.06382389,-0.21016708,1.394568,-0.65681684,0.4683193,-0.23811445,-0.026238441,-0.5792656,0.73248017,-1.4686607,-0.11105369,0.26110727,-0.0047011375,-0.57948685,0.69834745,0.84717244,-0.08649727,0.095324196,0.5154905,-1.1911715,-0.032837465,0.19508122,0.0,1.0,0.0,0.0,0.0,0.0,0.0,-0.62376153,0.17926559,-0.18248016,0.0038146973,-0.2912447,8.260721,-0.83715916,3.6292315,-0.57186484,-0.3375709
-0.05961442,65.48016,23.522072,13.876028,0.6980135,0.30397028,0.063025706,-0.8075158,-0.03349079,-0.08050983,0.77185094,-0.3975534,0.5813262,-0.35253307,0.85041434,-0.97422886,-1.91685,-1.1632411,2.0233834,1.8903544,-1.0123329,0.9168284,-0.9715054,-1.9104816,-1.2265599,2.0568826,1.8368549,-0.9794667,-1.4348837,-0.0626297,-0.1534954,1.3839056,-0.61632514,0.4615889,-0.23921072,-0.040868282,-0.5801201,0.73523706,-1.4610845,-0.07682778,0.280189,-0.016605854,-0.579628,0.7004025,0.8534317,-0.090886906,0.10027507,0.50332755,-1.190215,0.0011500973,0.20818165,0.0,1.0,0.0,0.0,0.0,0.0,0.0,-0.6091317,0.18012008,-0.18523705,-0.4525423,-0.006785989,5.95811,-1.0923147,3.7430644,-0.69918036,-0.19848049
0.8707807,72.0516,25.322737,14.753913,0.53910315,0.26304132,0.05934932,-0.80187535,0.011347641,-0.06687934,0.77548754,-0.39489034,0.5702733,-0.33578598,0.83664083,-0.97037065,-1.9171695,-1.1490111,2.0173936,1.8938823,-1.0130453,0.90247667,-0.97191834,-1.9117329,-1.2127659,2.050966,1.8414195,-0.98184896,-1.4355257,-0.03469473,-0.11476922,1.3777885,-0.5846833,0.45487306,-0.23826334,-0.055399418,-0.58060074,0.73825383,-1.4502897,-0.038263265,0.30894387,-0.028450966,-0.5793953,0.70265114,0.85943365,-0.09534754,0.10515967,0.4911456,-1.1824528,0.0398731,0.22956745,0.0,1.0,0.0,0.0,0.0,0.0,0.0,-0.59460056,0.18060073,-0.18825382,-0.14433861,2.6548715,4.167801,-0.6438017,2.851057,-0.68335533,-0.011396408
1.3252435,71.783905,25.184446,14.59108,0.60428965,0.22958386,0.05607409,-0.8026953,0.0053528403,-0.024365721,0.7677462,-0.3519044,0.56934905,-0.35380125,0.82220715,-0.97138304,-1.9141694,-1.1359913,2.0157757,1.8983544,-1.0172291,0.88812196,-0.9720814,-1.9125626,-1.1990445,2.045412,1.8459246,-0.98423314,-1.4357556,-0.01066873,-0.07128777,1.3703403,-0.54676616,0.4488947,-0.2388099,-0.06981611,-0.5806923,0.7415514,-1.438749,0.00093089574,0.33641487,-0.040219307,-0.5787773,0.7051082,0.86517984,-0.099895164,0.10997985,0.4789458,-1.1744232,0.07782156,0.25038806,0.0,1.0,0.0,0.0,0.0,0.0,0.0,-0.58018386,0.18069229,-0.19155139,-0.10347366,2.2681088,4.648349,-0.7774353,3.4821153,-0.61288476,-0.15543401
-3.1499505,63.695457,19.933804,14.349797,0.6832434,0.039732873,0.0013732389,-0.8069274,0.0085040275,-0.09369097,0.76258624,-0.33374053,0.5502344,-0.31986716,0.8074292,-0.97123104,-1.9219317,-1.1227858,2.012038,1.900948,-1.0162199,0.87374914,-0.9720452,-1.913396,-1.1853993,2.0402164,1.8503592,-0.9865992,-1.4379466,0.008087492,-0.08653456,1.3625567,-0.51109654,0.44173473,-0.23619011,-0.08413696,-0.5804329,0.74497205,-1.4297016,0.034037698,0.344339,-0.051956654,-0.57787323,0.70763355,0.8707267,-0.104344256,0.11478959,0.46665895,-1.1728085,0.10446449,0.2525378,0.0,1.0,0.0,0.0,0.0,0.0,0.0,-0.565863,0.18043289,-0.19497204,-0.27341843,1.7637107,-1.3052747,-0.7945776,3.343141,-0.7178664,0.16666353
-6.806492,62.014935,17.240444,15.267521,0.64897406,-0.09144491,-0.052015558,-0.8083122,0.043662235,-0.16004366,0.7712313,-0.33834037,0.5350289,-0.295269,0.7929179,-0.96767896,-1.9294003,-1.1082761,2.0063825,1.9038621,-1.0161262,0.85934955,-0.9717219,-1.9148036,-1.1717712,2.0352917,1.8547171,-0.9889214,-1.440784,0.040083952,-0.15835631,1.3628486,-0.48699555,0.4338029,-0.23121734,-0.098370075,-0.5798569,0.74842435,-1.4210217,0.0655696,0.3460441,-0.063697815,-0.5767288,0.7101272,0.8761331,-0.10848511,0.11977979,0.45417467,-1.1734302,0.12613799,0.24758205,0.0,1.0,0.0,0.0,0.0,0.0,0.0,-0.5516299,0.17985687,-0.19842434,-0.32389164,3.0897558,-7.0136175,0.02272129,2.237624,-0.7906079,0.39194822
-11.430384,50.109505,11.067857,14.557455,0.7836852,-0.27305138,-0.105750844,-0.8104454,0.019761832,-0.24122061,0.76957697,-0.31378937,0.5210645,-0.28969973,0.778305,-0.9697457,-1.9389257,-1.0948135,2.0039127,1.9068236,-1.0178914,0.8449176,-0.9712422,-1.917308,-1.1581241,2.030598,1.8589896,-0.99119323,-1.4440852,0.05037561,-0.28087932,1.3651922,-0.4637928,0.42496708,-0.22619683,-0.11254692,-0.5790291,0.751712,-1.416521,0.08853261,0.3232655,-0.07552004,-0.5754814,0.7123999,0.88146573,-0.11208074,0.125009,0.44139415,-1.1840192,0.13409355,0.21992083,0.0,1.0,0.0,0.0,0.0,0.0,0.0,-0.53745306,0.17902908,-0.20171201,-0.33769608,0.9430193,-12.158486,0.24285316,2.226913,-0.8885205,0.40307343
-12.339015,48.17208,9.988974,14.581136,0.7875676,-0.30613542,-0.105934754,-0.8109742,0.026489181,-0.28657112,0.77453196,-0.31357163,0.51081645,-0.27810064,0.7638202,-0.9685933,-1.945965,-1.0806708,1.9992408,1.9100713,-1.0190033,0.83045703,-0.97070336,-1.9210994,-1.1444255,2.0260801,1.8631704,-0.99341154,-1.4467347,0.054761685,-0.41147017,1.3712754,-0.44815302,0.41588187,-0.2206989,-0.12668037,-0.57798004,0.7547363,-1.4120427,0.11068258,0.2967654,-0.0874629,-0.5741501,0.71436906,0.8867414,-0.11503418,0.130497,0.42828417,-1.1962459,0.14047985,0.18893056,0.0,1.0,0.0,0.0,0.0,0.0,0.0,-0.5233196,0.17798004,-0.20473629,-0.2661705,0.34705773,-12.957954,0.6193161,1.4672935,-0.9347081,0.44313967
-12.669512,41.581207,8.343599,13.789879,1.1024768,-0.29468858,-0.11469074,-0.8129186,-0.016654508,-0.3046623,0.77423924,-0.22797664,0.5064268,-0.28796905,0.7491652,-0.97236884,-1.9515656,-1.0670016,2.0032825,1.9138131,-1.0222085,0.81596977,-0.97036386,-1.9259896,-1.1306715,2.0219178,1.8672633,-0.9955879,-1.4493893,0.026776772,-0.51452035,1.3767701,-0.40563065,0.40687954,-0.21682116,-0.14079332,-0.57674026,0.757408,-1.410781,0.1287847,0.25878826,-0.09959984,-0.5728111,0.7159774,0.89196515,-0.117393106,0.13600446,0.41487303,-1.2179772,0.14250176,0.15138815,0.0,1.0,0.0,0.0,0.0,0.0,0.0,-0.50920665,0.17674026,-0.20740801,-0.25479794,-2.8815873,-10.190058,0.57451725,4.1528883,-0.9691298,0.30400753
-12.435301,39.649975,7.5490065,13.284503,1.0500267,-0.32289672,-0.08457774,-0.809089,-0.024946192,-0.38163587,0.7791546,-0.23613946,0.491681,-0.23471138,0.7350609,-0.9728585,-1.9641532,-1.0527561,1.9983039,1.9164314,-1.0190591,0.8014815,-0.9703591,-1.9319308,-1.1168525,2.0181177,1.8712633,-0.99769115,-1.4486257,-0.008488501,-0.6204455,1.383662,-0.3714454,0.39754647,-0.20838712,-0.15489197,-0.57533264,0.7596623,-1.4092051,0.14549616,0.21618706,-0.111952305,-0.5714493,0.7171815,0.8971243,-0.119154476,0.14145878,0.4011976,-1.2394407,0.1437439,0.11014551,0.0,1.0,0.0,0.0,0.0,0.0,0.0,-0.495108,0.17533264,-0.20966226,0.09145737,-3.611719,-10.471451,0.7223129,3.3184052,-1.011461,0.7608026
-13.661484,30.673695,4.501404,11.965286,1.2583146,-0.3687141,-0.07709239,-0.81133777,-0.08629426,-0.4300982,0.77425975,-0.16371131,0.44476205,-0.19170326,0.7203477,-0.9789885,-1.9749407,-1.0394266,2.0017467,1.9157394,-1.0168614,0.7869971,-0.9709408,-1.9388691,-1.1029978,2.014794,1.8751414,-0.99968266,-1.4481579,-0.07496703,-0.71798956,1.3861295,-0.31940472,0.38432494,-0.19619617,-0.16900682,-0.5738106,0.7613547,-1.4119366,0.15542622,0.1559034,-0.12458897,-0.5701294,0.7178765,0.90222824,-0.12028394,0.14667779,0.3873003,-1.2702773,0.1384487,0.05615188,0.0,1.0,0.0,0.0,0.0,0.0,0.0,-0.48099315,0.17381057,-0.21135467,0.08556843,-6.715785,-9.661091,0.31478405,5.132681,-1.4188945,1.1716187
-10.044982,42.35377,9.068963,12.826263,1.020012,-0.2973575,-0.020834334,-0.8023704,-0.058991898,-0.46660155,0.78390306,-0.17618011,0.41685477,-0.15256543,0.70676005,-0.97684,-1.9855293,-1.0246074,1.997176,1.9168268,-1.0149392,0.7725592,-0.97197366,-1.9466772,-1.089095,2.0118861,1.8788773,-1.0015295,-1.442401,-0.113019586,-0.80114186,1.3917266,-0.28135824,0.36967158,-0.1810268,-0.1830988,-0.5721283,0.7625922,-1.4076246,0.17361292,0.116019234,-0.13743925,-0.5687752,0.71816665,0.9072293,-0.120852396,0.15172838,0.3732399,-1.2883273,0.144511,0.02028221,0.0,1.0,0.0,0.0,0.0,0.0,0.0,-0.46690118,0.17212829,-0.21259218,0.5731106,-3.9101868,-8.123016,0.594306,3.6455274,-1.5842497,1.4359653
-12.581593,38.36805,7.4182625,12.949129,1.1554567,-0.27395046,-0.028231122,-0.8131889,-0.11646714,-0.5086307,0.7859101,-0.14800195,0.35554552,-0.118575595,0.6912403,-0.98362035,-1.9975402,-1.010504,1.9970859,1.9144318,-1.013387,0.75812715,-0.9735024,-1.9552499,-1.0751346,2.0093372,1.8824308,-1.0032103,-1.4433956,-0.1664748,-0.87549573,1.397777,-0.24605316,0.3502593,-0.16392264,-0.19716549,-0.5702858,0.76336986,-1.4056615,0.18929277,0.06872949,-0.15051985,-0.5673752,0.7180606,0.91212094,-0.12087036,0.15659845,0.35903022,-1.313165,0.14963096,-0.020512907,0.0,1.0,0.0,0.0,0.0,0.0,0.0,-0.4528345,0.17028579,-0.21336985,-0.084757805,-5.450311,-7.2481036,0.6756067,3.3737004,-2.0739794,1.6497344
-11.432608,45.753273,9.804901,13.546142,0.8996447,-0.20008218,0.026170807,-0.8138214,-0.11073249,-0.5472184,0.7848273,-0.19869106,0.32008058,-0.076406114,0.676745,-0.9845756,-2.0099719,-0.9966519,1.9894681,1.9144388,-1.0108509,0.7436685,-0.97542125,-1.964517,-1.0611324,2.0069122,1.8857793,-1.0047024,-1.4466609,-0.20081857,-0.9431487,1.4010487,-0.2419226,0.32935113,-0.1446459,-0.21117163,-0.56824493,0.7637668,-1.3979424,0.21045475,0.03415052,-0.16377306,-0.56586075,0.7176179,0.91686326,-0.120342106,0.16143198,0.3447016,-1.3278501,0.16309153,-0.051857937,0.0,1.0,0.0,0.0,0.0,0.0,0.0,-0.43882835,0.16824493,-0.21376681,-0.3402233,-3.5660954,-6.5029144,0.37465096,0.18442869,-2.2287667,1.8336117
-12.384862,42.56355,8.571371,12.983834,0.8438772,-0.17762077,0.05961865,-0.8204555,-0.16007796,-0.57393456,0.78251535,-0.22772077,0.27799383,-0.028891478,0.66162294,-0.99142903,-2.0219104,-0.9828809,1.9841402,1.9135786,-1.0075916,0.7291457,-0.9777846,-1.9743848,-1.0471225,2.0043612,1.8889056,-1.0059838,-1.4542178,-0.2486218,-1.0005343,1.40118,-0.25990131,0.30675644,-0.122943245,-0.22510386,-0.5660095,0.76377106,-1.390576,0.22955081,-0.006389982,-0.17717981,-0.5642204,0.7168183,0.92142814,-0.11924144,0.16629864,0.33029732,-1.343206,0.17629854,-0.08892873,0.0,1.0,0.0,0.0,0.0,0.0,0.0,-0.42489612,0.16600952,-0.21377105,-0.76150894,-4.908812,-5.4713607,0.08456707,-2.0346136,-2.3879051,2.0804837
-12.723179,29.577507,4.068778,10.1869,0.6922479,-0.29073882,0.12805898,-0.814907,-0.24344593,-0.6206955,0.7796378,-0.28777966,0.2278405,0.08246994,0.647655,-1.0021292,-2.0364544,-0.9691587,1.9755832,1.9116896,-0.9977368,0.7145812,-0.9809126,-1.9848629,-1.0331297,2.0014133,1.8917919,-1.0069873,-1.4570507,-0.33453265,-1.0630497,1.3990366,-0.30653176,0.2823572,-0.092888184,-0.23899794,-0.56365967,0.7631883,-1.3878217,0.23879701,-0.07110065,-0.19076633,-0.56251526,0.71547705,0.92580694,-0.11744356,0.17117175,0.31589332,-1.3621536,0.17946991,-0.14880098,0.0,1.0,0.0,0.0,0.0,0.0,0.0,-0.41100204,0.16365966,-0.21318829,-0.24867058,-8.683252,-6.071019,-0.08010864,-4.8202276,-2.5245965,2.9469519
-11.00737,32.036797,5.0401936,9.793077,0.5019846,-0.26021653,0.17286962,-0.81335866,-0.2634142,-0.63954735,0.78153354,-0.35773858,0.20887296,0.105786584,0.63324535,-1.007254,-2.0488176,-0.9549763,1.9656395,1.9126792,-0.9964087,0.7000119,-0.984878,-1.9958959,-1.0191519,1.9978186,1.8944448,-1.0076948,-1.4567986,-0.41745535,-1.116063,1.397763,-0.377384,0.25924915,-0.0635114,-0.25284195,-0.5612068,0.76198524,-1.3818752,0.24932477,-0.13207248,-0.20449305,-0.5607681,0.7135526,0.9299706,-0.11491409,0.17611556,0.30155045,-1.3742371,0.18540378,-0.20670702,0.0,1.0,0.0,0.0,0.0,0.0,0.0,-0.39715803,0.16120681,-0.21198523,0.04620552,-8.39355,-5.0825834,0.007843971,-7.282436,-2.3985088,2.8662755
-10.800451,31.465628,4.6629906,9.333734,0.3920049,-0.28298974,0.2211689,-0.81353444,-0.30966637,-0.67479426,0.78233624,-0.42116556,0.13922669,0.2173971,0.6186585,-1.0158446,-2.0633752,-0.9409183,1.9557021,1.9083675,-0.9859551,0.6854558,-0.98968834,-2.0074623,-1.0051777,1.993407,1.8968396,-1.0080551,-1.455174,-0.5025513,-1.169673,1.3978281,-0.46265605,0.23257113,-0.026966676,-0.26662254,-0.5586586,0.760152,-1.3751941,0.25851524,-0.19515619,-0.21832514,-0.5589676,0.7110319,0.93389565,-0.1116039,0.1811879,0.28732294,-1.384352,0.19053616,-0.26714844,0.0,1.0,0.0,0.0,0.0,0.0,0.0,-0.38337743,0.1586586,-0.21015197,0.18656254,-8.613789,-5.1401615,0.1619339,-8.73732,-2.7567477,3.5792842
-9.444045,30.87973,4.641843,8.440528,0.30794215,-0.28784186,0.26344383,-0.8087328,-0.36367399,-0.69445586,0.7791721,-0.47967997,0.10392223,0.28616682,0.60458255,-1.0260557,-2.0769079,-0.9272605,1.945439,1.9072318,-0.9794384,0.67093945,-0.9953827,-2.0195112,-0.99121225,1.9881017,1.8989654,-1.0080291,-1.4504341,-0.5920868,-1.2159961,1.3966063,-0.55341005,0.20560527,0.012243777,-0.28033113,-0.5560303,0.7576715,-1.3678727,0.26629236,-0.26077044,-0.23224163,-0.55711365,0.70789087,0.9375669,-0.10748533,0.18637909,0.27327296,-1.3919637,0.19516094,-0.32994664,0.0,1.0,0.0,0.0,0.0,0.0,0.0,-0.36966884,0.15603027,-0.20767146,0.4938364,-9.056616,-4.4015884,0.045609474,-9.298182,-2.7921052,3.846506
-10.541108,31.352545,4.341637,8.42153,0.34926313,-0.38818628,0.2769298,-0.8167149,-0.4043909,-0.72829807,0.7671962,-0.5092369,-0.17194127,0.35879627,0.58926797,-1.0358218,-2.092341,-0.9144926,1.937178,1.8817712,-0.9721495,0.6564293,-1.0019412,-2.0320413,-0.9773134,1.9819686,1.900641,-1.0075942,-1.4511145,-0.6775743,-1.2647012,1.3882343,-0.6336998,0.1544834,0.053759895,-0.29397202,-0.5533333,0.7545208,-1.3611113,0.27245268,-0.32816413,-0.24624729,-0.5552368,0.7041256,0.941003,-0.102446884,0.19161572,0.25942472,-1.4012675,0.19786322,-0.39257428,0.0,1.0,0.0,0.0,0.0,0.0,0.0,-0.35602796,0.15333328,-0.20452076,-0.044226646,-8.659447,-4.635954,-0.6512165,-8.2890625,-5.2354784,4.0825834
-8.746864,44.29136,8.35044,10.054815,0.3731218,-0.33441603,0.28387964,-0.817834,-0.3978789,-0.741519,0.7577632,-0.534611,-0.31749094,0.38785452,0.5746459,-1.0417291,-2.1061933,-0.90153706,1.9285076,1.8688918,-0.96880877,0.6418942,-1.0090938,-2.0449913,-0.9635457,1.9751506,1.9017233,-1.0067629,-1.4543924,-0.728399,-1.3040284,1.3732406,-0.6987008,0.09214368,0.09263958,-0.307487,-0.55052567,0.75084794,-1.3466036,0.28481632,-0.37561566,-0.2602787,-0.55327606,0.69988143,0.94419986,-0.09648617,0.19688831,0.24578823,-1.4016829,0.20832165,-0.4358772,0.0,1.0,0.0,0.0,0.0,0.0,0.0,-0.34251297,0.15052566,-0.20084792,-0.35996437,-5.229163,-3.5644054,-1.3860703,-6.906402,-6.4079566,3.7735567
-7.3193655,44.063442,8.356214,8.956434,0.34824663,-0.3307531,0.29716057,-0.81758606,-0.44740254,-0.7607762,0.733599,-0.567161,-0.38829166,0.3768851,0.5601356,-1.053834,-2.121069,-0.8901858,1.9184345,1.862894,-0.96907437,0.6273258,-1.0167594,-2.058296,-0.95002395,1.9677579,1.9021752,-1.005594,-1.4578476,-0.77987164,-1.338364,1.3454412,-0.75389504,0.028838232,0.12462543,-0.32085514,-0.5476074,0.74667615,-1.331849,0.29545048,-0.4265282,-0.2743039,-0.5512047,0.6951873,0.94716066,-0.0896141,0.20211408,0.2323915,-1.4002926,0.21813698,-0.48165974,0.0,1.0,0.0,0.0,0.0,0.0,0.0,-0.32914484,0.14760742,-0.19667614,-0.38819313,-5.287409,-3.054285,-2.67632,-5.9444904,-6.522107,3.0836673
