Afshin1997/kuka_rl_ros2/src/catch_and_throw/input_files/idealpd/recorded_trajectories/env_312_data.csv
torque0,torque1,torque2,torque3,torque4,torque5,torque6,action0,action1,action2,action3,action4,action5,action6,set_target_0,set_target_1,set_target_2,set_target_3,set_target_4,set_target_5,set_target_6,joint_pos_0,joint_pos_1,joint_pos_2,joint_pos_3,joint_pos_4,joint_pos_5,joint_pos_6,joint_vel_0,joint_vel_1,joint_vel_2,joint_vel_3,joint_vel_4,joint_vel_5,joint_vel_6,tennisball_pos_0,tennisball_pos_1,tennisball_pos_2,tennisball_lin_vel_0,tennisball_lin_vel_1,tennisball_lin_vel_2,end_effector_pos_0,end_effector_pos_1,end_effector_pos_2,end_effector_rot_0,end_effector_rot_1,end_effector_rot_2,end_effector_rot_3,end_effector_lin_vel_0,end_effector_lin_vel_1,end_effector_lin_vel_2,obs_task_0,obs_task_1,obs_task_2,obs_task_3,obs_task_4,obs_task_5,obs_task_6,to_final_target_0,to_final_target_1,to_final_target_2,joint_acc_0,joint_acc_1,joint_acc_2,joint_acc_3,joint_acc_4,joint_acc_5,joint_acc_6
0.0,0.0,0.0,0.0,0.0,0.0,0.0,0.0,0.0,0.0,0.0,0.0,0.0,0.0,1.7802359,-1.0646509,-1.8151424,-1.1170107,1.9373155,1.1170107,-0.91629785,1.7802359,-1.0646509,-1.8151424,-1.1170107,1.9373155,1.1170107,-0.91629785,0.0,0.0,0.0,0.0,0.0,0.0,0.0,2.7671776,-0.63773346,0.28693968,-3.406818,0.29765514,4.843547,0.5304146,-0.45449448,0.693097,0.5745483,0.17512383,0.15255436,0.7848268,0.0,0.0,0.0,1.0,0.0,0.0,0.0,0.0,0.0,0.0,-3.4171777,0.23773345,0.26306033,0.0,0.0,0.0,0.0,0.0,0.0,0.0
0.0,0.0,0.0,0.0,0.0,0.0,0.0,0.0,0.0,0.0,0.0,0.0,0.0,0.0,1.7802359,-1.0646509,-1.8151424,-1.1170107,1.9373155,1.1170107,-0.91629785,1.7802359,-1.0646509,-1.8151424,-1.1170107,1.9373155,1.1170107,-0.91629785,0.0,0.0,0.0,0.0,0.0,0.0,0.0,2.7671776,-0.63773346,0.28693968,-3.406818,0.29765514,4.843547,0.5304146,-0.45449448,0.693097,0.5745483,0.17512383,0.15255436,0.7848268,0.0,0.0,0.0,1.0,0.0,0.0,0.0,0.0,0.0,0.0,-3.4171777,0.23773345,0.26306033,0.0,0.0,0.0,0.0,0.0,0.0,0.0
0.0,0.0,0.0,0.0,0.0,0.0,0.0,0.0,0.0,0.0,0.0,0.0,0.0,0.0,1.7802359,-1.0646509,-1.8151424,-1.1170107,1.9373155,1.1170107,-0.91629785,1.7802359,-1.0646509,-1.8151424,-1.1170107,1.9373155,1.1170107,-0.91629785,0.0,0.0,0.0,0.0,0.0,0.0,0.0,2.7671776,-0.63773346,0.28693968,-3.406818,0.29765514,4.843547,0.5304146,-0.45449448,0.693097,0.5745483,0.17512383,0.15255436,0.7848268,0.0,0.0,0.0,1.0,0.0,0.0,0.0,0.0,0.0,0.0,-3.4171777,0.23773345,0.26306033,0.0,0.0,0.0,0.0,0.0,0.0,0.0
-176.0,81.25922,-1.721672,110.0,11.248373,5.237185,-3.831022,-0.83329684,0.42759064,-0.5670864,0.72906864,0.44447687,0.62868243,-0.5739689,1.6969062,-1.0218918,-1.8718511,-1.0441039,1.9817631,1.179879,-0.97369474,1.7787005,-1.0617708,-1.821326,-1.1132036,1.9437642,1.1222483,-0.9179525,-0.20456415,0.38319895,-0.823419,0.5076925,0.85866827,0.6961126,-0.22012697,2.7331352,-0.634758,0.33460236,-3.4034119,0.29735753,4.7405176,0.5282898,-0.45749664,0.69390607,0.5781001,0.17392735,0.15089811,0.7828022,-0.2830211,-0.400535,0.107664585,1.0,0.0,0.0,0.0,0.0,0.0,0.0,-3.3831353,0.23475799,0.21539766,-20.4228,38.087524,-82.05203,50.800133,85.52534,68.93763,-21.875364
-176.0,-0.6472701,-35.193317,110.0,12.867325,2.6909094,-3.6208088,-0.8168338,0.006466849,-0.55736405,0.6948636,0.5210523,0.61663973,-0.5651426,1.6970171,-1.0611241,-1.8770624,-1.0437173,1.9958694,1.1839123,-0.97446674,1.7764593,-1.0571741,-1.8365619,-1.1020705,1.9583535,1.1356093,-0.920884,-0.23741584,0.46706045,-1.7104224,1.3130269,1.6325376,1.5007379,-0.32911643,2.6991272,-0.63178635,0.38123554,-3.4000092,0.29706022,4.6375914,0.52347183,-0.46528625,0.6950276,0.5863401,0.17097023,0.14632946,0.7781787,-0.5486884,-0.9024437,0.11817856,1.0,0.0,0.0,0.0,0.0,0.0,0.0,-3.3491273,0.23178634,0.16876447,-5.276385,2.954048,-74.72117,79.84517,69.453766,65.81349,-14.4110565
-164.29634,120.2483,31.645193,100.563805,8.600568,8.065845,-2.3765626,-0.7729155,0.40188584,-0.08421021,0.60873544,0.51444346,0.68013597,-0.53790545,1.6991677,-1.0169855,-1.844983,-1.041197,2.0097978,1.2036228,-0.9746746,1.7708575,-1.051433,-1.8523281,-1.087073,1.974793,1.1504484,-0.9244307,-0.6684028,0.6063056,-1.5246711,1.5629041,1.6429422,1.4699258,-0.3654299,2.6651535,-0.6288185,0.42684022,-3.3966098,0.2967632,4.534768,0.51574135,-0.4758873,0.6978699,0.59769744,0.16653939,0.14045712,0.77155304,-0.85530293,-1.1065942,0.34405997,1.0,0.0,0.0,0.0,0.0,0.0,0.0,-3.3151536,0.2288185,0.123159796,-43.26073,12.816715,20.753813,25.258183,-0.41553974,-5.602813,-4.300004
-108.665665,127.18987,44.885696,68.614944,5.115279,8.315167,-0.99671257,-0.7891816,0.33062437,-0.030686883,0.6191189,0.49987948,0.6392094,-0.5682856,1.6919394,-1.0183705,-1.8553967,-1.025161,2.024781,1.2143694,-0.9812593,1.7610403,-1.04507,-1.8635967,-1.0714594,1.9895864,1.1641432,-0.9282416,-1.0875142,0.6434926,-0.9862483,1.5613637,1.4202529,1.3307211,-0.38957158,2.6312122,-0.6258507,0.47141743,-3.3932137,0.2964665,4.432048,0.50541687,-0.48730087,0.70284235,0.61041814,0.1606009,0.13412504,0.763942,-1.1032013,-1.1429118,0.55368495,1.0,0.0,0.0,0.0,0.0,0.0,0.0,-3.2812123,0.22585067,0.078582585,-42.3391,2.8666258,56.260384,-0.03144741,-23.658539,-15.496182,-3.3797503
-49.184284,134.51315,52.17704,39.449055,1.819521,7.2533016,-0.12959282,-0.8016439,0.41549003,-0.03412082,0.6121325,0.5321263,0.63555056,-0.555331,1.6808759,-1.0035211,-1.8670088,-1.0102462,2.042799,1.2276982,-0.9837747,1.7478529,-1.0382246,-1.8693798,-1.0569197,2.0018811,1.1763293,-0.9322175,-1.3973594,0.6963071,-0.4356389,1.4179028,1.1628481,1.1787461,-0.40337288,2.5973053,-0.6228905,0.5149682,-3.3898213,0.2961701,4.3294306,0.4932804,-0.49817276,0.70964336,0.6232953,0.1533025,0.12777703,0.7560914,-1.2631526,-1.0556804,0.72588587,1.0,0.0,0.0,0.0,0.0,0.0,0.0,-3.2473054,0.22289047,0.035031796,-31.470203,4.6919227,57.060562,-14.453316,-26.713467,-15.94286,-2.315843
-9.14364,121.19772,46.193394,19.312958,-0.27673978,4.9854136,0.12780356,-0.81682575,0.48183534,-0.10146817,0.6172085,0.55377334,0.62326884,-0.56496453,1.6661704,-0.990041,-1.8795266,-0.99519885,2.0572584,1.2386562,-0.9887139,1.7326075,-1.0306925,-1.8711879,-1.0439574,2.0120397,1.1871325,-0.93629825,-1.5682343,0.7710307,-0.09153987,1.2550697,0.96474695,1.046769,-0.41207367,2.5634327,-0.61993027,0.55749357,-3.3864322,0.29587397,4.226916,0.4801693,-0.5078964,0.71766764,0.63579,0.14513613,0.12188943,0.74823093,-1.3375902,-0.92883116,0.82932,1.0,0.0,0.0,0.0,0.0,0.0,0.0,-3.2134328,0.21993026,-0.0074935555,-17.4814,7.101929,35.71322,-16.48867,-20.331192,-13.421869,-1.5710175
15.975046,113.36488,41.41716,8.515368,-1.4202166,3.2844853,0.13636807,-0.825269,0.5617839,-0.117042616,0.6064666,0.5774992,0.61940247,-0.55765176,1.6500806,-0.97451407,-1.8828921,-0.9833107,2.0697896,1.2490727,-0.9920634,1.7165018,-1.022159,-1.8710887,-1.0323931,2.020825,1.1967818,-0.9404372,-1.6258165,0.88001466,0.04647994,1.1225617,0.8487779,0.937838,-0.41641045,2.5295944,-0.6169739,0.59899455,-3.3830464,0.29557815,4.1245036,0.46675873,-0.5162811,0.7264282,0.64777416,0.1365642,0.11681845,0.74033254,-1.3522341,-0.7928883,0.89133793,1.0,0.0,0.0,0.0,0.0,0.0,0.0,-3.1795945,0.21697387,-0.04899454,-6.0915947,10.6454735,14.672473,-13.510752,-11.854256,-10.886431,-0.99974275
26.522196,105.09569,36.769386,4.7048626,-1.7197298,2.196813,0.058760814,-0.8300293,0.61445415,-0.10806422,0.59877473,0.57366335,0.6330591,-0.5474821,1.6334989,-0.96071357,-1.8818952,-0.97251564,2.0781913,1.2600876,-0.9951854,1.7003409,-1.0124639,-1.8706253,-1.0217768,2.028893,1.2055022,-0.9445962,-1.6137626,0.9985986,0.04845201,1.0403379,0.7924831,0.8502441,-0.41736856,2.4957886,-0.6140213,0.6394722,-3.379664,0.29528263,4.0221934,0.45341682,-0.52339935,0.73563385,0.6592979,0.1278711,0.11270094,0.7323071,-1.3356739,-0.66901964,0.9292979,1.0,0.0,0.0,0.0,0.0,0.0,0.0,-3.1457887,0.2140213,-0.089472175,0.92983246,11.676777,0.8145422,-8.4939,-5.7518005,-8.692158,-0.56892633
30.308155,98.09134,33.83242,3.8297548,-1.5381052,1.6650747,0.066656746,-0.82408345,0.6488518,-0.07516413,0.58176506,0.59099656,0.6338626,-0.55040425,1.6179326,-0.9475787,-1.8781416,-0.9636003,2.0879927,1.2688885,-0.9996366,1.6845556,-1.0016836,-1.8704937,-1.0116965,2.0367398,1.2134653,-0.94875896,-1.5674518,1.1040394,0.0031060164,0.9963828,0.7821105,0.778726,-0.41729406,2.462017,-0.6110687,0.6789275,-3.376285,0.2949874,3.9199862,0.44031906,-0.52939606,0.74514145,0.6704126,0.11918335,0.109415114,0.7241344,-1.3074319,-0.56064624,0.95688134,1.0,0.0,0.0,0.0,0.0,0.0,0.0,-3.1120172,0.21106872,-0.12892747,4.3988705,10.403347,-4.0302353,-4.6702027,-1.1100054,-7.101321,-0.4115939
26.68314,90.64758,30.7821,5.380327,-1.0678484,1.4589643,0.071733356,-0.8256887,0.67595595,-0.058480036,0.56534636,0.60524815,0.6414003,-0.55410326,1.6019868,-0.934088,-1.8763417,-0.9551618,2.0972645,1.2776054,-1.0041692,1.6692435,-0.9900259,-1.8708351,-1.0018831,2.044682,1.2208163,-0.95291984,-1.5198972,1.1859865,-0.045078497,0.9754584,0.7977148,0.72047925,-0.41688377,2.4282799,-0.6081238,0.7173615,-3.3729095,0.2946925,3.8178813,0.42746162,-0.53445053,0.754876,0.68116474,0.110534504,0.1067257,0.7158256,-1.2830399,-0.47116402,0.97793037,1.0,0.0,0.0,0.0,0.0,0.0,0.0,-3.07828,0.20812377,-0.1673615,4.554534,8.076525,-4.3665557,-2.3555398,1.5043736,-5.8233857,-0.33272505
24.183023,85.0613,28.983408,5.9399223,-0.7376961,1.412715,0.1504735,-0.81923044,0.697345,-0.03350083,0.53494763,0.6185114,0.64529395,-0.55373764,1.5873204,-0.92029136,-1.8741852,-0.9483884,2.106533,1.2853457,-1.0082936,1.6543394,-0.977733,-1.871455,-0.9922806,2.0528646,1.2276655,-0.957075,-1.4813807,1.2434566,-0.065951504,0.9543025,0.82483727,0.6730222,-0.41625085,2.394577,-0.60517883,0.7547752,-3.3695374,0.29439786,3.7158785,0.41480637,-0.5386734,0.7647859,0.6915443,0.10191652,0.10439732,0.7074466,-1.2632703,-0.39115876,0.99433684,1.0,0.0,0.0,0.0,0.0,0.0,0.0,-3.0445771,0.20517883,-0.20477521,3.6585093,5.6430817,-1.6278789,-2.3776412,2.656126,-4.764867,-0.29494166
21.986929,81.383286,28.134188,6.3125887,-0.46126282,1.4831799,0.2621149,-0.81831795,0.7106684,0.012282715,0.501045,0.63668513,0.64523494,-0.5530901,1.5725076,-0.90666616,-1.8702267,-0.9421761,2.116533,1.292189,-1.012384,1.6397005,-0.965032,-1.8719413,-0.9829775,2.0613523,1.2341048,-0.9612235,-1.4588928,1.2786361,-0.0412594,0.9213644,0.8564483,0.6340728,-0.41555926,2.3609066,-0.6022377,0.79116964,-3.3661685,0.29410353,3.6139777,0.4023037,-0.54213715,0.7748457,0.701494,0.09328821,0.10219764,0.6991131,-1.2491201,-0.31546074,1.0086257,1.0,0.0,0.0,0.0,0.0,0.0,0.0,-3.0109067,0.2022377,-0.24116963,2.0514727,3.4232855,2.967547,-3.5497189,3.0930758,-3.9200902,-0.28435588
18.332388,77.514786,26.54331,7.662993,-0.21567595,1.4779308,0.2640129,-0.8134291,0.721789,0.02671548,0.4963392,0.6382767,0.65615076,-0.5479297,1.5583576,-0.8928531,-1.8692697,-0.9333436,2.12518,1.2997198,-1.0160165,1.6252009,-0.9520935,-1.8720424,-0.97397006,2.0701108,1.240214,-0.9653615,-1.4475317,1.2986323,0.002087342,0.893043,0.88207775,0.60320693,-0.41430208,2.3272705,-0.5993004,0.8265459,-3.362803,0.2938095,3.5121787,0.38988876,-0.5449028,0.78502727,0.71101433,0.08460878,0.09999826,0.6908693,-1.2407373,-0.24729623,1.0199984,1.0,0.0,0.0,0.0,0.0,0.0,0.0,-2.9772706,0.19930038,-0.27654588,0.9492159,1.9146204,4.821787,-3.0700684,2.5060058,-3.1149268,-0.21143556
15.799728,72.39614,24.08962,7.57704,-0.17231452,1.2966868,0.25630057,-0.81379664,0.7312713,0.024588604,0.4653557,0.6485636,0.6530976,-0.54124105,1.5438212,-0.87896633,-1.8695836,-0.9274345,2.134967,1.3055238,-1.0194856,1.6107432,-0.93901765,-1.8717563,-0.9653126,2.0790906,1.2460581,-0.96948135,-1.4456172,1.3104409,0.039073672,0.8558377,0.9034806,0.5781348,-0.41226313,2.2936668,-0.59636307,0.8609049,-3.3594408,0.29351574,3.4104815,0.37755585,-0.54701996,0.7952486,0.72011936,0.07590557,0.09778483,0.6827184,-1.2324451,-0.18524113,1.0212641,1.0,0.0,0.0,0.0,0.0,0.0,0.0,-2.943667,0.19636306,-0.31090486,0.010752678,1.1130095,4.1502075,-3.9585829,2.1041274,-2.4996877,-0.109398365
15.165101,68.302574,22.105415,6.8408594,-0.24711543,1.0866839,0.24931082,-0.81146175,0.7378175,0.026573842,0.43419498,0.65410894,0.65861,-0.53835833,1.529597,-0.8652359,-1.8690989,-0.9218931,2.1445014,1.3119191,-1.0233172,1.5962816,-0.9258541,-1.8711936,-0.95709574,2.0882497,1.2516924,-0.9735793,-1.447058,1.3181996,0.06343303,0.80944777,0.919782,0.5586848,-0.409929,2.2600975,-0.59342957,0.89424765,-3.356082,0.29322228,3.3088858,0.36532593,-0.54854965,0.80541563,0.7288186,0.06723179,0.09559864,0.67465854,-1.2205154,-0.12678827,1.0131298,1.0,0.0,0.0,0.0,0.0,0.0,0.0,-2.9100976,0.19342956,-0.34424764,-0.31893253,0.7249832,2.8493657,-4.882872,1.620686,-1.8923998,-0.06135702
16.12385,66.97701,21.269278,5.897817,-0.41094065,0.93733764,0.25370958,-0.8106245,0.7493747,0.03254924,0.3967615,0.6546958,0.6624219,-0.5353566,1.5152192,-0.8509166,-1.8679388,-0.9174196,2.1537192,1.3179346,-1.027115,1.5817972,-0.9125942,-1.8704612,-0.94942725,2.0975232,1.2571646,-0.97765243,-1.4494404,1.3284948,0.07775542,0.75187445,0.93026483,0.5437189,-0.4074424,2.2265625,-0.5904999,0.9265752,-3.3527265,0.2929291,3.2073917,0.35325432,-0.54948425,0.81546295,0.7371132,0.0586262,0.09351442,0.66669494,-1.202811,-0.06766046,0.9996679,1.0,0.0,0.0,0.0,0.0,0.0,0.0,-2.8765626,0.19049987,-0.37657517,-0.4127264,0.9905815,1.8237875,-6.005168,1.0531664,-1.4051318,-0.03232956
18.40266,63.903248,20.073875,3.9200878,-0.6070277,0.6960934,0.29755667,-0.8068091,0.7497464,0.035132103,0.3469855,0.6631192,0.6685832,-0.5295318,1.5011163,-0.83761954,-1.866948,-0.9147287,2.163835,1.3240229,-1.0306056,1.567309,-0.89925134,-1.8696487,-0.942453,2.106892,1.2625166,-0.9816989,-1.4492478,1.3361406,0.08369275,0.6785098,0.9392885,0.5329099,-0.40457898,2.19306,-0.5875702,0.9578886,-3.3493743,0.29263625,3.1059992,0.34142113,-0.5498314,0.8253112,0.744979,0.050146233,0.09157943,0.65886635,-1.1761819,-0.009055672,0.97746557,1.0,0.0,0.0,0.0,0.0,0.0,0.0,-2.84306,0.18757018,-0.4078886,-0.14953613,0.74460506,0.95321536,-7.5947404,0.9262562,-0.92936754,0.018882751
20.66893,59.73642,18.419312,1.20577,-0.8621797,0.3850455,0.35988533,-0.81092155,0.7515728,0.02746189,0.27012908,0.67026025,0.6668901,-0.52168244,1.4862169,-0.82409406,-1.8669025,-0.91544014,2.1739182,1.3292056,-1.0338671,1.5528094,-0.88584745,-1.868859,-0.93642867,2.1163526,1.2677809,-0.9857129,-1.4508017,1.3417832,0.078564875,0.5761469,0.9481474,0.5249714,-0.4011126,2.1595917,-0.58464813,0.98818886,-3.3460257,0.29234368,3.004708,0.32992744,-0.54959106,0.834846,0.7523754,0.041896313,0.089851536,0.6512316,-1.1385304,0.048224926,0.942768,1.0,0.0,0.0,0.0,0.0,0.0,0.0,-2.8095918,0.18464813,-0.43818885,-0.32203197,0.56700706,-0.18648207,-10.5103855,0.92784166,-0.56580305,0.09970665
26.953651,62.311783,20.00035,-1.7743683,-1.2144251,0.308475,0.5085601,-0.8069404,0.76289517,0.069733866,0.18144126,0.6723429,0.65853035,-0.5172645,1.4721153,-0.8095579,-1.8618857,-0.91828454,2.1835868,1.3336339,-1.0374393,1.5383135,-0.8723558,-1.8679416,-0.93166125,2.1258855,1.2729746,-0.9896916,-1.4497347,1.3517449,0.09709181,0.4427146,0.9552613,0.51852274,-0.3976012,2.1261559,-0.5817261,1.0174769,-3.3426805,0.2920514,2.9035182,0.3189125,-0.54870605,0.8440305,0.7592076,0.033915255,0.08835019,0.64393157,-1.0872395,0.11523291,0.9074634,1.0,0.0,0.0,0.0,0.0,0.0,0.0,-2.776156,0.18172607,-0.4674769,-0.06005764,1.013732,2.1825895,-13.611669,0.7623315,-0.35328865,0.10678172
38.248886,62.67598,21.239426,-8.915057,-1.9497695,0.0062229335,0.7880011,-0.8003497,0.76971036,0.10969523,0.016370725,0.6772183,0.65647846,-0.51668984,1.4582785,-0.79538476,-1.8569721,-0.93002415,2.1936073,1.3386225,-1.0413606,1.5238634,-0.8587469,-1.8666484,-0.92875254,2.135487,1.2781187,-0.9936379,-1.4440428,1.3641424,0.14119838,0.23939526,0.961957,0.51460004,-0.39437842,2.0927544,-0.57880783,1.0457538,-3.3393385,0.2917594,2.8024297,0.30861092,-0.5470238,0.8527687,0.7652854,0.026301607,0.087104216,0.6372279,-1.0080755,0.1967897,0.8596052,1.0,0.0,0.0,0.0,0.0,0.0,0.0,-2.7427545,0.17880782,-0.49575382,0.41275024,1.2886763,4.720804,-20.59725,0.7398963,0.048685074,0.095289946
40.598778,58.97213,20.071646,-11.6097145,-2.1515079,-0.30306116,0.8848533,-0.80736864,0.7693867,0.1264264,-0.1049425,0.6849901,0.6487561,-0.4972587,1.4431266,-0.7818082,-1.8540058,-0.9392468,2.2039862,1.3429943,-1.0433638,1.5094382,-0.84503686,-1.8648727,-0.9281136,2.145165,1.2832285,-0.9975394,-1.4425133,1.3735604,0.19034395,0.0045764237,0.97015154,0.51158136,-0.38926575,2.0593872,-0.5758934,1.0730207,-3.336,0.2914677,2.7014422,0.2991829,-0.5445633,0.86095184,0.77051854,0.019173542,0.08613343,0.63128,-0.91747797,0.27438888,0.8011602,1.0,0.0,0.0,0.0,0.0,0.0,0.0,-2.7093873,0.1758934,-0.5230207,0.032019615,1.0201693,5.1304636,-23.715282,0.93182325,0.20661354,0.3382504
35.515438,58.717197,19.626638,-7.3648653,-1.7094667,-0.2680513,0.7579647,-0.8035317,0.7719803,0.15341854,-0.13692425,0.6812447,0.65134794,-0.47395295,1.429085,-0.76783884,-1.8495308,-0.941806,2.2132895,1.3483633,-1.0449347,1.4950358,-0.8312496,-1.8625858,-0.9294821,2.154904,1.2883135,-1.0013732,-1.4397464,1.3806648,0.24190712,-0.18467435,0.975624,0.5089713,-0.3819419,2.0260525,-0.572979,1.0992783,-3.3326647,0.2911763,2.6005554,0.29056358,-0.5413933,0.86863166,0.77499807,0.012483985,0.08539396,0.626043,-0.8382956,0.3392666,0.75307024,1.0,0.0,0.0,0.0,0.0,0.0,0.0,-2.6760526,0.17297897,-0.5492783,0.19953251,0.8060694,5.2423744,-19.109348,0.7297039,0.19133091,0.6039083
29.838284,57.835854,18.993753,-3.1790066,-1.2343172,-0.20727208,0.63774264,-0.8077015,0.7715764,0.18962304,-0.20106643,0.69108725,0.65413153,-0.46964714,1.4142656,-0.754092,-1.8436235,-0.9495888,2.2240126,1.3537266,-1.0483379,1.4806372,-0.8174194,-1.8597438,-0.9324471,2.1647115,1.2933756,-1.0051345,-1.4402226,1.3840996,0.29828864,-0.33427802,0.98341715,0.50658363,-0.3745984,1.9927502,-0.5700722,1.1245279,-3.3293328,0.29088518,2.4997697,0.28263855,-0.5376625,0.8759002,0.778851,0.0061406856,0.084804125,0.62141913,-0.77262086,0.3924108,0.71395534,1.0,0.0,0.0,0.0,0.0,0.0,0.0,-2.6427503,0.17007217,-0.5745279,-0.10201931,0.4512787,5.6326447,-15.116013,1.0139704,0.15856028,0.6370008
27.86077,58.564194,19.250996,-1.0125036,-1.0440075,-0.1671674,0.5845284,-0.8051468,0.77610546,0.23076299,-0.27727437,0.6869293,0.6526015,-0.4576395,1.4001225,-0.73980886,-1.8366675,-0.9601745,2.2334044,1.3586358,-1.0508984,1.4662405,-0.80355394,-1.8562839,-0.9367367,2.1745725,1.2984148,-1.0088214,-1.4397048,1.3877958,0.3617393,-0.46100628,0.9883237,0.5042284,-0.36684853,1.9594822,-0.5671654,1.1487705,-3.3260043,0.29059437,2.3990846,0.27531624,-0.53341675,0.88283134,0.7821544,6.949183e-05,0.08431869,0.61735314,-0.7122533,0.44178492,0.68172556,1.0,0.0,0.0,0.0,0.0,0.0,0.0,-2.6094823,0.16716537,-0.59877044,0.016975403,0.49088,6.2647047,-12.80489,0.7742286,0.14457703,0.70087314
30.079597,58.46964,19.685017,-2.0406113,-1.158535,-0.2589004,0.64227045,-0.7985348,0.77625954,0.28110817,-0.37597582,0.6848042,0.648545,-0.4400958,1.386387,-0.725928,-1.828173,-0.9743343,2.243053,1.3632693,-1.0528309,1.4518801,-0.7896608,-1.852103,-0.9423357,2.1844678,1.3034312,-1.0124243,-1.4348797,1.390237,0.43652418,-0.5932563,0.99084413,0.5020979,-0.3581771,1.9262466,-0.5642586,1.1720068,-3.322679,0.29030383,2.2985003,0.26864433,-0.52866364,0.88943666,0.78489584,-0.0057427464,0.08392155,0.6138915,-0.6462174,0.49240166,0.6486669,1.0,0.0,0.0,0.0,0.0,0.0,0.0,-2.5762467,0.16425857,-0.62200683,0.4783392,0.38046837,7.328123,-13.3285885,0.574553,0.19718409,0.81835985
30.573845,58.02165,19.846762,-2.1678076,-1.1642052,-0.31567508,0.6696267,-0.79726297,0.775628,0.33239722,-0.45087606,0.6880698,0.649291,-0.42701605,1.3721538,-0.712098,-1.8188633,-0.9874233,2.2532747,1.3683603,-1.055126,1.437575,-0.7757553,-1.8470981,-0.94926035,2.194386,1.3084303,-1.0159377,-1.4290621,1.3911743,0.52106404,-0.725681,0.99353266,0.5005046,-0.34905216,1.8930454,-0.5613594,1.1942382,-3.3193572,0.29001358,2.1980166,0.26263618,-0.52339935,0.89571434,0.78706056,-0.011298521,0.08359602,0.61108077,-0.5785673,0.5420568,0.61575055,1.0,0.0,0.0,0.0,0.0,0.0,0.0,-2.5430455,0.1613594,-0.6442382,0.60374737,0.2425909,8.237177,-13.31923,0.6275296,0.26423335,0.8902371
30.072292,59.743958,20.74215,-0.44531488,-1.0335002,-0.25028765,0.6490508,-0.7849727,0.7790312,0.38580728,-0.48633438,0.6906836,0.6538885,-0.39287612,1.3590777,-0.69785213,-1.8085173,-0.9978938,2.2634544,1.3738191,-1.0552253,1.4233786,-0.7618307,-1.841191,-0.95733035,2.2043386,1.313418,-1.0193423,-1.4165688,1.3934374,0.61290514,-0.83420503,0.9968663,0.49967182,-0.33757526,1.8598766,-0.55846024,1.2154654,-3.3160384,0.28972363,2.0976334,0.25728035,-0.5176468,0.90172327,0.7886637,-0.016662333,0.083302364,0.60892737,-0.51452065,0.59125274,0.590546,1.0,0.0,0.0,0.0,0.0,0.0,0.0,-2.5098767,0.15846023,-0.6654654,1.2973309,0.39172173,8.883465,-10.906482,0.74858665,0.33745766,1.1448205
24.18909,59.53105,20.267736,4.1758785,-0.61271226,-0.11831647,0.49879384,-0.78515434,0.7804796,0.42142498,-0.48756185,0.68431765,0.65319943,-0.35812467,1.3448632,-0.6837827,-1.7990485,-1.0060866,2.2727704,1.3787379,-1.0551548,1.4092909,-0.74788034,-1.834418,-0.96614325,2.2142987,1.3183962,-1.0226153,-1.4062191,1.3962706,0.6978029,-0.8971892,0.99731857,0.49851075,-0.3239127,1.8267422,-0.5555649,1.2356896,-3.312723,0.28943396,1.9973503,0.25245094,-0.5114517,0.90755856,0.78980535,-0.021938883,0.08301932,0.607317,-0.46560416,0.6329634,0.57558143,1.0,0.0,0.0,0.0,0.0,0.0,0.0,-2.4767423,0.15556487,-0.6856896,1.0732889,0.45850277,8.153486,-6.3619614,0.49159527,0.25407672,1.3677418
19.759403,58.72303,19.639462,7.5049686,-0.3131137,-0.055545747,0.373962,-0.7810939,0.78400177,0.453346,-0.49911317,0.6885612,0.65248376,-0.34515995,1.3311815,-0.66948014,-1.7890835,-1.0160545,2.283155,1.3836446,-1.0571313,1.3952948,-0.733889,-1.8268821,-0.97533953,2.2242703,1.323363,-1.0257548,-1.3972685,1.4007024,0.7709923,-0.92742556,0.99857897,0.49706268,-0.31051788,1.7936401,-0.55267334,1.2549117,-3.3094108,0.28914458,1.8971673,0.2480259,-0.504879,0.9132954,0.79059136,-0.027205782,0.08273564,0.6061186,-0.42751005,0.66855663,0.56702304,1.0,0.0,0.0,0.0,0.0,0.0,0.0,-2.4436402,0.15267333,-0.70491165,0.9200573,0.62470436,6.975198,-3.0996323,0.5799532,0.18755794,1.3427377
14.974493,55.575294,18.014372,10.119057,-0.04990214,-0.07987869,0.25166926,-0.78206754,0.7844153,0.47101012,-0.5026135,0.6868033,0.65135634,-0.31497565,1.317088,-0.6554475,-1.7797811,-1.0256009,2.2929506,1.3884985,-1.0572524,1.381354,-0.7198576,-1.8187587,-0.98466074,2.2342458,1.3283125,-1.0287513,-1.3929719,1.4044809,0.82520264,-0.9340832,0.99868697,0.4952125,-0.29603383,1.7605705,-0.5497818,1.2731327,-3.306102,0.2888555,1.7970845,0.24390411,-0.49801254,0.91895884,0.7911206,-0.032485053,0.08246945,0.60520387,-0.39881912,0.695552,0.5597962,1.0,0.0,0.0,0.0,0.0,0.0,0.0,-2.4105706,0.1497818,-0.72313267,0.43053627,0.55823326,5.106771,-0.7654667,0.44144392,0.105041265,1.4475286
12.899527,53.252552,16.955364,11.073144,0.025856078,-0.14841038,0.18540907,-0.77879846,0.7879081,0.48946777,-0.5091789,0.6842143,0.65279305,-0.3017818,1.3034742,-0.6410668,-1.769812,-1.0355786,2.3026671,1.3935919,-1.0589294,1.3674475,-0.70578325,-1.8102043,-0.99398005,2.2442098,1.3332449,-1.0316085,-1.3899544,1.4089952,0.86448795,-0.93153346,0.9972071,0.4934577,-0.28213596,1.7275352,-0.5468979,1.2903537,-3.3027966,0.2885667,1.6971017,0.24005318,-0.4909134,0.924543,0.7914587,-0.037768982,0.08225441,0.60448396,-0.37295192,0.7179863,0.551544,1.0,0.0,0.0,0.0,0.0,0.0,0.0,-2.3775353,0.14689788,-0.74035364,0.29070377,0.6305456,3.638792,0.14445782,0.2595067,0.09378791,1.3884544
9.81167,47.46941,14.59965,11.54018,0.17317754,-0.30052215,0.1326865,-0.7844179,0.7785469,0.49916354,-0.5122488,0.68241686,0.65239894,-0.2689938,1.2890058,-0.62792856,-1.7602879,-1.0452049,2.3124514,1.3984848,-1.0585078,1.3535277,-0.6917194,-1.8013637,-1.0032572,2.2541509,1.3381602,-1.0343169,-1.392577,1.4061497,0.8897812,-0.926785,0.99443686,0.49162465,-0.2670803,1.6945324,-0.544014,1.3065754,-3.2994945,0.2882782,1.597219,0.23642921,-0.48366165,0.93,0.79165554,-0.043008316,0.08210856,0.60389555,-0.35081407,0.7307695,0.5372161,1.0,0.0,0.0,0.0,0.0,0.0,0.0,-2.3445325,0.14401397,-0.7565754,-0.2924919,-0.11618137,2.290678,0.33876896,0.08380413,0.058054924,1.4948547
6.3162136,43.23191,12.592776,12.75622,0.33873928,-0.3957169,0.03962664,-0.79234767,0.7787101,0.4921951,-0.5007159,0.68209684,0.6540753,-0.26467416,1.274293,-0.6138484,-1.7521442,-1.0533288,2.3223605,1.4035677,-1.0607843,1.3395354,-0.6776937,-1.7924144,-1.0124334,2.2640653,1.3430582,-1.0368861,-1.4016451,1.4018304,0.89615375,-0.9151513,0.99145734,0.48985595,-0.25361297,1.661562,-0.5411339,1.3217992,-3.2961957,0.28798997,1.4974362,0.23298264,-0.47634506,0.93529403,0.7917828,-0.04815915,0.08205768,0.6033467,-0.3340184,0.7351506,0.52009743,1.0,0.0,0.0,0.0,0.0,0.0,0.0,-2.311562,0.14113387,-0.77179915,-0.96583366,-0.27093887,0.4508376,1.0017157,0.022411346,0.029945374,1.3308167
6.1924057,41.600296,12.038456,12.533503,0.31967223,-0.4814744,0.040902693,-0.7937573,0.77890813,0.49858272,-0.50380707,0.6803111,0.64955693,-0.22430405,1.2601596,-0.5998029,-1.7425561,-1.0628141,2.3320963,1.4080139,-1.0593165,1.3254496,-0.66370904,-1.7834442,-1.0215181,2.2739453,1.3479372,-1.0393046,-1.4111665,1.3979663,0.89670724,-0.9069363,0.988228,0.48780453,-0.23819354,1.6286259,-0.5382576,1.3360258,-3.2929003,0.28770205,1.397753,0.22971535,-0.46899033,0.94040185,0.79186165,-0.053190313,0.08212517,0.6028112,-0.31587815,0.73770696,0.50097376,1.0,0.0,0.0,0.0,0.0,0.0,0.0,-2.278626,0.1382576,-0.7860258,-1.0151386,-0.22890568,-0.11111498,0.65892935,-0.020647049,-0.0057399273,1.5266776
4.8516755,38.977646,11.026262,13.061793,0.40089166,-0.5468209,0.0068869963,-0.7995446,0.77303416,0.49336317,-0.4909925,0.673555,0.6519487,-0.2014938,1.2454951,-0.58640563,-1.7341079,-1.0706173,2.3413007,1.4131321,-1.059454,1.3112608,-0.6497797,-1.7745216,-1.0304903,2.2837796,1.3527972,-1.0415686,-1.4218776,1.3917209,0.8904374,-0.8943672,0.9828621,0.48605594,-0.22250873,1.5957203,-0.5353813,1.3492564,-3.289608,0.2874144,1.2981695,0.22661781,-0.46164322,0.9453095,0.7919156,-0.05808382,0.082321435,0.6022616,-0.29972106,0.73600835,0.4807853,1.0,0.0,0.0,0.0,0.0,0.0,0.0,-2.2457204,0.13538131,-0.7992564,-1.1450768,-0.47142506,-0.7692218,1.0818124,-0.25298595,0.0064611435,1.5474617
3.2894034,38.64466,10.915658,14.699446,0.5343709,-0.4921267,-0.035674777,-0.8079195,0.77355886,0.49225032,-0.46451595,0.6685719,0.65799,-0.16309491,1.2304689,-0.5724238,-1.7252965,-1.0769418,2.3506367,1.4185961,-1.0578781,1.2969481,-0.6358999,-1.7656715,-1.0392355,2.2935529,1.3576456,-1.0436629,-1.4347463,1.3872496,0.8828813,-0.8685496,0.97650874,0.4849659,-0.20513058,1.562849,-0.53250885,1.3614919,-3.286319,0.28712705,1.1986856,0.22363853,-0.45431137,0.9500499,0.7919769,-0.06287752,0.08264407,0.6016551,-0.288512,0.73327655,0.46506566,1.0,0.0,0.0,0.0,0.0,0.0,0.0,-2.2128491,0.13250884,-0.8114919,-1.3803005,-0.29280186,-0.88386536,2.3972273,-0.34788847,0.050622225,1.7136246
2.939917,36.877396,10.243582,14.819512,0.56702083,-0.5720234,-0.05166209,-0.81023896,0.771389,0.47325826,-0.45489055,0.6717183,0.65677506,-0.12902085,1.2159241,-0.558761,-1.7183456,-1.0847245,2.3607247,1.4233232,-1.056565,1.2825228,-0.6220602,-1.7569721,-1.0477079,2.3032842,1.3624846,-1.0455741,-1.4454962,1.3833177,0.8653156,-0.8407058,0.9725337,0.4839151,-0.18653959,1.5300102,-0.5296402,1.3727334,-3.2830334,0.28684,1.0993012,0.22077751,-0.44704437,0.9546261,0.7920645,-0.06756867,0.08309456,0.60096896,-0.27714747,0.72767574,0.4484484,1.0,0.0,0.0,0.0,0.0,0.0,0.0,-2.1800103,0.12964019,-0.82273334,-1.1720896,-0.24278164,-1.8659711,2.5948763,-0.12692213,0.0436306,1.8317491
4.9609513,34.809284,9.663244,12.502638,0.37471002,-0.7705045,-0.0019385107,-0.81280553,0.76687425,0.4623305,-0.47863686,0.67048985,0.6520064,-0.13825469,1.2012422,-0.5453727,-1.710739,-1.0955716,2.3703332,1.4276853,-1.0593995,1.2680098,-0.6082691,-1.7484806,-1.0560716,2.3129811,1.3673102,-1.047325,-1.4533069,1.3782113,0.84360987,-0.83549947,0.96945727,0.48266727,-0.17121269,1.4972038,-0.52677155,1.3829817,-3.279751,0.2865532,1.0000161,0.21808815,-0.43982697,0.9589782,0.7921621,-0.07208173,0.08369523,0.60023195,-0.25725728,0.72102946,0.4242532,1.0,0.0,0.0,0.0,0.0,0.0,0.0,-2.147204,0.12677154,-0.83298165,-0.8577585,-0.3689289,-2.2651434,0.3460765,-0.069630146,0.035601854,1.5087873
7.5145826,35.794273,10.485029,10.983351,0.19756168,-0.8433391,0.08490801,-0.8139089,0.7689849,0.46676812,-0.48893908,0.67391396,0.6480403,-0.08169236,1.1866189,-0.5313706,-1.7018038,-1.1049656,2.3803725,1.4321142,-1.0554943,1.2534453,-0.5945085,-1.7401454,-1.0645021,2.3226666,1.3721224,-1.0488967,-1.4576726,1.3758265,0.82987434,-0.8460431,0.9689304,0.48129413,-0.15272342,1.4644318,-0.5239105,1.3922379,-3.276472,0.2862667,0.90083027,0.21565247,-0.4326477,0.9630745,0.79221135,-0.07637213,0.084453054,0.59952986,-0.23034528,0.71821505,0.39821374,1.0,0.0,0.0,0.0,0.0,0.0,0.0,-2.1144319,0.12391052,-0.8422379,-0.49378872,-0.09651184,-1.4762044,-1.2053967,0.18521547,0.03620386,1.8324465
7.838012,33.03543,9.505818,9.856009,0.15623266,-0.9907065,0.106817745,-0.81620175,0.7615436,0.44673145,-0.5010883,0.67342913,0.65276027,-0.055788513,1.171825,-0.5183542,-1.6954722,-1.1146109,2.3900096,1.4373984,-1.0544755,1.2388502,-0.58079374,-1.7319858,-1.0731233,2.3323522,1.3769251,-1.0502814,-1.4602739,1.3704354,0.8110034,-0.86795694,0.96892667,0.4805699,-0.13390581,1.4316921,-0.5210495,1.400503,-3.2731962,0.2859805,0.8017436,0.21351242,-0.42552567,0.9668706,0.79219145,-0.08038447,0.085372955,0.598901,-0.19999954,0.7116325,0.36687672,1.0,0.0,0.0,0.0,0.0,0.0,0.0,-2.0816922,0.12104949,-0.850503,-0.30474663,-0.4027605,-1.9790053,-2.339685,0.21255016,0.0993669,1.8648595
9.672043,35.17727,10.949283,9.6605625,0.06835109,-0.9439903,0.19585216,-0.8142146,0.762432,0.4671013,-0.50909305,0.6662622,0.65237635,0.04961777,1.1574287,-0.5045505,-1.6852757,-1.1240326,2.3989785,1.4421628,-1.0453197,1.2242514,-0.56711996,-1.7238796,-1.081983,2.3420186,1.3817221,-1.0514201,-1.4596962,1.3667289,0.8100934,-0.8923409,0.96663445,0.48007745,-0.107025415,1.3989849,-0.5181923,1.407778,-3.2699237,0.28569457,0.70275605,0.21169853,-0.41841125,0.9703773,0.7920468,-0.08413318,0.08644618,0.59842336,-0.16675372,0.71089864,0.33874807,1.0,0.0,0.0,0.0,0.0,0.0,0.0,-2.048985,0.118192285,-0.857778,0.026464462,-0.22799969,-0.20760298,-2.5671601,0.009059906,0.12993813,2.67611
9.200167,33.79009,10.562698,9.941903,0.12351692,-0.9737972,0.2015476,-0.81535864,0.75741714,0.45900047,-0.51752394,0.6660966,0.6513831,0.09924871,1.1427156,-0.49137825,-1.6779795,-1.1337354,2.4086282,1.4468604,-1.0414952,1.2096621,-0.55349576,-1.7157753,-1.0910753,2.3516622,1.3865153,-1.0522708,-1.4587648,1.3614879,0.8102905,-0.91533107,0.9642592,0.47952554,-0.07783563,1.3663101,-0.5153389,1.4140638,-3.2666545,0.28540894,0.6038675,0.21020699,-0.41132736,0.97360283,0.7917557,-0.08762612,0.0876596,0.5981307,-0.13440065,0.7083627,0.31065622,1.0,0.0,0.0,0.0,0.0,0.0,0.0,-2.0163102,0.11533889,-0.8640638,0.061678886,-0.38158894,-0.09416342,-2.4291396,-0.0012397766,0.11380911,2.9061408
7.9313087,31.670126,9.697926,10.585804,0.19922465,-1.0041256,0.17491722,-0.81665903,0.75291187,0.44781524,-0.52308047,0.6513496,0.65601695,0.15799978,1.1279962,-0.47820458,-1.6709937,-1.1433834,2.4167972,1.452117,-1.0364708,1.1950766,-0.5399345,-1.7077053,-1.1003622,2.3612409,1.3913065,-1.0528105,-1.4585896,1.3548472,0.80549115,-0.9335324,0.9564248,0.47935948,-0.046278164,1.3336678,-0.5124855,1.4193615,-3.2633884,0.2851236,0.5050777,0.20902824,-0.40428162,0.97654724,0.79133487,-0.09086485,0.08902598,0.5980026,-0.10427616,0.7026989,0.28253102,1.0,0.0,0.0,0.0,0.0,0.0,0.0,-1.9836677,0.1124855,-0.86936146,-0.021767616,-0.52337646,-0.581336,-1.9586921,-0.5569577,0.1357913,3.139463
7.075545,30.356688,9.257775,11.088642,0.26781595,-1.0092088,0.15573849,-0.82141984,0.7493792,0.4509864,-0.5359325,0.65079767,0.65677345,0.17353638,1.1129346,-0.46499658,-1.6626066,-1.1539555,2.4263206,1.4569838,-1.0354569,1.1804682,-0.5264429,-1.6996677,-1.1098303,2.3707433,1.3960959,-1.0530547,-1.4618378,1.3477187,0.8028905,-0.95164734,0.94896084,0.47918496,-0.017219767,1.3010597,-0.5096359,1.423672,-3.2601256,0.28483853,0.4063868,0.20813179,-0.39730453,0.9792135,0.7908051,-0.09384868,0.09054356,0.59801465,-0.07611,0.69549316,0.25478563,1.0,0.0,0.0,0.0,0.0,0.0,0.0,-1.9510597,0.10963592,-0.87367195,-0.37567616,-0.57361126,-0.34655333,-1.9526839,-0.52524805,0.12037158,2.8900423
7.265351,29.07008,8.795287,10.54191,0.23438048,-1.0934968,0.15179105,-0.8186538,0.746782,0.44275245,-0.55799943,0.6489784,0.65506566,0.1770574,1.0986028,-0.45176467,-1.6553924,-1.1656302,2.435641,1.4616024,-1.0353489,1.1658388,-0.51301897,-1.6916854,-1.119531,2.380177,1.4008814,-1.0530375,-1.4633876,1.341145,0.7963861,-0.9766711,0.94243354,0.4788165,0.007842947,1.2684822,-0.50679016,1.4269964,-3.2568662,0.28455374,0.30779454,0.2075367,-0.39040756,0.9815831,0.79017735,-0.09654977,0.0922142,0.5981592,-0.045683827,0.6865778,0.22453271,1.0,0.0,0.0,0.0,0.0,0.0,0.0,-1.9184822,0.106790155,-0.87699634,-0.19567013,-0.5204916,-0.7329345,-2.6363134,-0.44716597,0.095164776,2.493248
6.43288,26.638681,7.6314316,10.244104,0.2695161,-1.1951103,0.12229933,-0.8223864,0.7442523,0.42422995,-0.57897145,0.6521032,0.65264237,0.18751702,1.0836002,-0.43859375,-1.6492624,-1.1774281,2.4453874,1.4661456,-1.0342858,1.1511828,-0.49965417,-1.6838443,-1.1295332,2.3895726,1.4056612,-1.0527953,-1.466475,1.3353729,0.7796539,-1.0084654,0.93903965,0.4780864,0.029801479,1.235939,-0.5039444,1.4293356,-3.2536101,0.28426924,0.20930086,0.2072525,-0.3836403,0.98362476,0.78947884,-0.09891728,0.09404491,0.59840953,-0.015041452,0.6730328,0.19088657,1.0,0.0,0.0,0.0,0.0,0.0,0.0,-1.885939,0.10394439,-0.8793356,-0.35021305,-0.44560432,-1.734376,-3.3140302,-0.15954971,0.043410063,2.1839406
6.6783767,26.21385,7.868106,10.578823,0.29971373,-1.1755716,0.15870057,-0.8171146,0.7358692,0.43465444,-0.58593005,0.6375482,0.65631205,0.27052936,1.0694714,-0.42606723,-1.6403788,-1.1881262,2.4533274,1.4712924,-1.0257424,1.1365267,-0.48636854,-1.6761081,-1.1398252,2.3989034,1.4104353,-1.0522975,-1.4654175,1.3267559,0.77119255,-1.0364257,0.93186486,0.4777465,0.056362826,1.2034264,-0.50110626,1.4306906,-3.2503572,0.28398505,0.110905655,0.20726967,-0.37697983,0.9853433,0.788694,-0.100957915,0.09602575,0.5987889,0.015194238,0.6603397,0.15903743,1.0,0.0,0.0,0.0,0.0,0.0,0.0,-1.8534263,0.101106256,-0.88069063,0.075531006,-0.7274866,-0.92550516,-2.9268503,-0.52622557,0.0782609,2.642128
5.2527494,24.90578,7.345202,11.968069,0.46900344,-1.1426127,0.11621825,-0.8199521,0.7338991,0.42156544,-0.5859704,0.64617515,0.647535,0.29485154,1.0545315,-0.41297862,-1.6339515,-1.1984223,2.463521,1.4751889,-1.0228124,1.1218725,-0.473163,-1.6684825,-1.1503175,2.408196,1.4151999,-1.0515403,-1.4654164,1.3189776,0.75967264,-1.0539839,0.9292169,0.4764007,0.08216361,1.170948,-0.49826813,1.4310625,-3.2471075,0.28370112,0.0126088215,0.20755577,-0.37047958,0.98676753,0.7878415,-0.10269713,0.09812717,0.5992746,0.040493194,0.64527196,0.13049614,1.0,0.0,0.0,0.0,0.0,0.0,0.0,-1.820948,0.09826812,-0.88106245,-0.052046776,-0.64344406,-1.2131453,-1.8988132,-0.07318258,-0.044232607,2.564177
3.2974067,21.89027,5.8425703,12.939611,0.63247097,-1.1801617,0.044605967,-0.81978256,0.7291537,0.3915029,-0.5900238,0.643292,0.6483146,0.30986246,1.0398943,-0.40024763,-1.6293323,-1.20932,2.4725251,1.4800314,-1.0205541,1.1072184,-0.46003664,-1.6610839,-1.1609281,2.4174657,1.4199511,-1.0505408,-1.4654609,1.3109492,0.7333091,-1.0640872,0.9270363,0.47496897,0.10580216,1.1385002,-0.4954338,1.430452,-3.243861,0.28341746,-0.08558973,0.20806122,-0.36416245,0.9879088,0.78697294,-0.10413553,0.10034066,0.5998009,0.061436825,0.6243847,0.10223469,1.0,0.0,0.0,0.0,0.0,0.0,0.0,-1.7885002,0.0954338,-0.880452,-0.07202625,-0.6737709,-2.6701212,-1.1693001,-0.0461936,-0.078213215,2.3411899
1.9743149,18.011229,4.0900135,12.648527,0.7163571,-1.2824986,0.017153142,-0.81989425,0.7168795,0.3696027,-0.61030716,0.63173884,0.6477699,0.33237413,1.025229,-0.3883487,-1.6241237,-1.2219589,2.4806395,1.4847281,-1.0173033,1.0925642,-0.44702756,-1.654021,-1.1716837,2.4266858,1.424687,-1.0493163,-1.4655306,1.2979528,0.6972611,-1.0798963,0.9210053,0.47344488,0.12798159,1.1060867,-0.4926033,1.4288602,-3.2406178,0.2831341,-0.1836901,0.20877266,-0.35810852,0.9887363,0.7861268,-0.10522955,0.102672584,0.6003247,0.081271045,0.5968984,0.06991989,1.0,0.0,0.0,0.0,0.0,0.0,0.0,-1.7560867,0.092603296,-0.8788602,-0.06365776,-1.1804581,-3.6256075,-1.7438173,-0.4613161,-0.10559559,2.1882982
2.5184093,18.120163,4.431608,12.61628,0.68137616,-1.2731043,0.040435623,-0.8147455,0.71247846,0.36611304,-0.62097615,0.6208318,0.6489361,0.3598206,1.0110897,-0.37577972,-1.6174097,-1.2337813,2.488769,1.4895806,-1.0133343,1.0779349,-0.4341482,-1.6472766,-1.1826166,2.4358182,1.4294115,-1.0478743,-1.4622505,1.2849853,0.6668442,-1.0981303,0.9113144,0.47219166,0.14952232,1.0737038,-0.4897728,1.4262882,-3.237378,0.28285104,-0.2816924,0.2096901,-0.35230637,0.9892436,0.7852962,-0.10597504,0.10512523,0.60085595,0.102354705,0.5712946,0.03820898,1.0,0.0,0.0,0.0,0.0,0.0,0.0,-1.7237037,0.08977279,-0.87628824,0.28424263,-1.1764765,-3.0758977,-1.9759178,-0.82161427,-0.08298755,2.1258264
0.8413,14.832554,2.6840026,12.690143,0.7964846,-1.3544053,-0.015134603,-0.8183152,0.7059944,0.323003,-0.6362086,0.6233466,0.6472817,0.36115578,0.99610335,-0.36354876,-1.6149763,-1.2462374,2.498153,1.4941397,-1.0117588,1.0633208,-0.42139852,-1.640948,-1.1937631,2.4448705,1.4341227,-1.0462397,-1.4612235,1.271971,0.6215115,-1.120858,0.9036901,0.47073907,0.16799675,1.0413551,-0.4869461,1.422737,-3.234141,0.28256825,-0.37959668,0.21080971,-0.3468132,0.9894116,0.78451747,-0.106335774,0.10770092,0.6013531,0.120987415,0.5391032,0.0035347596,1.0,0.0,0.0,0.0,0.0,0.0,0.0,-1.6913551,0.0869461,-0.872737,0.056433678,-1.1909723,-4.5397162,-2.430129,-0.64822435,-0.12886524,1.8151551
0.15631032,13.5001955,2.3412175,13.577248,0.8825302,-1.308473,-0.025172517,-0.8120034,0.6932553,0.30885166,-0.63478017,0.59714895,0.6503061,0.39664632,0.9821204,-0.35207298,-1.6100628,-1.2572411,2.5045853,1.4991533,-1.0065751,1.0487391,-0.40880477,-1.6350563,-1.2050852,2.4537854,1.4388224,-1.0444163,-1.4571111,1.2555212,0.5784285,-1.1365297,0.8881072,0.46962273,0.1869033,1.009037,-0.48412323,1.4182074,-3.2309077,0.28228572,-0.4774031,0.21209145,-0.34164047,0.98924875,0.78380543,-0.10632544,0.11039955,0.60179377,0.13673756,0.5064899,-0.028794555,1.0,0.0,0.0,0.0,0.0,0.0,0.0,-1.659037,0.084123224,-0.8682074,0.36549568,-1.5356064,-4.320359,-1.7291546,-1.4380932,-0.10923743,1.8512875
-1.8609438,9.83718,0.2772504,13.756828,1.0353307,-1.3945013,-0.09537527,-0.8139135,0.686776,0.25368035,-0.652505,0.6009797,0.64544004,0.39187315,0.96734774,-0.34012717,-1.6096883,-1.2703357,2.5138834,1.5033664,-1.005229,1.0341879,-0.39637268,-1.6297424,-1.2165903,2.4625745,1.4435068,-1.0424289,-1.4547187,1.239441,0.5157006,-1.1558555,0.8759153,0.46791095,0.20257713,0.97675323,-0.48130035,1.4127005,-3.2276773,0.2820035,-0.5751118,0.21351051,-0.3368492,0.98874056,0.783211,-0.10590927,0.11321798,0.6021174,0.14899126,0.46603906,-0.063953124,1.0,0.0,0.0,0.0,0.0,0.0,0.0,-1.6267532,0.08130035,-0.8627005,0.19392967,-1.5105009,-6.256485,-2.0999193,-1.1380196,-0.19962192,1.5222281
-3.858869,6.657365,-1.3884785,14.556584,1.2045116,-1.4074361,-0.15875143,-0.8149604,0.6754955,0.21020974,-0.6579703,0.58412266,0.64296126,0.3999328,0.95269185,-0.32882312,-1.6087214,-1.2823873,2.5209868,1.507803,-1.0024356,1.0196463,-0.38411367,-1.6251438,-1.2282709,2.4712186,1.4481722,-1.0402983,-1.4541847,1.2216638,0.44133198,-1.1725413,0.8606077,0.46581802,0.21631834,0.94449997,-0.4784851,1.4062173,-3.2244503,0.28172156,-0.6727228,0.21501923,-0.33250427,0.9878778,0.7827915,-0.105062395,0.11616062,0.60225075,0.15618153,0.4200441,-0.09918919,1.0,0.0,0.0,0.0,0.0,0.0,0.0,-1.5945,0.0784851,-0.8562173,0.00081062317,-1.6903639,-7.396764,-1.8446207,-1.4720559,-0.2685666,1.318711
-8.822012,-2.4297485,-6.9151516,14.190531,1.5306901,-1.6742648,-0.33626246,-0.8164419,0.6635267,0.086182624,-0.6824412,0.5801041,0.63974625,0.37651002,0.9380021,-0.317761,-1.6165255,-1.296515,2.529229,1.5121468,-1.0026474,1.005097,-0.37204778,-1.6217163,-1.2401842,2.4797177,1.4528128,-1.0380667,-1.4552457,1.2017552,0.31002417,-1.1982229,0.8462115,0.46301433,0.22520694,0.91228104,-0.47566986,1.3987586,-3.2212267,0.2814399,-0.7702362,0.2165451,-0.3287735,0.9865899,0.78268814,-0.103660285,0.119257145,0.6020229,0.15583524,0.35263363,-0.1439364,1.0,0.0,0.0,0.0,0.0,0.0,0.0,-1.562281,0.075669855,-0.84875864,-0.11923313,-1.9340754,-13.055939,-2.7552843,-1.4821887,-0.40147305,0.81056654
-15.155492,-14.14354,-14.233933,13.272148,1.8715761,-2.0448272,-0.5573661,-0.8134083,0.6480565,-0.07983181,-0.7126362,0.5382293,0.6314172,0.37870955,0.9237562,-0.30724213,-1.6296995,-1.3114479,2.5335407,1.5159545,-1.0001957,0.9905535,-0.3602103,-1.6201942,-1.2524503,2.4879727,1.4574171,-1.0357608,-1.4536902,1.1778231,0.09995234,-1.2366345,0.817785,0.45886302,0.23194544,0.8800926,-0.4728546,1.3903255,-3.2180061,0.2811585,-0.8676521,0.21800995,-0.32592773,0.9847486,0.78310144,-0.101497576,0.12260382,0.601181,0.14691895,0.25772452,-0.20237592,1.0,0.0,0.0,0.0,0.0,0.0,0.0,-1.5300926,0.07285461,-0.84032553,0.2474308,-2.377224,-20.936962,-4.0282726,-3.020227,-0.6165385,0.5553305
-21.930351,-23.061895,-20.438751,14.704336,2.375815,-2.206705,-0.8398933,-0.8210909,0.6475645,-0.26186624,-0.718179,0.5338422,0.6330913,0.31714782,0.9084444,-0.29545385,-1.6463808,-1.3242682,2.541357,1.5207262,-1.004046,0.9759947,-0.34856546,-1.6213176,-1.2650656,2.495953,1.4619776,-1.0334452,-1.4560035,1.1599247,-0.18264185,-1.2704129,0.7905002,0.4541136,0.23074783,0.84793663,-0.470047,1.3809191,-3.2147887,0.2808774,-0.96497065,0.21927834,-0.32419205,0.9822888,0.7842632,-0.09843469,0.1262684,0.5994147,0.121913716,0.14059171,-0.26481313,1.0,0.0,0.0,0.0,0.0,0.0,0.0,-1.4979366,0.07004699,-0.8309191,-0.07352829,-1.8148899,-28.164505,-3.569746,-3.0240655,-0.79054236,-0.2805531
-21.323177,-22.325615,-19.269775,15.497203,2.35393,-1.9878713,-0.7603587,-0.8139494,0.6178799,-0.31788322,-0.73893774,0.44911253,0.63552195,0.3413554,0.8945998,-0.28677747,-1.653106,-1.3389593,2.5408642,1.5255297,-0.9993097,0.9614483,-0.33717954,-1.6250331,-1.2780222,2.5034566,1.4664942,-1.0311335,-1.4533345,1.1313877,-0.43438482,-1.304443,0.7364554,0.44993415,0.23079863,0.81581306,-0.46723938,1.3705401,-3.2115746,0.28059658,-1.0621917,0.22027779,-0.3235588,0.9792282,0.78616154,-0.09451153,0.13026173,0.5966988,0.09306208,0.03180597,-0.3234528,1.0,0.0,0.0,0.0,0.0,0.0,0.0,-1.465813,0.067239374,-0.82054013,0.49598217,-2.885747,-25.164104,-3.5576344,-5.6726933,-0.7549703,-0.17781556
-21.566505,-22.269678,-18.17659,17.596704,2.5777037,-1.6673098,-0.70185846,-0.81823057,0.58390903,-0.39826876,-0.7446824,0.4158763,0.62827146,0.29252073,0.87962526,-0.27878863,-1.66486,-1.3524904,2.5450442,1.5293213,-1.0018815,0.94691336,-0.32618797,-1.6309478,-1.2912534,2.510384,1.4709688,-1.0288581,-1.452837,1.0881956,-0.6439149,-1.3296212,0.67718524,0.44540584,0.22574326,0.78372,-0.46443558,1.3591897,-3.2083638,0.28031605,-1.1593158,0.22092438,-0.32396698,0.9756395,0.78870946,-0.089848526,0.1344778,0.5931107,0.053955443,-0.06948792,-0.37373987,1.0,0.0,0.0,0.0,0.0,0.0,0.0,-1.43372,0.06443557,-0.80918974,0.27530193,-4.366994,-20.95827,-2.6498556,-6.1597705,-0.8167803,-0.70552826
-22.64637,-24.879753,-18.618666,18.509518,2.778839,-1.4726509,-0.66117966,-0.8181839,0.53705513,-0.49701688,-0.764717,0.34720224,0.6165978,0.22287874,0.86509496,-0.27248245,-1.6806495,-1.3677251,2.5451043,1.5326287,-1.0065702,0.9323822,-0.31578147,-1.6387432,-1.3047384,2.5166135,1.4753939,-1.0266856,-1.4523293,1.0245476,-0.82486856,-1.3549663,0.6038885,0.44014356,0.21365078,0.7516613,-0.4616356,1.3468688,-3.205156,0.2800358,-1.2563428,0.22112656,-0.3253708,0.97156,0.7918452,-0.084517635,0.1388149,0.58870053,0.005705975,-0.16875511,-0.42179847,1.0,0.0,0.0,0.0,0.0,0.0,0.0,-1.4016613,0.061635584,-0.79686874,0.3173828,-6.4353466,-18.14474,-2.6260376,-7.555127,-0.9110391,-1.4296591
-20.750961,-21.109436,-15.871413,19.57733,2.5664954,-1.1643039,-0.57695276,-0.8192588,0.5057925,-0.5522299,-0.7751931,0.2233109,0.59786946,0.1705178,0.85045636,-0.26520222,-1.6939662,-1.3822577,2.5389445,1.5351808,-1.0096338,0.91784537,-0.30605495,-1.6480281,-1.3184522,2.5218587,1.479756,-1.0246695,-1.4533594,0.95509076,-0.9631608,-1.3769715,0.4975916,0.43372712,0.19673578,0.7196331,-0.4588356,1.3335783,-3.2019515,0.27975583,-1.3532727,0.22086334,-0.32765198,0.96703863,0.79546916,-0.07862334,0.1432978,0.58353484,-0.04211899,-0.25132984,-0.46420005,1.0,0.0,0.0,0.0,0.0,0.0,0.0,-1.3696331,0.058835596,-0.78357834,0.11651516,-7.0229053,-13.859487,-2.2646666,-10.81388,-1.0160208,-1.9288838
-19.34341,-18.877947,-13.901481,20.317116,2.3436518,-0.90566415,-0.48686728,-0.8175457,0.456496,-0.60053915,-0.7832654,0.06618355,0.58667594,0.1505043,0.8360908,-0.26040536,-1.7080821,-1.3967788,2.528477,1.5384235,-1.0096191,0.90330374,-0.2971009,-1.6584289,-1.3323549,2.5257192,1.4840533,-1.0228289,-1.4537749,0.8752179,-1.0657662,-1.3948437,0.34833395,0.42717895,0.17909151,0.6876373,-0.45604324,1.3193192,-3.1987503,0.27947614,-1.4501057,0.22013855,-0.33065414,0.962115,0.7994649,-0.0722741,0.14801857,0.57768744,-0.08877659,-0.31996825,-0.50329196,1.0,0.0,0.0,0.0,0.0,0.0,0.0,-1.3376373,0.056043237,-0.76931924,0.14531612,-8.072519,-10.285521,-1.8213749,-15.077459,-1.0022283,-2.0254374
-19.30132,-21.405573,-13.740849,20.30896,2.025072,-0.6955951,-0.36741173,-0.8145983,0.3627478,-0.6155275,-0.7900909,-0.24886502,0.59461004,0.16453712,0.8218439,-0.2608261,-1.7199817,-1.411364,2.5008326,1.5435143,-1.0063752,0.8887745,-0.28920686,-1.6695392,-1.3464063,2.527348,1.4883009,-1.021139,-1.4518751,0.76042193,-1.126296,-1.4083542,0.10100174,0.42306587,0.16453752,0.655674,-0.45325089,1.3040926,-3.195552,0.2791967,-1.5468419,0.21897507,-0.3342743,0.95677936,0.80368423,-0.06557439,0.15320194,0.57124496,-0.13357648,-0.3780693,-0.54482704,1.0,0.0,0.0,0.0,0.0,0.0,0.0,-1.305674,0.05325088,-0.75409263,0.40385723,-11.577582,-6.1476707,-1.3234854,-24.848566,-0.68473816,-1.7722249
-19.297213,-21.847466,-12.958027,21.58692,2.1002984,-0.4301148,-0.26129812,-0.82379836,0.2888368,-0.61804634,-0.7840852,-0.39311197,0.6201829,0.16390927,0.8063947,-0.26032317,-1.7313439,-1.4248148,2.4880369,1.5503192,-1.0047481,0.87422144,-0.282606,-1.6809719,-1.3605112,2.5263677,1.4925352,-1.0195769,-1.4559308,0.6262988,-1.1492397,-1.4111018,-0.16502896,0.42270985,0.15237044,0.62374115,-0.45045853,1.2878994,-3.192357,0.27891758,-1.6434814,0.21732712,-0.33840942,0.9510627,0.8079989,-0.0586282,0.15887971,0.56432045,-0.18338673,-0.42820156,-0.58177066,1.0,0.0,0.0,0.0,0.0,0.0,0.0,-1.2737411,0.05045852,-0.73789936,-0.22928715,-13.527309,-2.3781776,-0.20701885,-26.699442,-0.28175116,-1.5382618
-24.97297,-34.424614,-18.443151,22.036978,2.9297132,-0.43965617,-0.20682622,-0.8248096,0.14693363,-0.6457123,-0.78229207,-0.5117861,0.6222269,0.16569604,0.7917405,-0.26791266,-1.7455431,-1.4387404,2.475189,1.554758,-1.0030073,0.85962737,-0.2777351,-1.6925857,-1.3745912,2.5228353,1.4967715,-1.0181178,-1.4594646,0.44012228,-1.1662307,-1.4065133,-0.41619274,0.42308813,0.14257492,0.59184265,-0.4476738,1.2707404,-3.1891654,0.27863872,-1.7400242,0.21500778,-0.3432083,0.9449569,0.8123616,-0.051425915,0.16479984,0.55701435,-0.25680512,-0.49717838,-0.62120515,1.0,0.0,0.0,0.0,0.0,0.0,0.0,-1.2418426,0.04767379,-0.7207404,-0.018620491,-18.779272,-1.9413948,0.62761307,-25.231123,-0.22630095,-1.2957036
-31.491806,-53.032093,-25.120186,21.628729,4.230004,-0.4445878,0.054298654,-0.81889796,-0.07631023,-0.59068227,-0.7825562,-0.5694204,0.6407995,0.2945497,0.77773756,-0.28536615,-1.7516539,-1.4528469,2.4658933,1.5608515,-0.98866284,0.8450438,-0.2754358,-1.7040412,-1.3886045,2.5171666,1.5010267,-1.0166434,-1.4561362,0.15918986,-1.1404184,-1.3985362,-0.61704355,0.42541486,0.148274,0.5599747,-0.44488907,1.2526168,-3.185977,0.27836013,-1.8364705,0.21170044,-0.3488884,0.9384301,0.81667423,-0.04392752,0.17033607,0.54963547,-0.3645937,-0.5919523,-0.6641512,1.0,0.0,0.0,0.0,0.0,0.0,0.0,-1.2099746,0.044889063,-0.70261675,0.900507,-28.304295,2.0525932,1.1350393,-20.171238,-0.042700768,0.33301115
-39.674164,-75.42812,-33.800076,20.0206,5.7809157,-0.5757905,0.30222213,-0.80877906,-0.34347218,-0.5479002,-0.79129976,-0.5484929,0.65099466,0.374949,0.7641659,-0.309783,-1.7588313,-1.4677345,2.4623172,1.5661262,-0.9791485,0.830567,-0.2767471,-1.7150085,-1.402574,2.5100904,1.5053087,-1.0150336,-1.441968,-0.2287446,-1.0851963,-1.3946292,-0.7378581,0.42792156,0.1648145,0.5281391,-0.44210815,1.2335294,-3.1827917,0.27808183,-1.9328204,0.20700264,-0.35578918,0.93141115,0.82086784,-0.036051042,0.17462116,0.5425715,-0.5139902,-0.7203026,-0.7156068,1.0,0.0,0.0,0.0,0.0,0.0,0.0,-1.1781391,0.04210815,-0.68352944,2.2919416,-39.06293,4.628873,0.9540081,-12.145388,-0.10781288,1.5524507
-37.663563,-78.59167,-32.513542,17.328676,6.1621823,-0.48463702,0.6610943,-0.7726282,-0.5688539,-0.46101537,-0.8089205,-0.5052119,0.64200354,0.4651605,0.7533042,-0.3336325,-1.7611101,-1.483466,2.4595692,1.5695091,-0.96851754,0.8164011,-0.28231895,-1.7250679,-1.4165987,2.5023885,1.5096041,-1.0131816,-1.4049917,-0.6675323,-0.98288685,-1.4025925,-0.7811705,0.42876324,0.19221544,0.49633598,-0.43933105,1.2134793,-3.1796095,0.2778038,-2.029074,0.20074844,-0.36397552,0.92384326,0.8248131,-0.027776629,0.17694487,0.5362855,-0.67093575,-0.8462401,-0.7720219,1.0,0.0,0.0,0.0,0.0,0.0,0.0,-1.146336,0.03933105,-0.66347927,4.630041,-44.149178,9.173691,-0.085663795,-4.351914,-0.3262818,2.845025
-10.797321,-35.300606,-5.496192,16.371311,3.905592,0.52278006,1.2796113,-0.72014844,-0.65695184,-0.18231915,-0.80753356,-0.51465523,0.6387495,0.48835182,0.74438626,-0.34801415,-1.7432997,-1.497352,2.450923,1.573479,-0.9643464,0.80279887,-0.291736,-1.7329128,-1.4307169,2.4945264,1.5139185,-1.0110415,-1.3437872,-1.0335355,-0.7209118,-1.4132977,-0.78742164,0.43192312,0.2225429,0.46456337,-0.43655396,1.1924672,-3.1764307,0.27752605,-2.125231,0.19349098,-0.37273407,0.9158938,0.8281036,-0.019489327,0.1772228,0.53146636,-0.7522311,-0.87904227,-0.80504036,1.0,0.0,0.0,0.0,0.0,0.0,0.0,-1.1145633,0.03655395,-0.6424672,6.568885,-36.72519,25.401867,-0.5681038,-0.4941821,0.20528436,3.3927321
-0.88790035,-10.7927265,4.922436,16.231724,2.7302704,0.73949987,1.1727351,-0.69234,-0.72808886,-0.2025539,-0.81382316,-0.45364445,0.5962203,0.48737672,0.73356485,-0.3645449,-1.7531682,-1.5120991,2.449162,1.5735406,-0.9623039,0.78985274,-0.30402553,-1.7384651,-1.4449648,2.4869123,1.5182368,-1.008623,-1.2770537,-1.2943443,-0.50231373,-1.4274231,-0.7522308,0.43174,0.24951759,0.43282318,-0.43378067,1.1704943,-3.173255,0.2772486,-2.221292,0.18568802,-0.3815918,0.90768284,0.83066267,-0.0113708675,0.17573467,0.5281926,-0.7960814,-0.87783223,-0.8296263,1.0,0.0,0.0,0.0,0.0,0.0,0.0,-1.0828232,0.033780664,-0.6204943,7.0245266,-26.154446,21.17399,-1.0535479,3.6115766,-0.019168854,3.0831516
-1.52936,1.0974998,4.9866652,16.870928,2.424685,0.50299907,0.67980653,-0.64805245,-0.7617744,-0.3398495,-0.81623775,-0.3157147,0.5507358,0.46076944,0.72504747,-0.38020298,-1.77245,-1.5265886,2.4553409,1.5733104,-0.96254605,0.77763236,-0.31807172,-1.7430484,-1.4593424,2.4800954,1.5225168,-1.0059909,-1.2025589,-1.4416517,-0.44548306,-1.4401436,-0.65865326,0.42670298,0.2688806,0.40111542,-0.4310112,1.1475616,-3.1700823,0.2769714,-2.317257,0.17748451,-0.39046478,0.8992239,0.83276856,-0.003296921,0.17281017,0.5259489,-0.8330797,-0.87894225,-0.8548936,1.0,0.0,0.0,0.0,0.0,0.0,0.0,-1.0511154,0.031011194,-0.59756154,7.781744,-14.808917,5.1557064,-0.94935894,9.33131,-0.5077183,2.2416055
-8.724649,2.9749923,-0.8453343,18.23477,2.6218503,0.19884217,0.06816648,-0.6356918,-0.787301,-0.47124696,-0.8143449,-0.22760724,0.51883215,0.37077224,0.71406317,-0.39680183,-1.7901732,-1.5407768,2.4573348,1.5744001,-0.9689136,0.7660471,-0.33295906,-1.7482765,-1.473802,2.474419,1.5267187,-1.0032672,-1.1425322,-1.5047909,-0.5501207,-1.4465516,-0.5381881,0.4176939,0.2741667,0.36943817,-0.42824173,1.1236699,-3.166913,0.27669448,-2.413126,0.16879654,-0.39948654,0.8904659,0.8348194,0.0049717333,0.16877784,0.52399033,-0.88411057,-0.89706343,-0.88666564,1.0,0.0,0.0,0.0,0.0,0.0,0.0,-1.0194381,0.028241724,-0.57366985,6.412649,-6.4344883,-10.899758,-0.25954247,11.885368,-0.97762346,0.7226348
-11.537458,9.837512,-1.0846496,20.539516,2.389079,0.39909112,-0.28252718,-0.6695756,-0.7913818,-0.47674182,-0.8058457,-0.2356566,0.5275271,0.31528935,0.6990896,-0.41209725,-1.7959507,-1.5543865,2.4508533,1.5794715,-0.9717382,0.75472033,-0.34803665,-1.7548339,-1.488252,2.46975,1.5308424,-1.0005587,-1.1274561,-1.5091878,-0.6928241,-1.442915,-0.44391438,0.41032335,0.27010655,0.33779144,-0.4254799,1.0988202,-3.1637468,0.27641785,-2.5088992,0.15957642,-0.4086151,0.8814173,0.8370544,0.013505715,0.16402708,0.5217784,-0.93779016,-0.90637803,-0.9152841,1.0,0.0,0.0,0.0,0.0,0.0,0.0,-0.9877914,0.025479883,-0.5488202,2.0811558,-0.57947636,-14.7785425,0.7638931,9.206236,-0.79107285,-0.29265285
-11.121811,16.797108,1.1569715,21.393497,1.8527733,0.66094697,-0.41309005,-0.6835872,-0.7906006,-0.49570182,-0.80499667,-0.30026838,0.516169,0.26296115,0.6863616,-0.42709672,-1.8044041,-1.5687517,2.439723,1.5824593,-0.9742626,0.74331534,-0.362934,-1.7627418,-1.5026411,2.465592,1.5348936,-0.9979428,-1.1426733,-1.4837085,-0.82518876,-1.4360603,-0.4075893,0.4032351,0.25889063,0.30617905,-0.42271805,1.0730135,-3.1605837,0.2761415,-2.6045766,0.14987755,-0.4177246,0.8721045,0.83953047,0.022276795,0.15896566,0.5190588,-0.9833651,-0.89953375,-0.9415261,1.0,0.0,0.0,0.0,0.0,0.0,0.0,-0.956179,0.022718042,-0.52301353,-0.8780718,2.4032354,-13.783312,1.0673285,3.3971906,-0.7315099,-1.0759413
-10.664231,19.892979,2.7862515,21.468605,1.5172772,0.8805406,-0.43710327,-0.6944912,-0.79904336,-0.5286751,-0.802757,-0.3415602,0.5197431,0.16542329,0.6738662,-0.44283834,-1.8156093,-1.5829167,2.4314358,1.5868679,-0.9814005,0.7316395,-0.37756622,-1.7717788,-1.5169519,2.4614606,1.5388857,-0.9955119,-1.1737309,-1.4568974,-0.9316525,-1.4282583,-0.4159368,0.39773074,0.23785068,0.27459717,-0.4199562,1.0462508,-3.1574237,0.2758654,-2.7001584,0.13976288,-0.42669296,0.8625405,0.84222806,0.031230867,0.15385424,0.5157571,-1.0238366,-0.8813916,-0.96663177,1.0,0.0,0.0,0.0,0.0,0.0,0.0,-0.92459714,0.019956201,-0.4962508,-2.4594545,2.5318146,-11.196768,1.1502981,-1.0653317,-0.5608618,-2.0914822
-7.0824084,25.893976,7.3992014,21.542507,1.2569776,1.2020204,-0.32595897,-0.70994,-0.7918114,-0.5149269,-0.7999245,-0.29204315,0.5327052,0.062327895,0.6606455,-0.45674735,-1.8232715,-1.5969443,2.4322562,1.5921562,-0.9892791,0.7195984,-0.39194334,-1.7814586,-1.5311903,2.4572873,1.5428435,-0.99335754,-1.212363,-1.431719,-0.98190296,-1.4213673,-0.41836667,0.39511645,0.20805074,0.2430458,-0.417202,1.018533,-3.1542668,0.27558962,-2.7956445,0.12931252,-0.43536758,0.85278636,0.84507346,0.04024657,0.14870179,0.5119752,-1.0549047,-0.8476972,-0.98361254,1.0,0.0,0.0,0.0,0.0,0.0,0.0,-0.8930458,0.01720199,-0.46853298,-3.2819748,2.3845434,-5.5411696,1.004839,-0.4317224,-0.21471381,-2.9470177
-6.732526,27.13969,8.788409,22.034771,1.3348296,1.3994573,-0.3176749,-0.7329697,-0.79418045,-0.529762,-0.7877822,-0.2595659,0.54345703,-0.11827448,0.64630145,-0.4713614,-1.8344349,-1.6099685,2.4313307,1.5971892,-1.005185,0.707131,-0.4061488,-1.7914131,-1.5453256,2.4531827,1.5467879,-0.99161613,-1.2563226,-1.4172776,-1.0016379,-1.4097347,-0.40830085,0.394566,0.16305918,0.21152687,-0.41444778,0.989861,-3.1511133,0.27531406,-2.8910353,0.118543625,-0.44365692,0.8429055,0.8480468,0.049209226,0.1434059,0.5077694,-1.0870169,-0.80931425,-0.99469006,1.0,0.0,0.0,0.0,0.0,0.0,0.0,-0.86152685,0.014447778,-0.439861,-3.85561,1.3133526,-2.463758,1.4681339,0.84298253,0.007456541,-4.442212
-7.6859307,26.462803,8.894703,22.66441,1.8737206,1.5338242,-0.2973906,-0.7588353,-0.7987983,-0.53337944,-0.7803719,-0.069701836,0.56044036,-0.2449241,0.6312475,-0.4860286,-1.844751,-1.6233628,2.4462125,1.6028318,-1.0161085,0.69419825,-0.42029893,-1.8014133,-1.5593275,2.449757,1.5507437,-0.9903859,-1.303954,-1.4146954,-1.0008804,-1.3959538,-0.32091656,0.39596626,0.10999755,0.18004036,-0.4116974,0.96023583,-3.1479628,0.2750388,-2.9863307,0.10736656,-0.4515953,0.8329588,0.8511807,0.058024604,0.13760969,0.5031779,-1.1307921,-0.77406704,-0.9996078,1.0,0.0,0.0,0.0,0.0,0.0,0.0,-0.83004034,0.011697382,-0.41023582,-4.2514324,0.12309551,-0.3894329,1.688385,8.595162,0.17969012,-5.1809893
-5.6205935,31.009766,11.983614,23.321869,2.0056634,1.7457938,-0.2429408,-0.7787373,-0.78038013,-0.50980765,-0.7678677,0.08110911,0.5781037,-0.31620777,0.61632454,-0.49833694,-1.8523941,-1.6361142,2.457868,1.6085541,-1.0220066,0.6808039,-0.43438137,-1.811219,-1.5731615,2.4476476,1.55473,-0.9896945,-1.3497726,-1.4064624,-0.97515815,-1.3784155,-0.17470881,0.3996028,0.056055527,0.14858437,-0.4089508,0.9296584,-3.1448154,0.27476382,-3.0815308,0.09576225,-0.45914078,0.8230368,0.85448,0.06657594,0.1310103,0.4982647,-1.1734269,-0.73308766,-0.99456835,1.0,0.0,0.0,0.0,0.0,0.0,0.0,-0.79858434,0.0089508,-0.3796584,-4.1367054,0.702858,2.1689653,2.0187378,14.522463,0.4317999,-5.2266707
-0.22012812,38.85869,17.86026,23.620865,1.3583976,2.0284991,-0.1274575,-0.7870094,-0.7690573,-0.45023534,-0.7413439,0.0296582,0.61978936,-0.34172076,0.60210294,-0.5112871,-1.8562425,-1.6472958,2.4506135,1.616709,-1.0238665,0.66703,-0.4483403,-1.8204715,-1.5867361,2.4467053,1.5587889,-0.98950946,-1.3855596,-1.3926978,-0.9098272,-1.3498449,-0.067322485,0.4083871,0.0065057236,0.11715889,-0.40620422,0.8981297,-3.1416714,0.2744891,-3.1766355,0.08388901,-0.46616364,0.8132502,0.8578504,0.07468633,0.12372546,0.49315977,-1.1940348,-0.67560667,-0.9779284,1.0,0.0,0.0,0.0,0.0,0.0,0.0,-0.76715887,0.0062042177,-0.3481297,-3.2419682,1.2949467,6.207502,3.034544,10.721679,1.0611236,-4.8126717
-0.19534981,38.98351,16.998768,22.17799,0.28997898,1.8867371,-0.22060986,-0.7859456,-0.7620695,-0.5101302,-0.7188258,-0.33149138,0.6473451,-0.36417636,0.5884354,-0.5245472,-1.8714845,-1.6586187,2.413556,1.6235234,-1.0259271,0.65302145,-0.46214664,-1.8294017,-1.5999635,2.445477,1.5629526,-0.989787,-1.4050232,-1.3768387,-0.8883468,-1.313049,-0.1413597,0.4196421,-0.03902664,0.08576584,-0.40346146,0.86565065,-3.1385303,0.27421468,-3.2716453,0.07196617,-0.47257233,0.8035491,0.86120826,0.08238744,0.11651207,0.48780888,-1.1930803,-0.61366594,-0.9716574,1.0,0.0,0.0,0.0,0.0,0.0,0.0,-0.7357658,0.0034614503,-0.31565064,-1.658988,1.5138149,1.8621087,3.8596869,-7.428716,1.3237953,-4.541392
-3.1249652,32.18539,12.288053,19.075596,0.07652974,1.493588,-0.25060612,-0.7852469,-0.7811385,-0.56430167,-0.7296739,-0.41903836,0.6362343,-0.38008338,0.57449675,-0.5402605,-1.885832,-1.672931,2.4035733,1.6265761,-1.0277953,0.6389204,-0.47591674,-1.838517,-1.6129373,2.4429975,1.567206,-0.99047935,-1.410873,-1.3773822,-0.9200635,-1.2914532,-0.2836768,0.42778778,-0.07936178,0.054405212,-0.4007225,0.8322222,-3.1353924,0.27394053,-3.3665602,0.060049057,-0.4784546,0.79375213,0.8645257,0.089903615,0.10979896,0.48213768,-1.1927537,-0.5636684,-0.9862026,0.0,1.0,0.0,0.0,0.0,0.0,0.0,-0.7044052,0.0007224977,-0.2822222,-0.30798912,-0.14269352,-3.455913,2.4059057,-14.315883,0.91572404,-4.0544972
-5.614496,27.869267,9.02132,17.3491,0.2568639,1.2520616,-0.265098,-0.78609717,-0.78521156,-0.60490346,-0.7254899,-0.42063853,0.6187217,-0.4005087,0.5603107,-0.5544379,-1.8990073,-1.6854863,2.4009335,1.6290781,-1.0305302,0.6251877,-0.48970726,-1.8493593,-1.6263428,2.4390283,1.5762274,-0.9909974,-1.3621205,-1.3805127,-1.1308656,-1.3501397,-0.4409009,1.0055875,-0.055988766,0.03738022,-0.40164185,0.83488744,-1.4351639,-0.13690402,1.1719121,0.04774475,-0.48337555,0.7834245,0.8677502,0.09566895,0.10379238,0.47653347,-1.238341,-0.45927927,-1.0492173,0.0,1.0,0.0,0.0,0.0,0.0,0.0,-0.6873802,0.0016418397,-0.28488743,0.74875355,-0.9931803,-7.715988,1.9370317,-13.415885,0.022435188,-2.8172507
84.799255,176.0,110.0,110.0,-5.2356825,11.37156,-0.82539606,-0.80856574,0.3516927,0.6584544,0.76472574,-0.44874734,0.6294716,-0.46946922,0.54433113,-0.454538,-1.7835138,-1.5498703,2.3941536,1.6391746,-1.0379443,0.6184624,-0.5013731,-1.8631303,-1.6293774,2.4281564,1.5949156,-0.990943,-0.45073956,-1.0944777,-1.4480256,0.040983487,-1.2993152,2.1654854,0.021682363,0.023040771,-0.4030075,0.8458613,-1.4337289,-0.13676713,1.0725543,0.037122726,-0.48584747,0.7768024,0.8708499,0.09303063,0.10346805,0.47144473,-1.0028679,-0.16174455,-0.53510755,1.0,0.0,0.0,0.0,0.0,0.0,0.0,-0.67304075,0.0030075014,-0.2958613,88.73204,28.853203,-28.371883,137.75858,-84.80627,118.68272,6.5292597
6.997394,129.55049,66.52683,109.99466,2.795379,6.8043756,-1.4935672,-0.8166175,-0.4460368,-0.002536202,0.78709924,-0.64350766,0.60260564,-0.22966027,0.5368006,-0.5459768,-1.863384,-1.5506674,2.3638055,1.6551762,-1.0139091,0.61375123,-0.5108107,-1.8747499,-1.6217594,2.4140344,1.616173,-0.9908543,-0.47672504,-0.89493364,-1.0651093,1.0022544,-1.452048,2.118887,0.0035548648,0.008712769,-0.40437317,0.85584235,-1.4322954,-0.1366304,0.973296,0.027244568,-0.48659897,0.77487206,0.8744115,0.084226064,0.10692247,0.46570146,-0.97999305,-0.037191194,-0.08395267,1.0,0.0,0.0,0.0,0.0,0.0,0.0,-0.65871274,0.004373163,-0.30584234,-2.221018,19.520641,38.784195,96.1437,-15.932107,-2.6936054,-2.1111307
-24.360106,100.968,36.090885,87.229805,4.0923915,4.6239977,-1.657279,-0.7944757,-0.25162306,-0.3379303,0.75061196,-0.67007625,0.6137711,0.25782806,0.53430367,-0.53597295,-1.9085429,-1.5466982,2.3470268,1.6775501,-0.9650715,0.6070803,-0.5179003,-1.8834016,-1.6074066,2.3997598,1.6359198,-0.9906331,-0.72684425,-0.6485869,-0.80064964,1.5809623,-1.4209949,1.930755,0.027893549,-0.0055999756,-0.40573883,0.86483157,-1.4308634,-0.1364938,0.87413687,0.017007828,-0.4863739,0.7763412,0.87865716,0.07276709,0.112201,0.45834213,-1.035847,0.047644854,0.21693943,1.0,0.0,0.0,0.0,0.0,0.0,0.0,-0.6444,0.0057388246,-0.31483155,-23.904478,24.16588,25.804054,58.21347,2.5504112,-17.562557,2.2890017
-38.51209,69.83333,13.275427,59.595165,3.96748,2.6730764,-1.4726986,-0.7904898,-0.17508234,-0.43292734,0.7956764,-0.68597496,0.6070038,0.20330933,0.5280313,-0.5354085,-1.9266944,-1.527839,2.3311622,1.6966202,-0.97030216,0.59739,-0.52274686,-1.8904264,-1.5898514,2.3864465,1.6534808,-0.9902087,-1.0465939,-0.43131906,-0.67269504,1.8145452,-1.3022107,1.7003081,0.046859477,-0.019897461,-0.4071045,0.8728299,-1.4294327,-0.13635734,0.7750769,0.006002426,-0.4855423,0.7796688,0.8834967,0.06083258,0.11841636,0.4491218,-1.1203568,0.10194841,0.36403003,1.0,0.0,0.0,0.0,0.0,0.0,0.0,-0.6301025,0.007104486,-0.3228299,-31.02994,21.36562,11.969769,23.658323,11.626029,-22.355247,1.7867372
-41.200726,35.7059,-4.6919994,33.64324,3.2595506,0.8670747,-1.0657042,-0.8050854,-0.18821819,-0.5274987,0.7854479,-0.689351,0.63687354,0.15307257,0.51688147,-0.5415687,-1.9431763,-1.5113066,2.3175113,1.7171681,-0.97490144,0.5849293,-0.5260914,-1.8973844,-1.5717831,2.3743577,1.6688998,-0.98964506,-1.31076,-0.30290288,-0.7054226,1.8048095,-1.1780516,1.4901694,0.05916343,-0.034179688,-0.40847015,0.8798384,-1.4280035,-0.136221,0.676116,-0.005886078,-0.48445892,0.78343534,0.88874215,0.049957518,0.1248995,0.43822575,-1.2099067,0.11890733,0.37452272,1.0,0.0,0.0,0.0,0.0,0.0,0.0,-0.6158203,0.008470148,-0.3298384,-25.860786,12.634903,-3.8696527,-0.79300404,12.405467,-20.708729,1.1239126
-38.236366,5.396268,-15.958212,16.371399,2.8200004,-0.4131136,-0.60218596,-0.8174339,-0.26806724,-0.5798928,0.7878473,-0.6764882,0.62816733,0.1259188,0.50318587,-0.5528981,-1.9553736,-1.4929984,2.3067088,1.7317165,-0.97705317,0.5705517,-0.5291088,-1.9053323,-1.5546436,2.3633485,1.6824305,-0.9889956,-1.4789147,-0.30158874,-0.8258373,1.6842402,-1.0748944,1.3076633,0.066719465,-0.04845047,-0.4098282,0.88585806,-1.4265758,-0.13608481,0.577254,-0.01869011,-0.48349,0.78664714,0.8942016,0.040936325,0.13106413,0.42608675,-1.3015432,0.100026295,0.29843196,1.0,0.0,0.0,0.0,0.0,0.0,0.0,-0.6015495,0.00982818,-0.33585805,-16.45496,0.0567019,-12.439453,-11.901093,10.380983,-18.161465,0.71715117
-29.793352,-8.064029,-17.12051,7.91553,2.262484,-0.9643741,-0.2026364,-0.82049936,-0.32604808,-0.60252815,0.7861338,-0.67486465,0.62015486,0.11061954,0.48850176,-0.56171364,-1.9655851,-1.4760302,2.295862,1.744446,-0.97793365,0.5552004,-0.53277665,-1.9146001,-1.5388508,2.3531175,1.6943514,-0.9882937,-1.5529014,-0.3884553,-0.9613813,1.5449089,-1.0058174,1.1536614,0.07137204,-0.06270599,-0.41118622,0.8908898,-1.4251494,-0.13594876,0.47849092,-0.032312393,-0.48283386,0.78885,0.899704,0.033911176,0.13655502,0.41320133,-1.3797616,0.06597175,0.19019097,1.0,0.0,0.0,0.0,0.0,0.0,0.0,-0.587294,0.011186212,-0.3408898,-7.126951,-8.69776,-13.817776,-13.751292,6.929612,-15.387344,0.47690123
-19.833094,-4.08438,-10.774518,7.010609,1.679763,-0.8735438,0.029789615,-0.82364756,-0.34475017,-0.61577255,0.7888335,-0.6712529,0.6214606,0.0989481,0.47283563,-0.5672517,-1.9761773,-1.4599674,2.2859921,1.7564975,-0.9783989,0.5395935,-0.53748685,-1.92502,-1.5241928,2.3433557,1.7049315,-0.98756224,-1.5626408,-0.4985147,-1.0692493,1.4398737,-0.96641,1.0263375,0.0737263,-0.07694626,-0.41254425,0.89493465,-1.4237245,-0.13581283,0.37982658,-0.046527863,-0.48248672,0.7900451,0.9051199,0.028607776,0.14134102,0.39995277,-1.4338044,0.0382039,0.092497855,1.0,0.0,0.0,0.0,0.0,0.0,0.0,-0.5730537,0.0125442445,-0.34493464,-0.79045296,-11.022198,-10.919762,-10.312772,3.8761497,-12.716317,0.25143176
-10.177266,8.482952,-1.2710598,9.638981,1.1901366,-0.48166448,0.13864005,-0.8184185,-0.3662957,-0.60390556,0.78878766,-0.6578284,0.6289493,-0.01867181,0.45775166,-0.5741164,-1.9854106,-1.445314,2.2775729,1.7678264,-0.9894294,0.524164,-0.5432289,-1.9361074,-1.5102348,2.3338609,1.7144167,-0.9869023,-1.5361607,-0.5996132,-1.1219503,1.3816121,-0.9444896,0.9227641,0.06340331,-0.091171265,-0.41390228,0.89798564,-1.422301,-0.13567705,0.28019568,-0.061077118,-0.48228455,0.7904765,0.9103644,0.02455838,0.14554967,0.3865861,-1.4600174,0.026714204,0.023277085,1.0,0.0,0.0,0.0,0.0,0.0,0.0,-0.5588287,0.013902277,-0.34798563,2.718234,-10.159779,-5.24745,-5.668998,2.0228386,-10.30128,-1.0342882
-5.3043723,17.825527,4.8910937,12.660833,0.981983,-0.10455358,0.17466144,-0.8146997,-0.40770987,-0.59807557,0.78975296,-0.6658866,0.6448321,-0.050964937,0.44269404,-0.58399993,-1.9959149,-1.4312595,2.2672722,1.7788999,-0.9919988,0.5090807,-0.54990464,-1.9473894,-1.4965591,2.3244615,1.7230208,-0.98637396,-1.4989811,-0.6904142,-1.1297638,1.3635043,-0.9394829,0.83994836,0.049291074,-0.10538483,-0.41526031,0.90004104,-1.420879,-0.1355414,0.18066438,-0.07577133,-0.48210526,0.79039466,0.91539055,0.021337632,0.1493385,0.37323272,-1.4708102,0.028712645,-0.022031104,1.0,0.0,0.0,0.0,0.0,0.0,0.0,-0.54461515,0.015260309,-0.35004103,3.7308931,-9.160292,-0.66607,-1.671195,0.27799606,-8.190274,-1.4264717
-1.728493,28.394053,10.507007,15.440324,0.8026642,0.2549163,0.17256093,-0.8102841,-0.42520535,-0.5755449,0.78821933,-0.6583267,0.6422446,-0.09457277,0.4280523,-0.59242517,-2.0049438,-1.4177372,2.2586288,1.7872453,-0.99583125,0.49434128,-0.55730134,-1.9584634,-1.4828873,2.3150735,1.7309115,-0.9860135,-1.465694,-0.7563643,-1.0994399,1.3685707,-0.93953145,0.7725431,0.031538982,-0.11958313,-0.41661453,0.9011019,-1.4194584,-0.13540588,0.0812326,-0.09046173,-0.48180008,0.7900247,0.9201744,0.0186181,0.15286618,0.35995027,-1.4671206,0.044437066,-0.045656096,1.0,0.0,0.0,0.0,0.0,0.0,0.0,-0.53041685,0.016614527,-0.35110188,3.2970667,-6.7085266,3.2174587,0.60920715,-0.2865076,-6.617987,-1.8167839
3.080379,39.946327,16.341866,17.050323,0.44182554,0.50729567,0.21888587,-0.7857821,-0.42262214,-0.5517555,0.78885204,-0.66989505,0.64615715,-0.06165935,0.41576308,-0.59956354,-2.013639,-1.4040021,2.248084,1.7955272,-0.9921794,0.47995558,-0.56510144,-1.9690683,-1.4690933,2.3056283,1.7382262,-0.9857941,-1.4298679,-0.78827673,-1.0466623,1.3832424,-0.9475045,0.718256,0.018448344,-0.13376617,-0.41796494,0.9011692,-1.4180392,-0.1352705,-0.018099772,-0.1049633,-0.48125458,0.78954923,0.92467314,0.016186005,0.15632495,0.3468141,-1.4431386,0.07104894,-0.051980693,1.0,0.0,0.0,0.0,0.0,0.0,0.0,-0.5162338,0.01796493,-0.35116917,3.4849882,-3.3305645,5.54111,1.5025377,-1.1409044,-5.2689075,-1.3962079
-1.2497888,36.9375,13.182033,17.650421,0.73697007,0.47547,0.13139388,-0.78727967,-0.46500605,-0.5719586,0.78956276,-0.6668629,0.63619256,-0.05036982,0.40122762,-0.61160207,-2.0262642,-1.3901371,2.238942,1.8018454,-0.99083114,0.46583453,-0.5732296,-1.9792993,-1.4551449,2.2961106,1.7450621,-0.98567873,-1.4063214,-0.8214462,-1.0145584,1.3989928,-0.9540858,0.67271304,0.008964002,-0.14793587,-0.41931534,0.9002439,-1.4166214,-0.13513526,-0.11733283,-0.11932564,-0.4804535,0.7889786,0.9289148,0.01401725,0.15975736,0.33376408,-1.4321973,0.09541954,-0.06262356,1.0,0.0,0.0,0.0,0.0,0.0,0.0,-0.5020641,0.019315332,-0.35024387,2.32625,-3.4566998,3.3973932,1.6605616,-0.9516597,-4.4199586,-1.0205177
0.4154091,40.341652,14.531959,17.184374,0.56302905,0.49761564,0.17156738,-0.76131403,-0.4660992,-0.553824,0.78565246,-0.6762611,0.6600697,-0.00499513,0.38970312,-0.61983955,-2.0346818,-1.3765796,2.2284846,1.8110691,-0.9861782,0.4519762,-0.58158857,-1.9892461,-1.4410915,2.2865129,1.7515242,-0.985611,-1.3792084,-0.84120685,-0.9873213,1.4077692,-0.9629107,0.637678,0.005802776,-0.16209221,-0.42066574,0.89832693,-1.4152051,-0.13500015,-0.21646668,-0.13352394,-0.479393,0.788306,0.9328959,0.012106305,0.16320758,0.32081434,-1.4139079,0.121586405,-0.07267621,1.0,0.0,0.0,0.0,0.0,0.0,0.0,-0.48790777,0.020665735,-0.34832692,2.6546717,-2.1187663,2.9333234,0.9373903,-1.1847854,-3.364563,-0.40597105
-5.12299,31.07675,8.800101,16.283422,0.90721154,0.3064586,0.10040748,-0.7557606,-0.5225157,-0.58184797,0.7907466,-0.6938386,0.6603237,-0.0037958215,0.37640014,-0.63384014,-2.047431,-1.3620169,2.217129,1.8175566,-0.9859906,0.43834963,-0.59032327,-1.9991529,-1.4269619,2.276793,1.757683,-0.9855605,-1.357109,-0.88456637,-0.99161977,1.4151185,-0.9758789,0.6090055,0.0045844773,-0.17623329,-0.42201614,0.8954195,-1.4137902,-0.13486518,-0.31550142,-0.14769173,-0.47813034,0.7874191,0.93665385,0.010530787,0.16662325,0.30790472,-1.4156641,0.14010549,-0.09798646,1.0,0.0,0.0,0.0,0.0,0.0,0.0,-0.47376668,0.022016138,-0.34541947,2.2311687,-4.460931,-0.31354427,0.87435246,-1.5135527,-2.7656198,-0.17305194
-6.344875,27.778395,6.835867,15.189747,0.9504548,0.20752722,0.0929822,-0.7348996,-0.54887974,-0.5921283,0.79088086,-0.70306695,0.6779566,-0.008885576,0.36485967,-0.6452112,-2.0583658,-1.3478738,2.2064862,1.8254787,-0.98644906,0.4249734,-0.5995539,-2.0092275,-1.4127846,2.266932,1.7636073,-0.9855204,-1.3310463,-0.93624306,-1.0125127,1.4191378,-0.98995197,0.5871561,0.0036474688,-0.19035912,-0.42336655,0.89152235,-1.4123768,-0.13473034,-0.41443714,-0.1619091,-0.47670364,0.786217,0.940214,0.009351553,0.16995476,0.2950008,-1.4226356,0.15556116,-0.13166742,1.0,0.0,0.0,0.0,0.0,0.0,0.0,-0.45964086,0.02336654,-0.34152234,2.639556,-5.284524,-1.995039,0.56710243,-1.589787,-2.1019578,-0.13162163
-4.438511,24.977049,6.5662165,12.958884,0.8436256,0.09858626,0.18432082,-0.7051282,-0.5962037,-0.58049774,0.78202873,-0.70858526,0.68659866,0.016710617,0.35446057,-0.65917426,-2.0672772,-1.3345817,2.1960735,1.8322672,-0.98384935,0.41193476,-0.60942346,-2.0194662,-1.3986282,2.2569413,1.7693503,-0.985468,-1.2948074,-1.0041999,-1.0272677,1.4149729,-1.0027674,0.57027817,0.0057141255,-0.2044735,-0.42471313,0.8866366,-1.4109647,-0.13459563,-0.51327395,-0.17619324,-0.47514725,0.78461826,0.94356996,0.00857232,0.17311396,0.28219458,-1.4278055,0.16687252,-0.17350627,1.0,0.0,0.0,0.0,0.0,0.0,0.0,-0.44552648,0.024713129,-0.3366366,3.6252022,-6.89801,-1.3542414,-0.24945736,-1.4594316,-1.6200662,0.19009346
-3.336321,19.603886,5.067295,10.517701,0.82336956,-0.08158958,0.25676814,-0.6703472,-0.6609421,-0.59345096,0.7774673,-0.70732135,0.6901989,0.048664246,0.34490004,-0.6755177,-2.0788112,-1.3208815,2.1862092,1.8383702,-0.98060155,0.39935485,-0.62014467,-2.0298688,-1.3845463,2.2468553,1.7749522,-0.98536783,-1.2457819,-1.0950662,-1.0441774,1.4065135,-1.0108545,0.55677545,0.011473278,-0.21857262,-0.4260559,0.8807633,-1.4095541,-0.13446108,-0.61201197,-0.19055176,-0.47352982,0.782518,0.9467234,0.008195476,0.17596994,0.2695964,-1.4363616,0.17122966,-0.22664459,1.0,0.0,0.0,0.0,0.0,0.0,0.0,-0.43142736,0.026055902,-0.33076328,4.884863,-9.169626,-1.5627861,-0.6565571,-0.9590864,-1.310885,0.59651583
1.6443467,18.359222,6.2213635,7.4061446,0.5310909,-0.24171275,0.37456882,-0.61597353,-0.71337974,-0.59750265,0.7602109,-0.70440626,0.70445114,0.053020183,0.3377575,-0.69148266,-2.0896192,-1.3085252,2.1764147,1.8453972,-0.9800658,0.38742724,-0.631852,-2.0404127,-1.3706264,2.2367272,1.7804472,-0.9852086,-1.1753662,-1.1961917,-1.0572275,1.3877383,-1.014262,0.5470354,0.017614907,-0.23265648,-0.42739868,0.8739033,-1.408145,-0.13432664,-0.7106512,-0.20493507,-0.4719162,0.7798283,0.94966817,0.008210828,0.17841357,0.25735462,-1.4360932,0.16878934,-0.28789702,1.0,0.0,0.0,0.0,0.0,0.0,0.0,-0.4173435,0.027398676,-0.32390326,6.9461107,-10.180688,-1.1112213,-1.7148018,-0.50194263,-0.9561062,0.6498989
18.852388,27.318083,14.738846,3.0765746,-0.4442966,-0.49972838,0.6701269,-0.47716445,-0.7427203,-0.59572524,0.75572985,-0.72021216,0.707695,0.13382673,0.3397108,-0.706124,-2.0999851,-1.2950535,2.164706,1.8512168,-0.9718259,0.3767213,-0.64448434,-2.0510213,-1.3569031,2.2265306,1.7858622,-0.9849339,-1.0368271,-1.2857214,-1.0607985,1.3671098,-1.0223749,0.5395928,0.030663278,-0.2467289,-0.42874146,0.8660547,-1.4067371,-0.13419235,-0.8095856,-0.21900558,-0.4704399,0.77655405,0.95232797,0.008543771,0.18047684,0.24581821,-1.3946387,0.15207559,-0.34586713,1.0,0.0,0.0,0.0,0.0,0.0,0.0,-0.40327108,0.02874145,-0.3160547,13.500643,-9.008789,0.09992123,-2.0661116,-1.0762691,-0.728178,1.2945619
29.883688,32.1903,19.200296,-0.17448545,-1.0732756,-0.7960331,0.81584793,-0.3683858,-0.7739797,-0.6296725,0.7382518,-0.7152745,0.6847636,0.16046934,0.3398827,-0.72188234,-2.1139886,-1.283078,2.155003,1.8543385,-0.968887,0.36773196,-0.6578997,-2.0617788,-1.3434315,2.2162728,1.7911952,-0.9845181,-0.854699,-1.3602676,-1.0791473,1.340241,-1.0278988,0.5310297,0.045090806,-0.26078606,-0.43008423,0.85721755,-1.4053305,-0.13405818,-0.908421,-0.23248291,-0.46922684,0.7726946,0.95466125,0.009188138,0.18221341,0.23523538,-1.3295308,0.12031054,-0.40489456,1.0,0.0,0.0,0.0,0.0,0.0,0.0,-0.38921392,0.030084223,-0.30721754,17.702925,-7.510066,-1.2270927,-2.7895212,-0.8719206,-0.8732557,1.3951414
37.76478,38.970013,23.076288,-1.3851392,-1.5216906,-0.9705805,0.8770541,-0.25894743,-0.78268373,-0.6626573,0.7254405,-0.7166054,0.67925596,0.18931958,0.34183723,-0.736168,-2.1280446,-1.2708874,2.1446123,1.8591207,-0.9655861,0.36075154,-0.6718586,-2.0728528,-1.3302402,2.2059693,1.7964442,-0.9839507,-0.64781946,-1.4080501,-1.1149309,1.3115351,-1.0325319,0.52270377,0.06020781,-0.27482796,-0.431427,0.8473928,-1.4039254,-0.13392416,-1.0071576,-0.24517632,-0.46840286,0.76828355,0.9566574,0.010169564,0.18372825,0.22571437,-1.2459556,0.078659944,-0.45920882,1.0,0.0,0.0,0.0,0.0,0.0,0.0,-0.37517202,0.031426996,-0.2973928,20.089268,-4.851365,-2.878809,-3.0442238,-0.8312702,-0.8834481,1.4164485
46.102306,45.528557,27.45642,-2.631702,-1.8927528,-1.0884428,0.9399211,-0.13716811,-0.79734063,-0.6572366,0.7021045,-0.7066092,0.6643186,0.13676436,0.34703472,-0.7515927,-2.1385765,-1.2600298,2.1353085,1.862876,-0.9702742,0.35595647,-0.6861599,-2.0842206,-1.3173828,2.1956582,1.8016055,-0.9832888,-0.42559657,-1.4377537,-1.1413071,1.2764195,-1.0321475,0.51362413,0.06770129,-0.2888565,-0.43276215,0.83658135,-1.4025217,-0.13379025,-1.1057955,-0.25689697,-0.46804047,0.76338094,0.9583166,0.011452956,0.18508811,0.21734872,-1.1441588,0.028386476,-0.50667703,1.0,0.0,0.0,0.0,0.0,0.0,0.0,-0.36114347,0.03276214,-0.28658134,21.555143,-3.0601263,-1.8565893,-3.7491322,-0.3975153,-0.9999633,0.62609464
36.50179,42.223198,22.549139,-1.1238718,-1.4512281,-1.0209756,0.7456939,-0.118475035,-0.8116037,-0.6875924,0.64559156,-0.69107825,0.61922944,0.02475503,0.34410897,-0.7673203,-2.1529799,-1.2528237,2.1265504,1.8635284,-0.9808133,0.35295287,-0.7006834,-2.0959203,-1.3050613,2.185408,1.8066485,-0.98265177,-0.26022,-1.4575264,-1.177548,1.2168137,-1.0236983,0.50089395,0.061907336,-0.3028717,-0.4340973,0.8247843,-1.4011195,-0.1336565,-1.204335,-0.26776505,-0.46812057,0.75796473,0.95971227,0.013127934,0.18627374,0.20995745,-1.0635548,-0.01578224,-0.55950326,1.0,0.0,0.0,0.0,0.0,0.0,0.0,-0.34712827,0.034097284,-0.27478427,16.04902,-2.0853043,-3.0400515,-6.0967207,0.467062,-1.396668,-0.68701357
37.539196,43.703304,23.05098,-1.4668722,-1.4512423,-1.0346239,0.7306043,-0.01657572,-0.82052916,-0.69018954,0.60634404,-0.67089975,0.5904085,-0.03076627,0.3512953,-0.7827363,-2.1649392,-1.244427,2.118318,1.8656894,-0.9857284,0.351509,-0.71535665,-2.1079175,-1.2934322,2.1753068,1.8115523,-0.98212534,-0.1072862,-1.4709541,-1.2055005,1.1444379,-1.0070337,0.48618925,0.04918577,-0.31687164,-0.43543243,0.81200254,-1.3997186,-0.13352287,-1.3027759,-0.27781296,-0.468647,0.75202936,0.96089137,0.01521956,0.18724236,0.20346116,-0.9818267,-0.0610541,-0.6111144,0.0,1.0,0.0,0.0,0.0,0.0,0.0,-0.33312833,0.035432428,-0.26200253,14.840687,-1.4567614,-2.2481203,-7.366371,1.2826204,-1.6269028,-1.3755813
10.089234,40.554253,13.32815,8.208212,0.044255972,-0.49284786,0.22543745,-0.103769414,-0.81606203,-0.71265334,0.606193,-0.665805,0.5597777,-0.14759116,0.34113207,-0.79696286,-2.1791828,-1.2328129,2.1087263,1.8675301,-0.99688447,0.3507327,-0.7300871,-2.1202314,-1.2823772,2.165381,1.8162997,-0.9818106,-0.068079755,-1.4741482,-1.2391547,1.0928577,-0.98885137,0.47066644,0.025364032,-0.33085823,-0.43676758,0.79823714,-1.3983192,-0.13338938,-1.4011183,-0.2874527,-0.4693756,0.74565065,0.9619668,0.01775825,0.18804,0.1973456,-0.9539375,-0.07403986,-0.6528708,0.0,1.0,0.0,0.0,0.0,0.0,0.0,-0.31914175,0.036767572,-0.24823713,3.8151412,-0.4669428,-3.1459808,-5.074239,1.554358,-1.6505659,-2.4527054
-15.662752,36.395927,4.1158576,15.834145,1.3540273,0.037256926,-0.14900577,-0.18737744,-0.8192242,-0.7235162,0.5724116,-0.6418626,0.5328559,-0.16879219,0.33199498,-0.8120095,-2.192583,-1.225136,2.1011946,1.8695853,-0.99868983,0.34962326,-0.74483025,-2.1331065,-1.2720168,2.156261,1.8211459,-0.98169947,-0.12466944,-1.4749265,-1.304834,1.0180401,-0.8785258,0.49296662,0.008327681,-0.34285736,-0.4360962,0.7946431,-1.0855494,0.102917366,-0.0148763815,-0.29725456,-0.46998215,0.7387908,0.9630938,0.020712608,0.1884336,0.19108666,-0.98549885,-0.052162472,-0.7028343,0.0,1.0,0.0,0.0,0.0,0.0,0.0,-0.30714262,0.036096185,-0.24464309,-6.29933,-0.2090931,-3.3835173,-4.325986,2.364409,-1.7990172,-2.3182945
-59.02982,52.87701,-0.6894548,40.949265,4.442615,1.7295377,-0.8712579,-0.44995147,-0.7929933,-0.53386706,0.7355605,-0.60886836,0.5852233,0.05151585,0.3046281,-0.8241296,-2.1864932,-1.1984607,2.095374,1.8796682,-0.9765479,0.34650093,-0.7594434,-2.1454356,-1.261265,2.1477237,1.826023,-0.98160505,-0.37283087,-1.4576893,-1.2102354,1.0960575,-0.8460832,0.4865324,0.009959766,-0.35370445,-0.43506622,0.79374707,-1.0844641,0.102814466,-0.1145064,-0.3078308,-0.46977615,0.7320898,0.9643643,0.023559578,0.18873248,0.1839197,-1.0773759,0.048349757,-0.665179,0.0,1.0,0.0,0.0,0.0,0.0,0.0,-0.29629552,0.035066217,-0.24374706,-24.22638,1.4536619,9.179831,8.32634,3.0391216,-0.5044699,0.19698274
-50.797733,70.826904,9.374377,44.48742,4.3386183,2.2146294,-0.7831003,-0.44516012,-0.7784835,-0.40684202,0.76352406,-0.62480724,0.6538491,0.019360153,0.3019849,-0.8372918,-2.1861198,-1.1849127,2.085243,1.8914078,-0.97966903,0.3410011,-0.77381337,-2.156071,-1.2494242,2.1392894,1.8308791,-0.9814954,-0.6073496,-1.4310466,-1.014984,1.2149323,-0.8438589,0.48606804,0.011364304,-0.3645401,-0.43403625,0.7918639,-1.0833797,0.10271167,-0.2129136,-0.31910324,-0.4684868,0.72605735,0.9657183,0.025785085,0.1892758,0.17577766,-1.1387928,0.15982595,-0.58825177,0.0,1.0,0.0,0.0,0.0,0.0,0.0,-0.28545988,0.03403625,-0.2418639,-22.963678,2.3834229,19.40713,12.319779,-0.11129379,0.14128685,0.17664787
-35.19516,71.065025,13.750308,36.54433,3.260573,1.8837439,-0.42324385,-0.46450403,-0.7819913,-0.37593433,0.7153614,-0.6248879,0.62327564,0.109395616,0.2945507,-0.8520125,-2.1936643,-1.177888,2.0768006,1.8932066,-0.97055584,0.33358628,-0.78796494,-2.1647456,-1.236727,2.130752,1.8357047,-0.9813018,-0.7850251,-1.4107256,-0.8185903,1.2889495,-0.85816735,0.48185784,0.022100516,-0.3753662,-0.4330101,0.7889974,-1.0822966,0.10260898,-0.31122243,-0.33072853,-0.46624756,0.7206767,0.9670648,0.027351884,0.19007714,0.16705762,-1.1664066,0.2506062,-0.5268072,1.0,0.0,0.0,0.0,0.0,0.0,0.0,-0.27463377,0.033010095,-0.2389974,-17.431545,1.79286,19.615936,7.7284575,-1.7841101,-0.2573669,1.1086751
-16.004164,69.11455,17.515558,27.446129,2.017311,1.2925622,-0.087691434,-0.45462587,-0.7710777,-0.36720192,0.725736,-0.6307139,0.62983066,0.19448812,0.2881237,-0.8650727,-2.2014658,-1.1641533,2.0676806,1.8986877,-0.96185297,0.32505566,-0.8019239,-2.1718524,-1.2235339,2.1220317,1.840494,-0.98094034,-0.8752782,-1.391682,-0.6745722,1.3299996,-0.87780356,0.47822687,0.040769856,-0.38618088,-0.43198776,0.7851485,-1.0812145,0.10250639,-0.40943295,-0.34238243,-0.4633522,0.7157435,0.9683227,0.028464725,0.19110158,0.15818025,-1.16042,0.3096854,-0.4872341,1.0,0.0,0.0,0.0,0.0,0.0,0.0,-0.2638191,0.031987756,-0.23514849,-8.886123,1.7059326,14.5245075,4.299021,-2.3289442,-0.23500323,1.8598996
4.698861,66.53828,21.230415,18.386036,0.7680495,0.59990674,0.2299762,-0.4097444,-0.76553255,-0.359146,0.73409384,-0.6475576,0.6407317,0.25270337,0.28408122,-0.8784771,-2.207767,-1.1501244,2.057276,1.9045672,-0.95567,0.31632525,-0.8157226,-2.1779864,-1.2101233,2.1130824,1.8452548,-0.9803605,-0.8725299,-1.3764832,-0.5923226,1.3449438,-0.90169644,0.47567356,0.06346894,-0.396986,-0.43096542,0.7803051,-1.0801336,0.10240391,-0.5093028,-0.35372925,-0.4601326,0.7110275,0.96942586,0.029364763,0.19232844,0.14953533,-1.1226214,0.33205277,-0.47116956,1.0,0.0,0.0,0.0,0.0,0.0,0.0,-0.25301397,0.030965418,-0.23030508,0.20637512,1.3543844,8.531046,1.5532732,-2.79572,-0.17005801,2.1997406
1.3805423,55.507435,14.74696,15.147624,0.53303456,0.14080161,0.21344003,-0.4393365,-0.759046,-0.4392664,0.7393125,-0.65871006,0.6237554,0.33754718,0.2723916,-0.8916272,-2.221913,-1.1361921,2.0472114,1.9076303,-0.9466058,0.30777746,-0.82938874,-2.18409,-1.196667,2.1039119,1.8499793,-0.9795089,-0.8490668,-1.3637893,-0.61597085,1.3462908,-0.9235342,0.471499,0.09217778,-0.4077797,-0.42994308,0.7744637,-1.0790536,0.10230152,-0.6090728,-0.36480904,-0.4567871,0.7062478,0.97036874,0.030460691,0.1937458,0.14113545,-1.0989017,0.34180844,-0.48479182,0.0,1.0,0.0,0.0,0.0,0.0,0.0,-0.24222028,0.029943079,-0.2244637,2.2935152,1.1220217,-2.1529198,0.24366379,-2.4519324,-0.37436485,2.790998
0.43157792,47.861687,11.169334,12.727591,0.47399616,-0.13788295,0.2074222,-0.4304367,-0.7672111,-0.4633343,0.739993,-0.6318992,0.61254644,0.36489162,0.2647338,-0.90610987,-2.2304232,-1.1226677,2.040722,1.9112339,-0.9430197,0.29955822,-0.8430072,-2.1908,-1.1832488,2.0946498,1.8546542,-0.9783721,-0.8130295,-1.361699,-0.6890751,1.3407156,-0.9275397,0.46612933,0.1206189,-0.41856194,-0.42892075,0.7676254,-1.0779748,0.10219924,-0.70874304,-0.37572098,-0.45339966,0.7011982,0.9711738,0.03201667,0.195265,0.13292085,-1.0848547,0.34419054,-0.51615894,0.0,1.0,0.0,0.0,0.0,0.0,0.0,-0.23143804,0.02892074,-0.21762538,3.5529494,0.07247925,-7.135761,-0.42209625,-0.59998035,-0.54172873,2.7724
0.16887665,41.841423,8.900582,10.446754,0.3950313,-0.28149116,0.23099332,-0.41753003,-0.7827854,-0.48452425,0.7246209,-0.63129824,0.59978634,0.36714396,0.25780523,-0.92128575,-2.2392523,-1.1107867,2.03152,1.9146328,-0.9416577,0.29171234,-0.85671246,-2.198353,-1.1699698,2.0853992,1.8592681,-0.9769778,-0.77527684,-1.3739054,-0.7766852,1.3241191,-0.9247863,0.45959947,0.1455891,-0.42933273,-0.4278984,0.75979114,-1.076897,0.102097064,-0.8083136,-0.38653183,-0.4500122,0.6957337,0.97186476,0.03414941,0.19676214,0.124889396,-1.0758874,0.3424792,-0.5608696,0.0,1.0,0.0,0.0,0.0,0.0,0.0,-0.22066724,0.027898401,-0.20979112,3.7287593,-1.3493061,-8.60647,-1.5053749,0.10730028,-0.69797635,2.438846
-1.5391266,39.891766,7.6395216,9.919195,0.43596673,-0.2932136,0.22642559,-0.41032127,-0.78691894,-0.5260335,0.7126888,-0.62222636,0.5781427,0.3901671,0.2506802,-0.93540436,-2.2509563,-1.0987009,2.0231764,1.9170823,-0.9379611,0.28419214,-0.8705722,-2.2068179,-1.1569026,2.0762248,1.8638037,-0.97534513,-0.7443696,-1.3903896,-0.8691672,1.3015903,-0.9157193,0.45133215,0.16891193,-0.440094,-0.42687607,0.75096196,-1.0758203,0.101994984,-0.90778464,-0.39728737,-0.4466324,0.6897855,0.972458,0.036910918,0.19815597,0.11703523,-1.0709292,0.34195617,-0.61038834,0.0,1.0,0.0,0.0,0.0,0.0,0.0,-0.20990598,0.026876062,-0.20096195,3.0591965,-1.7793655,-9.110367,-2.0797014,0.7502794,-0.8999646,2.2813292
6.4837203,45.7459,12.022636,8.865276,0.23770279,-0.24661255,0.3178299,-0.36801592,-0.7869549,-0.51700217,0.70339084,-0.6102525,0.57698035,0.40100968,0.24739055,-0.9492677,-2.258518,-1.0865635,2.0151997,1.9215018,-0.93524414,0.2770782,-0.88457406,-2.2159388,-1.1440699,2.0671687,1.8682612,-0.9735007,-0.7007578,-1.403888,-0.92534065,1.2773999,-0.9031622,0.44364455,0.18948923,-0.4508438,-0.42585373,0.7411388,-1.0747447,0.10189301,-1.0071563,-0.40788078,-0.44329834,0.68341666,0.972952,0.040176194,0.19941543,0.10947054,-1.0504092,0.3363642,-0.6499571,0.0,1.0,0.0,0.0,0.0,0.0,0.0,-0.19915617,0.025853723,-0.1911388,4.2629957,-1.4834404,-5.36474,-2.3183346,1.0009646,-0.85957646,1.9872159
2.813487,48.196926,12.076475,10.567062,0.57495654,-0.084347546,0.2606721,-0.3849456,-0.7939205,-0.5273307,0.6885948,-0.5681875,0.5432027,0.40801594,0.23858365,-0.96396613,-2.268672,-1.0752105,2.01035,1.9225814,-0.93269914,0.27023834,-0.8987037,-2.2254379,-1.1314996,2.0583534,1.8726196,-0.97146374,-0.677183,-1.4164814,-0.9657404,1.2431746,-0.8630489,0.42862925,0.21356383,-0.46156883,-0.4247322,0.730696,-1.0297068,0.20619321,-0.65781105,-0.41830826,-0.43996048,0.6767029,0.97336966,0.043815244,0.2004668,0.1021994,-1.0368022,0.33731258,-0.6861105,0.0,1.0,0.0,0.0,0.0,0.0,0.0,-0.18843114,0.024732202,-0.18069601,2.4537086,-1.4076233,-4.755914,-4.141736,5.0433636,-2.0979881,2.954504
-13.364072,53.049408,9.2229,17.50869,1.3917491,0.28842926,0.027404018,-0.44340244,-0.7832195,-0.5536339,0.7153373,-0.5792167,0.51896256,0.45002356,0.22589809,-0.9770256,-2.2808013,-1.059966,2.0004318,1.9245158,-0.9264614,0.26325887,-0.9128734,-2.2353027,-1.119079,2.0499456,1.8768387,-0.96917206,-0.70479435,-1.4176553,-0.9926936,1.2422739,-0.8339042,0.41941637,0.23431042,-0.47151184,-0.4228325,0.7237537,-0.9822377,0.1842332,-0.70608985,-0.42875862,-0.43641663,0.6697376,0.9737421,0.0478074,0.20128809,0.09499324,-1.0424567,0.36552915,-0.70420974,0.0,1.0,0.0,0.0,0.0,0.0,0.0,-0.17848814,0.022832483,-0.17375368,-2.7284622,-0.29301643,-2.5237918,0.1282692,2.6722312,-1.0181904,2.0504177
-9.466209,63.84397,14.141531,19.852932,1.5630703,0.5286652,0.019474164,-0.42567566,-0.77484787,-0.49324575,0.72984296,-0.56069803,0.547658,0.46708035,0.22069131,-0.9903582,-2.2846272,-1.0460947,1.9938757,1.9316045,-0.922464,0.2560119,-0.92698205,-2.245053,-1.106538,2.0418472,1.880999,-0.9666781,-0.73135483,-1.4092313,-0.96806157,1.2586079,-0.80325806,0.41445836,0.25433004,-0.48089218,-0.42118073,0.71648043,-0.9254448,0.16081075,-0.7330996,-0.43918228,-0.43255997,0.66276246,0.97405833,0.051864505,0.20202307,0.08778979,-1.0365481,0.3975705,-0.6993473,0.0,1.0,0.0,0.0,0.0,0.0,0.0,-0.1691078,0.02118072,-0.16648042,-2.6737094,0.65493584,2.7690053,1.7832518,2.5635242,-0.64221025,1.959911
-11.747142,64.646255,13.950298,20.21811,1.7804258,0.6245426,-0.018980853,-0.45643383,-0.7808528,-0.48012167,0.7041514,-0.49742258,0.49648336,0.43711293,0.21036851,-1.0050673,-2.2930653,-1.0361229,1.992105,1.9306473,-0.9229668,0.24839284,-0.9410249,-2.2543986,-1.0939169,2.0341098,1.8850671,-0.9640337,-0.77212065,-1.4031518,-0.9221137,1.2639875,-0.7650917,0.4038808,0.26776433,-0.4899578,-0.41952896,0.70903736,-0.89983034,0.16621545,-0.7469194,-0.44956207,-0.42834473,0.6558494,0.97433686,0.05586489,0.20261815,0.08057703,-1.0326213,0.43391243,-0.69237787,0.0,1.0,0.0,0.0,0.0,0.0,0.0,-0.16004217,0.019528955,-0.15903735,-4.0840387,0.42469501,4.8864245,0.700593,3.4439921,-1.1490762,1.3271511
7.052192,68.87461,20.44172,15.538383,1.1290549,0.4574897,0.19629627,-0.39896107,-0.7870082,-0.4056048,0.7005373,-0.4974215,0.4841193,0.4570605,0.20849672,-1.0197257,-2.294959,-1.0238632,1.9843677,1.9334791,-0.9183277,0.24069975,-0.95504963,-2.2629585,-1.0812978,2.0266976,1.8890287,-0.9612615,-0.76881593,-1.4027745,-0.8324837,1.261322,-0.73449945,0.39333323,0.2801724,-0.4986763,-0.41789246,0.7015445,-0.8622403,0.16280812,-0.7490545,-0.45969772,-0.42394257,0.64904726,0.97458017,0.059631154,0.2030298,0.073596895,-1.0010989,0.44758815,-0.67992514,0.0,1.0,0.0,0.0,0.0,0.0,0.0,-0.15132368,0.01789245,-0.15154451,0.19850731,-0.119161606,9.42005,-0.24263859,2.5687695,-1.1430144,1.1918843
24.21122,78.83378,28.83734,13.528634,0.8965802,0.5045543,0.33339548,-0.3785341,-0.783933,-0.23928118,0.6997767,-0.46478957,0.4950584,0.42983606,0.20284635,-1.033443,-2.2868867,-1.0113201,1.9802186,1.9385345,-0.9182779,0.23322842,-0.96907246,-2.2699466,-1.0687395,2.0196283,1.8929044,-0.95839965,-0.7406627,-1.4026215,-0.6521249,1.2536486,-0.6998009,0.3854227,0.28799772,-0.5069027,-0.4163437,0.6942174,-0.80890346,0.15203167,-0.72598416,-0.4693222,-0.41952515,0.6425306,0.97481334,0.06275801,0.20320547,0.067141004,-0.9436103,0.44598064,-0.64587724,0.0,1.0,0.0,0.0,0.0,0.0,0.0,-0.14309728,0.016343683,-0.14421737,2.5815248,-0.1279831,18.679356,-0.8748293,2.8086185,-0.8577645,0.7213533
22.452599,81.41322,29.817162,14.88155,1.2948849,0.6479891,0.28121307,-0.42045382,-0.7926979,-0.098509796,0.6870674,-0.42651442,0.4509467,0.41551688,0.19118303,-1.0483422,-2.2797976,-1.0000328,1.9769769,1.937999,-0.91684794,0.22586416,-0.9831401,-2.2746806,-1.0563167,2.0129523,1.8966755,-0.9554805,-0.73562586,-1.4085587,-0.41183984,1.2383516,-0.6592681,0.37434494,0.2931504,-0.5145855,-0.41489792,0.68718016,-0.75436246,0.14189205,-0.6954102,-0.47839165,-0.41506958,0.63643014,0.9750912,0.064934365,0.2030452,0.061262984,-0.8895624,0.45003805,-0.6014926,0.0,1.0,0.0,0.0,0.0,0.0,0.0,-0.13541448,0.014897913,-0.13718015,0.31772852,-0.7360697,24.641716,-1.6042471,3.372538,-1.1432886,0.5038917
37.122833,87.70922,35.99094,12.232412,1.0748584,0.59165156,0.39905456,-0.37514347,-0.7931408,0.10306215,0.6572027,-0.3900395,0.40907604,0.39192173,0.18834981,-1.0624542,-2.2643745,-0.9905965,1.9739484,1.9375831,-0.9162883,0.21870302,-0.99726975,-2.2764812,-1.0441746,2.0067267,1.9003147,-0.95253557,-0.71033776,-1.4148241,-0.10040873,1.2056729,-0.61296356,0.360462,0.29482263,-0.52163124,-0.41360474,0.6805937,-0.6879393,0.1248021,-0.6461126,-0.48677635,-0.41068268,0.6308754,0.9754646,0.06583203,0.20244725,0.05612504,-0.81649876,0.4387017,-0.54339814,0.0,1.0,0.0,0.0,0.0,0.0,0.0,-0.12836874,0.01360473,-0.13059372,2.3071766,-0.7701397,31.851446,-3.4006834,3.832209,-1.3874948,0.1531601
40.99048,81.13193,34.383965,8.238539,0.9587383,0.28229243,0.42963743,-0.35188225,-0.8017271,0.19030134,0.5874344,-0.24776925,0.29650918,0.36332354,0.18351479,-1.0774424,-2.257451,-0.98543113,1.9819498,1.9299656,-0.9162032,0.21187712,-1.011489,-2.2753522,-1.0326467,2.0013034,1.9037422,-0.94960386,-0.6739458,-1.4248527,0.18595764,1.134831,-0.52125746,0.33688018,0.2926059,-0.5280514,-0.4125023,0.6744101,-0.6270704,0.10566082,-0.61001766,-0.49445724,-0.40649033,0.6257913,0.9759987,0.06540002,0.20116353,0.05179377,-0.74862766,0.41748637,-0.50002253,0.0,1.0,0.0,0.0,0.0,0.0,0.0,-0.1219486,0.012502283,-0.12441009,3.4544587,-1.1448383,29.246885,-7.174349,8.447111,-2.3515344,-0.21103024
40.60129,79.917404,33.658493,7.955371,1.4889871,0.100768715,0.32210308,-0.33577126,-0.79924905,0.3285111,0.5457196,0.028204422,0.17584386,0.38333628,0.1783,-1.091414,-2.242501,-0.97807467,2.004124,1.9213266,-0.9112702,0.20544009,-1.0257827,-2.2714882,-1.0219464,1.9975275,1.9068557,-0.9466823,-0.6340594,-1.4311723,0.45498905,1.0484293,-0.332044,0.30305654,0.2921108,-0.533905,-0.41157913,0.6685673,-0.572152,0.08795678,-0.577354,-0.50156784,-0.4024887,0.62114483,0.9767902,0.063524835,0.19880947,0.048170082,-0.6954103,0.39824456,-0.45572892,0.0,1.0,0.0,0.0,0.0,0.0,0.0,-0.11609495,0.011579126,-0.11856729,3.8599253,-0.77655315,27.399927,-8.672285,18.305063,-3.3560634,-2.9802322e-05
28.094904,66.22936,24.60906,7.5194707,1.7565542,-0.34615773,0.12918037,-0.3128757,-0.8032852,0.26558736,0.50286037,0.26340684,0.0031342814,0.36948478,0.17415252,-1.1061112,-2.2449296,-0.9716604,2.023868,1.9071691,-0.9097338,0.19942367,-1.0401317,-2.2660031,-1.0121408,1.9961665,1.9095261,-0.9437787,-0.5910392,-1.4366138,0.58090454,0.9584366,-0.07216472,0.25530857,0.29000342,-0.53936386,-0.4107933,0.6628021,-0.5383066,0.075586505,-0.5791447,-0.5083904,-0.3986435,0.6167075,0.97787976,0.06052497,0.19511038,0.044940628,-0.6757316,0.38396937,-0.4425187,0.0,1.0,0.0,0.0,0.0,0.0,0.0,-0.110636115,0.0107932985,-0.11280209,4.240632,-0.66218376,12.848818,-8.920407,25.659746,-4.745865,-0.12756586
38.97798,58.94036,22.928112,1.6886674,0.8282251,-0.92498815,0.2640975,-0.20090428,-0.79476386,0.23282053,0.4439727,0.39772025,-0.075056374,0.4120076,0.17933324,-1.119608,-2.242721,-0.96774346,2.0359385,1.9020205,-0.90257794,0.1942565,-1.0544769,-2.2601252,-1.0032893,1.997463,1.9116998,-0.9408687,-0.49237823,-1.4341855,0.5915137,0.86108917,0.19558147,0.20476028,0.29144597,-0.54450035,-0.41018295,0.6569042,-0.50702125,0.056537,-0.59698427,-0.5149708,-0.39513397,0.61220574,0.97922343,0.05686153,0.19004564,0.04208259,-0.6504289,0.3429615,-0.455457,0.0,1.0,0.0,0.0,0.0,0.0,0.0,-0.105499625,0.010182947,-0.10690421,9.737229,0.117874146,1.376915,-9.637033,26.488504,-5.0422163,0.19074678
48.2217,59.81503,24.194304,-0.8285861,0.12952381,-1.1923432,0.37361786,-0.12497273,-0.7858055,0.26176003,0.4105146,0.4667418,-0.13889673,0.42925984,0.18175922,-1.1330574,-2.2339492,-0.9622379,2.0441372,1.8978101,-0.89794266,0.19032004,-1.0687419,-2.2544272,-0.99533314,2.0011427,1.913367,-0.9379317,-0.36126286,-1.4243265,0.5638322,0.77425563,0.42429766,0.15425669,0.29452774,-0.5492878,-0.4098091,0.650856,-0.47099164,0.031708654,-0.6115103,-0.5212078,-0.3921852,0.6075335,0.9807395,0.052817952,0.18380338,0.03970732,-0.61358225,0.28276867,-0.47400948,0.0,1.0,0.0,0.0,0.0,0.0,0.0,-0.10071218,0.009809107,-0.100856006,12.95464,0.84900856,-2.3899794,-8.573961,22.592836,-5.0353675,0.3343165
64.16911,70.635925,31.177168,-1.7110618,-0.35690087,-1.2452048,0.49299538,-0.025331238,-0.77837265,0.3747957,0.40496555,0.5226277,-0.16159251,0.4360427,0.18778692,-1.1465791,-2.2169476,-0.9548366,2.0534055,1.8972077,-0.89432746,0.18793857,-1.0828754,-2.2485807,-0.98802364,2.0067337,1.9145633,-0.9349597,-0.19769154,-1.4102266,0.5933069,0.7169332,0.60268277,0.10818882,0.29800665,-0.5536022,-0.40973663,0.6448858,-0.42011842,-0.00049628934,-0.59662557,-0.5269108,-0.3899765,0.6028324,0.98235524,0.048283726,0.17664252,0.038003728,-0.5543087,0.20328428,-0.471853,0.0,1.0,0.0,0.0,0.0,0.0,0.0,-0.09639776,0.009736627,-0.09488577,16.18407,1.2427807,3.462863,-5.627525,17.487514,-4.5758514,0.33800602
76.51749,76.49583,35.8973,-3.6441615,-0.86016816,-1.2170669,0.6304907,0.07230135,-0.7802429,0.45924702,0.3697338,0.551892,-0.08397134,0.4243803,0.1951687,-1.1608996,-2.202656,-0.9510503,2.0619228,1.9061662,-0.8925217,0.18732807,-1.0968982,-2.2419975,-0.98121697,2.013705,1.9154074,-0.93196476,-0.016064085,-1.4004159,0.6819968,0.6690493,0.727062,0.07663047,0.29990005,-0.5573349,-0.41001892,0.639201,-0.3596997,-0.037341733,-0.56386936,-0.5318737,-0.38866043,0.5982359,0.98401,0.043052454,0.1687822,0.03719445,-0.4765342,0.10967027,-0.458793,0.0,1.0,0.0,0.0,0.0,0.0,0.0,-0.092665076,0.010018915,-0.08920097,17.997206,0.77984333,9.469164,-4.652083,12.038159,-3.1204224,0.17154217
47.709362,76.464226,29.76557,4.4746637,0.091760926,-0.6343302,0.38115463,0.02546928,-0.77506554,0.49548844,0.34414133,0.5835791,0.04121722,0.4254881,0.18987499,-1.1744047,-2.1924486,-0.94680285,2.072063,1.9195292,-0.8894159,0.18791299,-1.1108314,-2.2344081,-0.9748363,2.0216055,1.9160744,-0.9289498,0.083238214,-1.391532,0.78556746,0.6285269,0.8101025,0.063716166,0.3022171,-0.5605526,-0.41056442,0.63380367,-0.31093568,-0.059939858,-0.5363436,-0.5362606,-0.3879547,0.5937873,0.98565626,0.03710584,0.16040465,0.037081454,-0.4254161,0.05844859,-0.44361278,0.0,1.0,0.0,0.0,0.0,0.0,0.0,-0.08944738,0.010564417,-0.08380365,9.9031925,0.7329464,10.660088,-3.853786,8.126795,-1.2178451,0.2929151
17.987175,71.236694,21.715094,9.48,0.8009692,-0.14354552,0.23315951,-0.0246087,-0.76068664,0.5208704,0.23376743,0.6303726,0.025382658,0.43015307,0.18545212,-1.1869,-2.182321,-0.9514595,2.0846426,1.9186127,-0.8859345,0.18879618,-1.124633,-2.2258687,-0.96924335,2.0301762,1.9166352,-0.9259076,0.090278774,-1.3768975,0.876571,0.5369401,0.87272465,0.05425595,0.3052679,-0.56339264,-0.411232,0.628531,-0.2765741,-0.06864513,-0.5287359,-0.5403156,-0.38747025,0.58939236,0.98727036,0.030650085,0.15152343,0.037395965,-0.3991343,0.047348287,-0.44183302,0.0,1.0,0.0,0.0,0.0,0.0,0.0,-0.08660734,0.011231989,-0.07853097,0.7830873,1.3747454,9.0554,-8.959842,6.3237906,-0.7846869,0.42344332
6.2888083,60.537483,15.61356,5.6375074,0.46962953,0.012532264,0.40264082,-0.05290549,-0.7470852,0.54042745,0.021224745,0.66012824,-0.06724762,0.45452568,0.18350562,-1.1993415,-2.171826,-0.9671209,2.096189,1.9099104,-0.880455,0.18930438,-1.1382476,-2.2165995,-0.96544814,2.0392613,1.9170539,-0.9228183,0.038026128,-1.3566601,0.9432693,0.32773855,0.9211957,0.03848264,0.31072924,-0.5659542,-0.41194916,0.6231054,-0.25091332,-0.07259932,-0.5521186,-0.5441189,-0.3870163,0.58478206,0.98884445,0.02405285,0.14194739,0.038196407,-0.3743167,0.046947315,-0.47085726,0.0,1.0,0.0,0.0,0.0,0.0,0.0,-0.08404577,0.011949152,-0.073105395,-5.117073,1.9627094,6.393194,-20.737982,5.0704,-1.3565228,0.7155776
3.7565806,38.476482,7.9745007,-6.0509725,-0.5513163,-0.072757065,0.80886513,-0.12101094,-0.7541116,0.53897524,-0.32775187,0.7019201,-0.25953192,0.4955245,0.17720328,-1.2136588,-2.1627018,-0.9982233,2.1094534,1.8911008,-0.87326586,0.1888915,-1.1517307,-2.2069118,-0.96516633,2.0488076,1.9171867,-0.9196454,-0.067393035,-1.3457103,0.9757947,-0.070921816,0.96682274,0.0054012304,0.32029232,-0.5683327,-0.41270828,0.6170253,-0.23453647,-0.07712773,-0.63161385,-0.5476055,-0.38661194,0.57945526,0.99039346,0.017832674,0.13119908,0.039868392,-0.3396274,0.039634172,-0.5564383,0.0,1.0,0.0,0.0,0.0,0.0,0.0,-0.081667304,0.0127082765,-0.067025304,-10.437902,1.010108,2.8054237,-39.656757,4.860139,-3.1636992,1.2091339
-17.615637,32.096226,1.5125916,-2.5250697,-0.039262734,0.12296617,0.6587724,-0.23024099,-0.7470821,0.5024498,-0.4636621,0.7359933,-0.3799149,0.53320736,0.1658674,-1.2264389,-2.1566668,-1.0115325,2.122407,1.8791952,-0.86632466,0.18701355,-1.1651183,-2.1972651,-0.96903026,2.058792,1.9169139,-0.91635114,-0.22738722,-1.3367989,0.9588303,-0.49047357,1.0102322,-0.037841756,0.33367255,-0.570652,-0.41347122,0.6100005,-0.23303062,-0.07665774,-0.7294711,-0.55088806,-0.38610077,0.5731615,0.99190056,0.012371581,0.11910642,0.04235278,-0.3242471,0.05643463,-0.65628266,0.0,1.0,0.0,0.0,0.0,0.0,0.0,-0.07934797,0.013471216,-0.06000048,-15.834135,0.81932545,-2.3304224,-41.65498,4.719317,-4.2547183,1.6903698
-31.021313,38.510845,0.17346406,7.142457,0.7108531,0.104087085,0.253976,-0.25446838,-0.73653376,0.3985819,-0.43667555,0.7420284,-0.4321491,0.57608354,0.16156672,-1.2387717,-2.157407,-1.0126978,2.132995,1.873699,-0.8587428,0.18366502,-1.1784011,-2.1883883,-0.976038,2.0691311,1.9161863,-0.91289836,-0.37006864,-1.3255149,0.86242336,-0.7696299,1.0430174,-0.084150076,0.35046387,-0.5729313,-0.41418839,0.60208064,-0.22741264,-0.07087919,-0.81522334,-0.55420303,-0.3853073,0.5659876,0.99330646,0.007866761,0.106012315,0.045184217,-0.3318973,0.08749419,-0.7391882,0.0,1.0,0.0,0.0,0.0,0.0,0.0,-0.07706869,0.014188379,-0.05208063,-14.085829,1.0955334,-10.225487,-27.548767,3.6139011,-4.6375766,2.0594478
