Afshin1997/kuka_rl_ros2/src/catch_and_throw/input_files/idealpd/recorded_trajectories/env_455_data.csv
torque0,torque1,torque2,torque3,torque4,torque5,torque6,action0,action1,action2,action3,action4,action5,action6,set_target_0,set_target_1,set_target_2,set_target_3,set_target_4,set_target_5,set_target_6,joint_pos_0,joint_pos_1,joint_pos_2,joint_pos_3,joint_pos_4,joint_pos_5,joint_pos_6,joint_vel_0,joint_vel_1,joint_vel_2,joint_vel_3,joint_vel_4,joint_vel_5,joint_vel_6,tennisball_pos_0,tennisball_pos_1,tennisball_pos_2,tennisball_lin_vel_0,tennisball_lin_vel_1,tennisball_lin_vel_2,end_effector_pos_0,end_effector_pos_1,end_effector_pos_2,end_effector_rot_0,end_effector_rot_1,end_effector_rot_2,end_effector_rot_3,end_effector_lin_vel_0,end_effector_lin_vel_1,end_effector_lin_vel_2,obs_task_0,obs_task_1,obs_task_2,obs_task_3,obs_task_4,obs_task_5,obs_task_6,to_final_target_0,to_final_target_1,to_final_target_2,joint_acc_0,joint_acc_1,joint_acc_2,joint_acc_3,joint_acc_4,joint_acc_5,joint_acc_6
0.0,0.0,0.0,0.0,0.0,0.0,0.0,0.0,0.0,0.0,0.0,0.0,0.0,0.0,1.7802359,-1.0646509,-1.8151424,-1.1170107,1.9373155,1.1170107,-0.91629785,1.7802359,-1.0646509,-1.8151424,-1.1170107,1.9373155,1.1170107,-0.91629785,0.0,0.0,0.0,0.0,0.0,0.0,0.0,3.088028,-0.5479679,0.11718242,-3.749761,0.10438614,4.9770565,0.5304184,-0.45449638,0.693097,0.5745483,0.17512383,0.15255436,0.7848268,0.0,0.0,0.0,1.0,0.0,0.0,0.0,0.0,0.0,0.0,-3.738028,0.1479679,0.43281758,0.0,0.0,0.0,0.0,0.0,0.0,0.0
0.0,0.0,0.0,0.0,0.0,0.0,0.0,0.0,0.0,0.0,0.0,0.0,0.0,0.0,1.7802359,-1.0646509,-1.8151424,-1.1170107,1.9373155,1.1170107,-0.91629785,1.7802359,-1.0646509,-1.8151424,-1.1170107,1.9373155,1.1170107,-0.91629785,0.0,0.0,0.0,0.0,0.0,0.0,0.0,3.088028,-0.5479679,0.11718242,-3.749761,0.10438614,4.9770565,0.5304184,-0.45449638,0.693097,0.5745483,0.17512383,0.15255436,0.7848268,0.0,0.0,0.0,1.0,0.0,0.0,0.0,0.0,0.0,0.0,-3.738028,0.1479679,0.43281758,0.0,0.0,0.0,0.0,0.0,0.0,0.0
0.0,0.0,0.0,0.0,0.0,0.0,0.0,0.0,0.0,0.0,0.0,0.0,0.0,0.0,1.7802359,-1.0646509,-1.8151424,-1.1170107,1.9373155,1.1170107,-0.91629785,1.7802359,-1.0646509,-1.8151424,-1.1170107,1.9373155,1.1170107,-0.91629785,0.0,0.0,0.0,0.0,0.0,0.0,0.0,3.088028,-0.5479679,0.11718242,-3.749761,0.10438614,4.9770565,0.5304184,-0.45449638,0.693097,0.5745483,0.17512383,0.15255436,0.7848268,0.0,0.0,0.0,1.0,0.0,0.0,0.0,0.0,0.0,0.0,-3.738028,0.1479679,0.43281758,0.0,0.0,0.0,0.0,0.0,0.0,0.0
-176.0,51.149315,-14.022587,110.0,11.261795,4.095189,-3.785567,-0.8208015,0.28032792,-0.59233147,0.73671687,0.31497192,0.63554066,-0.5805172,1.6981558,-1.0366181,-1.8743756,-1.043339,1.9688127,1.1805648,-0.97434956,1.7791773,-1.0627569,-1.8214614,-1.1115786,1.9429402,1.1227957,-0.9172391,-0.14088047,0.2519212,-0.8422515,0.7246393,0.74912703,0.7692915,-0.124665424,3.05056,-0.5469246,0.16617921,-3.7460122,0.104281776,4.873894,0.5282631,-0.4580536,0.6937284,0.5782445,0.17367314,0.15063237,0.78280306,-0.28708702,-0.47479266,0.083856806,1.0,0.0,0.0,0.0,0.0,0.0,0.0,-3.70056,0.14692459,0.3838208,-13.982243,24.99705,-84.118774,72.60149,74.67048,76.34791,-12.234245
-176.0,-46.549034,-51.828392,109.67881,11.871243,0.8115015,-3.299647,-0.81470835,-0.24773616,-0.5577559,0.69815844,0.42438462,0.62778956,-0.5821697,1.6977065,-1.0875305,-1.8772371,-1.0417627,1.9853787,1.1855747,-0.9754561,1.7781512,-1.0610441,-1.8367565,-1.0959822,1.9528489,1.1364067,-0.9166421,-0.09604464,0.12617828,-1.7104228,1.8370358,1.046245,1.5065877,0.10830576,3.0131264,-0.5458832,0.21414515,-3.7422671,0.10417751,4.7708354,0.5235748,-0.4671135,0.69421583,0.58635604,0.17030345,0.14638141,0.77830315,-0.529474,-1.0462649,0.042239867,1.0,0.0,0.0,0.0,0.0,0.0,0.0,-3.6631265,0.14588317,0.33585486,2.6433706,-17.990156,-72.37901,111.0033,22.144985,58.183598,19.44203
-154.96124,109.721146,28.222704,87.905426,7.4934344,7.2518396,-1.9754058,-0.7733895,0.26723996,0.035550017,0.6073238,0.43118075,0.6729243,-0.5275279,1.7008122,-1.0343201,-1.8332014,-1.0352498,1.995967,1.2036991,-0.9693949,1.7738444,-1.0590738,-1.8519428,-1.0761725,1.963347,1.1512744,-0.91586965,-0.5420512,0.21755159,-1.4483196,2.0302362,1.0458549,1.4738616,0.06537779,2.975731,-0.54484177,0.26108128,-3.7385256,0.10407335,4.6678796,0.51602936,-0.4790268,0.69616896,0.5972406,0.16548052,0.14096193,0.77204245,-0.83724654,-1.232038,0.25023735,1.0,0.0,0.0,0.0,0.0,0.0,0.0,-3.625731,0.14484176,0.28891873,-44.565834,8.205268,28.065586,19.701815,-1.5605211,-5.1461935,-4.7212377
-100.87033,99.34498,35.719353,51.821396,4.6852484,6.964452,-0.27485317,-0.7729315,0.022753617,0.14276235,0.62591356,0.4511618,0.6561296,-0.5716698,1.6965512,-1.0567985,-1.8376665,-1.0135812,2.0084631,1.2168874,-0.97303665,1.7650572,-1.0572733,-1.8616321,-1.0570246,1.9729905,1.1650245,-0.9157228,-0.9918729,0.16570875,-0.80194056,1.8770175,0.9315822,1.3389907,-0.0037300673,2.9383736,-0.54380035,0.3069886,-3.7347877,0.1039693,4.5650268,0.50592804,-0.4916458,0.6998063,0.6089838,0.1594983,0.13446344,0.7652571,-1.0808178,-1.2600834,0.40585354,1.0,0.0,0.0,0.0,0.0,0.0,0.0,-3.5883737,0.14380035,0.24301142,-45.24425,-5.7925224,66.805626,-15.167713,-13.14106,-14.448404,-7.389188
-46.09,120.53359,47.06889,27.865988,2.0089405,6.4677935,0.4666984,-0.7943845,0.14384338,0.16488425,0.62668145,0.5270419,0.6646165,-0.5602528,1.6856188,-1.0428889,-1.8451437,-0.99435645,2.0256946,1.2314862,-0.97174805,1.7525278,-1.0554823,-1.8648002,-1.0405241,1.9816175,1.1773307,-0.9162807,-1.3412235,0.1820299,-0.1491105,1.573814,0.83548164,1.1932622,-0.07520494,2.9010544,-0.54276276,0.35186818,-3.7310536,0.10386535,4.4622765,0.49398422,-0.5036373,0.7049369,0.6204181,0.15252781,0.12707902,0.7587276,-1.2452037,-1.1653779,0.5504317,1.0,0.0,0.0,0.0,0.0,0.0,0.0,-3.5510545,0.14276275,0.19813183,-35.292458,1.1714041,67.09933,-30.466484,-10.888934,-14.945221,-7.7386365
-9.465578,117.911,43.52927,13.294191,0.10461402,4.5777464,0.43638405,-0.8062099,0.23261984,0.074259005,0.6300617,0.5441849,0.65023273,-0.5662073,1.6719068,-1.0322202,-1.8573743,-0.97751796,2.036036,1.242354,-0.9729014,1.7376295,-1.0530599,-1.8633468,-1.0268694,1.9895463,1.1883075,-0.917489,-1.5404551,0.26124996,0.24731418,1.295464,0.7766413,1.0656991,-0.13766144,2.8637733,-0.54172516,0.39572102,-3.7273233,0.1037615,4.3596287,0.48101425,-0.51441,0.7111577,0.63122445,0.14493376,0.11947345,0.752513,-1.325854,-1.0349333,0.6451879,1.0,0.0,0.0,0.0,0.0,0.0,0.0,-3.5137734,0.14172515,0.154279,-20.211935,7.6067715,40.727585,-28.024696,-6.513405,-12.733316,-6.7487597
12.694675,128.95596,42.42838,8.184674,-1.386734,3.262318,-0.019053344,-0.8176759,0.41941214,-0.05920782,0.6052468,0.5400163,0.6508887,-0.55751175,1.655862,-1.0111188,-1.8692676,-0.9663447,2.0435479,1.2533964,-0.97324014,1.7216669,-1.0489649,-1.8602874,-1.0154177,1.9971089,1.1981685,-0.91923994,-1.6157665,0.45815778,0.32762396,1.094427,0.7487428,0.96009576,-0.18921815,2.8265266,-0.54068756,0.43854815,-3.7235968,0.10365776,4.257084,0.4676857,-0.5237427,0.71820927,0.6416009,0.13703564,0.11263598,0.74624574,-1.3454227,-0.8866993,0.72324955,1.0,0.0,0.0,0.0,0.0,0.0,0.0,-3.4765267,0.14068756,0.111451864,-7.8097343,19.435644,8.673901,-20.278,-3.005159,-10.369968,-5.6379976
24.696665,131.92165,41.134167,6.605025,-1.8995994,2.4563308,-0.25175995,-0.82448834,0.52625436,-0.06777536,0.5723332,0.57620615,0.6225273,-0.56124353,1.6392181,-0.99633944,-1.867065,-0.95818436,2.0547295,1.2604213,-0.97536427,1.7055403,-1.0425619,-1.8576858,-1.005385,2.0046544,1.2070911,-0.9214391,-1.6123149,0.700221,0.23919322,0.97248495,0.75635153,0.8701433,-0.23161262,2.789318,-0.5396519,0.48035058,-3.7198741,0.10355412,4.154641,0.4543991,-0.5316162,0.726,0.6517733,0.12900874,0.1071154,0.7396449,-1.3308364,-0.74134624,0.7956814,1.0,0.0,0.0,0.0,0.0,0.0,0.0,-3.4393182,0.13965186,0.06964943,0.07724762,23.999083,-8.363655,-12.362266,0.68991184,-8.817959,-4.676956
29.149597,125.8168,38.40022,6.206188,-1.9029543,1.9498415,-0.31967792,-0.82094264,0.5989499,-0.070837274,0.5442548,0.57483757,0.6318416,-0.5640369,1.623446,-0.9826669,-1.8647696,-0.95095956,2.062138,1.2702752,-0.9778428,1.6897475,-1.0338358,-1.8564079,-0.99612486,2.0123525,1.2152355,-0.92400545,-1.5691314,0.9295701,0.09196124,0.9098516,0.7741828,0.7959695,-0.26624936,2.7521477,-0.5386181,0.5211294,-3.7161548,0.10345059,4.0523014,0.4413643,-0.53813934,0.7344483,0.66185874,0.12091939,0.102999255,0.7326067,-1.3012766,-0.60916746,0.85962015,1.0,0.0,0.0,0.0,0.0,0.0,0.0,-3.4021478,0.13861808,0.028870583,4.0771246,22.7682,-14.313309,-6.4558387,1.7583609,-7.3179364,-3.8571298
28.558798,117.0421,36.238064,6.9207544,-1.4926157,1.8169467,-0.23193665,-0.81840694,0.65549594,-0.039742764,0.52150744,0.5830324,0.6403087,-0.5686903,1.6079068,-0.96828616,-1.8603822,-0.94397414,2.0706558,1.2792664,-0.9808745,1.6744429,-1.0231546,-1.8563373,-0.9872261,2.0202565,1.2227352,-0.92687315,-1.5183707,1.1137165,-0.019737909,0.88247365,0.79579663,0.7347859,-0.29480687,2.7150154,-0.5375843,0.56088555,-3.7124393,0.10334716,3.950064,0.42860794,-0.54346275,0.7435048,0.67186,0.112731464,0.10003308,0.7251821,-1.273474,-0.49254572,0.919651,1.0,0.0,0.0,0.0,0.0,0.0,0.0,-3.3650155,0.1375843,-0.010885537,4.860139,18.272114,-10.754784,-2.949357,2.1337867,-6.1184406,-3.2229722
26.355865,103.957214,33.025105,6.7257276,-0.9993785,1.6846036,-0.05069811,-0.81139165,0.6861664,-0.008369449,0.49347338,0.60368145,0.6400536,-0.56712395,1.5933037,-0.954538,-1.8571743,-0.9378788,2.0806246,1.2867405,-0.98358554,1.6595904,-1.0110983,-1.8568866,-0.9785315,2.0284085,1.2297027,-0.92998594,-1.4747069,1.2359937,-0.06534919,0.86447996,0.82136637,0.6841015,-0.31787056,2.6779175,-0.5365505,0.5996201,-3.7087276,0.103243835,3.847929,0.4160614,-0.54774666,0.75306976,0.68168515,0.104411684,0.097789675,0.71752405,-1.2511948,-0.39227313,0.9677463,1.0,0.0,0.0,0.0,0.0,0.0,0.0,-3.3279176,0.13655052,-0.049620092,4.1709185,12.113142,-4.132888,-2.0236373,2.5223732,-5.1053166,-2.654314
23.76596,90.429726,29.365585,5.769168,-0.6329282,1.5164905,0.12876087,-0.80657417,0.7051661,0.019118486,0.45751202,0.61579376,0.6519576,-0.5699038,1.578933,-0.9405817,-1.8549747,-0.93278027,2.089988,1.2948985,-0.9869763,1.6450697,-0.9982408,-1.8574474,-0.9700905,2.0368085,1.236243,-0.933299,-1.4449872,1.3020095,-0.051431086,0.8365733,0.84605175,0.6438562,-0.33687544,2.6408577,-0.53551865,0.6373341,-3.7050197,0.103140615,3.745896,0.4037056,-0.5511284,0.76298773,0.6912125,0.095962204,0.095885485,0.7098046,-1.2333335,-0.30542076,0.9987271,1.0,0.0,0.0,0.0,0.0,0.0,0.0,-3.2908578,0.13551864,-0.0873341,2.7900934,6.516385,1.8281803,-3.0235052,2.4356842,-4.038751,-2.2359073
20.165047,80.794014,26.371109,6.0314503,-0.3190075,1.3865924,0.2075807,-0.80082977,0.72378,0.038974524,0.44539997,0.6248174,0.65520644,-0.567894,1.5649867,-0.92586285,-1.85355,-0.9255505,2.0992901,1.3017637,-0.9900884,1.6307551,-0.9849962,-1.8576133,-0.9619309,2.0454297,1.2424381,-0.9367742,-1.4273386,1.3317312,-0.0035565943,0.80831474,0.8675199,0.6115681,-0.3521019,2.603836,-0.5344887,0.6740285,-3.7013156,0.10303749,3.6439652,0.3914833,-0.55373764,0.77312803,0.7003774,0.08739402,0.094062895,0.70212954,-1.2207913,-0.2312784,1.017764,1.0,0.0,0.0,0.0,0.0,0.0,0.0,-3.2538362,0.13448867,-0.124028504,1.5991211,2.9074907,5.208691,-3.0511856,2.124977,-3.2245755,-1.8413246
18.530716,72.876465,23.608913,5.1299057,-0.23621261,1.181021,0.27613986,-0.7968357,0.73284245,0.056948245,0.4096368,0.63572305,0.6598506,-0.56314176,1.5510715,-0.91171193,-1.8519185,-0.9209672,2.109002,1.3084232,-0.99308836,1.616551,-0.9716209,-1.8572147,-0.95415556,2.0542493,1.2483623,-0.9403762,-1.4187106,1.339288,0.05569374,0.76654476,0.8865815,0.5862547,-0.36391237,2.5668488,-0.5334587,0.7097044,-3.697615,0.10293447,3.5421364,0.37937927,-0.55566025,0.78335416,0.70913106,0.078752965,0.092198186,0.6945722,-1.2076,-0.16454856,1.0225446,1.0,0.0,0.0,0.0,0.0,0.0,0.0,-3.2168489,0.1334587,-0.15970439,0.7069111,0.71179867,6.3206897,-4.4062734,1.9018292,-2.47401,-1.4834464
17.271154,67.24876,21.26032,4.4480686,-0.24101484,0.9617667,0.2951486,-0.7942864,0.73901224,0.06664674,0.3768398,0.64576334,0.66126317,-0.55687875,1.5371224,-0.8977197,-1.85055,-0.9164716,2.1188257,1.3144886,-0.99606407,1.6023909,-0.9582428,-1.8562839,-0.9468781,2.0632405,1.2540729,-0.9440736,-1.4156051,1.337325,0.106771566,0.7140969,0.9036947,0.56640774,-0.3726438,2.5298996,-0.53242874,0.7443627,-3.693918,0.10283156,3.4404092,0.3674202,-0.55696106,0.7935409,0.7174546,0.070107564,0.09027597,0.6871638,-1.1918135,-0.10400984,1.0153955,1.0,0.0,0.0,0.0,0.0,0.0,0.0,-3.1798997,0.13242874,-0.1943627,0.16407967,-0.2227068,5.4624186,-5.4769635,1.7306685,-1.8781543,-1.1539936
20.628931,64.14053,19.87962,1.1544905,-0.60287964,0.6805109,0.3846556,-0.7923431,0.7504657,0.073608086,0.29096845,0.65658665,0.66165745,-0.551989,1.5231565,-0.88319623,-1.8489231,-0.91778123,2.128899,1.3202386,-0.9992725,1.5882422,-0.9448627,-1.8549583,-0.9404274,2.0723996,1.2596176,-0.94784063,-1.4152151,1.3381346,0.1422416,0.6212377,0.9197422,0.55134726,-0.37899506,2.4929886,-0.5314026,0.7780045,-3.690225,0.10272875,3.3387837,0.35572433,-0.5576229,0.8035506,0.725279,0.06157386,0.08837552,0.679977,-1.1623639,-0.039150074,0.99374145,1.0,0.0,0.0,0.0,0.0,0.0,0.0,-3.1429887,0.13140258,-0.22800452,-0.113368034,0.073218346,3.8821385,-9.537756,1.640737,-1.3041496,-0.90091825
26.694897,61.31613,18.75652,-3.6496887,-1.134264,0.31662315,0.5124589,-0.78730434,0.759,0.07412505,0.17924531,0.6674839,0.6608643,-0.5527121,1.5095117,-0.8689627,-1.8475457,-0.9225029,2.139148,1.325704,-1.0031118,1.5741087,-0.93143404,-1.8534172,-0.9352995,2.081715,1.2650421,-0.951662,-1.413236,1.3444195,0.15913609,0.47576243,0.93553525,0.5404311,-0.38394707,2.4561157,-0.53037643,0.81063086,-3.6865356,0.10262604,3.2372599,0.34447098,-0.5575733,0.8132197,0.7324978,0.05330872,0.08663313,0.6731268,-1.1119589,0.032664236,0.9552474,1.0,0.0,0.0,0.0,0.0,0.0,0.0,-3.1061158,0.13037643,-0.26063085,0.04298687,0.6448269,1.9974738,-14.821112,1.6349435,-0.76699257,-0.74251294
35.63352,58.23738,17.852556,-10.385681,-1.8458395,-0.13228786,0.7156286,-0.7817873,0.76734126,0.07518302,0.017304441,0.6777633,0.6618961,-0.53841,1.49593,-0.8546999,-1.8458989,-0.9335691,2.1494915,1.3312317,-1.005503,1.5600191,-0.9179033,-1.8518074,-0.9321686,2.0911832,1.2703807,-0.95551294,-1.4081513,1.356159,0.1625479,0.25785774,0.950936,0.53347313,-0.3863044,2.4192772,-0.5293503,0.8422427,-3.6828496,0.10252344,3.1358376,0.33393097,-0.55672455,0.8223508,0.73894805,0.045517758,0.085199304,0.666802,-1.0327902,0.114428245,0.8961511,1.0,0.0,0.0,0.0,0.0,0.0,0.0,-3.0692773,0.12935027,-0.2922427,0.35920143,1.2212515,0.6166309,-22.080261,1.6154408,-0.21893978,-0.45730472
40.461903,56.955948,17.644115,-13.616549,-2.1892037,-0.3948201,0.82923424,-0.7785328,0.77299464,0.09490467,-0.1133765,0.67717385,0.65556264,-0.53078157,1.4821658,-0.8406038,-1.8423169,-0.94350624,2.1589005,1.335937,-1.008591,1.5459925,-0.90423906,-1.8501308,-0.931481,2.1007733,1.2756622,-0.9593753,-1.4012527,1.3700109,0.17001744,0.004861178,0.96208084,0.52829146,-0.38681963,2.3824768,-0.52832603,0.8728411,-3.6791675,0.10242093,3.0345166,0.32429504,-0.5550308,0.8308308,0.7445287,0.038325537,0.0841581,0.6611546,-0.9371921,0.1985621,0.82874846,1.0,0.0,0.0,0.0,0.0,0.0,0.0,-3.032477,0.12832603,-0.3228411,0.5716562,1.4608622,0.94970167,-25.561731,1.2258649,0.02977848,-0.23178458
43.03074,57.507156,18.156775,-14.663415,-2.2918298,-0.5123437,0.8954064,-0.7733753,0.7815306,0.12342261,-0.24476442,0.68658745,0.652542,-0.52769494,1.468655,-0.826086,-1.8377886,-0.9559575,2.1694322,1.3409164,-1.0121448,1.5320498,-0.8904222,-1.8482692,-0.9334122,2.110474,1.2808998,-0.9632358,-1.3922291,1.3858857,0.19191977,-0.2598323,0.9732414,0.5242428,-0.38623843,2.3457108,-0.5273037,0.9024271,-3.6754892,0.10231853,2.933297,0.31567,-0.5524826,0.83864105,0.7492001,0.03176621,0.083511524,0.6562894,-0.83382684,0.28225458,0.7615342,1.0,0.0,0.0,0.0,0.0,0.0,0.0,-2.9957108,0.12730369,-0.35242707,0.82752705,1.6893864,2.2940576,-26.679983,1.2796402,0.16452074,-0.073730946
42.658424,58.94316,19.031946,-12.991119,-2.1158426,-0.48927644,0.88177407,-0.7617286,0.7859665,0.1629963,-0.34418806,0.68617517,0.64528453,-0.5198916,1.455877,-0.8118256,-1.8319696,-0.967831,2.1790917,1.3454282,-1.0152249,1.5182387,-0.8764595,-1.8460262,-0.9378115,2.1202664,1.2860973,-0.96708196,-1.3776361,1.4000971,0.2349395,-0.5005711,0.9815936,0.52008015,-0.38440713,2.3089828,-0.52628136,0.93100154,-3.6718144,0.10221624,2.8321784,0.30805588,-0.54912376,0.84584945,0.7529887,0.025776662,0.083192974,0.6522441,-0.7330513,0.36110994,0.70322573,1.0,0.0,0.0,0.0,0.0,0.0,0.0,-2.958983,0.12628135,-0.38100153,1.433444,1.5470028,4.2777987,-24.227905,1.0763407,0.13219118,0.094008446
41.943768,60.613235,20.06566,-10.86605,-1.9024985,-0.42096713,0.85358405,-0.74496734,0.79030305,0.20852305,-0.4402201,0.68424976,0.65036696,-0.5114042,1.4437419,-0.7974292,-1.8251739,-0.9818335,2.1886914,1.351134,-1.0182223,1.5046316,-0.8623737,-1.8431957,-0.94437945,2.130116,1.2912605,-0.9709024,-1.3550497,1.4119041,0.29862052,-0.70918787,0.9869365,0.5168681,-0.38152522,2.272293,-0.525259,0.9585656,-3.6681433,0.10211404,2.7311609,0.30140305,-0.5450001,0.85255617,0.7559437,0.020248812,0.083117634,0.64902276,-0.63714933,0.43587926,0.65539294,1.0,0.0,0.0,0.0,0.0,0.0,0.0,-2.9222932,0.12525901,-0.40856558,2.2779226,1.3293028,6.212425,-20.968426,0.86153746,0.20831823,0.23334622
40.367317,64.75232,22.201775,-6.943004,-1.5282307,-0.18796167,0.8001258,-0.7185996,0.7942682,0.2816284,-0.48892757,0.68145555,0.64900106,-0.48459983,1.4327717,-0.7829469,-1.8150328,-0.9932722,2.1982615,1.3561606,-1.0193623,1.4913412,-0.8481878,-1.8394916,-0.9526125,2.139996,1.2963932,-0.9746761,-1.3202037,1.4213178,0.39317638,-0.8614742,0.989757,0.51384425,-0.37608632,2.2356377,-0.5242386,0.9851203,-3.664476,0.10201194,2.6302445,0.29561996,-0.54013634,0.8589369,0.758128,0.014986186,0.08315239,0.6466088,-0.55271363,0.50797135,0.6272914,1.0,0.0,0.0,0.0,0.0,0.0,0.0,-2.8856378,0.12423858,-0.43512028,3.5422087,1.1135578,9.153986,-15.297567,0.72557926,0.20216703,0.5076468
34.173805,66.02182,22.73726,-1.7578888,-1.0078022,0.036429122,0.6768047,-0.7121477,0.7957226,0.34397715,-0.5254451,0.6836515,0.6397495,-0.47051695,1.4201264,-0.76861554,-1.8050939,-1.005157,2.2083611,1.3603681,-1.0217278,1.478377,-0.83393323,-1.834708,-0.961969,2.1499028,1.3014915,-0.9783878,-1.2884116,1.4274383,0.50534874,-0.9605376,0.9925068,0.50986224,-0.36958098,2.1990204,-0.52322006,1.0106665,-3.6608124,0.10190995,2.5294292,0.29053497,-0.53460884,0.8651562,0.75964856,0.009807837,0.08317054,0.64491904,-0.48710778,0.5715867,0.61460483,1.0,0.0,0.0,0.0,0.0,0.0,0.0,-2.8490205,0.12322006,-0.46066648,3.2422304,0.7945061,10.837507,-9.961737,0.7845402,0.05428791,0.6261587
30.548151,66.801315,23.223516,1.5194893,-0.6994072,0.1748408,0.6069492,-0.69536096,0.79794776,0.41215715,-0.56219333,0.6838418,0.6300338,-0.4473801,1.4088409,-0.75413847,-1.7934923,-1.0181884,2.218287,1.3644949,-1.0231258,1.4657274,-0.8196329,-1.8287151,-0.97205126,2.1598325,1.3065441,-0.9820222,-1.2571318,1.4315324,0.629003,-1.0241685,0.9949192,0.5050865,-0.36141974,2.1624374,-0.52220154,1.0352054,-3.6571522,0.10180806,2.4287145,0.28604126,-0.5284786,0.8713265,0.7605855,0.0045895814,0.08309133,0.6438822,-0.43296063,0.63094276,0.61194086,1.0,0.0,0.0,0.0,0.0,0.0,0.0,-2.8124375,0.12220153,-0.48520535,3.1985998,0.60043335,11.931276,-6.406915,0.7957101,-0.050246716,0.79963803
24.29825,64.99645,22.228075,5.108391,-0.35290504,0.24990164,0.48392904,-0.6928094,0.80017376,0.46211168,-0.578696,0.68821174,0.6247805,-0.43220726,1.3964465,-0.7396155,-1.782504,-1.0299208,2.2286537,1.3690221,-1.0252429,1.4533144,-0.80529916,-1.8215358,-0.9825512,2.1697927,1.3115451,-0.98557085,-1.2358351,1.434613,0.7461461,-1.0588547,0.9982561,0.49979657,-0.3526291,2.1258926,-0.521183,1.0587379,-3.6534958,0.101706274,2.3281004,0.28195953,-0.52182007,0.8775066,0.76104003,-0.00073002843,0.08288505,0.6433875,-0.39287585,0.6812792,0.6138086,1.0,0.0,0.0,0.0,0.0,0.0,0.0,-2.7758927,0.12118301,-0.50873786,2.1839619,0.49865246,11.2865925,-3.5190582,0.8814931,-0.14847517,0.86782575
22.26118,64.554214,21.996284,7.0304275,-0.23065218,0.24828939,0.40443772,-0.665821,0.80636126,0.5059209,-0.57435,0.68686724,0.6164808,-0.400276,1.3867323,-0.724663,-1.7709438,-1.0399863,2.2384794,1.3731933,-1.0255984,1.4411589,-0.7909168,-1.8132961,-0.99318755,2.1797757,1.3164909,-0.9890155,-1.2086291,1.440021,0.84821147,-1.06542,1.0003642,0.49415788,-0.3417591,2.089386,-0.5201683,1.081265,-3.6498432,0.10160459,2.227587,0.2782402,-0.5146866,0.88373846,0.76108736,-0.006195013,0.08256765,0.6433429,-0.35771954,0.727629,0.6196917,1.0,0.0,0.0,0.0,0.0,0.0,0.0,-2.739386,0.1201683,-0.53126496,2.780366,0.73730946,9.766555,-0.70683956,0.7543564,-0.19904971,1.078254
16.399052,59.9188,19.638756,9.43276,0.008391917,0.17384773,0.2710355,-0.6660968,0.8068785,0.5256883,-0.5671745,0.68847543,0.6158899,-0.37004346,1.3745492,-0.7102289,-1.7607273,-1.049905,2.2486234,1.3780799,-1.0260198,1.4292094,-0.7764877,-1.8042533,-1.0037485,2.1897779,1.3213832,-0.9923381,-1.1901668,1.4445215,0.9216678,-1.0531489,1.0016913,0.48870233,-0.3291325,2.0529137,-0.5191536,1.1027876,-3.646194,0.10150301,2.1271741,0.2748108,-0.50717735,0.8900066,0.76083297,-0.011785864,0.08218526,0.6436146,-0.33230764,0.7620991,0.62241125,1.0,0.0,0.0,0.0,0.0,0.0,0.0,-2.7029138,0.11915359,-0.5527876,1.8767118,0.6400585,6.962526,1.1498213,0.6198287,-0.2281487,1.2522817
9.174122,53.751938,16.484804,12.135023,0.30494213,0.08574881,0.10834662,-0.67366546,0.80595344,0.53159654,-0.54678947,0.6862333,0.6208055,-0.34713227,1.3618428,-0.69589233,-1.7510936,-1.0584275,2.2584012,1.3834637,-1.0270513,1.4173399,-0.76203096,-1.7947223,-1.0140578,2.19978,1.3262279,-0.9955291,-1.1859404,1.4466381,0.9625438,-1.0238119,1.0008062,0.48392057,-0.31577888,2.0164795,-0.5181389,1.123307,-3.6425486,0.10140152,2.0268617,0.27152634,-0.49943542,0.8962673,0.7604142,-0.017453909,0.08179697,0.64403015,-0.3187292,0.781601,0.62023497,1.0,0.0,0.0,0.0,0.0,0.0,0.0,-2.6664796,0.11813888,-0.573307,0.4037857,0.39114952,3.789413,2.8116226,0.33142567,-0.21961331,1.3174832
2.2341685,48.264633,13.59244,14.826045,0.60420424,0.028329149,-0.037195466,-0.68860877,0.8074088,0.53058743,-0.520287,0.6858347,0.6201613,-0.2981093,1.348479,-0.6812901,-1.7416636,-1.0660864,2.2683635,1.388244,-1.0253401,1.4053847,-0.7475599,-1.7849948,-1.0239722,2.209763,1.3310268,-0.99856275,-1.1988332,1.447938,0.97551334,-0.98099464,0.9986603,0.47925782,-0.299289,1.9800797,-0.5171242,1.142824,-3.6389067,0.10130014,1.9266492,0.26830292,-0.49160385,0.9024788,0.7599666,-0.02314694,0.081460826,0.6444215,-0.31699166,0.787471,0.6145197,1.0,0.0,0.0,0.0,0.0,0.0,0.0,-2.6300797,0.11712417,-0.59282404,-1.3651371,0.30038357,1.0818958,4.115045,0.14845133,-0.2639413,1.6269386
-2.7860203,42.01539,10.591487,15.836024,0.7833117,-0.100247085,-0.1373464,-0.7123354,0.8041857,0.5207432,-0.51494247,0.6915397,0.6237475,-0.30004817,1.3341511,-0.6671413,-1.7329205,-1.0754664,2.278917,1.3934015,-1.0285676,1.3931662,-0.7330984,-1.7753055,-1.0334994,2.2197385,1.3357856,-1.0014476,-1.2298545,1.4461015,0.9661368,-0.9440159,0.9981789,0.4751879,-0.28486258,1.943718,-0.5161133,1.1613396,-3.6352684,0.10119887,1.826537,0.26504517,-0.4838028,0.9085734,0.75959444,-0.028782941,0.08121898,0.6446636,-0.32155848,0.781456,0.6005512,1.0,0.0,0.0,0.0,0.0,0.0,0.0,-2.593718,0.116113275,-0.6113396,-3.22752,-0.028586388,-1.0632277,3.4947515,0.25256872,-0.24793744,1.417768
-1.0233707,39.93359,10.034453,14.166841,0.6322167,-0.24975994,-0.09503952,-0.7159936,0.80287564,0.52563244,-0.52057016,0.68822974,0.61999863,-0.28017032,1.3215668,-0.6528108,-1.7227423,-1.0855564,2.2885613,1.3977855,-1.0294646,1.3806444,-0.7186655,-1.7657382,-1.0427862,2.2297025,1.3405063,-1.0041884,-1.2600965,1.4428554,0.9531912,-0.9243115,0.9966497,0.47142217,-0.27063373,1.9073944,-0.5151024,1.178855,-3.631634,0.10109769,1.7265248,0.2617874,-0.47605324,0.914482,0.75929767,-0.034285348,0.081106156,0.6447582,-0.31913164,0.77572787,0.58038026,1.0,0.0,0.0,0.0,0.0,0.0,0.0,-2.5573945,0.11510238,-0.62885493,-3.1434298,-0.1784563,-1.395464,1.7737031,0.121343136,-0.21395683,1.3985217
-1.6890659,38.80835,9.828146,15.316633,0.738845,-0.24297231,-0.11312355,-0.72450936,0.79836124,0.5213426,-0.4708968,0.6756551,0.62602603,-0.19391432,1.3081934,-0.63882935,-1.713604,-1.0898759,2.297268,1.403109,-1.0235798,1.36785,-0.7042831,-1.7563121,-1.051747,2.239613,1.3451965,-1.0067385,-1.2864919,1.4371241,0.93890744,-0.887225,0.99034256,0.46867812,-0.24995519,1.8711052,-0.5140915,1.1953708,-3.6280031,0.10099661,1.6266127,0.25854492,-0.46837997,0.92021585,0.75907934,-0.03967595,0.08112352,0.6447039,-0.31971228,0.76754224,0.56393063,1.0,0.0,0.0,0.0,0.0,0.0,0.0,-2.5211053,0.114091486,-0.6453708,-2.7630806,-0.426507,-1.5290737,3.500843,-0.35338402,-0.12645125,2.0335765
-2.1103468,37.551117,9.50115,15.733141,0.79730266,-0.26149482,-0.1215877,-0.74391586,0.79556495,0.51365495,-0.45388767,0.6807857,0.63432825,-0.16910006,1.2934583,-0.62472665,-1.7049466,-1.0971358,2.3076916,1.4086293,-1.0236485,1.3547789,-0.6899637,-1.747031,-1.0603205,2.2494817,1.3498695,-1.0090789,-1.3144858,1.4306085,0.9242586,-0.84795815,0.98634166,0.46718505,-0.22882903,1.8348503,-0.5130825,1.2108883,-3.6243758,0.100895636,1.5268004,0.2552719,-0.46080208,0.92579,0.7589503,-0.044976175,0.08125105,0.644492,-0.3216298,0.75774527,0.54814345,1.0,0.0,0.0,0.0,0.0,0.0,0.0,-2.4848504,0.1130825,-0.66088825,-2.9313564,-0.5085707,-1.5493512,3.7151694,-0.13022423,-0.012975931,2.0755768
-1.7840643,36.43194,9.146605,15.562047,0.7697115,-0.3294956,-0.12447375,-0.7579976,0.79441607,0.49661604,-0.4387639,0.67530525,0.62890667,-0.13600586,1.2789792,-0.6105221,-1.6973693,-1.1041969,2.3170123,1.4127601,-1.0226794,1.3414332,-0.67570245,-1.7379386,-1.0685145,2.2593045,1.3545253,-1.0112036,-1.3417552,1.425102,0.90406305,-0.8106468,0.9815276,0.46551558,-0.20705926,1.7986336,-0.5120754,1.2254083,-3.6207523,0.10079476,1.4270879,0.2519951,-0.45332527,0.931199,0.7589169,-0.05017536,0.08150074,0.6441158,-0.32167262,0.74715054,0.53134817,1.0,0.0,0.0,0.0,0.0,0.0,0.0,-2.4486337,0.11207542,-0.6754083,-2.861023,-0.41172504,-2.0882726,3.520584,-0.22399426,-0.037038326,2.1393538
-0.4602394,36.17825,9.257402,14.978152,0.6956038,-0.39112985,-0.10024768,-0.7679678,0.79390574,0.48476058,-0.42467207,0.6754638,0.63764286,-0.09684597,1.2646364,-0.59631187,-1.6894625,-1.1109817,2.326851,1.4182897,-1.0208882,1.3278395,-0.66148317,-1.7290657,-1.0763708,2.2690854,1.3591735,-1.0131015,-1.365511,1.4214499,0.88160336,-0.77799577,0.97787607,0.46497077,-0.18429327,1.762455,-0.51106834,1.238932,-3.6171322,0.100693986,1.3274751,0.24874496,-0.44594574,0.936433,0.75896466,-0.055262256,0.081885695,0.6435942,-0.31807888,0.73791844,0.5138558,1.0,0.0,0.0,0.0,0.0,0.0,0.0,-2.412455,0.11106834,-0.688932,-2.5031328,-0.22904873,-2.308035,3.0631304,-0.116086006,0.076156855,2.2396894
3.2449837,35.644703,9.594242,12.181802,0.4318701,-0.54368025,0.017250283,-0.7754246,0.78690535,0.4880583,-0.44779518,0.66869587,0.6373844,-0.050202925,1.2502971,-0.58279264,-1.6802598,-1.1211504,2.335955,1.422912,-1.0181217,1.3140475,-0.6473173,-1.720351,-1.084107,2.2788205,1.3638198,-1.0147609,-1.3840206,1.4153956,0.8678308,-0.7728475,0.97266483,0.46488768,-0.15985861,1.7263107,-0.51006126,1.2514603,-3.6135159,0.10059331,1.2279619,0.24560928,-0.43862152,0.9414413,0.7590158,-0.060184263,0.082419336,0.64302397,-0.30300146,0.7331992,0.489569,1.0,0.0,0.0,0.0,0.0,0.0,0.0,-2.3763108,0.11006126,-0.7014603,-1.9491911,-0.4753828,-1.4381409,0.33640862,-0.28625727,0.14671683,2.4080129
5.0886164,35.739025,10.159089,11.336555,0.35173506,-0.57849455,0.095537886,-0.7833734,0.7812792,0.4947011,-0.44126967,0.6646615,0.64351994,0.032366134,1.2357101,-0.56918937,-1.6708809,-1.128234,2.3452866,1.4281719,-1.0115242,1.300099,-0.6332277,-1.7116859,-1.091849,2.2885022,1.36847,-1.016138,-1.3986628,1.4072918,0.8657996,-0.7752999,0.96707475,0.46561924,-0.1303607,1.6902008,-0.5090561,1.2629943,-3.609903,0.10049274,1.1285481,0.24266434,-0.4313202,0.9462045,0.7589941,-0.064924814,0.08309125,0.64250165,-0.2838933,0.7314587,0.4649671,1.0,0.0,0.0,0.0,0.0,0.0,0.0,-2.340201,0.109056085,-0.7129943,-1.5468359,-0.6803751,-0.2731204,-0.4099846,-0.31878948,0.23702383,2.913463
5.6455355,33.82382,9.382291,10.209288,0.2734748,-0.7140156,0.11431077,-0.7949274,0.77894044,0.47382644,-0.45770788,0.66718006,0.6458602,0.06265821,1.2206063,-0.5553337,-1.6643033,-1.1376197,2.3552203,1.433056,-1.0098721,1.2860037,-0.61921537,-1.7030971,-1.0997244,2.298142,1.3731296,-1.0172213,-1.4135277,1.3995475,0.85643744,-0.792181,0.9635304,0.46662465,-0.101143464,1.654129,-0.5080528,1.2735348,-3.606294,0.10039227,1.0292338,0.23993301,-0.42404747,0.9506803,0.75887734,-0.069431454,0.08391728,0.64206094,-0.26022837,0.72762465,0.4349399,1.0,0.0,0.0,0.0,0.0,0.0,0.0,-2.3041291,0.10805282,-0.72353476,-1.5636444,-0.64907074,-0.98894835,-1.8478036,-0.13911724,0.26515126,2.8898284
6.221963,34.789154,10.340621,11.33482,0.33868355,-0.6410651,0.15990467,-0.7908306,0.77197355,0.49006632,-0.42900077,0.64880145,0.6456513,0.22378725,1.2069206,-0.542018,-1.6540905,-1.1426245,2.363022,1.4376948,-0.9948426,1.2718207,-0.6052927,-1.694514,-1.1076323,2.3077016,1.3777988,-1.0179232,-1.4202563,1.390189,0.8586593,-0.79088336,0.9544354,0.46753833,-0.059851576,1.6180954,-0.50704956,1.283083,-3.6026883,0.10029189,0.9300188,0.23743057,-0.41679192,0.95490974,0.7586283,-0.07375414,0.08488185,0.6417463,-0.23862803,0.7263897,0.4121133,1.0,0.0,0.0,0.0,0.0,0.0,0.0,-2.2680955,0.107049555,-0.73308295,-0.7398844,-0.80337524,0.13900995,-0.026321411,-0.66410303,0.253433,4.0906034
5.837579,33.07633,9.951188,11.851055,0.3991481,-0.6545626,0.16831008,-0.7931303,0.76014584,0.48853996,-0.42382613,0.6291303,0.6571544,0.3148897,1.1925076,-0.5292781,-1.64566,-1.1500149,2.3706145,1.4435142,-0.9864343,1.2575976,-0.5914997,-1.6858966,-1.1154677,2.31712,1.3824852,-1.018175,-1.423218,1.3761407,0.86252093,-0.78171813,0.93866986,0.46941546,-0.013646607,1.5820961,-0.5060463,1.2916398,-3.5990863,0.10019162,0.83090293,0.23513412,-0.40956116,0.9589193,0.75822854,-0.07793604,0.085974224,0.6415791,-0.21837938,0.7233777,0.39044967,1.0,0.0,0.0,0.0,0.0,0.0,0.0,-2.2320962,0.10604629,-0.7416398,-0.3569603,-1.2723684,0.29515028,0.7564306,-1.329267,0.34395456,4.5758886
2.9843469,31.105505,9.192953,14.676819,0.64732623,-0.5669733,0.078341514,-0.7965002,0.75108796,0.47817877,-0.37551942,0.5987879,0.66418004,0.39862755,1.1779475,-0.5163909,-1.6380788,-1.1530197,2.376999,1.4489032,-0.97831225,1.2433497,-0.57786596,-1.6772869,-1.1229788,2.3263097,1.3871925,-1.0179423,-1.4254353,1.3595945,0.86011577,-0.7414564,0.9131253,0.47159636,0.03547443,1.5461311,-0.50504494,1.2992063,-3.595488,0.10009145,0.7318862,0.23296356,-0.40238953,0.96276736,0.7577278,-0.082055405,0.08719378,0.64149255,-0.2077284,0.7158549,0.37625194,1.0,0.0,0.0,0.0,0.0,0.0,0.0,-2.1961312,0.10504493,-0.74920624,-0.30457973,-1.519537,-0.3306985,3.8431406,-2.2962213,0.3473699,4.85834
2.1089807,27.40967,7.47649,14.363232,0.6575831,-0.71310884,0.037007466,-0.79344016,0.73962283,0.44787893,-0.3750346,0.57347274,0.66296494,0.4457162,1.1640056,-0.5039037,-1.632499,-1.1604823,2.383657,1.453489,-0.9733707,1.2291056,-0.5644182,-1.6688526,-1.1301028,2.335194,1.3919189,-1.0172309,-1.4242567,1.3403503,0.83771265,-0.7035024,0.8810872,0.4733472,0.08295721,1.5102043,-0.5040455,1.3057833,-3.5918932,0.09999138,0.6329684,0.23091507,-0.39534187,0.96643734,0.757178,-0.086092874,0.08858203,0.6414224,-0.19551861,0.7019861,0.35731727,1.0,0.0,0.0,0.0,0.0,0.0,0.0,-2.1602044,0.10404548,-0.75578326,0.04310608,-1.7964602,-2.3165703,3.6050916,-2.9782414,0.29742718,4.691454
3.374012,26.159655,7.0343084,12.567575,0.50292075,-0.8548262,0.079131946,-0.7942456,0.730821,0.44322056,-0.39464247,0.55695784,0.6611097,0.47869176,1.1496811,-0.4913361,-1.6245306,-1.169567,2.39089,1.4580299,-0.96936166,1.2148768,-0.5511621,-1.6606605,-1.1370245,2.3437543,1.3966587,-1.0160693,-1.4225382,1.3211025,0.8127975,-0.68898696,0.84857976,0.47468507,0.12699057,1.4743118,-0.50304604,1.3113718,-3.5883021,0.09989141,0.5341496,0.22904205,-0.38842964,0.9698667,0.75656927,-0.08996785,0.09017797,0.64138657,-0.17627212,0.6880619,0.33177906,1.0,0.0,0.0,0.0,0.0,0.0,0.0,-2.124312,0.10304603,-0.7613718,0.114536285,-1.8043756,-2.5548577,1.2778997,-3.0533314,0.26246905,4.351118
4.0191746,23.354523,5.6695213,10.180388,0.36352712,-1.0715249,0.104338855,-0.7992095,0.7198753,0.41690174,-0.42629635,0.54867625,0.661449,0.48054522,1.1349559,-0.47917458,-1.6189703,-1.1796541,2.398622,1.4628036,-0.9680148,1.2006422,-0.53810155,-1.6527946,-1.1440512,2.3520284,1.4014099,-1.0145167,-1.4238917,1.3014133,0.777836,-0.7076782,0.82085055,0.4758234,0.16454996,1.4384537,-0.5020466,1.3159728,-3.5847144,0.099791534,0.4354296,0.2274208,-0.38168716,0.9729565,0.75589466,-0.09354494,0.09201278,0.64140946,-0.14928105,0.66989267,0.29519185,1.0,0.0,0.0,0.0,0.0,0.0,0.0,-2.0884538,0.10204658,-0.7659728,-0.17635822,-1.8593311,-3.533733,-2.029848,-2.6219249,0.24524927,3.7096171
1.3029327,20.552086,3.9250782,11.621053,0.5087298,-1.117332,-0.023017857,-0.80345803,0.7161463,0.36345664,-0.39782986,0.51683646,0.6655525,0.48733342,1.1202965,-0.46648693,-1.6164489,-1.1838342,2.403712,1.4679651,-0.96578336,1.1863695,-0.525205,-1.6454628,-1.1511828,2.3599935,1.4061725,-1.0126303,-1.4286724,1.2860631,0.71823674,-0.7158241,0.78924733,0.47688645,0.19645104,1.4026337,-0.50105095,1.3195873,-3.5811305,0.09969176,0.33680832,0.22603226,-0.3751793,0.97568554,0.75524324,-0.09678037,0.09413493,0.64138895,-0.1272808,0.6443683,0.25938034,1.0,0.0,0.0,0.0,0.0,0.0,0.0,-2.0526338,0.10105094,-0.76958734,-0.543046,-1.4292002,-5.969155,-0.99235773,-3.0318856,0.20673871,3.142178
1.2507653,17.380938,2.4261942,10.291069,0.47508156,-1.2917547,-0.022449914,-0.79884565,0.7010571,0.322766,-0.4300464,0.49635127,0.6676691,0.5155737,1.106485,-0.4550993,-1.6131861,-1.1941874,2.4096286,1.4729394,-0.961073,1.172072,-0.51248205,-1.6388328,-1.1585203,2.367642,1.4109466,-1.0104445,-1.4300987,1.2680484,0.644651,-0.74037683,0.75712633,0.4779522,0.22566605,1.366848,-0.5000553,1.3222164,-3.57755,0.09959209,0.23828563,0.22489929,-0.36897087,0.97800076,0.7546567,-0.09959483,0.09657164,0.6412862,-0.101139285,0.6128347,0.21645533,1.0,0.0,0.0,0.0,0.0,0.0,0.0,-2.016848,0.10005531,-0.7722164,-0.18062592,-1.7030001,-7.3654294,-2.627349,-3.1184316,0.20097494,2.8704076
1.8538694,13.7437105,0.7197892,7.488859,0.3379943,-1.5382807,0.018072115,-0.8011619,0.6844289,0.2782157,-0.49398246,0.4730484,0.66387945,0.51567453,1.0919559,-0.44403917,-1.6110113,-1.2079186,2.4149468,1.4773345,-0.9588771,1.1577631,-0.4999746,-1.6330059,-1.1663748,2.3749623,1.4157264,-1.0080031,-1.4311901,1.2452712,0.5619403,-0.8010289,0.7238504,0.4784528,0.25019783,1.3311005,-0.49905968,1.323861,-3.5739732,0.09949252,0.13986145,0.22409058,-0.36312103,0.9797893,0.7541304,-0.1018383,0.09935177,0.6411283,-0.06669805,0.5749924,0.1607634,1.0,0.0,0.0,0.0,0.0,0.0,0.0,-1.9811004,0.09905967,-0.773861,-0.10266304,-2.1900654,-8.275854,-6.2183857,-3.283763,0.14035702,2.4005175
-0.036540985,9.923469,-1.5916948,7.3841515,0.4596268,-1.7008381,-0.06558357,-0.7989822,0.67964214,0.18758217,-0.51364034,0.46946335,0.6637312,0.5120346,1.0778649,-0.43201038,-1.6142477,-1.2177389,2.4219086,1.4820995,-0.9567996,1.1434618,-0.4876722,-1.628247,-1.174874,2.3820043,1.42051,-1.00535,-1.4298586,1.225495,0.44726524,-0.86677915,0.69755864,0.4784536,0.2701137,1.2953873,-0.49806404,1.3245221,-3.5703998,0.09939305,0.04153567,0.22362518,-0.35772705,0.9809832,0.75373125,-0.103393845,0.10249214,0.64085424,-0.033558022,0.5261599,0.10029871,1.0,0.0,0.0,0.0,0.0,0.0,0.0,-1.9453872,0.098064035,-0.7745221,0.15859604,-1.8978596,-11.461431,-6.730616,-2.6312947,0.05582571,1.9339383
-2.85631,5.0893993,-4.428202,7.7685757,0.6330931,-1.8404633,-0.17394711,-0.7987477,0.6692291,0.08780294,-0.5438294,0.4456305,0.6678988,0.5158749,1.0635871,-0.4207493,-1.6194668,-1.2292569,2.4265673,1.4872999,-0.95376253,1.1291777,-0.47556007,-1.624892,-1.1840369,2.3887792,1.4252937,-1.0025214,-1.4277632,1.2066399,0.2984613,-0.93336535,0.6704292,0.47835666,0.28670937,1.2597122,-0.49707222,1.3242007,-3.5668302,0.09929368,-0.056691807,0.22345734,-0.3529129,0.9815376,0.75356823,-0.10417226,0.106017776,0.6403462,-0.00440728,0.46473628,0.035494775,1.0,0.0,0.0,0.0,0.0,0.0,0.0,-1.9097122,0.097072214,-0.77420074,0.2562523,-1.8167019,-14.862341,-6.820357,-2.7654648,0.00020861626,1.5893042
-4.968823,0.044605732,-7.152005,7.0364413,0.7258481,-2.0009723,-0.23027693,-0.80136025,0.651855,-0.006954159,-0.6056991,0.41472635,0.66524017,0.50463843,1.0490416,-0.41037458,-1.6255875,-1.2446067,2.4302518,1.4918177,-0.95205754,1.1149031,-0.4636649,-1.6231868,-1.1939856,2.3952413,1.4300716,-0.9995593,-1.4270875,1.1839631,0.12779878,-1.0159369,0.6381807,0.47751674,0.29908663,1.2240715,-0.4960804,1.3228978,-3.563264,0.09919441,-0.15482107,0.2235794,-0.34879112,0.98138094,0.75372016,-0.10406148,0.109958045,0.6395203,0.023339992,0.39193285,-0.037427858,1.0,0.0,0.0,0.0,0.0,0.0,0.0,-1.8740715,0.09608039,-0.7728978,0.16195774,-2.212286,-17.051285,-8.407116,-3.3344746,-0.11912584,1.1531472
-8.248152,-4.0192237,-9.312511,8.639517,0.9836297,-1.9838746,-0.33927384,-0.805413,0.6368431,-0.10972806,-0.6292558,0.37693495,0.66967005,0.47911018,1.0343618,-0.39998057,-1.6341597,-1.2569112,2.4329348,1.4970386,-0.95164824,1.1006132,-0.45201766,-1.6233032,-1.2046953,2.4013257,1.4348419,-0.99651134,-1.4293457,1.1584134,-0.05790118,-1.09,0.5979592,0.4765436,0.30623984,1.1884651,-0.49508858,1.3206143,-3.5597014,0.09909523,-0.25285223,0.22391891,-0.3454609,0.9804991,0.75427705,-0.10302895,0.11431308,0.6382661,0.04136388,0.3102289,-0.10948386,1.0,0.0,0.0,0.0,0.0,0.0,0.0,-1.8384651,0.09508857,-0.7706143,-0.111961365,-2.5138855,-18.549992,-7.55651,-4.1668534,-0.19321442,0.6073773
-10.415466,-5.173436,-10.027613,10.657198,1.1315773,-1.8722603,-0.4241491,-0.8068567,0.62744796,-0.21058904,-0.65027255,0.31067464,0.66784376,0.46978846,1.0199276,-0.38927287,-1.6443621,-1.2697226,2.432393,1.5016263,-0.9495325,1.086291,-0.44061363,-1.6253135,-1.2160403,2.406876,1.4395988,-0.99341476,-1.4327567,1.1344686,-0.24885117,-1.149664,0.5398733,0.4749764,0.3103647,1.1528969,-0.49409676,1.3173512,-3.5561423,0.09899616,-0.35078537,0.2243805,-0.34295082,0.97893065,0.75530624,-0.10111823,0.11911464,0.636474,0.050927658,0.22733352,-0.17661835,1.0,0.0,0.0,0.0,0.0,0.0,0.0,-1.8028969,0.09409675,-0.7673512,-0.2193451,-2.364421,-19.072098,-6.11372,-5.967152,-0.30495524,0.27860403
-10.261486,-3.5030358,-8.7813835,11.897303,1.0904559,-1.6767128,-0.40391204,-0.8080246,0.61094135,-0.27375367,-0.6833552,0.21534131,0.668554,0.46853286,1.0054885,-0.3795195,-1.6526889,-1.2843758,2.4284103,1.5064542,-0.94656146,1.0719343,-0.42946184,-1.6290538,-1.2279345,2.4116406,1.4443405,-0.99028766,-1.4363248,1.1088458,-0.41566092,-1.203203,0.4544561,0.4734085,0.31299022,1.117363,-0.49310875,1.3131095,-3.552587,0.09889718,-0.4486206,0.22492218,-0.3412056,0.9767296,0.7567884,-0.098420575,0.124409,0.6341192,0.05684476,0.15293919,-0.23831016,1.0,0.0,0.0,0.0,0.0,0.0,0.0,-1.767363,0.09310874,-0.7631095,-0.23162365,-2.53551,-16.673035,-5.4847,-8.680034,-0.325948,0.10717511
-9.578865,-1.8051519,-7.0791154,13.170504,0.8347393,-1.4237158,-0.36989272,-0.8057099,0.58054197,-0.3191089,-0.6990542,-0.01108614,0.66557443,0.46657702,0.99136335,-0.37140763,-1.6609647,-1.2978399,2.410532,1.5108979,-0.94363,1.0575606,-0.41864526,-1.6341789,-1.2402693,2.4149823,1.4490669,-0.98714244,-1.4373517,1.0727131,-0.5448045,-1.2441485,0.29391107,0.47190082,0.31431597,1.0818634,-0.49212074,1.3078902,-3.549035,0.098798305,-0.546358,0.22553253,-0.3400879,0.9739495,0.75864923,-0.09509167,0.13037425,0.6311984,0.0627479,0.0932644,-0.29468325,1.0,0.0,0.0,0.0,0.0,0.0,0.0,-1.7318634,0.09212074,-0.75789016,0.018143654,-3.5881042,-12.935347,-4.2078733,-16.146683,-0.30559897,-0.06916523
-11.984512,-6.020845,-8.164512,15.3544855,0.74310124,-1.2044675,-0.41633892,-0.8053671,0.5238807,-0.3782341,-0.68743265,-0.3293285,0.6774668,0.4613429,0.97702384,-0.3662572,-1.6720023,-1.3090125,2.3820496,1.5168135,-0.94100815,1.0431868,-0.40838993,-1.6404197,-1.2528158,2.4159322,1.4537895,-0.9839953,-1.4368644,1.0098026,-0.6506614,-1.2584453,0.02839416,0.47202653,0.31389424,1.046402,-0.49113274,1.3016943,-3.545487,0.098699525,-0.6439977,0.22616959,-0.33953094,0.9706263,0.7608504,-0.09130977,0.13728783,0.6276313,0.06255587,0.038726084,-0.34804574,1.0,0.0,0.0,0.0,0.0,0.0,0.0,-1.696402,0.09113273,-0.75169426,0.1790762,-6.2847614,-10.638595,-1.5269041,-26.61588,-0.12161136,-0.32706857
-17.122559,-15.194895,-11.909071,18.059767,1.1516378,-1.0982118,-0.48702627,-0.80408764,0.45276913,-0.4577478,-0.6643675,-0.5549653,0.6789354,0.48309776,0.96277803,-0.36311302,-1.6861945,-1.3192526,2.3604357,1.521683,-0.9356855,1.0288302,-0.39901102,-1.6477287,-1.2652804,2.4138494,1.4585178,-0.9808415,-1.4345702,0.9138087,-0.7580538,-1.242657,-0.2875648,0.47252974,0.31473696,1.0109749,-0.49014664,1.2945228,-3.5419421,0.09860084,-0.74153984,0.22668457,-0.33960342,0.96678436,0.7633983,-0.08717999,0.14525759,0.62331593,0.04579699,-0.027438367,-0.39928544,1.0,0.0,0.0,0.0,0.0,0.0,0.0,-1.6609749,0.09014663,-0.74452275,0.4001379,-9.629906,-10.823572,1.5069008,-31.668907,-0.084239244,-0.2702117
-23.933825,-27.677109,-17.37936,20.534334,2.0740879,-1.0928832,-0.539751,-0.81024593,0.36210802,-0.53523546,-0.6464781,-0.64321625,0.6604744,0.46347398,0.9478056,-0.3628002,-1.7012522,-1.3299282,2.3495278,1.5245652,-0.93449414,1.0144717,-0.39087236,-1.656184,-1.2774454,2.4088407,1.4632366,-0.9776944,-1.4353645,0.7802954,-0.87522495,-1.2077688,-0.572101,0.47095066,0.3133985,0.9755821,-0.48916245,1.2863764,-3.538401,0.09850226,-0.83898443,0.22683334,-0.34053612,0.9624361,0.7663281,-0.0826787,0.15403685,0.6182054,0.0021888958,-0.11946712,-0.44940752,1.0,0.0,0.0,0.0,0.0,0.0,0.0,-1.6255821,0.08916244,-0.73637635,0.16720295,-13.431608,-11.842561,3.4683466,-28.557985,-0.32330155,-0.51229596
-30.353943,-46.255833,-23.947989,20.52738,3.257212,-1.15242,-0.37583983,-0.8047456,0.18814181,-0.5448897,-0.6540352,-0.6989513,0.67407817,0.48559552,0.9339971,-0.37205818,-1.710673,-1.342849,2.3389456,1.5306444,-0.92913485,1.000136,-0.3846568,-1.6655853,-1.289311,2.4014592,1.4679458,-0.97454345,-1.4315826,0.56824106,-0.9627773,-1.1791697,-0.79382604,0.47041783,0.31456572,0.9402237,-0.48817825,1.2772563,-3.5348632,0.09840378,-0.9363316,0.2263298,-0.34264374,0.95753455,0.76957494,-0.07770137,0.16300814,0.6124909,-0.07266858,-0.24523482,-0.50612384,1.0,0.0,0.0,0.0,0.0,0.0,0.0,-1.5902237,0.08817825,-0.72725624,0.79858303,-21.334303,-9.054422,2.970457,-22.262932,-0.24411678,-0.22898912
-31.514725,-52.54495,-25.024418,19.563446,3.9438262,-1.0596569,-0.13161735,-0.8108652,0.052111372,-0.52720356,-0.67550564,-0.68335634,0.6889372,0.48142964,0.9190495,-0.37944564,-1.7183056,-1.3568616,2.3331237,1.5368395,-0.9264005,0.98581374,-0.380875,-1.6754844,-1.3010641,2.3925252,1.4726608,-0.9713763,-1.4307632,0.31434602,-1.0002003,-1.1732129,-0.9272403,0.47094932,0.3165386,0.9048996,-0.48719406,1.2671634,-3.5313292,0.0983054,-1.0335814,0.22494125,-0.3460884,0.95205086,0.77299744,-0.0721642,0.17149873,0.6065108,-0.16554901,-0.38015386,-0.5644508,1.0,0.0,0.0,0.0,0.0,0.0,0.0,-1.5548996,0.087194055,-0.7171634,0.58157444,-25.541687,-4.145682,0.832057,-13.418698,-0.19558668,-0.040525198
-35.68643,-73.94879,-30.829983,16.002424,5.0256886,-1.1193935,0.26282594,-0.80372095,-0.24402072,-0.43290746,-0.7244824,-0.66821796,0.6946936,0.45967266,0.90544164,-0.40527707,-1.7187752,-1.3735124,2.3257034,1.5421301,-0.925409,0.97153723,-0.3805169,-1.6850803,-1.3130556,2.3828015,1.4773796,-0.96819866,-1.4243017,-0.0577132,-0.9483247,-1.2060988,-0.98761755,0.47125715,0.31786764,0.86961365,-0.48621178,1.256099,-3.5277987,0.098207116,-1.1307341,0.22241974,-0.35110664,0.94586277,0.7763955,-0.0659549,0.17862085,0.60079485,-0.28724748,-0.54390705,-0.638567,1.0,0.0,0.0,0.0,0.0,0.0,0.0,-1.5196136,0.08621177,-0.706099,1.3432264,-37.39762,4.510784,-2.827549,-6.058681,-0.3137827,0.050723553
-20.713928,-54.971977,-15.6947565,14.423161,4.495698,-0.28420144,0.9360353,-0.77599585,-0.42298606,-0.14214115,-0.74038833,-0.6448005,0.68710726,0.4985682,0.89393765,-0.4228155,-1.6992944,-1.3870945,2.3183215,1.5460902,-0.9183418,0.9574419,-0.38407695,-1.6926658,-1.3254782,2.3728757,1.4821002,-0.96496475,-1.4029198,-0.45588344,-0.6977589,-1.2526896,-0.9939593,0.4714615,0.32598084,0.83436203,-0.4852314,1.2440637,-3.5242715,0.098108925,-1.2277895,0.21883392,-0.35731316,0.9390957,0.77929986,-0.059386622,0.18371624,0.59616554,-0.38873145,-0.6447648,-0.6909791,1.0,0.0,0.0,0.0,0.0,0.0,0.0,-1.484362,0.08523139,-0.6940637,2.6406527,-39.953976,24.336826,-4.181409,-0.52883625,-0.25358796,1.0418653
-6.2481885,-33.86056,-2.172815,11.739859,3.5579867,0.23378965,1.3674431,-0.7305725,-0.5886149,0.03703486,-0.7806161,-0.6210774,0.6757895,0.52868336,0.8843847,-0.44293845,-1.6889623,-1.4035398,2.310768,1.5496792,-0.9120964,0.9437548,-0.3914932,-1.696986,-1.3384959,2.3631253,1.4868171,-0.96161926,-1.356148,-0.83714294,-0.34618044,-1.317012,-0.9681051,0.47121727,0.33883592,0.79914474,-0.48425102,1.2310586,-3.520748,0.09801084,-1.324748,0.21449661,-0.3641243,0.93190336,0.7813104,-0.05281249,0.18654037,0.5932685,-0.45602626,-0.69017327,-0.73038936,1.0,0.0,0.0,0.0,0.0,0.0,0.0,-1.4491447,0.08425102,-0.6810586,5.039358,-38.205,34.40751,-6.049156,2.7605057,-0.22606254,1.7116547
1.5999316,-14.051949,5.0947404,11.051384,2.5837364,0.27648926,1.2482703,-0.6604412,-0.6721792,0.012468975,-0.7873392,-0.6162628,0.65414375,0.54078406,0.8777107,-0.45871112,-1.695739,-1.4172298,2.3014991,1.5522316,-0.90754086,0.9308096,-0.40208375,-1.6984279,-1.3520838,2.3536878,1.4915187,-0.9581431,-1.2730708,-1.133164,-0.079125606,-1.3716363,-0.93520117,0.46925282,0.3518877,0.7639656,-0.48327065,1.2170845,-3.517228,0.09791285,-1.4216095,0.20970535,-0.3711872,0.92436713,0.7824002,-0.046363853,0.18738118,0.5921051,-0.49182624,-0.7055799,-0.76294315,1.0,0.0,0.0,0.0,0.0,0.0,0.0,-1.4139656,0.08327064,-0.6670845,8.551025,-29.650604,26.080387,-5.1994085,3.423059,-0.3510356,1.7217278
-1.9976661,-11.066475,-0.4530034,10.244268,2.1862953,-0.45326155,0.6766776,-0.5474832,-0.7376434,-0.2330053,-0.78697467,-0.6021559,0.62867564,0.5093455,0.8760613,-0.4758481,-1.7217284,-1.4307812,2.2934723,1.5543863,-0.90720856,0.919109,-0.41493022,-1.699189,-1.366059,2.3445745,1.4961765,-0.95458114,-1.1355339,-1.3353873,-0.07610261,-1.4052783,-0.9032653,0.4637503,0.3584237,0.7288208,-0.48229218,1.2021427,-3.5137112,0.097814955,-1.5183742,0.2046318,-0.3786068,0.9163786,0.7829501,-0.039771903,0.18681638,0.5920363,-0.5173155,-0.7459771,-0.8122653,1.0,0.0,0.0,0.0,0.0,0.0,0.0,-1.3788208,0.08229217,-0.6521427,13.8117075,-20.298172,0.049626827,-3.1095982,3.165996,-0.80884695,0.90157986
2.529129,5.143758,3.0969563,9.959322,1.2889974,-0.6488897,0.38694277,-0.4452032,-0.75459874,-0.29974574,-0.78684604,-0.6211695,0.6442301,0.5206043,0.87458867,-0.4903901,-1.7291635,-1.4447435,2.2824576,1.5605994,-0.9025207,0.90905726,-0.42904413,-1.7009742,-1.3802229,2.3356557,1.5007961,-0.9509648,-0.96230567,-1.4369183,-0.21235047,-1.4194235,-0.8884284,0.46068057,0.36310923,0.6937103,-0.4813156,1.1862339,-3.5101984,0.09771716,-1.6150421,0.19949341,-0.3863392,0.90788704,0.7832132,-0.03286336,0.18547885,0.5925324,-0.5161695,-0.7733144,-0.8631031,1.0,0.0,0.0,0.0,0.0,0.0,0.0,-1.3437103,0.08131561,-0.63623387,17.154766,-10.211062,-13.557744,-1.2149096,1.3888717,-0.49982667,0.6085992
8.9900255,21.809711,9.569569,10.701641,0.5330587,-0.5326642,0.27509603,-0.3469977,-0.7685559,-0.32792163,-0.7689094,-0.64287186,0.66202486,0.50847656,0.87435746,-0.5058997,-1.7337664,-1.4571139,2.2713685,1.5669986,-0.90011716,0.9008652,-0.44364488,-1.7044227,-1.3943468,2.3267522,1.505408,-0.9473227,-0.7725247,-1.4679185,-0.38846678,-1.4096063,-0.8913789,0.4611627,0.36478364,0.6586342,-0.48033905,1.1693591,-3.5066888,0.09761946,-1.7116134,0.19454193,-0.39417267,0.8989683,0.7832477,-0.025688518,0.18385176,0.59334785,-0.49066117,-0.7764347,-0.90377146,1.0,0.0,0.0,0.0,0.0,0.0,0.0,-1.3086342,0.080339044,-0.6193591,18.684065,-3.1286478,-17.387098,1.10116,-0.389421,-0.029546022,0.2521813
11.678242,30.988964,13.03179,11.335642,0.18896031,-0.42604768,0.20779324,-0.27882698,-0.77455735,-0.3883645,-0.7689192,-0.6344814,0.6516092,0.4991099,0.8729825,-0.52110064,-1.7432592,-1.4712387,2.263304,1.5705689,-0.89741176,0.8944584,-0.45825088,-1.7096488,-1.4083239,2.317803,1.5100238,-0.94367874,-0.59762716,-1.458242,-0.5664919,-1.3935765,-0.8965156,0.46161205,0.36441547,0.6235924,-0.4793625,1.1515193,-3.503183,0.097521864,-1.8080882,0.18992615,-0.40193558,0.8896969,0.7830764,-0.01829427,0.18220003,0.59435666,-0.45482236,-0.7667051,-0.93788064,1.0,0.0,0.0,0.0,0.0,0.0,0.0,-1.2735924,0.07936248,-0.6015193,17.218733,0.9457588,-17.576773,1.6835213,-0.6164193,0.014472008,0.017029047
3.7520468,31.098417,11.607602,15.94548,0.68225217,0.044710875,0.0103163645,-0.3498021,-0.7819361,-0.3742543,-0.7651173,-0.6226024,0.6426998,0.48834917,0.8594782,-0.5364445,-1.7470742,-1.4848356,2.2555428,1.5742939,-0.8948438,0.88899577,-0.47266853,-1.7161644,-1.4221312,2.3088307,1.5146396,-0.94005,-0.5289801,-1.4364667,-0.6801538,-1.3758519,-0.8978912,0.46164474,0.36256,0.5885887,-0.47838783,1.1327156,-3.4996805,0.09742436,-1.9044665,0.18545532,-0.4095707,0.88018346,0.78281856,-0.010750653,0.180584,0.595373,-0.44520476,-0.75305325,-0.9591883,1.0,0.0,0.0,0.0,0.0,0.0,0.0,-1.2385887,0.07838783,-0.5827156,6.9142222,2.1228313,-11.408281,1.92523,-0.29656887,0.009483099,-0.1337707
-0.74051917,34.63554,13.670226,19.978123,1.0205449,0.69804376,-0.029814273,-0.4017585,-0.7798306,-0.30029744,-0.7617036,-0.6117131,0.64846134,0.4909847,0.8488199,-0.5506516,-1.7461941,-1.4983015,2.2476594,1.5794858,-0.8909515,0.8835188,-0.48685777,-1.7230155,-1.4357802,2.2998853,1.5192649,-0.93643653,-0.5529341,-1.4132951,-0.68769926,-1.360829,-0.893825,0.46302605,0.36126262,0.55361557,-0.47741508,1.1129488,-3.4961815,0.09732696,-2.0007484,0.18093872,-0.4169445,0.87060225,0.7825284,-0.003244507,0.1789489,0.5963355,-0.45466322,-0.7227813,-0.9613893,1.0,0.0,0.0,0.0,0.0,0.0,0.0,-1.2036155,0.07741508,-0.56294876,-2.1097898,2.2523403,-1.0299087,1.685667,0.22785664,0.22683144,-0.045365095
-5.509681,33.058575,12.499498,21.927116,1.3001255,0.95439124,-0.101652905,-0.4229204,-0.77994347,-0.31759056,-0.7551233,-0.6310372,0.65412384,0.4884897,0.84122676,-0.5648521,-1.7547746,-1.5112925,2.2367816,1.5846773,-0.88758755,0.8774601,-0.5008663,-1.7296894,-1.4492918,2.2909284,1.5239074,-0.93283546,-0.62213725,-1.3969158,-0.661856,-1.3472164,-0.8970367,0.46506688,0.3600161,0.5186806,-0.47644234,1.0922198,-3.492686,0.097229645,-2.0969338,0.17621231,-0.42401314,0.86103815,0.78225565,0.004129977,0.17726254,0.597191,-0.47888795,-0.6920681,-0.9581407,1.0,0.0,0.0,0.0,0.0,0.0,0.0,-1.1686805,0.07644233,-0.5422198,-6.5322757,1.560235,2.215469,1.5866041,-0.5188465,0.3024459,-0.031918287
-10.311883,26.62675,7.825085,20.999722,1.5361855,0.7519309,-0.18818212,-0.43360025,-0.7805089,-0.40222225,-0.7676379,-0.621659,0.64107406,0.48123342,0.8341001,-0.5789172,-1.7699115,-1.5260556,2.2287624,1.5880148,-0.8847121,0.87066424,-0.5147747,-1.7364128,-1.4627634,2.28196,1.5285556,-0.9292506,-0.69735783,-1.3891218,-0.6770765,-1.3463715,-0.897591,0.46479556,0.358141,0.4837799,-0.4754696,1.0705298,-3.4891942,0.09713244,-2.193023,0.17116928,-0.43089867,0.8514064,0.78209084,0.0115027325,0.17549503,0.59783185,-0.5140934,-0.6782344,-0.968018,1.0,0.0,0.0,0.0,0.0,0.0,0.0,-1.1337799,0.07546958,-0.5205298,-7.1183085,0.6779671,-1.8829107,0.36940575,-0.28772354,-0.015825033,-0.10775924
-19.188704,15.088395,-0.6043215,20.7085,2.10193,0.43621343,-0.37967736,-0.48109096,-0.7937045,-0.5106442,-0.7695816,-0.5915854,0.6243522,0.4543083,0.8225551,-0.5941451,-1.7874771,-1.5397216,2.2228014,1.5909909,-0.88381976,0.86304915,-0.52871644,-1.7438419,-1.4762675,2.2730756,1.533179,-0.92570484,-0.78145474,-1.3963846,-0.76613224,-1.3504506,-0.8864502,0.46119815,0.35357952,0.44891357,-0.47450066,1.0478796,-3.4857056,0.097035326,-2.2890162,0.1655922,-0.43787193,0.8415274,0.78221285,0.019140823,0.17355601,0.59804255,-0.5730193,-0.694131,-0.9974075,1.0,0.0,0.0,0.0,0.0,0.0,0.0,-1.0989136,0.07450065,-0.49787956,-7.96144,-0.8760214,-9.253144,-0.013136864,0.8163333,-0.49018264,-0.39545894
-28.170652,7.8140774,-7.018568,21.69282,2.5737596,0.37682772,-0.5907294,-0.56796217,-0.79357815,-0.58977354,-0.76744527,-0.5950495,0.620305,0.4201746,0.80625296,-0.60807425,-1.8028193,-1.553012,2.2135706,1.5952096,-0.8836874,0.85438406,-0.5427593,-1.7525222,-1.4898077,2.2642903,1.5377567,-0.92222965,-0.89309824,-1.4075912,-0.9031724,-1.3534734,-0.8771196,0.45600212,0.3456363,0.4140854,-0.47353172,1.02427,-3.4822206,0.09693831,-2.3849134,0.15924072,-0.44513702,0.8312629,0.78281677,0.027256392,0.1714057,0.59755754,-0.6564807,-0.7270923,-1.0390474,1.0,0.0,0.0,0.0,0.0,0.0,0.0,-1.0640854,0.07353172,-0.47427005,-10.621559,-1.3218641,-14.07876,0.20480156,0.5611539,-0.7629037,-0.7578194
-34.34877,5.5092816,-9.845381,22.641422,2.9214664,0.5405748,-0.70915097,-0.6641081,-0.79560703,-0.64044076,-0.7741963,-0.55828136,0.6074985,0.36637583,0.7879733,-0.62232,-1.8165663,-1.5672274,2.2084622,1.5985066,-0.88559204,0.8443705,-0.5569166,-1.7626255,-1.5033976,2.2556882,1.5422733,-0.9188689,-1.0352261,-1.4193499,-1.0476145,-1.3586856,-0.8560269,0.4490596,0.33296746,0.37928772,-0.4725628,0.9997024,-3.4787393,0.096841395,-2.4807148,0.1519165,-0.4527626,0.8205546,0.7840297,0.035947677,0.16896851,0.5962003,-0.75950265,-0.76314324,-1.0846909,1.0,0.0,0.0,0.0,0.0,0.0,0.0,-1.0292877,0.072562784,-0.44970238,-13.576662,-1.4217377,-14.863646,0.07534027,1.6780496,-1.0210991,-1.2269258
-29.534956,17.767464,-2.0232906,23.356815,2.571682,1.1254199,-0.59463775,-0.7315162,-0.774824,-0.59795684,-0.7637433,-0.5493693,0.6356831,0.3309301,0.7712189,-0.634399,-1.8224212,-1.5797719,2.2007513,1.6058416,-0.88577586,0.83289397,-0.57106817,-1.7736461,-1.5169836,2.2473035,1.5467498,-0.91565216,-1.1831243,-1.4144427,-1.1215149,-1.3567768,-0.8338779,0.44642606,0.31807366,0.3445282,-0.47159386,0.97417736,-3.4752612,0.096744575,-2.5764203,0.14364624,-0.46051407,0.80954576,0.785776,0.04501775,0.16623203,0.5940508,-0.8521592,-0.76696974,-1.109796,1.0,0.0,0.0,0.0,0.0,0.0,0.0,-0.9945282,0.07159385,-0.42417735,-14.192891,0.25925636,-7.791066,0.7193327,1.8110871,-0.50787926,-1.4250696
-23.585752,26.054482,3.8037984,22.43444,2.2216222,1.379419,-0.4740673,-0.76513314,-0.770711,-0.6280828,-0.75568765,-0.5209386,0.6360631,0.26161784,0.7563807,-0.64813924,-1.8364544,-1.5925524,2.1952097,1.6103561,-0.88949037,0.82012904,-0.5851196,-1.7851703,-1.5305029,2.2391896,1.5512092,-0.9126233,-1.3059254,-1.4027038,-1.163694,-1.348865,-0.80498886,0.4452581,0.2981573,0.3097992,-0.47062874,0.94769603,-3.4717867,0.09664785,-2.6720302,0.13456726,-0.4681778,0.79837203,0.7879312,0.054263588,0.16317953,0.59126335,-0.9297753,-0.75182617,-1.123538,1.0,0.0,0.0,0.0,0.0,0.0,0.0,-0.9597992,0.07062873,-0.39769602,-11.792254,0.9683609,-4.544878,1.2429237,2.5351644,-0.30564666,-1.9042075
-17.448408,32.125046,8.532172,20.908184,1.9545124,1.4800923,-0.36476922,-0.7921718,-0.7677691,-0.6506561,-0.7496758,-0.45183158,0.61448616,0.14075035,0.74091184,-0.6618965,-1.8502359,-1.6054705,2.1940064,1.6126578,-0.89854825,0.80638754,-0.59903944,-1.7969768,-1.5439211,2.2315297,1.5556476,-0.90986717,-1.3956269,-1.3890177,-1.1870488,-1.3381127,-0.75393814,0.44294375,0.26853657,0.27510834,-0.46966362,0.92025936,-3.4683156,0.096551225,-2.7675445,0.124824524,-0.47560883,0.78711486,0.7903965,0.0635552,0.15972444,0.58798134,-0.9922097,-0.72525144,-1.1298689,1.0,0.0,0.0,0.0,0.0,0.0,0.0,-0.9251083,0.069663614,-0.37025934,-8.602762,1.1942387,-2.5807142,1.4486551,4.8130393,-0.37623048,-2.8441727
-12.316567,36.91699,12.289513,20.096542,1.6379716,1.5416722,-0.35353956,-0.8113036,-0.76262885,-0.66432786,-0.72264576,-0.4601703,0.5940543,-0.09033242,0.72525716,-0.6753023,-1.8634096,-1.6161857,2.1855128,1.615053,-0.91890043,0.7919928,-0.61282384,-1.8089435,-1.5571257,2.2243009,1.5600536,-0.9075602,-1.4532695,-1.3753172,-1.2005118,-1.3135201,-0.71315277,0.43938816,0.21846849,0.24045181,-0.4686985,0.8918682,-3.464848,0.09645469,-2.8629634,0.11457443,-0.48270798,0.7758466,0.79312634,0.07276704,0.1558886,0.5842552,-1.0392803,-0.68987894,-1.1291275,1.0,0.0,0.0,0.0,0.0,0.0,0.0,-0.8904518,0.068698496,-0.34186816,-5.504632,1.2264729,-1.5105247,2.7609348,3.8534641,-0.44472814,-4.8907905
-9.138927,42.888565,16.114853,21.563856,1.4951982,1.7239544,-0.4050749,-0.8342162,-0.7425404,-0.65947527,-0.66504663,-0.46121997,0.59028953,-0.2463813,0.7085712,-0.6870779,-1.874891,-1.6236304,2.1781788,1.6190826,-0.93219835,0.777166,-0.6264099,-1.8209445,-1.5698439,2.2173848,1.5644252,-0.9058436,-1.4918778,-1.3534412,-1.2001816,-1.2572222,-0.68491685,0.4364564,0.15646785,0.20582962,-0.46773338,0.86252356,-3.4613838,0.096358255,-2.958287,0.10391998,-0.48939514,0.764706,0.7961218,0.081720784,0.15178515,0.58006287,-1.0766559,-0.6464632,-1.1121038,1.0,0.0,0.0,0.0,0.0,0.0,0.0,-0.8558296,0.06773338,-0.31252354,-3.6836386,2.0666838,-0.043320656,5.855918,2.6581883,-0.31173825,-6.103587
-8.279385,46.57361,18.273636,24.50502,1.6320646,1.855955,-0.5072905,-0.84353596,-0.72970957,-0.6626681,-0.57645845,-0.44686082,0.5516012,-0.36325756,0.69281244,-0.6993809,-1.8872113,-1.6274897,2.1726987,1.6195854,-0.94216937,0.7620779,-0.6397518,-1.8329093,-1.5816427,2.210709,1.5687454,-0.9047879,-1.514078,-1.3281767,-1.1953042,-1.1535525,-0.6625218,0.4305593,0.08892289,0.17124176,-0.46677208,0.83222646,-3.4579232,0.09626191,-3.0535152,0.09290314,-0.49566078,0.75387174,0.7994338,0.090226136,0.1475166,0.5753291,-1.1126105,-0.6036784,-1.0767993,1.0,0.0,0.0,0.0,0.0,0.0,0.0,-0.82124174,0.06677207,-0.28222644,-2.105832,2.41642,0.5048275,10.541296,2.1235704,-0.5627394,-6.678161
-8.798494,45.426426,17.80874,26.261,1.8259025,1.8420113,-0.57040304,-0.840948,-0.7381019,-0.6766662,-0.4902071,-0.4497773,0.55069554,-0.4339736,0.6779831,-0.713562,-1.900576,-1.6306635,2.1657314,1.623815,-0.94818527,0.7468916,-0.6529325,-1.8448799,-1.5921293,2.2041821,1.5730083,-0.9043988,-1.5198724,-1.3150967,-1.1974055,-1.0130333,-0.6497284,0.42505127,0.022528948,0.13668823,-0.46581078,0.8009777,-3.4544659,0.09616567,-3.148648,0.08150482,-0.5015545,0.74343944,0.8031113,0.098167494,0.14314346,0.56998694,-1.1517718,-0.5685201,-1.0347503,1.0,0.0,0.0,0.0,0.0,0.0,0.0,-0.7866882,0.06581077,-0.2509777,-0.4982233,1.1982679,-0.13623238,14.223218,1.1963248,-0.52270293,-6.5741925
-8.170083,41.86355,15.97716,23.335308,1.6165785,1.6303723,-0.47872713,-0.8416345,-0.74635917,-0.6959091,-0.47244826,-0.46530393,0.5581044,-0.4486515,0.6627282,-0.72756845,-1.9144708,-1.6393741,2.1576517,1.6288188,-0.94926393,0.73171294,-0.6660856,-1.8569725,-1.6013666,2.1976857,1.5772274,-0.9046143,-1.5169458,-1.3157393,-1.212974,-0.89331394,-0.6499478,0.42061386,-0.036031116,0.10216904,-0.46484947,0.7687784,-3.4510121,0.09606952,-3.2436857,0.06973648,-0.50712204,0.73331136,0.807107,0.105623975,0.1386915,0.56408036,-1.1865406,-0.5377977,-1.0082763,0.0,1.0,0.0,0.0,0.0,0.0,0.0,-0.752169,0.064849466,-0.21877837,0.37453175,-0.17578602,-1.5002012,12.1714115,-0.11175871,-0.45322776,-5.793674
-8.338875,39.432552,14.591843,21.741304,1.4717907,1.522774,-0.42466712,-0.8408505,-0.75443995,-0.7097018,-0.41045702,-0.5054717,0.56770754,-0.4499597,0.6476279,-0.7415296,-1.9279426,-1.6424123,2.1471386,1.6339982,-0.9496103,0.7166376,-0.67929554,-1.8696611,-1.609598,2.190834,1.5824707,-0.9051445,-1.4963585,-1.3185282,-1.3477414,-0.82163787,-0.7428763,0.7072921,-0.03947586,0.075279236,-0.4651146,0.7502246,-1.3963692,-0.18325809,1.0361242,0.057552338,-0.51229477,0.72326756,0.8113006,0.112370625,0.1343406,0.5577784,-1.2407172,-0.4801317,-1.0252905,0.0,1.0,0.0,0.0,0.0,0.0,0.0,-0.7252792,0.06511459,-0.20022458,3.5140753,0.46396255,-24.498009,3.2815695,-16.629982,57.59489,4.3026977
71.68015,176.0,110.0,92.01137,-0.4831751,9.786863,-1.1141199,-0.8066304,0.33228162,0.6994447,0.75731003,-0.06599576,0.57900244,-0.50386673,0.6359746,-0.6460674,-1.7997166,-1.533867,2.1842344,1.6403708,-0.9555312,0.7058374,-0.69067615,-1.8815192,-1.6084355,2.1791966,1.5966234,-0.9048728,-0.9453153,-1.077648,-1.1243329,0.42513314,-1.300805,1.6558727,0.046890594,0.061439514,-0.46694946,0.7601619,-1.3949732,-0.18307488,0.9369023,0.04607773,-0.51537323,0.71703583,0.81550837,0.11108585,0.13431142,0.5518753,-1.117372,-0.23659314,-0.49092823,0.0,1.0,0.0,0.0,0.0,0.0,0.0,-0.7114395,0.06694946,-0.21016186,53.948486,24.197556,24.304962,123.37083,-55.09105,96.915146,7.9112225
36.20156,155.8133,98.97979,80.29692,2.5869403,6.8069654,-0.6699565,-0.7903041,-0.5370759,0.5754808,0.77659184,-0.460053,0.60163754,-0.40019342,0.62680703,-0.74438375,-1.8239712,-1.5307764,2.1331913,1.6567872,-0.9448921,0.6966364,-0.7005171,-1.8867015,-1.598399,2.166196,1.613162,-0.9046353,-0.91165036,-0.95392865,-0.31385887,1.195355,-1.3029468,1.658511,0.016668158,0.047496796,-0.4687786,0.76878744,-1.3935785,-0.18289185,0.8377795,0.03544998,-0.51667213,0.71580595,0.81995666,0.10319769,0.13671115,0.54619706,-1.0428352,-0.084603645,-0.004570474,1.0,0.0,0.0,0.0,0.0,0.0,0.0,-0.6974968,0.068778604,-0.21878743,3.3631206,12.077248,81.710014,76.70114,-1.2239218,1.8650293,-2.8543842
10.667751,120.61638,67.44717,57.494892,2.3703768,4.4402947,-0.48605245,-0.7659395,-0.42974743,0.27913323,0.70657295,-0.6384836,0.6467467,-0.0052234335,0.62004244,-0.7434919,-1.8587881,-1.5277418,2.1023479,1.6778367,-0.9051576,0.68678683,-0.7090973,-1.8854235,-1.583434,2.1536458,1.6287928,-0.9044875,-1.0077826,-0.82710254,0.27457744,1.597339,-1.2421188,1.5345194,0.014729958,0.033569336,-0.47060585,0.7764225,-1.3921853,-0.182709,0.7387559,0.025245667,-0.5167427,0.71810335,0.8245723,0.09182852,0.14003184,0.5404063,-1.0122455,0.025417011,0.30211523,1.0,0.0,0.0,0.0,0.0,0.0,0.0,-0.6835693,0.070605844,-0.22642249,-9.155703,12.390793,58.735584,40.311695,5.1025867,-11.4209175,-0.035696663
-3.6289048,89.342125,44.047462,37.930717,1.9561392,2.8166144,-0.29008743,-0.7609261,-0.39787588,0.37082195,0.76740867,-0.6477034,0.6030825,-0.10827737,0.6106942,-0.7488849,-1.8483413,-1.5066931,2.0888753,1.689101,-0.9153152,0.67557925,-0.716659,-1.8795985,-1.566491,2.1419804,1.6428862,-0.90443313,-1.1569128,-0.7332327,0.6841558,1.7272539,-1.1437211,1.3697839,0.0028941631,0.019657135,-0.47243118,0.78306806,-1.3907933,-0.18252632,0.6398313,0.01517868,-0.51592255,0.7224001,0.8292272,0.078982666,0.14361168,0.5343402,-1.0060791,0.10789307,0.46623757,1.0,0.0,0.0,0.0,0.0,0.0,0.0,-0.6696571,0.07243118,-0.23306805,-14.471841,9.194946,40.602165,13.156176,9.16667,-15.784836,-1.040541
-14.254278,53.006916,19.182991,21.206522,1.5663141,1.1438632,-0.15966998,-0.7638708,-0.4151215,0.33147568,0.7580463,-0.6494772,0.60684556,-0.09321873,0.59919214,-0.75817114,-1.8464509,-1.4906864,2.0770328,1.7035707,-0.913755,0.663027,-0.7236876,-1.8715571,-1.54959,2.1312191,1.6554193,-0.90447795,-1.2872238,-0.69300514,0.84323764,1.6780746,-1.0542431,1.2162105,-0.00669983,0.005760193,-0.4742546,0.78872514,-1.3894027,-0.18234383,0.5410056,0.0050086975,-0.5146122,0.72730297,0.8338574,0.06619522,0.14700684,0.52791,-1.0237137,0.14585838,0.49274793,1.0,0.0,0.0,0.0,0.0,0.0,0.0,-0.65576017,0.0742546,-0.23872513,-12.794042,3.9561749,15.574991,-4.8267603,8.7139845,-14.859128,-0.8730905
-13.625713,33.059025,7.845649,11.665689,1.147871,0.16082668,-0.025717393,-0.7558069,-0.43046507,0.36804715,0.75797313,-0.6321745,0.6054662,-0.1525702,0.5874463,-0.7667341,-1.8347524,-1.4737927,2.0680017,1.715966,-0.91973495,0.6495573,-0.7306513,-1.8629397,-1.5337018,2.1212285,1.6665716,-0.9046563,-1.3665751,-0.69746745,0.8672522,1.5589283,-0.9811128,1.0828403,-0.021276124,-0.0081214905,-0.47607803,0.7933947,-1.3880136,-0.18216151,0.44227877,-0.005329132,-0.5131359,0.731947,0.8384232,0.05428602,0.14998531,0.5211562,-1.0409846,0.15570271,0.44999808,1.0,0.0,0.0,0.0,0.0,0.0,0.0,-0.6418785,0.07607803,-0.24339467,-7.8596115,-0.45810938,2.1917105,-11.893082,7.2315097,-12.959623,-1.4093648
-13.891018,15.050002,-1.239372,6.9803414,1.1579528,-0.51639557,0.0343725,-0.755749,-0.49157563,0.34695747,0.7401963,-0.61311364,0.5906235,-0.15303294,0.5739824,-0.7798089,-1.828244,-1.4596821,2.059917,1.725634,-0.9199596,0.6356451,-0.7380833,-1.8547572,-1.5190781,2.1118405,1.6765375,-0.9049691,-1.3994465,-0.7584512,0.8013771,1.4300246,-0.92487365,0.96857506,-0.03445039,-0.021987915,-0.47789764,0.7970777,-1.3866259,-0.18197937,0.34365064,-0.015926361,-0.511776,0.7358373,0.842932,0.04360779,0.15236735,0.5141481,-1.0676324,0.1376435,0.36436194,1.0,0.0,0.0,0.0,0.0,0.0,0.0,-0.62801206,0.07789764,-0.2470777,-3.2739878,-6.077075,-6.710613,-12.880945,5.624008,-11.178982,-1.2636714
-7.880637,15.454421,0.5727291,6.8467927,0.9636183,-0.65196353,0.063123636,-0.7326077,-0.5042059,0.35716882,0.74201995,-0.6212801,0.6024431,-0.19408435,0.5623843,-0.7885039,-1.8190403,-1.4448762,2.0497124,1.7367818,-0.92437756,0.62175196,-0.7462029,-1.8473338,-1.5054692,2.1028225,1.6855116,-0.9054307,-1.3859643,-0.82970643,0.72245854,1.3379128,-0.8939677,0.8743991,-0.049949393,-0.03584671,-0.47971725,0.7997752,-1.3852396,-0.18179744,0.24512114,-0.026699066,-0.5106163,0.7389034,0.8473785,0.034086548,0.15419538,0.5069631,-1.0829926,0.11566373,0.28362823,1.0,0.0,0.0,0.0,0.0,0.0,0.0,-0.61415327,0.07971725,-0.24977517,1.3391495,-7.1148634,-7.9414487,-9.182048,3.0439138,-9.217834,-1.5046097
-2.7672663,16.599615,3.6467881,7.420293,0.94724333,-0.5921985,0.1409491,-0.7132062,-0.56571084,0.3851307,0.72187096,-0.6090989,0.60177886,-0.1884693,0.5504314,-0.80277395,-1.8088207,-1.4332821,2.0419126,1.7456895,-0.9242776,0.6082012,-0.7552008,-1.8404521,-1.4925431,2.094022,1.6936674,-0.9060277,-1.34484,-0.9231543,0.67683804,1.2776577,-0.87571746,0.79638225,-0.062813215,-0.049690247,-0.48153305,0.8014801,-1.3838547,-0.1816157,0.14562492,-0.037574768,-0.50967216,0.741246,0.85172546,0.02543326,0.15547904,0.49974293,-1.0914955,0.09511397,0.21446967,1.0,0.0,0.0,0.0,0.0,0.0,0.0,-0.6003097,0.081533045,-0.2514801,4.105997,-9.3481655,-4.551482,-5.978012,1.7150044,-7.6446533,-1.2211777
-2.8450882,20.039703,5.180519,9.690818,1.016406,-0.49150938,0.08059917,-0.7048621,-0.5869033,0.34294355,0.71616834,-0.62298757,0.58750534,-0.14368829,0.537715,-0.8138911,-1.8061577,-1.4209262,2.0317233,1.7524179,-0.9203965,0.59509677,-0.76505226,-1.8340243,-1.4799775,2.0852826,1.7011366,-0.9067048,-1.2989842,-1.0058806,0.63138735,1.2497423,-0.87337434,0.730862,-0.069093734,-0.063518524,-0.48334885,0.80219084,-1.3824711,-0.18143412,0.04622817,-0.048542023,-0.5089073,0.7429878,0.855982,0.017448837,0.15632957,0.49249494,-1.1012456,0.07742765,0.15743609,1.0,0.0,0.0,0.0,0.0,0.0,0.0,-0.58648145,0.08334884,-0.25219083,4.597473,-8.286071,-4.5374155,-2.705741,0.127244,-6.3943505,-0.558874
-0.26846027,28.226402,9.716973,11.828819,0.9434985,-0.30046546,0.047375806,-0.67599934,-0.60221803,0.34862775,0.7252141,-0.6385925,0.59629035,-0.15863286,0.5274968,-0.82527405,-1.7991616,-1.407456,2.0214233,1.7607657,-0.9225681,0.58249587,-0.7755732,-1.8278826,-1.4674691,2.0764744,1.7080431,-0.9074429,-1.2469882,-1.0676163,0.6086045,1.2515527,-0.8837504,0.6779364,-0.075062,-0.07733154,-0.48516083,0.8019083,-1.3810889,-0.18125273,-0.053069204,-0.05955124,-0.5082493,0.74431294,0.860149,0.009912714,0.15692306,0.48520136,-1.1029524,0.069453955,0.12088918,1.0,0.0,0.0,0.0,0.0,0.0,0.0,-0.57266843,0.08516082,-0.2519083,5.219865,-6.205106,-2.2547126,0.28383732,-1.1822224,-5.111444,-0.53557307
1.6920934,29.315578,10.41145,11.292912,0.8475675,-0.3462738,0.08113944,-0.63351053,-0.64518976,0.31567103,0.71262515,-0.64260334,0.6006746,-0.11100206,0.51914483,-0.8400922,-1.7963156,-1.3962066,2.0122142,1.7681105,-0.91854316,0.57049674,-0.7866892,-1.8220023,-1.4549073,2.0675404,1.7144957,-0.9081954,-1.184258,-1.1264027,0.5814269,1.2581356,-0.89753485,0.634952,-0.075184815,-0.0911293,-0.4869728,0.8006336,-1.379708,-0.18107152,-0.1522673,-0.07054901,-0.50766754,0.74527556,0.8642041,0.0027287363,0.15733007,0.4779026,-1.1007574,0.061263993,0.08460676,1.0,0.0,0.0,0.0,0.0,0.0,0.0,-0.5588707,0.0869728,-0.2506336,6.2732697,-5.9170246,-2.6624084,0.76334476,-1.5320301,-4.1299105,0.045640767
-4.836181,26.718426,6.3012066,12.580777,1.0645208,-0.43659896,-0.06483123,-0.6331011,-0.65499675,0.21140294,0.7131028,-0.63765997,0.5790626,-0.07430769,0.50718665,-0.8521889,-1.800862,-1.383597,2.0037744,1.7724019,-0.91562617,0.5589954,-0.798263,-1.8168086,-1.4422597,2.0584996,1.720561,-0.9089154,-1.1386769,-1.1678236,0.4984961,1.2674872,-0.9065644,0.5976375,-0.07081071,-0.10491943,-0.48878098,0.7983676,-1.3783287,-0.18089049,-0.25136623,-0.08163452,-0.5072136,0.7458064,0.86822397,-0.0039612195,0.15761785,0.47045502,-1.1142435,0.047129992,0.03892281,1.0,0.0,0.0,0.0,0.0,0.0,0.0,-0.54508054,0.08878097,-0.24836761,4.580307,-4.174328,-8.297438,1.0868311,-0.97054243,-3.5689235,0.49367845
-6.336277,29.07875,6.0470076,13.189204,1.014585,-0.46159583,-0.117809966,-0.6064703,-0.6540141,0.15354943,0.72485405,-0.65532905,0.5812076,-0.036278784,0.49834839,-0.86366445,-1.8014536,-1.3697742,1.9929667,1.7786818,-0.9125433,0.5479166,-0.8100905,-1.8126487,-1.4294766,2.0493443,1.7263021,-0.90956295,-1.0974805,-1.1878773,0.38841537,1.282501,-0.9188685,0.56692517,-0.06261307,-0.118694305,-0.49058914,0.79511136,-1.3769506,-0.18070963,-0.3503661,-0.09287262,-0.50689125,0.7458829,0.8722574,-0.010045222,0.15790436,0.46274424,-1.1283398,0.033833336,-0.0066226586,0.0,1.0,0.0,0.0,0.0,0.0,0.0,-0.5313057,0.090589136,-0.24511135,4.145217,-2.0450115,-11.02646,1.6716957,-1.2712598,-2.9074192,0.85737854
-14.775904,19.04854,-1.9934719,12.991313,1.2840221,-0.6929856,-0.27935672,-0.6049185,-0.682716,-0.016657865,0.71305025,-0.6288366,0.5877447,-0.07680118,0.48742473,-0.87836206,-1.8143145,-1.3581716,1.9864607,1.7850766,-0.91724306,0.5371277,-0.8221316,-1.8102111,-1.4166173,2.0401738,1.73178,-0.9101628,-1.0724934,-1.2097008,0.19529259,1.2877343,-0.91636753,0.5417572,-0.058859754,-0.13245392,-0.4923935,0.7908659,-1.3755739,-0.18052895,-0.44926694,-0.10441589,-0.5068054,0.7453057,0.876421,-0.015238202,0.15817715,0.4545702,-1.1657718,0.006951022,-0.07881138,0.0,1.0,0.0,0.0,0.0,0.0,0.0,-0.51754606,0.09239349,-0.24086589,2.5488138,-2.2070646,-19.400764,0.75383186,0.3301263,-2.4080515,0.41783005
-26.75042,3.8497338,-13.810745,13.287939,1.649268,-1.0534279,-0.54142207,-0.60609055,-0.70511067,-0.2780475,0.7208713,-0.6155778,0.5887944,-0.16742606,0.47651863,-0.8926426,-1.8380158,-1.3445301,1.978616,1.7906595,-0.9269054,0.5264761,-0.8344292,-1.8106631,-1.4036988,2.0311024,1.7370367,-0.9107989,-1.0624286,-1.2364655,-0.12606423,1.2942599,-0.9036078,0.5203057,-0.06510848,-0.14619827,-0.49419785,0.7856322,-1.3741986,-0.18034846,-0.54806894,-0.11660004,-0.5071411,0.7437208,0.8809119,-0.019052692,0.15839656,0.44558027,-1.236667,-0.040439155,-0.18936412,0.0,1.0,0.0,0.0,0.0,0.0,0.0,-0.5038017,0.09419784,-0.23563218,1.1162996,-2.682948,-32.330315,0.99744797,1.5302658,-2.132523,-0.5781375
-27.16497,-0.08531618,-16.319736,11.970502,1.5485597,-1.1584282,-0.5570923,-0.5750084,-0.7248678,-0.43302295,0.7314856,-0.608559,0.631387,-0.21440229,0.46897525,-0.90691596,-1.8539654,-1.3305502,1.9702466,1.8001754,-0.9322391,0.51599985,-0.8470306,-1.8146194,-1.3906941,2.0221667,1.742109,-0.9115434,-1.0412837,-1.267917,-0.49072856,1.3007648,-0.89039874,0.4983039,-0.07862506,-0.16023636,-0.49558067,0.7803115,-1.4747899,-0.019658323,-0.28040844,-0.12950897,-0.50798607,0.7409265,0.88579077,-0.021234736,0.1585521,0.43564308,-1.3087399,-0.093347855,-0.31607312,0.0,1.0,0.0,0.0,0.0,0.0,0.0,-0.48976362,0.09558067,-0.23031151,2.4044037,-3.1322718,-37.33634,0.59690475,1.2954235,-3.04209,-1.5017376
-38.44095,15.7434845,-10.212229,19.846657,1.9325293,-0.3391381,-0.7363635,-0.6808604,-0.65871197,-0.49666443,0.78946096,-0.63055396,0.6166512,-0.14171402,0.44791383,-0.91290176,-1.8642858,-1.311748,1.9591113,1.8037741,-0.92571485,0.50520664,-0.85957426,-1.8217494,-1.3773543,2.0132856,1.7469969,-0.9123619,-1.0909196,-1.2502836,-0.7878379,1.3466806,-0.88681895,0.48514348,-0.08297288,-0.17498398,-0.4957657,0.7767939,-1.4739981,-0.019277895,-0.3789774,-0.14323807,-0.50909233,0.7371872,0.8910745,-0.021914376,0.1588919,0.4245695,-1.3943907,-0.10772304,-0.39836794,0.0,1.0,0.0,0.0,0.0,0.0,0.0,-0.475016,0.09576568,-0.22679389,-4.6554565,1.6531944,-29.964458,5.0628424,0.5324602,-1.435858,-0.45100302
-33.725983,27.901602,-1.4948874,20.064995,1.7647275,0.20300224,-0.5713013,-0.68191385,-0.6753842,-0.52149844,0.7954662,-0.6183939,0.63202435,-0.1435751,0.43701527,-0.9271127,-1.8738993,-1.2978077,1.9514463,1.8101993,-0.9267194,0.49386656,-0.87194246,-1.8310461,-1.3635554,2.0044355,1.7517803,-0.91321564,-1.1474341,-1.2329798,-0.977247,1.3922303,-0.8843268,0.47556508,-0.08627343,-0.18980408,-0.4958458,0.7725721,-1.4837617,-0.0054116063,-0.4395869,-0.15769958,-0.510149,0.7328488,0.89663285,-0.021535447,0.15948723,0.41249168,-1.4622692,-0.09479142,-0.45115778,0.0,1.0,0.0,0.0,0.0,0.0,0.0,-0.4601959,0.09584579,-0.22257209,-5.365658,1.5637398,-19.072163,4.964876,0.24570227,-1.0982335,-0.3571719
-22.14967,40.34438,8.162086,16.994066,1.2785032,0.5467513,-0.2872131,-0.67178804,-0.67811906,-0.5294438,0.7819813,-0.6064179,0.6422171,-0.16673389,0.42668775,-0.93975437,-1.8839905,-1.2853574,1.9437938,1.816002,-0.929889,0.48208693,-0.88416666,-1.8414359,-1.3494635,1.9956217,1.7564933,-0.914114,-1.1875689,-1.219634,-1.0594802,1.415825,-0.8807074,0.46961817,-0.09108503,-0.20479202,-0.49569702,0.76799726,-1.5030732,0.020806115,-0.46645278,-0.17258453,-0.51093864,0.72815955,0.9022549,-0.020516895,0.16027547,0.3997835,-1.4965099,-0.062221024,-0.48045138,0.0,1.0,0.0,0.0,0.0,0.0,0.0,-0.44520795,0.095697016,-0.21799725,-3.8442612,1.1427879,-8.189964,2.6334286,0.18591881,-0.70934296,-0.52597076
-16.865107,49.956894,14.403068,16.109253,1.0344748,0.81722623,-0.12204328,-0.700389,-0.6598287,-0.543337,0.79195255,-0.6170239,0.6266542,-0.0977319,0.412048,-0.95014954,-1.8957696,-1.2702682,1.9339193,1.8191588,-0.9238872,0.46991286,-0.8962192,-1.8521425,-1.335216,1.9868002,1.7611454,-0.91500574,-1.2270089,-1.2011863,-1.0739892,1.4284122,-0.8835478,0.46344015,-0.088697374,-0.22001648,-0.4951992,0.7633419,-1.5282079,0.058730666,-0.4680766,-0.18767548,-0.51130867,0.723319,0.90778464,-0.019147193,0.16125043,0.3867282,-1.5110747,-0.016015721,-0.49080747,0.0,1.0,0.0,0.0,0.0,0.0,0.0,-0.4299835,0.0951992,-0.21334189,-3.8414001,1.6326666,-1.314187,1.445818,-0.57502985,-0.7139206,0.18279105
-4.226013,56.666782,19.870977,12.170798,0.48174822,0.7381516,0.1286724,-0.661868,-0.6551425,-0.5450057,0.79422426,-0.6362859,0.6389865,-0.017250592,0.40372604,-0.96173346,-1.906643,-1.2557936,1.9231716,1.825044,-0.9167308,0.45763478,-0.908102,-1.8627133,-1.3209147,1.9778978,1.7657598,-0.91580486,-1.2281661,-1.1846629,-1.0506185,1.4308963,-0.8929332,0.46108449,-0.07707353,-0.23536682,-0.49429512,0.75874394,-1.5300711,0.0971155,-0.46078825,-0.20267105,-0.51123047,0.71843463,0.91307104,-0.01761137,0.16241628,0.3736468,-1.4950961,0.029144706,-0.4929943,0.0,1.0,0.0,0.0,0.0,0.0,0.0,-0.41463315,0.094295114,-0.20874393,-0.13813972,1.4585018,2.571416,0.32327175,-1.0410666,-0.089138746,1.129739
-2.926629,53.41782,18.04024,10.699175,0.38122386,0.55917513,0.21444568,-0.6667898,-0.6606993,-0.5954689,0.7982205,-0.64843476,0.6130598,0.15272969,0.3909558,-0.9741719,-1.9222603,-1.2410927,1.9130542,1.8270658,-0.9005319,0.445424,-0.9198894,-1.8732044,-1.306608,1.9688956,1.7703602,-0.91635716,-1.2187635,-1.1774452,-1.0477185,1.4307992,-0.9038533,0.45910507,-0.04808485,-0.2504692,-0.49318123,0.7540871,-1.5041517,0.11751435,-0.46957234,-0.21752167,-0.5107517,0.7134537,0.91805696,-0.015879834,0.16373791,0.3607064,-1.4787037,0.06621698,-0.5049005,0.0,1.0,0.0,0.0,0.0,0.0,0.0,-0.39953077,0.09318122,-0.20408708,0.9136677,0.5435467,0.5290985,0.06480217,-1.4186859,-0.23584962,2.821105
5.32819,58.430775,20.808908,8.542137,0.015507698,0.37775928,0.30956244,-0.6226841,-0.63093585,-0.60226667,0.8053921,-0.6603093,0.6327065,0.17174213,0.38315558,-0.982983,-1.933431,-1.2260687,1.9028646,1.8336309,-0.899183,0.43353838,-0.93150896,-1.8837329,-1.2922876,1.9597712,1.7749633,-0.9166158,-1.1788011,-1.1574607,-1.053538,1.4324247,-0.91643304,0.46035177,-0.01875535,-0.2652626,-0.4918766,0.7493865,-1.4710613,0.1360225,-0.4717781,-0.23205948,-0.50995827,0.70838,0.9226973,-0.013926098,0.1652625,0.34802863,-1.443342,0.09651768,-0.5131727,0.0,1.0,0.0,0.0,0.0,0.0,0.0,-0.38473737,0.091876596,-0.19938648,3.9049387,1.8295765,-0.2952814,0.15788078,-1.5787244,0.043475628,2.8506846
6.9427366,51.942657,18.169386,6.738124,0.005378306,0.18811303,0.3507635,-0.6011384,-0.66457766,-0.61438143,0.80177385,-0.6622455,0.6362623,0.21853869,0.37342453,-0.9979667,-1.9451711,-1.2121102,1.8935466,1.8385894,-0.8947619,0.4221353,-0.94311124,-1.8943954,-1.2779672,1.9505329,1.7795802,-0.9165719,-1.1278105,-1.1616191,-1.0695174,1.432043,-0.9272554,0.46176267,0.011891154,-0.27975464,-0.4904213,0.7445594,-1.4419141,0.14943486,-0.48837474,-0.24627686,-0.5089321,0.7031238,0.9269921,-0.011714932,0.16690889,0.33569303,-1.41113,0.11653685,-0.5344883,0.0,1.0,0.0,0.0,0.0,0.0,0.0,-0.37024534,0.09042129,-0.1945594,5.004263,-0.56056976,-1.3232708,-0.01590252,-1.3743639,0.072425604,2.9955058
7.9767666,53.925644,19.000113,6.5003214,-0.008632004,0.19265926,0.37565538,-0.5863403,-0.6504499,-0.6031389,0.795204,-0.66363174,0.634939,0.27330133,0.36350125,-1.0081562,-1.9547093,-1.1984469,1.8841697,1.8430741,-0.88924176,0.41122574,-0.95473367,-1.905155,-1.2636853,1.94121,1.7842098,-0.91621155,-1.0790317,-1.1628512,-1.077086,1.4269056,-0.9351286,0.4630169,0.043869853,-0.2939415,-0.48883438,0.7395839,-1.41091,0.16245416,-0.50200206,-0.2601471,-0.5077019,0.69767535,0.9309473,-0.009255024,0.16863471,0.32374936,-1.3758198,0.13607143,-0.55290556,0.0,1.0,0.0,0.0,0.0,0.0,0.0,-0.35605848,0.088834375,-0.1895839,4.774523,-0.27091503,-0.4668951,-0.506258,-1.0968208,0.048726797,3.1286092
7.3190584,57.24562,20.12127,7.61072,0.09821576,0.24362397,0.34314546,-0.5689933,-0.6389081,-0.5945167,0.80503666,-0.6702285,0.6292293,0.30045515,0.3543264,-1.0186244,-1.9646066,-1.1831816,1.8741872,1.8471328,-0.88616604,0.40075868,-0.9663189,-1.9159145,-1.249409,1.9318146,1.788847,-0.9155429,-1.0362514,-1.1575853,-1.0745522,1.4277848,-0.94235754,0.46350336,0.07427553,-0.3078041,-0.48711205,0.7345258,-1.377966,0.17614968,-0.50855356,-0.27366638,-0.50626373,0.6921003,0.9345801,-0.0065947524,0.17045897,0.31218618,-1.3407695,0.15707965,-0.5636092,0.0,1.0,0.0,0.0,0.0,0.0,0.0,-0.34219587,0.08711204,-0.18452579,4.177451,0.36740303,0.5637646,0.08940697,-1.0642886,-0.039422512,2.9658704
1.6603575,57.803055,19.256388,9.646513,0.3832603,0.36155018,0.26579732,-0.57887495,-0.6372491,-0.5901704,0.8024274,-0.6675738,0.6121582,0.33298954,0.3428712,-1.0300438,-1.9749316,-1.1691662,1.8650572,1.8500628,-0.88224393,0.3905458,-0.97783923,-1.9266038,-1.235125,1.9223696,1.7934709,-0.91457886,-1.0165663,-1.150719,-1.0659971,1.4287342,-0.9465092,0.4616075,0.103537284,-0.3213539,-0.48524475,0.7294093,-1.34733,0.19092785,-0.51416117,-0.28691483,-0.50457954,0.68644077,0.93793166,-0.0037491873,0.17237763,0.3009253,-1.3158213,0.18302129,-0.57108337,0.0,1.0,0.0,0.0,0.0,0.0,0.0,-0.32864606,0.085244745,-0.17940927,1.9031048,0.51374435,1.156807,0.13318062,-0.76663494,-0.29884577,2.864149
-3.317162,56.940025,17.709192,10.93626,0.5847566,0.43058497,0.2006872,-0.58220595,-0.631446,-0.6002939,0.7991942,-0.66043717,0.60643655,0.3666166,0.3323252,-1.0409838,-1.9866332,-1.1552055,1.8563259,1.8541145,-0.8779172,0.38039917,-0.98927283,-1.9372545,-1.2208427,1.9129169,1.7980678,-0.91333055,-1.0141687,-1.1416032,-1.0638565,1.4282056,-0.9461257,0.45847616,0.1318229,-0.33462143,-0.48322868,0.72421503,-1.3196992,0.20588571,-0.52201265,-0.29997635,-0.5025997,0.6807031,0.94104475,-0.0006896584,0.1743747,0.28987515,-1.2997469,0.21235453,-0.57897675,0.0,1.0,0.0,0.0,0.0,0.0,0.0,-0.31537855,0.08322868,-0.17421502,0.20368099,0.7319212,0.497365,0.01692772,-0.30924082,-0.44291615,2.7723863
-4.434161,54.20104,15.73535,10.464666,0.54596394,0.33645028,0.2026901,-0.5671044,-0.63414603,-0.63097537,0.79682696,-0.67590696,0.58864963,0.42473695,0.32368872,-1.0526874,-2.0003521,-1.14116,1.8453262,1.8569328,-0.8708569,0.37028068,-1.0006454,-1.9480463,-1.2065777,1.9034301,1.8026189,-0.91178674,-1.0111604,-1.1363873,-1.0833703,1.426222,-0.9506775,0.45340413,0.16165501,-0.34762955,-0.48108292,0.7188806,-1.2945999,0.2184839,-0.5382376,-0.312912,-0.5003567,0.6748228,0.94393694,0.002687205,0.17644398,0.27900395,-1.286524,0.2379925,-0.5951522,0.0,1.0,0.0,0.0,0.0,0.0,0.0,-0.30237043,0.08108291,-0.16888058,0.27475357,0.34890175,-1.6891241,-0.1083374,-0.77307224,-0.655216,2.927363
-6.954829,52.43161,14.367803,10.6848135,0.6455067,0.34657663,0.18605128,-0.57628053,-0.63837886,-0.6345879,0.7917227,-0.6689983,0.5652917,0.46231657,0.31265262,-1.0644833,-2.0115051,-1.1274054,1.8365303,1.859148,-0.86555505,0.36013222,-1.0120075,-1.9590594,-1.1923546,1.893917,1.8071014,-0.9099463,-1.0160941,-1.1368561,-1.1064312,1.4214118,-0.95260864,0.44591016,0.19129083,-0.36040497,-0.47881317,0.7133389,-1.2721583,0.23026907,-0.5599593,-0.32574844,-0.4978485,0.6687516,0.9466261,0.0064397454,0.17854452,0.2682895,-1.2785256,0.26446113,-0.6151615,0.0,1.0,0.0,0.0,0.0,0.0,0.0,-0.289595,0.078813165,-0.1633389,-0.5064726,-0.21896362,-2.0516872,-0.3674507,-0.5097985,-0.90299845,2.911377
-8.657803,49.129276,12.454721,10.473639,0.6958307,0.2869757,0.18463296,-0.57794327,-0.6565127,-0.65719724,0.7907738,-0.678038,0.53299993,0.5083104,0.30233788,-1.0776588,-2.024779,-1.1132772,1.8261132,1.8604014,-0.8591153,0.34992024,-1.0234764,-1.9703718,-1.1781772,1.8843609,1.8114849,-0.9078064,-1.0229448,-1.1507565,-1.1386012,1.4170868,-0.95759106,0.4353876,0.22141896,-0.37298584,-0.47643852,0.7074989,-1.2533927,0.2402398,-0.59229136,-0.33854675,-0.4950924,0.6624108,0.9491297,0.0106312195,0.18061355,0.2577178,-1.2759211,0.289006,-0.644154,0.0,1.0,0.0,0.0,0.0,0.0,0.0,-0.27701414,0.07643852,-0.1574989,-0.6844044,-1.5571356,-2.9761314,-0.28076172,-0.7955313,-1.2197912,2.9745789
-6.2374,49.88366,13.186616,9.499007,0.663638,0.28731757,0.21998355,-0.5714859,-0.66268057,-0.650904,0.7829361,-0.66357005,0.51262844,0.5374193,0.29277167,-1.0897444,-2.0354621,-1.0998837,1.8180039,1.8627478,-0.85406446,0.33967635,-1.035115,-1.981917,-1.1640686,1.8748047,1.8157557,-0.9053737,-1.0249074,-1.16884,-1.1588659,1.4091673,-0.95610344,0.42369,0.25039348,-0.38537216,-0.47397423,0.70133257,-1.2333446,0.24910963,-0.62460643,-0.35129166,-0.49209595,0.6557878,0.95145035,0.015230748,0.18258318,0.24733268,-1.269177,0.31253913,-0.67213297,0.0,1.0,0.0,0.0,0.0,0.0,0.0,-0.2646278,0.07397422,-0.15133256,-0.2147913,-1.9713879,-1.7607927,-0.65784454,-0.16942024,-1.3444185,2.8658748
7.1037564,53.220066,17.08973,5.759164,0.33140734,0.15799725,0.35099712,-0.5150664,-0.6799277,-0.6179656,0.78120166,-0.6498341,0.51897645,0.53986895,0.2881697,-1.1031078,-2.0437136,-1.0859485,1.8098214,1.8676534,-0.8513868,0.32968995,-1.0469863,-1.9934297,-1.15004,1.8653191,1.8199291,-0.90267986,-0.9901644,-1.1937263,-1.1476314,1.4007409,-0.94712085,0.4147441,0.27553067,-0.39749527,-0.471447,0.6948961,-1.2050968,0.25406817,-0.6493245,-0.3638115,-0.4889469,0.6489315,0.9535634,0.020065509,0.1843793,0.23731504,-1.2414716,0.32490033,-0.69391245,0.0,1.0,0.0,0.0,0.0,0.0,0.0,-0.2525047,0.071446985,-0.14489609,3.3758879,-2.628541,1.4594793,-0.80633163,0.53834915,-1.0365307,2.4745822
3.2849326,50.279354,14.581203,6.1065164,0.34070814,0.09030986,0.31332913,-0.53284997,-0.6904946,-0.6691834,0.7727141,-0.6700356,0.42950344,0.55670905,0.27640495,-1.1160358,-2.060348,-1.0727686,1.7983155,1.8628795,-0.84700894,0.3199777,-1.0591114,-2.0050092,-1.1361145,1.8558602,1.8239541,-0.89975405,-0.9651533,-1.2192857,-1.1604344,1.3899336,-0.9465818,0.3979888,0.2980883,-0.4093666,-0.4688778,0.68815,-1.1807592,0.25772554,-0.6827806,-0.37611008,-0.48569107,0.64179385,0.95548016,0.025208928,0.18599291,0.22765942,-1.2202739,0.3356659,-0.72422165,0.0,1.0,0.0,0.0,0.0,0.0,0.0,-0.24063337,0.06887779,-0.13814998,2.4323583,-2.6960373,-0.98347664,-1.0019541,-0.27605295,-1.832825,2.2153616
4.596188,54.376442,16.038702,6.4086094,0.37309802,0.12243712,0.30773804,-0.5159072,-0.6870089,-0.661217,0.77079314,-0.64780885,0.4198244,0.58385533,0.268387,-1.1278123,-2.0711308,-1.0590352,1.7910794,1.8659365,-0.8413685,0.31052676,-1.0714138,-2.0166895,-1.122288,1.8464599,1.8278145,-0.89661,-0.9386893,-1.2345895,-1.1692945,1.3803934,-0.9389871,0.38155547,0.31963184,-0.42097092,-0.46627617,0.68111706,-1.153309,0.2609761,-0.7096321,-0.38816833,-0.48231697,0.63440484,0.9572099,0.030667331,0.1874385,0.21834724,-1.1955203,0.34669417,-0.74751866,0.0,1.0,0.0,0.0,0.0,0.0,0.0,-0.22902906,0.06627616,-0.13111705,2.5635123,-1.6774893,-0.559783,-0.9039402,0.39479733,-1.8081963,2.0995378
8.88751,55.281563,17.106558,5.271407,0.316601,0.10269433,0.32799363,-0.48301405,-0.70746684,-0.6470702,0.76784223,-0.63471323,0.450099,0.5716542,0.26222536,-1.1421604,-2.0813966,-1.0455037,1.7829885,1.8728243,-0.8394446,0.30142152,-1.0839012,-2.0283701,-1.1085436,1.8371713,1.8315504,-0.89328367,-0.90148497,-1.2537256,-1.1668161,1.3723518,-0.9266865,0.37025002,0.33676797,-0.4322853,-0.46365547,0.6738253,-1.1235904,0.2623266,-0.7346396,-0.3999443,-0.47886086,0.62679785,0.95875853,0.036342237,0.18869492,0.20941709,-1.1654156,0.3537928,-0.76881075,0.0,1.0,0.0,0.0,0.0,0.0,0.0,-0.21771467,0.063655466,-0.12382531,3.6153316,-2.0534277,0.59809685,-0.7797718,0.8591175,-1.3060153,1.6695678
13.789725,59.295914,19.158028,4.3975,0.19340163,0.08150363,0.36159334,-0.45201075,-0.7051315,-0.6378169,0.7601633,-0.6373849,0.43257126,0.574665,0.25622046,-1.1544143,-2.0921519,-1.0325273,1.7734329,1.8748075,-0.83581716,0.292764,-1.0965221,-2.039959,-1.0948927,1.8279891,1.8351778,-0.8898076,-0.8543249,-1.2651752,-1.1548944,1.3624244,-0.9166854,0.35968998,0.35104072,-0.4432602,-0.4610386,0.6663434,-1.088539,0.26149485,-0.7518173,-0.4113388,-0.47536278,0.61902434,0.9601208,0.04216358,0.18978718,0.20092566,-1.1258941,0.3560829,-0.7837208,0.0,1.0,0.0,0.0,0.0,0.0,0.0,-0.20673978,0.061038584,-0.11634338,4.581511,-1.2834787,1.5811443,-1.018405,0.5907059,-1.2288094,1.3645232
3.053201,58.102554,16.517103,7.443299,0.5705755,0.22313684,0.24341975,-0.48579484,-0.71271574,-0.6513718,0.7515313,-0.6239896,0.3850618,0.57311124,0.24418452,-1.1677936,-2.105096,-1.0197396,1.7655902,1.8736839,-0.83249646,0.28433114,-1.1092459,-2.0514908,-1.0813563,1.818917,1.838672,-0.8862096,-0.8398672,-1.2750628,-1.1515529,1.3507787,-0.90535915,0.34528598,0.36267442,-0.45393372,-0.45841217,0.65864646,-1.0597255,0.2632587,-0.7747077,-0.4224739,-0.47176552,0.61108845,0.96132886,0.04816943,0.19071366,0.1927556,-1.1025313,0.36910573,-0.8003586,0.0,1.0,0.0,0.0,0.0,0.0,0.0,-0.19606626,0.058412164,-0.10864645,1.3642907,-1.1436224,0.69208145,-1.1155844,0.7323265,-1.6364038,1.1188328
6.0434957,61.46393,18.201061,7.1666117,0.60882574,0.24825755,0.25161758,-0.4529994,-0.71459824,-0.6212502,0.745837,-0.5965355,0.37059316,0.5799052,0.2390312,-1.1807057,-2.1136158,-1.0067726,1.7592635,1.8757313,-0.82821906,0.27607846,-1.1220404,-2.06287,-1.06794,1.8100202,1.8420225,-0.8825051,-0.8207797,-1.2814401,-1.132429,1.3384582,-0.8859093,0.33093756,0.37294075,-0.46429443,-0.4557762,0.65076524,-1.0275953,0.26363972,-0.79124475,-0.43333817,-0.4680462,0.6030412,0.9624003,0.05429548,0.191452,0.18488817,-1.0744916,0.3806711,-0.8097617,0.0,1.0,0.0,0.0,0.0,0.0,0.0,-0.18570554,0.05577621,-0.10076523,1.8062115,-0.7916212,2.3073435,-1.2174606,1.5094638,-1.6373396,0.9838104
4.7692075,64.19386,18.884796,8.263563,0.77399635,0.33596215,0.21193856,-0.45044607,-0.7158525,-0.5970947,0.7455432,-0.58705336,0.37036225,0.58414835,0.23103386,-1.1936257,-2.1225796,-0.9933857,1.7513149,1.8790587,-0.8240903,0.26796937,-1.1348788,-2.0739632,-1.054621,1.8013223,1.8452423,-0.87870675,-0.80794984,-1.2850564,-1.1000832,1.3299172,-0.86593443,0.31822327,0.38199636,-0.4743271,-0.45313835,0.64276016,-0.994431,0.26395363,-0.8031317,-0.44392395,-0.4641819,0.5949462,0.9633493,0.060453948,0.1920066,0.17730437,-1.0478565,0.3951199,-0.8125405,0.0,1.0,0.0,0.0,0.0,0.0,0.0,-0.17567289,0.053138345,-0.092760146,1.1805773,-0.52108765,3.6549091,-0.84068775,1.5336752,-1.4820337,0.8700788
1.6467915,65.81487,18.876202,9.477984,1.021894,0.41518125,0.1639139,-0.46124712,-0.7175923,-0.5684649,0.7325988,-0.545549,0.30159846,0.5890786,0.22184466,-1.206638,-2.1308095,-0.9813611,1.7467674,1.8754021,-0.8197989,0.25989124,-1.1477438,-2.0846364,-1.0414144,1.7929085,1.8482952,-0.87482446,-0.80808485,-1.2873228,-1.0551223,1.3176038,-0.8346963,0.30031168,0.3902044,-0.4840355,-0.45049095,0.63463753,-0.962429,0.26472396,-0.81366277,-0.45428467,-0.46014214,0.5868602,0.9642058,0.06657331,0.1923315,0.16995178,-1.0261623,0.41417453,-0.8104626,0.0,1.0,0.0,0.0,0.0,0.0,0.0,-0.16596448,0.050490946,-0.08463752,-0.106692314,-0.38964748,4.9257994,-1.2067795,2.6405811,-2.007234,0.8025348
-1.7467445,67.98965,19.131199,10.668633,1.3352566,0.48909763,0.11643882,-0.48020682,-0.71649724,-0.5200847,0.7088507,-0.47868833,0.14742967,0.59146756,0.21187055,-1.2193935,-2.1366448,-0.9705293,1.7450397,1.8630382,-0.8156777,0.25168532,-1.1606146,-2.0947073,-1.0284158,1.7849633,1.851066,-0.8708679,-0.82501143,-1.2873806,-0.9898908,1.2939116,-0.7828729,0.26848534,0.39755327,-0.4934349,-0.447834,0.6264264,-0.93171614,0.26613796,-0.8221354,-0.46447754,-0.45586586,0.5788448,0.9650162,0.07257663,0.19230439,0.16277403,-1.0098834,0.43845817,-0.80162585,0.0,1.0,0.0,0.0,0.0,0.0,0.0,-0.15656507,0.04783401,-0.07642639,-1.7775416,-0.16989708,6.9621325,-2.3380756,4.6690106,-3.4062505,0.7422805
6.4985113,76.49936,24.680098,9.945936,1.7727233,0.5763798,0.11426073,-0.46930513,-0.7170961,-0.36438525,0.68105334,-0.31025925,-0.01625666,0.5911862,0.2047548,-1.2323242,-2.1311457,-0.96031046,1.7539374,1.8494403,-0.8117493,0.24335112,-1.1734797,-2.1035075,-1.0157605,1.7779838,1.8534137,-0.8668438,-0.83665055,-1.286767,-0.8416865,1.2557669,-0.67159116,0.22278272,0.40424678,-0.5024719,-0.445179,0.6182808,-0.89342654,0.2650006,-0.81025404,-0.47444534,-0.4513569,0.57111585,0.96586424,0.07805976,0.19165653,0.15582255,-0.9865003,0.46111456,-0.7662693,0.0,1.0,0.0,0.0,0.0,0.0,0.0,-0.14752805,0.04517898,-0.068280816,-1.2975097,-0.09288788,15.354323,-3.869915,10.509527,-4.7868013,0.7192254
1.857672,76.907005,24.652727,10.78442,2.4761734,0.6700705,0.029367715,-0.51946616,-0.7215737,-0.27389994,0.6127205,-0.05205713,-0.24196243,0.59346837,0.19140449,-1.245637,-2.1308975,-0.9544885,1.772778,1.8292174,-0.80749696,0.2347003,-1.1863581,-2.1105607,-1.0037519,1.772786,1.8551607,-0.86275643,-0.87489086,-1.2886313,-0.65839016,1.1824533,-0.47100374,0.15794128,0.41060045,-0.5111656,-0.44251823,0.61024266,-0.86095715,0.2663025,-0.80031973,-0.48428726,-0.44654846,0.56379986,0.9668879,0.08266061,0.18994008,0.14905639,-0.9772325,0.49379265,-0.7228532,0.0,1.0,0.0,0.0,0.0,0.0,0.0,-0.13883436,0.04251823,-0.060242653,-3.9287806,-0.32863617,18.815613,-7.363677,19.460518,-6.710884,0.7483065
17.912151,86.2287,31.846607,7.3849545,2.730392,0.7453182,0.09820102,-0.49336678,-0.71581775,-0.054517135,0.5403873,0.20153156,-0.32024834,0.59169847,0.18536362,-1.2579398,-2.1160123,-0.9497132,1.7929392,1.8231359,-0.8035866,0.22582133,-1.199227,-2.115092,-0.9927326,1.7701629,1.8562491,-0.8586127,-0.8927433,-1.2868749,-0.38264868,1.0746593,-0.19479413,0.091808245,0.41595295,-0.5194435,-0.4398861,0.60249835,-0.81613123,0.26195586,-0.7640739,-0.4939041,-0.4414749,0.55712444,0.96820426,0.085782155,0.18677242,0.14261124,-0.9506386,0.5180474,-0.6518317,0.0,1.0,0.0,0.0,0.0,0.0,0.0,-0.13055646,0.039886087,-0.05249834,-1.9371271,0.05352497,28.123564,-10.924959,26.97657,-6.791866,0.6394625
47.069824,92.832504,40.148167,-0.5361934,2.1766229,0.6177096,0.33206207,-0.42468786,-0.72865963,0.20266496,0.4533047,0.33064044,-0.35963723,0.5585933,0.18335254,-1.2720929,-2.0948255,-0.9474021,1.803227,1.8202853,-0.8027534,0.21716677,-1.212134,-2.116122,-0.9830356,1.7703366,1.8567184,-0.854449,-0.8570152,-1.2924905,-0.0076868655,0.93379515,0.085898794,0.03183305,0.41658628,-0.52711487,-0.4373951,0.59535295,-0.7511647,0.2445536,-0.69761497,-0.5029602,-0.43637848,0.551298,0.96985054,0.08679626,0.18200384,0.13686112,-0.886544,0.51221484,-0.56231606,0.0,1.0,0.0,0.0,0.0,0.0,0.0,-0.12288511,0.03739509,-0.045352936,3.3721209,-0.66838264,38.118557,-14.345848,27.410645,-6.057016,0.08702278
47.969933,82.29365,34.68493,-2.7562017,1.570448,0.15585971,0.36236304,-0.401411,-0.730602,0.17517903,0.40959302,0.45452678,-0.4742053,0.55652434,0.17702566,-1.2851942,-2.0986042,-0.9420763,1.8157893,1.8092979,-0.79879653,0.2090415,-1.2251097,-2.114196,-0.97468525,1.7731503,1.8565754,-0.8502914,-0.7981344,-1.2996308,0.2606762,0.80166584,0.34492826,-0.029703053,0.4154823,-0.53419876,-0.43510628,0.5887184,-0.69451386,0.22371128,-0.6530096,-0.51143265,-0.43146324,0.5461218,0.9717768,0.08592936,0.17571704,0.13186958,-0.8292254,0.49021077,-0.505568,0.0,1.0,0.0,0.0,0.0,0.0,0.0,-0.115801215,0.03510627,-0.038718402,5.755472,-0.81915855,27.29092,-13.351774,25.45852,-6.1575117,-0.120693445
47.987198,89.582275,35.200768,1.4479448,1.4457803,-0.07737324,0.20911744,-0.33383238,-0.69361377,0.25924265,0.4754428,0.5075964,-0.44689825,0.57739854,0.17565827,-1.294471,-2.0882719,-0.92714095,1.82391,1.8118856,-0.7925515,0.2017655,-1.2379748,-2.1101186,-0.9669967,1.7781336,1.8559054,-0.846134,-0.70437574,-1.2824103,0.45827246,0.7578,0.54827094,-0.07937871,0.41569826,-0.5406914,-0.43305588,0.58265495,-0.6358571,0.19916652,-0.5934693,-0.51935196,-0.42682648,0.54156387,0.9738733,0.0835405,0.16838047,0.12743509,-0.7777075,0.45951363,-0.4420122,0.0,1.0,0.0,0.0,0.0,0.0,0.0,-0.1093086,0.03305587,-0.03265494,9.291088,1.6052485,20.186102,-4.4359446,20.002777,-4.9279056,-0.027185678
47.569206,89.8308,34.199455,1.9186751,1.1408451,-0.15115595,0.21763043,-0.29246396,-0.68765426,0.37726274,0.4268353,0.5716565,-0.41944152,0.57629687,0.1725191,-1.3067402,-2.0723925,-0.9243132,1.8352993,1.8139613,-0.7885043,0.19548368,-1.2506224,-2.1042905,-0.9596174,1.7847912,1.8548237,-0.84197485,-0.60297906,-1.2591305,0.6257866,0.7314178,0.70371705,-0.11760988,0.41579804,-0.54660416,-0.43126297,0.57720715,-0.57794863,0.17324756,-0.5322825,-0.52677155,-0.4225254,0.5375989,0.9760439,0.079858296,0.16035362,0.12348149,-0.72600156,0.42443836,-0.3843178,0.0,1.0,0.0,0.0,0.0,0.0,0.0,-0.10339582,0.031262964,-0.027207136,10.086739,2.2030592,17.148935,-2.6180267,15.27431,-3.7517204,-0.039464235
36.75015,98.24218,34.2489,7.989628,1.381879,0.033421576,0.05905082,-0.2670627,-0.64446634,0.4627491,0.46300495,0.5911577,-0.30091336,0.58004856,0.16877742,-1.3150691,-2.0580156,-0.9133169,1.843907,1.8247324,-0.78397,0.19011481,-1.2628618,-2.0969558,-0.95215505,1.7926062,1.8535,-0.8378114,-0.51484483,-1.2127001,0.7704164,0.75154084,0.80661243,-0.13693073,0.41643757,-0.55194855,-0.42970467,0.57248396,-0.5214268,0.15062392,-0.456758,-0.53372955,-0.41848183,0.53430456,0.9782072,0.07504533,0.15205048,0.119831614,-0.684497,0.40225476,-0.31454492,0.0,1.0,0.0,0.0,0.0,0.0,0.0,-0.09805143,0.02970466,-0.022483945,8.817601,4.5194626,14.795506,2.1135688,10.103952,-1.8346161,0.032234192
40.695145,100.83996,34.90776,6.1669226,0.910337,0.0829121,0.17445356,-0.20204613,-0.60978067,0.5425549,0.41169629,0.6286164,-0.14061643,0.56249535,0.16991019,-1.3238399,-2.0427003,-0.9109854,1.8554679,1.8394383,-0.78156185,0.18567146,-1.2745329,-2.0882635,-0.944649,1.8012143,1.8521475,-0.8336541,-0.42081094,-1.1523434,0.9034217,0.75080186,0.87802154,-0.1343324,0.4154312,-0.55669785,-0.4283867,0.56857276,-0.461948,0.12641114,-0.37514988,-0.5401726,-0.41469765,0.5316954,0.9802909,0.06919358,0.14373662,0.11654098,-0.6308615,0.3745166,-0.24643435,0.0,1.0,0.0,0.0,0.0,0.0,0.0,-0.09330213,0.028386682,-0.018572748,9.413921,5.8963537,13.634944,0.06380081,6.969154,0.3995329,-0.119268894
32.58134,89.11149,28.97146,2.4640932,0.36171782,0.20854156,0.38271195,-0.22319028,-0.5923986,0.56461334,0.25264886,0.66949606,-0.057316355,0.54351145,0.16335243,-1.3337728,-2.0318022,-0.9193841,1.868164,1.8464159,-0.77930295,0.18182965,-1.2856241,-2.078537,-0.93791527,1.8104118,1.8509076,-0.8295203,-0.3719298,-1.0952517,0.9965787,0.648146,0.9332212,-0.11983544,0.41284356,-0.5609131,-0.4272747,0.5652568,-0.4102959,0.107085094,-0.3233595,-0.546051,-0.41114426,0.5295155,0.98224777,0.062557995,0.13535814,0.11381549,-0.57356274,0.35309494,-0.21221197,0.0,1.0,0.0,0.0,0.0,0.0,0.0,-0.08908689,0.027274698,-0.0152567625,4.9061956,5.587435,9.478199,-10.113943,5.47086,1.6544014,-0.22155046
29.711195,82.67864,25.151182,-2.266028,-0.39126185,0.20416412,0.6576655,-0.2297799,-0.53572273,0.56183344,0.068571545,0.6963432,-0.12756297,0.54621714,0.15885165,-1.3391964,-2.0223536,-0.9310581,1.8800461,1.8381512,-0.7748986,0.17820224,-1.2960268,-2.0682533,-0.93308043,1.8200799,1.8497651,-0.82540876,-0.3596199,-1.0224546,1.0391072,0.42912364,0.9779632,-0.111233205,0.4108421,-0.5646324,-0.42634583,0.5622974,-0.361093,0.08897713,-0.29324564,-0.5512619,-0.40782928,0.5274849,0.98402894,0.05552686,0.12677597,0.111944504,-0.50322294,0.3276569,-0.20371129,0.0,1.0,0.0,0.0,0.0,0.0,0.0,-0.08536756,0.02634582,-0.012297392,1.2472928,7.1769953,4.2237043,-21.750116,4.5772076,1.163672,-0.123119354
25.618935,73.730385,21.302176,-4.1715574,-0.6772568,0.115091644,0.7429982,-0.22710933,-0.52582645,0.57646316,-0.031766374,0.70746183,-0.16579299,0.5656777,0.1554913,-1.3486094,-2.010607,-0.93625706,1.8908261,1.8331858,-0.76884097,0.1745533,-1.3058077,-2.0577488,-0.9307006,1.8301021,1.8486696,-0.82129925,-0.3665412,-0.9635133,1.053871,0.17482334,1.0107232,-0.10791554,0.41137534,-0.56790924,-0.42557907,0.55947834,-0.31855413,0.07313403,-0.28467602,-0.5557747,-0.40478325,0.52538013,0.9856102,0.048380096,0.11788121,0.111067064,-0.4354044,0.30084357,-0.21588078,0.0,1.0,0.0,0.0,0.0,0.0,0.0,-0.082090735,0.025579065,-0.009478331,-0.6563127,5.8182716,1.3156176,-25.254662,3.4821272,0.6507039,0.18212199
29.066793,70.97073,20.356483,-5.380336,-0.98049074,-0.11180107,0.75191414,-0.18686563,-0.496422,0.5542887,-0.10383145,0.71023875,-0.1540327,0.568369,0.15586674,-1.3554499,-2.0023198,-0.9410837,1.9011259,1.8332664,-0.76446235,0.17096825,-1.3150412,-2.047347,-0.9307008,1.8403609,1.847607,-0.8171794,-0.35566404,-0.9101194,1.035112,-0.05759495,1.0315977,-0.10465673,0.41268086,-0.5707855,-0.42498016,0.5566765,-0.2788819,0.05589898,-0.2838208,-0.5596161,-0.4020729,0.5230977,0.9869704,0.041305557,0.10871202,0.11119778,-0.3673337,0.26305908,-0.23496714,0.0,1.0,0.0,0.0,0.0,0.0,0.0,-0.07921445,0.024980158,-0.006676495,1.1407673,5.281234,-2.073598,-23.027882,2.3380756,0.63788146,0.2996087
46.9744,63.098488,20.181612,-12.3031645,-1.7523615,-0.503607,0.9126767,-0.10946764,-0.50305855,0.55179095,-0.22622392,0.72159714,-0.08280514,0.5714517,0.16002148,-1.365347,-1.992168,-0.9533232,1.9125206,1.8393265,-0.7600342,0.1678601,-1.3239352,-2.0371969,-0.9329525,1.8507888,1.8466283,-0.81304425,-0.29568905,-0.8827598,1.0080229,-0.28019726,1.0470035,-0.09466642,0.4144361,-0.5732651,-0.4246025,0.5537733,-0.23855878,0.03212004,-0.29652494,-0.56267166,-0.39995956,0.5205102,0.98808575,0.034351308,0.09924903,0.11249905,-0.28533012,0.19640541,-0.2686021,0.0,1.0,0.0,0.0,0.0,0.0,0.0,-0.0767349,0.024602503,-0.003773272,6.0507655,2.666068,-2.8413296,-22.021324,1.7400265,1.2800679,0.37596226
32.74763,65.11654,19.340216,-4.320617,-0.903146,-0.39428145,0.557695,-0.11439197,-0.49139258,0.53789926,-0.19071761,0.7219311,0.048293363,0.5802772,0.15642092,-1.3730744,-1.9834069,-0.9520243,1.922982,1.8514576,-0.7550165,0.16531341,-1.3326422,-2.0273588,-0.9366389,1.8613138,1.8458403,-0.8088872,-0.24069631,-0.8667505,0.97535336,-0.3973064,1.0551221,-0.07263156,0.41685295,-0.5754204,-0.42440796,0.55075157,-0.20879556,0.015069625,-0.30602232,-0.5651207,-0.39834785,0.5176636,0.98896956,0.027469452,0.089645475,0.11466562,-0.2320762,0.15021457,-0.29137683,0.0,1.0,0.0,0.0,0.0,0.0,0.0,-0.0745796,0.024407953,-0.00075155497,5.58607,1.5826821,-3.4555316,-11.464477,1.0716677,2.4465144,0.4680276
