Afshin1997/kuka_rl_ros2/src/catch_and_throw/input_files/idealpd/recorded_trajectories/env_72_data.csv
torque0,torque1,torque2,torque3,torque4,torque5,torque6,action0,action1,action2,action3,action4,action5,action6,set_target_0,set_target_1,set_target_2,set_target_3,set_target_4,set_target_5,set_target_6,joint_pos_0,joint_pos_1,joint_pos_2,joint_pos_3,joint_pos_4,joint_pos_5,joint_pos_6,joint_vel_0,joint_vel_1,joint_vel_2,joint_vel_3,joint_vel_4,joint_vel_5,joint_vel_6,tennisball_pos_0,tennisball_pos_1,tennisball_pos_2,tennisball_lin_vel_0,tennisball_lin_vel_1,tennisball_lin_vel_2,end_effector_pos_0,end_effector_pos_1,end_effector_pos_2,end_effector_rot_0,end_effector_rot_1,end_effector_rot_2,end_effector_rot_3,end_effector_lin_vel_0,end_effector_lin_vel_1,end_effector_lin_vel_2,obs_task_0,obs_task_1,obs_task_2,obs_task_3,obs_task_4,obs_task_5,obs_task_6,to_final_target_0,to_final_target_1,to_final_target_2,joint_acc_0,joint_acc_1,joint_acc_2,joint_acc_3,joint_acc_4,joint_acc_5,joint_acc_6
0.0,0.0,0.0,0.0,0.0,0.0,0.0,0.0,0.0,0.0,0.0,0.0,0.0,0.0,1.7802359,-1.0646509,-1.8151424,-1.1170107,1.9373155,1.1170107,-0.91629785,1.7802359,-1.0646509,-1.8151424,-1.1170107,1.9373155,1.1170107,-0.91629785,0.0,0.0,0.0,0.0,0.0,0.0,0.0,2.9925957,-0.4215889,0.2707979,-3.4209127,-0.2646713,4.690696,0.5304184,-0.45449638,0.693097,0.5745483,0.17512383,0.15255436,0.7848268,0.0,0.0,0.0,1.0,0.0,0.0,0.0,0.0,0.0,0.0,-3.6425958,0.021588892,0.2792021,0.0,0.0,0.0,0.0,0.0,0.0,0.0
0.0,0.0,0.0,0.0,0.0,0.0,0.0,0.0,0.0,0.0,0.0,0.0,0.0,0.0,1.7802359,-1.0646509,-1.8151424,-1.1170107,1.9373155,1.1170107,-0.91629785,1.7802359,-1.0646509,-1.8151424,-1.1170107,1.9373155,1.1170107,-0.91629785,0.0,0.0,0.0,0.0,0.0,0.0,0.0,2.9925957,-0.4215889,0.2707979,-3.4209127,-0.2646713,4.690696,0.5304184,-0.45449638,0.693097,0.5745483,0.17512383,0.15255436,0.7848268,0.0,0.0,0.0,1.0,0.0,0.0,0.0,0.0,0.0,0.0,-3.6425958,0.021588892,0.2792021,0.0,0.0,0.0,0.0,0.0,0.0,0.0
0.0,0.0,0.0,0.0,0.0,0.0,0.0,0.0,0.0,0.0,0.0,0.0,0.0,0.0,1.7802359,-1.0646509,-1.8151424,-1.1170107,1.9373155,1.1170107,-0.91629785,1.7802359,-1.0646509,-1.8151424,-1.1170107,1.9373155,1.1170107,-0.91629785,0.0,0.0,0.0,0.0,0.0,0.0,0.0,2.9925957,-0.4215889,0.2707979,-3.4209127,-0.2646713,4.690696,0.5304184,-0.45449638,0.693097,0.5745483,0.17512383,0.15255436,0.7848268,0.0,0.0,0.0,1.0,0.0,0.0,0.0,0.0,0.0,0.0,-3.6425958,0.021588892,0.2792021,0.0,0.0,0.0,0.0,0.0,0.0,0.0
-176.0,49.745903,-13.830788,110.0,10.5687895,4.0645475,-3.8499143,-0.80371815,0.25514415,-0.5594669,0.7330925,0.052648585,0.6785784,-0.59189636,1.699864,-1.0391365,-1.8710891,-1.0437014,1.9425803,1.1848686,-0.9754875,1.7791239,-1.0629724,-1.8209598,-1.1115614,1.9415517,1.1223494,-0.9177961,-0.14811338,0.22300068,-0.7753495,0.7271583,0.5642551,0.7101148,-0.1991011,2.9584122,-0.42423248,0.3169332,-3.4174924,-0.26440668,4.58782,0.5283432,-0.45789528,0.6937272,0.57848144,0.17354491,0.15116274,0.7825542,-0.27716106,-0.45395985,0.083711416,1.0,0.0,0.0,0.0,0.0,0.0,0.0,-3.6084123,0.024232477,0.2330668,-14.707738,22.12321,-77.455414,72.85501,56.241024,70.549774,-19.73582
-176.0,-53.22044,-54.52229,108.85085,11.764595,0.556583,-3.0550213,-0.79746974,-0.2843486,-0.5539303,0.7077766,0.26228607,0.65350693,-0.6053146,1.699377,-1.0914073,-1.8763528,-1.0407838,1.9677804,1.1877,-0.9783275,1.7781302,-1.061601,-1.8358963,-1.0959135,1.9493108,1.1357142,-0.91787046,-0.08471224,0.098790124,-1.7104235,1.8456868,0.83494836,1.5176369,0.051452916,2.924263,-0.42687416,0.36204055,-3.4140756,-0.26414233,4.4850473,0.5238037,-0.46672058,0.6940839,0.58690166,0.16993164,0.14777805,0.7777089,-0.51327986,-1.0228572,0.022530388,1.0,0.0,0.0,0.0,0.0,0.0,0.0,-3.574263,0.026874155,0.18795946,5.8390527,-15.3213,-86.753395,112.327194,23.66439,72.41395,23.563025
-149.20067,101.51559,28.738062,86.7512,7.8573117,7.295996,-1.4973602,-0.73753464,0.14562793,0.21254155,0.64956975,0.36080062,0.6837782,-0.49914664,1.7043767,-1.0470382,-1.8146421,-1.0309565,1.9853909,1.204092,-0.9677851,1.7741209,-1.0604166,-1.8503845,-1.0758196,1.9577718,1.1507574,-0.91757864,-0.50630856,0.12224384,-1.3552582,2.0657084,0.8446452,1.4943272,0.021062145,2.8901482,-0.42951393,0.40612093,-3.4106622,-0.26387823,4.3823767,0.5164528,-0.47842598,0.6958527,0.59789824,0.16473256,0.14285836,0.7713445,-0.816097,-1.2124605,0.23206167,1.0,0.0,0.0,0.0,0.0,0.0,0.0,-3.5401483,0.029513925,0.14387909,-42.111664,1.4675975,37.37192,22.486233,-0.621438,-3.9971113,-3.2812688
-102.40504,94.12193,36.114788,53.560246,5.2717953,7.161426,-0.050618675,-0.77062464,-0.07438442,0.29402336,0.6698569,0.37203088,0.663315,-0.5740241,1.6970584,-1.067855,-1.8209821,-1.0088339,1.9949749,1.2170889,-0.97498107,1.7656962,-1.0599302,-1.8585308,-1.0561186,1.9656129,1.1647478,-0.9177951,-0.9550248,0.021994155,-0.62736446,1.9391387,0.7579211,1.3641969,-0.0368519,2.8560677,-0.4321499,0.4491754,-3.4072523,-0.26361442,4.279809,0.50650024,-0.4909687,0.6993576,0.6095981,0.15830036,0.1362947,0.7646927,-1.0671117,-1.2562919,0.3931628,1.0,0.0,0.0,0.0,0.0,0.0,0.0,-3.5060678,0.03214988,0.100824624,-45.05398,-10.598306,74.91127,-12.40406,-10.488569,-13.917351,-6.0678744
-52.621876,97.5617,39.864597,27.44209,2.7529051,5.9870963,0.6604732,-0.79315174,-0.037092626,0.28686357,0.6506243,0.51515585,0.66975373,-0.56860703,1.686381,-1.0636395,-1.8298444,-0.9910562,2.0171285,1.2317232,-0.9746558,1.7534701,-1.0602144,-1.8595779,-1.0389544,1.9728932,1.1772944,-0.9186267,-1.3125119,-0.04638412,0.074922465,1.6421088,0.71372604,1.2171265,-0.09951401,2.8220215,-0.43478394,0.49120492,-3.4038458,-0.26335084,4.177344,0.49463272,-0.5031929,0.7041256,0.62085336,0.15106015,0.12819119,0.7584779,-1.2386051,-1.1994536,0.5050698,1.0,0.0,0.0,0.0,0.0,0.0,0.0,-3.4720216,0.03478393,0.058795094,-35.955666,-7.211224,71.81275,-29.733635,-5.7377815,-15.019584,-6.565076
-12.0329275,114.885,43.98939,13.941239,0.5715847,4.7878704,0.5850587,-0.8029501,0.11216979,0.2705479,0.6512666,0.53486204,0.65862083,-0.588697,1.6731751,-1.0489974,-1.8325231,-0.9738277,2.0263793,1.2431564,-0.97749645,1.7387835,-1.0602964,-1.8553722,-1.0246588,1.9799523,1.1884905,-0.9200515,-1.5214044,0.0035673445,0.53914034,1.3583479,0.70096415,1.0873785,-0.15809067,2.7880096,-0.43741608,0.5322106,-3.4004426,-0.26308754,4.074981,0.48163223,-0.51439667,0.70992315,0.6313517,0.14325619,0.11930444,0.75275433,-1.3320235,-1.0813634,0.6023206,1.0,0.0,0.0,0.0,0.0,0.0,0.0,-3.4380097,0.03741607,0.017789423,-21.079922,4.6803937,47.422173,-28.496742,-1.9701719,-12.918615,-6.2546372
14.5307865,142.66373,48.740215,8.743517,-1.384033,3.919494,0.11431202,-0.817812,0.3408724,0.16172801,0.6044569,0.51093495,0.6527537,-0.5868446,1.6570023,-1.0262091,-1.8391994,-0.96421313,2.031046,1.2537658,-0.978736,1.7229353,-1.0586027,-1.8489158,-1.0127512,1.9869523,1.198548,-0.9220008,-1.6069384,0.22356252,0.6831519,1.134595,0.69882905,0.9796621,-0.20883828,2.7540283,-0.4400444,0.5721934,-3.3970428,-0.2628245,3.9727209,0.46817398,-0.52407074,0.7167596,0.64129657,0.13500118,0.11089156,0.74713886,-1.3625076,-0.9186889,0.7072747,1.0,0.0,0.0,0.0,0.0,0.0,0.0,-3.4040284,0.040044397,-0.022193372,-8.784819,21.697098,15.033364,-22.44942,-0.45611858,-10.475552,-5.5627403
28.580288,156.74168,50.25076,7.4550176,-2.3200102,3.2542672,-0.21884657,-0.82399946,0.49833822,0.11854725,0.56773525,0.5355719,0.6530288,-0.5810279,1.6405354,-1.0087689,-1.837061,-0.9559777,2.0405095,1.2638508,-0.9801036,1.7068449,-1.0540231,-1.8426082,-1.0024992,1.9940591,1.2076727,-0.9243898,-1.6104547,0.5352169,0.614834,0.98893464,0.71461374,0.8910991,-0.25047076,2.7200851,-0.44267082,0.6111543,-3.3936465,-0.26256174,3.870563,0.45468903,-0.5320282,0.7246928,0.65097433,0.12636675,0.10385265,0.7412681,-1.3538314,-0.74299186,0.8188057,1.0,0.0,0.0,0.0,0.0,0.0,0.0,-3.3700852,0.042670816,-0.061154306,-0.6064415,30.895239,-6.348431,-14.576507,1.51968,-8.538103,-4.6251984
39.960926,160.86954,52.05896,5.5741577,-2.547202,2.994462,-0.1734426,-0.81251645,0.6086052,0.1912205,0.515299,0.59415466,0.6393108,-0.5775849,1.6255933,-0.99316263,-1.8234862,-0.95096934,2.0534747,1.2716038,-0.9821483,1.6910788,-1.0462755,-1.8372333,-0.993322,2.0015142,1.2160155,-0.92713636,-1.5661411,0.8538793,0.51349354,0.89406866,0.7555413,0.816062,-0.2841074,2.6861725,-0.44529533,0.64909446,-3.3902535,-0.26229924,3.7685075,0.44142914,-0.53819656,0.7338054,0.66044176,0.117324084,0.098329425,0.7351075,-1.3244406,-0.56162757,0.93935835,1.0,0.0,0.0,0.0,0.0,0.0,0.0,-3.3361726,0.045295328,-0.09909445,4.1764736,31.621193,-9.619606,-9.498083,4.0334105,-7.289386,-3.7941456
40.269382,146.50934,47.524307,5.3282185,-2.191226,2.5359507,-0.11358947,-0.7966894,0.67907834,0.20182474,0.5056323,0.6027119,0.63698786,-0.5554155,1.6114099,-0.9783677,-1.8170508,-0.9427588,2.0617855,1.2797142,-0.98267794,1.6758963,-1.0357641,-1.8327854,-0.9847046,2.009384,1.2236983,-0.9301538,-1.50303,1.1160635,0.42359766,0.85094947,0.7970793,0.752602,-0.30874735,2.652298,-0.44791603,0.68601483,-3.386864,-0.26203698,3.666554,0.42847824,-0.54271317,0.74400324,0.66969186,0.10787473,0.09408049,0.72871435,-1.2902293,-0.40200713,1.0438906,1.0,0.0,0.0,0.0,0.0,0.0,0.0,-3.302298,0.047916025,-0.13601482,6.099272,26.022434,-8.516634,-4.3386817,4.106879,-6.255245,-2.8307736
31.440086,120.37348,38.414543,6.402396,-1.4745239,1.9529085,-0.08860597,-0.79083186,0.71705216,0.18305023,0.5088428,0.6042181,0.6601772,-0.5426012,1.5968131,-0.9640589,-1.8144803,-0.9338203,2.0698056,1.289716,-0.9844139,1.6612879,-1.0232824,-1.8290832,-0.97622263,2.0176008,1.2308413,-0.9333667,-1.4471112,1.2916521,0.35375994,0.8470525,0.82977724,0.7016047,-0.3264799,2.618454,-0.45053482,0.72191644,-3.3834777,-0.26177502,3.5647023,0.4157982,-0.545948,0.7549859,0.6787521,0.098118715,0.09074414,0.7221037,-1.2638952,-0.2819623,1.1135845,1.0,0.0,0.0,0.0,0.0,0.0,0.0,-3.268454,0.050534815,-0.17191643,5.4299116,17.41917,-6.5980554,-0.45626163,3.249693,-5.088103,-2.0767748
24.53277,95.62945,30.14275,5.940701,-0.9009048,1.4218123,8.6694956e-05,-0.77773315,0.74134254,0.18065768,0.49382135,0.62226075,0.6609564,-0.53572947,1.5835146,-0.9491482,-1.8110174,-0.9268405,2.0798268,1.2969369,-0.98693967,1.6471506,-1.0096544,-1.8258502,-0.9677063,2.0261114,1.2375437,-0.9367227,-1.4031342,1.3861643,0.31432536,0.8527426,0.8582811,0.6599574,-0.3394843,2.5846443,-0.4531517,0.7568003,-3.380095,-0.2615133,3.4629526,0.40332413,-0.5482178,0.76639974,0.6875977,0.08820028,0.087944455,0.71532923,-1.243534,-0.1938694,1.1477809,1.0,0.0,0.0,0.0,0.0,0.0,0.0,-3.2346444,0.053151697,-0.20680028,4.265952,9.359479,-3.613776,0.44105053,2.847135,-4.1488886,-1.5782535
15.784777,73.187614,21.980295,6.1233115,-0.41206846,0.91476446,0.016910186,-0.7753946,0.75035983,0.14938915,0.4874801,0.6267133,0.66264045,-0.52966577,1.5696112,-0.9346184,-1.8109113,-0.9189583,2.0887828,1.3038077,-0.9896893,1.6333147,-0.99555403,-1.8229644,-0.9591299,2.034847,1.2438895,-0.9401817,-1.3776039,1.4177852,0.280764,0.8586107,0.8792384,0.62644315,-0.34889755,2.550869,-0.45576477,0.7906674,-3.3767157,-0.26125184,3.3613045,0.39100266,-0.54984665,0.7778977,0.6962285,0.07829097,0.08542778,0.7084056,-1.2301723,-0.1366909,1.1473926,1.0,0.0,0.0,0.0,0.0,0.0,0.0,-3.200869,0.055764765,-0.2406674,2.4399996,3.1139612,-3.0959547,0.3992319,2.13027,-3.2943368,-1.1932433
13.111595,60.34635,17.575977,4.7448874,-0.27209532,0.5974614,0.08925408,-0.76681983,0.7564193,0.14129859,0.45942974,0.6357088,0.6718053,-0.526193,1.5566328,-0.9199121,-1.8088346,-0.91318697,2.098418,1.31107,-0.99280095,1.6196505,-0.98140913,-1.8203304,-0.95063746,2.043762,1.2499586,-0.94371694,-1.3631818,1.4133357,0.25838748,0.8453083,0.89570886,0.60064226,-0.35589305,2.5171242,-0.45837593,0.82351875,-3.3733397,-0.26099065,3.2597582,0.37881088,-0.5509987,0.7892293,0.7046044,0.06851878,0.08304706,0.70138496,-1.2162977,-0.09232971,1.1252905,1.0,0.0,0.0,0.0,0.0,0.0,0.0,-3.1671243,0.058375925,-0.27351874,1.3314486,-0.46656132,-1.9960821,-1.561451,1.6948938,-2.4603486,-0.9438634
10.97422,54.830635,15.460401,4.4119425,-0.22338003,0.4503573,0.11464923,-0.76739436,0.7623668,0.12866317,0.43755284,0.63710755,0.66697377,-0.5252321,1.542911,-0.90517247,-1.8074641,-0.90688217,2.1074727,1.316656,-0.99624014,1.6060492,-0.9674044,-1.817889,-0.94239676,2.052799,1.2558047,-0.9473104,-1.3597127,1.3961835,0.24023476,0.8160725,0.90650886,0.5796529,-0.36126778,2.4834175,-0.46098328,0.85535544,-3.369967,-0.2607297,3.1583135,0.3667488,-0.55174637,0.80026716,0.7126977,0.058951687,0.08076092,0.69430846,-1.2023277,-0.053925786,1.0934517,1.0,0.0,0.0,0.0,0.0,0.0,0.0,-3.1334176,0.06098327,-0.30535543,0.23157597,-1.7254114,-1.5768856,-3.1706095,1.135087,-1.9496083,-0.7720053
12.276709,53.84387,14.992208,3.0288162,-0.39135513,0.3508103,0.16747047,-0.7670582,0.7663823,0.11736385,0.3925313,0.6377239,0.66918963,-0.52014506,1.5293434,-0.8907662,-1.8061526,-0.90314364,2.1165714,1.3227236,-0.9993249,1.5924364,-0.95356375,-1.8156154,-0.9346386,2.0619085,1.2614714,-0.9509458,-1.3621452,1.3800367,0.22396922,0.76154745,0.91252625,0.5631528,-0.36503765,2.4497414,-0.4635887,0.88617843,-3.3665977,-0.26046902,3.0569701,0.35487747,-0.5520859,0.8109484,0.72046554,0.049631808,0.07860248,0.6872318,-1.1823957,-0.012373344,1.0566227,1.0,0.0,0.0,0.0,0.0,0.0,0.0,-3.0997415,0.06358871,-0.33617842,-0.36895275,-1.6193628,-1.3747454,-5.708492,0.6559372,-1.4618754,-0.6069243
18.86768,56.129066,16.108124,-0.69548225,-0.80733925,0.2466613,0.31939653,-0.7626878,0.7708143,0.12596732,0.30535597,0.6539647,0.66597223,-0.5101345,1.5161676,-0.8764823,-1.8030187,-0.90410304,2.127305,1.3280686,-1.0019592,1.5788027,-0.939827,-1.8134124,-0.92776835,2.071102,1.2669989,-0.954606,-1.3642011,1.3716111,0.22023685,0.6612563,0.92148226,0.55016935,-0.36708936,2.4161034,-0.46619034,0.91598874,-3.3632317,-0.2602086,2.955728,0.3433113,-0.5519142,0.82123506,0.72778296,0.04060005,0.0766117,0.68030447,-1.1471478,0.04226764,1.0162976,1.0,0.0,0.0,0.0,0.0,0.0,0.0,-3.0661035,0.06619033,-0.36598873,-0.34651756,-0.8427143,-0.080356,-10.294687,0.93574524,-1.0396361,-0.44224262
23.228386,58.8321,17.085861,-2.896799,-1.1047664,0.16683039,0.40942442,-0.7641473,0.7779781,0.12638989,0.23004219,0.661687,0.66713566,-0.50171566,1.502388,-0.8620292,-1.8007734,-0.9047641,2.1372707,1.3337125,-1.0047776,1.5651442,-0.926097,-1.811198,-0.92212737,2.0803907,1.2724177,-0.95827574,-1.3668095,1.3734827,0.22269458,0.53085804,0.9315356,0.5402871,-0.3676728,2.3824959,-0.46879005,0.9447874,-3.359869,-0.25994843,2.854587,0.33218002,-0.55111694,0.83111644,0.73455304,0.031884022,0.07484014,0.6736573,-1.1004081,0.10518612,0.97546345,1.0,0.0,0.0,0.0,0.0,0.0,0.0,-3.032496,0.06879005,-0.39478737,-0.406003,0.19497871,0.5435407,-13.29844,1.0493159,-0.6829977,-0.28682947
30.11755,61.684788,18.512188,-6.28415,-1.4832739,0.055856258,0.54943347,-0.7581352,0.78296065,0.15121964,0.12306893,0.67318434,0.6651521,-0.509316,1.4893306,-0.8478009,-1.796076,-0.9098205,2.1477091,1.3389329,-1.0092074,1.5514933,-0.9122973,-1.8088253,-0.91805804,2.0897977,1.2777563,-0.96195406,-1.3648577,1.3822458,0.24307923,0.36482814,0.9439381,0.5328381,-0.368633,2.3489227,-0.47138786,0.97257537,-3.35651,-0.25968856,2.7535472,0.32162857,-0.5496025,0.8405822,0.7406642,0.023508446,0.07330957,0.6674501,-1.0377737,0.17891479,0.93358564,1.0,0.0,0.0,0.0,0.0,0.0,0.0,-2.9989228,0.07138786,-0.42257535,0.05671978,0.8981943,2.3299754,-16.84705,1.2942553,-0.37246943,-0.31488538
44.744183,64.600105,20.645573,-14.531062,-2.3192894,-0.22066984,0.8626368,-0.74066424,0.78991127,0.20618351,-0.07235896,0.6825641,0.65487,-0.5085472,1.4774269,-0.8333062,-1.7882069,-0.9252939,2.158054,1.3432434,-1.0128088,1.537953,-0.8983746,-1.8059947,-0.91624033,2.0993383,1.2830321,-0.96564,-1.3508849,1.3958387,0.2972648,0.119924985,0.9575674,0.5274616,-0.36931574,2.315384,-0.47398186,0.99935377,-3.3531542,-0.25942892,2.6526084,0.31195068,-0.5471802,0.84955794,0.7458672,0.0155589655,0.07204738,0.6620039,-0.94095767,0.27471417,0.88201773,1.0,0.0,0.0,0.0,0.0,0.0,0.0,-2.965384,0.07398185,-0.44935375,1.2819529,1.4065504,5.694908,-24.710747,1.4317155,-0.008440018,-0.27254224
51.658897,64.45683,21.062191,-18.305828,-2.6903331,-0.49182075,0.9971298,-0.72262293,0.7943738,0.23403993,-0.2055119,0.68637365,0.64614785,-0.49013785,1.4656907,-0.81893724,-1.7825907,-0.93679154,2.1679757,1.3476468,-1.0146538,1.5246378,-0.8843108,-1.8025405,-0.9170805,2.109001,1.2882582,-0.9693164,-1.3253059,1.4100891,0.36211652,-0.15260251,0.9699933,0.5231184,-0.3676406,2.2818756,-0.47657394,1.0251235,-3.3498018,-0.25916952,2.5517707,0.30337524,-0.5437546,0.8579772,0.75001436,0.0081137465,0.07108184,0.65754074,-0.8251618,0.37442487,0.8245382,1.0,0.0,0.0,0.0,0.0,0.0,0.0,-2.9318757,0.07657394,-0.47512347,2.5019884,1.5028954,6.6415606,-27.41555,1.3703704,0.17186403,0.014972687
49.96296,64.44522,21.242542,-16.33749,-2.465835,-0.5166667,0.96746045,-0.7100391,0.7960621,0.2846761,-0.2896722,0.6895043,0.6418802,-0.47096607,1.4536339,-0.80470455,-1.7740729,-0.9460477,2.1779513,1.3524462,-1.016413,1.5116106,-0.87012774,-1.7983272,-0.92044604,2.118778,1.2934443,-0.97295946,-1.2951332,1.421343,0.44103482,-0.3982384,0.9808122,0.5190148,-0.3635525,2.2484055,-0.47916412,1.0498856,-3.3464527,-0.25891042,2.4510336,0.29592133,-0.53938675,0.8658757,0.7531249,0.0011381505,0.07035729,0.65410346,-0.7136796,0.46596676,0.7736682,1.0,0.0,0.0,0.0,0.0,0.0,0.0,-2.8984056,0.07916412,-0.49988562,3.0210733,1.2287378,7.892728,-24.659235,1.2983322,0.17274618,0.3091216
42.76127,68.15975,22.728065,-9.242958,-1.7883232,-0.20387599,0.817854,-0.69099724,0.8017807,0.36236963,-0.30857542,0.68209803,0.63739425,-0.41732517,1.4425108,-0.78994966,-1.7620902,-0.9513036,2.1869879,1.3571837,-1.014692,1.4989191,-0.8558417,-1.7931316,-0.92565596,2.12862,1.2985865,-0.97652143,-1.2605476,1.4314624,0.5450301,-0.5621309,0.9864657,0.5143136,-0.35407612,2.2149658,-0.4817505,1.0736412,-3.343107,-0.25865155,2.3503973,0.289402,-0.53416824,0.8734505,0.7553369,-0.0055798846,0.06973931,0.65159136,-0.6264088,0.54639965,0.7470516,1.0,0.0,0.0,0.0,0.0,0.0,0.0,-2.864966,0.08175048,-0.52364117,3.5009623,1.1384487,10.235966,-16.432947,0.90413094,0.02720356,0.8771062
36.544365,67.24464,22.346737,-4.9081144,-1.3310263,-0.11255136,0.71164745,-0.68071306,0.80268997,0.4147772,-0.38052285,0.69236314,0.6151933,-0.38581437,1.4308479,-0.7755727,-1.7516539,-0.9637082,2.1978562,1.3601059,-1.0151029,1.4865462,-0.8414803,-1.7868564,-0.9321791,2.1385267,1.3036658,-0.97996897,-1.2294602,1.4381061,0.6543408,-0.6824054,0.9935977,0.50748295,-0.34180853,2.1815605,-0.48433495,1.0963911,-3.3397646,-0.25839296,2.2498617,0.28363037,-0.5282326,0.8808286,0.7567809,-0.012168943,0.06912714,0.64988923,-0.55500734,0.6157183,0.7292539,1.0,0.0,0.0,0.0,0.0,0.0,0.0,-2.8315606,0.08433494,-0.54639107,3.1662464,0.80361366,10.681534,-12.052202,1.110661,-0.23339987,1.1781096
27.984568,69.4477,22.955168,2.370183,-0.6701301,0.1807698,0.52339303,-0.66140497,0.8120834,0.4737507,-0.35718417,0.69414663,0.6120648,-0.32209465,1.4204056,-0.76027197,-1.7394813,-0.96789753,2.2079413,1.3648722,-1.0121784,1.4744841,-0.827035,-1.7794731,-0.93931067,2.148502,1.3086764,-0.9832544,-1.198088,1.4472007,0.7652719,-0.723519,1.0003587,0.50025475,-0.32434347,2.1481895,-0.4869175,1.1181363,-3.3364255,-0.25813463,2.1494267,0.2783661,-0.5216751,0.8881851,0.7576217,-0.018816037,0.06842398,0.6488247,-0.5095901,0.6738936,0.7317915,1.0,0.0,0.0,0.0,0.0,0.0,0.0,-2.7981896,0.08691749,-0.5681363,3.1912565,1.0669708,10.758841,-4.134774,1.1476874,-0.34344196,1.703465
15.436038,63.689552,20.34486,9.7897,0.10200387,0.31420472,0.28448695,-0.66111195,0.7993462,0.5048786,-0.3129842,0.6758409,0.6172552,-0.22482346,1.4083729,-0.7471004,-1.7289852,-0.97060907,2.2160861,1.3704019,-1.0057367,1.4626528,-0.81257826,-1.771117,-0.9463049,2.1584775,1.3136221,-0.98630613,-1.1780739,1.4457313,0.8578892,-0.691571,0.9979877,0.493521,-0.29898077,2.114849,-0.48949623,1.138878,-3.3330898,-0.25787655,2.0490918,0.27334595,-0.51470566,0.89562786,0.75807744,-0.025659768,0.06757418,0.6481464,-0.4934075,0.70985436,0.74213254,1.0,0.0,0.0,0.0,0.0,0.0,0.0,-2.7648492,0.089496225,-0.588878,2.0160913,0.013709068,8.930111,3.1184554,0.23597479,-0.38425922,2.4774432
1.6923862,56.723125,16.68632,16.382483,0.7736672,0.38558912,0.028975874,-0.6889219,0.80038196,0.5092926,-0.27930388,0.67797875,0.6184561,-0.17086759,1.3937606,-0.7325401,-1.7201877,-0.9742353,2.2262754,1.3754678,-1.0033929,1.4508063,-0.798153,-1.7621028,-0.952665,2.1684186,1.318503,-0.98908037,-1.1870794,1.4419341,0.9151763,-0.6179045,0.9941937,0.48692942,-0.2705515,2.081543,-0.49207306,1.1586171,-3.3297575,-0.25761873,1.9488571,0.2682762,-0.50754166,0.9031806,0.75839144,-0.032729745,0.066597894,0.6475614,-0.5044779,0.7237054,0.7531495,1.0,0.0,0.0,0.0,0.0,0.0,0.0,-2.731543,0.09207305,-0.6086171,-0.9615183,-0.2231121,5.4676414,7.2276235,0.058579445,-0.46331882,2.7819276
-3.6938686,51.52644,14.235804,18.410097,0.98105407,0.30122402,-0.07737192,-0.69488955,0.7994165,0.5161645,-0.25338566,0.6763977,0.61951464,-0.10076133,1.3813173,-0.71821135,-1.7104864,-0.97800356,2.2360585,1.3804545,-0.9991565,1.4387804,-0.78377444,-1.752734,-0.9582039,2.178314,1.3233248,-0.9915437,-1.2082515,1.4370598,0.94326407,-0.5331564,0.98935217,0.4809506,-0.23837686,2.0482712,-0.49464798,1.1773546,-3.3264284,-0.25736117,1.8487227,0.26303864,-0.50032425,0.9108091,0.75870275,-0.03998898,0.0655531,0.6468954,-0.52357996,0.72673124,0.75944245,1.0,0.0,0.0,0.0,0.0,0.0,0.0,-2.6982713,0.094647974,-0.62735456,-2.2140026,-0.33829212,2.6033044,8.305014,-0.08773804,-0.44146776,3.1574845
-8.776218,47.26403,12.017975,20.578733,1.1676531,0.23476756,-0.21276967,-0.7132521,0.80181295,0.49960965,-0.19657093,0.67371327,0.62561184,-0.07952035,1.3674552,-0.70359313,-1.702773,-0.977861,2.2456853,1.385886,-0.99949574,1.426457,-0.76942545,-1.7433345,-0.96279776,2.1881597,1.3280951,-0.9936971,-1.2407407,1.434726,0.93844754,-0.43537617,0.9840737,0.47608078,-0.20790258,2.01503,-0.4972191,1.1950915,-3.3231027,-0.25710386,1.7486883,0.25754547,-0.4931469,0.9184775,0.75913703,-0.047393434,0.0645154,0.6459895,-0.5505471,0.71999645,0.76269627,1.0,0.0,0.0,0.0,0.0,0.0,0.0,-2.66503,0.09721908,-0.6450915,-3.3831358,-0.090146065,-0.6398082,9.580528,-0.1642108,-0.3708303,2.9927075
-10.385567,42.59127,10.084122,20.548315,1.1860296,0.08960137,-0.28188136,-0.7310586,0.79403484,0.4862519,-0.15578283,0.6680304,0.62835413,-0.11370635,1.3533512,-0.690022,-1.6947093,-0.97837603,2.2549627,1.3909305,-1.0050677,1.4137713,-0.75512415,-1.7341354,-0.9664389,2.1979406,1.3328253,-0.99560446,-1.278237,1.429057,0.9132644,-0.34102273,0.97743946,0.4721645,-0.18517101,1.9818268,-0.49978828,1.2118288,-3.3197803,-0.2568468,1.648754,0.25178528,-0.48608208,0.9261282,0.7597791,-0.054888636,0.06354115,0.6447367,-0.5773923,0.70706683,0.7591881,1.0,0.0,0.0,0.0,0.0,0.0,0.0,-2.6318269,0.09978828,-0.6618288,-3.8990736,-0.43449402,-2.6370764,9.220272,-0.33695698,-0.28983355,2.2188008
-2.5595512,42.67603,10.530008,14.895607,0.61408335,-0.18437056,-0.1055915,-0.736507,0.7964592,0.49018997,-0.1910272,0.6711526,0.62601537,-0.06335877,1.3401206,-0.6754782,-1.6851164,-0.9855416,2.265056,1.3954269,-1.0019404,1.4007651,-0.740861,-1.7251766,-0.9695469,2.2076719,1.3375212,-0.9972791,-1.308439,1.4257632,0.8898963,-0.30144933,0.9729793,0.46926042,-0.16167195,1.9486542,-0.50235367,1.2275676,-3.3164613,-0.25659,1.5489196,0.2459259,-0.47907448,0.9336508,0.76052433,-0.06234967,0.062698856,0.64326054,-0.5811798,0.7048901,0.7433565,1.0,0.0,0.0,0.0,0.0,0.0,0.0,-2.5986543,0.10235366,-0.67756754,-3.140974,-0.21431446,-2.4140358,3.7753165,-0.16694069,-0.13580918,2.299416
-7.57368,41.523582,10.23031,19.632296,1.0863117,-0.009423219,-0.20470911,-0.7545137,0.7882459,0.47463325,-0.049713094,0.66113627,0.6385636,0.10486257,1.3253137,-0.6620364,-1.6777133,-0.97451824,2.2737856,1.4013776,-0.98679286,1.387467,-0.726657,-1.7164714,-0.9718491,2.217346,1.3421999,-0.998619,-1.3373631,1.4190654,0.86356574,-0.20710817,0.9666987,0.46757755,-0.124921985,1.9155121,-0.50491714,1.2423086,-3.3131456,-0.25633347,1.4491849,0.23989487,-0.47213936,0.941108,0.7613934,-0.069862336,0.0619474,0.6415308,-0.602983,0.6948704,0.7399731,1.0,0.0,0.0,0.0,0.0,0.0,0.0,-2.5655122,0.10491714,-0.6923086,-3.028369,-0.5485296,-2.7357697,9.23149,-0.31279325,-0.07327795,3.61097
-24.108597,38.02427,8.531459,33.373993,2.4127965,0.52527773,-0.6257891,-0.78220737,0.77797943,0.42101872,0.21633692,0.6421485,0.6654978,0.2237679,1.3092463,-0.648859,-1.6743696,-0.9502154,2.281561,1.4087497,-0.97624224,1.3738314,-0.7125569,-1.7082222,-0.97210276,2.226917,1.3468748,-0.9995269,-1.3728693,1.4074558,0.8113336,0.034320015,0.95521504,0.46732253,-0.07966789,1.8824081,-0.5074806,1.2560531,-3.3098333,-0.25607717,1.3495499,0.2332344,-0.4654827,0.9487653,0.7626856,-0.077758886,0.061150342,0.63915944,-0.67858046,0.66174334,0.76780385,1.0,0.0,0.0,0.0,0.0,0.0,0.0,-2.5324082,0.107480615,-0.7060531,-3.7353516,-1.0225773,-5.4069757,23.887083,-0.7336855,-0.10474324,4.4462695
-28.307627,37.828045,8.591399,38.17914,2.799783,0.7529226,-0.77065647,-0.7900118,0.77411175,0.3881801,0.3561441,0.6237904,0.6699648,0.28800985,1.2948302,-0.6351457,-1.6694041,-0.93648833,2.2892962,1.4138713,-0.97072595,1.359883,-0.69857603,-1.7005851,-0.96949637,2.2363317,1.3515497,-0.99996847,-1.4027759,1.3954096,0.746926,0.33523703,0.9383887,0.46675518,-0.03258158,1.8493347,-0.51003647,1.2688019,-3.306524,-0.25582117,1.2500145,0.2256813,-0.4591751,0.9568002,0.76457155,-0.08627855,0.060237765,0.6358913,-0.7725792,0.6272862,0.8089872,1.0,0.0,0.0,0.0,0.0,0.0,0.0,-2.4993348,0.11003646,-0.7188019,-3.1486511,-1.0750294,-6.6785336,29.868484,-1.2294173,-0.23420453,4.6308885
-17.113258,38.352364,9.729157,29.715242,1.9782703,0.46138307,-0.47948396,-0.79059607,0.7567589,0.40093297,0.3390695,0.6050501,0.6633143,0.31250188,1.2808233,-0.6229001,-1.6604918,-0.93558943,2.2968366,1.4178811,-0.9687183,1.3457247,-0.6847716,-1.6934097,-0.96449625,2.2455404,1.3562151,-0.99996585,-1.4206077,1.3758093,0.7071915,0.55437577,0.9160963,0.4662705,0.010917046,1.8162918,-0.5125923,1.2805563,-3.3032181,-0.2555654,1.1505787,0.21743774,-0.45307922,0.9651025,0.76686233,-0.0953307,0.059245482,0.631921,-0.8349208,0.6117309,0.8311141,1.0,0.0,0.0,0.0,0.0,0.0,0.0,-2.466292,0.11259231,-0.7305563,-1.8782854,-1.8649578,-4.137683,21.75116,-1.8628836,-0.15416741,4.2632775
-1.6774883,40.844883,11.172703,16.790241,0.7055979,-0.049369916,-0.08184053,-0.79860026,0.75525934,0.4008651,0.2745787,0.61195904,0.6571073,0.27571324,1.2658647,-0.60924566,-1.6533232,-0.93703836,2.3067362,1.4219259,-0.9723945,1.3314329,-0.67114073,-1.6864631,-0.9583565,2.2545698,1.3608805,-0.99960536,-1.4323337,1.3590695,0.69054943,0.6333866,0.8995283,0.4668054,0.04409888,1.783287,-0.51514816,1.291317,-3.2999156,-0.25530988,1.0512424,0.20894623,-0.4469719,0.97339857,0.7692197,-0.10460681,0.058298815,0.62766206,-0.84648126,0.6190521,0.82296294,1.0,0.0,0.0,0.0,0.0,0.0,0.0,-2.4332871,0.11514816,-0.741317,-1.2513161,-1.6163588,-1.6586661,7.7675104,-1.4334798,0.113517046,3.214597
12.586508,44.99385,13.110587,5.4453034,-0.4477422,-0.5082252,0.30308288,-0.7947328,0.7548666,0.41435847,0.21857327,0.60348314,0.6529371,0.33761537,1.2519597,-0.5956541,-1.6450273,-0.9364992,2.314918,1.4261742,-0.9658438,1.3170973,-0.65763384,-1.6794899,-0.9523169,2.2634466,1.3655573,-0.99891394,-1.4341877,1.3479917,0.69999564,0.59382534,0.8840852,0.46865654,0.077048786,1.7503128,-0.5176964,1.3010851,-3.2966163,-0.25505462,0.9520054,0.20069504,-0.44064713,0.98143965,0.7713047,-0.113801405,0.057535484,0.6235606,-0.8107326,0.6461255,0.79175216,1.0,0.0,0.0,0.0,0.0,0.0,0.0,-2.400313,0.117696375,-0.7510851,-0.25279522,-1.0768414,1.0996819,-4.06816,-1.4469147,0.4056573,3.1703308
22.109089,44.09629,12.842254,-3.4942226,-1.2604955,-1.0209421,0.5623812,-0.79039776,0.74215496,0.4141399,0.13498294,0.5876378,0.6507918,0.37145224,1.2380575,-0.58341837,-1.6380758,-0.9388186,2.3222103,1.4306365,-0.96176875,1.3027998,-0.6442519,-1.6723602,-0.9473635,2.2721555,1.370257,-0.9979059,-1.4284112,1.3349632,0.7179901,0.46223897,0.86646533,0.47167277,0.10834601,1.7173691,-0.5202446,1.3098615,-3.2933204,-0.25479963,0.8528676,0.19307327,-0.43401527,0.989001,0.77288723,-0.12262624,0.05708196,0.6199595,-0.73752236,0.67766404,0.7382711,1.0,0.0,0.0,0.0,0.0,0.0,0.0,-2.3673692,0.12024459,-0.7598615,0.53498745,-1.2799263,2.0218253,-13.260258,-1.7507315,0.6596744,3.0070112
24.34339,42.673958,12.044348,-6.159396,-1.4899415,-1.29237,0.6144949,-0.789423,0.7382945,0.40498513,0.0841864,0.5792963,0.6526618,0.4050478,1.2238575,-0.5704224,-1.6318617,-0.9389449,2.330085,1.4355232,-0.95740116,1.2885767,-0.6309863,-1.6651027,-0.943936,2.2806966,1.3749892,-0.99659365,-1.4202319,1.3239242,0.7290636,0.302604,0.8496364,0.47503865,0.13850935,1.6844635,-0.5227928,1.3176473,-3.2900279,-0.25454488,0.7538289,0.18628693,-0.4270916,0.9959755,0.7739087,-0.13091925,0.057012662,0.6169886,-0.6515253,0.7048906,0.67792934,1.0,0.0,0.0,0.0,0.0,0.0,0.0,-2.3344636,0.12279281,-0.7676473,0.8008003,-1.0746717,1.3034582,-16.046286,-1.6861677,0.7255435,2.9157372
27.823107,39.99823,11.011616,-9.912226,-1.829937,-1.6315944,0.69902503,-0.77049464,0.7222341,0.4107924,-0.02557109,0.52271235,0.6534971,0.46225405,1.2115272,-0.55876285,-1.6240234,-0.9464931,2.3329678,1.4403389,-0.9503682,1.2745177,-0.6178723,-1.6577499,-0.94233286,2.2889326,1.3797556,-0.99496955,-1.4009572,1.3072976,0.73779935,0.11267944,0.81464416,0.47857967,0.1700733,1.6515884,-0.5253334,1.3244435,-3.2867384,-0.25429037,0.65488917,0.18048477,-0.41991615,1.0022734,0.77433646,-0.13855138,0.05742286,0.6147432,-0.5479024,0.7276724,0.6079762,1.0,0.0,0.0,0.0,0.0,0.0,0.0,-2.3015885,0.1253334,-0.77444345,1.9700289,-1.6255617,1.0204673,-19.046991,-3.5254836,0.7824838,3.0759752
24.919743,36.38622,9.689119,-8.047483,-1.5553392,-1.7017633,0.6301303,-0.7624458,0.7064502,0.41210863,-0.07688211,0.50710213,0.64837474,0.50387824,1.1982731,-0.54722726,-1.616539,-0.9500211,2.3396428,1.4445931,-0.94458175,1.2606703,-0.60496813,-1.6503417,-0.94246924,2.296806,1.3845469,-0.9930307,-1.3789525,1.2850295,0.7420466,-0.055807985,0.77841836,0.4807199,0.2016169,1.6187439,-0.527874,1.330251,-3.2834523,-0.25403616,0.5560484,0.17565536,-0.4125843,1.0078967,0.7742215,-0.14550325,0.05830387,0.61319685,-0.45189556,0.7397287,0.5415652,1.0,0.0,0.0,0.0,0.0,0.0,0.0,-2.268744,0.12787399,-0.78025097,2.2728682,-2.1744728,0.488019,-16.894077,-3.618145,0.5966902,3.0917497
20.13744,36.672424,9.803136,-3.188652,-1.0787723,-1.5284204,0.4944363,-0.75682956,0.7054946,0.41802552,-0.10366451,0.51462954,0.648533,0.50727725,1.1849873,-0.5344187,-1.6085392,-0.9528357,2.348269,1.4494002,-0.942303,1.247027,-0.59224993,-1.6428916,-0.94393694,2.3044088,1.3893534,-0.9908058,-1.3592726,1.2676325,0.7459755,-0.17715827,0.7543274,0.48164868,0.22918132,1.5859337,-0.5304146,1.3350708,-3.2801695,-0.25378218,0.45730644,0.17165375,-0.4051609,1.0129627,0.77366734,-0.1518912,0.059555814,0.6122261,-0.3752196,0.74730635,0.48954272,1.0,0.0,0.0,0.0,0.0,0.0,0.0,-2.2359338,0.13041458,-0.78507084,2.0305872,-1.6711712,0.38856268,-12.1789055,-2.3470402,0.3987074,2.707693
16.66117,34.283585,9.128356,0.058755875,-0.7041078,-1.4624941,0.39663255,-0.73703825,0.68687063,0.41779837,-0.1406444,0.49186665,0.64458,0.52870315,1.1733232,-0.52356285,-1.6011118,-0.9580014,2.3535955,1.4538114,-0.9379355,1.2336165,-0.5797377,-1.6354206,-0.94633543,2.3117788,1.3941618,-0.9883234,-1.3345872,1.2460612,0.74725467,-0.26085055,0.73164684,0.48142788,0.25444072,1.5531578,-0.53294754,1.338904,-3.27689,-0.25352845,0.3586633,0.16830826,-0.39769936,1.0175687,0.7727655,-0.15782285,0.061086066,0.61171377,-0.31211507,0.74831337,0.4456754,1.0,0.0,0.0,0.0,0.0,0.0,0.0,-2.203158,0.13294753,-0.788904,2.5354385,-2.0763159,0.066542625,-8.424929,-2.1693826,0.24133325,2.4802237
13.431191,30.402203,7.688396,1.8073068,-0.45752364,-1.4837679,0.31620082,-0.733718,0.6699057,0.40937614,-0.19619992,0.47387657,0.6427241,0.53033084,1.1602447,-0.51274717,-1.5944829,-0.96595544,2.3591664,1.4584342,-0.93529034,1.2204157,-0.5674706,-1.6279876,-0.9494816,2.3189275,1.3989645,-0.9856178,-1.3151022,1.2204262,0.74170345,-0.3328447,0.709428,0.48053852,0.27582988,1.5204124,-0.5354805,1.3417515,-3.273614,-0.25327495,0.26011878,0.16553497,-0.39027977,1.0217451,0.7715965,-0.16332471,0.06285101,0.61156654,-0.2573662,0.7413896,0.40303844,1.0,0.0,0.0,0.0,0.0,0.0,0.0,-2.1704125,0.1354805,-0.79175144,2.00181,-2.479577,-0.62611103,-7.2731614,-2.1158338,0.14619231,2.096188
11.575117,28.916178,6.8676205,2.5532942,-0.3900075,-1.5245589,0.2611773,-0.7334335,0.6660194,0.39278638,-0.25195312,0.4648275,0.6464888,0.53485996,1.1470723,-0.5008687,-1.588709,-0.9746769,2.3654103,1.4636134,-0.9321318,1.2073485,-0.55542475,-1.6206939,-0.9533659,2.325874,1.4037596,-0.9827215,-1.3037732,1.1995775,0.7251599,-0.40715075,0.69006974,0.479796,0.29410282,1.4876976,-0.53801346,1.3436142,-3.270341,-0.25302175,0.16167277,0.16329575,-0.38295555,1.0254929,0.7702296,-0.16837211,0.06486709,0.61171025,-0.20523717,0.7308789,0.36038575,1.0,0.0,0.0,0.0,0.0,0.0,0.0,-2.1376977,0.13801345,-0.7936142,1.1671066,-2.0003796,-1.7141461,-7.5091243,-1.8334746,0.13919473,1.7927587
6.1283517,23.127703,4.463641,6.1844025,-0.029205918,-1.5092895,0.07302981,-0.7255746,0.64698887,0.34251696,-0.23346734,0.41545323,0.64782524,0.5333818,1.134791,-0.49072587,-1.5864422,-0.97671264,2.3674195,1.4685421,-0.92938334,1.1943747,-0.5436116,-1.6137893,-0.9577118,2.332523,1.4085451,-0.97966784,-1.2952175,1.1754434,0.67857295,-0.44419003,0.65724933,0.4788929,0.30896714,1.4550209,-0.5405388,1.3444933,-3.2670712,-0.25276878,0.06332518,0.16147232,-0.37581635,1.0288455,0.7688149,-0.17299657,0.0671765,0.6119503,-0.16775401,0.70919615,0.3219117,1.0,0.0,0.0,0.0,0.0,0.0,0.0,-2.105021,0.14053878,-0.79449326,0.8552313,-2.3257732,-4.7145247,-3.8283944,-3.1707644,0.084233284,1.4421701
4.992524,15.329399,0.924945,3.4887824,-0.15802738,-1.8522655,0.037027966,-0.73211324,0.62569696,0.2797817,-0.33696276,0.37909162,0.6593971,0.52357334,1.1211634,-0.48104188,-1.5858111,-0.9914081,2.3704324,1.4744848,-0.9273105,1.18142,-0.5320826,-1.6076057,-0.9627205,2.3387754,1.4133326,-0.976494,-1.2952982,1.1455897,0.5981428,-0.5201496,0.6148013,0.47919863,0.3201061,1.4223747,-0.5430641,1.3443896,-3.263805,-0.25251606,-0.03492408,0.16008759,-0.36899757,1.0316942,0.7674647,-0.17703854,0.06989165,0.612185,-0.1209713,0.6727862,0.26784232,1.0,0.0,0.0,0.0,0.0,0.0,0.0,-2.0723748,0.14306411,-0.79438955,0.0037193298,-2.913165,-8.050024,-7.727611,-4.208851,0.19832253,1.0637403
3.3698564,11.195294,-0.5120982,3.897254,-0.16231707,-1.9004147,-0.006224539,-0.7270964,0.5967385,0.2584242,-0.3585876,0.26219088,0.6620193,0.5449502,1.1087103,-0.47240877,-1.5817633,-0.99857926,2.3649945,1.4795345,-0.921999,1.1684653,-0.5209275,-1.6022251,-0.96846926,2.3443182,1.4181238,-0.97320956,-1.2953733,1.1057361,0.5179311,-0.59353197,0.5338159,0.47969708,0.3309745,1.3897591,-0.54558945,1.343304,-3.2605417,-0.25226358,-0.1330751,0.15916824,-0.36257362,1.0339861,0.76624024,-0.18044111,0.07313344,0.61234653,-0.07516051,0.631977,0.21187353,1.0,0.0,0.0,0.0,0.0,0.0,0.0,-2.0397592,0.14558944,-0.793304,0.018072128,-3.9173365,-8.03411,-7.476449,-8.074797,0.19523501,1.0174155
-0.695374,-8.033464,-7.4211326,2.2621918,-0.079188466,-2.2881618,-0.10318428,-0.7008064,0.50089264,0.17539915,-0.40068915,0.006594067,0.6710123,0.5590609,1.0983846,-0.47083822,-1.5846852,-1.0085381,2.3449776,1.4852251,-0.91730344,1.1556326,-0.51054674,-1.5978477,-0.9749762,2.3483617,1.4229265,-0.9698221,-1.2787277,1.0156635,0.41077802,-0.6703267,0.36099753,0.4809157,0.34083864,1.3571777,-0.54810715,1.3412379,-3.2572818,-0.2520114,-0.23112799,0.15872955,-0.35677338,1.0355707,0.76525927,-0.18309772,0.07711068,0.6122968,-0.027537111,0.5623235,0.1365655,1.0,0.0,0.0,0.0,0.0,0.0,0.0,-2.0071778,0.14810714,-0.7912379,1.7854214,-8.965206,-10.75747,-7.847607,-17.33054,0.24989247,0.84447265
-12.345121,-54.75547,-23.591202,-0.7135763,0.97278214,-3.057,-0.21354325,-0.688958,0.2795514,0.09085502,-0.4941199,-0.22787488,0.6759954,0.5469574,1.0867368,-0.4825916,-1.5887622,-1.0243882,2.3255742,1.4905261,-0.9151264,1.1430308,-0.5020104,-1.5947273,-0.9824978,2.3501165,1.4277407,-0.96636504,-1.2529777,0.79952806,0.2789112,-0.7801045,0.11272031,0.4818639,0.34643185,1.3246307,-0.55062485,1.3381919,-3.2540252,-0.25175944,-0.32908288,0.15864182,-0.35225868,1.0360693,0.7646936,-0.1846553,0.08177532,0.6119305,0.0030639577,0.41290924,0.01735041,1.0,0.0,0.0,0.0,0.0,0.0,0.0,-1.9746307,0.15062484,-0.78819185,2.8653383,-21.65215,-13.22754,-11.195028,-25.033892,0.14849305,0.26587844
-45.04003,-176.0,-64.84771,-3.1948667,5.1427593,-4.682522,-0.42473274,-0.6021981,-0.33763897,-0.0022728634,-0.55319625,-0.47194827,0.672336,0.53440577,1.082811,-0.5357743,-1.5949546,-1.0378175,2.3029218,1.4949743,-0.91292447,1.131087,-0.4980989,-1.5935714,-0.99120295,2.349365,1.4327322,-0.9627039,-1.1725395,0.25411612,0.060894527,-0.90143406,-0.13953009,0.5037989,0.3706405,1.2921143,-0.55314255,1.3341671,-3.2507718,-0.25150773,-0.4269398,0.15822983,-0.35089684,1.0346621,0.76481706,-0.18439198,0.086095646,0.6112627,-0.052171797,0.04302758,-0.19578917,1.0,0.0,0.0,0.0,0.0,0.0,0.0,-1.9421142,0.15314254,-0.7841671,8.73034,-54.81274,-21.819313,-12.38159,-25.7703,1.8941641,1.8021047
-39.87014,-176.0,-66.56768,-5.899963,5.827261,-4.9677496,-0.17775485,-0.35941988,-0.5509608,-0.0993239,-0.540958,-0.5393893,0.632635,0.5021701,1.095145,-0.553195,-1.6035038,-1.0452987,2.2954261,1.4959958,-0.91248685,1.1210428,-0.49938732,-1.5962398,-1.000797,2.3476865,1.4385,-0.9582264,-0.9459772,-0.2575262,-0.37590957,-0.97834295,-0.17937289,0.59852076,0.47189575,1.2596283,-0.5556526,1.3291645,-3.2475216,-0.25125626,-0.5246989,0.15724182,-0.35341263,1.0310844,0.76550364,-0.18213728,0.08923947,0.61062783,-0.11393673,-0.35131085,-0.41278565,1.0,0.0,0.0,0.0,0.0,0.0,0.0,-1.9096283,0.15565261,-0.7791645,23.345112,-51.46962,-43.61656,-7.561302,-4.6184897,8.720863,9.652864
9.801184,-137.98718,-45.173023,-29.305588,2.7810035,-5.6552196,0.8870909,0.2265847,-0.7214651,-0.27159518,-0.641354,-0.6322033,0.6654782,0.48695263,1.1437013,-0.57153386,-1.6233994,-1.0649325,2.2844663,1.5050479,-0.9095311,1.1157786,-0.5063787,-1.6015728,-1.0112875,2.344158,1.4444166,-0.95353335,-0.38670337,-0.84692925,-0.58546245,-1.0714592,-0.41076526,0.5863286,0.4681438,1.2271805,-0.5581627,1.323185,-3.2442749,-0.25100505,-0.6223603,0.15664291,-0.35925865,1.025358,0.7658849,-0.17798555,0.090859875,0.611135,-0.043379135,-0.6618684,-0.6267014,1.0,0.0,0.0,0.0,0.0,0.0,0.0,-1.8771805,0.15816268,-0.77318496,55.884933,-59.095596,-20.897913,-9.009957,-23.105705,-2.112627,-0.4884541
39.61876,-68.94979,-19.973082,-33.42115,0.027494019,-4.9983206,1.1995788,0.49117777,-0.7568994,-0.4797425,-0.61123025,-0.7164139,0.6782099,0.43081948,1.1648964,-0.5820687,-1.649547,-1.0724105,2.2725165,1.5122377,-0.9104514,1.1167914,-0.5180612,-1.6089408,-1.0223463,2.3382757,1.4501387,-0.9489948,0.26010427,-1.2756164,-0.78496855,-1.1171771,-0.6460252,0.56472903,0.44938806,1.1947632,-0.56067276,1.3162296,-3.2410312,-0.25075412,-0.7199241,0.15734863,-0.36727715,1.017831,0.76539415,-0.17237282,0.09132669,0.61328524,0.10498531,-0.84621143,-0.7970642,1.0,0.0,0.0,0.0,0.0,0.0,0.0,-1.8447632,0.16067275,-0.76622957,63.50425,-42.93928,-19.260084,-4.525423,-23.099459,-3.0414581,-1.7757475
44.452354,-15.656868,-2.759788,-24.224518,-1.1762156,-3.7726407,0.93171215,0.5679279,-0.79090834,-0.6068861,-0.5788737,-0.7107254,0.6720147,0.3289153,1.1735841,-0.59715205,-1.6696295,-1.0802336,2.267203,1.5173402,-0.9161033,1.123366,-0.53269154,-1.6181934,-1.0334833,2.330448,1.4556338,-0.9447405,0.78525305,-1.5257735,-0.96939,-1.1127369,-0.8271222,0.5421858,0.41803482,1.1623764,-0.563179,1.3082993,-3.2377908,-0.25050342,-0.81739026,0.15954971,-0.37641907,1.0090119,0.7640546,-0.16580497,0.09122436,0.61677176,0.25885287,-0.9325077,-0.9149709,1.0,0.0,0.0,0.0,0.0,0.0,0.0,-1.8123764,0.16317901,-0.7582993,51.106094,-25.069832,-17.619026,0.34611225,-17.669523,-2.96458,-2.9600024
40.84525,21.084576,8.059549,-14.901974,-1.6807293,-2.69882,0.59837097,0.63641727,-0.81967306,-0.68119985,-0.6097896,-0.6632589,0.6574449,0.16830635,1.1870077,-0.61465883,-1.6863134,-1.0944623,2.264122,1.5213783,-0.92790985,1.1338831,-0.54872566,-1.6291206,-1.0445726,2.3214376,1.4609247,-0.94090575,1.137345,-1.6294883,-1.1320233,-1.1080335,-0.9246754,0.5230424,0.37258402,1.1300201,-0.56568146,1.2993951,-3.2345538,-0.25025296,-0.91475904,0.16313553,-0.38594627,0.9993124,0.76211345,-0.1585912,0.0910006,0.62108845,0.39610076,-0.95295846,-0.99513316,1.0,0.0,0.0,0.0,0.0,0.0,0.0,-1.7800201,0.16568145,-0.7493951,34.184982,-10.403562,-15.737796,0.3415346,-9.4469185,-2.4139404,-4.3777647
30.926542,49.699287,17.72116,-0.08664417,-1.3237565,-1.2765502,0.23139843,0.68561596,-0.8238299,-0.65952724,-0.52830917,-0.657746,0.6758001,0.026850637,1.2024447,-0.63110864,-1.6950734,-1.0974035,2.255663,1.5285047,-0.9382207,1.1467215,-0.56504303,-1.641093,-1.0552118,2.3118665,1.4660784,-0.9376032,1.3307657,-1.6324688,-1.2185701,-1.049771,-0.967419,0.512474,0.31658095,1.097702,-0.5681839,1.2895179,-3.23132,-0.25000274,-1.0120305,0.16770172,-0.3952694,0.9892204,0.75982714,-0.15120345,0.090863824,0.6257346,0.48416913,-0.9176006,-1.0222228,1.0,0.0,0.0,0.0,0.0,0.0,0.0,-1.747702,0.1681839,-0.73951787,18.84296,-0.31461716,-8.470106,5.68707,-4.1517973,-1.2018204,-5.4633436
16.641048,61.406986,21.551933,14.177505,-0.40006506,-0.16628179,-0.13501658,0.7041202,-0.82773924,-0.6521862,-0.42781577,-0.6555397,0.68495935,-0.07492164,1.2171335,-0.64781696,-1.7063116,-1.0979934,2.2463126,1.5345744,-0.94509536,1.160565,-0.5810409,-1.653466,-1.0648096,2.3021123,1.4711691,-0.9348957,1.4018214,-1.5889643,-1.2434957,-0.92994994,-0.9783372,0.5083889,0.255734,1.0654144,-0.5706825,1.2786688,-3.2280893,-0.24975279,-1.1092046,0.17271042,-0.40408325,0.97917646,0.7574739,-0.14411767,0.09084551,0.6302464,0.5141463,-0.86069554,-1.0069678,1.0,0.0,0.0,0.0,0.0,0.0,0.0,-1.7154144,0.17068252,-0.72866875,7.0126295,4.313302,-2.466178,11.885012,-1.1861682,-0.282228,-5.9985695
4.888343,59.46748,19.859076,20.928165,0.3130797,0.24608265,-0.33449113,0.69778097,-0.82638454,-0.67676854,-0.40007484,-0.64200103,0.6831513,-0.086537935,1.2303431,-0.66367936,-1.7211429,-1.104817,2.2379122,1.5394843,-0.9435495,1.1744906,-0.5965248,-1.6659324,-1.0731905,2.2924001,1.476235,-0.93275183,1.3900911,-1.5349627,-1.2479163,-0.80771714,-0.9695204,0.50662816,0.20068213,1.0331573,-0.57317734,1.2668486,-3.2248619,-0.24950308,-1.2062817,0.17773819,-0.41238403,0.96936285,0.75527483,-0.13748905,0.0909373,0.63433987,0.5090235,-0.8108418,-0.9811234,1.0,0.0,0.0,0.0,0.0,0.0,0.0,-1.6831573,0.17317733,-0.71684855,-1.023531,5.3367853,-0.4875183,12.209547,0.64855814,0.010120869,-5.470228
-0.45347214,53.527958,17.298128,22.084415,0.6999742,0.2666141,-0.35828146,0.70468026,-0.82932985,-0.68152165,-0.3725344,-0.6295684,0.6791813,-0.103629895,1.2449586,-0.6794578,-1.7340846,-1.1104438,2.2294433,1.5441532,-0.9431148,1.1880709,-0.6115671,-1.6783607,-1.0804918,2.282852,1.4812857,-0.9311096,1.3481132,-1.494156,-1.2414079,-0.70410186,-0.95097,0.50494295,0.15221271,1.0009308,-0.57567215,1.2540584,-3.2216377,-0.24925363,-1.3032616,0.182621,-0.42028427,0.95976907,0.7533151,-0.13126782,0.09108481,0.6379567,0.49098998,-0.7746772,-0.9598403,1.0,0.0,0.0,0.0,0.0,0.0,0.0,-1.6509308,0.17567214,-0.70405835,-3.9858818,4.000211,0.5927801,10.410237,1.5842676,-0.021505356,-4.820532
-4.853672,47.371765,14.636355,23.16804,1.0240569,0.23656431,-0.39326614,0.69308555,-0.8251794,-0.6938716,-0.30469078,-0.6391896,0.6886782,-0.094874896,1.2573794,-0.694085,-1.7477479,-1.1109608,2.2189329,1.5501535,-0.9405971,1.2011572,-0.6263166,-1.6907566,-1.0867555,2.2734487,1.4863268,-0.92988604,1.2961097,-1.4689304,-1.2390456,-0.60015494,-0.9376413,0.50423753,0.11248127,0.96873856,-0.57816315,1.2402991,-3.2184167,-0.24900442,-1.4001446,0.18726349,-0.4279213,0.9503527,0.75164527,-0.12539569,0.09125924,0.64107496,0.46347982,-0.75246507,-0.9427917,1.0,0.0,0.0,0.0,0.0,0.0,0.0,-1.6187385,0.17816314,-0.6902991,-4.979062,2.4238825,0.20766258,10.495913,1.0416746,0.046122074,-3.9545193
-2.533864,41.765076,12.267687,18.384037,0.7784393,-0.10893476,-0.27212235,0.6884124,-0.82401204,-0.7136629,-0.3211968,-0.6374487,0.67499316,-0.107335374,1.2699984,-0.7087178,-1.7621229,-1.1188751,2.209704,1.5538261,-0.9406196,1.2137915,-0.64092404,-1.7032325,-1.0923383,2.2641523,1.491347,-0.9290163,1.2529504,-1.4584049,-1.2505243,-0.5439958,-0.9277766,0.5012299,0.07861758,0.93658066,-0.5806503,1.2255716,-3.215199,-0.24875547,-1.4969307,0.19174576,-0.43541718,0.94095516,0.75022244,-0.11967219,0.09147705,0.64379877,0.45101628,-0.74055576,-0.9456386,1.0,0.0,0.0,0.0,0.0,0.0,0.0,-1.5865806,0.18065032,-0.6755716,-4.126334,0.95648766,-1.1906385,5.748832,0.73776245,-0.29771328,-3.364131
2.17107,37.995224,10.935057,12.400572,0.33473158,-0.42985165,-0.09823735,0.6809432,-0.8293056,-0.71957886,-0.3534259,-0.65018344,0.6759515,-0.12255853,1.2818859,-0.7238546,-1.7751904,-1.1276809,2.1991339,1.5589421,-0.94127214,1.2260844,-0.65552765,-1.7158611,-1.0977819,2.2548902,1.4963328,-0.9284517,1.222034,-1.4613107,-1.26717,-0.54414356,-0.92650604,0.49731672,0.049229234,0.9044533,-0.5831375,1.2098771,-3.2119844,-0.24850677,-1.5936201,0.19625473,-0.44280815,0.9313681,0.74892646,-0.11385258,0.09178062,0.64631486,0.45896173,-0.7315974,-0.9698053,1.0,0.0,0.0,0.0,0.0,0.0,0.0,-1.5544533,0.1831375,-0.6598771,-2.9399872,-0.37403107,-1.7413855,0.13358593,-0.06625652,-0.5014479,-2.9066756
8.879062,39.210663,11.772129,6.7316933,-0.26893735,-0.63210595,0.07895908,0.680288,-0.8247225,-0.72073656,-0.39553195,-0.6732982,0.67502964,-0.17361243,1.2941132,-0.7379999,-1.7879348,-1.1373351,2.1875603,1.5638357,-0.94581294,1.2381827,-0.67017514,-1.7286422,-1.103605,2.2455518,1.5012766,-0.9281809,1.2061757,-1.4661242,-1.2821722,-0.59457886,-0.93694013,0.49273437,0.019765634,0.8723564,-0.5856209,1.1932164,-3.2087731,-0.24825831,-1.6902127,0.2010231,-0.45005035,0.9214274,0.7476035,-0.10775557,0.0922451,0.64882094,0.48940444,-0.7145587,-1.0088491,1.0,0.0,0.0,0.0,0.0,0.0,0.0,-1.5223564,0.18562087,-0.64321643,-1.4695883,-0.5444765,-1.6211033,-4.909146,-1.1838436,-0.6559253,-2.907779
9.151006,41.421997,12.855588,7.0562534,-0.2862907,-0.4996714,0.11050421,0.6605507,-0.82353806,-0.71460176,-0.3827877,-0.68215966,0.67650145,-0.16125077,1.3042377,-0.75252897,-1.8001024,-1.1418839,2.1773357,1.5689268,-0.94430596,1.2501189,-0.6848665,-1.7415054,-1.1099088,2.2360723,1.5061804,-0.9281637,1.1899384,-1.4702955,-1.288063,-0.64194584,-0.95190567,0.48885635,-0.0041478677,0.84029007,-0.58810043,1.1755905,-3.205565,-0.2480101,-1.7867088,0.20608139,-0.45708656,0.91111624,0.7461826,-0.101376615,0.09289571,0.6513867,0.5178935,-0.6920734,-1.045167,1.0,0.0,0.0,0.0,0.0,0.0,0.0,-1.49029,0.18810043,-0.6255905,-1.5068531,-0.47655106,-0.7167101,-4.604888,-1.6398072,-0.5788207,-2.3473434
7.907223,41.626884,12.760885,7.1773005,-0.25286514,-0.41357037,0.11642618,0.6352694,-0.82441473,-0.7232773,-0.41638663,-0.68241096,0.67137253,-0.17476833,1.3136458,-0.76730794,-1.8138331,-1.1515474,2.1678312,1.5733176,-0.94564056,1.2618281,-0.6995912,-1.7544296,-1.1167448,2.2264593,1.5110441,-0.92836493,1.1649386,-1.4734646,-1.2942103,-0.69687504,-0.9648982,0.48498225,-0.025329674,0.8082619,-0.59058,1.1570004,-3.20236,-0.24776214,-1.8831085,0.2114029,-0.46390152,0.90042895,0.7446449,-0.09471012,0.09373502,0.6540242,0.54298335,-0.66865873,-1.0831385,1.0,0.0,0.0,0.0,0.0,0.0,0.0,-1.4582618,0.19057998,-0.6070004,-2.360344,-0.37474632,-0.7600546,-5.346179,-1.4491916,-0.58630705,-2.0753405
5.9046087,43.99689,13.558888,8.936024,-0.14686513,-0.21463667,0.0914349,0.6151456,-0.8195316,-0.7221276,-0.42378175,-0.70478696,0.679103,-0.15820235,1.3233427,-0.7815444,-1.8266424,-1.159123,2.1559806,1.5789545,-0.94418514,1.2732359,-0.71431404,-1.7673862,-1.1240385,2.2166746,1.5158812,-0.9287397,1.1331687,-1.4720508,-1.296732,-0.73960406,-0.9830643,0.48272535,-0.041378234,0.7762642,-0.5930557,1.137447,-3.1991582,-0.24751443,-1.9794117,0.21691132,-0.47044945,0.8894059,0.74299514,-0.08781018,0.09478423,0.6567066,0.56038904,-0.6417007,-1.1152011,1.0,0.0,0.0,0.0,0.0,0.0,0.0,-1.4262642,0.19305572,-0.587447,-3.0241728,0.08325577,-0.39408207,-4.1264653,-1.9843817,-0.39712787,-1.5677028
4.14061,45.696648,14.260244,10.657245,0.0061320066,-0.039415285,0.063834645,0.5986691,-0.820912,-0.7156824,-0.428163,-0.72080374,0.67766774,-0.16731106,1.3331028,-0.79640526,-1.8389544,-1.1668547,2.1445942,1.583648,-0.9454708,1.2843081,-0.72902066,-1.7803218,-1.1316392,2.2066915,1.5206991,-0.9292585,1.0990294,-1.4703499,-1.2929521,-0.76645243,-1.0040275,0.48117867,-0.05526553,0.744297,-0.59552765,1.1169312,-3.1959598,-0.24726696,-2.0756187,0.22254944,-0.47672653,0.87810874,0.7412466,-0.08075741,0.09603509,0.65940046,0.5701806,-0.61330754,-1.1409433,1.0,0.0,0.0,0.0,0.0,0.0,0.0,-1.394297,0.19552764,-0.5669312,-3.2627344,0.110292435,0.24940968,-2.5392413,-2.2775412,-0.2974689,-1.3486259
-1.6604881,43.94154,12.841547,13.487471,0.3842255,0.104430184,-0.041892275,0.5594211,-0.8229345,-0.7336856,-0.4253241,-0.72246873,0.6764027,-0.18574172,1.3402501,-0.8113141,-1.8536904,-1.1741717,2.1344447,1.5883394,-0.9478327,1.2949339,-0.7437206,-1.7932937,-1.1393735,2.1965292,1.5255076,-0.92991275,1.0511149,-1.47012,-1.2989935,-0.77523816,-1.0211692,0.48013803,-0.06867896,0.7123604,-0.5979996,1.0954541,-3.1927645,-0.24701975,-2.1717293,0.22817993,-0.48277855,0.8665744,0.7394787,-0.073593594,0.09747077,0.662008,0.5652744,-0.59293956,-1.1638701,1.0,0.0,0.0,0.0,0.0,0.0,0.0,-1.3623604,0.19799957,-0.5454541,-4.6195507,-0.05068779,-0.7034302,-0.70637465,-1.9279003,-0.22137761,-1.3114765
-4.2852154,46.613926,13.807276,16.316502,0.6762122,0.30686283,-0.09860997,0.540101,-0.8173712,-0.72475284,-0.39609924,-0.7196973,0.6778186,-0.17496872,1.3489441,-0.8254577,-1.865769,-1.1789834,2.1245594,1.5932894,-0.94740963,1.3050791,-0.75839764,-1.8062866,-1.14698,2.1862447,1.5303084,-0.9306776,1.0027453,-1.4670458,-1.2998085,-0.7551361,-1.0318552,0.4800219,-0.078951165,0.68045425,-0.6004677,1.0730166,-3.1895723,-0.24677278,-2.2677438,0.23368454,-0.48863602,0.85489255,0.7377483,-0.06641382,0.09904429,0.6644598,0.5495739,-0.57370025,-1.175667,1.0,0.0,0.0,0.0,0.0,0.0,0.0,-1.3304542,0.20046768,-0.52301663,-4.6780825,0.22733212,-0.14340878,2.169776,-1.3037205,-0.07767677,-0.99299103
-7.5261827,42.35709,11.092994,14.763335,0.6271697,0.22289121,-0.10932739,0.48320895,-0.8182662,-0.7557256,-0.46384463,-0.739451,0.6577175,-0.23607883,1.3534,-0.84022427,-1.8818592,-1.1933645,2.1122997,1.5960801,-0.9542855,1.314593,-0.77304894,-1.8194263,-1.1546648,2.1758306,1.535092,-0.93157786,0.9348844,-1.4648415,-1.3189509,-0.7722124,-1.0455037,0.4773778,-0.093662664,0.64858246,-0.602932,1.0496198,-3.1863835,-0.24652605,-2.3636622,0.23903656,-0.49435043,0.8429808,0.73609084,-0.059103683,0.10080037,0.66672045,0.53357166,-0.5604282,-1.2023096,1.0,0.0,0.0,0.0,0.0,0.0,0.0,-1.2985824,0.20293197,-0.49961978,-6.5826416,0.13282299,-2.0002842,-1.4989972,-1.6086817,-0.39554834,-1.4606208
-17.753845,38.564445,8.023518,16.738132,0.9900131,0.43690866,-0.18402594,0.37516537,-0.8178718,-0.7508656,-0.5033471,-0.74461037,0.6471059,-0.2537014,1.3521096,-0.8548361,-1.8945129,-1.2049994,2.1013696,1.5998026,-0.956948,1.323052,-0.78768307,-1.83273,-1.1627367,2.1652868,1.5398394,-0.9326269,0.8171289,-1.4633887,-1.3345265,-0.81782204,-1.0583583,0.4735859,-0.10881119,0.616745,-0.6053963,1.0252645,-3.1831977,-0.24627958,-2.4594848,0.24407578,-0.49999046,0.83074665,0.73457605,-0.051528778,0.10276257,0.6687171,0.49801373,-0.55512995,-1.236172,1.0,0.0,0.0,0.0,0.0,0.0,0.0,-1.266745,0.20539626,-0.4752645,-11.49124,0.038170815,-1.6646862,-4.28952,-1.5861273,-0.5303383,-1.5280455
-58.48743,23.949547,-3.9226508,27.768589,2.6782181,1.1942799,-0.58092177,0.046913635,-0.81936145,-0.74937725,-0.6011534,-0.7300661,0.6240193,-0.22612809,1.3277434,-0.8696192,-1.9076678,-1.222852,2.0922801,1.6022413,-0.9552397,1.3289744,-0.802322,-1.8461444,-1.1716897,2.1546743,1.5445353,-0.933798,0.51914257,-1.4647225,-1.3442055,-0.91951436,-1.0642177,0.4675091,-0.12009801,0.58493805,-0.60785675,0.99995166,-3.180015,-0.24603336,-2.5552115,0.24816513,-0.5058632,0.8180623,0.7335507,-0.043460205,0.104925826,0.6700784,0.3819189,-0.58806866,-1.2848567,1.0,0.0,0.0,0.0,0.0,0.0,0.0,-1.234938,0.20785674,-0.44995165,-29.231441,-0.33566952,-1.0931015,-9.666967,-1.132822,-0.78161955,-1.223442
-122.67414,8.012728,-19.872057,47.811317,5.5329676,2.5852,-1.1726016,-0.44505852,-0.80819553,-0.7221687,-0.70452964,-0.68161935,0.6122387,0.028703218,1.2844685,-0.8831415,-1.9183613,-1.2421427,2.0865123,1.6057591,-0.9309277,1.3299071,-0.816937,-1.8594825,-1.1820219,2.1441495,1.5491606,-0.9348766,-0.045374062,-1.4617512,-1.3307173,-1.0682435,-1.0518597,0.4598621,-0.104300894,0.5531616,-0.6103134,0.9736822,-3.1768358,-0.24578737,-2.6508427,0.25011063,-0.5124817,0.804859,0.73359454,-0.034655534,0.10721431,0.67018133,0.13265297,-0.6766488,-1.3374842,1.0,0.0,0.0,0.0,0.0,0.0,0.0,-1.2031616,0.21031341,-0.4236822,-55.481403,-0.111961365,1.2647152,-13.968754,0.20833015,-1.0311484,1.4286786
-129.47687,24.62789,-13.117546,52.80399,6.0610957,3.5467882,-0.99278104,-0.6459272,-0.7702955,-0.58002335,-0.76053685,-0.60982203,0.63924396,0.4072827,1.2653143,-0.89396656,-1.9174849,-1.2580756,2.0831673,1.613085,-0.89414835,1.3249193,-0.83134705,-1.8719928,-1.1938684,2.133972,1.5537325,-0.93548983,-0.6464644,-1.4356785,-1.2249744,-1.2200217,-1.0104165,0.45490724,-0.04685075,0.5214157,-0.6127701,0.9464572,-3.1736596,-0.24554162,-2.746378,0.24933624,-0.51981735,0.79140335,0.73470694,-0.02530446,0.10934379,0.6690361,-0.14771442,-0.7432285,-1.3531532,1.0,0.0,0.0,0.0,0.0,0.0,0.0,-1.1714157,0.21277007,-0.3964572,-59.12144,2.1235466,10.443115,-14.162493,2.9595613,-0.838989,5.786118
-83.22528,55.453186,8.742701,42.265656,4.4458256,3.6252012,-0.33223584,-0.62959325,-0.7636164,-0.39043522,-0.7606862,-0.572819,0.6703604,0.48130587,1.26196,-0.9077087,-1.9110364,-1.269937,2.07669,1.6207685,-0.88735926,1.315291,-0.8454614,-1.8825862,-1.206886,2.1243246,1.5582949,-0.9354679,-1.066258,-1.4044536,-1.0052087,-1.3267324,-0.9523551,0.4562857,0.019569697,0.48970032,-0.61522675,0.91827756,-3.1704865,-0.24529614,-2.8418179,0.2463417,-0.527298,0.77816963,0.73629737,-0.015999239,0.11089352,0.66731757,-0.35496885,-0.73906934,-1.3176334,1.0,0.0,0.0,0.0,0.0,0.0,0.0,-1.1397003,0.21522674,-0.36827755,-41.3476,2.8203487,21.665024,-9.966564,5.04843,0.014549494,6.955141
-44.990303,52.646202,11.451853,26.851667,2.6534412,2.161532,-0.039254934,-0.6218244,-0.77250534,-0.57837003,-0.7762851,-0.5782404,0.6563676,0.52448094,1.2531086,-0.92271197,-1.9404233,-1.2845145,2.0665004,1.6239316,-0.8830198,1.3030401,-0.8593536,-1.8920772,-1.2206552,2.1151807,1.5628649,-0.9347994,-1.2766093,-1.3847078,-0.9313045,-1.3920001,-0.9031074,0.4566712,0.08352172,0.45801926,-0.6176758,0.88914424,-3.1673167,-0.24505089,-2.9371624,0.24196243,-0.5346718,0.7650601,0.7379721,-0.006716692,0.11190984,0.6654534,-0.4709493,-0.72651577,-1.3118818,1.0,0.0,0.0,0.0,0.0,0.0,0.0,-1.1080192,0.21767578,-0.33914423,-20.666838,1.7974615,7.1371675,-6.0039043,4.476309,-0.11933446,6.6757298
-21.9248,46.284294,10.611912,17.238909,1.543919,1.0474627,0.047445327,-0.6534733,-0.77633274,-0.6785093,-0.76900554,-0.5853913,0.65107286,0.5286366,1.2376928,-0.93698686,-1.9599282,-1.2975558,2.0566416,1.6279721,-0.8819357,1.2897497,-0.8731409,-1.9017951,-1.2347429,2.106403,1.567433,-0.9335596,-1.3459262,-1.3770273,-0.9858729,-1.4129434,-0.87015224,0.45618656,0.13805161,0.42637253,-0.6201248,0.8590582,-3.16415,-0.24480589,-3.0324116,0.23686218,-0.54196167,0.7517846,0.7395909,0.0028000535,0.112620726,0.6635616,-0.5290877,-0.7182884,-1.3351355,1.0,0.0,0.0,0.0,0.0,0.0,0.0,-1.0763725,0.22012481,-0.3090582,-6.7242384,0.65824986,-5.589044,-1.693058,2.9901147,-0.25439858,5.6380706
-14.609379,40.785732,8.489599,13.4582615,1.2527556,0.53660387,0.0072143376,-0.70936775,-0.7779673,-0.72856724,-0.7746897,-0.53193206,0.6364803,0.45988774,1.218813,-0.9509376,-1.9746518,-1.3122119,2.05321,1.631081,-0.8875708,1.2761904,-0.8869167,-1.9125793,-1.2488706,2.0980146,1.571982,-0.9318964,-1.3589188,-1.3780655,-1.1094944,-1.4113611,-0.8296252,0.45344177,0.17621312,0.39475632,-0.62257385,0.8280204,-3.1609864,-0.24456112,-3.1275654,0.2313385,-0.5492401,0.7381378,0.74116594,0.012750565,0.11310791,0.6616019,-0.5683841,-0.7190653,-1.3766248,1.0,0.0,0.0,0.0,0.0,0.0,0.0,-1.0447563,0.22257385,-0.27802038,-1.1450768,-0.20542145,-12.412834,0.5369425,3.7770271,-0.55080056,3.9578705
-14.008504,40.62081,8.595786,13.443319,1.3817751,0.5573661,-0.047503263,-0.749951,-0.7796776,-0.7473124,-0.7662098,-0.4623979,0.6249333,0.40110347,1.2011952,-0.96488446,-1.9873105,-1.3254915,2.0517747,1.6344754,-0.89178604,1.2625815,-0.90073925,-1.924628,-1.2628591,2.0901601,1.5764929,-0.9299547,-1.3610748,-1.3839055,-1.2365588,-1.3933796,-0.77138454,0.44935778,0.20060565,0.36317062,-0.62501526,0.7960318,-3.1578262,-0.24431662,-3.2226243,0.22538757,-0.55654526,0.7240801,0.74275184,0.023170978,0.11328926,0.65950614,-0.60982424,-0.7222543,-1.4175646,1.0,0.0,0.0,0.0,0.0,0.0,0.0,-1.0131706,0.22501525,-0.24603176,-0.07941723,-0.69150925,-12.724948,2.1718502,5.564928,-0.70725083,2.5919824
-15.1508,43.725597,10.298634,14.400783,1.530792,0.82732326,-0.07661529,-0.7792241,-0.7820159,-0.75794125,-0.7573132,-0.41669342,0.61178803,0.35900924,1.184659,-0.97894084,-2.0004222,-1.3385904,2.0484908,1.6376717,-0.89405376,1.2488848,-0.91463333,-1.9377162,-1.2766149,2.0829465,1.5809561,-0.9278442,-1.3722115,-1.3916632,-1.3329029,-1.3685046,-0.7056067,0.4443599,0.21512975,0.33161545,-0.62745667,0.7630933,-3.154669,-0.24407236,-3.317588,0.21898651,-0.56386185,0.7096856,0.7443828,0.03396871,0.11303925,0.6572385,-0.6581958,-0.72042143,-1.4490637,1.0,0.0,0.0,0.0,0.0,0.0,0.0,-0.9816154,0.22745666,-0.21309328,-0.98712444,-0.88858604,-9.648943,2.8542042,6.3352704,-0.7866025,1.6314566
-15.962421,49.471848,13.108059,15.56584,1.5920824,1.1706674,-0.1086351,-0.80167365,-0.77494985,-0.7709646,-0.7439793,-0.37895343,0.5940663,0.29023668,1.1687174,-0.9921283,-2.0148127,-1.3510128,2.045051,1.6403627,-0.8988206,1.2349821,-0.92855984,-1.9514968,-1.290098,2.076393,1.5853602,-0.9256689,-1.395792,-1.3933513,-1.3930795,-1.3404483,-0.63953626,0.43849245,0.21902464,0.3000908,-0.6298981,0.7292058,-3.151515,-0.24382834,-3.412457,0.2120552,-0.57108307,0.6950837,0.74608564,0.045001045,0.11228707,0.6547691,-0.7116875,-0.7091344,-1.466246,1.0,0.0,0.0,0.0,0.0,0.0,0.0,-0.95009077,0.22989807,-0.17920578,-2.2462606,-0.27971268,-6.0278893,3.1443596,6.381619,-0.8377552,0.5820364
-15.9242735,55.374355,16.1857,16.979,1.616156,1.4967107,-0.1530162,-0.8158889,-0.7721088,-0.7732095,-0.7080705,-0.3614467,0.5981056,0.21408471,1.1533933,-1.0057707,-2.028818,-1.360905,2.0402482,1.6451707,-0.9042604,1.2207605,-0.9424357,-1.9658259,-1.3033522,2.070614,1.5894258,-0.92362064,-1.4400659,-1.3772438,-1.501019,-1.3607955,-0.52321696,0.275695,0.19077899,0.27269745,-0.63238525,0.70303816,-1.8178885,-0.15564224,0.004001028,0.20458221,-0.5782051,0.68034226,0.74793696,0.056339163,0.110988855,0.651995,-0.7540256,-0.72077733,-1.5042641,0.0,1.0,0.0,0.0,0.0,0.0,0.0,-0.9226974,0.23238525,-0.15303814,-5.8035135,2.8515816,-19.07854,-7.96628,17.527712,-32.33154,-4.8499703
39.87413,176.0,110.0,110.0,2.8025956,12.339877,-1.7165669,-0.7337725,0.5579138,0.72935665,0.6648304,-0.43320853,0.6641129,-0.3523705,1.1473832,-0.8866443,-1.8928902,-1.2368692,2.0272932,1.655837,-0.9588577,1.2099477,-0.95847076,-1.9739836,-1.3030795,2.055157,1.6012247,-0.9209799,-0.96465695,-1.6762152,-0.5864701,0.48553225,-1.8800002,1.4926542,0.2881231,0.25453186,-0.63394165,0.7023417,-1.816071,-0.15548663,-0.09418893,0.19610977,-0.58395386,0.6699057,0.75047606,0.057656292,0.11232651,0.6487249,-0.8843602,-0.5109962,-0.89044863,0.0,1.0,0.0,0.0,0.0,0.0,0.0,-0.90453184,0.23394164,-0.15234166,46.643875,-29.090738,91.75339,183.29811,-133.73308,125.1271,9.640548
-43.11104,168.6702,70.30317,95.67417,7.4564486,5.8206096,-2.156616,-0.8275905,-0.61922956,0.01372131,0.73189086,-0.47574902,0.55481094,-0.30026355,1.1271887,-1.0203937,-1.9726115,-1.2298903,2.007582,1.6567057,-0.9510063,1.2001764,-0.9745068,-1.9759921,-1.2912978,2.036095,1.6162183,-0.91849846,-0.9800508,-1.5802586,-0.07016971,1.4101995,-1.9178907,1.5069413,0.2373639,0.23638535,-0.63549805,0.70066404,-1.8142552,-0.15533116,-0.19228071,0.18593597,-0.58919525,0.66426706,0.7547055,0.051710818,0.11465671,0.6438939,-1.0619168,-0.5182813,-0.45878902,0.0,1.0,0.0,0.0,0.0,0.0,0.0,-0.8863853,0.23549804,-0.15066403,-1.1313438,9.32529,52.249496,92.80491,-4.750705,3.0075788,-4.3236613
-65.329895,133.41763,37.410522,69.35886,6.079799,3.2861388,-1.9038357,-0.8111943,-0.51884687,-0.34044382,0.69054383,-0.53560364,0.6131205,-0.15813302,1.1190569,-1.0263915,-2.0100365,-1.2222434,1.9825345,1.6775304,-0.93431175,1.1894399,-0.9885468,-1.9761561,-1.274002,2.0185359,1.6305482,-0.91650146,-1.1027349,-1.3462719,0.0010209376,1.8379612,-1.7034765,1.4110595,0.1880297,0.21825409,-0.6370468,0.6980062,-1.8124413,-0.15517586,-0.2902744,0.174057,-0.59464645,0.6614376,0.76071316,0.043647617,0.11716081,0.636933,-1.2307453,-0.5454954,-0.23124574,0.0,1.0,0.0,0.0,0.0,0.0,0.0,-0.86825407,0.23704681,-0.1480062,-11.682439,23.09835,6.966425,43.35675,21.000814,-8.768988,-4.6631722
-58.21266,93.646385,20.068085,40.564537,4.362367,1.8451496,-1.0565357,-0.82357824,-0.61198866,-0.12235279,0.7370979,-0.5082568,0.5291967,-0.14966667,1.1070821,-1.0497457,-1.9883914,-1.2002921,1.9677101,1.6834679,-0.9314681,1.1771356,-1.0006795,-1.9762095,-1.2552432,2.0039713,1.6434934,-0.91497844,-1.2717181,-1.1696634,-0.008777116,1.8899332,-1.3749801,1.2566959,0.14087766,0.20014572,-0.6385956,0.6943692,-1.8106294,-0.15502073,-0.38817012,0.1608162,-0.6002617,0.65981954,0.7678817,0.035719626,0.11929118,0.6283719,-1.3588994,-0.5587174,-0.14621975,0.0,1.0,0.0,0.0,0.0,0.0,0.0,-0.8501457,0.23859558,-0.14436918,-16.523098,17.440819,-1.3396251,5.57251,32.627846,-15.150619,-4.562068
-41.624237,59.88193,7.21036,17.74555,2.287916,0.63803244,-0.44914603,-0.8239103,-0.60347366,-0.19304012,0.72234917,-0.48456693,0.54696137,-0.22396612,1.0947446,-1.0610268,-1.9955136,-1.1830083,1.9555147,1.6981895,-0.93737507,1.1633817,-1.0115247,-1.9771765,-1.2374896,1.9924529,1.654968,-0.91393703,-1.4094961,-1.0566131,-0.1271098,1.7376949,-1.0776365,1.1111804,0.09189967,0.18205261,-0.64014435,0.68975395,-1.808819,-0.15486574,-0.48596796,0.14670944,-0.60593414,0.6582096,0.77560943,0.029130131,0.120840125,0.6188531,-1.4318649,-0.56006646,-0.17268388,0.0,1.0,0.0,0.0,0.0,0.0,0.0,-0.8320526,0.24014434,-0.13975394,-13.639331,11.183548,-12.173554,-15.048146,29.660965,-14.490962,-4.8781247
-20.405409,46.220287,6.7336564,5.686747,1.0575665,0.15536863,-0.044796374,-0.81914246,-0.6027344,-0.15259326,0.73022515,-0.40301755,0.5208682,-0.310876,1.0814674,-1.0717981,-1.9924359,-1.1644671,1.9521511,1.7070549,-0.9450246,1.148678,-1.0217336,-1.9791707,-1.2216195,1.9835051,1.6650728,-0.9133902,-1.4907438,-1.0086515,-0.23139465,1.5324825,-0.8393989,0.95997965,0.04678055,0.16385269,-0.64162064,0.684796,-1.8652928,-0.10671625,-0.1667258,0.13220978,-0.61154175,0.65606785,0.7834786,0.024159078,0.12170975,0.60890406,-1.4561827,-0.55167675,-0.23684625,0.0,1.0,0.0,0.0,0.0,0.0,0.0,-0.81385267,0.24162063,-0.13479596,-8.118963,4.7958374,-11.505771,-21.01593,22.966362,-17.311646,-3.9074824
-4.820777,66.43533,18.169605,6.571609,0.60654616,0.46085346,0.002254252,-0.8232576,-0.47771683,-0.131939,0.75230294,-0.26862746,0.54607046,-0.4087028,1.0663521,-1.0695053,-1.9923645,-1.1463892,1.9566424,1.7196798,-0.95426047,1.1335183,-1.0312189,-1.9818572,-1.2074385,1.9766977,1.6738498,-0.91332585,-1.5246619,-0.9287383,-0.2808574,1.3798214,-0.6288546,0.8504529,-0.007159355,0.14513397,-0.6426201,0.6829562,-1.8737909,-0.097835496,-0.1918286,0.11767197,-0.61689377,0.6536203,0.791316,0.020491382,0.12205535,0.59875,-1.4578857,-0.51722515,-0.25154245,0.0,1.0,0.0,0.0,0.0,0.0,0.0,-0.79513395,0.24262008,-0.1329562,-3.4719944,7.865417,-4.8677025,-15.312529,20.708418,-10.943079,-5.446337
0.14876127,74.03278,22.493979,9.40411,1.036164,0.54217255,-0.057799976,-0.82721543,-0.4336033,-0.1716861,0.74036545,0.024036659,0.5365923,-0.40727362,1.0507967,-1.0745792,-1.9990258,-1.1334019,1.9791013,1.727509,-0.9540532,1.11825,-1.039863,-1.9849576,-1.1943485,1.9723315,1.6816579,-0.9137461,-1.5278652,-0.8435659,-0.31909588,1.2851447,-0.3736053,0.7575874,-0.053723104,0.126297,-0.64348984,0.6810923,-1.8868302,-0.083285324,-0.18652728,0.10309601,-0.62192917,0.6512079,0.7991617,0.017580956,0.12172454,0.58840007,-1.4617448,-0.48676756,-0.24116844,0.0,1.0,0.0,0.0,0.0,0.0,0.0,-0.776297,0.24348983,-0.13109231,-0.41086674,8.382738,-3.6596656,-9.529638,25.190931,-9.327734,-4.6914296
5.1571465,101.0827,34.2901,15.730054,1.3422612,1.1108575,-0.15725282,-0.8296111,-0.29876414,-0.1307835,0.73566186,0.22051212,0.53834605,-0.4381222,1.0352889,-1.0697395,-1.9980359,-1.1207823,1.9943827,1.7354925,-0.95755833,1.103058,-1.0472177,-1.9880724,-1.1817943,1.970649,1.6886593,-0.9146054,-1.5169051,-0.69986534,-0.3076998,1.2450953,-0.10117223,0.68092763,-0.09708984,0.10725021,-0.6441078,0.67980856,-1.9102091,-0.054454394,-0.110694356,0.08848953,-0.62652206,0.6493572,0.80705744,0.014877872,0.12072662,0.57780796,-1.4638335,-0.43727416,-0.1688701,0.0,1.0,0.0,0.0,0.0,0.0,0.0,-0.7572502,0.24410781,-0.12980855,0.9653568,14.183723,1.458782,-4.1452885,26.86094,-7.70607,-4.446949
7.75692,115.61864,40.84352,19.49158,1.399026,1.4859748,-0.1894707,-0.82925165,-0.22343181,-0.07347003,0.73280895,0.29210576,0.5722515,-0.4622235,1.0201328,-1.0695609,-1.9954194,-1.1085134,1.9998596,1.7458844,-0.9608277,1.0880052,-1.0530027,-1.9906969,-1.1693699,1.971394,1.6950114,-0.9158699,-1.5019934,-0.5387704,-0.24596271,1.2408934,0.13184692,0.6198258,-0.13681032,0.08792877,-0.64432144,0.6795546,-1.9382272,-0.00945927,0.002232278,0.07388687,-0.63051224,0.6484822,0.8149904,0.011888969,0.11922541,0.56695193,-1.4627633,-0.37394434,-0.06252922,0.0,1.0,0.0,0.0,0.0,0.0,0.0,-0.73792875,0.24432144,-0.12955457,1.3411522,15.895212,6.597936,-0.5827904,22.94477,-6.164217,-4.1390257
1.2698708,127.65867,40.65048,23.869743,0.77116865,1.5093503,-0.35299954,-0.8316177,-0.038432967,-0.24699368,0.74206865,0.17647181,0.5897958,-0.46301684,1.0048435,-1.056846,-2.0153964,-1.0951631,1.9890411,1.753991,-0.96217155,1.0730706,-1.0566496,-1.9935179,-1.1568024,1.9735955,1.7008708,-0.91749406,-1.4911789,-0.30751035,-0.29301867,1.2615805,0.24930184,0.57550585,-0.17189524,0.06856918,-0.64401627,0.6804274,-1.9263562,0.041225206,0.114173226,0.05935669,-0.63378906,0.64871645,0.82296866,0.008620803,0.11809596,0.5556092,-1.4533998,-0.300206,0.05051496,0.0,1.0,0.0,0.0,0.0,0.0,0.0,-0.71856916,0.24401626,-0.13042736,0.9283781,22.880913,-4.3311954,1.9244194,11.680219,-4.145527,-3.788513
-5.1987114,113.61286,32.79557,23.353292,0.40394136,1.2350901,-0.39508256,-0.83117604,-0.0013120361,-0.31979442,0.7583375,0.08236993,0.62260604,-0.48812738,0.98995304,-1.0567808,-2.0254974,-1.0809686,1.9818325,1.7631314,-0.9663068,1.0582105,-1.0582212,-1.9972771,-1.1439126,1.976203,1.7064147,-0.9194454,-1.4847332,-0.10794004,-0.40253353,1.297877,0.26385856,0.54719573,-0.2037482,0.049545288,-0.6433258,0.6821287,-1.8940591,0.078333154,0.18999557,0.044906616,-0.6363983,0.64983094,0.8309834,0.0052898666,0.117987074,0.54361534,-1.4448442,-0.23523134,0.13079594,0.0,1.0,0.0,0.0,0.0,0.0,0.0,-0.69954526,0.2433258,-0.13212872,0.5252838,19.720356,-10.622525,3.5290956,1.237005,-2.9025912,-3.4350662
-10.207251,95.44001,24.152315,20.97448,-0.17220485,0.93506724,-0.35993028,-0.8341825,0.03994399,-0.40472394,0.7715646,-0.14397086,0.6419058,-0.48620516,0.97479224,-1.0542269,-2.0377495,-1.0667561,1.9618058,1.7706053,-0.9680659,1.0433713,-1.0581659,-2.0024726,-1.1306298,1.9779707,1.7117488,-0.9216752,-1.4840517,0.04269722,-0.55773383,1.3380907,0.14718829,0.52857053,-0.23029567,0.03081131,-0.64230347,0.68430746,-1.8658496,0.11047825,0.22898005,0.030574799,-0.6384163,0.65143484,0.8389652,0.0021991301,0.11941996,0.5309156,-1.431399,-0.178432,0.17013845,0.0,1.0,0.0,0.0,0.0,0.0,0.0,-0.6808113,0.24230346,-0.13430744,-0.023579597,14.847283,-15.238219,3.9473772,-11.854714,-1.9138217,-2.9062867
-10.323132,76.98522,18.15414,17.1395,-0.3329872,0.7207441,-0.23290755,-0.83436376,0.042489655,-0.4211072,0.7744242,-0.2371368,0.6499651,-0.47654667,0.95993495,-1.0539169,-2.0445833,-1.0531874,1.954257,1.7767453,-0.9693299,1.0285187,-1.0571359,-2.0090451,-1.1170149,1.9782034,1.7169389,-0.9241283,-1.4859763,0.122576624,-0.68949294,1.3691653,-0.018527683,0.51579344,-0.25109944,0.012332916,-0.64099884,0.68666357,-1.8412511,0.13778277,0.23951355,0.016368866,-0.639946,0.6531839,0.84681094,-0.00048087264,0.12243342,0.5176109,-1.4171854,-0.13173658,0.17710425,0.0,1.0,0.0,0.0,0.0,0.0,0.0,-0.6623329,0.24099883,-0.13666356,-0.2703905,7.8060684,-12.887871,3.041029,-16.771608,-1.308167,-2.3183374
-5.2667165,73.5389,19.037804,14.825476,-0.31529823,0.7478044,-0.093762994,-0.8276863,0.077630505,-0.40278506,0.7795006,-0.2805939,0.66290104,-0.47933862,0.94575006,-1.0493729,-2.0493236,-1.0390649,1.950144,1.783229,-0.9720622,1.0136719,-1.0555682,-2.0164683,-1.1031694,1.9768275,1.7220367,-0.9267615,-1.484762,0.16755787,-0.75863034,1.3893092,-0.1782983,0.50772166,-0.26822367,-0.0058784485,-0.6394119,0.6891413,-1.8141835,0.16585538,0.25237054,0.0023536682,-0.64100647,0.65499,0.8544118,-0.002828913,0.12675595,0.5038902,-1.397703,-0.0847221,0.18277276,0.0,1.0,0.0,0.0,0.0,0.0,0.0,-0.6441215,0.23941192,-0.13914126,0.011086464,4.326153,-6.527829,1.916194,-16.256748,-0.8449912,-1.9567728
-4.4574175,69.50289,18.14678,13.839104,-0.15376833,0.6968311,-0.029312406,-0.83091646,0.0976769,-0.4432236,0.7868019,-0.33439812,0.64805734,-0.4574762,0.93058026,-1.0458006,-2.0607905,-1.0244893,1.9433877,1.7868425,-0.97250915,0.9988251,-1.0537124,-2.0244067,-1.0891769,1.9740133,1.7270604,-0.9295253,-1.4851569,0.1910388,-0.8044265,1.4023772,-0.3167981,0.5004217,-0.27989385,-0.023822784,-0.63755417,0.6917228,-1.7875719,0.19272009,0.26167795,-0.011493683,-0.64162445,0.6568112,0.86170834,-0.0048887497,0.13211615,0.48987773,-1.3802422,-0.04227553,0.18307129,0.0,1.0,0.0,0.0,0.0,0.0,0.0,-0.6261772,0.23755416,-0.1417228,-0.15685558,2.1865754,-4.1627645,1.2056351,-14.163038,-0.78538656,-1.4017999
-3.3347273,63.331257,16.598677,12.338415,0.08076173,0.5968324,0.025374468,-0.8288601,0.08644025,-0.46067503,0.7856624,-0.34544426,0.65027714,-0.45474687,0.9159391,-1.0450684,-2.0704741,-1.0106107,1.9394689,1.7920882,-0.975,0.98398113,-1.0518146,-2.0326614,-1.0751177,1.9701178,1.7320234,-0.93238425,-1.4844623,0.18886326,-0.83109206,1.4067429,-0.41484666,0.49475083,-0.2885517,-0.04151535,-0.63544846,0.69433504,-1.7628603,0.21701346,0.2623499,-0.02519989,-0.6418762,0.6585683,0.8686803,-0.0066671963,0.13817877,0.47566432,-1.3671263,-0.006920998,0.17447695,0.0,1.0,0.0,0.0,0.0,0.0,0.0,-0.6084846,0.23544845,-0.14433503,-0.04644394,-0.35799742,-2.2483826,0.33740997,-10.121971,-0.6385088,-1.0768116
-3.3819332,61.775803,15.927506,12.021742,0.17981961,0.5550927,0.054651394,-0.83136076,0.0931216,-0.4836016,0.78475255,-0.40677667,0.650779,-0.43481827,0.90084505,-1.0425024,-2.0810215,-0.9966425,1.9294401,1.7971013,-0.9758661,0.9691333,-1.0499835,-2.041153,-1.0610586,1.9653605,1.7369388,-0.9353006,-1.4853432,0.18081287,-0.8539087,1.4053991,-0.4971137,0.49034065,-0.29331887,-0.05895996,-0.6331024,0.6969386,-1.7380819,0.24064635,0.26083314,-0.038791656,-0.6417885,0.6602161,0.8753118,-0.008153588,0.1447615,0.46130985,-1.3555915,0.025895981,0.16276656,0.0,1.0,0.0,0.0,0.0,0.0,0.0,-0.59104,0.23310241,-0.14693856,-0.20587444,-0.94070137,-1.8551469,-0.23286343,-8.558965,-0.5239725,-0.6833911
-3.861742,60.186302,14.759375,11.92363,0.26905328,0.44973075,0.060645446,-0.82727706,0.09598343,-0.53053683,0.78635997,-0.42847288,0.6394208,-0.4045111,0.8864056,-1.0403851,-2.0942066,-0.98242265,1.9225132,1.8008809,-0.9757517,0.9542951,-1.0482287,-2.0500107,-1.0470225,1.9599434,1.74181,-0.938232,-1.4837157,0.17310582,-0.89507204,1.4027455,-0.55758584,0.4857594,-0.2937474,-0.07616043,-0.6305313,0.6995011,-1.7135835,0.26283172,0.2555419,-0.052280426,-0.6413994,0.66171336,0.8816021,-0.009284703,0.15177912,0.44682705,-1.3461806,0.054074056,0.14644377,0.0,1.0,0.0,0.0,0.0,0.0,0.0,-0.57383955,0.2305313,-0.14950109,0.050663948,-0.90267956,-3.7092566,-0.36346912,-6.369066,-0.5563617,-0.25028586
-5.890937,59.9398,13.771254,12.583621,0.32644743,0.42120868,0.05595557,-0.8324985,0.0978926,-0.5689764,0.7873222,-0.4850328,0.65320593,-0.36955926,0.87104523,-1.0384395,-2.1069083,-0.9682902,1.9114401,1.8071306,-0.97518796,0.93944925,-1.0465255,-2.0593984,-1.0330073,1.9539351,1.7466521,-0.9411352,-1.4851607,0.16885833,-0.9519602,1.4007634,-0.61638093,0.48326954,-0.28995785,-0.093112946,-0.62773895,0.7020047,-1.6889405,0.28470662,0.2491378,-0.06571579,-0.64074326,0.66303027,0.8875497,-0.009990971,0.15923823,0.43220216,-1.33956,0.080699444,0.1278021,0.0,1.0,0.0,0.0,0.0,0.0,0.0,-0.55688703,0.22773895,-0.15200466,-0.25167465,-0.56248605,-5.2839518,-0.288558,-6.204748,-0.3622532,0.16234517
-6.917341,52.432747,11.047975,11.618109,0.40009493,0.284172,0.07155303,-0.8296273,0.055338535,-0.5955365,0.79125386,-0.522746,0.6546649,-0.3525992,0.8564865,-1.0409917,-2.118952,-0.95388186,1.9016606,1.8121186,-0.97639513,0.9246015,-1.0450436,-2.0693815,-1.0189863,1.9473623,1.751474,-0.9439867,-1.4849374,0.14085144,-1.0127088,1.4024131,-0.6718277,0.48154014,-0.2842486,-0.10984039,-0.62475586,0.7043465,-1.6672164,0.30305633,0.22949874,-0.07910156,-0.6398735,0.6640614,0.89315444,-0.0102025205,0.16706227,0.4174461,-1.3379978,0.09995753,0.095931135,0.0,1.0,0.0,0.0,0.0,0.0,0.0,-0.5401596,0.22475585,-0.15434647,-0.060653687,-2.9200764,-5.7147503,0.10135174,-5.8268905,-0.27932525,0.36708713
-8.973753,42.469078,7.435848,10.202742,0.48417717,0.13035238,0.096485734,-0.8329071,0.008197681,-0.6360686,0.78619516,-0.5390538,0.647266,-0.3155396,0.8413108,-1.0442238,-2.1329885,-0.9403668,1.8934569,1.8162006,-0.9755407,0.9097442,-1.044048,-2.0800245,-1.0049635,1.940307,1.7562745,-0.94675714,-1.4861903,0.08539805,-1.0804309,1.4022323,-0.71752495,0.4792328,-0.27518564,-0.12639236,-0.621624,0.7063554,-1.6507562,0.3167165,0.1917447,-0.09254074,-0.63887405,0.6646435,0.89842534,-0.00981933,0.1751022,0.40258494,-1.3444942,0.110842064,0.04673507,0.0,1.0,0.0,0.0,0.0,0.0,0.0,-0.5236076,0.22162399,-0.15635538,-0.17249584,-5.6417866,-6.484556,-0.038981438,-4.7840357,-0.32747984,0.72628856
-8.390575,37.027527,6.213396,9.0166,0.6072924,0.07530284,0.12931068,-0.83086336,-0.039999753,-0.6391758,0.7852976,-0.5356008,0.6470185,-0.3045461,0.8266579,-1.0480479,-2.143942,-0.92643374,1.8867469,1.8209763,-0.9772118,0.8948842,-1.0437752,-2.0912015,-0.99094546,1.9329214,1.7610524,-0.9494331,-1.4859965,0.0077104904,-1.1291821,1.401656,-0.7462865,0.4769862,-0.26556155,-0.14279938,-0.6183739,0.7079202,-1.6369219,0.3278475,0.14506374,-0.106082916,-0.6377983,0.66468304,0.9033734,-0.0088407025,0.18315074,0.38767785,-1.3554703,0.11809004,-0.0092054,0.0,1.0,0.0,0.0,0.0,0.0,0.0,-0.5072006,0.21837386,-0.15792018,-0.014948845,-7.850185,-4.606366,-0.049686432,-3.0707002,-0.32939315,0.8139312
-8.147058,38.636436,6.785695,9.374943,0.67927814,0.10868049,0.15442482,-0.83177084,-0.06580742,-0.6583748,0.788753,-0.55687064,0.63201,-0.24048075,0.81170714,-1.0503559,-2.157039,-0.91207016,1.8772343,1.8242533,-0.9734812,0.880025,-1.0442711,-2.102783,-0.97691786,1.9252853,1.7657993,-0.9519727,-1.4860849,-0.069172435,-1.16663,1.4032433,-0.77001786,0.47353414,-0.25056538,-0.15905762,-0.6150093,0.7090415,-1.6217806,0.33936602,0.10116352,-0.11973953,-0.6366272,0.66419345,0.90799546,-0.0073046125,0.19111992,0.37277868,-1.3669885,0.12718685,-0.061293352,0.0,1.0,0.0,0.0,0.0,0.0,0.0,-0.49094236,0.2150093,-0.15904146,-0.049114227,-7.7777224,-3.4476995,0.17824173,-2.597952,-0.47064424,1.361835
-8.646452,26.914087,3.409605,6.8873014,0.6745858,-0.029785872,0.20476934,-0.83157074,-0.16355556,-0.6741872,0.7829751,-0.5669788,0.6332413,-0.20477302,0.79686797,-1.0606266,-2.1702018,-0.89862037,1.8685875,1.8291234,-0.97245,0.86516774,-1.0458046,-2.1146696,-0.962895,1.9174446,1.7705107,-0.9543454,-1.4856017,-0.18153575,-1.1955993,1.4022515,-0.78907335,0.47015464,-0.23309025,-0.17521286,-0.61156845,0.7095626,-1.6134912,0.34556758,0.036249857,-0.13355637,-0.63542557,0.6630415,0.91230416,-0.005179447,0.19884495,0.35795936,-1.3848791,0.12900652,-0.13231416,0.0,1.0,0.0,0.0,0.0,0.0,0.0,-0.47478712,0.21156844,-0.15956259,0.05016327,-11.294085,-2.6950598,-0.015854836,-2.04041,-0.44255853,1.6601086
-4.6201186,40.369057,8.244006,8.721903,0.76575255,0.1766308,0.22442818,-0.82270724,-0.15964618,-0.6525277,0.79141337,-0.5629075,0.64318347,-0.14385636,0.782897,-1.0617692,-2.1799223,-0.88375366,1.8611538,1.834829,-0.96873105,0.8503543,-1.0482422,-2.1266398,-0.9488501,1.9094867,1.7752032,-0.95651025,-1.4801364,-0.26488906,-1.1960657,1.4054072,-0.79891413,0.46862385,-0.21129975,-0.19121552,-0.6080284,0.709609,-1.595546,0.3569321,-0.0053126602,-0.14748001,-0.63412094,0.661366,0.91628855,-0.0026089095,0.20629814,0.34329206,-1.3932431,0.14165956,-0.17857142,0.0,1.0,0.0,0.0,0.0,0.0,0.0,-0.45878446,0.2080284,-0.15960896,0.48732758,-8.426392,0.30760765,0.34730434,-1.2652993,-0.30549765,2.0782769
-6.718231,32.390728,5.4866753,7.426416,0.79654765,0.08352578,0.24411039,-0.82938045,-0.2502574,-0.67333907,0.7849137,-0.55757254,0.6230258,-0.09847645,0.76741624,-1.0732679,-2.1939738,-0.8703587,1.8537294,1.8375058,-0.9663579,0.83556473,-1.0516659,-2.138633,-0.9347977,1.9014834,1.7798667,-0.9584405,-1.47858,-0.36839512,-1.1992065,1.4054425,-0.8014436,0.4651192,-0.1871362,-0.20708466,-0.60440063,0.70912397,-1.5837853,0.3644552,-0.0626901,-0.1615448,-0.6327286,0.65912765,0.91996974,0.00040687466,0.21339096,0.32881555,-1.4086164,0.14984292,-0.23831801,0.0,1.0,0.0,0.0,0.0,0.0,0.0,-0.44291532,0.20440063,-0.15912396,0.13458729,-10.425228,-0.04246235,0.09548664,-0.46440363,-0.49829483,2.3593247
-5.6194024,33.190132,6.0191455,7.2638235,0.8831618,0.11370969,0.27287346,-0.8237653,-0.30280975,-0.6578894,0.7884185,-0.52700454,0.6205327,0.0007797895,0.7531882,-1.0819468,-2.204422,-0.85595584,1.848783,1.84192,-0.9583625,0.82080567,-1.0561329,-2.1505578,-0.9207338,1.8935713,1.7844956,-0.960076,-1.4750948,-0.47312817,-1.1896019,1.4070017,-0.7886155,0.46150285,-0.1557525,-0.22283554,-0.6007042,0.70806277,-1.5720044,0.37162486,-0.12014169,-0.17575455,-0.63124084,0.6563173,0.92337006,0.003831239,0.22001442,0.31458944,-1.4241443,0.15992017,-0.29513085,0.0,1.0,0.0,0.0,0.0,0.0,0.0,-0.42716444,0.20070419,-0.15806276,0.32291412,-10.550242,1.2478828,0.25889874,1.052928,-0.5274236,3.109485
-1.2277327,37.578552,8.298227,7.000458,0.98430943,0.17857516,0.2936458,-0.80852836,-0.35043648,-0.6196274,0.7918775,-0.46985757,0.623579,0.049676783,0.7399528,-1.0911765,-2.2125206,-0.84154606,1.8465855,1.8468535,-0.9551083,0.8061457,-1.0616108,-2.1622036,-0.90664226,1.88597,1.7890954,-0.9613837,-1.4632158,-0.57314277,-1.1548127,1.4100817,-0.75154716,0.45872834,-0.12251076,-0.23844528,-0.59693146,0.7064709,-1.556784,0.37946585,-0.17138991,-0.19009781,-0.6296272,0.6530168,0.92651683,0.007519377,0.22604036,0.30069202,-1.4341015,0.17334576,-0.34169668,0.0,1.0,0.0,0.0,0.0,0.0,0.0,-0.4115547,0.19693145,-0.1564709,1.1307478,-10.080946,3.834033,0.38137436,3.416407,-0.4643798,3.3174486
1.5263357,42.526443,10.492009,7.1597853,1.1516992,0.3050574,0.29577762,-0.807619,-0.3942801,-0.56483406,0.7817771,-0.40201423,0.6184898,0.07818592,0.7253838,-1.1010388,-2.218687,-0.82846457,1.8457686,1.8509444,-0.9535651,0.79159933,-1.0680233,-2.1732583,-0.89257264,1.8789239,1.7936668,-0.96236694,-1.4521133,-0.6640966,-1.0875895,1.406069,-0.6900225,0.4559713,-0.09021381,-0.25387955,-0.593071,0.7044237,-1.5385736,0.38863575,-0.21520874,-0.20449829,-0.62784576,0.64934486,0.9294536,0.011279171,0.2313222,0.28719112,-1.4400651,0.19242786,-0.3757067,0.0,1.0,0.0,0.0,0.0,0.0,0.0,-0.39612043,0.19307098,-0.15442371,1.0231256,-9.1796875,7.1567774,-0.35717487,5.7818294,-0.4805386,3.2491937
-2.9776835,49.82734,10.821986,9.845882,1.2229855,0.39614397,0.25128514,-0.8208275,-0.40265292,-0.5918311,0.77683115,-0.39831474,0.57704675,0.15327618,0.7095166,-1.1082886,-2.2324414,-0.81488955,1.8390924,1.8513715,-0.9470393,0.77707577,-1.0751187,-2.18384,-0.87857443,1.8724422,1.798184,-0.96300673,-1.4527034,-0.72520036,-1.0469857,1.3979334,-0.6354477,0.44955143,-0.05516022,-0.26910782,-0.5891075,0.70199454,-1.517299,0.39979437,-0.25087747,-0.21897125,-0.62581635,0.645399,0.9321975,0.015123203,0.2359762,0.27403328,-1.4468838,0.21765469,-0.4013778,0.0,1.0,0.0,0.0,0.0,0.0,0.0,-0.38089216,0.18910751,-0.15199453,-0.14526844,-6.224227,4.521656,-0.7637739,5.0472736,-0.8885503,3.5211318
-0.4960065,51.689423,12.04545,9.70424,1.4656485,0.44005305,0.24241057,-0.8088842,-0.45777038,-0.5195719,0.7757929,-0.26517057,0.5759859,0.21688099,0.6961874,-1.1208957,-2.2357972,-0.8009951,1.8459252,1.8557826,-0.94131863,0.7625719,-1.0828396,-2.1938336,-0.8646573,1.8667874,1.802639,-0.9632811,-1.4499351,-0.7880092,-0.9815295,1.3897705,-0.5435073,0.44323736,-0.018005082,-0.2841301,-0.58503723,0.69920665,-1.4966085,0.4106076,-0.28628397,-0.23350906,-0.6235237,0.6412518,0.93480206,0.018935157,0.23988439,0.2612319,-1.453878,0.24502005,-0.41954288,0.0,1.0,0.0,0.0,0.0,0.0,0.0,-0.36586988,0.18503723,-0.14920664,0.17733574,-6.3911557,7.0453167,-0.7800579,8.752656,-0.88305473,3.761724
0.21096992,59.39324,14.080143,11.248099,1.7305961,0.53661114,0.1985628,-0.81206745,-0.47107476,-0.47011954,0.7633805,-0.16123173,0.54778683,0.22836404,0.68136513,-1.1299471,-2.2408454,-0.78831923,1.8506643,1.8574177,-0.9404447,0.7480741,-1.0910717,-2.203061,-0.8508632,1.8622476,1.8070165,-0.963211,-1.4501423,-0.8353669,-0.9012297,1.3759701,-0.4257573,0.4349371,0.015629,-0.29891968,-0.5808525,0.69612175,-1.4727252,0.42289966,-0.31482583,-0.24811935,-0.6209183,0.63702166,0.9373287,0.02255205,0.24292682,0.24878265,-1.4591949,0.2777385,-0.4247731,0.0,1.0,0.0,0.0,0.0,0.0,0.0,-0.3510803,0.1808525,-0.14612174,-0.14154911,-4.8586607,8.606243,-1.3702154,11.253852,-1.1009753,3.4157012
-4.702181,51.459866,10.401021,10.329916,1.6049539,0.4147287,0.18203864,-0.8244129,-0.5190504,-0.49965322,0.74253774,-0.10516984,0.5036455,0.2535736,0.66563284,-1.1429768,-2.2530265,-0.7766094,1.8517306,1.857381,-0.93785363,0.7335132,-1.0998379,-2.211781,-0.8372788,1.8588719,1.8112781,-0.9628249,-1.4582738,-0.8906852,-0.8609197,1.3528687,-0.30932018,0.4224716,0.046620104,-0.3135376,-0.576561,0.6926157,-1.4571477,0.43251142,-0.36039814,-0.26283264,-0.61800766,0.63260615,0.9398144,0.026096353,0.24510753,0.23662259,-1.4721136,0.30714917,-0.4478843,0.0,1.0,0.0,0.0,0.0,0.0,0.0,-0.33646238,0.17656097,-0.14261568,-0.88033676,-5.6429744,4.458511,-2.2341251,11.249375,-1.494348,3.1703553
-5.0126104,49.138653,9.547368,9.71997,1.6855676,0.37278318,0.16669703,-0.8222105,-0.55265176,-0.4730919,0.7294431,0.046958383,0.4682005,0.3084935,0.65129215,-1.1551031,-2.2590902,-0.7643345,1.8635678,1.8580981,-0.93197554,0.71888,-1.1091801,-2.2201731,-0.82395285,1.856879,1.8153943,-0.96212345,-1.4651364,-0.94904584,-0.8310193,1.326152,-0.16373,0.40707898,0.07839706,-0.32802582,-0.5721817,0.68859965,-1.4457726,0.44104445,-0.41314712,-0.27770615,-0.61481094,0.6279335,0.94230604,0.029608702,0.24633831,0.22472191,-1.4883692,0.33631745,-0.47470063,0.0,1.0,0.0,0.0,0.0,0.0,0.0,-0.32197416,0.1721817,-0.13859963,-0.7400751,-5.9409857,3.3740282,-2.579546,14.199492,-1.8039107,3.2781608
-5.527479,40.98003,7.248542,7.464289,1.5895973,0.28283912,0.18169275,-0.8272505,-0.6087063,-0.46236598,0.69897944,0.17216589,0.4259629,0.33662242,0.63615495,-1.1700507,-2.2664096,-0.7540549,1.8740956,1.8579906,-0.9284612,0.70417243,-1.1192261,-2.2283518,-0.81097794,1.8564676,1.8193334,-0.9611145,-1.4726871,-1.023558,-0.8126777,1.2883896,-0.0011172029,0.3885765,0.1089122,-0.34243774,-0.5677452,0.6839263,-1.4391506,0.44591632,-0.48332018,-0.2927704,-0.611351,0.6228811,0.94485104,0.03312819,0.24648264,0.21308485,-1.5084229,0.36275774,-0.51649666,0.0,1.0,0.0,0.0,0.0,0.0,0.0,-0.30756223,0.1677452,-0.13392627,-0.7785082,-7.538402,2.1189213,-3.6426306,15.992204,-2.1136343,3.1995668
-1.0443809,43.225048,8.448233,6.109911,1.2910674,0.34217495,0.236939,-0.825242,-0.6343596,-0.41362265,0.6668549,0.17467654,0.38418472,0.36508262,0.62164825,-1.182662,-2.269714,-0.74429244,1.8739352,1.8577518,-0.92460626,0.68941706,-1.1299874,-2.2362056,-0.7984656,1.8573987,1.8230728,-0.9598138,-1.4766748,-1.0939002,-0.7749752,1.23913,0.12348401,0.36832163,0.13754098,-0.356781,-0.5632324,0.6786111,-1.4320627,0.4535122,-0.54526895,-0.30794144,-0.6076164,0.61741555,0.94743043,0.03664921,0.2455973,0.2017778,-1.5142457,0.38961068,-0.55769736,0.0,1.0,0.0,0.0,0.0,0.0,0.0,-0.29321897,0.16323242,-0.12861109,-0.4466772,-7.1163416,4.1123867,-4.829192,12.129395,-2.245748,2.9732034
1.5691352,48.124687,8.903791,5.8831367,0.45511943,0.3815496,0.32942665,-0.8200811,-0.64324445,-0.43817586,0.65198505,-0.049233817,0.3759357,0.4283992,0.60740894,-1.1943119,-2.280023,-0.7332671,1.8524754,1.8606664,-0.9169738,0.6746646,-1.1413094,-2.2438571,-0.7864262,1.8585926,1.8266317,-0.958211,-1.4750036,-1.1452508,-0.7603669,1.1923896,0.1170991,0.3515123,0.16790359,-0.37092972,-0.5586586,0.6727692,-1.4077321,0.4582547,-0.5946438,-0.3229828,-0.6036377,0.6115079,0.94988924,0.040384945,0.24423264,0.19086586,-1.4962623,0.41345116,-0.6030285,0.0,1.0,0.0,0.0,0.0,0.0,0.0,-0.27907026,0.1586586,-0.12276918,0.09765625,-5.2244425,1.8373013,-4.6092033,-0.9907305,-1.8141508,3.0338764
4.613512,55.212357,10.783902,6.8337793,0.34299332,0.44298232,0.3350274,-0.811434,-0.6599047,-0.4096004,0.6423001,-0.037252426,0.3631828,0.47783297,0.59352124,-1.2072998,-2.2848172,-0.72219616,1.8548673,1.86295,-0.9104277,0.65998083,-1.1530358,-2.251314,-0.77478164,1.8594869,1.8300394,-0.95629823,-1.4664959,-1.1820674,-0.7389699,1.1552074,0.07909427,0.33694726,0.19894025,-0.38476944,-0.5540428,0.6665359,-1.375018,0.46248922,-0.63063514,-0.33776855,-0.59942245,0.60522604,0.95214885,0.044382792,0.2427057,0.18037935,-1.4676813,0.43691564,-0.63798004,0.0,1.0,0.0,0.0,0.0,0.0,0.0,-0.26523054,0.15404281,-0.1165359,0.7535696,-3.778267,2.5947213,-3.6931992,-4.215427,-1.5760303,3.0551047
0.13220263,61.51293,10.753173,9.823614,0.4807329,0.4701198,0.26395336,-0.81766015,-0.6560387,-0.45663157,0.63440275,-0.01689011,0.33676657,0.51223594,0.5782148,-1.2186396,-2.296977,-0.7113414,1.857798,1.863716,-0.90507466,0.64535236,-1.1649662,-2.258832,-0.7634213,1.8600117,1.8333018,-0.954082,-1.461911,-1.1970302,-0.7543132,1.1296406,0.04245103,0.32216257,0.22897689,-0.39826584,-0.5493851,0.66000426,-1.3401575,0.4672132,-0.6586682,-0.35230637,-0.59495544,0.5986537,0.95419025,0.048703916,0.24118944,0.17022513,-1.44274,0.4631079,-0.6650813,0.0,1.0,0.0,0.0,0.0,0.0,0.0,-0.25173414,0.14938506,-0.110004246,0.36690235,-1.6109705,-1.0830164,-2.5204897,-4.0797606,-1.6211927,2.9328732
-0.2809279,68.486046,12.098507,11.908222,0.8226054,0.51223606,0.19765471,-0.8112586,-0.65209365,-0.45637625,0.6220152,0.0677405,0.3038195,0.5411266,0.5642265,-1.2301756,-2.3044696,-0.7012198,1.8667858,1.8636837,-0.89996934,0.6307812,-1.1769215,-2.2665486,-0.75227445,1.8604884,1.8364061,-0.9515768,-1.4558923,-1.1954745,-0.77595997,1.1097357,0.04808429,0.3059858,0.2574795,-0.41140366,-0.5446739,0.65325266,-1.3037646,0.47226113,-0.6785542,-0.36660385,-0.5901985,0.59191567,0.9560467,0.053286757,0.23965238,0.16031809,-1.4205854,0.49229276,-0.6781936,0.0,1.0,0.0,0.0,0.0,0.0,0.0,-0.23859632,0.14467391,-0.10325265,0.49254894,0.031924248,-1.6552091,-1.984024,0.102254,-1.7946601,2.775982
5.8708954,70.530655,14.325446,10.42781,1.3048519,0.53018874,0.19369677,-0.803707,-0.6661448,-0.3805296,0.5628726,0.2889543,0.21323514,0.5473986,0.55041045,-1.243536,-2.3046017,-0.6959872,1.8893838,1.8577297,-0.896837,0.6162891,-1.1888729,-2.274105,-0.741532,1.8617548,1.8392931,-0.9488128,-1.4474171,-1.1953735,-0.7471856,1.062166,0.15133199,0.28233287,0.282631,-0.42419815,-0.539917,0.64629275,-1.2704271,0.47670153,-0.69966465,-0.38069916,-0.58514404,0.5851358,0.9578494,0.057812754,0.23763774,0.15069999,-1.3996025,0.52204436,-0.67936516,0.0,1.0,0.0,0.0,0.0,0.0,0.0,-0.22580183,0.13991699,-0.096292734,0.7069349,-0.09520054,3.466034,-4.81627,9.796804,-2.571857,2.491355
12.37597,72.31763,15.767358,8.117293,1.1803216,0.49719554,0.26694936,-0.8000216,-0.6552268,-0.3466502,0.48587108,0.31664264,0.050517935,0.5225345,0.53628695,-1.2543956,-2.3087702,-0.69294494,1.893419,1.844345,-0.89655936,0.6018829,-1.2007653,-2.2811618,-0.7315735,1.8641487,1.8418422,-0.94584656,-1.4388907,-1.1873711,-0.69005823,0.9732508,0.26720443,0.24522099,0.30120227,-0.43663788,-0.5351372,0.63913846,-1.2337476,0.47842857,-0.7182049,-0.39450073,-0.57982254,0.5783625,0.95966715,0.062126,0.23486431,0.14148507,-1.3676674,0.54664546,-0.6779736,0.0,1.0,0.0,0.0,0.0,0.0,0.0,-0.2133621,0.13513717,-0.08913845,0.6872654,0.7163286,6.338656,-9.017456,11.0153885,-3.8759708,1.8175423
12.82239,76.46336,16.30395,9.232921,1.1718538,0.38011825,0.24277131,-0.7937951,-0.6378016,-0.3437859,0.4702206,0.33032823,-0.21584699,0.54666305,0.5225034,-1.2645454,-2.3155403,-0.6845515,1.8971815,1.8202574,-0.8911803,0.587571,-1.2124954,-2.2876806,-0.7224733,1.8675843,1.8438462,-0.9427046,-1.4291961,-1.1685895,-0.63713795,0.88852835,0.36735338,0.18506575,0.31828177,-0.44868088,-0.53035736,0.63186276,-1.1937644,0.4777688,-0.72889876,-0.4079666,-0.57429504,0.5716502,0.9615046,0.06627833,0.2313398,0.1326576,-1.3341991,0.56621,-0.67035687,0.0,1.0,0.0,0.0,0.0,0.0,0.0,-0.2013191,0.13035735,-0.08186275,0.8076668,1.7971754,5.9065223,-8.606064,9.4562235,-6.158945,1.6436815
9.060041,74.294785,14.656709,10.078304,1.1113089,0.25154,0.20106845,-0.79407746,-0.6386799,-0.35594508,0.4465308,0.35583523,-0.3915235,0.5574456,0.5081633,-1.2763635,-2.323275,-0.67782027,1.9031678,1.8046938,-0.88696,0.57333356,-1.2240578,-2.2938638,-0.7141227,1.871861,1.8451504,-0.93940705,-1.4223697,-1.1524152,-0.6101068,0.8169976,0.44632503,0.11190415,0.33344045,-0.46034622,-0.5255928,0.6244552,-1.1566459,0.4756822,-0.74271005,-0.4211502,-0.5685921,0.5649692,0.9633432,0.07043016,0.22716452,0.12411936,-1.3068062,0.5824501,-0.6686426,0.0,1.0,0.0,0.0,0.0,0.0,0.0,-0.18965375,0.1255928,-0.0744552,0.55384636,1.5371323,3.2268167,-7.235956,7.416731,-7.462744,1.4554143
8.1933565,89.60006,17.740854,15.154354,1.4389191,0.42683244,0.0942115,-0.7887262,-0.5913708,-0.27811176,0.45537326,0.32650957,-0.4502664,0.5741649,0.49446094,-1.2831949,-2.321675,-0.66858536,1.9045119,1.8001237,-0.88199055,0.55916387,-1.2352787,-2.2995512,-0.70622516,1.8766357,1.845742,-0.9359635,-1.415648,-1.1124719,-0.5531229,0.78027844,0.48624322,0.041160986,0.347636,-0.47156525,-0.52085495,0.61711335,-1.1092359,0.47301325,-0.7298572,-0.43403244,-0.5626831,0.55852175,0.9651485,0.074494205,0.22257257,0.11575949,-1.2758949,0.60378075,-0.6382456,0.0,1.0,0.0,0.0,0.0,0.0,0.0,-0.17843473,0.120854944,-0.06711334,0.52366257,3.9044857,6.321442,-3.7944198,3.459078,-7.2091193,1.3081551
9.957742,85.61548,16.942215,13.25375,1.2011741,0.4034533,0.1510278,-0.7874837,-0.5926517,-0.24984209,0.38459578,0.34063274,-0.50858235,0.564548,0.4804155,-1.2945439,-2.3245354,-0.66776556,1.9106989,1.7948837,-0.87950873,0.5450485,-1.2461507,-2.3046281,-0.69882834,1.881674,1.8456558,-0.93240136,-1.4106416,-1.0790592,-0.49067757,0.7257434,0.5082668,-0.025581397,0.3587089,-0.48231888,-0.51615906,0.60986024,-1.0635644,0.46804065,-0.7224696,-0.44657516,-0.55659866,0.55231065,0.96690375,0.07845558,0.21762905,0.107607335,-1.2415359,0.62064224,-0.6166641,0.0,1.0,0.0,0.0,0.0,0.0,0.0,-0.1676811,0.11615905,-0.05986023,0.36520958,3.265214,6.8083344,-5.5663824,1.7160773,-6.784524,1.0007441
13.257962,99.64412,20.778074,16.630648,1.5944117,0.6126068,0.08958631,-0.7788758,-0.54409355,-0.12857164,0.38901466,0.34977514,-0.5166303,0.5939172,0.46716088,-1.3005601,-2.3174853,-0.6599269,1.9166516,1.7939928,-0.8730096,0.53100467,-1.2565515,-2.3086448,-0.6918426,1.8868694,1.8449751,-0.9287216,-1.402787,-1.0272492,-0.36973864,0.68899715,0.52160555,-0.08252084,0.37064165,-0.49254608,-0.5115242,0.6028707,-1.0090922,0.46145657,-0.69049305,-0.4587288,-0.5503082,0.54653704,0.9686208,0.08205025,0.21238266,0.09967535,-1.2015111,0.6411881,-0.56543124,0.0,1.0,0.0,0.0,0.0,0.0,0.0,-0.1574539,0.111524194,-0.05287069,0.63004494,5.1071644,12.742573,-3.8381696,0.80857277,-5.780352,1.0566115
21.222528,95.2952,21.551163,12.896135,1.530332,0.58849573,0.18077995,-0.7681921,-0.5451648,-0.01624262,0.30873784,0.44025347,-0.57313234,0.60474205,0.45418546,-1.3110679,-2.310269,-0.66096884,1.9308947,1.7876619,-0.8682474,0.5170753,-1.2665288,-2.3110895,-0.6854682,1.8924133,1.8437544,-0.92492694,-1.390075,-0.98810446,-0.20039424,0.6196446,0.5637229,-0.13536139,0.3820941,-0.50224686,-0.5069771,0.5961604,-0.9567453,0.45206732,-0.66374564,-0.4704399,-0.5438614,0.5412473,0.9703637,0.084997326,0.20661338,0.09209074,-1.1562095,0.6550243,-0.5179934,0.0,1.0,0.0,0.0,0.0,0.0,0.0,-0.14775312,0.106977075,-0.0461604,1.1259079,3.8612604,17.528624,-7.103777,3.7382245,-5.328879,1.0366797
25.921894,122.90536,28.58112,19.143192,2.3458273,0.94130534,0.08137551,-0.76620185,-0.43787083,0.18088743,0.28877768,0.51520514,-0.5888254,0.609584,0.4404551,-1.310316,-2.2930007,-0.6565904,1.9439337,1.7848718,-0.86396855,0.5032642,-1.2757356,-2.3112001,-0.6797797,1.8985956,1.8420644,-0.92102534,-1.3786218,-0.8984711,0.054142512,0.5511299,0.6349209,-0.18016517,0.3923927,-0.51130295,-0.5025444,0.5900691,-0.8889703,0.44020414,-0.5907128,-0.48164368,-0.5372124,0.53684974,0.9722006,0.086766884,0.20023282,0.08487872,-1.1029541,0.67725676,-0.4150404,0.0,1.0,0.0,0.0,0.0,0.0,0.0,-0.13869703,0.1025444,-0.040069103,0.992918,8.906436,26.106861,-7.0679665,6.6524744,-4.4667187,0.88009834
24.420122,106.71468,24.097536,14.479946,1.784119,0.7014488,0.18685104,-0.7632167,-0.44144914,0.15928413,0.19366798,0.57351714,-0.60823345,0.60689175,0.42694253,-1.3198805,-2.2952716,-0.6604129,1.9559473,1.781241,-0.8603362,0.48955444,-1.2841737,-2.309289,-0.6750536,1.905585,1.8399652,-0.9170341,-1.3687198,-0.82576025,0.23823804,0.44604623,0.71936744,-0.21955843,0.40104765,-0.51976013,-0.49824333,0.58452266,-0.83196366,0.42704237,-0.54371226,-0.4923439,-0.5303917,0.53321034,0.9741302,0.087455906,0.19319314,0.0780909,-1.0545315,0.6906755,-0.34829563,0.0,1.0,0.0,0.0,0.0,0.0,0.0,-0.13023984,0.098243326,-0.034522653,0.90208054,7.2238684,18.793509,-10.615528,8.199692,-3.879991,0.7812619
11.485397,121.91095,23.693544,22.528282,2.0626218,0.7731693,0.006524451,-0.767118,-0.32022104,0.11600169,0.21557772,0.6077965,-0.57614,0.6067096,0.41284263,-1.3161958,-2.2976887,-0.65349585,1.9663647,1.7823513,-0.8563631,0.4758969,-1.2915189,-2.306364,-0.671094,1.9134034,1.8375472,-0.9129666,-1.364874,-0.70426375,0.31099635,0.37924528,0.8023729,-0.24913456,0.40844595,-0.5276222,-0.49407005,0.5796153,-0.7718748,0.41416445,-0.4747321,-0.5026245,-0.52336884,0.5303707,0.97606254,0.08737599,0.18588383,0.0715163,-1.0166467,0.71386564,-0.26396957,0.0,1.0,0.0,0.0,0.0,0.0,0.0,-0.12237775,0.09407005,-0.029615283,0.34594536,12.102259,7.4688077,-6.7036986,8.262741,-2.8931231,0.68361163
14.7320795,111.361565,21.86716,18.970037,1.6457424,0.6327971,0.07058368,-0.7464522,-0.31726632,0.21413752,0.16442774,0.6260589,-0.5704593,0.6074037,0.40125167,-1.3232455,-2.2849503,-0.6546512,1.9760092,1.7805012,-0.85222626,0.46234858,-1.2978361,-2.3027864,-0.6677868,1.9219315,1.8348777,-0.9088341,-1.3515348,-0.6077055,0.37397087,0.3146093,0.869549,-0.27258587,0.41468546,-0.5349159,-0.49004173,0.5753107,-0.7166448,0.39925632,-0.41807577,-0.51252365,-0.5161705,0.5282277,0.9779585,0.086678654,0.17844194,0.06513446,-0.97728777,0.72821355,-0.19912092,0.0,1.0,0.0,0.0,0.0,0.0,0.0,-0.11508405,0.09004173,-0.025310695,1.3107777,9.618294,6.4220133,-6.462556,6.7495346,-2.2652626,0.58990717
18.059332,77.83862,14.836949,7.239619,0.41035628,0.26442096,0.36180052,-0.7529871,-0.33510804,0.1731614,-0.0155945495,0.6618222,-0.57115155,0.5911629,0.38704985,-1.3313469,-2.2854702,-0.6693462,1.9881138,1.7777625,-0.8497178,0.44888937,-1.3035581,-2.2990298,-0.6657617,1.9310408,1.8320037,-0.9046595,-1.3441494,-0.5603483,0.3762087,0.1652744,0.92452216,-0.2919948,0.41848373,-0.54177475,-0.4861679,0.5711674,-0.67705417,0.38391274,-0.41634846,-0.52199936,-0.50896835,0.5262131,0.97980005,0.085771374,0.17067304,0.059210222,-0.9342216,0.72422844,-0.2035761,0.0,1.0,0.0,0.0,0.0,0.0,0.0,-0.10822523,0.0861679,-0.021167397,0.7199764,4.7133923,0.21890998,-14.908952,5.571711,-1.8036485,0.4091084
12.74936,93.065994,16.25423,13.071419,0.52970093,0.35500526,0.24908589,-0.74515396,-0.2149561,0.1217595,0.0013102387,0.65305644,-0.55012095,0.59548336,0.37437397,-1.3250537,-2.2868538,-0.6656307,1.9963464,1.7769916,-0.8451112,0.43551314,-1.3085115,-2.2956736,-0.66498077,1.9405359,1.8289789,-0.90044886,-1.335437,-0.47376144,0.32178518,0.0492749,0.9583468,-0.3056229,0.42200577,-0.5481949,-0.4824581,0.567221,-0.63183844,0.3670792,-0.39049762,-0.5310402,-0.50177383,0.5243176,0.98152184,0.08491398,0.16285194,0.053699087,-0.8910819,0.7235218,-0.18616736,0.0,1.0,0.0,0.0,0.0,0.0,0.0,-0.10180509,0.08245811,-0.017220974,0.87525845,8.64954,-5.5382967,-11.555915,3.57486,-1.2212276,0.39741993
20.922821,81.30055,15.593872,6.9466534,0.068349384,0.2717949,0.40882897,-0.73833185,-0.22774273,0.21029732,-0.1336544,0.65871805,-0.5482448,0.5837772,0.36167994,-1.3312857,-2.274644,-0.6783462,2.0064077,1.7741544,-0.8420711,0.4222323,-1.3128145,-2.2924929,-0.66565514,1.9502594,1.8258399,-0.8962164,-1.3255817,-0.4158453,0.3164286,-0.10615851,0.9775184,-0.31609398,0.42374495,-0.5541878,-0.47892952,0.5634156,-0.5899343,0.34843627,-0.38028687,-0.5395889,-0.49467278,0.52245283,0.983137,0.08408537,0.1549054,0.048739526,-0.8397029,0.7113728,-0.18776448,0.0,1.0,0.0,0.0,0.0,0.0,0.0,-0.0958122,0.07892951,-0.013415575,0.99213123,5.7961464,-0.6767273,-15.51947,2.140987,-0.86497664,0.22642612
24.099737,79.43698,16.269156,5.753708,0.08706404,0.28282908,0.4239515,-0.73189807,-0.20733187,0.2598317,-0.1998268,0.67424494,-0.53289306,0.57605153,0.34904248,-1.3335477,-2.2665098,-0.68563783,2.017684,1.7725506,-0.83861125,0.40905973,-1.3166444,-2.2890337,-0.6678668,1.9601413,1.8226228,-0.8919771,-1.3143951,-0.3719194,0.35506278,-0.25930834,0.99263114,-0.32293242,0.42419487,-0.5597725,-0.47559357,0.5597164,-0.5493015,0.3292629,-0.36980933,-0.54761505,-0.48770142,0.52057636,0.98468125,0.08312546,0.14669491,0.0444257,-0.7879461,0.69646835,-0.18862268,0.0,1.0,0.0,0.0,0.0,0.0,0.0,-0.090227485,0.07559356,-0.009716392,1.1470795,4.41249,3.6251068,-15.285808,1.8360734,-0.4849255,0.110173225
33.1188,93.94568,21.095385,7.1697283,0.19514424,0.44991383,0.43431664,-0.7047235,-0.13807942,0.34994453,-0.2683052,0.67907715,-0.4768475,0.565803,0.33858737,-1.3304523,-2.2540393,-0.6946973,2.028049,1.774938,-0.83539677,0.3961032,-1.3198793,-2.2847362,-0.67155105,1.9701636,1.8193977,-0.8877425,-1.2892097,-0.30720308,0.45332587,-0.40466386,1.0071331,-0.32155767,0.42341185,-0.5648842,-0.47248268,0.5563468,-0.49983978,0.3054533,-0.3287931,-0.55503845,-0.4809227,0.51891565,0.98617786,0.081711926,0.1382378,0.040823672,-0.724232,0.6766408,-0.15954667,0.0,1.0,0.0,0.0,0.0,0.0,0.0,-0.08511579,0.072482675,-0.006346762,2.5787115,6.5200386,9.408659,-14.511323,2.0082474,0.419724,-0.012665987
33.85654,114.298386,25.664764,12.4501915,0.5595623,0.6994946,0.35956812,-0.69703156,-0.050035074,0.4146747,-0.32507926,0.69014174,-0.40477243,0.5496874,0.32640004,-1.3248827,-2.2432687,-0.704059,2.0391777,1.7789204,-0.8327738,0.38340932,-1.3221776,-2.2792475,-0.6765523,1.9803542,1.8162509,-0.88352704,-1.2624207,-0.20369482,0.5786144,-0.53168285,1.0256793,-0.31117228,0.42121008,-0.56944656,-0.4696293,0.553674,-0.44305846,0.2791945,-0.25005218,-0.56179047,-0.47430038,0.51783246,0.987629,0.079556495,0.12970333,0.03790278,-0.65608335,0.66112757,-0.09214892,0.0,1.0,0.0,0.0,0.0,0.0,0.0,-0.08055341,0.06962928,-0.0036739707,2.793312,10.432238,11.86446,-12.639242,2.7085066,1.3926148,-0.122755766
