Afshin1997/kuka_rl_ros2/src/catch_and_throw/input_files/idealpd/recorded_trajectories/env_423_data.csv
torque0,torque1,torque2,torque3,torque4,torque5,torque6,action0,action1,action2,action3,action4,action5,action6,set_target_0,set_target_1,set_target_2,set_target_3,set_target_4,set_target_5,set_target_6,joint_pos_0,joint_pos_1,joint_pos_2,joint_pos_3,joint_pos_4,joint_pos_5,joint_pos_6,joint_vel_0,joint_vel_1,joint_vel_2,joint_vel_3,joint_vel_4,joint_vel_5,joint_vel_6,tennisball_pos_0,tennisball_pos_1,tennisball_pos_2,tennisball_lin_vel_0,tennisball_lin_vel_1,tennisball_lin_vel_2,end_effector_pos_0,end_effector_pos_1,end_effector_pos_2,end_effector_rot_0,end_effector_rot_1,end_effector_rot_2,end_effector_rot_3,end_effector_lin_vel_0,end_effector_lin_vel_1,end_effector_lin_vel_2,obs_task_0,obs_task_1,obs_task_2,obs_task_3,obs_task_4,obs_task_5,obs_task_6,to_final_target_0,to_final_target_1,to_final_target_2,joint_acc_0,joint_acc_1,joint_acc_2,joint_acc_3,joint_acc_4,joint_acc_5,joint_acc_6
0.0,0.0,0.0,0.0,0.0,0.0,0.0,0.0,0.0,0.0,0.0,0.0,0.0,0.0,1.7802359,-1.0646509,-1.8151424,-1.1170107,1.9373155,1.1170107,-0.91629785,1.7802359,-1.0646509,-1.8151424,-1.1170107,1.9373155,1.1170107,-0.91629785,0.0,0.0,0.0,0.0,0.0,0.0,0.0,2.9871178,-0.35374832,0.31349054,-4.0262346,-0.3519298,4.618692,0.5304184,-0.45449448,0.693097,0.5745483,0.17512383,0.15255436,0.7848268,0.0,0.0,0.0,1.0,0.0,0.0,0.0,0.0,0.0,0.0,-3.6371179,-0.046251684,0.23650947,0.0,0.0,0.0,0.0,0.0,0.0,0.0
0.0,0.0,0.0,0.0,0.0,0.0,0.0,0.0,0.0,0.0,0.0,0.0,0.0,0.0,1.7802359,-1.0646509,-1.8151424,-1.1170107,1.9373155,1.1170107,-0.91629785,1.7802359,-1.0646509,-1.8151424,-1.1170107,1.9373155,1.1170107,-0.91629785,0.0,0.0,0.0,0.0,0.0,0.0,0.0,2.9871178,-0.35374832,0.31349054,-4.0262346,-0.3519298,4.618692,0.5304184,-0.45449448,0.693097,0.5745483,0.17512383,0.15255436,0.7848268,0.0,0.0,0.0,1.0,0.0,0.0,0.0,0.0,0.0,0.0,-3.6371179,-0.046251684,0.23650947,0.0,0.0,0.0,0.0,0.0,0.0,0.0
0.0,0.0,0.0,0.0,0.0,0.0,0.0,0.0,0.0,0.0,0.0,0.0,0.0,0.0,1.7802359,-1.0646509,-1.8151424,-1.1170107,1.9373155,1.1170107,-0.91629785,1.7802359,-1.0646509,-1.8151424,-1.1170107,1.9373155,1.1170107,-0.91629785,0.0,0.0,0.0,0.0,0.0,0.0,0.0,2.9871178,-0.35374832,0.31349054,-4.0262346,-0.3519298,4.618692,0.5304184,-0.45449448,0.693097,0.5745483,0.17512383,0.15255436,0.7848268,0.0,0.0,0.0,1.0,0.0,0.0,0.0,0.0,0.0,0.0,-3.6371179,-0.046251684,0.23650947,0.0,0.0,0.0,0.0,0.0,0.0,0.0
-176.0,68.65253,-6.4606476,110.0,9.749458,4.668325,-4.057385,-0.7960447,0.34914628,-0.5623055,0.7363013,-0.17490216,0.67836744,-0.5518219,1.7006314,-1.0297363,-1.8713729,-1.0433806,1.9198252,1.1848475,-0.97148,1.7786795,-1.0623144,-1.8209713,-1.1117235,1.9391637,1.1214072,-0.9158239,-0.20720246,0.31082445,-0.77672356,0.7052991,0.24588084,0.5848538,0.06330338,2.9468842,-0.35726547,0.35890636,-4.022209,-0.35157794,4.5158877,0.52835846,-0.4575653,0.69391537,0.5780304,0.17359367,0.1524182,0.7826331,-0.2741879,-0.4095281,0.10888203,1.0,0.0,0.0,0.0,0.0,0.0,0.0,-3.5968843,-0.042734534,0.19109365,-20.638075,30.882696,-77.54657,70.62354,24.437664,58.106,6.3543024
-176.0,-29.736961,-44.731995,107.27766,10.835316,1.269445,-3.8805578,-0.806465,-0.14906532,-0.6043351,0.71789443,-0.2462312,0.6615379,-0.5679432,1.698033,-1.0772209,-1.8814048,-1.0399342,1.9145405,1.1875609,-0.9726182,1.776528,-1.0594457,-1.8357227,-1.0969244,1.9421659,1.1329924,-0.9135627,-0.21525939,0.27739483,-1.7104231,1.7414807,0.32018006,1.346641,0.2820605,2.9066925,-0.3607788,0.40329492,-4.0181875,-0.35122642,4.4131866,0.5238037,-0.46558,0.6947138,0.58604914,0.16992685,0.15172946,0.77759206,-0.5166635,-0.93101466,0.07090815,1.0,0.0,0.0,0.0,0.0,0.0,0.0,-3.5566926,-0.039221197,0.14670509,-0.025460124,-3.7825465,-94.1302,104.63553,7.922989,75.24532,22.400543
-156.89528,69.55411,9.735784,83.50614,7.0622067,5.560483,-2.5343704,-0.766472,0.207222,-0.23589616,0.65995604,-0.26149163,0.674076,-0.46026695,1.6998808,-1.0387236,-1.8593123,-1.0309289,1.9160167,1.2004,-0.9595894,1.7712008,-1.0563558,-1.8523338,-1.0777746,1.9441285,1.1464335,-0.9111385,-0.6379128,0.3167193,-1.6404305,1.974864,0.15082261,1.3391042,0.228781,2.8665428,-0.36428833,0.44665724,-4.01417,-0.35087526,4.3105884,0.5166321,-0.4765892,0.69628674,0.59718525,0.16499968,0.15109557,0.77026945,-0.79198205,-1.150173,0.19006121,1.0,0.0,0.0,0.0,0.0,0.0,0.0,-3.516543,-0.035711676,0.10334277,-42.07036,3.095901,8.324051,23.942804,-18.242922,-2.0686626,-5.4827423
-95.14711,90.46693,30.022543,49.295444,4.0600915,6.3761683,-0.7284584,-0.7778997,0.14533806,-0.10724858,0.6291518,-0.1952965,0.64540106,-0.4901041,1.6934108,-1.0418221,-1.8630587,-1.0148594,1.9245988,1.2109736,-0.9601489,1.761727,-1.0532926,-1.8652656,-1.0589529,1.9443288,1.1590449,-0.90945905,-1.0514601,0.3005202,-1.1706858,1.851909,-0.02970673,1.2320607,0.14688642,2.8264313,-0.36779404,0.48899436,-4.010157,-0.35052446,4.208092,0.5071678,-0.4883957,0.6990946,0.60949653,0.15919209,0.15036303,0.7619467,-1.0085796,-1.1799024,0.3161849,1.0,0.0,0.0,0.0,0.0,0.0,0.0,-3.4764314,-0.03220597,0.061005652,-41.61781,-2.278769,49.004864,-12.106156,-19.89852,-11.618662,-8.436829
-39.409416,126.1045,47.191387,27.39716,1.2546805,6.4865923,0.0014127195,-0.7954037,0.3282395,-0.17051297,0.63750607,-0.18605995,0.63107187,-0.45791346,1.6821866,-1.0204687,-1.882317,-0.9952023,1.9257228,1.222152,-0.9552504,1.7488562,-1.0495886,-1.8733108,-1.0424849,1.9429765,1.1703955,-0.90859693,-1.3671061,0.3919382,-0.6758898,1.5777987,-0.17607126,1.1004285,0.06464703,2.7863579,-0.37129593,0.5303073,-4.006148,-0.350174,4.105699,0.496109,-0.4994812,0.70333064,0.62180144,0.15252897,0.1496964,0.75345135,-1.1486793,-1.0714827,0.46292356,1.0,0.0,0.0,0.0,0.0,0.0,0.0,-3.436358,-0.028704077,0.019692719,-32.05948,8.586335,51.46401,-27.632164,-16.34676,-13.795805,-8.610694
-4.44873,135.99258,49.045387,15.406051,-0.18954194,5.1909747,0.12812707,-0.8169372,0.4691051,-0.2929259,0.6302102,-0.024237256,0.6100324,-0.46859533,1.6671624,-1.002678,-1.9026034,-0.9794639,1.9405527,1.2313987,-0.9554565,1.7338187,-1.0442957,-1.8779743,-1.02871,1.9410443,1.1805102,-0.90848535,-1.5510062,0.57369673,-0.39191926,1.3095163,-0.20305943,0.9804113,-0.007905887,2.7463264,-0.37479782,0.57059705,-4.0021424,-0.34982392,4.003408,0.48417664,-0.509182,0.7088975,0.63371575,0.14529927,0.14945216,0.74495405,-1.2175955,-0.9227659,0.589522,1.0,0.0,0.0,0.0,0.0,0.0,0.0,-3.3963265,-0.025202185,-0.02059704,-18.87827,17.755795,29.830742,-27.159332,-3.8809686,-12.424493,-7.610473
16.81388,137.5292,47.82652,10.166487,-0.43444765,3.9856174,0.17488657,-0.8256198,0.58644325,-0.32655472,0.6010875,0.28560668,0.586479,-0.4779024,1.6512567,-0.9856514,-1.9106297,-0.9686012,1.969605,1.239158,-0.9562756,1.717795,-1.0367979,-1.8812606,-1.0171381,1.9401155,1.1895415,-0.90901846,-1.620984,0.80743545,-0.3040916,1.1052502,-0.058674727,0.87629825,-0.06939197,2.706337,-0.37829208,0.60986465,-3.998141,-0.3494742,3.9012196,0.47188568,-0.5174217,0.7156274,0.645186,0.13787325,0.14960358,0.73644054,-1.2403288,-0.77816194,0.7013749,1.0,0.0,0.0,0.0,0.0,0.0,0.0,-3.356337,-0.021707922,-0.05986464,-7.441139,23.060966,9.808863,-20.774342,13.650501,-10.773778,-6.446652
31.92424,136.57748,48.239002,7.890975,-0.4200791,3.4682071,0.22701046,-0.8162206,0.6630794,-0.22038822,0.58135545,0.38690248,0.59599787,-0.5026029,1.636173,-0.9704899,-1.9032995,-0.95900255,1.9788057,1.2491412,-0.95927876,1.7016875,-1.027017,-1.8840683,-1.0069929,1.9410672,1.1976706,-0.91010565,-1.6087705,1.0341728,-0.27001774,0.98302567,0.14474699,0.79062545,-0.12278921,2.6663857,-0.38178635,0.6481111,-3.9941437,-0.3491248,3.7991333,0.45955276,-0.5242462,0.72349477,0.6562145,0.13029954,0.14991486,0.727963,-1.2368474,-0.6369965,0.81541,1.0,0.0,0.0,0.0,0.0,0.0,0.0,-3.3163857,-0.01821366,-0.09811109,0.8258343,22.432114,4.2586145,-12.559462,19.782495,-8.911586,-5.63035
41.689728,130.50713,48.06409,5.993741,-0.34376132,3.2660773,0.3616247,-0.7976765,0.70919454,-0.07972415,0.55216044,0.42108786,0.62915576,-0.48763227,1.6219198,-0.95609754,-1.8920406,-0.95177686,1.983176,1.2605861,-0.95886886,1.6860491,-1.0153288,-1.8862407,-0.99762785,1.943953,1.2050825,-0.91164964,-1.5498879,1.213076,-0.19704342,0.9200302,0.3352795,0.7238245,-0.16589363,2.6264725,-0.38527298,0.6853375,-3.9901502,-0.3487757,3.697149,0.44734955,-0.5296707,0.7325048,0.6667434,0.122404926,0.1500931,0.71968204,-1.2194663,-0.49680272,0.92952555,1.0,0.0,0.0,0.0,0.0,0.0,0.0,-3.2764726,-0.014727026,-0.13533747,5.549431,17.70065,8.066562,-6.599891,18.647715,-6.984973,-4.621482
39.50963,117.09291,44.13925,7.008395,0.06775129,3.0180168,0.3871743,-0.7886237,0.7324577,0.022983784,0.5564747,0.4544741,0.63856953,-0.48111594,1.6071868,-0.942083,-1.8839424,-0.94198036,1.9894004,1.2689395,-0.95976126,1.6710688,-1.0023397,-1.8873317,-0.9884945,1.9484544,1.2119299,-0.91356176,-1.4816055,1.3269473,-0.077522606,0.9104626,0.48761487,0.6708028,-0.20065421,2.5866013,-0.3887596,0.7215448,-3.986161,-0.348427,3.5952668,0.4352913,-0.53383636,0.742574,0.6767724,0.1140292,0.14986657,0.7116996,-1.2049744,-0.37525728,1.0322914,1.0,0.0,0.0,0.0,0.0,0.0,0.0,-3.2366014,-0.011240393,-0.17154479,6.569886,11.231303,12.632298,-1.1777759,14.941001,-5.5848002,-3.789854
29.612587,99.85379,37.46193,9.384432,0.5832165,2.6585722,0.32455203,-0.7883807,0.7425196,0.09192601,0.57040155,0.49079606,0.64397013,-0.4725896,1.5922307,-0.9280878,-1.8781391,-0.93145436,1.997534,1.2763269,-0.96082073,1.656653,-0.9886647,-1.8870761,-0.97918284,1.9541879,1.2183291,-0.91576666,-1.4288683,1.380605,0.06194996,0.9375565,0.60110956,0.62855124,-0.22811893,2.5467682,-0.39223862,0.7567341,-3.9821756,-0.34807864,3.4934866,0.42327118,-0.5370102,0.75350827,0.68637896,0.10513424,0.14905599,0.70399785,-1.2029505,-0.2821297,1.1127347,1.0,0.0,0.0,0.0,0.0,0.0,0.0,-3.1967683,-0.007761389,-0.20673406,5.088091,5.235243,14.537552,2.5534272,11.138142,-4.486954,-3.0519037
20.367062,83.69308,30.339806,10.410019,0.75890124,2.1822634,0.22792792,-0.780836,0.75139403,0.123693526,0.57724327,0.49627665,0.6483548,-0.45486644,1.5785694,-0.9135253,-1.8747067,-0.9214585,2.0038157,1.2831645,-0.9612533,1.6426302,-0.9747506,-1.8855655,-0.96950686,1.9607358,1.2243696,-0.91819376,-1.3939753,1.3945715,0.18246767,0.97721,0.6721973,0.59526837,-0.24854195,2.506977,-0.39571762,0.79090625,-3.9781942,-0.34773064,3.391808,0.41122055,-0.53941727,0.76503295,0.6956477,0.09579708,0.14768776,0.6964808,-1.2082675,-0.21171556,1.1639009,1.0,0.0,0.0,0.0,0.0,0.0,0.0,-3.1569772,-0.004282385,-0.24090624,3.3509254,1.2948513,12.5473175,3.8264036,6.9640517,-3.52571,-2.3336263
12.414888,71.90683,24.753979,11.2191105,0.8594521,1.8173091,0.1450409,-0.78046036,0.75351244,0.16111286,0.585527,0.51277095,0.654584,-0.4487042,1.5645841,-0.89939934,-1.8694543,-0.9109542,2.012013,1.2898281,-0.9630642,1.6288115,-0.960867,-1.8830307,-0.9594418,1.9677873,1.2301317,-0.9207887,-1.3783995,1.3860843,0.27855283,1.0157726,0.71580195,0.5694252,-0.26403633,2.4672241,-0.3991928,0.82406247,-3.974217,-0.347383,3.2902312,0.3990631,-0.54125595,0.7768961,0.7046469,0.08612974,0.1458597,0.6890423,-1.2200196,-0.15798621,1.1914684,1.0,0.0,0.0,0.0,0.0,0.0,0.0,-3.1172242,-0.0008071959,-0.27406245,1.4400482,-0.9277344,10.036302,3.7145853,4.260099,-2.7263165,-1.8178225
7.919876,63.91526,20.510004,10.823881,0.71561986,1.4674778,0.079190195,-0.77865016,0.7574986,0.16909929,0.58515334,0.5126007,0.66081095,-0.42964303,1.5509465,-0.8851171,-1.8661207,-0.9009265,2.0190473,1.2962128,-0.963753,1.6150519,-0.94711024,-1.879832,-0.94908965,1.9751058,1.2356821,-0.9235,-1.3754126,1.3719288,0.335072,1.0411607,0.7369645,0.54995453,-0.27429658,2.4275131,-0.40266418,0.8562036,-3.9702435,-0.3470357,3.188756,0.3867798,-0.5426178,0.7888814,0.7134177,0.076262094,0.14374998,0.68158287,-1.2312087,-0.1126653,1.1979972,1.0,0.0,0.0,0.0,0.0,0.0,0.0,-3.0775132,0.0026641786,-0.3062036,0.18434525,-1.4740944,6.0174465,2.3780584,2.0607352,-2.015257,-1.2718499
5.7558084,59.67976,17.898912,10.208845,0.54114544,1.2097874,0.035590596,-0.7798911,0.76128817,0.17010663,0.5820507,0.5239391,0.65921634,-0.43131924,1.5370628,-0.8709814,-1.8628213,-0.8908846,2.0274997,1.3016038,-0.96663195,1.6012617,-0.93346983,-1.876334,-0.93860114,1.9825654,1.2410685,-0.9262971,-1.380411,1.3613385,0.35596195,1.0508186,0.74887824,0.5347793,-0.2821929,2.3878403,-0.40613174,0.8873308,-3.966274,-0.34668872,3.087382,0.37441635,-0.5435562,0.8008291,0.7219806,0.06631315,0.14153518,0.67402846,-1.2393987,-0.070922464,1.190525,1.0,0.0,0.0,0.0,0.0,0.0,0.0,-3.0378404,0.0061317384,-0.33733076,-0.62081814,-1.1049509,2.414018,0.7877588,1.1682034,-1.5297055,-1.0167599
6.0327005,58.03644,16.654606,9.215407,0.33443177,1.0327998,0.02895077,-0.7801127,0.76406693,0.16814582,0.5739566,0.53185487,0.6629354,-0.43027055,1.5232505,-0.8570631,-1.8595194,-0.8812055,2.0357509,1.3073621,-0.9693242,1.5874048,-0.9198876,-1.8728111,-0.9281298,1.9901109,1.2463309,-0.9291591,-1.3877081,1.3569853,0.35224324,1.045238,0.7566426,0.5233714,-0.28827614,2.3482094,-0.4095955,0.917445,-3.9623086,-0.3463421,2.9861095,0.36200714,-0.5440712,0.8126422,0.7303323,0.05636435,0.1393526,0.6663472,-1.2419575,-0.02831858,1.1747047,1.0,0.0,0.0,0.0,0.0,0.0,0.0,-2.9982095,0.009595484,-0.367445,-0.8596897,-0.47516823,-0.061911345,-0.74932575,0.7696271,-1.1097431,-0.8271396
7.1160793,59.54074,16.710321,8.81237,0.15492082,0.97611797,0.017643984,-0.78123206,0.77486026,0.16042827,0.5693662,0.52835685,0.6662451,-0.42456177,1.5092816,-0.84240156,-1.8567683,-0.8711932,2.0429466,1.3129554,-0.97161525,1.5734793,-0.9062682,-1.8694389,-0.91777194,1.9976964,1.2514979,-0.93206877,-1.3947266,1.3634199,0.33328757,1.0320162,0.75906605,0.5147159,-0.2925644,2.3086166,-0.41305923,0.94654727,-3.958347,-0.3459958,2.8849382,0.34960175,-0.5441284,0.82429177,0.7384679,0.046444703,0.13731518,0.658523,-1.2394799,0.018353041,1.1580632,1.0,0.0,0.0,0.0,0.0,0.0,0.0,-2.9586167,0.013059229,-0.39654726,-0.84080696,0.60060024,-1.5790582,-1.5133619,0.23635626,-0.8220792,-0.64478517
8.372313,56.902634,15.433651,7.447432,-0.031565428,0.75091696,0.031670026,-0.7808577,0.7717797,0.13087769,0.55082077,0.53179955,0.66576475,-0.41978955,1.4953935,-0.82909024,-1.8563511,-0.86268985,2.0508764,1.3180743,-0.9740477,1.5595022,-0.89258295,-1.8664024,-0.9076296,2.005299,1.2565943,-0.93501085,-1.3991953,1.3700755,0.29477796,1.0076156,0.76066655,0.50819963,-0.295443,2.269062,-0.41651535,0.9746386,-3.9543896,-0.3456499,2.7838683,0.33727646,-0.54372406,0.83571345,0.74637556,0.03661483,0.13550802,0.65055394,-1.2293854,0.06372176,1.1330993,1.0,0.0,0.0,0.0,0.0,0.0,0.0,-2.9190621,0.016515344,-0.42463857,-0.587821,0.6338835,-3.5565794,-2.6500463,0.17375946,-0.56307316,-0.50063133
11.154059,58.163387,16.174313,6.6082134,-0.10770631,0.7342847,0.09598264,-0.7773063,0.7736447,0.14356229,0.5354149,0.54319024,0.663807,-0.42219475,1.4817716,-0.8152185,-1.8520461,-0.8540881,2.059618,1.322975,-0.9772303,1.5455137,-0.8788329,-1.8636501,-0.8977734,2.01294,1.2616335,-0.9379787,-1.3990477,1.376578,0.26978517,0.9775832,0.7655246,0.5028598,-0.29801327,2.2295456,-0.41997147,1.00172,-3.950436,-0.34530434,2.6828992,0.32509232,-0.54284286,0.8469029,0.754015,0.026874373,0.13391712,0.6424992,-1.2139952,0.113080256,1.1104027,1.0,0.0,0.0,0.0,0.0,0.0,0.0,-2.8795457,0.01997146,-0.45171994,-0.12681484,0.61707497,-2.1740794,-3.2106996,0.4810691,-0.44195652,-0.48061013
12.190262,58.97101,16.64173,6.565094,-0.096443415,0.74291736,0.13866216,-0.7803447,0.7744453,0.15147313,0.52101797,0.54192585,0.6638629,-0.4102703,1.4674792,-0.8013883,-1.8485028,-0.8456716,2.0671325,1.3280199,-0.9790057,1.5315272,-0.8650313,-1.8610218,-0.88822806,2.0206227,1.266627,-0.9409608,-1.3989943,1.3812737,0.26171,0.9461745,0.76929367,0.49847013,-0.29900184,2.190071,-0.42341995,1.0277923,-3.9464865,-0.34495908,2.582031,0.31306458,-0.54143906,0.8578869,0.7613507,0.017187128,0.13249514,0.6344246,-1.1969345,0.1642312,1.090508,1.0,0.0,0.0,0.0,0.0,0.0,0.0,-2.8400712,0.023419946,-0.47779232,-0.13592243,0.43611526,-0.46035647,-3.3405423,0.36126375,-0.3514409,-0.32716393
13.216116,58.394814,16.560957,5.8351965,-0.11976659,0.68179417,0.20162188,-0.7865321,0.77440083,0.15642804,0.48379388,0.5603465,0.6603004,-0.4160435,1.452874,-0.7875912,-1.845379,-0.8398487,2.0766573,1.332657,-0.98256516,1.5175158,-0.8511992,-1.8583744,-0.8790957,2.0283895,1.2715803,-0.9439544,-1.4024515,1.3837167,0.26684272,0.90150976,0.77931607,0.49470314,-0.30023873,2.1506348,-0.42686844,1.0528568,-3.9425406,-0.34461418,2.4812639,0.30122757,-0.5395279,0.86866087,0.76834327,0.007553453,0.13119029,0.62640285,-1.1767211,0.21589409,1.0689484,1.0,0.0,0.0,0.0,0.0,0.0,0.0,-2.8006349,0.026868433,-0.5028568,-0.4913807,0.21543503,0.8765161,-4.666662,0.981617,-0.2714038,-0.35297275
14.787153,59.998978,17.263151,5.645253,-0.14868337,0.69281393,0.24418548,-0.7844436,0.7790228,0.17513542,0.46306908,0.5600655,0.65913147,-0.41118944,1.4390714,-0.77329695,-1.8408608,-0.83278877,2.084396,1.3374935,-0.9850733,1.5034796,-0.8373347,-1.8555572,-0.8704258,2.0362477,1.2764994,-0.9469556,-1.4046345,1.3872516,0.28813586,0.8549254,0.787989,0.49149182,-0.30082244,2.1112404,-0.4303093,1.0769143,-3.938599,-0.34426963,2.3805974,0.28961563,-0.5370674,0.87924474,0.7749604,-0.0020528017,0.12996678,0.6184987,-1.1535621,0.2706581,1.0506904,1.0,0.0,0.0,0.0,0.0,0.0,0.0,-2.7612405,0.03030929,-0.5269143,-0.36041737,0.32525063,2.5053203,-4.8436046,0.8403778,-0.21275878,-0.2881229
13.849432,58.674107,16.646162,6.252345,-0.092772126,0.6170829,0.22187248,-0.78623587,0.7757183,0.17839828,0.4539143,0.55066085,0.66519403,-0.39932945,1.4248561,-0.7597629,-1.8377174,-0.8250344,2.0913138,1.3430188,-0.9868886,1.4894205,-0.8234578,-1.8525169,-0.86215556,2.044148,1.2813956,-0.94995207,-1.4069608,1.3877245,0.31050396,0.81718534,0.79069614,0.4894644,-0.29996905,2.0718842,-0.43375015,1.0999659,-3.9346614,-0.34392545,2.2800314,0.27822876,-0.53408813,0.88964826,0.7812138,-0.011655582,0.12881967,0.61071646,-1.1310499,0.32169795,1.0324372,1.0,0.0,0.0,0.0,0.0,0.0,0.0,-2.7218843,0.033750147,-0.5499659,-0.36392212,0.026202202,2.583146,-3.9480805,0.2584219,-0.0926137,-0.13210177
16.551651,60.47102,17.359236,5.078246,-0.22692949,0.5824752,0.29926434,-0.7859847,0.7854157,0.20497775,0.40416214,0.57194895,0.6590836,-0.39398843,1.410822,-0.7449162,-1.8320191,-0.8217393,2.101343,1.3473039,-0.9893509,1.4753443,-0.80953985,-1.8491714,-0.8543736,2.0521207,1.2862726,-0.95293516,-1.4082651,1.3931339,0.34371182,0.76466364,0.7992704,0.48753247,-0.29849935,2.032566,-0.4371872,1.1220127,-3.9307275,-0.34358162,2.1795661,0.26709747,-0.53056335,0.8998739,0.7870679,-0.021255668,0.12773606,0.6031216,-1.1018583,0.37746808,1.014671,1.0,0.0,0.0,0.0,0.0,0.0,0.0,-2.6825662,0.03718719,-0.5720127,-0.2619505,0.52087307,3.6840022,-5.4139137,0.8366108,-0.060397387,-0.06994605
17.61052,58.904884,16.854994,4.1209354,-0.3174653,0.45656514,0.34101772,-0.7874904,0.7813181,0.22645643,0.3675916,0.56773657,0.6622645,-0.3859736,1.3965952,-0.73140806,-1.8265258,-0.81761444,2.1088943,1.3524991,-0.9915325,1.4612547,-0.7955895,-1.845454,-0.84718287,2.0601544,1.2911383,-0.9558982,-1.4096193,1.3956461,0.3823213,0.7033402,0.80509853,0.4865904,-0.29623637,1.9932861,-0.44062042,1.1430556,-3.9267974,-0.3432381,2.0792012,0.25629807,-0.5264778,0.909896,0.7924911,-0.03083426,0.12671684,0.59577674,-1.0676254,0.43180433,0.9932278,1.0,0.0,0.0,0.0,0.0,0.0,0.0,-2.6432862,0.040620416,-0.59305555,-0.2579689,0.24094582,4.203129,-6.287396,0.57361126,0.07383227,0.019085407
20.45607,58.756878,17.053009,2.3369517,-0.47589594,0.3518989,0.44292635,-0.7866722,0.78201795,0.26800117,0.31037414,0.5780774,0.65681314,-0.36528298,1.3825876,-0.71738774,-1.8186538,-0.8161455,2.1179621,1.3568196,-0.9924265,1.4471594,-0.78162104,-1.8412368,-0.8407446,2.0682683,1.2959944,-0.9588241,-1.4097567,1.397234,0.43615562,0.62348807,0.81306034,0.48580685,-0.2920778,1.9540482,-0.44404984,1.1630956,-3.9228716,-0.3428949,1.9789364,0.24590302,-0.5218353,0.9196847,0.79742527,-0.040365428,0.12574066,0.58878917,-1.0250511,0.4880972,0.96892065,1.0,0.0,0.0,0.0,0.0,0.0,0.0,-2.6040483,0.04404983,-0.6130956,-0.12595654,0.15583038,5.7198286,-8.126318,0.7899046,0.13337731,0.21435022
19.365143,58.67289,16.957327,3.3941011,-0.35037255,0.32893878,0.42821726,-0.78855836,0.78208536,0.30259144,0.29677495,0.5788139,0.6596371,-0.3414849,1.3683035,-0.70341253,-1.8109777,-0.8110671,2.1261497,1.3619581,-0.9929726,1.4330603,-0.76764494,-1.836417,-0.83501303,2.0764508,1.3008429,-0.96169275,-1.4104433,1.3978,0.49815503,0.5560718,0.8198336,0.48536667,-0.2857064,1.9148483,-0.44747543,1.1821336,-3.9189496,-0.3425521,1.8787719,0.23590851,-0.5166397,0.92925787,0.8018703,-0.04987373,0.12477853,0.58219135,-0.98542106,0.5414984,0.9480803,1.0,0.0,0.0,0.0,0.0,0.0,0.0,-2.5648484,0.047475427,-0.63213354,-0.16469955,0.060725212,6.493121,-6.8591356,0.69411993,0.15776157,0.45252442
21.091026,58.279976,16.839428,2.2951446,-0.50293624,0.21264517,0.48362765,-0.7833023,0.78401524,0.33498412,0.24408923,0.5666258,0.66404366,-0.27510586,1.35473,-0.68924344,-1.8029186,-0.8106041,2.1331134,1.3672472,-0.98920333,1.4189802,-0.75365835,-1.8309581,-0.83000433,2.0846448,1.3056952,-0.9644508,-1.4074475,1.3990192,0.56254447,0.4822643,0.8196543,0.4858491,-0.27312857,1.8756866,-0.45090103,1.2001706,-3.9150314,-0.34220964,1.7787075,0.2263565,-0.51091003,0.9386074,0.80580634,-0.059357285,0.123856165,0.57603157,-0.93908024,0.59516585,0.9250223,1.0,0.0,0.0,0.0,0.0,0.0,0.0,-2.5256867,0.050901026,-0.6501706,0.22315979,0.13406277,6.696129,-7.4784813,0.015974045,0.28495193,1.0873675
14.843321,55.46496,15.294622,6.140605,-0.08210766,0.16490014,0.3231146,-0.79026455,0.78097266,0.3382041,0.27212638,0.57190776,0.662619,-0.22346835,1.3399538,-0.6755611,-1.7971377,-0.8027917,2.1418357,1.3719571,-0.98679763,1.4048983,-0.7396746,-1.8250034,-0.8254162,2.0928426,1.3105475,-0.96704954,-1.4085975,1.3981913,0.6070162,0.45075652,0.820166,0.48575923,-0.2559971,1.8365669,-0.454319,1.2172079,-3.911117,-0.34186748,1.6787431,0.2171402,-0.5047226,0.94776845,0.8093274,-0.06884224,0.12297516,0.57019895,-0.9081647,0.6367383,0.9071351,1.0,0.0,0.0,0.0,0.0,0.0,0.0,-2.486567,0.054318994,-0.6672079,-0.18439293,-0.058603287,4.6214104,-3.2446086,0.1355052,0.1740992,1.5679061
8.205521,52.623108,13.637377,10.168618,0.31604874,0.12946585,0.13780704,-0.7984695,0.7812003,0.33152613,0.29980797,0.5667858,0.65884715,-0.1691904,1.3250513,-0.6615546,-1.7918508,-0.7954354,2.149521,1.3764322,-0.98396856,1.390761,-0.72570044,-1.8188064,-0.8208233,2.101029,1.3153921,-0.9694471,-1.4156151,1.3972316,0.6243282,0.46176955,0.818724,0.48463386,-0.23483048,1.7974854,-0.45773697,1.2332463,-3.9072068,-0.34152567,1.5788788,0.20811844,-0.49820328,0.9567886,0.8125777,-0.07836352,0.12215372,0.5644954,-0.8933811,0.667451,0.8941671,1.0,0.0,0.0,0.0,0.0,0.0,0.0,-2.4474854,0.057736963,-0.6832463,-0.7783413,-0.06251335,1.8434882,0.9991467,-0.018024445,0.010228157,1.9911706
-2.5048923,48.38328,11.32202,17.315825,1.0160798,0.18223074,-0.1880461,-0.80453026,0.7732765,0.29594544,0.41050377,0.5327078,0.66895723,-0.07843492,1.310308,-0.64837277,-1.7892119,-0.77977294,2.1542997,1.3822879,-0.9772906,1.3765265,-0.711772,-1.8127372,-0.8154913,2.1091008,1.3202292,-0.97158235,-1.4264468,1.3915194,0.6011539,0.5564773,0.80415314,0.4833472,-0.20666134,1.7584419,-0.4611473,1.2482868,-3.9033005,-0.34118423,1.4791142,0.19901657,-0.4914894,0.9657614,0.81577337,-0.088020466,0.12142798,0.55858874,-0.90796816,0.6832013,0.89196616,1.0,0.0,0.0,0.0,0.0,0.0,0.0,-2.408442,0.061147302,-0.69828683,-1.1690378,-0.52776337,-2.2943735,9.34763,-1.2702107,-0.122869015,2.7091026
-7.010236,43.10949,9.055433,19.149233,1.1543169,0.05744028,-0.3197334,-0.8141604,0.7652137,0.2543833,0.44674352,0.5012913,0.67523223,0.010896556,1.2951105,-0.6352506,-1.7872989,-0.770817,2.15923,1.3877524,-0.9704927,1.3621508,-0.6979361,-1.8071601,-0.80904543,2.1169362,1.3250567,-0.9733886,-1.4414574,1.3810998,0.54323936,0.6734424,0.77756983,0.48251882,-0.17226504,1.7194366,-0.46455765,1.2623304,-3.899398,-0.3408431,1.3794494,0.18970871,-0.484684,0.9746866,0.81904525,-0.0978101,0.120888114,0.5522536,-0.9306518,0.6901597,0.8863335,1.0,0.0,0.0,0.0,0.0,0.0,0.0,-2.3694367,0.06455764,-0.7123304,-1.5963316,-0.9986639,-5.797565,11.551344,-2.4490356,-0.10403395,3.3411412
-4.6792,40.469597,8.173729,16.471098,0.75965035,-0.11998141,-0.24607849,-0.8197045,0.7590439,0.23128772,0.44589546,0.43962127,0.67561525,0.12772085,1.2801803,-0.62203175,-1.7840314,-0.7644559,2.1608984,1.3926182,-0.9606165,1.3476263,-0.6842213,-1.8022354,-0.8016287,2.1243443,1.3298784,-0.9747905,-1.4565325,1.3683327,0.47569394,0.7639501,0.7293228,0.4823324,-0.12985627,1.6804733,-0.46796417,1.2753781,-3.8954995,-0.34050232,1.2798842,0.18026733,-0.47779083,0.98348147,0.82237303,-0.10764289,0.12068182,0.54548264,-0.9406043,0.6984791,0.8707871,1.0,0.0,0.0,0.0,0.0,0.0,0.0,-2.3304734,0.06796417,-0.7253781,-1.602912,-1.2425661,-6.7286015,8.900393,-4.637015,0.01038909,4.1394324
4.9748063,39.49759,8.70322,8.659909,-0.03786683,-0.38398013,0.10605593,-0.8222352,0.74402606,0.25813133,0.3730787,0.40047643,0.67424804,0.25135317,1.2654028,-0.6098187,-1.7764223,-0.76432085,2.164392,1.3973032,-0.9496552,1.332976,-0.67068106,-1.7977245,-0.7939402,2.1311994,1.3347079,-0.97571176,-1.4681658,1.3493135,0.4433083,0.7700122,0.67117846,0.483534,-0.079898074,1.6415482,-0.47136688,1.2874309,-3.8916047,-0.3401619,1.1804186,0.17097092,-0.47076035,0.9919892,0.82555795,-0.11735673,0.120894216,0.53857774,-0.9176715,0.7142686,0.8378358,1.0,0.0,0.0,0.0,0.0,0.0,0.0,-2.2915483,0.07136688,-0.7374309,-1.2501478,-1.8779993,-3.0979812,0.4615903,-5.7150126,0.2885461,4.8717155
13.539595,39.552856,9.535816,2.2978697,-0.73865205,-0.5944265,0.41088745,-0.8165089,0.725057,0.28761265,0.33010834,0.30233902,0.67207944,0.4144507,1.2513251,-0.59817535,-1.7689632,-0.76092935,2.1614332,1.4019158,-0.9342667,1.318278,-0.65738875,-1.793225,-0.7866465,2.1372647,1.3395525,-0.97605413,-1.470735,1.3226376,0.452986,0.71545446,0.5849754,0.48571122,-0.019479208,1.6026611,-0.47476578,1.2984898,-3.8877137,-0.33982182,1.0810524,0.16212463,-0.46353912,1.0000803,0.82838213,-0.12682438,0.12160576,0.5318935,-0.86567295,0.73627007,0.7935113,1.0,0.0,0.0,0.0,0.0,0.0,0.0,-2.2526612,0.07476577,-0.7484898,-0.31592846,-2.647519,1.1882186,-5.5785894,-8.59934,0.49703717,5.901366
15.152573,34.266666,7.742488,-0.34704494,-1.0577676,-0.9394124,0.4327485,-0.8097404,0.70390207,0.234613,0.31956384,0.21368842,0.6688256,0.4862584,1.237304,-0.5869985,-1.7697637,-0.7546901,2.1586335,1.4064351,-0.9274283,1.3036181,-0.6444159,-1.7887714,-0.78001845,2.1423192,1.3444201,-0.975789,-1.4643286,1.2889863,0.44344306,0.6447962,0.4788811,0.48811254,0.04147029,1.5638123,-0.47816086,1.3085557,-3.8838267,-0.33948204,0.98178566,0.15388489,-0.4561615,1.0076537,0.83080924,-0.13592023,0.12294093,0.525516,-0.801075,0.7478553,0.7393989,1.0,0.0,0.0,0.0,0.0,0.0,0.0,-2.2138124,0.07816085,-0.7585557,0.61540604,-3.3311844,-0.79226494,-7.188475,-10.582143,0.5844295,5.968474
10.988885,30.59531,5.9069138,1.9294338,-0.93199515,-1.098374,0.2383313,-0.8097316,0.69207746,0.17071322,0.3446716,0.12166056,0.6641112,0.51645905,1.2226449,-0.5752082,-1.7717,-0.7455513,2.1544852,1.4108312,-0.9241431,1.2890364,-0.63176924,-1.7847126,-0.77387583,2.1462026,1.3493029,-0.9749517,-1.4561596,1.2567302,0.3934888,0.60358834,0.35856268,0.48957637,0.09746004,1.5250015,-0.48155594,1.3176298,-3.8799438,-0.33914262,0.88261807,0.14623642,-0.4487381,1.0147023,0.832965,-0.14459041,0.12502863,0.51925975,-0.74369353,0.7485761,0.6876168,1.0,0.0,0.0,0.0,0.0,0.0,0.0,-2.1750016,0.08155593,-0.7676298,0.800395,-3.1808615,-4.9212337,-4.2496204,-11.959166,0.46442747,5.491571
11.9095955,24.382677,3.9606915,-0.8828583,-1.1511984,-1.439877,0.27967924,-0.8092341,0.66073877,0.1506147,0.2560519,0.047693837,0.6692848,0.54262555,1.208113,-0.56569535,-1.769651,-0.74827063,2.150972,1.4162314,-0.9206891,1.2745291,-0.61950785,-1.7812374,-0.7683865,2.1488767,1.3542048,-0.9735994,-1.448856,1.2161801,0.33233416,0.530203,0.23696113,0.49176675,0.14750634,1.4862328,-0.4849434,1.3257129,-3.8760648,-0.33880356,0.78354967,0.13923264,-0.44140244,1.0211477,0.8349004,-0.15269992,0.12792912,0.5130869,-0.67648464,0.7367658,0.62487316,1.0,0.0,0.0,0.0,0.0,0.0,0.0,-2.1362329,0.084943384,-0.7757129,0.72968006,-3.9989948,-6.066328,-7.476115,-12.090659,0.58901906,4.8962116
12.849125,27.981546,5.2217455,-0.28441048,-1.2479768,-1.3596594,0.27097064,-0.7994531,0.647277,0.17144075,0.23962519,-0.11259809,0.66905636,0.565239,1.1945838,-0.5547801,-1.7640933,-0.744424,2.1376169,1.4211104,-0.91707546,1.260121,-0.60762984,-1.7781703,-0.763579,2.1500974,1.3591257,-0.97179025,-1.4380499,1.1785845,0.29815444,0.46385744,0.08377468,0.49336708,0.19174445,1.4475021,-0.48833084,1.332806,-3.8721895,-0.33846483,0.68458027,0.13292313,-0.43412018,1.0270195,0.8366171,-0.16027188,0.13170262,0.50699025,-0.6066528,0.7314665,0.569722,1.0,0.0,0.0,0.0,0.0,0.0,0.0,-2.0975022,0.088330835,-0.782806,1.0924101,-3.7080288,-3.3559084,-6.7404804,-15.278156,0.49313307,4.314563
12.578554,26.937004,4.831434,-0.35115004,-1.3206413,-1.4528785,0.23979095,-0.7936466,0.62447864,0.14097524,0.20159864,-0.24037547,0.6695753,0.57609445,1.1807563,-0.545182,-1.7640728,-0.7434192,2.1260598,1.4260832,-0.9141808,1.2458311,-0.5961333,-1.7754371,-0.759442,2.1496549,1.364062,-0.9695844,-1.4261054,1.1402516,0.26520258,0.3967149,-0.08669666,0.49463975,0.22980098,1.4088097,-0.49171066,1.3389101,-3.868318,-0.33812642,0.5857098,0.1273346,-0.42691422,1.0323389,0.8381378,-0.16731139,0.1364121,0.5009227,-0.53455645,0.72291595,0.51480347,1.0,0.0,0.0,0.0,0.0,0.0,0.0,-2.0588098,0.09171066,-0.7889101,1.2173414,-3.7788868,-3.2498002,-6.809616,-17.013475,0.44781566,3.6955686
2.5526776,20.621042,1.8840704,6.318115,-0.6986837,-1.519778,-0.1556068,-0.7946793,0.60355127,0.008854344,0.28318673,-0.3575375,0.6610405,0.5730496,1.1663632,-0.53577816,-1.7745516,-0.7311233,2.1139011,1.430166,-0.9122794,1.2316271,-0.58501726,-1.7735507,-0.7554165,2.1474652,1.3690001,-0.9670486,-1.4184986,1.1023215,0.1630492,0.40401798,-0.26252377,0.49426153,0.26110095,1.3701553,-0.49509048,1.3440264,-3.8644505,-0.33778837,0.48693827,0.12225342,-0.41989136,1.0371737,0.83967865,-0.173838,0.14213428,0.49448743,-0.49103653,0.6987962,0.46875444,1.0,0.0,0.0,0.0,0.0,0.0,0.0,-2.0201554,0.09509048,-0.79402643,0.7613182,-3.7320614,-10.261914,0.59378743,-17.471596,0.22832751,3.0187786
-4.10751,12.566019,-1.3100502,9.458146,-0.34906954,-1.74007,-0.40574795,-0.79483634,0.57669526,-0.111738056,0.29889992,-0.45658883,0.65570337,0.56454736,1.1521435,-0.52734774,-1.7847246,-0.7255265,2.1018064,1.4345704,-0.91059387,1.217467,-0.5743056,-1.7731655,-0.7510706,2.1435742,1.3739287,-0.96424955,-1.415172,1.0609834,-0.0034218584,0.44427606,-0.4308001,0.49313286,0.2858071,1.3315392,-0.4984665,1.3481557,-3.8605866,-0.33745065,0.38826546,0.11748505,-0.41324997,1.0415424,0.8414463,-0.17978819,0.1489279,0.48730367,-0.4638619,0.65670484,0.42217484,1.0,0.0,0.0,0.0,0.0,0.0,0.0,-1.9815391,0.098466486,-0.7981557,0.32904148,-4.069972,-16.758366,3.8567364,-16.661245,0.15178323,2.3404062
-7.4986796,5.19759,-3.719788,9.961278,-0.08848673,-1.9794438,-0.4652716,-0.80247307,0.54386866,-0.20926066,0.28481665,-0.50072426,0.6582638,0.5707244,1.1372197,-0.51991874,-1.7940916,-0.72258896,2.0935018,1.4397551,-0.9071771,1.203282,-0.5640612,-1.7746818,-0.74635947,2.1382337,1.3788477,-0.96123403,-1.4194993,1.0124454,-0.20158596,0.479518,-0.56741613,0.4923607,0.30627555,1.2929611,-0.5018387,1.351299,-3.8567266,-0.33711326,0.28969133,0.11292267,-0.40715027,1.0454072,0.84352905,-0.18503186,0.15673497,0.47922438,-0.44596705,0.5979725,0.37093452,1.0,0.0,0.0,0.0,0.0,0.0,0.0,-1.9429611,0.10183868,-0.80129904,-0.42393208,-4.7896147,-19.968445,3.3439994,-13.461054,0.19878149,1.8901289
-4.070706,-6.072734,-5.5569887,4.3328185,-0.051071644,-2.341403,-0.14972493,-0.796937,0.457687,-0.1970728,0.19961013,-0.54092133,0.66513747,0.5856801,1.1235883,-0.51829255,-1.7943891,-0.72639847,2.0841415,1.4453615,-0.90266603,1.1890742,-0.5545998,-1.7777297,-0.74177706,2.1317677,1.3837668,-0.95803064,-1.421117,0.9243848,-0.3399897,0.4506424,-0.67243046,0.4928229,0.3243719,1.2544212,-0.50520706,1.3534573,-3.8528707,-0.33677623,0.19121575,0.1085968,-0.4017868,1.0486314,0.8458049,-0.18939991,0.16524762,0.47056857,-0.4217687,0.51870716,0.30305052,1.0,0.0,0.0,0.0,0.0,0.0,0.0,-1.9044212,0.105207056,-0.8034573,-0.07433891,-8.722485,-14.034885,-3.031826,-10.301495,0.36183596,1.6308725
0.4695983,-0.38749552,-2.2186885,3.3336272,0.26206964,-2.1006896,0.13801023,-0.7891975,0.41544142,-0.13500334,0.18415985,-0.5527048,0.66893977,0.5827457,1.1101544,-0.5130557,-1.7912301,-0.7233611,2.0764973,1.4506607,-0.8997561,1.1748911,-0.546094,-1.781369,-0.73764956,2.124516,1.3886896,-0.9546699,-1.4169933,0.82619125,-0.37226063,0.39983892,-0.74245447,0.49302036,0.3394586,1.2159195,-0.5085716,1.3546317,-3.8490188,-0.33643952,0.09283863,0.10449219,-0.3971176,1.0512425,0.8480626,-0.19298482,0.1740398,0.4617972,-0.39977485,0.45138574,0.24450243,1.0,0.0,0.0,0.0,0.0,0.0,0.0,-1.8659195,0.10857162,-0.80463165,0.50332546,-9.743905,-3.3452332,-5.1732244,-6.893909,0.25507212,1.3606787
0.021051407,-7.004959,-2.990574,2.8584433,0.698563,-2.1752696,0.25944018,-0.78311723,0.32589886,-0.1366795,0.17002007,-0.5752488,0.67043525,0.5869206,1.0965794,-0.5135041,-1.7950369,-0.7206476,2.066991,1.4557332,-0.89597785,1.1607863,-0.53878504,-1.7849395,-0.7340609,2.116734,1.3936144,-0.9511747,-1.407885,0.69945407,-0.35233745,0.34502482,-0.7899785,0.49303958,0.35253602,1.1774597,-0.5119362,1.3548229,-3.8451707,-0.33610314,-0.0054401397,0.10052872,-0.39319992,1.0532589,0.85019886,-0.19587043,0.18273742,0.45321485,-0.3894879,0.37436354,0.18521512,1.0,0.0,0.0,0.0,0.0,0.0,0.0,-1.8274597,0.11193618,-0.80482286,1.0397911,-12.596619,1.837647,-5.5424747,-4.643953,0.20230412,1.1819243
-3.7658799,-15.053734,-4.0086126,5.541598,1.5721776,-2.1293757,0.27138826,-0.7755346,0.21321876,-0.07122408,0.1974991,-0.57205826,0.6673402,0.57767063,1.0832328,-0.51746315,-1.7920619,-0.714311,2.059528,1.4603485,-0.8934076,1.1468035,-0.53302103,-1.7878501,-0.73076975,2.1086507,1.3985335,-0.94756883,-1.3945311,0.5356547,-0.27140692,0.32366666,-0.8140805,0.49214834,0.36294803,1.1390381,-0.5152931,1.354032,-3.8413265,-0.33576712,-0.10362065,0.09646225,-0.39009857,1.0547307,0.85219634,-0.19820943,0.19091786,0.44499975,-0.40771234,0.2892085,0.13273707,1.0,0.0,0.0,0.0,0.0,0.0,0.0,-1.7890381,0.115293115,-0.804032,1.5014648,-16.311275,7.8795376,-2.1613836,-2.286923,0.054234266,0.9643018
-13.629457,-59.470226,-14.378008,3.425433,2.7650487,-2.9164457,0.32391873,-0.76751816,-0.061817948,0.037087716,0.1804268,-0.5820061,0.6775966,0.57045776,1.0700517,-0.5392028,-1.7841414,-0.71272707,2.05045,1.4662931,-0.8905231,1.132981,-0.52986914,-1.7894752,-0.72762835,2.1004148,1.4034506,-0.9438781,-1.3770715,0.24210225,-0.12791137,0.31108308,-0.82579005,0.49207696,0.37102574,1.1006546,-0.51865005,1.3522601,-3.837486,-0.3354314,-0.20170298,0.091869354,-0.3883705,1.0554624,0.8541298,-0.19993755,0.19793332,0.43738964,-0.4728385,0.13623077,0.052058946,1.0,0.0,0.0,0.0,0.0,0.0,0.0,-1.7506546,0.11865005,-0.8022601,2.0948887,-29.261633,13.865507,-1.2259722,-0.8932352,0.11616945,0.7597983
-15.976778,-92.35385,-21.102001,-2.0944571,3.343027,-3.5225937,0.5719716,-0.72913355,-0.32148948,0.2191879,0.11927775,-0.60175234,0.6765378,0.55305177,1.0600675,-0.5620181,-1.7675564,-0.71570057,2.0402396,1.4711044,-0.88857293,1.1194845,-0.5304633,-1.7889907,-0.7248198,2.0920644,1.4083582,-0.94012827,-1.3389225,-0.159612,0.10547429,0.27108237,-0.83689517,0.49033377,0.3763993,1.0623093,-0.52199936,1.3495082,-3.8336494,-0.33509603,-0.29968727,0.0864563,-0.3885193,1.0551834,0.85600543,-0.20094244,0.20313537,0.43082815,-0.5611321,-0.064390115,-0.055175167,1.0,0.0,0.0,0.0,0.0,0.0,0.0,-1.7123092,0.12199935,-0.79950815,4.2603254,-40.07277,22.775864,-3.9300442,-0.8221388,-0.21913648,0.5493462
-17.580563,-82.55096,-18.388668,3.042914,3.7005992,-3.0999515,0.40806115,-0.6869238,-0.4358584,0.27927354,0.20585027,-0.6166397,0.68203473,0.52510685,1.0507922,-0.5740491,-1.7610633,-0.7042348,2.0304005,1.4765617,-0.8876176,1.1065241,-0.5349265,-1.7862232,-0.7219635,2.0835881,1.4132448,-0.9363479,-1.2804945,-0.5417405,0.33233008,0.29087412,-0.8507339,0.48733932,0.37890816,1.0240021,-0.52534866,1.3457772,-3.8298166,-0.33476102,-0.3975736,0.08007431,-0.39049911,1.0539752,0.8578687,-0.20143479,0.2063598,0.42532462,-0.66478795,-0.24060358,-0.14312373,1.0,0.0,0.0,0.0,0.0,0.0,0.0,-1.674002,0.12534866,-0.79577714,6.237769,-38.151306,22.219574,2.0920277,-1.1939883,-0.53159595,0.37810206
-15.93344,-80.87187,-19.608028,0.594296,2.8241868,-3.3306258,0.25791916,-0.6202359,-0.5908804,0.17789525,0.17150925,-0.6648103,0.7023414,0.46544003,1.0445005,-0.5940145,-1.7684337,-0.7048126,2.017107,1.483479,-0.8898039,1.0943686,-0.54295546,-1.7822082,-0.71898234,2.0748487,1.4181124,-0.93259424,-1.1930115,-0.8898537,0.42360297,0.30091074,-0.8813429,0.48516744,0.37451643,0.98573303,-0.52869415,1.3410679,-3.8259876,-0.3344263,-0.49536204,0.0728035,-0.39427948,1.0517993,0.8598463,-0.20131174,0.20796743,0.42057994,-0.7485812,-0.42043167,-0.2429381,1.0,0.0,0.0,0.0,0.0,0.0,0.0,-1.635733,0.12869415,-0.7910679,9.021735,-34.77192,8.828145,1.1211753,-2.93535,-0.5873263,-0.32111406
-3.427549,-55.65983,-13.433954,-6.0320263,1.3596706,-2.993722,0.53207994,-0.6019233,-0.68482566,0.29443237,-0.0042925603,-0.6695872,0.70054466,0.3504891,1.0341762,-0.61143804,-1.7527649,-0.7194116,2.00789,1.4881668,-0.89754534,1.0830218,-0.5538941,-1.7773159,-0.7167412,2.065804,1.4229532,-0.928976,-1.1151204,-1.1619264,0.5113524,0.19871558,-0.91261315,0.48224014,0.35776415,0.94750214,-0.5320358,1.3353816,-3.8221624,-0.33409196,-0.59305274,0.06512833,-0.39959717,1.0485872,0.861851,-0.20041409,0.20837735,0.41668448,-0.7769446,-0.56447405,-0.34841982,1.0,0.0,0.0,0.0,0.0,0.0,0.0,-1.5975021,0.13203582,-0.7853816,7.83422,-27.234888,8.834356,-10.17164,-3.2245636,-0.7538259,-1.6002834
19.357134,-20.974249,-4.936379,-20.73975,-1.2174418,-2.7420986,1.1934171,-0.58865887,-0.71426964,0.37418073,-0.3524336,-0.6763738,0.68692404,0.32685903,1.0241559,-0.6253211,-1.7398977,-0.75198454,1.9981667,1.4916457,-0.8962901,1.0722872,-0.5667601,-1.7714756,-0.717198,2.0564656,1.427754,-0.9255504,-1.0605271,-1.3286033,0.6099308,-0.12786931,-0.94209415,0.47741514,0.33713934,0.9093094,-0.5353737,1.328719,-3.818341,-0.33375794,-0.6906458,0.057933807,-0.406044,1.0441947,0.8635716,-0.198425,0.20813784,0.41418624,-0.7039775,-0.66718537,-0.4713488,1.0,0.0,0.0,0.0,0.0,0.0,0.0,-1.5593094,0.13537368,-0.778719,5.162215,-16.796494,10.384941,-32.85484,-3.328383,-1.0277331,-2.1711469
32.880264,15.332364,4.470478,-23.986526,-2.2912848,-2.062355,1.4794395,-0.55748546,-0.7315041,0.45821407,-0.5147454,-0.6661017,0.6854255,0.32195315,1.0165386,-0.6399105,-1.7256541,-0.7686726,1.9898554,1.4962966,-0.8933551,1.0620295,-0.58061224,-1.7644889,-0.72148955,2.046929,1.432511,-0.92232126,-1.0153381,-1.4044969,0.7295862,-0.530391,-0.95892024,0.47351936,0.3178364,0.8711548,-0.53870773,1.3210813,-3.8145235,-0.33342424,-0.7881413,0.05185318,-0.41311264,1.0386976,0.8647362,-0.19535036,0.20761974,0.41347742,-0.57948107,-0.7149823,-0.57783073,1.0,0.0,0.0,0.0,0.0,0.0,0.0,-1.5211548,0.13870773,-0.77108127,4.1625023,-7.746887,12.421835,-40.490143,-2.0591974,-0.8683562,-2.0336032
27.491278,39.32343,9.863842,-12.785297,-1.688422,-1.2980578,1.0784248,-0.54177386,-0.73594207,0.42930105,-0.497729,-0.67606926,0.6933382,0.3346065,1.0078521,-0.65420645,-1.7215588,-0.77126247,1.979322,1.5018448,-0.8888606,1.0521475,-0.59473425,-1.7567165,-0.7290083,2.0372663,1.4372526,-0.9192504,-0.9795982,-1.4150014,0.7931156,-0.82586616,-0.9690164,0.47371918,0.30372754,0.83303833,-0.5420418,1.3124694,-3.8107097,-0.3330909,-0.8855393,0.046878815,-0.42033386,1.0324327,0.8653608,-0.19154087,0.2070808,0.41422248,-0.47398806,-0.7179953,-0.64454126,1.0,0.0,0.0,0.0,0.0,0.0,0.0,-1.4830383,0.14204177,-0.76246935,3.4326077,-1.1377573,6.324005,-29.589664,-1.1335611,-0.18754005,-1.3733506
13.124834,47.22473,10.874183,2.3422847,-0.37997723,-0.81665945,0.41786212,-0.52281445,-0.74506813,0.35144657,-0.4380981,-0.6772493,0.69394445,0.33501616,0.99986607,-0.6692411,-1.7215718,-0.77281815,1.9695413,1.5066471,-0.8857488,1.0425955,-0.6087399,-1.7489898,-0.7381865,2.0275502,1.4420172,-0.916295,-0.94681454,-1.3958297,0.7649094,-0.9479885,-0.9723657,0.4774166,0.29330984,0.79496,-0.5453682,1.3028842,-3.8068998,-0.33275786,-0.98283994,0.042564392,-0.42744827,1.0257773,0.86568236,-0.18739645,0.20667757,0.41564503,-0.42029163,-0.70130813,-0.6740806,1.0,0.0,0.0,0.0,0.0,0.0,0.0,-1.44496,0.14536819,-0.7528842,3.324771,1.9164324,-3.1439543,-12.069201,-0.29033422,0.44297576,-0.9010315
3.0074632,48.68466,10.63851,11.450881,0.4734822,-0.615166,0.01744396,-0.513909,-0.7422315,0.30896363,-0.4540825,-0.67819417,0.68367916,0.3590184,0.9912046,-0.6829631,-1.7180935,-0.7835947,1.9597309,1.5103852,-0.88039315,1.0333182,-0.62246805,-1.7419517,-0.74780905,2.0178266,1.446818,-0.91340727,-0.92078775,-1.3650213,0.6819432,-0.9663337,-0.97220725,0.481773,0.28775382,0.75691986,-0.5486946,1.2923268,-3.8030937,-0.33242518,-1.0800432,0.038524628,-0.43434525,1.0189732,0.86591566,-0.1831464,0.20649435,0.41714203,-0.40155137,-0.67967707,-0.6840285,1.0,0.0,0.0,0.0,0.0,0.0,0.0,-1.4069198,0.1486946,-0.7423268,2.7319193,3.1219244,-8.690584,-1.6105533,0.096964836,0.65573454,-0.38491488
-2.6818523,47.20011,10.335807,16.082369,1.0583189,-0.5198922,-0.16160429,-0.50397325,-0.74412024,0.30016747,-0.4613135,-0.6766135,0.6803762,0.36555895,0.9829208,-0.6968801,-1.7119349,-0.7939404,1.9501652,1.5148556,-0.8768514,1.024264,-0.63592726,-1.7357738,-0.7572123,2.008122,1.4516608,-0.9105577,-0.8997799,-1.3393886,0.59507203,-0.93087566,-0.96993285,0.48591977,0.28460556,0.71891785,-0.5520134,1.2807981,-3.7992914,-0.33209282,-1.1771494,0.034503937,-0.44104767,1.0121397,0.8661744,-0.17892328,0.20650141,0.4184322,-0.40505588,-0.6583339,-0.68450195,1.0,0.0,0.0,0.0,0.0,0.0,0.0,-1.3689178,0.15201339,-0.73079807,2.26233,2.6122808,-9.083187,3.7943602,0.3068924,0.6791115,-0.12960434
-7.2506886,41.901474,8.74695,17.689787,1.3183075,-0.5725325,-0.22943452,-0.5194772,-0.7440555,0.2586001,-0.47798464,-0.6761339,0.6847819,0.37715146,0.97231627,-0.7103328,-1.7099138,-0.80501074,1.9405086,1.520139,-0.87284255,1.0152766,-0.6492043,-1.7304771,-0.76622164,1.9984396,1.4565417,-0.9077243,-0.89772296,-1.3236281,0.50666195,-0.89004767,-0.96776444,0.48948044,0.28345945,0.680954,-0.5553322,1.268299,-3.795493,-0.3317608,-1.2741585,0.030345917,-0.44757843,1.0052791,0.8665258,-0.17471309,0.20667009,0.4193991,-0.42172962,-0.6448743,-0.68796176,1.0,0.0,0.0,0.0,0.0,0.0,0.0,-1.330954,0.15533218,-0.718299,0.40279627,1.6052961,-9.204078,4.3552876,0.24445057,0.56902766,0.05851984
-5.989542,38.664085,8.059902,15.404465,1.179395,-0.6712723,-0.1270287,-0.5119329,-0.745978,0.23181081,-0.50743824,-0.6775346,0.6845933,0.39017347,0.96408325,-0.7238021,-1.707296,-0.81696546,1.9306861,1.525001,-0.868707,1.0062872,-0.6624041,-1.7259605,-0.7750193,1.9887674,1.4614493,-0.90489,-0.8989165,-1.3186772,0.43209168,-0.8754739,-0.96704036,0.4916556,0.28400534,0.64302826,-0.55864716,1.2548305,-3.7916982,-0.33142912,-1.3710705,0.026058197,-0.45402908,0.9983229,0.86695755,-0.17043537,0.20696275,0.42012239,-0.43391666,-0.6378937,-0.6996789,1.0,0.0,0.0,0.0,0.0,0.0,0.0,-1.2930282,0.15864715,-0.70483047,0.06253719,0.5049467,-7.7737627,1.7134547,0.0641942,0.35274625,0.21083951
-1.0281011,37.86921,8.178861,11.560271,0.8220635,-0.7895582,0.023068583,-0.47932413,-0.7485433,0.19416232,-0.52151614,-0.6926042,0.6849954,0.41393048,0.95835483,-0.73725843,-1.7065443,-0.8271709,1.919507,1.5299488,-0.86349696,0.99741614,-0.6756144,-1.7221324,-0.7838427,1.9790514,1.4663721,-0.90203184,-0.8826703,-1.321788,0.3655253,-0.8839509,-0.973113,0.49272606,0.28692055,0.6051407,-0.5619583,1.2403935,-3.7879074,-0.33109775,-1.4678857,0.021755219,-0.46043777,0.99119174,0.8674037,-0.16601585,0.20735723,0.42077592,-0.43151549,-0.6353198,-0.7191701,1.0,0.0,0.0,0.0,0.0,0.0,0.0,-1.2551407,0.1619583,-0.6903935,1.7462373,-0.3093481,-6.905037,-0.63803196,-0.6308794,0.18106699,0.42315125
-3.102253,19.533182,1.0483721,8.041352,0.36411962,-1.5463804,-0.07500514,-0.45337254,-0.76794827,-0.069351174,-0.52374506,-0.6669662,0.6749891,0.3881391,0.9520789,-0.7524092,-1.7290676,-0.83621716,1.9123547,1.533871,-0.86321795,0.98882735,-0.6889697,-1.7199848,-0.79281676,1.9693391,1.4712816,-0.89916986,-0.8506555,-1.3402594,0.16465458,-0.9011667,-0.9712711,0.48994344,0.28593826,0.56729126,-0.5652695,1.2249893,-3.7841203,-0.33076674,-1.5646042,0.017486572,-0.46713257,0.98363364,0.86796784,-0.16104655,0.20798057,0.4212361,-0.42723173,-0.67428344,-0.76977956,1.0,0.0,0.0,0.0,0.0,0.0,0.0,-1.2172912,0.16526946,-0.6749893,3.2714605,-1.8981934,-20.027382,-1.5053988,-0.04503727,-0.45239925,-0.09652972
-0.1624105,13.457941,-1.8036736,3.5924795,-0.25286448,-1.9141421,0.006750565,-0.4272515,-0.76627433,-0.21861386,-0.57216567,-0.6721015,0.6834983,0.42417803,0.9461022,-0.7655971,-1.7418462,-0.85003334,1.9021289,1.5396315,-0.85675204,0.98064864,-0.70249945,-1.7203586,-0.8021828,1.9596345,1.4761626,-0.8962974,-0.8067739,-1.3575401,-0.103990495,-0.94785064,-0.9712146,0.48628592,0.287401,0.52948,-0.568573,1.2086185,-3.780337,-0.33043602,-1.6612259,0.013374329,-0.47434998,0.97541016,0.86868984,-0.1551425,0.20899662,0.42146075,-0.40786302,-0.73083746,-0.8421167,1.0,0.0,0.0,0.0,0.0,0.0,0.0,-1.17948,0.16857299,-0.6586185,4.426241,-1.800847,-26.665337,-4.462707,-0.32052994,-0.6926596,0.06532073
-1.9225248,6.4853888,-5.068494,1.9433873,-0.5746062,-2.1505072,0.0038754083,-0.42479667,-0.7735611,-0.40732992,-0.6091772,-0.6892299,0.6869683,0.4474344,0.93816894,-0.77985555,-1.7610916,-0.8631005,1.8907115,1.5448594,-0.851554,0.97284853,-0.71619993,-1.7238586,-0.81214774,1.9498727,1.4810034,-0.8933963,-0.77079856,-1.3745639,-0.43089235,-1.0119236,-0.97922575,0.48167878,0.29046196,0.49170685,-0.5718765,1.1912823,-3.7765577,-0.33010566,-1.757751,0.009468079,-0.48223877,0.9663228,0.86959404,-0.14798513,0.21056207,0.42139086,-0.38699272,-0.80178756,-0.93402725,1.0,0.0,0.0,0.0,0.0,0.0,0.0,-1.1417068,0.17187652,-0.64128226,3.6796331,-1.8006802,-32.406075,-6.154597,-1.2397408,-0.93820095,0.15898943
-4.638815,18.677034,-0.54180133,5.769951,-0.116861865,-1.4854249,0.04320558,-0.45457608,-0.7598535,-0.40558937,-0.6239348,-0.7114002,0.6940424,0.48777622,0.92739093,-0.7921853,-1.7644175,-0.8745412,1.8787327,1.5504076,-0.8446187,0.9651648,-0.72995955,-1.7299659,-0.8227192,1.939966,1.4858099,-0.89043325,-0.76704216,-1.376742,-0.6701387,-1.0713664,-0.9956603,0.47928366,0.2980071,0.45396805,-0.5751724,1.1729815,-3.772782,-0.3297756,-1.8541796,0.0056915283,-0.49061584,0.95645195,0.8706078,-0.1397098,0.21264358,0.421077,-0.376838,-0.8421646,-1.0089535,1.0,0.0,0.0,0.0,0.0,0.0,0.0,-1.103968,0.17517242,-0.6229815,0.53231716,-0.2981186,-23.812544,-5.6780577,-2.0183563,-0.6094873,0.6685853
-13.2903805,25.347294,2.1798594,11.794841,0.707103,-0.84225476,-0.012467384,-0.51960576,-0.7621195,-0.4427933,-0.64975095,-0.7073829,0.68648404,0.49197412,0.9132042,-0.8061715,-1.7742453,-0.8876943,1.8692276,1.5544584,-0.8412358,0.9571196,-0.74370867,-1.7378242,-0.83384573,1.92992,1.4905974,-0.88739103,-0.8161028,-1.3745314,-0.8243346,-1.1253465,-1.009113,0.4774289,0.30631405,0.4162674,-0.5784683,1.1537172,-3.76901,-0.3294459,-1.9505118,0.0018157959,-0.499218,0.9459571,0.87168574,-0.13058057,0.21508782,0.42053524,-0.39370668,-0.85826254,-1.0680405,1.0,0.0,0.0,0.0,0.0,0.0,0.0,-1.0662674,0.17846832,-0.60371715,-4.6416163,0.124526024,-15.421307,-5.068183,-1.7447948,-0.48415065,0.82065463
-17.94755,37.36439,7.128958,17.01915,1.4882138,-0.11471349,-0.019223802,-0.5641899,-0.75203764,-0.42586794,-0.66109604,-0.70331573,0.6906022,0.51762384,0.90070057,-0.81891245,-1.780411,-0.89995533,1.8595884,1.5596576,-0.8356286,0.9483458,-0.75737196,-1.7464683,-0.8454062,1.9197843,1.4953791,-0.8842487,-0.8968135,-1.363873,-0.87802005,-1.1652405,-1.0162079,0.47799215,0.31724223,0.3786049,-0.5817604,1.1334902,-3.7652416,-0.32911652,-2.0467477,-0.0023612976,-0.50774384,0.93506336,0.8727708,-0.12095479,0.21769054,0.41982356,-0.42895362,-0.8431261,-1.1021334,1.0,0.0,0.0,0.0,0.0,0.0,0.0,-1.0286049,0.1817604,-0.5834902,-7.777953,0.9775877,-5.5045247,-3.6647797,-1.0434866,-0.091677904,1.1757135
-24.114489,37.461285,7.323255,20.314869,2.0271964,0.12618136,-0.09099969,-0.61920744,-0.75901294,-0.48393056,-0.67753863,-0.68432117,0.67880774,0.507432,0.886425,-0.83327323,-1.7948613,-0.91316,1.8513522,1.5632598,-0.83350545,0.938604,-0.77096564,-1.7554595,-0.8572947,1.9096601,1.5001608,-0.88101,-0.9988669,-1.3581964,-0.9067115,-1.1954461,-1.012243,0.47765806,0.32648405,0.34098053,-0.5850487,1.1123016,-3.761477,-0.32878748,-2.142887,-0.0070228577,-0.51608276,0.92387474,0.8738724,-0.1110026,0.22028978,0.41892472,-0.48312318,-0.8221253,-1.1302707,1.0,0.0,0.0,0.0,0.0,0.0,0.0,-0.9909805,0.18504867,-0.5623016,-9.87302,0.45416355,-3.0058742,-2.6421309,0.018000603,-0.18097162,1.0510981
-24.339298,40.214493,8.394138,20.967707,2.1807885,0.2609101,-0.09629995,-0.64760035,-0.75261414,-0.5173371,-0.6826495,-0.6787592,0.6826557,0.5251982,0.87384397,-0.84622705,-1.8071933,-0.92555964,1.8417842,1.5684264,-0.8284902,0.92789805,-0.78449446,-1.7646892,-0.86939585,1.8996141,1.5049425,-0.877675,-1.0934145,-1.3514972,-0.9287932,-1.2137566,-1.0032758,0.4780072,0.33628833,0.30339432,-0.58833694,1.0901523,-3.7577162,-0.32845876,-2.2389305,-0.012260437,-0.52417374,0.91244185,0.8749945,-0.10080099,0.22279854,0.41783303,-0.5397443,-0.79599464,-1.1533742,1.0,0.0,0.0,0.0,0.0,0.0,0.0,-0.9533943,0.18833694,-0.54015225,-9.147525,0.5593777,-2.3468018,-1.4624119,0.54445267,-0.09189248,1.1249304
-24.009426,38.006416,7.292598,20.103395,2.1035993,0.1422453,-0.1187661,-0.6761726,-0.7517139,-0.5925102,-0.68837804,-0.66296834,0.6775296,0.5068432,0.8602808,-0.8596659,-1.8239403,-0.9382337,1.8333173,1.5726955,-0.82699066,0.9163662,-0.79797083,-1.7743976,-0.881621,1.8897016,1.5097224,-0.87426656,-1.1721519,-1.346759,-0.9850694,-1.224109,-0.98856443,0.47728276,0.34272528,0.26584625,-0.5916176,1.0670433,-3.7539592,-0.32813036,-2.3348777,-0.018047333,-0.53206253,0.9007331,0.8761534,-0.09030247,0.22519529,0.41651863,-0.59562826,-0.77645576,-1.182359,1.0,0.0,0.0,0.0,0.0,0.0,0.0,-0.9158462,0.19161758,-0.5170433,-7.587695,0.35471916,-5.702603,-0.6610155,1.0934234,-0.25628805,0.7685065
-24.37922,36.402443,6.1586456,19.577711,1.999526,0.045412123,-0.15377742,-0.7110691,-0.74418426,-0.66906035,-0.68730515,-0.6547951,0.67941344,0.4977308,0.8452593,-0.87238926,-1.8413036,-0.95035154,1.8242221,1.5776637,-0.82449347,0.9041363,-0.81138235,-1.7849605,-0.8938881,1.8799417,1.5144926,-0.87081236,-1.2390739,-1.3397211,-1.0800781,-1.2262697,-0.97324467,0.47612175,0.3465999,0.22833633,-0.5948982,1.0429755,-3.750206,-0.3278023,-2.4307292,-0.024375916,-0.53979874,0.8886877,0.8773733,-0.07939771,0.22751221,0.41491005,-0.6512114,-0.76223135,-1.2176527,1.0,0.0,0.0,0.0,0.0,0.0,0.0,-0.8783363,0.19489822,-0.49297553,-6.4181566,0.5712271,-9.499812,0.16596317,1.1069417,-0.36358237,0.48045516
-23.388577,33.85975,5.1261563,17.810566,1.8737117,-0.018615305,-0.110319376,-0.743425,-0.7499307,-0.7208875,-0.7104605,-0.6279099,0.6698224,0.47053018,0.8297938,-0.8863754,-1.8570492,-0.9649342,1.8171507,1.5814749,-0.8237593,0.89130175,-0.8247643,-1.7965877,-0.90625155,1.8703859,1.5192419,-0.86734766,-1.2973663,-1.338239,-1.1903179,-1.2383633,-0.95122826,0.4732763,0.34671804,0.19086075,-0.59817123,1.01795,-3.7464566,-0.32747456,-2.5264847,-0.031253815,-0.5474243,0.87622213,0.8786493,-0.06798992,0.22971399,0.41301847,-0.7047905,-0.7521068,-1.2620877,1.0,0.0,0.0,0.0,0.0,0.0,0.0,-0.8408607,0.19817123,-0.46795005,-5.560565,0.0031471252,-10.9833,-0.8072853,1.7442226,-0.6086409,0.10206103
-21.025608,36.792778,6.581225,17.004082,1.898837,0.13086438,-0.06283906,-0.7637362,-0.7497421,-0.73834354,-0.70896417,-0.60660046,0.66632783,0.44815698,0.8149281,-0.89973855,-1.870422,-0.97714794,1.8097259,1.5858747,-0.82253194,0.87797034,-0.8381472,-1.8091762,-0.9187199,1.8610857,1.5239607,-0.863903,-1.3442612,-1.3388225,-1.281714,-1.2483052,-0.92445576,0.47035792,0.34417897,0.15342331,-0.60144424,0.99196774,-3.742711,-0.32714716,-2.6221445,-0.03863907,-0.55491257,0.8633357,0.8799484,-0.056122135,0.2317075,0.41091704,-0.75490195,-0.73561436,-1.3035305,1.0,0.0,0.0,0.0,0.0,0.0,0.0,-0.8034233,0.20144424,-0.44196773,-4.454899,-0.19443035,-9.115195,-0.61740875,2.2701144,-0.6033361,-0.1429677
-18.565348,42.07601,9.082695,16.887276,2.0468073,0.36371452,-0.023115724,-0.78144217,-0.7464156,-0.749704,-0.70363855,-0.5601539,0.6641724,0.43321282,0.79982615,-0.9127888,-1.8841466,-0.98908377,1.8050703,1.5903779,-0.8205817,0.8642441,-0.8515282,-1.8224552,-0.9312388,1.8521535,1.5286528,-0.8604936,-1.3814933,-1.3381826,-1.3433157,-1.252001,-0.88405544,0.46806568,0.3403494,0.11602402,-0.60471344,0.9650295,-3.7389693,-0.32682008,-2.7177086,-0.04650116,-0.5621643,0.8501073,0.8812348,-0.043946195,0.2333654,0.40869832,-0.802138,-0.70922595,-1.3354225,1.0,0.0,0.0,0.0,0.0,0.0,0.0,-0.766024,0.20471343,-0.41502947,-3.5318851,-0.053930283,-6.172037,-0.038194656,3.7095904,-0.48741698,-0.23785233
-15.758074,44.18521,10.449301,16.022678,2.1218975,0.4674793,0.0037785023,-0.7881832,-0.7543986,-0.7746212,-0.70243585,-0.504237,0.6441076,0.36921453,0.7854258,-0.9269681,-1.8999172,-1.0014824,1.8017298,1.5930636,-0.82357216,0.85024226,-0.8649388,-1.8362148,-0.9437634,1.8437421,1.5333124,-0.85716623,-1.4059088,-1.3423507,-1.3870981,-1.2515616,-0.8277545,0.46445772,0.33071953,0.07866287,-0.6079788,0.93713635,-3.735231,-0.32649332,-2.813177,-0.05480957,-0.5691261,0.83659303,0.88249546,-0.031593475,0.23454285,0.40643963,-0.8460146,-0.6790764,-1.3629194,1.0,0.0,0.0,0.0,0.0,0.0,0.0,-0.72866285,0.20797881,-0.38713634,-2.286172,-0.51977634,-4.415655,0.3463745,5.369699,-0.5937815,-0.7865727
-16.361183,45.699722,11.347569,16.668,2.4452057,0.6005256,-0.029382959,-0.8104667,-0.7592612,-0.78878134,-0.6977029,-0.39002398,0.6144304,0.27110192,0.76919556,-0.9408649,-1.915093,-1.0135337,1.8047397,1.5947555,-0.830056,0.8359953,-0.8784142,-1.8502986,-0.9562479,1.8361604,1.5379168,-0.8540029,-1.430544,-1.3496567,-1.4155947,-1.2463843,-0.73586476,0.45834073,0.31229365,0.041339874,-0.6112442,0.9082892,-3.7314963,-0.3261669,-2.9085503,-0.06361008,-0.5757637,0.8228519,0.8837673,-0.01918646,0.23503847,0.4041584,-0.8958193,-0.6451138,-1.3838719,1.0,0.0,0.0,0.0,0.0,0.0,0.0,-0.69133985,0.2112442,-0.35828918,-2.319169,-0.83670616,-2.8900862,0.8210659,8.951426,-0.8371651,-1.6144991
-17.1037,47.48659,12.327532,17.697025,2.8494346,0.7190105,-0.10189861,-0.8220747,-0.7644563,-0.7978488,-0.67997044,-0.23817879,0.5816579,0.126362,0.7537879,-0.95485985,-1.9300835,-1.024245,1.8123425,1.5960826,-0.8413667,0.82151854,-0.8919793,-1.8645828,-0.9685961,1.8298452,1.5424391,-0.8511209,-1.4529438,-1.3592006,-1.4328762,-1.2299858,-0.59754676,0.44951475,0.2811134,0.0040512085,-0.61450195,0.8784891,-3.7277656,-0.3258408,-3.003828,-0.07296753,-0.5820503,0.80896586,0.88512605,-0.006873191,0.2346094,0.40182468,-0.9533382,-0.6080946,-1.3960679,1.0,0.0,0.0,0.0,0.0,0.0,0.0,-0.6540512,0.21450195,-0.32848907,-2.1111727,-1.0630846,-1.7625093,1.9366264,13.624084,-1.0974824,-2.8338969
-17.563242,49.24894,13.315346,18.671923,3.4205194,0.7947949,-0.18948518,-0.82854027,-0.76720893,-0.81198573,-0.6650714,0.041273937,0.5426648,-0.087226175,0.7386645,-0.9687002,-1.9457814,-1.0351032,1.8339726,1.5967056,-0.8598435,0.806851,-0.9056359,-1.8790195,-0.98072207,1.8255785,1.5468508,-0.848689,-1.4709744,-1.3682139,-1.4474547,-1.2058153,-0.37042844,0.4375418,0.23170999,-0.03319931,-0.6177597,0.84773684,-3.7240386,-0.32551503,-3.0990105,-0.082977295,-0.5879593,0.79503316,0.8866907,0.0051655597,0.23288408,0.39939702,-1.0220641,-0.5700357,-1.3979425,1.0,0.0,0.0,0.0,0.0,0.0,0.0,-0.61680067,0.2177597,-0.29773682,-1.6910076,-1.0119677,-1.4728069,2.6995182,22.533249,-1.4151573,-4.574603
-16.70063,52.181942,14.708611,18.749084,3.7500522,0.8818583,-0.23683935,-0.83884686,-0.7653456,-0.81138164,-0.66527736,0.2934607,0.45953938,-0.26318258,0.7229663,-0.98217046,-1.9601576,-1.0472498,1.8549246,1.5928048,-0.8750073,0.7920147,-0.9193507,-1.8935478,-0.99264395,1.8240755,1.5510889,-0.8468513,-1.4875765,-1.3728662,-1.454515,-1.1868025,-0.07759279,0.41845164,0.16921394,-0.07041168,-0.6210098,0.81603354,-3.7203155,-0.3251896,-3.194098,-0.09371185,-0.59347534,0.7811432,0.8885638,0.016784268,0.2295367,0.39684448,-1.0942101,-0.5295241,-1.3912832,0.0,1.0,0.0,0.0,0.0,0.0,0.0,-0.5795883,0.22100982,-0.26603353,-1.5654564,-0.570035,-0.70745945,2.1574497,29.141708,-2.1228313,-5.831301
-15.315676,58.330616,16.530025,19.15944,3.0829694,1.0993563,-0.32718593,-0.84292316,-0.7538256,-0.8101049,-0.6150734,0.10804895,0.49634898,-0.24450031,0.7077224,-0.9947332,-1.9745582,-1.0541513,1.8348804,1.6007239,-0.8713013,0.7769927,-0.9329705,-1.9089348,-1.0044566,1.8254894,1.5552256,-0.84572977,-1.5061628,-1.3589128,-1.5643231,-1.1781744,0.20102264,0.4041649,0.09804529,-0.09093094,-0.62075424,0.8106111,-1.6283287,0.17434247,0.32084158,-0.10519791,-0.59866333,0.76714396,0.8908106,0.028213128,0.22468495,0.39392528,-1.1675445,-0.49903426,-1.4084278,0.0,1.0,0.0,0.0,0.0,0.0,0.0,-0.55906904,0.22075424,-0.26061112,-0.9506941,0.42119026,0.02527237,4.7653675,15.661791,-2.2536159,-4.9858885
16.020477,176.0,110.0,110.0,10.753469,11.662917,-2.69004,-0.81307226,0.4791532,0.68364334,0.5774739,-0.06990578,0.6794969,-0.3009384,0.69568545,-0.8850552,-1.8405704,-0.9467093,1.8184988,1.6231753,-0.8758236,0.7656144,-0.9497323,-1.9124614,-1.0010825,1.8160805,1.5651343,-0.8421926,-1.0038422,-1.6762153,-0.15440024,0.8010308,-1.1236521,1.2756071,0.45224175,-0.10720062,-0.61901474,0.81308067,-1.6267006,0.17416817,0.22233486,-0.11733627,-0.60111237,0.7578295,0.89277947,0.030319162,0.2232762,0.39009395,-1.2318481,-0.14285347,-0.77885044,1.0,0.0,0.0,0.0,0.0,0.0,0.0,-0.54279935,0.21901473,-0.26308066,53.602837,-0.00019073486,79.286934,185.4486,-73.10268,113.87515,39.40296
-47.078644,144.93951,52.406322,78.92125,9.072877,3.785654,-2.6457224,-0.77659327,-0.7191036,-0.13699712,0.66929847,-0.27820233,0.65302825,-0.39849493,0.6879551,-1.0216427,-1.9261612,-0.9341527,1.7882602,1.6304371,-0.8820421,0.75590694,-0.96630526,-1.9105693,-0.9867908,1.8036693,1.5779898,-0.838046,-0.9577786,-1.6519696,0.30614647,1.6414212,-1.2831535,1.2918159,0.40453318,-0.12345505,-0.61727524,0.8145659,-1.6250743,0.17399405,0.12392663,-0.13077927,-0.6016464,0.7524845,0.8954532,0.026684852,0.22369912,0.3839402,-1.3800888,-0.013532816,-0.45760405,1.0,0.0,0.0,0.0,0.0,0.0,0.0,-0.5265449,0.21727523,-0.26456589,5.1713824,2.1206617,46.819183,84.90698,-16.825794,2.5010824,-4.0283084
-48.61319,139.9682,37.1966,56.26815,5.0526567,2.066185,-1.8247917,-0.7507281,-0.5174599,-0.2554494,0.71406657,-0.58977455,0.6398843,-0.035954237,0.6808341,-1.0180513,-1.9361143,-0.9153841,1.7446918,1.6419783,-0.8416414,0.7458199,-0.98086977,-1.9077731,-0.9678794,1.791016,1.5903742,-0.8343906,-1.0240513,-1.3924785,0.2713039,1.9767252,-1.2613713,1.2226639,0.35262275,-0.13969421,-0.61553574,0.81506777,-1.6234496,0.17382008,0.025616776,-0.14514923,-0.6010895,0.74931747,0.89883274,0.021788549,0.22531568,0.37531036,-1.4544413,0.08806407,-0.27690977,1.0,0.0,0.0,0.0,0.0,0.0,0.0,-0.51030576,0.21553573,-0.26506776,-6.158364,25.568295,-3.338796,34.249687,1.5844822,-6.350279,-5.147094
-18.07527,129.72148,39.146446,31.046862,3.1477687,2.0356832,-0.5949461,-0.70221055,-0.597815,0.34749803,0.7836248,-0.61460197,0.64707917,-0.0711922,0.67559886,-1.0406513,-1.8730234,-0.88951695,1.7295558,1.6550821,-0.8415098,0.7348422,-0.99326754,-1.9038974,-0.9481784,1.7791065,1.6017497,-0.8313417,-1.1219108,-1.1903136,0.4283464,1.9688402,-1.1715312,1.1100303,0.2891491,-0.15591812,-0.61379623,0.8145873,-1.6218264,0.17364629,-0.07259479,-0.15963364,-0.59946823,0.7476064,0.9024474,0.01651334,0.22742765,0.36550307,-1.4453273,0.19541946,-0.14364143,1.0,0.0,0.0,0.0,0.0,0.0,0.0,-0.49408185,0.21379623,-0.26458728,-9.659624,19.7865,16.3184,-0.5210638,7.7758074,-10.991573,-6.2771378
-3.536809,99.176575,28.531038,12.936606,1.2717146,1.1622887,0.07568734,-0.710981,-0.5755026,0.2889046,0.74125075,-0.5782673,0.6503069,-0.14296073,0.6637441,-1.0508178,-1.8750069,-0.87405336,1.7212797,1.6667804,-0.84563774,0.72293556,-1.0040603,-1.8989707,-0.92997944,1.768269,1.6120474,-0.8289346,-1.2138722,-1.0433176,0.5155898,1.7704622,-1.0575092,1.0037926,0.22452289,-0.17212677,-0.61206436,0.81312543,-1.6202049,0.17347267,-0.17070816,-0.17375183,-0.5970459,0.74657404,0.90599996,0.0113741895,0.22946876,0.35549793,-1.4005066,0.2673914,-0.09683942,1.0,0.0,0.0,0.0,0.0,0.0,0.0,-0.4778732,0.21206436,-0.26312542,-9.260416,14.387608,9.186113,-19.802332,10.479188,-10.404086,-6.4857125
8.734093,86.21008,24.453163,4.596814,0.27837136,0.59110546,0.34656018,-0.69802874,-0.5067801,0.276814,0.7343628,-0.58637124,0.6218311,-0.13586058,0.6531327,-1.0547383,-1.8712894,-0.8565432,1.7096318,1.6742306,-0.84252065,0.71039855,-1.0136256,-1.8935138,-0.91400635,1.7583984,1.6213667,-0.8271064,-1.2673411,-0.92861897,0.55738926,1.5394115,-0.966294,0.9087938,0.16872418,-0.18832016,-0.6103325,0.8106832,-1.618585,0.17329924,-0.26872343,-0.18724442,-0.59410095,0.7457509,0.90934825,0.0066940445,0.23133643,0.34572303,-1.3321295,0.31410366,-0.08343788,1.0,0.0,0.0,0.0,0.0,0.0,0.0,-0.46167982,0.21033248,-0.26068318,-5.489278,11.216747,4.632008,-23.143364,8.325636,-9.285652,-5.639881
9.311441,63.533936,15.950277,1.9153595,-0.063416064,-0.17384249,0.3238331,-0.6887933,-0.5054488,0.19487487,0.73228973,-0.56113696,0.6222551,-0.13034874,0.64151925,-1.0641705,-1.8740263,-0.8407774,1.7022847,1.6835922,-0.8401413,0.6976155,-1.0224547,-1.8883067,-0.8999578,1.7493061,1.6298487,-0.8257646,-1.2822399,-0.8683423,0.5092977,1.3600154,-0.89185756,0.8284586,0.12248955,-0.20449066,-0.6086006,0.8072615,-1.6169667,0.17312598,-0.3666407,-0.20017242,-0.59093094,0.7447587,0.91250336,0.002729165,0.23302387,0.33619934,-1.2784559,0.32669997,-0.10930854,1.0,0.0,0.0,0.0,0.0,0.0,0.0,-0.4455093,0.20860061,-0.2572615,-1.6038179,5.8670163,-4.546511,-17.941093,6.9629073,-7.867658,-4.6766534
6.303116,51.085644,10.590276,3.413737,-0.123276144,-0.6900675,0.17694576,-0.6717326,-0.4821273,0.09335169,0.7476783,-0.58347887,0.62209404,-0.058065888,0.63044226,-1.0706675,-1.8789716,-0.82518995,1.6909581,1.6920581,-0.83157116,0.68493164,-1.030891,-1.8842021,-0.8870431,1.7406982,1.6376269,-0.82477087,-1.263928,-0.83594006,0.3779825,1.2687912,-0.8513669,0.7613489,0.09146794,-0.2206459,-0.60686874,0.8028614,-1.6153501,0.17295289,-0.46446005,-0.21269608,-0.5877991,0.74336505,0.9155223,-0.000289202,0.23468222,0.3267157,-1.2426103,0.3173805,-0.153367,1.0,0.0,0.0,0.0,0.0,0.0,0.0,-0.42935407,0.20686874,-0.25286138,1.7655134,3.1307817,-12.990761,-9.059906,3.7759304,-6.5931797,-3.1633213
0.3294878,41.671104,6.5935993,6.146123,0.059571564,-0.95866275,0.028994368,-0.66494197,-0.48108834,0.005473481,0.75541997,-0.5961738,0.62358785,-0.005932258,0.6184374,-1.0789998,-1.8836548,-0.81150115,1.6810808,1.6999856,-0.8253641,0.672531,-1.0391917,-1.8817626,-0.8744956,1.7323021,1.6448214,-0.82399744,-1.2322086,-0.82836723,0.19957614,1.2503992,-0.8363063,0.70554286,0.07251786,-0.23678589,-0.6051407,0.79748386,-1.6137351,0.17277996,-0.5621816,-0.22502518,-0.58483124,0.74144393,0.9184626,-0.0022242025,0.23645216,0.3170359,-1.2286196,0.2969878,-0.20824493,0.0,1.0,0.0,0.0,0.0,0.0,0.0,-0.4132141,0.20514068,-0.24748385,3.1614542,0.6772995,-17.792421,-1.7134905,1.3761163,-5.522239,-1.9489348
-1.1494229,34.33775,4.0228634,6.7471676,0.07346329,-1.1370704,-0.003854544,-0.6338807,-0.49701247,-0.092148565,0.76878816,-0.6119925,0.6301769,0.08906176,0.60914296,-1.0888929,-1.8909775,-0.79761684,1.6711028,1.7078391,-0.81509125,0.6605681,-1.0475936,-1.8812762,-0.86177075,1.7239097,1.6515315,-0.8233051,-1.184268,-0.8443748,-0.0015530564,1.2803613,-0.84038615,0.6597142,0.067946166,-0.2529106,-0.60341644,0.7911298,-1.6121217,0.17260721,-0.65980554,-0.23730469,-0.58213043,0.73890114,0.9213424,-0.0030043004,0.23840255,0.3070561,-1.2257297,0.2685451,-0.27251995,0.0,1.0,0.0,0.0,0.0,0.0,0.0,-0.39708936,0.20341644,-0.24112982,4.8115253,-1.6677737,-20.0959,3.1531096,-0.46422482,-4.580748,-0.5099863
-6.9811745,30.198063,2.2467046,8.579698,0.2655378,-1.1022291,-0.015725961,-0.6358332,-0.5086448,-0.19634,0.7770385,-0.61462367,0.62979394,0.21190333,0.5969848,-1.098458,-1.9009103,-0.7840669,1.6624473,1.7145108,-0.8021147,0.64900166,-1.0562428,-1.882908,-0.84863544,1.7154361,1.6577929,-0.82251245,-1.1476187,-0.87122184,-0.23430473,1.3174824,-0.84084797,0.601105,0.09012838,-0.2689972,-0.60095596,0.78586125,-1.5491462,0.47602406,0.14950347,-0.24965286,-0.57972336,0.73566115,0.92415994,-0.0025327774,0.24054232,0.29675138,-1.2372792,0.2347404,-0.34869185,0.0,1.0,0.0,0.0,0.0,0.0,0.0,-0.38100278,0.20095596,-0.23586124,3.6667824,-2.63412,-25.73823,2.784443,0.95545053,-7.9529285,3.304155
-27.429415,65.33242,10.35572,21.321407,1.2510804,-0.28982836,-0.29111162,-0.7351518,-0.3290091,-0.3458885,0.7868812,-0.5999338,0.5609772,0.23859553,0.5754865,-1.0891438,-1.9174968,-0.7699473,1.6554427,1.7138907,-0.7986529,0.6372238,-1.0643014,-1.8869935,-0.83510184,1.7069808,1.663515,-0.8215044,-1.1875286,-0.7847818,-0.46628863,1.3660206,-0.8480108,0.5622585,0.104036905,-0.28447342,-0.59619904,0.7866187,-1.5475973,0.47554812,0.051168054,-0.26220322,-0.5772972,0.73210984,0.92690116,-0.00067065045,0.2432332,0.28581697,-1.258585,0.25369462,-0.3599287,0.0,1.0,0.0,0.0,0.0,0.0,0.0,-0.36552656,0.19619903,-0.2366187,-3.9054632,8.442926,-23.076164,5.0738096,-0.96372366,-3.9939523,1.270014
-31.204363,72.418274,11.813454,23.058811,1.3646985,-0.07889819,-0.2682224,-0.7425026,-0.31282339,-0.47462565,0.78497535,-0.601824,0.5489576,0.2779467,0.5629735,-1.0955837,-1.9344561,-0.7566043,1.6467984,1.7184107,-0.79370975,0.62490803,-1.0713586,-1.8934385,-0.82120204,1.6984569,1.6688823,-0.82034,-1.2461435,-0.68008727,-0.7032048,1.398421,-0.85510635,0.5276439,0.12001354,-0.2999344,-0.5914459,0.78638554,-1.5460501,0.47507265,-0.04813426,-0.27496338,-0.5746002,0.72850233,0.92951006,0.0024626565,0.24671333,0.274112,-1.2787894,0.28339583,-0.3632286,0.0,1.0,0.0,0.0,0.0,0.0,0.0,-0.3500656,0.19144592,-0.23638552,-5.799341,10.217237,-23.4326,3.4028053,-1.1068821,-3.657627,1.4269918
-32.245285,53.719124,6.644445,20.029898,1.2859882,-0.1854645,-0.1515994,-0.7551867,-0.38073525,-0.58120066,0.7866357,-0.59263176,0.57548493,0.32803366,0.54938936,-1.1094321,-1.9515585,-0.74253845,1.6391937,1.7264308,-0.7875366,0.6120029,-1.0778397,-1.9021131,-0.80707335,1.6898929,1.6739787,-0.8189991,-1.3050101,-0.6381611,-0.92144734,1.418238,-0.8580725,0.5027547,0.13837343,-0.3153801,-0.58670044,0.78516006,-1.5445043,0.47459766,-0.14733729,-0.2880249,-0.57167053,0.7246296,0.9319629,0.0068778316,0.2507524,0.26176533,-1.3130038,0.3056648,-0.39689082,0.0,1.0,0.0,0.0,0.0,0.0,0.0,-0.33461988,0.18670043,-0.23516005,-5.7967663,3.9762974,-21.628057,2.1771908,-0.602293,-2.7352095,1.7010838
-22.993492,53.11975,8.084244,16.092123,1.1651331,-0.07103163,0.030741796,-0.7519225,-0.3641924,-0.6204454,0.7854152,-0.58378917,0.598806,0.420591,0.53681064,-1.114259,-1.9641576,-0.72853184,1.631514,1.7338593,-0.77694,0.5986629,-1.0840882,-1.9125253,-0.79285216,1.6813327,1.6788787,-0.8174208,-1.3435676,-0.62090445,-1.0800755,1.4237657,-0.85678256,0.4848358,0.16392583,-0.33081055,-0.5819588,0.78294337,-1.5429602,0.47412315,-0.24644113,-0.301342,-0.5685158,0.7204194,0.93420684,0.012380496,0.2550958,0.2490587,-1.3341707,0.3285918,-0.4301171,0.0,1.0,0.0,0.0,0.0,0.0,0.0,-0.31918943,0.18195876,-0.23294336,-3.8213968,1.5139222,-15.512824,0.6779671,-0.300622,-2.0736217,2.4310827
-20.291002,44.315506,6.111441,13.195647,0.97282195,-0.07867062,0.14985174,-0.77664477,-0.38894042,-0.6990344,0.7781108,-0.6197482,0.6062512,0.47123215,0.5209984,-1.1229823,-1.9824288,-0.7150411,1.619358,1.7395037,-0.7702976,0.5849758,-1.0904282,-1.9243089,-0.7786691,1.6726867,1.6836337,-0.81556684,-1.3769128,-0.6389864,-1.2099086,1.4168855,-0.86842275,0.47152865,0.19225499,-0.34622574,-0.5772209,0.77973634,-1.5414175,0.4736491,-0.3454459,-0.3148651,-0.56516266,0.7157596,0.9362034,0.018874237,0.25956708,0.236203,-1.3549448,0.3477361,-0.47878775,0.0,1.0,0.0,0.0,0.0,0.0,0.0,-0.30377424,0.17722091,-0.22973633,-3.2964945,-1.9905329,-12.6477,-0.5456209,-1.5628219,-1.6070366,2.727428
-13.906214,40.819817,6.514367,10.3003025,0.9915713,-0.007719636,0.24742836,-0.77502716,-0.42409268,-0.7044568,0.77982104,-0.6051845,0.6313569,0.50932276,0.50747305,-1.1328375,-1.9947546,-0.700687,1.6121682,1.7467694,-0.76463455,0.571076,-1.0971745,-1.9369565,-0.7645719,1.6639663,1.6882952,-0.81342393,-1.3942701,-0.68695605,-1.281729,1.4077744,-0.8746316,0.46346584,0.22152185,-0.36162567,-0.5724869,0.77554,-1.5398765,0.47317556,-0.4443517,-0.3285637,-0.56162643,0.71059537,0.9379464,0.026146231,0.26393902,0.22340363,-1.3708636,0.36662534,-0.52963394,0.0,1.0,0.0,0.0,0.0,0.0,0.0,-0.2883743,0.17248687,-0.22553998,-1.7220497,-4.9562693,-6.7893744,-0.774765,-1.0500908,-1.0865033,2.8684168
-9.964454,36.07928,6.2300515,7.968676,1.0278491,0.049906492,0.31711504,-0.7820574,-0.4745994,-0.70114034,0.76858306,-0.59863126,0.6412691,0.53062373,0.49287024,-1.1446345,-2.0070705,-0.6877136,1.6041032,1.7524221,-0.76036155,0.5570598,-1.1046113,-1.9499475,-0.7506082,1.6552211,1.6928996,-0.8109978,-1.4039348,-0.7630312,-1.3033727,1.3931967,-0.8757517,0.45850676,0.24961026,-0.37701035,-0.56775665,0.7703554,-1.5383369,0.47270247,-0.5431586,-0.34240723,-0.5579109,0.70488685,0.9394579,0.03396633,0.26798075,0.2108348,-1.3852978,0.38556674,-0.58519673,0.0,1.0,0.0,0.0,0.0,0.0,0.0,-0.27298963,0.16775665,-0.22035539,-0.9591341,-7.741022,-1.761961,-1.2992382,-0.5352974,-0.7696748,2.808711
-1.6651776,40.39634,8.592461,5.823112,1.0287836,0.1400894,0.373693,-0.759809,-0.50230384,-0.68087727,0.77153134,-0.59047735,0.65238315,0.57405895,0.48107892,-1.1548417,-2.0180352,-0.67345506,1.5961734,1.758138,-0.7535919,0.54310566,-1.112832,-1.9628259,-0.7367561,1.6465007,1.6974715,-0.8082884,-1.3927944,-0.84213996,-1.2809778,1.3828588,-0.87242925,0.45595598,0.2781733,-0.39237976,-0.56303406,0.7641834,-1.5367988,0.47222987,-0.64186674,-0.35630035,-0.55400085,0.6986969,0.940754,0.042084064,0.27156785,0.19864964,-1.3860991,0.40438783,-0.6310834,0.0,1.0,0.0,0.0,0.0,0.0,0.0,-0.25762022,0.16303405,-0.21418339,1.0669947,-8.038235,2.7551174,-0.93619823,-0.18063784,-0.5317271,2.8778315
0.88222885,47.39821,10.651135,6.1357274,1.1123443,0.2542621,0.35898587,-0.75949764,-0.5192397,-0.6707378,0.7698639,-0.6045742,0.63866025,0.5928167,0.4671559,-1.164756,-2.0298996,-0.6597697,1.5860432,1.7613375,-0.74900675,0.52929264,-1.1217431,-1.9753362,-0.72298217,1.6377727,1.7020148,-0.8053091,-1.3777486,-0.9078286,-1.2390305,1.3756992,-0.8752438,0.4527225,0.30455667,-0.40773392,-0.5583153,0.75702506,-1.5352623,0.47175774,-0.7404762,-0.37014008,-0.54987717,0.69214016,0.9418404,0.050348587,0.27472126,0.18689491,-1.3779615,0.42639303,-0.6649126,0.0,1.0,0.0,0.0,0.0,0.0,0.0,-0.24226606,0.15831527,-0.20702505,1.4213324,-6.712532,4.830599,-0.66387653,-0.91223717,-0.61225295,2.6556313
2.2708817,47.852425,10.615572,5.730581,1.07354,0.23400205,0.35384518,-0.7491545,-0.5608683,-0.66804385,0.7686281,-0.6017761,0.61834425,0.6097959,0.45437717,-1.1778299,-2.0421405,-0.64611936,1.5775951,1.7638493,-0.7443295,0.5156627,-1.1312989,-1.987444,-0.7092569,1.629018,1.7065123,-0.8020838,-1.3584481,-0.9720807,-1.199267,1.3716474,-0.87774974,0.44790962,0.32866493,-0.42307281,-0.5536003,0.7488814,-1.5337274,0.4712861,-0.83898705,-0.3838768,-0.5455551,0.68524736,0.9427309,0.058729727,0.27746022,0.17557031,-1.3670949,0.4464375,-0.6987268,0.0,1.0,0.0,0.0,0.0,0.0,0.0,-0.22692716,0.1536003,-0.19888139,1.842761,-6.5674543,4.6199083,-0.35586357,-0.89190006,-0.77109337,2.431953
1.4968758,49.917347,10.806269,6.3937435,1.160926,0.2562617,0.32047132,-0.7447974,-0.58931774,-0.65195787,0.7687774,-0.5915036,0.5959061,0.6184522,0.44118297,-1.1902307,-2.0526397,-0.6323792,1.5698676,1.7661029,-0.74023855,0.50220686,-1.1414498,-1.9992486,-0.6955762,1.6204268,1.7109245,-0.7986312,-1.3415922,-1.0298086,-1.1722995,1.3670666,-0.85385394,0.4377997,0.3507236,-0.43737411,-0.5488014,0.74173546,-1.3858355,0.47961387,-0.66800714,-0.39752197,-0.54101944,0.6780318,0.9434631,0.067218505,0.2797322,0.1646477,-1.3589828,0.46757448,-0.73046964,0.0,1.0,0.0,0.0,0.0,0.0,0.0,-0.21262586,0.14880142,-0.19173545,1.6196012,-5.9447765,4.170561,-0.12476444,-0.055396557,-1.095593,2.182895
11.348682,65.67547,15.868101,5.9192743,1.3795462,0.4464798,0.31617892,-0.70208097,-0.5777183,-0.5658021,0.7674459,-0.55647725,0.596596,0.6197353,0.43199876,-1.1992216,-2.0558288,-0.6188316,1.564779,1.7705841,-0.7366577,0.48906794,-1.1519555,-2.0104208,-0.6819242,1.6120625,1.7152547,-0.7949892,-1.3053167,-1.0581374,-1.0954617,1.3641917,-0.8336787,0.43031967,0.36870775,-0.45089722,-0.5439873,0.73490393,-1.3393561,0.4815913,-0.6852919,-0.41091156,-0.5362663,0.6707263,0.9440482,0.0755646,0.28158715,0.15418024,-1.3266981,0.49031445,-0.7320873,0.0,1.0,0.0,0.0,0.0,0.0,0.0,-0.19910276,0.14398727,-0.18490392,3.4373045,-3.0094624,8.650804,-0.38995743,1.0644794,-1.0537088,1.7986894
16.741714,71.2681,17.765385,5.33502,1.5154425,0.4802213,0.30154994,-0.67523366,-0.60058284,-0.50362086,0.76729524,-0.52699053,0.5738788,0.61728525,0.42154458,-1.2120137,-2.060783,-0.6051947,1.5593634,1.7726425,-0.7332607,0.4763698,-1.1626958,-2.020609,-0.6682931,1.6039543,1.7195011,-0.7911928,-1.2587147,-1.0799884,-0.9894971,1.3622065,-0.80651706,0.4216616,0.38334137,-0.46390152,-0.5391731,0.7279769,-1.2857872,0.48062217,-0.6925838,-0.42391586,-0.53129196,0.6634947,0.94451684,0.083541214,0.2830357,0.1442204,-1.2857994,0.51024026,-0.7217355,0.0,1.0,0.0,0.0,0.0,0.0,0.0,-0.18609846,0.13917312,-0.1779769,4.435301,-2.368331,11.698114,-0.3468752,1.6356945,-1.1735439,1.4793456
19.105236,66.92558,16.92267,3.6469555,1.58973,0.38004583,0.3254351,-0.65732056,-0.63982785,-0.44289547,0.74002236,-0.42965627,0.48752427,0.6142359,0.41063774,-1.2266786,-2.0648985,-0.59429085,1.5609887,1.7682536,-0.72976923,0.4641394,-1.173745,-2.029615,-0.6548003,1.5963577,1.7236061,-0.7872704,-1.2118465,-1.1137735,-0.86782455,1.344555,-0.7472534,0.405749,0.39546263,-0.4764061,-0.5343857,0.7209165,-1.2372328,0.47751853,-0.70804936,-0.43653488,-0.5261574,0.65633726,0.94495386,0.09100187,0.2839058,0.1348266,-1.247444,0.5254165,-0.7154334,0.0,1.0,0.0,0.0,0.0,0.0,0.0,-0.17359388,0.13438568,-0.1709165,4.4780493,-3.54321,13.2301445,-1.887536,4.8745275,-1.8914402,1.2839198
22.538136,77.202255,20.684744,4.6281424,2.471285,0.5747761,0.26496473,-0.64016956,-0.63669807,-0.25263584,0.7117287,-0.24156398,0.4073172,0.6190632,0.40012243,-1.2374148,-2.0548785,-0.5836274,1.5722013,1.7643378,-0.7253641,0.45234102,-1.1850557,-2.0367668,-0.6416145,1.5898591,1.7274969,-0.7832335,-1.1699767,-1.1375835,-0.6600366,1.3094757,-0.6214725,0.38238403,0.4070467,-0.48838043,-0.52962875,0.713828,-1.1821982,0.47493547,-0.70623565,-0.44875336,-0.5207863,0.64946795,0.9455213,0.09747058,0.28389275,0.12607113,-1.2069494,0.55020404,-0.67912585,0.0,1.0,0.0,0.0,0.0,0.0,0.0,-0.16161954,0.12962875,-0.16382802,3.9509058,-2.5657177,22.070717,-3.6581278,11.288261,-2.6518643,1.3268411
34.689762,98.48138,30.306192,4.83297,4.647357,1.0874376,0.18160254,-0.62369365,-0.648724,0.22929169,0.62085366,0.21214992,0.19710633,0.6083191,0.38997164,-1.2499281,-2.0138376,-0.5795291,1.6110741,1.7472075,-0.7224016,0.44091314,-1.1965837,-2.0398748,-0.62917453,1.5858595,1.731002,-0.7790863,-1.1347162,-1.158445,-0.18845372,1.2214379,-0.33194193,0.33865243,0.4186843,-0.49968338,-0.52487564,0.7070615,-1.1108572,0.47551492,-0.66372895,-0.46051025,-0.51498413,0.64349806,0.9466243,0.101548865,0.2821628,0.11821332,-1.1593506,0.5989221,-0.57121617,0.0,1.0,0.0,0.0,0.0,0.0,0.0,-0.1503166,0.124875635,-0.15706152,3.2400846,-2.307701,48.995487,-9.007478,27.118324,-4.7079086,1.567775
20.898872,86.83534,24.514568,4.715013,4.252926,0.71385074,0.29211134,-0.6985747,-0.63442427,0.17643097,0.4290547,0.3976312,-0.35128227,0.5769704,0.37105566,-1.2600262,-2.0222316,-0.5862691,1.6256226,1.6958737,-0.72138923,0.42938083,-1.2081823,-2.03902,-0.6184237,1.5850825,1.7336924,-0.77486366,-1.1598929,-1.1608813,0.18049745,1.0260687,0.0027996728,0.24497168,0.4246352,-0.51042557,-0.5201187,0.7004911,-1.0606058,0.47640952,-0.65237504,-0.47193146,-0.5087166,0.6383669,0.94841635,0.10327551,0.27830637,0.11129227,-1.1307795,0.64381796,-0.49601293,0.0,1.0,0.0,0.0,0.0,0.0,0.0,-0.13957441,0.12011871,-0.15049106,-2.6584148,-0.43053627,38.139187,-19.602346,32.142265,-9.584477,0.9321809
27.597517,81.94666,21.368748,0.14271927,2.8443112,0.30775338,0.47103864,-0.6496564,-0.60497344,0.17632115,0.33273447,0.46820858,-0.51202536,0.6083894,0.3644152,-1.2686796,-2.021388,-0.58515024,1.6319034,1.6824899,-0.7140247,0.4177298,-1.2196093,-2.035564,-0.60987973,1.587368,1.7353766,-0.7705814,-1.1671671,-1.137079,0.4039118,0.79707736,0.30069172,0.14267564,0.43000314,-0.52061844,-0.515419,0.6940017,-1.0056025,0.4674053,-0.64765465,-0.48295212,-0.50222397,0.63376313,0.9507558,0.10335054,0.27255723,0.10533104,-1.0870212,0.6599685,-0.4508973,0.0,1.0,0.0,0.0,0.0,0.0,0.0,-0.12938154,0.115419,-0.14400166,-0.83839893,2.215886,23.197847,-22.934044,28.865858,-10.279107,0.7154882
27.164637,55.69845,11.659805,-6.5627527,0.5182063,-0.3520367,0.7579622,-0.6469626,-0.61604095,-0.0023207287,0.17030369,0.54389393,-0.5875041,0.60378027,0.35303354,-1.2812134,-2.035796,-0.5928494,1.6417574,1.6766262,-0.7102034,0.4060481,-1.2308283,-2.031765,-0.6039365,1.5921952,1.7360823,-0.7662681,-1.1687752,-1.1171666,0.37289193,0.526865,0.54197,0.04682747,0.43199137,-0.53038025,-0.5108757,0.6872183,-0.96739066,0.45026022,-0.69017285,-0.49350357,-0.4958458,0.6290262,0.9533674,0.10294858,0.2653624,0.10037332,-1.0421395,0.637409,-0.48400325,0.0,1.0,0.0,0.0,0.0,0.0,0.0,-0.11961973,0.110875696,-0.1372183,-0.24340153,1.8844128,-2.8104603,-26.999462,23.747337,-9.512662,0.27796626
19.64283,54.586296,8.941619,-3.5858617,-0.12797178,-0.54398793,0.65190625,-0.6485539,-0.5825364,-0.055676684,0.13186282,0.5632373,-0.588852,0.60654515,0.3411927,-1.2890819,-2.0373325,-0.5907502,1.6485189,1.6771971,-0.70561355,0.39437607,-1.2417345,-2.0292175,-0.60029167,1.5988579,1.735937,-0.761942,-1.1667802,-1.0820341,0.21560399,0.3106442,0.7070576,-0.034806404,0.43304572,-0.5397835,-0.5065117,0.67996544,-0.931972,0.43183884,-0.7383042,-0.5036621,-0.4897499,0.6238382,0.95601326,0.10291249,0.25727978,0.096201696,-1.0025886,0.6075268,-0.5329412,0.0,1.0,0.0,0.0,0.0,0.0,0.0,-0.1102165,0.10651168,-0.12996542,0.16047955,3.4360409,-15.643207,-21.533329,16.348993,-8.078151,0.16499162
20.721382,48.99245,8.114603,-4.985286,-0.3323064,-0.4831127,0.67026436,-0.6532302,-0.6110845,0.03235465,-0.006483134,0.6054408,-0.59445006,0.5951209,0.32905304,-1.302843,-2.025982,-0.60094,1.659402,1.676492,-0.70242995,0.38271168,-1.2524767,-2.0279243,-0.5987736,1.6067649,1.7350727,-0.75761706,-1.1663806,-1.0717676,0.100950256,0.09912736,0.81820005,-0.10343097,0.43254915,-0.5488472,-0.5023308,0.6721919,-0.89858615,0.41334584,-0.79171187,-0.51340866,-0.483963,0.61809254,0.9586227,0.10336448,0.2484963,0.09277874,-0.96198314,0.57548016,-0.5906125,0.0,1.0,0.0,0.0,0.0,0.0,0.0,-0.10115278,0.102330774,-0.122191906,0.02553463,0.9759426,-11.439568,-21.058064,11.025858,-6.789045,0.021994114
21.806131,48.297695,8.631009,-6.4705935,-0.3755408,-0.24927759,0.75662744,-0.6811493,-0.6052845,0.06575357,-0.19865842,0.65190643,-0.5965557,0.5925303,0.31459674,-1.3130051,-2.021349,-0.61863947,1.6719556,1.6754172,-0.698364,0.37091902,-1.2631693,-2.0272987,-0.5996682,1.6155434,1.7336081,-0.7532996,-1.1835275,-1.0686221,0.04982702,-0.15195325,0.8976984,-0.16043575,0.43179864,-0.55755997,-0.4983406,0.66390836,-0.86279196,0.39495423,-0.84207827,-0.52269745,-0.4784813,0.6117749,0.96119225,0.104138516,0.2389982,0.09024601,-0.91431236,0.5462429,-0.64750284,0.0,1.0,0.0,0.0,0.0,0.0,0.0,-0.09244001,0.0983406,-0.11390835,-1.7051935,0.28486252,-5.1934114,-25.006836,7.961583,-5.6034536,0.016784668
26.197063,51.093067,10.424849,-7.200463,-0.2099676,-0.075763404,0.7433,-0.66925097,-0.61437386,0.111576684,-0.30186057,0.67351323,-0.5582675,0.59657705,0.3039939,-1.3246067,-2.016141,-0.62985426,1.6828947,1.6777813,-0.6936419,0.35900953,-1.2739153,-2.0266469,-0.6029994,1.6249337,1.731676,-0.7489871,-1.1932902,-1.0766313,0.06940975,-0.3931039,0.9533802,-0.20366564,0.43146008,-0.565876,-0.49453735,0.6551968,-0.82177603,0.37563702,-0.8819385,-0.53146744,-0.4732666,0.6049642,0.96373546,0.10493515,0.2287707,0.08869315,-0.86099887,0.5181654,-0.6942882,0.0,1.0,0.0,0.0,0.0,0.0,0.0,-0.08412397,0.09453735,-0.105196774,-0.9447098,-0.80349445,1.7326281,-24.00821,5.758333,-4.1953564,0.070631504
32.13276,51.379387,12.035104,-8.598503,-0.0025323369,0.041396648,0.71678126,-0.65324646,-0.64615685,0.20289965,-0.40666452,0.70575744,-0.53149784,0.58226347,0.2936849,-1.338531,-2.006357,-0.64366585,1.6955094,1.6785262,-0.69076073,0.34711242,-1.2849016,-2.025209,-0.6085995,1.6348085,1.7293946,-0.7446871,-1.1883339,-1.1059973,0.16726533,-0.6152433,1.0001303,-0.23570862,0.42984468,-0.5737572,-0.49093246,0.6461474,-0.7778351,0.35543153,-0.91373944,-0.5396805,-0.468338,0.5977471,0.9662885,0.105363674,0.21773982,0.08817164,-0.8046982,0.48973072,-0.7327401,0.0,1.0,0.0,0.0,0.0,0.0,0.0,-0.076242805,0.09093246,-0.09614736,0.5502939,-2.914977,9.371279,-22.095728,5.0908804,-3.0396848,-0.044053793
24.816929,60.546757,13.606268,-2.9997847,0.52641094,0.12434998,0.47436348,-0.6539132,-0.6335716,0.18691309,-0.43012336,0.7116961,-0.4895729,0.57403713,0.2817211,-1.3482587,-2.0065176,-0.6516118,1.7059782,1.6804372,-0.6872834,0.335294,-1.2961073,-2.0228825,-0.6158903,1.6450473,1.7268728,-0.7404071,-1.1793683,-1.1253545,0.25220922,-0.7665585,1.033849,-0.25721434,0.42774394,-0.58120346,-0.4875145,0.63687027,-0.7342589,0.33750993,-0.9328806,-0.5474129,-0.4636078,0.5902692,0.9688292,0.10530133,0.20605403,0.08844852,-0.75914943,0.47262603,-0.754614,0.0,1.0,0.0,0.0,0.0,0.0,0.0,-0.068796515,0.08751449,-0.08687025,0.9857893,-1.8877506,7.9198065,-14.979291,3.976059,-1.9688785,-0.08280277
18.57781,67.5126,14.3695965,1.2499949,0.7327632,0.1476092,0.30344427,-0.64916325,-0.6183581,0.159649,-0.4754788,0.71909285,-0.484937,0.5757555,0.2703777,-1.357943,-2.0069175,-0.6634382,1.7169566,1.678379,-0.6828316,0.32358527,-1.3073721,-2.0200484,-0.62431127,1.6555476,1.7241741,-0.7361452,-1.1676581,-1.1265062,0.29149148,-0.8667031,1.0578599,-0.2733623,0.4261138,-0.5882225,-0.4842682,0.6274729,-0.69165736,0.32061383,-0.942542,-0.5547447,-0.45899963,0.58264834,0.9712975,0.10486451,0.19395816,0.08924503,-0.72070366,0.4614117,-0.76603794,0.0,1.0,0.0,0.0,0.0,0.0,0.0,-0.061777472,0.08426818,-0.077472866,1.281476,-0.03967285,3.2676756,-9.843707,3.109026,-1.404047,-0.0346601
10.247024,87.606636,19.247667,10.326954,1.8767369,0.4135982,-0.0957119,-0.6243901,-0.594861,0.27427506,-0.3818425,0.70337427,-0.41542125,0.57509845,0.26114625,-1.3668582,-1.9926208,-0.6624955,1.725885,1.682632,-0.67863536,0.31208968,-1.3184767,-2.0165353,-0.6328564,1.6661847,1.7213883,-0.73189753,-1.1430852,-1.1046395,0.36837745,-0.8500734,1.0687573,-0.27944785,0.4246275,-0.59477615,-0.48117065,0.6182716,-0.6437087,0.3070538,-0.9132459,-0.56178665,-0.4543419,0.57525647,0.97367877,0.10386501,0.1817582,0.09014202,-0.6957851,0.4716723,-0.7315903,0.0,1.0,0.0,0.0,0.0,0.0,0.0,-0.055223823,0.08117065,-0.06827158,2.584529,2.325344,6.854373,1.7797709,2.0724535,-0.31231046,-0.0718534
16.863005,93.420845,22.108034,10.46966,2.1016047,0.4801553,-0.18824944,-0.56984943,-0.6108535,0.39285994,-0.35628954,0.7007006,-0.35901898,0.56827444,0.25510475,-1.379562,-1.9772493,-0.6684854,1.7362547,1.6854864,-0.6750701,0.30106702,-1.329421,-2.0118394,-0.6408215,1.6768775,1.7186031,-0.7276694,-1.0882598,-1.0904835,0.5005701,-0.7784336,1.0730907,-0.27710214,0.42237464,-0.60082245,-0.47822952,0.6095209,-0.5920489,0.2897298,-0.862556,-0.5685768,-0.4495964,0.5683454,0.97599304,0.10198352,0.16959147,0.09096984,-0.669797,0.47958958,-0.6787332,0.0,1.0,0.0,0.0,0.0,0.0,0.0,-0.049177527,0.07822952,-0.0595209,5.6126595,1.5733242,12.352282,7.248032,1.5227556,0.5911052,-0.18386841
25.822039,99.12061,24.668612,8.231061,1.9223117,0.5762379,-0.11547831,-0.52919084,-0.59078467,0.48439828,-0.3709894,0.71073633,-0.27034655,0.56197745,0.24814793,-1.3884995,-1.9633995,-0.67792046,1.7479511,1.6915685,-0.67147166,0.2907273,-1.3401709,-2.005576,-0.6481076,1.6876252,1.7159171,-0.7234676,-1.0153421,-1.0693804,0.6654766,-0.7115992,1.0789862,-0.26436278,0.41954097,-0.60630417,-0.475502,0.60143137,-0.5345649,0.2673695,-0.79232055,-0.57502365,-0.44483948,0.5620545,0.9782433,0.098980054,0.1575238,0.09181013,-0.6328273,0.47912073,-0.6136999,0.0,1.0,0.0,0.0,0.0,0.0,0.0,-0.043695807,0.07550201,-0.051431358,7.4382067,2.266717,15.621901,6.784618,1.7169714,1.7072022,-0.24726987
35.269894,104.96555,26.660002,5.215206,1.4207951,0.61987585,0.020081017,-0.4768574,-0.5503607,0.53754073,-0.37505388,0.71332467,-0.14500472,0.56892836,0.24304155,-1.3952069,-1.9518218,-0.685613,1.7589576,1.7014166,-0.6665748,0.28123915,-1.350564,-1.9977291,-0.6548941,1.6984347,1.7134528,-0.7192886,-0.9260804,-1.0287055,0.8218674,-0.6671825,1.0852855,-0.23868231,0.41757637,-0.6111679,-0.47304535,0.59416944,-0.47115445,0.23889638,-0.7055968,-0.5809746,-0.4401741,0.55646676,0.9803943,0.09479918,0.14567715,0.092834435,-0.580534,0.46499464,-0.5414647,0.0,1.0,0.0,0.0,0.0,0.0,0.0,-0.03883207,0.07304534,-0.044169426,9.093618,4.2129517,14.801062,4.5936465,1.7477512,3.0819683,-0.14411211
61.10951,99.63591,27.164392,-5.6172314,0.10242848,0.43694335,0.35775226,-0.3547746,-0.5540023,0.61838025,-0.3997712,0.7310912,0.1209447,0.5649197,0.24576169,-1.4059643,-1.935891,-0.69487125,1.7715439,1.7255473,-0.6627966,0.27303654,-1.3606195,-1.9883437,-0.66152793,1.7093531,1.7114395,-0.71513253,-0.78443944,-0.99755734,0.9752531,-0.6614098,1.0970931,-0.18690428,0.41517958,-0.615345,-0.4709587,0.5877886,-0.4010647,0.19914025,-0.6177003,-0.58618164,-0.43593597,0.5515003,0.9824005,0.08937923,0.134098,0.09443625,-0.49859473,0.41299522,-0.48276016,0.0,1.0,0.0,0.0,0.0,0.0,0.0,-0.034654975,0.070958704,-0.03778857,14.330709,3.2147527,14.657021,0.7759571,2.1629572,5.762598,-0.16300678
75.30293,85.23868,24.031765,-14.41134,-1.1515481,0.082148254,0.6526395,-0.27182284,-0.56622666,0.63453513,-0.45530292,0.740304,0.216434,0.56261116,0.24585426,-1.4172422,-1.9248902,-0.70705825,1.7833835,1.7330829,-0.6588714,0.2664155,-1.3705187,-1.9777486,-0.6684895,1.7203892,1.7099972,-0.7110012,-0.620794,-0.9871709,1.0860622,-0.70676965,1.10807,-0.12818329,0.41291758,-0.6188545,-0.46930695,0.5820892,-0.33494443,0.15435186,-0.55610853,-0.5904579,-0.43244934,0.5468708,0.984207,0.08288717,0.122716606,0.09698915,-0.4019495,0.33061954,-0.45716995,0.0,1.0,0.0,0.0,0.0,0.0,0.0,-0.031145453,0.06930694,-0.032089174,16.52584,1.0753036,10.593247,-4.2626143,1.8358469,6.4230294,-0.08814335
65.74221,86.30436,23.150873,-10.738611,-1.0215807,0.04410246,0.5249679,-0.21778165,-0.5319048,0.6447053,-0.40232518,0.7385292,0.33920944,0.56416935,0.24463734,-1.4237092,-1.9132781,-0.70872205,1.7942421,1.7439182,-0.6545843,0.26134768,-1.3802404,-1.9663982,-0.6756927,1.7314956,1.709186,-0.7068855,-0.46813172,-0.9670673,1.149795,-0.723657,1.1137173,-0.06375024,0.41170362,-0.62176514,-0.46806335,0.5769591,-0.2773543,0.11476956,-0.5001103,-0.593853,-0.4297142,0.54249454,0.98577195,0.07556109,0.111625485,0.10041823,-0.31761822,0.25632694,-0.431886,0.0,1.0,0.0,0.0,0.0,0.0,0.0,-0.02823484,0.06806335,-0.026959062,15.450549,2.0546794,5.894923,-1.3491035,1.2619972,6.9642305,0.064724684
61.703293,82.31147,21.354645,-10.092335,-1.2027849,-0.15623254,0.4760533,-0.13292834,-0.52487314,0.6383539,-0.3994884,0.7385731,0.3470195,0.5442443,0.24805485,-1.4327278,-1.9025629,-0.7156415,1.8053529,1.7438879,-0.6524611,0.25778952,-1.3897696,-1.95475,-0.6829624,1.7426195,1.7089663,-0.70279336,-0.3177865,-0.94812036,1.1685944,-0.72681653,1.1139985,-0.0066171554,0.40910366,-0.6241646,-0.4671936,0.5722686,-0.22797683,0.07814475,-0.45882362,-0.5964546,-0.42773056,0.53829354,0.9870683,0.067674085,0.100886434,0.1045859,-0.24096145,0.18002939,-0.4167156,0.0,1.0,0.0,0.0,0.0,0.0,0.0,-0.025835395,0.0671936,-0.022268593,15.21824,1.931572,1.4807701,0.0600338,0.61597824,6.180955,-0.038689375
39.678707,83.70412,20.239878,-1.4678822,-0.352496,-0.08349761,0.17502776,-0.10244487,-0.50775,0.6394827,-0.3306729,0.73494226,0.36122787,0.5407188,0.24754503,-1.4405446,-1.8908017,-0.7160297,1.8161137,1.745089,-0.64872146,0.2554697,-1.3990736,-1.9431036,-0.6898784,1.7537068,1.7092582,-0.6987249,-0.20272808,-0.92433757,1.1618217,-0.6785932,1.1090113,0.042503376,0.40689546,-0.6261749,-0.46660614,0.5679421,-0.19191247,0.052811705,-0.4235422,-0.59851456,-0.42630005,0.53427744,0.98810685,0.05943001,0.090567864,0.109134324,-0.19362389,0.1321636,-0.3972672,0.0,1.0,0.0,0.0,0.0,0.0,0.0,-0.02382505,0.066606134,-0.017942071,11.69121,2.4492502,-1.1037588,5.192697,0.08614063,5.3223877,0.015747547
32.418453,81.30725,19.04951,0.49537578,-0.23632608,-0.159369,0.099306,-0.039787937,-0.49885288,0.626884,-0.32046035,0.73035,0.33526698,0.5297729,0.25149092,-1.4489589,-1.8804152,-0.7219244,1.8267418,1.7427849,-0.64574766,0.2541975,-1.4081488,-1.9316573,-0.6962461,1.7647172,1.7099588,-0.6946835,-0.10146242,-0.9017774,1.1376983,-0.62167734,1.100117,0.08046351,0.40402064,-0.6278763,-0.4662361,0.56389785,-0.16288845,0.031819317,-0.39740095,-0.6001625,-0.4253044,0.53041947,0.9889019,0.0509967,0.08067419,0.113859095,-0.15655403,0.09054989,-0.38267225,0.0,1.0,0.0,0.0,0.0,0.0,0.0,-0.022123694,0.06623611,-0.013897836,10.299765,2.3231864,-2.7844906,6.0559273,-0.37446022,4.158686,-0.0495255
24.719563,81.50443,18.509497,2.2028513,-0.13569683,-0.12125118,0.08210159,-0.011459162,-0.4728672,0.60716593,-0.33497667,0.73014516,0.31841242,0.52443683,0.25305158,-1.4554355,-1.8709407,-0.7297438,1.8377317,1.7418001,-0.6422398,0.25374594,-1.4169359,-1.920543,-0.7022065,1.7756423,1.7109718,-0.6906716,-0.025885137,-0.8708645,1.1014068,-0.58624643,1.091614,0.10932537,0.40102133,-0.62931824,-0.46604538,0.5600811,-0.1382928,0.014973797,-0.37560996,-0.60149384,-0.4246521,0.5267014,0.9894632,0.04250936,0.07117771,0.11869821,-0.124926984,0.057002053,-0.36902598,0.0,1.0,0.0,0.0,0.0,0.0,0.0,-0.020681739,0.06604537,-0.010081112,7.7254267,3.1575203,-4.015088,3.9038181,-0.33364296,3.2298684,-0.06183386
13.947619,90.21607,19.818974,6.427281,0.117515855,0.023514852,-0.001360748,0.0016485397,-0.40968868,0.5583746,-0.31479448,0.7154039,0.2950474,0.5283969,0.2539108,-1.4579048,-1.8647054,-0.733686,1.8471826,1.7404766,-0.6378319,0.25383654,-1.4251776,-1.9099723,-0.7078627,1.7864583,1.7122114,-0.68668336,0.021252684,-0.8082101,1.0404704,-0.55753404,1.0801581,0.12995677,0.39882392,-0.63053894,-0.46598816,0.5565693,-0.11637877,0.002879344,-0.3420712,-0.6025543,-0.42424393,0.52322847,0.98980093,0.034126867,0.062169965,0.123548605,-0.099004835,0.036388636,-0.34096187,0.0,1.0,0.0,0.0,0.0,0.0,0.0,-0.019461036,0.06598815,-0.0065692663,4.8863626,6.3570976,-6.5652847,3.2318711,-0.53937435,2.4398491,0.010579824
10.001578,93.21887,20.535675,8.084809,0.25455758,0.05353817,-0.053501517,0.03723751,-0.3816371,0.5433096,-0.2747159,0.70747185,0.29114035,0.5324469,0.25756028,-1.4633412,-1.8556414,-0.7353343,1.8572054,1.7413254,-0.63343865,0.25434914,-1.4327364,-1.8999966,-0.71315265,1.7971513,1.7136195,-0.682712,0.061827485,-0.7380229,0.98165053,-0.518351,1.0678725,0.14554287,0.3973135,-0.6315613,-0.4660263,0.55343753,-0.097487874,-0.00622457,-0.30255595,-0.6033745,-0.42399216,0.52008945,0.98993796,0.025905067,0.05370925,0.12832429,-0.0779858,0.021341331,-0.30580363,0.0,1.0,0.0,0.0,0.0,0.0,0.0,-0.018438697,0.0660263,-0.003437519,4.2229137,7.1176887,-6.3485265,4.2557597,-0.62241554,1.9173533,0.062054396
-2.932571,108.57799,23.83236,14.784172,0.79798365,0.31128082,-0.23122273,0.031355992,-0.28360257,0.49439314,-0.21266352,0.6949977,0.30495685,0.5404251,0.25748473,-1.4610966,-1.8505573,-0.734419,1.866651,1.7441151,-0.6286695,0.25509736,-1.4392748,-1.8907058,-0.71784276,1.8077161,1.715163,-0.6787466,0.07976395,-0.62527055,0.9096309,-0.451505,1.0550267,0.15881775,0.39688858,-0.6324158,-0.4661064,0.5509191,-0.08173778,-0.008520434,-0.2339937,-0.6040802,-0.42374802,0.5175225,0.98991036,0.017884409,0.045984842,0.13282682,-0.06740252,0.02624299,-0.24128442,0.0,1.0,0.0,0.0,0.0,0.0,0.0,-0.017584205,0.06610641,-0.0009191036,1.9636557,11.410165,-7.750869,7.0068836,-0.5613327,1.7495811,0.1432538
5.9520864,127.70229,29.164452,14.238985,0.43517086,0.31428033,-0.21052006,0.10215728,-0.16582076,0.45652714,-0.1520913,0.68069154,0.31637987,0.52744436,0.2653131,-1.4558569,-1.8450531,-0.7330519,1.8757852,1.746801,-0.62600213,0.25624654,-1.4443121,-1.8821647,-0.7216784,1.8181492,1.7168249,-0.67479676,0.12719323,-0.46280622,0.8339308,-0.3598058,1.041817,0.17031693,0.3948692,-0.63308334,-0.46622467,0.5493879,-0.06156983,-0.012727552,-0.12572438,-0.60456467,-0.4235382,0.5158731,0.98973846,0.010067341,0.039269578,0.13701896,-0.043389387,0.020205202,-0.14057733,0.0,1.0,0.0,0.0,0.0,0.0,0.0,-0.016916633,0.066224664,0.0006121397,4.918304,16.377878,-8.074284,9.5052,-0.6107092,1.6833127,-0.037783384
-17.024364,124.20789,26.369583,23.646656,1.1910427,0.26541176,-0.6004641,0.07902851,-0.10013555,0.283401,0.022496844,0.6606535,0.29657364,0.5064001,0.2641494,-1.4543257,-1.8538246,-0.7194287,1.8842145,1.7464823,-0.6241568,0.25769708,-1.4476843,-1.8750026,-0.7239405,1.8283973,1.7185683,-0.67087984,0.15139772,-0.29506046,0.6756741,-0.18080282,1.021143,0.17680618,0.39108843,-0.6336479,-0.4663086,0.5488592,-0.054975063,-0.0068081603,-0.028299036,-0.6050682,-0.4231949,0.51517737,0.9895006,0.002757678,0.033784777,0.14049721,-0.05268058,0.039275695,-0.047117583,0.0,0.0,1.0,0.0,0.0,0.0,0.0,-0.016352057,0.06630859,0.0011408329,2.5444627,16.90055,-16.211939,18.162941,-1.4612675,0.9738654,-0.24667382
-7.2623806,90.59302,16.361107,16.308437,0.069466665,-0.49274254,-0.5263328,0.15611625,-0.111771576,0.055776525,0.09501451,0.60379696,0.3253239,0.4985232,0.2733087,-1.4588615,-1.8694249,-0.71443903,1.888777,1.7511007,-0.6210275,0.2596421,-1.4498339,-1.8702613,-0.7242963,1.838266,1.720395,-0.66700697,0.20905931,-0.18802615,0.40647715,0.01331235,0.9762934,0.18488015,0.38650027,-0.63417816,-0.4663887,0.5487596,-0.052683707,-0.00860707,-0.004323308,-0.6056404,-0.42290497,0.51490194,0.989251,-0.0034545728,0.029485995,0.14318131,-0.059050497,0.026022805,-0.022140358,0.0,0.0,1.0,0.0,0.0,0.0,0.0,-0.015821815,0.0663887,0.0012404323,5.813834,10.746768,-27.029837,19.576313,-4.230833,0.92586875,-0.33880472
-18.734097,89.8276,14.136086,18.42961,-0.18197829,-0.46256644,-0.51966316,0.10226573,0.027726682,-0.17020313,0.10190496,0.56029093,0.2931643,0.49237013,0.26986867,-1.4470612,-1.8872817,-0.7141058,1.8942951,1.7497114,-0.61776996,0.26183078,-1.4506979,-1.8689053,-0.7230967,1.8475894,1.7222643,-0.66318274,0.22217685,-0.052519727,0.045091577,0.15575352,0.91834056,0.18782002,0.3812815,-0.63469315,-0.46647263,0.5488168,-0.051245183,-0.008195171,0.008363937,-0.6062584,-0.4227066,0.5148173,0.9890322,-0.007998653,0.026458327,0.1450903,-0.06353794,0.017989432,-0.0049136416,0.0,0.0,1.0,0.0,0.0,0.0,0.0,-0.01530683,0.06647262,0.0011832118,1.3239175,13.552579,-36.21241,14.311378,-5.5683613,0.3573388,-0.46666265
-12.368678,76.42666,11.5965605,13.409198,-0.473533,-0.4953029,-0.33010453,0.123032905,0.024055524,-0.2185097,0.12804043,0.5018962,0.32878098,0.51322985,0.27413407,-1.4482924,-1.8907562,-0.7102927,1.897779,1.7551423,-0.61185974,0.2641172,-1.4505472,-1.870744,-0.7208537,1.8562315,1.7241822,-0.65939415,0.23075092,0.03751741,-0.26014197,0.24701405,0.8463253,0.19292814,0.3780324,-0.6351814,-0.466568,0.54883754,-0.048345752,-0.00991326,-0.00065835076,-0.60687256,-0.42263794,0.5147449,0.9888575,-0.010878638,0.024541603,0.14642479,-0.060389847,0.0032460687,-0.008585505,0.0,0.0,1.0,0.0,0.0,0.0,0.0,-0.014818549,0.06656799,0.0011624694,0.8470088,8.970361,-30.505484,9.096318,-7.0857763,0.4258603,-0.33776164
-20.937847,78.63718,13.10292,15.76973,0.11918455,-0.09091051,-0.30052006,0.074481204,0.073571585,-0.26084745,0.150015,0.44417614,0.3454388,0.5178085,0.27156532,-1.4431901,-1.8968288,-0.7058522,1.9006491,1.7587261,-0.6076133,0.26619622,-1.4496031,-1.874942,-0.7180089,1.8640878,1.726149,-0.6556319,0.20020883,0.11326594,-0.4724529,0.2966674,0.7652633,0.19775803,0.3753913,-0.63565063,-0.46663284,0.54885566,-0.046777528,-0.0050529507,0.0025674799,-0.60749817,-0.42255402,0.5147088,0.9887339,-0.012431143,0.023561837,0.14729398,-0.06292034,0.010331288,-0.0019613358,0.0,0.0,1.0,0.0,0.0,0.0,0.0,-0.014349341,0.06663284,0.0011443496,-3.0885518,7.5176535,-21.09058,4.8584223,-8.130657,0.38765967,-0.33990145
-15.257855,68.07264,11.584469,11.731332,0.08547323,-0.086849295,-0.14451405,0.07542466,0.0614006,-0.32353026,0.1381528,0.40484166,0.34031495,0.51767254,0.27373868,-1.443463,-1.907295,-0.7041936,1.904572,1.7601805,-0.60386467,0.2679486,-1.448226,-1.8807117,-0.7149962,1.8711526,1.7281593,-0.6518935,0.16675958,0.1459043,-0.61113405,0.3023362,0.6866952,0.20174403,0.37300688,-0.63610077,-0.46665573,0.54878527,-0.0443764,-0.0015812832,-0.009945361,-0.6081238,-0.4224205,0.514616,0.9886467,-0.012993383,0.023235874,0.14788164,-0.062188216,0.014434302,-0.011216783,0.0,0.0,1.0,0.0,0.0,0.0,0.0,-0.013899207,0.066655725,0.0012147427,-3.389001,3.210193,-13.679385,0.43929815,-7.9471707,0.31515658,-0.33375025
-13.392107,72.00056,13.392097,11.765442,0.28269047,0.01109707,-0.11661867,0.06806549,0.09934747,-0.36838758,0.1701361,0.36297137,0.31539327,0.52452195,0.27475515,-1.4382912,-1.9175504,-0.6979826,1.9074497,1.7596986,-0.5994413,0.2693853,-1.4465513,-1.887458,-0.7119377,1.8774714,1.730181,-0.64817226,0.13579728,0.17444386,-0.6950655,0.30654147,0.61316353,0.20192975,0.37142244,-0.6365204,-0.46663666,0.54868096,-0.041567877,0.0031116945,-0.01001932,-0.60873795,-0.42222214,0.51451266,0.9885851,-0.012846856,0.023416666,0.14827721,-0.061637986,0.021903586,-0.009534979,0.0,0.0,1.0,0.0,0.0,0.0,0.0,-0.01347959,0.06663665,0.0013190508,-3.155905,2.7950854,-8.146381,0.268811,-7.495117,-0.100409985,-0.28217435
-5.7066717,74.46307,14.703554,9.67976,0.11752616,-0.045749158,-0.044566527,0.07963838,0.11813028,-0.40102303,0.18439013,0.3028215,0.27251193,0.53276587,0.27734914,-1.4347383,-1.9275603,-0.69349873,1.9077536,1.7574322,-0.59489566,0.27065226,-1.4446173,-1.8947859,-0.7088154,1.8830445,1.7321684,-0.6444596,0.123364575,0.1996003,-0.7444765,0.31350055,0.53814274,0.19705366,0.3707251,-0.63689804,-0.46658707,0.54863024,-0.036462106,0.005482967,-0.0026204297,-0.60931015,-0.4220085,0.5144749,0.98853475,-0.012169007,0.024045637,0.14856866,-0.054777663,0.021131514,-0.0011293,0.0,0.0,1.0,0.0,0.0,0.0,0.0,-0.013101935,0.06658706,0.0013697743,-1.3153777,2.4595618,-4.6791553,0.52321553,-7.6582313,-0.6159872,-0.20993352
-6.901492,76.82815,15.497862,11.308663,0.34050918,-0.014807191,-0.10676147,0.070966035,0.13015254,-0.4203275,0.23148975,0.23491776,0.2436153,0.5348365,0.27774888,-1.431602,-1.9368186,-0.68566644,1.9065362,1.7565299,-0.59097594,0.27183625,-1.4424543,-1.9024417,-0.7054164,1.8878183,1.7340814,-0.64075077,0.11646238,0.22176288,-0.7716757,0.3481334,0.4565935,0.18848495,0.37040454,-0.63723373,-0.46650314,0.5487116,-0.030731736,0.010335814,0.012451467,-0.609848,-0.421772,0.5145732,0.9884981,-0.011064484,0.025128992,0.1487197,-0.05273104,0.024391903,0.014294153,0.0,0.0,1.0,0.0,0.0,0.0,0.0,-0.012766242,0.06650314,0.001288414,-0.77109635,2.1502285,-2.4256945,3.2856047,-8.336502,-1.0283917,-0.18835664
-4.868688,72.39382,14.558114,10.336656,0.2579454,-0.060631417,-0.08702137,0.06996303,0.1171125,-0.42493013,0.24245691,0.1348954,0.23400287,0.531543,0.27883255,-1.4307431,-1.9449347,-0.6811707,1.9013078,1.7574817,-0.5875965,0.27299115,-1.440198,-1.9102368,-0.701635,1.8916309,1.7359076,-0.63704574,0.1148733,0.22670005,-0.7811143,0.38753363,0.3554589,0.18021904,0.3699694,-0.63752747,-0.46639252,0.54889107,-0.028267875,0.011638215,0.020641949,-0.61035156,-0.4215355,0.5147736,0.98847234,-0.0095627345,0.026655627,0.1487296,-0.049672075,0.024439925,0.02274972,0.0,0.0,1.0,0.0,0.0,0.0,0.0,-0.01247251,0.06639251,0.0011089444,-0.2398327,0.42850673,-0.64400434,3.773713,-10.313725,-0.99164844,-0.19803643
