Afshin1997/kuka_rl_ros2/src/catch_and_throw/input_files/idealpd/recorded_trajectories/env_15_data.csv
torque0,torque1,torque2,torque3,torque4,torque5,torque6,action0,action1,action2,action3,action4,action5,action6,set_target_0,set_target_1,set_target_2,set_target_3,set_target_4,set_target_5,set_target_6,joint_pos_0,joint_pos_1,joint_pos_2,joint_pos_3,joint_pos_4,joint_pos_5,joint_pos_6,joint_vel_0,joint_vel_1,joint_vel_2,joint_vel_3,joint_vel_4,joint_vel_5,joint_vel_6,tennisball_pos_0,tennisball_pos_1,tennisball_pos_2,tennisball_lin_vel_0,tennisball_lin_vel_1,tennisball_lin_vel_2,end_effector_pos_0,end_effector_pos_1,end_effector_pos_2,end_effector_rot_0,end_effector_rot_1,end_effector_rot_2,end_effector_rot_3,end_effector_lin_vel_0,end_effector_lin_vel_1,end_effector_lin_vel_2,obs_task_0,obs_task_1,obs_task_2,obs_task_3,obs_task_4,obs_task_5,obs_task_6,to_final_target_0,to_final_target_1,to_final_target_2,joint_acc_0,joint_acc_1,joint_acc_2,joint_acc_3,joint_acc_4,joint_acc_5,joint_acc_6
0.0,0.0,0.0,0.0,0.0,0.0,0.0,0.0,0.0,0.0,0.0,0.0,0.0,0.0,1.7802359,-1.0646509,-1.8151424,-1.1170107,1.9373155,1.1170107,-0.91629785,1.7802359,-1.0646509,-1.8151424,-1.1170107,1.9373155,1.1170107,-0.91629785,0.0,0.0,0.0,0.0,0.0,0.0,0.0,3.28125,-0.49856186,0.13338217,-3.4264815,-0.09181509,5.5685897,0.5304184,-0.45449638,0.693097,0.5745483,0.17512383,0.15255436,0.7848268,0.0,0.0,0.0,1.0,0.0,0.0,0.0,0.0,0.0,0.0,-3.93125,0.09856185,0.41661784,0.0,0.0,0.0,0.0,0.0,0.0,0.0
0.0,0.0,0.0,0.0,0.0,0.0,0.0,0.0,0.0,0.0,0.0,0.0,0.0,0.0,1.7802359,-1.0646509,-1.8151424,-1.1170107,1.9373155,1.1170107,-0.91629785,1.7802359,-1.0646509,-1.8151424,-1.1170107,1.9373155,1.1170107,-0.91629785,0.0,0.0,0.0,0.0,0.0,0.0,0.0,3.28125,-0.49856186,0.13338217,-3.4264815,-0.09181509,5.5685897,0.5304184,-0.45449638,0.693097,0.5745483,0.17512383,0.15255436,0.7848268,0.0,0.0,0.0,1.0,0.0,0.0,0.0,0.0,0.0,0.0,-3.93125,0.09856185,0.41661784,0.0,0.0,0.0,0.0,0.0,0.0,0.0
0.0,0.0,0.0,0.0,0.0,0.0,0.0,0.0,0.0,0.0,0.0,0.0,0.0,0.0,1.7802359,-1.0646509,-1.8151424,-1.1170107,1.9373155,1.1170107,-0.91629785,1.7802359,-1.0646509,-1.8151424,-1.1170107,1.9373155,1.1170107,-0.91629785,0.0,0.0,0.0,0.0,0.0,0.0,0.0,3.28125,-0.49856186,0.13338217,-3.4264815,-0.09181509,5.5685897,0.5304184,-0.45449638,0.693097,0.5745483,0.17512383,0.15255436,0.7848268,0.0,0.0,0.0,1.0,0.0,0.0,0.0,0.0,0.0,0.0,-3.93125,0.09856185,0.41661784,0.0,0.0,0.0,0.0,0.0,0.0,0.0
-176.0,49.082264,-13.700556,110.0,10.98639,4.0966473,-3.7465472,-0.8052469,0.24700564,-0.54400676,0.73596305,0.20586435,0.6685764,-0.60541576,1.6997112,-1.0399504,-1.8695431,-1.0434144,1.957902,1.1838684,-0.9768394,1.7790552,-1.0625757,-1.8214748,-1.1121126,1.9428964,1.1225649,-0.91782373,-0.15718438,0.2759347,-0.8439566,0.65346915,0.7431391,0.73871213,-0.20271474,3.247017,-0.4994793,0.18828985,-3.4230556,-0.09172329,5.464836,0.5283203,-0.4578762,0.6936735,0.57833475,0.17377326,0.15087421,0.78266776,-0.2787727,-0.45057607,0.07651935,1.0,0.0,0.0,0.0,0.0,0.0,0.0,-3.897017,0.09947929,0.36171016,-15.622955,27.37431,-84.2293,65.46971,74.03194,73.29239,-20.073193
-176.0,-46.986885,-52.219406,110.0,12.14388,0.8937569,-3.1097538,-0.79968166,-0.24518052,-0.54090244,0.69984114,0.38749266,0.6435958,-0.59747154,1.699087,-1.0870937,-1.875565,-1.0421286,1.9816456,1.1869245,-0.9775709,1.7778803,-1.0605043,-1.8367946,-1.0976664,1.9534459,1.1360556,-0.9186029,-0.11095042,0.16418539,-1.7104234,1.7073909,1.13074,1.5003202,-0.0495496,3.2128143,-0.5003948,0.24216077,-3.4196334,-0.091631584,5.361186,0.5237503,-0.46658516,0.69407475,0.5865982,0.17056015,0.1467495,0.77799505,-0.5175405,-1.0082618,0.03305973,1.0,0.0,0.0,0.0,0.0,0.0,0.0,-3.8628144,0.100394815,0.30783924,2.6073635,-17.175707,-71.376205,105.096344,30.313814,60.4815,11.320542
-152.88744,106.15494,31.019585,92.888145,8.263188,7.6873236,-1.7350454,-0.75563365,0.21225505,0.1517952,0.64817667,0.44621938,0.68188155,-0.53955966,1.702317,-1.0392789,-1.8216151,-1.0328487,1.9980679,1.2042438,-0.97255886,1.7735373,-1.0584654,-1.8514183,-1.078816,1.9648328,1.1508871,-0.91935724,-0.5419145,0.21369766,-1.3725476,1.9458141,1.1358132,1.470809,-0.085456744,3.1786423,-0.50131035,0.294996,-3.4162145,-0.091539964,5.25764,0.51631165,-0.47819328,0.696048,0.59759986,0.16577293,0.14104031,0.7716873,-0.82783526,-1.2051255,0.25597927,1.0,0.0,0.0,0.0,0.0,0.0,0.0,-3.8286424,0.10131034,0.25500402,-43.09456,3.903994,35.908913,24.32251,-1.1898994,-4.917574,-4.019694
-101.764404,86.81113,34.00702,55.60563,5.4897885,7.027504,-0.13657741,-0.7660869,-0.07013424,0.24381106,0.6515877,0.4701196,0.6613598,-0.5855132,1.6969286,-1.0654788,-1.8270371,-1.0136573,2.0118446,1.2170231,-0.97790855,1.7648264,-1.0572313,-1.8598678,-1.0600802,1.9752984,1.164622,-0.9205789,-0.98159003,0.091028765,-0.6619424,1.8504744,1.0107546,1.3378037,-0.13569242,3.1445007,-0.5022259,0.3467965,-3.412799,-0.09144845,5.1541967,0.5062485,-0.49074554,0.6997071,0.60940963,0.15974215,0.13377498,0.76498795,-1.0756963,-1.2602937,0.40603033,1.0,0.0,0.0,0.0,0.0,0.0,0.0,-3.7945008,0.10222587,0.2032035,-44.16374,-12.897372,73.25014,-9.223771,-14.257765,-14.296699,-5.4069877
-47.43653,113.38242,47.596264,31.48471,2.626954,6.719074,0.5199998,-0.79215616,0.07271749,0.28923243,0.6524293,0.5630103,0.66234565,-0.58141375,1.6856108,-1.0499595,-1.8309445,-0.9948372,2.0315995,1.2308565,-0.97872025,1.7524229,-1.0565389,-1.861201,-1.0434672,1.9846368,1.1769148,-0.92231077,-1.327375,0.060148202,0.048888534,1.5980716,0.9037794,1.19186,-0.18748912,3.110405,-0.5031395,0.39756337,-3.4093869,-0.09135702,5.0508575,0.49428558,-0.50289536,0.70486534,0.62088233,0.15263356,0.12522669,0.75863445,-1.2499897,-1.186845,0.5529939,1.0,0.0,0.0,0.0,0.0,0.0,0.0,-3.760405,0.10313949,0.15243664,-34.845688,-3.5838008,72.8994,-25.275398,-12.007963,-15.016317,-5.73245
-11.643768,97.79772,39.01405,13.367603,0.5511805,4.2989125,0.53464377,-0.79500294,0.082652844,0.21004613,0.65629095,0.5637795,0.6564061,-0.59752005,1.6729226,-1.0482737,-1.8401965,-0.97783804,2.0410147,1.2425554,-0.98206276,1.7377001,-1.0558885,-1.8574588,-1.0293356,1.993134,1.187884,-0.9245166,-1.5212674,0.06561587,0.48592263,1.3513099,0.8296203,1.06527,-0.23307294,3.0763397,-0.5040512,0.4472976,-3.4059782,-0.091265686,4.9476213,0.48123932,-0.51407623,0.7109346,0.63165843,0.14492764,0.11609834,0.75267833,-1.3352077,-1.0834103,0.6228954,1.0,0.0,0.0,0.0,0.0,0.0,0.0,-3.7263398,0.1040512,0.10270241,-19.577742,0.2456978,44.704765,-24.790169,-8.052015,-12.620926,-4.980025
14.356577,135.37459,48.568214,10.332918,-1.3777628,3.913723,0.028406605,-0.81066483,0.3708038,0.13518965,0.63912624,0.531484,0.66503865,-0.588815,1.6566336,-1.0188081,-1.8439399,-0.965423,2.0462825,1.2543879,-0.98339814,1.721932,-1.0536932,-1.8515804,-1.0171915,2.0010471,1.1977545,-0.9271249,-1.5961666,0.26982358,0.6242063,1.1685332,0.7778069,0.9615446,-0.27183288,3.042305,-0.5049629,0.49600026,-3.4025729,-0.09117444,4.844488,0.46774292,-0.5238228,0.7179575,0.6419476,0.1367259,0.10758774,0.746749,-1.3655949,-0.9267981,0.7256003,1.0,0.0,0.0,0.0,0.0,0.0,0.0,-3.692305,0.104962915,0.05399975,-7.7251673,20.08718,14.544201,-18.351341,-5.44672,-10.153687,-4.411131
20.40054,132.50548,42.74277,9.285265,-2.092547,2.6646173,-0.40463588,-0.8216253,0.46666843,0.013241214,0.6298678,0.52033037,0.64581597,-0.5919804,1.6397696,-1.0070263,-1.8502562,-0.95420474,2.05308,1.2623361,-0.98632294,1.7059714,-1.0489916,-1.8462379,-1.0062643,2.0085964,1.2067114,-0.93006796,-1.596752,0.53610855,0.5059126,1.067181,0.7471934,0.8745088,-0.30327064,3.0083008,-0.50587463,0.5436723,-3.399171,-0.09108328,4.7414584,0.454216,-0.53209305,0.725824,0.65211535,0.12825279,0.10059347,0.74039024,-1.3583101,-0.7817789,0.8039081,1.0,0.0,0.0,0.0,0.0,0.0,0.0,-3.6583009,0.10587463,0.0063276887,-0.29523373,26.36441,-11.385179,-10.172987,-3.1200886,-8.4764595,-3.576094
24.925087,130.3079,40.74365,8.485883,-2.2056782,2.1587608,-0.4721626,-0.82433033,0.56752616,0.00016134349,0.58809525,0.5622469,0.643765,-0.5882729,1.6235384,-0.99223894,-1.8462218,-0.9474548,2.064821,1.2710879,-0.98889524,1.6902663,-1.0415567,-1.8426998,-0.99602836,2.0160885,1.2149054,-0.933278,-1.5625317,0.8116141,0.3044609,1.0087986,0.7499076,0.8015203,-0.32827455,2.9743347,-0.50678635,0.59031487,-3.3957727,-0.09099221,4.6385317,0.44086456,-0.53897667,0.73442495,0.6623194,0.11966783,0.09534841,0.7334311,-1.3344375,-0.6444092,0.8761531,1.0,0.0,0.0,0.0,0.0,0.0,0.0,-3.6243348,0.10678634,-0.040314853,3.1769037,27.313328,-19.724834,-5.9237957,0.22634268,-7.1846724,-2.8909922
24.73963,117.69147,36.612873,8.073418,-1.8100029,1.7669303,-0.3836047,-0.8155516,0.6253604,-0.010897955,0.57462627,0.5829893,0.6364532,-0.58733994,1.6087111,-0.97902066,-1.8437896,-0.93856573,2.0743873,1.2785507,-0.992012,1.674996,-1.031753,-1.841088,-0.98612255,2.0237484,1.2224547,-0.93670076,-1.5158757,1.0359125,0.11484662,0.983913,0.7710252,0.7393959,-0.34811166,2.9404068,-0.50769424,0.6359289,-3.3923776,-0.09090123,4.5357075,0.42777252,-0.5446491,0.7436377,0.67255944,0.11104298,0.09160435,0.72590756,-1.3074877,-0.5272757,0.9343038,1.0,0.0,0.0,0.0,0.0,0.0,0.0,-3.590407,0.10769424,-0.08592892,4.441428,22.230412,-18.54516,-2.6410818,2.0517588,-6.217921,-2.3375094
22.411667,105.152626,33.617916,8.240265,-1.2070591,1.6889365,-0.19464187,-0.81227905,0.66724294,0.015132977,0.5608075,0.59448004,0.6390445,-0.5807087,1.5937681,-0.96502864,-1.8395748,-0.9300418,2.0831964,1.2863591,-0.9947716,1.6601416,-1.0202268,-1.8407733,-0.97635216,2.031664,1.2294604,-0.9402885,-1.4759576,1.1909677,0.005198649,0.97416735,0.798069,0.6873053,-0.36344847,2.9065094,-0.50860214,0.6805155,-3.3889859,-0.09081034,4.4329863,0.41487885,-0.5492859,0.7533588,0.6827366,0.10235517,0.08887629,0.7179799,-1.2881519,-0.42783526,0.9832672,1.0,0.0,0.0,0.0,0.0,0.0,0.0,-3.5565095,0.10860214,-0.13051552,3.7842274,15.331507,-10.496918,-1.1681318,2.6118755,-5.305207,-1.8791914
16.922012,88.61502,28.189816,8.832044,-0.65579134,1.4280037,-0.115747385,-0.803103,0.6941,-0.022814816,0.56915975,0.58778715,0.6574588,-0.5763293,1.5798312,-0.9508168,-1.8430548,-0.91943616,2.0904427,1.2952062,-0.9979214,1.6456152,-1.007644,-1.8412292,-0.9665541,2.0397968,1.2360255,-0.94400305,-1.4452323,1.2802799,-0.06107618,0.980989,0.81796926,0.6459658,-0.3751195,2.8726425,-0.50951004,0.72407573,-3.3855975,-0.09071956,4.330368,0.40209198,-0.55311203,0.76341814,0.6927956,0.09360857,0.08676287,0.7097491,-1.2768056,-0.35217655,1.0122998,1.0,0.0,0.0,0.0,0.0,0.0,0.0,-3.5226426,0.109510034,-0.17407572,2.8945208,8.796263,-6.1949363,0.46817064,1.9176841,-4.2414665,-1.4879525
12.250961,75.02378,23.483425,8.834482,-0.28151318,1.1803012,-0.05196969,-0.7996835,0.71360755,-0.051375054,0.5606571,0.5961391,0.6598404,-0.58156264,1.5656469,-0.9362833,-1.8463668,-0.91048837,2.0994108,1.3020095,-1.0021594,1.6313063,-0.9945272,-1.8421428,-0.9566931,2.0480976,1.2422377,-0.94781965,-1.4267688,1.3218069,-0.100042306,0.98704934,0.83418536,0.6126801,-0.3848136,2.8388062,-0.51041794,0.7666105,-3.3822126,-0.09062886,4.2278523,0.38939667,-0.5563183,0.7736236,0.70269966,0.084853336,0.08499885,0.7012761,-1.2710904,-0.29413524,1.0221708,1.0,0.0,0.0,0.0,0.0,0.0,0.0,-3.4888062,0.11041793,-0.21661049,1.6838789,4.0486097,-3.4887776,0.37363768,1.5606046,-3.4154415,-1.2714386
12.422354,67.33438,21.393116,6.9163084,-0.17553663,1.0566437,0.10397003,-0.7999393,0.7216196,-0.029118078,0.51780766,0.61823,0.66240746,-0.58421844,1.5513123,-0.92236525,-1.8450546,-0.90491235,2.1099205,1.3084785,-1.0062414,1.6170927,-0.98123395,-1.8431365,-0.9469809,2.0565815,1.2481676,-0.9517221,-1.4200294,1.3315886,-0.09781405,0.9651153,0.85312194,0.5863705,-0.393054,2.8050156,-0.511322,0.80812085,-3.3788311,-0.090538256,4.125439,0.3767395,-0.5589657,0.7838306,0.7123394,0.07613339,0.08336219,0.69269544,-1.2647529,-0.2394448,1.0190506,1.0,0.0,0.0,0.0,0.0,0.0,0.0,-3.4550157,0.111322016,-0.25812083,0.5034208,0.89731216,0.66137314,-2.4501681,1.8289566,-2.6628733,-1.1316836
11.883636,63.04853,19.842815,6.5990067,-0.12965494,0.9367899,0.13364509,-0.79179746,0.7291147,-0.04027484,0.51680785,0.6118993,0.66466457,-0.57703185,1.537913,-0.90832245,-1.847164,-0.8953001,2.1177714,1.3146341,-1.0094253,1.6029288,-0.96794736,-1.8440406,-0.937509,2.0652027,1.2538744,-0.9556903,-1.4157424,1.3275033,-0.086668886,0.9403407,0.8649309,0.5655227,-0.39908758,2.7712555,-0.5122261,0.84860784,-3.375453,-0.09044774,4.023128,0.36416626,-0.5611057,0.79395676,0.7216649,0.06746241,0.08176756,0.6840779,-1.2573061,-0.18904926,1.0091527,1.0,0.0,0.0,0.0,0.0,0.0,0.0,-3.4212556,0.1122261,-0.29860783,0.26512146,-0.47531128,1.5397058,-2.735579,1.126647,-2.0873547,-0.90345144
13.725506,63.042286,19.864672,5.7006264,-0.22339064,0.8881171,0.18523622,-0.78666186,0.7387487,-0.033932783,0.48972,0.62446564,0.6718017,-0.57718205,1.5242625,-0.8940725,-1.8474339,-0.888537,2.1276493,1.3210546,-1.0134085,1.5888067,-0.9547018,-1.8447826,-0.9283728,2.0739422,1.2594095,-0.95971006,-1.4116238,1.3233324,-0.068669096,0.90382034,0.8766392,0.54962486,-0.40395036,2.737526,-0.5131302,0.8880725,-3.3720782,-0.09035731,3.9209201,0.3516922,-0.5627079,0.8039733,0.73063695,0.058836162,0.08019774,0.67548215,-1.2454445,-0.13571717,0.9976366,1.0,0.0,0.0,0.0,0.0,0.0,0.0,-3.387526,0.11313018,-0.33807248,0.24425983,-0.4770279,2.233845,-3.9125562,1.1166334,-1.5641928,-0.786078
12.224305,63.314785,19.552418,6.799752,-0.16295326,0.8813518,0.15822476,-0.7897195,0.7432878,-0.032992125,0.4837611,0.62707096,0.67327636,-0.5668273,1.5098348,-0.880373,-1.8480818,-0.8799967,2.1366494,1.3267372,-1.0163928,1.5746981,-0.9414753,-1.8453643,-0.9195666,2.082777,1.2648093,-0.96376413,-1.411124,1.322242,-0.053318907,0.8721156,0.8856254,0.53691214,-0.40677834,2.703827,-0.5140343,0.9265158,-3.3687067,-0.09026697,3.8188143,0.33931732,-0.563797,0.8138867,0.73926884,0.050235424,0.07866567,0.6669106,-1.235154,-0.08453939,0.9875966,1.0,0.0,0.0,0.0,0.0,0.0,0.0,-3.353827,0.114034265,-0.3765158,-0.114798546,-0.16801357,1.9589521,-3.4182549,0.85270405,-1.2546062,-0.5722344
17.934883,67.13473,21.455763,4.186156,-0.4331639,0.91818666,0.3185488,-0.7902979,0.7503658,0.02372917,0.40817252,0.6490656,0.6706236,-0.55714214,1.4956683,-0.8664387,-1.8429915,-0.8787493,2.1476836,1.3318716,-1.0194783,1.5605799,-0.92821634,-1.8455665,-0.91134304,2.0917454,1.2701002,-0.9678344,-1.4126738,1.3270376,-0.007558896,0.8048482,0.8998872,0.5268204,-0.40810913,2.6701584,-0.51493645,0.9639389,-3.3653388,-0.090176724,3.7168105,0.32711792,-0.5642719,0.8237142,0.7474576,0.041641742,0.077139825,0.65850013,-1.2147524,-0.020053273,0.9792138,1.0,0.0,0.0,0.0,0.0,0.0,0.0,-3.3201585,0.11493644,-0.41393888,-0.34177303,0.4232645,5.0632873,-6.9815755,1.3592243,-0.94435215,-0.43951273
21.058052,68.855934,21.96643,2.9009542,-0.6456213,0.8393195,0.3682645,-0.78545797,0.7612112,0.03316656,0.36893946,0.64895564,0.6677889,-0.536601,1.4820341,-0.85209525,-1.8422499,-0.8744491,2.156641,1.3368791,-1.0214945,1.5464655,-0.9148525,-1.845309,-0.9038901,2.1008358,1.2753054,-0.971899,-1.4116545,1.3393704,0.0383763,0.7246741,0.9115716,0.5187397,-0.40687886,2.6365356,-0.5158367,1.0003426,-3.3619742,-0.090086564,3.6149087,0.3151703,-0.5640564,0.8334554,0.75513655,0.033056423,0.07565215,0.65034825,-1.1856552,0.049459446,0.97023153,1.0,0.0,0.0,0.0,0.0,0.0,0.0,-3.2865357,0.11583671,-0.4503426,-0.08375645,1.1860609,5.0694866,-8.266044,1.1155844,-0.703454,-0.17653108
24.06494,66.98457,21.191917,0.5955248,-0.8846262,0.6210197,0.4290238,-0.78491765,0.764973,0.04504641,0.29885206,0.66039306,0.6733954,-0.53537387,1.4679737,-0.8383552,-1.8408043,-0.87400484,2.1668751,1.3426449,-1.0254364,1.5323664,-0.90135515,-1.8446395,-0.8974146,2.1100483,1.2804495,-0.9759473,-1.409895,1.3531464,0.07800268,0.62107074,0.92438203,0.51350164,-0.4051258,2.6029434,-0.516737,1.0357281,-3.358613,-0.089996494,3.5131087,0.30361938,-0.56313705,0.84304696,0.76226217,0.024540853,0.07425416,0.6425265,-1.1454142,0.120023906,0.9529769,1.0,0.0,0.0,0.0,0.0,0.0,0.0,-3.2529435,0.11673698,-0.48572809,-0.0029325485,1.3530254,4.3939486,-10.611224,1.2573719,-0.3432989,-0.10193586
28.904621,64.87486,20.578815,-3.017417,-1.2362375,0.35202804,0.53875035,-0.7834414,0.7710812,0.07193994,0.19651598,0.6693357,0.67006993,-0.5319751,1.4540223,-0.824247,-1.8374455,-0.87776303,2.176982,1.3474565,-1.0291449,1.5182921,-0.88771665,-1.8435695,-0.8922524,2.1193905,1.2855517,-0.9799766,-1.4072585,1.3673296,0.11793263,0.48046297,0.9376252,0.51011693,-0.40295348,2.5693817,-0.51763725,1.0700964,-3.3552551,-0.08990651,3.4114106,0.29254913,-0.5614834,0.85239017,0.76875955,0.016196426,0.07299587,0.63515186,-1.0892144,0.19332285,0.9251613,1.0,0.0,0.0,0.0,0.0,0.0,0.0,-3.2193818,0.11763725,-0.52009636,0.09338856,1.4198542,4.3827934,-14.313519,1.3282657,-0.05981922,-0.038146973
35.25804,65.58971,21.527987,-6.5770993,-1.5405507,0.20634153,0.7124259,-0.77982724,0.776224,0.14438012,0.08308052,0.6827948,0.66082346,-0.5172954,1.4403093,-0.81009424,-1.8291315,-0.88394433,2.18767,1.351634,-1.0317061,1.5042578,-0.87394655,-1.8418701,-0.88876957,2.1288815,1.2906233,-0.98397344,-1.4027205,1.3802915,0.18833339,0.30339897,0.95313805,0.507525,-0.39941216,2.5358505,-0.5185356,1.1034485,-3.3519006,-0.08981662,3.309814,0.28217316,-0.559042,0.8614284,0.774507,0.008081193,0.07185321,0.6284191,-1.0177202,0.273073,0.89334273,1.0,0.0,0.0,0.0,0.0,0.0,0.0,-3.1858506,0.11853561,-0.5534485,0.30109882,1.3215542,7.391584,-17.93701,1.5858889,0.10511875,0.11895895
32.87581,64.06823,20.561985,-4.884162,-1.4020051,0.08552103,0.63393384,-0.7748834,0.7854107,0.14803678,0.04484945,0.6840762,0.6607818,-0.50593716,1.4267695,-0.7954055,-1.8270664,-0.8842846,2.197289,1.3567015,-1.0345671,1.4902884,-0.86004007,-1.8395622,-0.8868908,2.138506,1.295674,-0.9879274,-1.3955758,1.3942702,0.2457692,0.14878476,0.9661728,0.5055198,-0.39462334,2.5023499,-0.51943207,1.1357855,-3.3485494,-0.08972682,3.2083192,0.2724762,-0.55586433,0.87016076,0.7795429,0.00019924129,0.070833266,0.6223306,-0.9485171,0.3433188,0.8629324,1.0,0.0,0.0,0.0,0.0,0.0,0.0,-3.15235,0.11943206,-0.58578545,0.5999327,1.4447689,5.9725432,-15.654648,1.4027953,0.16331673,0.2911508
25.724667,60.199966,18.517614,-0.54900646,-0.96231806,0.013207212,0.45820126,-0.7731179,0.7834394,0.15278316,0.030876324,0.67961204,0.6565034,-0.48356092,1.4129766,-0.78169614,-1.8242838,-0.8838032,2.2064672,1.3613243,-1.0362835,1.4763876,-0.8460363,-1.836827,-0.8861813,2.1482182,1.3007036,-0.99181837,-1.3884369,1.4025693,0.28299668,0.04442364,0.9738264,0.5030164,-0.38777846,2.468895,-0.5203285,1.1671082,-3.3452015,-0.08963711,3.1069257,0.26337433,-0.55210304,0.87862134,0.7840261,-0.007487127,0.06993769,0.61672986,-0.8933277,0.3962864,0.836347,1.0,0.0,0.0,0.0,0.0,0.0,0.0,-3.118895,0.120328516,-0.61710817,0.62835217,0.892663,3.8376093,-10.609404,0.92206,0.06297827,0.53259134
25.57564,57.270065,17.483473,-1.3482571,-1.0008818,-0.14884369,0.4814336,-0.77785534,0.7859087,0.1895549,-0.080903515,0.6888491,0.65590453,-0.47798327,1.3986021,-0.76744545,-1.8178716,-0.8942717,2.217103,1.3662941,-1.0396167,1.4625212,-0.83197343,-1.8337104,-0.8866181,2.1580105,1.3057104,-0.99563974,-1.3864162,1.407774,0.32149255,-0.07354932,0.9816248,0.50101817,-0.38077614,2.4354706,-0.521225,1.1974176,-3.341857,-0.089547485,3.0056336,0.25483704,-0.547842,0.88677484,0.78799695,-0.014937279,0.06917018,0.61159885,-0.83478534,0.4450437,0.80403334,1.0,0.0,0.0,0.0,0.0,0.0,0.0,-3.0854707,0.12122497,-0.6474176,0.1276493,0.5968094,3.922826,-11.960291,0.95558167,0.140059,0.5747199
28.68616,56.67309,17.641981,-3.2751198,-1.1835074,-0.29407415,0.5618772,-0.7690623,0.78932035,0.2316368,-0.17331445,0.68898183,0.65130687,-0.45316502,1.385615,-0.7530414,-1.8105468,-0.9039495,2.2269087,1.3708411,-1.0409563,1.4486986,-0.81786764,-1.8301265,-0.8883595,2.1678638,1.3106982,-0.9993791,-1.3810436,1.4118708,0.37076178,-0.2081122,0.9873414,0.4993101,-0.37200198,2.4020767,-0.5221214,1.226715,-3.3385158,-0.08945795,2.9044428,0.24694061,-0.54307365,0.89458096,0.79141575,-0.022106655,0.06853613,0.6070215,-0.76706845,0.49487638,0.7683025,1.0,0.0,0.0,0.0,0.0,0.0,0.0,-3.0520768,0.12212142,-0.67671496,0.4885912,0.50251484,4.94296,-13.595399,0.7797599,0.21387339,0.7756591
34.03689,59.94357,19.661665,-5.4669356,-1.4085479,-0.30608574,0.71409553,-0.7594664,0.7930899,0.31647006,-0.2694737,0.6867523,0.63997144,-0.41944277,1.372752,-0.73855865,-1.7984796,-0.91530687,2.2365391,1.3746953,-1.0413234,1.4349676,-0.803718,-1.8257568,-0.89159435,2.1777515,1.3156668,-1.003011,-1.3704906,1.4164382,0.45889023,-0.36213842,0.9904964,0.4973183,-0.3606285,2.3687134,-0.52301407,1.2550012,-3.335178,-0.08936851,2.8033533,0.23982239,-0.5377426,0.90205127,0.79417884,-0.02900899,0.067993715,0.60317105,-0.6888078,0.55319405,0.7352512,1.0,0.0,0.0,0.0,0.0,0.0,0.0,-3.0187135,0.12301406,-0.7050012,1.0448933,0.56803226,8.748227,-15.49086,0.5812049,0.23751259,1.0634422
32.281082,62.271996,20.711815,-2.9228315,-1.181084,-0.18656425,0.6934665,-0.75385123,0.7952923,0.3763067,-0.29646796,0.68417025,0.63459975,-0.37119448,1.3595825,-0.72418875,-1.7881261,-0.92124116,2.2461686,1.3791268,-1.0401304,1.4213587,-0.7895225,-1.8203533,-0.896151,2.1876583,1.3206106,-1.0065033,-1.3576831,1.4210403,0.5670391,-0.48700213,0.9916684,0.49486637,-0.34544355,2.3353806,-0.5239067,1.2822772,-3.3318434,-0.08927915,2.702365,0.2334137,-0.5318279,0.90927327,0.79627854,-0.035741102,0.067470886,0.60009223,-0.61834973,0.6105904,0.7127089,1.0,0.0,0.0,0.0,0.0,0.0,0.0,-2.9853806,0.1239067,-0.7322772,1.2980461,0.58743954,10.64893,-12.538177,0.45936108,0.17158389,1.4675498
29.429571,64.49276,21.69254,0.6438112,-0.8507537,-0.025247827,0.6394636,-0.74047345,0.7962489,0.4448109,-0.30974254,0.68622243,0.6359689,-0.31203637,1.3473114,-0.70989764,-1.7758722,-0.9271253,2.2562807,1.3842075,-1.037707,1.4079176,-0.77528703,-1.8137596,-0.9016251,2.1975765,1.3255316,-1.0098088,-1.3394744,1.4248707,0.6894833,-0.5676328,0.99343497,0.49255744,-0.32579017,2.3020935,-0.52479935,1.3085442,-3.3285122,-0.08918989,2.6014774,0.22760773,-0.52534485,0.9163685,0.7977575,-0.042448893,0.06688389,0.59775215,-0.5599654,0.6661284,0.7029879,1.0,0.0,0.0,0.0,0.0,0.0,0.0,-2.9520936,0.12479934,-0.75854415,1.862359,0.5266905,11.977947,-8.089649,0.5930543,0.15927553,1.9292474
16.645681,64.56399,20.904871,10.594559,0.050177395,0.317044,0.34027857,-0.7392119,0.7978174,0.47734007,-0.2161341,0.67057747,0.63302714,-0.21411017,1.3339964,-0.69550526,-1.7660255,-0.9232385,2.2646344,1.3888344,-1.0312198,1.3946291,-0.7610172,-1.8060615,-0.9071211,2.2074642,1.330424,-1.0128605,-1.3250654,1.4282485,0.795462,-0.543849,0.9890526,0.48917645,-0.29846936,2.268837,-0.525692,1.333803,-3.3251843,-0.08910071,2.5006907,0.22211456,-0.518404,0.923536,0.7988143,-0.049367,0.06616325,0.59588677,-0.53863406,0.70820093,0.71542966,1.0,0.0,0.0,0.0,0.0,0.0,0.0,-2.918837,0.12569198,-0.78380305,1.4507055,0.4980564,10.271239,2.3159623,0.043344498,-0.060480833,2.6870847
1.4173727,57.138412,16.931084,19.333214,0.93616635,0.4365272,-0.021119654,-0.75621116,0.7904653,0.46751013,-0.13842604,0.66887665,0.6426579,-0.19303791,1.319008,-0.68197066,-1.7593105,-0.9209637,2.2743518,1.3946898,-1.0321643,1.3813597,-0.7467588,-1.7976596,-0.91177887,2.2173023,1.3352877,-1.0156453,-1.3278867,1.4256204,0.85415953,-0.4401884,0.98342144,0.48580727,-0.27190277,2.235611,-0.5265808,1.3580548,-3.3218598,-0.089011624,2.4000046,0.2165451,-0.5112171,0.9308834,0.7997388,-0.056631338,0.06529766,0.5940934,-0.55358785,0.72725844,0.7350553,1.0,0.0,0.0,0.0,0.0,0.0,0.0,-2.885611,0.1265808,-0.80805475,-0.34544468,-0.1036644,5.595958,10.223537,-0.1057148,-0.18559694,2.5915444
-7.655298,53.684383,14.860604,25.127924,1.4555657,0.54839385,-0.2590849,-0.7625105,0.7940533,0.47409457,-0.05297502,0.66364187,0.63965344,-0.16113603,1.3051087,-0.6673535,-1.7502502,-0.91707635,2.2836666,1.399253,-1.0317589,1.3679892,-0.73251855,-1.7889297,-0.91499466,2.2270718,1.3401133,-1.0181668,-1.340451,1.4240149,0.8786676,-0.28274012,0.97636884,0.48163116,-0.24576122,2.2024155,-0.52746964,1.3813004,-3.3185387,-0.08892263,2.2994194,0.2106781,-0.5039234,0.9384814,0.8007529,-0.06432617,0.06431304,0.5920479,-0.5912868,0.7351738,0.7616858,1.0,0.0,0.0,0.0,0.0,0.0,0.0,-2.8524156,0.12746963,-0.83130044,-1.3661385,-0.0034332275,2.2122025,15.564001,-0.2661109,-0.35578012,2.5423527
-14.700953,48.258648,12.313268,28.834234,1.8350737,0.5678928,-0.45171443,-0.7783143,0.7875408,0.46444902,0.04473302,0.6608706,0.6546954,-0.18676396,1.2901578,-0.6537645,-1.7424848,-0.9105213,2.2931588,1.4055828,-1.0368432,1.3544127,-0.71832216,-1.7801826,-0.9164004,2.2367725,1.3449084,-1.0204728,-1.3639163,1.4186411,0.87292856,-0.09387095,0.9693276,0.4786222,-0.2259269,2.1692505,-0.52835846,1.403541,-3.3152208,-0.08883372,2.1989348,0.20429993,-0.49662971,0.94634634,0.8020187,-0.07249053,0.063227616,0.5895027,-0.6454932,0.73256785,0.7883053,1.0,0.0,0.0,0.0,0.0,0.0,0.0,-2.8192506,0.12835845,-0.85354096,-2.4915934,-0.39019585,-0.7711649,18.676067,-0.29215813,-0.31126738,1.9077182
-16.841768,46.09462,11.267602,30.136307,1.916911,0.5515796,-0.5431225,-0.78602916,0.78999054,0.44399372,0.14751889,0.6593085,0.65473664,-0.18750049,1.2758098,-0.6393231,-1.7357832,-0.90164846,2.3027034,1.410382,-1.0392228,1.340592,-0.70416486,-1.771672,-0.9158129,2.2464123,1.3496748,-1.022609,-1.3887061,1.4152867,0.8431596,0.10883997,0.9633851,0.47565252,-0.20977364,2.1361237,-0.5292473,1.4247774,-3.3119063,-0.0887449,2.0985506,0.19734192,-0.4893875,0.9544743,0.803623,-0.08113331,0.062074963,0.5863054,-0.7047252,0.72801214,0.8144421,1.0,0.0,0.0,0.0,0.0,0.0,0.0,-2.7861238,0.12924728,-0.8747774,-2.627802,-0.20287037,-3.1509519,20.067966,-0.20292997,-0.35558343,1.5415847
-13.875414,42.699116,10.188054,26.779669,1.6153696,0.33381253,-0.4938969,-0.7981105,0.7845786,0.42336848,0.19313191,0.66321325,0.66222805,-0.2320395,1.2607809,-0.62570703,-1.7293352,-0.8964997,2.3127337,1.4158976,-1.045813,1.3265215,-0.69005525,-1.7635581,-0.9134602,2.2560177,1.3544203,-1.0246384,-1.4137367,1.4098592,0.8003998,0.27683714,0.96041334,0.47403517,-0.20100582,2.103035,-0.5301342,1.4450107,-3.3085952,-0.08865617,1.9982666,0.18988037,-0.48218536,0.9627694,0.8055478,-0.09015767,0.060904976,0.5824559,-0.7521362,0.7245565,0.8279366,1.0,0.0,0.0,0.0,0.0,0.0,0.0,-2.753035,0.1301342,-0.89501065,-2.6414394,-0.43268204,-4.400778,16.610565,0.04184246,-0.20102859,0.80477
-3.186514,41.280987,10.367633,17.641432,0.7427911,-0.09261087,-0.23191689,-0.8022747,0.78045195,0.42179888,0.15830384,0.65788454,0.65805477,-0.26025507,1.246294,-0.61201006,-1.7213782,-0.8976298,2.3218062,1.4202257,-1.050664,1.3122469,-0.67601144,-1.7558124,-0.91011184,2.2655811,1.3591543,-1.0266201,-1.4325603,1.4029266,0.7659171,0.35357523,0.95608747,0.47353214,-0.19743738,2.0699768,-0.5310192,1.4642419,-3.3052874,-0.08856753,1.8980827,0.18219757,-0.4749565,0.97102845,0.80762655,-0.09933417,0.05981033,0.57818234,-0.763527,0.7299609,0.8187007,1.0,0.0,0.0,0.0,0.0,0.0,0.0,-2.719977,0.1310192,-0.91424185,-1.99399,-0.6125212,-3.4760118,7.512373,-0.18763542,0.024819374,0.2785325
4.7883716,43.09276,11.601066,11.945467,0.16010058,-0.3170256,-0.028061748,-0.8034585,0.7819861,0.4239551,0.16980466,0.6584441,0.6607587,-0.24591598,1.231901,-0.59781283,-1.7134169,-0.8931314,2.3314254,1.4252303,-1.0512117,1.2978445,-0.6620172,-1.7482936,-0.9064049,2.2751102,1.3638903,-1.0285676,-1.4431682,1.39844,0.747345,0.37600008,0.95231235,0.4742892,-0.19400235,2.0369492,-0.5319042,1.4824721,-3.3019826,-0.08847898,1.7979991,0.1745987,-0.4676056,0.9791214,0.809684,-0.108509086,0.05884499,0.5737376,-0.75069386,0.74424636,0.799672,1.0,0.0,0.0,0.0,0.0,0.0,0.0,-2.6869493,0.13190421,-0.93247205,-1.1512041,-0.385952,-1.8178701,2.1096706,-0.19671917,0.22082925,0.25534332
9.881028,42.457664,11.605075,7.707043,-0.24435437,-0.5764789,0.09850776,-0.8024359,0.7793489,0.40165105,0.1652046,0.6569765,0.66064036,-0.22421156,1.217601,-0.58408237,-1.7081286,-0.8898845,2.340808,1.4299543,-1.0509887,1.2833945,-0.648064,-1.7409675,-0.9027552,2.284605,1.3686396,-1.0304692,-1.4457909,1.3945386,0.72802055,0.36083543,0.948722,0.47579232,-0.18907158,2.003952,-0.53278923,1.4997021,-3.2986813,-0.08839052,1.6980155,0.16725922,-0.4601059,0.9869539,0.81161255,-0.11756238,0.058057457,0.56929207,-0.71974206,0.75994796,0.7713185,1.0,0.0,0.0,0.0,0.0,0.0,0.0,-2.6539521,0.13278922,-0.9497021,-0.33240318,-0.334239,-1.8632293,-1.6358972,-0.21915436,0.35520792,0.4042238
10.197975,45.44798,12.765099,8.853252,-0.2265448,-0.5007462,0.11283449,-0.80410194,0.7855229,0.40378687,0.20749539,0.64889485,0.66140413,-0.16382636,1.2029842,-0.5695117,-1.7005888,-0.8820057,2.3494945,1.43478,-1.0468519,1.2689444,-0.63410795,-1.7337654,-0.8991522,2.2940464,1.3734041,-1.0322793,-1.4449308,1.396223,0.7179267,0.35975364,0.9429561,0.47707555,-0.17863105,1.9709854,-0.53367233,1.515933,-3.2953832,-0.08830215,1.5981318,0.16020966,-0.45240784,0.9945593,0.8133759,-0.12652773,0.057455875,0.56489754,-0.69055897,0.7803715,0.7505724,1.0,0.0,0.0,0.0,0.0,0.0,0.0,-2.6209855,0.13367233,-0.965933,0.021028519,0.2235651,-0.9454608,-0.20753145,-0.42760372,0.30585527,0.9521544
9.960269,42.908726,11.907799,8.339325,-0.20904422,-0.61069334,0.13939816,-0.8092963,0.77689683,0.39267382,0.1948523,0.65019745,0.66146785,-0.10628112,1.1880147,-0.55641824,-1.694498,-0.879667,2.3590662,1.4395509,-1.0429074,1.2544905,-0.6201643,-1.7266643,-0.8956055,2.3034382,1.3781801,-1.0339463,-1.4456431,1.3939686,0.7076439,0.35272574,0.9386523,0.47825912,-0.16307388,1.9380493,-0.5345535,1.5311658,-3.2920885,-0.08821387,1.498348,0.15345764,-0.4445305,1.001935,0.81495917,-0.13539624,0.057030868,0.56058604,-0.6602774,0.7967631,0.72682846,1.0,0.0,0.0,0.0,0.0,0.0,0.0,-2.5880494,0.13455352,-0.9811658,-0.1357317,-0.16846657,-0.9633064,-0.80687404,-0.28395653,0.30388236,1.4660567
10.027412,44.19687,12.458761,9.050306,-0.17743963,-0.5867039,0.17482524,-0.8062759,0.78129214,0.39627165,0.20629223,0.6455307,0.66002995,0.012398494,1.1738629,-0.54203504,-1.6870371,-0.8749763,2.3679912,1.4441831,-1.0327064,1.2400442,-0.60622346,-1.7196186,-0.89206165,2.3127842,1.3829619,-1.0353787,-1.4444354,1.3943642,0.70390725,0.35460344,0.93408346,0.47891983,-0.13697578,1.905159,-0.5354347,1.5454016,-3.2887971,-0.088125676,1.3986639,0.1470108,-0.43647003,1.0091059,0.81633586,-0.14419162,0.056772895,0.5564003,-0.6313773,0.8154464,0.7074997,1.0,0.0,0.0,0.0,0.0,0.0,0.0,-2.555159,0.13543472,-0.99540156,0.05943775,0.096964836,-0.31317472,0.09564161,-0.300169,0.2348125,2.517888
5.6282864,42.486855,11.620872,12.748999,0.1496957,-0.4877677,0.06635154,-0.8106995,0.78050286,0.37197223,0.26519158,0.6325276,0.6633303,0.09882837,1.1589743,-0.5281732,-1.6824213,-0.8655425,2.376037,1.4492949,-1.0254959,1.2255884,-0.5922779,-1.7126987,-0.88820976,2.3220615,1.3877493,-1.0365002,-1.446053,1.3947735,0.6882141,0.39509675,0.9261046,0.47921923,-0.10424183,1.8722992,-0.5363159,1.5586412,-3.285509,-0.08803757,1.2990794,0.14073181,-0.42824936,1.0161406,0.81755495,-0.15300377,0.056676224,0.55225116,-0.6170192,0.8309714,0.69570214,1.0,0.0,0.0,0.0,0.0,0.0,0.0,-2.5222993,0.13631591,-1.0086412,-0.24249554,0.1057148,-1.5398026,3.9405882,-0.601244,0.14545918,3.1837761
3.5266047,40.958157,11.283057,14.94496,0.38732737,-0.41705525,0.036422275,-0.8049734,0.77063847,0.37607118,0.31022996,0.6187514,0.66154,0.19659074,1.145091,-0.515214,-1.6750916,-0.8571868,2.3839366,1.4539033,-1.0168412,1.2111441,-0.57837427,-1.7059028,-0.88374084,2.3312283,1.3925368,-1.0372479,-1.4443324,1.3891326,0.67685,0.46379358,0.91406024,0.47889155,-0.06510465,1.8394699,-0.5371971,1.5708858,-3.2822242,-0.08794956,1.1995946,0.13452148,-0.4198742,1.0230972,0.81864136,-0.16192695,0.056704305,0.54807895,-0.6121634,0.8455348,0.6891753,1.0,0.0,0.0,0.0,0.0,0.0,0.0,-2.48947,0.1371971,-1.0208857,0.094127655,-0.49769878,-1.124227,6.75658,-0.9920597,0.046259165,3.8166404
1.4205503,38.186954,10.233518,16.29543,0.5355375,-0.4303112,-0.028800406,-0.805145,0.7658157,0.35128105,0.35295618,0.60992914,0.65928507,0.22718687,1.1306295,-0.50179267,-1.6707747,-0.84844524,2.3922212,1.4584652,-1.0145292,1.1967169,-0.56455076,-1.6993034,-0.87846607,2.3402615,1.3973185,-1.0376122,-1.4424335,1.3803077,0.6543133,0.54831934,0.9004843,0.4780328,-0.027260846,1.8066711,-0.5380745,1.5821363,-3.2789426,-0.08786163,1.1002092,0.12830353,-0.41137695,1.0299956,0.8196311,-0.17100109,0.05684588,0.5438124,-0.61360997,0.856831,0.68355423,1.0,0.0,0.0,0.0,0.0,0.0,0.0,-2.4566712,0.13807449,-1.0321362,0.10726452,-0.81636906,-2.2503972,8.330393,-1.1383057,-0.028830767,3.688189
1.893403,32.027996,7.7838955,13.244447,0.3426268,-0.74398685,-0.022909,-0.8101502,0.7560942,0.30205306,0.33290985,0.60243684,0.65716773,0.2528732,1.1157019,-0.48894134,-1.6690981,-0.8451751,2.400505,1.4630352,-1.0123249,1.182284,-0.5508503,-1.6931274,-0.8726029,2.3491573,1.4020926,-1.0376179,-1.4440457,1.3668606,0.6054509,0.5985709,0.8867672,0.47749862,0.008069736,1.7739029,-0.5389519,1.5923936,-3.2756643,-0.08777378,1.0009233,0.122169495,-0.4028473,1.0367372,0.8205599,-0.18008707,0.057169404,0.5394272,-0.6052055,0.8577743,0.66452324,1.0,0.0,0.0,0.0,0.0,0.0,0.0,-2.423903,0.13895187,-1.0423937,-0.24192333,-1.279974,-4.8731804,4.8884034,-1.1771798,0.057899952,3.4521136
4.1543465,28.107872,6.330818,9.308315,0.036713123,-1.0487186,0.046917114,-0.81154776,0.7452305,0.27513596,0.30867025,0.5841422,0.6548823,0.2970613,1.1011292,-0.4763272,-1.6656138,-0.84173584,2.4075716,1.4675808,-1.0079118,1.1678244,-0.5373138,-1.6875122,-0.8665623,2.3578892,1.4068629,-1.0372765,-1.446995,1.3493876,0.5468647,0.6054723,0.86910313,0.47748095,0.042536736,1.7411652,-0.53982925,1.6016589,-3.2723894,-0.08768602,0.90173656,0.11620331,-0.3943615,1.043197,0.82142305,-0.1890005,0.05776123,0.53498286,-0.5822126,0.8515931,0.6333921,1.0,0.0,0.0,0.0,0.0,0.0,0.0,-2.3911653,0.13982925,-1.0516589,-0.36177635,-1.6864061,-5.824089,0.55407286,-1.6094565,0.17609596,3.3745403
9.241219,24.957745,5.3554063,2.7305002,-0.4600307,-1.467424,0.21523732,-0.8094665,0.72925586,0.25814322,0.2281958,0.5749267,0.6587002,0.32898745,1.0868777,-0.46438822,-1.6616979,-0.8437427,2.415382,1.4727329,-1.0043777,1.1533476,-0.52399576,-1.68245,-0.8609833,2.3664417,1.4116427,-1.0366051,-1.4480255,1.3262026,0.49278066,0.5416911,0.8508902,0.47898456,0.0752629,1.7084656,-0.54070663,1.6099331,-3.2691176,-0.087598346,0.80264896,0.11067963,-0.38599014,1.0492197,0.8221612,-0.19750506,0.058688875,0.5306583,-0.53443795,0.83721066,0.5858479,1.0,0.0,0.0,0.0,0.0,0.0,0.0,-2.3584657,0.14070663,-1.0599332,-0.12814999,-2.2607565,-5.344468,-6.493306,-1.7360568,0.43091178,3.2104359
13.939965,24.73214,5.467533,-2.3486748,-0.87794024,-1.7733719,0.3790718,-0.80615884,0.7170581,0.25324625,0.14979722,0.55898416,0.6513657,0.37634453,1.0727317,-0.45228994,-1.6571255,-0.8460036,2.4223402,1.4767792,-0.9989707,1.1388861,-0.5109228,-1.6778038,-0.8564543,2.374796,1.4164358,-1.0356057,-1.4455526,1.3011167,0.4554002,0.4230931,0.83029,0.48046234,0.10792223,1.6758041,-0.5415821,1.6172172,-3.265849,-0.087510765,0.7036605,0.105773926,-0.37779808,1.0546947,0.82269424,-0.20540948,0.059993867,0.52667046,-0.4660669,0.81872815,0.52900153,1.0,0.0,0.0,0.0,0.0,0.0,0.0,-2.3258042,0.1415821,-1.0672171,0.27205944,-2.452445,-3.6609888,-11.936217,-2.0358205,0.49228668,3.2130375
12.95878,23.993847,5.219882,-1.3489242,-0.78293145,-1.8035733,0.34839624,-0.8016069,0.7049746,0.22271307,0.14211415,0.53662205,0.65618944,0.41946882,1.0587254,-0.44042534,-1.6555325,-0.8422429,2.4284582,1.4820548,-0.9936588,1.1244761,-0.49809968,-1.6735332,-0.8530249,2.3829136,1.4212443,-1.034282,-1.4394367,1.2761958,0.41784874,0.31595653,0.80591464,0.48201588,0.14029989,1.6431732,-0.5424557,1.623512,-3.262584,-0.08742327,0.60477096,0.10152435,-0.36979675,1.0596316,0.82302934,-0.21269846,0.061679587,0.5230464,-0.4013159,0.7976483,0.47661793,1.0,0.0,0.0,0.0,0.0,0.0,0.0,-2.2931733,0.14245567,-1.0735121,0.6556988,-2.4283886,-3.7231803,-10.779858,-2.398932,0.47047734,3.1930625
9.458302,22.551846,4.571623,2.063942,-0.48754764,-1.7360108,0.2269392,-0.80040646,0.6948536,0.1794516,0.13927342,0.51769865,0.64616627,0.4555607,1.0444354,-0.42861432,-1.655588,-0.83909756,2.4346836,1.485861,-0.9887259,1.1101271,-0.4855088,-1.6697338,-0.8504061,2.3907757,1.4260565,-1.0326436,-1.4332515,1.2536056,0.3674003,0.24364237,0.779935,0.48183265,0.17167981,1.6105728,-0.54332924,1.6288188,-3.2593222,-0.08733587,0.5059803,0.097831726,-0.36201477,1.0641074,0.82324195,-0.21945183,0.063734844,0.51966465,-0.3499076,0.77472526,0.4330293,1.0,0.0,0.0,0.0,0.0,0.0,0.0,-2.260573,0.14332923,-1.0788188,0.6474972,-2.1873236,-5.0543785,-7.313344,-2.5188684,0.24009943,3.0971198
5.114766,19.124683,3.1762621,5.682514,-0.1357336,-1.6842568,0.069204755,-0.7991723,0.68145454,0.12024889,0.13645399,0.5013894,0.6437226,0.4739089,1.0302099,-0.41736335,-1.6577089,-0.8367607,2.4409146,1.4904288,-0.9852527,1.0958315,-0.4731406,-1.6666172,-0.8482365,2.3983822,1.4308611,-1.0307114,-1.4283739,1.2314448,0.2928237,0.20772497,0.7544453,0.48069242,0.20031005,1.5780029,-0.5442028,1.6331383,-3.2560635,-0.08724856,0.4072885,0.09453583,-0.35448837,1.0681993,0.82344186,-0.22575219,0.066152975,0.5163362,-0.31407645,0.7474546,0.39663994,1.0,0.0,0.0,0.0,0.0,0.0,0.0,-2.228003,0.1442028,-1.0831382,0.4887104,-2.1382809,-7.495493,-3.7066908,-2.431488,0.09288192,2.8212965
2.4379182,15.295048,1.7255741,7.3190694,0.038422883,-1.7185144,-0.028423496,-0.79539704,0.66470355,0.06197532,0.11727652,0.46763974,0.64308286,0.50412935,1.0162919,-0.40667024,-1.6604196,-0.83650887,2.445146,1.4951694,-0.98029846,1.0815855,-0.46101177,-1.6643989,-0.8463034,2.4056835,1.4356524,-1.0285046,-1.4233303,1.2069696,0.19810891,0.1879974,0.7227721,0.4792343,0.227539,1.5454636,-0.54507446,1.6364717,-3.252808,-0.08716133,0.30869535,0.091537476,-0.34727287,1.0719419,0.82372296,-0.23162745,0.06895977,0.51290715,-0.28603557,0.7148911,0.36251652,1.0,0.0,0.0,0.0,0.0,0.0,0.0,-2.1954637,0.14507446,-1.0864718,0.49934387,-2.3667574,-9.530836,-2.1074681,-3.0348659,0.039708614,2.6810467
-0.011839867,12.016825,0.5165945,9.004583,0.2147088,-1.7296649,-0.11954092,-0.7919796,0.649132,-0.0035520217,0.11753117,0.4385409,0.6433401,0.5222251,1.0023875,-0.39609855,-1.6647542,-0.83455026,2.4495375,1.4999864,-0.9762821,1.067393,-0.44914234,-1.6632545,-0.84444946,2.4126377,1.4404284,-1.0260403,-1.4180865,1.1805545,0.08621076,0.18397634,0.6867464,0.4776947,0.25242034,1.5129547,-0.5459442,1.6388199,-3.2495558,-0.08707418,0.21020077,0.088760376,-0.34040833,1.0753614,0.824157,-0.23709755,0.07217381,0.50925523,-0.26595753,0.678395,0.33118576,1.0,0.0,0.0,0.0,0.0,0.0,0.0,-2.1629548,0.14594421,-1.08882,0.51255226,-2.5605917,-11.263063,-0.5542934,-3.4584403,0.008893013,2.442211
-3.5166216,4.7811804,-2.1994863,10.099881,0.44167012,-1.8477126,-0.24340543,-0.79335076,0.62640023,-0.111662276,0.11715253,0.41779974,0.6439784,0.5401286,0.98805785,-0.38650233,-1.6744207,-0.8327342,2.4544177,1.5048262,-0.9720275,1.0532328,-0.43758047,-1.6635025,-0.8425774,2.4192333,1.445191,-1.0233433,-1.4153718,1.1483015,-0.06205808,0.18777096,0.6510172,0.4763098,0.2752516,1.480484,-0.54681396,1.6401838,-3.246307,-0.08698712,0.11180467,0.086135864,-0.33399582,1.0784525,0.8248506,-0.2421266,0.07582679,0.5052191,-0.2548696,0.63010085,0.29823038,1.0,0.0,0.0,0.0,0.0,0.0,0.0,-2.130484,0.14681396,-1.0901837,0.26586056,-3.1448603,-14.926002,0.20477772,-3.4256458,0.013577938,2.2369385
-4.13207,-0.7613702,-3.9509068,8.598076,0.4368654,-2.0186517,-0.24153636,-0.7932085,0.59414285,-0.17765103,0.07878378,0.3684504,0.6453252,0.5491624,0.97391194,-0.37816617,-1.6812675,-0.83469903,2.4560783,1.5097235,-0.96842706,1.0390879,-0.42642486,-1.665261,-0.8408255,2.425394,1.4499422,-1.0204384,-1.4139507,1.1049706,-0.2142897,0.17052613,0.6050525,0.47546595,0.2954262,1.4480515,-0.5476837,1.6405646,-3.2430613,-0.08690015,0.013506939,0.08362579,-0.32813835,1.0811664,0.8258526,-0.2466203,0.07994384,0.5007544,-0.24230875,0.57182306,0.2593882,1.0,0.0,0.0,0.0,0.0,0.0,0.0,-2.0980515,0.14768371,-1.0905645,0.18498898,-4.251814,-15.354568,-1.8820167,-4.472661,0.08562207,1.9734979
-1.609899,-1.8400011,-3.9845195,4.9906573,0.15512899,-2.200598,-0.12186617,-0.7932961,0.56531435,-0.21538414,0.005998865,0.30613348,0.6477233,0.54604805,0.9597583,-0.36989343,-1.6867994,-0.84022564,2.4560075,1.5147146,-0.9658336,1.0249525,-0.41575658,-1.6683547,-0.83958954,2.4309826,1.4546915,-1.0173581,-1.4130961,1.0544151,-0.34148753,0.10763443,0.5437437,0.4753679,0.3120837,1.4156494,-0.54855347,1.6399632,-3.2398188,-0.08681327,-0.084692515,0.081336975,-0.3229046,1.0834302,0.82712525,-0.2504514,0.08454855,0.49597326,-0.2169588,0.5089468,0.21283844,1.0,0.0,0.0,0.0,0.0,0.0,0.0,-2.0656495,0.14855346,-1.0899632,0.19040108,-4.970908,-12.86456,-6.398915,-6.054938,0.19037724,1.6247451
3.0234532,1.5975084,-1.6829324,1.7383783,-0.079097986,-2.2184548,0.12386724,-0.7812454,0.5210368,-0.17063272,-0.06276247,0.228416,0.65176487,0.56336915,0.946828,-0.3636529,-1.685418,-0.8458658,2.4538243,1.519868,-0.9610211,1.010882,-0.40569437,-1.6721141,-0.8392691,2.4358158,1.4594446,-1.0141194,-1.404684,0.9904618,-0.38793585,0.0066335523,0.46319216,0.47604498,0.3275925,1.3832779,-0.5494194,1.6383804,-3.2365797,-0.08672648,-0.18279378,0.07940674,-0.31825256,1.0852046,0.8285079,-0.25357997,0.08955852,0.4911731,-0.17891996,0.45072314,0.16350436,1.0,0.0,0.0,0.0,0.0,0.0,0.0,-2.033278,0.1494194,-1.0883803,1.0017395,-6.3046455,-4.8001823,-10.143998,-8.014477,0.28672218,1.5120804
9.529409,7.6165495,1.6278955,-2.9342227,-0.402371,-2.2646022,0.4473188,-0.7706932,0.47886202,-0.08975198,-0.1818769,0.18207426,0.658813,0.559878,0.9338127,-0.35780817,-1.6810893,-0.8574568,2.4540231,1.5253259,-0.9581316,0.99694455,-0.39634073,-1.6756084,-0.8403782,2.4398212,1.4642111,-1.0107472,-1.3894879,0.917314,-0.3373217,-0.15000243,0.3798939,0.4776064,0.34045497,1.3509369,-0.55028534,1.6358174,-3.2333436,-0.08663978,-0.28079697,0.07802582,-0.3141384,1.0864476,0.82976985,-0.25597352,0.09479929,0.48679835,-0.12225021,0.39809567,0.109440394,1.0,0.0,0.0,0.0,0.0,0.0,0.0,-2.000937,0.15028533,-1.0858173,1.7318726,-7.2131634,4.8840404,-15.632611,-8.313662,0.38804412,1.2654364
13.281351,13.913598,4.5010424,-4.6516304,-0.6281583,-2.192193,0.63557833,-0.77196974,0.44609034,-0.0103803845,-0.27734032,0.101727575,0.66777956,0.5527525,0.9197476,-0.3517317,-1.6766465,-0.86811227,2.449994,1.530989,-0.95547193,0.98313534,-0.3877133,-1.6780517,-0.8432583,2.442915,1.4689986,-1.0072663,-1.3773391,0.84490216,-0.2140047,-0.3338772,0.2857504,0.4797642,0.35046333,1.3186264,-0.5511513,1.6322751,-3.230111,-0.08655315,-0.37870216,0.07725525,-0.3104763,1.0871525,0.8307409,-0.2576477,0.10015691,0.4831725,-0.05512224,0.35507712,0.055848643,1.0,0.0,0.0,0.0,0.0,0.0,0.0,-1.9686264,0.15115127,-1.0822752,1.4283657,-7.1391463,12.135452,-18.319082,-9.384102,0.4203081,0.9932518
15.569665,11.815694,4.536457,-8.127307,-1.0022897,-2.3203213,0.7732555,-0.75602055,0.3750289,0.08858072,-0.40822592,-0.12085569,0.6722988,0.54652715,0.9075333,-0.35021043,-1.6691936,-0.8840809,2.4308293,1.5362284,-0.9526136,0.96949303,-0.37995708,-1.6788738,-0.8482136,2.4445705,1.4738089,-1.0037053,-1.3588647,0.75284135,-0.039426673,-0.54898787,0.12597868,0.48198918,0.35788774,1.2863464,-0.5520172,1.6277544,-3.2268815,-0.08646661,-0.47650948,0.077293396,-0.30726242,1.087254,0.8313341,-0.25855386,0.10570372,0.48047903,0.026056988,0.30824962,-0.006743495,1.0,0.0,0.0,0.0,0.0,0.0,0.0,-1.9363464,0.1520172,-1.0777545,2.1614075,-9.10803,17.132887,-21.390415,-15.924004,0.4045844,0.73355436
9.336624,-9.725503,-1.6922231,-8.068408,-0.4795916,-2.5249336,0.6795289,-0.7278723,0.23410909,0.16133803,-0.4755395,-0.37065938,0.6748044,0.5497073,0.8967058,-0.35654616,-1.66274,-0.89576757,2.4075046,1.5412893,-0.9487345,0.95613873,-0.37359416,-1.6778896,-0.8551716,2.4440708,1.4786364,-1.0000851,-1.3261614,0.5976182,0.14292789,-0.74439025,-0.10834172,0.48325342,0.3631993,1.254097,-0.55288124,1.6222565,-3.2236552,-0.08638016,-0.574219,0.07798004,-0.30473328,1.0866512,0.8316023,-0.25863713,0.11146808,0.47866413,0.08671302,0.23233923,-0.07987227,1.0,0.0,0.0,0.0,0.0,0.0,0.0,-1.904097,0.15288123,-1.0722566,3.6957502,-15.475405,17.822357,-19.44114,-23.394972,0.21371245,0.4410863
-16.15084,-75.143906,-23.455856,-2.544556,2.0498695,-3.1760714,0.0152344415,-0.711142,-0.024360768,0.01402792,-0.45929188,-0.48272115,0.65519124,0.5108172,0.88502455,-0.37603024,-1.6764868,-0.9011008,2.3957987,1.5441555,-0.9490034,0.94314873,-0.3697747,-1.6761844,-0.86347145,2.4411793,1.4834467,-0.99646306,-1.2883254,0.30963326,0.17945062,-0.8586339,-0.35003346,0.47982365,0.3607277,1.221878,-0.55374336,1.6157821,-3.2204323,-0.0862938,-0.6718309,0.07859039,-0.30369568,1.0851668,0.831995,-0.25769863,0.11717498,0.47712222,0.05230533,0.05868641,-0.17289828,1.0,0.0,0.0,0.0,0.0,0.0,0.0,-1.871878,0.15374336,-1.0657821,4.259634,-28.92332,3.5408049,-11.488998,-24.414883,-0.5002856,-0.6061554
-35.843544,-129.96042,-40.732784,1.3462927,4.6230817,-3.6415021,-0.36069417,-0.6651173,-0.31097198,0.001845727,-0.48349595,-0.5004671,0.64313114,0.45741874,0.876637,-0.4008719,-1.6759999,-0.91182107,2.3911326,1.5477598,-0.9507212,0.9306804,-0.36982143,-1.6746318,-0.87250084,2.4362583,1.4881979,-0.99292016,-1.2311357,-0.11040498,0.14770418,-0.91799647,-0.5408268,0.47170222,0.35039452,1.1897049,-0.5546055,1.6083324,-3.2172124,-0.08620753,-0.7693452,0.07817078,-0.30501175,1.0826348,0.8328874,-0.2555718,0.12213376,0.4754627,-0.071765155,-0.1966374,-0.28105372,1.0,0.0,0.0,0.0,0.0,0.0,0.0,-1.8397049,0.15460548,-1.0583324,6.260848,-42.29798,-3.0273736,-6.0102224,-19.561464,-1.2985706,-1.5622973
-33.865585,-133.08427,-38.993153,0.8885735,5.5324225,-3.351026,0.014823687,-0.60593104,-0.54935455,0.27071214,-0.5802568,-0.5198036,0.64981735,0.48768184,0.87008727,-0.42475688,-1.6475606,-0.9305265,2.384278,1.5531796,-0.944152,0.91896546,-0.37452114,-1.6723278,-0.8822188,2.4298801,1.4928595,-0.9894507,-1.1500107,-0.5909825,0.25828493,-0.989467,-0.6717265,0.46145818,0.34450376,1.1575623,-0.5554676,1.5999082,-3.213996,-0.086121336,-0.86676204,0.07637024,-0.30887413,1.0790207,0.83409244,-0.25237834,0.12550162,0.47417757,-0.21799412,-0.44895494,-0.38890848,1.0,0.0,0.0,0.0,0.0,0.0,0.0,-1.8075622,0.1554676,-1.0499082,8.622789,-48.40977,11.1599,-7.081425,-13.505257,-1.819551,-0.98024607
-19.28185,-99.31381,-26.696909,-2.0952694,4.554492,-2.8474102,0.46773106,-0.5007109,-0.68853575,0.38708776,-0.6700096,-0.5581817,0.64146936,0.46731648,0.86889434,-0.44337472,-1.633619,-0.94921976,2.374062,1.5570064,-0.94271904,0.9084016,-0.38366258,-1.66833,-0.8928799,2.4225101,1.4974104,-0.9860356,-1.0244875,-1.022898,0.44743767,-1.0914447,-0.75968575,0.44986877,0.33979937,1.1254501,-0.5563297,1.5905106,-3.2107825,-0.08603523,-0.96408147,0.07342529,-0.3148632,1.0743934,0.8352198,-0.24835765,0.12692995,0.4739357,-0.3228045,-0.64686966,-0.48823777,1.0,0.0,0.0,0.0,0.0,0.0,0.0,-1.7754501,0.15632972,-1.0405107,12.751079,-43.511642,19.071632,-10.1278305,-9.059298,-2.0932317,-0.6529331
8.574551,-29.217228,-2.6222208,-3.8174226,2.1761427,-2.0060434,0.9372551,-0.22540514,-0.7270778,0.42494634,-0.63548476,-0.61587864,0.6436372,0.38598266,0.8858611,-0.45637035,-1.6258353,-0.9564284,2.3609223,1.5617741,-0.94743735,0.9001523,-0.3960737,-1.6624534,-0.9042277,2.4144115,1.5018736,-0.98270917,-0.7600273,-1.3143088,0.63553005,-1.1496283,-0.8264738,0.44319192,0.33054543,1.0933685,-0.55718803,1.5801406,-3.2075725,-0.08594921,-1.0613035,0.07010651,-0.32204437,1.0690455,0.83577424,-0.24404244,0.12660268,0.4752855,-0.33542633,-0.73695296,-0.55181986,1.0,0.0,0.0,0.0,0.0,0.0,0.0,-1.7433685,0.15718803,-1.0301406,25.968206,-29.289078,19.12967,-5.9380293,-6.590557,-1.2623787,-0.84950924
23.952581,16.87806,11.030528,-3.021838,0.38134536,-1.6524203,0.8889283,-0.01926503,-0.7579173,0.29028884,-0.59083736,-0.6245639,0.64812016,0.26943377,0.89822584,-0.47186542,-1.6334245,-0.96331143,2.3519552,1.5666857,-0.9557658,0.8951875,-0.41037166,-1.6557567,-0.9157061,2.4058285,1.5063025,-0.97955346,-0.41175368,-1.4684211,0.68325853,-1.1480815,-0.868289,0.4419392,0.31106392,1.0613174,-0.55804634,1.568799,-3.2043655,-0.085863285,-1.1584284,0.06715393,-0.32966805,1.0632727,0.8355877,-0.2398168,0.12505232,0.4781661,-0.28494284,-0.7640623,-0.5877354,1.0,0.0,0.0,0.0,0.0,0.0,0.0,-1.7113174,0.15804633,-1.0187991,33.876522,-15.449882,5.406511,-0.084257126,-4.0186286,-0.3789127,-1.7961681
30.20903,38.840935,15.452442,-3.610456,-0.8151447,-1.8055813,0.6564729,0.14716958,-0.77174526,0.11117408,-0.5961861,-0.5856255,0.63842183,0.20645195,0.9099045,-0.4875462,-1.6446393,-0.9753247,2.347266,1.5701447,-0.95890826,0.89386857,-0.42541587,-1.649903,-0.9270157,2.3970928,1.5107294,-0.97663426,-0.04243103,-1.5164422,0.55596983,-1.1260824,-0.8751985,0.4423548,0.2859329,1.0292969,-0.55890465,1.556487,-3.2011619,-0.08577744,-1.2554562,0.06499481,-0.33743095,1.0572104,0.83479905,-0.2356751,0.12287806,0.48215014,-0.19577487,-0.77307266,-0.61471283,1.0,0.0,0.0,0.0,0.0,0.0,0.0,-1.6792969,0.15890464,-1.0064869,35.78661,-4.812598,-11.823595,1.9372225,-0.6298423,-0.07092953,-2.4104
22.147558,31.106754,8.604163,-2.681986,-1.0197937,-2.2299764,0.20048547,0.2054079,-0.7869914,-0.12174045,-0.6311568,-0.5516921,0.62921554,0.22963972,0.91440934,-0.504115,-1.6620771,-0.9901314,2.3419237,1.573651,-0.95367026,0.89566433,-0.44051874,-1.6466262,-0.938229,2.388483,1.5151507,-0.9739373,0.2503652,-1.5084068,0.2547935,-1.1201885,-0.85698086,0.4415219,0.26411903,0.9973068,-0.55976295,1.5432054,-3.1979613,-0.085691676,-1.3523871,0.0636673,-0.3454609,1.0507892,0.8338132,-0.23123218,0.120654665,0.48654854,-0.11067182,-0.80647385,-0.6540169,1.0,0.0,0.0,0.0,0.0,0.0,0.0,-1.6473068,0.15976295,-0.99320537,28.33867,0.74698925,-29.17285,0.44493675,1.6849041,-0.27617812,-2.2096097
15.652717,19.21505,1.5827129,-3.7671392,-1.0012164,-2.6612644,-0.076442875,0.31535935,-0.79406095,-0.3514239,-0.6683517,-0.49774274,0.6324738,0.24417529,0.92720026,-0.5199248,-1.6817687,-1.0050642,2.3387089,1.578398,-0.94951975,0.8999549,-0.45538032,-1.6472175,-0.9495968,2.3802433,1.5195585,-0.97142816,0.48619655,-1.4790627,-0.16077161,-1.1425792,-0.8139817,0.4396296,0.24609223,0.9653473,-0.56061935,1.5289552,-3.194764,-0.085606,-1.4492209,0.06311035,-0.35404015,1.0438399,0.83299625,-0.22603194,0.11873796,0.49084428,-0.032419566,-0.8691063,-0.71222836,1.0,0.0,0.0,0.0,0.0,0.0,0.0,-1.6153473,0.16061935,-0.9789552,22.835558,2.838993,-40.648037,-2.2960424,4.0565133,-0.52405596,-1.9251943
12.705475,14.596725,-0.88253784,-4.3334637,-0.97884804,-2.6997004,-0.09312882,0.3924667,-0.79577404,-0.47683087,-0.712208,-0.4910324,0.626686,0.320992,0.9392016,-0.5349577,-1.6949006,-1.0208176,2.33114,1.5822271,-0.93932897,0.9061605,-0.46994102,-1.6518905,-0.96141666,2.372427,1.5239416,-0.9690192,0.66380703,-1.448725,-0.56717074,-1.1950898,-0.771651,0.43648183,0.23881054,0.9334183,-0.56147385,1.5137374,-3.1915698,-0.08552042,-1.5459579,0.063316345,-0.3632908,1.0362267,0.83247304,-0.21980742,0.117271885,0.4948945,0.041142467,-0.9385555,-0.7824392,1.0,0.0,0.0,0.0,0.0,0.0,0.0,-1.5834183,0.16147384,-0.9637374,17.274307,2.9403687,-39.999252,-5.2416563,4.0061474,-0.7273853,-0.8549273
9.620078,20.41591,2.0890105,0.3427143,-0.73431337,-2.0697558,-0.03225308,0.394853,-0.78777975,-0.4841848,-0.7213289,-0.52915967,0.63334495,0.36036286,0.94564575,-0.548719,-1.700309,-1.0335495,2.319511,1.5872761,-0.93298286,0.91351616,-0.48422277,-1.6596649,-0.973761,2.3648434,1.5283056,-0.9666312,0.7589545,-1.4215304,-0.84695816,-1.247327,-0.7543341,0.43509868,0.23869675,0.9015198,-0.56232834,1.497553,-3.1883788,-0.08543491,-1.6425983,0.0641098,-0.37303162,1.0279862,0.8321682,-0.21267201,0.11626507,0.49874738,0.09897104,-0.9810354,-0.84386843,1.0,0.0,0.0,0.0,0.0,0.0,0.0,-1.5515198,0.16232833,-0.947553,9.364807,2.657652,-27.759218,-5.157566,1.5632749,-0.4625082,-0.07763803
8.203877,25.648865,5.259465,3.9413614,-0.52229434,-1.521705,0.054708056,0.4237085,-0.7894575,-0.5290833,-0.7345751,-0.56898427,0.63495636,0.37518734,0.955887,-0.5631685,-1.7125732,-1.0472186,2.307945,1.5918013,-0.92911243,0.9214641,-0.49831855,-1.6693885,-0.9865698,2.3572292,1.532662,-0.96421933,0.80672115,-1.4057313,-1.0142899,-1.2918297,-0.7643057,0.43501675,0.2419536,0.86966705,-0.56318283,1.4804028,-3.1851912,-0.08534949,-1.7391421,0.06539154,-0.38302612,1.0192089,0.8319461,-0.20486207,0.115657225,0.5025143,0.14474304,-1.0002296,-0.89590657,1.0,0.0,0.0,0.0,0.0,0.0,0.0,-1.519667,0.16318282,-0.9304028,4.7876954,1.537323,-16.750645,-4.3649435,-1.1172891,-0.25531054,0.30895174
7.7474246,34.30361,10.171434,8.669701,-0.24878311,-0.86268467,0.1562612,0.4345706,-0.7900678,-0.5068825,-0.72211736,-0.60903883,0.6527198,0.4034784,0.9649211,-0.57732534,-1.7200768,-1.0587815,2.2963254,1.597934,-0.9238715,0.92964184,-0.5123309,-1.679877,-0.9996285,2.349348,1.5370394,-0.96174836,0.82176274,-1.3998635,-1.0608977,-1.3103478,-0.7961968,0.43835437,0.24896544,0.83784485,-0.5640373,1.462288,-3.1820066,-0.08526416,-1.8355893,0.06705475,-0.39299202,1.0100499,0.8316339,-0.19672506,0.115332775,0.5063424,0.17780945,-0.9898988,-0.9300392,1.0,0.0,0.0,0.0,0.0,0.0,0.0,-1.4878448,0.16403732,-0.912288,1.5893579,0.56607723,-4.8497915,-1.7825603,-3.2487392,0.22266507,0.7493347
6.0642877,37.95374,12.286082,11.886519,0.03644359,-0.50113153,0.16773112,0.43013117,-0.7864273,-0.52733445,-0.724409,-0.60847175,0.65130794,0.41064438,0.97265494,-0.5909736,-1.7326105,-1.0720694,2.2885008,1.6021702,-0.9206839,0.9377967,-0.5263165,-1.690419,-1.0127624,2.341158,1.5414549,-0.959203,0.81382936,-1.3981951,-1.0527459,-1.3139808,-0.8269752,0.44238028,0.25664356,0.80605316,-0.564888,1.4432095,-3.1788254,-0.08517892,-1.9319401,0.06893921,-0.40275955,1.0006307,0.83114225,-0.18849996,0.115176655,0.5102985,0.19917879,-0.9665313,-0.9534091,1.0,0.0,0.0,0.0,0.0,0.0,0.0,-1.4560531,0.164888,-0.8932095,-0.6552696,0.14967918,0.5571842,-0.2878189,-3.135109,0.36325455,0.84685683
3.5608041,36.97306,12.1213455,13.535521,0.3307845,-0.35441583,0.14609951,0.413632,-0.7910533,-0.54077244,-0.73707145,-0.5937284,0.645952,0.42095947,0.9791599,-0.60542184,-1.7444962,-1.0864695,2.281785,1.6060501,-0.91710705,0.94573605,-0.5403298,-1.7007434,-1.0259231,2.332758,1.5459028,-0.9565785,0.7880174,-1.4024249,-1.026459,-1.3164604,-0.8446527,0.44570035,0.26464805,0.774292,-0.5657387,1.4231681,-3.1756473,-0.08509375,-2.0281944,0.070961,-0.4122944,0.99099654,0.8304622,-0.18026291,0.11508159,0.51438695,0.20957562,-0.9427514,-0.9741789,1.0,0.0,0.0,0.0,0.0,0.0,0.0,-1.424292,0.16573867,-0.87316805,-2.3952723,-0.4487276,2.347064,-0.14028549,-1.8528342,0.30503273,0.8941889
3.956729,39.536453,13.455448,14.119328,0.38500088,-0.23098314,0.16969393,0.4106081,-0.7893091,-0.51939434,-0.7383489,-0.60063624,0.654468,0.4318454,0.98679686,-0.6192607,-1.7526829,-1.099758,2.2726943,1.6113497,-0.913394,0.9534093,-0.5543841,-1.7106922,-1.0390953,2.3242283,1.5503889,-0.9538729,0.76109946,-1.4064184,-0.98516464,-1.3171426,-0.85630316,0.44959587,0.27288565,0.74256134,-0.56658936,1.4021648,-3.1724722,-0.08500867,-2.1243522,0.07308197,-0.4215603,0.9811828,0.8295697,-0.17207247,0.11497605,0.51863813,0.21853404,-0.9142429,-0.9909559,1.0,0.0,0.0,0.0,0.0,0.0,0.0,-1.3925613,0.16658935,-0.8521648,-2.5075316,-0.41704178,3.8255453,0.03552437,-1.2363791,0.3884375,0.93811154
3.294588,38.209488,12.770797,13.8511095,0.45520103,-0.2745418,0.14661336,0.4016783,-0.791295,-0.53504694,-0.7463967,-0.58654106,0.6427875,0.437185,0.9935771,-0.6335136,-1.7641969,-1.113735,2.2655742,1.6146677,-0.9101544,0.9608289,-0.5684794,-1.7203548,-1.0523037,2.3156643,1.5549017,-0.95108914,0.73616153,-1.4107418,-0.96105593,-1.3217293,-0.85656995,0.45166892,0.28050303,0.7108612,-0.56744003,1.3802007,-3.1693006,-0.084923685,-2.2204142,0.075286865,-0.43057442,0.97118247,0.8284788,-0.16390017,0.11482406,0.5230438,0.22571385,-0.89063215,-1.0100693,1.0,0.0,0.0,0.0,0.0,0.0,0.0,-1.3608612,0.16744003,-0.83020073,-2.3077369,-0.4557848,2.1279454,-0.33607483,-0.11074543,0.18638968,0.8737087
0.5729399,36.298134,11.661683,14.931505,0.61344624,-0.23236847,0.07820012,0.37394664,-0.7949078,-0.5367244,-0.7402299,-0.594219,0.6510018,0.44587535,0.99822354,-0.6479702,-1.7740272,-1.1263267,2.2562423,1.6200019,-0.9065016,0.9679395,-0.58262527,-1.7298839,-1.0655254,2.3071003,1.5594355,-0.9482329,0.7034339,-1.4160109,-0.9509183,-1.321763,-0.85663974,0.45396066,0.2876946,0.6791916,-0.5682888,1.3572768,-3.166132,-0.08483878,-2.31638,0.07749939,-0.43938446,0.9609831,0.8272417,-0.15571071,0.11462771,0.527528,0.2257275,-0.87047905,-1.0299004,1.0,0.0,0.0,0.0,0.0,0.0,0.0,-1.3291916,0.1682888,-0.8072768,-3.063655,-0.5626917,0.75376034,0.14896393,-0.12699366,0.20145178,0.81707835
0.7829943,36.451622,11.576064,14.4057045,0.5579201,-0.2556177,0.073297255,0.3678454,-0.7941399,-0.5429011,-0.7472784,-0.59929866,0.6471606,0.4564685,1.004724,-0.6620393,-1.784174,-1.1402533,2.2471704,1.6241516,-0.90258604,0.9747602,-0.5968102,-1.739413,-1.07877,2.2985287,1.5639864,-0.9453051,0.6756772,-1.4193753,-0.95449007,-1.3248696,-0.85782546,0.45533323,0.29477283,0.6475525,-0.56913567,1.3333939,-3.1629665,-0.08475395,-2.4122498,0.0797348,-0.44800758,0.9505683,0.82587993,-0.1474673,0.11441145,0.5320579,0.22764537,-0.852012,-1.0518289,1.0,0.0,0.0,0.0,0.0,0.0,0.0,-1.2975525,0.16913566,-0.7833939,-2.5759816,-0.3732443,-0.6008148,-0.15194416,-0.24300814,0.09337664,0.799036
-1.0760698,36.68973,11.435146,15.114334,0.6158618,-0.16493374,0.04770699,0.33051613,-0.79388756,-0.53337574,-0.7543885,-0.6085151,0.64043736,0.46964663,1.0078118,-0.67619896,-1.7927506,-1.1542089,2.237677,1.6280302,-0.89834046,0.9812118,-0.6110133,-1.7489688,-1.0920738,2.289915,1.568545,-0.94230485,0.63567513,-1.4208573,-0.9568469,-1.331775,-0.8628879,0.45572424,0.30205947,0.6159439,-0.5699825,1.3085531,-3.159804,-0.08466922,-2.5080237,0.081954956,-0.45643806,0.939934,0.8244122,-0.13914634,0.1142059,0.53660023,0.22557108,-0.83248717,-1.0736905,1.0,0.0,0.0,0.0,0.0,0.0,0.0,-1.2659439,0.16998252,-0.7585531,-3.7733912,-0.18939972,-0.48605204,-0.51407814,-0.6496072,-0.0064849854,0.81148744
-3.0853791,37.656044,11.683977,16.359734,0.7250427,-0.024033964,0.020910107,0.29665524,-0.7932932,-0.52379876,-0.75186133,-0.6149,0.6480533,0.48645332,1.0108773,-0.6903426,-1.8013487,-1.1672599,2.228425,1.6333504,-0.89365953,0.9871808,-0.6252192,-1.7585037,-1.105429,2.2812328,1.5731093,-0.93922734,0.58484656,-1.4206207,-0.9532812,-1.3361907,-0.8704285,0.45680305,0.3100005,0.58436584,-0.5708294,1.2827553,-3.1566448,-0.08458457,-2.603702,0.08412933,-0.46465683,0.9291008,0.8228559,-0.13076375,0.11402374,0.541117,0.21772578,-0.81038326,-1.0927317,1.0,0.0,0.0,0.0,0.0,0.0,0.0,-1.2343658,0.17082939,-0.73275524,-4.83706,-0.019574165,0.09959936,-0.2542734,-0.91130733,0.078725815,0.8751929
-4.9233694,41.229332,13.415018,18.56688,0.8997505,0.25478685,0.009651199,0.25110835,-0.7926137,-0.4734425,-0.7431244,-0.6207362,0.658621,0.48123136,1.0122917,-0.7044806,-1.8058479,-1.1797415,2.2191591,1.6389713,-0.8911042,0.9925262,-0.63941467,-1.767762,-1.1187729,2.2724667,1.5776964,-0.9360802,0.5186381,-1.4192569,-0.9176327,-1.3331314,-0.87905276,0.45938534,0.3165807,0.5528183,-0.57167625,1.2560014,-3.1534889,-0.0845,-2.6992846,0.08614349,-0.4725952,0.9181454,0.8212036,-0.12243108,0.11383289,0.54559815,0.2020575,-0.7798007,-1.1023026,1.0,0.0,0.0,0.0,0.0,0.0,0.0,-1.2028183,0.17167625,-0.70600134,-6.3581347,0.100016594,3.2752156,0.4877329,-1.0123253,0.28428435,0.7570863
-10.193886,39.993225,12.260414,20.78006,1.181988,0.41449872,-0.07936594,0.18448617,-0.7907102,-0.47213098,-0.745962,-0.6232882,0.66333795,0.4764107,1.0109748,-0.7184857,-1.814975,-1.193369,2.2101378,1.6440302,-0.8884392,0.99702656,-0.6535872,-1.7766635,-1.1320843,2.2636204,1.5823122,-0.9328797,0.42812574,-1.4167252,-0.8819239,-1.3296955,-0.8871523,0.46246198,0.32150763,0.52130127,-0.5725193,1.2282923,-3.150336,-0.08441552,-2.7947717,0.08792114,-0.48023796,0.90710706,0.8195096,-0.114182755,0.113627136,0.54995924,0.17309172,-0.75067186,-1.1098498,1.0,0.0,0.0,0.0,0.0,0.0,0.0,-1.1713012,0.1725193,-0.67829233,-8.743948,0.20465851,3.2787085,0.5601883,-0.9977102,0.34422278,0.58288574
-17.222054,34.357056,8.511828,22.288774,1.4781599,0.39908853,-0.21931338,0.11674701,-0.7902052,-0.5143121,-0.74945784,-0.63316816,0.6506879,0.47289777,1.0087012,-0.7326077,-1.8280947,-1.20703,2.2003036,1.6473811,-0.8855899,1.00047,-0.66773593,-1.7854774,-1.1453766,2.2546787,1.5869452,-0.929641,0.31752467,-1.414577,-0.8817713,-1.3282111,-0.8975588,0.46350378,0.32475564,0.48981476,-0.57336235,1.1996292,-3.1471863,-0.084331125,-2.8901634,0.08930969,-0.4876728,0.89594007,0.81789696,-0.10591939,0.113457575,0.55403334,0.12972143,-0.7328171,-1.1241859,1.0,0.0,0.0,0.0,0.0,0.0,0.0,-1.1398147,0.17336234,-0.6496292,-10.710973,0.1331091,-0.22833347,0.4285097,-1.2991309,0.0959754,0.37858486
-19.273869,31.791332,6.7568245,21.78331,1.5121748,0.33248198,-0.2566547,0.071296215,-0.78859586,-0.53689206,-0.7578647,-0.64200974,0.64209265,0.4694806,1.0075997,-0.7465955,-1.8391666,-1.221163,2.1904778,1.6511544,-0.88269293,1.0028142,-0.6818627,-1.7944858,-1.1587013,2.2456226,1.5915762,-0.92637944,0.20807831,-1.4123981,-0.90786016,-1.332813,-0.9095343,0.46281135,0.32677704,0.4583664,-0.5742054,1.1700128,-3.1440399,-0.08424681,-2.9854598,0.09024811,-0.49498177,0.8845768,0.8164364,-0.09752261,0.11336478,0.5577358,0.08392068,-0.7215053,-1.1453309,1.0,0.0,0.0,0.0,0.0,0.0,0.0,-1.1083664,0.1742054,-0.6200128,-10.596839,0.11894703,-2.817452,-0.1497984,-1.4843106,-0.1251936,0.2392888
-23.132812,28.766747,4.81089,22.20287,1.6995425,0.3583427,-0.3054141,-0.0030826342,-0.7937911,-0.551308,-0.7639043,-0.6446763,0.62513614,0.4604646,1.0025059,-0.7612418,-1.8496166,-1.2350917,2.181155,1.6540898,-0.880333,1.0039948,-0.695999,-1.8038433,-1.1721023,2.236456,1.5961844,-0.92310834,0.08928551,-1.4145495,-0.9457664,-1.3414358,-0.92026496,0.45975715,0.32731757,0.42695618,-0.57504845,1.1394442,-3.1408963,-0.08416258,-3.0806608,0.090660095,-0.50221634,0.8729626,0.8151786,-0.088907756,0.113342114,0.5610105,0.029580876,-0.7158209,-1.1716073,1.0,0.0,0.0,0.0,0.0,0.0,0.0,-1.0769562,0.17504844,-0.5894442,-11.516651,-0.33872128,-3.9735198,-0.5096674,-1.3965607,-0.4046321,0.083345175
-39.2819,16.68123,-3.1553452,25.745937,2.524068,0.43674135,-0.5619019,-0.1583431,-0.80700153,-0.6243276,-0.784044,-0.6144271,0.56892604,0.4069981,0.9881605,-0.7766992,-1.866276,-1.2505068,2.1750133,1.653077,-0.8824085,1.0035542,-0.7102288,-1.8138683,-1.1856674,2.2272892,1.6007143,-0.91987634,-0.08687597,-1.4265968,-1.0219193,-1.3599446,-0.9172806,0.44996956,0.32185236,0.39557648,-0.5758896,1.1079243,-3.137756,-0.08407844,-3.1757665,0.09024811,-0.5095482,0.8609742,0.8143237,-0.07987198,0.11334192,0.56360537,-0.061943058,-0.7301652,-1.212702,1.0,0.0,0.0,0.0,0.0,0.0,0.0,-1.0455765,0.17588958,-0.55792433,-17.134413,-1.4151812,-7.7408195,-1.3415575,-0.18485785,-1.1929035,-0.55511
-50.47974,15.660238,-5.028839,30.052475,3.1557386,0.8699577,-0.6720586,-0.30433238,-0.80919844,-0.6074689,-0.7875702,-0.6003679,0.5681448,0.4420991,0.973121,-0.79114866,-1.8746152,-1.2644244,2.1672523,1.6575288,-0.87566644,1.0009774,-0.7245902,-1.8244846,-1.1994098,2.218214,1.605147,-0.916672,-0.31269905,-1.4402399,-1.0753556,-1.3770497,-0.90654266,0.44012442,0.31997135,0.3642273,-0.5767288,1.0754541,-3.134619,-0.08399437,-3.2707772,0.08872986,-0.51701164,0.848607,0.8139986,-0.07038942,0.11327637,0.5653496,-0.18323958,-0.7422861,-1.2494974,1.0,0.0,0.0,0.0,0.0,0.0,0.0,-1.0142273,0.17672881,-0.5254541,-22.0148,-1.6299725,-5.4739714,-1.1074543,0.4929185,-1.2306631,-0.18343925
-52.01129,17.723957,-4.656719,30.314554,3.1451006,1.0183897,-0.67596114,-0.38958505,-0.8105026,-0.6493362,-0.7885201,-0.632572,0.5600993,0.44176522,0.9620189,-0.80564046,-1.8894182,-1.2782619,2.1549568,1.6611569,-0.8724955,0.99616855,-0.7390708,-1.8356559,-1.213282,2.2091465,1.6094805,-0.91348195,-0.5350922,-1.4516729,-1.1314236,-1.388619,-0.9089423,0.4301505,0.31876454,0.33290863,-0.57756805,1.0420345,-3.131485,-0.0839104,-3.3656929,0.08596039,-0.52456665,0.8358789,0.81421924,-0.060481388,0.11314972,0.56620324,-0.3073623,-0.749695,-1.2853861,1.0,0.0,0.0,0.0,0.0,0.0,0.0,-0.9829086,0.17756805,-0.4920345,-21.675182,-1.4331341,-5.7210445,-0.5150318,-0.84712505,-1.2875617,-0.109136105
-47.044342,24.783712,-0.8440697,29.033747,2.8943768,1.167459,-0.5733785,-0.46656755,-0.80866116,-0.6586283,-0.7870673,-0.6300577,0.56456834,0.44854656,0.9495118,-0.8199369,-1.9015187,-1.2919887,2.1461408,1.6659373,-0.8686273,0.9893326,-0.75362194,-1.8472755,-1.227219,2.2000446,1.6137301,-0.91029286,-0.7314338,-1.4571886,-1.1726294,-1.3934078,-0.9124348,0.42213905,0.31905994,0.30162048,-0.5784073,1.0076665,-3.128354,-0.083826505,-3.4605136,0.08203888,-0.5321064,0.8228477,0.8149042,-0.050234117,0.11294204,0.5662612,-0.42123586,-0.74494463,-1.3138039,1.0,0.0,0.0,0.0,0.0,0.0,0.0,-0.95162046,0.17840728,-0.45766646,-19.130516,-0.82497597,-4.238391,0.12943745,-0.91080666,-1.0779798,0.07559657
-46.90164,27.243336,-0.11118436,28.6614,2.8907676,1.2569523,-0.5789006,-0.57301044,-0.8085444,-0.70462257,-0.7862666,-0.61148787,0.5503706,0.40785012,0.9320316,-0.83447635,-1.9177377,-1.3058456,2.1388958,1.6687671,-0.86950785,0.9806189,-0.76819694,-1.8593776,-1.2411655,2.1909618,1.6178976,-0.9071295,-0.91643274,-1.4585778,-1.2228715,-1.3930087,-0.9087644,0.41377288,0.31572232,0.27036285,-0.5792465,0.97235084,-3.1252263,-0.08374269,-3.5552394,0.07699585,-0.5395794,0.8095406,0.8160266,-0.039676804,0.1126114,0.56554824,-0.5353069,-0.7368301,-1.3410125,1.0,0.0,0.0,0.0,0.0,0.0,0.0,-0.92036283,0.17924652,-0.42235082,-18.021524,-0.4238844,-5.1143646,0.6630659,-0.20017624,-1.147449,-0.27191043
-48.083225,29.039299,0.13608265,29.046257,3.0618975,1.3581467,-0.6197227,-0.6717958,-0.8102493,-0.74774235,-0.7739923,-0.56339794,0.55053365,0.3453146,0.91343933,-0.8492219,-1.9341519,-1.3185648,2.134622,1.672951,-0.87259805,0.9701237,-0.7827767,-1.8720634,-1.255032,2.182066,1.621987,-0.90404344,-1.0924251,-1.4587667,-1.2839829,-1.3823979,-0.8850214,0.40614146,0.30646852,0.23913574,-0.58008194,0.93608063,-3.1221018,-0.08365897,-3.6509361,0.070755005,-0.5469742,0.7959698,0.817608,-0.028822085,0.11205898,0.56402946,-0.6549234,-0.72776824,-1.3669407,1.0,0.0,0.0,0.0,0.0,0.0,0.0,-0.8891357,0.18008193,-0.38608062,-17.141079,-0.323987,-6.1626434,1.7113924,1.7942667,-1.1212528,-0.83909035
-44.658062,33.039597,2.2884583,27.697765,2.9364822,1.4482956,-0.59580606,-0.74166363,-0.8074625,-0.77310485,-0.7657715,-0.5334195,0.56121534,0.24298996,0.89595735,-0.86352295,-1.9493738,-1.3316091,2.128724,1.6781086,-0.8797444,0.9580311,-0.79733837,-1.8853519,-1.2687515,2.1734982,1.6260153,-0.90112233,-1.2468767,-1.4562944,-1.34383,-1.3665433,-0.84944826,0.4006182,0.2876807,0.20793915,-0.58091736,0.89885426,-3.1189802,-0.08357532,-3.7465372,0.06338501,-0.55423546,0.7821632,0.81963307,-0.017720645,0.11119237,0.56171495,-0.76847965,-0.7119685,-1.3897331,1.0,0.0,0.0,0.0,0.0,0.0,0.0,-0.8579391,0.18091735,-0.34885424,-15.038538,-0.049066544,-6.014371,2.213049,3.0147433,-0.9228647,-1.7672479
-35.699665,40.125717,7.1332984,24.851854,2.6089616,1.5092473,-0.49041426,-0.78304565,-0.80251783,-0.77340114,-0.75988144,-0.46524298,0.5477216,0.1037462,0.8797265,-0.8775902,-1.962692,-1.3447397,2.1269739,1.6807874,-0.8907477,0.94466347,-0.8118485,-1.8990867,-1.2823128,2.165453,1.6299883,-0.89848256,-1.365748,-1.4500903,-1.3834395,-1.3507409,-0.7908441,0.39530167,0.25656137,0.17677307,-0.5817528,0.86067253,-3.115862,-0.083491765,-3.8420424,0.055000305,-0.56126595,0.7681862,0.82202184,-0.00647787,0.10988007,0.55871683,-0.86425287,-0.68527603,-1.4046645,1.0,0.0,0.0,0.0,0.0,0.0,0.0,-0.82677305,0.18175277,-0.31067252,-11.571288,0.37183762,-3.9916039,2.1148443,5.4179907,-0.8574724,-2.9575944
-26.891249,47.06608,12.00321,22.592957,2.2924252,1.5594418,-0.42896533,-0.8153366,-0.7968506,-0.77444786,-0.73901045,-0.4043802,0.5246808,-0.10270239,0.8631298,-0.8915336,-1.9765315,-1.3562138,2.125015,1.6824564,-0.9087528,0.9303698,-0.8262719,-1.9130638,-1.2956623,2.1581173,1.6339022,-0.8962891,-1.449814,-1.4404378,-1.4025596,-1.3281277,-0.7159476,0.3892186,0.20746008,0.14563751,-0.5825882,0.8215365,-3.1127467,-0.083408296,-3.9374523,0.045829773,-0.56796646,0.75413495,0.82470715,0.0047625056,0.108005196,0.5551309,-0.94183856,-0.6492644,-1.4094903,1.0,0.0,0.0,0.0,0.0,0.0,0.0,-0.7956375,0.18258819,-0.27153647,-8.182955,0.77085495,-1.938057,2.6865482,7.162082,-0.86678267,-4.727504
-18.900576,51.581482,15.73683,20.489859,2.1382663,1.5203487,-0.38316622,-0.8308447,-0.7952945,-0.779633,-0.7160053,-0.2806336,0.48088276,-0.29259568,0.84728533,-0.90580136,-1.9910271,-1.3672628,2.130054,1.6819905,-0.9255487,0.9154934,-0.84060276,-1.9271381,-1.3087238,2.1517963,1.6377302,-0.8946984,-1.4997405,-1.4311213,-1.4092073,-1.2976543,-0.60512054,0.38007584,0.1437139,0.11453247,-0.5834217,0.78144705,-3.1096346,-0.0833249,-4.032767,0.035949707,-0.57429314,0.7400903,0.8276521,0.015881006,0.10540384,0.55102605,-1.0051221,-0.6106627,-1.4067179,1.0,0.0,0.0,0.0,0.0,0.0,0.0,-0.76453245,0.1834217,-0.23144704,-4.8485518,0.78663826,-0.68154335,3.3748388,10.863913,-1.1186361,-6.15772
-15.158667,55.595024,18.579685,21.238445,2.227827,1.5959847,-0.39578363,-0.8439253,-0.7935198,-0.7755672,-0.6504192,-0.17984512,0.4921527,-0.35367197,0.8311009,-0.9199547,-2.0046947,-1.3737657,2.1338117,1.6869456,-0.9300656,0.9002966,-0.8548535,-1.9411952,-1.3212322,2.146738,1.6414858,-0.8937428,-1.5260565,-1.4234307,-1.4044615,-1.2343767,-0.4730049,0.3734102,0.080253854,0.08345795,-0.5842533,0.7404052,-3.1065257,-0.0832416,-4.1279855,0.025482178,-0.58023643,0.72617066,0.83085513,0.026704758,0.101965696,0.5464152,-1.0647237,-0.5715754,-1.3907288,0.0,1.0,0.0,0.0,0.0,0.0,0.0,-0.7334579,0.1842533,-0.19040519,-2.5499105,0.65419674,0.4954338,6.577325,13.0801735,-0.81881285,-6.120394
-8.50904,57.0021,20.28202,18.377724,1.5450926,1.5000632,-0.30703875,-0.8363436,-0.7931065,-0.7855984,-0.6302127,-0.26391557,0.5145135,-0.38500825,0.81666225,-0.93416417,-2.0197551,-1.3842535,2.1203465,1.6929371,-0.93224365,0.88501304,-0.8689246,-1.9564025,-1.3335422,2.141708,1.6456746,-0.8930297,-1.5277764,-1.4048402,-1.5357313,-1.2186866,-0.50380826,0.4123749,0.057971846,0.06652832,-0.5848694,0.74072975,-1.5756177,-0.021687284,0.5709338,0.014633179,-0.58577347,0.7119471,0.83414227,0.037598625,0.09848397,0.5413814,-1.0946503,-0.5307743,-1.4277868,0.0,1.0,0.0,0.0,0.0,0.0,0.0,-0.7165283,0.18486938,-0.19072974,0.26278496,0.29013157,-4.7683716e-05,7.3553085,6.5051436,-1.0229528,-5.9989343
55.623035,176.0,110.0,110.0,1.299334,11.340053,-1.2761762,-0.7863883,0.5617855,0.69237226,0.71469027,-0.22652546,0.6433635,-0.44711775,0.8063742,-0.81274605,-1.8871653,-1.2620732,2.1190553,1.7100109,-0.93774146,0.87446064,-0.8847718,-1.9669178,-1.3316272,2.127067,1.659562,-0.8917041,-0.901916,-1.6434826,-0.8848348,0.65729743,-1.7788336,1.7244097,0.15535942,0.05078125,-0.5850868,0.7456904,-1.5740423,-0.021665601,0.47111183,0.0036468506,-0.5892544,0.70193905,0.8374267,0.038116798,0.09990808,0.53598684,-1.1020483,-0.27028766,-0.85976434,1.0,0.0,0.0,0.0,0.0,0.0,0.0,-0.7007812,0.18508682,-0.1956904,61.302185,-23.522354,66.62983,186.2996,-125.98748,134.2177,9.135304
-10.4998455,176.0,86.03809,92.85709,5.471335,5.6358523,-1.4828198,-0.802627,-0.605787,0.14471285,0.7650845,-0.55697286,0.5295779,-0.23096783,0.7941979,-0.9453505,-1.9524465,-1.2551188,2.07137,1.7125198,-0.9148009,0.86560005,-0.9008174,-1.9703662,-1.3181041,2.108047,1.6765832,-0.8905997,-0.87978834,-1.5929749,-0.16145246,1.5845484,-1.9477518,1.7003179,0.09739405,0.03504944,-0.58530426,0.7496535,-1.5724686,-0.02164394,0.37138966,-0.007980347,-0.59124947,0.69682515,0.84136045,0.03116492,0.10392089,0.5294731,-1.1805568,-0.16493966,-0.40035564,1.0,0.0,0.0,0.0,0.0,0.0,0.0,-0.6850494,0.18530425,-0.1996535,2.4773955,4.634881,73.34209,92.91706,-18.316126,-0.703454,-5.212352
-36.868847,158.52205,57.564816,68.89427,4.472891,3.6263795,-1.3684546,-0.7929472,-0.41031384,-0.1930455,0.71620995,-0.6028642,0.5927455,0.010740462,0.7863053,-0.94184875,-1.9896708,-1.2464832,2.0477605,1.7358577,-0.88952565,0.855884,-0.91453314,-1.970124,-1.2993835,2.0897899,1.6926278,-0.88974524,-1.0002625,-1.2992266,0.086127974,1.9691595,-1.7884022,1.5761888,0.08173571,0.019332886,-0.5855217,0.75262016,-1.5708965,-0.021622302,0.27176717,-0.020462036,-0.5922928,0.69504476,0.84609014,0.021582449,0.108848594,0.5213613,-1.2684461,-0.0760391,-0.1121826,1.0,0.0,0.0,0.0,0.0,0.0,0.0,-0.66933286,0.18552169,-0.20262015,-11.468851,28.925037,24.779678,38.87079,14.962506,-11.283255,-1.4692575
-35.3966,142.27568,45.354168,45.72554,2.9227722,2.478717,-0.8630006,-0.789176,-0.32564598,-0.049912255,0.77308047,-0.5795827,0.5409363,-0.08104196,0.7769664,-0.9470977,-1.9751152,-1.2220755,2.0318315,1.7467214,-0.89784944,0.84452385,-0.9248595,-1.9686038,-1.2796081,2.0741305,1.7070435,-0.88910437,-1.1802472,-0.94502467,0.17311747,1.9808247,-1.4941611,1.399062,0.057688754,0.0036392212,-0.58573914,0.75459135,-1.5693259,-0.021600684,0.1722443,-0.0335083,-0.5924187,0.69533867,0.8513401,0.011641898,0.11414952,0.5119123,-1.3172824,0.016782783,0.0680003,1.0,0.0,0.0,0.0,0.0,0.0,0.0,-0.6536392,0.18573913,-0.20459133,-17.685055,35.029568,8.449856,1.3576508,28.744484,-16.972208,-2.5586433
-28.912136,94.52464,24.5101,23.504313,1.6209159,1.0195221,-0.37897184,-0.7905797,-0.37577662,-0.0730078,0.76932496,-0.5846268,0.57288295,-0.116515785,0.76546586,-0.9624372,-1.9759046,-1.2026756,2.015668,1.7643318,-0.90075594,0.8315682,-0.93248224,-1.9672897,-1.2611068,2.061256,1.7197961,-0.8887038,-1.3338032,-0.7020003,0.11657761,1.8066888,-1.21956,1.2352,0.033508062,-0.012039185,-0.5859566,0.7555651,-1.5677569,-0.021579087,0.07242719,-0.04686737,-0.5918846,0.69641685,0.8568134,0.0026645705,0.11934489,0.50161785,-1.3411015,0.074186996,0.11410824,1.0,0.0,0.0,0.0,0.0,0.0,0.0,-0.6379608,0.18595657,-0.2055651,-15.30571,24.08229,-5.895576,-17.376137,27.153896,-16.006924,-2.59268
-12.496519,74.40891,20.518583,11.71835,0.62877667,0.37925246,0.009342764,-0.79161733,-0.33769983,0.014563603,0.771962,-0.5729204,0.55673414,-0.15661058,0.7524065,-0.9662522,-1.9658333,-1.1839106,2.003964,1.7754694,-0.9043649,0.8174967,-0.9383817,-1.9664543,-1.2446178,2.0506167,1.7310609,-0.8885522,-1.4319136,-0.55317897,0.07240197,1.5962031,-1.0135548,1.0909358,0.00861734,-0.027702332,-0.586174,0.75554144,-1.5661894,-0.021557512,-0.02729012,-0.060188293,-0.5908985,0.69760144,0.86225635,-0.005017442,0.12418788,0.4909848,-1.3307447,0.11675589,0.11466315,1.0,0.0,0.0,0.0,0.0,0.0,0.0,-0.62229764,0.186174,-0.20554143,-9.906435,14.725566,-4.4244514,-21.119833,20.241524,-14.21113,-2.6380327
1.3312211,57.473877,18.78153,5.4881907,0.315942,-0.016698897,0.24889958,-0.7881955,-0.3616424,0.105468705,0.7614273,-0.5366411,0.5420272,-0.1745903,0.73867714,-0.9745459,-1.9559073,-1.1684752,1.9969527,1.7852635,-0.9060112,0.80287784,-0.9436126,-1.9655731,-1.2299484,2.0415568,1.7410439,-0.88863325,-1.4723378,-0.51344264,0.09395583,1.4235067,-0.87142247,0.9675991,-0.013897892,-0.04335022,-0.58638763,0.7545213,-1.5646236,-0.02153596,-0.12690772,-0.07331085,-0.5896168,0.69862145,0.86750394,-0.011653097,0.12843719,0.48042172,-1.305022,0.14202367,0.09398666,1.0,0.0,0.0,0.0,0.0,0.0,0.0,-0.60664976,0.18638763,-0.2045213,-4.167533,3.8684726,2.318114,-17.363811,13.814878,-12.212002,-2.3195183
11.751368,47.774174,19.508438,3.2412472,0.32616913,-0.15273547,0.36255947,-0.7762709,-0.40673825,0.21473263,0.75020576,-0.5232261,0.5624639,-0.21131043,0.7252507,-0.9842864,-1.9440998,-1.1549278,1.9892342,1.7972903,-0.9097643,0.7882046,-0.9491086,-1.9638317,-1.2165283,2.0334888,1.7499608,-0.8889375,-1.4660761,-0.5619458,0.2016276,1.3143892,-0.78684634,0.8667608,-0.035928197,-0.05898285,-0.58660126,0.7525058,-1.5630592,-0.021514429,-0.22642572,-0.08614349,-0.58815765,0.69941556,0.8724719,-0.017728768,0.1318791,0.4701982,-1.2732276,0.15678191,0.07143505,1.0,0.0,0.0,0.0,0.0,0.0,0.0,-0.5910171,0.18660125,-0.20250577,0.51875114,-4.9292445,11.037392,-10.990572,8.029091,-10.003508,-2.2005265
11.676552,36.890568,16.012861,3.4911246,0.6168047,-0.30596983,0.3080993,-0.7737303,-0.4564131,0.23887204,0.72971624,-0.4882767,0.55732286,-0.22257642,0.7108316,-0.9947499,-1.9399445,-1.1435567,1.9846611,1.805693,-0.9111951,0.7737517,-0.95549726,-1.9609153,-1.2038177,2.0260425,1.7580003,-0.8894439,-1.4385138,-0.66465956,0.32251623,1.2567222,-0.7318107,0.7830309,-0.055347912,-0.07460022,-0.5868149,0.7494958,-1.5614965,-0.021492917,-0.32584423,-0.098739624,-0.5866432,0.6999004,0.8771847,-0.023539158,0.13440105,0.4603577,-1.2538182,0.15845694,0.03830683,1.0,0.0,0.0,0.0,0.0,0.0,0.0,-0.57539976,0.18681487,-0.19949579,2.7038336,-10.327255,12.333709,-5.789399,5.148661,-8.32727,-1.8867507
9.013405,34.53162,13.632326,5.3768497,0.64037585,-0.4223838,0.20139836,-0.75382555,-0.46811798,0.21407767,0.72628796,-0.51338047,0.5572541,-0.1835653,0.69836915,-1.0023091,-1.9395076,-1.1311889,1.9747044,1.8137257,-0.9078004,0.759684,-0.9628978,-1.957135,-1.1913666,2.0188632,1.7653149,-0.8900924,-1.3962622,-0.76535946,0.39729813,1.2412006,-0.71386653,0.714318,-0.06781524,-0.09020233,-0.5870285,0.7454924,-1.5599353,-0.021471428,-0.42516336,-0.11116028,-0.5851612,0.7000241,0.8817021,-0.029123608,0.13619587,0.45078132,-1.2406079,0.15393516,0.0010755596,1.0,0.0,0.0,0.0,0.0,0.0,0.0,-0.55979764,0.1870285,-0.19549239,4.2070627,-10.121429,7.674485,-1.5194893,1.5155673,-6.8177342,-1.1947244
2.2879744,23.413273,6.2422915,5.928431,0.67791903,-0.7289916,0.0675192,-0.72755146,-0.5271025,0.12751761,0.72723085,-0.5291702,0.5431064,-0.1520879,0.68692887,-1.0156081,-1.9443831,-1.1186435,1.9659462,1.8196256,-0.90530115,0.7461056,-0.9713464,-1.953326,-1.1788791,2.0116954,1.7720212,-0.89082,-1.3449937,-0.87142336,0.3758398,1.251771,-0.7182209,0.6563015,-0.07425188,-0.105789185,-0.5872421,0.7404966,-1.5583757,-0.02144996,-0.5243832,-0.12358856,-0.5838337,0.6995844,0.88611716,-0.034238975,0.13749872,0.44126877,-1.2420305,0.13400805,-0.061664257,0.0,1.0,0.0,0.0,0.0,0.0,0.0,-0.5442108,0.18724212,-0.19049656,5.139208,-10.632396,-2.0500898,1.1562347,-0.56904554,-5.7669044,-0.58371574
-14.897806,13.732491,-3.921891,9.4018,0.8564168,-0.93593746,-0.19764358,-0.7423106,-0.53115094,-0.08542772,0.7304695,-0.534078,0.5460375,-0.12531269,0.6718745,-1.0244615,-1.9618688,-1.1058322,1.9582876,1.8266249,-0.9033513,0.7328724,-0.9806075,-1.9509666,-1.1661934,2.0044246,1.7782277,-0.8915782,-1.3158005,-0.94432807,0.18878855,1.2746917,-0.72950745,0.60873026,-0.076035425,-0.12136078,-0.58745575,0.7345093,-1.5568177,-0.021428516,-0.6235038,-0.13622284,-0.58278847,0.6982997,0.8905996,-0.03834669,0.1386815,0.43142712,-1.2716534,0.102817506,-0.15365739,0.0,1.0,0.0,0.0,0.0,0.0,0.0,-0.5286392,0.18745574,-0.18450928,2.995038,-7.289183,-18.835052,2.5156736,-1.010251,-4.724276,-0.11882931
-18.880325,20.334946,-3.5967708,11.807662,0.7224984,-0.8768509,-0.29311886,-0.7205152,-0.51761115,-0.18666135,0.75311166,-0.55194056,0.5584658,-0.14480112,0.6608209,-1.0323687,-1.9696327,-1.0908822,1.9492306,1.8340743,-0.9060583,0.7199063,-0.9902606,-1.9509628,-1.1531795,1.9969897,1.7840317,-0.8923621,-1.2894429,-0.9721972,-0.06660921,1.3094914,-0.75260633,0.5650481,-0.08061878,-0.13691711,-0.5876694,0.7275315,-1.5860102,0.039682195,-0.576366,-0.14916229,-0.5820141,0.69614094,0.89522266,-0.04116195,0.140109,0.42101228,-1.2995116,0.076133,-0.24102558,0.0,1.0,0.0,0.0,0.0,0.0,0.0,-0.51308286,0.18766937,-0.17753148,2.7780771,-2.796173,-26.078415,3.6031008,-2.6271343,-4.9265146,-0.59737116
-31.514751,15.703764,-8.8583355,14.3271885,0.9419422,-0.79723334,-0.40137878,-0.75054324,-0.53307605,-0.3880736,0.75823593,-0.52892447,0.5517644,-0.056525,0.6448519,-1.0435683,-1.9897702,-1.077356,1.9440973,1.8392082,-0.8980146,0.7069875,-1.0000474,-1.9541756,-1.1398804,1.9892942,1.7893012,-0.893158,-1.2924105,-0.98122424,-0.40434754,1.3391162,-0.77057695,0.51863074,-0.078254424,-0.15356445,-0.5857506,0.724738,-1.6656566,0.19594203,-0.29269454,-0.1625061,-0.58153343,0.6929804,0.90005517,-0.042216945,0.14203984,0.40980867,-1.3467592,0.048996072,-0.3431073,0.0,1.0,0.0,0.0,0.0,0.0,0.0,-0.49643552,0.18575057,-0.17473799,-0.24061203,-0.990808,-33.10781,3.7316322,-0.29082298,-3.1872272,0.58262944
-26.797476,51.615883,5.764437,19.476706,0.6958384,-0.16830319,-0.32672036,-0.7489015,-0.40099087,-0.43733272,0.7927538,-0.5587058,0.5711794,0.046027765,0.63209736,-1.0401466,-1.9979088,-1.060605,1.9334236,1.8464191,-0.8885552,0.6939633,-1.0092142,-1.9602804,-1.1261815,1.9814612,1.7942935,-0.8938245,-1.3053164,-0.8956569,-0.6795132,1.38093,-0.78787154,0.49248564,-0.06335517,-0.17029572,-0.5836601,0.72143453,-1.6757143,0.21545374,-0.3373244,-0.17613983,-0.58102036,0.6893198,0.90498745,-0.04187297,0.14478259,0.39784703,-1.3693128,0.061662618,-0.37675208,0.0,1.0,0.0,0.0,0.0,0.0,0.0,-0.47970426,0.18366012,-0.17143452,-1.1707306,8.383656,-27.579535,4.4176817,-1.8036723,-2.687788,1.3248041
-26.44958,58.688766,9.457363,20.418425,0.8425997,0.13519496,-0.25379196,-0.7642311,-0.4084255,-0.53073084,0.8006165,-0.55360186,0.54844165,0.09606347,0.6175402,-1.0500567,-2.0133536,-1.0461198,1.926101,1.8491377,-0.88421816,0.6807254,-1.0175264,-1.9687307,-1.1121078,1.9735109,1.7990524,-0.89430654,-1.3296483,-0.81055975,-0.89973336,1.4168085,-0.7981404,0.47012886,-0.043772962,-0.18717957,-0.5812664,0.71797836,-1.6916865,0.24660102,-0.3507801,-0.19000244,-0.58029366,0.6854424,0.9099156,-0.040381156,0.14837398,0.3852375,-1.3903944,0.08673111,-0.39403373,0.0,1.0,0.0,0.0,0.0,0.0,0.0,-0.4628204,0.1812664,-0.16797835,-2.344513,8.283461,-21.91447,3.7808895,-1.2222409,-2.3641288,1.7712429
-22.03867,65.78698,13.6734295,19.589424,0.8030659,0.3518868,-0.12197442,-0.7735118,-0.3822103,-0.59601146,0.79516643,-0.5582526,0.54485416,0.1421043,0.60337424,-1.0557474,-2.0283318,-1.0325911,1.9176856,1.8535378,-0.88009614,0.6672252,-1.0250299,-1.9789258,-1.097811,1.9654744,1.8036164,-0.8945716,-1.3566948,-0.7311165,-1.058408,1.4343452,-0.8060197,0.45150223,-0.02135376,-0.20413971,-0.57852364,0.7145077,-1.6923316,0.28078148,-0.3487554,-0.20401764,-0.57925034,0.68148017,0.9147352,-0.037962105,0.15268308,0.37216434,-1.4016104,0.12167447,-0.3989927,0.0,1.0,0.0,0.0,0.0,0.0,0.0,-0.44586027,0.17852363,-0.16450769,-2.6846647,7.6847553,-15.596151,1.8724918,-0.93131065,-1.9056797,2.0658996
-18.037941,62.516464,13.86484,17.048403,0.7030091,0.4071151,0.012004688,-0.77828103,-0.38426244,-0.6555587,0.7969276,-0.5964012,0.55661416,0.22115648,0.5893971,-1.0634562,-2.0444818,-1.0181183,1.9058342,1.8592778,-0.87245595,0.65348655,-1.0319726,-1.9903681,-1.0834296,1.9572933,1.8080413,-0.89456683,-1.3796512,-0.6827783,-1.1714323,1.43969,-0.8235868,0.4387451,0.0070047863,-0.22091675,-0.57552147,0.71100557,-1.6724033,0.30633152,-0.35231918,-0.21808624,-0.57785416,0.67742795,0.91935307,-0.03477138,0.15753658,0.35883558,-1.4077222,0.15717828,-0.40890315,0.0,1.0,0.0,0.0,0.0,0.0,0.0,-0.42908323,0.17552146,-0.16100556,-2.3107529,4.5821548,-10.935211,0.61581135,-2.172792,-1.4858365,2.6322615
-14.478493,63.495167,15.187645,15.627943,0.66640055,0.46934408,0.106303826,-0.7875185,-0.35866332,-0.6985498,0.7933862,-0.5987709,0.5434567,0.29031518,0.5747347,-1.067839,-2.060223,-1.0040909,1.8974162,1.862387,-0.8655353,0.6395419,-1.0385225,-2.0026803,-1.069071,1.9489486,1.8123488,-0.89424926,-1.3996025,-0.6467419,-1.2495147,1.4345673,-0.8397936,0.4274047,0.039318535,-0.2374649,-0.5722618,0.7074883,-1.6489561,0.33210304,-0.35252774,-0.23217773,-0.5760937,0.6732908,0.9237044,-0.03092461,0.1627916,0.34541664,-1.4077895,0.19441381,-0.4167571,0.0,1.0,0.0,0.0,0.0,0.0,0.0,-0.41253507,0.1722618,-0.15748829,-2.0524263,3.3534527,-7.3545933,-0.4730463,-2.1097183,-1.3672888,3.025088
-7.784746,71.575806,19.18111,14.644904,0.49052665,0.54026926,0.20176277,-0.78281575,-0.30891672,-0.7220238,0.7854667,-0.6147553,0.5453445,0.33876485,0.56126034,-1.0694141,-2.0748827,-0.9905244,1.8874731,1.8668833,-0.8603728,0.62547904,-1.0446279,-2.0155513,-1.0548308,1.9404272,1.8165624,-0.89360076,-1.4089708,-0.5993197,-1.2978293,1.4203794,-0.85814095,0.4185302,0.072515614,-0.2537079,-0.5687294,0.70408493,-1.6163158,0.35991624,-0.33730334,-0.24616241,-0.57393456,0.66916984,0.92772156,-0.026551433,0.16841367,0.33206093,-1.3916305,0.23483941,-0.41153243,0.0,1.0,0.0,0.0,0.0,0.0,0.0,-0.3962921,0.1687294,-0.15408492,-1.0697126,4.483855,-4.2471886,-1.4823914,-2.439022,-1.1348248,3.072811
-7.4468346,66.360855,17.706305,13.591297,0.6366171,0.5297583,0.21066234,-0.79621845,-0.33029887,-0.7320312,0.7795164,-0.61237353,0.54897255,0.33259237,0.5458572,-1.0776578,-2.0887544,-0.9768791,1.8791898,1.8714597,-0.86034155,0.61131406,-1.0504606,-2.0287235,-1.0407525,1.931764,1.8207017,-0.89265656,-1.4195116,-0.5788086,-1.3216822,1.4035627,-0.8709215,0.41158372,0.101062536,-0.26963806,-0.5649452,0.70075744,-1.5857139,0.3847881,-0.33083472,-0.2600174,-0.57139397,0.665046,0.93139964,-0.02174917,0.17425427,0.31883684,-1.3799411,0.27240357,-0.41349572,0.0,1.0,0.0,0.0,0.0,0.0,0.0,-0.3803619,0.16494521,-0.15075743,-1.1853456,1.8154025,-1.800561,-1.7227888,-1.8636465,-0.9540558,2.6473925
-6.951367,61.999657,16.305635,12.581714,0.69806117,0.49724936,0.2268483,-0.8013866,-0.33710012,-0.7435663,0.7708673,-0.62230664,0.5507974,0.36397737,0.5311754,-1.0841706,-2.10308,-0.9636658,1.8695333,1.8757814,-0.8562588,0.59704995,-1.056236,-2.0420406,-1.0268499,1.9229809,1.8247833,-0.8914368,-1.4291104,-0.5779091,-1.3330891,1.3857505,-0.88260996,0.40614623,0.12834628,-0.28527832,-0.56093216,0.6974387,-1.5566471,0.40676564,-0.33290344,-0.27376556,-0.5685005,0.6608478,0.93475145,-0.016564874,0.18016791,0.30578572,-1.3706437,0.30706844,-0.42259428,0.0,1.0,0.0,0.0,0.0,0.0,0.0,-0.36472166,0.16093215,-0.1474387,-1.0854483,-0.124680996,-0.5714655,-1.8018723,-1.7313123,-0.803107,2.5480807
-8.807959,49.04806,11.712029,10.681947,0.8183031,0.3605944,0.2215495,-0.8081472,-0.39016432,-0.7546805,0.7659603,-0.61990106,0.5218918,0.38533092,0.51623523,-1.0952525,-2.1175086,-0.95025384,1.8609908,1.8769726,-0.8529037,0.58268756,-1.0623224,-2.0554452,-1.0130998,1.9141152,1.8287966,-0.8899577,-1.4389149,-0.6193357,-1.3412468,1.3716626,-0.889352,0.3987278,0.15409517,-0.30069733,-0.55675316,0.6939078,-1.5364054,0.4228797,-0.35968283,-0.28751373,-0.56531143,0.6563972,0.9378165,-0.010980429,0.18594454,0.29292336,-1.3733557,0.33446768,-0.45297027,0.0,1.0,0.0,0.0,0.0,0.0,0.0,-0.34930265,0.15675315,-0.14390779,-1.0527849,-4.3165684,-0.359416,-1.3358593,-1.1025548,-1.017189,2.4727674
-8.876668,48.10103,11.194868,10.572832,0.8482957,0.3569895,0.2199394,-0.8112965,-0.3955417,-0.7597617,0.76473635,-0.63203174,0.51448417,0.42430967,0.5015579,-1.1018765,-2.1314213,-0.93662614,1.850912,1.8802451,-0.8475268,0.5682384,-1.0688627,-2.068915,-0.99945045,1.9051708,1.8327361,-0.88822025,-1.4471818,-0.6661003,-1.3474607,1.3631368,-0.89752614,0.3913199,0.1799808,-0.31591797,-0.5524235,0.69008285,-1.5165355,0.43766764,-0.3897713,-0.30130768,-0.5618477,0.6516302,0.9406156,-0.0049953987,0.19150664,0.28025422,-1.3767262,0.3617929,-0.48517668,0.0,1.0,0.0,0.0,0.0,0.0,0.0,-0.334082,0.15242347,-0.14008284,-0.8944273,-4.8470736,-0.16987324,-0.76413155,-1.2362957,-1.0193646,2.500537
-5.2756553,51.185207,12.778025,10.321936,0.8662152,0.37206858,0.22505467,-0.7987189,-0.41026154,-0.7453642,0.7720391,-0.6194496,0.53551894,0.446278,0.48836648,-1.1098888,-2.1434512,-0.9222465,1.8432258,1.886288,-0.84359246,0.55378926,-1.0758569,-2.082354,-0.9858128,1.896202,1.8366251,-0.88623476,-1.4443941,-0.7111788,-1.34137,1.3641561,-0.8981174,0.38707417,0.20449549,-0.33091736,-0.54794884,0.6859894,-1.4931147,0.45184726,-0.41494027,-0.31508636,-0.5581169,0.6465897,0.9431544,0.0012975319,0.19682667,0.26780108,-1.3745685,0.38895833,-0.5111511,0.0,1.0,0.0,0.0,0.0,0.0,0.0,-0.31908262,0.14794883,-0.13598937,0.18465519,-4.6777487,1.1031866,0.15847683,-0.5126715,-0.70976615,2.3628116
-5.2847004,46.349003,11.024946,9.028804,0.8237066,0.3176185,0.2398271,-0.8041355,-0.45812505,-0.74923986,0.7596413,-0.62648356,0.50144494,0.4598044,0.4733757,-1.1216694,-2.157278,-0.90984863,1.8335536,1.8867695,-0.8402543,0.5393668,-1.0834081,-2.0957358,-0.9721951,1.8872217,1.840453,-0.8840204,-1.4418178,-0.7701194,-1.3355529,1.3613666,-0.8993228,0.3803974,0.22691701,-0.34570312,-0.54335403,0.6815591,-1.4727076,0.46332577,-0.45090687,-0.32885742,-0.55413246,0.64121896,0.9454494,0.007896652,0.20183545,0.25558847,-1.374042,0.4134208,-0.54644275,0.0,1.0,0.0,0.0,0.0,0.0,0.0,-0.30429685,0.14335403,-0.13155907,0.18093586,-6.046796,1.0307789,-0.19042492,-0.53340197,-0.9539962,2.1830618
-6.232276,44.775265,10.086945,8.817287,0.8132843,0.3171568,0.2445916,-0.8081591,-0.48965114,-0.75149214,0.75901407,-0.63880986,0.4790028,0.50117344,0.45855087,-1.1323732,-2.170885,-0.8962937,1.8233407,1.8883533,-0.8339031,0.52495193,-1.0915754,-2.1090758,-0.9586032,1.8781974,1.8442017,-0.8815767,-1.4416573,-0.83285016,-1.3322542,1.3588895,-0.9048524,0.37206975,0.25007692,-0.36029053,-0.5386543,0.6767384,-1.4536589,0.47351667,-0.4920122,-0.3426361,-0.54990196,0.63546884,0.94751394,0.0148330545,0.20650674,0.24362293,-1.3744429,0.43791923,-0.58555126,0.0,1.0,0.0,0.0,0.0,0.0,0.0,-0.28970945,0.13865432,-0.12673837,-0.04887581,-6.422746,0.759387,-0.13403893,-0.9475112,-1.120162,2.2726445
-3.8186536,47.046364,10.955917,8.363334,0.7357634,0.33354282,0.2712634,-0.7978899,-0.5128385,-0.7438381,0.7584258,-0.6458586,0.476946,0.5420136,0.44516295,-1.1428592,-2.1834595,-0.88276064,1.8136116,1.8918962,-0.82737535,0.51057816,-1.1003339,-2.122362,-0.9450342,1.8690985,1.8478713,-0.8788944,-1.4361929,-0.890577,-1.3259996,1.3564715,-0.9127179,0.3644537,0.2740828,-0.37467194,-0.53385735,0.67151356,-1.4316769,0.48273015,-0.5306462,-0.35637665,-0.5454292,0.6293483,0.94934547,0.022097528,0.21085517,0.23193745,-1.3687245,0.4620804,-0.62195593,0.0,1.0,0.0,0.0,0.0,0.0,0.0,-0.27532804,0.13385734,-0.121513546,0.46243668,-5.9217215,1.0849476,-0.15480518,-1.2171865,-1.0395288,2.3413599
-5.7508607,49.164078,10.81343,9.140855,0.76171255,0.3699658,0.26288486,-0.80818444,-0.5318557,-0.75398177,0.75078195,-0.65565073,0.42246205,0.56944907,0.4297597,-1.1535195,-2.19776,-0.869956,1.8035334,1.8901175,-0.8219495,0.49620914,-1.1095979,-2.1356442,-0.9315186,1.8599007,1.8514334,-0.8759763,-1.4374106,-0.93873763,-1.3274304,1.3502407,-0.9235025,0.35230225,0.29754657,-0.3888321,-0.5289707,0.6659117,-1.4090366,0.49161446,-0.5686237,-0.37005615,-0.5407009,0.6228783,0.9509456,0.029724823,0.21491374,0.22052416,-1.3627635,0.4883419,-0.6565542,0.0,1.0,0.0,0.0,0.0,0.0,0.0,-0.26116788,0.12897071,-0.11591166,-0.20389557,-4.975915,0.33137798,-0.5288601,-1.5347242,-1.516074,2.2863507
-2.6015055,51.545563,11.8442335,8.644633,0.7213806,0.35966736,0.2808342,-0.7925598,-0.55798906,-0.7465662,0.75337905,-0.64947486,0.3980529,0.60117316,0.41695315,-1.1653968,-2.210301,-0.8561807,1.7949532,1.8912387,-0.815859,0.4818892,-1.1193101,-2.1489189,-0.9180488,1.850632,1.8548628,-0.87282467,-1.4305254,-0.9825091,-1.3259039,1.346065,-0.9296038,0.3388599,0.3207856,-0.40274048,-0.5240059,0.6599499,-1.3834676,0.4989653,-0.60370415,-0.38365173,-0.53572273,0.61609036,0.95231706,0.037700154,0.21868214,0.20940161,-1.351102,0.51263803,-0.6875577,0.0,1.0,0.0,0.0,0.0,0.0,0.0,-0.2472595,0.124005884,-0.10994989,0.58333874,-4.5340657,0.6613493,-0.35841465,-1.1008501,-1.6503155,2.2533417
-0.08734846,52.348244,12.609197,8.105772,0.7763909,0.4002074,0.2825718,-0.7860271,-0.5933341,-0.7159939,0.7536438,-0.6402216,0.41681135,0.6095327,0.4032865,-1.1786436,-2.2205184,-0.8426844,1.7866098,1.896544,-0.8118714,0.4676665,-1.1294935,-2.1620367,-0.9046065,1.8413494,1.858183,-0.8694585,-1.4198817,-1.0306137,-1.3051605,1.3437572,-0.92926145,0.3287198,0.3417247,-0.41638184,-0.5189743,0.6536352,-1.3565212,0.5051644,-0.6378668,-0.3970871,-0.5305023,0.60901326,0.9534754,0.045915015,0.2221097,0.19860439,-1.3363953,0.5366641,-0.7157044,0.0,1.0,0.0,0.0,0.0,0.0,0.0,-0.23361814,0.1189743,-0.10363519,0.9429455,-4.9601793,2.6131392,-0.18868446,-0.48053265,-1.3144672,2.0342827
0.8353801,51.554817,12.17263,7.437723,0.7510523,0.3298089,0.28855962,-0.78015584,-0.6174024,-0.72761494,0.7436737,-0.62053233,0.30689868,0.6230528,0.3896509,-1.1912338,-2.2347982,-0.8302392,1.7792962,1.8888729,-0.8071532,0.45356494,-1.1401517,-2.175002,-0.8912215,1.8321446,1.8613331,-0.8658978,-1.4072949,-1.0780085,-1.2919943,1.3368324,-0.9191358,0.30936915,0.3607337,-0.4297638,-0.51389694,0.6469536,-1.330426,0.5094317,-0.6756713,-0.4103775,-0.52506256,0.6016387,0.9544442,0.054365873,0.22513212,0.1881385,-1.3209647,0.55761456,-0.7462362,0.0,1.0,0.0,0.0,0.0,0.0,0.0,-0.22023618,0.113896936,-0.09695357,1.1380196,-4.882717,1.841259,-0.65279007,0.5017519,-2.2471905,1.8494844
3.1000056,63.288017,15.305079,9.340317,0.7909322,0.376369,0.27910537,-0.7693162,-0.5886294,-0.72793216,0.73942006,-0.6257937,0.19413446,0.64301234,0.37663332,-1.1990147,-2.2477953,-0.8172795,1.7695652,1.8807466,-0.8015965,0.43961254,-1.1510255,-2.187876,-0.8779242,1.82303,1.8642169,-0.8621568,-1.3918308,-1.091164,-1.283827,1.3271234,-0.9107655,0.28032157,0.37830624,-0.44281006,-0.50878525,0.64002466,-1.2945701,0.51230127,-0.6954396,-0.42344666,-0.5194168,0.59409785,0.9552127,0.06307426,0.22783662,0.1779908,-1.2953682,0.5784638,-0.758441,0.0,1.0,0.0,0.0,0.0,0.0,0.0,-0.20718992,0.10878524,-0.09002465,1.3711214,-1.4816523,1.47686,-1.024723,0.1809001,-3.2311022,1.6426921
6.255308,68.12614,17.149124,9.590204,0.9593011,0.3756984,0.26519874,-0.75702786,-0.60088134,-0.6935064,0.7290003,-0.56515574,0.089259245,0.6439904,0.36390975,-1.2111137,-2.2572267,-0.80502415,1.7665144,1.8731428,-0.79775774,0.42583856,-1.1619642,-2.200544,-0.86476135,1.8141664,1.8667498,-0.85825866,-1.3732501,-1.0953401,-1.2590046,1.3122734,-0.88055736,0.24305464,0.39326012,-0.45546722,-0.5036602,0.63295627,-1.254966,0.51313144,-0.7078752,-0.43624878,-0.5135708,0.5865134,0.95580363,0.07194842,0.23018321,0.16816223,-1.2662963,0.597414,-0.7601438,0.0,1.0,0.0,0.0,0.0,0.0,0.0,-0.19453275,0.103660196,-0.082956254,1.6487598,-0.58181286,3.2180786,-1.5961647,2.2856236,-4.0711255,1.3789237
6.4567394,67.97647,16.679857,9.082057,0.9716953,0.23788339,0.2831697,-0.75671816,-0.60434973,-0.69797224,0.6929696,-0.5250742,-0.21430884,0.6557811,0.35016674,-1.2223991,-2.2703414,-0.7954644,1.761659,1.8453189,-0.79268056,0.41221243,-1.1729047,-2.2130132,-0.8518932,1.8057017,1.8687099,-0.8542214,-1.359704,-1.0940423,-1.2401999,1.2778865,-0.83722335,0.17911562,0.40677112,-0.46774292,-0.49853897,0.62573206,-1.2167122,0.5113111,-0.72352463,-0.44873047,-0.50757027,0.5789007,0.956251,0.08103987,0.2320493,0.15864952,-1.2381752,0.61161953,-0.7630509,0.0,1.0,0.0,0.0,0.0,0.0,0.0,-0.18225706,0.098538965,-0.07573205,1.1460781,-0.024151802,2.6063442,-3.5630226,3.5744786,-6.721148,1.2260914
12.071168,78.15476,20.085142,9.8345585,1.0259306,0.22115958,0.29087323,-0.7343552,-0.5680045,-0.66358155,0.67308295,-0.50641525,-0.4187921,0.6552449,0.33877692,-1.2297052,-2.2793713,-0.7845849,1.7550602,1.8268307,-0.7886969,0.39877746,-1.1836448,-2.225181,-0.83943415,1.7976782,1.869915,-0.8500677,-1.3389846,-1.0677648,-1.2064445,1.2345195,-0.79334503,0.099777885,0.41770285,-0.47956848,-0.49347115,0.61848164,-1.1686288,0.505308,-0.7222242,-0.46087646,-0.501461,0.57139224,0.9565629,0.090322,0.23342675,0.14946972,-1.1991448,0.62033933,-0.74819803,0.0,1.0,0.0,0.0,0.0,0.0,0.0,-0.1704315,0.09347114,-0.068481624,1.8036842,2.4735212,4.235244,-4.5722723,3.4944415,-8.29152,0.92834234
25.064022,81.37905,23.563917,6.8323393,1.0288346,0.18243933,0.34575132,-0.6917237,-0.57036906,-0.57906806,0.63116294,-0.40365678,-0.48536924,0.6395256,0.32960507,-1.2406816,-2.283088,-0.77631783,1.7573125,1.8213781,-0.7861151,0.3857078,-1.1941295,-2.2366703,-0.827534,1.7903242,1.8703384,-0.8458308,-1.2973611,-1.0425211,-1.1265613,1.1740232,-0.7188935,0.022112338,0.42515582,-0.49085236,-0.4885025,0.6113188,-1.1128633,0.49337488,-0.71148014,-0.47253418,-0.4953518,0.564108,0.95678836,0.09951956,0.23418607,0.14074352,-1.146692,0.6175582,-0.7232592,0.0,1.0,0.0,0.0,0.0,0.0,0.0,-0.15914762,0.0885025,-0.061318815,3.835678,2.40829,8.921409,-6.4032555,6.4967394,-8.122953,0.57744384
31.059397,79.91151,24.883074,5.2521,1.3525205,0.19995421,0.3155273,-0.67228365,-0.5847912,-0.4792251,0.5972526,-0.26047283,-0.5190133,0.62454,0.31847942,-1.2526085,-2.2845929,-0.76780874,1.764277,1.8184371,-0.7833768,0.3730954,-1.2044806,-2.246969,-0.81629,1.7840523,1.8700387,-0.8415408,-1.2502723,-1.0330282,-0.99503803,1.1065804,-0.5992423,-0.048353564,0.42987186,-0.5015869,-0.4836712,0.6042571,-1.0575588,0.47887552,-0.7001002,-0.48365784,-0.48928642,0.5571153,0.9570417,0.10822247,0.23407616,0.13254195,-1.0952431,0.6114711,-0.69267064,0.0,1.0,0.0,0.0,0.0,0.0,0.0,-0.14841306,0.08367118,-0.054257095,4.383445,0.86159706,14.068937,-7.1065664,11.054432,-7.3821783,0.34831762
42.043613,81.386696,29.102594,3.0034776,2.2842805,0.3378455,0.24279976,-0.64303166,-0.60364324,-0.25644684,0.5296725,0.12131513,-0.5146888,0.63018805,0.30879223,-1.264845,-2.2726138,-0.7633228,1.7961838,1.8185699,-0.778522,0.36099464,-1.2148929,-2.2550898,-0.80589294,1.7799827,1.8691196,-0.8372048,-1.1978196,-1.0439272,-0.74801046,1.0160024,-0.3455753,-0.10764413,0.43474224,-0.51174927,-0.4790001,0.59739137,-1.0010052,0.4627449,-0.67919254,-0.4942932,-0.48327065,0.55059284,0.9575839,0.11558068,0.23251858,0.12493633,-1.0464036,0.6067793,-0.6398331,0.0,1.0,0.0,0.0,0.0,0.0,0.0,-0.13825071,0.079000086,-0.047391355,4.9051523,-1.1445045,25.654327,-9.4584465,24.463486,-6.2656164,0.44807196
45.11233,92.852684,35.164036,4.8692884,3.5555096,0.8646084,0.13767672,-0.6784487,-0.60235524,0.123295985,0.41921774,0.35993066,-0.53112125,0.6313043,0.29314977,-1.2751284,-2.2427602,-0.76397115,1.8159758,1.8160075,-0.7740744,0.34913376,-1.2254405,-2.259274,-0.79674876,1.7789415,1.8676692,-0.83282113,-1.1831946,-1.0587242,-0.3054447,0.8793262,-0.026861558,-0.1585008,0.4396145,-0.521286,-0.4744873,0.59094214,-0.93623257,0.44719452,-0.6310978,-0.5044327,-0.47716522,0.54491526,0.95870817,0.12049833,0.2289868,0.11799954,-0.997465,0.618934,-0.54500633,0.0,1.0,0.0,0.0,0.0,0.0,0.0,-0.12871397,0.0744873,-0.040942132,1.1473894,-1.5366554,45.288105,-14.049435,30.893017,-5.3732753,0.49980283
49.098392,113.06056,41.59489,10.091868,4.3074064,1.1288168,-0.02198333,-0.649212,-0.5593373,0.38770205,0.40926448,0.49338144,-0.5618215,0.639142,0.28421256,-1.2813742,-2.2205038,-0.7558223,1.8282796,1.8114871,-0.76890695,0.3374269,-1.2359214,-2.258381,-0.7887941,1.7810438,1.8657575,-0.82838947,-1.1673323,-1.0449053,0.22419229,0.7664397,0.28630784,-0.2027222,0.4442506,-0.5300522,-0.47017097,0.58528537,-0.8554835,0.4260649,-0.5420083,-0.5140381,-0.4709053,0.540523,0.9605298,0.12228292,0.22351453,0.111671634,-0.9428911,0.6352911,-0.40538543,0.0,1.0,0.0,0.0,0.0,0.0,0.0,-0.11994779,0.07017097,-0.035285354,1.3491154,1.2845039,53.95459,-11.602413,30.42058,-4.5835495,0.41683912
47.833588,103.587456,36.57982,7.923237,3.3560612,0.77011746,0.061218597,-0.6016973,-0.553946,0.39157364,0.34319833,0.5933852,-0.5677027,0.6347196,0.27725717,-1.291316,-2.2192235,-0.7544743,1.8403823,1.8089871,-0.7649175,0.32604432,-1.2462039,-2.2532196,-0.78193825,1.7859532,1.8634611,-0.8239224,-1.1290008,-1.0231028,0.61561644,0.65814674,0.5573215,-0.23864146,0.44726056,-0.5380478,-0.46609497,0.58040303,-0.78108996,0.40146324,-0.4698633,-0.5230942,-0.46457863,0.53727186,0.9629249,0.12129821,0.21643806,0.105909534,-0.8900032,0.63768303,-0.30018023,0.0,1.0,0.0,0.0,0.0,0.0,0.0,-0.111952186,0.066094965,-0.030403018,3.717947,2.0674944,39.80418,-10.959506,26.550806,-3.6169024,0.22565126
31.197702,112.06202,32.54127,14.028646,2.771182,0.7377797,0.052662056,-0.61557376,-0.44064215,0.37986037,0.272347,0.62987596,-0.5131982,0.6415694,0.26448694,-1.2902681,-2.2152336,-0.7547036,1.8489407,1.8121413,-0.75976545,0.3149442,-1.255754,-2.245553,-0.7761772,1.7930406,1.8608998,-0.81942374,-1.1037356,-0.932677,0.81783175,0.5489215,0.75849485,-0.26151073,0.45050192,-0.5452957,-0.46226692,0.5762788,-0.70785415,0.37723616,-0.3958456,-0.5316467,-0.45819092,0.53498995,0.9656152,0.11845087,0.20842905,0.10056816,-0.8415884,0.645615,-0.20632608,0.0,1.0,0.0,0.0,0.0,0.0,0.0,-0.10470426,0.062266916,-0.026278794,2.511382,8.9426155,20.47863,-10.884655,19.972193,-2.1507084,0.27718544
