Afshin1997/kuka_rl_ros2/src/catch_and_throw/input_files/idealpd/recorded_trajectories/env_260_data.csv
torque0,torque1,torque2,torque3,torque4,torque5,torque6,action0,action1,action2,action3,action4,action5,action6,set_target_0,set_target_1,set_target_2,set_target_3,set_target_4,set_target_5,set_target_6,joint_pos_0,joint_pos_1,joint_pos_2,joint_pos_3,joint_pos_4,joint_pos_5,joint_pos_6,joint_vel_0,joint_vel_1,joint_vel_2,joint_vel_3,joint_vel_4,joint_vel_5,joint_vel_6,tennisball_pos_0,tennisball_pos_1,tennisball_pos_2,tennisball_lin_vel_0,tennisball_lin_vel_1,tennisball_lin_vel_2,end_effector_pos_0,end_effector_pos_1,end_effector_pos_2,end_effector_rot_0,end_effector_rot_1,end_effector_rot_2,end_effector_rot_3,end_effector_lin_vel_0,end_effector_lin_vel_1,end_effector_lin_vel_2,obs_task_0,obs_task_1,obs_task_2,obs_task_3,obs_task_4,obs_task_5,obs_task_6,to_final_target_0,to_final_target_1,to_final_target_2,joint_acc_0,joint_acc_1,joint_acc_2,joint_acc_3,joint_acc_4,joint_acc_5,joint_acc_6
0.0,0.0,0.0,0.0,0.0,0.0,0.0,0.0,0.0,0.0,0.0,0.0,0.0,0.0,1.7802359,-1.0646509,-1.8151424,-1.1170107,1.9373155,1.1170107,-0.91629785,1.7802359,-1.0646509,-1.8151424,-1.1170107,1.9373155,1.1170107,-0.91629785,0.0,0.0,0.0,0.0,0.0,0.0,0.0,2.8345482,-0.38959122,0.35000807,-2.6910768,-0.040555965,5.576859,0.5304168,-0.45449448,0.693097,0.5745483,0.17512383,0.15255436,0.7848268,0.0,0.0,0.0,1.0,0.0,0.0,0.0,0.0,0.0,0.0,-3.484548,-0.010408789,0.19999194,0.0,0.0,0.0,0.0,0.0,0.0,0.0
0.0,0.0,0.0,0.0,0.0,0.0,0.0,0.0,0.0,0.0,0.0,0.0,0.0,0.0,1.7802359,-1.0646509,-1.8151424,-1.1170107,1.9373155,1.1170107,-0.91629785,1.7802359,-1.0646509,-1.8151424,-1.1170107,1.9373155,1.1170107,-0.91629785,0.0,0.0,0.0,0.0,0.0,0.0,0.0,2.8345482,-0.38959122,0.35000807,-2.6910768,-0.040555965,5.576859,0.5304168,-0.45449448,0.693097,0.5745483,0.17512383,0.15255436,0.7848268,0.0,0.0,0.0,1.0,0.0,0.0,0.0,0.0,0.0,0.0,-3.484548,-0.010408789,0.19999194,0.0,0.0,0.0,0.0,0.0,0.0,0.0
0.0,0.0,0.0,0.0,0.0,0.0,0.0,0.0,0.0,0.0,0.0,0.0,0.0,0.0,1.7802359,-1.0646509,-1.8151424,-1.1170107,1.9373155,1.1170107,-0.91629785,1.7802359,-1.0646509,-1.8151424,-1.1170107,1.9373155,1.1170107,-0.91629785,0.0,0.0,0.0,0.0,0.0,0.0,0.0,2.8345482,-0.38959122,0.35000807,-2.6910768,-0.040555965,5.576859,0.5304168,-0.45449448,0.693097,0.5745483,0.17512383,0.15255436,0.7848268,0.0,0.0,0.0,1.0,0.0,0.0,0.0,0.0,0.0,0.0,-3.484548,-0.010408789,0.19999194,0.0,0.0,0.0,0.0,0.0,0.0,0.0
-176.0,85.19225,1.0775204,110.0,11.230785,5.485312,-3.7620096,-0.823388,0.42368287,-0.5116343,0.7326538,0.4455747,0.6343356,-0.5890213,1.6978971,-1.0222826,-1.8663058,-1.0437453,1.9818729,1.1804442,-0.9752,1.7785212,-1.0620855,-1.8204124,-1.1130244,1.9429212,1.1216532,-0.9178781,-0.2284057,0.34159726,-0.7018572,0.53163064,0.74642473,0.6170464,-0.21032107,2.8076575,-0.38999557,0.40499836,-2.6883862,-0.040515415,5.473097,0.5282502,-0.4575081,0.69404805,0.57809216,0.17388509,0.15096061,0.78280544,-0.28850052,-0.40150237,0.12674648,1.0,0.0,0.0,0.0,0.0,0.0,0.0,-3.4576573,-0.010004431,0.14500165,-22.807602,33.97099,-69.966194,53.205956,74.3847,61.132885,-20.919836
-176.0,12.391161,-29.080927,110.0,12.450942,3.031342,-3.614263,-0.80992305,0.057596326,-0.5510299,0.7002792,0.4933537,0.63398093,-0.61587155,1.6975288,-1.0563259,-1.8755153,-1.0429964,1.9922565,1.1850513,-0.97946525,1.7758089,-1.0576891,-1.8342617,-1.1016489,1.9556565,1.1339136,-0.9203443,-0.28372198,0.47066924,-1.6132674,1.3415612,1.448101,1.4224302,-0.25560105,2.780794,-0.39039993,0.45895183,-2.6856985,-0.04047491,5.3694386,0.52332735,-0.46523666,0.6954919,0.5862951,0.17082965,0.14682472,0.77815014,-0.5614876,-0.89537144,0.15069255,1.0,0.0,0.0,0.0,0.0,0.0,0.0,-3.4307938,-0.009600073,0.09104818,-5.0206003,12.397713,-91.32981,81.610596,69.84403,78.594444,-3.5921812
-163.76375,109.84768,26.532412,96.42144,8.598145,7.4535594,-2.3000393,-0.77700615,0.35805792,-0.091913484,0.61685234,0.53775394,0.6722774,-0.57788163,1.6981083,-1.0218832,-1.843453,-1.0399637,2.0094318,1.2011414,-0.9781325,1.769776,-1.0520262,-1.8493507,-1.086373,1.970509,1.1480376,-0.9231815,-0.71001387,0.5951917,-1.4684238,1.5908855,1.493377,1.401475,-0.29451185,2.753957,-0.3908043,0.5118695,-2.6830132,-0.040434442,5.265884,0.51549304,-0.47587204,0.6985,0.5976062,0.16637036,0.14142655,0.7714831,-0.864592,-1.1134937,0.3548151,1.0,0.0,0.0,0.0,0.0,0.0,0.0,-3.403957,-0.009195715,0.03813052,-42.693966,11.50943,16.252565,25.268078,3.2613277,-4.3872595,-4.314929
-102.44775,122.88543,43.77156,63.849926,5.0717044,8.008006,-0.8308513,-0.7810941,0.30661234,0.030416865,0.62801963,0.5246801,0.6421093,-0.58189625,1.6916666,-1.0213649,-1.846309,-1.023571,2.022977,1.2122484,-0.9813711,1.7597071,-1.0458273,-1.8601482,-1.0705,1.9842782,1.1611735,-0.9263343,-1.1069485,0.6254833,-0.94298726,1.5866047,1.3338536,1.27954,-0.32477796,2.7271469,-0.39120865,0.56375235,-2.6803308,-0.040394016,5.162433,0.5051193,-0.48735046,0.70353365,0.6102104,0.16050829,0.13534537,0.7639122,-1.1064274,-1.1499466,0.5579652,1.0,0.0,0.0,0.0,0.0,0.0,0.0,-3.3771467,-0.008791357,-0.013752341,-40.058624,2.287054,54.698338,-0.28808117,-17.211937,-13.61382,-3.816563
-42.64693,138.86205,55.229008,36.707855,1.8776567,7.4677286,0.0500589,-0.8003528,0.41042826,0.068989836,0.6226089,0.5640146,0.63581645,-0.57960886,1.6796718,-1.0047845,-1.8532492,-1.0082392,2.0406797,1.224755,-0.9842952,1.7464453,-1.039163,-1.865197,-1.0557314,1.9961419,1.1729265,-0.9297523,-1.4006568,0.67831695,-0.35232523,1.4400136,1.134109,1.1383971,-0.35041237,2.7003636,-0.391613,0.6146015,-2.677651,-0.04035363,5.0590854,0.4929514,-0.49822998,0.7104918,0.6228636,0.15322596,0.12890787,0.75627065,-1.2659637,-1.0532292,0.74527866,1.0,0.0,0.0,0.0,0.0,0.0,0.0,-3.3503637,-0.008386999,-0.06460148,-29.832722,4.7381997,60.99736,-14.759779,-20.902134,-14.782047,-3.4447372
-0.60003424,131.77702,51.89408,16.727621,-0.34097832,5.4875393,0.35176325,-0.81411976,0.48626417,0.03472007,0.6042267,0.59329295,0.61482763,-0.5872336,1.6650333,-0.9905366,-1.861725,-0.99530876,2.0554712,1.2344093,-0.9884757,1.7312456,-1.0317453,-1.8656566,-1.0426756,2.0063424,1.1833807,-0.9333915,-1.5610051,0.76165086,0.060675353,1.2600569,0.98067194,1.0141221,-0.37079418,2.6736073,-0.39201736,0.6644179,-2.6749737,-0.040313285,4.955841,0.47981924,-0.5077591,0.71889657,0.6349807,0.14489701,0.12258593,0.7488505,-1.3402944,-0.90511644,0.873221,1.0,0.0,0.0,0.0,0.0,0.0,0.0,-3.3236074,-0.007982641,-0.11441791,-16.426897,7.9728484,42.63187,-18.19477,-15.846909,-12.580466,-2.7604759
21.929028,123.1387,46.417107,7.2943463,-1.3811352,3.8315363,0.3257569,-0.824314,0.5540724,0.051477827,0.6030951,0.6110635,0.61214125,-0.5847225,1.6488142,-0.9763381,-1.8605088,-0.9823661,2.0674489,1.2445948,-0.9918638,1.7152373,-1.0232939,-1.8634384,-1.0311342,2.0154786,1.1927477,-0.9371976,-1.6151612,0.8721738,0.27852377,1.1179999,0.8903882,0.9111316,-0.38580826,2.6468778,-0.39242172,0.7132027,-2.6722994,-0.04027298,4.8527,0.46635273,-0.5157776,0.7282792,0.6464417,0.13593724,0.11674812,0.7416225,-1.3581907,-0.75170106,0.95914245,1.0,0.0,0.0,0.0,0.0,0.0,0.0,-3.2968779,-0.0075782835,-0.1632027,-5.7269573,10.800659,22.677622,-14.409614,-9.264922,-10.232031,-2.078694
29.531256,111.6211,39.559418,4.4110394,-1.6475065,2.5678208,0.15394138,-0.824533,0.6072288,0.056453288,0.60751325,0.60435045,0.6206443,-0.5763548,1.632784,-0.96257097,-1.8577931,-0.9703829,2.0759137,1.2548121,-0.9948331,1.6991984,-1.0136808,-1.8602378,-1.0205446,2.0240464,1.2012316,-0.94111913,-1.6008738,0.99030375,0.33583498,1.0388639,0.84547496,0.82778186,-0.3957187,2.620175,-0.39282608,0.7609569,-2.6696277,-0.040232714,4.7496624,0.4529228,-0.52240753,0.7382892,0.657365,0.12665889,0.111622594,0.7344175,-1.3454659,-0.61795443,1.0131698,1.0,0.0,0.0,0.0,0.0,0.0,0.0,-3.270175,-0.0071739256,-0.21095687,1.1926174,11.636389,6.3223658,-8.096457,-4.5823455,-8.207178,-1.4461994
30.316881,103.04891,35.159874,4.6333475,-1.4348726,1.9394238,0.06989537,-0.81954575,0.6494186,0.09339939,0.6013628,0.6212324,0.62830776,-0.5686346,1.6172438,-0.94873893,-1.8508979,-0.9604084,2.0861697,1.2640624,-0.9979826,1.6835409,-1.0029596,-1.8570011,-1.0103766,2.0324426,1.2090002,-0.9451131,-1.5546564,1.0990237,0.32108134,1.009037,0.8376996,0.7601311,-0.4018372,2.5934987,-0.39323044,0.80768144,-2.6669586,-0.040192492,4.6467276,0.43968117,-0.52786636,0.7487325,0.66787887,0.11722423,0.107193485,0.7271216,-1.3230841,-0.5053944,1.0526919,1.0,0.0,0.0,0.0,0.0,0.0,0.0,-3.2434988,-0.0067695677,-0.25768143,4.436469,10.735941,-1.0272145,-3.1506538,-0.81334114,-6.666112,-0.99492073
27.22728,94.896255,31.696148,5.7258873,-1.0714586,1.6473482,0.056909874,-0.8142495,0.6790433,0.12522747,0.5890939,0.6278445,0.6317008,-0.5601895,1.602116,-0.93505526,-1.8444784,-0.95146716,2.095227,1.2721703,-1.001132,1.6683794,-0.9913157,-1.8540237,-1.0003134,2.0408998,1.2161833,-0.94914716,-1.5037539,1.1858366,0.29124838,1.0048985,0.8486863,0.7047411,-0.40509835,2.5668492,-0.3936348,0.85337746,-2.6642923,-0.040152308,4.5438957,0.4266414,-0.53232956,0.75950104,0.67805344,0.10769387,0.10331072,0.719703,-1.3022234,-0.41094652,1.0826322,1.0,0.0,0.0,0.0,0.0,0.0,0.0,-3.2168493,-0.00636521,-0.30337745,4.935789,8.568788,-2.5949955,-0.57713985,1.0804534,-5.4841995,-0.66682696
19.44778,83.817535,26.883497,7.584153,-0.6000084,1.3928024,0.021329157,-0.8167613,0.69562775,0.11759851,0.5831095,0.6341986,0.63510585,-0.55319965,1.5867033,-0.9217529,-1.8422638,-0.9420025,2.1043196,1.2796938,-1.0044671,1.6536165,-0.97901523,-1.8513935,-0.9902092,2.0495286,1.2228914,-0.9531993,-1.467578,1.2444632,0.25484422,1.0117109,0.8672694,0.6593865,-0.40623853,2.5402265,-0.39403915,0.8980459,-2.6616285,-0.040112164,4.441167,0.41373885,-0.5360184,0.7704603,0.68795156,0.098131634,0.099813044,0.71213067,-1.2898507,-0.3384976,1.0979613,1.0,0.0,0.0,0.0,0.0,0.0,0.0,-3.1902266,-0.005960852,-0.3480459,3.482771,5.773926,-3.306377,0.5119562,1.8631101,-4.5124054,-0.41190982
14.934303,76.99678,24.125294,8.388279,-0.33418036,1.2796017,0.03509237,-0.81076705,0.7152425,0.1165638,0.57318664,0.64314854,0.64051306,-0.5497482,1.5725398,-0.90749097,-1.839737,-0.93289053,2.1138434,1.2869427,-1.0081742,1.6391131,-0.96627796,-1.8490627,-0.9800564,2.0583558,1.2292086,-0.9572553,-1.4449903,1.2831784,0.22681628,1.015874,0.8878198,0.62265444,-0.40633452,2.5136302,-0.3944435,0.94168776,-2.6589675,-0.04007206,4.33854,0.40091214,-0.5390587,0.7815068,0.6975954,0.088575535,0.09657822,0.7044058,-1.2831383,-0.27688158,1.1043438,1.0,0.0,0.0,0.0,0.0,0.0,0.0,-3.16363,-0.005556494,-0.39168775,2.1263838,3.7953377,-2.4750323,0.2352953,2.0682335,-3.6618114,-0.29238462
13.035079,70.89055,21.784258,7.612541,-0.27606583,1.1246028,0.08824299,-0.807628,0.7261352,0.11020674,0.5461797,0.6530901,0.6471467,-0.5498542,1.5583503,-0.8936644,-1.838042,-0.9254384,2.1236649,1.2939233,-1.0122408,1.6247469,-0.9532746,-1.8469512,-0.9699999,2.0673852,1.2352167,-0.9613103,-1.4344692,1.305858,0.20703599,1.0014886,0.90758604,0.59352046,-0.40612438,2.4870603,-0.39484024,0.9843042,-2.656309,-0.040031996,4.2360163,0.38814685,-0.5415268,0.7925324,0.7069577,0.07906906,0.093529016,0.69657105,-1.2765998,-0.22002634,1.0994092,1.0,0.0,0.0,0.0,0.0,0.0,0.0,-3.1370602,-0.0051597655,-0.43430418,0.9120941,2.2057056,-1.6436815,-1.6428471,1.9936085,-2.873528,-0.25430918
11.872325,67.13913,20.418226,7.1254406,-0.23684669,1.0388229,0.1396064,-0.8096551,0.7324544,0.114758074,0.5244264,0.6607167,0.64510125,-0.5439354,1.5437814,-0.88002914,-1.8354754,-0.91755724,2.133457,1.2997268,-1.0157039,1.6104075,-0.94012916,-1.8449371,-0.96020377,2.07659,1.2409731,-0.9653587,-1.4343679,1.3172965,0.20071232,0.9716766,0.92486495,0.56988925,-0.40524542,2.4605172,-0.39523697,1.0258962,-2.6536531,-0.03999197,4.133595,0.3754431,-0.5434418,0.8034588,0.71600175,0.06964195,0.09061559,0.6886801,-1.27001,-0.16567293,1.0878937,1.0,0.0,0.0,0.0,0.0,0.0,0.0,-3.110517,-0.004763037,-0.47589618,-0.13713837,1.0914326,-0.28532147,-3.1983376,1.7460585,-2.300167,-0.1834333
12.663704,66.04715,20.007164,6.700399,-0.296956,0.9712206,0.16126701,-0.80214363,0.7412338,0.11104376,0.51317984,0.6577667,0.65273046,-0.5391138,1.5301931,-0.8660058,-1.8338327,-0.9088858,2.1423666,1.3062462,-1.0192701,1.596068,-0.9268969,-1.8429458,-0.9507328,2.085917,1.246533,-0.9693946,-1.4343705,1.3249665,0.19976781,0.93819326,0.93532366,0.551531,-0.40389988,2.4340005,-0.3956337,1.0664647,-2.651,-0.039951988,4.031276,0.36282253,-0.5447998,0.81425744,0.72470725,0.06028349,0.0878276,0.6807728,-1.2604077,-0.11078634,1.074379,1.0,0.0,0.0,0.0,0.0,0.0,0.0,-3.0840006,-0.0043663085,-0.51646465,-0.1467228,0.72038174,0.25472045,-3.566873,1.0659695,-1.7547965,-0.13487339
14.485657,66.348175,20.28634,5.7920246,-0.39061594,0.9419215,0.22695883,-0.80406535,0.74684393,0.12903507,0.4775817,0.6676301,0.6524856,-0.5364414,1.5156615,-0.85221255,-1.8300424,-0.90297467,2.15268,1.3117816,-1.0230387,1.5817114,-0.91359985,-1.8408535,-0.9416958,2.0953393,1.2519346,-0.97341627,-1.4365653,1.3312074,0.21368358,0.8915672,0.9447731,0.5369043,-0.40243903,2.4075103,-0.39603043,1.1060108,-2.6483495,-0.03991204,3.92906,0.3503244,-0.54559326,0.8249158,0.7330325,0.05098227,0.08514835,0.6729144,-1.2467221,-0.052280933,1.060218,1.0,0.0,0.0,0.0,0.0,0.0,0.0,-3.0575104,-0.00396958,-0.5560108,-0.37157536,0.5813122,1.761663,-4.881859,0.96063614,-1.3587832,-0.12680292
16.249104,67.37135,20.841993,5.201833,-0.45485342,0.93690205,0.29092866,-0.806292,0.75114113,0.15480883,0.4447379,0.67629105,0.6544073,-0.52560294,1.5010822,-0.8384857,-1.8253726,-0.89722204,2.1629684,1.3173754,-1.0259765,1.5673224,-0.9002427,-1.8384941,-0.93319285,2.104857,1.2572142,-0.97741693,-1.4401679,1.3371296,0.24465783,0.8358738,0.9542451,0.5253973,-0.4001097,2.3810468,-0.39642715,1.1445355,-2.645702,-0.03987214,3.826946,0.33798218,-0.5457611,0.83544403,0.74093014,0.041710313,0.08254257,0.6651837,-1.2296088,0.00962961,1.0472884,1.0,0.0,0.0,0.0,0.0,0.0,0.0,-3.0310469,-0.0035728514,-0.5945355,-0.5139828,0.5527973,3.4822583,-5.780947,0.96040964,-1.0292888,-0.041013956
15.796362,65.33725,19.515738,5.365821,-0.49134484,0.74377686,0.2360731,-0.8006341,0.7585674,0.12299327,0.4327312,0.67765856,0.6559944,-0.513739,1.4872589,-0.82438594,-1.8261948,-0.88991976,2.172623,1.3228136,-1.0287908,1.5529276,-0.8868073,-1.8360031,-0.92518866,2.1144547,1.2623984,-0.9813852,-1.4395014,1.3455485,0.25165215,0.7879051,0.9618785,0.5164353,-0.39661148,2.3546095,-0.39682388,1.1820399,-2.6430566,-0.039832275,3.724934,0.3258313,-0.54535294,0.8458161,0.74842876,0.032486934,0.080056794,0.65756357,-1.209058,0.06638253,1.0304706,1.0,0.0,0.0,0.0,0.0,0.0,0.0,-3.0046096,-0.003176123,-0.63203984,-0.07388592,0.8149624,1.0287225,-5.004549,0.80502033,-0.75793266,0.09793043
16.381538,62.843815,18.424183,4.6046805,-0.5784711,0.5629812,0.2383737,-0.8008344,0.75764185,0.12687838,0.39459535,0.6735951,0.6580665,-0.51308346,1.4728441,-0.81104314,-1.8233153,-0.88572913,2.1818142,1.328205,-1.0326935,1.5385481,-0.87330806,-1.8334968,-0.9177033,2.1240983,1.2675081,-0.98532003,-1.4377636,1.3514025,0.25146392,0.7347639,0.96533304,0.5097114,-0.39323685,2.328199,-0.3972206,1.2185248,-2.6404142,-0.039792452,3.6230242,0.31391865,-0.54439545,0.8559823,0.75554657,0.023351522,0.0777375,0.6500469,-1.1834632,0.12043185,1.0085114,1.0,0.0,0.0,0.0,0.0,0.0,0.0,-2.978199,-0.0027793944,-0.6685248,0.03938675,0.5702019,0.2838254,-5.5249333,0.39867163,-0.5021095,0.09935498
19.594135,63.536427,18.885347,2.9233932,-0.7571427,0.47146076,0.32594073,-0.7993534,0.76401424,0.15291594,0.33770168,0.68496627,0.6598651,-0.50245965,1.4586128,-0.79690665,-1.8182052,-0.8839331,2.192595,1.3334947,-1.035566,1.5241953,-0.85974014,-1.8309028,-0.9108845,2.1337953,1.2725626,-0.98921674,-1.4349071,1.3585676,0.2630394,0.66354936,0.9710687,0.5048742,-0.38927576,2.3018146,-0.39761734,1.2539914,-2.6377742,-0.03975267,3.5212162,0.30231738,-0.54286194,0.86591905,0.7622358,0.014325131,0.07558465,0.64271164,-1.1498517,0.1785394,0.985079,1.0,0.0,0.0,0.0,0.0,0.0,0.0,-2.9518147,-0.0023826659,-0.70399135,0.15044212,0.7079363,1.4696062,-7.329631,0.62395334,-0.2765417,0.159204
23.358013,65.42532,19.864944,1.0056391,-0.9874697,0.4140663,0.43657655,-0.8008183,0.77202576,0.18769109,0.27005956,0.6845721,0.65220547,-0.49365923,1.4441135,-0.7825376,-1.8121337,-0.8838785,2.2022524,1.3377832,-1.0385827,1.5098597,-0.8460797,-1.8280342,-0.90495837,2.1435342,1.2775751,-0.99307054,-1.4335173,1.368566,0.295957,0.5683219,0.9753492,0.50074667,-0.38491964,2.2754567,-0.39801407,1.2884407,-2.635137,-0.039712925,3.41951,0.29111683,-0.5406914,0.87561965,0.7684187,0.005416139,0.07359523,0.6356783,-1.1070088,0.24321291,0.9612651,1.0,0.0,0.0,0.0,0.0,0.0,0.0,-2.9254565,-0.0019859374,-0.7384407,0.002026558,0.997591,3.617847,-9.720683,0.47676563,-0.1625061,0.20136833
28.894161,64.45918,19.950232,-2.8410416,-1.3436422,0.17723748,0.591973,-0.7970855,0.773228,0.2173512,0.17073476,0.69475317,0.6515698,-0.49141008,1.4301511,-0.7687569,-1.8062991,-0.8878849,2.2130096,1.3427321,-1.0422115,1.4955508,-0.8323306,-1.8247211,-0.9002739,2.153338,1.2825552,-0.9968824,-1.430635,1.3770752,0.34420937,0.43441486,0.9822712,0.4982115,-0.38078815,2.249125,-0.3984108,1.3218737,-2.6325023,-0.03967322,3.3179052,0.28045905,-0.53783417,0.88502216,0.77398944,-0.003308702,0.07176544,0.6291097,-1.0482109,0.31240007,0.92915857,1.0,0.0,0.0,0.0,0.0,0.0,0.0,-2.899125,-0.0015892088,-0.77187365,0.16059875,0.86495876,5.1383076,-13.582349,0.74726343,0.08452535,0.19305348
31.808144,64.72244,20.296125,-4.340683,-1.495579,0.045942724,0.672991,-0.7920011,0.778123,0.2561686,0.100334674,0.6945091,0.65132886,-0.47181073,1.4163506,-0.7545183,-1.7991042,-0.89024043,2.2227888,1.3476881,-1.0440634,1.4812914,-0.81849754,-1.8208168,-0.8970238,2.1632028,1.2875162,-1.0006424,-1.4249356,1.3855562,0.40660447,0.28803593,0.98817754,0.4966564,-0.37513447,2.2228198,-0.39880753,1.3542914,-2.6298704,-0.039633557,3.2164023,0.27044675,-0.5342674,0.89409685,0.7788842,-0.011817005,0.07008685,0.62312716,-0.981053,0.3825423,0.89588535,1.0,0.0,0.0,0.0,0.0,0.0,0.0,-2.87282,-0.0011924803,-0.8042914,0.466156,0.8771658,6.5023065,-14.801603,0.67169666,0.2235651,0.36913157
35.28096,62.10767,19.444872,-7.566559,-1.8014246,-0.2674401,0.7689994,-0.79104626,0.7824151,0.28082162,-0.022315739,0.69929874,0.6472045,-0.46103644,1.4021868,-0.740256,-1.7927346,-0.8992554,2.2331326,1.3522367,-1.046746,1.4670855,-0.80458057,-1.8162944,-0.89548457,2.1731286,1.2924658,-1.0043408,-1.4193168,1.3938051,0.4682361,0.108678006,0.99440825,0.495882,-0.36868978,2.1965408,-0.39920425,1.385695,-2.6272411,-0.03959393,3.1150007,0.2612059,-0.5300026,0.9027647,0.783052,-0.020014249,0.068597995,0.6178375,-0.8995956,0.4514401,0.8524345,1.0,0.0,0.0,0.0,0.0,0.0,0.0,-2.846541,-0.0007957518,-0.83569497,0.4835844,0.8728981,6.3647747,-18.078304,0.72689056,0.3748238,0.48680305
37.075314,58.157417,18.020088,-10.030778,-2.0085163,-0.5992923,0.82830733,-0.78988105,0.7829198,0.3051934,-0.14228186,0.69917184,0.6428041,-0.43235895,1.3880974,-0.72628856,-1.7857751,-0.90971273,2.2430458,1.3567462,-1.0475767,1.4529291,-0.79060066,-1.8111999,-0.8959242,2.1831079,1.2974097,-1.0079571,-1.4143672,1.3996247,0.5236021,-0.09519533,0.9991421,0.49545652,-0.35974208,2.170288,-0.39960098,1.4160852,-2.6246145,-0.039554346,3.0137005,0.25285795,-0.52508163,0.91092396,0.78646266,-0.027775554,0.06735274,0.61332583,-0.80692095,0.5147598,0.7988207,1.0,0.0,0.0,0.0,0.0,0.0,0.0,-2.8202882,-0.0003990233,-0.86608523,0.45013428,0.64923763,5.6583524,-20.504528,0.60384274,0.4608333,0.7828653
33.330006,59.08002,18.278517,-6.549885,-1.6607854,-0.50956464,0.7547576,-0.7875886,0.7870537,0.35827294,-0.18025248,0.69617623,0.6448118,-0.3793617,1.3741703,-0.7118953,-1.7753726,-0.91394943,2.2527254,1.3618908,-1.0458933,1.4388224,-0.7765635,-1.8054702,-0.8981291,2.1931138,1.3023478,-1.0114495,-1.4095622,1.4052696,0.5894234,-0.26254052,1.0016549,0.49490163,-0.34614328,2.1440616,-0.3999977,1.4454632,-2.6219904,-0.039514802,2.9125018,0.24535143,-0.5195694,0.91863006,0.78917074,-0.035151735,0.06632057,0.6095698,-0.7252559,0.57150936,0.7560068,1.0,0.0,0.0,0.0,0.0,0.0,0.0,-2.7940617,-2.2947788e-06,-0.89546317,0.46451092,0.64976215,6.5953016,-16.814814,0.45070648,0.39738417,1.2800336
26.82577,59.11558,18.073584,-1.2325034,-1.1176614,-0.34452254,0.6058927,-0.7874605,0.78744835,0.39701837,-0.20282908,0.6951254,0.65221554,-0.33553883,1.3600763,-0.6978187,-1.7657684,-0.918412,2.2626264,1.3675693,-1.0450033,1.42475,-0.76248443,-1.7990558,-0.90159285,2.203135,1.307284,-1.0147816,-1.4063113,1.4091215,0.6585034,-0.3746067,1.0029205,0.4944662,-0.32922614,2.1178613,-0.40039444,1.4738299,-2.619369,-0.039475296,2.8114042,0.23851308,-0.5135422,0.9260094,0.79129744,-0.04228213,0.06542062,0.6064493,-0.66261894,0.61896145,0.7264413,1.0,0.0,0.0,0.0,0.0,0.0,0.0,-2.7678614,0.00039443374,-0.92382985,0.31900406,0.4868269,6.8287134,-11.274815,0.39310455,0.33805966,1.6298413
21.691265,58.674755,17.759354,2.9859576,-0.6888711,-0.23407933,0.48510623,-0.78457767,0.78849554,0.4302274,-0.2286119,0.69700253,0.6490874,-0.28164494,1.3462923,-0.6836349,-1.7560331,-0.92445403,2.2728353,1.3721927,-1.0429461,1.4107119,-0.7483758,-1.7919643,-0.9058348,2.2131715,1.3122107,-1.0179173,-1.4029787,1.4117559,0.7254872,-0.44100323,1.0046535,0.4933007,-0.30864236,2.0916872,-0.40079117,1.5011864,-2.6167502,-0.039435826,2.7104077,0.23218575,-0.5071068,0.9331708,0.7929509,-0.049285624,0.06458836,0.6038444,-0.6150887,0.65897006,0.7068996,1.0,0.0,0.0,0.0,0.0,0.0,0.0,-2.7416873,0.00079116225,-0.95118636,0.32846928,0.37810802,6.5574765,-6.7084193,0.48658848,0.2146244,2.005434
17.675428,56.007446,16.599321,5.3229527,-0.45195284,-0.25523227,0.3907082,-0.78853124,0.7869029,0.4535732,-0.26228866,0.68747306,0.64306337,-0.23856348,1.3318588,-0.6696855,-1.746607,-0.93206364,2.2819188,1.376517,-1.0417737,1.3966795,-0.7342595,-1.7842758,-0.91056883,2.2231927,1.3171221,-1.0208336,-1.4033937,1.4119878,0.782894,-0.48448843,1.0022496,0.49126244,-0.28598225,2.0655394,-0.4011879,1.5275337,-2.614134,-0.039396398,2.609512,0.22626762,-0.500309,0.94015235,0.7942202,-0.056206457,0.06381757,0.60164976,-0.5760728,0.6916036,0.68934447,1.0,0.0,0.0,0.0,0.0,0.0,0.0,-2.7155395,0.0011878908,-0.97753364,-0.05390644,0.1439333,5.5800796,-4.427701,0.083470345,0.0973165,2.220291
13.938041,55.217556,16.068993,8.213585,-0.19379401,-0.20904581,0.29220682,-0.78767276,0.7922813,0.4713358,-0.25736478,0.68994117,0.64369535,-0.16876677,1.3179122,-0.6550313,-1.7371422,-0.9363053,2.2921867,1.3814917,-1.0377103,1.3826376,-0.7201232,-1.7761085,-0.9155117,2.233191,1.3220106,-1.0234905,-1.4045924,1.4146223,0.8275341,-0.497758,1.0005628,0.48906878,-0.25910613,2.0394175,-0.40158463,1.5528728,-2.6115205,-0.03935701,2.5087173,0.22066471,-0.4932251,0.9470029,0.7951849,-0.063091405,0.063112624,0.5997642,-0.5469557,0.7191117,0.67754877,1.0,0.0,0.0,0.0,0.0,0.0,0.0,-2.6894174,0.0015846193,-1.0028727,-0.14424324,0.39172173,4.2868853,-1.4162719,0.17100573,0.04631877,2.645564
9.129941,52.027138,14.800966,11.46916,0.16674542,-0.17146187,0.16466972,-0.789555,0.7849004,0.48757413,-0.22817983,0.6847481,0.6503291,-0.1384892,1.3036821,-0.64163315,-1.7273511,-0.9383297,2.3016658,1.3870436,-1.0373394,1.3685728,-0.70599735,-1.767575,-0.92032206,2.2431626,1.3268839,-1.0258805,-1.4073497,1.4124215,0.8613902,-0.47583547,0.9973011,0.48733574,-0.23238818,2.0133219,-0.40198135,1.5772047,-2.6089096,-0.03931766,2.4080234,0.21525335,-0.48592758,0.95376974,0.79594153,-0.07000685,0.062446207,0.5980606,-0.5307561,0.7381413,0.6701375,1.0,0.0,0.0,0.0,0.0,0.0,0.0,-2.663322,0.0019813478,-1.0272048,-0.3183365,-0.087332726,3.2049537,2.0756662,0.020933151,0.05068183,2.622077
8.348514,47.995953,13.203172,10.785675,0.11121851,-0.35645956,0.13078748,-0.79365623,0.78313726,0.48548952,-0.25217432,0.6763169,0.6486061,-0.1220356,1.2892072,-0.62768364,-1.7190261,-0.9455395,2.3107944,1.3917445,-1.038084,1.3544623,-0.6919068,-1.7588375,-0.9249712,2.2530808,1.33174,-1.0280167,-1.4123986,1.4083639,0.8774804,-0.46169835,0.99095386,0.48573896,-0.20763925,1.9872525,-0.40237427,1.6005305,-2.606301,-0.03927835,2.30743,0.21002235,-0.4784813,0.9604126,0.796542,-0.07690772,0.061861243,0.5964723,-0.51185375,0.751837,0.6559916,1.0,0.0,0.0,0.0,0.0,0.0,0.0,-2.6372523,0.0023742616,-1.0505304,-0.55372715,-0.27840137,1.4577985,1.2872934,-0.32316446,0.06331205,2.4291873
10.667402,46.552628,12.77081,8.428545,-0.13659734,-0.5555362,0.1906613,-0.79406434,0.78542984,0.49619386,-0.28431904,0.6752734,0.64064485,-0.08163796,1.2750559,-0.6133638,-1.709218,-0.9534031,2.3206081,1.3958045,-1.0361805,1.3403059,-0.677843,-1.7499835,-0.9296633,2.262938,1.336577,-1.029903,-1.4168003,1.4060513,0.8876471,-0.47215408,0.9846294,0.4837782,-0.18251239,1.9612089,-0.40276337,1.6228511,-2.6036954,-0.039239082,2.2069373,0.20505449,-0.47088623,0.9668627,0.79696727,-0.083703764,0.061418943,0.5950331,-0.48290172,0.765866,0.63484806,1.0,0.0,0.0,0.0,0.0,0.0,0.0,-2.611209,0.0027633607,-1.0728512,-0.47893524,-0.109410286,0.88567734,-1.1582136,-0.35197735,0.048691034,2.4766297
9.639712,45.09192,12.441116,9.299873,0.0032184124,-0.5720658,0.18832317,-0.7950617,0.77931356,0.5098338,-0.2593605,0.6830732,0.6427685,-0.006005554,1.2607998,-0.59991163,-1.6990001,-0.95559937,2.3312454,1.4008539,-1.0305036,1.3261133,-0.66382205,-1.7410171,-0.9343859,2.2727647,1.3413969,-1.031509,-1.4202471,1.4011718,0.89916456,-0.4727113,0.9829686,0.48214275,-0.15343255,1.9351915,-0.40315247,1.6441675,-2.601092,-0.03919985,2.1065452,0.20034772,-0.46317673,0.9731148,0.79721045,-0.09038742,0.06109998,0.59376115,-0.45764318,0.7768258,0.6155287,1.0,0.0,0.0,0.0,0.0,0.0,0.0,-2.5851915,0.0031524599,-1.0941675,-0.38588047,-0.36392212,1.017499,-0.17436743,0.118768215,0.06812811,2.868867
9.041916,44.14459,12.261785,9.924628,0.079122484,-0.58959454,0.18776259,-0.7957161,0.77635753,0.51705116,-0.2501241,0.68178564,0.6446219,0.06361508,1.2465417,-0.5861863,-1.689312,-0.9593983,2.3409433,1.4058591,-1.0251476,1.311894,-0.64985645,-1.7319324,-0.93905985,2.2825837,1.3462034,-1.0327984,-1.4225138,1.3953948,0.91110474,-0.46601215,0.98253596,0.48086992,-0.12092846,1.9092001,-0.40354156,1.6644807,-2.5984917,-0.039160658,2.0062532,0.19587624,-0.45536804,0.979186,0.7972733,-0.09697958,0.060878657,0.5926584,-0.434511,0.78633523,0.597839,1.0,0.0,0.0,0.0,0.0,0.0,0.0,-2.5592,0.003541559,-1.1144807,-0.26922226,-0.4520893,1.0581136,0.54939985,0.24471283,0.09513497,3.2100334
7.1360936,43.018967,11.774211,11.33486,0.19982308,-0.5802538,0.14210609,-0.8018949,0.7770815,0.5110498,-0.23289514,0.6790533,0.65139407,0.13742442,1.2317046,-0.5721483,-1.6808274,-0.96234936,2.3504891,1.4113429,-1.019056,1.2976328,-0.63593376,-1.7227848,-0.94357836,2.292399,1.3510023,-1.0337368,-1.4275484,1.391583,0.9154691,-0.4475736,0.9818778,0.48030433,-0.08499498,1.8832346,-0.40393066,1.6837918,-2.5958936,-0.039121505,1.9060614,0.19159903,-0.44747925,0.9850993,0.7971822,-0.10350359,0.060757797,0.59168905,-0.416278,0.7935458,0.58258355,1.0,0.0,0.0,0.0,0.0,0.0,0.0,-2.5332346,0.003930658,-1.1337917,-0.56352615,-0.2544403,0.31180382,1.7136157,0.223279,0.14461279,3.553021
8.445353,43.449715,12.199795,10.790735,0.10638636,-0.6172831,0.18706211,-0.7980572,0.7754803,0.52656037,-0.23559465,0.6710236,0.6538866,0.21318251,1.2178271,-0.5583857,-1.6701287,-0.9671378,2.3595014,1.416391,-1.0124186,1.2833468,-0.62204254,-1.7135532,-0.9479376,2.3021836,1.3557993,-1.0342919,-1.429143,1.3887018,0.9253617,-0.43238956,0.9782183,0.4802215,-0.045930207,1.8572952,-0.40431976,1.7021016,-2.5932982,-0.039082393,1.8059697,0.18752971,-0.4394951,0.9908625,0.7969201,-0.10997173,0.06075171,0.5908754,-0.39458343,0.8033335,0.5677007,1.0,0.0,0.0,0.0,0.0,0.0,0.0,-2.5072951,0.004319757,-1.1521015,-0.20880699,-0.161767,0.86176395,1.4017224,-0.07748604,0.19742846,3.8671746
8.283068,42.511765,11.929286,10.784463,0.10531074,-0.6679874,0.18456632,-0.80217594,0.77467793,0.52706534,-0.22997843,0.6758791,0.654448,0.25506055,1.2031292,-0.54457474,-1.6608467,-0.97093546,2.3697715,1.4212441,-1.0087858,1.2690359,-0.6081723,-1.7042358,-0.9521586,2.3119454,1.3605963,-1.0344635,-1.4318845,1.3868084,0.93347555,-0.4191151,0.9765325,0.48025516,-0.00759379,1.8313817,-0.40470886,1.7194113,-2.5907054,-0.03904332,1.7059782,0.18367927,-0.43141937,0.99647355,0.7964824,-0.11637875,0.060865328,0.5902264,-0.3724798,0.81224346,0.55230093,1.0,0.0,0.0,0.0,0.0,0.0,0.0,-2.4813817,0.0047088563,-1.1694112,-0.32770634,-0.064229965,0.69470406,1.2128949,0.112104416,0.20433664,3.796779
8.239629,40.52294,11.393823,10.488453,0.11602777,-0.74728453,0.19100538,-0.80302835,0.7676881,0.53389406,-0.2257086,0.67361903,0.65031505,0.29364982,1.1887331,-0.5314035,-1.6508464,-0.9747294,2.3793073,1.4256278,-1.0050986,1.2547003,-0.5943459,-1.6948268,-0.9562689,2.321692,1.3653914,-1.0342613,-1.4342597,1.3816241,0.9429911,-0.4087507,0.9746935,0.4798961,0.029196443,1.8054941,-0.40509796,1.7357218,-2.5881152,-0.03900428,1.6060865,0.18005553,-0.42326355,1.0019171,0.79586774,-0.12270587,0.06109063,0.5897504,-0.34949732,0.818839,0.53515744,1.0,0.0,0.0,0.0,0.0,0.0,0.0,-2.455494,0.0050979555,-1.1857219,-0.28796196,-0.39565563,0.8417964,0.9214461,0.08609295,0.16431808,3.6410975
9.142449,38.70174,10.883798,9.322945,0.035600305,-0.87601936,0.21425094,-0.79987764,0.7628276,0.5363435,-0.23457475,0.6724419,0.656058,0.31943282,1.1747125,-0.5180632,-1.6411924,-0.9797264,2.3889363,1.4309971,-1.002318,1.2403628,-0.5805892,-1.685334,-0.9603535,2.3314195,1.3701884,-1.033712,-1.4336482,1.374098,0.9510816,-0.40869114,0.9728203,0.4801919,0.06318886,1.7796323,-0.40548706,1.7510343,-2.5855277,-0.038965285,1.5062947,0.17669511,-0.41505432,1.0071614,0.7950685,-0.12891535,0.061431162,0.5894685,-0.32198068,0.8234883,0.5142711,1.0,0.0,0.0,0.0,0.0,0.0,0.0,-2.4296322,0.0054870546,-1.2010343,0.025582314,-0.6335974,0.7040143,-0.1013875,0.06197691,0.23766756,3.3631592
8.199608,38.203236,10.833025,10.611795,0.15224832,-0.8525757,0.17824909,-0.7958485,0.76133114,0.5382589,-0.20380068,0.6740125,0.6553442,0.36204815,1.1607779,-0.50445604,-1.6315081,-0.9807336,2.3988206,1.4357228,-0.9975072,1.2260557,-0.566903,-1.6757743,-0.96432173,2.3411355,1.3749853,-1.0328327,-1.4296875,1.3672106,0.9570815,-0.39330935,0.9721061,0.48028934,0.09615992,1.7537965,-0.40587616,1.7653494,-2.5829427,-0.03892633,1.4066027,0.17357802,-0.40681458,1.0122273,0.7941006,-0.13503125,0.06187012,0.589358,-0.29870024,0.8273456,0.49745995,1.0,0.0,0.0,0.0,0.0,0.0,0.0,-2.4037964,0.0058761537,-1.2153494,0.35676956,-0.565815,0.48662424,1.426822,0.1881361,0.20210743,3.2591133
7.6620903,36.951786,10.462208,11.1402235,0.20862836,-0.8866283,0.15104236,-0.7906028,0.75704736,0.53493965,-0.19055502,0.67295325,0.6539865,0.38913435,1.1469954,-0.49119824,-1.6222804,-0.9833772,2.4084308,1.440384,-0.9939193,1.2118136,-0.5532874,-1.6661937,-0.9680811,2.350844,1.3797823,-1.0316387,-1.4223684,1.3600862,0.9580592,-0.37057132,0.97147185,0.48014206,0.12694564,1.7279865,-0.40626526,1.7786684,-2.5803604,-0.03888741,1.3070104,0.17068185,-0.39853668,1.017134,0.792985,-0.1410761,0.06239692,0.58938843,-0.2769574,0.82954353,0.48186362,1.0,0.0,0.0,0.0,0.0,0.0,0.0,-2.3779864,0.006265253,-1.2286685,0.69389343,-0.58910847,-0.016725063,2.1603346,0.19295216,0.1692295,3.0397043
6.059017,34.48662,9.602675,12.012209,0.32775646,-0.9072928,0.103680015,-0.79432917,0.7496084,0.5334308,-0.17554145,0.67019254,0.6528504,0.40170148,1.1323806,-0.47832656,-1.6128507,-0.9856353,2.4178631,1.4450674,-0.9914686,1.1976191,-0.5397595,-1.6566265,-0.9715735,2.3605409,1.3845774,-1.0301625,-1.4186108,1.3507699,0.9559089,-0.3426434,0.9700155,0.47973874,0.15433459,1.7022022,-0.40665436,1.7909923,-2.5777805,-0.03884853,1.2075177,0.16797368,-0.39025497,1.0218877,0.7917558,-0.14705676,0.063002236,0.58951473,-0.25919548,0.82836205,0.46667942,1.0,0.0,0.0,0.0,0.0,0.0,0.0,-2.3522022,0.006654352,-1.2409923,0.32129288,-0.80952644,-0.31442642,2.6672363,0.10678768,0.12924075,2.6988058
6.0034065,33.495552,9.327812,11.968775,0.324494,-0.9545424,0.09565243,-0.78947866,0.7460849,0.5318487,-0.16625857,0.6699894,0.6535329,0.4159666,1.1186712,-0.465151,-1.6034416,-0.98819935,2.4275398,1.4499307,-0.9885658,1.1834685,-0.5263232,-1.6470935,-0.9747988,2.3702264,1.3893687,-1.0284344,-1.4140834,1.3416986,0.9521082,-0.31619036,0.9686204,0.47936103,0.17873603,1.6764437,-0.40704346,1.8023219,-2.5752032,-0.03880969,1.1081245,0.16544831,-0.38199997,1.0264871,0.7904287,-0.15296759,0.06368533,0.58971804,-0.24086039,0.8264619,0.45127046,1.0,0.0,0.0,0.0,0.0,0.0,0.0,-2.3264437,0.007043451,-1.252322,0.39904118,-0.7872343,-0.47234297,2.523148,0.10559559,0.12741685,2.4008365
7.2705817,31.181604,8.421501,9.315298,0.13056338,-1.1703079,0.1488289,-0.7951552,0.7391239,0.52948827,-0.20594972,0.6734457,0.65030015,0.42138997,1.1039529,-0.45241082,-1.5941447,-0.99539375,2.437571,1.4543986,-0.9862954,1.1693255,-0.512987,-1.6376045,-0.9780146,2.3799043,1.3941542,-1.026487,-1.4146419,1.3312368,0.94759166,-0.32372886,0.96849746,0.47885948,0.19979821,1.6507109,-0.40743256,1.8126583,-2.5726285,-0.038770888,1.0088305,0.16317819,-0.37378693,1.0308635,0.78899264,-0.15870859,0.064478196,0.59003776,-0.21305741,0.82121557,0.42677638,1.0,0.0,0.0,0.0,0.0,0.0,0.0,-2.300711,0.00743255,-1.2626584,-0.096488,-0.93729496,-0.51481724,-0.8598685,0.18954277,0.13215542,2.0754008
10.166069,30.852621,8.134511,5.3754787,-0.23668617,-1.4419372,0.24105898,-0.79740936,0.73986435,0.5263582,-0.26534808,0.6805762,0.6488021,0.41945505,1.0895846,-0.43900058,-1.5849687,-1.0045494,2.4479618,1.4590344,-0.9845415,1.1551558,-0.499729,-1.628165,-0.9816519,2.389605,1.398934,-1.0243565,-1.4178066,1.3243272,0.94252175,-0.3773619,0.9710336,0.47853538,0.2172736,1.6250039,-0.40782166,1.8220026,-2.5700564,-0.038732126,0.9096359,0.16130553,-0.3656273,1.0349137,0.7874117,-0.16411942,0.065438025,0.5905637,-0.16937096,0.8149668,0.39150947,1.0,0.0,0.0,0.0,0.0,0.0,0.0,-2.275004,0.007821649,-1.2720027,-0.323534,-0.59349537,-0.5501032,-5.431861,0.40403605,0.17666817,1.7320067
12.406865,29.843372,7.8077564,2.4159536,-0.47796643,-1.6675022,0.32276636,-0.79003006,0.73155934,0.5281395,-0.31239724,0.67478365,0.64409333,0.43792674,1.0761528,-0.42657307,-1.575351,-1.0128917,2.4570835,1.4633434,-0.9805638,1.1409899,-0.48655304,-1.618758,-0.9860474,2.3993134,1.40371,-1.022062,-1.4160956,1.3156731,0.9399403,-0.46041688,0.9711098,0.47799766,0.23357822,1.5993227,-0.40821075,1.8303558,-2.567487,-0.038693402,0.81054044,0.15995824,-0.35754013,1.0385535,0.785645,-0.16907388,0.06660711,0.59138757,-0.113924876,0.8064302,0.34859774,1.0,0.0,0.0,0.0,0.0,0.0,0.0,-2.2493227,0.008210748,-1.2803557,0.2168417,-0.773716,-0.31735897,-8.342576,0.12221336,0.17184615,1.623553
12.42231,29.224068,7.654786,2.2395153,-0.49588436,-1.7188799,0.32526034,-0.78844476,0.72739774,0.5292805,-0.33967325,0.667578,0.6465464,0.44993156,1.0621455,-0.41381326,-1.5658299,-1.0200148,2.4660711,1.4683646,-0.9770688,1.1268564,-0.47346243,-1.6093585,-0.9912907,2.4089952,1.4084822,-1.0196148,-1.412275,1.3071797,0.9396079,-0.545659,0.96764815,0.4776978,0.24852681,1.573667,-0.40859985,1.8377186,-2.56492,-0.038654715,0.7115441,0.15917617,-0.34954453,1.0417624,0.78368473,-0.17353635,0.06799998,0.5925364,-0.057217196,0.797013,0.30555674,1.0,0.0,0.0,0.0,0.0,0.0,0.0,-2.2236671,0.008599848,-1.2877185,0.4458189,-0.75495243,-0.11229515,-8.551002,-0.23304224,0.18532872,1.4929682
9.03099,28.172634,7.5902643,6.9235106,-0.079423785,-1.4933143,0.20475346,-0.77746654,0.7216639,0.52279246,-0.29674056,0.6561191,0.6463706,0.48876515,1.0491098,-0.40129605,-1.5570793,-1.0209647,2.474607,1.4731193,-0.9707383,1.1128088,-0.460461,-1.5999858,-0.99698794,2.4186082,1.4132506,-1.0170075,-1.4021382,1.2981422,0.93610543,-0.5779444,0.9599775,0.47703177,0.26490685,1.548037,-0.40898895,1.8440922,-2.5623555,-0.03861607,0.6126467,0.15883341,-0.34163666,1.0446421,0.78158146,-0.177647,0.06956984,0.5939125,-0.017701896,0.7879045,0.27599892,1.0,0.0,0.0,0.0,0.0,0.0,0.0,-2.1980371,0.008988947,-1.2940922,1.0358572,-0.7924795,-0.4541278,-3.2969952,-0.59525967,0.10690093,1.624924
6.5925035,26.118416,6.9069057,9.292897,0.16644734,-1.4104797,0.11884497,-0.7798875,0.717034,0.5142695,-0.31032577,0.65587926,0.6486077,0.48728213,1.0348201,-0.3887576,-1.548559,-1.0280205,2.4841962,1.4781114,-0.96827924,1.0988413,-0.4475492,-1.5906856,-1.0028502,2.4281526,1.4180132,-1.0142533,-1.3950648,1.2892454,0.92771345,-0.58932143,0.95314014,0.47639152,0.27893,1.5224327,-0.40937805,1.8494776,-2.5597937,-0.03857746,0.5138482,0.15881592,-0.3338318,1.0472654,0.7793959,-0.18150178,0.0712771,0.5954147,0.012352723,0.7767723,0.25168532,1.0,0.0,0.0,0.0,0.0,0.0,0.0,-2.1724327,0.009378046,-1.2994776,0.68774223,-0.77364445,-0.9259105,-1.2338281,-0.49402714,0.08336902,1.3848066
6.827639,25.57008,6.6282787,8.477583,0.09415555,-1.491609,0.12597209,-0.78138185,0.7170646,0.5108023,-0.3581869,0.65806586,0.64847976,0.4811505,1.0207031,-0.37584272,-1.5396054,-1.0386689,2.4939592,1.4828612,-0.9661382,1.0849138,-0.4347032,-1.5814788,-1.0089308,2.4376473,1.4227682,-1.0113789,-1.3919097,1.2834498,0.91824824,-0.61459434,0.948916,0.47574532,0.29014477,1.496854,-0.40976715,1.8538759,-2.5572343,-0.03853889,0.4151485,0.15912692,-0.32614136,1.0496241,0.777149,-0.18507543,0.07312981,0.5970246,0.04594108,0.7647645,0.22461914,1.0,0.0,0.0,0.0,0.0,0.0,0.0,-2.146854,0.009767145,-1.3038759,0.29771328,-0.46732426,-1.0173559,-2.6105762,-0.2513528,0.07735491,1.1104882
6.873217,24.647661,6.3575687,8.061457,0.07934034,-1.5443354,0.13628025,-0.7782627,0.712282,0.5096596,-0.3792838,0.655255,0.64945555,0.48834926,1.0070876,-0.363475,-1.5305129,-1.0468591,2.5031729,1.4877138,-0.96254396,1.0710112,-0.42191395,-1.5723522,-1.0153204,2.447104,1.4275194,-1.0084015,-1.3895283,1.2777855,0.91062206,-0.64719844,0.94539917,0.47522914,0.30003348,1.4713007,-0.41014862,1.8572878,-2.5546777,-0.03850036,0.31654748,0.15978757,-0.318573,1.0517,0.7748402,-0.18833572,0.07513045,0.59875506,0.081154235,0.75160724,0.19602169,1.0,0.0,0.0,0.0,0.0,0.0,0.0,-2.1213007,0.010148615,-1.3072877,0.22807121,-0.45583248,-0.83174706,-3.3358932,-0.19000769,0.084632635,0.9807527
6.5876694,21.627632,5.123431,6.8110204,0.082813084,-1.6902523,0.13904601,-0.77790326,0.70386803,0.49487773,-0.4181693,0.6611294,0.6493466,0.47822222,0.99322087,-0.35152715,-1.5228643,-1.0571374,2.513217,1.492454,-0.9605793,1.0571257,-0.40920386,-1.5633457,-1.0221602,2.456553,1.4322649,-1.0053478,-1.3880655,1.2690923,0.8970631,-0.69637686,0.9452907,0.47476065,0.30722845,1.4457731,-0.4105301,1.8597144,-2.5521235,-0.038461868,0.21804506,0.16082427,-0.31119156,1.0534486,0.7724829,-0.19120798,0.07727285,0.60061514,0.11934206,0.73216677,0.16193238,1.0,0.0,0.0,0.0,0.0,0.0,0.0,-2.0957732,0.010530084,-1.3097143,0.16171932,-0.7659435,-1.4215589,-4.984939,0.117611885,0.08355975,0.7134557
4.916948,17.181396,3.3478894,6.840659,0.21813202,-1.7759422,0.091163516,-0.77981365,0.6921422,0.47479331,-0.44099674,0.65340894,0.6525994,0.46863332,0.97914433,-0.33998963,-1.5158663,-1.0662599,2.521894,1.4975249,-0.95848453,1.0432402,-0.39662108,-1.5545471,-1.0295187,2.4659867,1.4370085,-1.0022389,-1.3886209,1.254992,0.8738823,-0.74912703,0.9429187,0.4745197,0.311952,1.420271,-0.41091156,1.8611567,-2.549572,-0.03842341,0.11964112,0.16222501,-0.30405807,1.0548344,0.7701193,-0.19363637,0.07955356,0.60257155,0.15491945,0.7049476,0.12497072,1.0,0.0,0.0,0.0,0.0,0.0,0.0,-2.070271,0.010911554,-1.3111567,-0.036144257,-1.3130188,-2.3709297,-5.354309,-0.13326406,0.08984208,0.46123862
4.0704713,14.35397,2.0038626,6.118233,0.22359094,-1.8909397,0.06189007,-0.78388065,0.6873442,0.45045507,-0.48602492,0.6475461,0.65635395,0.45952028,0.9648521,-0.32788664,-1.5095016,-1.0781212,2.5307415,1.502644,-0.95628685,1.029328,-0.38418183,-1.5460613,-1.0374953,2.4753785,1.4417521,-0.9990994,-1.3921689,1.2405863,0.8398317,-0.8142181,0.93808424,0.47457704,0.31466907,1.3947945,-0.41129303,1.8616158,-2.547023,-0.038384996,0.02133555,0.16399567,-0.29722595,1.0558189,0.76779723,-0.19555567,0.081998006,0.6045838,0.19206242,0.6720342,0.08377987,1.0,0.0,0.0,0.0,0.0,0.0,0.0,-2.0447946,0.011293024,-1.3116157,-0.32086372,-1.3511419,-3.444171,-6.5840006,-0.4128456,0.10242462,0.25926828
3.9702542,14.913853,2.374294,6.858801,0.26305017,-1.8477261,0.05679418,-0.7809975,0.68575317,0.44454345,-0.50652003,0.6501927,0.6545426,0.4599764,0.95122826,-0.3156065,-1.501607,-1.0881473,2.540398,1.5072063,-0.95310175,1.0153929,-0.37186036,-1.5378902,-1.046084,2.4847322,1.4464937,-0.99593794,-1.3939595,1.2296824,0.8093127,-0.8739361,0.93485564,0.47433478,0.31666583,1.3693434,-0.4116745,1.8610926,-2.5444765,-0.03834662,-0.07687173,0.1661287,-0.29071808,1.056412,0.76552767,-0.19696991,0.08460287,0.60664034,0.22756857,0.6412714,0.04545341,1.0,0.0,0.0,0.0,0.0,0.0,0.0,-2.0193434,0.011674494,-1.3110926,-0.15022755,-0.9967327,-3.0960083,-6.044519,-0.24065971,0.056171417,0.1891911
3.740647,14.418693,2.3827798,7.312837,0.32121646,-1.8243661,0.057703394,-0.7786827,0.6777852,0.43323165,-0.5373118,0.6485617,0.6571377,0.45665216,0.9375246,-0.30408183,-1.494567,-1.0998152,2.5495882,1.5122075,-0.95027274,1.0014578,-0.3596476,-1.5299976,-1.0552508,2.494059,1.4512335,-0.99276125,-1.3933035,1.2188373,0.7825685,-0.931252,0.9322013,0.47423232,0.3178902,1.3439177,-0.41205597,1.859588,-2.5419326,-0.03830828,-0.17498082,0.16860744,-0.2844963,1.0566308,0.7633063,-0.19790064,0.087341666,0.6087446,0.26153293,0.61087215,0.008406266,1.0,0.0,0.0,0.0,0.0,0.0,0.0,-1.9939177,0.012055963,-1.309588,0.100421906,-0.9891987,-2.728796,-5.802822,-0.1783371,0.056511164,0.111693144
3.1529157,14.390667,2.734586,8.908285,0.42681587,-1.7106014,0.045402378,-0.7780251,0.6720308,0.4282874,-0.548843,0.63621235,0.65792555,0.46963754,0.9236553,-0.29244453,-1.4871688,-1.1101351,2.5576804,1.5170261,-0.9457975,0.98753625,-0.3475388,-1.522311,-1.0648867,2.5033326,1.4559733,-0.9895655,-1.3917336,1.2085743,0.76380134,-0.97447664,0.9259564,0.47410098,0.3200702,1.3185174,-0.41243744,1.8571031,-2.5393913,-0.03826998,-0.2729918,0.17139216,-0.27856445,1.0565153,0.761127,-0.198409,0.09019224,0.61088854,0.29056978,0.58365154,-0.023801971,1.0,0.0,0.0,0.0,0.0,0.0,0.0,-1.9685174,0.012437433,-1.3071032,0.16138554,-0.9251833,-1.9257188,-4.40706,-0.50964355,0.038564205,0.20463467
2.4301572,11.952932,2.06733,9.100304,0.52357227,-1.7021852,0.05232975,-0.7780521,0.6558761,0.42316425,-0.5849322,0.6232939,0.66332346,0.47253487,0.90973103,-0.2819512,-1.4799945,-1.12338,2.565662,1.5223056,-0.942312,0.9736307,-0.33557972,-1.5147636,-1.0749708,2.5125108,1.4607168,-0.9863478,-1.390051,1.191983,0.75148296,-1.020051,0.9152613,0.47442818,0.32226688,1.2931426,-0.4128189,1.8536388,-2.5368524,-0.03823172,-0.3709048,0.17445241,-0.2729187,1.0560707,0.75898373,-0.19851336,0.09313106,0.61307645,0.3173081,0.554058,-0.056894623,1.0,0.0,0.0,0.0,0.0,0.0,0.0,-1.9431425,0.012818903,-1.3036387,0.1850605,-1.5616179,-1.2901306,-4.64437,-0.95795393,0.07222891,0.20112991
2.4532027,11.107063,2.2095952,9.491152,0.5593853,-1.6564056,0.08555723,-0.766848,0.6413381,0.42822692,-0.60656536,0.59658355,0.6590964,0.4915344,0.89694595,-0.2714459,-1.4719409,-1.1356274,2.572169,1.5266265,-0.93719435,0.95979196,-0.3238276,-1.5072639,-1.0854899,2.5215135,1.4654585,-0.9830967,-1.3816019,1.1699594,0.74917316,-1.0627115,0.89552903,0.4742878,0.32605729,1.267793,-0.41320038,1.849196,-2.534316,-0.038193494,-0.46871993,0.17777464,-0.2675476,1.0553032,0.7568479,-0.19823246,0.09614171,0.6153387,0.34286374,0.52595747,-0.088918746,1.0,0.0,0.0,0.0,0.0,0.0,0.0,-1.917793,0.013200372,-1.299196,0.88481903,-2.1031857,-0.32541752,-4.3519735,-1.8467665,0.019568205,0.35738945
1.5358267,8.285633,1.5725362,10.239737,0.7366115,-1.6075929,0.09426038,-0.75925946,0.6185966,0.4314393,-0.62528086,0.58585465,0.6583616,0.49677345,0.883866,-0.26196793,-1.4641199,-1.148018,2.5800989,1.5312947,-0.93341935,0.9460705,-0.312363,-1.4997375,-1.0964037,2.5303063,1.4701983,-0.9798056,-1.3688517,1.1389312,0.7535434,-1.1014875,0.87425184,0.47392127,0.32999423,1.2424688,-0.41358185,1.8437759,-2.5317824,-0.03815531,-0.5664373,0.18131793,-0.2624817,1.0542227,0.75469744,-0.19759257,0.099174365,0.6177001,0.36349183,0.49558705,-0.11990341,1.0,0.0,0.0,0.0,0.0,0.0,0.0,-1.8924688,0.013581842,-1.2937758,1.3263226,-3.0068398,0.3230214,-3.9743423,-1.993835,-0.014322996,0.36613345
0.021554947,5.2526712,0.60742545,11.442596,0.9021627,-1.5435264,0.061847128,-0.757156,0.5981138,0.4278039,-0.63821274,0.5555726,0.659381,0.50575006,0.8703549,-0.25255162,-1.4569571,-1.160225,2.5858636,1.5361364,-0.9292306,0.93246824,-0.3012508,-1.4921691,-1.1076552,2.5388322,1.4749342,-0.97647345,-1.3573643,1.1022984,0.7575004,-1.133319,0.8457856,0.47350886,0.3342618,1.21717,-0.41396332,1.8373792,-2.529251,-0.038117163,-0.66405696,0.185028,-0.2577324,1.0528445,0.75254357,-0.19661851,0.10220966,0.620139,0.37820128,0.4631348,-0.14918585,1.0,0.0,0.0,0.0,0.0,0.0,0.0,-1.86717,0.013963312,-1.2873793,1.1753798,-3.5719156,0.30144453,-3.2994747,-2.7116776,-0.037640333,0.39035678
-1.3541297,0.79828954,-0.5603914,12.140323,1.1494489,-1.4946088,0.07691696,-0.7457201,0.5571888,0.445773,-0.6595739,0.53365636,0.64968675,0.51044846,0.8578962,-0.2455319,-1.4475918,-1.1736126,2.592198,1.5399029,-0.9254286,0.91900426,-0.2906216,-1.4844863,-1.1192213,2.5470529,1.4796568,-0.97309935,-1.342623,1.0500704,0.7714803,-1.1648178,0.81445843,0.4720414,0.33835566,1.1918966,-0.4143448,1.8300072,-2.5267224,-0.038079053,-0.76157904,0.1888383,-0.2533455,1.0511745,0.7503788,-0.19532296,0.10518247,0.62266946,0.38634348,0.4261032,-0.17814484,1.0,0.0,0.0,0.0,0.0,0.0,0.0,-1.8418965,0.014344782,-1.2800071,1.5214205,-5.1395893,1.2771249,-3.2798767,-2.9947996,-0.15559196,0.36541224
-5.7229137,-10.534748,-4.7532477,13.696261,1.6028321,-1.4792904,0.00076080486,-0.7207383,0.48894978,0.41935766,-0.65820235,0.43128517,0.64442825,0.5528833,0.84693044,-0.24172664,-1.4425505,-1.1850415,2.5901814,1.5440997,-0.91781104,0.90577585,-0.28074297,-1.4767997,-1.1310087,2.5547051,1.4843622,-0.96965945,-1.3159516,0.9672952,0.7671064,-1.1841205,0.7493944,0.469834,0.3456938,1.1666484,-0.41472626,1.8216606,-2.5241961,-0.03804098,-0.8590036,0.1926318,-0.2494278,1.04921,0.748245,-0.19372211,0.10808047,0.6252358,0.38082203,0.37446544,-0.20758015,1.0,0.0,0.0,0.0,0.0,0.0,0.0,-1.8166484,0.014726251,-1.2716606,2.762723,-8.217585,-0.5948663,-2.1081924,-6.394708,-0.2575338,0.6480634
-8.986263,-16.53475,-7.59923,15.240372,1.9973049,-1.4871063,-0.12218797,-0.7123435,0.4567419,0.37200803,-0.66362625,0.44246927,0.6321641,0.52763474,0.8345415,-0.23506878,-1.4395989,-1.1973714,2.598952,1.5475787,-0.916896,0.8928154,-0.2717174,-1.4694068,-1.1429335,2.5618005,1.4890352,-0.966169,-1.2891507,0.8811156,0.72970164,-1.1960324,0.69693476,0.46624562,0.34981415,1.1414253,-0.41510773,1.8123406,-2.5216725,-0.03800295,-0.9563308,0.19629358,-0.24612427,1.046963,0.74624395,-0.19180068,0.11086307,0.62772745,0.36445904,0.31188023,-0.23498124,1.0,0.0,0.0,0.0,0.0,0.0,0.0,-1.7914252,0.015107721,-1.2623405,2.7473688,-8.576334,-3.8401604,-1.3926506,-5.1757812,-0.431031,0.31549335
-8.712878,-15.854326,-7.2288036,15.352049,1.871276,-1.4481993,-0.108328804,-0.69494843,0.41649774,0.37294266,-0.6847475,0.35777143,0.61578023,0.5344301,0.82332057,-0.23006763,-1.4321126,-1.2114083,2.5975776,1.5506133,-0.912726,0.88014394,-0.26354536,-1.462384,-1.1550165,2.5682397,1.4936625,-0.9626385,-1.2596047,0.7960261,0.69259626,-1.213212,0.62649685,0.46113423,0.35373098,1.1162274,-0.4154892,1.802048,-2.5191512,-0.037964955,-1.0535607,0.19981284,-0.24340439,1.0444396,0.74439687,-0.18955736,0.11357721,0.63011223,0.35031623,0.25362828,-0.26230165,1.0,0.0,0.0,0.0,0.0,0.0,0.0,-1.7662274,0.015489191,-1.252048,3.0331612,-8.47007,-3.824687,-1.9005537,-6.9749713,-0.59713125,0.29722452
-13.268839,-26.625284,-11.71054,16.583038,2.385039,-1.4536346,-0.20690438,-0.671023,0.32971025,0.31373668,-0.6874756,0.28722718,0.607777,0.54189104,0.8130416,-0.23057434,-1.4310104,-1.2237641,2.5969625,1.5544401,-0.9084494,0.867812,-0.25640854,-1.4559352,-1.1672503,2.5738778,1.4982344,-0.9590708,-1.2240099,0.68625164,0.6286174,-1.2274795,0.54296076,0.45528778,0.3573942,1.0910548,-0.41587067,1.7907838,-2.5166326,-0.037926998,-1.1506934,0.20308846,-0.24140549,1.0416303,0.7427733,-0.18697152,0.11621225,0.63231647,0.32185787,0.17861061,-0.2907399,1.0,0.0,0.0,0.0,0.0,0.0,0.0,-1.7410548,0.01587066,-1.2407837,3.6849976,-10.968721,-6.526363,-1.6283274,-8.3327055,-0.71083903,0.24115443
-26.125101,-60.200596,-25.135159,18.383379,3.9031174,-1.5411087,-0.40829232,-0.62240416,0.12829201,0.2184114,-0.6969676,0.116585106,0.5899128,0.53188574,0.80557156,-0.24357934,-1.4340941,-1.2369471,2.5855362,1.5572257,-0.90588224,0.85599977,-0.25109372,-1.4504821,-1.1796309,2.578299,1.5027338,-0.9554821,-1.1658268,0.47962177,0.5164754,-1.2425723,0.40844345,0.44734567,0.35856488,1.0659074,-0.41625214,1.778549,-2.5141165,-0.03788908,-1.247729,0.2057804,-0.24056244,1.0384724,0.7415447,-0.18396167,0.118604966,0.6341943,0.25272822,0.05015475,-0.32719398,1.0,0.0,0.0,0.0,0.0,0.0,0.0,-1.7159073,0.01625213,-1.228549,6.1748266,-20.738686,-11.495757,-1.7542362,-13.540763,-1.0169029,-0.10396838
-53.7287,-128.45099,-53.40082,23.088398,7.106194,-1.690775,-0.9199272,-0.55904865,-0.22844751,0.0066773323,-0.685618,-0.1739962,0.5733564,0.5116291,0.8000949,-0.27393848,-1.4498144,-1.2481927,2.5608995,1.5600694,-0.9043192,0.8449963,-0.24925432,-1.447005,-1.1920725,2.5806603,1.5071341,-0.95190966,-1.076078,0.08453907,0.29000115,-1.2453495,0.17787844,0.4360707,0.35543886,1.0407851,-0.4166336,1.7653446,-2.5116029,-0.037851196,-1.3446674,0.20712829,-0.24183273,1.0348423,0.7411324,-0.18036766,0.12041034,0.6353673,0.095388114,-0.18870868,-0.37691993,1.0,0.0,0.0,0.0,0.0,0.0,0.0,-1.690785,0.0166336,-1.2153447,9.716034,-39.756588,-23.137444,-0.5279064,-23.370314,-1.5974104,-0.7142782
-63.332844,-152.74718,-62.93278,25.327065,8.084857,-1.5472969,-1.0246567,-0.47253585,-0.46633258,-0.11176641,-0.68400353,-0.4808104,0.55750185,0.53325,0.79774266,-0.2958876,-1.4581816,-1.2604729,2.5325794,1.5628842,-0.89858466,0.8351677,-0.25200662,-1.4460914,-1.2044798,2.58005,1.5114084,-0.9483553,-0.9487148,-0.39625138,0.023229524,-1.2391655,-0.14203233,0.4222619,0.35407445,1.0156878,-0.41701508,1.7511716,-2.5090919,-0.03781335,-1.4415091,0.20666535,-0.24571991,1.0306686,0.74172664,-0.17616259,0.12152263,0.6356418,-0.09500077,-0.45658764,-0.43189776,1.0,0.0,0.0,0.0,0.0,0.0,0.0,-1.6656878,0.01701507,-1.2011716,13.6503105,-48.407875,-27.277973,0.649333,-32.37394,-2.0503461,-0.56132674
-40.60771,-107.82072,-37.47916,25.226282,6.266175,-0.48422205,-0.120824255,-0.40883648,-0.6095181,0.1948314,-0.69991356,-0.53678536,0.59813774,0.5142749,0.79428405,-0.31295842,-1.4266083,-1.2744712,2.5263715,1.5712222,-0.89692783,0.82668763,-0.25932178,-1.4458911,-1.2168719,2.5765176,1.5155932,-0.94481146,-0.81211257,-0.8440768,0.016800318,-1.2382215,-0.42403883,0.41556704,0.3539893,0.9906158,-0.41739655,1.7360308,-2.5065832,-0.037775546,-1.538254,0.20461012,-0.2515068,1.0260861,0.7426411,-0.17173755,0.12171782,0.6357477,-0.2451557,-0.6177458,-0.46782175,1.0,0.0,0.0,0.0,0.0,0.0,0.0,-1.6406157,0.01739654,-1.1860309,14.347351,-45.03057,-1.2872293,0.38216114,-28.322119,-1.1761427,-0.15235543
-3.9719524,-34.51746,-0.75711894,19.290522,2.8558424,0.14105502,0.9925685,-0.1774064,-0.6816579,0.359098,-0.71389693,-0.5359186,0.61307245,0.481186,0.80894697,-0.3274876,-1.4099814,-1.2882615,2.5229256,1.5769004,-0.8966929,0.82031804,-0.27023992,-1.4442985,-1.2293326,2.570807,1.519755,-0.94127524,-0.5784464,-1.1747117,0.20579495,-1.2479899,-0.6196656,0.4158002,0.35397798,0.9655688,-0.4177704,1.7199234,-2.5040772,-0.03773778,-1.6349021,0.20178159,-0.25788498,1.0212857,0.74281037,-0.16757849,0.12084521,0.63682544,-0.29814914,-0.6402952,-0.48537388,1.0,0.0,0.0,0.0,0.0,0.0,0.0,-1.6155688,0.01777038,-1.1699233,23.409021,-33.15625,18.56076,-0.766325,-19.398998,-0.11742711,0.16416907
13.7084465,11.2841425,18.04221,18.24226,0.81600165,0.30181137,1.1379511,-0.101648286,-0.71095324,0.3367875,-0.67299414,-0.5373966,0.641908,0.37945443,0.8101532,-0.34133524,-1.4106197,-1.2966319,2.5170674,1.5839458,-0.9033298,0.8162764,-0.28339967,-1.4407241,-1.2417094,2.5637498,1.5239626,-0.9378115,-0.34663814,-1.363124,0.40740767,-1.2338665,-0.73405457,0.42269298,0.34470063,0.9405468,-0.41814423,1.7028502,-2.5015736,-0.03770005,-1.7314535,0.19883822,-0.26395416,1.0164529,0.7418252,-0.16399834,0.11909348,0.6392312,-0.29474798,-0.59068227,-0.48425692,1.0,0.0,0.0,0.0,0.0,0.0,0.0,-1.5905468,0.01814422,-1.1528502,23.024887,-18.85295,19.984823,1.5088558,-11.269247,0.80167055,-0.6770551
18.835777,30.36531,21.787199,15.787352,0.015645325,-0.22135648,0.8739788,0.043239117,-0.7351738,0.18837804,-0.6599426,-0.46875072,0.642377,0.30825987,0.8206003,-0.35691705,-1.4218863,-1.3077036,2.5168748,1.5882003,-0.9069855,0.8146656,-0.29761085,-1.436177,-1.2538687,2.5562043,1.5282427,-0.93449557,-0.10049317,-1.4404137,0.47096705,-1.2098727,-0.76117015,0.4303825,0.3278113,0.9155499,-0.41851807,1.6848122,-2.4990726,-0.037662357,-1.8279084,0.19615081,-0.2694893,1.0116411,0.73984545,-0.16094606,0.11671768,0.6427302,-0.26054966,-0.5361702,-0.48177445,1.0,0.0,0.0,0.0,0.0,0.0,0.0,-1.5655499,0.01851806,-1.1348121,24.226286,-7.726884,6.5249624,2.4269342,-2.6549459,0.92658997,-1.4864445
16.859789,32.293606,17.112465,12.396635,-0.094276905,-0.98781276,0.49595818,0.18403329,-0.7489871,0.027750693,-0.6700483,-0.41065654,0.6374704,0.2830209,0.83306897,-0.37250957,-1.433402,-1.3208735,2.5151386,1.5919898,-0.9061935,0.81555444,-0.31207237,-1.4322498,-1.2658602,2.5488381,1.5325876,-0.9313656,0.14986771,-1.4481593,0.36831087,-1.1954483,-0.7285298,0.4361362,0.3084008,0.89057785,-0.4188919,1.6658103,-2.496574,-0.0376247,-1.9242669,0.19390586,-0.27470398,1.0067593,0.7372507,-0.15810126,0.113940954,0.64690256,-0.2120418,-0.5104597,-0.49189374,1.0,0.0,0.0,0.0,0.0,0.0,0.0,-1.5405779,0.0188919,-1.1158104,24.420187,-0.8015394,-9.742326,1.4386415,3.2055259,0.6547332,-1.8303812
8.980621,19.25388,5.002772,8.862228,0.442398,-1.9434848,-0.005406957,0.35667965,-0.7576208,-0.26182553,-0.6705809,-0.36245805,0.6358566,0.24463905,0.8512224,-0.38783446,-1.4584323,-1.3329183,2.5125923,1.5961733,-0.9069017,0.8191021,-0.3263789,-1.4309413,-1.2777659,2.5420403,1.5369726,-0.9284493,0.42007193,-1.4250765,0.054832127,-1.1890482,-0.6639948,0.4389428,0.28616047,0.86563087,-0.41926575,1.6458457,-2.494078,-0.037587084,-2.020529,0.19213636,-0.2800827,1.0016048,0.7345619,-0.15499179,0.11095011,0.65121907,-0.16367532,-0.54247123,-0.5251878,1.0,0.0,0.0,0.0,0.0,0.0,0.0,-1.5156308,0.019265741,-1.0958457,26.108652,2.2233486,-30.404243,0.62835217,6.2916756,0.18392801,-2.2139013
3.9561257,7.0656486,-4.7771597,3.7175226,0.8792601,-2.7653809,-0.23126195,0.5207511,-0.7694019,-0.50562036,-0.7140928,-0.28148878,0.603302,0.26858526,0.8711772,-0.40331912,-1.4815034,-1.3491751,2.5138915,1.5973028,-0.90159076,0.8254574,-0.3404456,-1.4337394,-1.2898566,2.5360932,1.5413443,-0.92571795,0.703864,-1.4009379,-0.38772705,-1.2156771,-0.5722644,0.4356717,0.26869446,0.8407088,-0.4196396,1.624919,-2.4915843,-0.037549503,-2.1166947,0.19086747,-0.2861519,0.99591064,0.73214394,-0.15109962,0.107795455,0.65537333,-0.11189094,-0.6229941,-0.5868668,1.0,0.0,0.0,0.0,0.0,0.0,0.0,-1.4907088,0.019639581,-1.074919,27.321636,2.2948742,-43.15449,-2.6702166,8.995115,-0.61587095,-1.7586231
2.0806484,4.956719,-5.8699217,4.399534,1.0577652,-2.6595738,-0.25662637,0.5631388,-0.768916,-0.57073647,-0.7178094,-0.23447397,0.57769376,0.3071473,0.88177127,-0.4173372,-1.490813,-1.3616375,2.5126457,1.5991137,-0.8950032,0.83416826,-0.35430917,-1.4405982,-1.3022505,2.5310845,1.5456606,-0.9231087,0.92441064,-1.3818922,-0.78280556,-1.2471159,-0.47751004,0.42903975,0.25842136,0.81581163,-0.42001343,1.6030315,-2.4890933,-0.03751196,-2.2127643,0.19004905,-0.29301834,0.98958606,0.73009187,-0.1462579,0.10446002,0.6592894,-0.06757544,-0.7053032,-0.65163183,1.0,0.0,0.0,0.0,0.0,0.0,0.0,-1.4658116,0.020013422,-1.0530314,21.329939,1.78895,-38.756454,-3.0993462,9.311867,-0.9782195,-1.0069013
2.5478532,7.7228885,-2.661728,6.051064,0.94992155,-2.2106726,-0.14186257,0.58712816,-0.7776985,-0.59907484,-0.7423831,-0.21810009,0.52814084,0.31371954,0.8928811,-0.43207902,-1.5005057,-1.3764888,2.5092745,1.5984747,-0.89173675,0.8444775,-0.36808595,-1.450484,-1.315024,2.526896,1.5498759,-0.92057574,1.0653434,-1.3766077,-1.0558193,-1.2870312,-0.3998041,0.41791207,0.25175127,0.79093933,-0.42038727,1.5801841,-2.4866047,-0.037474457,-2.3087378,0.18961062,-0.30057144,0.9826571,0.72830975,-0.14053456,0.10092146,0.6630459,-0.030425621,-0.7681114,-0.71198124,1.0,0.0,0.0,0.0,0.0,0.0,0.0,-1.4409393,0.020387262,-1.030184,13.734781,0.4257202,-26.946962,-3.9063692,7.6301455,-1.4030993,-0.6135225
4.274791,14.763378,3.2487168,9.154848,0.5554976,-1.5561848,-0.005426228,0.5955181,-0.7781297,-0.6050304,-0.7470744,-0.27217185,0.50518256,0.33523342,0.9040293,-0.44589892,-1.510987,-1.3897314,2.4996789,1.6003941,-0.8870524,0.8556326,-0.38186464,-1.4620769,-1.328137,2.5231233,1.5539728,-0.9180809,1.1320622,-1.3785843,-1.1935095,-1.319161,-0.36988527,0.40608802,0.24891573,0.76609194,-0.4207611,1.5563775,-2.4841187,-0.037436992,-2.4046152,0.18949819,-0.30849457,0.9752303,0.726625,-0.13416599,0.09727373,0.6667484,0.0014596584,-0.79671586,-0.7592327,1.0,0.0,0.0,0.0,0.0,0.0,0.0,-1.4160919,0.020761102,-1.0063775,6.612134,-0.28812885,-13.723707,-3.1177044,2.8643548,-1.3926566,-0.23391247
5.254833,20.840975,7.882988,12.035296,0.02976495,-1.0035932,0.04830236,0.6005482,-0.777148,-0.62828594,-0.74382925,-0.4133668,0.51815903,0.3310183,0.91568744,-0.45957944,-1.5249054,-1.40252,2.4817865,1.6057887,-0.88497907,0.8670681,-0.395681,-1.4743698,-1.341456,2.5190568,1.5579745,-0.91561186,1.1478043,-1.3829165,-1.241552,-1.3359895,-0.41943136,0.39771503,0.2463088,0.74126935,-0.42113495,1.531613,-2.481635,-0.037399564,-2.5003967,0.18968591,-0.3164749,0.96742445,0.72491753,-0.12743303,0.093790784,0.6704168,0.031311035,-0.794573,-0.7946385,1.0,0.0,0.0,0.0,0.0,0.0,0.0,-1.3912693,0.021134943,-0.981613,1.6964912,-0.5166292,-4.935527,-1.5888929,-5.083722,-0.97547174,-0.25257468
6.723874,25.070656,10.993294,12.796936,-0.2076872,-0.7410156,0.12299454,0.61654127,-0.78035265,-0.6453027,-0.76271504,-0.426212,0.49881822,0.30954713,0.92872226,-0.47371626,-1.5389,-1.4177276,2.4764357,1.6078563,-0.88465714,0.878516,-0.40955457,-1.486779,-1.3549429,2.5143685,1.5618922,-0.91318095,1.1444936,-1.3891007,-1.2411878,-1.3528097,-0.48567858,0.3893882,0.2420748,0.71647155,-0.4215088,1.5058913,-2.4791539,-0.037362173,-2.5960827,0.19017169,-0.32432175,0.95930934,0.7230958,-0.12049007,0.09058957,0.674098,0.06122273,-0.7772105,-0.8242585,1.0,0.0,0.0,0.0,0.0,0.0,0.0,-1.3664715,0.021508783,-0.9558913,-0.15308857,-0.69327354,-0.16567707,-1.5951633,-6.7469954,-0.93939304,-0.41564405
7.227097,26.421593,12.483202,13.749949,-0.12322432,-0.56615555,0.16846053,0.6321793,-0.79180706,-0.6523251,-0.76184034,-0.41549996,0.50396216,0.30657044,0.94173396,-0.4887353,-1.5520115,-1.431127,2.4728186,1.6122884,-0.8825239,0.88993055,-0.423534,-1.4990318,-1.3685404,2.509112,1.5657412,-0.91079104,1.1410546,-1.4011345,-1.2206677,-1.3618712,-0.5393952,0.38310024,0.23804095,0.69169855,-0.42188263,1.4792135,-2.4766753,-0.03732482,-2.6916728,0.19092582,-0.3319664,0.9509386,0.7210906,-0.11342889,0.08759788,0.677856,0.08686043,-0.7554758,-0.84839803,1.0,0.0,0.0,0.0,0.0,0.0,0.0,-1.3416985,0.021882623,-0.92921346,-0.17492771,-1.2791157,1.854372,-0.81915855,-5.493009,-0.71725845,-0.3800124
7.698956,28.30572,13.647257,14.3283825,-0.09309173,-0.4575225,0.18287852,0.6337566,-0.791501,-0.6513509,-0.7621067,-0.42604315,0.5222549,0.31096262,0.9533062,-0.5026841,-1.5641669,-1.444751,2.4665077,1.6179667,-0.87969476,0.90131456,-0.4376174,-1.5110443,-1.3821875,2.5034165,1.5695502,-0.9084345,1.1381614,-1.410954,-1.195445,-1.3652442,-0.57994276,0.37995142,0.23506105,0.66695035,-0.42225647,1.4515805,-2.474199,-0.037287503,-2.7871675,0.1919222,-0.33937836,0.94235355,0.7188699,-0.10630922,0.08474218,0.68172073,0.11051084,-0.7308153,-0.8687211,1.0,0.0,0.0,0.0,0.0,0.0,0.0,-1.3169503,0.022256464,-0.9015805,-0.12102127,-1.0557175,2.3269176,-0.25234222,-4.1791677,-0.39023757,-0.26426315
7.658153,29.67276,14.428581,14.8247595,-0.04947543,-0.36394826,0.18430725,0.6231391,-0.79383075,-0.63388,-0.76558346,-0.43613347,0.51590806,0.31477448,0.9636285,-0.51700044,-1.5744323,-1.4587458,2.459803,1.621141,-0.87695706,0.9126299,-0.45178184,-1.5227649,-1.3958536,2.4974046,1.5733305,-0.9060999,1.129967,-1.4185047,-1.1648891,-1.3668855,-0.60866463,0.37721562,0.23307015,0.64222693,-0.4226303,1.4229933,-2.4717255,-0.037250225,-2.882567,0.1931365,-0.34653473,0.9335855,0.7164231,-0.099162206,0.08197129,0.6857007,0.1316786,-0.7044867,-0.88617045,1.0,0.0,0.0,0.0,0.0,0.0,0.0,-1.2922269,0.022630304,-0.8729933,-0.6345272,-0.8269787,2.849102,-0.07593632,-3.0022144,-0.34045577,-0.1595825
7.252163,29.762424,14.069827,14.830151,0.040982902,-0.3735006,0.15135986,0.6278506,-0.7940835,-0.6472344,-0.76635736,-0.43216735,0.52121675,0.31091055,0.975415,-0.53119016,-1.5874884,-1.4724894,2.4541879,1.6254522,-0.8750089,0.9238928,-0.46599588,-1.5343044,-1.4095274,2.4912095,1.5770918,-0.9037844,1.1257025,-1.4225897,-1.1509151,-1.3671908,-0.62360644,0.37549824,0.23117025,0.6175282,-0.42300415,1.3934528,-2.4692543,-0.037212983,-2.9778707,0.19455178,-0.35345078,0.92463785,0.71377206,-0.09197335,0.07924275,0.689776,0.15124805,-0.6817685,-0.90405804,1.0,0.0,0.0,0.0,0.0,0.0,0.0,-1.2675282,0.023004144,-0.84345275,-0.24986267,-0.48191547,1.2086868,0.066018105,-1.6333938,-0.24600625,-0.14708042
6.7201767,29.823631,13.931225,14.813187,0.04844874,-0.32876453,0.1385228,0.6187756,-0.7986468,-0.63772917,-0.77052563,-0.45974725,0.53140855,0.32434726,0.98577034,-0.5458605,-1.5980773,-1.48658,2.4452348,1.6302327,-0.8713497,0.9350899,-0.48025092,-1.545737,-1.4232184,2.4848466,1.5808455,-0.9014765,1.118237,-1.4266902,-1.141244,-1.3693249,-0.64077955,0.37513673,0.23087831,0.5928542,-0.423378,1.36296,-2.4667854,-0.03717578,-3.0730793,0.19615328,-0.36014938,0.9155034,0.71093327,-0.084729746,0.076560676,0.6939259,0.16932026,-0.6595849,-0.92274535,1.0,0.0,0.0,0.0,0.0,0.0,0.0,-1.2428541,0.023377985,-0.81295997,-0.56319237,-0.4835844,0.7754326,-0.10602474,-1.8629551,-0.11692643,0.011432171
5.7426386,29.706785,13.619562,15.164799,0.12386972,-0.2690722,0.10032435,0.60846,-0.7996535,-0.6372428,-0.76908207,-0.46417564,0.54044384,0.31264377,0.9959359,-0.56021625,-1.6094613,-1.5001266,2.438429,1.6348898,-0.87021214,0.9461773,-0.49453887,-1.5571163,-1.4369208,2.4783387,1.5846049,-0.89917815,1.1062642,-1.4297074,-1.1376001,-1.3701764,-0.6546895,0.37593403,0.22963224,0.5682049,-0.42375183,1.3315158,-2.4643192,-0.03713861,-3.1681926,0.19791071,-0.3666458,0.90618265,0.7079355,-0.07742952,0.07392143,0.6981171,0.18407042,-0.6390562,-0.94120073,1.0,0.0,0.0,0.0,0.0,0.0,0.0,-1.2182049,0.023751825,-0.7815158,-1.0035753,-0.3775835,0.17380714,0.033521652,-1.5460014,-0.002360344,-0.087195635
5.696541,30.317747,14.065512,15.117548,0.21713328,-0.2162168,0.11906251,0.6014586,-0.8035154,-0.6236002,-0.7754661,-0.42615363,0.5227041,0.32690644,1.0063232,-0.57489043,-1.6194763,-1.5144674,2.4357233,1.6368753,-0.8664875,0.9571293,-0.5088644,-1.5684249,-1.4506575,2.4718423,1.5883585,-0.8968798,1.0922273,-1.433691,-1.1291989,-1.3743696,-0.64866924,0.37507856,0.23004532,0.5435802,-0.42412567,1.2991211,-2.4618554,-0.03710148,-3.2632108,0.19979995,-0.37294006,0.8966814,0.7047747,-0.07005654,0.07124736,0.7023592,0.19651484,-0.61942,-0.9589178,1.0,0.0,0.0,0.0,0.0,0.0,0.0,-1.1935802,0.024125665,-0.7491211,-1.2091637,-0.47297478,0.6463766,-0.29597282,0.44915676,-0.16635656,0.092715025
4.8697863,31.388138,14.888834,16.145279,0.21149534,-0.027282618,0.103300706,0.57863605,-0.8073934,-0.59840566,-0.7666459,-0.4619527,0.5514573,0.31630856,1.014993,-0.5896037,-1.6282655,-1.527322,2.425647,1.6435043,-0.8652489,0.96786386,-0.5232382,-1.5795448,-1.4643904,2.4653268,1.5921274,-0.89458525,1.0679345,-1.4389377,-1.1070205,-1.3726172,-0.65295744,0.37720633,0.22946054,0.5189801,-0.4244995,1.2657771,-2.459394,-0.03706439,-3.358134,0.2017827,-0.37901306,0.8870369,0.7014491,-0.06267193,0.06853697,0.70664275,0.20462674,-0.5956402,-0.9719766,1.0,0.0,0.0,0.0,0.0,0.0,0.0,-1.1689801,0.024499506,-0.7157771,-2.2178411,-0.59838295,2.014041,0.30174255,-0.5860567,0.15059114,-0.012654066
4.9965696,30.812843,14.439298,15.213068,0.2343536,-0.07713638,0.10901319,0.58270305,-0.8145572,-0.61179847,-0.7798232,-0.4441149,0.54421276,0.3090372,1.0261341,-0.6046939,-1.6407247,-1.5423727,2.4209154,1.6465487,-0.86368155,0.9784096,-0.53768826,-1.5905235,-1.4781595,2.4588227,1.5959116,-0.8923012,1.0507104,-1.4473448,-1.095569,-1.3777888,-0.65038484,0.3785152,0.22823627,0.49440458,-0.42487335,1.2314844,-2.4569352,-0.037027333,-3.4529624,0.20385574,-0.38487244,0.87723005,0.6979585,-0.05524932,0.065764345,0.7109687,0.2136587,-0.5752032,-0.98894715,1.0,0.0,0.0,0.0,0.0,0.0,0.0,-1.1444045,0.024873346,-0.6814844,-1.5322208,-0.9143114,0.95279217,-0.37970543,0.10480881,0.051295757,-0.06650388
2.977219,30.95258,14.143724,16.242125,0.314251,0.052846506,0.043448903,0.54840195,-0.81238973,-0.60253626,-0.7723564,-0.4592796,0.54026914,0.29853612,1.0332497,-0.61892724,-1.6507771,-1.5553951,2.4128947,1.6499386,-0.8624476,0.9886797,-0.5522003,-1.6013954,-1.491944,2.4522996,1.5997034,-0.89003813,1.0199372,-1.4527347,-1.08502,-1.3783102,-0.65349066,0.37932935,0.2258705,0.46985367,-0.42524338,1.1962442,-2.4544787,-0.036990315,-3.5476959,0.20597766,-0.39053345,0.86727077,0.6943502,-0.047789726,0.062952675,0.7152838,0.21706426,-0.55521655,-1.00343,1.0,0.0,0.0,0.0,0.0,0.0,0.0,-1.1198536,0.025243372,-0.6462442,-2.8593063,-0.6152153,0.85430145,0.09686947,-0.47721863,0.013035536,-0.1937002
-1.9748783,27.251884,10.728119,17.099825,0.52800536,0.08288479,-0.11807147,0.50599277,-0.8164243,-0.6413101,-0.77786714,-0.51562023,0.53966457,0.25886056,1.039279,-0.63384277,-1.6655264,-1.5697306,2.4007375,1.6536698,-0.8641521,0.9984959,-0.5667658,-1.6123798,-1.5057493,2.4455743,1.603501,-0.88782847,0.96967816,-1.4581307,-1.1037157,-1.3805622,-0.679818,0.3796458,0.21934141,0.4453273,-0.4256096,1.1600494,-2.4520247,-0.03695333,-3.6434,0.20806967,-0.3960762,0.8571163,0.6907584,-0.040240068,0.06021301,0.7194497,0.2115967,-0.5450071,-1.0243726,1.0,0.0,0.0,0.0,0.0,0.0,0.0,-1.0953273,0.025609583,-0.6100494,-4.7668576,-0.6312847,-2.0773172,-0.03170967,-2.835691,-0.059187412,-0.6436795
-8.313035,23.77576,7.566965,18.554535,0.9275011,0.25122297,-0.27812082,0.4311721,-0.81725425,-0.6514449,-0.78754795,-0.50460654,0.51664305,0.22134969,1.0416131,-0.6484912,-1.6775243,-1.5845041,2.3951137,1.6551653,-0.8656935,1.0075349,-0.5813732,-1.6236293,-1.5196158,2.4386163,1.6072851,-0.8857113,0.8830488,-1.4620397,-1.1328113,-1.387885,-0.70162374,0.3775168,0.20913301,0.42082545,-0.4259758,1.1228983,-2.449573,-0.036916383,-3.7390084,0.20999266,-0.40158844,0.846727,0.68734807,-0.032528747,0.05757782,0.72331125,0.19056143,-0.5447578,-1.0485246,1.0,0.0,0.0,0.0,0.0,0.0,0.0,-1.0708255,0.025975794,-0.5728983,-8.329415,-0.49881935,-3.1503916,-0.49419403,-2.4260163,-0.3078282,-1.0350376
-27.302818,13.212766,-1.3640299,24.665394,2.1565576,0.8205317,-0.7491767,0.22739467,-0.8189406,-0.67727256,-0.7874165,-0.5139296,0.48969492,0.12425652,1.0302743,-0.66326725,-1.6913565,-1.5983574,2.3872232,1.6562546,-0.87328565,1.014882,-0.5960169,-1.6352661,-1.5335432,2.4314523,1.6110255,-0.8837668,0.68713033,-1.4656606,-1.1750193,-1.3932247,-0.722724,0.37274426,0.18926975,0.3963481,-0.426342,1.0847919,-2.447124,-0.036879472,-3.8345213,0.21134701,-0.40729904,0.83608025,0.68451583,-0.02458431,0.055047117,0.72650087,0.12141575,-0.5716129,-1.0746804,1.0,0.0,0.0,0.0,0.0,0.0,0.0,-1.0463481,0.026342005,-0.5347919,-19.040155,-0.5224705,-4.553056,-0.17921925,-2.4787664,-0.5598068,-2.0730643
-58.705376,-3.227563,-15.150393,34.915268,4.3436465,1.8237275,-1.461782,-0.11371594,-0.82454556,-0.68850064,-0.7966043,-0.43694127,0.40611365,-0.01836137,1.0035104,-0.67847145,-1.7041161,-1.6132036,2.3877583,1.6516368,-0.8856029,1.0188931,-0.6107168,-1.6473148,-1.5475413,2.4243455,1.614657,-0.8821217,0.3089551,-1.4723665,-1.2166854,-1.4000509,-0.7086447,0.3596532,0.1557083,0.3718952,-0.42670822,1.045731,-2.4446774,-0.0368426,-3.9299388,0.21139771,-0.41362,0.8251678,0.68292224,-0.016310526,0.05247921,0.728421,-0.030144772,-0.6431626,-1.1013811,1.0,0.0,0.0,0.0,0.0,0.0,0.0,-1.0218952,0.026708215,-0.49573094,-36.89272,-0.9355068,-4.671812,-0.11584759,0.824821,-1.4076352,-3.5250962
-77.047966,-8.753073,-20.622921,41.42285,5.501923,2.6744123,-1.7455766,-0.37624037,-0.8254305,-0.67317593,-0.7924547,-0.41245234,0.3917486,0.0923826,0.98126906,-0.6932599,-1.7146324,-1.6267867,2.3831003,1.653832,-0.87288344,1.0183495,-0.6254835,-1.6596134,-1.5615622,2.4174867,1.6181475,-0.88071024,-0.17179091,-1.4793258,-1.2364056,-1.4004426,-0.68056583,0.34476078,0.13566336,0.34746674,-0.42707443,1.0057166,-2.442233,-0.036805764,-4.025261,0.20955598,-0.42077255,0.8140412,0.68296224,-0.00772396,0.04972821,0.72871804,-0.23345025,-0.7305103,-1.1209254,1.0,0.0,0.0,0.0,0.0,0.0,0.0,-0.9974667,0.027074426,-0.45571655,-46.921604,-1.0569334,-2.5968075,0.69806576,2.0676255,-1.6877234,-2.1890283
-73.646034,-3.0405278,-17.140757,39.543823,5.1224203,2.759732,-1.5579183,-0.50320697,-0.82360864,-0.6954393,-0.7930574,-0.42694336,0.36336973,0.20734206,0.96802884,-0.7078444,-1.7291573,-1.640868,2.3747923,1.6544845,-0.85997605,1.0132741,-0.64029884,-1.6721046,-1.5755697,2.410853,1.621472,-0.87937796,-0.61561936,-1.4835213,-1.2554737,-1.3982004,-0.6600064,0.32726312,0.13205549,0.32306272,-0.42744064,0.9647497,-2.4397914,-0.036768965,-4.120487,0.20574246,-0.4287033,0.8027307,0.68456113,0.0011351772,0.046752308,0.72745377,-0.43040705,-0.80383503,-1.1387281,1.0,0.0,0.0,0.0,0.0,0.0,0.0,-0.9730627,0.027440637,-0.41474968,-43.279564,-0.8141041,-2.5182486,1.015687,1.3031125,-2.079165,-0.4921496
-60.920887,5.030963,-11.148162,34.018776,4.2629166,2.4111485,-1.2763033,-0.5947615,-0.8294694,-0.7421702,-0.78783995,-0.41059458,0.305921,0.10925299,0.95379794,-0.7232458,-1.7463217,-1.6543537,2.3697934,1.6520641,-0.86845267,1.0045174,-0.6551647,-1.6849353,-1.5895258,2.4044251,1.6245886,-0.87812483,-0.9592142,-1.4888711,-1.2939192,-1.3922304,-0.63904667,0.30522642,0.122781105,0.2986831,-0.42780685,0.92283124,-2.4373522,-0.036732204,-4.215618,0.20020854,-0.4372177,0.79121315,0.6874468,0.010275971,0.04351232,0.72485715,-0.59637654,-0.85753113,-1.1602874,1.0,0.0,0.0,0.0,0.0,0.0,0.0,-0.9486831,0.027806848,-0.37283123,-33.45324,-0.9115696,-4.3486357,1.3551474,1.4231801,-2.6120007,-0.9910777
-47.25693,15.41226,-3.0545874,29.316223,3.4952612,2.2655644,-1.0349596,-0.7041866,-0.8289527,-0.7362265,-0.780069,-0.29750368,0.3505274,-0.1718214,0.9340988,-0.73806,-1.758558,-1.6675327,2.3746748,1.6596414,-0.89530694,0.99299306,-0.67006683,-1.6980655,-1.6033942,2.3985085,1.6275393,-0.8771626,-1.214618,-1.4917488,-1.3207392,-1.3828689,-0.57791024,0.29012015,0.08745083,0.27432787,-0.42817307,0.8799622,-2.4349153,-0.03669548,-4.3106537,0.19323522,-0.44610977,0.779517,0.6913564,0.019623099,0.039815865,0.721149,-0.7347066,-0.88742363,-1.1769061,1.0,0.0,0.0,0.0,0.0,0.0,0.0,-0.92432785,0.02817306,-0.3299622,-24.838089,-0.61912537,-3.0702353,1.5945673,5.5652857,-1.9060016,-3.5182686
-31.44714,25.938791,5.7643876,24.640759,2.9010768,2.0401547,-0.7398326,-0.7501224,-0.82817423,-0.7339332,-0.7638996,-0.0659053,0.41276926,-0.35911456,0.9179808,-0.75288427,-1.7714589,-1.679784,2.391918,1.6688162,-0.913074,0.9796521,-0.6849766,-1.7113578,-1.6171156,2.3938622,1.6304079,-0.87668,-1.3722944,-1.4916382,-1.3327444,-1.3668153,-0.4281739,0.28474122,0.035571903,0.24999698,-0.42853928,0.83614355,-2.4324808,-0.036658794,-4.405595,0.1851101,-0.4551773,0.7677112,0.6960084,0.029063908,0.035267487,0.7165778,-0.843429,-0.89878494,-1.1858178,1.0,0.0,0.0,0.0,0.0,0.0,0.0,-0.89999694,0.02853927,-0.28614354,-15.306187,-0.24666786,-1.4393806,2.1026134,14.599836,-0.87512136,-5.0791264
-16.168364,34.59536,13.360379,19.620014,2.2665737,1.7043394,-0.43389654,-0.76068497,-0.8273885,-0.73673415,-0.75849426,0.15301502,0.41516495,-0.44692543,0.9035836,-0.76771545,-1.7850312,-1.692965,2.4091637,1.6719245,-0.92137253,0.96540135,-0.6998682,-1.7246978,-1.6306807,2.3912683,1.6332461,-0.8767468,-1.441852,-1.488953,-1.3347158,-1.3521119,-0.20348455,0.2827114,-0.020237196,0.22569041,-0.4289055,0.79137623,-2.4300487,-0.036622144,-4.5004406,0.17614183,-0.46424484,0.75584126,0.7011046,0.038525857,0.029487299,0.71140605,-0.9202868,-0.8952406,-1.1914326,0.0,1.0,0.0,0.0,0.0,0.0,0.0,-0.8756904,0.028905481,-0.24137622,-6.7094803,0.09241104,-0.30567646,1.8016338,22.26909,-0.4618585,-5.404158
-6.683236,40.682713,18.230263,16.13335,1.6749713,1.5162194,-0.24899629,-0.78376776,-0.8180949,-0.73735255,-0.75800425,0.2996459,0.42554766,-0.49574912,0.8870246,-0.7816777,-1.7984331,-1.7064811,2.421233,1.6758008,-0.9263217,0.950826,-0.714627,-1.7385755,-1.64447,2.3899882,1.6370426,-0.876954,-1.4599986,-1.4638441,-1.4857367,-1.4329443,-0.26356718,0.50863576,0.014741821,0.2061084,-0.43153,0.7666257,-1.3271513,-0.52313215,1.1907947,0.16658151,-0.47304153,0.74369603,0.70629895,0.047747515,0.02287084,0.7059312,-0.9674156,-0.83963346,-1.259523,0.0,1.0,0.0,0.0,0.0,0.0,0.0,-0.85610837,0.031529993,-0.21662569,-1.3426065,3.9695024,-30.643797,-16.822529,-36.987488,44.910545,12.563868
80.39538,176.0,110.0,97.19414,-8.693507,9.41756,-0.037392534,-0.71295834,0.50247514,0.6956352,0.73648787,-0.3007064,0.6671769,-0.3550951,0.87953013,-0.66437954,-1.669012,-1.5708212,2.3599176,1.7037604,-0.91246355,0.94204366,-0.7271734,-1.7540334,-1.6473606,2.376165,1.651167,-0.87520117,-0.6810943,-1.1762967,-1.5720593,0.09854983,-1.7295141,1.7327747,0.23723851,0.19317126,-0.4367981,0.781239,-1.3258244,-0.522609,1.0899597,0.15757504,-0.4790535,0.73511505,0.71120954,0.047517013,0.02319193,0.7009887,-0.88540053,-0.5104506,-0.72405785,1.0,0.0,0.0,0.0,0.0,0.0,0.0,-0.84317124,0.03679809,-0.23123896,79.07176,31.708454,-14.257836,153.00421,-146.12761,131.2002,25.2365
19.591982,165.5221,107.17329,97.53726,-1.0803413,6.9904447,-0.4088091,-0.7693929,-0.49030092,0.39827317,0.7935403,-0.66869605,0.58706915,-0.3593365,0.8651044,-0.77620345,-1.7142061,-1.5680065,2.3092954,1.7098739,-0.91113484,0.93545187,-0.7373825,-1.7641939,-1.639056,2.3570647,1.6686288,-0.8730783,-0.65201026,-0.9706922,-0.8274848,1.0731345,-1.9745346,1.756871,0.20348647,0.17992297,-0.44202042,0.79138297,-1.3244989,-0.5220865,0.98922503,0.14862439,-0.48292923,0.7319539,0.7163176,0.039443254,0.027270582,0.69612473,-0.89871836,-0.33585453,-0.18462764,1.0,0.0,0.0,0.0,0.0,0.0,0.0,-0.8299229,0.04202041,-0.24138296,2.8900743,20.11019,75.44223,97.06173,-25.862526,4.27711,-3.5092325
-16.198967,130.8765,69.54145,77.86627,1.8049002,4.7777834,-1.0943881,-0.76012355,-0.28462818,-0.09906955,0.75736445,-0.65673584,0.6142889,-0.23433696,0.8594395,-0.7658453,-1.7741009,-1.5633196,2.2913911,1.7300577,-0.896512,0.92770517,-0.74515206,-1.7688802,-1.624007,2.3381896,1.6852266,-0.8713922,-0.8134414,-0.7139245,-0.3495256,1.6494335,-1.8630855,1.6310585,0.1574381,0.1666879,-0.44723892,0.80052036,-1.3231746,-0.5215645,0.8885912,0.1390768,-0.48568726,0.7328441,0.7221626,0.027493231,0.032622635,0.6904064,-0.9726807,-0.24942218,0.17352566,1.0,0.0,0.0,0.0,0.0,0.0,0.0,-0.8166879,0.047238916,-0.25052035,-15.515423,25.230228,47.67398,57.815456,9.819937,-11.497235,-4.4819713
-8.868403,156.1612,73.3022,54.601734,-0.47184935,3.7631767,-0.8477923,-0.77222973,0.17313862,0.04084314,0.7921842,-0.65227455,0.5908988,-0.07070812,0.8504822,-0.7278382,-1.7647959,-1.5447886,2.272962,1.7443165,-0.87846303,0.9177011,-0.7488237,-1.7695383,-1.6059768,2.3215537,1.7001859,-0.8700971,-1.0613933,-0.2531365,0.027426835,1.8542615,-1.601416,1.4536804,0.11960634,0.15346608,-0.4524498,0.8086522,-1.3218517,-0.52104306,0.7880579,0.12923667,-0.48711014,0.7367808,0.7286178,0.013853552,0.03907418,0.68366456,-0.9881761,-0.09973999,0.4599205,1.0,0.0,0.0,0.0,0.0,0.0,0.0,-0.8034661,0.052449793,-0.2586522,-24.395824,45.603954,37.27045,20.530653,24.905704,-16.894579,-3.9725318
-35.966824,69.32099,16.518665,30.299368,2.078122,1.1110793,-1.1985056,-0.8018902,-0.044575553,-0.3388401,0.7732949,-0.64457685,0.63161755,-0.27330783,0.83751214,-0.75328124,-1.8034223,-1.5286473,2.257096,1.7633476,-0.89742786,0.90536916,-0.7495323,-1.7696432,-1.5877578,2.3075652,1.7134687,-0.86928076,-1.2899966,-0.010665759,-0.024281638,1.8113562,-1.3319533,1.287891,0.06875319,0.14025748,-0.45765686,0.8157795,-1.32053,-0.5205221,0.68762517,0.118890196,-0.48804474,0.7417003,0.73586154,0.0008345828,0.04594508,0.67557096,-1.0509849,-0.08384829,0.49673283,1.0,0.0,0.0,0.0,0.0,0.0,0.0,-0.79025745,0.057656854,-0.2657795,-22.71452,24.086597,-5.5726557,-4.2286634,26.782108,-16.190052,-5.173527
-32.884598,29.22985,-3.7557325,14.438104,2.165036,-0.30378968,-0.89218295,-0.7970457,-0.05615977,-0.34827605,0.77540094,-0.6346009,0.6302019,-0.2863669,0.8256646,-0.75514823,-1.8044708,-1.5102178,2.244105,1.7764889,-0.89791745,0.89136064,-0.74894005,-1.771356,-1.5707462,2.2958426,1.7252542,-0.8689403,-1.4377649,0.082378775,-0.22096889,1.6644145,-1.1187707,1.1426914,0.022167258,0.12706208,-0.4628601,0.8219032,-1.3192098,-0.5200017,0.58729285,0.10800317,-0.4891777,0.74615306,0.74381363,-0.010303494,0.052660864,0.6662296,-1.101623,-0.11479838,0.42374435,1.0,0.0,0.0,0.0,0.0,0.0,0.0,-0.77706206,0.0628601,-0.27190322,-14.751434,9.269433,-19.881212,-14.733362,21.396828,-14.356399,-4.752036
-29.381285,-0.2037139,-15.2949705,7.8408585,2.4626298,-0.9867221,-0.62421656,-0.8039267,-0.12254995,-0.38539702,0.7882864,-0.62753963,0.6389722,-0.27847284,0.810968,-0.76119506,-1.8098956,-1.4919175,2.2330887,1.7891514,-0.8967876,0.87645566,-0.74850327,-1.7753519,-1.5551898,2.2857184,1.7357637,-0.8690061,-1.5076789,0.030962752,-0.45951465,1.5193728,-0.97623837,1.0206159,-0.01626563,0.113879874,-0.46805573,0.8270244,-1.3178909,-0.51948184,0.48706076,0.096600026,-0.49090576,0.7494768,0.7522719,-0.019273056,0.058839213,0.655937,-1.1531876,-0.18115878,0.29889742,1.0,0.0,0.0,0.0,0.0,0.0,0.0,-0.76387984,0.06805572,-0.2770244,-6.898761,-5.1014113,-23.99854,-14.498544,14.398789,-12.173867,-3.8818195
-16.536419,1.3778102,-8.102752,6.7659397,1.857202,-0.9008765,-0.24172646,-0.79407907,-0.14207977,-0.33324286,0.79170996,-0.6062302,0.6444367,-0.29287896,0.79704773,-0.7627112,-1.8086761,-1.4760189,2.2250955,1.8002074,-0.898294,0.861338,-0.74901444,-1.7810606,-1.5407493,2.2766013,1.7452127,-0.86941427,-1.5128275,-0.0783277,-0.60809374,1.419194,-0.8900942,0.9199048,-0.049083304,0.100710854,-0.47324753,0.831144,-1.3165733,-0.51896244,0.3869289,0.08483274,-0.49317932,0.75169283,0.76092845,-0.026479974,0.06432939,0.6450956,-1.1850731,-0.23226862,0.19378495,1.0,0.0,0.0,0.0,0.0,0.0,0.0,-0.75071084,0.07324752,-0.28114396,-0.42963028,-10.902232,-14.893436,-9.966564,8.616507,-10.059702,-3.2889702
-3.982056,16.579082,5.469228,8.925787,1.0852929,-0.43243295,0.08029336,-0.78972393,-0.16063409,-0.24967383,0.79505855,-0.5984279,0.64751065,-0.31371954,0.7823656,-0.7650778,-1.806028,-1.4612435,2.2167585,1.8099637,-0.9007862,0.8464216,-0.7506662,-1.7872576,-1.5269115,2.268022,1.7537938,-0.8701238,-1.4845729,-0.19424804,-0.6231573,1.3720119,-0.8473254,0.83785284,-0.07819421,0.08755499,-0.47843552,0.83426297,-1.315257,-0.5184436,0.28689712,0.07291912,-0.49570084,0.7532098,0.7694647,-0.032648813,0.06918117,0.63409156,-1.19456,-0.24879205,0.13595958,1.0,0.0,0.0,0.0,0.0,0.0,0.0,-0.73755497,0.07843551,-0.28426296,2.8409243,-11.61254,-1.4042854,-4.670906,4.1082263,-8.150959,-2.9113321
1.0079899,24.584625,13.190703,11.488006,0.90854734,-0.00029808283,0.22970477,-0.79320246,-0.23243566,-0.18294193,0.79442096,-0.56997114,0.6419824,-0.345188,0.76710135,-0.77390975,-1.8055518,-1.4474694,2.211025,1.8179921,-0.9046426,0.8318256,-0.7535663,-1.7928385,-1.5132549,2.2597404,1.7616636,-0.87111086,-1.4513273,-0.3221713,-0.5357828,1.3635725,-0.82232714,0.7703739,-0.10542362,0.07441228,-0.48361588,0.8363908,-1.313942,-0.51792526,0.1880886,0.06094877,-0.49824905,0.75439197,0.77769023,-0.038409557,0.07338333,0.6231673,-1.199212,-0.24554075,0.11050817,1.0,0.0,0.0,0.0,0.0,0.0,0.0,-0.72441226,0.08361587,-0.28639078,3.3119917,-12.843728,8.91856,-0.7884741,2.2386432,-6.6690445,-2.6991413
8.35429,40.611523,23.428127,13.046844,0.24614519,0.3554647,0.3992442,-0.77860886,-0.246313,-0.08034373,0.7890699,-0.6013696,0.64263797,-0.32580313,0.7539647,-0.77819765,-1.8008728,-1.4343479,2.1996033,1.8259274,-0.9036912,0.81757486,-0.7575136,-1.7969335,-1.4995525,2.2514968,1.7689534,-0.87232584,-1.4164989,-0.4192458,-0.36645323,1.3724173,-0.8261451,0.715749,-0.12680328,0.06128271,-0.48879242,0.8375313,-1.3126283,-0.5174074,0.08937887,0.04907997,-0.50053024,0.7555764,0.7854403,-0.044245005,0.077094704,0.6125211,-1.1842281,-0.21258308,0.119122386,1.0,0.0,0.0,0.0,0.0,0.0,0.0,-0.7112827,0.08879241,-0.28753132,3.4206152,-9.799462,17.18973,0.8929014,-0.75941086,-5.321181,-2.1426692
14.167313,49.140896,29.653618,13.258646,-0.10594946,0.5172549,0.5440148,-0.7504215,-0.3055337,0.053154264,0.7898978,-0.6121731,0.6446941,-0.31979427,0.74253273,-0.788067,-1.7916181,-1.4205627,2.1902795,1.8334229,-0.9043053,0.8037199,-0.76238304,-1.7988695,-1.4857128,2.243116,1.775776,-0.87372106,-1.3754063,-0.5098035,-0.13485207,1.387876,-0.8434455,0.6716365,-0.14376527,0.048166275,-0.49396133,0.8376855,-1.3113159,-0.5168901,-0.009232179,0.03746406,-0.5023613,0.7569874,0.7925713,-0.050509162,0.08040004,0.6023415,-1.1555281,-0.16409834,0.14620487,1.0,0.0,0.0,0.0,0.0,0.0,0.0,-0.69816625,0.09396133,-0.2876855,4.033208,-9.164935,23.458544,1.5295506,-2.1884322,-4.235077,-1.7033398
9.152906,43.867493,24.200384,13.212269,0.16278505,0.30462298,0.4167207,-0.74106413,-0.35573933,0.035536796,0.77878875,-0.6307153,0.63770014,-0.2726314,0.7296135,-0.797957,-1.7953159,-1.4078339,2.1800444,1.8395461,-0.9009842,0.7902311,-0.7681175,-1.7989649,-1.4717796,2.2345061,1.7822114,-0.87522596,-1.340012,-0.5949199,0.032890886,1.3951714,-0.8684285,0.63480663,-0.15281774,0.035062954,-0.49912643,0.8368411,-1.3100048,-0.51637334,-0.10950215,0.026062693,-0.5038147,0.75853336,0.7991527,-0.05712174,0.08337074,0.59257185,-1.1363596,-0.1296325,0.1548372,1.0,0.0,0.0,0.0,0.0,0.0,0.0,-0.68506294,0.09912643,-0.2868411,3.516984,-8.604884,16.99072,0.7513046,-2.8743982,-3.519094,-0.90595186
3.4937758,37.090813,17.029314,12.553064,0.40778178,-0.023432076,0.23995024,-0.7192596,-0.38069427,-0.0029207845,0.7718062,-0.6414473,0.6283313,-0.22260767,0.7183052,-0.8061869,-1.7992569,-1.394599,2.1703615,1.8450446,-0.89748675,0.77709615,-0.7745767,-1.7981333,-1.4578407,2.2256484,1.7883207,-0.87676615,-1.3045776,-0.66312045,0.10016605,1.3936048,-0.89267653,0.6034467,-0.15442455,0.021972729,-0.5042839,0.83499473,-1.3086951,-0.51585704,-0.20967188,0.014780914,-0.50505066,0.75999063,0.80535436,-0.06376095,0.08613003,0.58302706,-1.1270366,-0.11327599,0.13987836,1.0,0.0,0.0,0.0,0.0,0.0,0.0,-0.6719727,0.1042839,-0.28499472,3.5473824,-6.890571,6.8594203,-0.10416508,-2.6811123,-2.9850006,-0.16461015
-3.3363523,25.71875,8.716639,12.154708,0.9056951,-0.2901196,0.057313915,-0.7018514,-0.44661614,-0.026215624,0.7721193,-0.6350443,0.62155753,-0.2291906,0.706911,-0.81923836,-1.8007548,-1.3806287,2.162144,1.8504764,-0.8996852,0.7643026,-0.78179795,-1.7972273,-1.4439399,2.216619,1.7941495,-0.8783149,-1.2707859,-0.7419673,0.08775483,1.3894342,-0.90677047,0.576449,-0.15495406,0.008895595,-0.50943756,0.8321474,-1.3073866,-0.5153413,-0.30974147,0.0034586636,-0.5062828,0.7611073,0.81136245,-0.070117965,0.08867138,0.5735084,-1.1357234,-0.11869069,0.099463664,1.0,0.0,0.0,0.0,0.0,0.0,0.0,-0.65889555,0.109437555,-0.2821474,3.4125805,-7.9276085,-1.1789188,-0.31752586,-1.5464783,-2.5873065,-0.034096837
-3.9401114,26.840538,7.5074615,11.922895,0.83289397,-0.43486065,0.0027088933,-0.6730115,-0.44968873,-0.048988443,0.77366656,-0.6450209,0.6230025,-0.17928661,0.69700146,-0.82676685,-1.802126,-1.3665732,2.152117,1.8564497,-0.8962436,0.7518896,-0.7896324,-1.7967943,-1.4300716,2.2074714,1.7997438,-0.8798284,-1.2314548,-0.79738796,0.028487988,1.386133,-0.9175519,0.55416316,-0.15016554,-0.004168468,-0.5145874,0.8283002,-1.3060795,-0.51482606,-0.409711,-0.007939731,-0.50759125,0.7617879,0.8172678,-0.076021865,0.09107827,0.56391364,-1.1430291,-0.12728564,0.0545224,1.0,0.0,0.0,0.0,0.0,0.0,0.0,-0.6458315,0.1145874,-0.27830017,3.956294,-5.5873394,-5.8819203,-0.2204895,-1.1784554,-2.1173954,0.48166513
-9.694532,18.382303,1.186904,11.842018,1.193379,-0.6183524,-0.14055571,-0.6612999,-0.50075716,-0.14595419,0.77098596,-0.6334618,0.6009828,-0.1665011,0.6857596,-0.8397081,-1.8113897,-1.352973,2.1441252,1.8598421,-0.89647853,0.7398361,-0.79805905,-1.7974313,-1.4162395,2.1982932,1.8051263,-0.88128275,-1.1964924,-0.85791016,-0.09455004,1.3829963,-0.9179662,0.5332093,-0.1438339,-0.01721947,-0.5197296,0.82345396,-1.3047737,-0.5143113,-0.50958055,-0.019522682,-0.5090904,0.7618795,0.82319474,-0.08125293,0.09336404,0.55410415,-1.1652098,-0.15136757,-0.009141043,1.0,0.0,0.0,0.0,0.0,0.0,0.0,-0.6327805,0.11972961,-0.27345395,3.5455227,-6.0828686,-12.315467,-0.15361309,-0.047838688,-2.025044,0.6504357
-6.2780075,15.664382,0.11042845,9.532137,1.0540227,-0.832363,-0.104388244,-0.6018249,-0.5484004,-0.20686255,0.767747,-0.6291551,0.6100073,-0.19334443,0.6796536,-0.8528991,-1.8181176,-1.3394648,2.1353776,1.866127,-0.9006172,0.72831,-0.80715424,-1.7994589,-1.4024436,2.1891494,1.8103296,-0.88269705,-1.1379868,-0.92671776,-0.23878151,1.3790114,-0.91323817,0.5161123,-0.14065021,-0.030257422,-0.524868,0.81760985,-1.3034692,-0.5137971,-0.60935026,-0.031285174,-0.51089096,0.76126254,0.82916886,-0.08569929,0.09547791,0.54407597,-1.1815996,-0.18165249,-0.08250234,1.0,0.0,0.0,0.0,0.0,0.0,0.0,-0.6197426,0.124868006,-0.26760983,5.8687925,-6.908345,-14.403441,-0.23446083,0.47734976,-1.6748905,0.33697188
-4.846418,14.772112,-0.8917248,8.308984,0.90429157,-0.9851382,-0.09466095,-0.5615809,-0.57352483,-0.31304193,0.7697095,-0.6376675,0.6061421,-0.16058055,0.6721519,-0.8645067,-1.8307631,-1.3254727,2.1253827,1.8709438,-0.8987551,0.7174629,-0.8168989,-1.8031458,-1.3886669,2.1800323,1.8153802,-0.88406175,-1.0670404,-0.9905324,-0.41187036,1.3776852,-0.9108287,0.50135916,-0.13506459,-0.04328234,-0.5300026,0.8107687,-1.302166,-0.51328343,-0.7090202,-0.0431837,-0.5130234,0.75986564,0.8351912,-0.08926941,0.09745272,0.5338441,-1.1941861,-0.21596669,-0.16235672,0.0,1.0,0.0,0.0,0.0,0.0,0.0,-0.60671765,0.13000259,-0.2607687,7.1000338,-6.412101,-17.284334,0.047636032,0.26904345,-1.4665842,0.5713016
-7.6772184,16.274975,-1.28332,9.302252,0.9610048,-0.90839213,-0.15399434,-0.55325544,-0.5874191,-0.41293713,0.7738779,-0.62060976,0.6136017,-0.14691171,0.6621373,-0.8756408,-1.8444395,-1.311279,2.1179712,1.8767403,-0.8987529,0.7072271,-0.8271728,-1.8086675,-1.3748748,2.1709838,1.820305,-0.8853654,-1.0090454,-1.0398085,-0.59900826,1.3805927,-0.90242547,0.4896081,-0.12872937,-0.056294236,-0.53512955,0.8029317,-1.3008641,-0.51277024,-0.8085905,-0.055249218,-0.51548004,0.75768256,0.84129936,-0.09190895,0.099352226,0.5233518,-1.2120726,-0.24770467,-0.2407543,0.0,1.0,0.0,0.0,0.0,0.0,0.0,-0.5937057,0.13512954,-0.2529317,5.8353424,-4.9755573,-18.718111,0.5068064,0.8817792,-1.1946976,0.6395757
-8.870474,17.704716,-0.68159604,9.397559,0.9463774,-0.7743051,-0.14759442,-0.53546315,-0.619618,-0.48542207,0.7656813,-0.60918987,0.6246699,-0.15481238,0.6536808,-0.88913465,-1.8572098,-1.2983067,2.1100647,1.882772,-0.90084666,0.69747674,-0.8379207,-1.815965,-1.3610847,2.1620498,1.8251382,-0.8866157,-0.9635144,-1.0866584,-0.77337986,1.3792634,-0.890373,0.48084548,-0.12386565,-0.06929312,-0.5402527,0.7940997,-1.2995635,-0.5122576,-0.9080612,-0.06751404,-0.518219,0.75473195,0.8474969,-0.093635894,0.10118636,0.5125841,-1.2321794,-0.27357268,-0.31729627,0.0,1.0,0.0,0.0,0.0,0.0,0.0,-0.58070683,0.14025268,-0.24409968,4.6070933,-4.7505856,-17.443478,0.10488033,1.229322,-0.92431307,0.491935
-4.2877693,19.35514,1.648745,7.207136,0.7460476,-0.7223537,-0.02921864,-0.4898484,-0.66738117,-0.52941364,0.74717385,-0.5763146,0.64004606,-0.17985156,0.6484919,-0.90465885,-1.8689064,-1.2863673,2.1044183,1.8891429,-0.90460086,0.68826157,-0.84921,-1.8249354,-1.347547,2.15333,1.8293356,-0.8877589,-0.90774745,-1.1432785,-0.9368704,1.3470525,-0.86449367,0.40628973,-0.11213159,-0.084584765,-0.5411682,0.7920068,-1.5711689,0.0071150567,-0.026315613,-0.07985877,-0.5212898,0.75096077,0.85373133,-0.09413612,0.10280288,0.5017099,-1.2369511,-0.30925658,-0.4009934,0.0,1.0,0.0,0.0,0.0,0.0,0.0,-0.5654152,0.1411682,-0.24200678,5.240071,-5.8964252,-13.693738,-1.1296988,2.0863533,-0.63304305,0.14335811
-26.153145,66.01315,17.88452,24.938347,1.0641382,0.7602762,-0.3369484,-0.7031328,-0.41833118,-0.49463803,0.8035846,-0.5930214,0.5815141,-0.010577692,0.6179483,-0.8910431,-1.8743992,-1.2671885,2.094028,1.8874869,-0.88881665,0.6784578,-0.8597958,-1.834703,-1.3339229,2.14477,1.8333257,-0.88875836,-1.0039192,-1.0312641,-0.990078,1.3680717,-0.854822,0.39640868,-0.09647968,-0.100284666,-0.54109955,0.7909917,-1.5695981,0.0071079433,-0.12656851,-0.09245128,-0.5240555,0.74715394,0.8600458,-0.09409417,0.10487564,0.49037585,-1.2668624,-0.25650358,-0.37862954,0.0,1.0,0.0,0.0,0.0,0.0,0.0,-0.5497153,0.14109954,-0.24099171,-9.415615,10.931087,-5.273783,2.2517443,0.61957836,-1.028198,1.3663292
-40.202255,64.41798,14.481198,29.983591,1.7709209,1.1299319,-0.55954343,-0.74536955,-0.4425256,-0.6147437,0.8053942,-0.55998486,0.54888654,-0.024160715,0.6039208,-0.9040484,-1.8961773,-1.2533834,2.0887713,1.8882143,-0.89117444,0.667358,-0.8692353,-1.8451285,-1.3200088,2.1363585,1.8372549,-0.88962144,-1.1444577,-0.9158206,-1.0600113,1.3999028,-0.83795357,0.3913578,-0.0836259,-0.115968876,-0.5410309,0.7889748,-1.5680288,0.007100837,-0.22672117,-0.1055664,-0.5262413,0.74358976,0.8665539,-0.09368785,0.10768088,0.47823802,-1.3264691,-0.19722208,-0.353269,0.0,1.0,0.0,0.0,0.0,0.0,0.0,-0.5340311,0.14103088,-0.23897481,-13.775921,11.234749,-6.968665,3.4178734,1.3341904,-0.62671304,1.0877922
-38.62045,59.5442,12.836952,27.80279,1.7657218,1.080977,-0.49699646,-0.7509814,-0.45023045,-0.6593725,0.7987088,-0.5496348,0.55103654,-0.039799403,0.5922598,-0.9142583,-1.9110658,-1.2401378,2.081395,1.8923585,-0.89360136,0.65497833,-0.87774014,-1.8562522,-1.3058314,2.1281111,1.8411554,-0.8903815,-1.2683492,-0.8297483,-1.1293604,1.4245934,-0.82133925,0.3889249,-0.0740281,-0.13163741,-0.5409622,0.78595716,-1.5664611,0.0070937374,-0.32677367,-0.11926824,-0.5278778,0.7401888,0.8732348,-0.092886224,0.11110871,0.4652825,-1.3848845,-0.14068943,-0.33922657,0.0,1.0,0.0,0.0,0.0,0.0,0.0,-0.5183626,0.14096221,-0.23595715,-12.155914,8.304977,-6.854081,2.711153,1.3121247,-0.41549802,0.78668
-31.760185,51.489872,10.978553,23.012016,1.5184305,0.8560791,-0.31766552,-0.763059,-0.46064135,-0.68801045,0.80026305,-0.56514746,0.54673433,0.023224913,0.5786724,-0.9238043,-1.9250532,-1.2258052,2.0715964,1.8958288,-0.888059,0.64164025,-0.88573194,-1.8680282,-1.2914748,2.1199553,1.845033,-0.89101,-1.3550608,-0.7899254,-1.1930544,1.4400561,-0.81475246,0.38683277,-0.059601847,-0.14729027,-0.54089355,0.78193974,-1.5648949,0.0070866453,-0.4267262,-0.1334783,-0.5290146,0.73678434,0.87997216,-0.0916506,0.11496006,0.45170033,-1.4330368,-0.09349742,-0.34395275,0.0,1.0,0.0,0.0,0.0,0.0,0.0,-0.5027097,0.14089355,-0.23193973,-8.50122,3.7184238,-6.2376976,1.7837286,0.3404975,-0.3907323,1.3062812
-14.74653,54.74863,15.678439,16.726063,0.7580316,0.5792431,-0.0068257153,-0.7360769,-0.43979728,-0.67579794,0.8007054,-0.5677497,0.57328457,0.0771442,0.56803256,-0.92971164,-1.9356079,-1.2114043,2.0631804,1.9023615,-0.8832956,0.62789017,-0.89347196,-1.8801932,-1.2770381,2.1118224,1.8489164,-0.8914649,-1.3815328,-0.769381,-1.2234864,1.4452871,-0.8140537,0.38828987,-0.041252144,-0.1629275,-0.5408249,0.7769235,-1.5633303,0.00707956,-0.5265788,-0.14790905,-0.5297165,0.73331964,0.88656455,-0.09006587,0.119080104,0.43784836,-1.4460809,-0.049911823,-0.35002097,0.0,1.0,0.0,0.0,0.0,0.0,0.0,-0.48707247,0.14082488,-0.22692347,-2.6190996,1.8314004,-2.792883,0.6313324,-0.27599335,0.012332201,1.6915702
-7.3666105,47.215786,14.477156,12.327719,0.5863785,0.35600036,0.13570355,-0.7404301,-0.48277944,-0.67807394,0.79854786,-0.5664776,0.5574987,0.08128564,0.55384713,-0.94174993,-1.9480007,-1.1971834,2.0551746,1.9046663,-0.8833363,0.61410385,-0.90133977,-1.8924994,-1.2626071,2.1036818,1.8528055,-0.8917443,-1.3776432,-0.793156,-1.2322899,1.4428222,-0.8149931,0.38872963,-0.023859985,-0.17854907,-0.5407562,0.7709095,-1.5617673,0.007072482,-0.6263315,-0.1624055,-0.5300751,0.7296812,0.8928979,-0.08819278,0.12324208,0.42398906,-1.450334,-0.017635562,-0.37105998,0.0,1.0,0.0,0.0,0.0,0.0,0.0,-0.47145092,0.14075622,-0.22090948,0.37081242,-2.5501728,-0.6084442,-0.14529228,-0.39937496,-0.06605387,1.6425729
-2.9976864,45.364395,14.342368,9.96294,0.3792783,0.22867244,0.23789924,-0.7380539,-0.4893233,-0.69392115,0.7951848,-0.5811858,0.55799073,0.16456404,0.54029846,-0.9502721,-1.9618915,-1.1830887,2.0455632,1.9086046,-0.8752879,0.6004766,-0.90953976,-1.9048852,-1.2482494,2.0955198,1.8567163,-0.8918032,-1.357211,-0.8290861,-1.2470386,1.4295524,-0.8048946,0.39331496,0.0018184092,-0.19402082,-0.5405998,0.764535,-1.500385,0.082339786,-0.3889216,-0.17688946,-0.53014374,0.72577703,0.8989194,-0.08603373,0.1273281,0.4102799,-1.44843,0.0081709055,-0.40191695,0.0,1.0,0.0,0.0,0.0,0.0,0.0,-0.45597917,0.14059982,-0.214535,2.0889044,-3.691125,-2.1689177,-1.8157244,2.4605155,0.7653296,2.7116542
-0.7944617,53.340004,17.609617,10.662109,0.26731384,0.2752782,0.2502775,-0.7385646,-0.46317458,-0.6820672,0.80025935,-0.5776682,0.53747594,0.16234589,0.52662015,-0.9558572,-1.9730918,-1.1682235,2.0377529,1.9104638,-0.8755686,0.5870594,-0.91794443,-1.9173228,-1.2340013,2.0874665,1.8606403,-0.8916238,-1.3367885,-0.84478825,-1.2417122,1.4234313,-0.8066175,0.39173257,0.02296886,-0.20890155,-0.5395889,0.76053894,-1.4837359,0.10787181,-0.40190634,-0.19128858,-0.52991486,0.72166294,0.90461624,-0.08361712,0.13132244,0.396777,-1.4358044,0.04018019,-0.417168,0.0,1.0,0.0,0.0,0.0,0.0,0.0,-0.44109842,0.13958892,-0.21053892,1.9654989,-1.7399073,0.86841583,-0.5778074,-0.5253196,-0.26105642,1.9959631
3.2859306,62.132195,21.347197,10.706721,0.013854086,0.30095965,0.31453755,-0.7200237,-0.44518512,-0.66912323,0.7952543,-0.5961252,0.56725043,0.21572976,0.515057,-0.96246296,-1.984235,-1.1544758,2.027854,1.9173653,-0.87005085,0.5738901,-0.92633486,-1.9296268,-1.2198238,2.079349,1.8645698,-0.8912167,-1.3107494,-0.8377339,-1.2253927,1.41581,-0.81446296,0.39301062,0.046148248,-0.22356737,-0.53829575,0.75652784,-1.4603883,0.1376231,-0.39994955,-0.20545752,-0.529335,0.71749187,0.90994596,-0.08102708,0.13539276,0.3835383,-1.4089667,0.07626186,-0.41965017,0.0,1.0,0.0,0.0,0.0,0.0,0.0,-0.4264326,0.13829574,-0.20652783,2.4826765,0.5222559,2.0298958,-0.7981777,-1.1879683,0.0003874302,2.168764
-2.446983,54.762867,17.30694,11.582821,0.3824846,0.27887034,0.21687429,-0.73060817,-0.4914152,-0.68490213,0.79640216,-0.5872053,0.533781,0.20509923,0.5008293,-0.9754764,-1.9981171,-1.1401836,2.0206285,1.9179479,-0.8707068,0.56087905,-0.9348178,-1.9418279,-1.2056825,2.0711534,1.8684839,-0.8906101,-1.2981776,-0.8523587,-1.2172179,1.4138097,-0.82259256,0.3903874,0.06513152,-0.23804095,-0.53673553,0.7524373,-1.4426199,0.16316263,-0.4110721,-0.21947819,-0.52843857,0.7132175,0.9149584,-0.07823491,0.13949497,0.3705017,-1.3978354,0.10746012,-0.4325213,0.0,1.0,0.0,0.0,0.0,0.0,0.0,-0.41195902,0.13673553,-0.20243728,1.189208,-1.6380668,1.1641026,-0.15077591,-1.1724949,-0.40377975,1.7895653
-4.0127106,59.046494,17.919027,12.788433,0.37037158,0.3058905,0.20776296,-0.72669446,-0.46240577,-0.696194,0.79622674,-0.6059214,0.5186787,0.2879899,0.4882096,-0.98105836,-2.0114472,-1.1260599,2.0105612,1.9203517,-0.8618111,0.5479463,-0.943315,-1.9540348,-1.1915432,2.062833,1.8723599,-0.8897759,-1.2918015,-0.8495138,-1.2208338,1.4139851,-0.83633065,0.3860569,0.08900473,-0.25232005,-0.5349121,0.7482825,-1.4226066,0.19021559,-0.41612744,-0.23337768,-0.527195,0.7088553,0.91967785,-0.07518115,0.14369832,0.35761872,-1.3850237,0.1412757,-0.43998396,0.0,1.0,0.0,0.0,0.0,0.0,0.0,-0.39767992,0.1349121,-0.19828248,0.57115555,0.09222031,-0.00038146973,0.056290627,-1.7617345,-0.5872011,2.2529812
-5.3622785,56.983356,16.484697,12.653365,0.4283786,0.27583712,0.19057444,-0.7222395,-0.47650838,-0.70303345,0.79182464,-0.6167657,0.5104083,0.2966854,0.4757223,-0.99096584,-2.0243382,-1.1123607,2.0011566,1.9234006,-0.8601073,0.5350573,-0.9518256,-1.966337,-1.1774116,2.05436,1.8761867,-0.8887176,-1.2880908,-0.8522166,-1.232288,1.4129735,-0.85246545,0.38099787,0.110929,-0.26640648,-0.5328293,0.7440314,-1.4034655,0.2151107,-0.42682645,-0.24717334,-0.5256386,0.70438224,0.9241225,-0.07181038,0.14801466,0.34486592,-1.3750668,0.17288923,-0.45221287,0.0,1.0,0.0,0.0,0.0,0.0,0.0,-0.3835935,0.13282928,-0.19403142,0.3150463,-0.4584074,-0.79569817,-0.04286766,-1.990807,-0.6632626,2.062276
-4.9937725,57.071712,16.29224,12.298958,0.43351132,0.26888645,0.20303504,-0.7172031,-0.47992152,-0.7031866,0.78705317,-0.61984795,0.51944214,0.32870775,0.463337,-0.9998178,-2.0366557,-1.0987062,1.9923751,1.928131,-0.8558468,0.52220845,-0.96037626,-1.9787533,-1.1633122,2.0457382,1.8799728,-0.8874414,-1.2840341,-0.8565329,-1.2435156,1.4090567,-0.8664263,0.37730238,0.1328395,-0.28029555,-0.53050613,0.73965937,-1.3834959,0.2389018,-0.43921298,-0.26086378,-0.52376556,0.69977593,0.9282972,-0.0681062,0.15241967,0.3322557,-1.3641598,0.20370653,-0.46567854,0.0,1.0,0.0,0.0,0.0,0.0,0.0,-0.36970443,0.13050613,-0.18965936,0.3437996,-0.6171584,-0.7638931,-0.33710003,-1.7816186,-0.5339861,2.060157
-8.843725,51.797523,13.285391,12.294147,0.5795324,0.23893559,0.16858739,-0.7298007,-0.5016093,-0.7272288,0.7823255,-0.6375613,0.4686387,0.35325697,0.44922838,-1.0105371,-2.0514762,-1.0850797,1.9819821,1.9268367,-0.8521157,0.5093301,-0.96906805,-1.9913682,-1.1492683,2.0369518,1.8836877,-0.88595086,-1.2890928,-0.873896,-1.2664536,1.4031906,-0.88381153,0.36897352,0.15410674,-0.29401392,-0.52796936,0.7350755,-1.3674402,0.25938043,-0.46335778,-0.27451283,-0.5215988,0.6949613,0.9322308,-0.06399159,0.15686214,0.31975776,-1.361991,0.23217373,-0.48899448,0.0,1.0,0.0,0.0,0.0,0.0,0.0,-0.35598606,0.12796935,-0.18507546,-0.53515434,-1.915884,-1.9737482,-0.47738552,-2.0946026,-1.0079503,2.0160823
-6.4724145,61.680206,16.80906,13.217213,0.4716872,0.3081848,0.202178,-0.7240554,-0.460065,-0.7248694,0.7802647,-0.642025,0.46325922,0.40714914,0.43692455,-1.0150745,-2.0638552,-1.0712419,1.9727492,1.9300137,-0.84523594,0.4964166,-0.97772837,-2.004173,-1.1352891,2.028013,1.8873194,-0.88423145,-1.2923311,-0.8640933,-1.2837105,1.3962377,-0.8984396,0.3605839,0.17745568,-0.30752072,-0.5252037,0.7303681,-1.3442947,0.28331193,-0.4712631,-0.2880607,-0.51911545,0.69002426,0.9359079,-0.059473366,0.16140479,0.30738837,-1.3489437,0.2653777,-0.49746606,0.0,1.0,0.0,0.0,0.0,0.0,0.0,-0.34247926,0.1252037,-0.18036807,-0.39477348,0.7791281,-1.329112,-0.6561518,-1.9011617,-1.0281742,2.1794348
-10.829132,54.978733,13.447881,13.101476,0.6855663,0.26112592,0.16237554,-0.7446697,-0.49941456,-0.7428286,0.7699444,-0.64887923,0.35030392,0.41631615,0.42194963,-1.0276698,-2.078456,-1.0582947,1.9631251,1.9223498,-0.8425998,0.48338318,-0.9864383,-2.0171807,-1.121409,2.0189364,1.8907887,-0.8822929,-1.3071023,-0.87387353,-1.3052049,1.3856559,-0.9120625,0.3416136,0.19884907,-0.32083544,-0.52222824,0.72547835,-1.3265429,0.30343404,-0.4932074,-0.30156475,-0.5163193,0.6849195,0.939355,-0.05448857,0.16597238,0.29512072,-1.3471411,0.29597166,-0.51692426,0.0,1.0,0.0,0.0,0.0,0.0,0.0,-0.32916453,0.122228235,-0.17547834,-1.512003,-1.1698604,-1.7944574,-0.95329285,-1.7720461,-2.09679,2.0168245
-12.330776,53.466618,12.3595085,12.975466,0.7599405,0.24499929,0.1570459,-0.7538405,-0.505399,-0.75729567,0.7606959,-0.6520229,0.2740153,0.4463737,0.40799913,-1.0369781,-2.0929103,-1.0453395,1.9537342,1.9181902,-0.83765554,0.470169,-0.9952817,-2.0304208,-1.1076587,2.009742,1.8940179,-0.8801427,-1.3263085,-0.88848734,-1.3289901,1.3718463,-0.9231177,0.31597674,0.22005235,-0.3339844,-0.51906586,0.72032416,-1.3101517,0.32183963,-0.52039963,-0.31507492,-0.5132141,0.6795933,0.94259465,-0.048971858,0.1704833,0.28293538,-1.3483851,0.32623807,-0.5399228,0.0,1.0,0.0,0.0,0.0,0.0,0.0,-0.31601557,0.11906585,-0.17032415,-1.9468784,-1.6515136,-2.0293236,-1.2565851,-1.5177131,-2.7834296,2.0090013
