Afshin1997/kuka_rl_ros2/src/catch_and_throw/input_files/idealpd/recorded_trajectories/env_73_data.csv
torque0,torque1,torque2,torque3,torque4,torque5,torque6,action0,action1,action2,action3,action4,action5,action6,set_target_0,set_target_1,set_target_2,set_target_3,set_target_4,set_target_5,set_target_6,joint_pos_0,joint_pos_1,joint_pos_2,joint_pos_3,joint_pos_4,joint_pos_5,joint_pos_6,joint_vel_0,joint_vel_1,joint_vel_2,joint_vel_3,joint_vel_4,joint_vel_5,joint_vel_6,tennisball_pos_0,tennisball_pos_1,tennisball_pos_2,tennisball_lin_vel_0,tennisball_lin_vel_1,tennisball_lin_vel_2,end_effector_pos_0,end_effector_pos_1,end_effector_pos_2,end_effector_rot_0,end_effector_rot_1,end_effector_rot_2,end_effector_rot_3,end_effector_lin_vel_0,end_effector_lin_vel_1,end_effector_lin_vel_2,obs_task_0,obs_task_1,obs_task_2,obs_task_3,obs_task_4,obs_task_5,obs_task_6,to_final_target_0,to_final_target_1,to_final_target_2,joint_acc_0,joint_acc_1,joint_acc_2,joint_acc_3,joint_acc_4,joint_acc_5,joint_acc_6
0.0,0.0,0.0,0.0,0.0,0.0,0.0,0.0,0.0,0.0,0.0,0.0,0.0,0.0,1.7802359,-1.0646509,-1.8151424,-1.1170107,1.9373155,1.1170107,-0.91629785,1.7802359,-1.0646509,-1.8151424,-1.1170107,1.9373155,1.1170107,-0.91629785,0.0,0.0,0.0,0.0,0.0,0.0,0.0,3.104824,-0.68206024,0.13794994,-3.7666392,0.20829535,5.22382,0.5304184,-0.45449638,0.693097,0.5745483,0.17512383,0.15255436,0.7848268,0.0,0.0,0.0,1.0,0.0,0.0,0.0,0.0,0.0,0.0,-3.7548242,0.28206024,0.41205007,0.0,0.0,0.0,0.0,0.0,0.0,0.0
0.0,0.0,0.0,0.0,0.0,0.0,0.0,0.0,0.0,0.0,0.0,0.0,0.0,0.0,1.7802359,-1.0646509,-1.8151424,-1.1170107,1.9373155,1.1170107,-0.91629785,1.7802359,-1.0646509,-1.8151424,-1.1170107,1.9373155,1.1170107,-0.91629785,0.0,0.0,0.0,0.0,0.0,0.0,0.0,3.104824,-0.68206024,0.13794994,-3.7666392,0.20829535,5.22382,0.5304184,-0.45449638,0.693097,0.5745483,0.17512383,0.15255436,0.7848268,0.0,0.0,0.0,1.0,0.0,0.0,0.0,0.0,0.0,0.0,-3.7548242,0.28206024,0.41205007,0.0,0.0,0.0,0.0,0.0,0.0,0.0
0.0,0.0,0.0,0.0,0.0,0.0,0.0,0.0,0.0,0.0,0.0,0.0,0.0,0.0,1.7802359,-1.0646509,-1.8151424,-1.1170107,1.9373155,1.1170107,-0.91629785,1.7802359,-1.0646509,-1.8151424,-1.1170107,1.9373155,1.1170107,-0.91629785,0.0,0.0,0.0,0.0,0.0,0.0,0.0,3.104824,-0.68206024,0.13794994,-3.7666392,0.20829535,5.22382,0.5304184,-0.45449638,0.693097,0.5745483,0.17512383,0.15255436,0.7848268,0.0,0.0,0.0,1.0,0.0,0.0,0.0,0.0,0.0,0.0,-3.7548242,0.28206024,0.41205007,0.0,0.0,0.0,0.0,0.0,0.0,0.0
-176.0,50.46459,-13.729641,110.0,11.19968,4.1047525,-3.7607284,-0.81029415,0.26599503,-0.5717159,0.7434557,0.28649876,0.65819377,-0.5836358,1.6992065,-1.0380514,-1.872314,-1.0426651,1.9659654,1.1828301,-0.9746614,1.7791315,-1.062692,-1.8214996,-1.1115443,1.9427629,1.122687,-0.9170198,-0.14681928,0.26073053,-0.84727466,0.7294589,0.72539866,0.7547989,-0.095628634,3.0671844,-0.6799793,0.1894125,-3.7628732,0.20808709,5.1204114,0.52825546,-0.4580555,0.69374657,0.57821107,0.17369917,0.15073115,0.782803,-0.28777516,-0.4751023,0.0864525,1.0,0.0,0.0,0.0,0.0,0.0,0.0,-3.7171845,0.27997932,0.3605875,-14.574396,25.86652,-84.60888,73.08533,72.29795,74.89729,-9.348772
-176.0,-35.60663,-46.608585,109.373276,11.810877,1.2325349,-3.2769914,-0.8109833,-0.20576179,-0.52690035,0.7010746,0.43563354,0.6341768,-0.5597758,1.6980332,-1.0832682,-1.8741896,-1.0414368,1.9863262,1.1861047,-0.97299737,1.7778574,-1.0606302,-1.836705,-1.0961729,1.9525342,1.1360556,-0.9161691,-0.12485123,0.1742897,-1.7104224,1.806696,1.0430269,1.4918139,0.1365175,3.029583,-0.6779003,0.23984176,-3.759111,0.20787904,5.0171056,0.52351,-0.46702576,0.6943878,0.5862595,0.17034465,0.14665578,0.7783151,-0.53840435,-1.0344422,0.060714453,1.0,0.0,0.0,0.0,0.0,0.0,0.0,-3.679583,0.2779003,0.31015825,1.0313153,-12.779787,-75.94128,107.79417,26.32315,62.016533,20.602768
-151.04732,118.116875,31.99543,89.46838,7.378558,7.6494975,-2.0770097,-0.7667841,0.32180572,0.031493172,0.64562106,0.40303186,0.700893,-0.49782097,1.701179,-1.0284497,-1.8335557,-1.0316108,1.9928374,1.2061449,-0.9659512,1.7733027,-1.0579447,-1.8518894,-1.0764986,1.9629483,1.1507994,-0.915122,-0.56565994,0.29653776,-1.4478155,2.0222104,1.0357072,1.4619181,0.09239821,2.9920197,-0.6758232,0.28923872,-3.7553525,0.2076712,4.913903,0.51584244,-0.47876358,0.6967099,0.59715205,0.16536738,0.14149417,0.77203774,-0.8504083,-1.2131301,0.29336962,1.0,0.0,0.0,0.0,0.0,0.0,0.0,-3.6420197,0.2758232,0.2607613,-44.09929,11.196977,28.286362,21.891045,-2.3177147,-5.012226,-4.948935
-96.003716,111.31157,40.098194,53.559288,4.4216323,7.3719444,-0.4249941,-0.77028894,0.11542703,0.11585777,0.65068775,0.4165151,0.67253715,-0.5334788,1.6962738,-1.046402,-1.8403035,-1.0114299,2.0045998,1.2180531,-0.96846986,1.7643534,-1.055015,-1.8617141,-1.0572573,1.9724145,1.1644598,-0.91470903,-1.0058955,0.28943628,-0.8195439,1.89172,0.91102433,1.3303529,0.022182822,2.9544945,-0.673748,0.33760443,-3.751598,0.20746356,4.8108044,0.50559235,-0.49110222,0.7009758,0.60901755,0.15903544,0.1354363,0.765155,-1.0956708,-1.2282932,0.4755709,1.0,0.0,0.0,0.0,0.0,0.0,0.0,-3.6044946,0.273748,0.21239558,-44.359936,-1.4144659,65.17908,-12.958074,-14.222908,-14.290166,-7.6379323
-45.234478,118.868164,45.023727,28.552805,1.7528558,6.2393746,0.2603207,-0.78908956,0.221927,0.04607945,0.65436083,0.50978714,0.6753761,-0.54447114,1.6854445,-1.0328223,-1.8571062,-0.9918212,2.0233932,1.2319975,-0.96915615,1.7517725,-1.0518106,-1.8656147,-1.0404478,1.980803,1.1766955,-0.9150266,-1.3437057,0.32919538,-0.24056715,1.6103481,0.81057286,1.1861982,-0.051855493,2.9170074,-0.6716747,0.38493994,-3.747847,0.20725614,4.7078085,0.4935341,-0.50279427,0.7067619,0.62072337,0.15171829,0.12876613,0.7583557,-1.2552816,-1.1366333,0.61527824,1.0,0.0,0.0,0.0,0.0,0.0,0.0,-3.5670075,0.27167472,0.16506007,-34.183002,3.4824789,59.76001,-28.303791,-11.306417,-14.910507,-8.02636
-9.490501,106.71043,38.29424,12.010894,-0.14328268,4.040962,0.3082568,-0.7982855,0.28932515,-0.05155647,0.6486819,0.52419573,0.6646236,-0.55896866,1.671944,-1.022878,-1.8707703,-0.9755796,2.0332227,1.2431579,-0.9709235,1.7369257,-1.0479463,-1.8656261,-1.0263678,1.988461,1.187617,-0.9160232,-1.5327471,0.4044072,0.08221206,1.3399123,0.7487527,1.0606707,-0.117237896,2.8795586,-0.66960335,0.43124628,-3.7441,0.20704892,4.6049156,0.4805298,-0.51334953,0.71344805,0.6319107,0.1439462,0.12211528,0.75170213,-1.326864,-1.0147029,0.68620765,1.0,0.0,0.0,0.0,0.0,0.0,0.0,-3.5295587,0.26960334,0.11875373,-19.236374,7.213622,33.386467,-27.277994,-6.810117,-12.594557,-7.0373416
10.249848,115.80521,37.16445,7.86355,-1.4290968,2.8125398,-0.12585732,-0.8111667,0.47241682,-0.18207031,0.6469513,0.5151584,0.6604444,-0.55166703,1.655809,-1.0007046,-1.8838332,-0.96167266,2.0399768,1.2536614,-0.9711899,1.7210833,-1.0425409,-1.8646,-1.014361,1.9957185,1.197436,-0.9175901,-1.6024598,0.5850147,0.11173747,1.1535119,0.7173091,0.95603067,-0.17149273,2.842144,-0.6675358,0.47652444,-3.740357,0.20684192,4.5021257,0.46722794,-0.52259445,0.72074443,0.64276004,0.13605113,0.1163675,0.7448544,-1.3419245,-0.88017344,0.74296415,1.0,0.0,0.0,0.0,0.0,0.0,0.0,-3.492144,0.26753578,0.07347557,-7.276726,17.810232,3.6302195,-18.8751,-3.391838,-10.37122,-5.9041557
18.832869,113.22787,34.08721,6.8162327,-1.7375138,1.9527271,-0.34681687,-0.8225865,0.5497756,-0.2134152,0.62384,0.5429248,0.6492534,-0.5529214,1.6388246,-0.9875634,-1.8859415,-0.951977,2.050011,1.2623613,-0.9728822,1.7050864,-1.0351366,-1.864455,-1.0036093,2.0029058,1.2063376,-0.91962713,-1.5996654,0.79140556,-0.016396858,1.048108,0.71893257,0.8684764,-0.21583149,2.8047676,-0.6654682,0.5207755,-3.7366173,0.20663512,4.399438,0.4539795,-0.53058434,0.72851884,0.6534997,0.12821709,0.111966945,0.73753774,-1.3274716,-0.7575597,0.7875362,1.0,0.0,0.0,0.0,0.0,0.0,0.0,-3.4547677,0.2654682,0.029224515,0.007581711,20.442236,-12.331463,-10.784388,0.061035156,-8.683121,-4.8583326
24.389532,110.478935,33.450455,6.5591726,-1.6383653,1.6787052,-0.3284088,-0.8184047,0.61201864,-0.1916184,0.59265924,0.5610711,0.6472316,-0.55437326,1.6232458,-0.9739347,-1.8836168,-0.9443434,2.059013,1.2710607,-0.97506446,1.6894003,-1.025781,-1.8657634,-0.99351656,2.0102491,1.2144743,-0.92204756,-1.5591997,0.9830309,-0.1674836,0.995441,0.73939306,0.7953755,-0.25216854,2.7674294,-0.66340446,0.5640004,-3.7328813,0.20642853,4.296853,0.4409523,-0.5374088,0.7367438,0.6641917,0.12046075,0.10886702,0.7297168,-1.3016186,-0.64343345,0.8333722,1.0,0.0,0.0,0.0,0.0,0.0,0.0,-3.4174294,0.26340446,-0.014000416,3.795886,18.993832,-14.65487,-5.544436,1.9758701,-7.316649,-4.0430665
23.714016,101.65323,31.24969,7.227337,-1.2146735,1.5504267,-0.23220462,-0.8154764,0.6492904,-0.18167913,0.5745289,0.5649321,0.6510535,-0.5534578,1.6078527,-0.960852,-1.8839314,-0.93606365,2.0667424,1.2795796,-0.9773933,1.674172,-1.0148576,-1.868304,-0.9837061,2.0178251,1.2219759,-0.92477983,-1.511242,1.1282213,-0.2814891,0.9752365,0.7634347,0.73476475,-0.28159967,2.7301292,-0.6613407,0.6062003,-3.729149,0.20622215,4.1943707,0.42815018,-0.5432148,0.7453919,0.67481315,0.11272724,0.10676887,0.72147083,-1.277862,-0.545073,0.8748214,1.0,0.0,0.0,0.0,0.0,0.0,0.0,-3.3801293,0.2613407,-0.056200266,4.5707464,14.374423,-10.9463215,-2.311051,2.3368359,-6.1417937,-3.330493
20.141457,93.698364,29.60648,8.768154,-0.6629354,1.6261497,-0.10751738,-0.8149088,0.6784908,-0.15088731,0.5666184,0.56993544,0.65404236,-0.5566409,1.5926812,-0.94700855,-1.8833927,-0.9270443,2.0748186,1.2873802,-0.98044395,1.6593462,-1.0028585,-1.8714569,-0.9739615,2.0256224,1.2289492,-0.92776865,-1.4736819,1.2234848,-0.32495368,0.973281,0.784966,0.6845414,-0.30584532,2.6928673,-0.6592808,0.64737606,-3.7254207,0.20601596,4.091991,0.41550064,-0.5481491,0.75444293,0.68530566,0.104919545,0.10527983,0.71292645,-1.2646996,-0.46076033,0.9152213,1.0,0.0,0.0,0.0,0.0,0.0,0.0,-3.3428674,0.25928077,-0.09737605,3.5441637,9.393859,-3.851378,-0.47291517,2.0681024,-5.1651716,-2.7991295
17.193808,86.10919,27.846193,9.540346,-0.24082696,1.659802,0.0155855315,-0.80818975,0.69807035,-0.12363732,0.56052434,0.5793401,0.6612427,-0.55525744,1.5785272,-0.93305147,-1.8838205,-0.917909,2.0835564,1.2950735,-0.98329437,1.6448084,-0.9902252,-1.8745906,-0.9641901,2.0336142,1.2354933,-0.93096536,-1.4478617,1.2762321,-0.30790484,0.9775727,0.80361384,0.64374936,-0.32549956,2.6556396,-0.65722084,0.6875288,-3.7216961,0.20580998,3.989714,0.40291977,-0.55231094,0.7638642,0.6955948,0.09694923,0.10404739,0.70421785,-1.2599865,-0.3866045,0.9510854,1.0,0.0,0.0,0.0,0.0,0.0,0.0,-3.3056397,0.25722083,-0.13752878,2.3786545,5.154681,2.2347271,0.1696229,1.7650008,-4.2399526,-2.3315012
15.711102,78.74894,25.561161,8.888939,-0.09344381,1.5471909,0.11013131,-0.8014436,0.71262854,-0.112221554,0.54076976,0.5815437,0.6693693,-0.55671674,1.564664,-0.91896236,-1.8858128,-0.91011316,2.0917685,1.3024303,-0.98663706,1.6304537,-0.97727716,-1.8773391,-0.9544512,2.0417547,1.2416922,-0.93433183,-1.4318476,1.3006102,-0.26223114,0.9718691,0.8169493,0.6115163,-0.3416153,2.6184502,-0.6551647,0.72665954,-3.7179754,0.20560421,3.8875394,0.39035797,-0.5557823,0.77356046,0.70560765,0.08880423,0.10287179,0.69544876,-1.2568325,-0.31816906,0.9755269,1.0,0.0,0.0,0.0,0.0,0.0,0.0,-3.2684503,0.2551647,-0.17665952,1.4044762,2.336073,5.103171,-0.8249402,1.233387,-3.34872,-1.9678175
13.65384,73.90509,23.73902,8.6588745,0.019753635,1.4609842,0.1701764,-0.80577636,0.72466195,-0.087073416,0.51928145,0.59805053,0.6715576,-0.56002045,1.5498761,-0.90481097,-1.8860464,-0.90252304,2.1015599,1.3088479,-0.99033386,1.6161638,-0.96419466,-1.8795192,-0.94487727,2.0500364,1.2476183,-0.93783945,-1.4286075,1.3104521,-0.2015145,0.9518563,0.83147097,0.5858253,-0.35501865,2.5812988,-0.6531105,0.7647693,-3.714258,0.20539865,3.785467,0.37781906,-0.5586014,0.7834356,0.71529233,0.08050631,0.101646245,0.6866903,-1.2556672,-0.25417146,0.99098366,1.0,0.0,0.0,0.0,0.0,0.0,0.0,-3.231299,0.2531105,-0.2147693,0.12850761,0.89633465,6.606972,-2.2503257,1.3551116,-2.6626468,-1.6820073
13.178728,70.99979,22.608164,8.322563,0.059263527,1.3711807,0.21593073,-0.8040684,0.72955877,-0.05307443,0.5048342,0.6108254,0.6662418,-0.55245554,1.5357571,-0.8912388,-1.8848267,-0.89439386,2.111119,1.3142425,-0.993085,1.6018683,-0.95107305,-1.8810356,-0.9355618,2.0584707,1.2533194,-0.9414577,-1.4306569,1.3124585,-0.13315755,0.92401356,0.84703964,0.5647582,-0.36519578,2.5441856,-0.6510582,0.80185914,-3.7105443,0.2051933,3.6834965,0.36528397,-0.56079483,0.79342335,0.72461236,0.07207635,0.10030989,0.6779969,-1.2537055,-0.19238663,1.0005276,1.0,0.0,0.0,0.0,0.0,0.0,0.0,-3.1941857,0.2510582,-0.25185913,-0.395298,0.124526024,7.3590727,-3.0269384,1.470542,-2.167809,-1.3481557
14.325073,69.96758,21.93113,7.4785314,-0.061635554,1.2550817,0.24076308,-0.8000962,0.74065524,-0.03479293,0.48041335,0.616855,0.67452896,-0.5424943,1.5218587,-0.87700754,-1.8845148,-0.88752043,2.1201563,1.3207723,-0.9957071,1.5875536,-0.93791425,-1.881932,-0.92659533,2.06705,1.2588488,-0.9451551,-1.4324521,1.3168058,-0.07351339,0.8866977,0.8612367,0.54876405,-0.3723129,2.5071068,-0.6490078,0.83793,-3.7068346,0.20498815,3.581628,0.3528099,-0.56236076,0.80347115,0.7335409,0.06353498,0.098884866,0.66940486,-1.2465323,-0.1292068,1.0048127,1.0,0.0,0.0,0.0,0.0,0.0,0.0,-3.1571069,0.24900779,-0.28793,-0.36575794,0.36962032,6.463811,-3.9729,1.3509154,-1.6177177,-1.0309935
14.03816,68.05236,20.693567,7.212711,-0.13604921,1.0991765,0.21948439,-0.80117977,0.74678946,-0.02690141,0.4605434,0.6221885,0.6766197,-0.54105556,1.5074357,-0.8632353,-1.8846222,-0.88054097,2.129269,1.3265108,-0.99926066,1.5732161,-0.92469347,-1.8823707,-0.91802657,2.0757551,1.2642428,-0.94891065,-1.4346411,1.3237373,-0.03260512,0.8460389,0.87354594,0.5364647,-0.37758008,2.470066,-0.6469593,0.872983,-3.7031286,0.2047832,3.4798613,0.34042358,-0.56331253,0.8135194,0.742087,0.054925043,0.09743716,0.66090554,-1.2356544,-0.06853273,1.0030729,1.0,0.0,0.0,0.0,0.0,0.0,0.0,-3.1200662,0.2469593,-0.32298297,-0.39687157,0.6397486,4.547125,-4.304385,1.1877656,-1.2146115,-0.8274436
15.05785,64.88957,19.105602,5.911788,-0.3175483,0.85126555,0.21523467,-0.7973299,0.75059086,-0.032249697,0.4261798,0.62205285,0.67736065,-0.52889496,1.4934831,-0.8496344,-1.8855957,-0.8754086,2.1379604,1.3319788,-1.0018002,1.5588824,-0.9113935,-1.882592,-0.90993464,2.0845556,1.2695357,-0.95270056,-1.4336665,1.3319169,-0.01725759,0.7960349,0.8820365,0.5272138,-0.38036385,2.4330635,-0.6449127,0.9070191,-3.6994262,0.20457846,3.3781965,0.32821274,-0.5636749,0.8234792,0.7502549,0.04632188,0.09606333,0.6524903,-1.2166508,-0.010235866,0.9914917,1.0,0.0,0.0,0.0,0.0,0.0,0.0,-3.0830636,0.24491271,-0.35701907,-0.07150173,0.78196526,1.9390047,-5.247557,0.83566904,-0.8525133,-0.56043863
15.307975,62.324535,17.738007,5.14281,-0.42650032,0.6463895,0.20346549,-0.7974547,0.75733346,-0.041559603,0.39118338,0.6329849,0.6847736,-0.52637076,1.479137,-0.83566016,-1.886748,-0.8708163,2.147854,1.338013,-1.0053376,1.544562,-0.8979963,-1.8828247,-0.9024035,2.0934477,1.274758,-0.9565086,-1.4319085,1.3422868,-0.024179263,0.7380104,0.89161074,0.5209893,-0.38192564,2.396099,-0.64286804,0.9400393,-3.6957273,0.20437393,3.2766333,0.31621552,-0.56347656,0.83326924,0.75805676,0.03780274,0.09484415,0.6441471,-1.1919358,0.044408463,0.9725458,1.0,0.0,0.0,0.0,0.0,0.0,0.0,-3.0460992,0.24286804,-0.39003927,0.012803078,1.0155439,-0.33085048,-6.056452,0.96753836,-0.51107407,-0.4197836
15.976542,60.28033,16.895737,4.25369,-0.508513,0.4938907,0.23149031,-0.80066246,0.7598167,-0.034797363,0.3442103,0.63991624,0.6774107,-0.5225498,1.4644958,-0.82201463,-1.8863044,-0.86798245,2.1574392,1.342499,-1.0087636,1.5302435,-0.8845037,-1.8831546,-0.8955475,2.102439,1.279925,-0.96032614,-1.4322722,1.3515736,-0.034696754,0.6672652,0.90142626,0.5158048,-0.38253012,2.359169,-0.6408272,0.9720446,-3.6920323,0.20416959,3.1751716,0.3045044,-0.56274414,0.8428307,0.76548594,0.029429054,0.09381275,0.63589644,-1.1620337,0.0969001,0.9482449,1.0,0.0,0.0,0.0,0.0,0.0,0.0,-3.009169,0.24082717,-0.42204458,-0.19769669,0.92089176,-0.71201175,-7.3339224,1.0053515,-0.37121773,-0.31160116
21.595894,60.976536,17.944365,1.237391,-0.7449419,0.41945457,0.4128439,-0.799624,0.7613723,0.017365787,0.2556555,0.6599928,0.6722393,-0.51919293,1.4502811,-0.8083665,-1.8814181,-0.86998194,2.1684382,1.3471489,-1.0122454,1.5159231,-0.8709358,-1.8833396,-0.88966715,2.1115675,1.2850481,-0.9641456,-1.4325092,1.3585813,-0.011982833,0.5607709,0.916697,0.5117893,-0.38262466,2.322277,-0.6387863,1.003036,-3.6883411,0.20396546,3.0738113,0.29319382,-0.56142235,0.85212857,0.77243215,0.021230381,0.09291489,0.62790483,-1.1195842,0.15695092,0.92095375,1.0,0.0,0.0,0.0,0.0,0.0,0.0,-2.9722772,0.23878631,-0.453036,-0.19056797,0.7084608,2.6336846,-10.912013,1.5493989,-0.18495321,-0.26519895
28.894924,61.981194,19.071608,-2.9527612,-1.1670144,0.27984536,0.61275417,-0.7973267,0.76959914,0.057373427,0.14138246,0.66308165,0.6694971,-0.5194935,1.4361905,-0.7939759,-1.8776023,-0.87552893,2.1778758,1.3519979,-1.0160949,1.5016104,-0.857283,-1.883086,-0.8852097,2.1208372,1.2901388,-0.96796507,-1.4313476,1.3676109,0.03909536,0.40654007,0.93057597,0.5093083,-0.38258454,2.2854195,-0.63674927,1.0330147,-3.6846535,0.20376153,2.9725523,0.28242493,-0.55942535,0.86110866,0.7787462,0.01325979,0.09212903,0.6203956,-1.0581068,0.2267986,0.88752544,1.0,0.0,0.0,0.0,0.0,0.0,0.0,-2.9354196,0.23674926,-0.48301464,-0.04787445,0.9325266,5.465587,-15.680975,1.4254451,0.07139444,-0.2432406
37.882027,58.69621,18.677113,-9.812816,-1.8194339,-0.12786818,0.8589869,-0.7947646,0.773643,0.08016162,-0.03277606,0.6743992,0.6665189,-0.51056266,1.4221339,-0.7799187,-1.8750699,-0.8884873,2.1882772,1.3567908,-1.0190213,1.4873244,-0.84353864,-1.8822544,-0.8828541,2.130252,1.2952162,-0.97177595,-1.4282774,1.3769053,0.09870395,0.17768767,0.9454652,0.5088078,-0.38131857,2.2486,-0.6347122,1.0619814,-3.6809695,0.20355782,2.8713946,0.27249527,-0.55667496,0.86960983,0.7842522,0.0056867516,0.09150558,0.61363083,-0.9673476,0.30243316,0.8344418,1.0,0.0,0.0,0.0,0.0,0.0,0.0,-2.8986,0.23471221,-0.5119814,0.16686916,0.99642277,6.255123,-23.135805,1.5598178,0.43512583,-0.08226633
42.45677,56.341766,18.25486,-13.488872,-2.172696,-0.4223258,0.99327105,-0.7961035,0.7786048,0.1201667,-0.180156,0.6749502,0.65952194,-0.49979222,1.407714,-0.76567817,-1.8702377,-0.9008697,2.197747,1.3611684,-1.0217552,1.4730612,-0.8296989,-1.8807609,-0.883103,2.1397924,1.3002898,-0.97556394,-1.4258422,1.3866383,0.16680294,-0.09301706,0.95718175,0.5089682,-0.378483,2.2118187,-0.632679,1.0899373,-3.6772892,0.2033543,2.770338,0.2635994,-0.5531635,0.8775007,0.7888477,-0.0013372924,0.09109795,0.6077982,-0.85916895,0.37735865,0.7703821,1.0,0.0,0.0,0.0,0.0,0.0,0.0,-2.8618188,0.23267898,-0.5399373,0.14984608,1.0712147,6.988743,-27.276274,1.2991905,0.5905032,0.13486147
34.391514,57.29596,17.982996,-6.754695,-1.4932514,-0.28089035,0.7749516,-0.7910407,0.7803621,0.15477836,-0.17129605,0.6803743,0.65906084,-0.47113287,1.3939571,-0.75166273,-1.865283,-0.9002326,2.20783,1.3661958,-1.0226772,1.4588438,-0.8157772,-1.8785846,-0.8854624,2.1494398,1.3053614,-0.9793014,-1.4207164,1.3943815,0.23470643,-0.28405488,0.96791935,0.5081854,-0.37258005,2.1750755,-0.63064575,1.1168835,-3.6736128,0.20315099,2.6693826,0.25559998,-0.5490074,0.88489604,0.7926716,-0.007926618,0.09084253,0.6027906,-0.7743794,0.43657762,0.7252645,1.0,0.0,0.0,0.0,0.0,0.0,0.0,-2.8250756,0.23064575,-0.5668835,0.4645586,0.8840084,6.809631,-19.2547,1.293087,0.38602352,0.4864037
19.369328,58.074486,16.87105,4.750252,-0.3745715,0.031842247,0.35806686,-0.78939116,0.7820197,0.15885843,-0.106698595,0.68113923,0.66291803,-0.4333358,1.3799047,-0.73757523,-1.8626988,-0.8961323,2.2175536,1.3716532,-1.022635,1.444678,-0.80179536,-1.8758876,-0.88874495,2.159171,1.3104216,-0.98295397,-1.4153436,1.3998213,0.28096378,-0.34352598,0.97613543,0.50603986,-0.363244,2.1383667,-0.62861633,1.1428208,-3.66994,0.20294787,2.568528,0.24812698,-0.5444107,0.892058,0.7960463,-0.014355736,0.0906371,0.59823835,-0.7328924,0.47374588,0.7087891,1.0,0.0,0.0,0.0,0.0,0.0,0.0,-2.7883668,0.22861633,-0.5928208,0.4905939,0.65352917,4.5425177,-6.0953913,1.111424,0.06835461,0.83690286
14.725755,56.933456,16.170937,7.835599,-0.066862166,0.08159439,0.2486206,-0.7945452,0.78257614,0.19436996,-0.17657566,0.6833872,0.6667935,-0.43130955,1.3652234,-0.72353774,-1.8564507,-0.9064025,2.2275097,1.377101,-1.0260849,1.4305292,-0.78777826,-1.8727424,-0.89239657,2.1689749,1.3154608,-0.98651785,-1.4148587,1.4027416,0.32534385,-0.37281644,0.98240256,0.5038646,-0.35441858,2.101696,-0.6265888,1.1677504,-3.6662707,0.20274496,2.4677742,0.24095917,-0.53948975,0.89910084,0.7991324,-0.020746808,0.09043123,0.5939522,-0.7035215,0.5044826,0.6981791,1.0,0.0,0.0,0.0,0.0,0.0,0.0,-2.751696,0.22658882,-0.61775035,-0.004696846,0.4019022,4.337847,-3.079009,0.9310961,0.020742416,0.789845
15.188889,56.210484,16.078465,7.3163853,-0.14654237,0.0254753,0.28133056,-0.7975094,0.7861619,0.23274425,-0.24403505,0.6773014,0.66327703,-0.39868465,1.3507783,-0.70916206,-1.849468,-0.9168001,2.236705,1.3817885,-1.0263863,1.4163595,-0.7737297,-1.8691108,-0.89641345,2.1788054,1.3204771,-0.9899778,-1.4180018,1.4058404,0.3753899,-0.41185537,0.98393345,0.5016373,-0.34343016,2.0650597,-0.6245632,1.1916732,-3.6626053,0.20254226,2.367121,0.23412323,-0.53424835,0.90602344,0.8019362,-0.027101351,0.09024014,0.5899326,-0.6711488,0.5360907,0.6854079,1.0,0.0,0.0,0.0,0.0,0.0,0.0,-2.7150598,0.22456321,-0.64167315,-0.36489964,0.42374134,4.895401,-4.043746,0.46247244,0.029420853,1.0181785
17.652294,56.35125,16.785627,6.247529,-0.23929927,-0.0016035847,0.3697506,-0.7921887,0.78190523,0.29322356,-0.27757066,0.67539215,0.6627015,-0.362765,1.3371407,-0.6955392,-1.8397884,-0.9241705,2.2463446,1.3867472,-1.0262543,1.4021784,-0.7596792,-1.8648155,-0.90088046,2.1886282,1.3254744,-0.9933099,-1.4182391,1.4051132,0.4472177,-0.45873615,0.9829191,0.49994388,-0.3300481,2.0284615,-0.6225395,1.2145902,-3.6589434,0.20233975,2.2665687,0.22764969,-0.52866745,0.91281784,0.80440325,-0.033425063,0.09004103,0.5862685,-0.63360775,0.5709391,0.6724459,1.0,0.0,0.0,0.0,0.0,0.0,0.0,-2.6784616,0.22253951,-0.6645902,-0.056290627,0.048089027,7.0409117,-4.8081756,0.23292303,0.11245608,1.26549
15.227352,54.895733,16.216314,7.8028145,-0.075208426,-0.0070200376,0.3216056,-0.797253,0.7795998,0.31875247,-0.2718669,0.67609626,0.6645793,-0.33155075,1.3224531,-0.68171924,-1.8329402,-0.92806715,2.2562377,1.3919322,-1.0264649,1.3879763,-0.7456554,-1.8598106,-0.90569365,2.1984396,1.3304564,-0.9964952,-1.4209086,1.401871,0.51779747,-0.48925623,0.9815318,0.4985672,-0.3149835,1.9919014,-0.62051773,1.2365025,-3.6552851,0.20213746,2.1661167,0.22148514,-0.522768,0.9195001,0.80654794,-0.039746363,0.08980804,0.58295375,-0.6021954,0.60141796,0.66167307,1.0,0.0,0.0,0.0,0.0,0.0,0.0,-2.6419015,0.22051772,-0.6865025,-0.29978752,-0.20081997,6.898731,-3.1712174,0.20531416,0.12487173,1.4399886
11.903444,55.14543,16.036713,10.534496,0.14515352,0.07037104,0.22783327,-0.8020648,0.78292704,0.34845233,-0.25267798,0.67157495,0.66740227,-0.3078789,1.3077698,-0.6673627,-1.8249654,-0.93096143,2.265597,1.3971967,-1.0272831,1.3737284,-0.7316488,-1.8541343,-0.9106041,2.2082243,1.3354269,-0.99952596,-1.4262795,1.4006721,0.5835737,-0.49204206,0.97868073,0.49739593,-0.29934058,1.9553757,-0.61849785,1.2574109,-3.6516306,0.20193535,2.0657651,0.21556854,-0.5165787,0.9261283,0.80843675,-0.0461316,0.08953783,0.57990074,-0.58047956,0.62933373,0.65778345,1.0,0.0,0.0,0.0,0.0,0.0,0.0,-2.6053758,0.21849784,-0.7074109,-0.57947636,0.0064611435,6.405568,-0.39938688,0.07237196,0.11099577,1.5018225
5.1900268,55.46151,15.492216,16.207584,0.6403845,0.24732399,0.020984303,-0.8025656,0.78451914,0.35878775,-0.16762064,0.6660274,0.6672909,-0.25581506,1.2934718,-0.6531969,-1.8182555,-0.9273662,2.274827,1.402156,-1.0251075,1.3594271,-0.7176393,-1.8479393,-0.91505396,2.217967,1.3403841,-1.0023777,-1.4314666,1.4014275,0.63089573,-0.42977065,0.97411275,0.49563384,-0.28068772,1.9188881,-0.6164799,1.2773167,-3.6479797,0.20173346,1.9655141,0.20970917,-0.51015854,0.9328272,0.81020355,-0.052721787,0.0892199,0.5769145,-0.57993364,0.6510677,0.66837245,1.0,0.0,0.0,0.0,0.0,0.0,0.0,-2.5688882,0.21647987,-0.7273167,-0.5849123,0.20422935,4.5526385,6.0842514,-0.08094311,-0.027185678,1.7916441
-6.7967215,55.05289,14.21692,25.868296,1.525805,0.58828056,-0.3450278,-0.81123024,0.7817278,0.35437503,-0.0007526501,0.64996624,0.666327,-0.23103046,1.2783041,-0.6394665,-1.8125018,-0.91512924,2.2829638,1.4070169,-1.0254807,1.3450457,-0.70363176,-1.8414676,-0.9180752,2.2276258,1.3453165,-1.0050423,-1.4409496,1.4010162,0.6520146,-0.26024553,0.9641031,0.49246353,-0.2619898,1.8824348,-0.6144638,1.2962207,-3.6443324,0.20153177,1.865363,0.2035675,-0.50359917,0.9398083,0.81208414,-0.0597654,0.088815756,0.5736367,-0.6177252,0.6625051,0.7023698,1.0,0.0,0.0,0.0,0.0,0.0,0.0,-2.532435,0.2144638,-0.74622065,-1.062727,0.085139275,1.9379616,16.765535,-0.6017804,-0.31442642,1.7694175
-15.62197,53.455368,12.8101635,32.793724,2.1681457,0.8176425,-0.6395759,-0.8187323,0.7791507,0.33872896,0.1492844,0.64570206,0.6701257,-0.26468924,1.2631725,-0.6257167,-1.8075948,-0.90314674,2.292196,1.4123291,-1.0315112,1.330546,-0.68964136,-1.8349922,-0.91882,2.2371778,1.3502146,-1.0075638,-1.4535015,1.3987625,0.6453446,-0.013229092,0.95351803,0.48852712,-0.2492729,1.8460197,-0.61244965,1.3141239,-3.640689,0.20133027,1.7653121,0.19683838,-0.49698067,0.9472426,0.814297,-0.067477725,0.08829278,0.5697117,-0.68404657,0.66693944,0.7512391,1.0,0.0,0.0,0.0,0.0,0.0,0.0,-2.4960198,0.21244964,-0.76412386,-1.3942719,-0.11236668,-0.82627535,24.49945,-0.6643534,-0.52262545,1.1562198
-12.398715,50.624138,11.955805,29.424732,1.8070846,0.5987769,-0.58638704,-0.8182768,0.78145695,0.31900153,0.17467877,0.64537734,0.6652692,-0.29648042,1.2487184,-0.6114957,-1.803092,-0.90135217,2.3017156,1.4167415,-1.0372119,1.3159434,-0.67566335,-1.8287475,-0.91734946,2.2466383,1.3550726,-1.0100014,-1.4627496,1.3977995,0.61710095,0.19993576,0.94455475,0.48454648,-0.24219091,1.809639,-0.6104374,1.3310273,-3.637049,0.20112899,1.665361,0.18953323,-0.49030495,0.9550651,0.8168541,-0.07579558,0.087707385,0.56507677,-0.7370043,0.6737804,0.786729,1.0,0.0,0.0,0.0,0.0,0.0,0.0,-2.459639,0.21043739,-0.78102726,-1.0418892,-0.0051021576,-2.940607,21.143316,-0.56296587,-0.5152941,0.6014079
-4.368593,46.965435,11.262455,21.486328,1.0225505,0.17834257,-0.368711,-0.8207215,0.7810408,0.30220985,0.1639482,0.6362422,0.66164005,-0.32330394,1.2338712,-0.5975593,-1.7985265,-0.90095466,2.3102624,1.4212366,-1.0423318,1.3012701,-0.66169393,-1.8228614,-0.914394,2.2559996,1.3598982,-1.0124009,-1.4692025,1.3969887,0.5789745,0.32689652,0.9341475,0.4816993,-0.23965442,1.7732964,-0.60842705,1.3469319,-3.6334126,0.2009279,1.56551,0.18193436,-0.4835415,0.9630476,0.8196181,-0.084464066,0.087182626,0.55990267,-0.75821954,0.6847172,0.7962372,1.0,0.0,0.0,0.0,0.0,0.0,0.0,-2.4232965,0.20842704,-0.7969319,-0.7434845,-0.008749962,-3.8550735,12.541681,-0.78645945,-0.2984643,0.15375316
5.290307,41.66897,10.12896,11.288796,0.10563129,-0.40073457,-0.06776428,-0.8237622,0.7775313,0.27567783,0.10716629,0.64372164,0.66284055,-0.324702,1.2188939,-0.5839408,-1.7952937,-0.9036774,2.3203716,1.4261823,-1.0448711,1.2865454,-0.6477455,-1.817416,-0.91101706,2.265296,1.3647066,-1.014785,-1.4738345,1.3943479,0.53314143,0.34079707,0.92848486,0.48118725,-0.23830388,1.7369881,-0.6064205,1.3618388,-3.62978,0.20072702,1.4657589,0.17443085,-0.47667313,0.9708782,0.8223994,-0.09311118,0.086846255,0.55447936,-0.73964477,0.69497985,0.7727717,1.0,0.0,0.0,0.0,0.0,0.0,0.0,-2.3869882,0.20642051,-0.8118388,-0.5494356,-0.19869804,-4.546702,1.2330055,-0.39412975,0.10149479,0.04388094
12.608103,39.11476,9.870072,4.160677,-0.55803233,-0.8010528,0.16446257,-0.8243839,0.7756858,0.26458392,0.06358909,0.6342327,0.662213,-0.3193121,1.204107,-0.5701769,-1.7909576,-0.90465814,2.3287191,1.430928,-1.0467162,1.2717901,-0.6338295,-1.8123863,-0.90809405,2.2745237,1.3695189,-1.0171559,-1.4762304,1.3908615,0.49337918,0.27555174,0.92129666,0.48228246,-0.2368691,1.7007179,-0.604414,1.375749,-3.6261508,0.20052633,1.3661075,0.1673317,-0.46970367,0.9783219,0.8250393,-0.101448745,0.08679558,0.5490762,-0.69164723,0.7048895,0.7291033,1.0,0.0,0.0,0.0,0.0,0.0,0.0,-2.350718,0.20441398,-0.825749,-0.31030178,-0.2822876,-3.895092,-6.675458,-0.5982518,0.3835976,0.059971213
17.361147,36.655712,9.308181,-1.0942235,-1.0210992,-1.1543033,0.3333711,-0.8297605,0.7770438,0.2397726,-0.0131271975,0.6392985,0.66222763,-0.29200742,1.188814,-0.5561251,-1.788409,-0.9094068,2.3384535,1.4357417,-1.0463567,1.2570006,-0.6199373,-1.8077533,-0.90629447,2.2837095,1.3743483,-1.0194924,-1.4800124,1.3890253,0.45367,0.1477189,0.91763204,0.48446107,-0.23275454,1.6644859,-0.60241127,1.3886633,-3.6225255,0.20032585,1.2665557,0.16085815,-0.46266365,0.98521155,0.82743454,-0.10924746,0.08709631,0.5439037,-0.62211114,0.71080667,0.67007524,1.0,0.0,0.0,0.0,0.0,0.0,0.0,-2.314486,0.20241126,-0.8386633,-0.43177605,-0.11031628,-3.8765907,-12.923142,-0.27846098,0.5750656,0.34693778
15.614774,36.904514,9.3970785,1.0870686,-0.8032235,-1.1100705,0.30716306,-0.82660985,0.7744933,0.22439943,0.0039015994,0.62994605,0.67222446,-0.19474056,1.1743395,-0.542488,-1.7853134,-0.9059043,2.3467042,1.4415708,-1.0389664,1.2421976,-0.60606515,-1.8034828,-0.90557253,2.2928457,1.3792044,-1.0217144,-1.4806088,1.3868185,0.41843307,0.04651697,0.9124451,0.4871475,-0.21909344,1.6282883,-0.60040855,1.4005829,-3.6189036,0.20012556,1.1671034,0.15504074,-0.45557404,0.99157524,0.82958126,-0.11652464,0.0877383,0.53899795,-0.56030786,0.7142437,0.6196893,1.0,0.0,0.0,0.0,0.0,0.0,0.0,-2.2782884,0.20040855,-0.8505829,-0.098633766,-0.13818741,-3.4772754,-10.2507,-0.40177107,0.5802512,1.3071537
7.5032144,40.290737,10.188614,10.606617,0.048379183,-0.6431252,0.07223325,-0.82459587,0.7744632,0.21411829,0.11465863,0.6163198,0.67182976,-0.08444949,1.1597381,-0.5286188,-1.782071,-0.8941067,2.3544776,1.4463874,-1.0301594,1.2274061,-0.5922092,-1.7995098,-0.9050499,2.3019018,1.3840777,-1.0237248,-1.4790593,1.3854462,0.39016822,0.05367156,0.9037909,0.48801878,-0.19515446,1.5921249,-0.59840965,1.4115088,-3.6152854,0.19992548,1.0677506,0.14955902,-0.44841766,0.99766845,0.8315868,-0.12359611,0.088616244,0.5341672,-0.5349488,0.72083277,0.60052603,1.0,0.0,0.0,0.0,0.0,0.0,0.0,-2.242125,0.19840965,-0.8615088,0.084233284,-0.05259514,-2.8294027,0.5658097,-0.66815615,0.24376512,2.312407
-0.34517097,38.86815,9.097529,17.813046,0.74906427,-0.38631153,-0.16528687,-0.8264465,0.7695784,0.16383357,0.18541558,0.6119713,0.6718409,-0.0023159448,1.1447614,-0.5152514,-1.7831264,-0.88650835,2.3630989,1.4512618,-1.0239564,1.2126223,-0.57838476,-1.7959621,-0.9038435,2.3108664,1.3889529,-1.0254452,-1.4785926,1.3816717,0.3430227,0.14238334,0.89523834,0.48735324,-0.16482295,1.5559998,-0.59641075,1.4214419,-3.611671,0.1997256,0.968497,0.14410782,-0.44121742,1.003707,0.83359194,-0.13073246,0.08965413,0.529146,-0.53967714,0.7243338,0.59974325,1.0,0.0,0.0,0.0,0.0,0.0,0.0,-2.2059999,0.19641075,-0.8714419,-0.063323975,-0.2976656,-4.7317743,8.68317,-0.6134391,-0.026541948,2.9312582
-4.6123114,38.055695,8.612219,21.981133,1.1419532,-0.2130736,-0.28366655,-0.8296037,0.76428926,0.13982938,0.24657427,0.6008921,0.66354036,0.07206389,1.1296619,-0.5019558,-1.7819792,-0.8791861,2.3709555,1.4553069,-1.0182388,1.1978232,-0.5646194,-1.792918,-0.90141165,2.3197355,1.393809,-1.02683,-1.4807627,1.3750436,0.29140082,0.27614185,0.88468146,0.48485357,-0.13015734,1.5199089,-0.59441566,1.4303832,-3.60806,0.19952591,0.8693426,0.13848114,-0.4339714,1.0098186,0.8356764,-0.13809876,0.09080179,0.5237641,-0.5616923,0.72887284,0.6097489,1.0,0.0,0.0,0.0,0.0,0.0,0.0,-2.169909,0.19441566,-0.8803832,-0.35309792,-0.5944252,-5.1689982,13.172949,-0.79637766,-0.2857983,3.349176
-6.0089617,32.420113,6.316653,20.863192,1.0874598,-0.40910712,-0.32193524,-0.8375813,0.75722885,0.066958755,0.25973374,0.59122884,0.66676307,0.12222765,1.114065,-0.48889655,-1.7862221,-0.8754383,2.3788583,1.4604852,-1.0146072,1.182963,-0.55094564,-1.7906196,-0.89776003,2.3284864,1.3986422,-1.0278618,-1.4882077,1.3650284,0.20925975,0.39406767,0.8726501,0.4827323,-0.09443274,1.4838562,-0.5924206,1.4383336,-3.6044526,0.19932643,0.77028745,0.13263702,-0.42675018,1.0159568,0.83788526,-0.14563207,0.09211882,0.51793194,-0.5820466,0.725344,0.61009467,1.0,0.0,0.0,0.0,0.0,0.0,0.0,-2.1338563,0.19242057,-0.8883336,-0.88243484,-0.940609,-8.208143,11.577845,-0.9621382,-0.238657,3.4622238
-0.27426052,29.65616,6.127635,14.54004,0.5403214,-0.7256244,-0.08337108,-0.8374516,0.74160665,0.066312365,0.21445537,0.5659035,0.66250044,0.21756531,1.0992179,-0.47678497,-1.7839884,-0.8763145,2.3850768,1.4648923,-1.0061053,1.1680361,-0.5374292,-1.7890136,-0.8934628,2.337058,1.4034582,-1.0284989,-1.4946827,1.3473155,0.14465673,0.4410506,0.8526459,0.48150602,-0.053762224,1.4478378,-0.5904293,1.4452943,-3.600849,0.19912714,0.6713313,0.12677765,-0.41957855,1.0219609,0.8401191,-0.15312822,0.09367184,0.5118369,-0.5777531,0.7194909,0.5922405,1.0,0.0,0.0,0.0,0.0,0.0,0.0,-2.097838,0.1904293,-0.89529425,-0.74961185,-1.7104626,-6.423986,4.508972,-1.8120766,-0.043118,3.9647393
3.2148628,27.057016,5.5329895,10.211505,0.117815495,-0.99948746,0.051269367,-0.83553296,0.7315939,0.020927045,0.20841287,0.5257616,0.6663947,0.3202652,1.0844828,-0.46426982,-1.7869209,-0.8726215,2.3896341,1.4700977,-0.99647236,1.1530691,-0.52411306,-1.7880695,-0.8890425,2.3453321,1.4082724,-1.0286877,-1.4975079,1.3265969,0.077815674,0.44170234,0.81959957,0.48177648,-0.007659305,1.4118576,-0.58843994,1.451266,-3.5972488,0.19892804,0.57247406,0.121097565,-0.4125042,1.027688,0.84229314,-0.16040066,0.095557235,0.5056507,-0.5555867,0.70905983,0.56151307,1.0,0.0,0.0,0.0,0.0,0.0,0.0,-2.0618577,0.18843994,-0.90126604,-0.35305023,-2.0060778,-6.6462917,-0.11026263,-3.1470776,0.18509626,4.5179067
0.4334364,18.733332,2.1490693,9.570868,0.16068429,-1.2916639,-0.052139506,-0.8336905,0.7122041,-0.09873553,0.24186164,0.49789938,0.66028035,0.39521757,1.0697001,-0.45289266,-1.797943,-0.86485636,2.395122,1.4743004,-0.98916596,1.1381022,-0.51105344,-1.7881763,-0.88462985,2.3532324,1.4130865,-1.0284016,-1.4965236,1.2993551,-0.04025979,0.44046146,0.78052294,0.48188716,0.04056777,1.3759117,-0.5864525,1.4562501,-3.5936522,0.19872916,0.47371575,0.11562729,-0.40566063,1.0330439,0.8444721,-0.16729361,0.09788391,0.49929786,-0.5355131,0.6816727,0.5225379,1.0,0.0,0.0,0.0,0.0,0.0,0.0,-2.0259118,0.18645248,-0.90625006,0.06005764,-2.649331,-11.838659,-0.31951666,-3.7420392,0.18955469,4.747468
1.0979552,10.123727,-0.5588813,5.602728,-0.04089558,-1.683719,0.0022199228,-0.83079064,0.6771667,-0.16278048,0.18371697,0.4483054,0.65755045,0.46210453,1.0550231,-0.44333678,-1.8044543,-0.86625814,2.398063,1.4788415,-0.98219115,1.1231734,-0.49837705,-1.7895935,-0.8805338,2.3606558,1.4179045,-1.0276291,-1.4916854,1.257374,-0.1757922,0.3986493,0.7297528,0.48253497,0.0893778,1.3400002,-0.58446693,1.4602473,-3.5900593,0.19853047,0.37505618,0.110435486,-0.3992176,1.0378904,0.84669095,-0.17359845,0.100731604,0.49277896,-0.50565916,0.6370886,0.46803328,1.0,0.0,0.0,0.0,0.0,0.0,0.0,-1.9900001,0.18446693,-0.91024727,0.50952435,-4.1079044,-13.645436,-4.369074,-4.9319863,0.3204882,4.8232064
1.4682689,6.9630795,-1.3093498,4.102483,-0.016710997,-1.8394362,0.048251405,-0.832955,0.6532471,-0.21004312,0.14476034,0.45310974,0.65454185,0.47647303,1.0398779,-0.43305233,-1.8105978,-0.86605775,2.4059668,1.4833586,-0.97998184,1.1082846,-0.48616526,-1.7923114,-0.8770367,2.3676596,1.4227263,-1.0264065,-1.487919,1.209461,-0.30417866,0.33292258,0.6911297,0.48299947,0.13301444,1.3041267,-0.5824833,1.4632586,-3.5864701,0.19833197,0.27649528,0.10554886,-0.3932705,1.0421575,0.8489477,-0.17918779,0.104056984,0.48615995,-0.47453758,0.5846272,0.40959424,1.0,0.0,0.0,0.0,0.0,0.0,0.0,-1.9541267,0.18248329,-0.9132586,0.4303217,-4.6967983,-12.942457,-6.744033,-3.7434816,0.31206608,4.310997
4.6654224,5.7294803,-1.039351,0.5371442,-0.23850286,-2.0340204,0.19414482,-0.8273991,0.6238728,-0.24362083,0.05350225,0.4322546,0.66220516,0.48949713,1.0255446,-0.42377797,-1.8166735,-0.87168646,2.410885,1.4889468,-0.9774568,1.0934511,-0.47446892,-1.796128,-0.874539,2.3743124,1.4275595,-1.0247891,-1.4815524,1.1567097,-0.40779698,0.22161125,0.6571377,0.48455417,0.17123385,1.2682877,-0.58050156,1.4652851,-3.5828843,0.19813368,0.1780329,0.101062775,-0.38788605,1.0457797,0.8511918,-0.18394497,0.1077868,0.47960255,-0.4317127,0.52691305,0.3435911,1.0,0.0,0.0,0.0,0.0,0.0,0.0,-1.9182876,0.18050155,-0.91528505,0.7365227,-5.1694155,-10.478073,-11.265763,-3.3197641,0.45659542,3.7798643
7.1169662,8.555396,0.5474489,-0.398767,-0.37089968,-2.0160508,0.29798168,-0.8211775,0.5975993,-0.2525301,-0.0066078557,0.3781005,0.66337216,0.5036029,1.0113333,-0.41470897,-1.8213811,-0.8751998,2.4121225,1.4938967,-0.9744288,1.0786997,-0.4633014,-1.8006809,-0.8732773,2.3805532,1.432408,-1.0228264,-1.47255,1.1038173,-0.47136158,0.09403076,0.6130317,0.48608375,0.20452274,1.2324867,-0.5785217,1.4663277,-3.5793023,0.19793558,0.07966898,0.09706497,-0.38304138,1.0487549,0.85335714,-0.18785694,0.11186802,0.47326204,-0.38282385,0.47362712,0.27987713,1.0,0.0,0.0,0.0,0.0,0.0,0.0,-1.8824867,0.17852172,-0.91632766,1.0147095,-5.181217,-6.464505,-12.859456,-4.3523073,0.4426062,3.2861352
11.077862,8.258999,0.8656075,-5.438015,-0.76939094,-2.3003953,0.46714222,-0.8255955,0.5777863,-0.28795207,-0.17502505,0.3849434,0.66352576,0.49619803,0.9961402,-0.40552276,-1.8294761,-0.8907798,2.4190476,1.4987606,-0.97320664,1.0640055,-0.45261928,-1.8057468,-0.87381613,2.3864431,1.4372736,-1.0205758,-1.4677441,1.0567622,-0.51885784,-0.103385404,0.58104974,0.48775885,0.2317871,1.1967201,-0.5765438,1.4663873,-3.5757236,0.19773768,-0.018596625,0.093696594,-0.37878227,1.0509951,0.8553889,-0.19075602,0.11627261,0.46733564,-0.3157022,0.41249132,0.20345524,1.0,0.0,0.0,0.0,0.0,0.0,0.0,-1.8467201,0.1765438,-0.91638726,0.6447077,-4.5793295,-4.8827705,-19.799276,-3.1846642,0.48356056,2.712351
17.08379,10.60111,2.235136,-11.614906,-1.521457,-2.5733325,0.6800934,-0.82141477,0.56153136,-0.28111437,-0.36891714,0.2843551,0.6675496,0.4868041,0.98186404,-0.39646614,-1.8338583,-0.91070783,2.4148786,1.5040286,-0.97189534,1.0493628,-0.44234392,-1.8110664,-0.87690985,2.391799,1.4421583,-1.0180943,-1.4622977,1.018333,-0.5371626,-0.37798202,0.52014244,0.4899517,0.25357047,1.1609917,-0.5745678,1.4654651,-3.5721488,0.19753999,-0.11676398,0.091220856,-0.37514305,1.0523595,0.8572173,-0.19240618,0.12109861,0.46205342,-0.21930842,0.34819013,0.11240956,1.0,0.0,0.0,0.0,0.0,0.0,0.0,-1.8109916,0.17456779,-0.91546506,0.79791546,-3.6887884,-2.0488858,-27.444065,-6.100118,0.5648315,2.1997452
17.106209,13.406048,2.582675,-11.770522,-1.672885,-2.627392,0.6359411,-0.8274841,0.57007086,-0.33756685,-0.4976809,0.27467507,0.6691975,0.4484143,0.96661437,-0.38533685,-1.8448231,-0.92667794,2.4192665,1.5090781,-0.9732529,1.0347334,-0.43228552,-1.8167026,-0.8828789,2.3965864,1.4470621,-1.0154545,-1.4623022,1.0022572,-0.5731596,-0.6697512,0.46498716,0.4911841,0.26753744,1.1252975,-0.5725937,1.4635618,-3.5685773,0.19734249,-0.21483317,0.0897522,-0.3721466,1.0528076,0.8588698,-0.19268794,0.12643588,0.4574143,-0.11968119,0.28314906,0.02064738,1.0,0.0,0.0,0.0,0.0,0.0,0.0,-1.7752975,0.17259368,-0.91356176,0.28643608,-1.450491,-3.8545728,-29.134119,-5.545926,0.3761053,1.4326632
15.220812,17.58395,3.4573398,-8.185032,-1.8752995,-2.3845546,0.49787617,-0.82545364,0.5628958,-0.33933625,-0.5762264,0.014135783,0.6715394,0.4643008,0.9521881,-0.37599593,-1.8506362,-0.9405016,2.398,1.5142161,-0.9690244,1.0200983,-0.42231438,-1.8226402,-0.8914639,2.400157,1.4519736,-1.0126908,-1.4629229,0.9958936,-0.60166126,-0.9211542,0.32093444,0.49161866,0.27936426,1.0896378,-0.5706215,1.4606786,-3.5650096,0.19714518,-0.3128043,0.089279175,-0.36968613,1.0524075,0.8603986,-0.19169056,0.13257088,0.4532039,-0.02133649,0.23162378,-0.062133335,1.0,0.0,0.0,0.0,0.0,0.0,0.0,-1.7396377,0.17062148,-0.91067857,0.21560192,-0.4828334,-3.1328678,-25.09532,-14.400321,0.21545887,1.1775553
7.364752,15.6154995,1.3267678,-0.5920844,-1.5621616,-2.1046295,0.105546966,-0.8208128,0.5563254,-0.43298057,-0.5881248,-0.22873315,0.6746486,0.41456336,0.9380171,-0.36668184,-1.8659382,-0.9502764,2.3772836,1.5194384,-0.97123444,1.0054728,-0.4123828,-1.8292129,-0.90186656,2.4016752,1.4568831,-1.0098698,-1.4619392,0.99262315,-0.67638826,-1.0801023,0.0953483,0.49099693,0.28272605,1.0540161,-0.5686512,1.4568164,-3.5614452,0.19694808,-0.4106775,0.08961487,-0.36768532,1.051293,0.86195153,-0.18961526,0.13986857,0.44891244,0.053426415,0.18656556,-0.13032432,1.0,0.0,0.0,0.0,0.0,0.0,0.0,-1.7040161,0.1686512,-0.9068164,0.29239655,-0.2125144,-7.633686,-15.925336,-22.58703,-0.004017353,0.21097064
-2.7056065,5.523449,-3.1594267,6.683994,-0.8799149,-1.9316941,-0.26741797,-0.821597,0.51571286,-0.5095847,-0.5824086,-0.4861458,0.66108173,0.38289142,0.9233131,-0.36081153,-1.8801714,-0.96010745,2.3530607,1.5229913,-0.9715807,0.99084914,-0.40265486,-1.8368042,-0.9131495,2.4004164,1.4617735,-1.0070584,-1.4621438,0.9663464,-0.7865267,-1.1447014,-0.19988479,0.4880957,0.2795734,1.0184288,-0.5666828,1.4519763,-3.5578845,0.19675118,-0.50845283,0.0904541,-0.36617088,1.0495789,0.8636914,-0.18665282,0.1485629,0.4439899,0.09297707,0.13568355,-0.1879318,1.0,0.0,0.0,0.0,0.0,0.0,0.0,-1.6684288,0.16668281,-0.9019763,0.083351135,-2.58044,-10.9841585,-6.5687895,-29.633183,-0.31663775,-0.59862137
-7.8353596,1.1715348,-4.382987,12.299436,-0.019802615,-1.6624737,-0.3492132,-0.81816816,0.47540012,-0.5014416,-0.5773634,-0.61146724,0.6558763,0.4067725,0.90903234,-0.35511485,-1.8869483,-0.9708858,2.3392696,1.5273612,-0.96638113,0.9762331,-0.39337036,-1.8452861,-0.92457926,2.3962622,1.4666277,-1.0042698,-1.4614666,0.9158066,-0.868279,-1.1429358,-0.4876758,0.48447,0.2774176,0.9828758,-0.56471634,1.4461591,-3.5543272,0.19655447,-0.6061305,0.09145737,-0.36515045,1.0473965,0.86562335,-0.18303049,0.15850712,0.4382595,0.1015482,0.08641722,-0.23161031,1.0,0.0,0.0,0.0,0.0,0.0,0.0,-1.6328758,0.16471633,-0.8961591,0.078725815,-5.0515294,-8.04081,0.027179718,-28.886105,-0.4146099,-0.5593896
-10.345193,0.8070178,-3.9434178,16.945374,0.830988,-1.372457,-0.3179071,-0.81532395,0.4386313,-0.49392772,-0.54881877,-0.6815096,0.6607429,0.45308807,0.8947007,-0.34950724,-1.894679,-0.97946113,2.3281112,1.532702,-0.958961,0.9616314,-0.38471147,-1.8542793,-0.9356276,2.3896055,1.4714514,-1.001466,-1.4599885,0.84912926,-0.9090479,-1.0927529,-0.7253936,0.48158616,0.2802012,0.947361,-0.56275177,1.4393659,-3.5507736,0.19635795,-0.7037105,0.09236145,-0.3645687,1.0448946,0.8676589,-0.1789976,0.16932663,0.43180594,0.08460418,0.043312877,-0.25980017,1.0,0.0,0.0,0.0,0.0,0.0,0.0,-1.597361,0.16275176,-0.88936585,0.067949295,-6.6933513,-3.8799882,4.8463345,-23.852707,-0.3433764,-0.050973892
-14.321922,-9.17882,-6.7677274,18.37309,1.7446982,-1.424607,-0.28783917,-0.81348175,0.36091188,-0.51959974,-0.52665603,-0.7115729,0.66470474,0.4691823,0.88028324,-0.3486203,-1.9062393,-0.9882932,2.3184483,1.5379219,-0.9545478,0.94705355,-0.37696955,-1.8635681,-0.94603026,2.3810873,1.4762541,-0.9986193,-1.4572729,0.7490274,-0.93479776,-1.0232695,-0.8940722,0.47943392,0.28508547,0.9118805,-0.560791,1.4315976,-3.5472236,0.19616163,-0.8011929,0.09288406,-0.36453056,1.0421294,0.8697523,-0.17465508,0.18054004,0.42477262,0.039093938,-0.013926445,-0.2853619,1.0,0.0,0.0,0.0,0.0,0.0,0.0,-1.5618805,0.16079101,-0.8815976,0.22711754,-10.072887,-2.3897886,6.807852,-16.954708,-0.28851628,0.17290115
-14.638516,-7.0930066,-5.6511908,20.84173,2.3453474,-1.2376628,-0.22523896,-0.8140999,0.3202721,-0.5039989,-0.47891727,-0.7060875,0.668146,0.46262726,0.86564356,-0.34494233,-1.913968,-0.993922,2.3104784,1.5430686,-0.9523566,0.9324938,-0.3702552,-1.8729045,-0.9556147,2.3714285,1.4810396,-0.99572587,-1.4557883,0.6453317,-0.93287313,-0.937177,-0.9903187,0.477941,0.28987172,0.8764343,-0.55883026,1.4228553,-3.543677,0.19596551,-0.89857787,0.09284973,-0.36501503,1.0391964,0.8718549,-0.17013265,0.19171095,0.41733754,-0.021478213,-0.06407853,-0.2990277,1.0,0.0,0.0,0.0,0.0,0.0,0.0,-1.5264343,0.15883026,-0.87285525,0.069761276,-10.441422,0.3809452,8.481657,-9.697509,-0.23488998,0.23662448
-12.512407,-9.507183,-5.3552337,17.984632,2.4943318,-1.3433125,-0.024538007,-0.80812883,0.24586402,-0.46921408,-0.5001287,-0.70070124,0.6760891,0.47139683,0.85168093,-0.3456688,-1.9198259,-1.0056275,2.3013585,1.5486486,-0.94858617,0.91797507,-0.36468527,-1.8819892,-0.9646021,2.3612127,1.4858156,-0.99277997,-1.4504555,0.52735895,-0.90019107,-0.8862442,-1.0319173,0.47733992,0.2956649,0.8410263,-0.5568733,1.4131397,-3.5401342,0.19576958,-0.9958655,0.09220505,-0.3660488,1.036081,0.8739024,-0.16541992,0.2024801,0.40979585,-0.08206265,-0.11997171,-0.3184228,1.0,0.0,0.0,0.0,0.0,0.0,0.0,-1.4910263,0.15687332,-0.8631397,0.54962635,-11.855925,3.324318,5.035472,-4.1968822,-0.16611814,0.40698647
-10.012154,-10.824265,-4.7352896,14.677726,2.4769716,-1.4273767,0.17391261,-0.81276447,0.17221034,-0.41354558,-0.5258974,-0.6799852,0.68321735,0.4582272,0.83669865,-0.34746423,-1.9233438,-1.0171919,2.2932143,1.5541373,-0.94695723,0.9034878,-0.3603694,-1.8904788,-0.97341406,2.3508863,1.4905916,-0.9897864,-1.4478964,0.3994589,-0.83213454,-0.8794451,-1.0330651,0.4773791,0.30013224,0.8056526,-0.5549164,1.4024521,-3.5365946,0.19557385,-1.0930558,0.090991974,-0.36767197,1.0327103,0.87583697,-0.16044354,0.21255836,0.40247527,-0.13867247,-0.17930396,-0.34566244,1.0,0.0,0.0,0.0,0.0,0.0,0.0,-1.4556526,0.15491638,-0.8524521,0.34792423,-12.834949,6.7543983,0.68320036,-0.12805462,-0.1344502,0.3376007
-18.10788,-54.275948,-17.545406,3.9511702,3.1400416,-2.448586,0.3802823,-0.8088315,-0.09078533,-0.36726904,-0.60858303,-0.66268474,0.69507253,0.45774773,0.82260466,-0.36944795,-1.9272058,-1.0342723,2.284618,1.5600989,-0.9440116,0.889053,-0.358268,-1.898154,-0.9826914,2.3407164,1.4953715,-0.98675656,-1.440395,0.14667861,-0.7471548,-0.9431881,-1.011402,0.477189,0.30337083,0.77031326,-0.55296326,1.3907933,-3.533059,0.19537832,-1.190149,0.08893585,-0.37044334,1.0287213,0.87772983,-0.15482748,0.22139317,0.395732,-0.23274204,-0.31133538,-0.41856232,1.0,0.0,0.0,0.0,0.0,0.0,0.0,-1.4203132,0.15296325,-0.8407933,1.2336731,-25.379684,8.130169,-6.16827,2.1851301,-0.3137052,0.1708746
-19.043144,-79.86714,-22.30217,-3.8474135,3.6747131,-2.809549,0.79448485,-0.7958168,-0.34618938,-0.12168517,-0.6715795,-0.63227427,0.702107,0.44021356,0.8094713,-0.39288694,-1.9103225,-1.0498494,2.277489,1.5655822,-0.9427352,0.87475455,-0.359565,-1.9039962,-0.9929396,2.330882,1.5001456,-0.98370767,-1.4241803,-0.22232343,-0.5318729,-1.0508468,-0.97373635,0.4756951,0.30520144,0.73500824,-0.55101013,1.3781643,-3.5295265,0.19518298,-1.287145,0.08577347,-0.37477112,1.0238147,0.8795521,-0.14843088,0.22823684,0.39021045,-0.34872782,-0.4738126,-0.51640296,1.0,0.0,0.0,0.0,0.0,0.0,0.0,-1.3850082,0.15101013,-0.8281643,2.2718668,-37.051277,20.928001,-10.401106,3.8647413,-0.6485164,0.13403893
-24.11203,-102.96888,-29.524315,-9.406708,4.002656,-3.2740626,0.8950478,-0.7633724,-0.5789498,-0.10855129,-0.7400143,-0.5769435,0.6870535,0.48493695,0.7984173,-0.41745996,-1.9148513,-1.066941,2.2731876,1.5688509,-0.935214,0.8607584,-0.3650672,-1.9078357,-1.0044574,2.3215513,1.5048758,-0.9806111,-1.3890295,-0.66043323,-0.33630127,-1.1838502,-0.91969895,0.4690329,0.31112486,0.69973755,-0.5490608,1.3645661,-3.5259976,0.19498783,-1.3840442,0.081272125,-0.38098335,1.0177342,0.88136554,-0.14109088,0.23261887,0.38623366,-0.4894012,-0.66840625,-0.6404302,1.0,0.0,0.0,0.0,0.0,0.0,0.0,-1.3497375,0.14906082,-0.8145661,4.213023,-44.077175,19.02191,-12.823534,5.3726554,-1.530832,0.5628288
-12.80352,-72.88802,-18.052105,-6.706646,3.335651,-2.432243,1.0549704,-0.70366985,-0.6791011,0.053443898,-0.76738,-0.54640305,0.6528353,0.4765787,0.79039145,-0.43297732,-1.9024913,-1.0811954,2.266911,1.5701593,-0.93295324,0.84734404,-0.3745272,-1.909436,-1.0171832,2.3127813,1.5095145,-0.9774544,-1.3241845,-1.0419614,-0.1026142,-1.3006823,-0.86270607,0.45918113,0.31774217,0.664505,-0.5471115,1.3499995,-3.5224724,0.19479288,-1.4808464,0.075653076,-0.3887329,1.0105587,0.88306963,-0.13305518,0.23454268,0.38402343,-0.59095097,-0.80528986,-0.74559695,1.0,0.0,0.0,0.0,0.0,0.0,0.0,-1.314505,0.1471115,-0.79999954,6.8957806,-38.39729,22.942238,-11.279035,5.6925774,-1.840204,0.8197069
1.5642502,-21.752893,-0.41200346,1.9478929,2.434291,-1.0486424,1.0456613,-0.6665832,-0.7187504,0.21162032,-0.7594675,-0.5294938,0.6466938,0.4740713,0.7806857,-0.44640222,-1.888274,-1.0931299,2.259832,1.5741838,-0.9300473,0.8346621,-0.38687775,-1.9084861,-1.0307139,2.304534,1.5140749,-0.97423005,-1.2489052,-1.2998761,0.15901048,-1.3697699,-0.81167567,0.45352548,0.3251426,0.6293068,-0.545166,1.3344657,-3.5189505,0.19459814,-1.577552,0.06946182,-0.3971939,1.0026698,0.8844688,-0.12491204,0.23442358,0.38361108,-0.6341889,-0.8519183,-0.8064278,1.0,0.0,0.0,0.0,0.0,0.0,0.0,-1.2793068,0.14516601,-0.78446573,7.721305,-25.916386,25.659761,-6.6700935,5.2442193,-1.0049939,1.0781169
9.987072,20.0682,12.612159,11.084516,1.8059146,0.025924563,0.8256135,-0.6455051,-0.7477327,0.29889318,-0.7490065,-0.49094397,0.6408296,0.41199648,0.77011156,-0.46165103,-1.8785968,-1.1056145,2.2554395,1.5781579,-0.9330304,0.82267916,-0.4008982,-1.9051101,-1.0445746,2.2967978,1.5186087,-0.9709809,-1.180798,-1.436104,0.39475593,-1.3910486,-0.7596874,0.45342794,0.32629925,0.5941429,-0.5432205,1.3179656,-3.5154324,0.19440357,-1.6741607,0.06313324,-0.40562248,0.9944911,0.8854658,-0.117179364,0.23282377,0.3847237,-0.6362063,-0.83004683,-0.8249791,1.0,0.0,0.0,0.0,0.0,0.0,0.0,-1.2441429,0.14322051,-0.7679656,7.00469,-13.62133,22.872353,-1.9915581,5.4728746,0.03578067,0.5445838
12.860043,47.98643,20.266811,18.72973,1.4784726,0.69897515,0.53277284,-0.63409835,-0.7564362,0.36227605,-0.7342477,-0.4418795,0.648158,0.35110304,0.75926936,-0.47654182,-1.8688825,-1.1179994,2.2526097,1.5834244,-0.9358706,0.81124365,-0.41555807,-1.89976,-1.0583686,2.2896261,1.523173,-0.96777177,-1.1300969,-1.4755932,0.57881916,-1.3751085,-0.70193297,0.4589921,0.32062528,0.5590172,-0.54127884,1.3005002,-3.5119176,0.19420922,-1.7706729,0.05693817,-0.41352654,0.9863701,0.8860724,-0.11017772,0.23025829,0.38693374,-0.61682796,-0.76632077,-0.8107481,1.0,0.0,0.0,0.0,0.0,0.0,0.0,-1.2090172,0.14127883,-0.75050014,5.3738356,-3.8479328,17.504103,1.7120123,6.133628,0.98618865,-0.109535456
6.9357758,51.12465,17.9258,22.468449,1.4618247,0.6292993,0.13528793,-0.6213491,-0.7695675,0.3039886,-0.7249813,-0.40646598,0.64305764,0.2791263,0.74910873,-0.49251482,-1.8693612,-1.1308666,2.2489796,1.5874788,-0.93985915,0.80019534,-0.4302356,-1.8934772,-1.0718707,2.2830229,1.5277964,-0.9646809,-1.0952414,-1.4647392,0.64213365,-1.3411359,-0.645211,0.4649942,0.30657324,0.52392197,-0.53933716,1.2820703,-3.5084064,0.19401504,-1.8670887,0.050865173,-0.42082214,0.9784298,0.8864448,-0.103859276,0.22716136,0.38964912,-0.6058025,-0.7062849,-0.79058224,1.0,0.0,0.0,0.0,0.0,0.0,0.0,-1.173922,0.13933715,-0.73207027,3.854823,1.1958599,5.491388,3.5842419,5.946493,1.0895371,-1.0253847
-5.9761944,33.825516,6.8277597,22.240784,1.5669314,-0.06915349,-0.31590122,-0.605137,-0.77990335,0.100898124,-0.72629315,-0.40109465,0.64535797,0.26785427,0.73968166,-0.5082259,-1.8833874,-1.1445,2.2429135,1.5923321,-0.9378955,0.7894255,-0.44468853,-1.8880146,-1.0850505,2.2768736,1.5324656,-0.96174264,-1.06978,-1.438731,0.5128737,-1.3092006,-0.60467106,0.4683567,0.2902397,0.4888649,-0.5373993,1.262677,-3.5048988,0.19382107,-1.9634079,0.04467392,-0.42782402,0.9705121,0.8868658,-0.097751446,0.22392724,0.39213535,-0.62501025,-0.68706733,-0.79381424,1.0,0.0,0.0,0.0,0.0,0.0,0.0,-1.1388649,0.13739929,-0.71267694,2.879262,2.6342392,-13.420367,3.4926176,4.078579,0.58324337,-1.4240146
-21.332588,8.200494,-8.212479,19.347162,1.542017,-1.040834,-0.73364395,-0.5943314,-0.7743354,-0.2127649,-0.74340266,-0.4544177,0.64314723,0.34641844,0.72999233,-0.5221221,-1.909291,-1.1593907,2.2314317,1.5967803,-0.9271008,0.7788569,-0.45885727,-1.8855369,-1.0980586,2.270831,1.5371405,-0.9589083,-1.0515174,-1.4099153,0.15920374,-1.2967949,-0.6047004,0.4666812,0.28122866,0.45384216,-0.5354614,1.2423211,-3.5013945,0.19362728,-2.0596306,0.038028717,-0.43504143,0.96223897,0.8876518,-0.091075085,0.22100429,0.39361992,-0.67943376,-0.7231096,-0.8402283,1.0,0.0,0.0,0.0,0.0,0.0,0.0,-1.1038421,0.13546142,-0.6923211,2.1201372,2.7862787,-35.435856,1.6777515,-0.310719,-0.31924248,-0.9144068
-22.872316,-3.8396235,-13.652356,13.935232,1.1104423,-1.5848968,-0.6980473,-0.5246911,-0.78523046,-0.39962456,-0.75912756,-0.5245406,0.63504434,0.44046834,0.72638774,-0.53738034,-1.9254993,-1.1739713,2.218377,1.600645,-0.9148615,0.7687212,-0.47285196,-1.887244,-1.111101,2.2644796,1.5417734,-0.9560826,-1.0002196,-1.3965722,-0.28004548,-1.3051564,-0.64700633,0.46086222,0.2825058,0.41885376,-0.5335274,1.2210038,-3.4978938,0.1934337,-2.1557572,0.030830383,-0.44282913,0.9532649,0.88889194,-0.083272025,0.2186424,0.39386848,-0.7341337,-0.78656,-0.9191279,1.0,0.0,0.0,0.0,0.0,0.0,0.0,-1.0688537,0.13352737,-0.67100376,5.3502083,1.1599064,-43.747868,-0.36416054,-4.693091,-1.0050654,-0.01873374
-19.321041,-1.0145454,-11.148037,12.091444,0.9159733,-1.3816105,-0.48361477,-0.5172631,-0.79057115,-0.46010157,-0.7663632,-0.5636105,0.6313941,0.4873743,0.7169949,-0.5519091,-1.9332541,-1.1877373,2.2081187,1.6049129,-0.9073452,0.75908244,-0.48681375,-1.8928478,-1.1243056,2.2575636,1.5463454,-0.9531977,-0.95086366,-1.3966757,-0.6533992,-1.324078,-0.70763767,0.4543016,0.28999722,0.3839035,-0.5315933,1.1987259,-3.4943967,0.1932403,-2.2517877,0.023155212,-0.45117188,0.9434746,0.8904789,-0.07426154,0.21682371,0.39309022,-0.7799259,-0.8397983,-1.0029397,1.0,0.0,0.0,0.0,0.0,0.0,0.0,-1.0339035,0.13159332,-0.6487259,5.202818,-0.19965172,-37.24132,-1.4226437,-6.500435,-1.1123598,0.60254335
-16.04597,10.339918,-4.7655077,14.188801,1.0900494,-0.6648069,-0.2631394,-0.564853,-0.79099154,-0.44794056,-0.77247584,-0.5679083,0.62556535,0.48943564,0.70259714,-0.5659129,-1.9376419,-1.2015532,2.2007728,1.6089019,-0.90425414,0.7496048,-0.50082326,-1.9010379,-1.13772,2.2500982,1.5508562,-0.95023084,-0.94541633,-1.402985,-0.8748957,-1.3458388,-0.7604148,0.44901454,0.2987516,0.34898376,-0.5296631,1.1754885,-3.490903,0.1930471,-2.347722,0.015068054,-0.4597988,0.9329845,0.8922462,-0.06432937,0.2153347,0.39164945,-0.82014257,-0.8596843,-1.0695903,1.0,0.0,0.0,0.0,0.0,0.0,0.0,-0.99898374,0.12966308,-0.62548846,0.91159344,-0.8042574,-22.280455,-1.7282248,-5.62644,-0.86141825,0.81798434
-12.878745,24.513088,2.7936122,17.773926,1.4485438,0.15379381,-0.0773808,-0.610199,-0.7893011,-0.41414294,-0.77247864,-0.5269051,0.613897,0.4877918,0.6885849,-0.5797534,-1.9424522,-1.2149678,2.1974077,1.6122459,-0.90145165,0.7398411,-0.5148957,-1.9102733,-1.1513137,2.2423544,1.5553213,-0.9471772,-0.9852469,-1.4090647,-0.9407479,-1.3624717,-0.77996963,0.4452699,0.30781448,0.31410217,-0.52773285,1.1512924,-3.4874127,0.19285409,-2.4435606,0.0066184998,-0.4683571,0.92204046,0.8940459,-0.053929437,0.21386334,0.38991785,-0.85616577,-0.8424395,-1.1085607,1.0,0.0,0.0,0.0,0.0,0.0,0.0,-0.96410215,0.12773284,-0.60129243,-3.570366,-0.7481575,-6.9048285,-1.269722,-2.2052407,-0.5241513,0.9765148
-13.736916,33.39887,6.767484,21.430172,1.8874851,0.7335618,-0.04859595,-0.6666739,-0.7840188,-0.41605812,-0.77289045,-0.4794163,0.61586326,0.46622267,0.6731737,-0.59329754,-1.9518791,-1.2286026,2.1944127,1.6169077,-0.9005549,0.7293755,-0.528991,-1.919503,-1.1650199,2.2346754,1.5597636,-0.94405293,-1.0654978,-1.4100474,-0.91843325,-1.3721768,-0.7647332,0.44377068,0.31446743,0.2792549,-0.5258064,1.1261387,-3.483926,0.19266129,-2.5393033,-0.002243042,-0.4765644,0.91087157,0.89582324,-0.043430652,0.21215269,0.38807955,-0.897414,-0.8012889,-1.1258565,1.0,0.0,0.0,0.0,0.0,0.0,0.0,-0.9292549,0.12580642,-0.5761387,-7.560444,-0.22573471,1.7952323,-0.5927801,1.3149858,-0.18141866,0.8242786
-14.522561,37.457424,8.243375,23.171608,2.0976005,0.9582803,-0.077272505,-0.69035435,-0.7800562,-0.45251212,-0.7640829,-0.4541788,0.6190714,0.46903145,0.6603401,-0.6069966,-1.9647542,-1.2414281,2.1892576,1.6216707,-0.8971498,0.7180706,-0.54306054,-1.9284065,-1.1787356,2.2272825,1.5642,-0.94086766,-1.1506877,-1.4062687,-0.88235205,-1.3702222,-0.7314045,0.44367862,0.32050812,0.24444199,-0.52388,1.1000283,-3.4804428,0.19246866,-2.6349502,-0.011528015,-0.48430443,0.89960563,0.8975831,-0.03301394,0.2100845,0.3861594,-0.9415713,-0.751906,-1.1326807,1.0,0.0,0.0,0.0,0.0,0.0,0.0,-0.89444196,0.12388,-0.55002826,-8.069539,0.25868416,3.168726,0.56114197,3.1449437,0.003349781,0.79438686
-17.383768,32.658348,5.0301247,22.14176,2.0426204,0.7412412,-0.19238922,-0.7035108,-0.78327864,-0.5560698,-0.7668814,-0.48010066,0.61489755,0.41919637,0.64771956,-0.62138844,-1.9840134,-1.2554238,2.1792724,1.6256897,-0.898948,0.70603526,-0.55710244,-1.9374301,-1.1924132,2.2201262,1.5686308,-0.93766904,-1.2197498,-1.4039419,-0.9103118,-1.3656383,-0.7107324,0.4425403,0.3201204,0.20966339,-0.5219574,1.072962,-3.476963,0.19227624,-2.7305017,-0.021297455,-0.49163628,0.8881855,0.89937985,-0.022576675,0.20771372,0.3840067,-0.9916914,-0.7138476,-1.1506709,1.0,0.0,0.0,0.0,0.0,0.0,0.0,-0.85966337,0.12195739,-0.52296203,-6.4783096,0.08957386,-3.1469226,0.8680582,1.833427,-0.19634366,0.10450482
-19.65651,27.332512,1.8137722,20.40132,1.9264013,0.5202241,-0.26499596,-0.72387034,-0.7896089,-0.6307801,-0.7714876,-0.49970853,0.614304,0.38263762,0.6336482,-0.63606334,-2.000508,-1.269562,2.1701553,1.6300613,-0.8994053,0.69343245,-0.57115865,-1.9471672,-1.2060622,2.2130575,1.5730444,-0.93451047,-1.2723572,-1.4067533,-0.99555206,-1.3631082,-0.7063982,0.4403386,0.31478685,0.17491913,-0.5200348,1.0449411,-3.473487,0.192084,-2.8259573,-0.03160858,-0.4986744,0.8764734,0.90125954,-0.011916909,0.20512433,0.38146192,-1.0465782,-0.68645614,-1.1833684,1.0,0.0,0.0,0.0,0.0,0.0,0.0,-0.8249191,0.120034784,-0.49494106,-4.8520565,-0.45223236,-8.792484,0.71184635,0.1518488,-0.4117906,-0.43620467
-18.603476,30.07935,3.0055974,20.177912,1.8174356,0.63325936,-0.2598893,-0.7488968,-0.78494287,-0.63836086,-0.75898844,-0.50760543,0.62169933,0.34992856,0.6185428,-0.64965296,-2.0110033,-1.2819611,2.162297,1.6352143,-0.8995176,0.68037665,-0.5852282,-1.9577568,-1.2196387,2.2059584,1.5774428,-0.93143106,-1.3154821,-1.4076039,-1.0808902,-1.3542687,-0.71174955,0.4389859,0.30592853,0.14021301,-0.518116,1.0159662,-3.470014,0.19189195,-2.9213176,-0.042438507,-0.50540733,0.8644432,0.90321094,-0.0010064653,0.20236742,0.37849206,-1.0964601,-0.65414256,-1.2149254,1.0,0.0,0.0,0.0,0.0,0.0,0.0,-0.790213,0.11811599,-0.46596617,-3.947997,-0.25463104,-8.759642,1.326108,-0.8071542,-0.32522678,-0.79868436
-15.774866,33.15427,4.8353233,19.104969,1.6030791,0.7138904,-0.21958727,-0.75532854,-0.78462917,-0.6723827,-0.75483376,-0.5253734,0.6182909,0.28550026,0.6048438,-0.6636911,-2.024995,-1.295122,2.153421,1.6392719,-0.902881,0.6670052,-0.5993006,-1.9691703,-1.233116,2.1987371,1.5818259,-0.92848516,-1.3433818,-1.407649,-1.1620947,-1.3441768,-0.7264263,0.43763277,0.291146,0.105537415,-0.5161972,0.9860385,-3.4665449,0.1917001,-3.0165825,-0.053691864,-0.51179886,0.85209996,0.9051967,0.010128651,0.19947451,0.37513497,-1.1361986,-0.61806864,-1.2461879,1.0,0.0,0.0,0.0,0.0,0.0,0.0,-0.7555374,0.1161972,-0.4360385,-2.4867296,-0.16300678,-8.304095,1.4171362,-1.7159462,-0.31638741,-1.3985395
-13.255077,35.69175,6.6072626,17.994827,1.4613123,0.8110821,-0.16146728,-0.767992,-0.7889966,-0.69479144,-0.75688,-0.5273691,0.6029254,0.2202282,0.59020597,-0.6782003,-2.0386496,-1.308804,2.1460001,1.6421185,-0.9064623,0.65341246,-0.6133902,-1.9812763,-1.2465228,2.191371,1.586188,-0.9257271,-1.3637865,-1.4098513,-1.2272863,-1.3381693,-0.7408122,0.43506673,0.27107766,0.07089996,-0.5142822,0.9551588,-3.463079,0.19150844,-3.1117523,-0.065273285,-0.5178032,0.83945,0.9071772,0.0214487,0.19642504,0.37146533,-1.1676372,-0.5781383,-1.2766583,1.0,0.0,0.0,0.0,0.0,0.0,0.0,-0.72089994,0.11428222,-0.40515882,-1.7814875,-0.3679514,-6.6857576,0.98195076,-1.6636014,-0.4276216,-1.9165218
-9.684212,41.750835,10.25531,17.973158,1.3796606,1.0577322,-0.09805724,-0.77942115,-0.78534836,-0.6811418,-0.74685556,-0.5170093,0.60419303,0.14435047,0.5754703,-0.69192505,-2.0493906,-1.3212084,2.1396701,1.6466073,-0.9112921,0.6396414,-0.6274817,-1.9937541,-1.2598494,2.1839209,1.5905291,-0.9232104,-1.380843,-1.4094164,-1.2550375,-1.3299849,-0.747171,0.4334956,0.2455801,0.03629303,-0.51236725,0.9233282,-3.4596167,0.19131698,-3.206827,-0.07709122,-0.5233402,0.8265734,0.9091135,0.032818858,0.19317019,0.36758754,-1.1876223,-0.5289528,-1.29689,1.0,0.0,0.0,0.0,0.0,0.0,0.0,-0.686293,0.11236724,-0.3733282,-1.5021563,-0.078463554,-2.9351711,1.1380672,-0.81436634,-0.26354194,-2.4325907
-8.410027,44.712177,11.88479,18.160807,1.3501948,1.1946156,-0.10291718,-0.7873499,-0.7861206,-0.69727826,-0.73176444,-0.5296101,0.6079658,0.049477965,0.5609064,-0.7060938,-2.063482,-1.3330259,2.1309597,1.6513257,-0.9182626,0.62571967,-0.6415684,-2.0064037,-1.2730445,2.1763983,1.5948626,-0.92099977,-1.3954328,-1.4087535,-1.2684858,-1.3151149,-0.7542833,0.43288535,0.21330987,0.0017242432,-0.5104561,0.8905475,-3.4561577,0.19112569,-3.3018064,-0.089076996,-0.5283642,0.8135368,0.9109918,0.04412979,0.18970221,0.36353743,-1.202361,-0.4758734,-1.3110555,1.0,0.0,0.0,0.0,0.0,0.0,0.0,-0.6517242,0.11045608,-0.3405475,-1.2874365,-0.044631958,-1.4894485,1.7790794,-0.8663058,-0.13883114,-3.102839
-9.066895,43.92366,11.260829,17.879276,1.319213,1.1790402,-0.1568144,-0.79087037,-0.79190344,-0.73668873,-0.71779096,-0.5588049,0.59942037,-0.07520752,0.54663265,-0.7207588,-2.0800726,-1.3448236,2.1205177,1.6548046,-0.9285205,0.6116816,-0.6556752,-2.0192707,-1.2860469,2.1687384,1.5991827,-0.91918015,-1.4060817,-1.4116915,-1.2933204,-1.2941903,-0.7707415,0.43151534,0.17184217,-0.032814026,-0.5085449,0.8568178,-3.4527023,0.19093461,-3.396691,-0.10121155,-0.53287125,0.80034375,0.91282535,0.055377055,0.18605503,0.3592584,-1.2174598,-0.42481953,-1.3270979,1.0,0.0,0.0,0.0,0.0,0.0,0.0,-0.61718595,0.108544916,-0.30681777,-0.9032011,-0.41012764,-2.6052952,2.3970842,-1.8020749,-0.23480058,-4.0348234
-10.449893,45.586197,11.458902,18.817379,1.4061879,1.2928959,-0.22870539,-0.80738145,-0.788187,-0.7438979,-0.69405264,-0.5667224,0.59588754,-0.20409882,0.53094345,-0.73449385,-2.0936604,-1.3554522,2.112066,1.6587715,-0.93959004,0.59749854,-0.6697953,-2.0323741,-1.2987632,2.160903,1.6034876,-0.91784024,-1.4218421,-1.4125386,-1.3164113,-1.2630223,-0.7883853,0.42992127,0.121747494,-0.06731415,-0.5066376,0.82213986,-3.4492502,0.19074371,-3.4914808,-0.11351395,-0.53684616,0.7870258,0.91464,0.0665351,0.18226805,0.35466182,-1.2344251,-0.37097245,-1.33816,1.0,0.0,0.0,0.0,0.0,0.0,0.0,-0.5826858,0.10663757,-0.27213985,-1.420784,-0.2076149,-2.406931,3.4228802,-1.9250274,-0.25513768,-4.9021096
-11.221052,47.231976,11.909061,19.865004,1.5843471,1.383885,-0.27746361,-0.8120536,-0.7890624,-0.7541316,-0.65797883,-0.5380238,0.58339703,-0.2861643,0.51629317,-0.7487015,-2.1077874,-1.3645611,2.1071005,1.6618273,-0.9464567,0.5832241,-0.6838998,-2.0461483,-1.3111897,2.153053,1.6087561,-0.9168496,-1.4156559,-1.4055164,-1.4944974,-1.2670096,-0.8045677,0.7542557,0.1105834,-0.09556961,-0.50536346,0.7979521,-1.4562532,0.05729723,0.51161766,-0.12608719,-0.5401783,0.77351373,0.9164265,0.07728653,0.17843756,0.34978473,-1.2726719,-0.28563002,-1.3921547,0.0,1.0,0.0,0.0,0.0,0.0,0.0,-0.55443037,0.10536346,-0.2479521,2.8535366,1.3508558,-33.527374,-5.1884174,-3.1649113,65.03672,3.154066
69.82223,176.0,110.0,110.0,3.5645158,12.329409,-1.6500276,-0.7859655,0.42930263,0.7203338,0.7221996,-0.3812857,0.638724,-0.4128858,0.5046276,-0.6409696,-1.9741149,-1.2389697,2.1149244,1.6726285,-0.95813817,0.5731314,-0.70009893,-2.0548306,-1.3109474,2.138027,1.6249132,-0.9164901,-0.8746194,-1.6762148,-0.67667156,0.44580057,-1.714795,1.9222091,0.01862909,-0.11012268,-0.50479126,0.802328,-1.4547973,0.057239942,0.4129202,-0.13756943,-0.54084396,0.7640706,0.91780686,0.07769144,0.17993027,0.34528208,-1.1032258,0.023962593,-0.79794985,0.0,1.0,0.0,0.0,0.0,0.0,0.0,-0.5398773,0.104791254,-0.25232798,53.84835,-22.515965,76.55894,168.62555,-84.90124,122.60537,-6.9220066
0.34848094,176.0,73.67392,97.01807,6.700286,6.0316,-1.7813599,-0.7952908,-0.6118485,0.18263032,0.7705873,-0.60299844,0.6594101,-0.2515449,0.4936023,-0.76128376,-2.0365674,-1.2338886,2.077727,1.6908542,-0.94164455,0.56441957,-0.7160577,-2.0570736,-1.2995987,2.1206472,1.6441793,-0.9165654,-0.8686778,-1.5697211,-0.07213855,1.3654033,-1.749003,1.9355738,-0.013679309,-0.12466049,-0.50421906,0.80571765,-1.4533428,0.057182714,0.31432143,-0.14858246,-0.5394821,0.7596262,0.9194875,0.07093348,0.18441132,0.33985823,-1.097028,0.18336047,-0.33188394,1.0,0.0,0.0,0.0,0.0,0.0,0.0,-0.5253395,0.10421905,-0.25571764,1.020515,10.441947,60.83203,92.17237,-4.3882847,3.604722,-2.466153
-20.37745,140.81801,46.39035,69.069885,5.34749,3.4133508,-1.2325966,-0.76557964,-0.58010924,0.034000948,0.68156624,-0.66306096,0.6252183,0.2630907,0.4878616,-0.77406865,-2.0536735,-1.2314421,2.054341,1.7067012,-0.89025635,0.5548313,-0.73023504,-2.055376,-1.282793,2.1042936,1.6623755,-0.9165158,-0.9863601,-1.3679826,0.2489943,1.7873459,-1.5997134,1.7856836,0.012617047,-0.13918304,-0.50364685,0.80812204,-1.4518898,0.057125546,0.21582124,-0.15977097,-0.5368347,0.7584796,0.9215545,0.061406955,0.18976802,0.33309847,-1.1247071,0.29768062,-0.0499295,1.0,0.0,0.0,0.0,0.0,0.0,0.0,-0.51081693,0.103646845,-0.25812203,-11.0122795,19.903898,31.714445,42.646812,14.283657,-13.581061,3.0583625
-11.21929,112.87762,37.469204,41.66582,3.474784,2.0650117,-0.32855737,-0.7326721,-0.62738734,0.37481904,0.7387204,-0.6441012,0.58709484,0.24900518,0.4815641,-0.79297376,-2.0178943,-1.208921,2.0398834,1.721085,-0.89161533,0.543845,-0.7426776,-2.050562,-1.2644253,2.0899847,1.6786909,-0.91617346,-1.1345804,-1.2037573,0.5580466,1.8540664,-1.3766572,1.5830604,0.04233646,-0.15369034,-0.50307465,0.8095342,-1.4504381,0.05706843,0.11635429,-0.17098236,-0.5332546,0.7592281,0.92376304,0.050934285,0.1948746,0.3257167,-1.1189389,0.38440174,0.10837307,1.0,0.0,0.0,0.0,0.0,0.0,0.0,-0.49630964,0.10307464,-0.25953418,-14.343405,16.19656,30.536484,6.9050074,21.687103,-19.38889,3.2578204
-1.9970088,77.6087,25.62209,19.035471,1.6887712,0.7418424,0.27263775,-0.7149207,-0.64475733,0.4375005,0.7140715,-0.63774973,0.574331,0.22658709,0.47235292,-0.80715334,-2.0068119,-1.1930181,2.0262096,1.736124,-0.89351475,0.5316723,-0.75402254,-2.0433865,-1.2469482,2.0777204,1.6930666,-0.9155717,-1.2442784,-1.1118681,0.7700748,1.712419,-1.1781979,1.3907712,0.066553034,-0.16818237,-0.50250435,0.80995244,-1.448988,0.057011373,0.016986798,-0.18196869,-0.5291271,0.7606885,0.92591476,0.040574893,0.19910312,0.3184231,-1.093249,0.4295845,0.15131095,1.0,0.0,0.0,0.0,0.0,0.0,0.0,-0.4818176,0.10250434,-0.25995243,-10.816383,9.049559,21.008348,-14.128542,19.38963,-18.692589,2.5511594
2.9512272,52.93041,16.645857,8.150208,0.71135426,-0.19656658,0.45036262,-0.6973057,-0.64167464,0.4336723,0.725739,-0.65160364,0.5449687,0.18790855,0.46194172,-0.81819,-2.0000193,-1.1743743,2.0125601,1.7475635,-0.89678085,0.5188444,-0.7648868,-2.0349178,-1.231245,2.0669744,1.7056856,-0.9147916,-1.295663,-1.0782118,0.8717924,1.5228093,-1.041147,1.2202512,0.08192738,-0.18265915,-0.50193596,0.80937773,-1.4475392,0.056954376,-0.08228134,-0.19268036,-0.5248184,0.7620797,0.9279363,0.030951347,0.20235181,0.31149635,-1.0644584,0.43916753,0.12884775,1.0,0.0,0.0,0.0,0.0,0.0,0.0,-0.46734083,0.10193595,-0.25937772,-5.148506,3.2816887,10.095549,-18.983723,13.391209,-16.681194,1.5824705
1.1559181,33.536846,8.134356,4.4232883,0.43571267,-0.828918,0.39664796,-0.6945164,-0.65644926,0.39739808,0.7143988,-0.64711845,0.5310443,0.19991201,0.4493928,-0.8305317,-1.995178,-1.1598052,2.0022626,1.75879,-0.89480036,0.5058258,-0.7757692,-2.0262241,-1.2172565,2.0571897,1.7167864,-0.91387796,-1.3041319,-1.091795,0.8683113,1.357613,-0.9580905,1.0743507,0.09464195,-0.19712067,-0.50136757,0.8078111,-1.4460919,0.05689743,-0.18145022,-0.20323181,-0.5206032,0.762948,0.92985207,0.022403823,0.20473102,0.30489066,-1.0521828,0.42288074,0.06780585,0.0,1.0,0.0,0.0,0.0,0.0,0.0,-0.4528793,0.10136756,-0.25781107,-0.8924484,-1.4009237,-0.41146278,-16.510963,8.141589,-14.33816,1.2993886
-2.3628292,26.821194,4.0928545,6.3635626,0.5174501,-1.0513108,0.19842821,-0.68511397,-0.6554488,0.35111672,0.7206433,-0.6633692,0.54236114,0.17336714,0.43731442,-0.8413141,-1.9911125,-1.1451923,1.9908528,1.7710226,-0.89654124,0.4929393,-0.7869081,-2.0181217,-1.2044201,2.0478742,1.7266207,-0.91287565,-1.2835281,-1.1213999,0.79044706,1.2591933,-0.9230892,0.9537107,0.10216916,-0.21157074,-0.5007992,0.8052535,-1.444646,0.056840546,-0.28051996,-0.213768,-0.51662636,0.76314944,0.9317194,0.015025962,0.20650849,0.2983746,-1.0548776,0.39700887,9.3730334e-05,0.0,1.0,0.0,0.0,0.0,0.0,0.0,-0.43842924,0.10079917,-0.2552535,2.04103,-2.985382,-7.869029,-9.755397,3.4341455,-11.863565,0.78231096
-3.3095229,20.89716,1.6481154,6.9439898,0.5984898,-1.1856477,0.1009382,-0.6592391,-0.6911281,0.30748966,0.69850093,-0.65242773,0.5570764,0.15624878,0.42701536,-0.8560209,-1.9873728,-1.13457,1.9826314,1.7823284,-0.8972508,0.4804309,-0.7985057,-2.0110607,-1.1922207,2.0387418,1.7354155,-0.9118247,-1.239975,-1.172624,0.6776987,1.207444,-0.91033685,0.8551471,0.10624298,-0.22600937,-0.5002308,0.80170596,-1.4432015,0.056783717,-0.37949067,-0.22440338,-0.5129528,0.7626297,0.93358403,0.008779665,0.20784509,0.2917948,-1.0678252,0.3646245,-0.07297529,0.0,1.0,0.0,0.0,0.0,0.0,0.0,-0.4239906,0.10023078,-0.25170594,4.3460608,-5.142379,-11.331833,-5.0396204,1.2392759,-9.725607,0.45253038
-6.852776,16.563166,-1.3549795,8.345238,0.709758,-1.2948362,-0.030087952,-0.63147753,-0.7137759,0.18793188,0.6988638,-0.6578077,0.5616228,0.16704495,0.41728315,-0.8698833,-1.9922675,-1.1223344,1.9729611,1.7915777,-0.8951202,0.46845418,-0.8106536,-2.005537,-1.1802292,2.029621,1.7433596,-0.9107337,-1.1834946,-1.2289841,0.51072764,1.1968863,-0.9121768,0.77434844,0.1101978,-0.24043274,-0.4996624,0.79716945,-1.4417586,0.056726944,-0.47836244,-0.23527527,-0.5096283,0.76133597,0.9354888,0.003689942,0.20888731,0.28497905,-1.0938919,0.32831147,-0.15161724,0.0,1.0,0.0,0.0,0.0,0.0,0.0,-0.40956724,0.09966239,-0.24716944,5.658698,-5.6517124,-16.774155,-0.8565426,-0.1497984,-7.995391,0.44647008
-14.890296,7.5043936,-7.860357,9.188133,0.8104043,-1.5082295,-0.19755708,-0.6073283,-0.7391794,-0.02849772,0.7012557,-0.6566244,0.57666636,0.16744985,0.40772134,-0.88457155,-2.0083869,-1.1101036,1.9639585,1.8010262,-0.8939887,0.4570784,-0.8233598,-2.0025525,-1.1682292,2.0203826,1.7505137,-0.90964395,-1.1226503,-1.2846429,0.23049097,1.2037708,-0.92500347,0.69887483,0.10963062,-0.2547264,-0.49723625,0.7959365,-1.426128,0.25356346,-0.118694335,-0.2465744,-0.50676155,0.75905687,0.9374997,0.0001201409,0.20978148,0.2776437,-1.1415633,0.28106537,-0.25552547,0.0,1.0,0.0,0.0,0.0,0.0,0.0,-0.39527357,0.097236246,-0.24593651,5.9114933,-5.613208,-26.867697,1.7183781,-0.32833815,-6.4649105,0.35249293
-38.00218,16.10549,-11.399919,19.986774,1.5928024,-1.0280669,-0.6433591,-0.696511,-0.6684229,-0.23468608,0.7555494,-0.68406254,0.57471883,0.13257602,0.3874273,-0.89020205,-2.026021,-1.0926743,1.9519764,1.8079855,-0.8963863,0.44574398,-0.8361524,-2.0028234,-1.1557742,2.0110176,1.7571036,-0.90855485,-1.1361823,-1.2775611,-0.11410475,1.2609794,-0.93941444,0.64580476,0.1086671,-0.2689743,-0.4947033,0.794006,-1.4247022,0.25330997,-0.21782683,-0.2586136,-0.5041046,0.7559252,0.9397005,-0.0017931578,0.21090364,0.26921988,-1.2242697,0.26756495,-0.33619127,0.0,1.0,0.0,0.0,0.0,0.0,0.0,-0.38102567,0.09470329,-0.24400598,-1.094532,0.6718159,-34.91465,6.196189,-1.0711789,-5.236268,-0.070646405
-39.69382,24.939665,-8.6263685,21.98861,1.5813013,-0.699901,-0.63232243,-0.6829809,-0.65794855,-0.3705728,0.76604885,-0.6857624,0.6092292,0.19363178,0.37744588,-0.90194726,-2.0398808,-1.0791694,1.9424413,1.8180265,-0.8891917,0.43418163,-0.8486808,-2.0065045,-1.1426994,2.0015228,1.76327,-0.9074324,-1.1619506,-1.2450085,-0.45431346,1.3245798,-0.95190126,0.60680735,0.11333908,-0.28321075,-0.49217224,0.79108495,-1.4232777,0.2530567,-0.3168602,-0.27143478,-0.50146484,0.7520883,0.9420636,-0.0020394558,0.21248274,0.25954387,-1.2998998,0.27015126,-0.4037905,0.0,1.0,0.0,0.0,0.0,0.0,0.0,-0.36678922,0.092172235,-0.24108493,-2.2837877,3.1585693,-34.434784,6.8484783,-0.95090866,-3.8779497,0.436005
-35.681164,27.19122,-6.246621,20.02875,1.4297328,-0.5354451,-0.47257984,-0.6736551,-0.6762868,-0.4981378,0.77180594,-0.65613085,0.6037006,0.261709,0.3668161,-0.9163095,-2.0563183,-1.0655187,1.9359097,1.8236401,-0.88126147,0.42239326,-0.8609498,-2.0133252,-1.1290828,1.9920121,1.769097,-0.9062126,-1.1835591,-1.2213203,-0.75918216,1.375542,-0.9500539,0.5743463,0.12467764,-0.29743576,-0.4896431,0.7871743,-1.4218547,0.25280368,-0.41579455,-0.28494644,-0.49876213,0.7475908,0.94451576,-0.00072470756,0.21445061,0.24879786,-1.3650069,0.27892852,-0.46945876,0.0,1.0,0.0,0.0,0.0,0.0,0.0,-0.35256422,0.08964309,-0.23717427,-1.8895149,2.2304773,-30.791496,5.554199,0.3708601,-3.3098936,1.0794967
-30.925974,26.958185,-4.1901226,17.234888,1.3067856,-0.37956196,-0.28724015,-0.68178695,-0.6997319,-0.59938055,0.7765503,-0.6323644,0.58196425,0.30946892,0.35421455,-0.930923,-2.0732632,-1.0514277,1.9287757,1.8272934,-0.8752657,0.4104089,-0.87316257,-2.0227704,-1.1150981,1.9826146,1.7746245,-0.904846,-1.202613,-1.2217594,-1.0068077,1.407495,-0.9361233,0.5449659,0.14051369,-0.3116455,-0.48711777,0.7822721,-1.4204332,0.25255093,-0.5150237,-0.29904556,-0.4959488,0.7424276,0.9469887,0.0019800211,0.21659693,0.23726396,-1.4206442,0.29244033,-0.5362806,0.0,1.0,0.0,0.0,0.0,0.0,0.0,-0.33835447,0.08711776,-0.23227209,-1.6677618,-0.20411015,-24.954723,3.6259413,1.4699101,-3.07343,1.5420288
-19.616034,32.16669,1.50894,13.663667,1.0142915,-0.15561974,-0.032482333,-0.66713774,-0.7179608,-0.62667114,0.78207463,-0.6307271,0.583694,0.37445918,0.34369513,-0.9449586,-2.0854375,-1.0368906,1.919542,1.8329939,-0.8674001,0.39835688,-0.8855335,-2.0339859,-1.1009153,1.9733561,1.779893,-0.9032821,-1.2055577,-1.2426851,-1.1606816,1.4221978,-0.9234589,0.52141035,0.16114469,-0.32584,-0.48459053,0.7763951,-1.4205289,0.2584389,-0.57245827,-0.31350327,-0.49297333,0.7366691,0.94939303,0.0057497225,0.21872813,0.22533923,-1.4506304,0.3096241,-0.5938809,0.0,1.0,0.0,0.0,0.0,0.0,0.0,-0.32415998,0.084590524,-0.22639507,-0.15232563,-2.2534132,-15.489531,1.7268181,1.1042953,-2.404976,1.9835681
2.4737334,42.2948,10.691289,7.571501,0.31688863,-0.07127845,0.31055307,-0.5947984,-0.728527,-0.62549245,0.7766299,-0.6279901,0.61778504,0.42188743,0.33887705,-0.9583862,-2.0965352,-1.0232524,1.9105572,1.8416716,-0.86109334,0.38665625,-0.8981764,-2.0460439,-1.0867282,1.9641914,1.7849969,-0.9014986,-1.1584958,-1.2719165,-1.2196755,1.4179571,-0.91511405,0.5063259,0.18391699,-0.34004974,-0.48194313,0.77039164,-1.4210289,0.26691544,-0.6086918,-0.32792664,-0.48989868,0.7304395,0.9516121,0.010165699,0.22073233,0.21356079,-1.4338007,0.3180204,-0.6369964,0.0,1.0,0.0,0.0,0.0,0.0,0.0,-0.30995023,0.081943125,-0.22039163,4.6242714,-3.0646324,-5.602622,-0.32393932,0.5517006,-1.6400099,2.215147
6.9477453,46.933388,13.132321,6.515832,0.0986411,-0.00864774,0.40511832,-0.59414184,-0.7273132,-0.6857206,0.7714044,-0.65457493,0.57791686,0.48168474,0.32724208,-0.9709077,-2.114616,-1.0095878,1.898734,1.8427886,-0.85333014,0.37544486,-0.9110643,-2.0585063,-1.0726634,1.9549979,1.7899503,-0.8994673,-1.1091181,-1.2948611,-1.2538825,1.4026943,-0.92220235,0.49137554,0.20917809,-0.3542633,-0.4792061,0.76411927,-1.4213552,0.27594158,-0.6329179,-0.34207535,-0.48675537,0.72381914,0.95359063,0.015070623,0.22262357,0.20217954,-1.4033281,0.324655,-0.6748322,0.0,1.0,0.0,0.0,0.0,0.0,0.0,-0.29573667,0.07920608,-0.21411926,4.806876,-2.4379969,-3.043151,-1.4892101,-1.0682106,-1.6194344,2.4255276
12.542082,57.106632,17.582565,7.090157,0.007820249,0.11515021,0.45121592,-0.56124467,-0.71157986,-0.6879281,0.7807156,-0.6674402,0.5892669,0.53396016,0.31932038,-0.9822223,-2.127299,-0.9945919,1.8882539,1.848877,-0.84607124,0.36478612,-0.9240362,-2.0710986,-1.0587168,1.9456773,1.7947853,-0.8971708,-1.0520798,-1.2985712,-1.2595651,1.3918716,-0.9359926,0.48039663,0.23630255,-0.3684082,-0.47637558,0.757768,-1.4073249,0.28475016,-0.63742405,-0.3557968,-0.48353767,0.71695226,0.95529413,0.020328807,0.22450379,0.1913055,-1.3564787,0.33188748,-0.69505566,0.0,1.0,0.0,0.0,0.0,0.0,0.0,-0.28159177,0.076375574,-0.20776796,5.506444,-0.5291939,-0.07376671,-1.1241674,-1.6004562,-1.255858,2.652678
11.133839,58.87685,17.516857,7.946662,0.09044027,0.13660651,0.42524225,-0.5474515,-0.71606123,-0.71080524,0.77204233,-0.67441297,0.5690181,0.55325085,0.31004098,-0.9956423,-2.142179,-0.98151255,1.8782359,1.8516871,-0.8418457,0.35463473,-0.9370033,-2.0837522,-1.0448846,1.9362473,1.7995044,-0.8946018,-1.003413,-1.2965951,-1.2656693,1.3802801,-0.94698185,0.46847275,0.2633101,-0.382164,-0.4734993,0.7512784,-1.364724,0.28889447,-0.6528971,-0.36907578,-0.48023415,0.7099063,0.956731,0.025898652,0.22639689,0.18094052,-1.3120725,0.33970034,-0.71203727,0.0,1.0,0.0,0.0,0.0,0.0,0.0,-0.26783597,0.07349929,-0.20127839,4.6785116,0.031995773,-0.09622574,-1.2135744,-1.5847087,-1.3455033,2.5609791
8.794022,60.96175,17.257767,9.097599,0.19592011,0.16344345,0.39258084,-0.53367263,-0.70694476,-0.72643805,0.76119214,-0.6839649,0.54011506,0.5815041,0.30126747,-1.0076978,-2.156396,-0.9687654,1.8678509,1.8535159,-0.8364514,0.34489053,-0.9498865,-2.0965083,-1.0311878,1.9267044,1.8040936,-0.8917696,-0.9653398,-1.2860863,-1.2770379,1.366081,-0.9584232,0.45499307,0.28927463,-0.39549255,-0.47058487,0.74464166,-1.321943,0.29256973,-0.6666355,-0.38193512,-0.47684097,0.7027109,0.9579148,0.031809695,0.22832885,0.17103595,-1.2702572,0.34922317,-0.72613287,0.0,1.0,0.0,0.0,0.0,0.0,0.0,-0.25450742,0.07058486,-0.19464165,3.6326885,0.87542534,-0.6192684,-1.4685392,-1.6519308,-1.5151978,2.4456978
7.3095093,59.747856,16.410593,9.380849,0.36215007,0.14394522,0.36180192,-0.5149865,-0.71457183,-0.7272663,0.75241554,-0.6570493,0.51264906,0.58700407,0.29339188,-1.0213437,-2.169235,-0.9559462,1.8609995,1.8553585,-0.8330692,0.33548203,-0.9627011,-2.1093671,-1.0176418,1.9171482,1.8085343,-0.88870275,-0.93321455,-1.2804935,-1.2867783,1.350659,-0.95636994,0.43999475,0.31208274,-0.40841675,-0.46763992,0.73784167,-1.2820011,0.29520664,-0.68380994,-0.394413,-0.473341,0.6953667,0.9588768,0.038049303,0.23023431,0.161554,-1.2344357,0.35887834,-0.7410787,0.0,1.0,0.0,0.0,0.0,0.0,0.0,-0.24158323,0.06763992,-0.18784165,3.0527353,0.3866434,-0.47028065,-1.57094,-0.2986312,-1.6786695,2.1492183
3.7521305,58.8535,15.4411745,10.683335,0.6410699,0.17808282,0.29382706,-0.5115696,-0.72142947,-0.71662766,0.7551298,-0.64611423,0.47447684,0.5857768,0.28432506,-1.034844,-2.1810298,-0.9421288,1.8525368,1.855982,-0.8301251,0.32630527,-0.9755137,-2.122243,-1.0042006,1.9076645,1.8128088,-0.8854354,-0.91295815,-1.2821709,-1.2862717,1.3421221,-0.94732594,0.4225547,0.33128867,-0.4209671,-0.46466637,0.7308545,-1.2454907,0.29800063,-0.70329237,-0.40660095,-0.46971893,0.68788457,0.9596555,0.044559706,0.232037,0.15242879,-1.2073604,0.3724303,-0.7544162,0.0,1.0,0.0,0.0,0.0,0.0,0.0,-0.22903287,0.06466636,-0.1808545,1.8921852,-0.34415722,0.5428076,-0.8405447,0.40476322,-1.9432127,1.8239737
12.40912,61.360092,17.971497,8.68025,0.4639374,0.13379925,0.36012033,-0.4549758,-0.7206493,-0.6905592,0.7538612,-0.6396739,0.485759,0.6087762,0.28080767,-1.0475786,-2.191299,-0.9288145,1.8436972,1.8613846,-0.8245578,0.3175052,-0.9883568,-2.1349647,-0.9908142,1.8982998,1.8169342,-0.8819836,-0.86967593,-1.2855892,-1.2654678,1.3372133,-0.9345926,0.40858674,0.3495149,-0.43310165,-0.46169472,0.7237281,-1.2024179,0.2969511,-0.71508396,-0.4184227,-0.46602058,0.680311,0.96026003,0.051208716,0.23370497,0.14373681,-1.167632,0.37710047,-0.76195604,0.0,1.0,0.0,0.0,0.0,0.0,0.0,-0.21689832,0.06169471,-0.17372811,4.133332,-0.5016327,2.6506186,-0.5562782,0.72984695,-1.5960157,1.716882
5.375831,59.00723,15.937008,10.484205,0.8610728,0.20685273,0.26768783,-0.48316938,-0.73411024,-0.6711881,0.7442072,-0.6010401,0.43270826,0.5961024,0.26918828,-1.0617678,-2.2020836,-0.9163935,1.8381958,1.860205,-0.82237333,0.30894738,-1.001298,-2.147381,-0.9774903,1.8891551,1.8208936,-0.8783788,-0.8516299,-1.2975614,-1.2321001,1.3307756,-0.90945315,0.39102843,0.36400428,-0.44485855,-0.45871925,0.71643215,-1.1660587,0.29748353,-0.7330585,-0.42995453,-0.4622097,0.67265886,0.96073526,0.05791395,0.23514725,0.13542348,-1.1420237,0.38997686,-0.7699872,0.0,1.0,0.0,0.0,0.0,0.0,0.0,-0.20514143,0.058719248,-0.16643214,1.6621828,-1.3629436,3.861785,-0.63381195,1.9883633,-1.9698381,1.3956487
-0.3488109,60.759422,15.15977,12.92197,1.1621447,0.3190068,0.17803189,-0.49076256,-0.7308153,-0.6547473,0.75299364,-0.59642345,0.42469534,0.6099633,0.25987113,-1.0743794,-2.2128558,-0.9021909,1.8295128,1.8633631,-0.81738245,0.30043676,-1.0143366,-2.1594274,-0.96417403,1.8802458,1.8246837,-0.87463677,-0.85120726,-1.3065395,-1.1939169,1.3321601,-0.8863952,0.37430444,0.37740064,-0.4562683,-0.45573044,0.7089654,-1.131838,0.29954678,-0.7502736,-0.44128418,-0.45820427,0.6649618,0.9611104,0.06464276,0.2363573,0.12737076,-1.1239616,0.41121528,-0.7730868,0.0,1.0,0.0,0.0,0.0,0.0,0.0,-0.19373167,0.055730432,-0.15896541,-0.0693202,-1.0762691,4.335475,0.19001961,1.7738223,-1.8875718,1.3014197
5.0001945,67.12594,17.97679,12.781014,1.1734347,0.35222518,0.20104012,-0.46094847,-0.7252101,-0.6018531,0.7481363,-0.5711484,0.40652725,0.61591816,0.25434193,-1.0868576,-2.2196126,-0.8893604,1.823131,1.8653364,-0.81304497,0.2920048,-1.0274115,-2.1709244,-0.9508539,1.871601,1.8283112,-0.87077254,-0.84105,-1.3085699,-1.1330001,1.3319358,-0.85905415,0.35813856,0.38924336,-0.46728134,-0.4527378,0.7013957,-1.0901942,0.29879716,-0.7577087,-0.45235825,-0.45401382,0.65730804,0.96139586,0.07127603,0.23734702,0.11959907,-1.0958248,0.42879143,-0.76620126,0.0,1.0,0.0,0.0,0.0,0.0,0.0,-0.18271863,0.052737802,-0.15139568,0.85856915,-0.38087368,6.700778,-0.03311634,2.1215916,-1.8344879,1.1335373
8.767454,67.93373,19.153944,11.5728855,1.2898705,0.3608016,0.21419224,-0.45587623,-0.7377759,-0.5334284,0.7239844,-0.4847909,0.36097252,0.5863248,0.24641716,-1.101189,-2.2242672,-0.87845546,1.8231219,1.8644085,-0.81214005,0.2836849,-1.0405397,-2.1815896,-0.9376482,1.8634399,1.8317589,-0.8668252,-0.8295503,-1.3148993,-1.042103,1.3166051,-0.80390364,0.3396799,0.3965006,-0.47786713,-0.44976807,0.69376385,-1.0471357,0.29604673,-0.7632225,-0.4631424,-0.44966698,0.6497524,0.96164215,0.07762354,0.23798358,0.1121722,-1.0648462,0.44388416,-0.7552551,0.0,1.0,0.0,0.0,0.0,0.0,0.0,-0.17213285,0.04976806,-0.14376384,0.9753227,-0.7966757,9.728813,-1.5711546,4.8695683,-2.0669103,0.70530176
8.427785,69.79322,19.89918,11.955305,1.6302506,0.42043334,0.18138807,-0.47030237,-0.7406798,-0.44896188,0.7002013,-0.37738395,0.26796305,0.5888168,0.23665467,-1.1146077,-2.2264857,-0.86762804,1.8257015,1.8585552,-0.8079435,0.27539217,-1.0537367,-2.191095,-0.92470855,1.8560933,1.834969,-0.86281514,-0.8297325,-1.321706,-0.9177098,1.2862629,-0.7136934,0.3139586,0.40267769,-0.48802567,-0.44682884,0.68609774,-1.0043052,0.2931978,-0.7656971,-0.473629,-0.4451313,0.6423628,0.9619293,0.08346976,0.23807178,0.1051026,-1.0368291,0.46272418,-0.7365062,0.0,1.0,0.0,0.0,0.0,0.0,0.0,-0.16197431,0.046828836,-0.13609773,-0.18438101,-0.83756447,13.083839,-3.0714512,8.351767,-2.7909756,0.6403029
4.639732,71.75561,19.999344,13.393936,2.1708877,0.4728346,0.10154418,-0.49744606,-0.73978496,-0.35527456,0.66585994,-0.21027566,0.08613756,0.59162915,0.22564757,-1.1277152,-2.2266226,-0.8581225,1.8350657,1.8435827,-0.8036522,0.2669426,-1.0669813,-2.199136,-0.91220284,1.8500423,1.8378011,-0.8587478,-0.85048646,-1.3260392,-0.76425576,1.2386966,-0.5709751,0.27226245,0.40839085,-0.49777603,-0.44390488,0.67842525,-0.96448976,0.29188693,-0.7662692,-0.48390198,-0.44034958,0.635232,0.9623647,0.08860012,0.23735106,0.09832886,-1.0181789,0.48987243,-0.70839036,0.0,1.0,0.0,0.0,0.0,0.0,0.0,-0.15222394,0.04390487,-0.12842524,-2.20958,-0.5854845,15.953625,-4.7695637,13.609779,-4.3836117,0.64772964
20.309525,82.29526,27.81577,11.296464,2.9149847,0.57410496,0.10789195,-0.47365376,-0.7445563,-0.08153843,0.5983443,0.17447858,-0.1206106,0.55718374,0.21957721,-1.1414369,-2.20729,-0.8523684,1.8674902,1.82574,-0.8030294,0.25838715,-1.0802736,-2.2046633,-0.9004277,1.8464079,1.8400861,-0.85465175,-0.8579417,-1.3307257,-0.47996116,1.1566365,-0.29689875,0.21326302,0.41052178,-0.50702286,-0.4410286,0.67096615,-0.9109872,0.28586236,-0.73752284,-0.49389648,-0.43531418,0.62865007,0.963164,0.09223997,0.23525868,0.091979675,-0.9872356,0.5137187,-0.64436513,0.0,1.0,0.0,0.0,0.0,0.0,0.0,-0.14297712,0.04102859,-0.12096614,-0.94981194,-0.600791,29.202604,-8.346534,26.596678,-6.107807,0.34866333
33.103912,82.648964,30.596348,6.5531397,2.6341007,0.49531138,0.24429241,-0.45887843,-0.75250304,0.08254141,0.50082654,0.29797986,-0.24852833,0.54057825,0.2124993,-1.1555239,-2.1964092,-0.850345,1.8762059,1.8152332,-0.8005939,0.24986747,-1.0936365,-2.2069707,-0.8898181,1.8456228,1.84173,-0.8505538,-0.85069513,-1.3385217,-0.14504766,1.0284002,-0.008203151,0.14760175,0.40985194,-0.5156746,-0.43826294,0.6638579,-0.8493926,0.27307796,-0.70052296,-0.5034561,-0.4301548,0.62271386,0.96443754,0.09394349,0.23149538,0.086282186,-0.94061524,0.52235925,-0.57947904,0.0,1.0,0.0,0.0,0.0,0.0,0.0,-0.13432539,0.038262933,-0.113857865,0.5161524,-0.89445114,34.255527,-13.004136,28.083807,-6.700322,0.027662516
64.790054,85.90247,36.309456,-1.9367796,1.3617896,0.0005017817,0.50403607,-0.31681725,-0.7435966,0.1958377,0.4655884,0.36586455,-0.3542231,0.5396535,0.21818574,-1.1679962,-2.187387,-0.8432592,1.8822092,1.8063077,-0.7965885,0.2421103,-1.1070242,-2.2060628,-0.8804693,1.84745,1.8427067,-0.846472,-0.75167155,-1.3391635,0.17264497,0.9028594,0.2437034,0.08095562,0.40746978,-0.52355576,-0.4357643,0.6572738,-0.7675923,0.24182563,-0.6442976,-0.51226425,-0.42528534,0.6174053,0.96613234,0.093659125,0.22618967,0.08157466,-0.85626906,0.4805691,-0.51736486,0.0,1.0,0.0,0.0,0.0,0.0,0.0,-0.12644422,0.035764307,-0.10727382,9.61746,-0.19083023,32.664143,-12.809587,24.390638,-6.704684,-0.2772808
70.301834,82.65867,34.885914,-3.2171688,0.83028543,-0.36483657,0.49081853,-0.2520497,-0.74793744,0.25743943,0.46522054,0.4704328,-0.37122014,0.5376334,0.21690533,-1.1818179,-2.1803188,-0.83394724,1.8944933,1.8055847,-0.7927087,0.23563987,-1.1204195,-2.2025356,-0.87206477,1.8515193,1.843076,-0.8424188,-0.61296874,-1.340276,0.41545066,0.81921357,0.4588605,0.022318076,0.40435088,-0.5306244,-0.43362236,0.6512407,-0.6877047,0.20519361,-0.59138733,-0.52023697,-0.42097282,0.6126239,0.968144,0.09161631,0.21962906,0.07788862,-0.7739733,0.41968,-0.46811238,0.0,1.0,0.0,0.0,0.0,0.0,0.0,-0.11937559,0.033622354,-0.101240695,13.633299,-0.26221275,25.108273,-8.498419,20.843035,-5.8681307,-0.3789425
61.852158,81.76366,31.690245,-0.5884783,0.7101388,-0.456136,0.40979916,-0.22289506,-0.7319769,0.3347602,0.4286271,0.5439626,-0.39223835,0.54220754,0.21335037,-1.1936172,-2.1690595,-0.82920206,1.9059156,1.8038522,-0.78819805,0.23049675,-1.1337461,-2.19707,-0.8643299,1.8574106,1.8429139,-0.83839226,-0.48195267,-1.3306445,0.59278446,0.7582934,0.630582,-0.02898186,0.4018706,-0.5369415,-0.43183327,0.6456969,-0.6148892,0.17057942,-0.54471964,-0.52746964,-0.41724014,0.60826665,0.97036,0.08817594,0.21211351,0.07506155,-0.7036505,0.36171272,-0.4279813,0.0,1.0,0.0,0.0,0.0,0.0,0.0,-0.11305845,0.03183326,-0.09569687,12.945759,0.8018732,18.406343,-6.0916066,16.658031,-5.099136,-0.299263
60.57067,81.918945,30.609484,-0.4396422,0.4288941,-0.4914515,0.43383303,-0.15209705,-0.7215022,0.4402728,0.37877932,0.6024579,-0.36935675,0.54844517,0.21528704,-1.2058964,-2.1530426,-0.82645196,1.9176563,1.8059782,-0.78354776,0.22665995,-1.1469259,-2.1900258,-0.85718524,1.8647251,1.8423191,-0.83438283,-0.35129946,-1.3143003,0.7436494,0.7001569,0.76340693,-0.06937434,0.40046838,-0.5425453,-0.4303913,0.6406185,-0.54395074,0.13583258,-0.4991099,-0.5339813,-0.41410828,0.6042687,0.9726841,0.08357788,0.20387535,0.07304253,-0.63360155,0.30096462,-0.39366856,0.0,1.0,0.0,0.0,0.0,0.0,0.0,-0.10745466,0.030391306,-0.09061849,12.953472,1.462388,15.68619,-5.7314754,12.850248,-3.976132,-0.17620921
51.123173,78.82682,27.536491,0.8912635,0.38309655,-0.37877417,0.41892555,-0.12249698,-0.7174618,0.5203086,0.3208809,0.6431199,-0.27349618,0.53517187,0.21441026,-1.2186722,-2.137995,-0.82509714,1.9290371,1.8149695,-0.78086567,0.22392294,-1.1599414,-2.1816123,-0.8507129,1.873104,1.8414469,-0.83039343,-0.24801293,-1.2977573,0.87557864,0.6301573,0.8614334,-0.09287167,0.3984505,-0.5474968,-0.42926216,0.6359232,-0.48083022,0.10601487,-0.4635274,-0.5398674,-0.41150475,0.6005338,0.9750437,0.07800739,0.19506788,0.07178476,-0.5720876,0.250281,-0.37016177,0.0,1.0,0.0,0.0,0.0,0.0,0.0,-0.10250318,0.029262155,-0.085923195,10.27919,1.4904737,13.63269,-6.844425,9.5023155,-2.2587717,-0.1925826
38.075813,59.557278,19.059063,-5.0884967,-0.36729282,-0.31240845,0.7339291,-0.16995366,-0.71567786,0.5375773,0.026381265,0.684558,-0.3175388,0.5235164,0.20692757,-1.2315092,-2.1278546,-0.8480748,1.9415598,1.809693,-0.7780418,0.22165431,-1.17282,-2.1722143,-0.84616125,1.882282,1.8403522,-0.82642883,-0.21985595,-1.2850397,0.96182215,0.3974815,0.9361832,-0.114383645,0.3960211,-0.55194473,-0.42837715,0.6312176,-0.43512133,0.083431825,-0.47742996,-0.5451431,-0.40935135,0.596633,0.97739726,0.071933895,0.18549241,0.07150168,-0.5138061,0.20626642,-0.4002672,0.0,1.0,0.0,0.0,0.0,0.0,0.0,-0.09805524,0.028377146,-0.08121759,2.8025568,1.1320114,8.731424,-23.099697,7.397723,-1.9935117,-0.16442537
12.016079,41.41785,9.156721,-7.4616795,-0.60370696,-0.021911606,0.96852916,-0.30076212,-0.7026557,0.55344325,-0.31248954,0.73223275,-0.38686115,0.53853977,0.1915781,-1.2430855,-2.11687,-0.8774102,1.9555053,1.801666,-0.77257484,0.21876854,-1.1855515,-2.1622443,-0.8453416,1.8921199,1.8390169,-0.8224711,-0.3113017,-1.2696187,1.0075492,-0.022568129,1.000231,-0.13923122,0.39630756,-0.5560913,-0.42762184,0.62597835,-0.40959483,0.07354987,-0.5440291,-0.5499382,-0.4074421,0.59205604,0.9797266,0.06592304,0.17477365,0.072415814,-0.46832585,0.18859304,-0.48038656,0.0,1.0,0.0,0.0,0.0,0.0,0.0,-0.09390867,0.027621835,-0.07597834,-9.083033,1.4391184,4.1941643,-41.808002,6.6435933,-2.2779794,0.22457242
0.13291526,38.614395,6.2355785,-4.889382,-0.42943063,0.07179479,0.88283664,-0.32059562,-0.6997191,0.5502967,-0.41962922,0.75826687,-0.3668063,0.55774194,0.18670897,-1.2555234,-2.1072147,-0.88730454,1.9679465,1.8023363,-0.7666969,0.21475528,-1.1981515,-2.152095,-0.8487149,1.9025041,1.8374662,-0.8184914,-0.43091148,-1.2570415,1.0155293,-0.4411887,1.0522499,-0.15974645,0.3996054,-0.5600395,-0.42692375,0.6199782,-0.39109907,0.06891126,-0.62183934,-0.55435944,-0.40561295,0.5866156,0.9819873,0.060266256,0.16286135,0.074465215,-0.43342045,0.1837054,-0.5679935,0.0,1.0,0.0,0.0,0.0,0.0,0.0,-0.089960456,0.026923746,-0.06997818,-11.835128,1.1678457,0.22993088,-41.56131,5.562043,-1.8982947,0.63575506
1.8184645,43.89794,7.8360777,-1.3058729,-0.26388025,-0.049056873,0.6558517,-0.29009765,-0.7035538,0.524317,-0.44622588,0.7629873,-0.34575534,0.56451285,0.18574552,-1.2685069,-2.0996633,-0.8933375,1.9788028,1.8028907,-0.76204014,0.20985252,-1.2106789,-2.1421404,-0.85541654,1.9132854,1.8357515,-0.8144726,-0.5095306,-1.2517123,0.98687774,-0.7452612,1.0879624,-0.1749644,0.40385875,-0.5638008,-0.42628098,0.6132883,-0.37196764,0.06310186,-0.68714786,-0.5584793,-0.40385437,0.5804026,0.98411196,0.055016685,0.1500262,0.07738733,-0.40391895,0.17520154,-0.64106375,0.0,1.0,0.0,0.0,0.0,0.0,0.0,-0.086199164,0.02628097,-0.06328827,-7.7054024,0.47113895,-3.4238935,-30.038857,3.9536953,-1.4099866,0.7705629
9.761515,56.86723,13.287622,3.8084342,0.1286534,-0.11336081,0.34770972,-0.24628031,-0.7106734,0.55457217,-0.4093278,0.7600008,-0.26501215,0.5653486,0.18522449,-1.2817463,-2.0866833,-0.8963493,1.9892855,1.8092504,-0.7579377,0.20466623,-1.2232178,-2.1323862,-0.86388993,1.9243096,1.8339726,-0.81041557,-0.5210659,-1.2547286,0.9696926,-0.8801751,1.1087841,-0.17835085,0.40748096,-0.5673332,-0.4257164,0.6061944,-0.34717402,0.0542644,-0.7172962,-0.56233597,-0.40221596,0.5737245,0.9860471,0.049935266,0.13668483,0.080838054,-0.37765345,0.16137052,-0.6778891,0.0,1.0,0.0,0.0,0.0,0.0,0.0,-0.082666755,0.025716394,-0.056194365,-0.97954273,-0.29609203,-2.255392,-13.150644,2.5496721,-0.16967356,0.69103837
16.64642,67.978386,17.61036,7.059821,0.22959512,-0.17204818,0.15775548,-0.21457307,-0.69734603,0.53418946,-0.4142221,0.75229913,-0.19272272,0.5585338,0.18320891,-1.2929524,-2.0789673,-0.9053121,1.9995395,1.8147002,-0.7545622,0.19974716,-1.2357415,-2.1228533,-0.87286586,1.9354444,1.8322351,-0.8063318,-0.48160255,-1.2513441,0.94575125,-0.9023752,1.1168312,-0.17136294,0.40960154,-0.570591,-0.42526054,0.59899384,-0.31851503,0.042731646,-0.72027946,-0.5659294,-0.4007702,0.566874,0.98775196,0.044833705,0.12323335,0.084554575,-0.3506403,0.14048609,-0.68816626,0.0,1.0,0.0,0.0,0.0,0.0,0.0,-0.079409,0.025260538,-0.048993826,4.120767,0.40118694,-2.9077768,-1.9226909,1.3461828,0.94212294,0.494498
24.045988,78.68435,22.247469,9.119455,0.27369684,-0.15396398,0.05061235,-0.16827847,-0.6865597,0.55688715,-0.38669467,0.7409418,-0.08618266,0.5557202,0.18291931,-1.3043975,-2.0671647,-0.9115353,2.0095387,1.8236169,-0.7507598,0.1955145,-1.2481755,-2.1134117,-0.88147366,1.946583,1.830658,-0.8022339,-0.40321442,-1.2403823,0.9420559,-0.8460801,1.1150472,-0.1520937,0.41058785,-0.5735321,-0.4249363,0.5919691,-0.2860304,0.028965307,-0.6957171,-0.5692177,-0.3995781,0.5601145,0.9892062,0.03951141,0.109984405,0.0883924,-0.31976643,0.11363038,-0.6724027,0.0,1.0,0.0,0.0,0.0,0.0,0.0,-0.07646787,0.024936289,-0.04196906,8.015543,1.1986256,-0.8718252,5.883801,0.4377365,2.2485316,0.3410399
14.758355,91.80588,25.133549,17.242132,0.96796197,0.13213961,-0.23826121,-0.15064812,-0.6580226,0.561015,-0.26373962,0.7271482,0.13689521,0.5558092,0.1804497,-1.3139777,-2.05731,-0.90784764,2.0192978,1.8443475,-0.74665296,0.19207901,-1.2603673,-2.1039355,-0.8888149,1.9576362,1.829434,-0.79813117,-0.3230339,-1.2116219,0.9477466,-0.69613045,1.104463,-0.111219764,0.41092286,-0.57616806,-0.4247074,0.58541155,-0.2561989,0.020706732,-0.6412229,-0.5723076,-0.39850426,0.553753,0.99041414,0.033759996,0.09730493,0.09204193,-0.3030569,0.106425546,-0.62476987,0.0,1.0,0.0,0.0,0.0,0.0,0.0,-0.073831916,0.024707407,-0.035411537,8.202362,3.0241966,0.07226467,15.208602,-0.39196014,4.461652,0.24437904
25.307123,95.24304,27.4767,13.515167,0.34286952,0.049271896,-0.089243606,-0.07917475,-0.6252726,0.5489646,-0.28511158,0.7159896,0.23181902,0.52816886,0.18416153,-1.3228946,-2.0490391,-0.9173261,2.0292351,1.852616,-0.7453143,0.1895997,-1.2721432,-2.094433,-0.89485264,1.9685556,1.8286748,-0.7940466,-0.22228976,-1.1658207,0.9495796,-0.57220805,1.0898082,-0.06296299,0.408363,-0.5784836,-0.42459106,0.57945514,-0.22329733,0.008849674,-0.5800388,-0.57509995,-0.39762497,0.54789096,0.99137557,0.027558299,0.08534409,0.09555756,-0.27035052,0.083049394,-0.57414484,0.0,1.0,0.0,0.0,0.0,0.0,0.0,-0.071516395,0.024591058,-0.029455125,10.249922,4.6972275,-0.23351908,12.630773,-0.85577965,5.2054076,-0.049579144
1.7770154,98.503426,24.540709,19.425285,0.8570042,0.38787913,-0.20660885,-0.14969026,-0.5576225,0.49151793,-0.29443613,0.7218332,0.23942354,0.52920514,0.17463067,-1.3279055,-2.0452812,-0.92429626,2.0407388,1.8526171,-0.74112606,0.18758845,-1.2832059,-2.0851939,-0.9000273,1.9793527,1.8283601,-0.7899868,-0.19343023,-1.086134,0.9137858,-0.4983967,1.0784316,-0.019870225,0.40592834,-0.5805321,-0.4245186,0.57408965,-0.19922355,0.006805253,-0.52182806,-0.5776901,-0.39674568,0.54254496,0.992112,0.021130804,0.074144244,0.09884236,-0.25360632,0.09044548,-0.5225354,0.0,1.0,0.0,0.0,0.0,0.0,0.0,-0.0694679,0.02451858,-0.024089634,3.0708134,8.094215,-4.079163,7.6270223,-0.4971981,4.671494,-0.01667738
4.330506,104.09144,26.275518,18.195784,0.5039652,0.33845252,-0.101094574,-0.10231881,-0.49168265,0.47927362,-0.27981997,0.71067405,0.15941052,0.542176,0.17735657,-1.3323741,-2.0372665,-0.9280093,2.05042,1.8443011,-0.7357692,0.18583679,-1.2932729,-2.0763783,-0.9047384,1.9900359,1.8283657,-0.78594035,-0.16846493,-0.9798598,0.86911553,-0.4611391,1.0669465,0.008708828,0.40488935,-0.5823326,-0.4244709,0.5693759,-0.17397389,0.004172563,-0.45518374,-0.5800438,-0.3958435,0.5377729,0.9926387,0.014658202,0.06371798,0.10194777,-0.22794133,0.09108034,-0.46329403,0.0,1.0,0.0,0.0,0.0,0.0,0.0,-0.067667365,0.024470896,-0.01937586,2.6767373,10.744119,-4.9630046,3.9722562,-0.5038738,3.2409697,0.10544062
0.29843825,108.173225,26.680641,20.255135,0.5234304,0.3404022,-0.15582864,-0.081763156,-0.42429066,0.42750445,-0.20947562,0.6947705,0.18786788,0.55020976,0.17766048,-1.335702,-2.033628,-0.925686,2.0595129,1.8471525,-0.73091936,0.18430781,-1.3021477,-2.0681844,-0.9089756,2.0005777,1.8286308,-0.7818977,-0.14716579,-0.85636985,0.8014193,-0.41040802,1.0520113,0.03363055,0.40478104,-0.5839081,-0.42443275,0.56537837,-0.15231302,0.0037890105,-0.38198403,-0.5821686,-0.3949089,0.5336506,0.9929783,0.0082744295,0.054165162,0.104841255,-0.20637488,0.09502525,-0.39640066,0.0,1.0,0.0,0.0,0.0,0.0,0.0,-0.066091895,0.024432749,-0.015378356,2.2966743,12.470603,-7.234645,5.30116,-0.8641958,2.859662,0.18080473
9.419739,133.88506,34.40097,22.085484,-0.063844286,0.2930916,-0.110223204,-0.017114183,-0.23454319,0.33375344,-0.16174042,0.6801446,0.18246578,0.5385062,0.1825964,-1.325602,-2.034809,-0.9251496,2.068592,1.8468773,-0.72804713,0.18322706,-1.3091592,-2.061009,-0.91260636,2.0109656,1.8291082,-0.7778647,-0.09451175,-0.6489266,0.6883368,-0.34661663,1.036641,0.05416002,0.4033611,-0.5852165,-0.42442322,0.5624489,-0.12573929,-0.00042570598,-0.26383832,-0.58392334,-0.39404678,0.5305295,0.9931402,0.002162334,0.04585424,0.107541345,-0.16450487,0.083562866,-0.2849945,0.0,1.0,0.0,0.0,0.0,0.0,0.0,-0.064783454,0.024423212,-0.012448907,5.4286437,20.879995,-11.757385,6.596458,-0.8587122,2.5206468,0.010955334
15.194858,172.16167,45.58434,28.339699,-0.4001821,0.41580018,-0.1596242,0.04503341,0.008946034,0.25013074,-0.05528573,0.65496457,0.21710618,0.5272597,0.1877304,-1.3082646,-2.035996,-0.9181349,2.076462,1.8508189,-0.7251387,0.18290639,-1.3132657,-2.0552108,-0.9152318,2.0211732,1.8297812,-0.7738564,-0.01074167,-0.33081114,0.5421859,-0.23383492,1.0179962,0.073321246,0.40033495,-0.5861931,-0.4244461,0.561234,-0.08924664,-0.0029375441,-0.07476831,-0.5851135,-0.3933525,0.5290634,0.9931431,-0.003560973,0.039408404,0.1100045,-0.10499125,0.065194145,-0.10152316,0.0,1.0,0.0,0.0,0.0,0.0,0.0,-0.06380689,0.0244461,-0.011233985,8.53467,31.959026,-15.044951,11.4719925,-1.1058092,2.4129755,-0.19934177
13.580826,122.78036,29.504076,21.026667,-0.71220386,-0.41262096,-0.26102513,0.11853337,-0.06920896,0.0013074577,0.060485028,0.59891117,0.21151735,0.48361358,0.19475973,-1.3201866,-2.0550802,-0.9091833,2.0810645,1.850933,-0.72549504,0.18364337,-1.3150529,-2.051728,-0.916342,2.0310218,1.830624,-0.7699099,0.10205494,-0.12776318,0.28307462,-0.06970297,0.9746985,0.08843631,0.39315942,-0.5869484,-0.42453194,0.5611382,-0.07087461,-0.010338614,0.011425255,-0.58592606,-0.39297104,0.5287168,0.99305576,-0.008398167,0.034737185,0.11208486,-0.07291334,0.029521802,-0.0132387085,0.0,0.0,1.0,0.0,0.0,0.0,0.0,-0.06305158,0.02453193,-0.011138201,11.337476,20.365274,-26.056189,16.532635,-3.9638758,1.673922,-0.6178856
10.369228,89.97765,19.281061,13.550509,-0.93940663,-0.6320745,-0.12695348,0.11581374,-0.024242507,-0.10495559,-0.006967998,0.580465,0.23919874,0.478274,0.19522475,-1.3174771,-2.0622237,-0.9170388,2.0890684,1.8545438,-0.7220825,0.18529299,-1.3153638,-2.0509498,-0.91638976,2.0404015,1.8316178,-0.76603615,0.18596195,0.0011065023,0.009420462,0.016886633,0.9259248,0.103072375,0.38561895,-0.5875664,-0.42469788,0.5613871,-0.059515975,-0.017628785,0.028878504,-0.5864525,-0.39296532,0.5287648,0.9929263,-0.012027719,0.031364426,0.11388079,-0.046962596,-0.008590428,0.010054358,0.0,0.0,1.0,0.0,0.0,0.0,0.0,-0.0624336,0.02469787,-0.01138711,8.402705,12.896908,-27.412558,8.687011,-4.7159076,1.4939964,-0.68247914
