Afshin1997/kuka_rl_ros2/src/catch_and_throw/input_files/idealpd/recorded_trajectories/env_190_data.csv
torque0,torque1,torque2,torque3,torque4,torque5,torque6,action0,action1,action2,action3,action4,action5,action6,set_target_0,set_target_1,set_target_2,set_target_3,set_target_4,set_target_5,set_target_6,joint_pos_0,joint_pos_1,joint_pos_2,joint_pos_3,joint_pos_4,joint_pos_5,joint_pos_6,joint_vel_0,joint_vel_1,joint_vel_2,joint_vel_3,joint_vel_4,joint_vel_5,joint_vel_6,tennisball_pos_0,tennisball_pos_1,tennisball_pos_2,tennisball_lin_vel_0,tennisball_lin_vel_1,tennisball_lin_vel_2,end_effector_pos_0,end_effector_pos_1,end_effector_pos_2,end_effector_rot_0,end_effector_rot_1,end_effector_rot_2,end_effector_rot_3,end_effector_lin_vel_0,end_effector_lin_vel_1,end_effector_lin_vel_2,obs_task_0,obs_task_1,obs_task_2,obs_task_3,obs_task_4,obs_task_5,obs_task_6,to_final_target_0,to_final_target_1,to_final_target_2,joint_acc_0,joint_acc_1,joint_acc_2,joint_acc_3,joint_acc_4,joint_acc_5,joint_acc_6
0.0,0.0,0.0,0.0,0.0,0.0,0.0,0.0,0.0,0.0,0.0,0.0,0.0,0.0,1.7802359,-1.0646509,-1.8151424,-1.1170107,1.9373155,1.1170107,-0.91629785,1.7802359,-1.0646509,-1.8151424,-1.1170107,1.9373155,1.1170107,-0.91629785,0.0,0.0,0.0,0.0,0.0,0.0,0.0,3.1122856,-0.3416233,0.20126829,-4.066866,-0.3908681,4.753534,0.5304146,-0.45449638,0.693097,0.5745483,0.17512383,0.15255436,0.7848268,0.0,0.0,0.0,1.0,0.0,0.0,0.0,0.0,0.0,0.0,-3.7622857,-0.0583767,0.34873173,0.0,0.0,0.0,0.0,0.0,0.0,0.0
0.0,0.0,0.0,0.0,0.0,0.0,0.0,0.0,0.0,0.0,0.0,0.0,0.0,0.0,1.7802359,-1.0646509,-1.8151424,-1.1170107,1.9373155,1.1170107,-0.91629785,1.7802359,-1.0646509,-1.8151424,-1.1170107,1.9373155,1.1170107,-0.91629785,0.0,0.0,0.0,0.0,0.0,0.0,0.0,3.1122856,-0.3416233,0.20126829,-4.066866,-0.3908681,4.753534,0.5304146,-0.45449638,0.693097,0.5745483,0.17512383,0.15255436,0.7848268,0.0,0.0,0.0,1.0,0.0,0.0,0.0,0.0,0.0,0.0,-3.7622857,-0.0583767,0.34873173,0.0,0.0,0.0,0.0,0.0,0.0,0.0
0.0,0.0,0.0,0.0,0.0,0.0,0.0,0.0,0.0,0.0,0.0,0.0,0.0,0.0,1.7802359,-1.0646509,-1.8151424,-1.1170107,1.9373155,1.1170107,-0.91629785,1.7802359,-1.0646509,-1.8151424,-1.1170107,1.9373155,1.1170107,-0.91629785,0.0,0.0,0.0,0.0,0.0,0.0,0.0,3.1122856,-0.3416233,0.20126829,-4.066866,-0.3908681,4.753534,0.5304146,-0.45449638,0.693097,0.5745483,0.17512383,0.15255436,0.7848268,0.0,0.0,0.0,1.0,0.0,0.0,0.0,0.0,0.0,0.0,-3.7622857,-0.0583767,0.34873173,0.0,0.0,0.0,0.0,0.0,0.0,0.0
-176.0,63.684654,-8.380093,110.0,9.639238,4.441718,-4.0375443,-0.78798276,0.32464373,-0.5675884,0.7321863,-0.21064544,0.6761611,-0.5505783,1.7014376,-1.0321865,-1.8719013,-1.0437921,1.916251,1.1846268,-0.9713557,1.7788702,-1.0625776,-1.8208835,-1.1115347,1.9400868,1.1218954,-0.9170894,-0.18178791,0.27563554,-0.7652347,0.73066914,0.36888558,0.6499291,-0.10530414,3.0716476,-0.34552956,0.24803151,-4.0628,-0.3904773,4.650595,0.5283108,-0.45770836,0.6939087,0.5784325,0.17343104,0.15191483,0.78247005,-0.280339,-0.42877865,0.10790477,1.0,0.0,0.0,0.0,0.0,0.0,0.0,-3.7216477,-0.05447045,0.30196851,-18.088457,27.369812,-76.413376,73.18136,36.725414,64.57641,-10.45029
-176.0,-25.323586,-43.58856,106.60249,10.176621,1.336127,-3.5140278,-0.80217385,-0.1397747,-0.58110857,0.70993197,-0.20143475,0.6550348,-0.5784147,1.6986529,-1.0765551,-1.8789943,-1.0405415,1.9199433,1.1873989,-0.9749309,1.7769953,-1.0599397,-1.8356159,-1.0965143,1.9445119,1.134236,-0.9164066,-0.18705781,0.25793877,-1.7104225,1.7625312,0.4678743,1.424209,0.12779886,3.0310497,-0.349432,0.2937661,-4.058738,-0.39008692,4.5477595,0.52368355,-0.46588326,0.69473207,0.58694226,0.16951421,0.15051384,0.7772446,-0.52479637,-0.9459184,0.07457627,1.0,0.0,0.0,0.0,0.0,0.0,0.0,-3.6810498,-0.050568014,0.2562339,0.18831193,-2.3298323,-94.92338,104.17152,10.195255,76.02666,23.799347
-152.56224,72.8354,12.240805,81.24163,6.6229544,5.5273695,-2.0578933,-0.75074285,0.1524066,-0.095293924,0.6452562,-0.18191479,0.66445637,-0.4986248,1.701921,-1.0446991,-1.8451452,-1.0319887,1.9263204,1.2006816,-0.9662691,1.7719694,-1.0572313,-1.8515861,-1.077273,1.9479947,1.1483942,-0.9154205,-0.6071899,0.27252167,-1.5544009,1.9796826,0.304088,1.4085126,0.08822923,2.9904938,-0.3533306,0.33847314,-4.0546803,-0.3896969,4.445027,0.5164242,-0.47693062,0.6964303,0.59835124,0.1642393,0.14891137,0.76995236,-0.800206,-1.1506085,0.20561112,1.0,0.0,0.0,0.0,0.0,0.0,0.0,-3.6404939,-0.046669394,0.21152687,-41.881092,0.6523013,17.048502,22.276545,-17.723572,-2.918005,-4.1337132
-95.60808,81.391815,27.44753,47.755604,4.088397,5.9111633,-0.38992983,-0.77114624,0.036540296,0.02843244,0.6328441,-0.096962415,0.6396832,-0.51078045,1.6948549,-1.0535773,-1.8487428,-1.0139886,1.9382985,1.2123625,-0.9664985,1.7627646,-1.0550569,-1.8630283,-1.0584418,1.9497266,1.1616198,-0.9149932,-1.0259513,0.19727722,-1.001026,1.8516629,0.12366134,1.2911531,0.026971882,2.9499779,-0.35722542,0.3821536,-4.0506263,-0.3893073,4.3423963,0.50686646,-0.48880005,0.6993318,0.6106833,0.15806928,0.14679992,0.761925,-1.0183012,-1.1872809,0.32304472,1.0,0.0,0.0,0.0,0.0,0.0,0.0,-3.599978,-0.042774588,0.16784641,-42.114426,-8.096057,57.31759,-12.574911,-19.823107,-12.564063,-6.3138156
-43.015766,108.199875,41.134148,26.037027,1.6797814,5.700227,0.28870618,-0.79150116,0.17396617,-0.012045535,0.6428443,-0.038579818,0.63830733,-0.48905477,1.6836145,-1.0376604,-1.8642329,-0.9941573,1.9458686,1.2254505,-0.9638987,1.750096,-1.0530027,-1.8688133,-1.0419699,1.9500394,1.1734968,-0.9151973,-1.3485959,0.20664921,-0.4316535,1.5786233,-0.00470965,1.1516025,-0.03723961,2.909502,-0.3611164,0.42480853,-4.0465765,-0.38891804,4.2398686,0.49568367,-0.5001316,0.7034615,0.6227922,0.15115108,0.14420699,0.7539812,-1.1624634,-1.102534,0.44553983,1.0,0.0,0.0,0.0,0.0,0.0,0.0,-3.5595021,-0.038883597,0.12519148,-32.64816,0.483346,58.719467,-27.430773,-14.385301,-14.444971,-6.705703
-6.720667,127.64147,46.256046,15.242826,-0.027105689,4.7257943,0.23827277,-0.80528075,0.3396639,-0.11306249,0.65219235,0.008892284,0.6215674,-0.5023996,1.669568,-1.0190363,-1.8801196,-0.9767507,1.9509286,1.2356536,-0.9654373,1.735232,-1.0499338,-1.8705928,-1.0280806,1.9496045,1.184075,-0.9159984,-1.5335153,0.33904037,-0.08912833,1.3246944,-0.05987705,1.0257801,-0.09551506,2.8690662,-0.3650036,0.46643898,-4.042531,-0.3885292,4.137443,0.48358917,-0.5102215,0.7087969,0.6343985,0.14366613,0.14171574,0.74620044,-1.2355083,-0.9647024,0.5632414,1.0,0.0,0.0,0.0,0.0,0.0,0.0,-3.5190663,-0.03499642,0.08356103,-18.869377,12.860287,35.51663,-25.628996,-6.545794,-12.838721,-6.166053
12.938585,141.25867,47.063248,11.819811,-0.838019,3.687345,-0.029889818,-0.8183263,0.52065605,-0.24143332,0.630413,0.19358963,0.595095,-0.48841882,1.6533993,-0.9978682,-1.8947362,-0.96503925,1.9689635,1.2435845,-0.9648403,1.7193686,-1.0446581,-1.8710544,-1.016215,1.9494901,1.1935221,-0.9173059,-1.6052262,0.58932835,-0.028804082,1.1396968,0.0025048675,0.9169832,-0.14369445,2.8286705,-0.36888504,0.5070459,-4.0384893,-0.38814077,4.0351205,0.4711151,-0.51885605,0.7152732,0.6456371,0.1358996,0.13991901,0.73831344,-1.2590253,-0.8175318,0.6752257,1.0,0.0,0.0,0.0,0.0,0.0,0.0,-3.4786706,-0.031114966,0.042954087,-7.535982,24.70649,6.9023438,-18.740082,5.6012077,-11.057425,-5.1677732
25.33194,142.13824,46.38215,10.149127,-0.8718114,3.0074956,-0.0768967,-0.8167733,0.616116,-0.21589272,0.6043468,0.36889845,0.58457774,-0.49622363,1.6376913,-0.9830465,-1.8926437,-0.95578027,1.9863799,1.2519798,-0.96692824,1.7033716,-1.0366949,-1.8718517,-1.0056444,1.9506917,1.202006,-0.91903776,-1.5989355,0.86432046,-0.09427538,1.0287241,0.15777037,0.82486457,-0.18405288,2.7883167,-0.37276268,0.54663044,-4.0344515,-0.3877527,3.9329004,0.4586029,-0.5260925,0.7228439,0.6566205,0.12802772,0.13888697,0.7301841,-1.2553264,-0.67892283,0.78366315,1.0,0.0,0.0,0.0,0.0,0.0,0.0,-3.4383168,-0.027237326,0.0033695698,0.28338432,27.232992,-5.834442,-11.3451,15.069389,-9.435427,-4.3604045
35.354153,137.66328,46.63887,7.904499,-0.7778843,2.8322687,0.07492141,-0.80597246,0.6779683,-0.09572196,0.5623045,0.4273928,0.61505973,-0.5064945,1.6227744,-0.96889806,-1.8814238,-0.949414,1.993431,1.2635119,-0.9696872,1.6877524,-1.0262693,-1.8730857,-0.9958502,1.9535565,1.2097079,-0.92112726,-1.5507284,1.1011411,-0.13080458,0.96214795,0.32823223,0.7511636,-0.21838722,2.748003,-0.3766365,0.58519346,-4.0304174,-0.38736504,3.8307827,0.44621468,-0.5319443,0.731506,0.66729003,0.119974256,0.13832985,0.72193843,-1.2384098,-0.5405831,0.8931403,1.0,0.0,0.0,0.0,0.0,0.0,0.0,-3.398003,-0.0233635,-0.035193443,4.4937134,23.457504,-2.9453397,-6.9211006,16.66441,-7.6400995,-3.7614675
35.9097,124.33877,43.463707,7.840582,-0.38754225,2.6406746,0.17385055,-0.7933251,0.7151507,-0.015589899,0.562965,0.4544887,0.6320141,-0.4979259,1.6084199,-0.95475423,-1.8746448,-0.93955374,1.9990054,1.2729093,-0.97091985,1.6727129,-1.0140051,-1.8742244,-0.9863764,1.9579358,1.216786,-0.92350954,-1.4894054,1.2675375,-0.10590388,0.94164175,0.47354153,0.69244117,-0.24591279,2.7077293,-0.38050652,0.6227361,-4.026388,-0.38697776,3.728767,0.43398094,-0.536541,0.74118906,0.67758983,0.111597806,0.13787694,0.71372813,-1.222204,-0.4177529,0.9927636,1.0,0.0,0.0,0.0,0.0,0.0,0.0,-3.3577294,-0.01949349,-0.072736084,5.8593035,16.455412,3.1563342,-2.2813082,14.234888,-6.161511,-3.077817
30.29583,104.69896,36.977806,7.9976087,0.010616779,2.2636564,0.22055909,-0.7856331,0.7323323,0.026843727,0.5592708,0.4812658,0.64488715,-0.4946085,1.5941496,-0.9407718,-1.8715401,-0.9304493,2.0060625,1.2812748,-0.97297037,1.6582266,-1.0006422,-1.8748043,-0.9769207,1.9635034,1.2233702,-0.9261264,-1.4359021,1.3589154,-0.039954077,0.94629866,0.5838194,0.6463457,-0.26805526,2.6674957,-0.3843727,0.6592593,-4.0223627,-0.38659087,3.6268532,0.42185974,-0.54009056,0.75167376,0.687506,0.10286458,0.1372386,0.70563436,-1.2119795,-0.31896544,1.0663646,1.0,0.0,0.0,0.0,0.0,0.0,0.0,-3.3174958,-0.015627295,-0.10925931,5.136609,8.996415,7.185031,0.26504993,10.815406,-4.858339,-2.5327742
22.937561,86.725784,30.346298,8.395459,0.30272532,1.8738644,0.21822515,-0.7779247,0.74201906,0.060992774,0.56102043,0.49587706,0.6485045,-0.48417664,1.5804341,-0.9264403,-1.868705,-0.9208187,2.013091,1.2882206,-0.9745441,1.6441618,-0.98679954,-1.8745925,-0.96732485,1.9699025,1.2295653,-0.9289264,-1.3974205,1.3923495,0.043260284,0.96339774,0.6581599,0.6099609,-0.2849836,2.6273022,-0.3882351,0.6947642,-4.018341,-0.38620436,3.5250413,0.4097805,-0.5428257,0.7626928,0.6970565,0.093816884,0.13626762,0.69766873,-1.208565,-0.24297152,1.1124748,1.0,0.0,0.0,0.0,0.0,0.0,0.0,-3.2773023,-0.011764914,-0.14476418,3.6800623,3.2375574,8.8378105,1.5225172,7.285595,-3.8243055,-2.0017862
15.713421,76.03238,25.993795,9.684114,0.54062724,1.6892341,0.18493053,-0.77794796,0.7521474,0.11043404,0.5683434,0.50724745,0.65308857,-0.48000702,1.566367,-0.9115848,-1.8635491,-0.9104905,2.0206273,1.2948741,-0.9769271,1.6303355,-0.97286254,-1.8734653,-0.9575182,1.9768319,1.2354532,-0.93186754,-1.3780845,1.3938478,0.13743292,0.9858404,0.7040574,0.58127487,-0.29808083,2.5871487,-0.39209366,0.72925174,-4.014323,-0.38581824,3.4233313,0.39766693,-0.54491615,0.7740557,0.7062786,0.08448762,0.13491386,0.6898047,-1.2140282,-0.18215631,1.1423835,1.0,0.0,0.0,0.0,0.0,0.0,0.0,-3.2371488,-0.0079063475,-0.17925173,1.7883778,0.06234646,9.896056,2.0699859,4.471171,-3.0210853,-1.6035914
11.447783,65.89592,21.489645,8.998816,0.5237186,1.3446982,0.17224771,-0.77505946,0.7509106,0.12019672,0.5529745,0.53457665,0.6527548,-0.4765048,1.5528295,-0.8977715,-1.8614457,-0.9022208,2.0302896,1.3007287,-0.979518,1.6166064,-0.95904094,-1.8715618,-0.94759715,1.9841294,1.241099,-0.93491644,-1.3715873,1.3780336,0.20941894,0.99360347,0.7379956,0.5587841,-0.30809456,2.5470352,-0.3959484,0.7627229,-4.0103097,-0.3854325,3.3217227,0.38549423,-0.5464859,0.7855519,0.71518546,0.0749857,0.13322231,0.6820107,-1.2195841,-0.13230573,1.1498007,1.0,0.0,0.0,0.0,0.0,0.0,0.0,-3.1970353,-0.004051596,-0.2127229,0.51546097,-1.6440153,7.6199503,0.58522224,3.3162475,-2.3227096,-1.2766182
9.909044,62.563633,19.56987,8.631672,0.40604854,1.177642,0.1480445,-0.7712372,0.7560445,0.14103879,0.54870266,0.53849274,0.6569518,-0.47579724,1.5394826,-0.8834365,-1.8574579,-0.8927269,2.0379786,1.3067942,-0.98249614,1.6028982,-0.94537765,-1.8690822,-0.93767416,1.9916673,1.2465559,-0.93804926,-1.3710287,1.3622282,0.26208997,0.9912823,0.7588611,0.54148406,-0.31593585,2.5069618,-0.39979935,0.7951788,-4.0063004,-0.38504714,3.220216,0.37327766,-0.5475712,0.79705024,0.7237866,0.065385535,0.13130252,0.67425317,-1.2228564,-0.084596105,1.1471453,1.0,0.0,0.0,0.0,0.0,0.0,0.0,-3.156962,-0.00020065904,-0.24517876,-0.076675415,-1.6331434,5.6593895,-0.42711496,2.0311713,-1.7561913,-1.0451794
8.077805,62.53525,18.63651,9.13143,0.33184582,1.0975428,0.10065378,-0.77619934,0.7667033,0.14641155,0.54558206,0.5514146,0.658854,-0.467029,1.5252783,-0.8687073,-1.854441,-0.88311595,2.0468087,1.3124413,-0.9847522,1.5891463,-0.93179256,-1.8662555,-0.92781794,1.9993768,1.2518698,-0.94124216,-1.3770229,1.3571438,0.29072446,0.9830607,0.7747517,0.5279206,-0.3212287,2.4669285,-0.40364647,0.82662034,-4.002295,-0.38466218,3.1188107,0.3610344,-0.54818726,0.80849695,0.7321097,0.05572465,0.12928101,0.66648066,-1.2255768,-0.037524052,1.1408277,1.0,0.0,0.0,0.0,0.0,0.0,0.0,-3.1169286,0.0036464632,-0.27662033,-0.7367134,-0.5591631,3.2337725,-1.0117292,1.5509367,-1.3668537,-0.77245235
7.8782725,61.510395,17.567327,9.294948,0.19559091,0.9477787,0.032506067,-0.76574224,0.76663816,0.1313699,0.56126523,0.5302451,0.67074674,-0.45311385,1.512572,-0.85512877,-1.8531185,-0.8716914,2.0524013,1.3189445,-0.98655355,1.575379,-0.91821605,-1.8633659,-0.91797125,2.007132,1.2570769,-0.94446844,-1.377122,1.3576136,0.28936836,0.9846107,0.7756748,0.5183906,-0.32382682,2.4269352,-0.40748978,0.85704863,-3.9982934,-0.38427758,3.0175066,0.3487854,-0.54833794,0.8198539,0.74020064,0.046025135,0.12731038,0.6586172,-1.2241418,0.00801008,1.1305952,1.0,0.0,0.0,0.0,0.0,0.0,0.0,-3.0769353,0.0074897707,-0.30704862,-0.13780594,0.0016212463,0.19199848,-0.031018257,0.07747412,-0.9433627,-0.48887134
7.317553,59.522846,16.177038,8.808462,0.066360354,0.7722715,0.0061713792,-0.77210677,0.7703341,0.10837484,0.5424226,0.5378967,0.6713064,-0.45371422,1.4981683,-0.84118265,-1.8525285,-0.863729,2.0609217,1.3242075,-0.98983985,1.5615908,-0.9045976,-1.8606899,-0.90818083,2.0148835,1.2622057,-0.94771475,-1.3797268,1.3631965,0.26126644,0.97659284,0.7750322,0.5112188,-0.32553944,2.386982,-0.41132927,0.8864646,-3.994296,-0.3838934,2.916304,0.33658218,-0.548048,0.8310541,0.7480854,0.036349528,0.12551273,0.6506101,-1.218423,0.051546127,1.1130543,1.0,0.0,0.0,0.0,0.0,0.0,0.0,-3.036982,0.011329263,-0.33646458,-0.3946066,0.5195856,-2.5051653,-1.0004878,-0.061392784,-0.6774783,-0.3891468
9.618976,60.29148,16.512638,7.7067776,-0.063537,0.7272862,0.060566206,-0.7723837,0.7737588,0.12088791,0.5191603,0.5460548,0.6641515,-0.454116,1.4843525,-0.8272217,-1.8486011,-0.8562648,2.069489,1.3286209,-0.99312633,1.5477797,-0.8909047,-1.8582523,-0.89857733,2.0226426,1.2672697,-0.9509744,-1.3820655,1.3712125,0.23909652,0.954308,0.776245,0.5049901,-0.326915,2.3470688,-0.41516495,0.9148693,-3.9903026,-0.38350958,2.8152027,0.32447815,-0.5472927,0.84207314,0.7557292,0.02672458,0.12391872,0.6424976,-1.206774,0.09949883,1.0946915,1.0,0.0,0.0,0.0,0.0,0.0,0.0,-2.997069,0.015164942,-0.3648693,-0.3774643,0.7622242,-1.8810809,-2.433288,0.11079311,-0.5669117,-0.3638208
13.558849,60.396793,16.814163,5.596335,-0.28069937,0.6342524,0.14910041,-0.76717776,0.7760175,0.12185838,0.48422864,0.5475207,0.6692946,-0.44847277,1.471062,-0.813303,-1.8460665,-0.85015446,2.0773947,1.3341992,-0.99582165,1.5339743,-0.87713176,-1.855973,-0.88934577,2.0304208,1.272286,-0.9542417,-1.3804723,1.3792167,0.22528382,0.9120643,0.77804315,0.50077677,-0.32756165,2.3071957,-0.4189968,0.9422638,-3.986313,-0.38312614,2.7142024,0.31255913,-0.5460129,0.85288525,0.76305974,0.01716753,0.122527614,0.6343753,-1.1850765,0.15280065,1.0729642,1.0,0.0,0.0,0.0,0.0,0.0,0.0,-2.9571958,0.018996805,-0.39226377,0.010204315,0.7657051,-1.0185003,-4.438758,0.15796423,-0.32480955,-0.30115843
15.751507,59.855587,16.858007,4.09163,-0.363312,0.55405664,0.24348879,-0.77410334,0.7770821,0.13358141,0.43725252,0.5720495,0.6597718,-0.44482335,1.456564,-0.7994236,-1.8426149,-0.8456205,2.0876257,1.3382633,-0.99872404,1.5201594,-0.863293,-1.8537147,-0.88070834,2.0382867,1.2772604,-0.95751184,-1.3824825,1.3853543,0.22736536,0.84695005,0.78936696,0.49685425,-0.3277071,2.2673626,-0.42282486,0.968649,-3.9823277,-0.3827431,2.6133032,0.30090332,-0.54418373,0.8634568,0.77000284,0.00771214,0.12129504,0.6263575,-1.1572902,0.20792504,1.048122,1.0,0.0,0.0,0.0,0.0,0.0,0.0,-2.9173627,0.022824854,-0.41864902,-0.3576994,0.5863428,0.59277713,-6.731212,1.1028767,-0.26232004,-0.25360584
19.03635,60.0372,17.24039,2.344417,-0.5077145,0.4759443,0.34027088,-0.7720009,0.77966785,0.15210609,0.3855574,0.58006436,0.6595324,-0.43224996,1.4429593,-0.7853262,-1.8385041,-0.8421526,2.0962932,1.3432137,-1.0007368,1.506333,-0.8494008,-1.8513057,-0.8728663,2.046286,1.2822024,-0.96077436,-1.3833599,1.3903911,0.24665591,0.7625862,0.80335754,0.49398664,-0.32653263,2.2275696,-0.4266491,0.994026,-3.978346,-0.38236043,2.5125046,0.2895794,-0.54177284,0.8737661,0.7764838,-0.0016244028,0.12017669,0.61856925,-1.121142,0.266408,1.0213025,1.0,0.0,0.0,0.0,0.0,0.0,0.0,-2.8775697,0.026649088,-0.444026,-0.24256706,0.48501492,2.322462,-8.652258,1.3689995,-0.11591315,-0.12244582
21.21339,62.40959,18.456812,2.3765073,-0.5030583,0.52561826,0.39147624,-0.7652631,0.7809678,0.19729573,0.3608346,0.5703641,0.6614044,-0.4149848,1.4298067,-0.771304,-1.8315761,-0.8367828,2.1033225,1.3483428,-1.0022728,1.4925314,-0.8354705,-1.8484867,-0.86582625,2.054377,1.2871214,-0.9640121,-1.3795266,1.3939744,0.29486555,0.68386793,0.811042,0.49189588,-0.32361153,2.1878147,-0.4304695,1.0183958,-3.9743686,-0.38197815,2.4118068,0.2786293,-0.5387459,0.883858,0.7824575,-0.010906342,0.119118735,0.6111073,-1.0825005,0.32854742,1.0010381,1.0,0.0,0.0,0.0,0.0,0.0,0.0,-2.8378148,0.030469507,-0.46839577,0.24499893,0.34344196,5.2084565,-8.057844,0.7417679,-0.03822446,0.055003166
20.124416,60.590775,17.678432,2.5966153,-0.44838113,0.42702818,0.3949801,-0.7746285,0.7801301,0.2128401,0.31160983,0.5834214,0.65727,-0.4126366,1.4150686,-0.7574575,-1.8272027,-0.83466524,2.1127193,1.3528484,-1.0052757,1.4787279,-0.8215211,-1.8451545,-0.85959494,2.0625558,1.2920233,-0.9672193,-1.3810534,1.3952792,0.34709686,0.6023576,0.8204487,0.49003452,-0.32040614,2.1481018,-0.43428612,1.0417593,-3.970395,-0.38159624,2.3112097,0.26806068,-0.53512573,0.8937336,0.7879253,-0.020141024,0.118091635,0.6040052,-1.043993,0.38602763,0.9786632,1.0,0.0,0.0,0.0,0.0,0.0,0.0,-2.798102,0.03428611,-0.49175924,-0.28185844,0.12700558,5.569017,-8.323944,0.938189,0.0036001205,0.10436773
25.723946,61.331566,18.263203,-0.94503736,-0.79935896,0.2809272,0.5462701,-0.77036965,0.7889832,0.25735322,0.20226276,0.6059109,0.6556539,-0.4010187,1.401691,-0.7426228,-1.8194191,-0.83936864,2.1231468,1.3575886,-1.0073211,1.4649245,-0.80752593,-1.8412006,-0.8544804,2.0708795,1.2969099,-0.97038835,-1.380698,1.4008884,0.4127355,0.4807319,0.8363374,0.48914197,-0.3163378,2.108427,-0.4380989,1.0641176,-3.9664254,-0.38121474,2.2107131,0.2579937,-0.53087807,0.9033405,0.7928021,-0.029266285,0.117094874,0.59740853,-0.98935676,0.44998822,0.95002276,1.0,0.0,0.0,0.0,0.0,0.0,0.0,-2.7584271,0.0380989,-0.51411754,-0.084877014,0.56803226,6.904042,-12.320447,1.5919566,0.18140078,0.20079613
35.92344,59.30465,18.330067,-8.514101,-1.5433675,-0.06897789,0.8267793,-0.7631321,0.7878027,0.31616524,0.030255293,0.6044737,0.65212524,-0.36436507,1.3886112,-0.72874564,-1.809584,-0.85145485,2.131327,1.3621224,-1.0068249,1.4511591,-0.79348403,-1.8364494,-0.85117495,2.0793405,1.3017946,-0.9734916,-1.3754804,1.4052868,0.4969305,0.2800936,0.84927326,0.48981094,-0.30891138,2.0687923,-0.44190788,1.0854716,-3.9624598,-0.3808336,2.1103172,0.24871063,-0.52591896,0.9125231,0.7968931,-0.038124807,0.116187364,0.5916149,-0.902192,0.5221856,0.90267736,1.0,0.0,0.0,0.0,0.0,0.0,0.0,-2.7187924,0.041907877,-0.5354716,0.42834282,0.46634674,8.735907,-20.203709,1.3053417,0.5047023,0.5558729
50.93969,57.189987,18.58018,-19.637005,-2.6420608,-0.596614,1.2212334,-0.74582136,0.79434353,0.3743295,-0.21510112,0.62354124,0.64381635,-0.32136256,1.376577,-0.7140497,-1.7990165,-0.8726851,2.1416945,1.3661762,-1.0056279,1.4375311,-0.7793792,-1.8307502,-0.85072863,2.0879579,1.3066927,-0.9764909,-1.3587437,1.4123996,0.5949242,-0.034198515,0.86597747,0.49204278,-0.29734227,2.0291977,-0.44571304,1.1058224,-3.9584982,-0.38045284,2.0100214,0.24065971,-0.52015114,0.9210344,0.799918,-0.046446614,0.11547854,0.5870592,-0.7666895,0.60478973,0.82866204,1.0,0.0,0.0,0.0,0.0,0.0,0.0,-2.6791978,0.045713037,-0.55582243,1.6498327,0.7606745,10.037494,-31.509478,1.7033577,0.8782387,1.0188639
55.080933,56.32908,18.527468,-22.377937,-2.908821,-0.8686273,1.3454996,-0.72661537,0.79892933,0.42332247,-0.34540218,0.6279933,0.6351504,-0.18610157,1.3648696,-0.69948626,-1.7884179,-0.88526887,2.150757,1.3702078,-0.9951011,1.4241549,-0.76519233,-1.8240631,-0.8535572,2.0967317,1.3116099,-0.9792766,-1.3302829,1.4210097,0.69351435,-0.3655967,0.8815867,0.49391764,-0.27255395,1.9896412,-0.4495144,1.1251712,-3.9545405,-0.38007247,1.9098258,0.23406792,-0.51356506,0.92877007,0.8017504,-0.0540937,0.115033254,0.583984,-0.61624026,0.68411106,0.7496892,1.0,0.0,0.0,0.0,0.0,0.0,0.0,-2.6396413,0.049514383,-0.5751712,2.927184,0.9370804,9.886122,-33.120575,1.6923666,0.8892715,2.418685
40.23028,54.66704,16.830765,-11.953537,-1.8729554,-0.72271407,1.0207286,-0.7281274,0.79999816,0.4363468,-0.32057667,0.6163176,0.62467515,0.050349317,1.3513421,-0.6851925,-1.7804284,-0.8856149,2.1583633,1.3740773,-0.9742417,1.4110209,-0.7509292,-1.8165863,-0.85883105,2.1056008,1.316527,-0.98164743,-1.3073539,1.4283893,0.7650506,-0.58125514,0.8894668,0.49296433,-0.22530213,1.9501266,-0.45331192,1.1435187,-3.9505866,-0.37969247,1.8097303,0.22866821,-0.50634766,0.93588877,0.8025959,-0.06119376,0.114831366,0.5821587,-0.506672,0.7404117,0.6933046,1.0,0.0,0.0,0.0,0.0,0.0,0.0,-2.6001267,0.053311914,-0.5935187,2.3954391,0.844574,6.980288,-21.533035,1.0531306,0.4453063,4.710621
19.871523,48.860252,13.381431,1.1214476,-0.5490515,-0.5295434,0.55063736,-0.7406815,0.7912627,0.42603204,-0.2848811,0.5973038,0.63015527,0.22548085,1.3369527,-0.6718029,-1.773983,-0.88731915,2.1653311,1.3795426,-0.95909935,1.397988,-0.7366536,-1.8087051,-0.86523974,2.1144586,1.3214289,-0.98343843,-1.3018223,1.4276433,0.79510075,-0.6609198,0.8859464,0.49045008,-0.16379671,1.9106503,-0.45710564,1.1608659,-3.946637,-0.37931287,1.7097349,0.22395706,-0.4987831,0.94261163,0.8028333,-0.067956746,0.11483675,0.58107907,-0.45190018,0.7665436,0.65905744,1.0,0.0,0.0,0.0,0.0,0.0,0.0,-2.5606503,0.05710563,-0.6108659,0.581336,0.05247593,2.7864218,-8.028674,-0.02759695,0.10378361,6.123191
-1.599864,45.998436,10.924544,16.746845,0.92431533,-0.12122714,-0.014327399,-0.74802583,0.7878648,0.40741217,-0.15075664,0.5435548,0.6411163,0.39088288,1.3231853,-0.65786713,-1.7679639,-0.8803154,2.168814,1.3855405,-0.9443501,1.3849055,-0.722421,-1.8008182,-0.87118113,2.1231065,1.3263041,-0.98453707,-1.3105472,1.4222854,0.7859793,-0.57251793,0.85879177,0.48705453,-0.09211401,1.871212,-0.46089554,1.177214,-3.942691,-0.37893364,1.6098396,0.21931267,-0.49113846,0.9492425,0.8029116,-0.074707024,0.11501341,0.58010656,-0.46026373,0.76787066,0.65809065,1.0,0.0,0.0,0.0,0.0,0.0,0.0,-2.521212,0.060895532,-0.627214,-0.9632826,-0.39043427,-1.1202335,8.64315,-2.3374438,-0.18273592,7.093398
-29.82952,41.33905,7.463537,37.83654,2.9421687,0.47221574,-0.8203234,-0.76839864,0.77424204,0.33994886,0.15469344,0.47614792,0.6564663,0.46944794,1.3080657,-0.64499676,-1.7668233,-0.85571176,2.1707213,1.3919507,-0.93759227,1.3716074,-0.7083085,-1.7934444,-0.8745171,2.1312852,1.3311449,-0.98492426,-1.3370373,1.4080738,0.72073144,-0.25513017,0.8056191,0.482685,-0.021297755,1.8318157,-0.46468163,1.1925639,-3.938749,-0.37855476,1.5100441,0.21393967,-0.48372078,0.9562012,0.80343044,-0.08192423,0.1152917,0.57835615,-0.55513394,0.737483,0.7020981,1.0,0.0,0.0,0.0,0.0,0.0,0.0,-2.4818158,0.06468162,-0.6425639,-2.8891325,-1.2663364,-6.7142963,31.378096,-4.878056,-0.5520344,6.9468455
-39.254982,35.78908,5.2984486,44.71068,3.4997544,0.6523603,-1.1295238,-0.7769802,0.74506605,0.31415984,0.31596738,0.3370336,0.67051405,0.5385275,1.2939094,-0.63380194,-1.7620285,-0.84292036,2.1649885,1.3981963,-0.9310715,1.3580195,-0.694465,-1.7868469,-0.874045,2.1385598,1.3359476,-0.9846229,-1.3669858,1.3769001,0.63872916,0.14681558,0.70285505,0.47881752,0.046911947,1.7924576,-0.4684639,1.2069166,-3.934811,-0.3781763,1.4103483,0.20740509,-0.47667313,0.96368104,0.80471736,-0.08989119,0.11571755,0.57529026,-0.67790115,0.69891495,0.7570894,1.0,0.0,0.0,0.0,0.0,0.0,0.0,-2.4424577,0.06846389,-0.65691656,-3.217411,-2.9853344,-8.434618,39.84745,-9.821928,-0.6276846,6.694044
-35.26645,35.376614,5.8117685,42.096954,3.2156274,0.64586633,-1.0446831,-0.78772694,0.7306014,0.3076808,0.4137326,0.29305738,0.66393924,0.53743064,1.2792468,-0.6214048,-1.7560788,-0.83267176,2.1678655,1.4023416,-0.93087983,1.3441397,-0.68097144,-1.7809646,-0.8697735,2.1447701,1.3407103,-0.9837112,-1.3953013,1.3405441,0.5704919,0.5197599,0.59528476,0.47460827,0.10563133,1.7531376,-0.47224236,1.220273,-3.9308772,-0.3777982,1.3107522,0.19971657,-0.4699421,0.97165984,0.80675274,-0.098638125,0.11632071,0.5708676,-0.79118896,0.6712463,0.80546385,1.0,0.0,0.0,0.0,0.0,0.0,0.0,-2.4031377,0.07224235,-0.670273,-2.972722,-3.5383463,-7.0739985,37.058212,-10.341942,-0.67610145,5.7889924
-25.729874,35.815353,6.448782,34.13248,2.4254546,0.4027815,-0.79326427,-0.80464983,0.7266426,0.2636554,0.4707742,0.29119426,0.65477186,0.51289594,1.2636747,-0.6083072,-1.7545991,-0.8226961,2.1738896,1.4061874,-0.93242157,1.3299757,-0.6677907,-1.7757633,-0.8625008,2.150084,1.345431,-0.9823007,-1.423595,1.3107663,0.5026796,0.79584694,0.51142615,0.47068584,0.15263283,1.7138596,-0.476017,1.2326343,-3.926947,-0.37742046,1.2112557,0.1911335,-0.46339417,0.97995955,0.8093488,-0.10796525,0.1171407,0.56531054,-0.87298983,0.65733343,0.8321691,1.0,0.0,0.0,0.0,0.0,0.0,0.0,-2.3638597,0.07601699,-0.6826343,-2.9246092,-2.9165506,-6.955886,27.45186,-8.060324,-0.5782604,4.6417503
-11.319946,34.471584,6.658451,21.731388,1.1234401,-0.08133939,-0.4288467,-0.8016372,0.70941037,0.22069748,0.47443768,0.21254012,0.6561764,0.5067136,1.249812,-0.5968497,-1.7536936,-0.81505704,2.171338,1.4110487,-0.93162936,1.315621,-0.654898,-1.7712467,-0.8534466,2.1545434,1.3501269,-0.9804897,-1.4395335,1.28222,0.43436137,0.9414384,0.42472923,0.46922466,0.190413,1.6746197,-0.47978783,1.2440014,-3.9230208,-0.37704313,1.1118586,0.182127,-0.45690727,0.9882739,0.81223494,-0.11752808,0.11833714,0.5589792,-0.90202296,0.65586436,0.8253074,1.0,0.0,0.0,0.0,0.0,0.0,0.0,-2.3246198,0.07978782,-0.6940014,-1.6626596,-2.8182268,-6.8769336,14.42349,-8.46507,-0.15466213,3.7041397
4.3610096,34.686764,7.5812426,8.496872,-0.275294,-0.5570159,0.006479241,-0.8017847,0.6922163,0.22059087,0.41349173,0.11599998,0.658925,0.5204362,1.2354425,-0.5856764,-1.7491876,-0.81209743,2.1661434,1.4160193,-0.92844605,1.3011805,-0.6422904,-1.767226,-0.84401095,2.1580262,1.3548247,-0.9783439,-1.4456698,1.253711,0.39170998,0.94380295,0.3230919,0.4706989,0.22220777,1.6354179,-0.48355484,1.2543752,-3.9190986,-0.37666616,1.012561,0.17326546,-0.45034027,0.99627787,0.81509244,-0.1269597,0.12011391,0.5523388,-0.87308115,0.667008,0.78635615,1.0,0.0,0.0,0.0,0.0,0.0,0.0,-2.285418,0.083554834,-0.7043752,-0.6873131,-2.8308153,-4.121441,0.092470646,-10.104525,0.34667253,3.0634193
16.997496,34.45877,8.068551,-2.6102762,-1.401223,-1.0280696,0.37637457,-0.80282384,0.6784289,0.21546352,0.31504533,0.04571097,0.65596944,0.52713376,1.2208982,-0.5744475,-1.7456796,-0.81250644,2.1625974,1.4204216,-0.9256305,1.2867247,-0.62995654,-1.7634704,-0.8354813,2.1604562,1.3595454,-0.97591966,-1.4458168,1.2266431,0.37118903,0.82220054,0.21617383,0.47391844,0.24871528,1.5962563,-0.48731804,1.2637568,-3.9151804,-0.37628955,0.9133626,0.16506195,-0.4436283,1.0036949,0.8176506,-0.13591811,0.12262694,0.54583544,-0.79500526,0.68247604,0.7213358,1.0,0.0,0.0,0.0,0.0,0.0,0.0,-2.2462564,0.08731803,-0.71375674,-0.092077255,-2.6887655,-1.7723978,-12.312603,-10.744429,0.6900251,2.500996
22.867268,32.73782,7.930751,-7.805799,-1.8529766,-1.330826,0.5624901,-0.7939877,0.65389055,0.21650764,0.2532409,-0.033558734,0.66628116,0.561702,1.2073259,-0.5645675,-1.7418196,-0.8101572,2.1571002,1.4261734,-0.91974944,1.2723337,-0.6179326,-1.7597854,-0.8285557,2.1617837,1.3643099,-0.97323984,-1.437061,1.1943219,0.36869004,0.6488275,0.10453515,0.4787058,0.273878,1.5571346,-0.49107742,1.272147,-3.911266,-0.37591335,0.81426346,0.15780449,-0.43678474,1.01038,0.8197637,-0.14421272,0.12592275,0.53975326,-0.6942803,0.6935609,0.6456854,1.0,0.0,0.0,0.0,0.0,0.0,0.0,-2.2071347,0.09107742,-0.72214705,0.83560944,-3.2036066,0.030499697,-17.469204,-11.254403,0.9016454,2.3611963
22.450418,28.86964,6.5145483,-8.523536,-1.9469674,-1.5511683,0.53863096,-0.7891802,0.6299068,0.19101878,0.197869,-0.16220956,0.67100763,0.57627434,1.1934158,-0.55494195,-1.7406836,-0.8087688,2.1455626,1.4314107,-0.9156124,1.2580572,-0.60627204,-1.7561786,-0.8233849,2.1618295,1.369124,-0.9703273,-1.4243511,1.156735,0.35870302,0.4727608,-0.028817302,0.48359567,0.29663238,1.5180511,-0.494833,1.2795471,-3.9073555,-0.3755375,0.71526337,0.15159035,-0.4298954,1.0162821,0.8214436,-0.15175879,0.13007256,0.5341167,-0.589076,0.69429636,0.56689644,1.0,0.0,0.0,0.0,0.0,0.0,0.0,-2.1680512,0.09483299,-0.7295471,1.27213,-3.7155867,-0.8021295,-17.718864,-13.401163,0.9050071,2.132243
20.926067,26.258741,5.282262,-8.213369,-1.8804908,-1.7412533,0.488124,-0.784521,0.617541,0.15360104,0.10978036,-0.21934088,0.66235757,0.5740138,1.1796051,-0.54451793,-1.7408185,-0.81240684,2.1398954,1.4353598,-0.91292596,1.2439162,-0.5949643,-1.7528331,-0.81996596,2.160605,1.3739744,-0.9672155,-1.4107474,1.1223748,0.3270627,0.29793,-0.15386447,0.4866554,0.315586,1.4790058,-0.49858475,1.2859579,-3.9034488,-0.37516204,0.6163623,0.14641762,-0.423069,1.0213933,0.82275796,-0.15848348,0.1351012,0.5288667,-0.48495796,0.68432486,0.48808172,1.0,0.0,0.0,0.0,0.0,0.0,0.0,-2.129006,0.09858474,-0.7359579,1.3862848,-3.3820152,-3.0415058,-17.581112,-12.544225,0.6848395,1.760912
10.774185,20.588451,2.2458878,-1.2257633,-1.2914958,-1.795316,0.12389061,-0.78109634,0.60369366,0.037963957,0.13962188,-0.341585,0.6629013,0.5859232,1.1658065,-0.53459495,-1.7490368,-0.80600375,2.1264465,1.4402646,-0.90862316,1.2298952,-0.58396846,-1.7503307,-0.8176962,2.1580338,1.3788458,-0.9639301,-1.3990556,1.0921878,0.2247978,0.20290223,-0.29111895,0.48838073,0.3324233,1.4400005,-0.5023327,1.2913805,-3.8995461,-0.37478697,0.51756,0.14208221,-0.41645813,1.0257987,0.8239484,-0.16441177,0.14109959,0.52361107,-0.40878144,0.6573177,0.42051044,1.0,0.0,0.0,0.0,0.0,0.0,0.0,-2.0900006,0.10233268,-0.7413805,1.1899471,-2.9533863,-10.213271,-9.627951,-13.68728,0.47969818,1.5520513
-7.2674594,10.290699,-2.946956,11.283768,-0.12828884,-1.7883204,-0.5009372,-0.7903238,0.5887583,-0.16275196,0.26113203,-0.4373882,0.6604277,0.57236403,1.1508628,-0.5250926,-1.7666059,-0.791583,2.114295,1.4448886,-0.9066937,1.2159106,-0.573252,-1.749726,-0.8153511,2.1540742,1.3837267,-0.96050924,-1.3983461,1.0649991,0.0053351764,0.24434224,-0.43011132,0.48866445,0.34487712,1.4010353,-0.5060768,1.2958158,-3.8956475,-0.37441227,0.41885662,0.13810158,-0.4103012,1.0296669,0.8254485,-0.16964376,0.14817034,0.51759183,-0.38662183,0.6042345,0.37156853,1.0,0.0,0.0,0.0,0.0,0.0,0.0,-2.0510354,0.10607681,-0.7458158,0.043988228,-2.6548624,-22.024282,3.9394708,-13.763178,0.26491284,1.0932505
-11.920307,-1.6668077,-6.402286,12.389702,0.30443203,-1.9974384,-0.55485076,-0.78704625,0.5238752,-0.21714151,0.2166977,-0.5220829,0.6695796,0.58745193,1.137206,-0.5208645,-1.7714403,-0.7936814,2.101866,1.4506847,-0.90176404,1.2019202,-0.5630296,-1.751353,-0.8124987,2.1487603,1.3886153,-0.95697206,-1.3993264,1.0081412,-0.21919802,0.29817992,-0.5648819,0.48969567,0.35611263,1.3621082,-0.50981903,1.2992648,-3.8917527,-0.37403792,0.3202519,0.13423157,-0.40483284,1.0330027,0.8274104,-0.17414612,0.15622072,0.5105488,-0.37978676,0.52989626,0.3173726,1.0,0.0,0.0,0.0,0.0,0.0,0.0,-2.0121083,0.109819025,-0.7492648,-0.07812977,-5.6242704,-22.592916,5.1748514,-13.306803,0.35073757,0.9370744
-9.226042,-7.241002,-6.446641,9.452167,0.533811,-2.0624394,-0.29828525,-0.7852771,0.45277157,-0.19081664,0.15538527,-0.5554468,0.6758956,0.5812061,1.1233925,-0.5177524,-1.7704347,-0.7969602,2.0932157,1.4562048,-0.89885145,1.1879202,-0.5536359,-1.7546031,-0.80941164,2.1422868,1.3935171,-0.9533405,-1.3998946,0.91664594,-0.36099902,0.31158113,-0.67421824,0.4911667,0.36486757,1.3232193,-0.51355743,1.3017285,-3.8878617,-0.37366396,0.22174577,0.1304264,-0.40015793,1.0357502,0.8296908,-0.17788225,0.16490923,0.50276816,-0.37432432,0.4485559,0.25746882,1.0,0.0,0.0,0.0,0.0,0.0,0.0,-1.9732193,0.11355743,-0.7517285,0.0207901,-9.085107,-14.337283,1.1840761,-10.778225,0.38704276,0.6874025
-4.7462206,-4.4311028,-3.5267837,7.8136435,0.8026644,-1.847442,0.0001433529,-0.7838592,0.38869423,-0.12565197,0.13544688,-0.5869546,0.6806498,0.5879608,1.1095343,-0.51476645,-1.7671684,-0.79586697,2.0835912,1.4615821,-0.89454436,1.1739241,-0.5453275,-1.7583778,-0.80641425,2.1349053,1.3984343,-0.94962686,-1.3992592,0.80236024,-0.38352123,0.29536575,-0.75875294,0.49248496,0.37307093,1.2843685,-0.517292,1.3032078,-3.8839746,-0.3732904,0.12333813,0.12666321,-0.39621925,1.0379362,0.8320415,-0.1809624,0.17379496,0.49472693,-0.37098664,0.37725592,0.20312913,1.0,0.0,0.0,0.0,0.0,0.0,0.0,-1.9343685,0.11729202,-0.75320774,0.152874,-11.367035,-2.3667216,-1.7170489,-8.352243,0.31747222,0.66934824
-2.7306557,-9.10114,-3.2752466,5.958083,1.1632719,-1.8514618,0.22097287,-0.77692413,0.2901246,-0.08527198,0.1114295,-0.5885754,0.67442334,0.5803305,1.0962317,-0.51631504,-1.766905,-0.7952713,2.076048,1.4658766,-0.8915938,1.1599718,-0.53840667,-1.7617652,-0.8037516,2.1269174,1.4033552,-0.9458446,-1.3935996,0.65550905,-0.32417643,0.25637633,-0.81162226,0.49262208,0.3795814,1.2455578,-0.5210228,1.3037038,-3.8800912,-0.37291718,0.025028877,0.12289429,-0.39302063,1.0395663,0.83428234,-0.18346892,0.18242969,0.4868587,-0.37412307,0.30115566,0.14760388,1.0,0.0,0.0,0.0,0.0,0.0,0.0,-1.8955578,0.12102279,-0.7537038,0.6906271,-14.620197,5.801952,-3.949803,-5.2024126,0.16018152,0.5391598
-7.928154,-33.251537,-8.344939,5.952509,2.2273064,-2.089805,0.32542837,-0.7632936,0.08667092,0.027449043,0.13441151,-0.5913349,0.6725912,0.57014257,1.0836425,-0.52973956,-1.7590203,-0.79031044,2.0677838,1.4706143,-0.8888303,1.1461455,-0.53362304,-1.7638996,-0.80134547,2.1185899,1.4082743,-0.9420108,-1.3784317,0.41955417,-0.1775258,0.23543279,-0.83954465,0.49199328,0.38443375,1.2067871,-0.52474976,1.3032175,-3.876212,-0.37254432,-0.07318209,0.11884117,-0.39084435,1.0405787,0.83635485,-0.18547833,0.19017786,0.47952124,-0.4122217,0.19072457,0.084240966,1.0,0.0,0.0,0.0,0.0,0.0,0.0,-1.8567871,0.12474975,-0.7532175,1.7533779,-23.523962,14.383679,-2.0912976,-2.6435018,0.044584274,0.4262328
-19.80069,-81.55546,-21.046509,4.181305,3.4939284,-2.8904302,0.32919073,-0.7481937,-0.21193147,0.105848484,0.13651395,-0.58632165,0.68261236,0.5517682,1.0713261,-0.5548162,-1.7533147,-0.7876941,2.0599577,1.4765356,-0.886834,1.1325384,-0.5322345,-1.7643135,-0.7990471,2.1101289,1.4131895,-0.93814844,-1.3535192,0.045659706,0.002195903,0.228075,-0.8473568,0.49140352,0.38683486,1.1680546,-0.5284729,1.3017497,-3.8723366,-0.37217185,-0.17129487,0.11403465,-0.39034843,1.0407223,0.8383672,-0.18686341,0.19631395,0.47295162,-0.5006386,0.004093111,-0.009915989,1.0,0.0,0.0,0.0,0.0,0.0,0.0,-1.8180546,0.1284729,-0.7517497,2.9114962,-37.30667,17.456415,-0.67800283,-0.51664114,-0.045067072,0.21804571
-19.624252,-100.214424,-25.680725,-1.0044643,3.4673493,-3.3322499,0.4678697,-0.69939196,-0.41660625,0.18328854,0.066597834,-0.609428,0.6785063,0.51683056,1.0625992,-0.5738951,-1.7459846,-0.7923873,2.049186,1.4810401,-0.8864654,1.1193758,-0.534983,-1.7628944,-0.7970816,2.1015916,1.4180857,-0.9342908,-1.3024002,-0.38154092,0.18691786,0.18632154,-0.8556163,0.48819986,0.3855411,1.1293602,-0.53219223,1.2993015,-3.8684652,-0.37179977,-0.26930955,0.108335495,-0.39193344,1.0397536,0.8403645,-0.18744269,0.20048518,0.46739528,-0.59184927,-0.21126291,-0.1263967,1.0,0.0,0.0,0.0,0.0,0.0,0.0,-1.7793602,0.13219222,-0.7493015,5.5425406,-42.65708,18.006874,-4.086566,-0.6262064,-0.5334616,-0.09828806
-7.606843,-88.760735,-22.318447,-9.745857,2.1743696,-3.3885038,0.754387,-0.63999194,-0.54935926,0.24693176,-0.09097967,-0.6403684,0.6883482,0.46557057,1.0553766,-0.5899189,-1.7382013,-0.8061796,2.0375547,1.4869205,-0.88773376,1.1069342,-0.5417388,-1.7597644,-0.7962462,2.0928903,1.4229437,-0.9304876,-1.2240031,-0.77354276,0.35483783,0.049309704,-0.8748047,0.48347044,0.37860712,1.090704,-0.53590775,1.2958739,-3.8645976,-0.37142804,-0.36722624,0.10209465,-0.3955555,1.0374953,0.84223753,-0.18702915,0.20284382,0.46315253,-0.63576037,-0.40980276,-0.25927785,1.0,0.0,0.0,0.0,0.0,0.0,0.0,-1.7407039,0.13590774,-0.74587387,8.052349,-39.204372,16.695517,-13.66846,-1.9410372,-0.9472966,-0.67097545
12.877106,-64.328835,-15.268686,-23.485033,0.11271127,-3.3451424,1.2658035,-0.58549815,-0.6662211,0.3434801,-0.38097227,-0.6389157,0.68713295,0.402357,1.0483844,-0.6083609,-1.7254164,-0.8343434,2.0289986,1.491657,-0.8902519,1.0953985,-0.55188113,-1.7549579,-0.79806197,2.0840058,1.4277426,-0.9268064,-1.1306777,-1.094882,0.52403194,-0.25900635,-0.8941702,0.4762141,0.36435863,1.0520859,-0.53961945,1.2914679,-3.8607337,-0.37105668,-0.46504503,0.096040726,-0.40091133,1.0337464,0.8437103,-0.18535917,0.20375678,0.46073633,-0.59786916,-0.5745053,-0.41407573,1.0,0.0,0.0,0.0,0.0,0.0,0.0,-1.7020859,0.13961944,-0.7414679,9.186554,-32.248833,17.33625,-30.971754,-2.2411108,-1.472348,-1.5013814
24.995672,-13.964902,-1.2786177,-21.303003,-0.8853838,-2.2572372,1.3377444,-0.5684485,-0.68247926,0.46746767,-0.4830166,-0.67498064,0.69635075,0.3854309,1.0385537,-0.62012905,-1.7082112,-0.8463636,2.0165079,1.4973776,-0.8882633,1.0846812,-0.56426364,-1.7483299,-0.80314314,2.0748544,1.4324862,-0.923273,-1.0528281,-1.2865443,0.71031266,-0.5916379,-0.9235348,0.4715327,0.3495266,1.0135059,-0.54332733,1.2860845,-3.8568738,-0.3706857,-0.56276613,0.09069824,-0.40727234,1.0287151,0.84455734,-0.18265,0.20371746,0.4602837,-0.51671576,-0.65204966,-0.5338179,1.0,0.0,0.0,0.0,0.0,0.0,0.0,-1.6635059,0.14332733,-0.7360845,7.5479507,-19.323944,18.997204,-33.415264,-3.2506824,-1.1083245,-1.5104473
22.662971,17.438786,6.227169,-11.0328045,-0.750886,-1.4434803,0.96293044,-0.5389714,-0.7199715,0.45148253,-0.49107164,-0.6782121,0.69856775,0.34650373,1.030784,-0.6362608,-1.7031816,-0.85225034,2.007033,1.5023429,-0.88862264,1.0746485,-0.5778468,-1.7403724,-0.810886,2.0654435,1.437205,-0.9199018,-0.9870879,-1.3826318,0.82452554,-0.83524704,-0.94743186,0.47076648,0.3333074,0.97496605,-0.5470314,1.2797246,-3.8530176,-0.3703151,-0.6603895,0.08611679,-0.41401482,1.0228027,0.8448246,-0.17930566,0.2031651,0.4613511,-0.44201335,-0.675902,-0.6114729,1.0,0.0,0.0,0.0,0.0,0.0,0.0,-1.624966,0.1470314,-0.7297246,6.453693,-9.719253,11.454749,-24.389076,-2.5351763,-0.43385625,-1.553297
15.23163,40.39492,11.668089,2.11801,-0.05627331,-0.7244033,0.47829783,-0.5043636,-0.7337756,0.4424442,-0.4568664,-0.67864585,0.6954972,0.34237474,1.0242121,-0.6512244,-1.696128,-0.8565727,1.997579,1.5067546,-0.88566434,1.0652281,-0.591863,-1.7318084,-0.82004035,2.0558572,1.441939,-0.9166755,-0.9269345,-1.4079477,0.8660696,-0.94178164,-0.962197,0.47436625,0.3197189,0.9364662,-0.55073166,1.2723892,-3.8491652,-0.36994487,-0.75791526,0.08207321,-0.4207077,1.0164596,0.84469944,-0.17577714,0.20239948,0.46327066,-0.39532852,-0.6601602,-0.64283556,1.0,0.0,0.0,0.0,0.0,0.0,0.0,-1.5864662,0.15073165,-0.72238916,6.0367465,-2.5433302,3.863597,-10.542488,-1.4357686,0.3907323,-1.180774
8.242554,43.401398,11.017266,8.542176,0.2804188,-0.7005915,0.12281333,-0.46442673,-0.7518654,0.34987947,-0.4804592,-0.67247677,0.6836373,0.33162203,1.0187855,-0.6670495,-1.6968205,-0.8680863,1.9886096,1.5103028,-0.88351333,1.0564181,-0.60589916,-1.7236106,-0.82966864,2.0461946,1.4467093,-0.913577,-0.86551094,-1.4021742,0.80341256,-0.9692505,-0.9673268,0.47835052,0.3071346,0.89800453,-0.5544281,1.2640792,-3.8453166,-0.369575,-0.8553435,0.07835388,-0.42725563,1.0099081,0.84440833,-0.17220314,0.20166224,0.46545976,-0.36697724,-0.64578724,-0.6600084,1.0,0.0,0.0,0.0,0.0,0.0,0.0,-1.5480045,0.1544281,-0.7140792,6.1912656,0.6025076,-6.5373898,-2.5713801,-0.48024654,0.55130124,-1.0932982
2.3307722,45.787857,11.18087,13.81213,0.69203657,-0.56151915,-0.08489407,-0.4528768,-0.7529263,0.3384753,-0.47620153,-0.6804428,0.6860023,0.35184613,1.0111303,-0.6811918,-1.6897631,-0.8772888,1.9781502,1.5153095,-0.8783924,1.0481173,-0.61976844,-1.716254,-0.83917964,2.0364976,1.4515234,-0.91057295,-0.8177976,-1.381687,0.7120649,-0.94423616,-0.9706677,0.48328516,0.2986719,0.859581,-0.5581207,1.2547958,-3.841472,-0.36920547,-0.9526743,0.0747776,-0.43364334,1.0032785,0.84410423,-0.16865447,0.20107062,0.467562,-0.35710832,-0.6286873,-0.66469234,1.0,0.0,0.0,0.0,0.0,0.0,0.0,-1.509581,0.15812072,-0.7047958,4.8706174,2.0962238,-9.440458,2.719164,-0.2949357,0.7392287,-0.67225695
-1.1291096,43.040302,9.991052,15.297617,0.85757494,-0.61795425,-0.16616027,-0.4386446,-0.75379527,0.2896269,-0.48500213,-0.67607814,0.68302095,0.34281564,1.0042528,-0.695148,-1.6872913,-0.8876799,1.9688898,1.5198255,-0.8762914,1.0402018,-0.63343173,-1.7099407,-0.84835684,2.026793,1.4563795,-0.907649,-0.7823835,-1.3611432,0.60339624,-0.90801114,-0.97050285,0.48716828,0.2909082,0.8211956,-0.56180954,1.2445397,-3.8376312,-0.36883634,-1.0499078,0.07123375,-0.43990707,0.99659795,0.8438745,-0.16511229,0.20066622,0.469411,-0.3561005,-0.61839956,-0.66997564,1.0,0.0,0.0,0.0,0.0,0.0,0.0,-1.4711956,0.16180953,-0.6945397,3.6578894,2.0919323,-11.134458,3.8528323,0.017428398,0.60994625,-0.6217778
-0.18301737,36.464645,7.6693764,12.325909,0.6376561,-0.9059798,-0.109832644,-0.4022883,-0.7608087,0.19963296,-0.5139826,-0.6709128,0.67463624,0.34802395,0.99997294,-0.7095126,-1.6899774,-0.8997551,1.9597018,1.5238432,-0.8728466,1.0326754,-0.6469682,-1.7049091,-0.85733855,2.0171075,1.4612566,-0.9047908,-0.7424843,-1.3511333,0.46918076,-0.8942506,-0.9680162,0.48833463,0.28447303,0.78284836,-0.56549454,1.233312,-3.8337946,-0.3684676,-1.1470441,0.0677433,-0.44618034,0.98975945,0.84374404,-0.16140568,0.20046808,0.47101676,-0.3486174,-0.62370676,-0.68945307,1.0,0.0,0.0,0.0,0.0,0.0,0.0,-1.4328483,0.16549453,-0.683312,4.06543,1.0078192,-13.564455,1.5822172,0.17822981,0.21213293,-0.5420685
0.6567744,30.430079,5.4710674,9.470501,0.40156466,-1.1407154,-0.042567015,-0.3797119,-0.7652094,0.10829001,-0.53491116,-0.6778171,0.6771366,0.36995584,0.9947042,-0.7234891,-1.6940801,-0.91082966,1.9493258,1.5289702,-0.8677952,1.0255514,-0.6604808,-1.701371,-0.86636984,2.0074258,1.4661375,-0.90197366,-0.7021824,-1.351345,0.31525582,-0.9053859,-0.96863,0.48799783,0.2809178,0.74453926,-0.5691757,1.2211137,-3.8299618,-0.3680992,-1.2440833,0.06437683,-0.4526043,0.9826174,0.8437077,-0.15733384,0.20050411,0.47244185,-0.33471423,-0.64199835,-0.7236684,1.0,0.0,0.0,0.0,0.0,0.0,0.0,-1.3945392,0.16917571,-0.67111367,4.083681,-0.04014969,-15.450483,-0.920403,-0.18777847,-0.05505085,-0.29848218
-4.7092276,22.932789,2.0846353,10.327918,0.4641922,-1.3046771,-0.13356853,-0.39124143,-0.7632787,-0.03237359,-0.52776015,-0.6814997,0.6830798,0.37539858,0.9864273,-0.73680866,-1.7046083,-0.9191459,1.9392759,1.5344455,-0.8644338,1.0186754,-0.6740201,-1.6996906,-0.875527,1.9977212,1.4710146,-0.8991832,-0.6822879,-1.3550508,0.11885579,-0.91848034,-0.97201204,0.4870502,0.27840695,0.7062683,-0.5728531,1.2079457,-3.8261328,-0.36773118,-1.3410255,0.06106758,-0.45931625,0.97504956,0.8438412,-0.15269418,0.2008539,0.4735758,-0.33043703,-0.6745964,-0.76952374,1.0,0.0,0.0,0.0,0.0,0.0,0.0,-1.3562683,0.17285308,-0.6579457,2.0848393,-0.41532516,-19.64175,-1.0747075,-0.5414605,-0.20810962,-0.23605824
-10.706477,14.512766,-1.9876542,10.421598,0.39483744,-1.4871987,-0.18675335,-0.41986308,-0.7632647,-0.19310181,-0.56705815,-0.69740176,0.685032,0.4163784,0.97668916,-0.7503466,-1.7190008,-0.93223286,1.927981,1.5395179,-0.8575454,1.0117632,-0.6876052,-1.7003334,-0.88498366,1.987927,1.4758745,-0.8963861,-0.6936447,-1.3599485,-0.12518762,-0.9537543,-0.9829613,0.4849377,0.2800261,0.6680355,-0.57652855,1.193809,-3.8223076,-0.3673635,-1.4378707,0.057756424,-0.4664669,0.96689135,0.84423566,-0.14720172,0.20166092,0.4742684,-0.33357698,-0.7224208,-0.8333763,1.0,0.0,0.0,0.0,0.0,0.0,0.0,-1.3180355,0.17652854,-0.643809,-0.96788406,-0.5705595,-24.354137,-3.2278776,-1.4093995,-0.45664907,0.12178421
-7.0718184,18.72445,-0.38575685,8.2789,0.1664182,-1.3821664,-0.059016343,-0.39741388,-0.7568074,-0.26808932,-0.60305315,-0.7068796,0.6926957,0.44309637,0.9720218,-0.76328593,-1.7271423,-0.94528896,1.917239,1.5451441,-0.8520765,1.0047785,-0.70120174,-1.7032821,-0.8949295,1.9779992,1.4807192,-0.8935508,-0.6997141,-1.3598394,-0.35118878,-1.007335,-0.997013,0.48340124,0.284625,0.62984085,-0.5802002,1.1787046,-3.8184862,-0.3669962,-1.5346192,0.054483414,-0.47403908,0.95807636,0.8448287,-0.14077677,0.20295691,0.47461018,-0.32697442,-0.7621409,-0.90034467,1.0,0.0,0.0,0.0,0.0,0.0,0.0,-1.2798408,0.18020019,-0.6287046,-0.44561625,-0.06546974,-22.563923,-5.0799966,-1.716876,-0.42557716,0.4117906
-2.1278102,23.622042,2.1033745,6.4808216,0.08245051,-1.2161851,0.074581854,-0.36981252,-0.7642789,-0.33737406,-0.6221206,-0.7148142,0.695901,0.46055532,0.9677973,-0.7776296,-1.7370195,-0.9571416,1.9065177,1.5503093,-0.84749526,0.9978688,-0.71481925,-1.708205,-0.9054247,1.9679284,1.4855543,-0.89065546,-0.68762314,-1.3626429,-0.53947204,-1.0627607,-1.0111926,0.48253337,0.29106113,0.59168434,-0.583868,1.1626335,-3.8146687,-0.3666293,-1.6312709,0.05133629,-0.4819317,0.94861573,0.8454932,-0.13350432,0.20464735,0.47480243,-0.31261802,-0.79149383,-0.9649097,1.0,0.0,0.0,0.0,0.0,0.0,0.0,-1.2416843,0.18386802,-0.6126335,1.3345122,-0.34046173,-18.823618,-5.305338,-1.6779184,-0.35009384,0.61424375
-3.1615958,33.454163,6.613682,9.447511,0.48789525,-0.662735,0.11531559,-0.4053281,-0.7585932,-0.32741275,-0.6329913,-0.7264495,0.700815,0.4813457,0.95733595,-0.79067856,-1.7409463,-0.96872383,1.8952835,1.5556358,-0.8425209,0.99093366,-0.72843486,-1.7143657,-0.91639674,1.9577127,1.4903914,-0.88768095,-0.69495106,-1.3613122,-0.642037,-1.1080102,-1.0255971,0.48352593,0.29970798,0.553566,-0.58753204,1.1455966,-3.810855,-0.36626276,-1.727826,0.048257828,-0.4899311,0.93865335,0.8461244,-0.12564799,0.20657717,0.4749863,-0.30841267,-0.7959331,-1.0108742,1.0,0.0,0.0,0.0,0.0,0.0,0.0,-1.203566,0.18753204,-0.5955966,-0.58317184,0.091552734,-10.3753805,-4.303074,-1.6325951,-0.050359964,0.9037316
-5.733769,40.808315,10.185928,12.734392,0.9741684,-0.17833877,0.12334512,-0.43726674,-0.75890774,-0.31662136,-0.64805317,-0.7203721,0.6936227,0.49762785,0.947207,-0.80432564,-1.7460278,-0.98120207,1.8856754,1.5597537,-0.83791816,0.98375726,-0.74203235,-1.72099,-0.9277483,1.9474053,1.495238,-0.88461107,-0.7246195,-1.359341,-0.6697657,-1.1434698,-1.0330741,0.48497584,0.30982926,0.51548576,-0.59119225,1.1275948,-3.807045,-0.36589658,-1.8242846,0.04512024,-0.49783134,0.9283658,0.84665895,-0.11749502,0.20856614,0.475251,-0.31773597,-0.7807796,-1.039123,1.0,0.0,0.0,0.0,0.0,0.0,0.0,-1.1654857,0.19119224,-0.5775948,-2.7926683,0.16620159,-2.9930234,-3.3263922,-0.8914232,0.09854436,1.1219144
-8.739203,41.824203,10.904858,14.710329,1.3023441,0.012639344,0.09457286,-0.4581956,-0.76554,-0.3471902,-0.66150695,-0.7107738,0.68675894,0.5085735,0.9379377,-0.81858635,-1.7557089,-0.993899,1.876328,1.5639138,-0.8337537,0.97619367,-0.75564224,-1.7277095,-0.9393908,1.9370809,1.500096,-0.8814382,-0.76629496,-1.3616221,-0.6735427,-1.1704444,-1.0326265,0.48598504,0.32026577,0.4774437,-0.59484863,1.1086292,-3.8032389,-0.36553076,-1.9206467,0.041805267,-0.5055504,0.91784406,0.8470929,-0.10919209,0.21048532,0.47561172,-0.33816123,-0.76108944,-1.061055,1.0,0.0,0.0,0.0,0.0,0.0,0.0,-1.1274437,0.19484863,-0.5586292,-3.9748669,-0.262928,-0.62493086,-2.457571,-0.09636879,0.081151724,1.1880696
-11.05375,40.595623,10.277063,15.720608,1.4572628,0.018599749,0.039521217,-0.47226503,-0.7662881,-0.39794266,-0.66420317,-0.69910026,0.6875084,0.51278454,0.9289672,-0.83227104,-1.7675037,-1.0058111,1.8671708,1.5688468,-0.8301597,0.96821046,-0.7692836,-1.7345817,-0.9512154,1.9268155,1.5049616,-0.87816805,-0.8082782,-1.3650953,-0.69251895,-1.1856358,-1.0251719,0.48679122,0.32976863,0.43943977,-0.5985012,1.0887008,-3.7994366,-0.3651653,-2.0169125,0.038238525,-0.51309776,0.9071015,0.8474653,-0.100749016,0.21228348,0.47601235,-0.3652605,-0.74454135,-1.0830877,1.0,0.0,0.0,0.0,0.0,0.0,0.0,-1.0894397,0.1985012,-0.53870076,-4.0015817,-0.39114952,-2.1149516,-1.260972,0.58202744,0.04595518,1.09393
-18.061092,33.07471,6.3430433,16.935469,1.5655715,-0.1369524,-0.07010088,-0.5249688,-0.7703929,-0.48716855,-0.686074,-0.69176763,0.67054754,0.50146484,0.91571355,-0.8463229,-1.7832986,-1.0198228,1.8576387,1.5720164,-0.8280216,0.9596646,-0.78297836,-1.7420318,-0.9632145,1.9166436,1.5098158,-0.8748235,-0.8690996,-1.3711262,-0.76303935,-1.2034897,-1.0155705,0.4845778,0.3363749,0.401474,-0.60214996,1.0678103,-3.795638,-0.36480018,-2.1130817,0.034303665,-0.520586,0.8960381,0.8478749,-0.09198461,0.21400195,0.47628784,-0.40534547,-0.7418332,-1.1184005,1.0,0.0,0.0,0.0,0.0,0.0,0.0,-1.051474,0.20214996,-0.5178103,-5.8303475,-0.68945885,-7.1810246,-1.4446259,0.6703377,-0.37284493,0.7724583
-23.332672,26.992357,2.960505,17.191225,1.565582,-0.26152676,-0.12995239,-0.5710287,-0.77312326,-0.5707565,-0.71142966,-0.6846496,0.6610173,0.5002539,0.9025617,-0.8602907,-1.7991074,-1.0343574,1.8481786,1.5759175,-0.8247981,0.95040727,-0.7967399,-1.7505348,-0.97545874,1.9065709,1.5146338,-0.87142557,-0.9435661,-1.3781706,-0.8796228,-1.230066,-1.0059786,0.4800763,0.3412098,0.36354637,-0.6057949,1.0459589,-3.7918434,-0.36443543,-2.2091548,0.02990532,-0.5281296,0.88451326,0.84840304,-0.0826644,0.21570134,0.47628963,-0.4541614,-0.74950814,-1.1682373,1.0,0.0,0.0,0.0,0.0,0.0,0.0,-1.0135463,0.2057949,-0.49595886,-7.149327,-0.83141327,-11.704206,-2.241969,0.5491495,-0.7257223,0.5655706
-27.516407,30.116522,3.8403218,19.395277,1.8152021,-0.0071462393,-0.17419162,-0.62727106,-0.76569796,-0.584142,-0.7099332,-0.6759759,0.66670513,0.51520705,0.8876802,-0.8733097,-1.808949,-1.046452,1.8389733,1.5813043,-0.81990486,0.9402907,-0.81052333,-1.7601154,-0.9879147,1.8965974,1.5194136,-0.8679752,-1.033285,-1.3788931,-0.9841848,-1.2493643,-0.99595106,0.4762876,0.3466455,0.3256569,-0.60943604,1.0231475,-3.7880526,-0.3640711,-2.305132,0.024938583,-0.5356903,0.8725327,0.8490757,-0.072772205,0.21737905,0.47594225,-0.5137032,-0.7486515,-1.2125914,1.0,0.0,0.0,0.0,0.0,0.0,0.0,-0.97565687,0.20943603,-0.47314745,-8.654058,-0.21765232,-10.487211,-1.490736,0.55048466,-0.65798163,0.6387651
-30.852793,31.671665,4.116647,20.897518,2.02422,0.16751242,-0.21619976,-0.6786547,-0.7647015,-0.6399767,-0.71045774,-0.65726477,0.6755613,0.5055724,0.8724252,-0.88699347,-1.824113,-1.0589604,1.8308709,1.5869697,-0.8174179,0.9292233,-0.82429343,-1.770724,-1.0005012,1.8867574,1.5241648,-0.86448187,-1.1301311,-1.3768703,-1.0864599,-1.2601734,-0.98163486,0.47365454,0.35050172,0.28780556,-0.61307335,0.9993769,-3.7842653,-0.36370713,-2.4010131,0.019313812,-0.543211,0.86013186,0.84991,-0.062345095,0.21899253,0.47519282,-0.5823643,-0.74303097,-1.2541242,1.0,0.0,0.0,0.0,0.0,0.0,0.0,-0.93780553,0.21307334,-0.44937688,-9.358072,0.03592968,-10.226321,-0.61790943,0.93693733,-0.5679667,0.4917264
-30.812397,36.466652,5.8862762,21.190119,2.0951867,0.3696627,-0.20784788,-0.7250374,-0.75284165,-0.6833659,-0.72029954,-0.63307923,0.6724468,0.48800594,0.85671955,-0.8995776,-1.8390607,-1.0725311,1.8234495,1.5914094,-0.8156813,0.9171946,-0.8379815,-1.782275,-1.0131869,1.8771119,1.5288912,-0.8609676,-1.2260705,-1.3666936,-1.1780163,-1.2698826,-0.960415,0.47129568,0.3520147,0.24999237,-0.61670685,0.9746483,-3.7804816,-0.3633435,-2.4967983,0.01300621,-0.5506153,0.8473606,0.85089386,-0.05143983,0.22049323,0.47404245,-0.6514887,-0.72827375,-1.2898312,1.0,0.0,0.0,0.0,0.0,0.0,0.0,-0.89999235,0.21670684,-0.42464828,-9.285259,0.84905624,-9.143543,-0.5237341,1.6274452,-0.5371928,0.26928186
-28.051224,40.534107,7.707806,20.670988,2.0795095,0.48422343,-0.19864218,-0.7479782,-0.74782795,-0.7315025,-0.70520186,-0.6228171,0.67571145,0.4541722,0.8423968,-0.9127643,-1.8554252,-1.0837071,1.8148302,1.5964624,-0.8155503,0.9043467,-0.85154754,-1.7946975,-1.025867,1.8676839,1.5336004,-0.85746855,-1.3035429,-1.3537517,-1.26354,-1.2660067,-0.93837094,0.46985197,0.3495871,0.21221733,-0.62033844,0.94896257,-3.7767017,-0.36298025,-2.5924878,0.006040573,-0.5578308,0.8342746,0.8520014,-0.040139217,0.2218388,0.47251433,-0.71603346,-0.7075347,-1.3199741,1.0,0.0,0.0,0.0,0.0,0.0,0.0,-0.8622173,0.22033843,-0.39896256,-7.4858904,1.1358261,-8.527589,0.7928133,1.7554164,-0.4285395,-0.12328029
-25.562138,39.06378,7.6893272,18.90705,2.115787,0.48706967,-0.14585598,-0.77786875,-0.76412755,-0.7703926,-0.7154367,-0.5578205,0.64998543,0.39631033,0.82655984,-0.9279603,-1.8717368,-1.0974107,1.8119018,1.598599,-0.81783754,0.89083505,-0.8650821,-1.8079097,-1.0385299,1.8586335,1.5382773,-0.8540382,-1.3662922,-1.353864,-1.3404272,-1.2649807,-0.89545304,0.4659014,0.3415038,0.17448044,-0.6239662,0.92232066,-3.7729256,-0.36261734,-2.6880817,-0.0015602112,-0.5648556,0.8208641,0.85321313,-0.028489614,0.22286534,0.4706874,-0.77930063,-0.6878227,-1.3532484,1.0,0.0,0.0,0.0,0.0,0.0,0.0,-0.8244804,0.22396621,-0.37232065,-6.0376644,-0.1689434,-7.668209,0.51510334,3.8749814,-0.7087767,-0.64924955
-21.623466,46.995182,11.544243,18.85181,2.16411,0.75485873,-0.12549737,-0.79974073,-0.74684554,-0.76858234,-0.6923071,-0.5354765,0.66741806,0.37353185,0.810861,-0.93976665,-1.884768,-1.1077605,1.8050859,1.6050191,-0.816685,0.8768046,-0.87856704,-1.8216541,-1.0510783,1.8500371,1.5429331,-0.8507022,-1.4146441,-1.3471633,-1.3858995,-1.2504909,-0.84876966,0.46478125,0.33152202,0.13677788,-0.6275902,0.89472353,-3.7691534,-0.3622548,-2.7835798,-0.009738922,-0.5715885,0.8072334,0.8544944,-0.01665938,0.2234832,0.4686332,-0.83546495,-0.6551024,-1.3716066,1.0,0.0,0.0,0.0,0.0,0.0,0.0,-0.78677785,0.22759017,-0.34472352,-4.6583652,0.54101944,-4.549718,1.782155,4.344058,-0.34252405,-0.8247793
-18.00988,47.812664,12.635012,17.605795,2.1746078,0.78917027,-0.10805671,-0.8075278,-0.7604509,-0.79039013,-0.6771098,-0.48444465,0.6422448,0.29200998,0.7960518,-0.95461214,-1.900693,-1.1187893,1.8015926,1.6071576,-0.82150126,0.862427,-0.8920558,-1.8357494,-1.063417,1.8419843,1.5475641,-0.84751886,-1.4450151,-1.3499007,-1.4175248,-1.2273724,-0.7915226,0.46184245,0.31461662,0.099113464,-0.6312103,0.86617213,-3.765385,-0.3618926,-2.8789825,-0.018445969,-0.5779934,0.7934408,0.85583305,-0.0047772056,0.22358522,0.46640807,-0.8867655,-0.62148106,-1.3868996,1.0,0.0,0.0,0.0,0.0,0.0,0.0,-0.74911344,0.23121032,-0.31617212,-2.8985262,-0.38599968,-3.1812668,2.618122,5.4742455,-0.50078034,-1.4925241
-15.199241,52.11344,14.8516035,17.430809,2.2148612,0.91778785,-0.119345084,-0.81740904,-0.7535421,-0.79761004,-0.6514438,-0.43305945,0.6410502,0.23237826,0.7806861,-0.96741,-1.9155104,-1.1285614,1.7986783,1.6116692,-0.82428104,0.8478339,-0.9055522,-1.8500564,-1.0754371,1.8345666,1.5521704,-0.8445386,-1.4637946,-1.3498708,-1.4350761,-1.192735,-0.72581804,0.45955557,0.29315224,0.061487198,-0.63482666,0.8366674,-3.7616203,-0.36153078,-2.97429,-0.02762413,-0.58403015,0.7795632,0.857233,0.0070329406,0.22310543,0.46403226,-0.93299115,-0.5826153,-1.3928775,1.0,0.0,0.0,0.0,0.0,0.0,0.0,-0.7114872,0.23482665,-0.2866674,-1.7783403,-0.090789795,-1.7776489,3.718257,6.383276,-0.388515,-1.9421756
-12.521533,51.43844,14.942958,15.677509,2.0938845,0.8916478,-0.12010467,-0.8233132,-0.7633549,-0.8152297,-0.65156645,-0.37776583,0.6067491,0.067485794,0.7655026,-0.9818877,-1.9315794,-1.1405938,1.79679,1.6128453,-0.8377901,0.8331158,-0.9190925,-1.8645294,-1.0871654,1.8278584,1.556729,-0.8418798,-1.4742409,-1.3557534,-1.4514333,-1.1655554,-0.6529206,0.4541268,0.25746512,0.023899078,-0.6384392,0.8062104,-3.7578595,-0.3611693,-3.0695019,-0.037225723,-0.58968544,0.7656019,0.8587091,0.018733347,0.22198863,0.46150687,-0.97299755,-0.5449666,-1.4018611,1.0,0.0,0.0,0.0,0.0,0.0,0.0,-0.67389905,0.23843917,-0.2562104,-0.9575844,-0.67338943,-1.6657829,2.9685974,7.13439,-0.7089019,-3.3536255
-13.765088,57.763935,17.279171,18.072306,2.3061223,1.0967691,-0.26054764,-0.8354388,-0.74299455,-0.81512475,-0.5908006,-0.33156952,0.6138458,-0.09539524,0.7495719,-0.99339193,-1.9460418,-1.1462454,1.7947015,1.6181135,-0.8514193,0.81829095,-0.9325946,-1.8791072,-1.0984244,1.8218865,1.5612437,-0.8396806,-1.4849885,-1.3486354,-1.459922,-1.112056,-0.57910764,0.45013604,0.20816119,-0.013650894,-0.6420479,0.77480197,-3.7541025,-0.3608082,-3.1646187,-0.04724884,-0.5949249,0.7516664,0.8603254,0.030210374,0.22026905,0.4587037,-1.0154055,-0.5009605,-1.3950995,0.0,1.0,0.0,0.0,0.0,0.0,0.0,-0.6363491,0.24204788,-0.22480196,-1.0142088,0.62742233,-0.83937645,5.549264,7.250619,-0.5273938,-4.734859
-13.259692,57.493786,17.249865,17.70805,2.2039487,1.1112108,-0.2960378,-0.8378579,-0.75401783,-0.8191154,-0.56520337,-0.33053854,0.5858292,-0.20429099,0.7345052,-1.0079963,-1.9610188,-1.1549448,1.7888327,1.6198266,-0.8601097,0.803275,-0.9459374,-1.895053,-1.109493,1.8179351,1.5650616,-0.8384651,-1.5040781,-1.332421,-1.6148559,-1.096914,-0.37442663,0.35897928,0.10843282,-0.031188965,-0.64216805,0.7726999,-1.5319226,0.06808479,0.25185072,-0.057920456,-0.6000767,0.7374627,0.8623928,0.04216259,0.2174713,0.45520002,-1.0809777,-0.49807352,-1.4284408,0.0,1.0,0.0,0.0,0.0,0.0,0.0,-0.618811,0.24216804,-0.22269988,-0.3737688,-0.0446558,-0.36478043,6.689763,4.7108707,-1.8784821,-5.024703
28.578457,176.0,110.0,102.37708,9.136376,10.667762,-2.358395,-0.7859835,0.46025607,0.7147033,0.60145426,-0.17547289,0.67025757,-0.37642694,0.7246766,-0.89991176,-1.8235826,-1.0493476,1.8003879,1.6320873,-0.8761078,0.7918347,-0.9622071,-1.9007903,-1.1064432,1.8047687,1.5751228,-0.83543146,-1.0191518,-1.6762142,-0.31235135,0.7551516,-1.5469121,1.2714213,0.37695906,-0.046497345,-0.641489,0.77448004,-1.530391,0.06801672,0.15341297,-0.069345474,-0.60297966,0.7277563,0.8644018,0.044894375,0.21783303,0.45093533,-1.1647807,-0.2052618,-0.82231766,1.0,0.0,0.0,0.0,0.0,0.0,0.0,-0.60350263,0.24148902,-0.22448003,49.963737,-19.685722,104.53207,180.13058,-92.10427,106.09106,29.436466
-23.100843,170.28561,75.5631,78.655014,9.470253,4.9105854,-2.1700845,-0.7662463,-0.71539015,0.28777686,0.7000554,-0.27646986,0.646006,-0.43141198,0.7152101,-1.0337461,-1.8720126,-1.0364376,1.7771217,1.6397234,-0.87857264,0.7820157,-0.97883534,-1.8983337,-1.0926797,1.7892371,1.5879822,-0.8320545,-0.9680609,-1.6593537,0.4350191,1.5851461,-1.5595163,1.2946382,0.32820064,-0.061790466,-0.64081,0.7752766,-1.5288609,0.06794872,0.055073638,-0.08199501,-0.6040878,0.7227317,0.8673072,0.04071319,0.21922177,0.44504198,-1.2960801,-0.06862959,-0.40017986,1.0,0.0,0.0,0.0,0.0,0.0,0.0,-0.5882095,0.24081,-0.22527659,5.551648,1.3819218,75.67794,83.51078,-2.5460482,3.526497,-3.7790418
-24.836838,133.1922,46.83597,46.663723,5.2541127,2.3943918,-1.2569615,-0.7099637,-0.6447198,0.05920079,0.6057907,-0.5168281,0.6665854,-0.2687102,0.71101934,-1.0433073,-1.8924136,-1.0321007,1.7375543,1.6546407,-0.8589255,0.77203166,-0.99419427,-1.8921863,-1.0747621,1.7748119,1.6004009,-0.82926595,-1.0071746,-1.4957628,0.6754927,1.86231,-1.4064517,1.226271,0.26371256,-0.07706833,-0.640131,0.77509046,-1.5273323,0.06788079,-0.043167375,-0.095458984,-0.6041603,0.7203284,0.8710367,0.034070395,0.22054733,0.4375991,-1.3629422,0.021452557,-0.19430174,1.0,0.0,0.0,0.0,0.0,0.0,0.0,-0.57293165,0.24013099,-0.22509044,-3.4916043,16.063858,24.321949,28.254581,14.399219,-6.243396,-6.03897
-7.954406,117.33002,41.796967,24.910215,3.2500534,1.9245422,-0.38469407,-0.6759878,-0.6984943,0.5494887,0.71009374,-0.57535434,0.63389736,-0.22708619,0.7044329,-1.0640438,-1.8372374,-1.0037527,1.7172765,1.6637907,-0.85197455,0.7613791,-1.0080768,-1.8834869,-1.0564115,1.7622348,1.6118088,-0.8271326,-1.0840362,-1.3532748,0.93571615,1.8269165,-1.211396,1.1134071,0.19736977,-0.09233093,-0.639452,0.7739226,-1.5258054,0.06781292,-0.14131017,-0.10909462,-0.6033077,0.7194375,0.87510467,0.02641931,0.221379,0.42951745,-1.3659266,0.114292495,-0.06212098,1.0,0.0,0.0,0.0,0.0,0.0,0.0,-0.55766904,0.23945197,-0.22392261,-7.4900866,13.948488,26.309967,-3.2768965,18.515755,-10.895658,-6.363836
4.376319,83.90784,26.926105,6.760549,1.0495882,0.725868,0.17336792,-0.6438329,-0.6888067,0.48338872,0.67284757,-0.5460237,0.6401509,-0.22671776,0.69699585,-1.0769575,-1.835148,-0.98912674,1.7076324,1.6758239,-0.84980434,0.7501401,-1.020816,-1.8734714,-1.0396898,1.7514831,1.6221352,-0.8256105,-1.1372906,-1.2482884,1.0238808,1.620914,-1.0317703,1.0066111,0.13728401,-0.10757828,-0.63877296,0.7717741,-1.5242798,0.06774512,-0.23935483,-0.12244797,-0.6018162,0.7190616,0.8791575,0.01874209,0.22156249,0.4214747,-1.3275433,0.16856791,-0.037220817,1.0,0.0,0.0,0.0,0.0,0.0,0.0,-0.5424217,0.23877296,-0.2217741,-5.3559065,10.284829,8.949304,-20.53132,17.356968,-10.360813,-5.946183
10.158612,73.60092,21.889908,1.5119346,0.13049494,0.18187752,0.3277215,-0.6398972,-0.6245856,0.4896822,0.67096215,-0.553865,0.6000477,-0.16619276,0.6861504,-1.0832745,-1.8245032,-0.97259355,1.6960965,1.6821399,-0.8422298,0.73855865,-1.03259,-1.8632175,-1.0251501,1.7421237,1.6314697,-0.82458055,-1.1652976,-1.1544801,1.0262963,1.3983239,-0.9054414,0.91007555,0.09163722,-0.122810364,-0.63809586,0.7686459,-1.5227559,0.067677386,-0.3373015,-0.13527107,-0.59993744,0.7186765,0.8830289,0.011596439,0.22130929,0.41369992,-1.2699965,0.20290938,-0.045741655,0.0,1.0,0.0,0.0,0.0,0.0,0.0,-0.5271896,0.23809585,-0.21864587,-2.8924942,9.202838,0.33898354,-22.21675,12.189603,-9.3247175,-4.57896
3.5342808,61.47182,15.727186,3.8511446,0.18675196,-0.22518665,0.18902831,-0.6555214,-0.6024431,0.44543913,0.68095994,-0.52678484,0.59413874,-0.15060687,0.67300653,-1.0928344,-1.8186736,-0.9570541,1.6894453,1.6908836,-0.8396412,0.7267808,-1.0436202,-1.8534957,-1.0123594,1.7337371,1.639946,-0.8239292,-1.1820941,-1.0862447,0.9538737,1.2397444,-0.8172717,0.8277484,0.05618852,-0.13802719,-0.63742065,0.76453894,-1.5212334,0.06760972,-0.43515018,-0.14767075,-0.5978584,0.7180502,0.8867511,0.005233374,0.22083895,0.40604827,-1.2321833,0.21712817,-0.07381263,0.0,1.0,0.0,0.0,0.0,0.0,0.0,-0.5119728,0.23742065,-0.21453893,-1.7268181,6.7064047,-7.257271,-15.741658,8.587456,-7.9402447,-3.5466022
1.972981,55.783737,13.6728115,5.989094,0.3363654,-0.41257966,0.06273918,-0.6399214,-0.5927681,0.43604073,0.6782668,-0.5375207,0.6060371,-0.16243392,0.6627886,-1.102897,-1.8098917,-0.9445327,1.679985,1.7005497,-0.8401726,0.71500003,-1.0541755,-1.8446056,-1.000593,1.7259074,1.6477089,-0.8235887,-1.1768112,-1.0454956,0.8675185,1.1562897,-0.7720067,0.75990605,0.026667513,-0.15322876,-0.63674545,0.75945425,-1.5197124,0.06754213,-0.53290105,-0.15978622,-0.59571266,0.7171176,0.89038926,-0.00034485257,0.22031382,0.3983323,-1.2059982,0.22093327,-0.104207195,0.0,1.0,0.0,0.0,0.0,0.0,0.0,-0.49677122,0.23674545,-0.20945424,0.5156994,3.98283,-8.62273,-8.18615,4.335332,-6.5534234,-2.9290676
2.9662437,47.77546,11.245672,6.0703735,0.42445943,-0.6196727,0.027200278,-0.6136846,-0.6056954,0.39828742,0.6620894,-0.511357,0.6061257,-0.12560387,0.65363157,-1.114745,-1.8047768,-0.934384,1.6747718,1.7083215,-0.8361491,0.70344263,-1.0645587,-1.8368713,-0.98938227,1.7182478,1.6544286,-0.82325405,-1.1488812,-1.0361125,0.74099714,1.1096125,-0.76229966,0.6432455,0.03500256,-0.1687851,-0.63365555,0.7605904,-1.5500093,0.392051,0.35440156,-0.17165947,-0.593729,0.71573013,0.8939486,-0.0048150257,0.21977702,0.3905516,-1.1825129,0.19810262,-0.15432116,0.0,1.0,0.0,0.0,0.0,0.0,0.0,-0.48121488,0.23365554,-0.21059036,2.847743,0.6046057,-9.113073,-3.0367374,2.615726,-5.3911805,-2.0716436
-23.685495,74.94436,17.603477,21.714642,1.7553462,0.05275604,-0.44431677,-0.7336485,-0.42642695,0.31422502,0.70732516,-0.45345765,0.5664827,-0.19153018,0.6300778,-1.1072015,-1.8054488,-0.91864973,1.672902,1.7110769,-0.84240705,0.69161326,-1.0741527,-1.8303291,-0.9780421,1.7109045,1.6604825,-0.8230738,-1.1937563,-0.9340512,0.62489665,1.1432105,-0.72506946,0.5934257,0.0125819305,-0.18427277,-0.62973785,0.76339525,-1.5484595,0.39165902,0.25586128,-0.18364906,-0.5916023,0.71435183,0.8976061,-0.008521822,0.21954761,0.38213804,-1.2052889,0.22435994,-0.1359021,0.0,1.0,0.0,0.0,0.0,0.0,0.0,-0.4657272,0.22973785,-0.21339524,-4.3556213,10.115623,-11.733437,3.7011147,3.6479354,-4.7596574,-2.1798787
-28.902714,88.27985,21.39424,25.833601,2.0236464,0.3165245,-0.56034684,-0.7403656,-0.34969056,0.22617978,0.71694976,-0.44093892,0.57866913,-0.18511084,0.6175767,-1.1091218,-1.8077111,-0.90634716,1.6668106,1.7183495,-0.84158486,0.679246,-1.0824134,-1.8250552,-0.9661746,1.7039331,1.666155,-0.82311195,-1.2505791,-0.790436,0.49472827,1.2024256,-0.68809116,0.5590834,-0.009247383,-0.19974518,-0.625824,0.76521546,-1.5469114,0.39126745,0.15741953,-0.19589424,-0.5890999,0.7133312,0.90140814,-0.011680038,0.21993236,0.37276903,-1.2305048,0.26596445,-0.09405148,0.0,1.0,0.0,0.0,0.0,0.0,0.0,-0.4502548,0.22582397,-0.21521544,-5.543542,14.232958,-13.09092,6.2784433,3.5699606,-3.2480717,-2.1399977
-27.190317,87.30534,20.535027,24.60219,1.7340529,0.21982247,-0.5069417,-0.7389163,-0.30759102,0.112668715,0.73426515,-0.46491945,0.5900113,-0.14592549,0.60535437,-1.1131725,-1.8137884,-0.8927481,1.6574411,1.7251561,-0.8377045,0.66638666,-1.0892494,-1.8212978,-0.95367,1.6971925,1.6715585,-0.8233256,-1.2973021,-0.648372,0.3360895,1.2674783,-0.66995764,0.534459,-0.025279403,-0.21520233,-0.6219139,0.766044,-1.5453647,0.39087626,0.058010988,-0.20833778,-0.58620834,0.7126676,0.90529895,-0.014218749,0.22109495,0.36242062,-1.2486852,0.30467835,-0.06010703,0.0,1.0,0.0,0.0,0.0,0.0,0.0,-0.43479764,0.2219139,-0.21604401,-4.5659065,14.0545845,-15.864396,6.81777,1.6422153,-2.3509264,-1.5963167
-23.18082,72.90194,15.081285,20.041485,1.1473266,-0.11759329,-0.35062984,-0.7414676,-0.28752068,-0.032288384,0.7441389,-0.47815564,0.5873151,-0.0801296,0.5922399,-1.1180015,-1.8245265,-0.8792561,1.649377,1.73029,-0.8313385,0.6531878,-1.094918,-1.8194724,-0.94061136,1.6905168,1.6767503,-0.8236279,-1.327157,-0.5403467,0.13139443,1.3194773,-0.66715676,0.5142292,-0.032073695,-0.23064423,-0.61800766,0.7658793,-1.5438197,0.39048547,-0.041298166,-0.22092247,-0.5830574,0.71209306,0.9091995,-0.015884992,0.22304767,0.3512172,-1.2608027,0.3267853,-0.05927364,0.0,1.0,0.0,0.0,0.0,0.0,0.0,-0.41935575,0.21800765,-0.21587926,-2.9151917,10.65948,-20.457077,5.4367304,0.14201403,-1.9800305,-0.7194154
-23.445559,48.342655,6.107196,15.853382,0.7316941,-0.5243907,-0.23442397,-0.7571009,-0.30612847,-0.19711295,0.7558426,-0.46258962,0.5665228,-0.08259063,0.5774777,-1.1255308,-1.8391837,-0.86502707,1.6442579,1.7334026,-0.83188695,0.6397467,-1.0999668,-1.8200732,-0.92714643,1.6838754,1.6817495,-0.82398266,-1.3494927,-0.49338138,-0.12423679,1.3560972,-0.6630983,0.49515626,-0.03686611,-0.24607086,-0.6141052,0.7647221,-1.5422761,0.39009506,-0.14050804,-0.23370934,-0.57985497,0.71116304,0.913086,-0.016348643,0.2256011,0.3392798,-1.2831181,0.32683995,-0.10643434,0.0,1.0,0.0,0.0,0.0,0.0,0.0,-0.4039291,0.21410522,-0.2147221,-2.1564007,4.5980096,-25.652206,3.8599968,0.41269064,-1.9187868,-0.5448662
-14.62358,57.150097,9.6567335,13.119018,0.35890388,-0.45729053,-0.09171642,-0.7455677,-0.2137698,-0.2889787,0.7723173,-0.49045745,0.58385015,-0.0025013501,0.56518996,-1.1213437,-1.8489711,-0.8499147,1.6348296,1.7401345,-0.8242328,0.62622267,-1.1044204,-1.823146,-0.9133887,1.6771692,1.6865903,-0.8243193,-1.3532494,-0.4299831,-0.3679992,1.382649,-0.6735306,0.48026574,-0.03300585,-0.26148224,-0.6102066,0.7625736,-1.5407342,0.38970503,-0.2396187,-0.24655342,-0.5766258,0.70984304,0.9168567,-0.015563063,0.22878921,0.3267828,-1.2822953,0.33027604,-0.1422887,0.0,1.0,0.0,0.0,0.0,0.0,0.0,-0.38851774,0.2102066,-0.21257359,-0.349617,6.198585,-24.30199,2.7566195,-1.192677,-1.5547097,0.2574049
-9.106968,51.489677,8.706849,10.107405,0.2096359,-0.505865,0.03309781,-0.7350952,-0.22765546,-0.3851347,0.78466266,-0.49053103,0.58613825,0.06435878,0.55271316,-1.127186,-1.8616594,-0.83492243,1.6281161,1.7452041,-0.81788343,0.612773,-1.1084678,-1.8284675,-0.8994174,1.6703504,1.6913034,-0.8245625,-1.3421594,-0.3969002,-0.5863363,1.4021775,-0.68523824,0.46789074,-0.021849198,-0.27687836,-0.6063118,0.75943476,-1.5391937,0.38931543,-0.3386303,-0.25935364,-0.57341003,0.708098,0.9204355,-0.013598931,0.23251182,0.31392944,-1.2772627,0.32850033,-0.18654642,0.0,1.0,0.0,0.0,0.0,0.0,0.0,-0.37312162,0.20631179,-0.20943475,1.1175632,3.1737864,-21.701342,2.0029545,-1.3525605,-1.3463616,0.9734478
-0.5443835,60.14625,13.100129,8.091098,0.20142752,-0.33321172,0.15800868,-0.7141956,-0.19441003,-0.4208112,0.79164624,-0.508206,0.5794133,0.17481326,0.54135346,-1.1279088,-1.8705486,-0.8202528,1.6195298,1.7492447,-0.80708116,0.59954816,-1.1121831,-1.8355526,-0.88532645,1.6634293,1.695909,-0.82460654,-1.3161671,-0.36337197,-0.75189483,1.4099443,-0.6911593,0.45686743,0.0011730739,-0.2919674,-0.60232735,0.75708085,-1.4764163,0.41004458,-0.11248763,-0.27199364,-0.57016563,0.70602566,0.92374235,-0.010669668,0.23665902,0.30096298,-1.2570524,0.33118755,-0.2157462,0.0,1.0,0.0,0.0,0.0,0.0,0.0,-0.35803258,0.20232734,-0.20708084,2.5964499,3.1232357,-15.250564,1.1954069,-1.0724187,-1.8355191,1.9632511
-1.7185524,52.72074,11.548395,7.5817647,0.44250122,-0.2519865,0.18302512,-0.7215349,-0.23333666,-0.46610546,0.7904304,-0.5080594,0.58215284,0.17131908,0.52739465,-1.1355168,-1.8821632,-0.8062834,1.6126233,1.7541243,-0.8074746,0.5865324,-1.1158547,-1.8438643,-0.8711938,1.6564851,1.7003747,-0.8244406,-1.2968085,-0.36890256,-0.8564115,1.4143438,-0.6967128,0.44251654,0.021389429,-0.30631065,-0.5980606,0.7555442,-1.4191117,0.4326399,-0.16662437,-0.28451538,-0.56689453,0.7036269,0.9267851,-0.0069728033,0.24097621,0.28801218,-1.2474295,0.33590224,-0.24836163,0.0,1.0,0.0,0.0,0.0,0.0,0.0,-0.34368932,0.1980606,-0.20554417,1.8916607,-0.70033073,-10.094536,0.42061806,-0.9291768,-1.6354203,1.9193377
-4.404911,38.779076,7.568627,6.740318,0.6038275,-0.2929361,0.21019736,-0.7189581,-0.29426676,-0.5185644,0.7908199,-0.50259626,0.5699696,0.22133243,0.51463664,-1.1452814,-1.8957207,-0.7921118,1.6062255,1.7573717,-0.80230737,0.57366544,-1.1199536,-1.8529981,-0.85704213,1.6494969,1.7047129,-0.82405055,-1.2833405,-0.4238142,-0.93149275,1.4156634,-0.7004068,0.4302459,0.04469489,-0.32025146,-0.59363365,0.7533266,-1.3846533,0.4465186,-0.23919886,-0.29705048,-0.5635967,0.7007558,0.92960256,-0.0026211108,0.24519642,0.27515596,-1.253336,0.3373719,-0.30024663,0.0,1.0,0.0,0.0,0.0,0.0,0.0,-0.3297485,0.19363365,-0.20332658,1.3398409,-5.600226,-7.225716,0.18663406,-0.6563544,-1.4179885,2.2815027
-6.334781,32.863518,6.0367746,6.593546,0.7840236,-0.25670326,0.22507149,-0.7174074,-0.3307446,-0.5466678,0.78724825,-0.47810766,0.5428623,0.27541506,0.5019247,-1.1530281,-1.9076649,-0.77831733,1.6016861,1.7589991,-0.796509,0.5608862,-1.1247813,-1.8626887,-0.8429027,1.6425245,1.7089342,-0.8234049,-1.2760665,-0.502938,-0.9807794,1.4136713,-0.69718224,0.41901502,0.0711692,-0.333992,-0.58911324,0.75035703,-1.371541,0.45316938,-0.31336284,-0.3097191,-0.5602684,0.6973149,0.93222934,0.0022994406,0.24911496,0.2624592,-1.267959,0.3409553,-0.35909617,0.0,1.0,0.0,0.0,0.0,0.0,0.0,-0.31600797,0.18911323,-0.20035702,0.7368326,-8.00789,-4.662192,-0.102972984,-0.024342537,-1.2276113,2.6327624
2.01013,44.55891,10.74342,5.2531843,0.8133419,-0.088876605,0.28878453,-0.6806176,-0.32734063,-0.5197656,0.78983927,-0.47297665,0.56898284,0.3711304,0.49282444,-1.1575153,-1.9146652,-0.7639188,1.5952268,1.7658324,-0.78629184,0.54830915,-1.1302745,-1.87253,-0.8287834,1.635613,1.7130772,-0.8224475,-1.2517081,-0.56518775,-0.98392445,1.4114249,-0.6904817,0.4119589,0.10390784,-0.34754372,-0.5845299,0.7468645,-1.348907,0.46004853,-0.35977346,-0.32239532,-0.5568638,0.693447,0.93464357,0.0075543746,0.252694,0.2500598,-1.2644387,0.35046703,-0.39639166,0.0,1.0,0.0,0.0,0.0,0.0,0.0,-0.30245626,0.18452987,-0.19686449,2.3801327,-6.3479424,0.13241768,-0.19972324,0.24467707,-0.9242296,3.2647638
-12.608032,13.553984,0.23478222,5.9107623,0.9684976,-0.3085006,0.25153825,-0.729034,-0.49038717,-0.58574176,0.77983874,-0.44419014,0.49128494,0.40616235,0.47540575,-1.1793133,-1.9311042,-0.75079954,1.5911939,1.7622057,-0.78183126,0.53573304,-1.1369598,-1.8825645,-0.8147119,1.6288381,1.717115,-0.82115906,-1.2591802,-0.70320225,-1.0098703,1.4065825,-0.6733394,0.4003903,0.13752641,-0.36102295,-0.57993317,0.742525,-1.3475584,0.45958856,-0.45866492,-0.33535004,-0.5534096,0.6888337,0.93694085,0.0132582085,0.2556487,0.23792775,-1.3030937,0.3535015,-0.48362225,0.0,1.0,0.0,0.0,0.0,0.0,0.0,-0.28897703,0.17993316,-0.19252497,-0.65677166,-13.849485,-2.505231,-0.20840168,1.6323805,-1.3351262,3.463982
-11.848838,17.275135,1.0657319,5.729594,0.819323,-0.25096667,0.28211874,-0.71568465,-0.50892717,-0.6029517,0.7797507,-0.48043337,0.46294633,0.49889183,0.46416458,-1.1878525,-1.9428598,-0.73673683,1.5807947,1.7634097,-0.77126986,0.5230921,-1.1449382,-1.8929005,-0.80068433,1.6221108,1.7210232,-0.81949776,-1.2654481,-0.82966685,-1.0409589,1.4024705,-0.6728878,0.38691702,0.17596266,-0.37448883,-0.5753403,0.73719436,-1.3462111,0.45912907,-0.55785125,-0.34864426,-0.5499096,0.68336505,0.9391319,0.019518241,0.2579702,0.22605655,-1.3343331,0.35978293,-0.56878155,0.0,1.0,0.0,0.0,0.0,0.0,0.0,-0.27551115,0.17534027,-0.18719435,-0.54273605,-12.710762,-2.986002,-0.12760162,-0.0834465,-1.5449107,3.9402814
-11.858332,14.682001,0.69379586,5.1406736,0.8722626,-0.15534115,0.29203823,-0.7167915,-0.59818345,-0.5739209,0.77944285,-0.4721513,0.48171014,0.55188847,0.45141295,-1.2047566,-1.9502926,-0.72274005,1.5748957,1.7691942,-0.7643089,0.5103834,-1.1542861,-1.9033604,-0.78668344,1.6153855,1.7248207,-0.81744546,-1.2723254,-0.97015864,-1.0471747,1.4003719,-0.6729242,0.3766519,0.21551187,-0.38793945,-0.5707531,0.73087263,-1.3448651,0.45867005,-0.6569384,-0.36226463,-0.54631233,0.6770255,0.94122577,0.026262661,0.25961733,0.21448328,-1.3669004,0.37039265,-0.65700555,0.0,1.0,0.0,0.0,0.0,0.0,0.0,-0.26206052,0.17075309,-0.18087262,-0.5922079,-14.109659,-0.50230026,0.12648106,-0.12844801,-1.240623,4.1003017
-0.88281274,29.662949,6.346473,3.187843,0.8629117,0.05810058,0.32845697,-0.6849198,-0.6291956,-0.51092404,0.7745978,-0.46454102,0.49718365,0.56459713,0.44189143,-1.2172058,-1.9544528,-0.7092236,1.5689315,1.7745391,-0.76098573,0.49776822,-1.1648471,-1.9134941,-0.77272165,1.6086602,1.7285401,-0.8150279,-1.257938,-1.0850691,-1.0010633,1.3955007,-0.673516,0.36951718,0.25091392,-0.40137863,-0.56616974,0.72356075,-1.3435205,0.45821145,-0.75592643,-0.3760147,-0.54257774,0.6700042,0.9432062,0.033216935,0.26061115,0.20332333,-1.3734463,0.38592765,-0.7189272,0.0,1.0,0.0,0.0,0.0,0.0,0.0,-0.24862134,0.16616973,-0.17356074,1.4416933,-11.581469,4.9711704,-0.279212,-0.40864944,-0.9532571,3.670019
15.735814,46.19426,13.283309,-0.42617536,0.9722979,0.27022672,0.39143115,-0.63917196,-0.6700273,-0.38805234,0.7521652,-0.39167938,0.5090268,0.56238586,0.43385103,-1.2318499,-1.9522994,-0.6975051,1.5694923,1.7794428,-0.7587893,0.48552257,-1.1763885,-1.9225445,-0.7589153,1.6021333,1.7322079,-0.81229943,-1.2138275,-1.1777856,-0.87071455,1.3756903,-0.6478773,0.3650279,0.280601,-0.41480255,-0.5615902,0.7152598,-1.3421773,0.45775333,-0.8548155,-0.38960838,-0.53868103,0.66261625,0.945081,0.039885674,0.26088637,0.19279318,-1.3491298,0.40275663,-0.7475037,0.0,1.0,0.0,0.0,0.0,0.0,0.0,-0.23519742,0.16159019,-0.16525978,4.2900085,-9.384203,13.705993,-1.9588232,1.9303203,-0.69880486,3.101319
16.763737,51.51204,14.156105,-0.7465142,0.9475529,0.27233607,0.40151453,-0.6451089,-0.6972521,-0.402365,0.70887965,-0.32327455,0.43677166,0.5589161,0.4210117,-1.2461137,-1.962781,-0.6880273,1.5698059,1.7758851,-0.7564078,0.47366506,-1.188668,-1.9304761,-0.7455114,1.5960935,1.7357721,-0.8093108,-1.1768491,-1.2449877,-0.76682484,1.3281004,-0.58959,0.3521398,0.3054975,-0.42804146,-0.5569382,0.70671093,-1.3060073,0.4705751,-0.81916195,-0.40291214,-0.5346241,0.6549793,0.94688046,0.04616226,0.26040384,0.18296486,-1.3191874,0.4174551,-0.77184045,0.0,1.0,0.0,0.0,0.0,0.0,0.0,-0.22195852,0.15693817,-0.15671092,3.572321,-6.8584204,11.337149,-4.645419,5.453706,-1.530844,2.4924815
12.724079,58.233665,14.244004,1.1755167,0.83420026,0.20742506,0.3704806,-0.64490736,-0.6906721,-0.44242632,0.6846263,-0.30808774,0.31846067,0.58267003,0.40917432,-1.2577353,-1.9747187,-0.6770488,1.5652847,1.7676182,-0.7510438,0.4620822,-1.2013328,-1.9378363,-0.73265296,1.5906626,1.7391224,-0.8060948,-1.1525325,-1.2740786,-0.7238217,1.2716802,-0.5299732,0.32844758,0.32714865,-0.44080925,-0.5522156,0.6983009,-1.266232,0.47278556,-0.84723127,-0.4159088,-0.5304241,0.6471339,0.9486017,0.0522742,0.25929898,0.17374198,-1.2872063,0.4312982,-0.7914596,0.0,1.0,0.0,0.0,0.0,0.0,0.0,-0.20919073,0.15221557,-0.14830089,2.3105383,-3.0567884,4.955411,-5.670142,5.274451,-2.6263714,2.2155821
4.927231,59.370525,12.767635,3.3936863,0.93613255,0.14321423,0.3368052,-0.661198,-0.69320977,-0.48389843,0.62729865,-0.1738949,0.19341831,0.58440024,0.39596242,-1.2706537,-1.9862261,-0.66992307,1.5732731,1.7584642,-0.7476548,0.45056564,-1.2141063,-1.9452577,-0.72052026,1.5861225,1.7421532,-0.8026886,-1.1516455,-1.2789776,-0.7466221,1.1938607,-0.43080878,0.2936592,0.345212,-0.45322227,-0.5474701,0.6895646,-1.2326226,0.4749882,-0.88179976,-0.42865753,-0.52606964,0.63906944,0.950259,0.058463845,0.25761127,0.16500361,-1.2645783,0.44778073,-0.814241,0.0,1.0,0.0,0.0,0.0,0.0,0.0,-0.1967777,0.14747009,-0.13956457,0.0006914139,-0.6416559,-1.7369509,-7.7837706,9.302008,-3.7556112,1.8422723
-0.18470693,61.944523,12.775143,5.107396,1.4011028,0.13275808,0.30363438,-0.6769425,-0.69017696,-0.4876401,0.5558032,0.075425066,-0.0065038274,0.6040495,0.3828714,-1.283124,-1.9940217,-0.66493994,1.593665,1.7415028,-0.74228364,0.4389127,-1.2268131,-1.9530755,-0.70935744,1.5831861,1.7447075,-0.79910874,-1.1700772,-1.2685065,-0.79198176,1.0904458,-0.24990411,0.24145506,0.36249498,-0.46533966,-0.5426979,0.6804722,-1.204121,0.47850135,-0.9174,-0.44125938,-0.5214901,0.6308251,0.9519331,0.064736955,0.25510925,0.15669025,-1.253189,0.47121918,-0.8305015,0.0,1.0,0.0,0.0,0.0,0.0,0.0,-0.18466032,0.1426979,-0.13047218,-1.9177914,0.8952379,-4.031563,-10.343909,17.490355,-5.55183,1.8017471
0.7707341,60.76867,12.065512,3.4897313,1.2750046,0.07035756,0.37464786,-0.6897223,-0.6864767,-0.5200744,0.4470466,0.20645273,-0.24258332,0.59243566,0.36994046,-1.2954607,-2.005083,-0.66465276,1.6038314,1.7204491,-0.7398652,0.42699796,-1.2393692,-1.9614844,-0.6995479,1.5822651,1.746598,-0.7953865,-1.1988286,-1.2517205,-0.85580975,0.9442739,-0.04138568,0.17041685,0.37572187,-0.4771824,-0.53790283,0.67098683,-1.1768138,0.48011535,-0.9575666,-0.45373154,-0.51670265,0.6223777,0.953668,0.07112778,0.2515984,0.14885013,-1.2389058,0.49107435,-0.85190135,0.0,1.0,0.0,0.0,0.0,0.0,0.0,-0.17281759,0.13790283,-0.12098682,-2.951479,1.547885,-5.932212,-14.647234,20.290169,-7.4224977,1.385957
11.326245,66.08183,14.670555,0.8356111,1.0960093,0.13636732,0.39954787,-0.66352004,-0.6828185,-0.4546786,0.39556825,0.21588723,-0.34004608,0.56743425,0.36064595,-1.307651,-2.0069523,-0.6599911,1.6038538,1.7125934,-0.73864305,0.41495255,-1.2517574,-1.9701264,-0.6911927,1.5831361,1.7477543,-0.7915712,-1.2068766,-1.234734,-0.8652266,0.79887795,0.12804295,0.0965224,0.38347661,-0.488657,-0.5331211,0.6612385,-1.136989,0.47783536,-0.9799679,-0.46592903,-0.51177406,0.6138065,0.9554545,0.077491455,0.24710153,0.14157137,-1.2065898,0.50336266,-0.8609661,0.0,1.0,0.0,0.0,0.0,0.0,0.0,-0.16134298,0.1331211,-0.11123848,-0.92618465,1.5925407,-0.42059422,-14.662636,16.36665,-7.6594634,0.7982671
17.911236,68.30747,16.061924,-0.41521096,1.0364277,0.15098572,0.37898538,-0.6495218,-0.6869514,-0.42148134,0.34908497,0.2700002,-0.4110184,0.5639086,0.35000035,-1.3204526,-2.0122745,-0.6562842,1.6101362,1.7066525,-0.7351803,0.4029601,-1.2640312,-1.9785564,-0.6841561,1.5854509,1.7481896,-0.7876983,-1.1971332,-1.2253705,-0.8339099,0.6714698,0.2643679,0.025173208,0.38856903,-0.4996872,-0.52838326,0.6513342,-1.091171,0.47222567,-0.99266994,-0.47773933,-0.5067673,0.605195,0.95728433,0.08364165,0.24169686,0.1348827,-1.1665659,0.50940055,-0.8633682,0.0,1.0,0.0,0.0,0.0,0.0,0.0,-0.15031278,0.12838325,-0.101334214,0.840044,0.85389614,3.6409378,-12.895357,13.122758,-7.339688,0.5043268
6.7787204,71.28308,15.848136,4.8358088,1.4606822,0.26002377,0.21208248,-0.6883954,-0.67386603,-0.4195416,0.32360837,0.30568442,-0.48456067,0.5815021,0.33412054,-1.3314178,-2.0205107,-0.65179527,1.6160194,1.6997335,-0.7295481,0.39091948,-1.2761962,-1.9866033,-0.678127,1.588853,1.7479306,-0.78376925,-1.2066782,-1.2138135,-0.7935412,0.57978064,0.363893,-0.043741386,0.39443213,-0.5102978,-0.52368546,0.64132565,-1.0502422,0.4694866,-1.0028056,-0.48925972,-0.501606,0.59661216,0.95915097,0.089551955,0.23552862,0.12859242,-1.1414028,0.52754754,-0.8586474,0.0,1.0,0.0,0.0,0.0,0.0,0.0,-0.1397022,0.12368545,-0.09132564,-1.0457754,1.0626078,4.5113325,-9.245801,9.482956,-7.13536,0.5997777
12.473553,81.580086,19.390812,5.1597886,1.7061242,0.43825454,0.16841157,-0.6657049,-0.657924,-0.30696476,0.2732975,0.35245445,-0.47759688,0.578177,0.324349,-1.3419887,-2.0172997,-0.65079725,1.6240984,1.700171,-0.72595155,0.3788746,-1.2882011,-1.9937841,-0.6729085,1.5931004,1.7470615,-0.7797913,-1.204142,-1.1961782,-0.69119227,0.50206286,0.44358853,-0.10209998,0.3989177,-0.52041626,-0.51903725,0.6313819,-0.9983624,0.46384886,-0.99102604,-0.5004635,-0.49625397,0.5882327,0.9610565,0.09498103,0.22870623,0.122647695,-1.1069453,0.546679,-0.8329641,0.0,1.0,0.0,0.0,0.0,0.0,0.0,-0.12958372,0.11903724,-0.08138192,0.13654232,1.6817093,10.743189,-7.90869,7.5300455,-6.03956,0.43005943
23.700516,88.135635,23.076813,1.4000132,1.8465791,0.71754,0.29664797,-0.6704109,-0.65266764,-0.10804723,0.12189302,0.45449793,-0.5134077,0.573657,0.3118335,-1.3534678,-2.0045888,-0.66071916,1.6385503,1.6957207,-0.7224256,0.36684486,-1.3000305,-1.9991211,-0.6689164,1.5982407,1.745656,-0.7757783,-1.2030423,-1.1787226,-0.4796841,0.3642925,0.5363482,-0.15391918,0.4020219,-0.5299225,-0.5144825,0.6217265,-0.9336683,0.4535194,-0.9570524,-0.511179,-0.49071884,0.580252,0.9630566,0.099415034,0.221093,0.11728739,-1.0543259,0.56386334,-0.78844815,0.0,1.0,0.0,0.0,0.0,0.0,0.0,-0.12007749,0.11448249,-0.0717265,-0.028347969,1.6979218,21.613766,-13.981223,8.8909445,-5.162725,0.25199056
44.04296,82.33015,23.497017,-9.28929,0.9613908,0.75592244,0.6911045,-0.66164476,-0.65576214,0.017273193,-0.12351088,0.5508067,-0.5542328,0.57417095,0.3006804,-1.3656067,-1.9973937,-0.6812675,1.6533214,1.6902328,-0.7183612,0.35486904,-1.3117397,-2.002001,-0.66723806,1.6044494,1.7437766,-0.7717429,-1.1961564,-1.1682972,-0.22324377,0.10159078,0.648628,-0.19917461,0.40389732,-0.5387001,-0.51010704,0.6124223,-0.85852635,0.433213,-0.92205626,-0.5211239,-0.48519516,0.5726153,0.96518403,0.10252589,0.21242964,0.11305699,-0.96919817,0.5566148,-0.7575204,0.0,1.0,0.0,0.0,0.0,0.0,0.0,-0.11129987,0.110107034,-0.062422276,0.566864,1.0457993,25.841553,-26.48145,11.111116,-4.4078918,0.13958216
49.37942,77.0725,22.228527,-12.707078,0.4887867,0.64490813,0.81443536,-0.65585387,-0.65114796,0.08467212,-0.24623796,0.61913615,-0.57444155,0.5824791,0.28928363,-1.3768544,-1.9935338,-0.69186187,1.666363,1.6863325,-0.71349496,0.34298912,-1.3233669,-2.0024974,-0.6684341,1.6118141,1.7414943,-0.76768744,-1.1854595,-1.1609063,0.0076863514,-0.1936757,0.7663489,-0.23742177,0.40605798,-0.54673386,-0.5059681,0.60342366,-0.7848434,0.40854815,-0.8935584,-0.5301647,-0.4798298,0.5651871,0.9674256,0.1042991,0.20263179,0.11022579,-0.87810093,0.53594065,-0.7400829,0.0,1.0,0.0,0.0,0.0,0.0,0.0,-0.10326612,0.10596809,-0.053423643,1.0195732,0.76498985,22.956633,-29.632902,11.975777,-3.578347,0.19508004
42.796715,74.00448,20.225763,-10.200779,0.4133553,0.50057715,0.7155663,-0.6530424,-0.6429805,0.117203034,-0.3164394,0.6729229,-0.549507,0.5838069,0.27768487,-1.3876649,-1.9907771,-0.700078,1.6791065,1.6865436,-0.7093068,0.33121923,-1.334914,-2.0011857,-0.67229664,1.6202937,1.7389014,-0.7636106,-1.174108,-1.152486,0.17097768,-0.45040247,0.87657,-0.26583678,0.40836766,-0.5540981,-0.5020695,0.59463954,-0.72022337,0.38474867,-0.87469625,-0.5383892,-0.47467422,0.55785745,0.96973073,0.10494732,0.19182995,0.10867211,-0.79969186,0.5143502,-0.7325268,0.0,1.0,0.0,0.0,0.0,0.0,0.0,-0.09590185,0.10206947,-0.044639528,1.1634827,0.88083744,15.934351,-25.644535,11.47629,-2.5717914,0.26333928
33.04441,82.75775,21.005033,-3.7174993,0.6984195,0.48682,0.4719883,-0.64076704,-0.604052,0.16464055,-0.34689206,0.6748871,-0.495573,0.57242864,0.26714253,-1.3953192,-1.9847217,-0.70698583,1.6877824,1.689344,-0.70636773,0.31959775,-1.3462136,-1.9986571,-0.67811257,1.629642,1.736107,-0.75951993,-1.1578898,-1.1222546,0.27829462,-0.62495786,0.9564898,-0.28297517,0.40944916,-0.5608444,-0.49839783,0.5861157,-0.65946627,0.36225706,-0.8458797,-0.54592896,-0.46967888,0.55069786,0.97202075,0.10470943,0.18038228,0.10804502,-0.73505056,0.4997181,-0.7120963,0.0,1.0,0.0,0.0,0.0,0.0,0.0,-0.089155555,0.09839782,-0.036115706,1.7045498,3.0958176,10.149964,-17.360783,8.667135,-1.38129,0.1575172
30.702976,92.7009,24.189117,0.8114189,1.2792399,0.5900732,0.2514777,-0.6087181,-0.5989345,0.34088504,-0.36289638,0.6952282,-0.4507293,0.579344,0.25872594,-1.4061071,-1.9645686,-0.7144022,1.6991649,1.6910341,-0.70158553,0.30826142,-1.3572056,-1.9947206,-0.6850498,1.6396273,1.7332077,-0.7554163,-1.125126,-1.0911752,0.42972428,-0.7162992,1.015566,-0.2910315,0.4108532,-0.56697845,-0.49495125,0.57805383,-0.5982763,0.33957553,-0.7937842,-0.5528984,-0.46476746,0.5439372,0.974279,0.103453636,0.16854274,0.10803303,-0.68083334,0.492797,-0.66546166,0.0,1.0,0.0,0.0,0.0,0.0,0.0,-0.08302152,0.09495124,-0.02805382,3.3953667,3.2233238,14.384908,-9.033859,6.8321824,-0.3999412,0.1783073
29.353434,88.88226,23.350506,0.78975797,1.1787246,0.541973,0.23954378,-0.59983295,-0.6045806,0.40523988,-0.4538558,0.7254175,-0.45303237,0.57743317,0.24827813,-1.4176637,-1.9541966,-0.7304354,1.712169,1.6879045,-0.69767296,0.2972569,-1.3679783,-1.9892871,-0.69281083,1.6501071,1.7302498,-0.75130105,-1.091732,-1.0722473,0.5785398,-0.7955578,1.061996,-0.2961886,0.41201204,-0.5725422,-0.49172974,0.5704825,-0.542643,0.3171601,-0.746051,-0.5593624,-0.45993042,0.53759146,0.97648937,0.101150125,0.15638684,0.10853653,-0.63177127,0.48432943,-0.6254183,0.0,1.0,0.0,0.0,0.0,0.0,0.0,-0.077457786,0.09172973,-0.02048248,3.4857273,2.0107508,14.066803,-7.7736735,5.6156635,-0.09351373,0.18020868
32.778877,95.48756,25.09779,1.1026715,0.9708123,0.521762,0.2159113,-0.55429924,-0.56005824,0.44552353,-0.47191054,0.7318012,-0.37666348,0.586684,0.24182697,-1.4239842,-1.9447348,-0.7400019,1.7232872,1.6925834,-0.6926327,0.28672633,-1.3784325,-1.9825544,-0.70115453,1.6609464,1.7273113,-0.74716944,-1.0396118,-1.0359682,0.70187634,-0.84663844,1.0946707,-0.2915879,0.4137968,-0.5775356,-0.4887581,0.5634896,-0.48511532,0.29130948,-0.68462765,-0.5652981,-0.45523262,0.53171456,0.9786006,0.09787793,0.14410962,0.10951254,-0.5781746,0.46863487,-0.5759257,0.0,1.0,0.0,0.0,0.0,0.0,0.0,-0.07246435,0.08875808,-0.013489604,5.383134,3.7719727,11.447704,-4.9303293,4.3504715,0.9730458,0.24652481
23.783157,95.42204,24.4421,4.34105,1.1367732,0.57176614,0.12588653,-0.5581776,-0.54659986,0.50112927,-0.4850973,0.73799884,-0.31486994,0.5912121,0.23090857,-1.4330925,-1.9324415,-0.74966425,1.7347462,1.6958243,-0.68804824,0.27661246,-1.3885167,-1.974721,-0.7098514,1.6720157,1.7244684,-0.7430162,-1.0013171,-0.9988628,0.8076505,-0.8766701,1.1145449,-0.28026438,0.41625232,-0.58201027,-0.48601723,0.55709493,-0.43511194,0.26919523,-0.6251087,-0.5707855,-0.45061493,0.5263265,0.98058087,0.09374241,0.13187023,0.11083202,-0.53644204,0.4619647,-0.52720135,0.0,1.0,0.0,0.0,0.0,0.0,0.0,-0.06798971,0.08601722,-0.0070949197,4.0220976,3.8622499,9.67058,-2.7784824,3.0735493,1.6312182,0.35063624
35.839764,94.91485,25.493088,1.0888195,0.6838494,0.4603173,0.1490972,-0.459665,-0.54191506,0.56555134,-0.4470623,0.7375208,-0.07447099,0.60245043,0.23064595,-1.4427081,-1.9181658,-0.7545576,1.7457677,1.7170212,-0.68277115,0.26721925,-1.3982937,-1.9658672,-0.7185174,1.6832095,1.7219201,-0.7388324,-0.9180514,-0.9699237,0.9086362,-0.86256164,1.1243856,-0.24459758,0.4193455,-0.58597374,-0.48352814,0.55134755,-0.38408118,0.24240245,-0.558886,-0.5757923,-0.4461918,0.521422,0.98240304,0.088719375,0.11982848,0.11249049,-0.4861365,0.43913183,-0.47850698,0.0,1.0,0.0,0.0,0.0,0.0,0.0,-0.06402624,0.08352813,-0.0013475418,8.519089,3.0484676,9.269619,1.6307354,2.0335197,4.1054726,0.41709542
40.390965,95.542206,26.177406,0.054375112,0.4456946,0.45227414,0.13918215,-0.40231052,-0.52303225,0.6171547,-0.4235648,0.7307065,0.16867101,0.58830154,0.2269882,-1.4505969,-1.9041517,-0.7608739,1.7562802,1.7387872,-0.6800023,0.25881785,-1.4077885,-1.9560467,-0.7268383,1.6944276,1.7199001,-0.7346315,-0.8134715,-0.94217235,1.003965,-0.8211899,1.1242783,-0.18588746,0.42077914,-0.5894394,-0.4813156,0.54629797,-0.33461568,0.21448414,-0.48798,-0.58026505,-0.44203186,0.5170148,0.9840448,0.08276641,0.108157724,0.11448746,-0.43291733,0.41013336,-0.42852762,0.0,1.0,0.0,0.0,0.0,0.0,0.0,-0.060560584,0.08131561,0.0037020445,10.656595,2.9234648,8.783412,4.3785334,0.9757519,6.4274163,0.27107
74.59071,93.25085,27.992615,-11.575628,-0.9407527,0.009256467,0.3837308,-0.21416344,-0.5180439,0.65645164,-0.39038435,0.73036486,0.36865294,0.58015674,0.23740152,-1.4595929,-1.8904015,-0.7658767,1.767464,1.7567654,-0.67661583,0.25215453,-1.417064,-1.9453484,-0.7345965,1.7056268,1.7185955,-0.7304305,-0.6166782,-0.92251205,1.090296,-0.759872,1.1209546,-0.10995036,0.42023003,-0.5923481,-0.47948647,0.54200256,-0.27691683,0.17278758,-0.41111246,-0.5839596,-0.4385357,0.51306593,0.98546034,0.07584913,0.09697824,0.11708945,-0.34670407,0.3313873,-0.384049,0.0,1.0,0.0,0.0,0.0,0.0,0.0,-0.057651877,0.07948646,0.007997453,19.86469,2.065444,8.15239,6.38901,0.44333935,8.197364,0.06120205
71.65627,90.09991,26.080761,-11.980856,-1.3090066,-0.16435114,0.4153454,-0.17172907,-0.48621428,0.6185875,-0.3997085,0.72723883,0.396359,0.5557026,0.23498163,-1.4656854,-1.8834896,-0.77456737,1.7783507,1.7582314,-0.67486024,0.24739759,-1.4260705,-1.9342057,-0.74187195,1.7167623,1.7180157,-0.7262537,-0.42810252,-0.89315784,1.1212004,-0.7156605,1.1131799,-0.038822122,0.41740483,-0.5947304,-0.47805786,0.5383531,-0.22557901,0.133023,-0.35002452,-0.5867958,-0.43586922,0.5094723,0.9866089,0.06821786,0.08635291,0.12038348,-0.26184788,0.24722327,-0.35146633,0.0,1.0,0.0,0.0,0.0,0.0,0.0,-0.0552696,0.078057855,0.011646926,19.040936,3.0034423,2.7338743,4.746175,-0.19073486,7.703249,-0.10723472
69.68471,88.24765,25.093906,-11.9141865,-1.4444255,-0.32879934,0.40282476,-0.07697879,-0.4695125,0.62695575,-0.36499074,0.73366296,0.39526492,0.5360841,0.2396997,-1.4730217,-1.87151,-0.77837104,1.7901286,1.7575421,-0.6726453,0.24451391,-1.4347641,-1.922935,-0.74868804,1.7278326,1.7180711,-0.72211933,-0.24117045,-0.8612325,1.1280797,-0.669034,1.1066641,0.021970399,0.41280863,-0.59664345,-0.47701073,0.5352348,-0.18019359,0.09529127,-0.29909414,-0.5888119,-0.43406105,0.50616807,0.98747766,0.060098115,0.076275386,0.12433071,-0.18148033,0.1601282,-0.32383132,0.0,1.0,0.0,0.0,0.0,0.0,0.0,-0.05335653,0.07701072,0.014765203,18.875256,3.2414794,0.4196167,5.0273657,-0.16434193,6.603302,-0.26396513
48.75223,97.96726,25.91204,-3.2865272,-0.74915427,-0.1781039,0.17624444,-0.034625765,-0.4017407,0.60273844,-0.2941329,0.7240733,0.3757011,0.5351356,0.24105133,-1.4749383,-1.8626611,-0.7781013,1.8002399,1.7556412,-0.66860574,0.24319832,-1.4428895,-1.9118315,-0.7548325,1.7388128,1.7186383,-0.7180254,-0.0943815,-0.7959815,1.1033993,-0.5949357,1.097054,0.06997732,0.40890405,-0.59817314,-0.4762764,0.53266907,-0.1441858,0.06641447,-0.24126884,-0.5901909,-0.4329319,0.503266,0.9880811,0.051708765,0.06686011,0.12865265,-0.12361576,0.09834553,-0.2795506,0.0,1.0,0.0,0.0,0.0,0.0,0.0,-0.051826835,0.07627639,0.017330945,14.8734865,6.610167,-2.8168678,7.802248,-0.39625168,5.280153,-0.1806438
42.338383,100.409615,25.780571,-1.2937672,-0.7195224,-0.22352278,0.1335836,0.047619395,-0.35956243,0.5705622,-0.26823106,0.71336895,0.34505567,0.5299851,0.24796025,-1.4788457,-1.8547753,-0.7816556,1.8101497,1.7531439,-0.6650269,0.24324386,-1.4502461,-1.9011537,-0.7602351,1.7496728,1.7195944,-0.71397024,0.03814761,-0.71534777,1.0545942,-0.5207382,1.0841485,0.10565559,0.40510613,-0.5993786,-0.47580528,0.5306649,-0.11288802,0.04082106,-0.18537356,-0.591032,-0.4323902,0.5008301,0.98843443,0.043255888,0.05817725,0.13319758,-0.071576126,0.040881135,-0.2324252,0.0,1.0,0.0,0.0,0.0,0.0,0.0,-0.05062139,0.07580528,0.019335091,13.437518,8.145416,-5.204773,7.8160644,-0.73657036,4.086806,-0.17004013
23.287966,100.45264,24.911827,5.310875,0.0013339221,-0.044027686,-0.044544958,0.069998935,-0.3291355,0.5715193,-0.20152389,0.702783,0.3588147,0.53625613,0.25024375,-1.4831597,-1.8440018,-0.78038746,1.819951,1.7554759,-0.6603446,0.244307,-1.4568036,-1.8909146,-0.764763,1.7603781,1.7208587,-0.70994276,0.12962475,-0.6354578,1.0123314,-0.4289097,1.0678254,0.13461925,0.4026971,-0.6003456,-0.47551918,0.529197,-0.09154062,0.024887927,-0.13255125,-0.59152985,-0.43221283,0.49888664,0.988581,0.03481328,0.050225463,0.13774233,-0.043050047,0.010175283,-0.18263586,0.0,1.0,0.0,0.0,0.0,0.0,0.0,-0.049654365,0.075519174,0.020803034,9.31678,8.084547,-4.5779467,9.537733,-1.0554552,3.3901572,-0.043553114
3.5996659,112.64339,26.69617,12.855012,0.5576013,0.24704337,-0.19700766,0.06812089,-0.21626519,0.5021436,-0.16678263,0.6926141,0.36060128,0.5285633,0.25111908,-1.47843,-1.8407001,-0.7814413,1.8296396,1.7569188,-0.65708643,0.2459187,-1.4622319,-1.881322,-0.76840687,1.7709141,1.7223657,-0.70593923,0.17224327,-0.51164657,0.94008225,-0.3417114,1.050962,0.15741849,0.400156,-0.601141,-0.47532654,0.5283847,-0.07552038,0.017407984,-0.062798426,-0.59184647,-0.4321556,0.49759543,0.9885634,0.026524132,0.0431452,0.14204648,-0.02877744,0.0052038534,-0.11250309,0.0,0.0,1.0,0.0,0.0,0.0,0.0,-0.048859,0.07532653,0.021615326,4.4279127,12.50174,-7.6643705,9.059018,-1.0713339,2.7240098,-0.060629845
-15.580427,119.06112,26.878414,20.626833,1.1304755,0.3674089,-0.4165858,0.07114651,-0.126023,0.40430152,-0.06298734,0.6795161,0.32250035,0.5238809,0.25303337,-1.4748342,-1.8408918,-0.7747056,1.8388656,1.7546158,-0.65355116,0.24770232,-1.4662087,-1.8727978,-0.77092546,1.7812656,1.7240343,-0.70196056,0.18086098,-0.35928166,0.82186335,-0.22092442,1.0320325,0.17110592,0.39763004,-0.60183525,-0.47514915,0.52833134,-0.06760791,0.018078536,0.014659537,-0.59217834,-0.43197823,0.49708325,0.98844177,0.018623644,0.03711959,0.14580163,-0.035444096,0.022698345,-0.032025836,0.0,0.0,1.0,0.0,0.0,0.0,0.0,-0.048164725,0.07514915,0.021668673,1.0017693,15.367853,-12.258636,12.374565,-1.261282,1.7369181,-0.09038448
-14.993503,92.06677,18.018848,18.117798,0.58490515,-0.21881336,-0.47591048,0.13626184,-0.13711657,0.19488186,0.056309037,0.6350727,0.33611062,0.5039987,0.2613285,-1.4799204,-1.8533096,-0.76529455,1.8447729,1.7576454,-0.65156066,0.24972959,-1.4690144,-1.8662345,-0.7719115,1.7913072,1.7258309,-0.69801915,0.21021882,-0.2540048,0.6004102,-0.0571394,0.9959587,0.18320349,0.39351118,-0.60250664,-0.4749756,0.5286146,-0.0672555,0.017016215,0.033218067,-0.5926399,-0.43174362,0.49695906,0.98827046,0.011607979,0.032142837,0.14884031,-0.050532278,0.023780057,-0.0071122386,0.0,0.0,1.0,0.0,0.0,0.0,0.0,-0.04749334,0.07497558,0.021385431,3.000158,10.604477,-22.351397,16.575787,-3.2649517,1.4245689,-0.25103688
-14.03713,80.023384,13.756683,16.240883,0.1480691,-0.49224555,-0.46723014,0.15508914,-0.078894466,0.033498373,0.12713353,0.5895338,0.35274047,0.5010762,0.2652385,-1.4769038,-1.8628848,-0.7591981,1.8502606,1.761105,-0.64791155,0.25209135,-1.4708779,-1.8623474,-0.77122486,1.8008822,1.7277458,-0.6941206,0.24494444,-0.16366415,0.31785336,0.11095356,0.9452303,0.19462001,0.38913223,-0.60318947,-0.4748268,0.5288807,-0.06867361,0.0142653845,0.024211954,-0.59324455,-0.43157578,0.49689317,0.98809266,0.00589183,0.028209953,0.15113673,-0.06400108,0.01446241,-0.0076596066,0.0,0.0,1.0,0.0,0.0,0.0,0.0,-0.046810508,0.07482681,0.021119297,3.4994006,9.063175,-28.351671,16.932049,-4.8652887,1.2253731,-0.31339526
-19.641071,82.41169,14.149823,17.533587,0.21458901,-0.33672383,-0.45345563,0.1292956,-0.00090387854,-0.064544134,0.17135096,0.5408492,0.35344702,0.508725,0.2650209,-1.4709682,-1.8688018,-0.7540898,1.8549671,1.7630905,-0.6432481,0.25461477,-1.471782,-1.8612298,-0.76905715,1.8098654,1.7297541,-0.69025826,0.25483444,-0.065972306,0.043043137,0.2522069,0.8831779,0.20301847,0.38541475,-0.60388756,-0.47468376,0.5291042,-0.07016817,0.014403206,0.021267744,-0.5939789,-0.43144226,0.49686456,0.987944,0.0015810219,0.025350485,0.15271325,-0.07688217,0.013457717,-0.002168142,0.0,0.0,1.0,0.0,0.0,0.0,0.0,-0.04611242,0.074683756,0.020895839,0.9975672,9.757985,-27.514437,14.173079,-6.0611725,0.83942115,-0.31413436
-15.9093275,74.294464,12.271025,13.258721,-0.14042363,-0.30620515,-0.26225272,0.11859036,0.017859783,-0.17727841,0.14383824,0.4952205,0.35138488,0.5065158,0.2664738,-1.469996,-1.8789576,-0.7546733,1.8593874,1.7648926,-0.6396067,0.25709814,-1.4718697,-1.8626775,-0.76604736,1.8181889,1.7318327,-0.6864348,0.24613483,0.010150658,-0.2072265,0.31711966,0.81551373,0.20924814,0.38137224,-0.604578,-0.47454834,0.52919334,-0.0685141,0.013431978,0.004407675,-0.5947552,-0.4313488,0.49678215,0.9878249,-0.0013565313,0.023421945,0.15379007,-0.077766836,0.0077328896,-0.010778109,0.0,0.0,1.0,0.0,0.0,0.0,0.0,-0.045421958,0.074548334,0.02080667,-0.8809835,7.5726657,-24.987617,6.4638195,-6.7341924,0.5633414,-0.3985703
-24.16461,72.380035,11.8521805,15.020461,0.18437415,-0.073786214,-0.25153592,0.072763234,0.051366773,-0.27202165,0.17042041,0.43671378,0.34774607,0.508355,0.26437446,-1.466733,-1.8898796,-0.7490053,1.8618603,1.7666074,-0.6355993,0.25923628,-1.4712918,-1.8663397,-0.7626561,1.825776,1.7339536,-0.6826484,0.2029831,0.0734478,-0.41887242,0.34618458,0.739608,0.2128465,0.37755442,-0.60526466,-0.47438812,0.52911264,-0.06856915,0.016903704,-0.01240108,-0.59557915,-0.43120575,0.49660757,0.98774326,-0.003028532,0.022295903,0.15445696,-0.0839555,0.017042557,-0.019872958,0.0,0.0,1.0,0.0,0.0,0.0,0.0,-0.044735312,0.07438812,0.020887375,-4.3421865,6.2723017,-21.041935,2.8232932,-7.6176524,0.27721822,-0.44372678
-14.10751,76.351234,14.362059,10.865155,-0.047124356,0.028876366,-0.060156975,0.077957325,0.08775947,-0.29535088,0.13859776,0.39343807,0.34048042,0.52207696,0.267032,-1.4625158,-1.8958747,-0.74879634,1.8651198,1.7680017,-0.6304407,0.26097673,-1.4701245,-1.8715545,-0.75934684,1.8326176,1.7360936,-0.67888904,0.1642621,0.13087435,-0.5551128,0.32530817,0.6653133,0.21396428,0.3750032,-0.60591125,-0.47420502,0.5289704,-0.06333178,0.018615983,-0.014850582,-0.59635544,-0.431015,0.49642628,0.9876759,-0.0037228265,0.0218351,0.15493771,-0.07532916,0.019712096,-0.017318603,0.0,0.0,1.0,0.0,0.0,0.0,0.0,-0.04408872,0.07420501,0.021029592,-3.9208055,5.6798754,-13.412791,-2.2209764,-7.5372458,0.004968047,-0.36216974
-17.636925,80.83236,16.217422,13.578623,0.4434581,0.17323905,-0.13915557,0.056094248,0.11653549,-0.33511043,0.2014418,0.35549673,0.32424858,0.523199,0.26658615,-1.458471,-1.9050655,-0.7392027,1.8681673,1.7685184,-0.62656915,0.2623176,-1.468425,-1.8777381,-0.75605476,1.8387518,1.738221,-0.6751516,0.12379342,0.18288906,-0.6386649,0.3299161,0.59552014,0.21188661,0.3729387,-0.6065254,-0.47397995,0.52891475,-0.060727995,0.023835834,-0.001985981,-0.5971222,-0.43071556,0.49636874,0.98762816,-0.003730167,0.021965928,0.15522285,-0.0764974,0.033911288,-0.0012876831,0.0,0.0,1.0,0.0,0.0,0.0,0.0,-0.043474555,0.073979944,0.021085262,-4.1098776,5.126667,-8.072972,0.30307174,-7.209885,-0.48264265,-0.3361404
