Afshin1997/kuka_rl_ros2/src/catch_and_throw/input_files/idealpd/recorded_trajectories/env_83_data.csv
torque0,torque1,torque2,torque3,torque4,torque5,torque6,action0,action1,action2,action3,action4,action5,action6,set_target_0,set_target_1,set_target_2,set_target_3,set_target_4,set_target_5,set_target_6,joint_pos_0,joint_pos_1,joint_pos_2,joint_pos_3,joint_pos_4,joint_pos_5,joint_pos_6,joint_vel_0,joint_vel_1,joint_vel_2,joint_vel_3,joint_vel_4,joint_vel_5,joint_vel_6,tennisball_pos_0,tennisball_pos_1,tennisball_pos_2,tennisball_lin_vel_0,tennisball_lin_vel_1,tennisball_lin_vel_2,end_effector_pos_0,end_effector_pos_1,end_effector_pos_2,end_effector_rot_0,end_effector_rot_1,end_effector_rot_2,end_effector_rot_3,end_effector_lin_vel_0,end_effector_lin_vel_1,end_effector_lin_vel_2,obs_task_0,obs_task_1,obs_task_2,obs_task_3,obs_task_4,obs_task_5,obs_task_6,to_final_target_0,to_final_target_1,to_final_target_2,joint_acc_0,joint_acc_1,joint_acc_2,joint_acc_3,joint_acc_4,joint_acc_5,joint_acc_6
0.0,0.0,0.0,0.0,0.0,0.0,0.0,0.0,0.0,0.0,0.0,0.0,0.0,0.0,1.7802359,-1.0646509,-1.8151424,-1.1170107,1.9373155,1.1170107,-0.91629785,1.7802359,-1.0646509,-1.8151424,-1.1170107,1.9373155,1.1170107,-0.91629785,0.0,0.0,0.0,0.0,0.0,0.0,0.0,2.758335,-0.66028595,0.13198075,-2.7754579,0.29036513,5.382821,0.5304184,-0.45449448,0.693097,0.5745483,0.17512383,0.15255436,0.7848268,0.0,0.0,0.0,1.0,0.0,0.0,0.0,0.0,0.0,0.0,-3.4083352,0.26028594,0.41801926,0.0,0.0,0.0,0.0,0.0,0.0,0.0
0.0,0.0,0.0,0.0,0.0,0.0,0.0,0.0,0.0,0.0,0.0,0.0,0.0,0.0,1.7802359,-1.0646509,-1.8151424,-1.1170107,1.9373155,1.1170107,-0.91629785,1.7802359,-1.0646509,-1.8151424,-1.1170107,1.9373155,1.1170107,-0.91629785,0.0,0.0,0.0,0.0,0.0,0.0,0.0,2.758335,-0.66028595,0.13198075,-2.7754579,0.29036513,5.382821,0.5304184,-0.45449448,0.693097,0.5745483,0.17512383,0.15255436,0.7848268,0.0,0.0,0.0,1.0,0.0,0.0,0.0,0.0,0.0,0.0,-3.4083352,0.26028594,0.41801926,0.0,0.0,0.0,0.0,0.0,0.0,0.0
0.0,0.0,0.0,0.0,0.0,0.0,0.0,0.0,0.0,0.0,0.0,0.0,0.0,0.0,1.7802359,-1.0646509,-1.8151424,-1.1170107,1.9373155,1.1170107,-0.91629785,1.7802359,-1.0646509,-1.8151424,-1.1170107,1.9373155,1.1170107,-0.91629785,0.0,0.0,0.0,0.0,0.0,0.0,0.0,2.758335,-0.66028595,0.13198075,-2.7754579,0.29036513,5.382821,0.5304184,-0.45449448,0.693097,0.5745483,0.17512383,0.15255436,0.7848268,0.0,0.0,0.0,1.0,0.0,0.0,0.0,0.0,0.0,0.0,-3.4083352,0.26028594,0.41801926,0.0,0.0,0.0,0.0,0.0,0.0,0.0
-176.0,68.06146,-6.573929,110.0,11.515039,4.8296604,-3.73086,-0.83076173,0.35333094,-0.55080426,0.7326802,0.4714612,0.6414301,-0.5815334,1.6971598,-1.0293179,-1.8702228,-1.0437427,1.9844615,1.1811538,-0.9744512,1.7787787,-1.0621485,-1.8213432,-1.11225,1.9418626,1.1218916,-0.9165439,-0.19417685,0.33300996,-0.8262398,0.6350186,0.6055331,0.6489548,-0.032349255,2.7306023,-0.6573868,0.18503213,-2.772683,0.29007483,5.279253,0.5283203,-0.45768738,0.6938498,0.5779686,0.17387329,0.1514286,0.7828088,-0.2789247,-0.42611971,0.100135684,1.0,0.0,0.0,0.0,0.0,0.0,0.0,-3.3806024,0.25738677,0.36496788,-19.346786,33.085938,-82.44031,63.580715,60.314995,64.32994,-3.1307173
-176.0,-41.226265,-47.85353,110.0,13.609819,1.241884,-3.2406716,-0.80727875,-0.2209066,-0.5280965,0.69039124,0.517195,0.63926965,-0.59128034,1.6980507,-1.0842391,-1.8741528,-1.0432109,1.9935821,1.1858186,-0.97567195,1.7770964,-1.0594038,-1.8364341,-1.0980345,1.9511323,1.1345394,-0.91540426,-0.16215225,0.243879,-1.7104225,1.6846046,1.0200374,1.4390714,0.1567382,2.702896,-0.6544876,0.2370486,-2.7699108,0.28978482,5.175789,0.523674,-0.4661827,0.6945655,0.5856896,0.1707702,0.14798695,0.778399,-0.5280537,-0.9879817,0.065322466,1.0,0.0,0.0,0.0,0.0,0.0,0.0,-3.3528962,0.2544876,0.31295142,2.4708927,-12.241665,-80.52888,105.23312,37.217915,69.65361,17.104343
-159.55257,96.69595,25.127275,92.31522,9.355356,7.8076143,-1.999624,-0.7872495,0.25257125,0.013303253,0.6299603,0.54656285,0.6881088,-0.5486743,1.6983714,-1.0341467,-1.8351038,-1.0350385,2.0057886,1.2033503,-0.9702717,1.7721697,-1.0564874,-1.851754,-1.0794588,1.9619374,1.1488292,-0.9142284,-0.6027443,0.30441323,-1.4662639,1.9167303,1.0954368,1.4188676,0.10380648,2.6752167,-0.65159225,0.28803122,-2.7671416,0.28949508,5.0724277,0.51610184,-0.4777832,0.69667983,0.5962724,0.16628866,0.14292644,0.772256,-0.841036,-1.2105813,0.2642904,1.0,0.0,0.0,0.0,0.0,0.0,0.0,-3.3252168,0.25159225,0.2619688,-44.012142,5.0840974,26.281357,23.72129,5.961585,-4.0623665,-5.5335135
-103.24472,92.83063,35.608753,56.76423,6.073677,7.8432927,-0.30969465,-0.78746843,0.030605648,0.1733256,0.65082,0.5381538,0.6672202,-0.58293235,1.6934229,-1.0534269,-1.8344214,-1.0143769,2.0157528,1.2155513,-0.9725216,1.7628809,-1.0540537,-1.861531,-1.0609576,1.9724717,1.1621292,-0.91375726,-1.0384449,0.22086467,-0.8074836,1.8287439,1.0338695,1.2966479,0.02684652,2.6475677,-0.6487007,0.337981,-2.7643752,0.28920564,4.96917,0.5058899,-0.49040222,0.700505,0.60785747,0.16063993,0.13630298,0.7655883,-1.0939311,-1.2680159,0.42648265,1.0,0.0,0.0,0.0,0.0,0.0,0.0,-3.2975678,0.24870071,0.21201903,-43.80828,-9.0125475,68.09026,-8.512521,-7.8691006,-13.380766,-8.085139
-41.554825,121.11567,51.280106,30.072254,2.5953047,7.6717367,0.55477846,-0.79885656,0.15233524,0.26061717,0.63469505,0.6068384,0.6567413,-0.575825,1.6829953,-1.0388201,-1.8354692,-0.997488,2.0331554,1.2278033,-0.97133976,1.7500254,-1.0519212,-1.8642623,-1.0445753,1.9822965,1.1740615,-0.9140672,-1.3689268,0.20887096,-0.08849689,1.5742712,0.960922,1.1571798,-0.052407812,2.6199417,-0.6458092,0.38689896,-2.7616112,0.2889165,4.866016,0.49376678,-0.5025101,0.7059911,0.6191745,0.15381284,0.1283425,0.75927114,-1.2647922,-1.1780097,0.59111553,1.0,0.0,0.0,0.0,0.0,0.0,0.0,-3.2699418,0.24580917,0.16310105,-33.409214,-1.7109543,73.88056,-25.542091,-8.588576,-14.426279,-8.573632
1.0288434,129.22931,52.356308,13.255558,0.006382197,5.980093,0.60871905,-0.8036584,0.2677491,0.21883437,0.6248658,0.6299127,0.6524935,-0.5910992,1.6696595,-1.0251464,-1.8423789,-0.98208874,2.0452878,1.2393109,-0.97317713,1.7349917,-1.0492357,-1.861489,-1.03077,1.9915471,1.1847255,-0.91510767,-1.5492054,0.28717265,0.40366805,1.3153245,0.91107965,1.0359977,-0.12343702,2.5923462,-0.64292526,0.43478617,-2.75885,0.28862765,4.7629647,0.48057938,-0.51324844,0.7128899,0.6297735,0.14601392,0.119804226,0.75346684,-1.3488859,-1.0260029,0.7218004,1.0,0.0,0.0,0.0,0.0,0.0,0.0,-3.2423463,0.24292526,0.11521384,-18.33682,7.4437647,50.53363,-26.08416,-5.6455255,-12.111878,-7.759999
23.215275,133.91632,48.756283,5.9510417,-1.7401935,4.251541,0.20658891,-0.8106295,0.4189377,0.11238002,0.5997316,0.6320605,0.6548973,-0.5778836,1.6539288,-1.007342,-1.8502511,-0.97079676,2.054753,1.2502153,-0.97289604,1.7190615,-1.0449747,-1.8561676,-1.0191122,2.0004792,1.1943328,-0.91676325,-1.6086935,0.47134972,0.57747036,1.1152406,0.8864199,0.93669564,-0.18159896,2.5647812,-0.64004135,0.48164365,-2.7560918,0.28833908,4.6600165,0.46702957,-0.52233505,0.72087276,0.63977027,0.13759556,0.111714,0.7478512,-1.3678567,-0.85683537,0.8212462,1.0,0.0,0.0,0.0,0.0,0.0,0.0,-3.2147813,0.24004135,0.068356365,-6.2273264,18.113678,18.178707,-20.158434,-2.6808023,-9.673988,-6.4064083
30.451729,130.06416,42.7793,3.9329324,-2.4563496,2.8692584,-0.16939753,-0.8190495,0.53709763,0.03979739,0.5645468,0.65655905,0.63906133,-0.5718304,1.6371565,-0.99126494,-1.8521879,-0.9626576,2.0661352,1.258239,-0.9739463,1.7030684,-1.0384611,-1.850909,-1.0089422,2.0093675,1.2030723,-0.9189138,-1.5970267,0.71076995,0.51023316,0.9837174,0.8897419,0.8539811,-0.22780734,2.537239,-0.63715744,0.5274724,-2.7533364,0.2880508,4.5571713,0.45355606,-0.5298233,0.72964466,0.6494497,0.12890889,0.1048361,0.74202883,-1.3490635,-0.699726,0.89304805,1.0,0.0,0.0,0.0,0.0,0.0,0.0,-3.1872392,0.23715743,0.022527635,0.90608597,23.713303,-6.2259555,-13.266361,0.32514334,-7.97348,-5.095005
26.66753,114.106125,34.26829,4.491212,-2.3208816,1.8069766,-0.3925231,-0.82996666,0.59879315,-0.012991899,0.53647965,0.6566618,0.6433013,-0.5674771,1.6200716,-0.9785818,-1.8522081,-0.95529425,2.0750337,1.2674024,-0.9756615,1.6873766,-1.0296739,-1.8472488,-0.99965906,2.0183587,1.2110946,-0.92145246,-1.5604315,0.93433756,0.31896028,0.90956163,0.90286845,0.7857665,-0.2637778,2.5097275,-0.63428116,0.5722735,-2.7505836,0.28776282,4.454429,0.4403534,-0.53599167,0.738893,0.65905726,0.120248914,0.09945929,0.7357252,-1.3172474,-0.575065,0.93296224,1.0,0.0,0.0,0.0,0.0,0.0,0.0,-3.1597276,0.23428115,-0.02227348,3.4366608,22.201801,-18.81683,-7.55533,1.385057,-6.595242,-3.9509563
21.29718,97.73474,28.113773,6.097973,-1.7554991,1.2777048,-0.43153828,-0.8226497,0.6370495,-0.029707635,0.53491634,0.6441701,0.65060705,-0.5660984,1.6051116,-0.96596897,-1.8502196,-0.9461674,2.0827758,1.2761554,-0.9780623,1.6721045,-1.0190595,-1.8455665,-0.99073553,2.0274568,1.2185256,-0.92429537,-1.5166061,1.1034193,0.11876328,0.8860339,0.9124041,0.7293403,-0.29212013,2.4822426,-0.6314049,0.61604786,-2.7478335,0.2874751,4.351789,0.42744446,-0.5411453,0.74839836,0.66871977,0.11173852,0.095452696,0.7288464,-1.2874383,-0.48171988,0.9542427,1.0,0.0,0.0,0.0,0.0,0.0,0.0,-3.1322427,0.23140487,-0.06604785,4.2053223,16.798782,-19.780079,-2.5385737,1.0382771,-5.526018,-3.1331718
16.679087,85.38199,24.866606,7.6074286,-1.0795484,1.1774018,-0.320983,-0.81674343,0.66510797,-0.021396033,0.5277114,0.6471903,0.6526147,-0.5744338,1.5904301,-0.95254874,-1.8477061,-0.9379644,2.0921757,1.2837871,-0.98173875,1.6572214,-1.0072187,-1.8454273,-0.9818492,2.0366387,1.2254665,-0.9273862,-1.4793712,1.2106576,-0.020099124,0.88873434,0.9201286,0.6822721,-0.31575975,2.4547844,-0.6285324,0.65879667,-2.7450862,0.2871877,4.249252,0.41474915,-0.54553604,0.7580581,0.67842865,0.10335604,0.0924337,0.7214624,-1.2674862,-0.40991378,0.968184,1.0,0.0,0.0,0.0,0.0,0.0,0.0,-3.1047845,0.2285324,-0.108796656,3.5731077,10.634947,-13.629794,0.05415678,0.83909035,-4.679048,-2.6547909
14.24621,76.66674,23.287514,7.895427,-0.56425446,1.2291734,-0.12606767,-0.81372195,0.6834001,-0.005824899,0.5054327,0.66356146,0.65714014,-0.5787292,1.5758493,-0.9388787,-1.8460097,-0.93130594,2.102995,1.2911805,-0.9852592,1.642615,-0.99469805,-1.8460815,-0.97294664,2.04592,1.2319992,-0.93068594,-1.4548979,1.2654843,-0.07937327,0.88993984,0.93112844,0.64358705,-0.33565003,2.4273567,-0.62566376,0.7005209,-2.7423418,0.28690058,4.146817,0.4021759,-0.5492859,0.76782066,0.6880732,0.09503526,0.089968234,0.71374315,-1.2564142,-0.34874114,0.9775831,1.0,0.0,0.0,0.0,0.0,0.0,0.0,-3.0773568,0.22566375,-0.15052086,2.300787,5.405426,-5.6100197,-0.11074543,1.1352897,-3.8758278,-2.2897065
12.943483,70.97591,22.14814,7.469532,-0.31383783,1.2486494,0.03186649,-0.8139408,0.7011175,-0.0060739163,0.47783425,0.671173,0.65710586,-0.57635885,1.5612209,-0.9245863,-1.8466889,-0.9251632,2.113037,1.2977097,-0.98832184,1.6281496,-0.98186827,-1.8469207,-0.9641528,2.0553193,1.238198,-0.93415636,-1.44425,1.2885591,-0.08427616,0.8751074,0.9426489,0.61184037,-0.35190308,2.399952,-0.6227951,0.7412215,-2.7396,0.28661373,4.044485,0.38967896,-0.5524597,0.77763385,0.6975283,0.08673427,0.08774673,0.7058555,-1.2496716,-0.2915241,0.9813189,1.0,0.0,0.0,0.0,0.0,0.0,0.0,-3.049952,0.2227951,-0.19122148,0.9114027,2.240467,-0.12180656,-1.7233968,1.1685371,-3.1742811,-1.9336224
13.60787,67.27797,21.024712,6.2784863,-0.33887646,1.1388258,0.12200137,-0.80661964,0.7179641,-0.02508802,0.45203817,0.6731649,0.6657478,-0.57468003,1.5474876,-0.91007185,-1.8494295,-0.918949,2.1226358,1.3047729,-0.99162436,1.613751,-0.9689069,-1.8476894,-0.9556327,2.064818,1.2441299,-0.937766,-1.4387383,1.2985054,-0.07321186,0.8434847,0.95219475,0.5870779,-0.36503798,2.3725777,-0.6199341,0.7808995,-2.7368608,0.28632718,3.9422557,0.37726593,-0.55506134,0.78742796,0.70670784,0.07845772,0.085655004,0.6979051,-1.2400763,-0.23459575,0.9775173,1.0,0.0,0.0,0.0,0.0,0.0,0.0,-3.0225778,0.21993408,-0.23089951,0.39465427,0.94144344,1.4826252,-3.4124374,0.9711504,-2.4355054,-1.6183853
13.59684,63.7251,19.766232,5.3875403,-0.34916466,1.0058138,0.18910673,-0.809076,0.7194451,-0.01940693,0.42038646,0.67895263,0.66131717,-0.5689461,1.5328435,-0.89696234,-1.8496301,-0.91359407,2.132713,1.3102616,-0.9946606,1.5993601,-0.95591974,-1.848273,-0.94754934,2.0744042,1.2498481,-0.94148535,-1.4397116,1.2986934,-0.052158546,0.7958319,0.96079737,0.56695014,-0.375129,2.34523,-0.61707306,0.81955606,-2.7341244,0.2860409,3.8401284,0.36496735,-0.5571022,0.7971291,0.71555126,0.07023528,0.08364259,0.68996906,-1.2278644,-0.17953491,0.9662318,1.0,0.0,0.0,0.0,0.0,0.0,0.0,-2.9952302,0.21707305,-0.26955605,-0.25482178,-0.02090931,2.4777405,-5.020821,0.88202953,-1.9317508,-1.3041735
17.628773,64.136925,20.20207,3.120625,-0.603594,0.9209745,0.3075966,-0.8056167,0.7272457,0.0080897985,0.3620229,0.686647,0.6629855,-0.57308185,1.5187985,-0.88319516,-1.8474641,-0.91134703,2.143069,1.3161467,-0.99879354,1.5849577,-0.94292784,-1.8485363,-0.94014406,2.0840783,1.2553966,-0.9452943,-1.440938,1.2992615,-0.016240489,0.72120875,0.96970993,0.551338,-0.38372552,2.3179092,-0.61421204,0.8571921,-2.731391,0.28575492,3.7381032,0.35285187,-0.5585365,0.8066933,0.7239687,0.062087446,0.08169186,0.68215895,-1.2063336,-0.11711528,0.9515568,1.0,0.0,0.0,0.0,0.0,0.0,0.0,-2.9679093,0.21421203,-0.3071921,-0.28808117,0.028181076,3.9792023,-7.72537,0.9139657,-1.4195085,-1.1563897
21.606216,65.373886,20.578718,1.1407471,-0.90573215,0.7892376,0.37950784,-0.79966754,0.74099755,0.014214136,0.30496418,0.6911735,0.6680855,-0.56545275,1.5049909,-0.86882806,-1.8471148,-0.90964764,2.1531956,1.3222052,-1.0018396,1.5705687,-0.92987204,-1.84846,-0.9336381,2.0938363,1.2608192,-0.94917196,-1.4387144,1.3076544,0.016865369,0.62619996,0.9781457,0.53981715,-0.38997295,2.290615,-0.61135864,0.89380866,-2.72866,0.28546923,3.63618,0.34103012,-0.55929947,0.816092,0.73188853,0.054036334,0.079846,0.6745694,-1.173818,-0.048495673,0.934032,1.0,0.0,0.0,0.0,0.0,0.0,0.0,-2.9406152,0.21135864,-0.34380865,0.056767464,0.82376003,3.681681,-9.765363,0.88346004,-0.95169544,-0.91249347
25.14656,65.381454,20.424686,-1.0424213,-1.2156701,0.59123373,0.44586694,-0.79770476,0.75184005,0.021230435,0.22868429,0.6955773,0.66878015,-0.5590625,1.4907982,-0.85468805,-1.846337,-0.91076964,2.163394,1.3276972,-1.0050782,1.5562159,-0.91668177,-1.8481052,-0.92826223,2.1036782,1.2661483,-0.9530973,-1.4348235,1.3228375,0.042816345,0.5072484,0.9861125,0.5314016,-0.39419156,2.2633476,-0.60850525,0.92940676,-2.725932,0.28518382,3.5343587,0.32961655,-0.5593376,0.8252757,0.73925555,0.04613791,0.0781753,0.66727877,-1.129427,0.024105005,0.9109234,1.0,0.0,0.0,0.0,0.0,0.0,0.0,-2.9133477,0.20850524,-0.37940675,0.22735596,1.5208721,2.933899,-12.160074,0.85926056,-0.57564974,-0.69123507
29.453842,62.667103,19.431973,-4.677797,-1.6211885,0.2579276,0.55745375,-0.7991372,0.7569829,0.032240152,0.11260472,0.6977736,0.6626754,-0.5517765,1.4763021,-0.84098345,-1.8448812,-0.9170018,2.1734555,1.3324158,-1.0082749,1.5418917,-0.9033303,-1.8475311,-0.92438364,2.113585,1.2714069,-0.95705026,-1.4322182,1.3392684,0.063332245,0.34718108,0.9928323,0.5251326,-0.39648765,2.2361107,-0.60565567,0.9639874,-2.7232065,0.2848987,3.4326394,0.31877136,-0.5586281,0.83413494,0.7459929,0.038507793,0.07676137,0.66039336,-1.0687628,0.09937903,0.87504315,1.0,0.0,0.0,0.0,0.0,0.0,0.0,-2.8861108,0.20565566,-0.4139874,0.10640621,1.6726971,2.3470244,-16.276306,0.7569909,-0.26205778,-0.4698336
39.294144,61.139027,19.427996,-11.323563,-2.3748422,-0.16008553,0.78771245,-0.7870284,0.7679793,0.05749138,-0.05516143,0.6959526,0.67043865,-0.5377171,1.4631889,-0.82653236,-1.841782,-0.9298998,2.1831803,1.3384508,-1.0108219,1.52764,-0.88979673,-1.846709,-0.92259455,2.1235375,1.2766254,-0.9610099,-1.4230986,1.3582276,0.08935249,0.12186351,0.9967479,0.52247024,-0.39645544,2.2088966,-0.6028099,0.99755156,-2.720484,0.28461385,3.3310218,0.30872345,-0.5570755,0.8425193,0.7519388,0.031303,0.07569272,0.65412426,-0.9795049,0.18529633,0.8233618,1.0,0.0,0.0,0.0,0.0,0.0,0.0,-2.8588967,0.2028099,-0.44755155,0.7790804,1.9618511,2.8443024,-22.796984,0.5037546,0.24982691,-0.20411015
46.645042,60.58978,19.94546,-16.339409,-2.8952117,-0.44761276,1.0089315,-0.78816825,0.77663606,0.11430937,-0.23255062,0.6982753,0.65797347,-0.5354715,1.4488232,-0.81213313,-1.835278,-0.9458496,2.193365,1.3424227,-1.0145571,1.5134703,-0.8760743,-1.8454216,-0.92349577,2.1335282,1.281821,-0.9649629,-1.4153012,1.3773065,0.14235573,-0.16146216,1.0002296,0.52062696,-0.39538974,2.181713,-0.59996414,1.0301003,-2.717764,0.2843293,3.2295058,0.2997322,-0.5545883,0.8503121,0.7569218,0.024651863,0.07499697,0.6487196,-0.86884874,0.27872252,0.7613902,1.0,0.0,0.0,0.0,0.0,0.0,0.0,-2.8317132,0.19996414,-0.48010033,0.6857395,2.009058,5.4574356,-28.553158,0.50548315,0.43809414,-0.048184395
46.44552,61.943527,20.902142,-14.670475,-2.670141,-0.42597848,1.0147612,-0.77484834,0.78079456,0.17335354,-0.3104278,0.70125747,0.6573303,-0.52488124,1.4359854,-0.79799485,-1.8280863,-0.9545385,2.203654,1.3475541,-1.017451,1.4994246,-0.8621869,-1.8433998,-0.9270425,2.143557,1.2870014,-0.96889395,-1.4011065,1.3928788,0.22199878,-0.41960365,1.0045723,0.51910686,-0.39276287,2.1545563,-0.597126,1.0616348,-2.7150466,0.28404504,3.128091,0.29182053,-0.5512047,0.85755837,0.76092625,0.018509375,0.07458893,0.6442709,-0.7608777,0.36671698,0.70853484,1.0,0.0,0.0,0.0,0.0,0.0,0.0,-2.8045564,0.197126,-0.51163477,1.3860226,1.685524,7.9633656,-25.963503,0.6866932,0.45125484,0.16179681
44.534157,63.98902,22.160072,-11.955017,-2.3332477,-0.278818,1.0076013,-0.76974785,0.7843881,0.25811192,-0.4146413,0.70327055,0.6611495,-0.5141119,1.4224498,-0.7837481,-1.8175886,-0.96850663,2.213884,1.3531163,-1.0203052,1.4855257,-0.8481755,-1.8403156,-0.9329505,2.1536317,1.2921703,-0.97279066,-1.3861145,1.4043058,0.3368262,-0.648059,1.009702,0.5180237,-0.38883296,2.1274261,-0.5942879,1.0921557,-2.7123322,0.28376105,3.026778,0.28492355,-0.5469513,0.8643702,0.763987,0.012750751,0.07433003,0.64080906,-0.6614264,0.45079023,0.66774243,1.0,0.0,0.0,0.0,0.0,0.0,0.0,-2.7774262,0.19428787,-0.5421557,1.5133381,1.2928009,11.332339,-22.930182,0.87082386,0.46685934,0.33692122
42.099434,66.623375,23.543516,-8.126647,-1.9248428,-0.10284881,0.94046134,-0.7472227,0.78881913,0.3360471,-0.4776927,0.7044612,0.6535843,-0.49301037,1.4108034,-0.7692936,-1.8067108,-0.98071975,2.2240777,1.3575287,-1.0220917,1.471852,-0.83407164,-1.8359172,-0.94074106,2.1637597,1.297322,-0.97663397,-1.3609102,1.4129586,0.4730408,-0.82284933,1.015383,0.5161504,-0.38290855,2.1003227,-0.59144974,1.1216643,-2.7096205,0.28347734,2.925566,0.2789154,-0.5418892,0.8708979,0.7661718,0.0072093396,0.07408672,0.6383101,-0.5732858,0.52994835,0.6427869,1.0,0.0,0.0,0.0,0.0,0.0,0.0,-2.7503228,0.19144973,-0.5716643,2.5815725,1.0383844,13.310009,-17.51678,1.0411263,0.36193132,0.5679846
37.87287,68.61611,24.54338,-3.3389006,-1.4264636,0.10940836,0.8267446,-0.72613096,0.7903717,0.4194665,-0.5105151,0.7052409,0.64464253,-0.47545063,1.3992388,-0.75503445,-1.7939706,-0.99179256,2.2342837,1.3617862,-1.024179,1.458491,-0.81990576,-1.8300521,-0.94981146,2.1739411,1.3024471,-0.9804086,-1.3273607,1.4184325,0.6229263,-0.9352563,1.0210387,0.51319015,-0.3756832,2.073246,-0.58861923,1.1501615,-2.7069113,0.28319392,2.824455,0.27368164,-0.5360794,0.8773038,0.7675817,0.0017010702,0.073741674,0.6366926,-0.5007764,0.6026409,0.63436335,1.0,0.0,0.0,0.0,0.0,0.0,0.0,-2.723246,0.18861923,-0.6001615,3.4461021,0.7392645,14.550209,-11.254131,1.1341095,0.21730661,0.712049
31.48513,68.78675,24.3117,1.7970061,-0.9300605,0.26024878,0.6522739,-0.7100675,0.79722595,0.47521895,-0.52121794,0.7052437,0.6377209,-0.4397108,1.3874842,-0.7401832,-1.7825302,-1.0019332,2.2444656,1.3662192,-1.0243797,1.4454829,-0.80567694,-1.8227737,-0.9595628,2.1841683,1.3075378,-0.9840898,-1.291617,1.42506,0.76111376,-0.9884609,1.0255295,0.5092534,-0.3656655,2.0461998,-0.5857887,1.1776484,-2.704205,0.2829108,2.7234452,0.26903534,-0.52960587,0.8837203,0.7683557,-0.00391845,0.073249176,0.6358054,-0.44563845,0.6658516,0.6380714,1.0,0.0,0.0,0.0,0.0,0.0,0.0,-2.6962,0.18578872,-0.6276484,3.6685228,0.8651018,13.327158,-5.334306,1.0516882,0.06707907,0.99769235
21.383934,65.29778,22.155743,7.8260107,-0.27965075,0.34783003,0.39968804,-0.7057941,0.8011064,0.5044426,-0.4993811,0.7136188,0.6355412,-0.40520525,1.3749034,-0.72556627,-1.7723294,-1.0095009,2.25553,1.371092,-1.0246103,1.4327685,-0.79137945,-1.8143604,-0.96940947,2.1944528,1.3125865,-0.9876527,-1.2645241,1.4319531,0.8665244,-0.9835937,1.0315846,0.5046132,-0.35330066,2.0191765,-0.58296204,1.204126,-2.7015014,0.28262794,2.6225364,0.2647667,-0.5226364,0.8902279,0.768695,-0.009729117,0.07261036,0.63540626,-0.4134917,0.71202487,0.64862806,1.0,0.0,0.0,0.0,0.0,0.0,0.0,-2.6691766,0.18296203,-0.654126,2.7659893,0.89228153,10.080301,0.43549538,1.1801958,-0.08883476,1.2259185
12.244245,58.74986,18.75113,11.513416,0.14283198,0.2816084,0.19747469,-0.71531224,0.8016254,0.5237019,-0.49935117,0.70334244,0.63654256,-0.3619518,1.3612373,-0.7112169,-1.7619902,-1.0193446,2.264787,1.3762408,-1.0238479,1.4201857,-0.77702856,-1.8051689,-0.9790311,2.2047563,1.3175895,-0.9910707,-1.2562795,1.4368587,0.9354006,-0.95532995,1.031512,0.49977192,-0.33801582,1.9921837,-0.58013916,1.2295953,-2.6988003,0.28234535,2.5217288,0.26070023,-0.515316,0.89681095,0.76878256,-0.015709365,0.071894,0.63526195,-0.39724514,0.74183506,0.654888,1.0,0.0,0.0,0.0,0.0,0.0,0.0,-2.6421838,0.18013915,-0.6795953,0.82621574,0.6823778,6.5173864,2.7296305,0.49452782,-0.18654466,1.5129447
3.2136965,49.600002,14.265773,13.953094,0.50488716,0.11354527,0.008165844,-0.7397578,0.7975851,0.52320296,-0.49877515,0.6970494,0.64559907,-0.34971502,1.3462099,-0.69727004,-1.7528486,-1.0289086,2.2744613,1.3821495,-1.0260422,1.4074885,-0.7626662,-1.7955825,-0.98834467,2.2150216,1.3225505,-0.9943399,-1.2743052,1.436639,0.9655035,-0.9239508,1.0263484,0.49567097,-0.32323262,1.9652138,-0.5773163,1.2540572,-2.6961021,0.28206307,2.4210217,0.2566948,-0.50784683,0.90337276,0.7687888,-0.021755071,0.071200676,0.6351543,-0.39405486,0.7531962,0.6498126,1.0,0.0,0.0,0.0,0.0,0.0,0.0,-2.6152139,0.17731628,-0.70405716,-1.871872,0.15001297,2.7664304,2.9830337,-0.11167526,-0.18730164,1.4582992
0.33940697,45.240906,12.4164505,14.927391,0.67269385,-0.0014389455,-0.055332147,-0.73887223,0.79511595,0.53603536,-0.47194028,0.70167124,0.64530426,-0.2919817,1.3336012,-0.68315464,-1.741979,-1.0355387,2.2851887,1.3870809,-1.0235381,1.3945795,-0.74833155,-1.7858379,-0.99727964,2.225245,1.3274734,-0.9974336,-1.2966182,1.4329365,0.97685504,-0.88394654,1.0221195,0.49190202,-0.3047767,1.9382744,-0.5744972,1.2775128,-2.6934066,0.28178108,2.3204155,0.252697,-0.50032043,0.90985715,0.76879704,-0.02780481,0.07056907,0.6349788,-0.39520672,0.75594985,0.64107287,1.0,0.0,0.0,0.0,0.0,0.0,0.0,-2.5882745,0.17449722,-0.7275128,-2.3240566,-0.20523071,0.9377599,3.8187385,-0.056552887,-0.18191934,1.8188596
-1.5031452,41.776844,10.897419,15.057516,0.71766794,-0.11684269,-0.10055567,-0.75818884,0.7950991,0.5351566,-0.46442223,0.70060134,0.64771473,-0.28213865,1.3187606,-0.66882163,-1.7323222,-1.0437219,2.2953053,1.3922448,-1.0256475,1.3813864,-0.7340369,-1.7760856,-1.0058614,2.2354264,1.3323638,-1.0003507,-1.327235,1.4287211,0.9743709,-0.8501669,1.0181334,0.488745,-0.28740954,1.9113579,-0.571682,1.2999631,-2.6907136,0.28149936,2.21991,0.24866486,-0.4928131,0.91621625,0.768854,-0.03380465,0.07003523,0.6346777,-0.39750862,0.7535056,0.627267,1.0,0.0,0.0,0.0,0.0,0.0,0.0,-2.561358,0.17168197,-0.7499631,-3.1780481,-0.26669502,-0.39283037,3.182304,-0.07266998,-0.1423955,1.7106652
1.2232089,42.016575,11.397916,14.060916,0.5809207,-0.21016504,-0.05578877,-0.75316507,0.7949129,0.5421069,-0.44366032,0.70102054,0.64316607,-0.24080157,1.3060699,-0.65454566,-1.721875,-1.0502274,2.3055284,1.3966805,-1.0244309,1.3679682,-0.71977854,-1.7663677,-1.014105,2.2455812,1.3372238,-1.003082,-1.3471018,1.4253505,0.9706071,-0.8165342,1.0154526,0.48579428,-0.26837412,1.8844719,-0.5688667,1.3214091,-2.6880236,0.2812179,2.1195047,0.2446518,-0.48530197,0.92243946,0.76894253,-0.039741796,0.069603994,0.6342737,-0.3937181,0.7535853,0.6136614,1.0,0.0,0.0,0.0,0.0,0.0,0.0,-2.534472,0.16886672,-0.7714091,-2.0830393,-0.182724,-0.5294323,3.1805515,0.05352497,-0.109261274,1.8758178
0.85097694,39.550056,10.540679,13.883398,0.60599387,-0.3075898,-0.06359799,-0.7712814,0.7891506,0.5331765,-0.42892575,0.7033926,0.64772516,-0.22010171,1.29084,-0.6408635,-1.71305,-1.0569975,2.3159204,1.4019963,-1.0250922,1.3543402,-0.70557165,-1.7567279,-1.0220376,2.2557244,1.3420608,-1.0056264,-1.3684113,1.419718,0.96125144,-0.786127,1.0146903,0.48366413,-0.2497666,1.8576126,-0.5660591,1.3418517,-2.685336,0.28093675,2.0191998,0.24068832,-0.47781372,0.92850345,0.7690603,-0.045593526,0.069274694,0.63377315,-0.3894658,0.7504271,0.59711593,1.0,0.0,0.0,0.0,0.0,0.0,0.0,-2.5076127,0.1660591,-0.7918517,-2.234006,-0.4150629,-1.063323,2.8509855,0.22420883,-0.036281347,1.830247
3.3978233,39.555367,11.042819,12.7096405,0.46711612,-0.3885741,-0.0011360161,-0.77198654,0.78444105,0.5424685,-0.4199015,0.6994329,0.6455528,-0.18828607,1.2771416,-0.6271275,-1.702481,-1.0640278,2.3256676,1.4066161,-1.0244551,1.3405558,-0.6914334,-1.7471302,-1.0297128,2.2658525,1.3468788,-1.0079801,-1.3820791,1.4123857,0.95883805,-0.76177275,1.0130705,0.48187464,-0.23060197,1.83078,-0.5632515,1.361292,-2.6826513,0.28065586,1.9189951,0.23681259,-0.47034454,0.93439716,0.7691708,-0.05135267,0.06904011,0.633224,-0.37926632,0.75022674,0.57990795,1.0,0.0,0.0,0.0,0.0,0.0,0.0,-2.4807801,0.16325149,-0.811292,-1.4493704,-0.58739185,-0.3762126,2.2602081,0.1357317,0.010615587,1.8832922
2.9622517,38.118435,10.625021,13.104677,0.5203136,-0.43062362,-0.017060053,-0.7820888,0.7793816,0.5336143,-0.3950724,0.6977283,0.64776886,-0.16381356,1.2623469,-0.6134953,-1.6937687,-1.0692201,2.3356252,1.4116557,-1.0243615,1.3266417,-0.67737913,-1.7375782,-1.0371095,2.2759614,1.3516834,-1.010143,-1.3947508,1.4036715,0.9537273,-0.7328259,1.0110204,0.48053682,-0.21164222,1.8039742,-0.5604477,1.3797312,-2.6799693,0.28037527,1.8188906,0.23302078,-0.46287918,0.9401211,0.76927257,-0.05702441,0.06889163,0.6326309,-0.37003666,0.7479448,0.5630873,1.0,0.0,0.0,0.0,0.0,0.0,0.0,-2.4539742,0.16044769,-0.82973117,-1.3530731,-0.72767735,-0.6362319,2.7151704,0.08535385,0.04647374,1.8596679
2.4664931,37.549324,10.459863,13.597512,0.5423727,-0.44283584,-0.038096447,-0.7939671,0.77859104,0.5277931,-0.37735063,0.69331264,0.6494308,-0.14483838,1.247245,-0.59952,-1.6847988,-1.0748446,2.3452926,1.4166265,-1.0246269,1.3125864,-0.66339636,-1.7280929,-1.044201,2.2860398,1.3564765,-1.012121,-1.4094708,1.3968487,0.9465948,-0.70181817,1.0075903,0.47951576,-0.1934464,1.777195,-0.5576477,1.39717,-2.6772897,0.28009495,1.7188861,0.22932053,-0.45544434,0.9456857,0.76938236,-0.06261881,0.06883822,0.6319738,-0.36177114,0.7453207,0.5474308,1.0,0.0,0.0,0.0,0.0,0.0,0.0,-2.427195,0.1576477,-0.84716994,-1.567769,-0.54023266,-0.8239627,2.9210806,-0.05722046,0.06630421,1.7843485
4.5923157,38.815975,11.295599,12.904198,0.40748465,-0.48454386,0.018827286,-0.7910963,0.77915615,0.53137994,-0.3675213,0.6928581,0.64437485,-0.080002256,1.2334768,-0.58548075,-1.6749549,-1.0809531,2.3553257,1.420914,-1.0201212,1.298432,-0.64945745,-1.7186477,-1.0510083,2.2960877,1.3612583,-1.0138891,-1.4177128,1.3933185,0.9432463,-0.6742379,1.0045531,0.47825933,-0.17142454,1.7504425,-0.5548477,1.4136095,-2.674613,0.27981493,1.6189816,0.22573471,-0.44800186,0.95110357,0.76946783,-0.068145156,0.068886355,0.6312923,-0.34857735,0.7469235,0.5330659,1.0,0.0,0.0,0.0,0.0,0.0,0.0,-2.4004426,0.15484771,-0.8636095,-0.90556145,-0.21061897,-0.4518509,2.595985,-0.014472008,0.050884485,2.1681488
5.230909,36.509773,10.581561,11.785226,0.34243506,-0.6132269,0.056573786,-0.7997227,0.76936543,0.52720135,-0.3716453,0.69036365,0.6506046,-0.042996377,1.2184597,-0.5725209,-1.6659275,-1.0881729,2.3651242,1.4263188,-1.0181887,1.2841917,-0.6355815,-1.7092388,-1.0576402,2.3061013,1.3660343,-1.0154302,-1.4263455,1.386102,0.9397994,-0.6598906,1.0011532,0.47782513,-0.14830439,1.7237167,-0.55205154,1.4290507,-2.671939,0.27953517,1.519177,0.22231293,-0.44054794,0.9563395,0.7694981,-0.07356551,0.06904409,0.6306295,-0.33151743,0.74674374,0.51367444,1.0,0.0,0.0,0.0,0.0,0.0,0.0,-2.3737168,0.15205154,-0.8790507,-0.9385824,-0.5862236,-0.44435263,1.2754202,-0.07317066,0.1368761,2.277428
7.058868,37.967705,11.584951,11.311851,0.24499452,-0.6218898,0.12948892,-0.7981216,0.7703402,0.5416911,-0.3614593,0.69259566,0.6457055,0.042196,1.2043796,-0.5585475,-1.6550697,-1.0937861,2.375361,1.4306048,-1.0112106,1.269898,-0.6217618,-1.699786,-1.0641538,2.316092,1.3708026,-1.0166986,-1.4303774,1.381047,0.94671124,-0.6489443,0.9996155,0.47713664,-0.11960104,1.6970177,-0.5492592,1.4434946,-2.6692674,0.2792557,1.4194721,0.21908951,-0.43307114,0.96139675,0.7694187,-0.078880906,0.069300406,0.6300555,-0.31089467,0.7510079,0.4963614,1.0,0.0,0.0,0.0,0.0,0.0,0.0,-2.3470178,0.14925918,-0.89349455,-0.465703,-0.3682375,0.58141947,0.9532809,0.12408495,0.118649006,2.8369813
8.662309,38.10095,11.92879,10.100873,0.09834987,-0.6938467,0.20128861,-0.80258024,0.76815873,0.5515552,-0.37548596,0.69082934,0.6523364,0.10868128,1.18964,-0.54494596,-1.6446304,-1.1017023,2.385175,1.4360362,-1.0058305,1.2555681,-0.6079869,-1.6902072,-1.0706693,2.3260713,1.3755691,-1.0176523,-1.4340858,1.3768033,0.9611133,-0.6527333,0.9982578,0.47729206,-0.0874017,1.6703453,-0.5464668,1.4569422,-2.6665988,0.2789765,1.3198669,0.2161026,-0.42552567,0.96626145,0.76916903,-0.08407224,0.06965758,0.6296496,-0.28487822,0.7581395,0.47650206,1.0,0.0,0.0,0.0,0.0,0.0,0.0,-2.3203454,0.14646682,-0.9069422,-0.4228115,-0.2898693,1.3359904,-0.5029559,0.13433695,0.21283627,3.1910791
11.484468,35.359615,10.906561,6.1400013,-0.24337387,-1.014823,0.30018437,-0.8045308,0.7596209,0.5493489,-0.43866885,0.6867361,0.6496348,0.124153845,1.1751151,-0.53202486,-1.6352724,-1.1145362,2.3947449,1.4405326,-1.0052369,1.2412077,-0.59427977,-1.6805065,-1.0775491,2.3360276,1.3803394,-1.0183027,-1.4367917,1.3690691,0.97278094,-0.6999157,0.99538875,0.47757676,-0.05741327,1.6436996,-0.5436821,1.4693946,-2.6639326,0.27869758,1.2203614,0.21349335,-0.41791916,0.97081953,0.7686875,-0.089005135,0.07016389,0.6295034,-0.24419667,0.76390254,0.4422454,1.0,0.0,0.0,0.0,0.0,0.0,0.0,-2.2936997,0.14368209,-0.91939455,-0.2874136,-0.65124035,1.0805607,-4.818833,-0.06850958,0.25466084,2.978874
12.904711,35.754795,11.382589,5.4375563,-0.34536088,-1.078729,0.3675178,-0.79724956,0.7574412,0.5667977,-0.44592142,0.6793202,0.6426346,0.23565027,1.1614828,-0.5185356,-1.6238267,-1.1221412,2.4039598,1.4446028,-0.9947376,1.2268645,-0.58064795,-1.6706417,-1.0849324,2.3459344,1.3851058,-1.0186002,-1.4334389,1.3615694,0.9907352,-0.75138897,0.98990315,0.47724456,-0.020686103,1.6170807,-0.54089737,1.4808525,-2.6612692,0.27841893,1.1209552,0.21132278,-0.41023254,0.9750347,0.767917,-0.09362878,0.07084219,0.6296972,-0.19921802,0.7716207,0.40781552,1.0,0.0,0.0,0.0,0.0,0.0,0.0,-2.2670808,0.14089736,-0.9308525,0.34217834,-0.6249428,1.6879916,-5.2306175,-0.32744408,0.1976788,3.6563773
10.873371,33.260654,10.278751,6.685543,-0.18076348,-1.1034954,0.29775816,-0.7992283,0.7522391,0.55699056,-0.44638523,0.6726489,0.65174264,0.26416045,1.1469417,-0.505424,-1.6149426,-1.129571,2.4131992,1.4502801,-0.99218416,1.2125517,-0.56709814,-1.6606758,-1.0927373,2.3557725,1.3898761,-1.018543,-1.430363,1.3532081,0.99833125,-0.7905448,0.98234445,0.4775499,0.014588254,1.5904884,-0.53811264,1.4913172,-2.6586084,0.27814057,1.0216485,0.2095604,-0.40249252,0.9789146,0.766892,-0.09795202,0.071696095,0.6301918,-0.1589967,0.7739345,0.3745378,1.0,0.0,0.0,0.0,0.0,0.0,0.0,-2.2404885,0.13811263,-0.94131714,0.303483,-0.7090807,0.6566286,-4.013455,-0.5393982,0.23849607,3.51026
10.510768,32.355534,9.984008,7.0105424,-0.13742787,-1.1473353,0.2839245,-0.7942694,0.74945223,0.56088716,-0.46922714,0.67240113,0.64188284,0.30594704,1.1331248,-0.49215293,-1.6045871,-1.13966,2.4230125,1.4540644,-0.9879483,1.1982905,-0.55362463,-1.6506584,-1.1009084,2.365542,1.3946407,-1.0181367,-1.4247526,1.3457611,1.0025793,-0.82633895,0.976051,0.47682637,0.049083512,1.5639229,-0.53533554,1.5007895,-2.6559503,0.2778625,0.9224411,0.20820618,-0.39476013,0.98246706,0.76563734,-0.10197267,0.07272684,0.63096094,-0.11920112,0.77450085,0.34196302,1.0,0.0,0.0,0.0,0.0,0.0,0.0,-2.213923,0.13533553,-0.9507895,0.5603552,-0.61564445,0.3177166,-3.6760807,-0.41558743,0.12503862,3.4347036
10.695721,30.428577,9.3079405,6.011489,-0.18528119,-1.258972,0.2973273,-0.7944484,0.74024665,0.5696964,-0.51594055,0.66682196,0.6436249,0.30542797,1.1188456,-0.47959995,-1.5936887,-1.1525024,2.432224,1.4590032,-0.98759395,1.1840769,-0.5402484,-1.6405818,-1.1095468,2.3752465,1.3993995,-1.0174253,-1.4201745,1.3353827,1.0088328,-0.87648445,0.96925175,0.4761849,0.07855149,1.537384,-0.53255844,1.5092705,-2.653295,0.27758467,0.8233329,0.20727158,-0.38702393,0.9856582,0.7641565,-0.105645366,0.07393282,0.63201094,-0.076192506,0.7727984,0.3046424,1.0,0.0,0.0,0.0,0.0,0.0,0.0,-2.1873841,0.13255844,-0.95927054,0.47175884,-0.91354847,0.5220175,-5.102277,-0.48611164,0.12844205,2.9350712
9.93524,29.919823,9.248201,7.1036673,-0.07295418,-1.2359748,0.27008826,-0.7862356,0.73795843,0.57030034,-0.51772153,0.6675287,0.64034784,0.34749287,1.1054534,-0.46645254,-1.5835518,-1.1613189,2.4419994,1.4634343,-0.982676,1.1699339,-0.5269656,-1.6304557,-1.118599,2.3849015,1.4041507,-1.016424,-1.4122936,1.3262937,1.0135764,-0.9149583,0.96474403,0.47514853,0.1073077,1.5108719,-0.52978516,1.5167612,-2.6506422,0.27730715,0.72432375,0.20674133,-0.37931824,0.98850304,0.7624645,-0.10898113,0.07529641,0.6333257,-0.03645097,0.7699682,0.27090633,1.0,0.0,0.0,0.0,0.0,0.0,0.0,-2.160872,0.12978515,-0.9667612,0.79894066,-0.7796526,0.36263466,-3.9386034,-0.2486229,0.073069334,2.86479
7.163576,26.611551,7.7565846,8.885894,0.17587513,-1.2264733,0.17273198,-0.78710216,0.7300222,0.5529281,-0.51827514,0.6586225,0.644589,0.36393407,1.0912237,-0.4539634,-1.5751629,-1.1704266,2.4507637,1.4686096,-0.98003054,1.155852,-0.51378584,-1.6203773,-1.1279165,2.3944955,1.4088924,-1.0151536,-1.4068979,1.3156458,1.0056103,-0.93768257,0.95841455,0.4743314,0.13334608,1.4843826,-0.5270157,1.5232626,-2.6479921,0.2770299,0.6254136,0.2065506,-0.3716812,0.9910264,0.760629,-0.11200365,0.07680822,0.6348222,-0.0042000567,0.7604296,0.2392843,1.0,0.0,0.0,0.0,0.0,0.0,0.0,-2.1343827,0.12701568,-0.9732626,0.5227566,-0.93581676,-0.8864403,-2.3897767,-0.43845177,0.06549358,2.5877566
6.5504727,25.598213,7.4007883,9.311841,0.22854257,-1.2375834,0.14555302,-0.78430873,0.72635716,0.5532056,-0.5399539,0.6565588,0.64477634,0.36501318,1.0774211,-0.44115013,-1.5650568,-1.1819118,2.4601514,1.4733701,-0.97865236,1.1418177,-0.50070524,-1.6103904,-1.1374532,2.4040322,1.4136264,-1.0136545,-1.4022887,1.3059732,0.99617004,-0.9594754,0.95260227,0.4735081,0.15542161,1.4579239,-0.5242462,1.5287756,-2.6453445,0.27675292,0.5266023,0.20668411,-0.36415863,0.993238,0.7586916,-0.11471861,0.07846224,0.6364513,0.02677874,0.74964064,0.20824227,1.0,0.0,0.0,0.0,0.0,0.0,0.0,-2.107924,0.12424621,-0.97877556,0.437665,-0.8387089,-1.0250568,-2.29733,-0.39167404,0.050741434,2.1928012
5.244891,23.122602,6.27019,9.485509,0.32223797,-1.285879,0.0990958,-0.7904342,0.71978587,0.54264355,-0.56372213,0.65976036,0.6477758,0.34025985,1.0627743,-0.42872664,-1.5561261,-1.1938254,2.4700084,1.478404,-0.9796285,1.1277853,-0.48772526,-1.6005332,-1.1472512,2.4135346,1.4183547,-1.0119817,-1.4037889,1.295742,0.98208255,-0.9868963,0.9495839,0.4729329,0.17124991,1.431488,-0.52148056,1.5333012,-2.6426997,0.27647623,0.42788988,0.20711136,-0.35676575,0.99512184,0.7566929,-0.117097855,0.080251105,0.6381721,0.05589013,0.7344359,0.17493209,1.0,0.0,0.0,0.0,0.0,0.0,0.0,-2.0814881,0.121480554,-0.9833012,-0.18799305,-0.9001255,-1.4612675,-2.8654933,-0.13219118,0.05606413,1.5695482
5.6127214,21.886461,5.9052277,8.458296,0.26291257,-1.3649845,0.12491165,-0.7918856,0.71030056,0.54837143,-0.6027197,0.65484494,0.6427262,0.32729444,1.0485967,-0.4166952,-1.5456961,-1.2075232,2.4790192,1.4826274,-0.9792523,1.1137186,-0.4748664,-1.5907657,-1.157446,2.422999,1.4230735,-1.0101831,-1.4076912,1.2829986,0.9747927,-1.0308678,0.9460528,0.47190252,0.18259032,1.4050827,-0.5187187,1.5368404,-2.6400576,0.27619982,0.32927614,0.20785904,-0.34952164,0.9966405,0.7546355,-0.11909058,0.08217327,0.63999224,0.08830473,0.7183576,0.13735601,1.0,0.0,0.0,0.0,0.0,0.0,0.0,-2.0550828,0.11871871,-0.9868404,-0.41103363,-1.1567593,-0.78020096,-4.5060873,-0.1986146,0.0037372112,1.1236101
5.8514028,22.667456,6.5952806,9.3368,0.29094827,-1.2967784,0.13209736,-0.783247,0.7074128,0.5512215,-0.6014873,0.64885354,0.6474769,0.35532552,1.035394,-0.4041251,-1.5356436,-1.2175947,2.4878843,1.4878212,-0.97465056,1.0996538,-0.46212196,-1.5810249,-1.1680089,2.4324212,1.4277866,-1.00827,-1.4062396,1.2720436,0.9736398,-1.0648854,0.94128925,0.47136652,0.19430232,1.3787003,-0.5159569,1.5393943,-2.637418,0.27592367,0.230761,0.20891571,-0.34241867,0.99781555,0.75250447,-0.12072523,0.08421014,0.6419275,0.11925155,0.70530725,0.10420793,1.0,0.0,0.0,0.0,0.0,0.0,0.0,-2.0287004,0.11595687,-0.98939425,0.12612343,-0.9706259,-0.18482208,-3.5071135,-0.30180216,0.04580021,1.1624306
4.2649417,20.564741,5.814888,10.801594,0.4865212,-1.2524728,0.078232974,-0.78385115,0.69837064,0.5378251,-0.60177255,0.6465894,0.6493631,0.36098137,1.0212687,-0.3922849,-1.5272424,-1.2281861,2.49708,1.4927229,-0.9721719,1.0856081,-0.44949722,-1.5713336,-1.1788083,2.4417977,1.4324958,-1.0062482,-1.4041622,1.2596825,0.9673711,-1.0853664,0.9367195,0.47096407,0.20475279,1.3523483,-0.51320267,1.5409636,-2.6347811,0.27564782,0.13234435,0.21023941,-0.3354683,0.99868387,0.75032884,-0.12204661,0.086338125,0.6439386,0.1444479,0.688914,0.07428623,1.0,0.0,0.0,0.0,0.0,0.0,0.0,-2.0023484,0.11320266,-0.99096364,0.16858578,-1.1105537,-0.68428516,-2.1707058,-0.27945042,0.039184093,1.0316789
3.775326,19.337524,5.582864,11.39485,0.58169985,-1.2250338,0.07404815,-0.7817494,0.68794364,0.5426072,-0.6169613,0.64657277,0.65025955,0.36040387,1.0074332,-0.38070285,-1.5170729,-1.2405045,2.506455,1.4975218,-0.97020787,1.0715929,-0.43701506,-1.5616748,-1.189787,2.4511323,1.4372013,-1.0041349,-1.4008541,1.2448107,0.96500677,-1.1024808,0.93336725,0.47063667,0.21352568,1.3260193,-0.51044846,1.5415497,-2.6321468,0.2753722,0.034026086,0.21179962,-0.32868958,0.9992637,0.74811965,-0.123077095,0.08852618,0.64601237,0.16726911,0.67164546,0.045859072,1.0,0.0,0.0,0.0,0.0,0.0,0.0,-1.9760193,0.11044845,-0.9915497,0.2897501,-1.3614893,-0.29566288,-1.8365622,-0.15295744,0.036227703,0.86333454
3.373044,17.356121,4.975366,11.561144,0.655118,-1.2502135,0.07500522,-0.7717794,0.6734341,0.5377293,-0.62798584,0.63578993,0.64185363,0.36713082,0.994415,-0.36967164,-1.5079019,-1.2525856,2.5147114,1.5013866,-0.9674218,1.057654,-0.42471838,-1.5520504,-1.200926,2.4604135,1.4418972,-1.0019414,-1.3917875,1.2250364,0.96116716,-1.1182175,0.9269442,0.46945414,0.22139923,1.299717,-0.50769424,1.5411533,-2.6295152,0.2750969,-0.06419388,0.2135849,-0.32209778,0.9995567,0.74587786,-0.1238173,0.09074796,0.6481514,0.18923359,0.65191746,0.01707808,1.0,0.0,0.0,0.0,0.0,0.0,0.0,-1.9497169,0.10769424,-0.9911533,0.8847952,-1.8540144,-0.4592061,-1.6999006,-0.4641056,-0.057017803,0.76945126
3.166976,16.965174,5.0743203,12.207838,0.70323277,-1.2058508,0.0719016,-0.7663711,0.6658696,0.5396955,-0.63136774,0.63210934,0.6449444,0.36857212,0.98101693,-0.3581314,-1.4980808,-1.2640628,2.5236244,1.5063916,-0.96508425,1.0438219,-0.4126172,-1.5424469,-1.2121927,2.469626,1.4465835,-0.9996774,-1.3804529,1.2055409,0.95967793,-1.1297894,0.92029756,0.46854693,0.22813866,1.2734413,-0.50494766,1.5397754,-2.6268861,0.27482185,-0.16231567,0.21559143,-0.3156929,0.99957705,0.7436019,-0.124286845,0.09299045,0.650355,0.20953622,0.63320076,-0.009471696,1.0,0.0,0.0,0.0,0.0,0.0,0.0,-1.9234413,0.10494766,-0.98977536,1.1069059,-1.8244505,-0.22522211,-1.2831688,-0.4790783,-0.03915429,0.6574005
3.5007293,16.752508,4.9978123,11.5381975,0.6420366,-1.2558532,0.086088344,-0.7631146,0.65973544,0.53715014,-0.6596709,0.6369533,0.6395498,0.35375518,0.96751046,-0.34664366,-1.4887319,-1.2781597,2.5333214,1.5105385,-0.9643019,1.0301005,-0.4006915,-1.5328624,-1.2236634,2.4788003,1.4512584,-0.99736476,-1.3696263,1.1886739,0.95782405,-1.1532848,0.9169556,0.4671591,0.23233402,1.2471924,-0.5022011,1.537417,-2.62426,0.27454707,-0.26033935,0.21781158,-0.30947495,0.99931043,0.74128723,-0.12445803,0.09525057,0.6526337,0.2326207,0.61473346,-0.038808677,1.0,0.0,0.0,0.0,0.0,0.0,0.0,-1.8971924,0.102201074,-0.98741704,1.0685205,-1.5645981,-0.25897026,-2.4598122,-0.16140938,-0.095528364,0.40983558
3.896153,15.823599,5.078333,11.16579,0.6148397,-1.2590914,0.13920736,-0.7497963,0.638531,0.552971,-0.6769376,0.6156894,0.6251257,0.3761026,0.95512086,-0.3368384,-1.4775653,-1.2913572,2.5403693,1.5137709,-0.9597545,1.016522,-0.3889823,-1.5232189,-1.2354165,2.4878907,1.4559104,-0.99499965,-1.3538812,1.165388,0.96625334,-1.182997,0.9070847,0.46443984,0.23775727,1.2209702,-0.4994583,1.5340791,-2.6216362,0.2742726,-0.358265,0.22026825,-0.30343246,0.998739,0.7388966,-0.12431187,0.09752478,0.6550322,0.2570771,0.5972701,-0.06957579,1.0,0.0,0.0,0.0,0.0,0.0,0.0,-1.8709701,0.09945831,-0.98407906,1.5933275,-2.2073507,0.7357359,-3.0714273,-0.80879927,-0.23193955,0.5318582
1.9398838,12.075995,3.4375536,11.962919,0.8212707,-1.2509865,0.09503728,-0.7466283,0.6199787,0.53849703,-0.6832259,0.6081594,0.62758666,0.3882997,0.94185925,-0.32698444,-1.4693692,-1.3037391,2.5487068,1.5186691,-0.95616966,1.0030867,-0.37754726,-1.5135524,-1.2474443,2.4968667,1.4605358,-0.99257827,-1.340133,1.1365796,0.96646214,-1.2096514,0.8951316,0.46191248,0.2436466,1.1947708,-0.49671936,1.5297626,-2.6190152,0.27399838,-0.45609277,0.22294235,-0.29760742,0.9978559,0.7364498,-0.12383747,0.099797174,0.6575306,0.2761411,0.5736454,-0.10080027,1.0,0.0,0.0,0.0,0.0,0.0,0.0,-1.8447708,0.096719354,-0.9797626,1.3828278,-2.7665138,-0.06997585,-2.7813196,-1.0307193,-0.2352655,0.57290196
0.08616972,8.0146885,1.7213714,12.603161,1.0487669,-1.2570751,0.062848374,-0.7376731,0.5950109,0.5297991,-0.6963763,0.60144484,0.61319965,0.39789072,0.9293194,-0.31804618,-1.4605725,-1.3170819,2.5570111,1.5218557,-0.9527892,0.9897929,-0.3664608,-1.5039413,-1.2597257,2.5057206,1.4651268,-0.99009585,-1.3257606,1.099655,0.95919865,-1.2347815,0.88268524,0.45806283,0.24968661,1.168602,-0.4939804,1.5244687,-2.6163967,0.27372444,-0.5538228,0.22577667,-0.29206848,0.9966545,0.73398125,-0.1230169,0.10203581,0.6600961,0.28999686,0.54304016,-0.13267565,1.0,0.0,0.0,0.0,0.0,0.0,0.0,-1.818602,0.0939804,-0.97446865,1.4482737,-3.5870314,-0.81341267,-2.6426792,-1.0955572,-0.38900375,0.5817145
-1.3345388,5.1429915,0.8729944,14.0987835,1.2403536,-1.1528536,0.04354061,-0.72148937,0.56611353,0.5289141,-0.69090617,0.56680095,0.6272688,0.43186706,0.91764396,-0.30984944,-1.4510499,-1.3288163,2.5624008,1.5278536,-0.9469091,0.9766808,-0.3558073,-1.4944122,-1.2721616,2.5143723,1.469691,-0.9875343,-1.306337,1.0542485,0.95048153,-1.2470516,0.859674,0.45586154,0.25825545,1.142456,-0.49124527,1.5181981,-2.613781,0.27345076,-0.6514551,0.22869492,-0.2868538,0.99516106,0.7315037,-0.12189423,0.10421911,0.66270846,0.29736868,0.5103965,-0.16081882,1.0,0.0,0.0,0.0,0.0,0.0,0.0,-1.792456,0.091245264,-0.9681981,1.9473076,-4.437065,-0.9681821,-1.3740301,-2.1430135,-0.23859143,0.82719326
-5.0934734,-4.5028195,-3.3008242,14.652964,1.7316118,-1.2227325,-0.004811963,-0.69594496,0.5022286,0.4935352,-0.7028363,0.5380673,0.60478777,0.44068035,0.9070863,-0.30558443,-1.4450587,-1.3424453,2.5681791,1.5301698,-0.94346625,0.9638491,-0.3458171,-1.4851234,-1.28471,2.5227304,1.4742191,-0.98488784,-1.2752471,0.9808795,0.92109823,-1.2581798,0.8282002,0.45161742,0.26661566,1.1163368,-0.48851395,1.510952,-2.6111677,0.27317736,-0.7489898,0.23162079,-0.2821045,0.99335694,0.72905886,-0.12044624,0.106277734,0.6653352,0.294732,0.45979938,-0.19262144,1.0,0.0,0.0,0.0,0.0,0.0,0.0,-1.7663368,0.08851394,-0.960952,3.1791925,-7.256806,-3.0833244,-1.287961,-3.0277371,-0.4714012,0.783211
-7.7721567,-10.497334,-5.9256883,14.963263,2.0465193,-1.224613,-0.034261096,-0.69291395,0.45252502,0.48072094,-0.7271966,0.52166283,0.5918781,0.4387408,0.8945577,-0.3005646,-1.4370513,-1.3574297,2.5748966,1.5334069,-0.94101375,0.9512959,-0.3366809,-1.4761684,-1.2974435,2.530768,1.4786975,-0.982167,-1.2484517,0.8914075,0.88654035,-1.2791774,0.7955125,0.44614735,0.2736291,1.0902443,-0.48578262,1.5027312,-2.608557,0.27290425,-0.846427,0.23446655,-0.27793503,0.9912094,0.7266882,-0.118615665,0.108139895,0.66795224,0.28460035,0.3988723,-0.22734258,1.0,0.0,0.0,0.0,0.0,0.0,0.0,-1.7402443,0.08578262,-0.9527312,2.766633,-8.886492,-3.6038637,-2.2801638,-3.1799555,-0.6260574,0.64375997
-15.230176,-27.628008,-14.03042,16.004148,2.9922526,-1.3566331,-0.1666731,-0.6510495,0.34155315,0.38767746,-0.72938687,0.4763772,0.5701073,0.45624337,0.88619095,-0.30252558,-1.4374007,-1.3703822,2.5784056,1.5357083,-0.9365427,0.9391375,-0.3287878,-1.4679363,-1.3103715,2.5383973,1.4831035,-0.97937465,-1.2042532,0.7553189,0.80156213,-1.2979871,0.752116,0.43838602,0.2808208,1.0641785,-0.4830551,1.4935368,-2.605949,0.2726314,-0.9437668,0.23706436,-0.27463531,0.9886605,0.7245093,-0.11630559,0.1096773,0.6704701,0.25461692,0.30286622,-0.26854792,1.0,0.0,0.0,0.0,0.0,0.0,0.0,-1.7141784,0.08305511,-0.9435368,4.611659,-13.595713,-8.713174,-2.0997286,-4.33203,-0.91874003,0.62244534
-32.433044,-70.35794,-32.93272,17.93306,5.290368,-1.5624135,-0.35371336,-0.56516415,0.06385887,0.25179824,-0.7351386,0.34110957,0.53227156,0.46834877,0.8826211,-0.3224019,-1.4427564,-1.3838854,2.5725083,1.5363307,-0.93253976,0.9277659,-0.3233385,-1.4611137,-1.3234693,2.5452485,1.4874027,-0.9765136,-1.1131946,0.47446728,0.6408937,-1.3145483,0.66211057,0.42612737,0.2872584,1.0381393,-0.48033142,1.4833698,-2.6033435,0.27235883,-1.0410092,0.23899078,-0.27292252,0.98557204,0.72271323,-0.11334708,0.1105014,0.67277586,0.17461935,0.12513943,-0.32592383,1.0,0.0,0.0,0.0,0.0,0.0,0.0,-1.6881393,0.080331415,-0.9333698,9.590077,-28.181732,-16.526365,-1.9382715,-9.13924,-1.511097,0.45206547
-64.22637,-145.1179,-69.692154,19.597664,8.826312,-2.3607085,-0.9634147,-0.35482162,-0.3643842,-0.20381327,-0.71620136,-0.098664895,0.4507461,0.47040904,0.89228374,-0.3597769,-1.481495,-1.3950894,2.535382,1.5324773,-0.92947274,0.9182063,-0.32238913,-1.4578578,-1.3365899,2.5499482,1.4915073,-0.973603,-0.90056145,-0.03256892,0.21838954,-1.3118984,0.4042825,0.4031623,0.2911107,1.0121231,-0.47760773,1.472231,-2.6007407,0.27208653,-1.1381544,0.23957825,-0.27412796,0.98160106,0.721837,-0.109372936,0.11034793,0.67439765,0.020774582,-0.20350897,-0.4228973,1.0,0.0,0.0,0.0,0.0,0.0,0.0,-1.6621231,0.07760772,-0.922231,22.140194,-51.004936,-42.946827,0.03914833,-26.25301,-2.9411435,0.008827448
-38.63814,-118.749825,-51.617176,10.584034,6.2743545,-2.5925138,0.021521473,0.23156959,-0.5671731,-0.34673047,-0.70049995,-0.50171554,0.43183467,0.5017258,0.9413632,-0.37910643,-1.492531,-1.4066399,2.4997766,1.5346907,-0.92343044,0.9132872,-0.32681513,-1.459111,-1.3495485,2.5510392,1.4953849,-0.9706304,-0.35455072,-0.58002573,-0.24101411,-1.2902013,0.010139883,0.38066617,0.29859015,0.9861374,-0.47489166,1.4601216,-2.5981405,0.2718145,-1.2352024,0.23921204,-0.2780609,0.9766162,0.72129244,-0.10452278,0.10935867,0.6759089,-0.057826832,-0.45775503,-0.52449924,1.0,0.0,0.0,0.0,0.0,0.0,0.0,-1.6361374,0.07489166,-0.9101216,54.91996,-54.968853,-46.32703,2.2730112,-39.57072,-2.812183,0.5035281
-15.442181,-80.76986,-31.159529,4.108917,3.9380624,-2.5451162,0.6910474,0.51632166,-0.71502775,-0.4724059,-0.7210464,-0.5547151,0.4750303,0.4941428,0.9649194,-0.3983179,-1.5063516,-1.4216532,2.4955678,1.5428879,-0.92121613,0.9146176,-0.3362255,-1.4645488,-1.3623754,2.5484948,1.4990928,-0.9675815,0.29194844,-1.0619732,-0.6421695,-1.2794701,-0.34284103,0.36564824,0.30696923,0.96017456,-0.4721756,1.4470423,-2.595543,0.27154273,-1.3321534,0.2385521,-0.28396606,0.9706239,0.72032344,-0.09900813,0.107625,0.6780475,-0.0707999,-0.6323569,-0.6251017,1.0,0.0,0.0,0.0,0.0,0.0,0.0,-1.6101745,0.07217559,-0.89704233,63.564754,-48.377384,-39.305676,1.2842417,-35.240623,-2.0235717,0.8270323
-1.3574142,-41.395985,-14.611825,3.2678387,2.193728,-2.2578826,0.7034024,0.59085834,-0.7649738,-0.59716624,-0.7165532,-0.49565655,0.5348292,0.40778014,0.97370344,-0.4127229,-1.5242654,-1.4340307,2.4989293,1.5525757,-0.92680347,0.9215136,-0.3492775,-1.4733722,-1.3751184,2.5433564,1.5027206,-0.96451354,0.81656164,-1.386842,-0.9577789,-1.2719235,-0.5710537,0.36024943,0.3071523,0.93423843,-0.46945953,1.4329944,-2.5929477,0.27127123,-1.4290075,0.23804092,-0.29112625,0.9637411,0.71873075,-0.09296003,0.10529605,0.68095315,-0.044584192,-0.7392015,-0.7122589,1.0,0.0,0.0,0.0,0.0,0.0,0.0,-1.5842384,0.06945953,-0.88299435,50.774097,-32.65586,-30.179585,0.9341717,-22.750832,-1.0171294,0.1447618
7.784068,-5.3241653,0.036933184,5.014333,0.85044986,-1.7028167,0.5585523,0.58842295,-0.7819654,-0.60376555,-0.7334737,-0.40178207,0.5582933,0.34878018,0.9803559,-0.42747402,-1.5337487,-1.4484657,2.5031781,1.5585499,-0.9296355,0.93202883,-0.36434746,-1.484307,-1.3879033,2.5369744,1.5063369,-0.96149516,1.1259907,-1.547499,-1.1354916,-1.2802945,-0.6605936,0.36091706,0.30062023,0.908329,-0.4667511,1.4179785,-2.5903554,0.27100003,-1.5257648,0.23789597,-0.2988701,0.95616275,0.71658784,-0.08648834,0.10255002,0.68447423,-0.000102918544,-0.782445,-0.7784473,1.0,0.0,0.0,0.0,0.0,0.0,0.0,-1.558329,0.06675109,-0.8679785,29.764843,-16.198254,-16.833687,-0.73099136,-8.947718,-0.27723312,-0.4941404
12.943748,21.19123,11.572785,8.779538,0.2451958,-1.0125061,0.41995227,0.5965966,-0.7922234,-0.570515,-0.73902005,-0.22414763,0.56245995,0.25388587,0.9916885,-0.4435698,-1.5413586,-1.4618053,2.5145597,1.562583,-0.93610656,0.94425684,-0.38011408,-1.4960086,-1.4008237,2.5307717,1.5099819,-0.958616,1.2538377,-1.5866947,-1.1809922,-1.295734,-0.6071651,0.3649618,0.28421208,0.8824425,-0.46404266,1.4019959,-2.5877655,0.27072906,-1.6224253,0.23816681,-0.30670547,0.9481451,0.7140023,-0.079728425,0.09935793,0.68845624,0.042658266,-0.7781727,-0.81682783,1.0,0.0,0.0,0.0,0.0,0.0,0.0,-1.5324425,0.06404266,-0.8519959,12.418556,-4.0112734,-4.3183804,-1.5043259,5.2795053,0.24361014,-1.4874876
17.25251,39.746254,21.349033,12.283258,-0.032113314,-0.33530977,0.4420438,0.61553514,-0.79796547,-0.48667714,-0.7484692,-0.023824852,0.5578956,0.19244853,1.0058104,-0.45991063,-1.5446763,-1.4756706,2.5283892,1.5657715,-0.93937117,0.95692927,-0.39576817,-1.5072429,-1.4139329,2.5259652,1.5136726,-0.95594096,1.2723604,-1.5584527,-1.1050694,-1.3161622,-0.4389324,0.37047157,0.26239592,0.85658646,-0.46133804,1.3850473,-2.5851784,0.2704584,-1.7189893,0.23880768,-0.3142128,0.939953,0.7109681,-0.07284501,0.09550097,0.6928907,0.07865651,-0.7370351,-0.8279131,1.0,0.0,0.0,0.0,0.0,0.0,0.0,-1.5065864,0.061338037,-0.8350473,2.0376205,2.771902,7.336879,-2.058673,16.748255,0.565958,-2.0195246
16.150051,44.47203,23.374107,14.700918,0.05118972,-0.05401267,0.36577556,0.6251725,-0.79465085,-0.47865778,-0.7569296,0.07885498,0.5101217,0.22927493,1.0194465,-0.47523326,-1.5551087,-1.4896259,2.5338507,1.5646847,-0.93301344,0.96939474,-0.41094065,-1.5174873,-1.4272519,2.523108,1.5173824,-0.95344424,1.23932,-1.503618,-0.99908674,-1.3370154,-0.23466063,0.37154436,0.24591427,0.8307533,-0.45863724,1.3671339,-2.5825937,0.270188,-1.8154566,0.23973465,-0.32126617,0.9317368,0.7075195,-0.06590246,0.09088472,0.6977198,0.10539779,-0.68906534,-0.8270082,1.0,0.0,0.0,0.0,0.0,0.0,0.0,-1.4807533,0.05863723,-0.81713384,-2.882409,5.4447174,10.164881,-2.0892859,20.355124,0.19670725,-1.5111893
11.8214035,41.152767,20.512117,16.360226,0.046456814,-0.00866086,0.17747241,0.6214151,-0.78425485,-0.50295347,-0.752235,0.008459176,0.47640097,0.2794211,1.0315362,-0.48936614,-1.5677826,-1.5024754,2.523954,1.5650225,-0.9255021,0.9813977,-0.4255457,-1.5269096,-1.4407045,2.521792,1.5210731,-0.95105624,1.1887732,-1.4462748,-0.92458427,-1.3478881,-0.09776722,0.36850324,0.23663352,0.8049469,-0.45593643,1.3482565,-2.5800116,0.26991788,-1.9118276,0.24088287,-0.3278923,0.92352456,0.70379573,-0.05891569,0.0857654,0.70274085,0.12576056,-0.64691097,-0.82616657,1.0,0.0,0.0,0.0,0.0,0.0,0.0,-1.4549469,0.055936426,-0.79825646,-4.5934916,5.6904316,7.02374,-1.0480642,13.608986,-0.22438765,-0.8544564
6.229715,33.18043,14.743805,16.529627,-0.1990127,-0.14873078,-0.04907582,0.6133171,-0.780407,-0.55287796,-0.7507635,-0.23072219,0.45552605,0.3398378,1.0427294,-0.5035864,-1.5821974,-1.5157808,2.4987197,1.5666257,-0.9170725,0.99290854,-0.4396863,-1.5360763,-1.4542009,2.5207162,1.5247123,-0.9487016,1.1397798,-1.4035436,-0.91511285,-1.3499657,-0.11148534,0.36224544,0.23504844,0.7791672,-0.45323944,1.3284161,-2.5774322,0.26964802,-2.008102,0.2422409,-0.33415985,0.91522795,0.6999902,-0.051876143,0.08075929,0.70767254,0.14543207,-0.6148819,-0.8370196,1.0,0.0,0.0,0.0,0.0,0.0,0.0,-1.4291672,0.053239435,-0.7784161,-4.501152,4.213214,0.6028652,-0.11560917,-1.4855609,-0.63209534,-0.16725063
5.5867786,29.281128,12.853558,15.930557,-0.5407585,-0.21331652,-0.06690093,0.64597255,-0.78662103,-0.5627917,-0.7360422,-0.39509532,0.5126196,0.36228114,1.0575058,-0.5183484,-1.5923555,-1.5278051,2.4812067,1.5759742,-0.9124735,1.0041956,-0.45357847,-1.5454032,-1.4676152,2.518683,1.5283287,-0.9463365,1.1258457,-1.3846473,-0.93933445,-1.338062,-0.23415297,0.3614164,0.23691227,0.75341034,-0.45054626,1.3076137,-2.574855,0.26937842,-2.10428,0.24383926,-0.34011078,0.9067732,0.6961555,-0.04484947,0.076351486,0.71240896,0.1701145,-0.5825185,-0.85390884,1.0,0.0,0.0,0.0,0.0,0.0,0.0,-1.4034103,0.05054626,-0.7576137,-1.149416,1.8208742,-2.6392937,1.2932777,-12.386629,-0.14427304,0.14582872
5.6563683,26.34322,11.742491,15.043183,-0.58586097,-0.2737412,-0.027672619,0.6600744,-0.7938577,-0.57289433,-0.73399514,-0.46330515,0.5389649,0.35577023,1.0702031,-0.5329642,-1.6026927,-1.5410148,2.4723525,1.5822252,-0.9107595,1.0155329,-0.46743774,-1.555083,-1.4808885,2.5151696,1.5319622,-0.9439533,1.136924,-1.3866065,-0.978034,-1.3232224,-0.3908619,0.36355636,0.23862544,0.7276802,-0.4478531,1.2858503,-2.572281,0.2691091,-2.200362,0.24569702,-0.34576797,0.8981101,0.6922656,-0.037872013,0.072690226,0.7169729,0.1966913,-0.55341274,-0.8756806,1.0,0.0,0.0,0.0,0.0,0.0,0.0,-1.3776802,0.047853082,-0.7358503,1.2492657,-0.2722025,-4.0096045,1.5993118,-15.797007,0.113767385,0.13418198
5.7261314,24.51449,10.993542,14.389711,-0.36026117,-0.32385355,0.0053644255,0.67227167,-0.79769987,-0.59769034,-0.7319219,-0.45959458,0.55972534,0.32427618,1.08276,-0.5472077,-1.6148521,-1.5540807,2.4692101,1.5879347,-0.91152567,1.0270933,-0.4814,-1.5652225,-1.4940244,2.5102983,1.5356319,-0.9415767,1.1629056,-1.399741,-1.0261612,-1.3098336,-0.5193544,0.367866,0.23728728,0.7019768,-0.44516373,1.2631267,-2.569709,0.26884004,-2.2963479,0.24780655,-0.35119247,0.88920444,0.68829674,-0.030910105,0.069653645,0.72141564,0.22151567,-0.53160185,-0.900634,1.0,0.0,0.0,0.0,0.0,0.0,0.0,-1.3519768,0.04516372,-0.7131267,2.6842594,-1.3974905,-4.906845,1.466918,-12.986809,0.30788183,-0.14586747
6.7278247,26.707842,12.879559,14.997799,-0.29688808,-0.15436429,0.05844937,0.6715809,-0.7987954,-0.5805421,-0.71493405,-0.49532285,0.5850774,0.29695368,1.0942514,-0.56127954,-1.6232767,-1.5655178,2.460766,1.5941396,-0.9118813,1.0388998,-0.49550724,-1.575671,-1.5069829,2.5043473,1.5393646,-0.93923545,1.1867065,-1.4146955,-1.0512444,-1.2908313,-0.6207188,0.3746686,0.23315632,0.67630005,-0.44247818,1.239444,-2.5671399,0.26857126,-2.3922377,0.25014114,-0.35636902,0.8800969,0.68420327,-0.024004497,0.06707225,0.7258037,0.24325559,-0.5057963,-0.91919315,1.0,0.0,0.0,0.0,0.0,0.0,0.0,-1.3263,0.042478174,-0.689444,2.4671555,-1.5777111,-2.6053429,2.0220995,-10.279179,0.5767822,-0.40505826
7.101331,28.220009,13.897374,14.236891,-0.1491555,-0.084059805,0.13357179,0.65748966,-0.80044526,-0.5702244,-0.73870325,-0.45211723,0.56762326,0.32492703,1.1046487,-0.57555175,-1.6326934,-1.5808532,2.4591355,1.5961269,-0.90674275,1.0508207,-0.50974494,-1.5862033,-1.5198976,2.4977975,1.5431468,-0.9369123,1.1943662,-1.427022,-1.0543299,-1.2914319,-0.666804,0.37924117,0.23220938,0.65065,-0.43979263,1.2148031,-2.5645733,0.26830274,-2.4880316,0.2526741,-0.3612938,0.8707984,0.67992777,-0.01710489,0.06472062,0.730217,0.26183915,-0.48040608,-0.9383897,1.0,0.0,0.0,0.0,0.0,0.0,0.0,-1.30065,0.039792627,-0.6648031,0.90076923,-1.309514,-0.4598379,0.06792545,-4.7560334,0.3561318,-0.056117773
3.9375234,27.266376,13.242669,15.859473,0.29230237,0.1515264,0.064924896,0.6228968,-0.80884564,-0.5606846,-0.7293115,-0.41984138,0.5763617,0.27078632,1.1131104,-0.5906295,-1.6422718,-1.5928288,2.4558134,1.600783,-0.90983367,1.0625967,-0.5241073,-1.5966423,-1.5328199,2.4911103,1.5469768,-0.9346349,1.1724647,-1.4395819,-1.0410441,-1.292189,-0.6699477,0.38412303,0.22641882,0.6250229,-0.43711472,1.189205,-2.562009,0.2680345,-2.58373,0.2552948,-0.36602402,0.8613422,0.67550945,-0.010191008,0.062371958,0.7346379,0.26676047,-0.4618436,-0.9529908,1.0,0.0,0.0,0.0,0.0,0.0,0.0,-1.2750229,0.03711471,-0.63920504,-1.9883156,-1.3385296,1.136589,0.070524216,-0.4822731,0.41864514,-0.53091645
5.9995527,30.847204,15.704782,15.469582,0.13478768,0.23842058,0.1369698,0.6345804,-0.80934507,-0.5378867,-0.7316978,-0.42319223,0.57529724,0.2752606,1.1260548,-0.6050418,-1.6504309,-1.6059897,2.448791,1.6045065,-0.90710884,1.0741781,-0.5385631,-1.6068199,-1.5457746,2.484507,1.5508506,-0.93241,1.1538218,-1.4477841,-1.0106535,-1.2961154,-0.6575379,0.38833758,0.22148985,0.59942245,-0.4344368,1.1626507,-2.5594478,0.2677665,-2.6793325,0.25798035,-0.37049866,0.8517699,0.6709133,-0.0032813132,0.05992321,0.7391033,0.27413896,-0.43583173,-0.96327215,1.0,0.0,0.0,0.0,0.0,0.0,0.0,-1.2494224,0.034436792,-0.6126507,-1.6663313,-0.8924484,2.839017,-0.26071072,1.0858536,0.36525726,-0.4278779
7.203905,34.697723,18.248825,16.286963,-0.10528767,0.42699316,0.16489182,0.624962,-0.80665,-0.5061445,-0.71485764,-0.47669944,0.595318,0.3020118,1.1366743,-0.61922807,-1.6574343,-1.6172603,2.4368372,1.6103824,-0.9022088,1.0855631,-0.55305415,-1.6165683,-1.5586873,2.4778962,1.5547779,-0.9302099,1.1342676,-1.4498397,-0.96370417,-1.2894118,-0.66262037,0.39416865,0.21979636,0.5738487,-0.43175888,1.135141,-2.5568888,0.2674988,-2.7748396,0.26073837,-0.37464523,0.842163,0.66609335,0.0035211418,0.057428356,0.7436459,0.2820889,-0.39966014,-0.96430475,1.0,0.0,0.0,0.0,0.0,0.0,0.0,-1.2238487,0.031758875,-0.585141,-1.7548323,-0.26788712,4.4941664,0.785923,-0.65624714,0.55521727,-0.11072755
3.4626896,29.880877,14.063828,15.784891,0.26873118,0.25114053,0.028860636,0.61023766,-0.815008,-0.564677,-0.72896427,-0.44939464,0.55837137,0.26742977,1.1465868,-0.634555,-1.673036,-1.6315838,2.4329567,1.610615,-0.9034669,1.0967363,-0.5675815,-1.6261909,-1.5715905,2.4713006,1.5587299,-0.92804694,1.1122699,-1.4539813,-0.9622875,-1.289997,-0.6592946,0.39537552,0.2152758,0.5482979,-0.4290886,1.1066769,-2.5543325,0.26723135,-2.870251,0.26355743,-0.37857056,0.83245695,0.66114736,0.010323105,0.05489793,0.74817365,0.28526306,-0.38132197,-0.9766687,1.0,0.0,0.0,0.0,0.0,0.0,0.0,-1.1982979,0.029088587,-0.5566769,-2.0041227,-0.4898548,-0.03939867,0.096321106,0.16839504,0.06174445,-0.4016906
1.3276772,28.46203,12.298189,16.207172,0.39872545,0.22049582,-0.06143465,0.5994155,-0.8122674,-0.58560914,-0.71444774,-0.47940353,0.54431266,0.28833437,1.1566778,-0.64880824,-1.6847519,-1.6430353,2.4233603,1.6131612,-0.8992135,1.1076883,-0.5821288,-1.636008,-1.5844404,2.4646478,1.5626781,-0.92591166,1.0902915,-1.4552552,-0.98869926,-1.2828155,-0.6678758,0.39433554,0.21301763,0.52277374,-0.4264183,1.0772595,-2.5517788,0.26696417,-2.9655669,0.26638794,-0.3823738,0.82260495,0.6561811,0.017199913,0.05239184,0.75258595,0.28567287,-0.37017465,-0.9918262,1.0,0.0,0.0,0.0,0.0,0.0,0.0,-1.1727737,0.026418298,-0.5272595,-2.0115852,-0.21109581,-2.7948022,0.8891344,-1.0338664,-0.17237663,-0.19253194
-2.516118,25.51778,9.625333,16.01798,0.61294174,0.25436658,-0.13045534,0.5532228,-0.81775135,-0.6005815,-0.7330183,-0.49196437,0.52777994,0.33616593,1.1630106,-0.66390395,-1.6960661,-1.6577421,2.4154513,1.6154561,-0.89229506,1.1182626,-0.59670573,-1.6461933,-1.5973054,2.457869,1.5665996,-0.9237602,1.0472057,-1.4587748,-1.0291227,-1.2872416,-0.6821048,0.39111584,0.21592669,0.4972763,-0.42374802,1.0468897,-2.5492275,0.26669726,-3.0607877,0.2691536,-0.3861122,0.8125434,0.65127075,0.024237856,0.049952794,0.75681144,0.278737,-0.3676408,-1.0147021,1.0,0.0,0.0,0.0,0.0,0.0,0.0,-1.1472763,0.02374801,-0.49688965,-4.0870905,-0.4442215,-4.2211056,-0.2383709,-1.618433,-0.40855408,0.30997992
-10.446133,22.362179,6.334296,18.321688,1.0716794,0.5727094,-0.33155528,0.45753813,-0.81584644,-0.6123798,-0.73152393,-0.52037925,0.50496405,0.2889283,1.1640165,-0.67829037,-1.7074312,-1.6704578,2.405831,1.6170961,-0.89486736,1.1280206,-0.6113036,-1.6567886,-1.6102201,2.450873,1.5704734,-0.92161345,0.95294046,-1.460549,-1.0705819,-1.2922026,-0.7064839,0.3858593,0.21416563,0.47180176,-0.42108536,1.0155683,-2.5466788,0.26643062,-3.1559134,0.2717209,-0.3899269,0.8022505,0.6465895,0.03147212,0.047624953,0.76069915,0.25216857,-0.37646073,-1.0378182,1.0,0.0,0.0,0.0,0.0,0.0,0.0,-1.1218017,0.021085352,-0.46556824,-9.11721,-0.28409958,-4.372239,-0.25179386,-2.6724696,-0.59375167,-0.19170344
-21.985693,18.75261,2.1872475,21.777023,1.6782061,1.1169012,-0.5985216,0.3095537,-0.80906034,-0.62021345,-0.739419,-0.5688812,0.5271583,0.24906108,1.158976,-0.69220966,-1.71881,-1.684162,2.3939848,1.6231892,-0.89670736,1.136249,-0.6258815,-1.6677425,-1.6232167,2.4435067,1.5743148,-0.91951823,0.78075635,-1.4572664,-1.1048458,-1.301005,-0.74736816,0.38348448,0.20773445,0.4463539,-0.4184227,0.98329633,-2.5441327,0.26616424,-3.250944,0.27379608,-0.39392853,0.7917372,0.6423981,0.03888343,0.045476668,0.76403177,0.1960714,-0.39855427,-1.0593052,1.0,0.0,0.0,0.0,0.0,0.0,0.0,-1.0963539,0.018422693,-0.43329632,-16.773975,0.1999855,-3.7325144,-0.5800247,-4.3866754,-0.27757287,-0.7081598
-72.82837,-6.494961,-21.436325,37.397236,5.16881,2.878134,-1.8138496,-0.22178707,-0.8154124,-0.67188853,-0.7427036,-0.6106354,0.539879,0.04689051,1.1140703,-0.70742273,-1.7349313,-1.6974871,2.3824432,1.6283027,-0.9148292,1.1405023,-0.64045745,-1.6791885,-1.6362878,2.4356408,1.5781505,-0.91764617,0.31016737,-1.4585743,-1.1597815,-1.3071756,-0.8016793,0.38367105,0.17965387,0.42093277,-0.41576004,0.9500748,-2.541589,0.26589814,-3.3458793,0.27437973,-0.39880753,0.7809703,0.6397346,0.046528064,0.043494556,0.7659523,0.0152851455,-0.5097615,-1.0858318,1.0,0.0,0.0,0.0,0.0,0.0,0.0,-1.0709327,0.015760034,-0.40007478,-46.103848,-0.3941059,-6.073308,-0.021886826,-6.012106,0.03976822,-3.0300736
-94.700485,-14.760603,-30.902792,42.202866,6.6547403,3.6377316,-2.2547107,-0.49728447,-0.80128735,-0.7215969,-0.7779102,-0.56224936,0.53706455,0.0034526316,1.0907739,-0.7205862,-1.7513481,-1.7140788,2.379416,1.6318569,-0.9173009,1.1391729,-0.65499145,-1.6913307,-1.6495515,2.427443,1.5819805,-0.9160812,-0.2763924,-1.4531088,-1.2347723,-1.3299366,-0.8282869,0.38211873,0.14799817,0.39553452,-0.413105,0.91590464,-2.539048,0.2656323,-3.4407198,0.27275848,-0.40507126,0.7698731,0.63928276,0.05454914,0.041547086,0.76590836,-0.22040413,-0.6567303,-1.120965,1.0,0.0,0.0,0.0,0.0,0.0,0.0,-1.0455345,0.013105005,-0.36590463,-57.434433,0.14882088,-8.234191,-1.4263868,-3.4449935,-0.32718778,-3.4050913
-88.07579,-8.591589,-25.442478,39.193493,6.257877,3.6863718,-1.8968287,-0.6329763,-0.81443006,-0.7115987,-0.7852242,-0.50315046,0.50065905,0.17799939,1.0758753,-0.73643446,-1.7624905,-1.728074,2.377128,1.6320463,-0.8982813,1.1323847,-0.6695369,-1.704045,-1.6630536,2.4192605,1.585757,-0.9146707,-0.80920297,-1.4565544,-1.2860469,-1.3537167,-0.81767386,0.37481272,0.13824205,0.37016296,-0.41044998,0.88078684,-2.5365095,0.2653667,-3.5354657,0.26885605,-0.41267395,0.75845027,0.6408879,0.0629818,0.039367042,0.76403284,-0.44815367,-0.78461546,-1.1525002,1.0,0.0,0.0,0.0,0.0,0.0,0.0,-1.0201629,0.010449976,-0.33078682,-52.11737,-0.804162,-5.83992,-1.4331818,0.23454428,-1.1245072,-1.110965
-64.47158,6.8653255,-11.8427515,31.443813,4.672966,3.2209134,-1.301043,-0.70500934,-0.80889875,-0.71153855,-0.7894465,-0.41562524,0.4752787,0.10045696,1.0618837,-0.75042677,-1.7751989,-1.7419983,2.377698,1.6332849,-0.904625,1.1213812,-0.6840995,-1.7170799,-1.6767675,2.4115243,1.5894382,-0.91337657,-1.1944236,-1.457518,-1.3112876,-1.3746,-0.7614489,0.36444718,0.12651339,0.34481812,-0.40779877,0.8447223,-2.5339735,0.2651014,-3.6301167,0.2630577,-0.42119217,0.74677765,0.643991,0.0717621,0.03669751,0.76077527,-0.626999,-0.86272013,-1.175178,1.0,0.0,0.0,0.0,0.0,0.0,0.0,-0.9948181,0.007798761,-0.29472226,-37.638283,-0.50570965,-3.0747414,-1.2641191,4.9268603,-1.4929771,-1.1836648
-41.638103,19.538023,0.21748972,24.959791,3.5510807,2.6912327,-0.862941,-0.76785153,-0.81536055,-0.717468,-0.7764385,-0.18844007,0.46118924,-0.23288788,1.044596,-0.76563555,-1.7888267,-1.7544113,2.3926804,1.6355572,-0.93666536,1.1076483,-0.6986945,-1.7302368,-1.6905767,2.4050393,1.5930145,-0.9124248,-1.4310101,-1.4611622,-1.3181688,-1.3810079,-0.61272275,0.3539334,0.08502496,0.31949615,-0.40515137,0.8077119,-2.53144,0.26483634,-3.7246733,0.25582886,-0.43024445,0.7349502,0.6481039,0.08081524,0.03313143,0.75652665,-0.7593066,-0.9059264,-1.1880448,1.0,0.0,0.0,0.0,0.0,0.0,0.0,-0.96949613,0.005151361,-0.2577119,-23.09053,-0.67749023,-1.0355234,-0.016593933,14.384186,-1.45818,-4.035014
-21.883556,32.05705,11.491974,21.016224,3.0430813,2.3021083,-0.49036637,-0.8018696,-0.80169785,-0.7019633,-0.75522923,0.25409114,0.48766217,-0.41424772,1.0274613,-0.7788643,-1.8004332,-1.7660996,2.4304485,1.6417807,-0.95384955,1.0924829,-0.7132514,-1.7432945,-1.7043077,2.4012818,1.5965202,-0.91200614,-1.5441029,-1.4546328,-1.3019627,-1.3691713,-0.2971883,0.34823364,0.028321523,0.2942009,-0.40250397,0.7697486,-2.5289092,0.26457158,-3.8202004,0.24756622,-0.43958282,0.7231101,0.6528619,0.09006869,0.027994974,0.7515818,-0.8558834,-0.92933464,-1.1853405,1.0,0.0,0.0,0.0,0.0,0.0,0.0,-0.9442009,0.0025039613,-0.21974862,-11.019397,0.44341087,1.4914751,1.5653849,31.298798,-0.8944154,-5.438918
-6.609387,41.00248,19.340345,17.055567,2.0846484,1.9374341,-0.22642642,-0.80934846,-0.7870635,-0.7028723,-0.74122274,0.41351515,0.52053344,-0.4700431,1.011548,-0.79195774,-1.8135817,-1.77843,2.4426334,1.6485735,-0.9590104,1.0768607,-0.7276279,-1.7564673,-1.7180322,2.400225,1.6005225,-0.9119361,-1.5661162,-1.4249874,-1.3928064,-1.414449,-0.18774137,0.49438015,0.029228589,0.27270508,-0.40219116,0.74427617,-1.3927668,-0.38796613,0.8938028,0.23859024,-0.4488907,0.71122694,0.65789443,0.09927225,0.021355856,0.74623305,-0.9160706,-0.89794487,-1.2206291,0.0,1.0,0.0,0.0,0.0,0.0,0.0,-0.92270505,0.0021911561,-0.19427615,-1.8891096,4.0382624,-20.288086,-11.067295,-12.7837,28.999466,6.1542206
75.85184,176.0,110.0,93.42414,-8.875056,10.328155,-0.43373343,-0.76265496,0.5642742,0.68473613,0.7138291,-0.17389235,0.65661085,-0.4500865,1.0005952,-0.67120045,-1.6879938,-1.6466494,2.3828356,1.6661836,-0.95694476,1.0666983,-0.73871815,-1.7715888,-1.7213167,2.3885024,1.6148562,-0.90958816,-0.8372521,-1.002978,-1.5439306,0.027818028,-1.4956584,1.7538742,0.29839084,0.25878525,-0.4060669,0.75246304,-1.3913743,-0.38757825,0.7936581,0.2298088,-0.45568848,0.70324844,0.66317195,0.098801464,0.020405047,0.7416365,-0.8714038,-0.591372,-0.65804726,1.0,0.0,0.0,0.0,0.0,0.0,0.0,-0.9087852,0.0060668886,-0.20246303,71.600685,42.426132,-12.667561,142.54803,-129.3298,128.23643,25.435507
18.368868,149.55223,99.254074,93.79533,-1.1917393,7.581685,-0.62655807,-0.8178929,-0.453193,0.35881647,0.7905359,-0.5847581,0.47932172,-0.33568612,0.984909,-0.7840375,-1.7357072,-1.642263,2.3300266,1.6627884,-0.9431568,1.0585902,-0.74711907,-1.7818408,-1.7137502,2.3719656,1.632421,-0.90687114,-0.8021497,-0.7871638,-0.8491985,0.9983922,-1.7099384,1.7632492,0.26207924,0.24488068,-0.4099388,0.7596493,-1.3899833,-0.38719073,0.6936134,0.2209816,-0.46071243,0.700761,0.66910917,0.090503976,0.022667797,0.73728424,-0.88966876,-0.46244368,-0.115675054,1.0,0.0,0.0,0.0,0.0,0.0,0.0,-0.89488065,0.009938806,-0.20964926,3.4606576,21.17138,70.40685,96.673355,-22.441269,2.699256,-3.8691401
-21.989704,114.33228,55.244606,74.12473,2.003084,4.8618646,-1.6042545,-0.81231296,-0.13106728,-0.36979857,0.7434892,-0.60667086,0.59883386,-0.16824707,0.9773589,-0.7602258,-1.8188207,-1.6394013,2.3112986,1.6923044,-0.92369586,1.0494559,-0.75271523,-1.7881045,-1.6994108,2.3554633,1.6490417,-0.90462047,-0.9486301,-0.48518494,-0.55260074,1.5798153,-1.6333009,1.6314038,0.21255288,0.23099136,-0.41380692,0.76583576,-1.3885937,-0.38680363,0.59366876,0.21150208,-0.4651947,0.702101,0.67635494,0.07870099,0.026373202,0.73188424,-0.9677981,-0.43510893,0.21179181,1.0,0.0,0.0,0.0,0.0,0.0,0.0,-0.88099134,0.013806909,-0.21583575,-14.09384,29.77174,29.49971,58.32815,6.7427397,-12.257028,-5.0070105
-34.537292,92.165474,32.539787,50.190098,2.3092055,3.0909605,-1.6254843,-0.82678634,0.042817574,-0.41754305,0.78163695,-0.59637785,0.5600941,-0.19990101,0.96677727,-0.7484335,-1.8298588,-1.621247,2.2958255,1.7050511,-0.92461056,1.0382445,-0.7551786,-1.7929168,-1.681928,2.3407881,1.6639514,-0.90292865,-1.1772357,-0.16792351,-0.4589939,1.8049829,-1.414186,1.445683,0.15436208,0.21711731,-0.4176712,0.7710236,-1.3872054,-0.38641688,0.493824,0.20121384,-0.46949005,0.7055372,0.68500745,0.06607718,0.031027766,0.7248695,-1.0513514,-0.42091075,0.38174734,1.0,0.0,0.0,0.0,0.0,0.0,0.0,-0.8671173,0.017671198,-0.22102356,-22.424294,31.373613,8.927894,22.67356,21.340157,-18.113947,-5.9277205
-47.50637,31.431498,-4.8220844,27.059132,3.680859,0.9316124,-1.475681,-0.8411687,-0.13260168,-0.6022409,0.77891606,-0.6217946,0.62631744,-0.35754663,0.9541276,-0.76843876,-1.8531408,-1.6040365,2.2786086,1.7265831,-0.93868333,1.0249426,-0.75601685,-1.7987018,-1.6639837,2.3282492,1.6771312,-0.9018834,-1.3802457,-0.05629043,-0.61951274,1.7913474,-1.2002604,1.2758167,0.08779341,0.20325851,-0.42153168,0.77521366,-1.3858184,-0.38603055,0.39407912,0.18997192,-0.47420883,0.70917904,0.6949063,0.054623835,0.03588941,0.7161238,-1.1512713,-0.4785947,0.3537203,1.0,0.0,0.0,0.0,0.0,0.0,0.0,-0.8532585,0.021531671,-0.22521365,-19.998001,11.029436,-16.396152,-1.2102842,21.411968,-16.92722,-6.7005053
-41.39781,-0.62255836,-18.016,11.989079,3.5044677,-0.20114225,-0.94356775,-0.83847165,-0.2203078,-0.6084627,0.7830995,-0.6046627,0.62594473,-0.39441594,0.9410955,-0.7780476,-1.8595481,-1.5856738,2.267783,1.7397256,-0.941325,1.0101645,-0.7569667,-1.8064952,-1.6469816,2.3175223,1.6887851,-0.9014686,-1.5095721,-0.10799812,-0.8331254,1.6703814,-1.0297027,1.1282862,0.026046328,0.18940735,-0.42538834,0.77840704,-1.3844328,-0.38564458,0.29443395,0.17784882,-0.47964096,0.7118416,0.7056348,0.045251213,0.040309947,0.70597947,-1.2363992,-0.55476874,0.23392645,1.0,0.0,0.0,0.0,0.0,0.0,0.0,-0.8394073,0.02538833,-0.22840703,-12.700248,-5.1911325,-21.547258,-11.936355,17.170715,-14.857483,-6.1688147
-27.021795,-5.231383,-14.208245,5.387775,2.5517228,-0.4802124,-0.42021543,-0.8310834,-0.24650936,-0.5799251,0.78981715,-0.56517583,0.6312795,-0.40237483,0.92705613,-0.78161764,-1.8644876,-1.5679998,2.2610047,1.7519131,-0.94170606,0.99467236,-0.7589818,-1.81603,-1.6312784,2.3081648,1.6991496,-0.90160686,-1.5618781,-0.2327186,-0.99360114,1.5376271,-0.9043231,1.0055504,-0.02700938,0.17557144,-0.42924118,0.7806047,-1.3830487,-0.38525903,0.1948884,0.16509247,-0.48572922,0.713227,0.71670544,0.037929337,0.04398895,0.69495296,-1.2934736,-0.6129109,0.10454928,1.0,0.0,0.0,0.0,0.0,0.0,0.0,-0.8255714,0.029241174,-0.23060471,-5.0750732,-12.467798,-16.108835,-13.099289,12.541044,-12.381625,-5.2685637
-12.46447,7.6238317,-1.8841392,4.8480005,1.4130796,-0.17755592,-0.042287916,-0.83384347,-0.25243187,-0.53242093,0.7902183,-0.5239808,0.6290019,-0.41842106,0.911288,-0.784225,-1.8692721,-1.5522566,2.2557669,1.7620498,-0.94344896,0.9790264,-0.7622453,-1.8264117,-1.6166548,2.2997954,1.7084498,-0.902222,-1.5653362,-0.35755202,-1.0528562,1.4376682,-0.81483585,0.90475106,-0.0728825,0.1617508,-0.4330902,0.78180766,-1.381666,-0.38487384,0.0954424,0.15197754,-0.49211502,0.7135969,0.72773296,0.03212957,0.046924766,0.6834986,-1.3222224,-0.63433933,0.012437583,1.0,0.0,0.0,0.0,0.0,0.0,0.0,-0.81175077,0.033090204,-0.23180765,-0.30050278,-12.510693,-5.863118,-9.864092,8.793044,-10.114634,-4.559995
-4.701061,17.326218,6.4352984,6.333393,0.90791476,0.14608842,0.1451182,-0.8370392,-0.3035487,-0.51374054,0.77646875,-0.4631028,0.62240845,-0.42173377,0.89532244,-0.79260015,-1.8777858,-1.5390079,2.2534852,1.7706907,-0.94439536,0.96351486,-0.7667171,-1.8368373,-1.6027559,2.2922118,1.7168765,-0.9032405,-1.5464243,-0.47730646,-1.0387374,1.3742678,-0.74013007,0.8219188,-0.111348726,0.1479454,-0.43693542,0.7820169,-1.3802845,-0.38448906,-0.0039041813,0.13867188,-0.49856186,0.713283,0.73850375,0.027315041,0.049144067,0.6719009,-1.3379866,-0.6346348,-0.048138224,1.0,0.0,0.0,0.0,0.0,0.0,0.0,-0.7979454,0.03693542,-0.23201686,1.8739462,-12.028753,1.5499115,-6.2401056,7.240355,-8.265221,-3.821014
0.21241188,28.135067,14.071336,8.86725,0.6868739,0.52270824,0.23840247,-0.83725655,-0.34365234,-0.45459232,0.7656909,-0.35759836,0.6139981,-0.43288565,0.87978923,-0.8010823,-1.8822966,-1.5261868,2.2564518,1.7782763,-0.9465291,0.9482303,-0.7722484,-1.8466201,-1.5892595,2.2854826,1.7245803,-0.90460235,-1.5226775,-0.57874167,-0.9574796,1.3415002,-0.65156126,0.7535009,-0.14432938,0.13415527,-0.44077682,0.78123045,-1.3789045,-0.38410464,-0.10354518,0.12526321,-0.5048828,0.71260965,0.7489202,0.023020113,0.05060822,0.66032374,-1.3475912,-0.61777586,-0.07616466,1.0,0.0,0.0,0.0,0.0,0.0,0.0,-0.78415525,0.04077682,-0.23123044,2.3158312,-10.228193,8.318067,-3.2191515,8.563161,-6.791401,-3.2787442
5.718212,43.22457,23.383842,11.568096,0.38202944,0.9391886,0.31232762,-0.8323749,-0.3468082,-0.34581265,0.76026195,-0.22741245,0.59921867,-0.4477964,0.86499286,-0.80692923,-1.8812014,-1.5132333,2.2627413,1.7845021,-0.949382,0.933168,-0.778494,-1.8550658,-1.575931,2.2798598,1.7316833,-0.9062646,-1.501022,-0.64021766,-0.8062253,1.3299153,-0.53372127,0.6962854,-0.17350186,0.12037659,-0.4446144,0.7794484,-1.3775258,-0.3837206,-0.20308656,0.11182022,-0.5108681,0.7119474,0.7589177,0.018798048,0.05128731,0.6488915,-1.3478705,-0.57901305,-0.06557333,1.0,0.0,0.0,0.0,0.0,0.0,0.0,-0.77037656,0.044614404,-0.22944838,2.0629883,-6.268811,15.36653,-1.1806726,11.414266,-5.6277156,-2.9303699
6.5092974,47.609413,26.61599,13.245285,0.9281044,1.1593329,0.32944867,-0.83450544,-0.3993326,-0.23177055,0.73969024,0.08594958,0.58119434,-0.44721785,0.84971744,-0.81842726,-1.8782429,-1.501962,2.2884548,1.7898027,-0.9509864,0.9182535,-0.7853223,-1.8616328,-1.5627092,2.2761786,1.738275,-0.90818053,-1.4885268,-0.6974922,-0.60627705,1.3194418,-0.31456503,0.6470989,-0.19755484,0.106609344,-0.44844818,0.77667165,-1.3761486,-0.38333696,-0.30252844,0.09831619,-0.51646423,0.7115171,0.7684957,0.014354404,0.050767604,0.6376762,-1.3572619,-0.54116356,-0.0383794,1.0,0.0,0.0,0.0,0.0,0.0,0.0,-0.7566093,0.048448175,-0.22667164,1.1584044,-5.854857,20.22909,-1.0817289,21.539705,-4.8538566,-2.389568
4.1783667,50.087654,26.013552,14.625985,1.2540767,1.1641927,0.19744918,-0.8330272,-0.39967963,-0.19783759,0.7323324,0.25904918,0.54915255,-0.46717712,0.83495075,-0.82529026,-1.8814166,-1.489476,2.3020835,1.7931904,-0.95489824,0.90341526,-0.7925378,-1.8663974,-1.5495828,2.274977,1.7444148,-0.91032153,-1.4824716,-0.7299822,-0.43245298,1.3103853,-0.056516014,0.60294753,-0.21962139,0.09285736,-0.45227814,0.77290124,-1.3747728,-0.3829537,-0.4018709,0.08465195,-0.52170944,0.7113738,0.7777487,0.0096204905,0.048858367,0.6265996,-1.3746618,-0.50730723,-0.009130127,1.0,0.0,0.0,0.0,0.0,0.0,0.0,-0.74285734,0.05227813,-0.22290123,0.5556345,-3.377235,17.565369,-0.92663765,25.498468,-4.3668866,-2.2096782
-1.1393919,45.7728,19.995216,14.082957,1.3167127,0.9266164,0.010157444,-0.8303033,-0.40121046,-0.24003115,0.70993304,0.30235526,0.5587662,-0.47759157,0.8203849,-0.8326588,-1.8904005,-1.4785895,2.3052125,1.8002914,-0.9580807,0.8886133,-0.79993165,-1.8701186,-1.5366205,2.2760832,1.7501731,-0.91266567,-1.4794514,-0.7428598,-0.35155296,1.2915266,0.1655973,0.5667601,-0.23929112,0.079120636,-0.45610428,0.7681382,-1.3733983,-0.38257083,-0.501114,0.07075882,-0.52669525,0.71135545,0.7868151,0.0047879317,0.04577612,0.6154702,-1.3986218,-0.48253763,-0.002393314,1.0,0.0,0.0,0.0,0.0,0.0,0.0,-0.7291206,0.056104273,-0.21813816,0.29566288,-1.3992548,8.195257,-1.8616915,22.02282,-3.585112,-1.9791901
-2.228568,48.636513,18.796167,14.029793,0.7751158,0.84585446,-0.06594599,-0.8201364,-0.36938778,-0.23888646,0.710394,0.26160648,0.5989137,-0.4505802,0.8065996,-0.83687043,-1.8940072,-1.465581,2.302244,1.8100644,-0.9577237,0.8738695,-0.8072034,-1.8735003,-1.5238203,2.2787726,1.7556472,-0.91516334,-1.4727248,-0.7223014,-0.33330584,1.2762741,0.30265152,0.54128766,-0.2534544,0.06539917,-0.4599266,0.7623834,-1.3720251,-0.38218832,-0.6002579,0.05669403,-0.5313721,0.71136266,0.7957521,-3.9755896e-06,0.04206205,0.6041601,-1.4139849,-0.45092592,-0.0012791333,1.0,0.0,0.0,0.0,0.0,0.0,0.0,-0.71539915,0.0599266,-0.21238339,0.66850185,1.9435167,1.9027293,-1.5036583,13.589152,-2.4764419,-1.4630646
-9.263429,38.279797,10.597033,13.490728,0.942302,0.6000509,-0.22051461,-0.8256382,-0.40180844,-0.31316462,0.702291,0.26128748,0.6015371,-0.4473959,0.79130566,-0.8473843,-1.9048169,-1.4535912,2.3049014,1.8158009,-0.95990294,0.85916,-0.8143741,-1.8773246,-1.511165,2.2823508,1.7609076,-0.9177764,-1.4702357,-0.71556854,-0.3986055,1.2624171,0.37575418,0.5209271,-0.26405314,0.051689148,-0.46374512,0.7556379,-1.3706534,-0.38180622,-0.6993026,0.042388916,-0.5358429,0.7111659,0.8046521,-0.004521701,0.03810364,0.59250546,-1.4402934,-0.43325633,-0.028716376,1.0,0.0,0.0,0.0,0.0,0.0,0.0,-0.7016891,0.06374511,-0.20563787,0.29172897,0.58050156,-6.512266,-1.2924671,7.276237,-2.0145178,-1.0671318
-11.053125,33.73411,7.7027392,12.885138,0.87588614,0.5177709,-0.23364049,-0.8180875,-0.41890427,-0.33267117,0.70092255,0.26096585,0.6142241,-0.435644,0.77735126,-0.85626453,-1.9105917,-1.4410728,2.3084474,1.82233,-0.9613408,0.8444963,-0.8215896,-1.8819804,-1.4986109,2.2863257,1.7660041,-0.92047054,-1.4649209,-0.7237461,-0.48802602,1.2536765,0.40462214,0.5056543,-0.27117136,0.03799057,-0.4675598,0.7479027,-1.3692831,-0.3814245,-0.7982483,0.027816772,-0.54016113,0.7106085,0.81354064,-0.008647814,0.034105327,0.5804425,-1.4681114,-0.4181606,-0.0676586,0.0,1.0,0.0,0.0,0.0,0.0,0.0,-0.68799055,0.06755981,-0.19790268,0.5886078,-0.9056568,-8.929438,-0.75120926,2.8757155,-1.5227079,-0.7061243
-10.762314,36.871883,9.434882,13.434729,0.73060155,0.65277386,-0.20360877,-0.82288635,-0.40690067,-0.33007884,0.70155174,0.2903021,0.6127555,-0.42759496,0.7622077,-0.86227965,-1.9149883,-1.4284557,2.315356,1.8272797,-0.96323,0.8298536,-0.8288566,-1.8874011,-1.4861006,2.2904913,1.770967,-0.9232181,-1.4638348,-0.72811705,-0.56010145,1.2503518,0.42017624,0.49322665,-0.2760368,0.024307251,-0.4713707,0.7391788,-1.3679141,-0.38104314,-0.8970951,0.0129776,-0.54426956,0.7097196,0.8223889,-0.012436126,0.030166585,0.56798923,-1.4936551,-0.39564657,-0.09904256,0.0,1.0,0.0,0.0,0.0,0.0,0.0,-0.6743072,0.07137069,-0.18917876,0.16303062,-0.54051876,-7.1718454,-0.2147913,1.5281498,-1.239264,-0.500381
-7.6051273,32.17107,9.364607,11.092539,0.6130424,0.60875344,-0.03928196,-0.80498105,-0.47254404,-0.3150103,0.6871313,0.2914151,0.62390876,-0.39120394,0.7493555,-0.876111,-1.9189022,-1.4173875,2.3196328,1.8333579,-0.96233845,0.81536365,-0.8364586,-1.8935006,-1.4737211,2.2943065,1.7761301,-0.92624843,-1.4441303,-0.77108765,-0.6269172,1.2342072,0.37103948,0.5329459,-0.30630335,0.008769989,-0.47291565,0.73903275,-1.5680308,-0.11515173,0.29168814,-0.0020446777,-0.5481186,0.70837975,0.8311449,-0.016012143,0.026407491,0.5551976,-1.5089539,-0.3670171,-0.14871137,0.0,1.0,0.0,0.0,0.0,0.0,0.0,-0.65876997,0.07291564,-0.18903273,1.0720491,-4.4489503,-3.2724977,-0.7270336,0.552088,-0.67278147,0.08114576
17.192629,124.51306,52.801567,21.419868,-3.7390752,2.0075462,0.2356984,-0.8100539,0.05443833,-0.1793034,0.7673649,-0.21692635,0.6295061,-0.41405585,0.73435825,-0.8310148,-1.911431,-1.3969847,2.2726138,1.8390807,-0.967654,0.8009584,-0.8420214,-1.8991711,-1.461085,2.296477,1.7814287,-0.9293479,-1.4401104,-0.4857061,-0.54573965,1.272082,0.1647077,0.53037643,-0.31278586,-0.0068969727,-0.4740677,0.7412085,-1.5664631,-0.11503661,0.19287483,-0.016361237,-0.55080795,0.70795435,0.8395213,-0.020089403,0.024558432,0.5423994,-1.4099544,-0.22231972,-0.0099869175,0.0,1.0,0.0,0.0,0.0,0.0,0.0,-0.643103,0.07406768,-0.19120848,0.18157959,28.239418,8.466816,3.4045696,-20.916298,0.14725924,-1.1516035
6.855762,90.585106,37.092113,19.522074,-2.4654322,1.4965757,0.21046123,-0.81609696,-0.19643998,-0.24045956,0.7695164,-0.34211782,0.6363388,-0.4089671,0.71934867,-0.8616654,-1.923217,-1.3841333,2.2622652,1.8450626,-0.9702446,0.7865293,-0.8458151,-1.9041398,-1.4480139,2.2962825,1.7866815,-0.93246925,-1.4442478,-0.34467092,-0.47961795,1.3182585,-0.08149545,0.5244747,-0.3129277,-0.022548676,-0.47521973,0.74239683,-1.564897,-0.1149216,0.09416032,-0.029960632,-0.5523834,0.7084936,0.8474852,-0.024648212,0.02482639,0.5296648,-1.3453538,-0.1229556,0.07326768,0.0,1.0,0.0,0.0,0.0,0.0,0.0,-0.6274513,0.07521972,-0.19239682,-0.537014,13.878065,6.9004536,4.473877,-24.874802,-0.30392408,-0.32738447
-4.4563446,64.19205,21.496786,17.786102,-1.4157342,0.88113236,0.01927483,-0.81640804,-0.1989256,-0.38378394,0.77521867,-0.48513865,0.62017924,-0.342214,0.7048885,-0.8657077,-1.9425181,-1.370492,2.2477686,1.8486995,-0.96669066,0.7720401,-0.8487429,-1.9092362,-1.4345156,2.2935474,1.7918447,-0.9355296,-1.45058,-0.27597532,-0.519248,1.3604286,-0.33784676,0.5141627,-0.30436608,-0.03818512,-0.47636795,0.7425856,-1.5633323,-0.1148067,-0.0062130303,-0.04315567,-0.5532532,0.709416,0.8551706,-0.02920061,0.02693101,0.5168221,-1.3126875,-0.06332319,0.097341575,0.0,1.0,0.0,0.0,0.0,0.0,0.0,-0.61181486,0.076367944,-0.19258559,-0.65984726,6.7031503,-3.791964,4.2161226,-25.79734,-0.8324623,0.65140724
-6.9728155,47.664276,13.998472,15.328518,-0.70142746,0.4911435,0.015580157,-0.79993397,-0.19879186,-0.38277707,0.790606,-0.5453037,0.6217871,-0.27972275,0.69204676,-0.86862206,-1.9475139,-1.355455,2.239017,1.8540235,-0.9635019,0.7575729,-0.8514456,-1.9149125,-1.4206358,2.2885692,1.7969087,-0.9384526,-1.4454376,-0.2686995,-0.58310264,1.3975128,-0.55158645,0.5041774,-0.2887186,-0.053806305,-0.47751236,0.74177134,-1.5617694,-0.11469191,-0.10648602,-0.056159973,-0.5537033,0.71032846,0.8626245,-0.03345032,0.030452427,0.5038181,-1.2969774,-0.028148696,0.08829783,0.0,1.0,0.0,0.0,0.0,0.0,0.0,-0.5961937,0.07751235,-0.19177133,0.5222082,0.6029308,-6.2445164,3.7604809,-21.499008,-0.8470535,1.4128804
-12.431644,28.82699,4.6131825,12.875211,0.22798073,0.1283449,-0.07749161,-0.8000128,-0.24392045,-0.45362547,0.7912885,-0.5630374,0.61946553,-0.27120107,0.6775716,-0.8758377,-1.960275,-1.341507,2.2322655,1.8588552,-0.9655727,0.7431743,-0.8545117,-1.9215271,-1.406489,2.2819393,1.8018774,-0.94121635,-1.4376656,-0.31949076,-0.6874896,1.4207903,-0.70037615,0.49458334,-0.27249914,-0.06941223,-0.47865677,0.7399551,-1.5602078,-0.11457725,-0.20665877,-0.06921005,-0.55399704,0.710857,0.8699051,-0.037144642,0.034839608,0.49058282,-1.3075898,-0.01887244,0.04002324,0.0,1.0,0.0,0.0,0.0,0.0,0.0,-0.58058774,0.07865676,-0.18995512,0.84290504,-5.158901,-10.37134,2.452588,-14.919579,-0.8716762,1.527369
-14.949193,22.348867,1.0423188,11.8449135,0.6838271,-0.009279907,-0.11887824,-0.79863197,-0.2556132,-0.5195383,0.79576516,-0.5834327,0.6071035,-0.21926582,0.6633111,-0.880073,-1.9734809,-1.3269125,2.223596,1.8625877,-0.96314293,0.72885585,-0.85819954,-1.9293454,-1.3921858,2.2742336,1.8067468,-0.9437922,-1.4295548,-0.38538358,-0.81310356,1.4339039,-0.7941618,0.48463583,-0.2528306,-0.0850029,-0.47980118,0.737138,-1.558648,-0.11446269,-0.30673137,-0.082466125,-0.5542679,0.71078914,0.8770546,-0.04011065,0.039700907,0.47706404,-1.331298,-0.019063707,-0.02346536,0.0,1.0,0.0,0.0,0.0,0.0,0.0,-0.5649971,0.07980117,-0.18713796,0.9011984,-6.660509,-12.527573,1.4755964,-9.38735,-0.95932484,1.8888593
-14.706589,20.75531,0.5064038,10.840036,0.8888087,-0.043763757,-0.103231624,-0.7911842,-0.28518426,-0.5682304,0.7934998,-0.57705337,0.60877466,-0.19132255,0.6497374,-0.886718,-1.9861684,-1.3128358,2.2165282,1.8676243,-0.9629245,0.71463585,-0.8625893,-1.9384004,-1.3778312,2.2659574,1.8115283,-0.9461631,-1.4171147,-0.45706883,-0.9445175,1.4356637,-0.82184327,0.49321556,-0.21238522,-0.100559235,-0.48093033,0.73334503,-1.406911,0.0024921638,-0.1465326,-0.09600067,-0.5545616,0.7100515,0.88407195,-0.04230062,0.044744655,0.46327683,-1.3634334,-0.020947553,-0.094370455,0.0,1.0,0.0,0.0,0.0,0.0,0.0,-0.54944074,0.08093032,-0.18334502,1.5419483,-7.2423277,-13.929677,0.28119087,-1.0489702,2.5936127,5.9861035
-15.642782,25.198582,2.4550512,11.735771,1.0611217,0.14291978,-0.1269303,-0.8050363,-0.30137414,-0.5987679,0.79266965,-0.54356813,0.5956386,-0.23689362,0.6341322,-0.8927267,-1.9982772,-1.2985642,2.2116005,1.8710922,-0.9698525,0.7004566,-0.8676104,-1.9486028,-1.3635089,2.2576947,1.8164287,-0.948216,-1.4179511,-0.5173886,-1.0453942,1.4317031,-0.8277041,0.48869735,-0.20311537,-0.11480713,-0.4809723,0.73154736,-1.4305775,-0.0062128254,-0.19181503,-0.10987091,-0.5548096,0.70867276,0.89093393,-0.04384909,0.049722135,0.44926783,-1.395252,-0.014917214,-0.15378143,0.0,1.0,0.0,0.0,0.0,0.0,0.0,-0.53519285,0.080972284,-0.18154734,-0.0029325485,-6.132621,-10.022473,-0.20706654,-0.64599514,-0.52362084,0.85899234
-10.89369,40.217773,9.813249,13.001223,0.6565194,0.41685134,-0.03414186,-0.79875666,-0.27583605,-0.60342085,0.7966788,-0.5540308,0.6130353,-0.20783408,0.620581,-0.895194,-2.008945,-1.283841,2.2022917,1.8777322,-0.96899945,0.6862698,-0.87293285,-1.9595109,-1.3492267,2.2494438,1.821321,-0.95019376,-1.418785,-0.53764695,-1.1053493,1.4273975,-0.824856,0.48888588,-0.1965469,-0.12939835,-0.48109055,0.7295004,-1.4690362,-0.012878364,-0.20903647,-0.12394333,-0.5548706,0.7069125,0.89762324,-0.044891268,0.054736417,0.43504155,-1.4095778,0.008708661,-0.18487999,0.0,1.0,0.0,0.0,0.0,0.0,0.0,-0.52060163,0.08109054,-0.1795004,-0.06887913,-2.1714091,-5.827093,-0.3211975,0.09146929,-0.07303953,0.5218297
-3.8848724,49.733685,15.776059,12.72351,0.21327859,0.5135626,0.12281674,-0.7770968,-0.2934533,-0.58824515,0.80136347,-0.5785417,0.626755,-0.1470218,0.60856014,-0.9022782,-2.0183353,-1.2690904,2.1915896,1.8839965,-0.96489596,0.672164,-0.8783755,-1.9706461,-1.3349597,2.2411776,1.8262155,-0.9520563,-1.4080662,-0.5469723,-1.1154279,1.4265541,-0.8278099,0.48937416,-0.18309015,-0.14408493,-0.48109055,0.7273901,-1.4672205,0.004605559,-0.2121116,-0.13800049,-0.5546379,0.7049861,0.9040331,-0.045639593,0.059839707,0.42078537,-1.4045988,0.040915906,-0.19678205,0.0,1.0,0.0,0.0,0.0,0.0,0.0,-0.50591505,0.08109054,-0.1773901,1.0128021,-1.0914564,-0.73792934,-0.0497818,-0.52660704,0.006490946,1.2518913
-2.2860172,53.405155,17.504955,12.830033,0.115746945,0.5443295,0.1669225,-0.7777186,-0.30012938,-0.6046854,0.7966507,-0.58187664,0.6144246,-0.120718956,0.5943922,-0.90838844,-2.0311146,-1.2552947,2.1829898,1.887658,-0.9641282,0.65816313,-0.88386387,-1.9817736,-1.3207138,2.2328768,1.8311096,-0.953766,-1.3976476,-0.55000055,-1.1109071,1.4239118,-0.8318259,0.48927104,-0.16741191,-0.15869522,-0.48089218,0.72529304,-1.4587271,0.025040373,-0.20928028,-0.15197372,-0.55405426,0.7029881,0.91011554,-0.04618564,0.0650478,0.40660203,-1.3937054,0.07556027,-0.20233916,0.0,1.0,0.0,0.0,0.0,0.0,0.0,-0.49130476,0.080892175,-0.17529303,0.96035004,-0.46842098,0.7622242,-0.2565384,-0.7214546,-0.04992485,1.403755
-2.0893977,56.427002,18.364769,13.306822,0.061526865,0.56740403,0.19595799,-0.77676725,-0.2926011,-0.6149818,0.79642004,-0.59835815,0.6130232,-0.035221316,0.5804864,-0.91312397,-2.0432718,-1.2410717,2.1730409,1.892412,-0.95728815,0.64425,-0.889316,-1.9928443,-1.3064926,2.224492,1.8360041,-0.9552667,-1.3895319,-0.54421073,-1.1047744,1.4214978,-0.84186065,0.48936215,-0.14486358,-0.17320251,-0.4804802,0.72325987,-1.4483734,0.046744365,-0.20162067,-0.16582108,-0.55311966,0.7009686,0.9158546,-0.046547346,0.07041485,0.3925371,-1.3794423,0.111948684,-0.20331949,0.0,1.0,0.0,0.0,0.0,0.0,0.0,-0.47679746,0.08048019,-0.17325985,0.7205248,0.40541887,0.9444237,-0.24626255,-1.3468981,-0.030171871,2.0762296
-7.1584625,48.878963,13.663832,13.155505,0.3457852,0.46136832,0.14483756,-0.78558475,-0.3218766,-0.66206396,0.7926224,-0.61494046,0.59744817,0.060112823,0.5656915,-0.92150366,-2.0590508,-1.2272303,2.162998,1.895749,-0.9492554,0.6303502,-0.89483494,-2.0040767,-1.2923038,2.2159626,1.840879,-0.9564891,-1.3902154,-0.55500966,-1.1285486,1.4181693,-0.85718167,0.48658365,-0.11515215,-0.18763351,-0.47987366,0.7211935,-1.4414626,0.065485775,-0.20829448,-0.17961884,-0.5518646,0.6988201,0.9212829,-0.046596747,0.075938486,0.37854955,-1.3781462,0.1416528,-0.22011852,0.0,1.0,0.0,0.0,0.0,0.0,0.0,-0.46236646,0.07987365,-0.17119348,-0.10983944,-1.2427449,-2.107215,-0.27184486,-1.8132329,-0.33667088,2.8161378
-8.579459,43.674538,11.001894,12.398615,0.4582642,0.35523772,0.13959207,-0.7770864,-0.34544596,-0.6831402,0.79432917,-0.6292104,0.6052464,0.123476565,0.5526415,-0.9293795,-2.0723908,-1.2128708,2.1530416,1.9014037,-0.94414145,0.61646086,-0.9005818,-2.0156581,-1.2781322,2.2072577,1.8457253,-0.9573887,-1.3885254,-0.5816859,-1.1675035,1.4171861,-0.875524,0.48370045,-0.0820686,-0.2020073,-0.47909546,0.71898144,-1.436002,0.08184814,-0.22554393,-0.1934433,-0.5503464,0.69642055,0.9264237,-0.04622587,0.08157126,0.3646208,-1.3821954,0.16627775,-0.2480114,0.0,1.0,0.0,0.0,0.0,0.0,0.0,-0.44799268,0.07909545,-0.16898143,0.14929771,-2.8182507,-3.6561728,-0.0011920929,-2.076459,-0.35745502,3.1704812
-9.420422,40.408394,9.550007,11.930543,0.56890595,0.31444025,0.13550094,-0.776257,-0.3720906,-0.6903031,0.7964741,-0.6372866,0.6029116,0.14974569,0.53883517,-0.9377908,-2.0846884,-1.1984848,2.1435292,1.9060165,-0.9424141,0.6025896,-0.9067015,-2.027621,-1.2639492,2.1983802,1.8505388,-0.95796764,-1.3867241,-0.6226207,-1.2051871,1.4189913,-0.8929045,0.48021102,-0.05022477,-0.21633148,-0.47816467,0.7165474,-1.4314035,0.09687828,-0.24928512,-0.20733643,-0.54860306,0.693697,0.9312905,-0.045400422,0.08724324,0.3507498,-1.3901769,0.18862544,-0.28199583,0.0,1.0,0.0,0.0,0.0,0.0,0.0,-0.4336685,0.07816467,-0.16654742,0.17175674,-4.2381406,-3.538227,0.30624866,-1.9657135,-0.43201447,3.064423
-7.0967712,45.38631,11.643048,11.949455,0.42510802,0.35338295,0.179088,-0.76818126,-0.3631855,-0.7008094,0.79394436,-0.64044136,0.61105907,0.21354507,0.5257715,-0.94302005,-2.097702,-1.1845547,2.134336,1.9116447,-0.93661314,0.5887699,-0.9131302,-2.0399158,-1.2497585,2.1893556,1.8553296,-0.95821285,-1.3804964,-0.650132,-1.2369578,1.4194133,-0.90653753,0.47836187,-0.016490286,-0.230587,-0.47707367,0.7139246,-1.4233738,0.11335498,-0.26618695,-0.2212677,-0.5466194,0.6906884,0.9358695,-0.044145763,0.09296099,0.33698308,-1.39018,0.21405838,-0.30869928,0.0,1.0,0.0,0.0,0.0,0.0,0.0,-0.41941297,0.07707366,-0.16392457,0.58481693,-2.9064655,-2.9034615,0.13246536,-1.6350389,-0.27159452,3.230769
-5.371903,49.439434,13.385204,12.055396,0.35488814,0.39868873,0.20664595,-0.7652505,-0.37046525,-0.70351434,0.791454,-0.64236444,0.6080346,0.24039973,0.5122449,-0.9501768,-2.1102672,-1.170613,2.1251192,1.916133,-0.93417287,0.57502073,-0.91977066,-2.0524395,-1.2355793,2.1802268,1.8601035,-0.9581344,-1.3732932,-0.66923094,-1.2567871,1.4175395,-0.91606647,0.4769746,0.01547717,-0.24473953,-0.4758072,0.71117544,-1.4123644,0.13096865,-0.27719128,-0.23514938,-0.5443535,0.68746275,0.9401486,-0.04251035,0.098730795,0.323366,-1.384288,0.24190053,-0.32884434,0.0,1.0,0.0,0.0,0.0,0.0,0.0,-0.40526044,0.075807184,-0.16117543,0.65653324,-2.072823,-1.6669273,-0.12631416,-1.2689471,-0.23134947,3.039701
0.73755646,59.196293,18.065828,12.042685,0.072188884,0.44714093,0.28197396,-0.7426551,-0.34943607,-0.6920478,0.7879624,-0.6353579,0.6282804,0.2672868,0.5007552,-0.95471424,-2.1216443,-1.156783,2.116691,1.9229316,-0.9314057,0.5614328,-0.9264235,-2.0650203,-1.2214438,2.1710563,1.8648905,-0.9577491,-1.3543482,-0.6644963,-1.2573254,1.412175,-0.9184744,0.47912088,0.045568213,-0.25872803,-0.47434616,0.7084301,-1.3941363,0.15080464,-0.2726506,-0.24884033,-0.5417938,0.68415534,0.9440954,-0.04060407,0.10458991,0.3099939,-1.3610898,0.27277166,-0.33291087,0.0,1.0,0.0,0.0,0.0,0.0,0.0,-0.39127195,0.074346155,-0.1584301,1.7631531,0.30038357,0.3537655,-0.5687237,-0.6429553,0.12905598,2.8087869
-4.981446,55.236687,15.081259,12.989101,0.39829123,0.46812707,0.20595005,-0.7672064,-0.37702152,-0.7168646,0.78571016,-0.6427048,0.59929234,0.2951868,0.48471212,-0.96412563,-2.1367068,-1.1428728,2.1067858,1.9248197,-0.92823046,0.54790294,-0.933103,-2.0776656,-1.2073656,2.1618626,1.8696717,-0.9570779,-1.3528574,-0.6696301,-1.2655083,1.4064626,-0.9209958,0.47759125,0.07374311,-0.27256012,-0.4726982,0.70567435,-1.3789694,0.16977534,-0.27535474,-0.26240158,-0.53891754,0.68075615,0.9477397,-0.038404834,0.1105127,0.29681876,-1.3507683,0.30367112,-0.34364054,0.0,1.0,0.0,0.0,0.0,0.0,0.0,-0.37743986,0.072698206,-0.15567434,0.059747696,-0.6902695,-0.44631958,-0.53977966,-0.63124895,-0.26420355,2.641613
0.4424677,73.46249,21.998981,15.170243,0.080700815,0.6337341,0.2643837,-0.74605286,-0.28869835,-0.7045843,0.78268313,-0.64035356,0.6097999,0.3659719,0.47329766,-0.96197283,-2.148124,-1.1290973,2.0978272,1.9306517,-0.9204807,0.53444177,-0.93941826,-2.0903184,-1.193356,2.1526651,1.8744602,-0.9561033,-1.3444641,-0.61955094,-1.2633655,1.39883,-0.9212123,0.47895566,0.10452374,-0.2861557,-0.47082138,0.7031221,-1.3524072,0.1938698,-0.24726985,-0.275692,-0.5356636,0.6774788,0.9510568,-0.03598797,0.11666481,0.28387508,-1.3180083,0.34286043,-0.323848,0.0,1.0,0.0,0.0,0.0,0.0,0.0,-0.36384428,0.070821375,-0.15312207,0.6626129,4.7932863,0.7295847,-0.86534023,-0.55298805,0.030976534,2.8095498
-4.384989,59.661053,16.05481,13.613885,0.42492417,0.45453495,0.21164352,-0.7583321,-0.3604739,-0.72268504,0.77280915,-0.6394566,0.5672,0.36416,0.45860857,-0.97546566,-2.162587,-1.1160752,2.0887194,1.9311802,-0.91968733,0.5209939,-0.9455599,-2.1030138,-1.1794477,2.1434712,1.8792164,-0.9548531,-1.3453308,-0.6130462,-1.2706046,1.3881828,-0.92038023,0.47408244,0.13118471,-0.29953766,-0.46874237,0.70066035,-1.3331085,0.21278375,-0.2444031,-0.28879166,-0.53208923,0.674216,0.95407844,-0.033285853,0.12293404,0.27113402,-1.3034247,0.37362808,-0.3284748,0.0,1.0,0.0,0.0,0.0,0.0,0.0,-0.35046232,0.068742365,-0.15066034,-0.19974709,0.46823025,-0.30591488,-1.0661364,-0.34412146,-0.6146014,2.4680152
-7.1913757,53.619987,13.0483265,12.865268,0.542814,0.37706625,0.19998857,-0.7652235,-0.36761045,-0.7378702,0.7613752,-0.65321696,0.53665745,0.4102338,0.44447154,-0.98232096,-2.1768007,-1.1033101,2.0781496,1.9328822,-0.91382974,0.50748694,-0.9517654,-2.1158535,-1.1656784,2.1342428,1.8838918,-0.95333487,-1.3526963,-0.6236136,-1.2871951,1.3733408,-0.92493826,0.4649502,0.15819135,-0.31275177,-0.4664917,0.6981271,-1.3168155,0.22923279,-0.25436217,-0.30181122,-0.52822113,0.6708129,0.9568382,-0.030182436,0.12920989,0.25856236,-1.2964904,0.40155667,-0.34538224,0.0,1.0,0.0,0.0,0.0,0.0,0.0,-0.3372482,0.06649169,-0.14812708,-0.81853867,-1.2263775,-1.2868643,-1.4376163,-0.8401513,-1.0472715,2.5276928
-8.249364,49.83945,11.305337,12.237929,0.6025213,0.30641204,0.19550496,-0.76592225,-0.37827715,-0.7469376,0.7565782,-0.6621922,0.49847153,0.4366262,0.4308947,-0.98959315,-2.1905472,-1.0900205,2.0680234,1.933739,-0.90967226,0.49389982,-0.95817125,-2.1288881,-1.1520504,2.1249416,1.8884437,-0.95155555,-1.3608694,-0.6468206,-1.3080021,1.3593842,-0.93318903,0.4516993,0.18400449,-0.3258133,-0.46409225,0.69542843,-1.3021044,0.24365294,-0.2729655,-0.314785,-0.52409744,0.6671847,0.95935476,-0.026608506,0.1354284,0.24614932,-1.2934538,0.4268982,-0.36985442,0.0,1.0,0.0,0.0,0.0,0.0,0.0,-0.32418668,0.06409225,-0.14542842,-0.88284016,-2.4810433,-1.7337799,-1.3195992,-1.1861324,-1.4665008,2.4256885
-9.806338,42.88596,8.371126,10.699886,0.6054902,0.19983298,0.19283743,-0.7725345,-0.41343513,-0.77041215,0.7401797,-0.68698335,0.44713843,0.42504096,0.41664636,-0.99951476,-2.2059293,-1.0780324,2.0562432,1.9331576,-0.9090515,0.48021638,-0.9649566,-2.1422045,-1.1386013,2.1154876,1.8928255,-0.94955504,-1.3709179,-0.68958,-1.3385954,1.3406352,-0.9504185,0.43336156,0.20497386,-0.33875656,-0.46157074,0.69242316,-1.2908067,0.25504348,-0.30686122,-0.32777023,-0.5197449,0.6632015,0.961648,-0.022458613,0.14151701,0.23388392,-1.2957081,0.4482842,-0.40888482,0.0,1.0,0.0,0.0,0.0,0.0,0.0,-0.3112434,0.061570734,-0.14242315,-1.0405302,-4.4196606,-2.7674437,-1.7507792,-2.0322561,-1.9794583,1.9675761
-10.441359,39.738743,7.21259,10.264817,0.6916977,0.17903447,0.18130788,-0.7758963,-0.44720194,-0.7745556,0.7436026,-0.6926218,0.4337698,0.43550572,0.40262675,-1.0096768,-2.21966,-1.064241,2.0462253,1.9362024,-0.9060045,0.46643806,-0.972275,-2.1557958,-1.1252822,2.105858,1.8970221,-0.9473642,-1.3801761,-0.74637043,-1.364952,1.3293746,-0.96795386,0.41468975,0.22344646,-0.35160446,-0.45894623,0.6890215,-1.2814603,0.2649925,-0.3484264,-0.34080887,-0.5151901,0.6587903,0.9637349,-0.017717026,0.14740087,0.22175215,-1.3017887,0.46894774,-0.45302182,0.0,1.0,0.0,0.0,0.0,0.0,0.0,-0.2983955,0.058946222,-0.13902152,-0.94718933,-5.8175564,-2.3622274,-0.9664297,-2.0398855,-2.0274878,1.7434835
-5.419291,44.603912,9.911289,9.920636,0.5460702,0.20678693,0.2392214,-0.75982445,-0.4579112,-0.7641615,0.74375963,-0.6994124,0.44925687,0.477421,0.3904556,-1.0180662,-2.232212,-1.0509062,2.0359168,1.9419478,-0.8996221,0.4526659,-0.98011136,-2.1695278,-1.1120318,2.096068,1.9010626,-0.94497937,-1.3764136,-0.7965653,-1.3745468,1.3238943,-0.9837319,0.40031412,0.24314931,-0.36432266,-0.45623016,0.68525004,-1.267396,0.27447122,-0.38330105,-0.35383606,-0.51041794,0.65400183,0.96560276,-0.01248064,0.15306908,0.20982245,-1.2970304,0.48880157,-0.48868042,0.0,1.0,0.0,0.0,0.0,0.0,0.0,-0.2856773,0.056230158,-0.13525003,0.3122568,-5.156338,-0.62630177,-0.44076443,-1.9104958,-1.5972137,1.8515587
-1.8180737,47.390667,11.622002,9.761037,0.52345324,0.21100271,0.25855365,-0.74789405,-0.48643127,-0.7580857,0.75140965,-0.6934106,0.45682508,0.49438944,0.3778765,-1.0287545,-2.2453363,-1.0368909,2.026727,1.9467452,-0.8955404,0.439011,-0.9884436,-2.1832488,-1.098768,2.086176,1.9049866,-0.94240403,-1.3621413,-0.84589744,-1.3704444,1.3273934,-0.992075,0.3893688,0.2620064,-0.37688065,-0.45342255,0.6811536,-1.2505366,0.2829856,-0.414704,-0.36676788,-0.5054817,0.6489023,0.9672457,-0.006877814,0.15850326,0.19815442,-1.2866143,0.507021,-0.5185349,0.0,1.0,0.0,0.0,0.0,0.0,0.0,-0.27311933,0.05342254,-0.13115358,1.3356209,-5.0667763,0.78184605,0.4257679,-1.1920452,-1.2597144,1.7732084
-6.144377,38.407253,7.7870884,8.550516,0.6693347,0.15905046,0.23310593,-0.76777124,-0.5557148,-0.77044314,0.7379704,-0.70695585,0.39423642,0.49593654,0.36223388,-1.044015,-2.260293,-1.024971,2.0154803,1.9444102,-0.8928104,0.42540568,-0.9974576,-2.1969538,-1.085508,2.076188,1.9087616,-0.93965966,-1.3600916,-0.92025983,-1.3695118,1.3259617,-1.001685,0.3730143,0.27847323,-0.3893242,-0.45055008,0.6765999,-1.2406754,0.28962943,-0.46480122,-0.37968445,-0.50035095,0.64338106,0.96869546,-0.0008709139,0.16359068,0.18672556,-1.2879341,0.52487445,-0.56489265,0.0,1.0,0.0,0.0,0.0,0.0,0.0,-0.2606758,0.050550073,-0.12659991,0.16682148,-7.5583577,0.37977695,0.02412796,-1.2444854,-1.821667,1.5927732
-0.74167204,42.364,9.895345,7.550021,0.40979022,0.13583392,0.30346727,-0.7376629,-0.56650764,-0.7682554,0.73596084,-0.71974045,0.3895168,0.5363305,0.3516394,-1.0541084,-2.2737794,-1.0119119,2.004214,1.9477133,-0.8860266,0.4119292,-1.0071341,-2.21064,-1.0722784,2.0660923,1.912384,-0.936739,-1.343713,-0.9839602,-1.3673177,1.3221716,-1.0133098,0.35814115,0.29634064,-0.4016304,-0.4476204,0.6715823,-1.2260419,0.29474735,-0.5102914,-0.3925209,-0.4950714,0.6374316,0.96994835,0.0055373195,0.16832751,0.17560017,-1.2769845,0.53891164,-0.60686255,0.0,1.0,0.0,0.0,0.0,0.0,0.0,-0.24836957,0.047620386,-0.12158227,1.559329,-6.4864874,0.55036545,-0.27179718,-1.4849901,-1.663506,1.7035246
