Afshin1997/kuka_rl_ros2/src/catch_and_throw/input_files/idealpd/recorded_trajectories/env_456_data.csv
torque0,torque1,torque2,torque3,torque4,torque5,torque6,action0,action1,action2,action3,action4,action5,action6,set_target_0,set_target_1,set_target_2,set_target_3,set_target_4,set_target_5,set_target_6,joint_pos_0,joint_pos_1,joint_pos_2,joint_pos_3,joint_pos_4,joint_pos_5,joint_pos_6,joint_vel_0,joint_vel_1,joint_vel_2,joint_vel_3,joint_vel_4,joint_vel_5,joint_vel_6,tennisball_pos_0,tennisball_pos_1,tennisball_pos_2,tennisball_lin_vel_0,tennisball_lin_vel_1,tennisball_lin_vel_2,end_effector_pos_0,end_effector_pos_1,end_effector_pos_2,end_effector_rot_0,end_effector_rot_1,end_effector_rot_2,end_effector_rot_3,end_effector_lin_vel_0,end_effector_lin_vel_1,end_effector_lin_vel_2,obs_task_0,obs_task_1,obs_task_2,obs_task_3,obs_task_4,obs_task_5,obs_task_6,to_final_target_0,to_final_target_1,to_final_target_2,joint_acc_0,joint_acc_1,joint_acc_2,joint_acc_3,joint_acc_4,joint_acc_5,joint_acc_6
0.0,0.0,0.0,0.0,0.0,0.0,0.0,0.0,0.0,0.0,0.0,0.0,0.0,0.0,1.7802359,-1.0646509,-1.8151424,-1.1170107,1.9373155,1.1170107,-0.91629785,1.7802359,-1.0646509,-1.8151424,-1.1170107,1.9373155,1.1170107,-0.91629785,0.0,0.0,0.0,0.0,0.0,0.0,0.0,3.086914,-0.6079407,0.27766585,-3.5261025,0.1812338,4.8965335,0.5304184,-0.45449448,0.693097,0.5745483,0.17512383,0.15255436,0.7848268,0.0,0.0,0.0,1.0,0.0,0.0,0.0,0.0,0.0,0.0,-3.7369142,0.20794067,0.27233416,0.0,0.0,0.0,0.0,0.0,0.0,0.0
0.0,0.0,0.0,0.0,0.0,0.0,0.0,0.0,0.0,0.0,0.0,0.0,0.0,0.0,1.7802359,-1.0646509,-1.8151424,-1.1170107,1.9373155,1.1170107,-0.91629785,1.7802359,-1.0646509,-1.8151424,-1.1170107,1.9373155,1.1170107,-0.91629785,0.0,0.0,0.0,0.0,0.0,0.0,0.0,3.086914,-0.6079407,0.27766585,-3.5261025,0.1812338,4.8965335,0.5304184,-0.45449448,0.693097,0.5745483,0.17512383,0.15255436,0.7848268,0.0,0.0,0.0,1.0,0.0,0.0,0.0,0.0,0.0,0.0,-3.7369142,0.20794067,0.27233416,0.0,0.0,0.0,0.0,0.0,0.0,0.0
0.0,0.0,0.0,0.0,0.0,0.0,0.0,0.0,0.0,0.0,0.0,0.0,0.0,0.0,1.7802359,-1.0646509,-1.8151424,-1.1170107,1.9373155,1.1170107,-0.91629785,1.7802359,-1.0646509,-1.8151424,-1.1170107,1.9373155,1.1170107,-0.91629785,0.0,0.0,0.0,0.0,0.0,0.0,0.0,3.086914,-0.6079407,0.27766585,-3.5261025,0.1812338,4.8965335,0.5304184,-0.45449448,0.693097,0.5745483,0.17512383,0.15255436,0.7848268,0.0,0.0,0.0,1.0,0.0,0.0,0.0,0.0,0.0,0.0,-3.7369142,0.20794067,0.27233416,0.0,0.0,0.0,0.0,0.0,0.0,0.0
-176.0,63.9723,-8.097288,110.0,11.347532,4.6472297,-3.7379112,-0.8219525,0.3308209,-0.5517509,0.73294675,0.40506265,0.6400425,-0.5935972,1.6980406,-1.0315688,-1.8703175,-1.0437161,1.9778217,1.181015,-0.9756576,1.778937,-1.062549,-1.8208911,-1.1125532,1.9441113,1.1226317,-0.9189157,-0.1729479,0.27954614,-0.76608145,0.5948462,0.90524083,0.7474009,-0.34822384,3.0516815,-0.6061325,0.32585803,-3.5225773,0.18105261,4.793452,0.5282364,-0.4578247,0.6938323,0.57847846,0.17373952,0.15031262,0.782677,-0.2906028,-0.44380257,0.09777487,1.0,0.0,0.0,0.0,0.0,0.0,0.0,-3.7016816,0.2061325,0.22414199,-17.226772,27.764904,-76.429306,59.57629,90.2211,74.12912,-34.58607
-176.0,-16.257874,-41.154312,110.0,11.8185005,1.8531668,-3.1836312,-0.80151004,-0.09042412,-0.54666543,0.69342375,0.47731602,0.63760597,-0.5851134,1.698786,-1.0715914,-1.8755577,-1.0432109,1.991843,1.1863923,-0.977427,1.7772623,-1.0594991,-1.8356845,-1.0996481,1.9576669,1.1364352,-0.9218902,-0.1647587,0.30906105,-1.7104226,1.524515,1.5007488,1.5775577,-0.27918133,3.0164833,-0.60432434,0.37302014,-3.5190554,0.1808716,4.690473,0.5234146,-0.46621704,0.6946878,0.58704484,0.1704715,0.1453113,0.77794755,-0.54728913,-0.97004145,0.08250666,1.0,0.0,0.0,0.0,0.0,0.0,0.0,-3.6664834,0.20432433,0.17697987,1.047191,1.6497016,-92.42675,93.600204,58.092022,78.84605,7.3017716
-159.45738,130.11101,36.40808,96.48949,7.8111644,7.961167,-1.9488884,-0.7745187,0.35362604,0.06726019,0.6030654,0.50220096,0.6801588,-0.5472452,1.6998105,-1.0241365,-1.8289585,-1.0393416,2.007887,1.2044511,-0.9766147,1.7723185,-1.0553545,-1.8508594,-1.0827338,1.9726815,1.1520163,-0.9248437,-0.6045037,0.44622523,-1.4462626,1.7479832,1.4970474,1.5443397,-0.3031384,2.9813194,-0.6025162,0.41915324,-3.515537,0.18069078,4.5875974,0.5156517,-0.4773178,0.6973158,0.59849083,0.16550855,0.13905048,0.77141464,-0.85986906,-1.1501255,0.32676354,1.0,0.0,0.0,0.0,0.0,0.0,0.0,-3.6313195,0.20251617,0.13084677,-44.084423,12.692428,28.491402,22.607922,-1.77598,-5.54595,-3.0859053
-103.910164,128.73415,46.6278,62.204464,4.6523933,7.8522077,-0.55884576,-0.7803265,0.217489,0.118614726,0.6119217,0.5064655,0.64988774,-0.57663375,1.6942859,-1.0336056,-1.838998,-1.0215416,2.023328,1.217005,-0.9825071,1.7630373,-1.0507101,-1.8607662,-1.0657698,1.9862504,1.1664339,-0.928029,-1.0373003,0.46795967,-0.8311741,1.6797751,1.3054069,1.4033457,-0.3264875,2.9461899,-0.600708,0.46425837,-3.5120223,0.18051013,4.4848247,0.50528336,-0.4890213,0.70211095,0.61098003,0.15900514,0.13208161,0.7641826,-1.1079915,-1.1666689,0.5350028,1.0,0.0,0.0,0.0,0.0,0.0,0.0,-3.59619,0.200708,0.08574164,-43.647076,1.4322817,63.812363,-6.712818,-20.607567,-15.339279,-3.1974792
-45.695095,136.57619,53.557487,34.137165,1.7119856,6.8027782,0.19886863,-0.78995246,0.3128333,0.10974924,0.6060747,0.5598394,0.64998156,-0.5672749,1.6840421,-1.0194267,-1.8497913,-1.0051624,2.0422344,1.2314321,-0.98475647,1.7502371,-1.0456785,-1.8644855,-1.0505778,1.9977784,1.1792933,-0.9314403,-1.3621988,0.51325095,-0.21259971,1.4654124,1.0984799,1.2450669,-0.34883368,2.9110947,-0.5989075,0.50833654,-3.5085108,0.18032967,4.3821545,0.49310303,-0.5000229,0.70872045,0.62331784,0.15120465,0.12476254,0.75699824,-1.2676535,-1.0646007,0.70542246,1.0,0.0,0.0,0.0,0.0,0.0,0.0,-3.5610948,0.19890746,0.041663468,-32.90882,4.0146947,63.733364,-21.545769,-21.715021,-16.307163,-3.0707538
-7.004096,130.33601,49.446968,16.861034,-0.23191565,4.882165,0.3117945,-0.8119501,0.41149676,0.06000536,0.6044282,0.57089967,0.6378055,-0.5739843,1.6690421,-1.0045288,-1.858485,-0.99013495,2.0548685,1.2430738,-0.98883873,1.7352282,-1.0398554,-1.8636711,-1.0375525,2.0075982,1.190703,-0.9350471,-1.5482571,0.60443646,0.18366173,1.2476934,0.94154507,1.1062285,-0.3667872,2.8760376,-0.59710693,0.5513888,-3.505003,0.18014938,4.279587,0.4799347,-0.50971603,0.7166294,0.6350681,0.14254752,0.117662504,0.75001615,-1.3446368,-0.9225275,0.8195447,1.0,0.0,0.0,0.0,0.0,0.0,0.0,-3.5260377,0.19710693,-0.0013887882,-18.94741,8.774543,40.823017,-21.940971,-16.208803,-13.9256,-2.4481773
18.38038,128.35487,45.680576,7.701043,-1.4537069,3.3310537,0.17966612,-0.8177095,0.5283359,0.0216459,0.5821448,0.595946,0.6298732,-0.574382,1.6534573,-0.98702174,-1.8615065,-0.979338,2.0671928,1.2536904,-0.9924853,1.719258,-1.0326685,-1.8607185,-1.026343,2.0163682,1.2008921,-0.93880457,-1.6143191,0.756034,0.33510497,1.0779641,0.85475767,0.9903028,-0.3804744,2.8410149,-0.5953064,0.5934161,-3.5014987,0.17996927,4.177122,0.4664383,-0.51789093,0.7254325,0.6462205,0.13344476,0.11133943,0.74309826,-1.3597233,-0.7687154,0.89903814,1.0,0.0,0.0,0.0,0.0,0.0,0.0,-3.491015,0.19530639,-0.043416083,-6.905484,14.908886,15.915823,-17.1525,-8.898628,-11.445498,-1.9028246
28.169285,120.51309,40.33221,4.8818564,-1.777091,2.2192678,0.010831961,-0.8229023,0.601116,0.010230719,0.5698173,0.60830516,0.6288052,-0.5681799,1.6369677,-0.9725569,-1.8596954,-0.96936125,2.0771987,1.2637726,-0.9956226,1.7031847,-1.0238279,-1.8575084,-1.0163199,2.0246766,1.210076,-0.94266886,-1.6058339,0.9261231,0.31816995,0.9764551,0.82225776,0.8948517,-0.38980377,2.8060265,-0.59350586,0.63441956,-3.4979978,0.17978933,4.0747595,0.45303345,-0.5246582,0.7348473,0.6569251,0.12418941,0.106084794,0.73605186,-1.3418666,-0.63043463,0.9535321,1.0,0.0,0.0,0.0,0.0,0.0,0.0,-3.4560266,0.19350585,-0.08441955,0.5978584,16.828918,-1.1776507,-10.321689,-3.3229113,-9.369743,-1.3626039
31.254734,111.46282,36.315224,4.1946015,-1.6595037,1.6358982,-0.030465405,-0.82037824,0.651203,0.033663582,0.54599035,0.6124542,0.6411454,-0.55821115,1.6211469,-0.95870763,-1.8541421,-0.9617208,2.085922,1.2741905,-0.99849,1.6874624,-1.0134062,-1.854924,-1.0069472,2.0328934,1.2184397,-0.9465999,-1.5617194,1.0802304,0.2399442,0.9235021,0.82135427,0.8173646,-0.3954507,2.7710724,-0.59170914,0.6744001,-3.4945004,0.17960958,3.9724998,0.43989182,-0.53017426,0.74470246,0.66728896,0.11491716,0.101876214,0.728794,-1.3112384,-0.5101598,0.9938478,1.0,0.0,0.0,0.0,0.0,0.0,0.0,-3.4210725,0.19170913,-0.12440008,4.201412,15.275764,-7.417831,-5.476451,-0.1134038,-7.6099277,-0.93396306
30.548569,102.26919,33.507347,4.1030927,-1.308644,1.4209722,0.054993585,-0.8196857,0.685624,0.07807205,0.5070872,0.63065666,0.6448954,-0.55894,1.6054939,-0.94484377,-1.8471167,-0.95623845,2.0959592,1.2829292,-1.0024939,1.6722132,-1.001716,-1.8529804,-0.9979769,2.0412514,1.226134,-0.95057577,-1.5133214,1.1982464,0.18025476,0.8876021,0.8407613,0.75389755,-0.39938495,2.7361526,-0.5899162,0.7133589,-3.4910066,0.17943001,3.8703425,0.4270439,-0.5345993,0.75489306,0.6773094,0.10565984,0.09845268,0.7213841,-1.2808318,-0.4049878,1.0253851,1.0,0.0,0.0,0.0,0.0,0.0,0.0,-3.3861527,0.18991622,-0.16335887,4.654503,11.694646,-5.586329,-3.7864447,1.9243002,-6.2511206,-0.73159933
26.995062,91.21705,29.910494,4.549522,-0.91485137,1.2364707,0.11963434,-0.8103942,0.70812255,0.086751,0.48759705,0.63866425,0.6522293,-0.55754924,1.5911738,-0.9309038,-1.8443053,-0.9492172,2.1051178,1.2913569,-1.0063307,1.6573988,-0.9891542,-1.8514316,-0.989287,2.0498497,1.2332846,-0.95458215,-1.4711694,1.2752355,0.14766757,0.8621842,0.86607033,0.70242906,-0.40203136,2.701271,-0.5881233,0.7512968,-3.4875162,0.17925061,3.7682872,0.41444778,-0.5381012,0.7653104,0.68696815,0.09642583,0.09552486,0.71389896,-1.254918,-0.3168886,1.0451398,1.0,0.0,0.0,0.0,0.0,0.0,0.0,-3.3512712,0.18812332,-0.2012968,4.053116,7.6178074,-2.8990893,-2.7481675,2.5257468,-5.0732017,-0.57890415
23.063637,78.758606,25.444828,3.912014,-0.67697763,0.96553636,0.18303949,-0.80551916,0.72002083,0.07674671,0.447296,0.6472924,0.6595567,-0.55712926,1.576847,-0.91715217,-1.8437569,-0.9445574,2.114579,1.2992402,-1.010295,1.6429068,-0.9760984,-1.8500888,-0.98093474,2.058696,1.2399985,-0.95860857,-1.4424143,1.3155543,0.1309915,0.82544,0.89104944,0.6613641,-0.40379763,2.66642,-0.5863304,0.788215,-3.4840293,0.1790714,3.666334,0.4020958,-0.5408325,0.7757839,0.69623476,0.08727523,0.092895985,0.7064067,-1.2311556,-0.24360108,1.0459667,1.0,0.0,0.0,0.0,0.0,0.0,0.0,-3.31642,0.18633041,-0.23821497,2.7246952,3.9797068,-1.3353497,-3.9031386,2.508533,-4.0032506,-0.46713948
21.58629,71.317184,22.714565,2.5833158,-0.64529467,0.7633817,0.25455144,-0.8011713,0.7387466,0.070652865,0.39274582,0.66360134,0.6611946,-0.55215335,1.5627897,-0.90222377,-1.8430235,-0.94166017,2.1250563,1.3061179,-1.0138239,1.6286074,-0.9627794,-1.8488376,-0.9731327,2.067794,1.2463633,-0.9626455,-1.4261898,1.3372753,0.1242586,0.7642098,0.91595006,0.62853485,-0.40453303,2.631607,-0.5845413,0.8241143,-3.480546,0.17889236,3.5644827,0.38998032,-0.542881,0.78616184,0.7050618,0.078284115,0.09046678,0.69898146,-1.2055713,-0.17631839,1.0327353,1.0,0.0,0.0,0.0,0.0,0.0,0.0,-3.2816072,0.18454131,-0.2741143,1.4689922,2.1407604,-0.3481254,-6.3723803,2.5127888,-3.1339288,-0.3503561
21.641373,65.72517,20.620407,0.9169159,-0.73556966,0.5529868,0.31122664,-0.79603386,0.747629,0.065600306,0.33520633,0.6660544,0.6625818,-0.5505814,1.549004,-0.8880165,-1.8422775,-0.9396121,2.1343994,1.3126215,-1.0177037,1.614411,-0.94932973,-1.8476245,-0.9661261,2.0770981,1.2524496,-0.9666862,-1.4180448,1.3474568,0.12142629,0.6786762,0.9350457,0.6025363,-0.40472576,2.5968285,-0.58275604,0.858996,-3.477066,0.1787135,3.462733,0.37816238,-0.5442734,0.79631627,0.7134016,0.06952385,0.08822098,0.69169474,-1.1746497,-0.11194067,1.0073223,1.0,0.0,0.0,0.0,0.0,0.0,0.0,-3.2468286,0.18275604,-0.30899596,0.66018105,1.0068893,0.026524067,-8.818698,1.9478917,-2.3938298,-0.28173923
22.112099,62.448566,19.251045,-0.43036556,-0.8601262,0.3766052,0.34999135,-0.79536474,0.75651085,0.05897356,0.26991048,0.6695876,0.6669287,-0.54177475,1.5348746,-0.8736786,-1.8417271,-0.939135,2.1440568,1.3191425,-1.0208637,1.600247,-0.9358047,-1.8464477,-0.960137,2.0865471,1.2583185,-0.97072023,-1.4162178,1.3541472,0.11744526,0.5715322,0.94866127,0.5823428,-0.40374386,2.5620842,-0.58097076,0.8928609,-3.4735897,0.17853482,3.3610852,0.3666954,-0.54501724,0.8061549,0.72122496,0.061051674,0.086191386,0.68460083,-1.1377746,-0.048996273,0.97345006,1.0,0.0,0.0,0.0,0.0,0.0,0.0,-3.2120843,0.18097076,-0.34286088,0.028920174,0.6748915,-0.10968745,-10.98609,1.4154077,-1.7658234,-0.14499426
29.536533,58.7155,18.291265,-6.4571376,-1.418685,0.013426691,0.53212863,-0.7923316,0.76054657,0.06083793,0.12056713,0.6819535,0.66264784,-0.54255563,1.5210139,-0.8597501,-1.8403639,-0.9480803,2.1547425,1.3245833,-1.0249758,1.5860907,-0.92222726,-1.8452919,-0.955711,2.0961258,1.2640158,-0.9747438,-1.4161563,1.359056,0.11593419,0.39864415,0.9615153,0.5669332,-0.4026982,2.5273743,-0.5791855,0.9257101,-3.4701169,0.17835632,3.2595391,0.35574722,-0.545063,0.8155194,0.72839683,0.053008735,0.08444568,0.67786205,-1.078996,0.0232998,0.92141354,1.0,0.0,0.0,0.0,0.0,0.0,0.0,-3.1773744,0.17918548,-0.37571007,-0.15335083,0.5237818,0.13401508,-17.585129,1.3450503,-1.1571407,-0.12462735
41.158337,58.565777,19.219414,-13.9295025,-2.154812,-0.30187005,0.7937095,-0.78477234,0.7687498,0.09258547,-0.059044518,0.68475807,0.66439444,-0.5295625,1.5076134,-0.8453523,-1.8360333,-0.96161544,2.1646016,1.3304552,-1.0277001,1.571961,-0.9085802,-1.843993,-0.9535881,2.1058114,1.269591,-0.97874826,-1.4123956,1.3667638,0.13535823,0.14915732,0.9715836,0.5562179,-0.40030593,2.4926987,-0.5774002,0.95754457,-3.4666474,0.178178,3.1580944,0.34560013,-0.5442505,0.8242598,0.73469824,0.045535766,0.08305721,0.67174876,-0.9915446,0.11257243,0.8553281,1.0,0.0,0.0,0.0,0.0,0.0,0.0,-3.1426988,0.1774002,-0.40754455,0.2273798,0.834775,2.2098184,-25.241386,1.0815024,-0.5417347,0.031757355
48.939987,59.3713,20.281935,-18.33769,-2.5898993,-0.5203619,0.96503556,-0.77758485,0.7757142,0.12736505,-0.21693261,0.6882282,0.65988016,-0.5210984,1.4942026,-0.8310088,-1.8312564,-0.9752814,2.1746342,1.335579,-1.030858,1.5579039,-0.8948358,-1.8423374,-0.9542881,2.1155846,1.2750784,-0.9827222,-1.4039763,1.3772954,0.17641392,-0.1438097,0.9798918,0.5482873,-0.3968773,2.4580574,-0.57562256,0.98836535,-3.4631815,0.17799985,3.0567513,0.33646774,-0.542469,0.83229625,0.73996735,0.038716868,0.082058415,0.6664951,-0.8845988,0.2104107,0.7832414,1.0,0.0,0.0,0.0,0.0,0.0,0.0,-3.1080575,0.17562255,-0.43836534,0.7361889,1.148057,4.288906,-29.541227,0.9537935,-0.18199682,0.18023849
46.31716,61.90634,21.304611,-14.673321,-2.2466264,-0.42861742,0.8932369,-0.76820815,0.7807438,0.16484948,-0.27874187,0.69037735,0.6554155,-0.50789905,1.481083,-0.81676143,-1.8258524,-0.9821623,2.1846223,1.3406199,-1.0335121,1.5439688,-0.8809799,-1.8401401,-0.9575983,2.1254342,1.2804953,-0.98665136,-1.3900603,1.3887578,0.23439986,-0.3940678,0.9869664,0.541125,-0.39202964,2.4234505,-0.5738449,1.0181735,-3.459719,0.17782189,2.9555092,0.328331,-0.5397568,0.8397221,0.7442528,0.032466736,0.081379384,0.6621261,-0.78531635,0.29906493,0.72532207,1.0,0.0,0.0,0.0,0.0,0.0,0.0,-3.0734506,0.1738449,-0.46817344,1.3426304,1.26369,5.833092,-25.198591,0.9203434,-0.1568079,0.37217736
42.83623,63.4653,21.988268,-10.705125,-1.8610892,-0.32253352,0.80705255,-0.75594586,0.78313,0.20953278,-0.36216155,0.69219446,0.6565177,-0.49652985,1.4683743,-0.8026669,-1.8191868,-0.99381447,2.1946535,1.3461471,-1.0363044,1.5302149,-0.8670229,-1.8372543,-0.96305907,2.1353447,1.2858473,-0.99052614,-1.3705764,1.3985083,0.3064845,-0.59715354,0.9931682,0.53486055,-0.38622174,2.3888817,-0.57206726,1.0469699,-3.45626,0.1776441,2.8543687,0.32110977,-0.53622437,0.84667265,0.747666,0.026649915,0.08092238,0.658587,-0.6963211,0.37835163,0.6807308,1.0,0.0,0.0,0.0,0.0,0.0,0.0,-3.0388818,0.17206725,-0.49696988,1.9431114,1.1127472,7.108903,-20.431572,0.91906786,-0.11290312,0.5055547
39.747734,69.733475,24.707277,-5.670165,-1.4409621,0.0072123036,0.7400367,-0.7432274,0.7950256,0.29534563,-0.42322963,0.69119924,0.64814645,-0.47043607,1.4558922,-0.7875203,-1.8077197,-1.0053821,2.2044647,1.350662,-1.0375698,1.5166861,-0.8529409,-1.8333919,-0.9701487,2.145301,1.2911345,-0.9943275,-1.3471466,1.4120003,0.41196382,-0.7465829,0.99796844,0.52836,-0.37830156,2.3543434,-0.5702896,1.0747557,-3.4528043,0.1774665,2.7533293,0.31466293,-0.5319023,0.8533547,0.7502985,0.02105735,0.08055812,0.65583473,-0.6217144,0.45578244,0.65923524,1.0,0.0,0.0,0.0,0.0,0.0,0.0,-3.0043435,0.1702896,-0.52475566,2.3643255,1.508069,10.321081,-15.020168,0.8925319,-0.17656088,0.7408023
35.596382,70.78291,25.405931,-1.5490985,-1.0345743,0.1821811,0.66688997,-0.7309369,0.7922764,0.36671835,-0.47059003,0.6908776,0.6458119,-0.44818252,1.4435924,-0.7737133,-1.79672,-1.0172077,2.2143888,1.3557156,-1.0391457,1.5034014,-0.83876264,-1.828326,-0.9783894,2.1552956,1.2963606,-0.9980392,-1.3221785,1.4203771,0.53700507,-0.8501118,1.0016493,0.5222372,-0.36886957,2.3198433,-0.5685196,1.1015319,-3.4493523,0.17728907,2.6523907,0.3088684,-0.52685165,0.8599222,0.75223464,0.015517813,0.0801643,0.6538164,-0.5603421,0.5264865,0.6506158,1.0,0.0,0.0,0.0,0.0,0.0,0.0,-2.9698434,0.16851959,-0.55153185,2.537799,1.010561,12.183517,-10.407615,0.8530617,-0.16907454,0.9065747
33.195976,71.528755,25.902546,1.0729599,-0.79853046,0.26684874,0.61493623,-0.71333385,0.7978699,0.43231753,-0.5122834,0.7015976,0.6378572,-0.43469945,1.432068,-0.7589756,-1.7850943,-1.0296177,2.2254553,1.3601463,-1.0415092,1.4903895,-0.82450616,-1.8219612,-0.9874331,2.1653512,1.3015257,-1.0016537,-1.2939012,1.4279866,0.668227,-0.92249054,1.0087652,0.5160956,-0.3590781,2.2853737,-0.5667496,1.1272994,-3.4459035,0.17711182,2.551553,0.30361938,-0.521122,0.8664671,0.7535373,0.009927443,0.07966365,0.65248495,-0.5067157,0.5932423,0.650044,1.0,0.0,0.0,0.0,0.0,0.0,0.0,-2.9353738,0.16674957,-0.5772994,2.8870344,0.94447136,12.738907,-7.2734475,1.240325,-0.18421412,0.9551048
28.57489,70.44283,25.399004,4.7686195,-0.47986424,0.33249602,0.5035939,-0.69440854,0.798825,0.48867095,-0.50565755,0.6941815,0.6306428,-0.39694414,1.4209486,-0.74462366,-1.773094,-1.0379988,2.2347693,1.3645899,-1.0413481,1.4776865,-0.8101934,-1.8143375,-0.9968668,2.1754487,1.3066279,-1.0051517,-1.2622776,1.432898,0.7921619,-0.9504552,1.0120106,0.50976855,-0.34683186,2.2509422,-0.56497955,1.1520594,-3.4424584,0.17693475,2.4508162,0.29881668,-0.51478195,0.8730662,0.75429994,0.004196358,0.07902427,0.6517431,-0.46436325,0.6514103,0.6568857,1.0,0.0,0.0,0.0,0.0,0.0,0.0,-2.9009423,0.16497955,-0.6020594,3.22783,0.682044,11.972952,-2.8339386,0.87058544,-0.2343893,1.2019157
19.988583,65.32448,22.547468,8.798888,-0.10748291,0.30602866,0.32684034,-0.69769734,0.8010868,0.51162136,-0.4998071,0.6887861,0.6357152,-0.36416733,1.4079168,-0.7300847,-1.7631754,-1.0468476,2.2443273,1.3701994,-1.0415685,1.4652106,-0.7958425,-1.8057067,-1.0063425,2.1855462,1.3116766,-1.0085125,-1.2425783,1.4364414,0.8854087,-0.9469522,1.010924,0.504158,-0.33272895,2.2165413,-0.56320953,1.1758128,-3.4390166,0.17675786,2.3501801,0.2943344,-0.507988,0.8797285,0.75467485,-0.0016951248,0.07828497,0.65140957,-0.43666282,0.69413626,0.66282046,1.0,0.0,0.0,0.0,0.0,0.0,0.0,-2.8665414,0.16320953,-0.6258128,2.0030737,0.5404234,8.948338,0.2832532,0.39172173,-0.22681952,1.3879836
15.510748,60.17978,19.960367,9.988287,0.007678151,0.1566359,0.22837853,-0.6919826,0.80402774,0.53258175,-0.511715,0.6910602,0.6282024,-0.35001954,1.3960123,-0.71543974,-1.7524486,-1.0575141,2.2546523,1.3744968,-1.0435145,1.4528776,-0.7814573,-1.7963722,-1.0157381,2.1956284,1.3166662,-1.0117359,-1.23034,1.43978,0.9482267,-0.9374387,1.0089792,0.49833345,-0.31884077,2.1821785,-0.5614433,1.1985606,-3.4355783,0.17658114,2.2496448,0.29009628,-0.5008316,0.886401,0.7547728,-0.007685131,0.07751913,0.6513445,-0.41326675,0.7265831,0.6619087,1.0,0.0,0.0,0.0,0.0,0.0,0.0,-2.8321786,0.16144332,-0.6485606,1.2351274,0.5124092,5.9592724,0.8643508,0.2469778,-0.28211474,1.3707995
10.375204,53.47833,16.76352,11.331533,0.19630587,-0.012848839,0.12648475,-0.69181424,0.79946345,0.5389577,-0.500818,0.6914384,0.62539256,-0.31685036,1.3836962,-0.70151097,-1.7424765,-1.06582,2.2647722,1.3792055,-1.0434209,1.4406039,-0.7670702,-1.7866428,-1.0249792,2.2056878,1.3215986,-1.0148106,-1.2262439,1.4388382,0.98040116,-0.92000806,1.0065817,0.49259308,-0.30362886,2.1478462,-0.55968094,1.2203037,-3.4321434,0.17640461,2.1492097,0.28604507,-0.49345016,0.8930062,0.75469416,-0.013690596,0.07678794,0.65142375,-0.3955355,0.7455606,0.65313613,1.0,0.0,0.0,0.0,0.0,0.0,0.0,-2.7978463,0.15968093,-0.67030364,0.390625,0.07503033,2.9572964,1.6198754,0.14140606,-0.31167865,1.4992476
2.2218642,47.807823,13.657972,14.613192,0.55996466,-0.033489585,-0.024755482,-0.7173236,0.8003926,0.5388689,-0.47568372,0.69401705,0.62876433,-0.2962907,1.3688715,-0.6870309,-1.7327559,-1.0725476,2.2750895,1.3844751,-1.0444397,1.4282137,-0.7526983,-1.7767723,-1.0339495,2.2157357,1.3264815,-1.0177326,-1.2437253,1.4371971,0.9886651,-0.890124,1.0051925,0.48740128,-0.2883063,2.113552,-0.55791855,1.2410432,-3.4287121,0.17622826,2.0488753,0.28206253,-0.48600006,0.89950454,0.75457245,-0.01966241,0.076126024,0.6514895,-0.39161247,0.7498999,0.6416337,1.0,0.0,0.0,0.0,0.0,0.0,0.0,-2.7635522,0.15791854,-0.6910432,-1.8298388,-0.0027894974,0.6441355,2.8200269,0.1969099,-0.31847358,1.5099943
-2.0721369,43.163307,11.442446,16.213945,0.758574,-0.09838995,-0.10923775,-0.73056656,0.79623455,0.5339647,-0.4551608,0.69050705,0.6331903,-0.26532972,1.355157,-0.67307484,-1.7233758,-1.0794656,2.2847865,1.3898005,-1.0442656,1.415568,-0.73836267,-1.7669437,-1.0425669,2.2257607,1.3313185,-1.0204926,-1.2719107,1.4328142,0.98056483,-0.853127,1.0026963,0.48309693,-0.2720077,2.0792885,-0.55615616,1.2607801,-3.4252841,0.17605205,1.9486408,0.27807617,-0.47857285,0.9058655,0.75450903,-0.025564259,0.07556318,0.65142363,-0.39420274,0.7446175,0.6270834,1.0,0.0,0.0,0.0,0.0,0.0,0.0,-2.7292886,0.15615615,-0.7107801,-2.9360056,-0.2845049,-0.9405613,3.5008907,0.051283836,-0.2655089,1.6039193
-0.6969614,42.32492,11.350864,15.407739,0.6587936,-0.18030341,-0.086917125,-0.73385626,0.79652756,0.5381492,-0.45067137,0.68480766,0.6325984,-0.2329967,1.3421824,-0.6587099,-1.7131288,-1.0876341,2.2942414,1.3945783,-1.0437922,1.4026552,-0.72406614,-1.7572105,-1.0508658,2.2357438,1.3361174,-1.0230808,-1.2980449,1.4290987,0.970286,-0.82274497,0.998117,0.47943288,-0.25460565,2.045063,-0.55439377,1.2795154,-3.4218595,0.17587602,1.8485067,0.274086,-0.47118378,0.9120661,0.75450855,-0.031374283,0.07512396,0.65122104,-0.39261526,0.7406891,0.610626,1.0,0.0,0.0,0.0,0.0,0.0,0.0,-2.695063,0.15439376,-0.7295154,-2.727437,-0.22261143,-1.1442065,2.8454304,-0.17002821,-0.20119548,1.7138898
-0.75769806,42.139984,11.458846,16.110464,0.7144772,-0.17988248,-0.09698589,-0.7449917,0.7970879,0.5330352,-0.41765764,0.69104004,0.63586664,-0.19357851,1.3281561,-0.6443573,-1.703907,-1.0926316,2.3048477,1.3997041,-1.0424386,1.3894964,-0.7097944,-1.7475955,-1.0587984,2.245704,1.3408858,-1.0254822,-1.3222412,1.4269998,0.95834213,-0.7840897,0.9966846,0.47663757,-0.23554863,2.010868,-0.552639,1.2972502,-3.4184384,0.17570017,1.7484726,0.27010727,-0.46383667,0.91812336,0.7545753,-0.037109286,0.07480079,0.6508793,-0.3923345,0.7361912,0.59707296,1.0,0.0,0.0,0.0,0.0,0.0,0.0,-2.6608682,0.152639,-0.74725014,-2.5384426,-0.061011314,-1.3048768,3.6718726,0.14520884,-0.124531984,1.876989
-0.5148325,38.782833,10.220091,15.15561,0.6708262,-0.3228981,-0.096944354,-0.7606255,0.7888811,0.51527745,-0.41576636,0.6870857,0.64307743,-0.1950472,1.3134339,-0.6309063,-1.6960678,-1.100375,2.3144126,1.4051934,-1.0449868,1.3760916,-0.6955732,-1.7381561,-1.0664183,2.2556489,1.345635,-1.0277119,-1.3468683,1.421048,0.93891644,-0.755462,0.99455893,0.47506043,-0.21906622,1.9767113,-0.55088425,1.3139853,-3.4150207,0.1755245,1.6485385,0.26615143,-0.45656204,0.924001,0.7547153,-0.042735018,0.0745977,0.65039504,-0.3886865,0.72848,0.5776164,1.0,0.0,0.0,0.0,0.0,0.0,0.0,-2.6267114,0.15088424,-0.76398534,-2.5820732,-0.4553318,-2.025652,2.6631474,0.046479702,-0.0066161156,1.6162544
2.9240546,40.82923,11.643242,14.061924,0.50754136,-0.34905505,-0.02353711,-0.76031786,0.7914339,0.52530193,-0.4033401,0.68459916,0.63765264,-0.14252536,1.3000598,-0.6164298,-1.6856259,-1.1067523,2.3241088,1.4094003,-1.0419644,1.3625075,-0.6813921,-1.728833,-1.0737902,2.265567,1.3503691,-1.0297585,-1.362472,1.4175677,0.929747,-0.73165596,0.9921831,0.47351313,-0.199944,1.942585,-0.5491295,1.3297219,-3.4116063,0.17534901,1.5487043,0.26228333,-0.4493065,0.92970014,0.75487673,-0.048255835,0.07451902,0.64983034,-0.37872598,0.72750634,0.5603746,1.0,0.0,0.0,0.0,0.0,0.0,0.0,-2.592585,0.14912948,-0.7797219,-1.6578197,-0.20723343,-1.0152578,2.2040248,0.031113625,0.010472536,1.879862
1.7645164,39.26114,11.221968,15.156595,0.6219031,-0.33610815,-0.04283971,-0.7751469,0.7837258,0.5182264,-0.36902225,0.67655116,0.64527047,-0.09674852,1.2849928,-0.6030195,-1.6770103,-1.1106924,2.3332222,1.4148961,-1.0394334,1.3487631,-0.6672691,-1.719588,-1.0808455,2.2754433,1.3550955,-1.0315971,-1.378816,1.4110326,0.92235005,-0.6974374,0.98705244,0.47285312,-0.17870428,1.9084969,-0.5473747,1.3444608,-3.4081955,0.1751737,1.4489698,0.25847244,-0.44208527,0.93524426,0.75505364,-0.05370526,0.07454348,0.6491942,-0.37231803,0.7239584,0.54547596,1.0,0.0,0.0,0.0,0.0,0.0,0.0,-2.558497,0.14737472,-0.79446083,-1.7402649,-0.513196,-0.83311796,3.236568,-0.24120808,0.084751844,2.0860643
1.877841,38.98071,11.3700075,15.708727,0.66282296,-0.33201763,-0.032731466,-0.7812902,0.781836,0.51370484,-0.3444862,0.6760969,0.65194607,-0.02801519,1.270634,-0.5890855,-1.6682175,-1.1152941,2.343053,1.4202901,-1.0343987,1.3348738,-0.6532091,-1.710408,-1.0875078,2.2852738,1.3598219,-1.0331917,-1.3927317,1.4047171,0.91621006,-0.6565468,0.98252815,0.47301033,-0.15317659,1.8744392,-0.5456276,1.3582032,-3.404788,0.17499857,1.3493351,0.25473404,-0.43488693,0.9406588,0.7552428,-0.0591155,0.07465477,0.64849067,-0.3668274,0.72061825,0.5331941,1.0,0.0,0.0,0.0,0.0,0.0,0.0,-2.5244393,0.14562759,-0.80820316,-1.498127,-0.4912138,-0.70667267,3.9054751,-0.17719269,0.1598835,2.5124998
3.2443056,38.53019,11.523161,14.9098625,0.5886127,-0.39509135,0.016514633,-0.7867487,0.7777588,0.51519614,-0.33942565,0.6754606,0.6473981,0.035364207,1.2561989,-0.5754332,-1.6588883,-1.1214504,2.35282,1.4245617,-1.0296552,1.3208624,-0.6392168,-1.7012603,-1.0938193,2.295066,1.3645483,-1.0345058,-1.4043696,1.39785,0.9138124,-0.6234771,0.97887075,0.4728664,-0.124231555,1.8404198,-0.54388046,1.3709499,-3.4013839,0.17482361,1.2498,0.25106812,-0.42771912,0.9459407,0.75540787,-0.06448157,0.07484679,0.6477647,-0.35767385,0.71899676,0.51955974,1.0,0.0,0.0,0.0,0.0,0.0,0.0,-2.4904199,0.14388046,-0.82094985,-1.2622118,-0.5502224,-0.32544136,3.1333447,-0.09636879,0.13438463,2.8532133
1.2577605,35.0669,9.818245,15.255381,0.6484845,-0.47835642,-0.0238409,-0.8056438,0.77392226,0.4879169,-0.32189974,0.6647784,0.66552156,0.09764138,1.240298,-0.56182456,-1.6524687,-1.1260092,2.361544,1.4311005,-1.0247416,1.3066832,-0.62529504,-1.6922481,-1.0998217,2.3047974,1.3692862,-1.0355091,-1.4229478,1.3907253,0.8969757,-0.5933441,0.9719953,0.474372,-0.09246667,1.8064308,-0.54213333,1.3827021,-3.397983,0.17464884,1.1503644,0.24748611,-0.42060852,0.95105696,0.7555703,-0.06976605,0.075156815,0.64699125,-0.35008737,0.71174234,0.5021813,1.0,0.0,0.0,0.0,0.0,0.0,0.0,-2.456431,0.14213333,-0.8327021,-1.9767046,-0.5821705,-1.7354608,2.8259158,-0.4412651,0.28292537,3.1368003
5.258292,35.39513,10.49109,12.394415,0.38563395,-0.6345039,0.0945815,-0.800018,0.7682704,0.49976686,-0.34286225,0.6665628,0.65419894,0.16370343,1.2266814,-0.548468,-1.6422714,-1.134108,2.3714538,1.4347061,-1.0191388,1.2923762,-0.6114534,-1.6833389,-1.1057135,2.3144715,1.3740298,-1.0361748,-1.4333878,1.3823868,0.8886448,-0.5883301,0.96674466,0.47502682,-0.05800861,1.7724762,-0.5403862,1.3934606,-3.3945858,0.17447421,1.0510283,0.24406052,-0.41352844,0.9559565,0.7556617,-0.07490591,0.075601794,0.6462574,-0.33095384,0.70950925,0.4792185,1.0,0.0,0.0,0.0,0.0,0.0,0.0,-2.4224763,0.1403862,-0.8434606,-1.1279583,-0.7085085,-0.88888407,0.34074783,-0.29523373,0.22572279,3.4075499
5.9164677,36.323532,11.279294,13.226238,0.4168846,-0.591503,0.10962729,-0.79760563,0.76551145,0.5010482,-0.30485147,0.6590296,0.6680082,0.24083574,1.2126156,-0.5349023,-1.633234,-1.1361986,2.3803744,1.4408306,-1.0120912,1.2780234,-0.59769,-1.6744716,-1.1114584,2.3240845,1.3787905,-1.0364704,-1.4363556,1.3748401,0.8856651,-0.57030797,0.960369,0.47687137,-0.020239579,1.7385559,-0.5386429,1.4032266,-3.391192,0.17429976,0.95179147,0.24082184,-0.40644836,0.9606665,0.7556398,-0.079937905,0.07616376,0.645614,-0.31287637,0.7095294,0.46163586,1.0,0.0,0.0,0.0,0.0,0.0,0.0,-2.388556,0.13864288,-0.8532266,-0.3718853,-0.62458515,-0.37294626,1.648128,-0.3902316,0.34107566,3.735384
4.9434156,33.113396,9.804594,13.060151,0.43720192,-0.7075565,0.07860227,-0.8055671,0.7580232,0.47472417,-0.30369386,0.64583546,0.66528666,0.27485496,1.1974666,-0.52188766,-1.6269991,-1.1418278,2.388668,1.4453192,-1.0089849,1.2636362,-0.5840162,-1.6657302,-1.117047,2.333606,1.3835665,-1.0363998,-1.4398466,1.3653697,0.8700002,-0.55551237,0.9500965,0.47828755,0.016185954,1.70467,-0.5369034,1.4120009,-3.3878014,0.1741255,0.8526539,0.23776627,-0.39941025,0.9651715,0.7555289,-0.08484288,0.07686462,0.64503455,-0.2939656,0.7044617,0.4402338,1.0,0.0,0.0,0.0,0.0,0.0,0.0,-2.35467,0.13690338,-0.8620009,-0.4262209,-0.8216381,-1.6254306,1.3177156,-0.80246925,0.29038787,3.601028
7.3695908,33.57158,10.1173115,10.787943,0.19972461,-0.8443896,0.14770558,-0.80697036,0.759793,0.47540164,-0.337778,0.6455878,0.66219324,0.32022637,1.1829392,-0.5080369,-1.61819,-1.1508248,2.3981647,1.4497858,-1.0043772,1.2492205,-0.5704082,-1.6571319,-1.1226832,2.343036,1.388352,-1.0359688,-1.4424549,1.3596932,0.85636014,-0.566933,0.94123733,0.47930354,0.05202502,1.6708183,-0.5351639,1.4197845,-3.3844142,0.1739514,0.75361544,0.23497391,-0.39238358,0.969419,0.7552968,-0.08954651,0.07774645,0.64456457,-0.26573744,0.7030152,0.41307315,1.0,0.0,0.0,0.0,0.0,0.0,0.0,-2.3208184,0.13516387,-0.86978453,-0.32229424,-0.447011,-1.4099121,-1.2811899,-0.6813407,0.264889,3.5495877
9.418644,35.26235,11.307095,10.269285,0.064104736,-0.85365975,0.20614171,-0.7968725,0.7564937,0.48694193,-0.3316657,0.62070394,0.6569034,0.3982975,1.1695333,-0.49475884,-1.6084378,-1.1558497,2.4051063,1.4540424,-0.99613905,1.2348353,-0.5568489,-1.6485832,-1.1284453,2.3523247,1.3931433,-1.0351601,-1.4373345,1.3551239,0.8541334,-0.5798153,0.92508996,0.47965682,0.09051611,1.6369972,-0.5334244,1.4265785,-3.3810306,0.17377749,0.65467596,0.2325058,-0.38533783,0.97340894,0.75488687,-0.09405192,0.0788318,0.64427125,-0.23301348,0.7071491,0.3878764,1.0,0.0,0.0,0.0,0.0,0.0,0.0,-2.2869973,0.13342437,-0.8765785,0.47204494,-0.33302307,-0.2892971,-1.4082432,-1.4005423,0.20589828,3.8144662
9.683211,33.15159,10.679767,9.422228,0.03948897,-0.9394107,0.23449309,-0.7975407,0.7447573,0.4858886,-0.3512875,0.6098663,0.6611997,0.43459347,1.1550812,-0.48237315,-1.5999943,-1.163574,2.4133112,1.4592633,-0.9917007,1.2205054,-0.54337347,-1.640023,-1.1344153,2.3614342,1.3979403,-1.0339775,-1.4314847,1.3454919,0.8562463,-0.60324067,0.90705436,0.4803314,0.12755187,1.6032143,-0.5316849,1.4323839,-3.3776503,0.17360376,0.5558354,0.23036957,-0.37825394,0.97711825,0.75426966,-0.09833719,0.080121934,0.6441952,-0.19774663,0.7093434,0.35884875,1.0,0.0,0.0,0.0,0.0,0.0,0.0,-2.2532144,0.13168487,-0.8823839,0.5594492,-0.8422375,0.14365911,-2.45744,-1.6015768,0.23991466,3.668353
9.754273,30.249184,9.38509,7.93421,-0.013140321,-1.1037068,0.2454721,-0.79670805,0.7379481,0.4722939,-0.38826677,0.60542434,0.6589689,0.44960132,1.1408346,-0.46957865,-1.5927936,-1.173242,2.4219766,1.4638371,-0.98901737,1.2062327,-0.53001344,-1.6314933,-1.140761,2.3703797,1.4027411,-1.0324516,-1.4260167,1.3332485,0.8516825,-0.645313,0.8908934,0.48070195,0.16080257,1.5694618,-0.529953,1.4372016,-3.3742733,0.17343019,0.45709372,0.22862625,-0.3711815,0.98048216,0.7534426,-0.102316834,0.08162524,0.6443546,-0.15795067,0.7069724,0.32253888,1.0,0.0,0.0,0.0,0.0,0.0,0.0,-2.219462,0.129953,-0.8872016,0.5376816,-1.1091232,-0.5155921,-4.316294,-1.4447093,0.20865798,3.293559
11.409388,29.483944,9.453139,6.0632925,-0.13818783,-1.2134326,0.3182269,-0.788968,0.7265696,0.49128357,-0.43401405,0.5952459,0.6558336,0.47645319,1.1273359,-0.45735648,-1.5823649,-1.1841624,2.4299042,1.4683244,-0.9848063,1.1920382,-0.51680696,-1.6229255,-1.1476847,2.3791726,1.4075438,-1.030613,-1.4172887,1.3168044,0.8584186,-0.7084787,0.8755541,0.48076436,0.19150262,1.5357437,-0.52822113,1.4410328,-3.3708997,0.17325678,0.35845077,0.22732925,-0.3641281,0.9834436,0.7523641,-0.105918996,0.083331406,0.6448141,-0.11175248,0.7053821,0.28095335,1.0,0.0,0.0,0.0,0.0,0.0,0.0,-2.1857438,0.12822112,-0.89103276,0.89929104,-1.5317678,0.5976081,-6.403649,-1.375711,0.18526912,3.0419767
9.116283,27.389318,8.437447,7.791643,0.04280144,-1.1921297,0.24022752,-0.78907746,0.721846,0.47591266,-0.43289617,0.58377564,0.65735847,0.48589358,1.1131305,-0.44462237,-1.5753343,-1.1909744,2.43755,1.4732796,-0.9820236,1.1779143,-0.5037569,-1.614352,-1.1551386,2.3878129,1.4123465,-1.0284977,-1.4108208,1.3014677,0.8566792,-0.7579254,0.86023027,0.4806654,0.2183107,1.5020599,-0.52648926,1.443878,-3.3675294,0.17308356,0.25990644,0.2264595,-0.3571205,0.98601204,0.75107414,-0.109146096,0.085231416,0.645531,-0.071663484,0.6989699,0.242499,1.0,0.0,0.0,0.0,0.0,0.0,0.0,-2.15206,0.12648925,-0.89387804,0.6541014,-1.4189243,-0.24336576,-5.04508,-1.3733268,0.14175773,2.6544242
6.8698807,24.547388,6.797627,8.474737,0.16767412,-1.249789,0.16437703,-0.79633284,0.7185835,0.45353812,-0.4668115,0.58453465,0.656143,0.48431632,1.098281,-0.43189853,-1.5689982,-1.2018198,2.4462664,1.4779608,-0.98006606,1.163798,-0.49083507,-1.6059101,-1.1630942,2.3963273,1.4171473,-1.0261459,-1.4118665,1.2894244,0.83995277,-0.80844474,0.8492615,0.48016155,0.24058345,1.4684105,-0.5247574,1.4457387,-3.3641624,0.17291051,0.16146064,0.22595215,-0.35022354,0.98818356,0.7496535,-0.111971386,0.08733696,0.64641637,-0.034832787,0.6859728,0.20244077,1.0,0.0,0.0,0.0,0.0,0.0,0.0,-2.1184106,0.12475738,-0.89573866,-0.121712685,-1.0936499,-1.708734,-5.1628947,-0.96029043,0.07433891,2.204579
6.06452,23.003366,6.129658,9.009915,0.21058023,-1.2714981,0.12828255,-0.788162,0.7096059,0.4443048,-0.48871753,0.556754,0.66097575,0.49591663,1.0849818,-0.4198745,-1.5614796,-1.2119659,2.4520028,1.4832449,-0.9765543,1.1496912,-0.47803485,-1.5976799,-1.1715189,2.4046853,1.4219443,-1.023592,-1.4102279,1.277249,0.81720656,-0.85411865,0.83140856,0.48001146,0.26009566,1.4347954,-0.5230293,1.4466156,-3.360799,0.17273764,0.06311326,0.22581863,-0.3434677,0.98995805,0.7481489,-0.114387214,0.08966352,0.6474173,0.00086446124,0.6707309,0.16290033,1.0,0.0,0.0,0.0,0.0,0.0,0.0,-2.0847955,0.12302932,-0.89661556,0.15118122,-1.1062622,-2.3156643,-4.6807528,-1.6536117,0.09534955,1.9262493
2.796986,16.132513,2.6700394,8.98585,0.4301226,-1.4187717,0.04556344,-0.79843676,0.6914473,0.40157154,-0.5295295,0.5547013,0.6664066,0.48054805,1.0698476,-0.40889013,-1.5575227,-1.2244719,2.4601555,1.4885849,-0.9755372,1.135552,-0.46540868,-1.5898407,-1.1804606,2.4128792,1.4267431,-1.0208817,-1.4153007,1.2580751,0.77268904,-0.9079337,0.8157843,0.48013046,0.27465785,1.4012108,-0.5213051,1.4465097,-3.357439,0.17256495,-0.035135794,0.22600555,-0.33696747,0.99128425,0.74664354,-0.11632048,0.092213206,0.6484517,0.032638878,0.6411772,0.116399065,1.0,0.0,0.0,0.0,0.0,0.0,0.0,-2.0512109,0.12130508,-0.8965097,-0.522542,-1.819849,-4.459822,-5.5140853,-1.4788628,0.090789795,1.4231861
3.0346727,15.539105,2.5401354,8.923508,0.3967541,-1.4475629,0.04613551,-0.7862966,0.68386465,0.38624772,-0.55562335,0.52004373,0.667918,0.49605474,1.0569224,-0.39702222,-1.5512159,-1.236023,2.4648836,1.4935349,-0.97127616,1.1214167,-0.45297754,-1.5824649,-1.1899401,2.4208443,1.431544,-1.018034,-1.4128435,1.2384211,0.72576636,-0.9615445,0.7906531,0.48036563,0.28788906,1.3676643,-0.51958084,1.4454222,-3.3540823,0.17239241,-0.13328661,0.22652817,-0.33076477,0.9921439,0.7451624,-0.11774822,0.095005564,0.6494937,0.06587224,0.61176515,0.06989704,1.0,0.0,0.0,0.0,0.0,0.0,0.0,-2.0176644,0.119580835,-0.89542216,0.25770664,-1.8673182,-4.724276,-5.4848194,-2.4324417,0.09179115,1.286006
-1.0826879,7.9433975,-1.6591066,9.520479,0.6931664,-1.613936,-0.079200864,-0.789667,0.66840756,0.2980651,-0.58163315,0.51459277,0.66955936,0.50174046,1.04245,-0.38613677,-1.5526584,-1.2481034,2.4723036,1.4984999,-0.9678599,1.1072985,-0.4407705,-1.5758674,-1.1999422,2.4285767,1.4363467,-1.015068,-1.4112877,1.2150328,0.63771933,-1.0135591,0.76734215,0.4803333,0.29933694,1.3341484,-0.5178566,1.4433539,-3.350729,0.17222005,-0.23133929,0.2273407,-0.32497787,0.99249685,0.743811,-0.11859715,0.09805249,0.650435,0.093182266,0.5645851,0.017867288,1.0,0.0,0.0,0.0,0.0,0.0,0.0,-1.9841484,0.11785659,-0.8933539,0.17426014,-2.2570848,-8.806419,-5.349314,-2.3105025,0.022780895,1.0925055
-0.48400903,7.372999,-1.208083,9.176921,0.7108116,-1.5768031,-0.014948232,-0.787419,0.6440763,0.30987188,-0.62839663,0.49203515,0.6631583,0.49963,1.0285566,-0.37636286,-1.5448803,-1.2627819,2.4777803,1.5026624,-0.96510506,1.0932089,-0.42886055,-1.5699756,-1.2105414,2.4360573,1.4411436,-1.012003,-1.4081267,1.1832478,0.5729213,-1.0757815,0.7415186,0.47955224,0.30864927,1.3006668,-0.51613235,1.4403057,-3.347379,0.17204787,-0.32929394,0.2284317,-0.31965256,0.9923259,0.7425763,-0.11884304,0.10131072,0.65130097,0.120283715,0.519261,-0.034364462,1.0,0.0,0.0,0.0,0.0,0.0,0.0,-1.9506668,0.11613235,-0.8903057,0.36768913,-3.098011,-6.517184,-6.350875,-2.5526166,-0.06238818,0.87824464
-0.5800936,7.4422493,-0.69273067,9.957807,0.7561773,-1.4851172,0.0028544818,-0.7861109,0.6271987,0.2905766,-0.654703,0.46130195,0.6607321,0.5022897,1.0145978,-0.36614066,-1.540918,-1.2760117,2.4821875,1.5072168,-0.961774,1.0791517,-0.41728866,-1.5646198,-1.221749,2.4432366,1.4459311,-1.0088558,-1.4047234,1.1487653,0.52315336,-1.1360753,0.71006525,0.47835597,0.31656682,1.2672195,-0.51441574,1.4362788,-3.3440323,0.17187586,-0.42715067,0.22977448,-0.31476212,0.9916535,0.74142605,-0.118520826,0.10474429,0.65212643,0.14467596,0.47682294,-0.08351948,1.0,0.0,0.0,0.0,0.0,0.0,0.0,-1.9172195,0.114415735,-0.8862788,0.3940344,-3.366828,-5.0290465,-6.150341,-3.1014204,-0.12063384,0.7384181
-2.5527027,3.7322948,-2.1887958,11.141659,0.8162081,-1.4421209,-0.046639666,-0.77765244,0.5946992,0.2435681,-0.67011344,0.350893,0.66396743,0.5187644,1.0013865,-0.35781875,-1.5402629,-1.2887603,2.4783258,1.5123278,-0.9569794,1.0651613,-0.4061364,-1.5597961,-1.2334753,2.4498208,1.4507071,-1.0056286,-1.3968601,1.1042966,0.46848986,-1.1851869,0.6414555,0.4773676,0.3244947,1.2338028,-0.5126991,1.431274,-3.340689,0.17170402,-0.52490956,0.23133469,-0.31029892,0.9904934,0.7403816,-0.11768274,0.10842313,0.65286314,0.16486944,0.43169904,-0.13198702,1.0,0.0,0.0,0.0,0.0,0.0,0.0,-1.8838028,0.11269912,-0.88127404,0.8570194,-4.3724537,-5.5401444,-5.0404787,-6.8219066,-0.1214385,0.7148862
-8.451845,-6.0911436,-7.895995,12.519136,1.2363687,-1.6020151,-0.23564535,-0.7745737,0.56707025,0.118373044,-0.6876734,0.31283104,0.65691596,0.5118338,0.987704,-0.34942937,-1.5479587,-1.3022426,2.481104,1.5163987,-0.9544452,1.0512568,-0.39547098,-1.5559642,-1.2456156,2.4556649,1.4554678,-1.0023365,-1.3879879,1.0541083,0.35464826,-1.2242299,0.56525975,0.47523177,0.3302216,1.2004204,-0.5109825,1.4252924,-3.337349,0.17153235,-0.62257075,0.23303223,-0.30646896,0.9888119,0.7396035,-0.11627079,0.11240574,0.65332437,0.17450473,0.36382413,-0.18516205,1.0,0.0,0.0,0.0,0.0,0.0,0.0,-1.8504204,0.11098251,-0.87529236,0.97944736,-4.97272,-11.426991,-4.058981,-7.661772,-0.29569864,0.45858622
-19.332754,-24.94896,-19.36785,13.566326,1.8374186,-2.0042038,-0.59649956,-0.77010304,0.5244653,-0.104012914,-0.7032233,0.18206033,0.6554212,0.5023736,0.9742465,-0.34302443,-1.5663655,-1.3159379,2.473871,1.5210099,-0.95209914,1.0374495,-0.3853997,-1.5541732,-1.2580839,2.4604714,1.4602019,-0.9990082,-1.3777031,0.9914,0.12070692,-1.2550902,0.45175257,0.47213843,0.3330378,1.1670723,-0.5092659,1.4183348,-3.3340123,0.17136085,-0.7201343,0.2347107,-0.30363083,0.9864836,0.73943377,-0.114091605,0.116864294,0.65311825,0.16916585,0.25222933,-0.25318718,1.0,0.0,0.0,0.0,0.0,0.0,0.0,-1.8170723,0.10926589,-0.86833483,1.2156725,-6.282282,-23.410769,-3.266406,-11.56128,-0.49057007,0.08061528
-30.976978,-47.552444,-31.854204,13.843113,2.335266,-2.3565073,-0.8992052,-0.76639324,0.43465313,-0.3067373,-0.7304036,-0.10468749,0.6473342,0.49399978,0.9608102,-0.34193438,-1.584847,-1.3311243,2.4500027,1.5249352,-0.9496082,1.0237509,-0.37625253,-1.5554168,-1.2708803,2.4634316,1.4648958,-0.9956713,-1.3659241,0.8889059,-0.20619248,-1.2880976,0.24281482,0.46757197,0.3328199,1.1337547,-0.5075569,1.4104024,-3.330679,0.17118953,-0.81760037,0.23622513,-0.30223846,0.98332196,0.74020517,-0.11094049,0.122098565,0.65182847,0.14741042,0.09787269,-0.34098476,1.0,0.0,0.0,0.0,0.0,0.0,0.0,-1.7837547,0.10755691,-0.8604024,1.582408,-10.329509,-32.804768,-3.4455538,-21.252855,-0.7289171,-0.35857558
-39.60114,-65.38822,-39.28664,16.236479,2.9463592,-2.2260008,-0.97424996,-0.7648459,0.2993482,-0.4108371,-0.73127204,-0.3980621,0.65332687,0.49285546,0.94726634,-0.3463177,-1.5965005,-1.3440075,2.4236255,1.5302285,-0.94638574,1.010161,-0.3686117,-1.5598876,-1.283919,2.4636376,1.4695498,-0.9923458,-1.3545641,0.72204113,-0.52843094,-1.3091266,-0.05458293,0.4636178,0.33091256,1.1004753,-0.50584793,1.401496,-3.327349,0.17101838,-0.9149689,0.23735428,-0.30255127,0.97924036,0.7420241,-0.106805645,0.12822837,0.649269,0.100039795,-0.07885526,-0.4336289,1.0,0.0,0.0,0.0,0.0,0.0,0.0,-1.7504753,0.105847925,-0.85149604,1.7416477,-16.825724,-32.51136,-2.1435976,-30.120531,-0.7079661,-0.64472556
-54.282032,-99.93677,-52.08589,20.147503,4.909149,-1.9753425,-0.91812474,-0.7687752,0.025398474,-0.49080268,-0.72975045,-0.5354872,0.6613947,0.48015085,0.9332835,-0.36607185,-1.6089679,-1.356894,2.4100888,1.5356892,-0.94433075,0.9966537,-0.36368644,-1.5671737,-1.2970644,2.4608452,1.4741713,-0.9890528,-1.346471,0.41519755,-0.79727054,-1.3155125,-0.3552341,0.46036908,0.32715106,1.0672264,-0.50413895,1.3916168,-3.3240223,0.17084739,-1.01224,0.23757553,-0.30503845,0.9741976,0.74485093,-0.10168932,0.13469604,0.6455334,-0.0056444407,-0.30912545,-0.53002733,1.0,0.0,0.0,0.0,0.0,0.0,0.0,-1.7172264,0.10413894,-0.8416168,1.7136097,-30.933369,-27.456427,-0.45793056,-30.449936,-0.7080257,-0.8880675
-58.517223,-114.76614,-54.17281,22.586107,6.2141705,-1.4434787,-0.5693116,-0.7570642,-0.22966,-0.47507605,-0.73818606,-0.59691066,0.6571171,0.49910066,0.92094725,-0.38665244,-1.6146814,-1.370883,2.4011543,1.539883,-0.9391427,0.9832603,-0.36263263,-1.5762393,-1.3102328,2.4554436,1.4787585,-0.985775,-1.3334311,0.0010088396,-0.9455339,-1.3157176,-0.6024999,0.45658103,0.32680285,1.034008,-0.50242996,1.3807656,-3.320699,0.17067657,-1.109414,0.23646164,-0.30992508,0.96824527,0.7484084,-0.09567928,0.14062066,0.6410587,-0.15208097,-0.55081725,-0.61854887,1.0,0.0,0.0,0.0,0.0,0.0,0.0,-1.684008,0.102429956,-0.83076555,2.3508787,-41.73334,-15.619802,0.45776367,-25.030762,-0.83366036,-0.42302608
-40.853085,-89.55376,-33.68011,22.789167,5.7635765,-0.24212945,0.28961384,-0.7314881,-0.4483161,-0.18638924,-0.7563082,-0.6083595,0.669443,0.5252127,0.9101115,-0.40746424,-1.5948783,-1.3858635,2.3946078,1.5457027,-0.9332537,0.97008145,-0.36603057,-1.5846946,-1.3234545,2.4481766,1.4833246,-0.9824581,-1.3100847,-0.45426685,-0.81499785,-1.322186,-0.7680059,0.45547077,0.33327267,1.0008278,-0.5007248,1.3689432,-3.317379,0.17050594,-1.2064908,0.23394775,-0.31663132,0.961642,0.7519481,-0.08921644,0.14512916,0.63682956,-0.29221255,-0.7118705,-0.67568046,1.0,0.0,0.0,0.0,0.0,0.0,0.0,-1.6508278,0.10072479,-0.8189432,3.1018257,-45.790016,12.245154,-0.036358833,-16.614796,-0.47074556,0.62509775
-17.304707,-49.181335,-8.902834,20.257652,4.273334,0.65310204,0.98594874,-0.6955245,-0.59928006,0.031067658,-0.7858664,-0.5980618,0.6517821,0.53624785,0.900529,-0.42595857,-1.5815879,-1.4020412,2.3883705,1.5485028,-0.9288333,0.9572593,-0.37366712,-1.5903575,-1.3368784,2.4398453,1.4878794,-0.97905064,-1.2713839,-0.86730754,-0.48580736,-1.3474534,-0.85460585,0.45478442,0.34426352,0.96767807,-0.49902344,1.3561509,-3.3140624,0.17033547,-1.3034705,0.23033142,-0.32424927,0.95467603,0.75473285,-0.08279516,0.14775847,0.6337908,-0.39106658,-0.77542764,-0.70536786,1.0,0.0,0.0,0.0,0.0,0.0,0.0,-1.617678,0.09902343,-0.80615085,4.3237686,-41.459656,32.16033,-2.0294666,-8.545065,-0.25911927,1.3983727
11.783641,3.1968281,18.67614,16.022087,1.8238608,1.1113472,1.4618751,-0.5585175,-0.6611318,0.16864745,-0.7874864,-0.6228517,0.62942183,0.5293708,0.90140754,-0.4397803,-1.5734928,-1.415627,2.3775601,1.5508215,-0.92611355,0.9453918,-0.3845476,-1.5922344,-1.3505636,2.4309723,1.4924265,-0.9755354,-1.1583844,-1.161627,-0.09022338,-1.3749019,-0.8974637,0.45503986,0.35556453,0.9345627,-0.49732208,1.3423895,-3.310749,0.17016517,-1.4003533,0.22629166,-0.33173752,0.94761753,0.75621194,-0.07685955,0.14864805,0.632566,-0.41402766,-0.7342237,-0.7080487,1.0,0.0,0.0,0.0,0.0,0.0,0.0,-1.5845627,0.09732208,-0.79238945,11.371803,-29.433273,38.98163,-2.552271,-4.0192366,0.12370348,1.5932202
16.210546,13.611421,17.390722,11.1301775,0.9284154,0.12645406,1.094582,-0.37220952,-0.73115855,-0.10745156,-0.7827919,-0.63240874,0.6199238,0.48892826,0.9081708,-0.45766345,-1.6029795,-1.4288428,2.3677316,1.5544189,-0.92664254,0.93541825,-0.39758575,-1.59216,-1.3644549,2.421859,1.496966,-0.9719553,-0.9445869,-1.351173,0.039629076,-1.3935337,-0.91561115,0.4534924,0.35990474,0.9014816,-0.49562073,1.32766,-3.307439,0.16999504,-1.4971392,0.22231674,-0.33892822,0.9404029,0.75655377,-0.07125825,0.14830542,0.6328934,-0.39718908,-0.7076477,-0.7276756,1.0,0.0,0.0,0.0,0.0,0.0,0.0,-1.5514816,0.09562072,-0.77765995,21.13638,-18.939518,12.869745,-1.7906666,-1.666534,-0.15568733,0.74833035
37.827194,39.615788,27.779894,1.3308353,-1.0209329,-0.9078968,1.2279601,0.023678903,-0.75690615,-0.24197523,-0.77846295,-0.64453244,0.6283342,0.48767364,0.93778616,-0.47327638,-1.6163576,-1.4423012,2.3574057,1.5597994,-0.9231879,0.92914593,-0.41178548,-1.5923698,-1.3784548,2.4126427,1.501496,-0.9683504,-0.5249529,-1.4426118,-0.038834143,-1.4027892,-0.9233005,0.45271182,0.36149472,0.8684311,-0.49391937,1.3119633,-3.3041322,0.16982508,-1.5938283,0.21910477,-0.34570694,0.932884,0.75575644,-0.06575674,0.14726473,0.63468206,-0.29840428,-0.660017,-0.7615593,1.0,0.0,0.0,0.0,0.0,0.0,0.0,-1.5184311,0.09391937,-0.7619633,40.902973,-9.06415,-7.13177,-1.1008501,-0.6007314,-0.09574294,0.37426353
39.335983,42.597942,24.511328,-1.0831962,-1.4420751,-1.6692812,0.9264276,0.20819563,-0.7725891,-0.41110185,-0.7602129,-0.65837,0.6457521,0.47351134,0.9499655,-0.4890444,-1.63348,-1.4544761,2.3468058,1.5660712,-0.9209993,0.9274274,-0.42640817,-1.5946529,-1.392409,2.40335,1.506024,-0.96475315,-0.05842297,-1.4686544,-0.288142,-1.3936524,-0.9307335,0.45256856,0.359565,0.8354149,-0.49222565,1.2953006,-3.3008287,0.16965528,-1.6904209,0.21704865,-0.35216904,0.92492634,0.75400275,-0.0600983,0.14598335,0.6376181,-0.17702012,-0.63238597,-0.8090926,1.0,0.0,0.0,0.0,0.0,0.0,0.0,-1.4854149,0.09222564,-0.7453006,45.380737,-2.5577784,-23.900053,0.7160187,-0.6648898,-0.15168786,-0.08186102
24.214672,28.478657,11.612819,2.1250565,-0.55234987,-2.002262,0.3674906,0.24877156,-0.7866401,-0.5814027,-0.7625587,-0.61769986,0.63193583,0.4434555,0.95230454,-0.5050722,-1.6527932,-1.4686649,2.3415802,1.5692176,-0.9204076,0.9296094,-0.44105613,-1.6001632,-1.4062468,2.3941224,1.5105368,-0.9612045,0.3073546,-1.4636496,-0.63590306,-1.3806262,-0.92041755,0.45001158,0.35339826,0.802433,-0.49053192,1.2776725,-3.2975285,0.16948566,-1.7869167,0.21595001,-0.3586769,0.91639495,0.7517879,-0.053946156,0.14470106,0.6410665,-0.08711138,-0.6502666,-0.8706715,1.0,0.0,0.0,0.0,0.0,0.0,0.0,-1.452433,0.090531915,-0.7276725,35.65028,0.46389103,-33.941925,1.2601614,0.97169876,-0.5089879,-0.5816281
11.313877,23.277782,6.668281,8.740549,0.24988079,-1.4724057,0.016740106,0.24102798,-0.78338784,-0.59326154,-0.75503314,-0.5942347,0.6435004,0.4199375,0.9537122,-0.51939493,-1.6594894,-1.4817501,2.334699,1.5748868,-0.9192108,0.9342443,-0.45553005,-1.6086833,-1.4199263,2.3850777,1.5150343,-0.957736,0.51430774,-1.4422495,-0.92291415,-1.3632275,-0.89942837,0.44909516,0.34470993,0.76948166,-0.4888382,1.2590803,-3.2942317,0.16931622,-1.8833162,0.21542358,-0.36542892,0.9073243,0.74949455,-0.047231734,0.1434892,0.6445447,-0.03806431,-0.67566437,-0.9230576,1.0,0.0,0.0,0.0,0.0,0.0,0.0,-1.4194816,0.08883819,-0.7090803,20.308792,2.059555,-28.308641,1.8246889,1.9546866,-0.30006766,-0.8559406
2.0587258,23.095673,6.733181,14.825016,0.7883923,-0.62059706,-0.11655703,0.20371029,-0.78467405,-0.552991,-0.7632,-0.5871841,0.6485821,0.42447254,0.9546153,-0.5339975,-1.6639824,-1.4962463,2.3263593,1.5798925,-0.91528875,0.9397737,-0.46979034,-1.6190593,-1.4334952,2.3762467,1.5195338,-0.95434666,0.5661589,-1.4209747,-1.0759131,-1.3542216,-0.87804234,0.44973603,0.33708912,0.73656464,-0.48714447,1.2395248,-3.2909381,0.16914693,-1.9796191,0.21512222,-0.3723259,0.89786464,0.74728227,-0.040111173,0.14231803,0.64784706,-0.025270026,-0.6881496,-0.9584602,1.0,0.0,0.0,0.0,0.0,0.0,0.0,-1.3865646,0.087144464,-0.6895248,5.273247,2.0268917,-15.320015,1.0638952,1.9336224,-0.061923265,-0.7549882
-4.4550395,26.549786,9.469783,20.44652,1.1162393,0.28918657,-0.16297948,0.13368003,-0.77543235,-0.49642578,-0.7634418,-0.5928684,0.6576374,0.44683343,0.9531417,-0.5473336,-1.6687019,-1.5098393,2.3169599,1.5852975,-0.9096633,0.9448663,-0.48384082,-1.6299236,-1.4470145,2.367576,1.5240523,-0.95100784,0.49169672,-1.4000883,-1.0910778,-1.3505644,-0.86452764,0.45249802,0.33278617,0.70368195,-0.48545456,1.2190071,-3.287648,0.16897781,-2.0758257,0.21471405,-0.37919617,0.8882189,0.74518585,-0.032839864,0.14114729,0.6509201,-0.041381113,-0.67923963,-0.9719457,1.0,0.0,0.0,0.0,0.0,0.0,0.0,-1.3536819,0.08545455,-0.6690071,-7.0273757,1.9811869,-1.8238068,0.5633354,1.0993242,0.24946928,-0.4282832
-15.052588,23.962444,7.9631586,26.006989,1.778627,1.0165291,-0.30162752,-0.0039395713,-0.77551746,-0.45175034,-0.76764584,-0.571485,0.6530869,0.45220363,0.9444723,-0.56139255,-1.6750987,-1.523779,2.3104274,1.589361,-0.90578747,0.9483472,-0.49773967,-1.6402538,-1.4605433,2.3590539,1.5285994,-0.94769955,0.302588,-1.3869504,-1.0155005,-1.3527013,-0.849084,0.45544457,0.33010074,0.6708298,-0.48376846,1.1975279,-3.284361,0.16880888,-2.171936,0.21388626,-0.385952,0.8785511,0.7433057,-0.025605464,0.13989928,0.6536583,-0.09391699,-0.66728455,-0.97016823,1.0,0.0,0.0,0.0,0.0,0.0,0.0,-1.3208297,0.08376846,-0.6475279,-18.224638,1.1847019,7.0364475,0.054478645,1.2276888,0.33423305,-0.27129054
-24.692059,20.169119,5.0206656,30.00139,2.3447933,1.4592204,-0.45938462,-0.14387588,-0.7719424,-0.42443073,-0.76694065,-0.57102627,0.65371937,0.45360443,0.9339596,-0.5749339,-1.6826968,-1.5372373,2.3019512,1.5939714,-0.9023391,0.9494039,-0.51154697,-1.6495769,-1.4740988,2.35065,1.5331751,-0.94441223,0.042767882,-1.3791525,-0.90689266,-1.3554254,-0.8383844,0.45843267,0.32831427,0.6380081,-0.48208237,1.1750883,-3.2810771,0.16864009,-2.2679503,0.21232605,-0.39262772,0.8689543,0.74179167,-0.018493693,0.13852297,0.65590733,-0.17503357,-0.6605056,-0.9608003,1.0,0.0,0.0,0.0,0.0,0.0,0.0,-1.2880081,0.08208236,-0.6250883,-25.150028,0.6277561,10.22594,0.0664711,0.7091522,0.36274195,-0.18034577
-25.939838,16.206697,2.2363434,27.758106,2.4275064,1.2277395,-0.4529053,-0.18578981,-0.7803801,-0.4682453,-0.7885227,-0.54618895,0.63258183,0.44032344,0.9308249,-0.58958495,-1.6964015,-1.5529511,2.2960312,1.5964333,-0.9003799,0.94808495,-0.5253562,-1.6581581,-1.4877783,2.342399,1.5377585,-0.9411478,-0.1876941,-1.3820353,-0.8438129,-1.3709375,-0.8218314,0.45820087,0.3259368,0.6052246,-0.48039627,1.1516893,-3.2777967,0.16847149,-2.3638687,0.20995712,-0.39933777,0.8593502,0.74070096,-0.011392301,0.13695684,0.65762836,-0.25579184,-0.6663952,-0.9642788,1.0,0.0,0.0,0.0,0.0,0.0,0.0,-1.2552246,0.080396265,-0.6016893,-22.300295,-0.4500866,5.727875,-1.1755943,1.3027549,-0.030004978,-0.21472573
-18.749514,21.13848,5.772123,24.617786,1.9584249,1.0359921,-0.29369962,-0.20719416,-0.7748852,-0.45743865,-0.7835333,-0.5521768,0.62875265,0.46998468,0.92736554,-0.6028447,-1.7039019,-1.5661316,2.2871811,1.6006337,-0.89414936,0.94498837,-0.5391921,-1.6663158,-1.5015856,2.3342736,1.5423323,-0.9378805,-0.34853053,-1.3844502,-0.807982,-1.3828773,-0.81043774,0.45706594,0.3271661,0.5724716,-0.47871017,1.1273319,-3.2745197,0.16830306,-2.459691,0.20694733,-0.40604782,0.84968424,0.73992074,-0.004253333,0.13519703,0.65895444,-0.31577322,-0.6642753,-0.97081196,1.0,0.0,0.0,0.0,0.0,0.0,0.0,-1.2224716,0.07871017,-0.57733184,-15.52276,-0.37927628,3.1272173,-0.86658,0.841856,-0.13303757,0.1744628
-18.406853,17.577868,2.4803317,21.960436,1.8388015,0.62365466,-0.3334396,-0.25800493,-0.77815074,-0.54946965,-0.7867458,-0.5895491,0.62017226,0.4660211,0.9191879,-0.61700714,-1.7212628,-1.5802602,2.2753186,1.6043495,-0.8912784,0.9406625,-0.55306613,-1.6747367,-1.515494,2.3261178,1.5468832,-0.93460274,-0.45908055,-1.3889176,-0.8545147,-1.3922749,-0.8183346,0.45410946,0.32813305,0.53974915,-0.4770317,1.1020169,-3.271246,0.16813478,-2.5554175,0.20339966,-0.4128418,0.8398226,0.7394458,0.0030745429,0.13333458,0.65987295,-0.36763966,-0.6760368,-0.9943526,1.0,0.0,0.0,0.0,0.0,0.0,0.0,-1.1897491,0.0770317,-0.5520169,-10.604721,-0.59223175,-4.9967885,-0.5912781,-1.0937095,-0.40143132,0.12556314
-17.273266,17.29035,1.5762379,20.216415,1.6920398,0.42533568,-0.33418998,-0.30449697,-0.7764181,-0.59914047,-0.7877118,-0.60984296,0.6087841,0.47896597,0.9102128,-0.6307079,-1.7346507,-1.5942652,2.2651334,1.6077616,-0.8867061,0.9354764,-0.5669707,-1.6839626,-1.5294672,2.317798,1.551396,-0.9313059,-0.5371636,-1.3914078,-0.9461708,-1.397739,-0.83790404,0.44964978,0.33023304,0.507061,-0.47535324,1.0757455,-3.2679753,0.16796668,-2.6510484,0.19938278,-0.41978836,0.82965654,0.7392851,0.0107197985,0.13144828,0.66035134,-0.41322106,-0.6919238,-1.027029,1.0,0.0,0.0,0.0,0.0,0.0,0.0,-1.157061,0.075353235,-0.52574545,-7.4275136,-0.39827824,-9.43569,-0.19145012,-2.2640824,-0.60266256,0.22242069
-24.01411,12.413817,-2.6485653,21.330122,2.1099067,0.492374,-0.4656127,-0.41165388,-0.787813,-0.6492755,-0.7895073,-0.60455894,0.5866931,0.461539,0.894311,-0.645752,-1.7488902,-1.608418,2.257342,1.6100653,-0.885152,0.92933285,-0.5809449,-1.6942718,-1.5434729,2.3092988,1.555844,-0.92800236,-0.63857204,-1.4000587,-1.0601457,-1.400008,-0.855038,0.44263235,0.3303945,0.4744072,-0.47367477,1.0485184,-3.264708,0.16779876,-2.7465837,0.1947937,-0.42699432,0.8191172,0.73954076,0.018785292,0.12951857,0.66026616,-0.47642282,-0.72016156,-1.0659761,1.0,0.0,0.0,0.0,0.0,0.0,0.0,-1.1244072,0.07367477,-0.4985184,-9.697866,-1.0513783,-11.687994,0.2060175,-2.0742536,-0.9267628,0.019490719
-30.632988,11.283451,-4.516809,23.115068,2.5124478,0.8011367,-0.56908965,-0.5282135,-0.7869066,-0.6761868,-0.7966592,-0.57185185,0.5785325,0.44568777,0.8765115,-0.65963554,-1.7618905,-1.6231388,2.2521136,1.6136972,-0.8834336,0.92185986,-0.5949954,-1.7056377,-1.5575148,2.3007576,1.5602194,-0.9247103,-0.781777,-1.4074733,-1.1632694,-1.4037607,-0.8550905,0.43487865,0.328815,0.4417839,-0.4719963,1.0203367,-3.261444,0.16763099,-2.8420236,0.18941498,-0.43449783,0.8082013,0.7403259,0.027303416,0.12744287,0.65949243,-0.5602071,-0.7505981,-1.10339,1.0,0.0,0.0,0.0,0.0,0.0,0.0,-1.0917839,0.0719963,-0.47033674,-13.783133,-0.96714497,-10.65383,0.1292944,-0.42577982,-1.0476649,-0.14945269
-32.153584,14.796585,-2.3594432,24.058794,2.6150434,1.1808401,-0.5584381,-0.61303353,-0.78924716,-0.68099326,-0.7949495,-0.5440386,0.5815167,0.42287084,0.8605565,-0.6739201,-1.7737371,-1.6370097,2.2463539,1.6183711,-0.88242316,0.9128095,-0.6091136,-1.7177742,-1.5715758,2.2923386,1.5645262,-0.92144966,-0.94425607,-1.4140841,-1.2316171,-1.4051272,-0.83913654,0.4283103,0.32520822,0.40919113,-0.47032166,0.9912014,-3.2581832,0.16746339,-2.9373682,0.18312073,-0.44223785,0.7969788,0.74165785,0.036194634,0.12509698,0.6580154,-0.653182,-0.7706684,-1.1319548,1.0,0.0,0.0,0.0,0.0,0.0,0.0,-1.0591911,0.07032165,-0.4412014,-15.688122,-0.9032726,-7.190943,0.38621426,1.1611462,-0.9332299,-0.32485723
-29.953823,20.561958,1.5727878,23.82746,2.4271302,1.4693363,-0.5071268,-0.68032986,-0.7878439,-0.69295585,-0.78999203,-0.5387919,0.585647,0.35720682,0.8447765,-0.687898,-1.7870698,-1.6505749,2.2384593,1.6230909,-0.88572896,0.90216553,-0.6232718,-1.7303722,-1.5856177,2.2841065,1.5687796,-0.918272,-1.1026572,-1.4171109,-1.2702036,-1.4023551,-0.8197107,0.423398,0.3154875,0.3766365,-0.46865082,0.96111333,-3.2549257,0.16729596,-3.0326173,0.17593765,-0.45006943,0.7855408,0.74348503,0.045327254,0.12241947,0.6558879,-0.7436608,-0.77530885,-1.1512432,1.0,0.0,0.0,0.0,0.0,0.0,0.0,-1.0266365,0.06865081,-0.41111332,-15.319753,-0.54085255,-4.1900635,0.7771969,1.529026,-0.74649453,-0.914526
-24.714363,28.045563,6.8947444,22.68768,2.0409098,1.6714633,-0.40332478,-0.7339015,-0.78009236,-0.6956108,-0.7834743,-0.5289351,0.5941259,0.32357654,0.8287754,-0.7012811,-1.7999333,-1.6639651,2.231213,1.6281922,-0.8859144,0.8900968,-0.6374053,-1.7431629,-1.5996004,2.276069,1.5729986,-0.9152117,-1.2401798,-1.4126855,-1.2829361,-1.3954763,-0.79928553,0.4207932,0.30309528,0.3441124,-0.46697998,0.9300735,-3.2516716,0.1671287,-3.1277711,0.16794205,-0.45782852,0.77398336,0.74570197,0.05455876,0.1194074,0.653218,-0.82231045,-0.761853,-1.1605607,1.0,0.0,0.0,0.0,0.0,0.0,0.0,-0.9941124,0.066979975,-0.3800735,-13.316846,0.22838116,-1.5507698,1.1244297,1.6773343,-0.4671216,-1.1635423
-18.15648,32.702488,11.060294,20.555668,1.7449061,1.6630147,-0.31329072,-0.7588172,-0.788083,-0.70430714,-0.77647054,-0.4701444,0.5725534,0.14659351,0.81421506,-0.7162136,-1.8135936,-1.6772475,2.2290545,1.630254,-0.90055233,0.8769485,-0.6515187,-1.7559974,-1.6134897,2.2683785,1.5771853,-0.9123974,-1.3386152,-1.4115051,-1.2842863,-1.3855557,-0.75986326,0.4172118,0.27456638,0.3116188,-0.46530914,0.8980828,-3.2484205,0.16696161,-3.2228298,0.1592598,-0.4653778,0.76236516,0.74821836,0.06378891,0.11597457,0.6501155,-0.8860745,-0.73894703,-1.1653726,1.0,0.0,0.0,0.0,0.0,0.0,0.0,-0.9616188,0.06530914,-0.34808278,-9.519863,-0.06122589,-0.34656525,1.3618469,3.649652,-0.52215457,-2.742809
-13.895647,36.000443,13.705982,19.312748,1.6453485,1.6377668,-0.31350365,-0.7914245,-0.78624296,-0.71429294,-0.7638088,-0.38282996,0.5521232,-0.09971616,0.797806,-0.730143,-1.8274267,-1.6898706,2.2300954,1.6323977,-0.922369,0.8630334,-0.66561687,-1.7688377,-1.6272379,2.261306,1.5813242,-0.91003895,-1.4083499,-1.4097961,-1.2845589,-1.3702917,-0.6904042,0.41230237,0.2233707,0.27915573,-0.4636383,0.86514217,-3.2451727,0.16679467,-3.3177934,0.15001678,-0.47269058,0.75072616,0.75102186,0.07295767,0.11199468,0.6466069,-0.94089985,-0.71279097,-1.1663342,1.0,0.0,0.0,0.0,0.0,0.0,0.0,-0.9291557,0.0636383,-0.31514215,-6.7285776,0.016260147,-0.1812458,1.8460274,6.711006,-0.6318152,-4.9818873
-10.82657,39.627434,16.470028,19.648193,1.6072916,1.7011395,-0.3527159,-0.8172236,-0.7830423,-0.70508015,-0.7267682,-0.3186467,0.5299902,-0.3260817,0.78131104,-0.7439211,-1.8393457,-1.6999147,2.2294414,1.6343232,-0.9426471,0.8485805,-0.6796874,-1.7816226,-1.6406866,2.2550538,1.5854021,-0.9083357,-1.4570912,-1.4065809,-1.2768928,-1.3356795,-0.60441035,0.40605012,0.15311885,0.2467308,-0.46197128,0.83125263,-3.241928,0.16662791,-3.412662,0.14026642,-0.47971725,0.73914963,0.75414467,0.08195948,0.10739273,0.6426625,-0.9896785,-0.6835807,-1.1575394,1.0,0.0,0.0,0.0,0.0,0.0,0.0,-0.8967308,0.061971277,-0.28125262,-4.6958923,0.18751621,0.67732334,3.727603,8.42514,-0.7245183,-6.878728
-8.92554,45.006844,19.572409,21.95797,1.4445761,1.8606329,-0.43202582,-0.8337674,-0.7633417,-0.70142186,-0.65189713,-0.35461974,0.5445211,-0.42446327,0.7652037,-0.75602156,-1.8517648,-1.7058764,2.2195919,1.6398542,-0.950782,0.8337604,-0.6936368,-1.7943084,-1.6534811,2.2494233,1.5894362,-0.90736294,-1.4899173,-1.3914199,-1.2658527,-1.259855,-0.5495789,0.4024901,0.07900846,0.2143364,-0.46030807,0.79641515,-3.2386868,0.16646132,-3.5074358,0.13007736,-0.48641205,0.7277836,0.7576242,0.090610415,0.10234488,0.6382169,-1.0318681,-0.6487491,-1.1320494,1.0,0.0,0.0,0.0,0.0,0.0,0.0,-0.8643364,0.06030807,-0.24641514,-3.1624317,1.3987064,1.1036634,7.784581,5.364883,-0.39775968,-7.3103027
-7.4233828,46.383038,20.320454,21.968067,1.2416325,1.8184412,-0.4316867,-0.8396683,-0.76036805,-0.7111526,-0.6089361,-0.3740907,0.5225927,-0.4544897,0.7497935,-0.7696736,-1.8654237,-1.7143748,2.2120142,1.6416955,-0.9528119,0.8187238,-0.7074269,-1.8069408,-1.6653944,2.2441132,1.5934263,-0.9070854,-1.5079437,-1.3752706,-1.2623981,-1.1679015,-0.52525425,0.3977194,0.010784649,0.1819725,-0.45864487,0.76063067,-3.2354488,0.16629489,-3.602115,0.11951828,-0.49274826,0.71669054,0.7614496,0.09883435,0.09705456,0.63325095,-1.0668604,-0.6134863,-1.1041247,1.0,0.0,0.0,0.0,0.0,0.0,0.0,-0.8319725,0.05864486,-0.21063066,-1.7161131,1.5071869,0.38847923,9.3735695,2.3406625,-0.5050063,-6.756414
-4.436238,44.17707,19.3709,17.609325,0.7483112,1.5612938,-0.3042995,-0.8353683,-0.76979697,-0.7293069,-0.620408,-0.415156,0.5250563,-0.4792612,0.735187,-0.7844066,-1.8798715,-1.7274352,2.2025976,1.645932,-0.95501155,0.80362236,-0.7211312,-1.8196533,-1.6766135,2.2387917,1.5973746,-0.9074335,-1.5105774,-1.3691282,-1.2740399,-1.1059208,-0.5348166,0.3936969,-0.04973403,0.14963913,-0.45698166,0.7239001,-3.232214,0.16612864,-3.6966991,0.10870361,-0.49871826,0.7057437,0.7655061,0.10674474,0.091671705,0.6278552,-1.088124,-0.57581854,-1.0937663,0.0,1.0,0.0,0.0,0.0,0.0,0.0,-0.7996391,0.056981653,-0.17390007,-0.19125938,0.51891804,-1.148963,6.385994,-1.0521889,-0.4402101,-5.9967046
-4.1315656,44.756027,19.574299,17.487366,0.61266154,1.5686247,-0.2816928,-0.841328,-0.7617235,-0.73061675,-0.557705,-0.4518968,0.5329188,-0.4685625,0.7194896,-0.79730356,-1.892715,-1.732384,2.193602,1.6506665,-0.95428973,0.7885884,-0.73468536,-1.83348,-1.6875072,2.2316513,1.603235,-0.90769976,-1.5014051,-1.3532917,-1.3988063,-1.0747349,-0.7445255,0.6005131,-0.036593754,0.13396454,-0.45948792,0.72692764,-1.419987,-0.27526504,0.7864514,0.09763718,-0.5040474,0.6945765,0.7695201,0.113891825,0.087064035,0.6223241,-1.1124955,-0.50801027,-1.1194758,0.0,1.0,0.0,0.0,0.0,0.0,0.0,-0.7839645,0.05948791,-0.17692763,0.43246746,0.42607784,-1.8003464,7.661891,-3.563249,-0.5267143,-5.046447
72.60437,176.0,110.0,97.097336,-2.5329497,9.589079,-0.957335,-0.77880067,0.38497245,0.71740705,0.7635818,-0.19096291,0.5764734,-0.4646912,0.7107083,-0.6961881,-1.7617393,-1.611149,2.212555,1.6608824,-0.95416886,0.7782935,-0.74568504,-1.847417,-1.688293,2.2183342,1.6178777,-0.9067003,-0.8759289,-1.0150609,-1.3846045,0.24886376,-1.5244837,1.7584008,0.1419064,0.11977768,-0.4622383,0.7340498,-1.4185673,-0.27498984,0.68747914,0.08718109,-0.507576,0.6873259,0.7737969,0.11299362,0.0873387,0.61712456,-1.0245134,-0.28588495,-0.59450394,1.0,0.0,0.0,0.0,0.0,0.0,0.0,-0.76977766,0.062238306,-0.18404979,61.45308,33.957863,3.5790205,130.94809,-77.04251,117.6522,16.791758
25.15493,151.08511,102.03934,90.89301,2.6320972,6.8256884,-0.7311134,-0.8088039,-0.5637399,0.50394964,0.775124,-0.45298186,0.5325263,-0.32967,0.6974131,-0.80205905,-1.797022,-1.6107806,2.173036,1.6711303,-0.93966734,0.76968753,-0.7549376,-1.8552295,-1.6793303,2.2031822,1.6353261,-0.90548724,-0.8556556,-0.89636666,-0.57768816,1.1109747,-1.5151739,1.7456629,0.11507754,0.10560608,-0.4649849,0.740183,-1.4171491,-0.27471492,0.5886058,0.0770607,-0.50972366,0.68524116,0.77862823,0.10517659,0.09018747,0.61199844,-1.0063696,-0.18089633,-0.08356272,1.0,0.0,0.0,0.0,0.0,0.0,0.0,-0.75560606,0.06498489,-0.19018298,1.9858837,11.534333,81.485275,85.85245,-0.028586388,0.34542084,-2.505663
0.20715737,121.63648,71.12345,65.6359,2.623063,4.690625,-0.64216864,-0.77790266,-0.38112482,0.1668107,0.697639,-0.6068798,0.63536006,0.03387943,0.6918973,-0.79305005,-1.8385484,-1.6095665,2.1424942,1.6988622,-0.9020993,0.7602099,-0.7628178,-1.8565685,-1.6647391,2.1889572,1.6517675,-0.90440196,-0.976994,-0.75297564,0.013709368,1.5753407,-1.3950126,1.6135995,0.106903665,0.09144211,-0.46773148,0.7453282,-1.4157323,-0.27444026,0.48983133,0.0668869,-0.5109825,0.6869418,0.7839488,0.09371689,0.09381078,0.60649884,-1.0214574,-0.10062672,0.24881226,1.0,0.0,0.0,0.0,0.0,0.0,0.0,-0.7414421,0.06773147,-0.19532818,-11.680651,13.998758,59.070557,46.527054,10.99782,-12.234354,-0.6508544
-13.458835,90.55682,47.06267,43.722694,2.3465438,3.1662858,-0.46997136,-0.7801389,-0.35945475,0.25869328,0.7760737,-0.63351625,0.5796535,-0.12644938,0.682196,-0.7987633,-1.8306991,-1.5871317,2.1256056,1.7097329,-0.9170469,0.7490653,-0.7696156,-1.8531848,-1.6476932,2.1762543,1.6665342,-0.9035408,-1.1587765,-0.65610665,0.44539925,1.7482971,-1.2312932,1.4332523,0.07981656,0.077293396,-0.47047424,0.7494864,-1.4143169,-0.27416587,0.39115566,0.056438446,-0.5115509,0.690878,0.7895761,0.0806554,0.09751628,0.6004621,-1.0533689,-0.03556551,0.4356919,1.0,0.0,0.0,0.0,0.0,0.0,0.0,-0.7272934,0.07047424,-0.19948637,-17.718483,9.45375,42.824833,17.464329,15.635395,-17.397451,-2.5417314
-20.947054,50.412697,19.920757,23.01831,1.9410485,1.4345491,-0.24808547,-0.78138274,-0.42260242,0.23381536,0.7611614,-0.64418495,0.5986928,-0.1207167,0.670927,-0.8118758,-1.8298032,-1.5715771,2.1118357,1.7264035,-0.91561246,0.7363156,-0.77609295,-1.8472968,-1.6304679,2.1649818,1.6796052,-0.90293425,-1.3128318,-0.64526534,0.63545525,1.714234,-1.093521,1.2665335,0.054769028,0.06315994,-0.4732132,0.75265056,-1.412903,-0.27389175,0.2915134,0.04560852,-0.51174545,0.6955236,0.7953278,0.067575336,0.10079138,0.5939094,-1.095259,-0.0061652996,0.46838638,1.0,0.0,0.0,0.0,0.0,0.0,0.0,-0.7131599,0.07321319,-0.20265055,-15.146494,0.99732876,18.71258,-3.3068419,13.469315,-16.269802,-2.3778372
-20.398682,28.495157,5.3353066,11.729393,1.4693985,0.2827893,-0.14763056,-0.7814965,-0.42813814,0.21929152,0.7681964,-0.6423569,0.57743776,-0.15422557,0.65816593,-0.8189068,-1.8253677,-1.5536482,2.1007462,1.737349,-0.91835684,0.72245395,-0.78276867,-1.8408118,-1.6141982,2.1547852,1.6911638,-0.9025814,-1.4102416,-0.6750295,0.6521567,1.5980215,-0.99550104,1.1200982,0.029012864,0.049041748,-0.47595215,0.7548191,-1.4114904,-0.27361792,0.19197078,0.034420013,-0.5118408,0.69986165,0.8011091,0.055452462,0.103477284,0.5868915,-1.130905,-0.0031743145,0.41718987,1.0,0.0,0.0,0.0,0.0,0.0,0.0,-0.6990417,0.07595214,-0.20481908,-9.645343,-2.989626,1.4798403,-11.585093,9.710312,-14.347672,-2.502321
-13.445679,17.491167,0.7650322,5.788044,1.0629694,-0.3344,0.0109408125,-0.76828295,-0.47643808,0.25184447,0.75565195,-0.62231183,0.57936424,-0.170278,0.64562565,-0.83041245,-1.8156275,-1.538633,2.092554,1.7491002,-0.9196092,0.70809734,-0.7900509,-1.8346587,-1.5991969,2.1453285,1.7014349,-0.9024717,-1.4441168,-0.7459837,0.6026913,1.467435,-0.92934716,0.9967575,0.005064356,0.034938812,-0.47868347,0.75599295,-1.4100792,-0.27334437,0.0925277,0.022972107,-0.51202774,0.7034278,0.8068282,0.044604216,0.105522625,0.57957184,-1.1518813,-0.014495204,0.3319911,1.0,0.0,0.0,0.0,0.0,0.0,0.0,-0.6849388,0.078683466,-0.20599294,-3.3823252,-7.0874095,-5.0223827,-13.048959,6.54341,-12.126899,-2.339017
-8.679464,16.90294,1.2424833,5.8952026,0.9177035,-0.52604246,0.020515375,-0.7623948,-0.49721485,0.24020205,0.7580731,-0.6151108,0.5780873,-0.18381831,0.6318579,-0.8397724,-1.8106385,-1.5233896,2.0838175,1.7592436,-0.92085356,0.69371974,-0.7980885,-1.8292094,-1.5852389,2.1363297,1.7106283,-0.90258616,-1.4355681,-0.8230128,0.52552253,1.3720486,-0.8905198,0.8941701,-0.01680134,0.020851135,-0.4814148,0.7561731,-1.4086694,-0.27307108,-0.006815961,0.011375427,-0.51236725,0.7061459,0.8124626,0.03497331,0.10700926,0.57204044,-1.1645536,-0.031709652,0.24784935,1.0,0.0,0.0,0.0,0.0,0.0,0.0,-0.6708511,0.08141479,-0.20617306,0.84221363,-7.698107,-7.7456594,-9.505558,3.8050532,-10.08625,-2.1421294
-5.1402645,19.132668,3.6217005,7.409894,0.9086108,-0.5035323,0.021417558,-0.75043726,-0.5360348,0.2321098,0.7482734,-0.59726906,0.5767572,-0.19465755,0.618676,-0.85169196,-1.8059984,-1.5104116,2.0766027,1.768304,-0.9220519,0.6796149,-0.8069195,-1.824483,-1.5719466,2.127617,1.718929,-0.9029009,-1.402176,-0.90318286,0.45522943,1.3152069,-0.8655161,0.809286,-0.036319587,0.0067749023,-0.48414612,0.75536054,-1.4072609,-0.27279806,-0.106060304,-0.00031661987,-0.5128784,0.70811087,0.8180165,0.026340874,0.108024664,0.5643454,-1.1731659,-0.049056273,0.17581122,1.0,0.0,0.0,0.0,0.0,0.0,0.0,-0.6567749,0.08414611,-0.20536053,3.3310175,-8.022892,-7.026279,-5.6240797,2.40103,-8.33931,-1.9044198
-2.1683428,26.236767,8.199957,9.715297,0.8235824,-0.33176303,0.0073072314,-0.7352102,-0.55298567,0.23011932,0.74512446,-0.6006995,0.5772351,-0.20845225,0.6060939,-0.8622181,-1.8014711,-1.4974341,2.0675468,1.7766526,-0.9237461,0.6659211,-0.8164353,-1.8202811,-1.5589614,2.1190414,1.7264955,-0.9033987,-1.3584344,-0.9677019,0.4084987,1.2930963,-0.85504234,0.73969495,-0.05416843,-0.0072898865,-0.4868698,0.7535563,-1.4058539,-0.2725253,-0.20520543,-0.012046814,-0.5135002,0.7095129,0.82348907,0.018429894,0.10871086,0.55651414,-1.1756732,-0.05865018,0.12475906,0.0,1.0,0.0,0.0,0.0,0.0,0.0,-0.6427101,0.086869806,-0.2035563,4.3756723,-6.476915,-4.6525598,-2.1331549,0.91587305,-6.797838,-1.7460681
-2.198462,27.929056,9.138103,11.048105,0.85464686,-0.25740278,-0.0103758015,-0.71547616,-0.5925977,0.19566345,0.74086446,-0.61495495,0.580939,-0.17842871,0.59437346,-0.87569505,-1.8007149,-1.484875,2.057546,1.7845894,-0.9212416,0.652686,-0.82657284,-1.8165199,-1.5460429,2.1104698,1.733463,-0.90403193,-1.3117942,-1.0292856,0.36561057,1.2918463,-0.8582606,0.6829338,-0.06618249,-0.021339417,-0.4895935,0.7507614,-1.4044483,-0.27225286,-0.30425143,-0.023815155,-0.5142021,0.7104557,0.8288865,0.011071692,0.10917363,0.54854864,-1.1796792,-0.06649117,0.080617264,0.0,1.0,0.0,0.0,0.0,0.0,0.0,-0.62866056,0.0895935,-0.20076138,4.676652,-6.1912656,-4.2604628,-0.024867058,-0.45013428,-5.5211425,-1.1596448
-6.367989,29.763668,8.020467,12.891592,0.9860361,-0.20781124,-0.12549688,-0.713447,-0.59384936,0.12117735,0.7405465,-0.61085856,0.5717683,-0.1772408,0.5813413,-0.8859578,-1.8044021,-1.4719883,2.0493839,1.7906399,-0.921756,0.63982,-0.8371529,-1.8133994,-1.5330558,2.1018486,1.7399328,-0.9047653,-1.2780416,-1.067744,0.29418012,1.3015062,-0.8632705,0.63555765,-0.075593024,-0.035373688,-0.49231339,0.7469767,-1.4030441,-0.27198064,-0.40319842,-0.035686493,-0.51498795,0.7109704,0.8342759,0.004263117,0.10953587,0.5403401,-1.1918992,-0.07425643,0.03809292,0.0,1.0,0.0,0.0,0.0,0.0,0.0,-0.6146263,0.09231338,-0.19697666,3.4108877,-3.8847208,-7.1492434,1.1020899,-0.5871415,-4.5825243,-0.90732723
-12.497013,25.049398,2.6081178,13.778517,1.2169896,-0.35551512,-0.27215648,-0.6983173,-0.61259735,-0.011736826,0.74939084,-0.61359626,0.5731571,-0.17795604,0.56998825,-0.89841264,-1.8145732,-1.4581167,2.040489,1.7972485,-0.92256093,0.6272439,-0.8480429,-1.8115016,-1.5199103,2.093174,1.7459905,-0.9055788,-1.2507026,-1.0960937,0.15475115,1.3195479,-0.86862916,0.59637153,-0.08319019,-0.0493927,-0.49502945,0.74220324,-1.4016414,-0.27170873,-0.50204647,-0.047786713,-0.51591873,0.7109483,0.83977276,-0.0018156945,0.10988378,0.531699,-1.2187219,-0.09176927,-0.019387273,0.0,1.0,0.0,0.0,0.0,0.0,0.0,-0.6006073,0.09502944,-0.19220322,2.7881145,-2.8674126,-13.984076,1.9919157,-0.53675175,-3.7989736,-0.7287681
-17.44952,15.004243,-5.392668,12.461581,1.4021819,-0.6836088,-0.38149455,-0.6693867,-0.6469326,-0.18829747,0.7464292,-0.59704053,0.5738304,-0.2029028,0.56030524,-0.9127362,-1.8303313,-1.4452674,2.03347,1.8033736,-0.92586905,0.6150055,-0.8592528,-1.8117789,-1.506665,2.0843987,1.7516097,-0.90656066,-1.2147788,-1.1294285,-0.08874189,1.32701,-0.87899786,0.55257434,-0.1024304,-0.06460953,-0.49567413,0.74239016,-1.5460643,-0.005998456,0.18623215,-0.06023407,-0.5171852,0.71008205,0.8455074,-0.0067321025,0.11024766,0.5224149,-1.2558272,-0.128954,-0.11300796,0.0,1.0,0.0,0.0,0.0,0.0,0.0,-0.58539045,0.09567413,-0.19239014,3.2963276,-3.4339905,-22.831062,1.6920567,0.4425168,-3.1829357,-0.8450821
-26.844591,45.87134,4.2222567,21.034405,1.1976537,-0.058251858,-0.69078976,-0.7591142,-0.410631,-0.30169523,0.7963116,-0.6050347,0.5856149,-0.20303068,0.5390941,-0.9003159,-1.8419484,-1.4270338,2.0238953,1.8101711,-0.92686373,0.6026087,-0.8696183,-1.8145884,-1.4931018,2.0756211,1.7569426,-0.90764976,-1.2473652,-1.0059975,-0.34558374,1.3669719,-0.8774091,0.52728164,-0.11149137,-0.08005524,-0.49573517,0.74350667,-1.5445185,-0.0059924587,0.086794786,-0.07305908,-0.51852036,0.70872235,0.85161066,-0.010458549,0.111199275,0.51213735,-1.2934257,-0.12822807,-0.14786157,0.0,1.0,0.0,0.0,0.0,0.0,0.0,-0.56994474,0.09573516,-0.19350666,-3.0906916,12.233162,-25.86868,4.237771,0.22035837,-2.425754,-1.0319769
-27.772676,56.55136,9.302898,23.021858,1.153348,0.24878785,-0.6899754,-0.7666693,-0.3765367,-0.38513428,0.80791914,-0.5715619,0.5822587,-0.21920185,0.5259417,-0.907272,-1.8531018,-1.4123099,2.018465,1.8151685,-0.92956996,0.58976364,-0.8785094,-1.819784,-1.4791114,2.0669732,1.762062,-0.9088266,-1.2963232,-0.8506241,-0.5781165,1.410205,-0.8604104,0.50712854,-0.12029642,-0.09548569,-0.4957962,0.7436266,-1.5429744,-0.0059864675,-0.012936893,-0.08624649,-0.5197525,0.70717824,0.85808283,-0.013103124,0.11300777,0.50075084,-1.3277799,-0.1112987,-0.1607219,0.0,1.0,0.0,0.0,0.0,0.0,0.0,-0.5545143,0.0957962,-0.19362658,-4.7106743,15.37236,-23.407263,4.516721,1.6772628,-1.9817233,-1.0640472
-23.372437,63.454617,14.847164,21.933817,0.9246485,0.494371,-0.5197755,-0.7749194,-0.33360085,-0.43441263,0.80445385,-0.5518165,0.58437604,-0.18840119,0.5122717,-0.91186947,-1.8632253,-1.398666,2.0117915,1.8204995,-0.9276667,0.5764284,-0.88586795,-1.826866,-1.4647949,2.0585504,1.7670096,-0.9100578,-1.3453559,-0.6983618,-0.7518392,1.4393507,-0.8365848,0.49058607,-0.12466199,-0.11090088,-0.49585724,0.7427499,-1.5414317,-0.0059804823,-0.11256886,-0.09967804,-0.5207062,0.7056195,0.8647863,-0.014849101,0.11564081,0.488417,-1.3494962,-0.0795677,-0.15788382,0.0,1.0,0.0,0.0,0.0,0.0,0.0,-0.5390991,0.09585723,-0.19274992,-4.764414,15.023303,-17.43076,3.028798,2.2414804,-1.6843975,-0.6436229
-16.06176,61.37416,17.111181,18.46068,0.67635196,0.52061164,-0.2900603,-0.7645085,-0.32153517,-0.48178378,0.80536133,-0.5631558,0.59846145,-0.17655645,0.49997756,-0.91802144,-1.8750445,-1.3842587,2.0022347,1.8268558,-0.92771345,0.5627661,-0.8920344,-1.8352755,-1.4502971,2.050303,1.7718238,-0.91131186,-1.3729036,-0.59012586,-0.87056047,1.4535536,-0.82153964,0.4781607,-0.12634103,-0.12630081,-0.49591827,0.7408777,-1.5398905,-0.005974503,-0.21210122,-0.11323929,-0.52132034,0.7040751,0.87153596,-0.01589017,0.118927106,0.4754249,-1.3580365,-0.04466899,-0.15636078,0.0,1.0,0.0,0.0,0.0,0.0,0.0,-0.52369916,0.09591827,-0.19087768,-2.6867867,10.625291,-11.823189,1.479435,1.2979269,-1.3031185,-0.35473555
-15.407522,49.39789,12.787855,15.498584,0.75863856,0.4245578,-0.16150898,-0.7767918,-0.33483818,-0.56595904,0.80091316,-0.5684415,0.5896445,-0.12906586,0.4850869,-0.9255182,-1.8918715,-1.3702058,1.9934589,1.8307883,-0.9242185,0.54889965,-0.89758193,-1.8447703,-1.4357612,2.0421433,1.7765235,-0.91253924,-1.3910728,-0.54355264,-0.9755214,1.4538665,-0.8146301,0.4669952,-0.12198961,-0.14168549,-0.4959793,0.7380109,-1.5383509,-0.0059685297,-0.31153408,-0.1269188,-0.5216484,0.7023836,0.8782223,-0.016269868,0.12260048,0.46198478,-1.3725606,-0.01764816,-0.17591232,0.0,1.0,0.0,0.0,0.0,0.0,0.0,-0.5083145,0.0959793,-0.18801087,-1.7589092,4.488826,-10.413957,0.1213789,0.50923824,-1.2049794,0.29628277
-9.444094,45.48651,13.13366,12.607906,0.55944574,0.34981072,0.015724115,-0.7567514,-0.32846874,-0.59560126,0.8068456,-0.59391505,0.6139202,-0.042184822,0.47322452,-0.9304288,-1.9043305,-1.3550767,1.9827518,1.8379155,-0.9167577,0.53502846,-0.9029454,-1.8551024,-1.4212425,2.033938,1.781145,-0.9136541,-1.3856871,-0.53450906,-1.0519832,1.4513743,-0.8228646,0.46028835,-0.108394906,-0.1570549,-0.49604034,0.73415047,-1.5368129,-0.0059625623,-0.41086754,-0.14068985,-0.52173233,0.70044535,0.88472867,-0.016068915,0.12649462,0.44832593,-1.3779039,0.006836646,-0.20200631,0.0,1.0,0.0,0.0,0.0,0.0,0.0,-0.49294508,0.09604034,-0.18415046,0.5546808,0.7576108,-7.50885,-0.1760006,-1.0111451,-0.7448375,1.2417779
-11.691542,28.707535,6.0703716,10.3251915,0.8579607,0.19918352,0.06937305,-0.7593723,-0.40765616,-0.6536321,0.80367064,-0.5906635,0.5969669,0.009474428,0.45909122,-0.94371104,-1.9204656,-1.3408754,1.9748716,1.8408417,-0.9127067,0.5212616,-0.90874845,-1.8662182,-1.4067856,2.0256286,1.7857198,-0.9146139,-1.373162,-0.59594023,-1.1330483,1.4435608,-0.8343825,0.45775005,-0.09314729,-0.17264557,-0.49570465,0.73094726,-1.5773737,0.068033814,-0.19811393,-0.1546402,-0.52165985,0.6980224,0.8910248,-0.015283852,0.13031872,0.43457815,-1.3997773,0.018442735,-0.25858167,0.0,1.0,0.0,0.0,0.0,0.0,0.0,-0.4773544,0.095704645,-0.18094724,1.1816502,-6.265235,-7.495117,-0.3479004,-0.63067675,-0.43659806,1.9736125
-10.134659,36.80529,9.448325,10.5898285,0.5731239,0.30070418,0.14677307,-0.76326334,-0.35215583,-0.6910433,0.80169237,-0.6355781,0.59203583,0.17516167,0.44493523,-0.943964,-1.9353225,-1.3266164,1.9620707,1.8449234,-0.8970977,0.5075954,-0.91495687,-1.8780782,-1.3924004,2.0171309,1.790283,-0.9152785,-1.3642453,-0.6295831,-1.2032241,1.437317,-0.8556078,0.45560014,-0.0578633,-0.18811035,-0.49500656,0.7286365,-1.5363458,0.07026838,-0.24273877,-0.16872025,-0.52142334,0.6951261,0.89705855,-0.013917682,0.13412645,0.42083523,-1.4111747,0.039092094,-0.30209377,0.0,1.0,0.0,0.0,0.0,0.0,0.0,-0.46188962,0.095006555,-0.17863649,0.917387,-3.49617,-6.867099,-0.49026012,-2.2806883,-0.31240582,3.4491084
-3.7391057,45.91199,15.09592,9.955997,0.36938494,0.39103588,0.21667963,-0.73832667,-0.35207763,-0.6759378,0.79807955,-0.61790746,0.6041527,0.13523316,0.43376276,-0.9501646,-1.945672,-1.3125924,1.9553401,1.8506982,-0.90175515,0.49410665,-0.92138654,-1.8903638,-1.3780819,2.0085025,1.7948458,-0.91563237,-1.3439347,-0.64790976,-1.2362958,1.4301298,-0.86579144,0.45606148,-0.028202578,-0.20306778,-0.4942627,0.7259971,-1.4821782,0.07660209,-0.27193257,-0.18280792,-0.5209236,0.69192344,0.90276927,-0.01212327,0.13796642,0.4072172,-1.4057761,0.066142164,-0.32860202,0.0,1.0,0.0,0.0,0.0,0.0,0.0,-0.4469322,0.09426269,-0.17599708,1.995492,-1.9777775,-3.0870438,-0.6598711,-1.2458205,-0.06420612,2.87669
-7.9834204,39.621128,11.881388,10.411786,0.6251278,0.4357618,0.18655238,-0.7516927,-0.4176762,-0.7068984,0.80002075,-0.6419736,0.6161487,0.18181874,0.41893739,-0.96315414,-1.9610536,-1.2980798,1.9443052,1.8564607,-0.8974505,0.48073286,-0.9282006,-1.9029275,-1.3638036,1.9997134,1.7994045,-0.9156973,-1.3351904,-0.69303566,-1.2623059,1.427284,-0.8843402,0.4552403,0.00035268004,-0.21774673,-0.49341202,0.72301954,-1.4658067,0.088269606,-0.30600244,-0.19691849,-0.5201645,0.68839234,0.90817404,-0.0099492315,0.1417643,0.39373043,-1.4122522,0.09152142,-0.36362147,0.0,1.0,0.0,0.0,0.0,0.0,0.0,-0.43225324,0.09341201,-0.17301953,0.87008476,-4.652977,-2.3873806,-0.16262531,-2.1500707,-0.18638968,2.745464
-1.4672489,50.584446,17.827967,10.016217,0.36334133,0.5143803,0.25551844,-0.72257894,-0.38434228,-0.6882114,0.7985105,-0.6374153,0.63044745,0.22315416,0.40847495,-0.9666348,-1.9717487,-1.2839526,1.9359719,1.8624493,-0.89338183,0.467534,-0.9352521,-1.9155523,-1.34955,1.9907811,1.8039684,-0.91547984,-1.3149834,-0.7097295,-1.2615638,1.4247364,-0.89725995,0.45595515,0.02868477,-0.23224258,-0.4923973,0.71986794,-1.4439079,0.10885544,-0.3188944,-0.21095657,-0.5191002,0.6846568,0.91324097,-0.007504152,0.14557368,0.38045076,-1.3989912,0.122722134,-0.37923566,0.0,1.0,0.0,0.0,0.0,0.0,0.0,-0.4177574,0.0923973,-0.16986793,1.9539356,-1.8250704,0.35014153,-0.22330284,-1.5903354,-0.02321601,2.7353845
-3.01645,45.379917,15.503555,9.815779,0.54570585,0.4794665,0.23385987,-0.7196592,-0.4434525,-0.69479436,0.80271685,-0.6423978,0.6301352,0.23153289,0.39556807,-0.97959733,-1.9850317,-1.2692783,1.9265413,1.866982,-0.89232653,0.45452112,-0.9426459,-1.9281255,-1.3352906,1.981733,1.80854,-0.91500497,-1.2968738,-0.7497987,-1.2550493,1.4267106,-0.90820587,0.45714578,0.053516325,-0.24655533,-0.49123383,0.71651906,-1.4273554,0.11966167,-0.34009886,-0.22492218,-0.51776123,0.6807113,0.9179855,-0.0048451778,0.14932531,0.36739773,-1.3934911,0.15040648,-0.4020978,0.0,1.0,0.0,0.0,0.0,0.0,0.0,-0.40344465,0.09123382,-0.16651905,1.7607689,-4.150653,0.9172201,0.2750635,-1.3634205,0.013816357,2.4238207
3.3459253,57.819588,21.550371,9.863207,0.2954294,0.5314261,0.28911528,-0.6912163,-0.4001599,-0.6710883,0.8024483,-0.64346415,0.64359,0.27649462,0.3853995,-0.9826619,-1.9952344,-1.2550458,1.9173865,1.8728989,-0.8873555,0.44177476,-0.9501771,-1.9405079,-1.3210121,1.9726099,1.813135,-0.9142755,-1.2676079,-0.75467384,-1.2314848,1.4282129,-0.91493505,0.46024275,0.07889119,-0.2606163,-0.4899063,0.7131122,-1.4002783,0.13585965,-0.33985856,-0.2386818,-0.51610947,0.6766861,0.92238355,-0.0020616085,0.15309569,0.3546349,-1.3678486,0.18196236,-0.40515018,0.0,1.0,0.0,0.0,0.0,0.0,0.0,-0.38938367,0.089906305,-0.16311216,2.8158188,-0.6493211,2.689004,0.12323856,-1.0504842,0.27472377,2.3980453
4.2585287,55.63349,20.558216,9.248619,0.35811442,0.4264822,0.29302257,-0.6738603,-0.4405787,-0.66996884,0.80056214,-0.6399202,0.6349659,0.28223625,0.37438872,-0.9942349,-2.0075047,-1.240956,1.9086179,1.8766316,-0.8860519,0.42935315,-0.9578551,-1.9526615,-1.3067261,1.9634564,1.817751,-0.9133143,-1.2340162,-0.77271336,-1.2089653,1.4285506,-0.9167387,0.46198943,0.10152293,-0.27440262,-0.4884224,0.7096512,-1.3721738,0.1511159,-0.34763178,-0.25219727,-0.51418686,0.6725867,0.9264434,0.0008206084,0.15685128,0.342198,-1.3438401,0.20797792,-0.41414815,0.0,1.0,0.0,0.0,0.0,0.0,0.0,-0.37559736,0.08842239,-0.15965116,3.2496452,-1.9536018,2.5792837,0.022625923,-0.53942204,0.13446808,2.1458492
-3.3357468,50.91415,16.716177,10.751963,0.65004885,0.4690116,0.21460122,-0.69678795,-0.46352205,-0.67784184,0.7998565,-0.64850193,0.6115729,0.3300511,0.35967433,-1.0042073,-2.0204456,-1.2267405,1.8986062,1.8789084,-0.88030916,0.41709223,-0.96578586,-1.9646777,-1.292442,1.9542686,1.8223592,-0.9121192,-1.2236118,-0.80036056,-1.1981173,1.4286149,-0.9205681,0.4601583,0.12522112,-0.28796768,-0.48680115,0.7060332,-1.3514729,0.16517273,-0.36578652,-0.2655983,-0.5119858,0.6683357,0.9302197,0.0038746798,0.16053435,0.33000752,-1.3355241,0.23545241,-0.43123162,0.0,1.0,0.0,0.0,0.0,0.0,0.0,-0.3620323,0.08680114,-0.15603316,0.9830713,-2.9208183,1.3755322,0.07276535,-0.7018447,-0.26450157,2.287586
-4.527837,46.76461,14.5885725,10.143074,0.7267625,0.41688952,0.21434705,-0.68119305,-0.49414274,-0.67220324,0.7979354,-0.6400397,0.6113692,0.37617224,0.34897292,-1.0152001,-2.031898,-1.2126484,1.8902646,1.8834962,-0.874502,0.4049238,-0.97409713,-1.9766176,-1.2781672,1.9450716,1.8269444,-0.910677,-1.2147295,-0.8419045,-1.1917198,1.4276236,-0.92033434,0.45755813,0.15039922,-0.30134964,-0.48506165,0.70216066,-1.3339177,0.17696697,-0.3938583,-0.27894974,-0.5095253,0.663853,0.93374753,0.007144256,0.16406253,0.31803754,-1.3323401,0.26065475,-0.45641184,0.0,1.0,0.0,0.0,0.0,0.0,0.0,-0.34865034,0.08506164,-0.15216064,0.8454323,-4.299748,0.910306,0.0007390976,-0.26689768,-0.35820007,2.462691
-1.9997759,47.399513,15.113097,9.169713,0.6485325,0.37077817,0.23570248,-0.6609385,-0.5099079,-0.65994084,0.7952596,-0.63680065,0.60765064,0.37984833,0.33882993,-1.025088,-2.0426116,-1.1986413,1.8813915,1.8877094,-0.87269217,0.39289603,-0.98283184,-1.9884716,-1.2639136,1.9358948,1.831501,-0.9090044,-1.198967,-0.88439363,-1.1823854,1.4248965,-0.9177082,0.45472345,0.17273577,-0.31454468,-0.48321152,0.6979984,-1.3147646,0.18740478,-0.42273238,-0.29224014,-0.5068283,0.659116,0.9370361,0.010619332,0.16739295,0.3063169,-1.3242655,0.28372735,-0.48206183,0.0,1.0,0.0,0.0,0.0,0.0,0.0,-0.3354553,0.08321151,-0.1479984,1.5188694,-4.387927,1.2125969,-0.1868248,-0.02888441,-0.38306117,2.1847367
8.900984,54.56041,20.031363,7.06532,0.32667273,0.26835537,0.3349347,-0.6074429,-0.51274526,-0.6258666,0.79980373,-0.63205665,0.6181863,0.40761524,0.33215174,-1.0341064,-2.0510583,-1.1839333,1.8726891,1.8933196,-0.86824286,0.38124925,-0.9919035,-2.0000927,-1.2496676,1.9267677,1.8360448,-0.9071127,-1.1536599,-0.9152403,-1.1541829,1.4242682,-0.9121445,0.45412734,0.19445287,-0.32748032,-0.48126602,0.6936428,-1.2857994,0.19667818,-0.43861476,-0.30529022,-0.5039406,0.654207,0.94005156,0.01419143,0.1705522,0.2949807,-1.2946236,0.3003787,-0.4966111,0.0,1.0,0.0,0.0,0.0,0.0,0.0,-0.32251966,0.081266016,-0.14364278,4.403591,-3.2149553,3.1615496,-0.07472038,0.21989346,-0.14517903,2.1056442
6.0950103,56.17789,19.871622,8.279699,0.46150517,0.33274215,0.29117125,-0.62069356,-0.5289319,-0.61224985,0.7978513,-0.636317,0.5961848,0.41769344,0.3191799,-1.0447967,-2.0613177,-1.1698825,1.863136,1.8956633,-0.8653434,0.36995724,-1.0012496,-2.0113916,-1.2354331,1.9176786,1.8405685,-0.90502113,-1.1214182,-0.9414944,-1.120475,1.42331,-0.9090841,0.45155394,0.21386711,-0.34012604,-0.4792328,0.68914825,-1.2569642,0.20556147,-0.45227888,-0.31806946,-0.5008774,0.64917713,0.94280607,0.017819067,0.17356908,0.2840299,-1.268352,0.3193234,-0.50780565,0.0,1.0,0.0,0.0,0.0,0.0,0.0,-0.30987394,0.07923278,-0.13914824,3.111124,-2.7668953,3.717184,-0.0900507,-0.04889965,-0.3617525,1.8832207
-0.73770666,52.58007,16.962294,9.702015,0.75313133,0.39890748,0.22045912,-0.6351125,-0.56285846,-0.6005987,0.79510105,-0.62275195,0.5691402,0.44884223,0.306446,-1.0575354,-2.0714514,-1.155923,1.8554034,1.8974825,-0.8601369,0.3588221,-1.0109293,-2.0223587,-1.2212138,1.9086453,1.8450447,-0.90273523,-1.111124,-0.9772083,-1.0877311,1.4216361,-0.90258783,0.44573742,0.23339683,-0.35252762,-0.47711182,0.68445677,-1.234027,0.21420774,-0.47423026,-0.3306923,-0.4975853,0.6439984,0.94535077,0.021521399,0.17639478,0.27337462,-1.2557745,0.34225994,-0.5240456,0.0,1.0,0.0,0.0,0.0,0.0,0.0,-0.29747236,0.07711181,-0.13445675,0.95989704,-3.7171364,3.5888195,-0.09441376,0.3132701,-0.6975591,1.9227266
4.933161,56.77869,19.633839,8.633584,0.6318718,0.3719313,0.2602633,-0.5946191,-0.56914145,-0.5579228,0.79347825,-0.61250854,0.5805101,0.45219785,0.2993602,-1.0678434,-2.078151,-1.141866,1.8473945,1.9030957,-0.85751545,0.34788486,-1.020922,-2.0328796,-1.2070193,1.8997033,1.8494735,-0.9002711,-1.0882655,-1.0071996,-1.0394329,1.4188044,-0.892694,0.44159716,0.25056735,-0.36465454,-0.47490692,0.6795957,-1.2054062,0.22204892,-0.48893112,-0.34310532,-0.49408722,0.6387103,0.94769263,0.025228014,0.17901656,0.26304996,-1.2321719,0.36202493,-0.53340614,0.0,1.0,0.0,0.0,0.0,0.0,0.0,-0.28534544,0.074906915,-0.1295957,2.18122,-3.140819,5.183029,-0.26056767,0.61569214,-0.51302314,1.6751826
3.5240498,54.73788,18.249546,8.5638,0.67106825,0.33777973,0.23987362,-0.5926652,-0.59662735,-0.54568326,0.7917341,-0.61717874,0.55578786,0.46056476,0.28861836,-1.0805846,-2.087448,-1.1278459,1.8379854,1.9050523,-0.85421467,0.337145,-1.031256,-2.0429502,-1.1928554,1.8908322,1.8538451,-0.8976494,-1.0695505,-1.0426531,-0.9951517,1.4157262,-0.8863851,0.43529773,0.2659085,-0.37651062,-0.47263336,0.67454696,-1.1786404,0.22921844,-0.5091575,-0.35530472,-0.4903946,0.633295,0.94984895,0.028939784,0.18142287,0.25305158,-1.211905,0.38039893,-0.54718447,0.0,1.0,0.0,0.0,0.0,0.0,0.0,-0.27348936,0.072633356,-0.124546945,1.7821312,-3.6833048,4.764116,-0.2591133,0.27421713,-0.7370055,1.5093327
9.115974,59.87829,21.208405,7.779155,0.56542885,0.31257433,0.2725392,-0.56389815,-0.6004168,-0.4928201,0.7889539,-0.60918355,0.53744453,0.45869473,0.2807552,-1.0912976,-2.0922322,-1.11396,1.8299139,1.9075896,-0.85177994,0.32667363,-1.0418818,-2.052445,-1.1787332,1.8820318,1.8581476,-0.894895,-1.0400825,-1.0695126,-0.933306,1.4112002,-0.8791247,0.42825305,0.27855468,-0.3880539,-0.47030258,0.6693701,-1.1458317,0.2344212,-0.5195788,-0.36722565,-0.48654938,0.62780803,0.95182097,0.03258642,0.18362857,0.24342452,-1.1805704,0.39502162,-0.55210173,0.0,1.0,0.0,0.0,0.0,0.0,0.0,-0.26194608,0.070302576,-0.1193701,2.824831,-2.8233051,6.5636277,-0.45473576,0.32373667,-0.8060038,1.2310624
6.9731245,53.80123,18.064589,7.0759687,0.58980346,0.2052834,0.25578466,-0.5579252,-0.6417681,-0.49322948,0.7843154,-0.6040576,0.5051925,0.47686186,0.27088112,-1.1060586,-2.1017678,-1.1003017,1.8216261,1.9086668,-0.84720886,0.31647405,-1.0528777,-2.0614436,-1.1646664,1.8733015,1.8623586,-0.8920169,-1.0135676,-1.1101444,-0.8876402,1.4054363,-0.87205845,0.41832373,0.29085672,-0.39931107,-0.46792984,0.6639875,-1.1186031,0.23787118,-0.5434282,-0.3788948,-0.48257828,0.6221807,0.9536331,0.036211766,0.1855885,0.23415689,-1.1568,0.40621373,-0.5692974,0.0,1.0,0.0,0.0,0.0,0.0,0.0,-0.2506889,0.067929834,-0.113987505,2.5572538,-4.1879654,4.896772,-0.5302191,0.35784245,-1.1005044,1.2239575
4.3602986,53.894344,16.966421,7.5831065,0.6172166,0.19418907,0.22893658,-0.5556063,-0.64869547,-0.481791,0.77631396,-0.6067916,0.45905316,0.4855016,0.26091343,-1.1177472,-2.1096227,-1.0870351,1.8126223,1.9082639,-0.84346676,0.3064805,-1.0642359,-2.0700839,-1.1506816,1.8646173,1.8664403,-0.88902366,-0.994849,-1.144927,-0.855126,1.3963602,-0.8682039,0.40447393,0.30206898,-0.41030502,-0.46552658,0.6583482,-1.0926275,0.24095052,-0.5699271,-0.3903427,-0.47848892,0.6163654,0.9553066,0.039903644,0.18730187,0.2251998,-1.1358286,0.41807452,-0.5887415,0.0,1.0,0.0,0.0,0.0,0.0,0.0,-0.23969495,0.065526575,-0.10834819,1.7942548,-3.6066055,3.561449,-0.841856,0.04527569,-1.496321,1.1122882
12.38685,57.721474,20.044512,5.860774,0.46297458,0.14458203,0.2892588,-0.5115977,-0.66626894,-0.41915923,0.77314836,-0.5962547,0.47409144,0.49921826,0.25532073,-1.1308628,-2.1119998,-1.0733668,1.8049918,1.9138495,-0.83910185,0.29680735,-1.075928,-2.078232,-1.1367904,1.8559937,1.8704073,-0.88592046,-0.95851123,-1.1776843,-0.8005959,1.3866467,-0.86174,0.39374736,0.31298912,-0.4209938,-0.46311188,0.6525083,-1.0602689,0.24151759,-0.58783036,-0.4014778,-0.47432327,0.6104106,0.95683765,0.043570474,0.18877268,0.21662882,-1.1023828,0.42332038,-0.6009617,0.0,1.0,0.0,0.0,0.0,0.0,0.0,-0.22900617,0.06311187,-0.10250831,3.5166144,-3.3989668,5.814922,-0.9605169,0.25943518,-1.1735082,1.0772526
7.0968885,53.544754,16.889753,6.225905,0.5557188,0.111394405,0.25178093,-0.52277577,-0.6925294,-0.43201637,0.7567869,-0.5850094,0.40980282,0.5153182,0.24452977,-1.145181,-2.1214337,-1.0611117,1.7974929,1.9113877,-0.8343886,0.28739265,-1.0879748,-2.0859911,-1.123048,1.8474545,1.8742292,-0.8827093,-0.936055,-1.2141453,-0.7669105,1.3701968,-0.85245055,0.37786496,0.32388163,-0.4314003,-0.46069336,0.6464062,-1.0338057,0.24202105,-0.6169546,-0.41236115,-0.47009277,0.60426134,0.95825005,0.047274306,0.18996103,0.20841461,-1.0786896,0.42999592,-0.62284285,0.0,1.0,0.0,0.0,0.0,0.0,0.0,-0.21859968,0.060693353,-0.09640616,2.1643162,-3.7664652,3.6746144,-1.5813351,0.5879998,-1.7009139,1.0929465
11.658029,56.481632,18.733624,5.2528267,0.5292828,0.08882451,0.2697939,-0.4907357,-0.70324564,-0.38831034,0.74490005,-0.54576784,0.41167283,0.50977546,0.23831907,-1.1582993,-2.1248221,-1.048558,1.7928778,1.9153965,-0.8317318,0.27826786,-1.1003478,-2.0933418,-1.1095039,1.8391154,1.8779061,-0.87940454,-0.9049776,-1.2455959,-0.72306806,1.3492501,-0.8289972,0.36379847,0.33273122,-0.44151688,-0.45827866,0.6400549,-1.0037225,0.24093223,-0.6406393,-0.4229622,-0.46582413,0.597932,0.9595621,0.050968576,0.19082049,0.20057459,-1.0487704,0.43309277,-0.63949245,0.0,1.0,0.0,0.0,0.0,0.0,0.0,-0.2084831,0.05827865,-0.09005487,3.0062437,-3.2634258,4.7150493,-2.0630121,1.9770622,-1.5198112,0.88831186
12.643105,55.932808,17.786585,4.248131,0.36164242,-0.030391872,0.2950446,-0.46978515,-0.7090147,-0.41254252,0.7207297,-0.53595847,0.34507644,0.5292163,0.23128934,-1.1712493,-2.134596,-1.0374309,1.7855195,1.9124137,-0.8264829,0.269484,-1.1129706,-2.1004677,-1.096244,1.8310223,1.8814065,-0.8760088,-0.8698543,-1.2681999,-0.70818305,1.3184373,-0.80384976,0.34501895,0.34177715,-0.4513321,-0.45589066,0.63343143,-0.9741044,0.23785274,-0.6687112,-0.43325424,-0.4615593,0.591392,0.96077657,0.05473473,0.19134748,0.1931283,-1.0170612,0.4310555,-0.6620305,0.0,1.0,0.0,0.0,0.0,0.0,0.0,-0.19866788,0.05589065,-0.08343142,3.4125924,-2.375269,1.7924428,-3.0513763,2.1682143,-1.9931674,0.8917928
13.525068,60.543133,19.591255,5.0629873,0.551536,0.015708327,0.262564,-0.4568265,-0.7139582,-0.36566907,0.7107746,-0.47645283,0.307714,0.53290564,0.22380136,-1.1843665,-2.1370347,-1.0251665,1.7833769,1.9121779,-0.82271826,0.26103586,-1.1257575,-2.107334,-1.0832874,1.8233166,1.8847045,-0.87252975,-0.83681124,-1.2825319,-0.67828697,1.2881324,-0.76052994,0.3243796,0.34994107,-0.4608345,-0.453537,0.62659025,-0.9417743,0.23442127,-0.6881904,-0.44322205,-0.4573021,0.58470315,0.9619146,0.05851693,0.19151525,0.18605883,-0.98500264,0.4300282,-0.67426264,0.0,1.0,0.0,0.0,0.0,0.0,0.0,-0.18916547,0.05353698,-0.07659024,3.1992793,-1.5538216,3.3185601,-3.017068,3.9551377,-2.1860838,0.8090675
3.6687765,56.28178,15.382127,6.549023,0.7609957,-0.014696121,0.19548966,-0.47834718,-0.7244434,-0.40949047,0.67383546,-0.42098278,0.12366248,0.5497422,0.21320114,-1.1982018,-2.148283,-1.0159038,1.7812183,1.8970708,-0.81755555,0.25272983,-1.1386702,-2.114166,-1.0707275,1.8161536,1.887672,-0.8689667,-0.82870394,-1.2946658,-0.68408906,1.2454547,-0.7024799,0.2871714,0.3584449,-0.4700775,-0.4512062,0.6194558,-0.9183316,0.23282781,-0.7216435,-0.4529915,-0.45300674,0.57781297,0.96301687,0.06245131,0.19122617,0.17925096,-0.9686069,0.43510234,-0.6971227,0.0,1.0,0.0,0.0,0.0,0.0,0.0,-0.17992246,0.0512062,-0.0694558,0.75519085,-1.3328314,-0.33619404,-4.18756,5.4957747,-3.8624704,0.8609414
1.8340616,58.970272,16.158148,7.7928967,1.115622,0.020072937,0.13390216,-0.47275236,-0.7299795,-0.3704489,0.65755856,-0.30789885,-0.019189835,0.56743103,0.20545459,-1.2116681,-2.151211,-1.0049716,1.7853638,1.8857529,-0.8122236,0.24444346,-1.1516879,-2.120941,-1.0585928,1.8098267,1.8901802,-0.86531323,-0.82879025,-1.3045461,-0.6745679,1.2032071,-0.6104061,0.23814735,0.367717,-0.47909164,-0.44888306,0.61201364,-0.89574426,0.23186752,-0.75080884,-0.46264267,-0.4486313,0.5707559,0.9641349,0.06649972,0.1903313,0.1726145,-0.95838445,0.4442027,-0.71157104,0.0,1.0,0.0,0.0,0.0,0.0,0.0,-0.17090833,0.04888305,-0.062013626,-0.05888939,-1.1102438,1.2062669,-4.1432858,8.884239,-5.0643444,0.96075535
-9.204781,59.615078,14.774174,10.885372,2.014701,0.17533094,-0.027390942,-0.5235412,-0.7347388,-0.3443013,0.6051221,-0.03111351,-0.26229444,0.5799138,0.19208933,-1.2251618,-2.155371,-0.9980806,1.8067154,1.8639507,-0.80732185,0.23588254,-1.1647933,-2.1275096,-1.047019,1.8051276,1.8920456,-0.8615653,-0.8652161,-1.3130372,-0.6501091,1.1425346,-0.42402908,0.16842315,0.37750077,-0.48794556,-0.4465332,0.6042562,-0.881903,0.23595358,-0.7830351,-0.47236252,-0.44403458,0.5636112,0.96539,0.07047337,0.18844141,0.1659676,-0.97133607,0.47062996,-0.7183672,0.0,1.0,0.0,0.0,0.0,0.0,0.0,-0.16205442,0.046533197,-0.0542562,-3.6535501,-0.97494125,2.6592374,-5.940199,18.331415,-7.1839304,1.0774136
0.32957578,67.9118,20.614199,9.295586,2.4025989,0.29855,-0.026418742,-0.5098233,-0.73332286,-0.23026891,0.5442115,0.2221026,-0.35174903,0.57699496,0.1849002,-1.2381256,-2.1505365,-0.9925979,1.8273379,1.8568708,-0.8038658,0.22701478,-1.1779501,-2.1333117,-1.0362309,1.80288,1.8931935,-0.85772884,-0.8941524,-1.3168573,-0.55625415,1.0576543,-0.15956923,0.09611841,0.3860126,-0.4966011,-0.44415665,0.596332,-0.8598868,0.23827188,-0.79448056,-0.4821434,-0.43917847,0.5565708,0.966883,0.073894076,0.18518078,0.15932617,-0.97565407,0.49702495,-0.70209974,0.0,1.0,0.0,0.0,0.0,0.0,0.0,-0.15339887,0.04415664,-0.046332,-2.9494882,-0.49741268,9.670412,-8.452511,26.078314,-7.444672,0.9613514
27.824274,76.76956,30.227747,1.8372278,1.874622,0.29444385,0.2049634,-0.457195,-0.7440561,-0.04726962,0.4516336,0.3321024,-0.37083918,0.5543292,0.18129528,-1.2523558,-2.1380386,-0.9910676,1.8360903,1.8561096,-0.8022959,0.21817254,-1.19117,-2.137378,-1.0265874,1.803281,1.893678,-0.8538343,-0.88139814,-1.3240112,-0.35521147,0.93272716,0.105261445,0.032168094,0.39072737,-0.504879,-0.44182968,0.5885333,-0.81656235,0.23052973,-0.77414894,-0.49168015,-0.434227,0.54985154,0.9686208,0.07616454,0.18041267,0.153049,-0.9402449,0.5003792,-0.6646849,0.0,1.0,0.0,0.0,0.0,0.0,0.0,-0.14512098,0.041829675,-0.03853327,1.1302948,-0.80246925,20.49868,-12.627435,26.050207,-6.518098,0.5222559
52.993996,92.61502,41.320972,-0.65008783,1.5227742,0.20640022,0.30377758,-0.38754693,-0.7389124,0.16122496,0.46148995,0.36531907,-0.42839774,0.5539055,0.17941785,-1.2650613,-2.1212554,-0.98043835,1.8398129,1.8508382,-0.79844373,0.20986365,-1.2044222,-2.1386635,-1.017949,1.8059342,1.8935635,-0.8499051,-0.81469846,-1.326141,-0.05095644,0.84018224,0.31714803,-0.025988832,0.39347446,-0.5125427,-0.43967056,0.5813049,-0.75000215,0.21084201,-0.7059751,-0.50061417,-0.42943573,0.5437793,0.9705509,0.07674553,0.17436752,0.14743493,-0.8726184,0.4775468,-0.59088063,0.0,1.0,0.0,0.0,0.0,0.0,0.0,-0.13745725,0.039670557,-0.031304896,6.481278,-0.30293465,30.942982,-9.495867,20.722979,-5.8242483,0.22565126
50.37448,87.32542,37.559647,0.2356391,1.2564694,-0.051837206,0.25614032,-0.36494598,-0.74635,0.15674217,0.45077235,0.44577652,-0.48579323,0.5469767,0.17336905,-1.2790573,-2.1229894,-0.9728718,1.8505118,1.8449842,-0.7952074,0.20232391,-1.2177165,-2.1373823,-1.0099782,1.810392,1.8928945,-0.84596163,-0.73415715,-1.3308072,0.18913199,0.7822875,0.48734358,-0.08034865,0.39438298,-0.5195885,-0.43772507,0.5746857,-0.69025326,0.18934128,-0.6485947,-0.50893784,-0.42492676,0.5383229,0.97261196,0.075759895,0.16731861,0.14244556,-0.81476945,0.44706476,-0.5334728,0.0,1.0,0.0,0.0,0.0,0.0,0.0,-0.1304115,0.03772506,-0.02468568,7.930553,-0.56681633,24.440014,-5.91141,16.672546,-5.418295,0.036263466
49.22707,97.28508,39.188328,4.600348,1.2331866,-0.12279567,0.16198328,-0.30560598,-0.7015114,0.24763845,0.48566872,0.49435112,-0.44364682,0.575575,0.17176332,-1.2878675,-2.1126184,-0.9614113,1.8598272,1.8485298,-0.7884041,0.19573,-1.230839,-2.134008,-1.0021561,1.8162274,1.8917768,-0.8419933,-0.6347633,-1.3064717,0.38813058,0.78198725,0.6145404,-0.12200089,0.3973489,-0.52601624,-0.43601227,0.5687823,-0.62810004,0.16552904,-0.57363755,-0.5166931,-0.42074203,0.5335414,0.9747214,0.07343006,0.1596923,0.13792986,-0.7596679,0.41323805,-0.4628536,0.0,1.0,0.0,0.0,0.0,0.0,0.0,-0.12398374,0.036012262,-0.018782318,9.856415,2.3153305,20.32457,-0.08459091,12.429512,-4.1157694,0.21596551
38.788425,97.33861,36.244022,7.5347047,1.2504627,-0.017385215,0.11004262,-0.295446,-0.6850769,0.33207884,0.45147297,0.5420145,-0.39069113,0.567489,0.1661854,-1.2993467,-2.1008,-0.95700884,1.8704289,1.8527077,-0.78524435,0.18997802,-1.2436297,-2.1289272,-0.9943179,1.8230948,1.8903373,-0.838003,-0.5554478,-1.2704117,0.5493541,0.7845802,0.71002114,-0.15088303,0.39941934,-0.53186417,-0.4345131,0.5636018,-0.57196367,0.14504929,-0.50301373,-0.52396774,-0.41682053,0.5294206,0.9768204,0.06997553,0.15176727,0.1337606,-0.71425456,0.38912845,-0.3983407,0.0,1.0,0.0,0.0,0.0,0.0,0.0,-0.11813581,0.034513086,-0.01360178,7.900083,3.4855127,16.462046,0.29027462,9.331787,-2.8169155,0.15301108
33.693306,107.123375,38.092506,11.854979,1.457542,0.17230964,0.02123852,-0.2520937,-0.64107233,0.45318216,0.48761585,0.5704143,-0.25934884,0.56058323,0.16476865,-1.3077369,-2.083609,-0.9455563,1.8801363,1.8644024,-0.78194463,0.18497652,-1.2558997,-2.1222188,-0.98624325,1.8307139,1.8887522,-0.83399934,-0.48170143,-1.2129103,0.7122782,0.8154265,0.77843314,-0.16064453,0.4004723,-0.5371399,-0.43320847,0.5592753,-0.5147353,0.12621655,-0.41364944,-0.5308075,-0.41308594,0.52607155,0.97886556,0.065425195,0.14383365,0.12982132,-0.6723265,0.37344787,-0.31707543,0.0,1.0,0.0,0.0,0.0,0.0,0.0,-0.11286008,0.03320846,-0.009275317,7.3843837,5.6223392,16.609514,3.1695127,6.6652775,-0.8770436,0.057518482
