Afshin1997/kuka_rl_ros2/src/catch_and_throw/input_files/idealpd/recorded_trajectories/env_306_data.csv
torque0,torque1,torque2,torque3,torque4,torque5,torque6,action0,action1,action2,action3,action4,action5,action6,set_target_0,set_target_1,set_target_2,set_target_3,set_target_4,set_target_5,set_target_6,joint_pos_0,joint_pos_1,joint_pos_2,joint_pos_3,joint_pos_4,joint_pos_5,joint_pos_6,joint_vel_0,joint_vel_1,joint_vel_2,joint_vel_3,joint_vel_4,joint_vel_5,joint_vel_6,tennisball_pos_0,tennisball_pos_1,tennisball_pos_2,tennisball_lin_vel_0,tennisball_lin_vel_1,tennisball_lin_vel_2,end_effector_pos_0,end_effector_pos_1,end_effector_pos_2,end_effector_rot_0,end_effector_rot_1,end_effector_rot_2,end_effector_rot_3,end_effector_lin_vel_0,end_effector_lin_vel_1,end_effector_lin_vel_2,obs_task_0,obs_task_1,obs_task_2,obs_task_3,obs_task_4,obs_task_5,obs_task_6,to_final_target_0,to_final_target_1,to_final_target_2,joint_acc_0,joint_acc_1,joint_acc_2,joint_acc_3,joint_acc_4,joint_acc_5,joint_acc_6
0.0,0.0,0.0,0.0,0.0,0.0,0.0,0.0,0.0,0.0,0.0,0.0,0.0,0.0,1.7802359,-1.0646509,-1.8151424,-1.1170107,1.9373155,1.1170107,-0.91629785,1.7802359,-1.0646509,-1.8151424,-1.1170107,1.9373155,1.1170107,-0.91629785,0.0,0.0,0.0,0.0,0.0,0.0,0.0,3.2957325,-0.4999771,0.32740986,-3.9159212,0.14858754,5.3724804,0.5304165,-0.45448303,0.693097,0.5745483,0.17512383,0.15255436,0.7848268,0.0,0.0,0.0,1.0,0.0,0.0,0.0,0.0,0.0,0.0,-3.9457326,0.099977106,0.22259015,0.0,0.0,0.0,0.0,0.0,0.0,0.0
0.0,0.0,0.0,0.0,0.0,0.0,0.0,0.0,0.0,0.0,0.0,0.0,0.0,0.0,1.7802359,-1.0646509,-1.8151424,-1.1170107,1.9373155,1.1170107,-0.91629785,1.7802359,-1.0646509,-1.8151424,-1.1170107,1.9373155,1.1170107,-0.91629785,0.0,0.0,0.0,0.0,0.0,0.0,0.0,3.2957325,-0.4999771,0.32740986,-3.9159212,0.14858754,5.3724804,0.5304165,-0.45448303,0.693097,0.5745483,0.17512383,0.15255436,0.7848268,0.0,0.0,0.0,1.0,0.0,0.0,0.0,0.0,0.0,0.0,-3.9457326,0.099977106,0.22259015,0.0,0.0,0.0,0.0,0.0,0.0,0.0
0.0,0.0,0.0,0.0,0.0,0.0,0.0,0.0,0.0,0.0,0.0,0.0,0.0,0.0,1.7802359,-1.0646509,-1.8151424,-1.1170107,1.9373155,1.1170107,-0.91629785,1.7802359,-1.0646509,-1.8151424,-1.1170107,1.9373155,1.1170107,-0.91629785,0.0,0.0,0.0,0.0,0.0,0.0,0.0,3.2957325,-0.4999771,0.32740986,-3.9159212,0.14858754,5.3724804,0.5304165,-0.45448303,0.693097,0.5745483,0.17512383,0.15255436,0.7848268,0.0,0.0,0.0,1.0,0.0,0.0,0.0,0.0,0.0,0.0,-3.9457326,0.099977106,0.22259015,0.0,0.0,0.0,0.0,0.0,0.0,0.0
-176.0,79.31111,-1.8841171,110.0,11.035858,5.1619616,-3.8211803,-0.8167491,0.40570983,-0.5471995,0.73678625,0.36129594,0.6257655,-0.5728193,1.698561,-1.0240799,-1.8698623,-1.0433321,1.973445,1.1795872,-0.97357976,1.7786871,-1.062137,-1.8207386,-1.1129805,1.9434476,1.1221186,-0.9187984,-0.20623259,0.33450907,-0.7455454,0.5376712,0.8166572,0.678917,-0.3328759,3.2566032,-0.498497,0.38035792,-3.912006,0.14843898,5.268923,0.52825737,-0.45755005,0.69395727,0.5784202,0.17378192,0.15081638,0.7826137,-0.2874413,-0.4091532,0.11443174,1.0,0.0,0.0,0.0,0.0,0.0,0.0,-3.9066033,0.098497,0.16964209,-20.5817,33.25217,-74.32809,53.818615,81.37625,67.28861,-33.133873
-176.0,24.80918,-25.046698,110.0,12.07543,3.3675082,-3.4363062,-0.8112642,0.12154703,-0.5580049,0.70880586,0.49419674,0.6120898,-0.5778345,1.6975607,-1.0499823,-1.876539,-1.0421,1.9928672,1.1833276,-0.9765818,1.7761027,-1.0573915,-1.8351963,-1.1019713,1.9576707,1.1351668,-0.922985,-0.2744106,0.5192536,-1.6791495,1.2903821,1.6226691,1.5062759,-0.44410455,3.2175121,-0.4970169,0.43227118,-3.908095,0.14829056,5.1654687,0.52329636,-0.4652481,0.69537807,0.58714896,0.17057739,0.14638764,0.7776439,-0.56708556,-0.8876988,0.15176912,1.0,0.0,0.0,0.0,0.0,0.0,0.0,-3.8675122,0.0970169,0.11772883,-6.3339205,17.899727,-93.40422,75.81848,80.146286,80.6087,-10.151082
-164.2874,124.3619,31.071716,99.00324,8.066417,7.5965357,-2.2650816,-0.7698308,0.43121377,-0.14020263,0.61899227,0.47095686,0.6575989,-0.5522435,1.6991196,-1.0142702,-1.8492165,-1.0400721,2.0047665,1.2009267,-0.9782094,1.7701479,-1.0508913,-1.8510749,-1.0872122,1.9739556,1.1500593,-0.92760366,-0.70290476,0.6902655,-1.5507567,1.538342,1.6262743,1.4751531,-0.46992522,3.178461,-0.4955368,0.48315066,-3.9041877,0.1481423,5.062118,0.51540565,-0.4756775,0.69854087,0.5990524,0.16586389,0.14094408,0.77055824,-0.8703533,-1.0884116,0.37526092,1.0,0.0,0.0,0.0,0.0,0.0,0.0,-3.8284612,0.0955368,0.06684935,-43.001865,16.055214,14.837933,25.01495,-0.92453957,-5.620861,-3.2483041
-104.22065,136.8097,47.00229,66.70747,4.50884,7.974849,-0.96544933,-0.7816323,0.4159606,-0.08515682,0.6113459,0.47267768,0.62147975,-0.55979335,1.6919847,-1.0092952,-1.8595906,-1.0260776,2.0212233,1.2122073,-0.983583,1.7601115,-1.0433267,-1.8630683,-1.0718523,1.988585,1.1638266,-0.9323234,-1.1056464,0.77575046,-1.074401,1.535425,1.4043242,1.3383913,-0.47611895,3.1394482,-0.4940567,0.5329974,-3.9002843,0.14799418,4.9588704,0.50499344,-0.4867859,0.70387805,0.61231726,0.15966675,0.13534784,0.76240087,-1.1098577,-1.1093329,0.59222054,1.0,0.0,0.0,0.0,0.0,0.0,0.0,-3.7894483,0.094056696,0.017002583,-40.73869,7.713604,49.97461,-0.25453568,-23.451256,-15.268302,-1.6386569
-46.712944,138.03976,52.506935,38.425,1.590968,6.8750205,-0.12972143,-0.79839146,0.4864118,-0.095476046,0.6134883,0.5224914,0.62069225,-0.552959,1.6802723,-0.99468553,-1.8726159,-1.0105035,2.0408342,1.2258958,-0.9876193,1.7468497,-1.035024,-1.869992,-1.0575052,2.000729,1.1760718,-0.93705076,-1.4014977,0.84651566,-0.55840164,1.400826,1.1480557,1.1840132,-0.47470018,3.1004753,-0.4925766,0.5818125,-3.8963847,0.1478462,4.8557267,0.49284363,-0.49729156,0.71107924,0.62571365,0.1521387,0.12991506,0.75396174,-1.2626345,-1.0161073,0.7671086,1.0,0.0,0.0,0.0,0.0,0.0,0.0,-3.7504754,0.09257659,-0.03181249,-30.109787,6.506872,53.57804,-13.599658,-26.537968,-16.200184,-0.80243945
-5.3459435,126.53519,48.79702,19.11919,-0.22839236,5.005425,0.20928368,-0.81198215,0.5465133,-0.097048305,0.62607807,0.54097587,0.61707777,-0.5604233,1.6656514,-0.9803727,-1.8796968,-0.9948974,2.0548267,1.2377795,-0.9930931,1.7316405,-1.0260004,-1.872813,-1.0446059,2.0107312,1.186915,-0.9417476,-1.562072,0.91965675,-0.18535744,1.2522541,0.9493711,1.050045,-0.47043225,3.0615406,-0.4910965,0.6295969,-3.892489,0.14769839,4.752686,0.47975826,-0.50655365,0.719615,0.63864845,0.1436731,0.12489976,0.74557775,-1.3347774,-0.8808645,0.88434637,1.0,0.0,0.0,0.0,0.0,0.0,0.0,-3.7115407,0.09109649,-0.07959688,-16.491652,6.9494843,38.687534,-15.078092,-20.40031,-13.656998,-0.30103922
19.239101,114.1102,43.053963,8.338041,-1.1452992,3.360848,0.2816736,-0.81759566,0.59838086,-0.07942802,0.6245916,0.5567655,0.6150748,-0.5582538,1.6498809,-0.9661623,-1.8807558,-0.9821467,2.0664077,1.2484225,-0.997573,1.7156512,-1.0161909,-1.8731735,-1.0329348,2.0193295,1.1965872,-0.94639105,-1.6122885,1.0006648,0.016712254,1.1378659,0.82910997,0.9396316,-0.4642994,3.022645,-0.4896164,0.67635167,-3.8885972,0.14755072,4.6497483,0.4663658,-0.5144501,0.72899485,0.650944,0.13468562,0.12046288,0.7373061,-1.3497597,-0.74180096,0.9560579,1.0,0.0,0.0,0.0,0.0,0.0,0.0,-3.672645,0.08961639,-0.12635165,-5.3583384,7.8638554,21.138031,-11.693311,-12.309742,-11.056793,0.043159723
28.773409,102.610886,37.099976,4.2393866,-1.3719263,2.2194536,0.22543862,-0.8220236,0.6403094,-0.060957935,0.6152294,0.5637228,0.6217591,-0.55013436,1.6334488,-0.95215994,-1.8792692,-0.9714118,2.0757017,1.2587631,-1.0014045,1.6996542,-1.0055593,-1.8725193,-1.0220724,2.027203,1.2053114,-0.9509658,-1.5963256,1.0834007,0.08382322,1.068273,0.7730227,0.85034937,-0.45676103,2.9837885,-0.4881363,0.72207785,-3.8847096,0.1474032,4.5469136,0.4530344,-0.52106476,0.73886746,0.66263556,0.1254883,0.11666672,0.72907865,-1.3346456,-0.6188845,0.9969019,1.0,0.0,0.0,0.0,0.0,0.0,0.0,-3.6337886,0.088136286,-0.17207783,1.3380766,8.11193,7.3526883,-7.2160006,-5.754137,-8.860361,0.29079914
31.217499,94.7269,33.390232,3.400051,-1.2065635,1.6577232,0.20936593,-0.8187452,0.6691238,-0.015116743,0.5967986,0.58466154,0.6249796,-0.5510523,1.6177797,-0.9386469,-1.874031,-0.96239257,2.0856693,1.2678094,-1.0060711,1.6840388,-0.99417055,-1.8716323,-1.0116678,2.0348783,1.2132689,-0.9554691,-1.5505245,1.1570333,0.09211049,1.0302156,0.7652625,0.77779627,-0.44950736,2.9449701,-0.4866562,0.76677644,-3.8808258,0.14725582,4.4441814,0.4399233,-0.5265808,0.7490449,0.6737897,0.11624254,0.11340909,0.720856,-1.3089504,-0.5130498,1.0234438,1.0,0.0,0.0,0.0,0.0,0.0,0.0,-3.5949702,0.08665618,-0.21677643,4.370475,7.2407722,1.3347461,-4.0560484,-0.8598566,-7.1867943,0.32231212
25.458158,85.9275,29.000164,5.514142,-0.77649987,1.3400154,0.12999424,-0.8179652,0.6889212,-0.009932386,0.5962934,0.58946204,0.63227326,-0.5444534,1.6022422,-0.9252784,-1.8726256,-0.9520385,2.0938244,1.2764962,-1.0099144,1.6688887,-0.98216665,-1.8709095,-1.001433,2.042645,1.2206026,-0.9598989,-1.5035672,1.2145141,0.0671364,1.0203334,0.780158,0.71886635,-0.44202772,2.9061909,-0.48519135,0.81044847,-3.8769457,0.1471086,4.341552,0.42702866,-0.53121185,0.75940657,0.6845119,0.107028164,0.11055718,0.7125767,-1.2874156,-0.43054345,1.0388824,1.0,0.0,0.0,0.0,0.0,0.0,0.0,-3.556191,0.08519134,-0.26044846,4.526329,5.6504965,-2.0903559,-1.2198925,1.448071,-5.8626175,0.40166974
21.432775,82.64509,27.73938,7.273574,-0.40792012,1.3834006,0.1519005,-0.81462693,0.7067764,0.035592295,0.5802572,0.60812837,0.63835967,-0.54430276,1.587426,-0.911489,-1.8673502,-0.9434073,2.103458,1.2844386,-1.0143292,1.6541239,-0.9697021,-1.8702819,-0.9912523,2.0506558,1.2274328,-0.964261,-1.4678035,1.2566884,0.06257931,1.0165915,0.80802274,0.67083424,-0.43538728,2.8674507,-0.4837265,0.85309494,-3.8730695,0.14696153,4.239025,0.41427994,-0.5350952,0.76992464,0.69484615,0.09782427,0.10792728,0.704252,-1.2739984,-0.35782218,1.0544229,1.0,0.0,0.0,0.0,0.0,0.0,0.0,-3.5174508,0.083726496,-0.30309492,3.414297,4.1236877,-0.038325787,-0.5916357,2.7385354,-4.817748,0.3352046
17.990492,80.052505,26.667837,8.416367,-0.19270372,1.4357963,0.17387807,-0.811533,0.722418,0.060131356,0.5644554,0.6131532,0.6432681,-0.5371261,1.5729706,-0.89746034,-1.8642688,-0.93480676,2.1119711,1.2917596,-1.0179737,1.639609,-0.95690477,-1.8695419,-0.9811386,2.0589414,1.2338492,-0.9685592,-1.4464164,1.2871342,0.07932285,1.0090039,0.83527476,0.63182384,-0.42899433,2.8287487,-0.48226166,0.8947169,-3.8691971,0.1468146,4.1366005,0.40161324,-0.53829193,0.7805873,0.70479614,0.08859051,0.10538476,0.6959225,-1.2669352,-0.28990164,1.0685227,1.0,0.0,0.0,0.0,0.0,0.0,0.0,-3.4787488,0.08226165,-0.3447169,1.9745111,2.953434,2.1137311,-0.967288,2.6710153,-3.93579,0.31930208
14.7290325,75.84215,24.680845,8.984029,-0.0643844,1.3543189,0.17059812,-0.8087226,0.7325878,0.05997495,0.5525633,0.62511796,0.64234287,-0.5299994,1.5587367,-0.883646,-1.8635443,-0.9258823,2.121453,1.2980834,-1.0215591,1.6252218,-0.9438757,-1.8686111,-0.9711422,2.0674863,1.2399279,-0.9727945,-1.4367484,1.3079184,0.09920929,0.9958826,0.8605916,0.5998526,-0.42271337,2.7900858,-0.4807968,0.93531543,-3.8653286,0.14666781,4.0342784,0.3889904,-0.5408478,0.79134184,0.7143728,0.07932517,0.10287279,0.68760175,-1.2631629,-0.2280386,1.075906,1.0,0.0,0.0,0.0,0.0,0.0,0.0,-3.440086,0.08079681,-0.38531542,0.8036375,1.9976854,2.418281,-1.5201926,2.4889588,-3.2236576,0.3230095
13.355135,71.52644,22.748207,8.318159,-0.073686,1.2084846,0.19167817,-0.8098033,0.7391319,0.064798884,0.5234336,0.6420627,0.6456129,-0.52889234,1.5442415,-0.86996245,-1.8621312,-0.9187988,2.1316926,1.3044891,-1.0256838,1.6108595,-0.93069494,-1.8674877,-0.9613956,2.0762753,1.2457358,-0.9769725,-1.4365448,1.3212811,0.11808235,0.9667901,0.88510674,0.57436544,-0.4171173,2.751462,-0.47933197,0.9748915,-3.8614638,0.14652117,3.932059,0.37640667,-0.54280853,0.8021016,0.7235702,0.070066534,0.100380205,0.67930895,-1.2582755,-0.16929494,1.0738019,1.0,0.0,0.0,0.0,0.0,0.0,0.0,-3.401462,0.079331964,-0.42489147,-0.14717579,1.2692451,2.3079932,-3.1283736,2.4199367,-2.538979,0.26689768
13.57556,70.45274,22.193596,8.185629,-0.1144256,1.1477892,0.19574758,-0.804046,0.74818426,0.078413926,0.5146303,0.6436328,0.65336275,-0.5187779,1.5304549,-0.8558765,-1.8596463,-0.9099326,2.1406386,1.311072,-1.0288503,1.5964934,-0.91739786,-1.8661621,-0.95195043,2.0852628,1.25133,-0.98109335,-1.437191,1.3322587,0.13871448,0.93632334,0.9031133,0.55455697,-0.41137612,2.7128763,-0.47786713,1.0134461,-3.8576033,0.14637467,3.8299422,0.3638792,-0.5441818,0.81282705,0.7323846,0.06081313,0.0979163,0.67106396,-1.2514261,-0.110622145,1.0696194,1.0,0.0,0.0,0.0,0.0,0.0,0.0,-3.3628764,0.07786712,-0.46344608,-0.22966862,1.0375977,2.4765015,-3.2636642,1.7819524,-1.9535303,0.28557777
12.450236,67.16055,20.428074,8.029339,-0.16235769,0.9699164,0.16211481,-0.8063504,0.7536642,0.06376617,0.49673757,0.64477843,0.6532507,-0.51345557,1.5158583,-0.8420314,-1.8597854,-0.9022767,2.1497407,1.316655,-1.0324389,1.5821043,-0.9040054,-1.8647525,-0.9428295,2.09438,1.2567545,-0.9851579,-1.4400982,1.3414828,0.1430816,0.90337265,0.9149583,0.5388071,-0.40574768,2.6743288,-0.47640228,1.0509803,-3.8537467,0.14622833,3.7279274,0.35144138,-0.54499054,0.823458,0.74084175,0.051593453,0.09554037,0.66284513,-1.2419767,-0.05619551,1.058407,1.0,0.0,0.0,0.0,0.0,0.0,0.0,-3.324329,0.07640228,-0.5009803,-0.45104027,0.8750677,0.8132249,-3.5167933,1.1874676,-1.5199423,0.2926886
13.267112,66.96283,19.975487,7.716691,-0.28486127,0.86558133,0.1438739,-0.8026346,0.7669299,0.05528063,0.47796434,0.6440412,0.6589953,-0.5033461,1.5018408,-0.8273124,-1.8592244,-0.89503306,2.158784,1.322654,-1.0354925,1.5677038,-0.890488,-1.8633907,-0.93404615,2.1035733,1.2620512,-0.9891643,-1.4405345,1.3549836,0.13490899,0.86922824,0.9210779,0.5268036,-0.39985815,2.6358194,-0.47493744,1.0874952,-3.8498938,0.14608213,3.6260147,0.33912182,-0.5452728,0.8339656,0.7489636,0.042418197,0.093323804,0.6546333,-1.2280052,-0.001207616,1.0452578,1.0,0.0,0.0,0.0,0.0,0.0,0.0,-3.2858195,0.07493743,-0.5374952,-0.20244122,1.308608,-0.456959,-3.6370754,0.6272197,-1.1273265,0.3264308
13.877785,62.312714,18.19988,6.2588024,-0.37225732,0.62976766,0.16887555,-0.8054601,0.75984746,0.05036895,0.43868977,0.6529091,0.6595203,-0.5082468,1.4871578,-0.8145033,-1.8583537,-0.8901772,2.1688643,1.3280033,-1.039989,1.5532919,-0.8768934,-1.8621585,-0.92570436,2.1128278,1.2672468,-0.99312204,-1.441906,1.3608831,0.12049965,0.82173765,0.92719793,0.51772,-0.39513797,2.5973501,-0.4734726,1.1229917,-3.8460448,0.14593609,3.5242035,0.32698154,-0.5450058,0.84426945,0.7567442,0.03334919,0.091295734,0.64644486,-1.208144,0.04969782,1.0224218,1.0,0.0,0.0,0.0,0.0,0.0,0.0,-3.2473502,0.07347259,-0.57299167,-0.2929926,0.564909,-1.1039689,-4.986596,0.63523054,-0.7864237,0.22277832
15.228655,62.35605,18.430164,5.922653,-0.3885425,0.5919343,0.20915484,-0.8049576,0.76211137,0.07053524,0.4146664,0.6575638,0.65656924,-0.5023817,1.4727962,-0.80068225,-1.855105,-0.8842377,2.178584,1.3329037,-1.0433602,1.5388705,-0.8632616,-1.8609626,-0.9178604,2.1221433,1.2723662,-0.99703306,-1.4425368,1.3638815,0.12040355,0.7711014,0.93307096,0.5102443,-0.3906809,2.558919,-0.47200775,1.1574708,-3.8421996,0.14579017,3.4224944,0.3150568,-0.54424286,0.8543537,0.7641594,0.024386909,0.0894242,0.63833284,-1.1854489,0.10116098,1.0006036,1.0,0.0,0.0,0.0,0.0,0.0,0.0,-3.208919,0.072007746,-0.6074708,-0.21634102,0.28057098,0.3310427,-5.2960277,0.61291456,-0.6145835,0.19569993
18.61077,63.93524,19.427525,4.58998,-0.51814693,0.5735088,0.29707578,-0.80389833,0.7662907,0.09922983,0.3663155,0.66537976,0.65826565,-0.5034631,1.4584806,-0.78663254,-1.8510396,-0.88122886,2.1886811,1.3381927,-1.0473794,1.5244528,-0.8496002,-1.8595989,-0.9106344,2.1315274,1.2774225,-1.0009063,-1.4421226,1.36684,0.14297925,0.70577055,0.94031334,0.50464165,-0.38708648,2.520526,-0.47055817,1.1909336,-3.8383582,0.14564441,3.3208869,0.30340576,-0.5429001,0.86422926,0.77115107,0.015512663,0.087665476,0.6303968,-1.1562871,0.15793,0.9799339,1.0,0.0,0.0,0.0,0.0,0.0,0.0,-3.170526,0.07055816,-0.6409336,-0.11355877,0.2818823,2.6177974,-6.7586303,0.7448673,-0.398767,0.10523796
17.862167,64.467445,19.478973,5.510268,-0.456509,0.5700033,0.28643924,-0.8085871,0.7694536,0.11066279,0.34765452,0.6599852,0.6556607,-0.49480456,1.4435941,-0.77265483,-1.8485326,-0.8758689,2.197526,1.3429886,-1.0503868,1.5100199,-0.8359045,-1.8579452,-0.90401685,2.1409574,1.2824274,-1.004742,-1.4442449,1.3705146,0.1737923,0.64637715,0.943798,0.4997873,-0.38320187,2.482171,-0.46910858,1.2233812,-3.8345206,0.1454988,3.2193809,0.2920313,-0.5410156,0.8739225,0.77771837,0.0066934973,0.08599778,0.6226666,-1.1280904,0.2132243,0.9622909,1.0,0.0,0.0,0.0,0.0,0.0,0.0,-3.1321712,0.069108576,-0.67338115,-0.36125183,0.35758018,3.4238906,-6.147504,0.37999153,-0.33013225,0.14627576
20.643017,66.69198,20.571976,4.734717,-0.55875736,0.5672321,0.35299084,-0.8058572,0.7744058,0.15230179,0.30003178,0.66499597,0.6503942,-0.49426082,1.4294342,-0.7584639,-1.842715,-0.87401366,2.207457,1.3474668,-1.0541681,1.4955775,-0.82215536,-1.8558338,-0.8980535,2.1504216,1.2873884,-1.0085434,-1.4447428,1.3763044,0.22475137,0.5790296,0.94741106,0.49549794,-0.3797995,2.4438543,-0.467659,1.2548143,-3.8306868,0.14535333,3.1179764,0.28097343,-0.5385361,0.8834617,0.7838302,-0.0021030912,0.08439596,0.61520976,-1.0946546,0.2733552,0.94737834,1.0,0.0,0.0,0.0,0.0,0.0,0.0,-3.0938544,0.06765899,-0.70481426,-0.19373894,0.57456493,5.4382534,-6.925106,0.39750338,-0.2527356,0.10121465
22.537008,65.91252,20.385057,3.3945327,-0.6996049,0.44166332,0.4048964,-0.8078662,0.77579653,0.18009837,0.24343355,0.66256046,0.651214,-0.4853967,1.4147909,-0.7445757,-1.837824,-0.87371016,2.2166777,1.3525099,-1.057083,1.4811255,-0.8083509,-1.8531597,-0.89286935,2.159905,1.2923151,-1.0123066,-1.4458737,1.3818733,0.28269497,0.49772075,0.9488907,0.49243084,-0.3759246,2.4055758,-0.4662094,1.2852341,-3.8268569,0.14520802,3.0166733,0.27029705,-0.53543854,0.8928264,0.789448,-0.0108610345,0.08285984,0.60810196,-1.0544151,0.3341237,0.92885107,1.0,0.0,0.0,0.0,0.0,0.0,0.0,-3.0555758,0.066209406,-0.7352341,-0.24828911,0.56355,6.112969,-8.309883,0.19667149,-0.08865595,0.16448498
17.987766,63.68546,18.92063,5.951728,-0.45863673,0.37663463,0.29861853,-0.8155185,0.77917707,0.1811553,0.2440914,0.6619648,0.6495578,-0.47304976,1.3995736,-0.7304332,-1.8350441,-0.86846024,2.2261014,1.357271,-1.0596116,1.4666277,-0.7944883,-1.850024,-0.88832223,2.1693997,1.2972132,-1.0160259,-1.451332,1.3877784,0.32460257,0.4398673,0.949505,0.48954052,-0.37105495,2.3673353,-0.46475983,1.3146418,-3.8230307,0.14506283,2.9154713,0.25996017,-0.53180695,0.9020213,0.79464436,-0.019582096,0.081404254,0.60127383,-1.0217988,0.3851681,0.9120379,1.0,0.0,0.0,0.0,0.0,0.0,0.0,-3.0173354,0.06475982,-0.7646418,-0.66890717,0.60641766,4.4422626,-5.9500694,0.14382601,-0.0983119,0.29348135
16.031631,61.538445,17.93193,7.2824287,-0.3119822,0.29053524,0.24143009,-0.81111354,0.7770433,0.19900562,0.23266155,0.66141397,0.6511787,-0.46174753,1.3855164,-0.716784,-1.8301234,-0.8650561,2.235541,1.362331,-1.0622007,1.4521013,-0.78059137,-1.8465374,-0.8842014,2.1788945,1.3020865,-1.0196899,-1.4535297,1.39051,0.35742578,0.4022364,0.9496384,0.4871888,-0.36547333,2.329133,-0.46331024,1.3430382,-3.8192084,0.1449178,2.8143709,0.24991989,-0.52770233,0.9110578,0.79948854,-0.028282754,0.080029696,0.59465384,-0.99271107,0.42953557,0.89627,1.0,0.0,0.0,0.0,0.0,0.0,0.0,-2.9791331,0.063310236,-0.7930382,-0.32567978,0.2986431,3.479296,-3.9185107,0.123119354,-0.054973364,0.38038492
15.820416,58.83875,16.811672,6.6602464,-0.36032423,0.1259813,0.23842704,-0.81608486,0.77881604,0.20988853,0.18611501,0.66546047,0.65224355,-0.45764062,1.3704928,-0.7027098,-1.8255485,-0.8655899,2.2454405,1.3673109,-1.065454,1.4375407,-0.76667345,-1.8427932,-0.8805088,2.1884007,1.3069407,-1.0233005,-1.4571898,1.3923916,0.38066462,0.3578111,0.9511278,0.48556396,-0.35996497,2.290969,-0.46186066,1.3704244,-3.8153899,0.14477292,2.7133715,0.2401886,-0.5231781,0.91990066,0.8040063,-0.036923643,0.078753114,0.5882247,-0.96057296,0.469743,0.8755803,1.0,0.0,0.0,0.0,0.0,0.0,0.0,-2.940969,0.06186065,-0.8204244,-0.4676342,0.22146702,2.4979055,-4.598129,0.2645135,0.03966689,0.38946867
14.7622175,57.089798,16.069857,7.2037487,-0.30571264,0.03957784,0.21255495,-0.8172851,0.77777195,0.22287092,0.17429768,0.6596503,0.65074843,-0.44173375,1.3558122,-0.68889624,-1.8205061,-0.863079,2.2543657,1.3720155,-1.0674739,1.4229456,-0.7527498,-1.8388488,-0.87720335,2.1979032,1.3117796,-1.0268482,-1.4605206,1.3924887,0.39943352,0.3209644,0.95043653,0.4841291,-0.35355902,2.252843,-0.46041107,1.3968014,-3.8115752,0.14462817,2.6124728,0.23076916,-0.5182953,0.9285359,0.80822283,-0.045490324,0.07758813,0.58196783,-0.9293269,0.50572073,0.85460675,1.0,0.0,0.0,0.0,0.0,0.0,0.0,-2.902843,0.060411066,-0.84680134,-0.42703152,0.049996376,2.020818,-3.8360894,0.060725212,0.05774498,0.4907608
15.134974,55.974777,15.685403,6.860053,-0.34344047,-0.05938831,0.21937235,-0.81775796,0.7781415,0.23612006,0.14703025,0.6586882,0.64902186,-0.4354054,1.3411698,-0.67493564,-1.8152368,-0.8625003,2.263772,1.3766818,-1.0703888,1.4083239,-0.73882806,-1.8347232,-0.8742813,2.2073941,1.3166071,-1.0303329,-1.4628752,1.3921425,0.4172842,0.28212124,0.9491083,0.48290986,-0.34719798,2.214755,-0.4589615,1.42217,-3.8077643,0.14448357,2.5116751,0.22167587,-0.5130539,0.9369533,0.8121483,-0.05397054,0.076541856,0.5758852,-0.8955896,0.5398784,0.8323281,1.0,0.0,0.0,0.0,0.0,0.0,0.0,-2.8647552,0.05896148,-0.87217003,-0.3224373,0.011706352,1.9103348,-4.030061,0.0036716461,0.09120703,0.49634576
13.872056,54.930748,15.14822,7.611239,-0.28261876,-0.114374295,0.1892133,-0.82221013,0.7793067,0.24075882,0.1355699,0.6566557,0.6495227,-0.42424092,1.3261029,-0.6608974,-1.8106474,-0.8607243,2.2730596,1.3815594,-1.072757,1.3936678,-0.7249063,-1.8304527,-0.8716997,2.216866,1.3214232,-1.0337528,-1.4667963,1.3923676,0.4308303,0.24970715,0.94717383,0.48186886,-0.34052956,2.1767054,-0.4575119,1.4465315,-3.8039572,0.14433911,2.410978,0.21290684,-0.5074997,0.9451539,0.81580704,-0.062360983,0.07562365,0.569957,-0.8636555,0.57089734,0.8108755,1.0,0.0,0.0,0.0,0.0,0.0,0.0,-2.8267055,0.057511896,-0.8965315,-0.47767162,0.073194504,1.460433,-3.3833652,-0.047039986,0.10026693,0.53747296
18.80717,53.679573,15.109455,3.6929502,-0.6652238,-0.35624415,0.30775195,-0.8174948,0.77934605,0.25837722,0.055286907,0.6554486,0.6514039,-0.41935962,1.3119184,-0.6469717,-1.8046149,-0.866171,2.2824109,1.3865635,-1.0756887,1.3790022,-0.7109808,-1.8260105,-0.869717,2.2263188,1.3262354,-1.0371078,-1.4666805,1.3927598,0.44902852,0.18063872,0.9449568,0.4818753,-0.3341618,2.1386938,-0.45606995,1.4698868,-3.800154,0.14419481,2.310382,0.20457554,-0.5016098,0.9530729,0.81914586,-0.07058279,0.074865535,0.5642812,-0.81539536,0.60380214,0.7803527,1.0,0.0,0.0,0.0,0.0,0.0,0.0,-2.788694,0.05606994,-0.91988677,-0.058555603,0.09756088,1.9237518,-7.0385246,-0.08755922,0.27471185,0.51946044
18.766148,52.378956,14.649811,3.3653374,-0.6889202,-0.45984036,0.3215325,-0.82275695,0.7792798,0.26831907,0.027474307,0.65299654,0.65082747,-0.3926872,1.2967265,-0.63305277,-1.7991786,-0.8669696,2.2916186,1.3913182,-1.0763766,1.3643233,-0.69705236,-1.8213794,-0.8684658,2.235745,1.3310496,-1.0403847,-1.4685887,1.3931799,0.46813583,0.1061847,0.9423886,0.4820791,-0.32593086,2.1007204,-0.45463562,1.4922367,-3.7963545,0.14405064,2.2098863,0.19674015,-0.49541473,0.96067566,0.8221457,-0.07858918,0.07428676,0.558911,-0.7650624,0.6337351,0.7483722,1.0,0.0,0.0,0.0,0.0,0.0,0.0,-2.7507205,0.054635614,-0.9422367,-0.25467873,0.107359886,1.9915998,-7.5693235,-0.113248825,0.30337572,0.7205665
18.464304,51.76343,14.353378,3.6598196,-0.67119247,-0.541756,0.3072004,-0.82009166,0.78239846,0.2701482,0.0017310815,0.6548121,0.64628696,-0.3754719,1.2823141,-0.6188125,-1.7943646,-0.8682927,2.3012261,1.3956783,-1.0779319,1.3496405,-0.6831058,-1.8165939,-0.8679222,2.2451558,1.3358618,-1.0435718,-1.4683883,1.395495,0.48203292,0.036693648,0.9412356,0.48186556,-0.3167929,2.0627851,-0.4532013,1.5135825,-3.792559,0.14390662,2.109491,0.1894083,-0.48892212,0.96796715,0.82482576,-0.086369835,0.073894516,0.5538431,-0.71434,0.66083914,0.7174161,1.0,0.0,0.0,0.0,0.0,0.0,0.0,-2.7127852,0.053201288,-0.96358246,-0.03311634,0.30488968,1.436013,-7.064344,0.043690205,0.2593279,0.82519054
12.707778,52.385925,14.204223,8.862547,-0.19783789,-0.35037267,0.16478789,-0.82448554,0.7832012,0.27966663,0.044353843,0.64488196,0.6551207,-0.34580147,1.2671919,-0.6047857,-1.7886273,-0.8634868,2.309644,1.4013739,-1.078152,1.3349425,-0.66913164,-1.8116786,-0.86768186,2.2545362,1.340674,-1.046656,-1.4705882,1.3982704,0.49486387,0.01938854,0.9373177,0.48172793,-0.305834,2.024888,-0.45176697,1.5339252,-3.788767,0.14376274,2.0091963,0.18244076,-0.48217773,0.9750513,0.82727325,-0.09404614,0.07364912,0.54895353,-0.68258613,0.684549,0.69995755,1.0,0.0,0.0,0.0,0.0,0.0,0.0,-2.6748881,0.05176696,-0.98392516,-0.28541088,0.3568411,1.2887895,-1.851565,-0.18702745,0.18821955,1.0065854
5.655345,50.942596,13.232115,14.691144,0.37085378,-0.1857622,-0.026116855,-0.82527053,0.7802384,0.2661442,0.10492999,0.64195246,0.64751494,-0.3322212,1.2524154,-0.5911078,-1.7850642,-0.8571889,2.3187313,1.4054255,-1.0798781,1.3202177,-0.6551479,-1.8067386,-0.8671459,2.2638707,1.3454748,-1.0496296,-1.4733322,1.398577,0.49355096,0.0644917,0.9329989,0.4799839,-0.29487693,1.9870291,-0.45033264,1.5532656,-3.784979,0.143619,1.9090016,0.17562103,-0.47525787,0.9820561,0.8296191,-0.1017758,0.073494606,0.5440333,-0.6732973,0.70193577,0.69510514,1.0,0.0,0.0,0.0,0.0,0.0,0.0,-2.6370292,0.050332636,-1.0032656,-0.35860538,0.11177063,-0.15423298,4.3672757,-0.1930356,-0.059825182,0.9984195
-1.7114267,51.047546,12.619776,21.196285,0.90328586,0.06142337,-0.2429585,-0.8300512,0.785176,0.24479093,0.19460331,0.620861,0.64639425,-0.3152106,1.2372127,-0.5766303,-1.7822595,-0.8476856,2.3259568,1.4101143,-1.0811507,1.3054453,-0.64114606,-1.8019474,-0.8656601,2.27311,1.3502527,-1.0524925,-1.4788433,1.4009515,0.47427696,0.1760443,0.9214069,0.477065,-0.28378105,1.9492083,-0.44889832,1.5716048,-3.781195,0.14347541,1.808907,0.16871262,-0.46817017,0.9891238,0.83200777,-0.10973721,0.073409155,0.5388244,-0.68770295,0.71744615,0.7050676,1.0,0.0,0.0,0.0,0.0,0.0,0.0,-2.5992084,0.04889831,-1.0216048,-0.66657066,0.31359196,-1.9582868,10.991329,-0.8899212,-0.2832234,1.0002673
-4.444895,49.265797,11.837653,23.481922,1.1180515,0.10415252,-0.33489496,-0.8270482,0.7823722,0.22184631,0.2563902,0.61933196,0.6461114,-0.31371132,1.2227405,-0.5629088,-1.7797627,-0.8400211,2.3350432,1.414864,-1.0838636,1.2906386,-0.6271366,-1.7974613,-0.86284673,2.2822347,1.3550001,-1.0552562,-1.4815782,1.4011505,0.43983153,0.315811,0.9104895,0.47377124,-0.2741396,1.9114246,-0.447464,1.5889438,-3.7774146,0.14333197,1.7089125,0.16159153,-0.46092224,0.9963195,0.8345155,-0.11802419,0.07338292,0.53316873,-0.71111494,0.7312977,0.7186973,1.0,0.0,0.0,0.0,0.0,0.0,0.0,-2.5614247,0.047463983,-1.0389438,-0.3922224,0.08714199,-3.4723163,13.807762,-0.82291365,-0.37043095,0.8464515
1.216116,46.19492,11.220976,17.448015,0.59115386,-0.22591425,-0.17486018,-0.83155435,0.780193,0.21420962,0.20633398,0.6275386,0.6455844,-0.3340728,1.2074832,-0.54911727,-1.7760403,-0.84221333,2.3449886,1.4195585,-1.0886636,1.2757975,-0.61314046,-1.7933147,-0.8591198,2.2912908,1.3597208,-1.0579494,-1.4853282,1.399254,0.4064102,0.39118603,0.9048975,0.47154737,-0.26798862,1.8736782,-0.44602966,1.6052837,-3.773638,0.14318867,1.609018,0.15440273,-0.45357513,1.0035206,0.83707285,-0.1264908,0.0734509,0.5271754,-0.7123512,0.74502414,0.71495175,1.0,0.0,0.0,0.0,0.0,0.0,0.0,-2.5236783,0.046029657,-1.0552838,-0.48015118,-0.13227463,-3.3117115,7.383108,-0.35407543,-0.18203855,0.5028486
6.665668,44.61968,10.988207,11.879003,0.05237645,-0.52952003,-0.019175164,-0.8359926,0.7830969,0.20039275,0.18329594,0.6215829,0.6404303,-0.32479402,1.1921983,-0.53483075,-1.7732754,-0.84079015,2.353449,1.4237639,-1.0904288,1.2609087,-0.59915197,-1.7894847,-0.8550943,2.3002973,1.3644224,-1.0605835,-1.4905733,1.398867,0.37553817,0.40581623,0.8996462,0.47008663,-0.26221037,1.8359699,-0.44459534,1.6206254,-3.7698653,0.14304551,1.5092232,0.14736748,-0.44606018,1.0105758,0.83957946,-0.13493928,0.07368742,0.5210257,-0.6914491,0.75887954,0.69668126,1.0,0.0,0.0,0.0,0.0,0.0,0.0,-2.48597,0.04459533,-1.0706253,-0.621748,0.014972687,-3.0071676,1.320672,-0.3688693,-0.020092726,0.4724741
10.309877,42.904224,10.626678,8.018043,-0.29373175,-0.77883744,0.09220381,-0.83672523,0.78272325,0.1818161,0.17005108,0.622241,0.64083195,-0.29808253,1.1772362,-0.5208796,-1.7713032,-0.8380892,2.3625214,1.4285057,-1.0903918,1.2459723,-0.58516634,-1.78596,-0.8512243,2.3092656,1.3691145,-1.063147,-1.4949435,1.3987366,0.34511575,0.38028428,0.8962989,0.46965408,-0.25466338,1.7982998,-0.443161,1.6349698,-3.7660964,0.1429025,1.4095284,0.14065456,-0.43843842,1.0173745,0.84196466,-0.1432184,0.0741493,0.51486486,-0.655273,0.7703818,0.66865987,1.0,0.0,0.0,0.0,0.0,0.0,0.0,-2.4483,0.043161005,-1.0849698,-0.5210638,0.043058395,-2.9451072,-2.6861727,-0.20734072,0.1440525,0.65816045
10.385609,41.411934,10.162879,7.6444526,-0.29373068,-0.8727437,0.10595136,-0.8385732,0.78076977,0.16212529,0.18103758,0.6257112,0.63856965,-0.27166763,1.162115,-0.5070894,-1.7697474,-0.8331205,2.3718367,1.4329715,-1.0903137,1.2309958,-0.57118833,-1.782748,-0.8476366,2.3182225,1.3738028,-1.0656208,-1.498747,1.3976903,0.31337914,0.3511857,0.89574087,0.46930498,-0.24527232,1.7606678,-0.44172668,1.6483182,-3.7623312,0.14275962,1.3099332,0.13430786,-0.43073273,1.0238864,0.84421176,-0.151279,0.07484088,0.5087434,-0.6178785,0.7787076,0.63981056,1.0,0.0,0.0,0.0,0.0,0.0,0.0,-2.410668,0.04172668,-1.0983181,-0.45919418,-0.04451275,-3.0861497,-3.0415654,0.07234812,0.15616417,0.8473456
7.6898813,41.436935,10.028156,10.663791,-0.04291153,-0.77292717,0.029266931,-0.8370441,0.7808974,0.13905215,0.22703339,0.6114691,0.643403,-0.22647141,1.1472914,-0.4930986,-1.7688428,-0.82493323,2.3793695,1.4381431,-1.0882679,1.2160021,-0.55721986,-1.7798831,-0.8440832,2.3271413,1.378491,-1.0679744,-1.4999974,1.3968312,0.27769113,0.3562053,0.89083266,0.4690626,-0.23242077,1.723072,-0.4403,1.6606711,-3.7585695,0.1426169,1.2104375,0.1282587,-0.42292786,1.0301722,0.84635395,-0.15920097,0.07574638,0.5025957,-0.5910689,0.78738976,0.61941576,1.0,0.0,0.0,0.0,0.0,0.0,0.0,-2.3730721,0.04029998,-1.110671,-0.21111965,-0.024867058,-3.5030663,0.36309958,-0.33534765,0.11524558,1.1882097
5.7507143,38.225574,8.983124,11.907929,0.16452318,-0.81132203,-0.010429509,-0.8339042,0.7710154,0.10939966,0.23908117,0.6184529,0.6443803,-0.18633729,1.1326116,-0.48011833,-1.7689432,-0.82017505,2.3889866,1.442929,-1.0866082,1.2010218,-0.54330385,-1.7774341,-0.84034956,2.3360295,1.3831774,-1.0701793,-1.4978316,1.3900805,0.23420034,0.37852997,0.8891596,0.46878713,-0.21683706,1.6855145,-0.43888092,1.6720299,-3.7548115,0.14247431,1.1110413,0.122424126,-0.41506195,1.0362663,0.8484219,-0.16703291,0.07683182,0.4963638,-0.571077,0.7912225,0.60070795,1.0,0.0,0.0,0.0,0.0,0.0,0.0,-2.3355145,0.038880914,-1.1220298,0.13580322,-0.612092,-4.3058662,2.0831406,-0.00034570694,0.09329915,1.4597088
3.056068,36.383366,8.01891,13.768223,0.30382454,-0.80763704,-0.09497902,-0.84030724,0.77307606,0.06279636,0.26325023,0.6070762,0.6415399,-0.15929975,1.116991,-0.46599624,-1.7711545,-0.8140245,2.396737,1.4473314,-1.0861093,1.1860358,-0.52944314,-1.7755458,-0.83627164,2.3448796,1.387858,-1.0722202,-1.4992841,1.3849205,0.17376757,0.4169883,0.8841416,0.46789405,-0.20025179,1.647995,-0.43746185,1.6823956,-3.7510574,0.14233187,1.0117445,0.116737366,-0.40717316,1.0421941,0.85046554,-0.17480034,0.07811266,0.48995063,-0.55803084,0.79305786,0.5848466,1.0,0.0,0.0,0.0,0.0,0.0,0.0,-2.297995,0.037461847,-1.1323955,-0.2477169,-0.4559517,-5.9972944,3.6792219,-0.32157898,-0.0019609928,1.5582114
2.555966,35.115395,7.5665355,14.025041,0.32071054,-0.84641933,-0.103013545,-0.838461,0.7694025,0.029634833,0.27750093,0.6008939,0.64087754,-0.10995364,1.1021897,-0.4525029,-1.7725823,-0.80852157,2.404969,1.4519458,-1.0832156,1.1710402,-0.51563776,-1.774308,-0.8317903,2.3536649,1.3925272,-1.0740741,-1.5000745,1.3792629,0.107223555,0.45801187,0.87749535,0.46688208,-0.18083191,1.6105118,-0.4360428,1.691769,-3.747307,0.14218956,0.912547,0.11117554,-0.3992691,1.0479646,0.8525035,-0.18250687,0.07961596,0.48331186,-0.5457696,0.7940101,0.56929654,1.0,0.0,0.0,0.0,0.0,0.0,0.0,-2.2605119,0.03604278,-1.1417689,-0.18382072,-0.5092621,-6.603393,3.9326668,-0.48621893,-0.021791458,1.8393189
0.08329964,32.869568,6.5560584,15.935894,0.48025376,-0.83777785,-0.17267562,-0.8350283,0.76548624,-0.036115382,0.3325941,0.58860075,0.6464064,-0.01609024,1.0875373,-0.43908912,-1.7779195,-0.79853094,2.412525,1.4571679,-1.0756831,1.1560541,-0.50189245,-1.7738979,-0.8267311,2.3623586,1.3971888,-1.075682,-1.4986014,1.3730456,0.019094286,0.52125114,0.86719,0.46614987,-0.15436588,1.5730667,-0.43462372,1.7001512,-3.7435606,0.1420474,0.81344867,0.105680466,-0.39138794,1.0536026,0.8545666,-0.19018467,0.0813738,0.47636542,-0.5409684,0.7930928,0.5569487,1.0,0.0,0.0,0.0,0.0,0.0,0.0,-2.2230668,0.034623712,-1.1501513,0.034475327,-0.5698204,-8.774834,6.137669,-0.83402395,-0.029164553,2.538848
-2.012105,29.908253,5.485674,17.134922,0.63156474,-0.8470969,-0.2081241,-0.8400487,0.75639075,-0.089346476,0.3715524,0.58260477,0.64760095,0.07158644,1.0720493,-0.42625338,-1.7828325,-0.7895758,2.420619,1.4619489,-1.0685234,1.1410605,-0.4882387,-1.7744472,-0.8209642,2.3709455,1.4018446,-1.0769771,-1.5000671,1.3630147,-0.07948126,0.594574,0.85640085,0.46548426,-0.12178238,1.5356598,-0.43320465,1.7075431,-3.7398179,0.14190538,0.71444935,0.10018444,-0.38350677,1.0591227,0.85667586,-0.19785102,0.083404385,0.4690469,-0.54249656,0.78974885,0.54549295,1.0,0.0,0.0,0.0,0.0,0.0,0.0,-2.18566,0.033204645,-1.1575432,-0.27267933,-0.95739365,-9.815074,7.1317196,-0.8736849,-0.043678284,3.1457691
-4.1764746,25.269226,3.6849468,17.584118,0.6984447,-0.9476909,-0.2752823,-0.8415681,0.7475654,-0.1802718,0.4108871,0.56836444,0.6451566,0.13127264,1.0569036,-0.41348216,-1.7924744,-0.7798755,2.4277818,1.4663603,-1.0638499,1.1260439,-0.47471082,-1.7761924,-0.81443155,2.3793988,1.4064928,-1.0779289,-1.5027994,1.3495293,-0.20613192,0.67209435,0.8426384,0.46462467,-0.086619556,1.4982891,-0.43178558,1.7139459,-3.736079,0.14176351,0.6155491,0.0946455,-0.37574768,1.0645094,0.85887456,-0.20547564,0.08576104,0.46125826,-0.5477733,0.7804686,0.53179085,1.0,0.0,0.0,0.0,0.0,0.0,0.0,-2.1482892,0.031785578,-1.1639459,-0.39732456,-1.3067007,-12.646198,7.53597,-1.1563063,-0.06851554,3.4073517
-4.282055,21.844723,2.6777039,16.534454,0.637988,-1.0560272,-0.2545299,-0.84403396,0.7325297,-0.24219927,0.4303396,0.5459512,0.6518458,0.2102679,1.0416405,-0.40145785,-1.8004123,-0.7713976,2.433994,1.4716774,-1.0569022,1.1109892,-0.46136463,-1.7792423,-0.80721796,2.387673,1.4111391,-1.078503,-1.5066595,1.3298259,-0.33798626,0.7370326,0.8228686,0.464753,-0.047877483,1.4609566,-0.43036652,1.7193602,-3.7323437,0.14162177,0.51674765,0.089071274,-0.3680725,1.069726,0.86116755,-0.2130001,0.08848817,0.45298046,-0.550846,0.7672244,0.5138943,1.0,0.0,0.0,0.0,0.0,0.0,0.0,-2.1109567,0.03036651,-1.1693602,-0.49517155,-1.930666,-13.176525,6.280923,-1.7619371,0.05427003,3.7685633
-1.7962885,21.890598,3.0075889,14.122132,0.46519452,-1.1831,-0.1631365,-0.84152746,0.7249261,-0.29699108,0.4268762,0.5669168,0.63892263,0.23835358,1.0268365,-0.38887203,-1.8089414,-0.76453036,2.4443645,1.4750314,-1.0546677,1.0959154,-0.44821775,-1.7835529,-0.7995714,2.3958364,1.4157778,-1.0787033,-1.5079516,1.3097706,-0.46206084,0.7731783,0.8149426,0.46401554,-0.011093255,1.4236612,-0.42894745,1.7237874,-3.728612,0.14148018,0.41804507,0.08353329,-0.36055756,1.0747316,0.863511,-0.22034341,0.09157106,0.4443109,-0.54514676,0.75262195,0.49196285,1.0,0.0,0.0,0.0,0.0,0.0,0.0,-2.0736613,0.028947443,-1.1737874,-0.21805763,-1.9660473,-12.383938,3.419578,-0.6072283,-0.0004351139,3.5744884
1.7993608,23.369617,4.0583057,11.114781,0.20161301,-1.2776757,-0.01337143,-0.8433669,0.71129465,-0.31922072,0.40619552,0.5554414,0.6411952,0.28767648,1.0115788,-0.37708828,-1.815475,-0.75895184,2.4513805,1.4798973,-1.0499356,1.0808302,-0.43528783,-1.7888649,-0.79183805,2.4039235,1.4204146,-1.0785393,-1.5089236,1.2875775,-0.5538642,0.7728387,0.8069477,0.46400458,0.025326947,1.3864031,-0.42752838,1.7272283,-3.724884,0.14133872,0.31944117,0.07814312,-0.3531952,1.0794824,0.8658246,-0.22743255,0.094972745,0.43543345,-0.52712554,0.739005,0.4657413,1.0,0.0,0.0,0.0,0.0,0.0,0.0,-2.0364032,0.027528375,-1.1772282,-0.17235279,-2.177167,-9.108532,-0.20149946,-0.66524744,0.11907816,3.5359368
5.912657,25.3874,5.4681687,7.996931,-0.05382234,-1.3650373,0.1648823,-0.838066,0.6936299,-0.320395,0.3754785,0.54122764,0.64223045,0.34812334,0.99702364,-0.36592484,-1.8209044,-0.7542902,2.4580462,1.4846376,-1.0437269,1.065766,-0.4226097,-1.7947662,-0.7843641,2.4119077,1.4250551,-1.0780033,-1.5056623,1.2614067,-0.6018904,0.7385188,0.79584897,0.46471426,0.06256858,1.3491821,-0.4261093,1.7296839,-3.72116,0.14119741,0.22093587,0.073031425,-0.34593964,1.0839429,0.8680043,-0.23421493,0.09863877,0.42659378,-0.49615505,0.72637826,0.43602613,1.0,0.0,0.0,0.0,0.0,0.0,0.0,-1.9991821,0.026109308,-1.1796839,0.27639866,-2.5660276,-4.693961,-3.562355,-1.0280132,0.2415657,3.6197066
7.0733967,25.564453,5.7019324,6.7866855,-0.107663214,-1.4518907,0.21352375,-0.84164685,0.6842283,-0.3566636,0.35065988,0.56412804,0.64111716,0.34997463,0.9816013,-0.35418686,-1.8304325,-0.7492981,2.4683204,1.4891669,-1.0430058,1.0507227,-0.41017997,-1.8010547,-0.77737176,2.4198651,1.4297034,-1.0771316,-1.5041939,1.2370086,-0.6374263,0.68578327,0.7958371,0.46548074,0.09495889,1.3119984,-0.4247055,1.731155,-3.7174397,0.14105624,0.12252904,0.06826019,-0.33882904,1.0880955,0.87001425,-0.24064596,0.1025096,0.4179192,-0.46147776,0.7113537,0.40514112,1.0,0.0,0.0,0.0,0.0,0.0,0.0,-1.9619983,0.0247055,-1.181155,0.10154247,-2.383113,-3.4347534,-5.390823,0.05941391,0.26053786,3.1436057
7.885998,27.21014,6.5269337,7.119386,-0.10745287,-1.4079502,0.26393217,-0.83604556,0.667374,-0.3460717,0.3417957,0.5303452,0.64700127,0.41559026,0.96711814,-0.34344256,-1.8356619,-0.7431922,2.4728997,1.4944035,-1.0355726,1.0357138,-0.39800727,-1.807492,-0.77087915,2.4277425,1.434363,-1.0759281,-1.4999821,1.2108703,-0.6454792,0.6367469,0.78504974,0.46668735,0.12862726,1.2748518,-0.4233017,1.731643,-3.713723,0.14091522,0.02422058,0.06384182,-0.33185577,1.0919642,0.87182266,-0.24676256,0.10655012,0.4094881,-0.42617038,0.7001642,0.37773156,1.0,0.0,0.0,0.0,0.0,0.0,0.0,-1.9248518,0.02330169,-1.181643,0.37345886,-2.5588512,-0.66348314,-5.0052643,-1.0328412,0.29406548,3.2669022
5.501166,24.020735,5.351136,8.650049,0.10975742,-1.4388765,0.18624663,-0.8377407,0.64945644,-0.38593838,0.33971918,0.5363152,0.6371958,0.4380715,0.9519397,-0.33306164,-1.8460859,-0.73690724,2.481374,1.4980826,-1.032121,1.0207335,-0.38611495,-1.8140972,-0.7647613,2.435536,1.4390246,-1.074406,-1.4976023,1.1822088,-0.6651634,0.60318345,0.77756673,0.46655568,0.15986586,1.2377424,-0.4218979,1.7311486,-3.7100098,0.14077432,-0.073989585,0.059711456,-0.32500458,1.0955777,0.8734601,-0.252593,0.11073833,0.40124935,-0.39976227,0.6854508,0.35302094,1.0,0.0,0.0,0.0,0.0,0.0,0.0,-1.8877424,0.021897882,-1.1811485,0.18630028,-2.8131247,-1.8534064,-3.4668803,-0.6854534,0.1343131,3.0297697
5.5149,22.700092,4.8594937,7.855935,0.02941674,-1.5437784,0.17754465,-0.83805674,0.6385054,-0.40387297,0.29397893,0.5279846,0.6386597,0.443052,0.9369278,-0.3222644,-1.8544844,-0.7353634,2.4883344,1.5028906,-1.0301008,1.0057665,-0.37449253,-1.8209465,-0.7590612,2.4432454,1.4436861,-1.0726017,-1.496491,1.1557512,-0.69105935,0.5585852,0.768967,0.4665388,0.18705004,1.2006702,-0.42049408,1.7296729,-3.7063005,0.14063358,-0.17210156,0.055865288,-0.31832123,1.0989311,0.8749626,-0.2581027,0.1150924,0.39316297,-0.37099525,0.66705716,0.32673138,1.0,0.0,0.0,0.0,0.0,0.0,0.0,-1.8506702,0.020494074,-1.179673,0.072431564,-2.5874376,-2.4959564,-4.5644283,-0.7998705,0.15787482,2.636367
3.546523,20.718235,3.965729,9.314815,0.15630049,-1.5565579,0.096804745,-0.8388096,0.623862,-0.43691933,0.29557586,0.5148159,0.63181496,0.45959353,0.92188555,-0.3121063,-1.8646383,-0.72950363,2.494727,1.5068676,-1.0266423,0.9907986,-0.36312997,-1.8281639,-0.7537025,2.450848,1.44834,-1.0705475,-1.4969875,1.1299021,-0.73178697,0.5279745,0.75754845,0.46554926,0.21139532,1.1636353,-0.41909027,1.7272168,-3.702595,0.14049298,-0.27011544,0.05225849,-0.3118286,1.1020427,0.8763756,-0.26329184,0.11963926,0.38513595,-0.34886044,0.64755565,0.30343583,1.0,0.0,0.0,0.0,0.0,0.0,0.0,-1.8136352,0.019090265,-1.1772168,-0.10211468,-2.531767,-3.984797,-3.1788826,-1.0718822,0.033551455,2.3516684
3.5944152,16.010944,2.7685544,7.3473077,0.079514086,-1.7574763,0.10880505,-0.8302103,0.59726655,-0.46128166,0.24666323,0.49368548,0.6254286,0.47287318,0.90777755,-0.30340332,-1.874292,-0.7290362,2.5002167,1.510883,-1.0232601,0.97586596,-0.35207927,-1.8358448,-0.7487682,2.4582906,1.4529825,-1.0682663,-1.4918438,1.097027,-0.7801619,0.48163846,0.7401034,0.46429837,0.23333627,1.1266365,-0.41768646,1.7237813,-3.6988933,0.14035252,-0.36803132,0.048892975,-0.3055954,1.104884,0.877732,-0.26809055,0.12439646,0.37714654,-0.32433328,0.6178548,0.27538446,1.0,0.0,0.0,0.0,0.0,0.0,0.0,-1.7766365,0.017686456,-1.1737814,0.53510666,-3.2192707,-4.8467994,-4.729146,-1.6673565,0.04429221,2.134797
4.8516784,9.059042,0.9583945,1.9714816,-0.26254445,-2.1811154,0.16342604,-0.8319519,0.57602,-0.50706065,0.13536161,0.48637065,0.61968774,0.44097123,0.89267075,-0.29447728,-1.8865508,-0.73523206,2.5069277,1.5149513,-1.0241692,0.9609848,-0.34138715,-1.844136,-0.7447275,2.4655576,1.4576136,-1.0658153,-1.4864177,1.0603081,-0.8459244,0.37812972,0.72271633,0.46341747,0.2490772,1.0896759,-0.41628265,1.7193674,-3.695195,0.1402122,-0.4658493,0.045861244,-0.29982758,1.1073449,0.8790847,-0.27226293,0.12940197,0.36923996,-0.28852904,0.5666683,0.23435257,1.0,0.0,0.0,0.0,0.0,0.0,0.0,-1.7396759,0.016282648,-1.1693673,0.69696903,-3.5695314,-6.7522526,-10.402661,-1.6626596,0.16386509,1.56537
9.168412,4.2312474,0.35331297,-6.394231,-0.8931423,-2.6945364,0.36172763,-0.8274487,0.55461645,-0.51210505,-0.03385848,0.4598598,0.62237215,0.44485626,0.8782399,-0.2859255,-1.8953465,-0.74811333,2.5115435,1.5198509,-1.0213298,0.94617903,-0.33107793,-1.8529975,-0.7423986,2.4726033,1.4622446,-1.0632232,-1.4773581,1.0216353,-0.9008494,0.18459025,0.6990608,0.4640636,0.262691,1.0527515,-0.41487885,1.7139759,-3.6915004,0.140072,-0.56356955,0.043366432,-0.29475403,1.109263,0.8804533,-0.27547157,0.1346947,0.36162794,-0.22963628,0.49058157,0.17592853,1.0,0.0,0.0,0.0,0.0,0.0,0.0,-1.7027515,0.014878839,-1.163976,1.2653351,-3.7138462,-5.8924913,-19.31855,-2.3049116,0.4243791,1.4214218
14.59286,-7.104045,-1.7522941,-20.322678,-1.833607,-3.5998526,0.6369033,-0.83453834,0.52524143,-0.532651,-0.32902223,0.4441126,0.6167312,0.40689954,0.8627252,-0.27855378,-1.9062626,-0.77530086,2.5170145,1.5239178,-1.0225333,0.93143713,-0.321195,-1.8623664,-0.74314535,2.479401,1.4668833,-1.0605358,-1.470559,0.97796017,-0.95166975,-0.16050063,0.67379344,0.46556437,0.27133247,1.0158644,-0.41347504,1.707608,-3.6878097,0.13993196,-0.66119206,0.04171276,-0.29078674,1.1103585,0.8818922,-0.2771383,0.14031003,0.3546457,-0.13855691,0.3664106,0.086157925,1.0,0.0,0.0,0.0,0.0,0.0,0.0,-1.6658643,0.013475031,-1.157608,1.4357805,-4.1330814,-5.9240937,-34.309803,-2.4889708,0.6325543,1.0493815
17.603859,-3.9573956,-0.8829603,-24.727238,-2.3720894,-3.8706002,0.692969,-0.83571863,0.5451939,-0.57287985,-0.530762,0.44419524,0.61437434,0.25488868,0.8478653,-0.26667562,-1.9196544,-0.79622155,2.5238206,1.5283208,-1.0350469,0.9167477,-0.31155336,-1.8722923,-0.7478355,2.485993,1.4715315,-1.0578884,-1.465135,0.9604141,-1.0097374,-0.5708867,0.6544619,0.46588042,0.26328447,0.9790144,-0.41207123,1.7002646,-3.6841228,0.13979205,-0.758717,0.04110527,-0.2881546,1.1104928,0.8834663,-0.27692395,0.14629208,0.34842345,-0.031211479,0.23085728,-0.011782791,1.0,0.0,0.0,0.0,0.0,0.0,0.0,-1.6290144,0.012071222,-1.1502645,1.4966965,-1.4939427,-6.8552256,-40.7535,-1.924634,0.4140079,-0.56191087
15.483036,3.2841518,0.34808573,-19.418728,-2.1106339,-3.5751154,0.538846,-0.8346702,0.56371385,-0.6185789,-0.64202535,0.44177926,0.60578877,0.15224254,0.8332807,-0.25518197,-1.9341502,-0.81203806,2.530171,1.5321103,-1.0426642,0.9021002,-0.30188978,-1.8828762,-0.7563442,2.492436,1.4761664,-1.0554107,-1.46166,0.9691563,-1.0780917,-0.94342875,0.64097565,0.46329916,0.24334244,0.94220066,-0.41066742,1.6919466,-3.6804392,0.13965228,-0.8561444,0.04150009,-0.28672028,1.1097344,0.88522065,-0.27489868,0.15263882,0.34280664,0.063689984,0.1118954,-0.09834291,1.0,0.0,0.0,0.0,0.0,0.0,0.0,-1.5922006,0.0106674135,-1.1419466,1.2633085,1.1148095,-7.831955,-36.99756,-1.3534427,-0.07482171,-1.771
10.092782,12.904607,1.8461053,-7.171288,-1.1504937,-2.8581772,0.23913446,-0.8345881,0.5836156,-0.6524602,-0.6823053,0.47801447,0.58649415,-0.002097745,0.8186414,-0.24352822,-1.9481221,-0.8245747,2.5402374,1.5348158,-1.0556206,0.8874556,-0.29198492,-1.8941371,-0.76774156,2.498898,1.4807516,-1.0532497,-1.4634811,0.99822116,-1.1440803,-1.2047775,0.64756083,0.4568827,0.20750572,0.9054241,-0.40927887,1.6826551,-3.6767595,0.13951266,-0.95347446,0.042607307,-0.2861786,1.1083112,0.88716674,-0.27148107,0.1592252,0.3374619,0.12477028,0.030543555,-0.15855072,1.0,0.0,0.0,0.0,0.0,0.0,0.0,-1.5554241,0.009278864,-1.1326551,0.38104057,3.091669,-7.1906567,-26.045418,0.6340742,-0.64097047,-3.4549088
3.7449517,14.747151,1.4664962,3.7039745,-0.16712129,-2.253748,-0.02975383,-0.8301735,0.57806665,-0.67982185,-0.7115949,0.43421888,0.5754784,-0.06026459,0.80443823,-0.23417825,-1.9621193,-0.83890104,2.54232,1.5382994,-1.0592762,0.8727833,-0.28182447,-1.9059894,-0.7808956,2.505322,1.4852606,-1.0514797,-1.4679399,1.0223397,-1.1993475,-1.3525498,0.64041567,0.448612,0.16681194,0.8686838,-0.40789032,1.672391,-3.6730835,0.13937318,-1.0507072,0.04407978,-0.28623962,1.1064548,0.88929546,-0.26714468,0.1659469,0.3320375,0.15067591,-0.022082442,-0.19673403,1.0,0.0,0.0,0.0,0.0,0.0,0.0,-1.5186838,0.007890314,-1.122391,-0.2764225,2.5265694,-5.6396723,-14.865661,-0.7774472,-0.9242773,-4.0787816
-1.2932513,15.412875,1.0582774,12.713284,0.71769017,-1.7290559,-0.20867716,-0.8318373,0.5743203,-0.68686545,-0.71800274,0.40598762,0.5829226,-0.069627024,0.7895996,-0.22439244,-1.9746759,-0.8526959,2.5459208,1.5435529,-1.0584424,0.8580376,-0.27150714,-1.918225,-0.79480684,2.511582,1.4896952,-1.0500969,-1.4776707,1.0350016,-1.2304239,-1.4048064,0.621159,0.4413204,0.12830688,0.8319807,-0.40650177,1.6611555,-3.6694112,0.13923384,-1.1478428,0.045601845,-0.28663635,1.1043626,0.8915684,-0.26231775,0.17271031,0.32629168,0.14728078,-0.050026525,-0.21580958,1.0,0.0,0.0,0.0,0.0,0.0,0.0,-1.4819807,0.006501764,-1.1111555,-1.2172699,1.3142824,-2.7315378,-5.473089,-2.018237,-0.87498426,-3.9909124
-3.2487755,18.917458,1.7275136,18.80393,1.1906648,-1.3211,-0.27881506,-0.8324493,0.5827212,-0.6851084,-0.71516126,0.36842299,0.5932326,-0.059050787,0.7747927,-0.21323502,-1.9867359,-0.866323,2.5484242,1.5490185,-1.0560019,0.8431822,-0.26109302,-1.9305923,-0.8087715,2.517548,1.4940726,-1.0490535,-1.4900643,1.0436288,-1.2363242,-1.3948627,0.58811164,0.43602648,0.095605545,0.79531384,-0.40511322,1.6489491,-3.6657424,0.13909464,-1.2448812,0.04699707,-0.28715515,1.1021873,0.893921,-0.2573321,0.17947623,0.32011512,0.13095526,-0.056734692,-0.22056696,1.0,0.0,0.0,0.0,0.0,0.0,0.0,-1.4453138,0.0051132143,-1.0989492,-1.8084049,0.8769989,0.12435913,0.6407976,-3.3819318,-0.68684816,-3.486149
-3.5616553,19.462553,2.0387278,21.024603,1.4479766,-1.1641903,-0.2508006,-0.82915837,0.5801333,-0.6798464,-0.71651053,0.35615206,0.59400135,-0.012711129,0.76026636,-0.20307969,-1.9985769,-0.88042253,2.5531633,1.5534726,-1.0503247,0.8282305,-0.25064647,-1.9428871,-0.8224453,2.5231862,1.498406,-1.048262,-1.4991007,1.0450366,-1.2243892,-1.359532,0.55504435,0.43188947,0.07280514,0.75868416,-0.40372467,1.6357732,-3.6620774,0.13895558,-1.3418225,0.04819393,-0.28768158,1.1000097,0.8962894,-0.25236365,0.18619722,0.31354186,0.10947471,-0.05567639,-0.21923168,1.0,0.0,0.0,0.0,0.0,0.0,0.0,-1.4086841,0.0037246644,-1.0857732,-1.5995264,0.14402866,2.0207644,3.152299,-3.355825,-0.5678773,-2.515283
-5.2005396,10.496606,-0.20190954,19.571793,1.6453912,-1.3227028,-0.22421423,-0.8305621,0.5486964,-0.6844235,-0.7246626,0.32634443,0.5987516,0.0069826497,0.7451743,-0.19577684,-2.0113294,-0.8949115,2.5558207,1.5582812,-1.0475638,0.81321585,-0.24035946,-1.9550521,-0.83578813,2.528462,1.5027071,-1.0476497,-1.504258,1.0232152,-1.2112913,-1.326919,0.5179919,0.42899454,0.056640744,0.7220907,-0.40233612,1.6216285,-3.6584163,0.13881665,-1.4386669,0.049110413,-0.28829193,1.0978118,0.89866304,-0.24740213,0.19280997,0.3066286,0.07955688,-0.06657435,-0.2221399,1.0,0.0,0.0,0.0,0.0,0.0,0.0,-1.3720907,0.0023361146,-1.0716286,-1.119709,-2.198267,2.07932,2.9314756,-3.7842393,-0.4472673,-1.8639594
-5.704402,4.738246,-1.5575545,17.710344,1.6524583,-1.4694306,-0.17201784,-0.82803386,0.52824736,-0.6826798,-0.7281625,0.28517622,0.5965068,0.04069689,0.7304125,-0.18753472,-2.0233202,-0.9086044,2.5569797,1.5623578,-1.04358,0.7981936,-0.23039523,-1.9671028,-0.8488945,2.5333104,1.5069815,-1.0471462,-1.5032089,0.98744076,-1.2008486,-1.3061292,0.47359598,0.42654344,0.047474142,0.6855345,-0.40094757,1.6065161,-3.6547585,0.13867787,-1.5354145,0.049713135,-0.2890854,1.0955458,0.90104187,-0.24236865,0.19928864,0.29944122,0.047455706,-0.08708167,-0.23006532,1.0,0.0,0.0,0.0,0.0,0.0,0.0,-1.3355345,0.00094756484,-1.0565162,-0.37350655,-3.5974383,1.6937017,1.8036842,-4.525799,-0.39793253,-1.1573658
-7.2497387,-4.8733196,-4.042119,14.786543,1.6774502,-1.7141672,-0.122192785,-0.8310051,0.48554853,-0.6781402,-0.7425385,0.22827657,0.5907622,0.08893177,0.7150931,-0.18184038,-2.0349169,-0.92314833,2.556138,1.5660577,-1.0382531,0.78319323,-0.22094741,-1.9790695,-0.8619436,2.537621,1.5112311,-1.0466789,-1.4999611,0.930437,-1.1936876,-1.3051579,0.41628662,0.42392367,0.04565865,0.6490145,-0.39955902,1.590437,-3.6511045,0.13853922,-1.6320654,0.049949646,-0.29021454,1.0931344,0.90344083,-0.23712742,0.20561536,0.2920404,0.009316977,-0.123656,-0.24659058,1.0,0.0,0.0,0.0,0.0,0.0,0.0,-1.2990144,-0.00044098496,-1.040437,0.031518936,-5.7330966,1.2084246,-0.10325909,-5.848068,-0.42039156,-0.42315573
-9.300771,-11.78891,-6.2633514,13.632264,1.7539537,-1.8420123,-0.13711734,-0.8346129,0.44603747,-0.688011,-0.7409622,0.16814743,0.59590757,0.08753279,0.69973195,-0.17634366,-2.0478706,-0.9360398,2.5544357,1.5708218,-1.0379256,0.7682148,-0.21217123,-1.9910438,-0.87503564,2.541264,1.5154597,-1.0462211,-1.4979203,0.8598122,-1.1969703,-1.3110838,0.3463896,0.4219625,0.04501564,0.6125307,-0.39817047,1.5733922,-3.6474543,0.13840072,-1.7286197,0.049746513,-0.29177094,1.0905211,0.9058849,-0.23157233,0.21179987,0.28440717,-0.036588237,-0.16896988,-0.26781893,1.0,0.0,0.0,0.0,0.0,0.0,0.0,-1.2625307,-0.0018295348,-1.0233922,-0.011396408,-7.1177483,0.13813972,-0.7535696,-7.1576176,-0.3787756,-0.3288597
-14.590837,-32.923737,-12.47597,8.85249,1.6303564,-2.30091,-0.16788462,-0.82911533,0.33628407,-0.70671445,-0.759664,-0.11020978,0.589556,0.12822714,0.6853033,-0.17854282,-2.0617154,-0.95100206,2.5302432,1.5744152,-1.0333984,0.75329363,-0.2044827,-2.0031726,-0.88828313,2.5434804,1.5196673,-1.0457386,-1.4898138,0.7382108,-1.2175442,-1.3295058,0.17958462,0.41957957,0.04812454,0.5760832,-0.39678192,1.5553825,-3.6438074,0.13826235,-1.8250774,0.048984528,-0.2940216,1.0875665,0.908421,-0.22546121,0.21802747,0.27641004,-0.09626397,-0.2445396,-0.3060864,1.0,0.0,0.0,0.0,0.0,0.0,0.0,-1.2260832,-0.0032180846,-1.0053825,0.9345293,-12.260998,-1.8563986,-1.8837929,-16.912115,-0.43592453,-0.038269162
-19.731522,-49.35227,-17.580448,6.668753,1.6650426,-2.537759,-0.1897048,-0.8346014,0.22517818,-0.7006224,-0.75044775,-0.38167173,0.6086147,0.19608748,0.6698335,-0.18196489,-2.0732348,-0.9633279,2.5053132,1.5805287,-1.0261298,0.7384306,-0.1983575,-2.0154827,-0.9016565,2.5433545,1.5238653,-1.0451778,-1.4840343,0.57010573,-1.2352587,-1.3396268,-0.077474006,0.41913515,0.05715713,0.53967285,-0.39539337,1.5364089,-3.6401644,0.13812411,-1.9214387,0.0475111,-0.29716492,1.0841496,0.9110614,-0.21859716,0.22451137,0.26791203,-0.17219964,-0.33732042,-0.3549071,1.0,0.0,0.0,0.0,0.0,0.0,0.0,-1.1896728,-0.0046066344,-0.9864089,0.8881569,-16.968393,-1.6911983,-0.949955,-25.976265,-0.27068257,0.45227334
-24.409864,-63.927074,-22.03491,5.002538,2.0207691,-2.7192051,-0.16217493,-0.8334375,0.096264444,-0.6981146,-0.7474504,-0.5504066,0.64400256,0.28269732,0.6550869,-0.18873104,-2.085294,-0.97640157,2.488314,1.5882657,-1.016908,0.7236258,-0.194235,-2.0279262,-0.915069,2.5404515,1.5280844,-1.0444664,-1.477583,0.358919,-1.247459,-1.3412493,-0.36215132,0.42197576,0.07390143,0.50329876,-0.39402008,1.5164725,-3.636525,0.137986,-2.0177035,0.04510975,-0.30133057,1.0801885,0.91379416,-0.21087553,0.23125306,0.25890863,-0.2711748,-0.44327098,-0.41130003,1.0,0.0,0.0,0.0,0.0,0.0,0.0,-1.1532987,-0.0059799254,-0.96647245,1.1492252,-21.334595,-1.2848377,0.018310547,-28.749615,0.00014305115,1.1608884
-34.758446,-99.52279,-32.312164,-0.1804018,3.3089347,-3.330786,-0.14855634,-0.83494854,-0.14601862,-0.6859561,-0.74986947,-0.59841025,0.6637414,0.2985105,0.64013094,-0.20883685,-2.0965219,-0.9900559,2.4806106,1.5944586,-1.0146153,0.7088858,-0.19295564,-2.040404,-0.9284643,2.53505,1.5323378,-1.0435871,-1.4696671,0.049850788,-1.2490366,-1.3376139,-0.6005603,0.42513344,0.09063482,0.4669609,-0.3926468,1.4955741,-3.632889,0.13784805,-2.1138718,0.041252136,-0.306839,1.0755589,0.9166984,-0.20217745,0.23773988,0.24953568,-0.4335369,-0.58637995,-0.4818633,1.0,0.0,0.0,0.0,0.0,0.0,0.0,-1.1169609,-0.0073532164,-0.9455741,1.7390013,-31.240038,-0.55258274,0.78036785,-24.13829,-0.15051961,1.1079445
-43.958267,-134.27217,-41.90138,-6.99473,4.6187215,-3.9770167,-0.03746465,-0.8208003,-0.41336074,-0.6672394,-0.77260274,-0.57590777,0.6563482,0.3673225,0.6268058,-0.23429172,-2.1071281,-1.0057245,2.4774592,1.5979726,-1.0068549,0.69430315,-0.19550005,-2.052798,-0.9419035,2.5279126,1.5366007,-1.0425037,-1.4496429,-0.35737956,-1.2389486,-1.3435966,-0.75194526,0.4243004,0.11264442,0.4306593,-0.3912735,1.4737148,-3.629257,0.13771023,-2.2099442,0.03529167,-0.3140869,1.0700922,0.919902,-0.19236921,0.24316007,0.24009901,-0.6603613,-0.7650306,-0.57050985,1.0,0.0,0.0,0.0,0.0,0.0,0.0,-1.0806593,-0.008726507,-0.9237148,3.4788132,-41.173477,0.14562607,0.14050007,-15.41115,-0.8496046,1.6835823
-37.000492,-110.98814,-34.258484,-3.3150375,4.7100368,-3.2617571,0.20154086,-0.8124019,-0.5095883,-0.5828308,-0.7710059,-0.49353448,0.6591405,0.44552842,0.613063,-0.24645887,-2.1110811,-1.0190041,2.4785593,1.6025147,-0.99795085,0.67993987,-0.20182005,-2.0646923,-0.9553951,2.520039,1.5408522,-1.0411438,-1.427074,-0.72493386,-1.1766295,-1.3482107,-0.7992247,0.42274517,0.14295602,0.39439392,-0.3899002,1.4508955,-3.6256285,0.13757254,-2.3059204,0.02719307,-0.3228073,1.0638089,0.92336404,-0.18165544,0.24700618,0.23105824,-0.87041414,-0.90130454,-0.65106475,1.0,0.0,0.0,0.0,0.0,0.0,0.0,-1.0443939,-0.010099798,-0.90089554,3.6880016,-37.175655,5.199814,0.37384033,-4.879248,-0.9794831,2.795115
-29.43106,-84.624626,-26.083258,0.30488372,4.5620646,-2.534519,0.34949422,-0.7994518,-0.63178086,-0.5393846,-0.78670126,-0.36989725,0.6268963,0.4499429,0.59999466,-0.26499814,-2.1186306,-1.0340652,2.4830494,1.6035419,-0.9961495,0.6658169,-0.21138206,-2.0757892,-0.9689945,2.5124364,1.5450655,-1.0394863,-1.4028699,-1.0345309,-1.0910169,-1.3610063,-0.7478233,0.41818243,0.17348507,0.3581648,-0.38852692,1.4271171,-3.6220036,0.137435,-2.4018006,0.01718998,-0.33260345,1.056787,0.92702043,-0.17032355,0.2489931,0.22276756,-1.0543411,-0.9965654,-0.72442657,1.0,0.0,0.0,0.0,0.0,0.0,0.0,-1.0081648,-0.011473089,-0.8771171,3.7549734,-31.331074,7.4409723,-0.43578148,5.0560355,-1.2498379,3.0811696
-17.87196,-45.647076,-13.790779,6.29367,4.1524725,-1.51483,0.48339072,-0.78060764,-0.7018873,-0.46213675,-0.7973741,-0.17374523,0.59704185,0.42667025,0.58775616,-0.2815708,-2.1220028,-1.0487319,2.4950619,1.6047697,-0.99681926,0.65195525,-0.22337237,-2.085799,-0.9827646,2.5060925,1.5492235,-1.037556,-1.3768816,-1.2547475,-0.974746,-1.3799824,-0.5963684,0.41313064,0.20048624,0.3219719,-0.38715363,1.4023807,-3.6183825,0.1372976,-2.497585,0.005695343,-0.34297943,1.0491632,0.9307873,-0.1587468,0.2489691,0.21551965,-1.19098,-1.037694,-0.781922,1.0,0.0,0.0,0.0,0.0,0.0,0.0,-0.97197187,-0.0128463805,-0.8523807,3.700757,-22.288727,10.497642,-1.189208,15.165747,-1.0689557,2.9982657
-11.042105,-14.108072,-5.3148518,13.04744,4.083016,-0.68740225,0.41870058,-0.76658356,-0.7452351,-0.46048903,-0.79545337,0.120197184,0.55444336,0.39373335,0.5752969,-0.29789588,-2.1318479,-1.06231,2.5181122,1.6046679,-0.9981827,0.63835204,-0.23691288,-2.0948513,-0.996693,2.502091,1.5533167,-1.0354046,-1.351303,-1.3878018,-0.8858496,-1.3951529,-0.33444408,0.40691113,0.22180353,0.28581524,-0.38578033,1.376687,-3.6147647,0.13716033,-2.5932739,-0.006951332,-0.3534317,1.0411192,0.93463796,-0.14729261,0.24682909,0.20936087,-1.2975585,-1.0344497,-0.8201088,1.0,0.0,0.0,0.0,0.0,0.0,0.0,-0.9358152,-0.0142196715,-0.82668704,3.583026,-13.494849,7.71389,-0.9260893,26.268578,-0.9323418,2.611798
-8.520048,8.519064,-0.8388232,18.572495,3.6337724,-0.10449886,0.21226121,-0.76443946,-0.7615543,-0.5013649,-0.79536515,0.21728864,0.5239981,0.37841117,0.56190807,-0.3130683,-2.1449878,-1.0762296,2.5238197,1.6057165,-0.9975634,0.62494814,-0.2512206,-2.1034954,-1.0107311,2.5007367,1.5573412,-1.0330795,-1.3331994,-1.4455987,-0.8610652,-1.4049474,-0.06894975,0.40052792,0.2377699,0.24969482,-0.38440704,1.3500373,-3.6111507,0.1370232,-2.6888669,-0.020471573,-0.3636551,1.0327847,0.93855697,-0.13611884,0.24283949,0.20398903,-1.3771735,-1.0020957,-0.84703004,1.0,0.0,0.0,0.0,0.0,0.0,0.0,-0.8996948,-0.0155929625,-0.8000373,2.868867,-5.9230804,1.2540102,-0.45452118,26.63321,-0.7393837,2.080247
-9.050568,21.127438,0.3997817,22.129274,2.9774601,0.23887408,-0.03111017,-0.7597125,-0.7716662,-0.5573808,-0.7880357,0.18625644,0.52175117,0.3465649,0.5489769,-0.32838723,-2.1592333,-1.0895346,2.5193624,1.6095164,-0.99842304,0.6116806,-0.26574603,-2.1124027,-1.0247921,2.50145,1.5613123,-1.0306457,-1.3210555,-1.4553165,-0.9044968,-1.4048847,0.11824719,0.39596862,0.24631979,0.21361065,-0.38303375,1.3224324,-3.6075404,0.1368862,-2.7843645,-0.034633636,-0.3734436,1.0242071,0.94250536,-0.12518597,0.23758446,0.19891135,-1.4356331,-0.9551719,-0.8709359,1.0,0.0,0.0,0.0,0.0,0.0,0.0,-0.8636106,-0.016966254,-0.7724324,2.2868395,-1.1012793,-5.536139,0.50418377,18.781118,-0.44361353,1.2265354
-7.048041,33.396393,3.1289084,24.007074,1.8953555,0.5694598,-0.12146098,-0.75191545,-0.7634855,-0.56796336,-0.7826091,0.008621445,0.53689003,0.3739212,0.53648907,-0.34209457,-2.169199,-1.103053,2.5023122,1.6150013,-0.9932536,0.59851134,-0.2801279,-2.1218936,-1.0388035,2.5029454,1.5652624,-1.0281337,-1.3124593,-1.4328164,-0.967352,-1.3984454,0.16026244,0.3950403,0.25355595,0.17756271,-0.38166046,1.2938732,-3.6039336,0.13674934,-2.8797662,-0.049126625,-0.3827057,1.0153853,0.94637555,-0.11435894,0.23185055,0.19375406,-1.4592798,-0.8984986,-0.89566606,1.0,0.0,0.0,0.0,0.0,0.0,0.0,-0.8275627,-0.018339545,-0.7438732,1.7889023,2.1456718,-7.33155,1.0563612,4.267731,0.034701824,0.9321213
-8.237819,34.14645,2.2493296,23.336447,0.87884164,0.60133344,-0.22693798,-0.7524985,-0.77076936,-0.61986727,-0.7801679,-0.2785224,0.55937505,0.32048056,0.5232615,-0.35720485,-2.1838803,-1.1168202,2.4750931,1.6212,-0.9960857,0.5853859,-0.2942628,-2.132178,-1.0527328,2.5035634,1.5692259,-1.0256103,-1.309787,-1.4073932,-1.0521516,-1.3897762,0.028935842,0.39716733,0.2519976,0.14155006,-0.38028717,1.2643607,-3.6003304,0.13661262,-2.9750726,-0.063700676,-0.3914261,1.006243,0.95006144,-0.103372544,0.22646672,0.18817556,-1.4617927,-0.8469054,-0.9301454,1.0,0.0,0.0,0.0,0.0,0.0,0.0,-0.79155004,-0.019712836,-0.71436065,1.1193275,2.4237633,-9.399343,1.2698889,-13.124904,0.346148,-0.14172196
-9.289318,32.839615,1.468481,22.375422,0.5671047,0.57582617,-0.23326612,-0.7545188,-0.77103865,-0.65625477,-0.7840206,-0.3672581,0.5571465,0.29472739,0.50993407,-0.37136668,-2.1978035,-1.1311349,2.4668376,1.6249405,-0.9961376,0.5722481,-0.30818263,-2.1433246,-1.0666069,2.5024343,1.5732085,-1.0231327,-1.3124806,-1.3873429,-1.1381978,-1.3851767,-0.1603073,0.39899078,0.24604702,0.105573654,-0.37892914,1.2338958,-3.5967307,0.13647604,-3.070284,-0.078269005,-0.3996811,0.9967129,0.9535147,-0.092028365,0.22181554,0.18203901,-1.45989,-0.799567,-0.9700611,1.0,0.0,0.0,0.0,0.0,0.0,0.0,-0.75557363,-0.021070868,-0.68389577,0.5177021,1.8686056,-9.41968,0.87094307,-18.972708,0.27825236,-0.6553799
-9.297157,33.31747,1.8766927,22.103874,0.6211337,0.6343621,-0.18297169,-0.7636944,-0.7681214,-0.66235536,-0.7828031,-0.41904858,0.5635788,0.25189582,0.49587867,-0.38499478,-2.2095602,-1.1448872,2.4605293,1.6295663,-0.9979431,0.5590254,-0.32195368,-2.1551464,-1.0804504,2.4994435,1.577212,-1.0207485,-1.3230758,-1.3741769,-1.1996049,-1.3827271,-0.34583387,0.4010929,0.2356902,0.069633484,-0.3775711,1.2024796,-3.5931349,0.13633959,-3.1654,-0.09282303,-0.40744781,0.9867844,0.95671755,-0.08029548,0.2178931,0.17540449,-1.4580266,-0.75131977,-1.0097904,1.0,0.0,0.0,0.0,0.0,0.0,0.0,-0.71963346,-0.0224289,-0.6524796,-0.33426285,1.1741877,-6.8900347,0.6525278,-18.619234,0.28799772,-1.0944694
-8.081327,33.79013,2.9974346,21.375614,0.8381866,0.67093307,-0.08308522,-0.76081854,-0.7717561,-0.6644958,-0.78639346,-0.43119013,0.56567997,0.21698324,0.48294353,-0.3991293,-2.221596,-1.1590898,2.4563246,1.63378,-0.9990502,0.5457083,-0.3356661,-2.1673648,-1.0943016,2.494923,1.5812346,-1.0184864,-1.3324583,-1.3707601,-1.2313529,-1.3846449,-0.48720703,0.40284863,0.22302957,0.0337286,-0.37621307,1.1701128,-3.5895424,0.13620327,-3.260421,-0.107375145,-0.4147339,0.97646666,0.9596722,-0.06824063,0.2144675,0.16845179,-1.4582213,-0.7026563,-1.048214,1.0,0.0,0.0,0.0,0.0,0.0,0.0,-0.6837286,-0.023786932,-0.62011284,-0.31375885,0.20434856,-3.8437366,0.19767284,-14.199364,0.22402406,-1.2718678
-7.7815638,35.158157,3.8055947,21.70993,1.1752262,0.74648875,-0.030643575,-0.7656358,-0.770674,-0.67437816,-0.78043634,-0.4247813,0.55794203,0.1946665,0.4691447,-0.4127335,-2.2348027,-1.1723452,2.452445,1.6370288,-0.99901974,0.5322939,-0.3493785,-2.1797664,-1.1081527,2.4894032,1.5852648,-1.016354,-1.3424922,-1.3718398,-1.2451638,-1.3840327,-0.5737943,0.4033772,0.21007359,-0.0021400452,-0.37485504,1.1367967,-3.5859537,0.1360671,-3.355347,-0.12196922,-0.4214859,0.96579915,0.9623986,-0.05598483,0.21124391,0.16133983,-1.4630203,-0.65058964,-1.0819334,1.0,0.0,0.0,0.0,0.0,0.0,0.0,-0.64785993,-0.025144964,-0.5867967,-0.4392147,-0.24182796,-2.0030022,0.4385233,-8.7139015,0.08497834,-1.2393057
-8.114193,33.869637,3.6402676,21.198275,1.4236138,0.7277899,-0.028621182,-0.7624854,-0.7821365,-0.6916826,-0.7785133,-0.43465716,0.5455152,0.084794834,0.4560454,-0.42759216,-2.2489347,-1.186004,2.4459376,1.6398163,-1.0078745,0.5188166,-0.363171,-2.1922786,-1.1219867,2.4833074,1.5892893,-1.0144199,-1.3477955,-1.3821704,-1.2553782,-1.3819044,-0.6214353,0.4020035,0.18825309,-0.03797245,-0.373497,1.1025319,-3.5823684,0.13593106,-3.450178,-0.13666153,-0.42775726,0.9547974,0.9649271,-0.04361556,0.20798177,0.15413296,-1.4738426,-0.5991879,-1.1151364,1.0,0.0,0.0,0.0,0.0,0.0,0.0,-0.6120275,-0.026502997,-0.5525319,-0.019836426,-1.170373,-1.5913486,0.59518814,-4.8142314,-0.1448214,-2.0846784
-9.5049095,30.725624,2.4190936,20.25402,1.586305,0.65136933,-0.06324526,-0.75830185,-0.7984899,-0.7222619,-0.77721566,-0.45362929,0.52954406,-0.025445055,0.4429864,-0.44302002,-2.264505,-1.1997083,2.4379444,1.6422437,-1.0169644,0.5053297,-0.37714425,-2.2049892,-1.1357921,2.476891,1.5932833,-1.01277,-1.347359,-1.4028586,-1.2778586,-1.378687,-0.6487348,0.3983951,0.15736417,-0.07376957,-0.37213898,1.0673196,-3.5787868,0.13579516,-3.5449142,-0.15152264,-0.4335327,0.9434381,0.9672892,-0.031148478,0.20451987,0.14680947,-1.4921807,-0.55046076,-1.1515709,1.0,0.0,0.0,0.0,0.0,0.0,0.0,-0.5762304,-0.027861029,-0.5173196,0.5267143,-2.2198439,-2.7744532,0.73211193,-2.785778,-0.4217744,-2.978015
-8.810565,33.502956,3.453289,20.701626,1.5304669,0.7835376,-0.0814496,-0.7562076,-0.8038098,-0.7199444,-0.7618842,-0.5096974,0.54600286,-0.1474404,0.42970896,-0.45752522,-2.2769837,-1.2119806,2.4259212,1.6478835,-1.0275141,0.49187088,-0.39132777,-2.2178829,-1.1495003,2.4701543,1.5972563,-1.0115017,-1.3440027,-1.4239866,-1.2945321,-1.3666929,-0.68218,0.39671335,0.11706935,-0.10953045,-0.37078094,1.0311606,-3.5752087,0.1356594,-3.6395557,-0.16653347,-0.43878174,0.93173414,0.96948135,-0.01862941,0.20085472,0.1393423,-1.5047977,-0.49867916,-1.1852316,1.0,0.0,0.0,0.0,0.0,0.0,0.0,-0.5404695,-0.029219061,-0.48116058,0.7599592,-2.2557497,-2.1453142,1.5894651,-3.384757,-0.20962954,-3.9180012
-8.99677,36.40085,3.989037,21.46619,1.5316923,0.8963671,-0.116303824,-0.7547554,-0.8068189,-0.7403671,-0.7477714,-0.5318805,0.5297208,-0.23332635,0.41639534,-0.47200966,-2.2919195,-1.2242774,2.4169662,1.6502284,-1.0348343,0.47845268,-0.40568915,-2.2309825,-1.1630291,2.4630818,1.6012045,-1.0106701,-1.339773,-1.4406581,-1.316572,-1.347,-0.71556765,0.3939673,0.072125554,-0.14525604,-0.3694229,0.9940559,-3.5716343,0.13552377,-3.7341027,-0.18165016,-0.4435196,0.9197214,0.9714938,-0.0060933055,0.19702783,0.13169199,-1.514269,-0.4438634,-1.215241,1.0,0.0,0.0,0.0,0.0,0.0,0.0,-0.50474393,-0.030577093,-0.4440559,0.8109331,-1.809001,-2.6367188,2.3474455,-3.382969,-0.30276775,-4.3881445
-9.433407,39.842503,4.59402,22.605173,1.5593945,1.0372282,-0.12852657,-0.7612243,-0.8116549,-0.7470617,-0.7318671,-0.56037927,0.53723305,-0.27143267,0.40233025,-0.48685464,-2.3056886,-1.2362158,2.407044,1.6549278,-1.0378133,0.4650383,-0.420185,-2.2442844,-1.1763138,2.4556584,1.6051337,-1.0102772,-1.3407612,-1.4530025,-1.3361121,-1.3208507,-0.75147873,0.3924083,0.028675241,-0.1809454,-0.36806488,0.9559984,-3.5680633,0.13538827,-3.8296204,-0.19684601,-0.4476471,0.9074384,0.973315,0.0064324876,0.19308434,0.123833895,-1.5205793,-0.38502118,-1.2410997,1.0,0.0,0.0,0.0,0.0,0.0,0.0,-0.46905458,-0.031935126,-0.4059984,0.27017593,-1.3773918,-2.359414,2.985382,-3.644836,-0.17012358,-4.244231
-8.722174,43.661694,5.763733,23.07822,1.5023317,1.1725879,-0.11554499,-0.7582398,-0.8105504,-0.7568534,-0.71906096,-0.58048874,0.5411836,-0.308652,0.3892143,-0.50124,-2.3199697,-1.2482198,2.3976095,1.659252,-1.0411423,0.45171797,-0.43476808,-2.2580776,-1.1895638,2.4486868,1.6104019,-1.0101866,-1.3042189,-1.4643863,-1.4631972,-1.3812363,-0.5183372,0.87812287,0.0065161088,-0.20995903,-0.3669281,0.93048936,-1.3118626,0.14948723,1.0600647,-0.21215343,-0.45101166,0.89481187,0.97494125,0.018338108,0.18896423,0.115955345,-1.5504456,-0.26089454,-1.3062993,0.0,1.0,0.0,0.0,0.0,0.0,0.0,-0.44004095,-0.033071905,-0.38048935,7.732439,-1.8769503,-23.977589,-14.494228,50.030136,97.21024,-0.22724606
88.07784,176.0,110.0,110.0,2.4992929,14.400866,-0.49906275,-0.8163888,0.30892658,0.633758,0.7282725,-0.4356481,0.6580406,-0.39049813,0.3700791,-0.4038754,-2.194702,-1.1167365,2.405122,1.6762059,-1.0492364,0.43930113,-0.45152992,-2.2614343,-1.1944828,2.4402335,1.6272991,-1.0146613,-1.184528,-1.6762153,-0.09806001,-0.24231511,-0.85966605,1.9812057,-0.5487348,-0.22306728,-0.36543274,0.9403376,-1.3105509,0.14933777,0.9597537,-0.2246399,-0.45101166,0.88518405,0.9758966,0.018969037,0.18771484,0.109677635,-1.1438485,0.10488867,-0.8560867,1.0,0.0,0.0,0.0,0.0,0.0,0.0,-0.4269327,-0.034567267,-0.3903376,22.861052,-0.00023841858,94.94778,99.85383,-5.6960106,116.59117,-40.47786
-18.860228,176.0,39.264236,110.0,6.8975186,6.3813233,-1.8335553,-0.82731014,-0.5491751,-0.43873456,0.7515257,-0.64483434,0.6474928,-0.17608152,0.35657012,-0.50644743,-2.3053079,-1.1193303,2.37575,1.6920483,-1.0322695,0.4255749,-0.4674868,-2.2581651,-1.1913376,2.4314291,1.6470001,-1.0216784,-1.4281652,-1.5679249,0.4593069,0.5014702,-0.8851256,1.9760245,-0.7490148,-0.23616314,-0.36393738,0.9491835,-1.3092407,0.14918846,0.85954297,-0.23561001,-0.44822693,0.87946683,0.97660273,0.013097757,0.18866144,0.10238288,-1.0769943,0.3502332,-0.4813461,1.0,0.0,0.0,0.0,0.0,0.0,0.0,-0.41383684,-0.036062628,-0.3991835,-22.206497,11.102462,52.897984,74.81556,-1.9280195,2.3712635,-18.89292
-51.36029,149.01694,9.337674,100.59876,6.16273,3.339103,-2.067313,-0.80615216,-0.49782506,-0.6217376,0.71350926,-0.7197915,0.6357106,0.2896371,0.34495968,-0.5172693,-2.320339,-1.1199867,2.35945,1.7105712,-0.99271476,0.41085923,-0.48109478,-2.2557275,-1.1816444,2.4222548,1.6655643,-1.0284553,-1.4803486,-1.2914757,0.16389507,1.1280302,-0.9241631,1.823423,-0.6525654,-0.24924564,-0.36244202,0.9570281,-1.3079317,0.1490393,0.75943244,-0.24656391,-0.44340515,0.8767734,0.9770324,0.005284485,0.19191799,0.092450425,-1.0993333,0.535397,-0.20258379,1.0,0.0,0.0,0.0,0.0,0.0,0.0,-0.40075433,-0.03755799,-0.40702808,-3.514552,27.734447,-31.967539,63.502968,-2.6899457,-13.201427,10.039341
-54.668526,101.48625,-5.406676,72.17756,4.5224595,1.0771772,-1.6241168,-0.80868065,-0.5084629,-0.5672394,0.7660603,-0.7022263,0.66909975,0.32393956,0.32999116,-0.53194106,-2.3124514,-1.1050384,2.3520322,1.7324743,-0.9960613,0.3959247,-0.49221128,-2.257692,-1.1675625,2.4128058,1.6822841,-1.0339904,-1.4940237,-1.0522035,-0.32248753,1.5043123,-0.94796324,1.6252446,-0.5203136,-0.2623148,-0.36094666,0.96387225,-1.306624,0.14889029,0.659422,-0.25797462,-0.43728638,0.8758742,0.97708863,-0.0021357066,0.19728054,0.07983464,-1.1527678,0.6473982,-0.057090443,1.0,0.0,0.0,0.0,0.0,0.0,0.0,-0.38768518,-0.03905335,-0.41387224,-0.23508072,23.781967,-50.38363,38.39164,-1.3374686,-18.71946,13.270676
-37.808228,61.066643,-7.424387,41.635197,2.3343873,-0.39190447,-0.75543755,-0.7879628,-0.5326743,-0.55722386,0.7649827,-0.70775306,0.69988847,0.36135724,0.31712842,-0.5454787,-2.3134146,-1.0910642,2.3420305,1.752273,-0.99785465,0.38118088,-0.5016689,-2.2642152,-1.1514568,2.4031584,1.6971347,-1.0382075,-1.4659554,-0.91090566,-0.7651528,1.6476026,-0.96821105,1.440239,-0.38951737,-0.27537155,-0.35945892,0.9697171,-1.3053176,0.14874142,0.55951154,-0.26984596,-0.430542,0.87557906,0.9767567,-0.007984666,0.2039641,0.06542996,-1.1937311,0.68893176,-0.025546629,1.0,0.0,0.0,0.0,0.0,0.0,0.0,-0.37462842,-0.040541083,-0.41971707,3.358388,13.922977,-45.18466,14.780974,-1.4522672,-17.984653,12.921625
-18.47208,38.007317,-3.3590915,20.799797,0.71603274,-1.0576751,0.0052073523,-0.76398325,-0.53468114,-0.5851164,0.7722604,-0.72662127,0.7038056,0.39495248,0.30478257,-0.555137,-2.322727,-1.0742308,2.3304963,1.7675153,-0.9987123,0.36686814,-0.510374,-2.2741067,-1.1350479,2.3932898,1.7103221,-1.0412269,-1.4191778,-0.8575617,-1.0647911,1.6391691,-0.99267703,1.2790571,-0.27334365,-0.28841496,-0.35797882,0.9745636,-1.3040127,0.14859271,0.45970097,-0.28196812,-0.42375946,0.875106,0.97607124,-0.011878711,0.2112127,0.050328128,-1.2113982,0.68378526,-0.0596758,1.0,0.0,0.0,0.0,0.0,0.0,0.0,-0.36158502,-0.042021185,-0.4245636,4.8373938,5.179167,-30.250145,-0.6565571,-2.317834,-15.845108,11.390728
-6.551871,27.453243,0.4171598,10.416478,-0.035069913,-1.2203238,0.45064804,-0.7570847,-0.5308869,-0.63820136,0.7660798,-0.7383613,0.7075112,0.4396134,0.29115966,-0.5634627,-2.3379269,-1.05844,2.3194537,1.7810732,-0.9972655,0.352996,-0.51895994,-2.2860277,-1.1192894,2.3831732,1.7220905,-1.0431876,-1.3766392,-0.8593448,-1.234632,1.5548023,-1.018876,1.1434419,-0.17107107,-0.301445,-0.35649872,0.9784127,-1.3027089,0.14844415,0.35999018,-0.29417133,-0.4171753,0.87407476,0.9750999,-0.013863789,0.21849513,0.03532178,-1.2154762,0.65810096,-0.12225656,1.0,0.0,0.0,0.0,0.0,0.0,0.0,-0.34855497,-0.043501288,-0.42841268,4.2270184,-0.27623177,-16.932058,-8.3737135,-2.7549267,-13.390994,10.009951
-2.0700867,28.464283,3.4525914,9.04679,-0.054148376,-1.0183194,0.5928601,-0.76405483,-0.5194868,-0.6777691,0.75991577,-0.73549217,0.7027085,0.4645756,0.2765905,-0.5709086,-2.3538046,-1.0432978,2.309624,1.7923614,-0.9967301,0.3394004,-0.527708,-2.2989442,-1.1044865,2.3728392,1.7326725,-1.0442309,-1.3541137,-0.88024294,-1.3097372,1.4557767,-1.0391909,1.0301751,-0.08278717,-0.31446266,-0.35501862,0.9812654,-1.3014065,0.14829573,0.26037908,-0.30636597,-0.41082764,0.8724248,0.97390735,-0.014211178,0.22554386,0.020792168,-1.2123959,0.6348782,-0.18311465,1.0,0.0,0.0,0.0,0.0,0.0,0.0,-0.3355373,-0.04498139,-0.4312654,2.1691322,-2.177608,-7.303381,-9.859133,-2.3147821,-11.207175,8.646023
-7.5046597,18.453556,-0.32653546,8.244201,0.3912608,-1.0645454,0.5149284,-0.7799049,-0.5685723,-0.7456262,0.7359052,-0.7369427,0.68733937,0.4309393,0.2614099,-0.5845652,-2.3735068,-1.030896,2.299145,1.8014064,-1.001137,0.32584822,-0.5369262,-2.3124063,-1.0906086,2.3623564,1.7422569,-1.0445247,-1.3553896,-0.935954,-1.358131,1.3657674,-1.05228,0.9346087,-0.011801821,-0.32746696,-0.3535385,0.9831228,-1.3001053,0.14814746,0.16086759,-0.3186941,-0.40468597,0.8701079,0.97256494,-0.01312524,0.23216271,0.00674516,-1.2317963,0.6180434,-0.25152534,1.0,0.0,0.0,0.0,0.0,0.0,0.0,-0.322533,-0.046461493,-0.4331228,-0.058460236,-5.6548,-4.8240185,-8.832073,-1.5069962,-9.504795,7.0128174
-9.759936,19.877907,-0.48297924,10.352924,0.72831964,-0.87581867,0.43635362,-0.7841548,-0.58955175,-0.7630067,0.7181036,-0.74089944,0.6918481,0.4268918,0.24743274,-0.5958814,-2.388707,-1.0187982,2.2882664,1.8114417,-1.0018355,0.31219304,-0.54675764,-2.3261735,-1.0774593,2.3517745,1.7510116,-1.0442061,-1.3684881,-0.9992984,-1.382932,1.2987599,-1.0607858,0.8558188,0.046303418,-0.34045792,-0.3520584,0.98398286,-1.2988055,0.14799935,0.061061855,-0.33124447,-0.39858246,0.8671596,0.97110933,-0.0108243255,0.2382898,-0.00689146,-1.2553313,0.6126537,-0.31283745,1.0,0.0,0.0,0.0,0.0,0.0,0.0,-0.30954206,-0.047941595,-0.43398285,-1.189518,-6.4374685,-2.5043964,-6.464219,-1.0411501,-7.860148,5.7686133
-8.556812,23.284657,1.0256886,11.974053,0.91388404,-0.7109197,0.38812017,-0.76924336,-0.62364763,-0.76570696,0.7103042,-0.72946566,0.69458365,0.4050018,0.2352687,-0.6091224,-2.4027443,-1.006429,2.278828,1.82047,-1.003706,0.29846442,-0.5572595,-2.3400552,-1.0647717,2.3411734,1.7590854,-1.0434012,-1.3740042,-1.0675932,-1.3898708,1.2594405,-1.0606852,0.791047,0.091961965,-0.35343647,-0.3505783,0.9838456,-1.2975069,0.14785138,-0.03864409,-0.34400272,-0.3925171,0.8636654,0.9695586,-0.0075684735,0.24391162,-0.02014651,-1.2754328,0.6137658,-0.36526558,1.0,0.0,0.0,0.0,0.0,0.0,0.0,-0.2965635,-0.049421698,-0.43384558,-0.45335293,-6.942034,-0.6726742,-3.6773443,-0.19376278,-6.484461,4.5533853
-6.2960353,30.518234,3.4124134,14.085948,0.97041297,-0.519046,0.3473249,-0.7551983,-0.64177525,-0.7777858,0.7050601,-0.7273054,0.6798412,0.40664163,0.22294459,-0.621437,-2.4178338,-0.9942656,2.2684429,1.8270695,-1.002737,0.28477013,-0.5683698,-2.353975,-1.0523129,2.330599,1.7665851,-1.0422034,-1.3677808,-1.1258798,-1.3926551,1.2421151,-1.0573639,0.7364084,0.12906225,-0.36640167,-0.3490982,0.98271203,-1.2962097,0.14770356,-0.13825035,-0.3568859,-0.38640594,0.85973203,0.9679113,-0.0035646616,0.24908522,-0.033036314,-1.2854093,0.6196581,-0.4064558,1.0,0.0,0.0,0.0,0.0,0.0,0.0,-0.2835983,-0.0509018,-0.43271202,0.6560564,-5.9536457,-0.15497208,-1.5013695,0.08673668,-5.4751873,3.687571
-3.1029582,37.571373,6.0615077,15.585186,0.9702443,-0.3474183,0.33072054,-0.7404683,-0.6630278,-0.7707791,0.7021899,-0.7179552,0.67980474,0.3948118,0.2107233,-0.6346726,-2.431053,-0.9820939,2.2588036,1.8345656,-1.0027223,0.27122223,-0.5799865,-2.3678567,-1.0399227,2.3200858,1.7736118,-1.0406947,-1.3505815,-1.1740317,-1.3858104,1.238711,-1.0503322,0.6913034,0.15796676,-0.37935352,-0.3476181,0.98058313,-1.2949138,0.14755589,-0.23775703,-0.3697834,-0.38021088,0.85545933,0.9661618,0.0010066761,0.25387996,-0.04555471,-1.2838323,0.62765694,-0.4379802,1.0,0.0,0.0,0.0,0.0,0.0,0.0,-0.27064645,-0.052381903,-0.43058312,1.6734362,-4.944992,0.9324074,-0.15351772,0.4019022,-4.523909,2.8521748
4.1578655,45.23306,10.269577,16.249226,0.8357078,-0.24350452,0.36090183,-0.6906079,-0.6849531,-0.7578899,0.71814287,-0.6937218,0.6746506,0.386554,0.20216143,-0.64848185,-2.4436457,-0.9681084,2.2507136,1.8410769,-1.0020393,0.2580639,-0.59202665,-2.3815858,-1.0274353,2.309706,1.7802436,-1.0389476,-1.3049285,-1.2144991,-1.3673946,1.2523416,-1.0352587,0.6536983,0.18021628,-0.39229298,-0.346138,0.97745997,-1.293619,0.14740837,-0.33716422,-0.3825407,-0.37400055,0.850952,0.9643147,0.0059334207,0.25834388,-0.057622127,-1.2656342,0.63020194,-0.45903885,1.0,0.0,0.0,0.0,0.0,0.0,0.0,-0.257707,-0.053862005,-0.42745996,4.3679476,-4.16739,2.3077726,1.4551163,1.1163235,-3.7779331,2.1581264
7.5195265,47.597717,11.719836,15.873777,0.724798,-0.2486825,0.36824933,-0.6615223,-0.707691,-0.7582535,0.7175909,-0.68597806,0.648109,0.3748329,0.19191167,-0.6627958,-2.4574113,-0.9556762,2.2411082,1.8450545,-1.0014642,0.24545681,-0.6044454,-2.3951395,-1.0147991,2.2994826,1.7865283,-1.0370193,-1.2468514,-1.2514033,-1.3496212,1.2676126,-1.0191822,0.61995125,0.19670686,-0.40522003,-0.3446579,0.97334343,-1.2923257,0.147261,-0.43647206,-0.39507198,-0.36777496,0.84624517,0.96238226,0.011118659,0.26250532,-0.06919369,-1.2415124,0.6275378,-0.4785335,1.0,0.0,0.0,0.0,0.0,0.0,0.0,-0.24477994,-0.055342108,-0.42334342,5.5471897,-3.8062096,2.3360014,1.5772581,1.1789799,-3.4041643,1.5635461
13.155064,54.580193,14.822266,16.41425,0.5401202,-0.17499161,0.4026604,-0.6116815,-0.7092147,-0.7453866,0.72918385,-0.68688464,0.6447651,0.39681306,0.18428867,-0.6753669,-2.4696782,-0.9418807,2.2307942,1.8510048,-0.99733794,0.23355615,-0.61712927,-2.408487,-1.0019855,2.289389,1.7925136,-1.0349383,-1.1723956,-1.274414,-1.3273168,1.2858908,-1.0082128,0.59140825,0.21150443,-0.41813374,-0.34319305,0.9682346,-1.2910336,0.14711377,-0.5356806,-0.40725613,-0.36162567,0.84139925,0.9603664,0.016476808,0.26644272,-0.08020654,-1.2032161,0.61818117,-0.4906865,1.0,0.0,0.0,0.0,0.0,0.0,0.0,-0.23186624,-0.05680695,-0.4182346,7.071352,-2.414441,2.9725313,1.7945766,0.56869984,-2.8833985,1.3438255
15.202634,55.87766,15.385161,15.944696,0.43247855,-0.2113356,0.41793394,-0.5728528,-0.7216344,-0.74519265,0.72815824,-0.68274224,0.62614137,0.421614,0.17627087,-0.6892927,-2.4830062,-0.9291697,2.2211146,1.8551277,-0.99277693,0.22243583,-0.63000196,-2.4216554,-0.98903346,2.2793791,1.7982357,-1.0327125,-1.0932503,-1.2919233,-1.3105284,1.298061,-1.0002869,0.5657523,0.22596258,-0.4310341,-0.3417282,0.9621344,-1.2897428,0.14696668,-0.6347899,-0.4190359,-0.35559845,0.8364277,0.95827436,0.021995118,0.27021006,-0.0906251,-1.1622248,0.60355467,-0.50338954,1.0,0.0,0.0,0.0,0.0,0.0,0.0,-0.21896589,-0.058271796,-0.4121344,7.5116634,-1.8632889,2.4717808,1.1578083,0.23310184,-2.6059628,1.2869895
23.92724,56.240604,18.120975,13.435997,0.078822315,-0.3582849,0.4985907,-0.48260134,-0.7405765,-0.7348476,0.7314613,-0.6636527,0.58745,0.39346898,0.1741757,-0.7040596,-2.49514,-0.91588736,2.213014,1.8569807,-0.9933656,0.21233833,-0.64306825,-2.4346483,-0.9759958,2.2694724,1.8037021,-1.0303798,-0.983654,-1.3117884,-1.2926761,1.3052001,-0.98924536,0.5400412,0.23506375,-0.44392204,-0.34026337,0.95504385,-1.2884533,0.14681974,-0.73380005,-0.4303398,-0.34986877,0.8313109,0.9561416,0.027632853,0.27379048,-0.10034105,-1.1129991,0.5717584,-0.51851964,1.0,0.0,0.0,0.0,0.0,0.0,0.0,-0.20607793,-0.05973664,-0.40504384,10.433626,-2.0787,2.7594805,0.5660057,0.45655966,-2.6494741,0.71629286
52.274593,56.362434,27.416975,5.1507277,-1.1853827,-0.697596,0.8426399,-0.2756615,-0.76874703,-0.70784736,0.71994436,-0.65623295,0.562041,0.41565487,0.18477218,-0.7199429,-2.505433,-0.90400136,2.203849,1.8599062,-0.9888143,0.2040819,-0.65641207,-2.447355,-0.9629915,2.2596686,1.8089168,-1.0279613,-0.7760543,-1.3420304,-1.258267,1.2974665,-0.9805217,0.5144848,0.24311598,-0.45679665,-0.33879852,0.94697237,-1.2871652,0.14667295,-0.8315881,-0.44091797,-0.34481812,0.8259842,0.954063,0.033263348,0.27712244,-0.10890562,-1.0329305,0.48747572,-0.541424,1.0,0.0,0.0,0.0,0.0,0.0,0.0,-0.19320333,-0.061201483,-0.39697236,19.831789,-3.0545235,5.011463,-1.2039423,-0.06765127,-2.7328372,0.49440563
57.66205,57.252094,29.053896,4.4594007,-1.2396071,-0.7884097,0.86498046,-0.21070893,-0.7786778,-0.66780937,0.72124827,-0.63343227,0.5271012,0.40870348,0.183011,-0.7342799,-2.514136,-0.89086664,2.1963253,1.861627,-0.9870909,0.19793594,-0.6700544,-2.4595735,-0.95008063,2.2499945,1.8138721,-1.0254798,-0.56393826,-1.371845,-1.2040472,1.2875161,-0.96649307,0.4884125,0.24887611,-0.46965885,-0.33733368,0.9379237,-1.2858783,0.1465263,-0.9292783,-0.45067883,-0.34068298,0.8204489,0.95211166,0.0387598,0.28016695,-0.116135344,-0.95086867,0.39320943,-0.5616393,1.0,0.0,0.0,0.0,0.0,0.0,0.0,-0.18034112,-0.06266633,-0.38792372,20.255327,-3.026247,7.086754,-1.4294624,0.37183762,-2.843678,0.26676357
92.66565,69.95195,42.90982,0.1976558,-2.228653,-0.8775404,1.1799879,0.055831045,-0.7852932,-0.55313927,0.7359544,-0.600636,0.5552397,0.41762316,0.20351905,-0.7485837,-2.5148873,-0.87648517,2.189931,1.8693961,-0.9837175,0.19465506,-0.6839532,-2.4707468,-0.9372041,2.2405112,1.818608,-1.0229506,-0.25413406,-1.3960611,-1.0800472,1.2852936,-0.9473984,0.46712247,0.25298885,-0.4825077,-0.33586884,0.92789894,-1.2845926,0.14637981,-1.026871,-0.45926,-0.33786774,0.8148318,0.9504013,0.04371104,0.28293446,-0.12155179,-0.82180715,0.24655636,-0.5657217,1.0,0.0,0.0,0.0,0.0,0.0,0.0,-0.16749227,-0.06413117,-0.37789893,29.577805,-2.4647474,14.878678,-0.92015266,0.36411285,-2.5200367,-0.01963973
61.930443,63.22858,31.466898,6.6473775,-0.6937152,-0.7275624,0.78549457,-0.050714593,-0.80415577,-0.46986482,0.7020556,-0.5521543,0.53133,0.29757103,0.1895836,-0.7643688,-2.5177333,-0.86699855,2.1852958,1.871741,-0.99319357,0.1934458,-0.69810766,-2.4804552,-0.9244659,2.231352,1.8231399,-1.0204673,-0.07941145,-1.4223119,-0.92869943,1.2689844,-0.9092993,0.4476209,0.24598342,-0.49534416,-0.334404,0.9168858,-1.2833083,0.14623347,-1.1261234,-0.46688747,-0.33612823,0.80917543,0.9489716,0.047995295,0.2853214,-0.12546265,-0.73865354,0.15308174,-0.5695544,1.0,0.0,0.0,0.0,0.0,0.0,0.0,-0.15465581,-0.065596014,-0.36688578,16.60695,-2.7381897,16.855776,-1.946187,2.5927186,-2.283609,-0.93802214
51.312355,59.265194,26.778158,8.032277,-0.31400016,-0.70560265,0.6551195,0.034908585,-0.8180477,-0.41495377,0.68313044,-0.56750226,0.55252016,0.2857342,0.19693667,-0.7799124,-2.5219505,-0.85615283,2.1746018,1.878392,-0.9918939,0.19364345,-0.7125234,-2.4886835,-0.9119623,2.2224982,1.8275192,-1.0180659,0.050620466,-1.4485081,-0.78267694,1.2435237,-0.8812425,0.4336005,0.23761383,-0.5081682,-0.33293915,0.9048808,-1.2820252,0.14608726,-1.2252767,-0.47380257,-0.3351593,0.80344707,0.947812,0.051679082,0.28731257,-0.12819149,-0.6717875,0.07615163,-0.57787687,1.0,0.0,0.0,0.0,0.0,0.0,0.0,-0.14183176,-0.06706086,-0.3548808,12.344633,-2.7574062,16.019905,-2.7142763,1.7361164,-1.7045915,-1.0146648
34.535137,58.387928,20.975376,11.870587,0.48249528,-0.5703512,0.42770243,0.043097783,-0.81796104,-0.33212864,0.6570798,-0.51455057,0.5381144,0.20295264,0.19795322,-0.7943195,-2.5218964,-0.8462543,2.1710432,1.8813306,-0.99777067,0.1946491,-0.72713464,-2.495466,-0.89979243,2.2140257,1.8317726,-1.0158019,0.11586405,-1.4657817,-0.6404118,1.2080246,-0.8388212,0.4218766,0.22235158,-0.5209789,-0.3314743,0.8918851,-1.2807435,0.1459412,-1.3243308,-0.4801998,-0.3347473,0.797652,0.9469038,0.054808035,0.28888148,-0.13006371,-0.6255759,0.02963934,-0.5838823,1.0,0.0,0.0,0.0,0.0,0.0,0.0,-0.12902105,-0.0685257,-0.3418851,6.1253443,-1.8732548,15.221453,-3.578186,3.402102,-1.3855696,-1.620233
22.686228,53.589447,15.72805,12.906194,0.8308336,-0.6205221,0.2693889,0.07348908,-0.8293994,-0.31989527,0.6301611,-0.47038543,0.52302444,0.13181394,0.20199801,-0.81007457,-2.5274556,-0.8367763,2.1669872,1.884075,-1.0026205,0.19608843,-0.74190325,-2.5011766,-0.88803744,2.2060568,1.8359153,-1.0137343,0.15249746,-1.4810195,-0.5456358,1.1648446,-0.7849594,0.41133046,0.20157759,-0.5337763,-0.33000946,0.8778996,-1.279463,0.14579529,-1.423286,-0.4862795,-0.3346634,0.79174,0.94621533,0.057525117,0.29000548,-0.13139284,-0.5987695,-0.00023002205,-0.59733623,0.0,1.0,0.0,0.0,0.0,0.0,0.0,-0.11622369,-0.069990546,-0.32789958,3.4275353,-1.6661406,10.141706,-4.2535305,4.7811985,-1.2119234,-2.1199644
21.90341,50.554356,14.243372,11.268803,0.76865536,-0.74732065,0.25669637,0.12898393,-0.8321117,-0.3096307,0.5783394,-0.37645924,0.48099515,0.11136956,0.20898682,-0.8251144,-2.5321398,-0.83020353,2.168411,1.8840148,-1.0025973,0.19794309,-0.7567863,-2.506273,-0.87686896,2.1988318,1.8399341,-1.0118728,0.195737,-1.4910971,-0.495852,1.1011002,-0.7033917,0.39828297,0.1806923,-0.54656124,-0.32855225,0.86292523,-1.2781838,0.14564952,-1.5221422,-0.4921379,-0.3348999,0.7856312,0.9457536,0.059963938,0.29060563,-0.13229798,-0.57849616,-0.031250633,-0.6189598,0.0,1.0,0.0,0.0,0.0,0.0,0.0,-0.103438735,-0.07144776,-0.31292522,4.107997,-1.1489868,5.56345,-6.296277,7.6361775,-1.4679909,-2.1261632
10.423819,51.766495,10.365757,14.711031,1.0905442,-0.693789,0.092396386,0.114920594,-0.82823837,-0.3227776,0.5831886,-0.38175008,0.47571585,0.062952586,0.20943515,-0.8396101,-2.5385509,-0.8185501,2.1606567,1.8875057,-1.0055776,0.20005755,-0.7716878,-2.5115235,-0.8665586,2.1933846,1.8434464,-1.0100513,0.21641059,-1.490439,-0.53305954,1.0100217,-0.49030438,0.33469832,0.18158767,-0.5528002,-0.32898712,0.8599946,-0.3948796,-0.12507607,0.037519556,-0.49805355,-0.33529663,0.77927417,0.94561195,0.062323555,0.2902343,-0.13303255,-0.592817,-0.041600183,-0.6439874,0.0,1.0,0.0,0.0,0.0,0.0,0.0,-0.0971998,-0.071012884,-0.30999458,1.9549698,-0.3665924,0.39983988,-4.375696,6.482357,-1.3685048,-2.1553426
58.399124,101.199875,38.822388,23.292406,3.273812,0.368549,0.109502025,0.17964296,-0.82516235,0.4939858,0.63811046,0.25671738,0.49247533,-0.27854633,0.21802184,-0.85420406,-2.4621248,-0.80274755,2.2190564,1.8926939,-1.0379059,0.2025569,-0.78656226,-2.5131295,-0.8564039,2.1907067,1.8467366,-1.0086379,0.25979504,-1.486962,-0.032219134,1.0170356,-0.19791555,0.3267371,0.12802786,-0.5567455,-0.33023834,0.85961735,-0.39448482,-0.12495102,-0.06279716,-0.5033455,-0.3358307,0.7736002,0.94612914,0.06229649,0.28853464,-0.13306576,-0.5045315,-0.059969574,-0.5451643,0.0,1.0,0.0,0.0,0.0,0.0,0.0,-0.09325445,-0.06976166,-0.30961734,3.942144,0.1765728,51.450485,0.6131172,27.974426,-0.8966088,-5.3191543
18.93012,78.78699,24.07986,21.729307,4.616854,0.47213703,-0.10503153,-0.06744376,-0.84019,0.56507593,0.36739004,0.56285703,0.42756104,-0.40299505,0.19581252,-0.87058127,-2.456622,-0.8196649,2.2469923,1.8894926,-1.0489374,0.20429067,-0.8014644,-2.5094101,-0.8472133,2.1915307,1.8499619,-1.0078406,0.1450672,-1.4917057,0.50738007,0.88670033,0.1740499,0.32173932,0.06429179,-0.56068707,-0.33148956,0.8582377,-0.3940904,-0.12482609,-0.16301358,-0.5082121,-0.33607483,0.7686553,0.9475265,0.05918553,0.2848349,-0.1325123,-0.47831368,-0.012771519,-0.48081103,0.0,1.0,0.0,0.0,0.0,0.0,0.0,-0.08931291,-0.06851044,-0.30823767,-11.32972,-0.59428215,54.228306,-12.941122,36.634117,-0.35959482,-6.163402
4.2924967,61.580612,15.173272,16.653452,3.9111621,0.14786842,0.048846863,-0.07077149,-0.8307671,0.55043495,0.24355535,0.6362171,0.4071072,-0.03899309,0.19721353,-0.8845411,-2.4543667,-0.8228578,2.2551525,1.8906726,-1.01174,0.20476727,-0.8163751,-2.5013497,-0.83986336,2.1957383,1.853149,-1.0073638,0.016116414,-1.4912449,0.90483946,0.6849004,0.50274235,0.31864783,0.043106936,-0.5646248,-0.33274078,0.8558566,-0.3936964,-0.12470129,-0.2631298,-0.5130129,-0.33582306,0.76400965,0.94973826,0.053725466,0.27895913,-0.13150105,-0.47967798,0.03801387,-0.46232322,1.0,0.0,0.0,0.0,0.0,0.0,0.0,-0.08537519,-0.06725922,-0.3058566,-12.621201,-0.04861355,39.47947,-20.041157,32.81297,-0.08320212,-1.8648512
25.505978,57.384808,17.552334,9.970751,1.9047098,-0.4736607,0.26615167,0.100146085,-0.82642245,0.5222927,0.24298817,0.6506378,0.38664424,0.01716121,0.21478188,-0.89901733,-2.4491205,-0.8155645,2.260802,1.8918135,-1.0056477,0.2049449,-0.83125716,-2.4908288,-0.83427674,2.202536,1.8562943,-1.0069938,0.018474342,-1.4876875,1.1015515,0.517266,0.7385172,0.31361324,0.035461817,-0.5685587,-0.333992,0.8524751,-0.3933028,-0.12457661,-0.36314595,-0.5176954,-0.33551788,0.7593409,0.9525143,0.046822738,0.27137637,-0.12991871,-0.46444002,0.029909901,-0.47129482,1.0,0.0,0.0,0.0,0.0,0.0,0.0,-0.08144128,-0.066008,-0.3024751,0.27726293,0.20184517,19.733597,-16.549456,23.470068,-0.35840273,-0.5790219
46.090008,40.022385,17.639397,-4.2338214,-0.5168668,-1.1408082,0.69705105,0.15994023,-0.830709,0.545864,0.010118781,0.654107,0.3056268,0.020892061,0.22093892,-0.91432804,-2.4362423,-0.8332649,2.2679467,1.8868569,-1.0049045,0.20574622,-0.8461259,-2.4793541,-0.83097225,2.2109857,1.859325,-1.0066657,0.100124255,-1.4872744,1.1642195,0.26920295,0.8793405,0.2996065,0.032288946,-0.5724888,-0.33524323,0.8480942,-0.39290956,-0.12445206,-0.46306208,-0.52212715,-0.33577728,0.7541617,0.9557006,0.039469406,0.2623756,-0.12742631,-0.4365694,-0.041402068,-0.536266,1.0,0.0,0.0,0.0,0.0,0.0,0.0,-0.07751119,-0.06475678,-0.2980942,7.997689,-0.18942356,6.6488028,-24.524635,13.8236885,-1.3965428,-0.1656495
26.42021,29.041962,9.385699,-5.043801,-0.7318272,-1.2025063,0.6776127,0.049307503,-0.8274612,0.5731374,-0.15879709,0.6697503,0.26289898,0.09542881,0.21067697,-0.928872,-2.4220405,-0.84685194,2.2779608,1.885615,-0.9971228,0.2069302,-0.86098033,-2.4677918,-0.8304754,2.2203584,1.8621861,-1.0062995,0.1243608,-1.4854451,1.153738,-0.022411454,0.95672554,0.2814249,0.038948007,-0.57641506,-0.33648682,0.8427149,-0.39251673,-0.12432764,-0.5628783,-0.52643776,-0.33662415,0.7481185,0.95916164,0.032479882,0.25211018,-0.1240737,-0.42906827,-0.09837947,-0.6298516,1.0,0.0,0.0,0.0,0.0,0.0,0.0,-0.073584914,-0.06351319,-0.2927149,2.382852,-0.008845329,-1.0725737,-28.851456,7.7688575,-1.8649459,0.9164706
5.772421,38.088154,5.496361,4.87027,0.10737375,-0.94559723,0.3746438,0.017316123,-0.8193873,0.5696069,-0.15223052,0.6822481,0.23266362,0.18535662,0.20866182,-0.9429191,-2.4108312,-0.8456984,2.2885833,1.8854524,-0.9877638,0.20805077,-0.87577754,-2.4566185,-0.8322645,2.230208,1.8648564,-1.0057921,0.10832098,-1.478266,1.1041616,-0.23000167,0.9954659,0.2621262,0.055573896,-0.5803375,-0.33772278,0.8363382,-0.3921243,-0.12420333,-0.66259474,-0.53076553,-0.33779144,0.7412945,0.9627076,0.026149804,0.24093819,-0.12024609,-0.43333298,-0.12250859,-0.70270574,1.0,0.0,0.0,0.0,0.0,0.0,0.0,-0.06966245,-0.062277228,-0.2863382,-1.4901385,0.60374737,-5.333209,-20.446566,4.1688085,-1.9497871,1.9618399
10.923643,46.6653,8.299619,7.981461,0.014268037,-0.92405146,0.3065372,0.08992641,-0.823018,0.54918087,-0.19107173,0.6767884,0.17470737,0.22531855,0.21704341,-0.95807934,-2.4017005,-0.85137165,2.2978868,1.8823271,-0.9832603,0.20925097,-0.89052325,-2.4460557,-0.83557373,2.2402368,1.8673092,-1.005094,0.12429841,-1.4737002,1.0390561,-0.36345398,1.0062385,0.23945346,0.075398624,-0.5842562,-0.33895874,0.82896507,-0.39173225,-0.12407915,-0.7622115,-0.53506374,-0.33926392,0.7338708,0.9662128,0.020481072,0.22920255,-0.116101235,-0.42698547,-0.15352625,-0.7582623,1.0,0.0,0.0,0.0,0.0,0.0,0.0,-0.065743804,-0.061041266,-0.27896506,1.7144904,0.35851002,-6.8562984,-13.019419,1.3801694,-2.2859395,2.2608817
4.8025093,52.513138,8.153274,12.3340845,0.38578248,-0.7551354,0.17787084,0.06629202,-0.8216319,0.5388292,-0.2458059,0.675411,0.14833884,0.25765547,0.21588017,-0.97268647,-2.3921728,-0.86015433,2.307778,1.8821431,-0.9793285,0.21051888,-0.9052308,-2.4360955,-0.8398748,2.2502732,1.8695351,-1.0041881,0.12816875,-1.4699414,0.9802639,-0.45127925,1.0037645,0.21705382,0.09641159,-0.588171,-0.3401947,0.8205965,-0.3913406,-0.1239551,-0.8617286,-0.5393162,-0.34093475,0.7259946,0.96960384,0.015404738,0.2171129,-0.11177182,-0.4219746,-0.17179227,-0.79994047,1.0,0.0,0.0,0.0,0.0,0.0,0.0,-0.06182897,-0.059805304,-0.2705965,0.5483836,0.31108856,-6.309545,-8.474779,0.121712685,-2.2370756,2.3772314
-4.09762,55.297764,6.809427,15.625654,0.7801186,-0.60620135,0.08235113,0.029458072,-0.8171995,0.51743364,-0.30369064,0.6759151,0.070753485,0.32737413,0.21346469,-0.98695076,-2.3843522,-0.87024385,2.3178647,1.8766104,-0.9714506,0.2116342,-0.9198926,-2.4266694,-0.8449274,2.2602487,1.8715016,-1.0030417,0.10664847,-1.4649451,0.92855024,-0.5222471,0.9970178,0.1900622,0.1217227,-0.592082,-0.34143066,0.8112335,-0.39094934,-0.12383117,-0.96114624,-0.54356575,-0.3426895,0.71775484,0.97284293,0.010890762,0.20475413,-0.10739526,-0.42298946,-0.17448308,-0.83442116,1.0,0.0,0.0,0.0,0.0,0.0,0.0,-0.057917953,-0.058569342,-0.2612335,-1.9487903,0.46203136,-5.6937933,-6.8065586,-0.25100708,-2.6859908,2.8092637
-0.0755651,58.775795,8.734784,15.876387,0.6904449,-0.55503476,0.08375666,0.053351205,-0.8164583,0.49953955,-0.33140925,0.67346895,0.04739144,0.34218398,0.21696933,-1.0015384,-2.3767154,-0.87806827,2.3275955,1.8762407,-0.9688234,0.21262793,-0.9345105,-2.417682,-0.8505588,2.2701478,1.8732067,-1.0016532,0.09762588,-1.4607813,0.88695574,-0.5758464,0.989067,0.16402236,0.14552432,-0.5959892,-0.34266663,0.8008771,-0.39055848,-0.12370736,-1.0604645,-0.54778385,-0.3444748,0.70921963,0.9759183,0.006852948,0.1921768,-0.10297832,-0.41771978,-0.18095833,-0.86233765,1.0,0.0,0.0,0.0,0.0,0.0,0.0,-0.05401075,-0.05733338,-0.25087708,-0.70549697,0.38290024,-4.6620727,-5.0721526,-0.3730297,-2.5817454,2.6515036
-3.0857284,59.816856,8.570162,16.570667,0.81334627,-0.42339376,0.048361503,0.023761239,-0.81346387,0.49174392,-0.37891883,0.6715543,0.052471615,0.33148798,0.21500406,-1.0158569,-2.3685076,-0.8884507,2.3373032,1.8784539,-0.96850437,0.21343379,-0.9490836,-2.4090073,-0.856752,2.2799745,1.874683,-1.0000606,0.075606555,-1.456279,0.8588125,-0.6328736,0.9822409,0.14214604,0.16497643,-0.5998926,-0.3439026,0.78952825,-0.39016798,-0.12358368,-1.1596833,-0.55195236,-0.34629822,0.7004183,0.97882575,0.0032168168,0.17938723,-0.09853914,-0.4129487,-0.18074504,-0.8885797,1.0,0.0,0.0,0.0,0.0,0.0,0.0,-0.05010736,-0.056097418,-0.23952824,-1.989457,0.42386055,-3.354454,-5.4188848,-0.24273396,-2.1645844,2.2261918
-4.5449305,59.311592,8.503611,16.2162,0.85890603,-0.335408,0.03916619,0.0010947431,-0.8148818,0.49133795,-0.4275456,0.67573524,0.034688685,0.324698,0.21354327,-1.0305718,-2.3598735,-0.89950657,2.347548,1.8781519,-0.96759075,0.21394543,-0.96363,-2.4005044,-0.86359173,2.2897668,1.8759533,-0.998302,0.04377223,-1.4542006,0.8455258,-0.69998556,0.9793134,0.12207562,0.18048476,-0.6037922,-0.34513855,0.77718794,-0.3897779,-0.12346012,-1.258803,-0.5560789,-0.34807587,0.6913437,0.9815704,-7.690134e-05,0.16633439,-0.09408657,-0.40852612,-0.17683876,-0.916209,1.0,0.0,0.0,0.0,0.0,0.0,0.0,-0.046207786,-0.054861456,-0.22718793,-2.9613502,0.1814127,-1.8937826,-6.4229608,0.1558423,-1.992923,1.8451333
-9.577814,58.878323,7.2106686,16.987474,0.9385876,-0.2612208,-0.010680374,-0.02464962,-0.8093609,0.44284156,-0.4588062,0.66843075,0.013612778,0.35437593,0.21148047,-1.0445662,-2.3562202,-0.90947235,2.3566098,1.8773146,-0.9628644,0.2140675,-0.9781411,-2.3922799,-0.87110096,2.2995172,1.877031,-0.99638796,0.002455095,-1.4501718,0.8128679,-0.7669333,0.97541565,0.10288577,0.19614355,-0.60768795,-0.3463745,0.76385725,-0.3893882,-0.12333668,-1.3578236,-0.5601921,-0.34977722,0.68197626,0.98413754,-0.0029817785,0.1530413,-0.08968131,-0.4077305,-0.16634583,-0.945819,1.0,0.0,0.0,0.0,0.0,0.0,0.0,-0.042312026,-0.053625494,-0.21385723,-3.9064744,0.38342476,-3.8321257,-6.4026713,0.051105022,-1.928036,1.8647164
-3.5421412,61.007767,9.263371,15.947922,0.70260847,-0.2412385,0.01696045,-0.012313702,-0.8082147,0.4375249,-0.4832108,0.6719825,0.017208098,0.34290332,0.21283613,-1.0589626,-2.3485274,-0.91942203,2.3667154,1.8787518,-0.96209764,0.21391086,-0.9926141,-2.3843606,-0.87922436,2.3092523,1.8779408,-0.9943433,-0.020959787,-1.4463446,0.78309226,-0.8264653,0.97390276,0.08702277,0.2083576,-0.611578,-0.34761047,0.749537,-0.3889989,-0.12321337,-1.4567453,-0.5642452,-0.35141754,0.6723336,0.98652124,-0.005538526,0.13953117,-0.085300475,-0.39940506,-0.16339791,-0.9725411,1.0,0.0,0.0,0.0,0.0,0.0,0.0,-0.03842199,-0.052389532,-0.19953698,-2.1267445,0.3650427,-3.524816,-5.6576014,0.2895832,-1.5886813,1.5226036
-8.721379,60.31459,7.9445667,16.991535,0.80372995,-0.1640087,-0.04958409,-0.046932865,-0.8090077,0.3951782,-0.50453705,0.6525956,0.0032385874,0.34840795,0.20921758,-1.0735148,-2.3448427,-0.9296781,2.3745117,1.8782647,-0.95950246,0.21346001,-1.0070612,-2.3768609,-0.88786656,2.3189187,1.8786999,-0.992188,-0.052390654,-1.4441783,0.7367642,-0.8758981,0.9655951,0.07223594,0.21890533,-0.6154642,-0.34884644,0.73422825,-0.38860998,-0.123090185,-1.555568,-0.56824684,-0.35297394,0.66241544,0.9887039,-0.007717278,0.12587024,-0.081003994,-0.39531982,-0.15368026,-1.0003961,1.0,0.0,0.0,0.0,0.0,0.0,0.0,-0.034535766,-0.05115357,-0.18422824,-2.9297516,0.2060175,-5.1638484,-4.64828,-0.41145086,-1.5048637,1.3521194
2.3718078,65.62202,11.826696,16.07321,0.40645605,-0.17853314,0.009209994,-0.0067491857,-0.8034285,0.38512158,-0.4989511,0.64800346,0.0063481545,0.36231974,0.2127851,-1.0874041,-2.3383486,-0.93776166,2.383719,1.8793347,-0.955956,0.21295576,-1.0214694,-2.3697922,-0.8968168,2.3284936,1.879335,-0.9899316,-0.049123257,-1.4397445,0.69510835,-0.9004751,0.9560587,0.060505036,0.22892763,-0.6193466,-0.3500824,0.7179321,-0.38822144,-0.12296712,-1.654292,-0.572114,-0.35456848,0.6522902,0.9906776,-0.009590805,0.11214714,-0.07673873,-0.3784691,-0.15821657,-1.018559,1.0,0.0,0.0,0.0,0.0,0.0,0.0,-0.030653358,-0.04991761,-0.1679321,0.52298975,0.44455528,-4.669726,-2.175963,-0.51680803,-1.1611723,1.2900382
8.77116,72.822395,15.096306,17.5831,0.23540466,-0.07088363,-0.002947878,0.020529255,-0.7974871,0.3649661,-0.45377234,0.62645036,0.12863807,0.36747232,0.21500868,-1.1012181,-2.3332956,-0.94219404,2.3911386,1.8921988,-0.95318437,0.21268849,-1.0358126,-2.363128,-0.90566593,2.3379235,1.8799626,-0.9875827,-0.018627094,-1.4322373,0.6557132,-0.8789997,0.9401334,0.063710764,0.23777795,-0.6232252,-0.35131836,0.70064944,-0.3878333,-0.122844175,-1.7529173,-0.5757513,-0.35622406,0.6420967,0.992425,-0.011320738,0.098548114,-0.072475575,-0.35272637,-0.16819577,-1.0212135,1.0,0.0,0.0,0.0,0.0,0.0,0.0,-0.026774764,-0.048681647,-0.15064943,3.2341983,0.77826977,-4.4270515,2.39501,-1.1252403,0.39145872,1.159063
-12.178854,73.35158,10.160552,24.035704,0.9800552,0.17482293,-0.2667875,-0.039078113,-0.7887595,0.26155445,-0.406308,0.5970281,0.17939466,0.36303055,0.20878068,-1.1146885,-2.3369725,-0.94629675,2.3976264,1.897902,-0.95127964,0.2124608,-1.0500491,-2.3572228,-0.91399914,2.3471246,1.8806721,-0.9851613,-0.023570098,-1.4204357,0.5673508,-0.8173625,0.9144197,0.0734783,0.24441162,-0.6271,-0.35253906,0.6823813,-0.38744554,-0.12272136,-1.8514439,-0.57928085,-0.35775757,0.63191104,0.9939116,-0.012856222,0.08532368,-0.06851451,-0.34765205,-0.14811671,-1.0193571,0.0,1.0,0.0,0.0,0.0,0.0,0.0,-0.022899985,-0.047460943,-0.13238126,-0.31491333,1.2283087,-9.26652,6.3830495,-2.163291,1.0228932,0.90157986
-34.491714,71.94793,3.7166333,30.77475,1.6186246,0.30822295,-0.57309145,-0.059921186,-0.7748006,0.073267385,-0.30522776,0.53857297,0.22024089,0.3867149,0.20646869,-1.1275291,-2.349896,-0.9445219,2.400982,1.9026961,-0.9464898,0.21202187,-1.0641177,-2.3529694,-0.921269,2.3559136,1.8815075,-0.98266935,-0.050162252,-1.4021101,0.37700373,-0.6962745,0.8681152,0.08680308,0.25144655,-0.63097095,-0.35375977,0.66312855,-0.38705817,-0.12259866,-1.949872,-0.58294106,-0.3589096,0.62174594,0.99510366,-0.01389817,0.07286332,-0.065318346,-0.36646637,-0.100730784,-1.0172672,0.0,1.0,0.0,0.0,0.0,0.0,0.0,-0.019029021,-0.04624024,-0.11312854,-2.5123158,1.8877745,-19.312006,12.310112,-4.3512225,1.3155713,0.8705199
-53.251915,61.77145,-4.832934,33.031284,1.770027,0.18954062,-0.8318944,-0.069437645,-0.7641068,-0.21282378,-0.22669855,0.43350184,0.2043105,0.3403871,0.20507811,-1.1405283,-2.3742518,-0.94393885,2.3992639,1.9019386,-0.94863063,0.21126832,-1.0779785,-2.351919,-0.92729735,2.3644507,1.8823636,-0.98008573,-0.08333815,-1.3807559,0.013566305,-0.5708208,0.85340846,0.082069375,0.2624244,-0.6343069,-0.3546219,0.65276194,-0.28302222,-0.0799082,-0.7179701,-0.58700466,-0.3594513,0.6113645,0.99600995,-0.0138176475,0.061344024,-0.06332604,-0.41498715,-0.038963918,-1.0471328,0.0,1.0,0.0,0.0,0.0,0.0,0.0,-0.015693069,-0.04537812,-0.102761924,-3.3237815,2.040434,-34.035,15.623177,-8.364475,0.5941957,0.24526715
