Afshin1997/kuka_rl_ros2/src/catch_and_throw/input_files/idealpd/recorded_trajectories/env_372_data.csv
torque0,torque1,torque2,torque3,torque4,torque5,torque6,action0,action1,action2,action3,action4,action5,action6,set_target_0,set_target_1,set_target_2,set_target_3,set_target_4,set_target_5,set_target_6,joint_pos_0,joint_pos_1,joint_pos_2,joint_pos_3,joint_pos_4,joint_pos_5,joint_pos_6,joint_vel_0,joint_vel_1,joint_vel_2,joint_vel_3,joint_vel_4,joint_vel_5,joint_vel_6,tennisball_pos_0,tennisball_pos_1,tennisball_pos_2,tennisball_lin_vel_0,tennisball_lin_vel_1,tennisball_lin_vel_2,end_effector_pos_0,end_effector_pos_1,end_effector_pos_2,end_effector_rot_0,end_effector_rot_1,end_effector_rot_2,end_effector_rot_3,end_effector_lin_vel_0,end_effector_lin_vel_1,end_effector_lin_vel_2,obs_task_0,obs_task_1,obs_task_2,obs_task_3,obs_task_4,obs_task_5,obs_task_6,to_final_target_0,to_final_target_1,to_final_target_2,joint_acc_0,joint_acc_1,joint_acc_2,joint_acc_3,joint_acc_4,joint_acc_5,joint_acc_6
0.0,0.0,0.0,0.0,0.0,0.0,0.0,0.0,0.0,0.0,0.0,0.0,0.0,0.0,1.7802359,-1.0646509,-1.8151424,-1.1170107,1.9373155,1.1170107,-0.91629785,1.7802359,-1.0646509,-1.8151424,-1.1170107,1.9373155,1.1170107,-0.91629785,0.0,0.0,0.0,0.0,0.0,0.0,0.0,3.2686043,-0.5530014,0.42742306,-3.452633,0.21362256,5.0396605,0.5304184,-0.45448303,0.693097,0.5745483,0.17512383,0.15255436,0.7848268,0.0,0.0,0.0,1.0,0.0,0.0,0.0,0.0,0.0,0.0,-3.9186044,0.1530014,0.12257695,0.0,0.0,0.0,0.0,0.0,0.0,0.0
0.0,0.0,0.0,0.0,0.0,0.0,0.0,0.0,0.0,0.0,0.0,0.0,0.0,0.0,1.7802359,-1.0646509,-1.8151424,-1.1170107,1.9373155,1.1170107,-0.91629785,1.7802359,-1.0646509,-1.8151424,-1.1170107,1.9373155,1.1170107,-0.91629785,0.0,0.0,0.0,0.0,0.0,0.0,0.0,3.2686043,-0.5530014,0.42742306,-3.452633,0.21362256,5.0396605,0.5304184,-0.45448303,0.693097,0.5745483,0.17512383,0.15255436,0.7848268,0.0,0.0,0.0,1.0,0.0,0.0,0.0,0.0,0.0,0.0,-3.9186044,0.1530014,0.12257695,0.0,0.0,0.0,0.0,0.0,0.0,0.0
0.0,0.0,0.0,0.0,0.0,0.0,0.0,0.0,0.0,0.0,0.0,0.0,0.0,0.0,1.7802359,-1.0646509,-1.8151424,-1.1170107,1.9373155,1.1170107,-0.91629785,1.7802359,-1.0646509,-1.8151424,-1.1170107,1.9373155,1.1170107,-0.91629785,0.0,0.0,0.0,0.0,0.0,0.0,0.0,3.2686043,-0.5530014,0.42742306,-3.452633,0.21362256,5.0396605,0.5304184,-0.45448303,0.693097,0.5745483,0.17512383,0.15255436,0.7848268,0.0,0.0,0.0,1.0,0.0,0.0,0.0,0.0,0.0,0.0,-3.9186044,0.1530014,0.12257695,0.0,0.0,0.0,0.0,0.0,0.0,0.0
-176.0,81.81628,-0.5773716,110.0,11.267852,5.2898755,-3.7295058,-0.82407445,0.4163642,-0.532255,0.7191281,0.48980612,0.61748815,-0.59778374,1.6978284,-1.0230144,-1.8683679,-1.045098,1.986296,1.1787596,-0.97607625,1.778607,-1.0620283,-1.8207672,-1.1127192,1.9426923,1.12176,-0.91829103,-0.21715511,0.34894082,-0.7491502,0.5723727,0.7158847,0.6313103,-0.26536733,3.2341042,-0.5508652,0.4770454,-3.449181,0.21340898,4.9364357,0.52825546,-0.45758057,0.69402635,0.57841116,0.17380004,0.15116031,0.7825501,-0.28806385,-0.41178012,0.12369942,1.0,0.0,0.0,0.0,0.0,0.0,0.0,-3.8841043,0.15086517,0.072954625,-21.673756,34.689453,-74.69148,57.286636,71.32785,62.53115,-26.425304
-176.0,32.474724,-20.342854,110.0,12.424081,3.751593,-3.2508636,-0.8155675,0.16514377,-0.55530965,0.6862807,0.5759105,0.61488384,-0.6087472,1.6970502,-1.0455139,-1.8762982,-1.0440911,2.0002832,1.1832484,-0.97916573,1.7757097,-1.057073,-1.8348911,-1.1012598,1.9551854,1.133864,-0.9213113,-0.31231692,0.54259473,-1.6333739,1.3390568,1.4257612,1.396405,-0.31158894,3.1996384,-0.54872894,0.52563626,-3.4457326,0.2131956,4.833314,0.52324295,-0.46526337,0.6956913,0.5870377,0.17061871,0.14743191,0.7775216,-0.57380015,-0.88625515,0.18148443,1.0,0.0,0.0,0.0,0.0,0.0,0.0,-3.8496385,0.14872894,0.024363756,-9.052926,18.777233,-88.44445,77.20897,70.61913,74.41659,-3.8437188
-154.65796,115.83673,28.782,90.742546,8.122694,7.4792013,-1.9494277,-0.7795917,0.42426643,-0.1470955,0.54298365,0.57012695,0.6532883,-0.5941607,1.6977506,-1.0146464,-1.8496007,-1.0469614,2.0121982,1.1991929,-0.9807274,1.7693506,-1.0503954,-1.8503406,-1.0864416,1.9699597,1.147698,-0.9246835,-0.7442073,0.7062446,-1.5091527,1.530069,1.4904094,1.3710684,-0.34749848,3.165207,-0.5465927,0.5731967,-3.4422874,0.21298246,4.730295,0.5153389,-0.47562408,0.6990179,0.5986485,0.16609415,0.1426214,0.770514,-0.8702336,-1.0796922,0.38730994,1.0,0.0,0.0,0.0,0.0,0.0,0.0,-3.815207,0.1465927,-0.023196697,-43.35146,15.397596,14.334059,19.291328,5.1962376,-4.9244404,-4.133683
-92.32627,124.12607,43.430645,57.5217,4.450974,7.7082324,-0.63450354,-0.78090715,0.39171568,-0.062922455,0.542682,0.56989735,0.6385513,-0.5990073,1.69126,-1.0112238,-1.8566328,-1.0321734,2.0269494,1.2115532,-0.9845842,1.7589842,-1.0428346,-1.8619087,-1.0716063,1.9838891,1.1605402,-0.92832464,-1.135632,0.77025276,-1.0316983,1.4680233,1.3564363,1.2506384,-0.37248737,3.1308098,-0.5444641,0.61972773,-3.4388459,0.21276952,4.6273794,0.50502014,-0.48660278,0.7042945,0.61137986,0.16032375,0.13732171,0.7626622,-1.096872,-1.0943915,0.5802258,1.0,0.0,0.0,0.0,0.0,0.0,0.0,-3.7808099,0.1444641,-0.06972772,-39.61562,5.667937,49.972748,-6.2128305,-14.593291,-13.4970665,-3.3673763
-33.063866,134.67184,53.557182,30.821728,1.3855062,7.074345,0.19746655,-0.8008372,0.4786678,0.008260158,0.5265204,0.6097862,0.62598634,-0.5886758,1.6789005,-0.9949679,-1.8610827,-1.0189543,2.0448678,1.2231388,-0.9871922,1.7455164,-1.0346674,-1.8680332,-1.0583578,1.9961362,1.1720301,-0.9321727,-1.4192064,0.8306257,-0.46605414,1.2763088,1.1781675,1.112974,-0.39189225,3.096447,-0.54234314,0.66523033,-3.4354076,0.2125568,4.5245667,0.4930725,-0.49681854,0.71136653,0.6239719,0.15329863,0.13175632,0.7548502,-1.238859,-0.982497,0.7536859,1.0,0.0,0.0,0.0,0.0,0.0,0.0,-3.746447,0.14234313,-0.11523032,-28.916979,5.533278,58.525776,-19.380306,-18.661903,-14.395738,-2.8568625
7.536364,133.24988,54.443573,14.822052,-0.3864377,5.6781893,0.49536338,-0.81249607,0.5474827,0.07735721,0.5420581,0.6302602,0.6163295,-0.5871024,1.6642668,-0.9799191,-1.8602974,-1.004152,2.0591621,1.2336631,-0.99088293,1.7302157,-1.0257963,-1.8692234,-1.0469614,2.006863,1.182263,-0.93617815,-1.568733,0.9047717,0.0013675308,1.0933868,1.0358682,0.9929631,-0.40603018,3.0621185,-0.54022217,0.7097056,-3.431973,0.21234427,4.421857,0.48025513,-0.50554657,0.7199522,0.63585556,0.1451791,0.12614158,0.7474617,-1.3061609,-0.8220662,0.8951463,1.0,0.0,0.0,0.0,0.0,0.0,0.0,-3.7121186,0.14022216,-0.15970558,-15.405226,7.076347,48.15218,-18.533182,-14.654374,-12.156463,-2.1940649
27.177881,125.8643,49.978367,7.920794,-1.1752571,4.2309,0.43470508,-0.8198675,0.61139095,0.116329916,0.5564997,0.634131,0.6254953,-0.5705689,1.6482289,-0.9646572,-1.8575903,-0.99131143,2.0702763,1.2448125,-0.99323505,1.7142054,-1.0160383,-1.8670089,-1.0369078,2.016541,1.1914564,-0.9402837,-1.6129217,0.9986442,0.29784954,0.97559404,0.94470334,0.89475536,-0.4140202,3.0278244,-0.5381012,0.7531546,-3.4285417,0.21213198,4.3192496,0.46712112,-0.5126724,0.72972006,0.64696425,0.13621506,0.12072224,0.74047875,-1.3243594,-0.6615435,1.003453,1.0,0.0,0.0,0.0,0.0,0.0,0.0,-3.6778245,0.13810119,-0.20315456,-4.7322273,9.149122,30.584705,-11.964607,-9.294331,-9.780049,-1.413244
34.786484,114.17122,43.25043,4.37726,-1.4802564,2.9708407,0.31621143,-0.8202535,0.66130793,0.14967355,0.5336096,0.6467299,0.63348955,-0.56384945,1.63218,-0.9499075,-1.8520416,-0.98354685,2.081214,1.2548054,-0.99666864,1.6982371,-1.0052885,-1.8629844,-1.0276495,2.0256734,1.1998087,-0.9444408,-1.5922834,1.0997823,0.43941477,0.90866643,0.9023485,0.8158009,-0.41791257,2.9935646,-0.5359802,0.7955782,-3.4251137,0.21191989,4.216745,0.45401382,-0.51834106,0.7403189,0.6574014,0.1267034,0.11568944,0.73374766,-1.312579,-0.5182203,1.0767484,1.0,0.0,0.0,0.0,0.0,0.0,0.0,-3.6435647,0.13598022,-0.24557817,1.8417358,9.945178,14.789635,-6.843233,-4.294622,-7.76819,-0.8747995
32.51167,96.809845,34.247456,3.1137638,-1.4019799,1.8592272,0.17973067,-0.81731606,0.68804747,0.14585571,0.51188755,0.65070236,0.63788193,-0.54997146,1.6165055,-0.93648374,-1.8483988,-0.97646075,2.0907435,1.2635969,-0.9994379,1.6826788,-0.9936327,-1.8584678,-1.0188109,2.0346189,1.2074858,-0.94861025,-1.5443792,1.1872195,0.4571835,0.8751044,0.8917359,0.7522322,-0.41797733,2.9593391,-0.53385925,0.83697754,-3.4216893,0.21170801,4.1143427,0.44112015,-0.5227661,0.7513612,0.6673145,0.11696393,0.11116111,0.7270858,-1.2865803,-0.40529463,1.1108062,1.0,0.0,0.0,0.0,0.0,0.0,0.0,-3.6093392,0.13385925,-0.28697753,4.627824,8.637834,2.1858394,-3.5122275,-1.0443449,-6.18968,-0.38290024
28.068874,83.80317,28.042212,2.9896212,-1.1652145,1.2422684,0.12778674,-0.8118397,0.7116477,0.16134542,0.48509616,0.66509587,0.63987815,-0.54345495,1.6014948,-0.9224679,-1.8423333,-0.9703013,2.1011283,1.2714736,-1.0029558,1.6676146,-0.98125017,-1.8541801,-1.010224,2.0436177,1.2146174,-0.95276827,-1.4942654,1.2550616,0.4202367,0.8524075,0.9025,0.7006962,-0.41609707,2.925148,-0.5317383,0.87735367,-3.4182682,0.21149634,4.012043,0.4284973,-0.5262909,0.7625618,0.67680776,0.107222006,0.107126914,0.7203877,-1.2575605,-0.31591502,1.120067,1.0,0.0,0.0,0.0,0.0,0.0,0.0,-3.575148,0.13173828,-0.32735366,4.8745394,6.7153454,-3.390342,-2.4484038,1.1258602,-4.9806237,-0.12731552
21.468643,71.05471,22.430769,3.3340526,-0.85005856,0.82750535,0.112691365,-0.8133523,0.71909344,0.15928505,0.45278302,0.67367786,0.6420874,-0.5370975,1.5862794,-0.9093408,-1.8382516,-0.9649457,2.1109855,1.2788261,-1.0064781,1.6529356,-0.96838987,-1.8504035,-1.001908,2.0527883,1.2213064,-0.9568986,-1.4593506,1.2961524,0.36418495,0.82388395,0.9221385,0.65890694,-0.41297716,2.8909912,-0.52962494,0.9167076,-3.4148507,0.21128489,3.909846,0.41613007,-0.52905273,0.77369404,0.6859353,0.09764013,0.1035072,0.7136142,-1.2317822,-0.24806485,1.1077137,1.0,0.0,0.0,0.0,0.0,0.0,0.0,-3.5409913,0.12962493,-0.36670756,3.3646345,4.0709734,-5.360943,-3.0627608,2.0325422,-3.9988756,0.04271865
20.208055,67.260254,21.233408,2.9562907,-0.76478726,0.76643485,0.17909625,-0.8038866,0.7363857,0.1805361,0.41381773,0.67670035,0.6423222,-0.5271509,1.572547,-0.8947513,-1.8323499,-0.96052617,2.1204584,1.2855387,-1.0096138,1.6385218,-0.9552282,-1.8470275,-0.99399436,2.0621533,1.227635,-0.9609918,-1.4358596,1.3227134,0.32959557,0.779671,0.9415167,0.62486565,-0.40901023,2.8568687,-0.5275192,0.9550402,-3.4114366,0.21107365,3.8077512,0.4040146,-0.5311661,0.78466403,0.69467324,0.088259384,0.10020133,0.7068232,-1.2067876,-0.18367311,1.0902764,1.0,0.0,0.0,0.0,0.0,0.0,0.0,-3.5068688,0.12751922,-0.4050402,2.2173882,2.6280403,-3.1985521,-4.646504,2.0080566,-3.2159567,0.13127327
20.474808,64.72007,20.39592,1.7261343,-0.848941,0.67777526,0.24848929,-0.7991535,0.75107646,0.17645782,0.35800084,0.67798036,0.6458286,-0.5214209,1.5586064,-0.8801206,-1.8293817,-0.95819426,2.1299515,1.2922179,-1.0131339,1.6242644,-0.9418577,-1.8438823,-0.98671496,2.0716786,1.2336756,-0.9650449,-1.4229985,1.3418256,0.31054112,0.70991343,0.95659864,0.5976992,-0.40484184,2.8227806,-0.5254135,0.9923527,-3.4080257,0.21086262,3.7057583,0.39216614,-0.53261566,0.79541177,0.7029661,0.07909589,0.09716692,0.7001007,-1.1785356,-0.11821655,1.0665718,1.0,0.0,0.0,0.0,0.0,0.0,0.0,-3.4727807,0.1254135,-0.4423527,1.1441231,1.8926144,-1.6263247,-7.2149396,1.5776515,-2.496171,0.15624762
20.831371,62.524567,19.70113,0.802732,-0.9105126,0.5884787,0.30559185,-0.796691,0.756954,0.17737718,0.30576724,0.67858344,0.6566823,-0.50675905,1.5445952,-0.8661623,-1.8261446,-0.95613825,2.139537,1.2993438,-1.0157208,1.6100756,-0.92834604,-1.8408172,-0.98027194,2.0813184,1.2394911,-0.9690475,-1.417902,1.354184,0.30608392,0.62154907,0.96657354,0.5769863,-0.3996797,2.788723,-0.5233078,1.028646,-3.4046185,0.2106518,3.6038675,0.38061905,-0.533432,0.8058889,0.71076655,0.07016227,0.09438177,0.6935274,-1.1469164,-0.05279713,1.0381312,1.0,0.0,0.0,0.0,0.0,0.0,0.0,-3.438723,0.123307794,-0.47864598,0.36523342,1.2294292,-0.16664267,-9.080494,1.0764241,-1.8193841,0.26455522
21.225256,60.867516,19.072613,0.02560854,-0.9755122,0.47647244,0.3449471,-0.7978708,0.76375306,0.17758594,0.24444716,0.68400824,0.65677,-0.5004858,1.5302885,-0.85197073,-1.8230586,-0.95582724,2.1497192,1.3051682,-1.019096,1.5958906,-0.91473424,-1.8377349,-0.9748341,2.0910382,1.2451311,-0.9729976,-1.4190066,1.3636054,0.30970773,0.5170776,0.97432864,0.5606161,-0.39433396,2.7547035,-0.5212021,1.0639212,-3.4012146,0.21044119,3.5020788,0.36941147,-0.53354645,0.81605095,0.71804523,0.061478794,0.09184029,0.68716574,-1.1113139,0.011885073,1.0055698,1.0,0.0,0.0,0.0,0.0,0.0,0.0,-3.4047036,0.12120208,-0.5139212,-0.25389194,0.9482384,0.6284833,-10.689425,0.8638263,-1.35566,0.29940605
27.252926,58.29374,18.426907,-4.6190166,-1.4552586,0.14990056,0.4840856,-0.7927911,0.76853734,0.17881677,0.11972155,0.6875823,0.6513149,-0.49106428,1.5166116,-0.8378805,-1.8198533,-0.96286196,2.1597965,1.3102627,-1.022104,1.5817019,-0.9010414,-1.8345897,-0.9708067,2.100823,1.2506319,-0.97689337,-1.4193293,1.3712667,0.3168396,0.36380336,0.9803436,0.5479011,-0.38867515,2.7207146,-0.5190964,1.0981793,-3.397814,0.21023078,3.4003916,0.35868454,-0.5329895,0.8257862,0.7246962,0.053144015,0.08959084,0.6811494,-1.0574934,0.08406414,0.9592804,1.0,0.0,0.0,0.0,0.0,0.0,0.0,-3.3707147,0.11909637,-0.5481793,-0.17483234,0.7913351,0.9726703,-15.582353,0.6930113,-0.88596344,0.34386516
39.73913,59.66277,20.022568,-12.613649,-2.3315778,-0.14925992,0.7757547,-0.78878736,0.7795223,0.2306365,-0.07462716,0.6894538,0.64699936,-0.47996652,1.5028231,-0.8230892,-1.8115261,-0.97826946,2.1697683,1.3153318,-1.0248901,1.5675284,-0.88724554,-1.8311355,-0.9689585,2.1106572,1.2560278,-0.98072904,-1.4172044,1.3825027,0.35583282,0.12434666,0.98487985,0.53880525,-0.38256964,2.6867638,-0.51699066,1.1314213,-3.3944168,0.21002059,3.2988062,0.3487358,-0.53154755,0.8349573,0.73047346,0.04528817,0.087698236,0.675771,-0.97339004,0.17849919,0.8993913,1.0,0.0,0.0,0.0,0.0,0.0,0.0,-3.3367639,0.116990656,-0.5814213,0.07767677,1.170373,4.1660905,-24.190798,0.54653883,-0.3657937,0.40294528
45.509995,60.28309,21.00103,-15.743785,-2.642273,-0.32022294,0.9207455,-0.7842041,0.7806381,0.2819941,-0.20332325,0.6900797,0.64358467,-0.46683896,1.489108,-0.80918175,-1.8029361,-0.98929083,2.179665,1.3203863,-1.0274129,1.5534006,-0.8733524,-1.827071,-0.9697348,2.1205258,1.2613512,-0.98449796,-1.4116058,1.3918465,0.42384687,-0.14561489,0.98831517,0.5319887,-0.3755868,2.6528435,-0.51488495,1.1636481,-3.3910232,0.20981061,3.1973224,0.33971024,-0.529068,0.8435084,0.73521984,0.037962254,0.08615814,0.67125803,-0.87477374,0.27896062,0.83627355,1.0,0.0,0.0,0.0,0.0,0.0,0.0,-3.3028436,0.11488494,-0.6136481,0.47225952,1.0060787,6.98086,-27.186016,0.48297644,-0.072300434,0.5345166
44.649475,62.33952,22.106195,-13.165207,-2.3633907,-0.26286602,0.88843274,-0.76925445,0.7833539,0.33246535,-0.26565424,0.69410557,0.6416417,-0.448576,1.4764752,-0.795017,-1.7938244,-0.9963002,2.1899364,1.3255154,-1.0293555,1.5393988,-0.8593782,-1.8221786,-0.9729277,2.1304364,1.2666117,-0.9881887,-1.3965784,1.3995211,0.5110941,-0.37756127,0.9928394,0.52613527,-0.36731738,2.6189613,-0.5127945,1.1948609,-3.3876328,0.20960085,3.0959399,0.3316307,-0.52565,0.8515258,0.7389581,0.031083701,0.08488036,0.6676601,-0.780615,0.3726632,0.7856553,1.0,0.0,0.0,0.0,0.0,0.0,0.0,-3.2689614,0.11279449,-0.6448609,1.4766693,0.8630514,8.755028,-23.315536,0.6788969,-0.0088095665,0.70645213
39.805443,62.195026,22.071714,-8.825125,-1.8654177,-0.17376626,0.7911934,-0.76152456,0.78075236,0.3832913,-0.3307914,0.69820136,0.6459432,-0.41668996,1.4632463,-0.781303,-1.7838495,-1.0060068,2.2002566,1.331206,-1.0298576,1.5255724,-0.8453649,-1.816344,-0.9780537,2.1404004,1.2718226,-0.9917783,-1.377893,1.402366,0.6074223,-0.5579208,0.99880195,0.521195,-0.35655478,2.5851097,-0.51070404,1.2250607,-3.3842459,0.2093913,2.9946587,0.32440186,-0.52136993,0.8591296,0.74180067,0.024528325,0.08375099,0.66491795,-0.6992385,0.45337698,0.74704427,1.0,0.0,0.0,0.0,0.0,0.0,0.0,-3.2351098,0.110704035,-0.6750607,1.8850327,0.40016174,9.531582,-18.114,0.89945793,0.028014183,0.992167
35.745163,63.544197,22.440722,-5.0359745,-1.520432,-0.06456314,0.6914036,-0.7520647,0.7891047,0.4343442,-0.3998753,0.6956695,0.6378267,-0.3965811,1.4503659,-0.76645446,-1.7729096,-1.0180413,2.2099674,1.3356053,-1.0314364,1.5119463,-0.83130395,-1.8095272,-0.98467124,2.150414,1.2769839,-0.9952535,-1.3574542,1.4077744,0.7056992,-0.6965609,1.0032147,0.5159508,-0.344703,2.5512924,-0.5086136,1.2542484,-3.3808622,0.20918195,2.8934789,0.31788635,-0.51634216,0.8664379,0.74386525,0.018183023,0.08270915,0.66294277,-0.62852854,0.5264516,0.71989053,1.0,0.0,0.0,0.0,0.0,0.0,0.0,-3.2012925,0.10861358,-0.70424837,2.0848036,0.6744623,9.628714,-13.91139,0.8089423,-0.04069805,1.1293828
31.263432,64.30344,22.5466,-0.96013737,-1.1550679,0.044452444,0.5729732,-0.7364959,0.7943659,0.48019978,-0.4316218,0.6908797,0.6346001,-0.36184946,1.4382967,-0.75186735,-1.7615072,-1.0278335,2.219502,1.3404438,-1.0314385,1.498551,-0.81717336,-1.8017642,-0.9923159,2.1604466,1.2820936,-0.9985952,-1.333287,1.415273,0.7988963,-0.7872498,1.0047038,0.51068395,-0.33071995,2.5175095,-0.50652313,1.282425,-3.377482,0.20897281,2.7924004,0.31199646,-0.51062775,0.8735619,0.7452763,0.011936774,0.081727535,0.6616203,-0.56960607,0.5911177,0.70395607,1.0,0.0,0.0,0.0,0.0,0.0,0.0,-3.1675096,0.10652313,-0.73242503,2.4713755,0.90038776,9.045399,-9.103537,0.56598186,-0.08300543,1.359415
23.097748,60.910698,20.480833,3.5524178,-0.68548375,0.06060444,0.396265,-0.74018645,0.79812825,0.49548987,-0.4521946,0.6926393,0.6341226,-0.3384788,1.4245324,-0.73736054,-1.7522153,-1.0375353,2.2297106,1.345506,-1.032443,1.4853274,-0.80296266,-1.7932575,-1.0005738,2.1704907,1.2871519,-1.0017908,-1.3186692,1.423518,0.8672345,-0.8387903,1.0054349,0.5053863,-0.3159696,2.483757,-0.5044327,1.3095917,-3.3741052,0.20876388,2.691423,0.30657578,-0.50440216,0.8805546,0.74620146,0.005743019,0.080811486,0.66077214,-0.5263259,0.6399475,0.69151175,1.0,0.0,0.0,0.0,0.0,0.0,0.0,-3.133757,0.10443267,-0.75959164,1.4929295,0.9812832,6.556833,-5.209005,0.48332214,-0.15408993,1.4473379
19.317772,57.956345,19.152342,5.923239,-0.4235688,0.0070322007,0.3051949,-0.72362137,0.79753494,0.5217462,-0.46165523,0.6906252,0.626218,-0.2907173,1.4129652,-0.72320914,-1.7410829,-1.0467392,2.2395532,1.3497738,-1.0308625,1.4722658,-0.7886909,-1.7841899,-1.0091225,2.180531,1.2921549,-1.0048177,-1.3018334,1.4290102,0.91880625,-0.86047167,1.0047516,0.49970952,-0.29837045,2.4500427,-0.5023422,1.3357491,-3.3707318,0.20855516,2.5905461,0.30153275,-0.49774933,0.8874386,0.7467577,-0.00041988166,0.07996656,0.6602713,-0.49026024,0.67867136,0.68076533,1.0,0.0,0.0,0.0,0.0,0.0,0.0,-3.1000428,0.10234222,-0.78574914,1.7089128,0.7113695,4.8742056,-2.2410512,0.33454895,-0.22312999,1.7320454
12.19532,53.01058,16.788542,9.714972,0.037838995,0.0011775196,0.15814681,-0.7261962,0.7933363,0.5319025,-0.44062835,0.6902264,0.63220435,-0.26672387,1.3996462,-0.7093573,-1.7309997,-1.0531853,2.2495537,1.3553753,-1.0314901,1.459315,-0.7744049,-1.7747543,-1.0176312,2.1905599,1.2971083,-1.0076654,-1.2929578,1.429071,0.95097536,-0.8479591,1.0033627,0.49476135,-0.28053707,2.416359,-0.50025177,1.3608987,-3.3673618,0.20834665,2.4897704,0.29673386,-0.4908142,0.89422816,0.7470813,-0.0065731164,0.07918001,0.6599673,-0.4685406,0.70163137,0.67157847,1.0,0.0,0.0,0.0,0.0,0.0,0.0,-3.066359,0.100251764,-0.8108987,0.8785963,0.16784668,2.9627562,1.1372328,0.24135113,-0.2094388,1.747936
9.066466,49.429077,15.104021,10.649911,0.16847098,-0.09416969,0.09806785,-0.7295939,0.7960606,0.5377592,-0.4542345,0.6953029,0.6276307,-0.25399083,1.3863555,-0.6947988,-1.7209784,-1.0630547,2.26009,1.3598714,-1.0330645,1.4463927,-0.7601217,-1.7651165,-1.0260025,2.2005887,1.3020121,-1.0103452,-1.2921146,1.4286438,0.9675879,-0.83394927,1.0037893,0.48984554,-0.26379395,2.3827133,-0.49817657,1.3850414,-3.363995,0.20813835,2.3890953,0.29213333,-0.48371887,0.90089715,0.7472596,-0.012683933,0.07846685,0.6597614,-0.45055747,0.71722007,0.6585458,1.0,0.0,0.0,0.0,0.0,0.0,0.0,-3.0327134,0.09817657,-0.83504134,0.051903725,0.11360645,1.4481902,1.2690663,0.39060116,-0.23468733,1.6410649
4.0744424,47.146286,13.956476,13.678155,0.48266405,-0.02468738,-0.0006272532,-0.73930603,0.7962631,0.54590267,-0.4164257,0.68684405,0.629953,-0.20980929,1.372462,-0.6804954,-1.7105262,-1.0676451,2.269273,1.3650074,-1.0313262,1.4334017,-0.7458452,-1.755368,-1.0340687,2.2105985,1.306872,-1.0128438,-1.3015783,1.4278501,0.97667456,-0.79797107,1.001114,0.48541373,-0.24518926,2.3490982,-0.49610138,1.408178,-3.3606317,0.20793025,2.288521,0.28761673,-0.47653198,0.90746665,0.74738204,-0.018774502,0.077831455,0.6595527,-0.44376493,0.72461224,0.649462,1.0,0.0,0.0,0.0,0.0,0.0,0.0,-2.9990983,0.09610137,-0.85817796,-1.0153055,0.07772446,0.7223964,3.4398675,0.07624626,-0.2306521,1.8242747
2.9454732,43.215054,12.300458,13.102222,0.47430885,-0.17788932,-0.017540783,-0.7485225,0.79211086,0.5387244,-0.42901647,0.68866974,0.6359103,-0.2085202,1.3585495,-0.6666341,-1.7014955,-1.0769703,2.2794654,1.370463,-1.0336958,1.4202658,-0.73159635,-1.7456138,-1.0418698,2.2205853,1.3116976,-1.0151727,-1.3179557,1.4244618,0.97464675,-0.77478963,0.99879974,0.4821475,-0.22879684,2.3155174,-0.49402618,1.4303095,-3.3572717,0.20772237,2.1880472,0.28318787,-0.46929932,0.91389054,0.7474891,-0.024797523,0.07729847,0.6592951,-0.4355069,0.72736484,0.6330231,1.0,0.0,0.0,0.0,0.0,0.0,0.0,-2.9655175,0.09402618,-0.8803095,-1.721859,-0.19164085,-0.344491,2.1482587,0.0748992,-0.12652278,1.6042858
6.263232,42.60587,12.362548,10.565917,0.19883269,-0.35282564,0.06141127,-0.746816,0.79351366,0.54494756,-0.4516213,0.6885961,0.63008106,-0.16937588,1.3455842,-0.652245,-1.6911191,-1.0870318,2.289445,1.3747057,-1.0321103,1.4069926,-0.71737325,-1.7358787,-1.049625,2.2305493,1.3164908,-1.0173261,-1.3306934,1.4221143,0.9727896,-0.77623063,0.9967527,0.47912064,-0.2109764,2.281971,-0.491951,1.4514371,-3.353915,0.20751469,2.0876737,0.27891922,-0.46200562,0.9201015,0.7475306,-0.030678762,0.07690891,0.6590462,-0.41683218,0.73451734,0.6101154,1.0,0.0,0.0,0.0,0.0,0.0,0.0,-2.931971,0.09195098,-0.9014371,-1.3408661,-0.094389915,-0.3124118,-0.2952218,0.07734299,-0.08200407,1.7523289
7.283798,41.014183,11.987027,9.614588,0.12580448,-0.46214515,0.09024747,-0.75269634,0.7880725,0.54733676,-0.451939,0.68770266,0.6318102,-0.15203744,1.331723,-0.638566,-1.6811451,-1.094819,2.2993195,1.3796718,-1.0325298,1.393603,-0.70319116,-1.7261512,-1.0574642,2.2404943,1.3212591,-1.019306,-1.3419632,1.4173012,0.9723173,-0.7871183,0.9948726,0.4767793,-0.19381714,2.248455,-0.4898758,1.4715618,-3.3505619,0.20730722,1.9874007,0.27486038,-0.45463562,0.92605853,0.7474696,-0.03637648,0.07667226,0.65885293,-0.39423633,0.74138445,0.5837726,1.0,0.0,0.0,0.0,0.0,0.0,0.0,-2.8984551,0.08987579,-0.9215618,-1.1872292,-0.34406185,-0.16502142,-1.2367487,0.0819087,-0.010716915,1.6856819
8.896834,39.942997,11.709103,8.037271,-0.032193482,-0.60350364,0.13018715,-0.75978816,0.7876308,0.54485434,-0.47830924,0.6887168,0.6286997,-0.13878281,1.3176241,-0.6244281,-1.6716658,-1.1052952,2.309366,1.3841292,-1.0331842,1.3801047,-0.68905294,-1.7164333,-1.0655476,2.2504315,1.3260046,-1.0211236,-1.3527665,1.4130667,0.9711003,-0.81596994,0.9938178,0.47466108,-0.17773901,2.2149773,-0.4878006,1.4906844,-3.347212,0.20709996,1.8872277,0.2710724,-0.44719696,0.93171453,0.7472755,-0.041834842,0.07660798,0.6587566,-0.36513785,0.7495387,0.5523427,1.0,0.0,0.0,0.0,0.0,0.0,0.0,-2.8649774,0.08780059,-0.9406844,-1.1313677,-0.29075146,-0.22583008,-3.0212283,0.14179945,0.019049644,1.5842646
7.904837,38.006298,11.019812,8.494617,0.041328788,-0.649421,0.115510054,-0.7691625,0.7820518,0.5422455,-0.4791028,0.6839644,0.6345865,-0.10438836,1.3031884,-0.6108478,-1.6622088,-1.1134579,2.3188279,1.3894633,-1.0315624,1.3664843,-0.67497194,-1.7067382,-1.0739018,2.2603421,1.3307368,-1.0227716,-1.3654196,1.4067773,0.9686105,-0.8424501,0.9913351,0.47334185,-0.16068295,2.18153,-0.4857254,1.5088061,-3.3438656,0.20689291,1.7871548,0.26756287,-0.439682,0.93705255,0.7469547,-0.047037344,0.07672595,0.6587559,-0.33741677,0.75429565,0.5203933,1.0,0.0,0.0,0.0,0.0,0.0,0.0,-2.83153,0.0857254,-0.9588061,-1.3228178,-0.49648285,-0.34422874,-2.7911663,-0.0074625015,0.08453131,1.6811788
7.548829,39.65455,12.071693,10.38137,0.18445504,-0.5322706,0.10385978,-0.76712364,0.7835338,0.55543274,-0.45642152,0.6884681,0.63376975,-0.04974469,1.2897719,-0.59661853,-1.6511949,-1.1195439,2.3291888,1.3941138,-1.0277461,1.3527743,-0.66093576,-1.697007,-1.0823494,2.270245,1.3354574,-1.024225,-1.373018,1.4030485,0.97445756,-0.8461913,0.99119294,0.47214332,-0.1404766,2.148117,-0.48365784,1.5259279,-3.3405225,0.20668606,1.6871821,0.2642975,-0.43210602,0.94214064,0.7465182,-0.052055463,0.07697941,0.6588436,-0.31475493,0.7602931,0.4978502,1.0,0.0,0.0,0.0,0.0,0.0,0.0,-2.7981172,0.08365783,-0.9759279,-0.8199215,-0.23036003,0.46528578,-0.5155921,0.25867224,0.084000826,1.9938409
4.215321,37.660316,11.262772,12.890563,0.4555459,-0.45414284,0.032170765,-0.784538,0.77868986,0.5501124,-0.43920746,0.6824899,0.6404326,-0.008157184,1.2743205,-0.58306676,-1.6419957,-1.1262702,2.338494,1.3995007,-1.0250407,1.3389384,-0.6469444,-1.6872337,-1.0906864,2.2801366,1.3401705,-1.0254648,-1.3875599,1.3983154,0.9779617,-0.82991993,0.98948234,0.47146994,-0.11854902,2.1147385,-0.4815979,1.5420507,-3.3371828,0.20647942,1.5873092,0.26119232,-0.42453766,0.9470397,0.7460192,-0.05695484,0.07733775,0.65896165,-0.30128983,0.76057994,0.48014024,1.0,0.0,0.0,0.0,0.0,0.0,0.0,-2.7647386,0.081597894,-0.9920507,-1.547575,-0.32866,0.24898052,1.4630556,0.10898113,0.10325909,2.1616876
5.1170645,36.3115,10.830047,12.05561,0.38127422,-0.5718876,0.04923749,-0.7841909,0.7758876,0.5437407,-0.45563638,0.6824819,0.63819534,0.020025613,1.2605193,-0.56935567,-1.6328596,-1.13625,2.3483849,1.40399,-1.0234622,1.3249823,-0.6330017,-1.6774642,-1.0989109,2.2900128,1.3448759,-1.0264852,-1.3986539,1.3933605,0.9763113,-0.8205937,0.98781157,0.47075486,-0.096532255,2.0813904,-0.47953796,1.5571755,-3.3338463,0.20627297,1.4875362,0.2582512,-0.4169464,0.95173925,0.7454671,-0.06172081,0.07780841,0.65910167,-0.28362307,0.76027215,0.4593645,1.0,0.0,0.0,0.0,0.0,0.0,0.0,-2.7313905,0.07953796,-1.0071754,-1.1934757,-0.35467148,-0.2570629,0.7737398,0.09542704,0.10096431,2.170886
5.8648376,35.575306,10.812056,11.779264,0.37009656,-0.6277164,0.07968531,-0.7844769,0.77167904,0.5481092,-0.45098937,0.68672895,0.6397866,0.08323143,1.2465346,-0.55583376,-1.6226534,-1.1440098,2.3586857,1.4088546,-1.018162,1.310948,-0.6191162,-1.6677024,-1.1070496,2.2998853,1.3495756,-1.0272596,-1.4054227,1.3873312,0.9759097,-0.8121809,0.9881131,0.47030893,-0.07120918,2.0480766,-0.47747803,1.5713032,-3.3305132,0.20606674,1.387863,0.25549698,-0.4093628,0.9562295,0.74483675,-0.06633992,0.0783858,0.65929717,-0.2640839,0.7598769,0.4383934,1.0,0.0,0.0,0.0,0.0,0.0,0.0,-2.6980767,0.07747802,-1.0213032,-0.7512331,-0.46327114,-0.13365746,0.6878495,0.2875805,0.12780428,2.5002494
4.9189034,33.547024,10.0595455,12.019619,0.42040098,-0.6646422,0.06933899,-0.7990004,0.76595694,0.54799837,-0.4495741,0.6806009,0.6445531,0.11384955,1.231048,-0.5425205,-1.6129026,-1.152007,2.3679454,1.4140309,-1.0158746,1.2968069,-0.605306,-1.6579425,-1.1151272,2.3097463,1.3542753,-1.0277803,-1.4171795,1.3793945,0.9757642,-0.8068722,0.98631096,0.47033334,-0.045907956,2.0147972,-0.4754181,1.584435,-3.3271835,0.20586072,1.2882895,0.2529297,-0.40180206,0.9604995,0.7441314,-0.07080028,0.079067506,0.6595483,-0.24561752,0.7569375,0.4160271,1.0,0.0,0.0,0.0,0.0,0.0,0.0,-2.6647973,0.075418085,-1.034435,-1.2617826,-0.65722466,-0.08903742,0.3724575,0.06890297,0.16314387,2.4982817
5.896631,34.54173,10.832808,12.223347,0.39316756,-0.6454699,0.09928113,-0.79635787,0.76607275,0.5579848,-0.43904603,0.6821089,0.64928687,0.178888,1.2171712,-0.52869874,-1.602144,-1.1590319,2.377957,1.419204,-1.0098915,1.2825819,-0.59155977,-1.6481369,-1.1231247,2.3195958,1.3589808,-1.0280263,-1.4244812,1.3735656,0.98203075,-0.79787743,0.9853375,0.47092643,-0.017552711,1.9815483,-0.47335815,1.5965718,-3.323857,0.2056549,1.1888155,0.25054932,-0.3942337,0.96456903,0.74333036,-0.07512536,0.07984546,0.6598794,-0.22627564,0.75718135,0.39688182,1.0,0.0,0.0,0.0,0.0,0.0,0.0,-2.6315484,0.07335815,-1.0465717,-0.809741,-0.44310093,0.54228306,0.75211525,0.16335249,0.22105575,2.8045073
5.9179173,34.338867,11.023075,12.86286,0.42538154,-0.6301808,0.10019386,-0.79691744,0.7622698,0.5611054,-0.4226155,0.6750372,0.6544178,0.23388718,1.2028902,-0.5153328,-1.5920264,-1.1653863,2.3870995,1.4244225,-1.0046376,1.2683111,-0.5778698,-1.638253,-1.1309716,2.3294187,1.3636938,-1.0279748,-1.4283917,1.3680218,0.99026513,-0.7807345,0.981935,0.47198293,0.01271452,1.9483376,-0.47129822,1.6077145,-3.320534,0.20544928,1.089441,0.24835968,-0.38667297,0.96846884,0.7424212,-0.079351865,0.08071058,0.66030276,-0.20789984,0.75806487,0.38059586,1.0,0.0,0.0,0.0,0.0,0.0,0.0,-2.5983377,0.07129821,-1.0577145,-0.4704237,-0.41193962,0.7341027,1.5684485,-0.07190704,0.2620697,2.993775
7.265046,34.397522,11.313701,12.041195,0.3161313,-0.69658583,0.1402295,-0.7952125,0.75962645,0.56893706,-0.4303345,0.6719707,0.65073764,0.27871004,1.1887898,-0.5019071,-1.5813593,-1.174005,2.3966157,1.4287676,-1.0001038,1.2540308,-0.5642303,-1.6282623,-1.138702,2.3391957,1.3684145,-1.0276163,-1.4281392,1.3630496,1.0017585,-0.77107126,0.97756916,0.47265065,0.043624755,1.9151573,-0.46923828,1.6178644,-3.317214,0.20524387,0.99016565,0.24638367,-0.3790741,0.9721956,0.7413755,-0.08347787,0.08167301,0.6608504,-0.18520516,0.7613911,0.36290568,1.0,0.0,0.0,0.0,0.0,0.0,0.0,-2.5651574,0.069238275,-1.0678644,-0.038194656,-0.35607815,1.05654,0.8353472,-0.17428398,0.2288878,3.0604033
8.063569,32.803307,10.624616,10.38043,0.17250973,-0.84773713,0.16578636,-0.8010188,0.75595117,0.56944907,-0.45608872,0.6673629,0.65055484,0.28644443,1.173929,-0.4886352,-1.5713174,-1.1843109,2.405932,1.43347,-0.9989718,1.2397391,-0.5506433,-1.6181743,-1.1464974,2.3489232,1.3731428,-1.0269716,-1.4297968,1.3576716,1.0110221,-0.7826535,0.9718254,0.47321582,0.07115904,1.8820076,-0.4671936,1.6270221,-3.3138974,0.20503867,0.8909897,0.24468231,-0.3714447,0.97569233,0.7401692,-0.08743455,0.08276321,0.661555,-0.15631455,0.76418173,0.33819753,1.0,0.0,0.0,0.0,0.0,0.0,0.0,-2.5320077,0.0671936,-1.0770221,-0.21767616,-0.4044056,0.85237026,-1.2767553,-0.34052134,0.22060275,2.7267113
7.924887,31.668594,10.248707,10.44614,0.1891771,-0.895564,0.16365132,-0.79813933,0.75315017,0.57091033,-0.44873866,0.6635214,0.6522189,0.33042714,1.1599251,-0.4753283,-1.5610833,-1.1913712,2.4152753,1.4383647,-0.99392885,1.2254454,-0.53710973,-1.6080139,-1.1544052,2.3585896,1.377875,-1.0260522,-1.4292805,1.3523126,1.0174644,-0.79369265,0.96576136,0.4737926,0.09878025,1.848896,-0.46514893,1.6351889,-3.310584,0.20483367,0.7919129,0.24327469,-0.36379242,0.9789389,0.73880434,-0.09119372,0.08399676,0.662417,-0.12690212,0.76553255,0.31305233,1.0,0.0,0.0,0.0,0.0,0.0,0.0,-2.4988961,0.06514892,-1.0851889,0.0036478043,-0.40240288,0.5706072,-1.2204051,-0.37941933,0.21639466,2.7368412
7.3870573,29.872854,9.384037,10.329639,0.21491784,-0.98016846,0.14427817,-0.79890454,0.7521748,0.5618482,-0.45761544,0.66545427,0.6534566,0.3535112,1.1455549,-0.46189225,-1.5518291,-1.2001668,2.4251351,1.4432206,-0.99070114,1.2111555,-0.52362096,-1.5978553,-1.1624466,2.3682103,1.3826128,-1.0248697,-1.4288566,1.3481485,1.0149796,-0.8080175,0.9616827,0.47429103,0.12470288,1.815815,-0.46310425,1.6423657,-3.307274,0.20462888,0.69293517,0.24216843,-0.35614777,0.98191833,0.7373018,-0.094726786,0.08538109,0.66341764,-0.09668417,0.763576,0.28568938,1.0,0.0,0.0,0.0,0.0,0.0,0.0,-2.465815,0.06310424,-1.0923657,-0.007224083,-0.28595924,-0.30794144,-1.5497565,-0.1988411,0.19842982,2.5694504
8.306349,28.14814,8.730052,8.581961,0.10720372,-1.1362007,0.18456765,-0.79643553,0.7443085,0.5668325,-0.49678114,0.6640976,0.64723086,0.36306825,1.1315119,-0.4491901,-1.541172,-1.2121247,2.4346201,1.447336,-0.9885629,1.1968848,-0.51019704,-1.5877178,-1.1707836,2.3777966,1.3873507,-1.0234506,-1.4265304,1.34087,1.0130663,-0.84273225,0.9585206,0.47414836,0.14773102,1.7827644,-0.46105957,1.6485535,-3.3039675,0.20442429,0.59405637,0.24140549,-0.34854126,0.9845722,0.7356454,-0.097957365,0.08692716,0.66458535,-0.060367092,0.76010895,0.2515007,1.0,0.0,0.0,0.0,0.0,0.0,0.0,-2.4327645,0.061059564,-1.0985534,0.21212101,-0.6040096,-0.25160313,-3.5738826,-0.1324892,0.13710856,2.2819014
8.6154585,26.705795,8.152266,7.621768,0.052535117,-1.2413924,0.20010169,-0.7939831,0.73962957,0.5650634,-0.5239641,0.6597902,0.6463319,0.37295115,1.1174865,-0.4362341,-1.5312114,-1.22318,2.4437757,1.4519839,-0.9861555,1.1826502,-0.49685633,-1.5776069,-1.1795594,2.3873487,1.3920866,-1.0218198,-1.4225955,1.3321961,1.0100908,-0.88965553,0.9547349,0.4737927,0.16805585,1.749752,-0.4590149,1.653753,-3.3006642,0.20421991,0.49527648,0.24103928,-0.3409958,0.986853,0.7338215,-0.10082368,0.08864344,0.6659451,-0.02051831,0.75505036,0.2130481,1.0,0.0,0.0,0.0,0.0,0.0,0.0,-2.3997521,0.059014887,-1.1037531,0.39360523,-0.74744225,-0.36010742,-4.784119,-0.2132535,0.11052489,2.0138116
6.9549627,24.960995,7.297018,8.877924,0.18734264,-1.2307023,0.13698408,-0.7954544,0.7396278,0.54951656,-0.5241576,0.6533948,0.65128255,0.37905058,1.1031048,-0.42289355,-1.5226552,-1.2319751,2.4526882,1.4572148,-0.9839148,1.1684405,-0.48358548,-1.5675933,-1.1887299,2.396851,1.3968207,-1.020006,-1.4204497,1.3258083,0.9982772,-0.92646354,0.9493258,0.4737119,0.18565679,1.7167702,-0.4569702,1.6579655,-3.2973642,0.20401573,0.3965954,0.24103928,-0.3334732,0.9887645,0.7318787,-0.10332272,0.09054005,0.6674432,0.015247069,0.74622583,0.17671448,1.0,0.0,0.0,0.0,0.0,0.0,0.0,-2.3667703,0.05697021,-1.1079655,0.19419193,-0.5170107,-1.2293577,-3.7839532,-0.37847757,0.11484623,1.7422408
6.1137605,23.508734,7.0940537,10.075039,0.34034246,-1.1712182,0.12897721,-0.7888906,0.72810227,0.5580566,-0.5306621,0.649555,0.6548049,0.40746313,1.0895514,-0.41077524,-1.5117877,-1.2417961,2.4618065,1.4623011,-0.9792596,1.1542727,-0.47041047,-1.5576522,-1.1981846,2.4062963,1.4015566,-1.0180185,-1.4154917,1.315157,0.9926233,-0.9520606,0.94348556,0.4738812,0.2030718,1.6838188,-0.45492554,1.661192,-3.2940676,0.20381175,0.2980129,0.24137115,-0.32609558,0.99034023,0.72983444,-0.10549642,0.09257827,0.66906005,0.046608523,0.7358374,0.14411877,1.0,0.0,0.0,0.0,0.0,0.0,0.0,-2.333819,0.05492553,-1.111192,0.47299862,-0.9404659,-0.6246567,-2.670765,-0.40752888,0.12586713,1.7196089
4.7566013,21.28091,5.9890018,10.475914,0.44062063,-1.202928,0.08446426,-0.79547584,0.7255422,0.54184705,-0.5562043,0.6527384,0.65857905,0.3871752,1.0747252,-0.39785624,-1.5034676,-1.253805,2.47157,1.4674145,-0.979301,1.1401182,-0.45733607,-1.547816,-1.2079121,2.4156995,1.4062964,-1.0158918,-1.4156815,1.3053179,0.9804907,-0.9798572,0.94016683,0.47427458,0.21589895,1.6509056,-0.4528885,1.6634336,-3.2907743,0.20360798,0.199529,0.24199295,-0.31881714,0.99158037,0.72772723,-0.10733734,0.09474499,0.6707572,0.07588352,0.72116655,0.11028142,1.0,0.0,0.0,0.0,0.0,0.0,0.0,-2.3009057,0.052888483,-1.1134336,-0.05850792,-0.8624792,-1.2476325,-2.8963566,-0.16959906,0.12930036,1.2633175
4.497428,21.044,6.3656425,11.709423,0.542505,-1.1197504,0.087603174,-0.7867004,0.71800697,0.5501358,-0.5525486,0.6472764,0.65595067,0.42212313,1.0614482,-0.38553536,-1.4928025,-1.2631669,2.480427,1.4718914,-0.9736795,1.1259905,-0.4443699,-1.5380447,-1.2178265,2.4250684,1.4110361,-1.0136297,-1.4119117,1.2941785,0.97595304,-0.9954548,0.93648,0.47430363,0.2297666,1.6180229,-0.45085907,1.6646909,-3.2874842,0.20340441,0.101143576,0.24289322,-0.31169128,0.99251956,0.7255626,-0.108882554,0.09700653,0.6725275,0.101652555,0.7077164,0.08151124,1.0,0.0,0.0,0.0,0.0,0.0,0.0,-2.268023,0.050859064,-1.1146908,0.33154488,-0.9869337,-0.5003214,-1.6798854,-0.18516779,0.084358454,1.3663828
4.3650026,19.021349,5.4339547,10.725,0.50582385,-1.2217255,0.09684914,-0.7857924,0.7083409,0.5388011,-0.5904661,0.636921,0.6550419,0.42134652,1.0474113,-0.3735358,-1.4841646,-1.2768731,2.4887605,1.4765403,-0.97149503,1.1119028,-0.4315344,-1.528342,-1.2280003,2.4343762,1.4157759,-1.0112436,-1.4077998,1.2804438,0.9679992,-1.025108,0.9295926,0.4740954,0.24158458,1.5851707,-0.44882965,1.6649652,-3.2841973,0.20320106,0.0028565056,0.24406433,-0.30472565,0.99313253,0.7233361,-0.11010175,0.09936852,0.67438,0.13040347,0.69155675,0.04751021,1.0,0.0,0.0,0.0,0.0,0.0,0.0,-2.2351708,0.048829645,-1.1149652,0.38964748,-1.2539148,-0.8421898,-3.075838,-0.5287051,0.050461292,1.160565
2.8759255,16.584946,4.364189,11.7409725,0.6643089,-1.2094953,0.052885987,-0.7839687,0.70056236,0.5222613,-0.5887396,0.6331221,0.6621146,0.43020946,1.0335059,-0.36147818,-1.4761158,-1.2868743,2.4976885,1.4819874,-0.9682226,1.0978571,-0.41884387,-1.5187805,-1.2384144,2.4436154,1.4205195,-1.008745,-1.403611,1.2656205,0.95209414,-1.0472573,0.9220866,0.47441626,0.25235632,1.5523529,-0.44680023,1.6642572,-3.2809138,0.2029979,-0.0953323,0.24549866,-0.29794312,0.9934147,0.7210819,-0.110984944,0.10182469,0.67628014,0.15507679,0.6709558,0.014874891,1.0,0.0,0.0,0.0,0.0,0.0,0.0,-2.202353,0.046800226,-1.1142571,0.38423538,-1.364255,-1.6255498,-2.3373604,-0.59679747,0.08447766,1.0538161
1.7065125,14.27092,3.1531477,11.713575,0.74188274,-1.2575679,0.01896074,-0.79115343,0.69354284,0.50901526,-0.6154452,0.6344966,0.65800387,0.40669098,1.0187417,-0.34948957,-1.4678789,-1.299959,2.507065,1.4863199,-0.9680759,1.0838095,-0.40630066,-1.5094211,-1.249107,2.4527898,1.4252611,-1.00617,-1.4054104,1.2509162,0.9305697,-1.0770234,0.9166317,0.47413608,0.25904557,1.5195694,-0.4447708,1.6625681,-3.2776337,0.20279494,-0.19342293,0.24717331,-0.2913971,0.99335045,0.7188462,-0.11149855,0.1043778,0.678184,0.17870438,0.6458951,-0.020370027,1.0,0.0,0.0,0.0,0.0,0.0,0.0,-2.1695695,0.044770807,-1.1125681,-0.22451878,-1.3589382,-2.1617055,-3.099656,-0.41259527,0.004339218,0.6470144
1.142339,12.747144,2.5231767,11.743439,0.7729285,-1.2668283,0.009391773,-0.79108983,0.6834402,0.50041324,-0.63597006,0.62027913,0.66733444,0.40638387,1.0047005,-0.33795664,-1.4593798,-1.312704,2.5148177,1.4919946,-0.96553165,1.0697314,-0.39391434,-1.5002792,-1.2601315,2.461884,1.4300047,-1.0035417,-1.4085988,1.2349334,0.908655,-1.1111755,0.90731126,0.47459292,0.26411232,1.4868164,-0.4427414,1.6598989,-3.2743566,0.20259218,-0.29141548,0.24908066,-0.28510284,0.9929221,0.7166494,-0.11162072,0.10703082,0.6800726,0.20177138,0.61921835,-0.05697544,1.0,0.0,0.0,0.0,0.0,0.0,0.0,-2.1368165,0.042741388,-1.1098988,-0.359869,-1.4904976,-2.1960378,-3.535366,-0.8095026,0.062572956,0.48362017
0.5481491,10.945297,2.2359786,12.6245575,0.89905715,-1.1988095,0.018554654,-0.78493977,0.66399294,0.5011194,-0.6412769,0.60569227,0.66693324,0.42260408,0.9912374,-0.32751504,-1.4501673,-1.3242592,2.5224533,1.496698,-0.9612813,1.0556532,-0.3817402,-1.4913013,-1.2714497,2.4708562,1.4347521,-1.0008581,-1.4077996,1.2119577,0.8940619,-1.1389498,0.89412224,0.4749406,0.26969016,1.4540977,-0.44071198,1.6562505,-3.2710829,0.20238963,-0.38931006,0.25120163,-0.27909088,0.99214673,0.71448153,-0.11137796,0.10975397,0.6819569,0.22110243,0.59160334,-0.09096877,1.0,0.0,0.0,0.0,0.0,0.0,0.0,-2.1040978,0.04071197,-1.1062505,0.046110153,-2.1891832,-1.4832616,-2.902913,-1.1816025,0.04079342,0.5307853
0.7679241,10.517491,2.398629,12.738506,0.88510823,-1.1720307,0.039728757,-0.7792266,0.65147656,0.49707174,-0.66174567,0.5856571,0.66443855,0.42933297,0.9777306,-0.31659254,-1.4415941,-1.3376243,2.5294218,1.5011959,-0.9579248,1.041617,-0.36981308,-1.4824321,-1.2830521,2.479653,1.4395014,-0.9981185,-1.402176,1.1866587,0.8843301,-1.1678237,0.8752043,0.47495607,0.27519265,1.4214134,-0.43868256,1.6516238,-3.2678125,0.20218728,-0.48710677,0.25352097,-0.2733307,0.9910343,0.7123215,-0.1107918,0.11253706,0.68385565,0.2406031,0.5657598,-0.12450571,1.0,0.0,0.0,0.0,0.0,0.0,0.0,-2.0714135,0.03868255,-1.1016238,0.54666996,-2.4205923,-1.018846,-3.0052185,-1.7503619,0.00082850456,0.52357316
0.6994935,9.997786,2.3166592,12.847858,0.9077998,-1.1629573,0.04455861,-0.77599114,0.64069355,0.48809698,-0.68246335,0.5833734,0.6587965,0.42326844,0.9640179,-0.30574372,-1.4336225,-1.3512985,2.5379903,1.5053811,-0.95579165,1.0276552,-0.3581339,-1.4736602,-1.2949635,2.488278,1.444245,-0.99533474,-1.3944609,1.1620406,0.87468445,-1.1993035,0.85879475,0.47425207,0.27933583,1.3887596,-0.4366684,1.6460199,-3.2645454,0.20198514,-0.5848058,0.25602722,-0.26785278,0.98958516,0.7101593,-0.10985549,0.115370505,0.68578064,0.25982186,0.54004085,-0.1580553,1.0,0.0,0.0,0.0,0.0,0.0,0.0,-2.0387597,0.03666839,-1.09602,0.76231956,-2.3531437,-1.0143995,-3.259778,-1.4993668,-0.082445145,0.39043427
0.15807188,8.87884,2.0971994,13.666608,0.96905136,-1.099951,0.037612297,-0.7700939,0.62401575,0.48332036,-0.6895657,0.55483836,0.6578366,0.43883118,0.95064586,-0.29573235,-1.4253283,-1.3639201,2.5437617,1.5100286,-0.9514516,1.013785,-0.34671414,-1.464978,-1.3071476,2.4966931,1.4489809,-0.99250424,-1.3845953,1.1356492,0.8658381,-1.2253078,0.8359208,0.47331104,0.28424326,1.3561363,-0.43465424,1.6394398,-3.2612815,0.2017832,-0.6824071,0.25871277,-0.2626114,0.9878158,0.7079964,-0.10859223,0.11825119,0.68772477,0.27642897,0.51462466,-0.18947057,1.0,0.0,0.0,0.0,0.0,0.0,0.0,-2.0061364,0.03465423,-1.0894399,0.9702444,-2.5299072,-0.9361148,-2.7156115,-2.142167,-0.11873245,0.46660304
-0.8115728,6.9364996,1.5426784,14.629268,1.1042396,-1.0216869,0.026512561,-0.767779,0.6035814,0.48248038,-0.69971204,0.539679,0.6608262,0.44286445,0.9370071,-0.286356,-1.4167299,-1.3771188,2.550661,1.5150635,-0.9482178,1.0000044,-0.33558905,-1.4563625,-1.3195606,2.504868,1.4537092,-0.98962605,-1.3760486,1.1051487,0.85994947,-1.2469101,0.81183213,0.47261986,0.2889358,1.3235512,-0.43264008,1.6318843,-3.2580209,0.20158145,-0.7799108,0.26153183,-0.25763702,0.98574686,0.70583755,-0.107028544,0.12116049,0.68967986,0.2886126,0.4877284,-0.21868964,1.0,0.0,0.0,0.0,0.0,0.0,0.0,-1.9735512,0.03264007,-1.0818844,0.8216858,-2.9424667,-0.632143,-2.2826433,-2.2595882,-0.107741356,0.44579506
-0.66653436,6.4865255,1.588923,14.479306,1.0827887,-1.0067815,0.043764737,-0.759936,0.58698887,0.48339412,-0.7246896,0.521114,0.65032846,0.43167347,0.9240108,-0.27689016,-1.4080231,-1.3920296,2.5569794,1.5187421,-0.9464587,0.98632205,-0.32477868,-1.4477794,-1.3322331,2.5127873,1.4584223,-0.9867145,-1.3656558,1.0733508,0.8576312,-1.2744795,0.7861925,0.47090602,0.29188776,1.2909966,-0.43062592,1.6233547,-3.2547636,0.20137991,-0.8773171,0.2644844,-0.25291443,0.9833776,0.70367277,-0.10516177,0.12408971,0.6916555,0.30131826,0.46206164,-0.24887046,1.0,0.0,0.0,0.0,0.0,0.0,0.0,-1.9409965,0.03062591,-1.0733547,1.0207176,-3.072834,-0.28842688,-2.8697014,-2.4146914,-0.21896958,0.27537942
-2.408589,2.9192832,0.21835661,15.752071,1.2940791,-0.92871094,0.014432345,-0.75263476,0.557312,0.47231972,-0.7236699,0.4863859,0.6520958,0.4498466,0.91105855,-0.26904747,-1.4005475,-1.4046,2.561426,1.5236319,-0.94172984,0.9727551,-0.31434834,-1.4392536,-1.3451172,2.5203977,1.4631201,-0.9837638,-1.3539302,1.0332683,0.8507329,-1.2935531,0.75335586,0.46931094,0.2959324,1.2584724,-0.42861176,1.6138515,-3.2515094,0.20117857,-0.97462595,0.2675171,-0.24848938,0.9807233,0.7015159,-0.10301239,0.12702066,0.693635,0.3076654,0.4318662,-0.27663782,1.0,0.0,0.0,0.0,0.0,0.0,0.0,-1.9084724,0.02861175,-1.0638516,1.1442423,-3.906393,-0.7453561,-2.0355225,-3.1379104,-0.22463202,0.37952662
-4.346342,0.035359144,-1.3715532,16.78286,1.5254151,-0.9003192,-0.046620145,-0.75860345,0.54109895,0.45181897,-0.7329245,0.48963627,0.64185965,0.44228047,0.89689475,-0.26023844,-1.3940717,-1.4184097,2.5693612,1.5273061,-0.93953574,0.9592482,-0.30431235,-1.4308803,-1.3581692,2.5277448,1.467795,-0.9807826,-1.3497664,0.9939798,0.8326363,-1.3094321,0.7287889,0.46666294,0.2987674,1.2259789,-0.4265976,1.6033762,-3.2482586,0.20097743,-1.0718375,0.2705841,-0.24440765,0.977801,0.6994265,-0.1005753,0.12992169,0.6955628,0.30835414,0.3952568,-0.30287138,1.0,0.0,0.0,0.0,0.0,0.0,0.0,-1.8759788,0.02659759,-1.0533762,0.34825802,-3.835845,-1.8166661,-1.7261267,-2.3296475,-0.35517812,0.2601266
-6.0374737,-4.762578,-3.02578,17.361162,1.7140442,-0.8278676,-0.03510545,-0.74811053,0.48931742,0.4559656,-0.7469543,0.42610946,0.63543886,0.46534368,0.88443714,-0.2553806,-1.3852837,-1.4328647,2.5703557,1.5313389,-0.93424827,0.94580424,-0.2948128,-1.4226577,-1.371389,2.534718,1.4724394,-0.97776043,-1.3427143,0.93554217,0.81866664,-1.3267378,0.6874328,0.46344885,0.3032814,1.1935234,-0.42458344,1.5919294,-3.245011,0.20077649,-1.1689519,0.27360535,-0.24073029,0.9746119,0.69741195,-0.09785583,0.13276969,0.6974331,0.30325222,0.35368016,-0.32943788,1.0,0.0,0.0,0.0,0.0,0.0,0.0,-1.8435234,0.02458343,-1.0419295,0.6734371,-5.7594776,-1.4502406,-1.8756866,-4.0115714,-0.42657256,0.41934848
-10.76031,-16.763319,-7.9395275,18.553873,2.37601,-0.7692454,-0.04818984,-0.72292763,0.39738405,0.42902943,-0.7537342,0.38392815,0.6247448,0.47934234,0.8735115,-0.25507438,-1.3797548,-1.4467624,2.5731108,1.5349139,-0.9298262,0.9325386,-0.2862264,-1.4146678,-1.3847729,2.5412068,1.4770457,-0.97468674,-1.3208773,0.8331925,0.79197115,-1.3426582,0.63634235,0.4591977,0.30858916,1.1610985,-0.4225769,1.5795121,-3.2417667,0.20057575,-1.2659692,0.27646637,-0.23762512,0.9711488,0.6954852,-0.09483923,0.13542658,0.69926065,0.28268224,0.29158145,-0.35663545,1.0,0.0,0.0,0.0,0.0,0.0,0.0,-1.8110985,0.022576898,-1.0295122,2.2662401,-10.176349,-2.8452635,-1.7624617,-5.008149,-0.5601287,0.48021674
-26.335667,-51.053043,-24.080673,21.348192,4.308143,-0.7808288,-0.2259439,-0.69649637,0.19375521,0.3215837,-0.76079166,0.29934126,0.6094566,0.50251776,0.862889,-0.26685086,-1.3825095,-1.460852,2.571141,1.5379913,-0.92443496,0.9196116,-0.27948153,-1.4074199,-1.3983055,2.5470052,1.4815966,-0.97154915,-1.2821575,0.62151545,0.7009952,-1.3577701,0.5607371,0.45276618,0.31505075,1.1287041,-0.420578,1.5661254,-3.2385256,0.20037521,-1.3628895,0.27879333,-0.23566437,0.96736455,0.69382614,-0.091416374,0.1375517,0.70094776,0.21814512,0.16131467,-0.3899618,1.0,0.0,0.0,0.0,0.0,0.0,0.0,-1.778704,0.020577997,-1.0161254,4.2106867,-21.192814,-9.512591,-1.7472744,-7.5737,-0.8871436,0.5355537
-53.640408,-110.78502,-52.701385,25.697166,7.537802,-0.8374583,-0.5658457,-0.6215947,-0.17056021,0.10666068,-0.7659894,0.074173175,0.5615573,0.48767698,0.8574521,-0.29653755,-1.3967539,-1.4749045,2.5544224,1.5377523,-0.92278147,0.9073998,-0.27632916,-1.4020507,-1.4119736,2.5514607,1.4860369,-0.96836865,-1.1981931,0.21258822,0.4795135,-1.3705354,0.4065781,0.4396292,0.3183315,1.0963402,-0.4185791,1.5517702,-3.2352877,0.20017488,-1.4597129,0.2799263,-0.23588562,0.96314055,0.6928198,-0.08737521,0.13863654,0.70224375,0.07882567,-0.08654348,-0.43603808,1.0,0.0,0.0,0.0,0.0,0.0,0.0,-1.7463402,0.018579096,-1.0017703,9.20186,-41.069572,-22.994274,-1.5273571,-15.632182,-1.8043816,0.11575222
-77.22466,-154.20631,-78.233604,27.78494,9.237785,-1.2233354,-1.1491306,-0.5265615,-0.44122908,-0.30858117,-0.7564621,-0.4659179,0.52808565,0.541965,0.8547436,-0.32045206,-1.4329089,-1.4876198,2.504869,1.5388454,-0.9141722,0.8963982,-0.27805817,-1.4006526,-1.4256722,2.5528836,1.4903094,-0.9651271,-1.0639342,-0.30251464,0.02309012,-1.3693265,0.05290334,0.42055538,0.32495987,1.0640144,-0.4165802,1.5364475,-3.232053,0.19997475,-1.5564394,0.27936172,-0.23926544,0.958263,0.69306415,-0.08251878,0.138917,0.7025345,-0.10418345,-0.42334545,-0.5061754,1.0,0.0,0.0,0.0,0.0,0.0,0.0,-1.7140144,0.016580194,-0.9864475,14.50572,-51.834087,-46.62558,0.15096664,-35.861485,-2.7371407,0.32219887
-66.72871,-135.26024,-66.263275,27.870678,8.191424,-0.6703573,-0.8590627,-0.43272865,-0.60503167,-0.3178485,-0.7496755,-0.5698945,0.5628048,0.5283219,0.85312533,-0.33856133,-1.4324375,-1.5006397,2.4958942,1.5465899,-0.9122949,0.88698065,-0.28476298,-1.4033611,-1.4392697,2.5507474,1.4944311,-0.9618274,-0.8981589,-0.7942357,-0.37140137,-1.3550006,-0.3040264,0.40683523,0.3308339,1.0317192,-0.4145813,1.5201583,-3.2288218,0.19977482,-1.6530693,0.27705765,-0.24562073,0.9527421,0.6944421,-0.07700708,0.13853593,0.70187455,-0.27477637,-0.7042615,-0.5678395,1.0,0.0,0.0,0.0,0.0,0.0,0.0,-1.6817192,0.014581293,-0.9701583,17.447317,-49.494255,-40.235577,1.8763542,-36.11302,-2.1724641,0.35099387
-40.552383,-84.827484,-38.074917,23.601519,5.420398,-0.10987812,-0.27048266,-0.37801304,-0.68796915,-0.2683256,-0.7771286,-0.58595526,0.60339123,0.5403975,0.8491793,-0.3535599,-1.4301937,-1.5169826,2.492152,1.5547702,-0.9077876,0.87913954,-0.29548943,-1.4087226,-1.4528366,2.5456357,1.4984766,-0.95845807,-0.7444936,-1.1662961,-0.5925773,-1.3555168,-0.581092,0.40225768,0.33869788,0.9994545,-0.4125824,1.5029035,-3.2255936,0.19957508,-1.7496026,0.27347183,-0.25390625,0.94668406,0.69632685,-0.071132265,0.13758838,0.70081276,-0.38972712,-0.8675793,-0.6198418,1.0,0.0,0.0,0.0,0.0,0.0,0.0,-1.6494545,0.0125823915,-0.95290345,15.841627,-37.46412,-22.566462,0.5171776,-27.988953,-0.98775625,0.7006824
4.4252634,-9.09504,6.416931,14.425911,0.93714005,0.2616902,0.8256617,-0.09283484,-0.72516274,-0.16610286,-0.79508114,-0.58393425,0.6049127,0.5374512,0.86985606,-0.3680057,-1.4253329,-1.5323447,2.4872422,1.558968,-0.9047129,0.87370837,-0.30879605,-1.4147022,-1.4665371,2.5385213,1.5025202,-0.9550077,-0.47767502,-1.3858,-0.59883016,-1.3742226,-0.75464195,0.40520442,0.3475214,0.9672203,-0.4105835,1.484684,-3.2223687,0.19937554,-1.8460393,0.2695694,-0.26255798,0.94025135,0.6975832,-0.065299876,0.13619976,0.7004022,-0.39477247,-0.85654163,-0.65396476,1.0,0.0,0.0,0.0,0.0,0.0,0.0,-1.6172203,0.01058349,-0.934684,26.193846,-22.044395,-0.34356117,-1.6448259,-17.33123,0.28941035,0.9987414
26.844627,32.268982,26.86824,8.984526,-1.4183877,-0.07575235,1.1316706,0.11414049,-0.74484366,-0.30606902,-0.7795671,-0.6205559,0.61734885,0.501652,0.8851224,-0.38328043,-1.445309,-1.5444938,2.4764657,1.5642551,-0.9048425,0.8714739,-0.32333004,-1.4206798,-1.4803749,2.5301938,1.5066191,-0.95150197,-0.1421919,-1.4759318,-0.5948853,-1.3871781,-0.85863644,0.412127,0.35217184,0.93502045,-0.4085846,1.4655011,-3.219147,0.1991762,-1.9423797,0.26612854,-0.2705307,0.9335458,0.69762474,-0.059704542,0.1346154,0.7011659,-0.32920828,-0.7725559,-0.679955,1.0,0.0,0.0,0.0,0.0,0.0,0.0,-1.5850204,0.008584589,-0.91550106,32.51071,-9.01711,1.1585951,-1.3575077,-10.2844715,0.85415244,0.62960386
26.857805,38.87288,25.147446,7.657612,-1.416436,-0.69884086,0.840779,0.22329974,-0.7643731,-0.5012829,-0.77531326,-0.5783221,0.6161644,0.4588206,0.8938039,-0.39976737,-1.4708081,-1.5579063,2.4723616,1.5682355,-0.9056199,0.8724743,-0.33817923,-1.4273689,-1.494289,2.5213666,1.5107809,-0.94799244,0.17747773,-1.4879656,-0.6909499,-1.3932841,-0.89041793,0.41783726,0.35089058,0.9028549,-0.40660095,1.4453554,-3.2159286,0.19897707,-2.0386236,0.26343918,-0.27780914,0.92655355,0.696625,-0.054192707,0.13298333,0.70291686,-0.24907604,-0.7063603,-0.7100594,1.0,0.0,0.0,0.0,0.0,0.0,0.0,-1.5528549,0.006600946,-0.8953554,30.963139,-1.208806,-8.805048,-0.72062016,-3.1371474,0.622493,-0.00028014183
21.497465,36.91886,20.307924,8.8791485,-0.9330985,-0.9290291,0.51595557,0.272292,-0.764766,-0.55846465,-0.7802645,-0.55371577,0.61735684,0.44471562,0.8997035,-0.41465583,-1.4832153,-1.5723155,2.465995,1.5725166,-0.9035209,0.87608016,-0.35282958,-1.4353015,-1.5082508,2.5125508,1.5149924,-0.9445163,0.41942364,-1.4575264,-0.8255083,-1.3972822,-0.879251,0.42211834,0.3468447,0.8707199,-0.4046173,1.424248,-3.2127132,0.19877812,-2.134771,0.2614746,-0.28460693,0.9192497,0.6949527,-0.048566725,0.13136287,0.7052842,-0.17770772,-0.66345525,-0.7418068,1.0,0.0,0.0,0.0,0.0,0.0,0.0,-1.5207199,0.0046173036,-0.87424797,23.54704,3.0138254,-12.923611,-0.4701376,1.0728121,0.40315986,-0.3234744
15.40985,31.244614,15.49162,10.820402,-0.35084045,-0.91719204,0.2902164,0.33434743,-0.77051604,-0.5992625,-0.7827205,-0.5482121,0.60682684,0.4373071,0.9095149,-0.4298812,-1.4952278,-1.5865229,2.4577296,1.575675,-0.90078557,0.8815628,-0.36712134,-1.444596,-1.5222412,2.503964,1.5192305,-0.9410888,0.5900693,-1.4199079,-0.9631989,-1.3995309,-0.8524947,0.4240141,0.34164155,0.8386154,-0.40263367,1.4021798,-3.2095013,0.19857939,-2.2308226,0.26008606,-0.29110718,0.91163063,0.6928933,-0.04271405,0.12975934,0.7079809,-0.1228166,-0.64031845,-0.77346563,1.0,0.0,0.0,0.0,0.0,0.0,0.0,-1.4886154,0.002633661,-0.8521798,16.731941,3.70574,-13.490868,-0.23360252,2.5720716,0.11987686,-0.46833158
9.1779175,25.269344,11.904417,13.781035,0.24531221,-0.6377261,0.121735305,0.34568647,-0.7712107,-0.60870504,-0.78106004,-0.5301403,0.61253506,0.42168573,0.9161315,-0.44424242,-1.5054666,-1.6003473,2.45095,1.580484,-0.89892024,0.8881365,-0.38109362,-1.4549987,-1.5362297,2.4956899,1.5234858,-0.9377223,0.6797164,-1.3899453,-1.0657868,-1.3984202,-0.8193848,0.42571953,0.3350784,0.80654144,-0.40065002,1.3791519,-3.2062924,0.19838084,-2.326778,0.25907898,-0.29746246,0.903734,0.69064957,-0.03662404,0.12812339,0.71080667,-0.090127505,-0.62958795,-0.8001546,1.0,0.0,0.0,0.0,0.0,0.0,0.0,-1.4565414,0.00065001845,-0.8291519,8.943343,2.9139519,-10.233402,0.16758442,3.1525016,0.09404421,-0.6266415
2.7579756,19.170998,8.505569,16.734274,0.7866503,-0.30254182,-0.024635531,0.32592684,-0.7713874,-0.62274534,-0.7788983,-0.53190136,0.61204654,0.42480105,0.92072916,-0.45823237,-1.5172733,-1.6141195,2.4424996,1.5846905,-0.8952422,0.89503443,-0.39486277,-1.4661453,-1.5501858,2.4876904,1.5277544,-0.93441594,0.69379884,-1.3729056,-1.1314083,-1.3943255,-0.7938918,0.42701072,0.3291992,0.7745056,-0.39866638,1.3551651,-3.2030869,0.1981825,-2.4226375,0.2582283,-0.30381012,0.8956068,0.6883844,-0.030331763,0.12641741,0.7136004,-0.08002143,-0.6291204,-0.82214034,1.0,0.0,0.0,0.0,0.0,0.0,0.0,-1.4245056,-0.0013336241,-0.8051651,1.6346812,1.5955687,-6.729555,0.52907467,2.341044,0.053203106,-0.58722496
-1.2268057,15.842403,7.007849,18.665648,1.1649806,-0.00767792,-0.084462434,0.30548337,-0.7719031,-0.6264996,-0.7802218,-0.4951059,0.6093116,0.4312666,0.92558277,-0.47205308,-1.5287952,-1.6282079,2.43818,1.5886856,-0.8912893,0.9016968,-0.40854847,-1.477679,-1.5641075,2.4799886,1.5320326,-0.93115723,0.6583136,-1.3675286,-1.1616905,-1.3907294,-0.76273423,0.42786106,0.32474962,0.7425003,-0.39668274,1.3302205,-3.1998844,0.19798435,-2.5184011,0.25735855,-0.31017303,0.8872923,0.6861871,-0.023875311,0.124566324,0.71628237,-0.08607636,-0.63357246,-0.83975536,1.0,0.0,0.0,0.0,0.0,0.0,0.0,-1.3925003,-0.0033172667,-0.78022045,-3.1826496,0.41365623,-3.3060312,0.5186558,2.878344,0.01603961,-0.4515767
-4.5955477,14.129925,6.244356,20.184656,1.3387461,0.2862342,-0.14186609,0.2469008,-0.77119577,-0.6126211,-0.7830851,-0.5062521,0.6040259,0.43123624,0.9263869,-0.48566806,-1.5389411,-1.642416,2.4293633,1.5924352,-0.8880336,0.9076506,-0.42223084,-1.4892604,-1.5780121,2.472508,1.5363146,-0.9279376,0.57609195,-1.3689241,-1.1582613,-1.3897341,-0.7439567,0.42810518,0.32098642,0.7105255,-0.3946991,1.3043189,-3.196685,0.1977864,-2.614069,0.2563362,-0.31658173,0.8788283,0.6841173,-0.017303823,0.12255944,0.71879286,-0.10462866,-0.6379575,-0.853853,1.0,0.0,0.0,0.0,0.0,0.0,0.0,-1.3605255,-0.0053009093,-0.7543189,-7.73381,-0.27394295,-0.034880638,0.29087067,1.6180277,-0.034052134,-0.39920807
-9.366743,10.655663,3.703259,21.283361,1.6649784,0.46914768,-0.23726268,0.16607648,-0.7754005,-0.61942923,-0.79186213,-0.4933832,0.5831768,0.4370591,0.92425823,-0.49977088,-1.5512034,-1.6571983,2.4231696,1.5946323,-0.8842317,0.91247046,-0.43596995,-1.5007427,-1.5919548,2.4651914,1.5405813,-0.92474663,0.4526663,-1.3760257,-1.1463627,-1.3949467,-0.7287103,0.42602396,0.3183509,0.67858124,-0.39272308,1.2774613,-3.193489,0.19758865,-2.7096412,0.25501633,-0.32310486,0.87021464,0.68227315,-0.010604301,0.120391905,0.72103864,-0.13720816,-0.65055275,-0.86895317,1.0,0.0,0.0,0.0,0.0,0.0,0.0,-1.3285812,-0.0072769225,-0.7274613,-11.747831,-0.8601427,0.72922707,-0.28202534,1.2306213,-0.2776742,-0.30056238
-15.28347,6.5431743,0.38500738,22.758043,2.0382423,0.6637466,-0.3801001,0.05671145,-0.7816024,-0.62395227,-0.79466957,-0.5081587,0.562595,0.4205249,0.9181416,-0.5141302,-1.5631379,-1.6714218,2.4143755,1.5968409,-0.8826941,0.91573584,-0.44981062,-1.5121181,-1.6059643,2.457932,1.5448099,-0.9215909,0.28679436,-1.3873348,-1.1364256,-1.4019272,-0.72602093,0.4216575,0.31443176,0.6466675,-0.3907547,1.2496488,-3.1902962,0.19739111,-2.8051178,0.25326538,-0.32982635,0.8614384,0.6808021,-0.0037467838,0.11808631,0.7228762,-0.18603027,-0.6733973,-0.8854092,1.0,0.0,0.0,0.0,0.0,0.0,0.0,-1.2966675,-0.009245306,-0.6996488,-15.882254,-1.3021469,0.45259,-0.40018559,-0.06989241,-0.5242348,-0.44990778
-12.701095,10.808771,3.3581476,21.679134,1.6993628,0.7563162,-0.28773215,0.019498013,-0.7814357,-0.599795,-0.80412245,-0.51517445,0.5592603,0.42632902,0.9176856,-0.5279542,-1.5720975,-1.6863766,2.4064145,1.600736,-0.87895805,0.917462,-0.46374857,-1.5233066,-1.6200787,2.4506497,1.5489966,-0.9184667,0.13673913,-1.3964565,-1.1145327,-1.4136455,-0.73050666,0.41725832,0.31169727,0.61479187,-0.38878632,1.2208822,-3.1871064,0.19719376,-2.900499,0.2510643,-0.33670044,0.85250306,0.67966366,0.0032459702,0.11566855,0.7243394,-0.22902471,-0.68382424,-0.90096533,1.0,0.0,0.0,0.0,0.0,0.0,0.0,-1.2647918,-0.01121369,-0.67088217,-14.362374,-1.0733604,1.6808033,-0.8904934,-0.76487064,-0.51971674,-0.31619668
-16.294289,10.619339,2.4675598,22.986698,1.8525789,0.986649,-0.37449282,-0.115974784,-0.77738583,-0.58930105,-0.80394894,-0.5321506,0.5570664,0.4487728,0.90586454,-0.54148716,-1.5822368,-1.7004735,2.3974347,1.6047032,-0.8735894,0.9174639,-0.4777323,-1.5342567,-1.6342903,2.443253,1.5531412,-0.9153491,-0.042890172,-1.3996276,-1.0902892,-1.4225986,-0.7437048,0.41315988,0.31160894,0.5829468,-0.38681793,1.1911625,-3.18392,0.1969966,-2.995785,0.24835968,-0.3436737,0.84343076,0.6788969,0.010345986,0.113189615,0.7253826,-0.28265876,-0.69556195,-0.91373384,1.0,0.0,0.0,0.0,0.0,0.0,0.0,-1.2329468,-0.013182074,-0.64116246,-17.251331,-0.49164295,1.8687725,-0.5820513,-1.6680717,-0.49179792,-0.064677
-22.661896,6.866389,-1.6224849,24.16637,2.3603063,1.0684048,-0.54706377,-0.24792276,-0.77560127,-0.6278576,-0.8102809,-0.5075123,0.5138698,0.42748463,0.89267164,-0.5552924,-1.5970424,-1.7153184,2.3925018,1.6045282,-0.8726007,0.9154593,-0.49171555,-1.5451953,-1.6485897,2.435803,1.5572134,-0.9122449,-0.25040042,-1.3985612,-1.0970747,-1.4311798,-0.7469504,0.40481758,0.3097922,0.5511322,-0.38484955,1.1604906,-3.1807368,0.19679965,-3.0909755,0.24501038,-0.35090637,0.8342001,0.6786795,0.017630434,0.11062626,0.72584087,-0.35256714,-0.7232772,-0.9304253,1.0,0.0,0.0,0.0,0.0,0.0,0.0,-1.2011322,-0.015150458,-0.6104906,-19.96861,-0.09586811,-1.273346,-0.47905445,-0.7275224,-0.9681642,-0.24654269
-24.484783,6.5760827,-2.3465452,24.343962,2.469992,1.1587448,-0.5756247,-0.33540297,-0.78029305,-0.64201957,-0.8070772,-0.5254065,0.50428754,0.4475912,0.88191897,-0.5697448,-1.6093973,-1.7292974,2.3832624,1.6076422,-0.8674858,0.9114214,-0.5056992,-1.5563304,-1.662933,2.428288,1.5611979,-0.9091426,-0.45248756,-1.3989701,-1.1207808,-1.4340519,-0.7543426,0.39576417,0.31020537,0.51934814,-0.38288116,1.1288676,-3.1775568,0.19660288,-3.186071,0.24091339,-0.35842133,0.8247908,0.67908555,0.025138509,0.107960686,0.7256412,-0.42818913,-0.75337213,-0.94833595,1.0,0.0,0.0,0.0,0.0,0.0,0.0,-1.1693481,-0.017118841,-0.5788676,-19.451921,-0.25746822,-2.938366,0.12202263,-1.1618018,-1.0745108,-0.018328428
-22.635931,8.824964,-0.6550174,23.224588,2.3327851,1.2027038,-0.5017727,-0.4027296,-0.78659844,-0.6503853,-0.8100442,-0.5132389,0.5040535,0.4386979,0.87114847,-0.58435905,-1.621369,-1.7439374,2.376964,1.6116033,-0.8652728,0.9055687,-0.51971537,-1.5677402,-1.6772972,2.4207463,1.5650984,-0.90603936,-0.6272703,-1.4033169,-1.1494935,-1.435735,-0.7551846,0.38754207,0.3102362,0.4875946,-0.38091278,1.0962944,-3.1743798,0.19640632,-3.2810712,0.23609924,-0.36621857,0.81519574,0.68006027,0.03286348,0.1051345,0.7248342,-0.5008141,-0.7777855,-0.9669865,1.0,0.0,0.0,0.0,0.0,0.0,0.0,-1.1375946,-0.019087225,-0.5462944,-16.80653,-0.6488085,-3.37739,0.23822784,-0.4881978,-1.0086,-0.032299757
-21.822554,10.035455,0.2794299,22.454296,2.2505074,1.2679751,-0.4614122,-0.4839085,-0.79601353,-0.6718152,-0.80699414,-0.52168745,0.5025642,0.42193106,0.85717785,-0.5993167,-1.6349217,-1.7579967,2.3685775,1.6153548,-0.86384624,0.8981186,-0.5338202,-1.5794837,-1.6916519,2.4131856,1.5689245,-0.90294755,-0.78225315,-1.4135492,-1.1842525,-1.4338993,-0.75748295,0.3802432,0.30884835,0.45587158,-0.3789444,1.0627718,-3.1712062,0.19620995,-3.3759766,0.23057175,-0.37420654,0.8054068,0.68154675,0.04078719,0.10209228,0.723469,-0.57280874,-0.79838884,-0.9865339,1.0,0.0,0.0,0.0,0.0,0.0,0.0,-1.1058716,-0.021055609,-0.5127718,-14.88961,-1.2385607,-3.93548,0.5978823,-0.6229162,-0.9330094,-0.15783906
-20.36655,12.961506,2.1852655,21.470858,2.1135883,1.3605037,-0.41729414,-0.5647024,-0.7949519,-0.6815492,-0.81118906,-0.49020556,0.4960322,0.3816456,0.8416484,-0.6133154,-1.6476387,-1.7727709,2.364165,1.6185278,-0.864783,0.88921416,-0.54801375,-1.5915458,-1.7060009,2.405705,1.572682,-0.8998977,-0.9246765,-1.4219623,-1.2151295,-1.4340134,-0.74628,0.3733997,0.30368346,0.4241867,-0.37698364,1.0283009,-3.1680357,0.19601378,-3.470787,0.2243309,-0.38237,0.795428,0.68349576,0.048893243,0.09876578,0.72158736,-0.6430031,-0.8118565,-1.0053612,1.0,0.0,0.0,0.0,0.0,0.0,0.0,-1.0741867,-0.023016363,-0.47830087,-13.680399,-1.0544777,-3.5123825,0.39670467,0.7436633,-0.8951366,-0.5154073
-19.469738,15.050559,3.6870866,20.77826,1.9934795,1.478869,-0.39771193,-0.6372916,-0.8036338,-0.6929903,-0.808612,-0.48443708,0.4968247,0.30200374,0.825485,-0.62837714,-1.6608448,-1.7868621,2.3572612,1.6223645,-0.86969733,0.87896216,-0.5623084,-1.6038826,-1.7203423,2.3983579,1.5763785,-0.8969575,-1.0569772,-1.4326924,-1.2411654,-1.4328485,-0.73210454,0.36767522,0.2909177,0.39253235,-0.37503052,0.9928826,-3.1648684,0.19581781,-3.565503,0.21740341,-0.39064026,0.7852693,0.68587476,0.057147104,0.09510474,0.71921146,-0.71264833,-0.81877023,-1.0229224,1.0,0.0,0.0,0.0,0.0,0.0,0.0,-1.0425323,-0.024969488,-0.4428826,-12.710201,-1.2854576,-2.997756,0.524807,1.0548949,-0.78430176,-1.2610078
-17.595135,18.162766,5.7119565,19.832846,1.7959646,1.5419885,-0.39168173,-0.6924275,-0.8048172,-0.70888996,-0.8051337,-0.46594927,0.48002404,0.15443303,0.8097194,-0.6427901,-1.6747715,-1.8008556,2.351763,1.6243808,-0.8815142,0.8675076,-0.57669264,-1.6164672,-1.7346569,2.39119,1.580012,-0.89425004,-1.173421,-1.4409783,-1.265522,-1.4298784,-0.7125397,0.36131606,0.26418445,0.3609085,-0.3730774,0.9565179,-3.161704,0.19562203,-3.6601238,0.20980453,-0.39891815,0.7749463,0.6886667,0.06551281,0.09108092,0.7163452,-0.77809083,-0.817936,-1.038869,1.0,0.0,0.0,0.0,0.0,0.0,0.0,-1.0109085,-0.026922613,-0.40651786,-11.183286,-1.032877,-2.7832747,0.6884575,1.618576,-0.8401096,-2.64318
-15.286126,21.117308,7.9450827,19.267305,1.7145684,1.6008248,-0.41030112,-0.7326581,-0.8109174,-0.71800864,-0.7931605,-0.3950167,0.46840894,-0.11543374,0.7942418,-0.6577844,-1.6882681,-1.813973,2.3516884,1.6268529,-0.9057934,0.8550497,-0.59116083,-1.6292636,-1.7488896,2.3844075,1.5835806,-0.8919984,-1.2685721,-1.4494267,-1.2853199,-1.4199688,-0.6679368,0.35481432,0.21229632,0.3293152,-0.37112427,0.91920763,-3.1585429,0.19542645,-3.7546504,0.2015953,-0.4071579,0.76449454,0.6918872,0.07393808,0.08659544,0.71297014,-0.8396974,-0.81188697,-1.0506176,1.0,0.0,0.0,0.0,0.0,0.0,0.0,-0.97931516,-0.028875738,-0.36920762,-9.126854,-1.0377645,-2.2631407,1.3546705,4.1640043,-0.83854795,-5.1346807
-12.723163,26.020344,11.222605,19.655453,1.6980888,1.7421217,-0.43253976,-0.7722339,-0.79822195,-0.7150574,-0.7683337,-0.2678127,0.5012099,-0.33468825,0.7778263,-0.670983,-1.7007694,-1.8257229,2.3576262,1.6337016,-0.92546725,0.84176695,-0.60563,-1.6421764,-1.7629181,2.3784184,1.5871187,-0.89040387,-1.3470662,-1.4466776,-1.2937549,-1.3960217,-0.5769315,0.3527292,0.14203063,0.29775238,-0.36917114,0.88095284,-3.155385,0.19523107,-3.8490822,0.19278336,-0.4152832,0.75400406,0.6955678,0.08232151,0.081493825,0.70906085,-0.8984553,-0.7999976,-1.0516341,1.0,0.0,0.0,0.0,0.0,0.0,0.0,-0.94775236,-0.030828863,-0.33095282,-7.5310707,0.094509125,-1.0428667,2.703929,8.860338,-0.3717482,-6.9496007
-9.094417,28.510899,13.286415,18.114738,1.502732,1.6629881,-0.36376888,-0.77881527,-0.80563956,-0.7310497,-0.76197934,-0.19291449,0.49097362,-0.43878442,0.76388544,-0.68619394,-1.7152814,-1.8391161,2.359127,1.6362162,-0.9342823,0.8279282,-0.6200829,-1.6551883,-1.7767006,2.373486,1.590634,-0.88954175,-1.3954146,-1.4454023,-1.3040862,-1.3713858,-0.46619895,0.35070685,0.06797742,0.2662201,-0.36721802,0.84175444,-3.1522303,0.19503587,-3.9434197,0.18346024,-0.42327118,0.74350256,0.6996603,0.09062417,0.075672664,0.7046533,-0.9480904,-0.783967,-1.0527093,1.0,0.0,0.0,0.0,0.0,0.0,0.0,-0.91622007,-0.03278199,-0.29175442,-4.602027,-0.030350685,-1.1636019,2.731514,10.891503,-0.34752488,-7.311049
-6.489622,30.91543,15.003136,17.019428,1.330543,1.6303067,-0.30654246,-0.7938159,-0.80223256,-0.7386721,-0.7483481,-0.10355219,0.4963797,-0.4955558,0.7485466,-0.7003062,-1.7290555,-1.8515354,2.3631308,1.6402719,-0.93909734,0.81374896,-0.6345063,-1.6683052,-1.7902275,2.369763,1.5941378,-0.889393,-1.4248351,-1.4418014,-1.3145998,-1.3457137,-0.34152627,0.34979275,-0.0024355068,0.23471832,-0.3652649,0.80161333,-3.1490786,0.19484088,-4.037663,0.17368317,-0.4310913,0.73299605,0.7040944,0.09882551,0.06907825,0.69979477,-0.99089897,-0.76412034,-1.0530554,1.0,0.0,0.0,0.0,0.0,0.0,0.0,-0.8847183,-0.034735113,-0.25161332,-2.7660608,0.21841526,-1.1307001,2.8009176,12.330169,-0.22243261,-6.941036
-4.171955,33.40442,16.577602,15.691576,1.0006741,1.5924085,-0.23828025,-0.8040016,-0.7969469,-0.745878,-0.7411398,-0.06695967,0.4972904,-0.5032922,0.7333488,-0.714201,-1.742893,-1.8643415,2.363067,1.6438668,-0.9397222,0.79937136,-0.64887244,-1.6815345,-1.8035313,2.3671765,1.5976359,-0.88987744,-1.4415457,-1.4353222,-1.3258756,-1.3243963,-0.23152061,0.34946156,-0.063426584,0.2032547,-0.36331177,0.76052254,-3.1459303,0.19464608,-4.132877,0.16354752,-0.4386444,0.72247225,0.70877934,0.106920384,0.061772794,0.6945387,-1.0249691,-0.7376361,-1.0551096,0.0,1.0,0.0,0.0,0.0,0.0,0.0,-0.8532547,-0.03668824,-0.21052253,-1.5333176,0.5203724,-1.1796713,2.3404121,10.895499,-0.14662743,-6.009764
-1.9639245,35.817696,18.113575,14.245322,0.49176818,1.5740972,-0.18075655,-0.808287,-0.7890019,-0.7518811,-0.7304752,-0.10051352,0.50884205,-0.50886196,0.71854264,-0.7277726,-1.7567227,-1.8765788,2.3571253,1.6485201,-0.94076365,0.7849758,-0.66307884,-1.6955572,-1.8168609,2.3637033,1.6030382,-0.8902261,-1.4263368,-1.407274,-1.5214002,-1.3652517,-0.6172115,0.82924,0.033680737,0.17995834,-0.36437988,0.7393548,-1.1421704,-0.52254885,1.4736974,0.1530571,-0.44558716,0.7117365,0.71339685,0.11420043,0.05466534,0.6892277,-1.0669223,-0.6268188,-1.1102515,0.0,1.0,0.0,0.0,0.0,0.0,0.0,-0.8299583,-0.035620123,-0.18935478,3.9269924,4.4409275,-38.021133,-9.866333,-83.51244,95.74415,24.662949
74.988396,176.0,110.0,90.38399,-7.06059,8.895739,-0.4527322,-0.73984146,0.32077706,0.726688,0.760563,-0.34308326,0.6192266,-0.4273483,0.7109917,-0.6310011,-1.6228884,-1.7408047,2.3293948,1.6649609,-0.9329609,0.7751229,-0.67309594,-1.7108923,-1.8212026,2.3505666,1.6187625,-0.8881395,-0.8338795,-0.8589693,-1.5437077,-0.12091016,-1.5210717,1.8254764,0.27322888,0.16918564,-0.36978912,0.7560953,-1.1410285,-0.52202636,1.3729727,0.1434555,-0.4498062,0.7046405,0.7177963,0.112945154,0.05410686,0.6848973,-0.9274004,-0.34399617,-0.57681376,1.0,0.0,0.0,0.0,0.0,0.0,0.0,-0.8191856,-0.030210882,-0.20609528,61.102867,57.421387,-7.644081,124.23437,-91.58559,108.555725,26.588095
34.962345,143.75192,107.98203,94.76079,-1.3653564,7.558355,-0.40264702,-0.7718853,-0.43053538,0.56316143,0.80044883,-0.5817606,0.5688284,-0.32694256,0.6979343,-0.71614945,-1.6545762,-1.7411578,2.2923906,1.6756454,-0.92083377,0.76693845,-0.679991,-1.7199618,-1.8151869,2.334297,1.636972,-0.88562274,-0.81371087,-0.6341504,-0.6914842,0.8407029,-1.6653507,1.8257949,0.2438532,0.15778351,-0.37500763,0.76907027,-1.1398877,-0.52150446,1.2723488,0.13466263,-0.45207214,0.70312244,0.72247267,0.10450487,0.05726362,0.6810526,-0.8627755,-0.1773962,-0.013146038,1.0,0.0,0.0,0.0,0.0,0.0,0.0,-0.8077835,-0.024992377,-0.21907026,1.8916845,22.152222,86.15849,95.6436,-15.326738,1.9533157,-3.1478734
12.9618845,120.92475,82.55559,75.08071,0.35515976,5.513796,-0.5532353,-0.7691971,-0.19825599,0.29747748,0.75062567,-0.62667394,0.6150419,-0.122182265,0.6900187,-0.6998166,-1.690214,-1.7401243,2.2716296,1.6984762,-0.897841,0.757807,-0.6846497,-1.7214667,-1.8021196,2.3184583,1.654098,-0.88348174,-0.9447877,-0.41082627,0.029059576,1.4623506,-1.561121,1.6789793,0.2046642,0.14639282,-0.3802185,0.7810398,-1.138748,-0.52098304,1.1718254,0.12619019,-0.4530182,0.706132,0.72755456,0.091649786,0.06207083,0.6770612,-0.84229535,-0.06087018,0.40057135,1.0,0.0,0.0,0.0,0.0,0.0,0.0,-0.7963928,-0.0197815,-0.23103976,-12.6253605,21.996748,71.83674,62.226223,9.101868,-13.466239,-3.7564516
6.011121,108.021935,65.384865,49.819656,-0.16979438,3.7568386,-0.46216056,-0.76840925,0.020753993,0.3666272,0.7818873,-0.65557134,0.6053372,-0.1965226,0.6809661,-0.68257433,-1.684804,-1.7239308,2.252901,1.7146318,-0.903134,0.7469275,-0.68686414,-1.7171046,-1.7854017,2.3042448,1.6694694,-0.8818357,-1.1343752,-0.1591792,0.5700294,1.7420622,-1.3787742,1.4927334,0.15164256,0.13501358,-0.38542175,0.7920048,-1.1376096,-0.52046216,1.0714027,0.11796951,-0.45279694,0.71217245,0.7329013,0.07655712,0.067854725,0.6725998,-0.81726766,0.056029208,0.66593975,1.0,0.0,0.0,0.0,0.0,0.0,0.0,-0.78501356,-0.014578253,-0.24200481,-18.536758,24.899313,53.532005,28.138851,17.103268,-17.765617,-5.1872344
-12.186423,56.80169,26.297646,26.932085,1.1865616,1.5246221,-0.49140197,-0.78295934,-0.07809296,0.21697265,0.764708,-0.6509481,0.6146287,-0.24343856,0.66863155,-0.6946734,-1.6954073,-1.7089309,2.23915,1.7309322,-0.90617955,0.734319,-0.68760324,-1.7100111,-1.7678236,2.2918127,1.6830821,-0.8807161,-1.3025128,-0.045735955,0.7547104,1.7632746,-1.1994113,1.3192732,0.09907613,0.12364578,-0.390625,0.80196637,-1.1364722,-0.5199418,0.9710803,0.1096611,-0.4520111,0.71935093,0.7384993,0.061286326,0.073815614,0.6673935,-0.8365539,0.094227746,0.7294779,1.0,0.0,0.0,0.0,0.0,0.0,0.0,-0.77364576,-0.009375006,-0.25196636,-16.652012,11.263396,18.104994,2.19419,17.525482,-16.813993,-5.1608605
-12.698568,35.149467,9.5708275,12.349355,0.99135685,0.07592091,-0.35210457,-0.7758409,-0.023546977,0.20559108,0.7560368,-0.6437765,0.59856606,-0.22091092,0.6567349,-0.6899579,-1.689452,-1.6922199,2.227435,1.7429388,-0.9028072,0.72050977,-0.6875899,-1.7026507,-1.7510389,2.2808683,1.695127,-0.88005805,-1.4072217,0.01699871,0.72933584,1.6498361,-1.0596181,1.1676385,0.054703258,0.11228943,-0.39582062,0.8109254,-1.1353359,-0.51942194,0.87085825,0.10120773,-0.45108032,0.7263792,0.7442822,0.047149725,0.07958464,0.66142815,-0.8486851,0.099089675,0.6888843,1.0,0.0,0.0,0.0,0.0,0.0,0.0,-0.7622894,-0.0041793883,-0.2609254,-10.529947,6.2676363,-2.6596904,-11.416578,13.875723,-14.746976,-4.448001
-17.05308,8.109375,-5.869524,7.0651827,1.7631738,-0.68307805,-0.2762678,-0.78359187,-0.12724274,0.1679107,0.7603157,-0.627863,0.6057625,-0.22674136,0.6421506,-0.70031416,-1.6858596,-1.6750073,2.218082,1.7557032,-0.9027322,0.7060721,-0.6878197,-1.6964327,-1.735597,2.2710073,1.7058387,-0.879792,-1.4561316,-0.036084473,0.5859421,1.5085306,-0.9616635,1.039723,0.017223898,0.10094452,-0.4010086,0.818883,-1.1342008,-0.51890266,0.7707364,0.092487335,-0.45046234,0.7325349,0.7502323,0.03467727,0.08479858,0.6547963,-0.8813312,0.058698524,0.58698463,1.0,0.0,0.0,0.0,0.0,0.0,0.0,-0.7509445,0.0010086,-0.268883,-4.9376726,-5.250764,-14.349211,-14.24706,9.861231,-12.542081,-3.7531457
-9.567501,8.542278,-2.0142667,6.8577094,1.3695613,-0.7046348,-0.070097886,-0.7695049,-0.13561216,0.23507899,0.759743,-0.6191149,0.607237,-0.2307997,0.6291216,-0.7013809,-1.6729248,-1.6596227,2.2090957,1.7665623,-0.90287197,0.6915276,-0.6888182,-1.6914011,-1.7213606,2.261833,1.7154346,-0.8798549,-1.4539379,-0.12090254,0.47551885,1.3949925,-0.90286934,0.9334135,-0.0141773345,0.08961105,-0.4061966,0.8258402,-1.1330669,-0.51838386,0.6707147,0.08354187,-0.45018768,0.7377573,0.756217,0.023690535,0.089384235,0.64775383,-0.8988334,0.024993422,0.49724406,1.0,0.0,0.0,0.0,0.0,0.0,0.0,-0.739611,0.0061965883,-0.27584016,0.19979477,-8.440773,-11.018759,-11.435699,5.848074,-10.43663,-3.1472352
-11.344599,-0.07330489,-4.283421,9.937112,1.9152746,-0.5424378,-0.06943476,-0.772682,-0.24882266,0.20373546,0.7625224,-0.619908,0.60887843,-0.29235572,0.6142594,-0.7137005,-1.6710275,-1.6451083,2.1998422,1.7763224,-0.9090905,0.67715955,-0.6911309,-1.6873232,-1.7078909,2.2530134,1.7241054,-0.8802345,-1.430887,-0.26790884,0.38532424,1.3308785,-0.8747293,0.8452578,-0.04575098,0.07828903,-0.41137695,0.8317979,-1.131934,-0.51786554,0.5707929,0.07430649,-0.450325,0.74213123,0.762213,0.013829128,0.0932422,0.64042646,-0.93312824,-0.019338796,0.4146742,1.0,0.0,0.0,0.0,0.0,0.0,0.0,-0.728289,0.011376947,-0.2817979,2.3698568,-14.653894,-9.012651,-6.4249754,2.785325,-8.693647,-3.1161685
-8.328683,4.3310356,0.753676,12.888744,1.7987891,-0.2332567,-0.00032747723,-0.7586299,-0.30296844,0.22862712,0.7622638,-0.6298451,0.6073951,-0.28160346,0.60129654,-0.72142774,-1.6644605,-1.6316645,2.190029,1.7848449,-0.9083948,0.66311765,-0.69496655,-1.6837183,-1.6947454,2.2443006,1.7320094,-0.88088584,-1.3950416,-0.42208228,0.35220766,1.3093187,-0.87044895,0.77259874,-0.071429506,0.066978455,-0.41654968,0.83675414,-1.1308023,-0.5173478,0.47057736,0.06474304,-0.45080566,0.74586785,0.76816714,0.004669958,0.09640318,0.63293266,-0.96424097,-0.050646096,0.35742438,1.0,0.0,0.0,0.0,0.0,0.0,0.0,-0.71697843,0.016549677,-0.28675413,3.6764622,-15.3938055,-3.3044457,-2.1176815,0.33693314,-7.145393,-2.5067315
-5.426274,8.931448,5.6701813,14.687166,1.6361485,0.06367889,0.08097494,-0.7396786,-0.38312736,0.2709927,0.7597424,-0.6377519,0.61381066,-0.28100002,0.5891498,-0.7332793,-1.6566191,-1.6187712,2.1805253,1.7933905,-0.90898585,0.6494763,-0.7003758,-1.6799952,-1.6816229,2.2355306,1.7392898,-0.88176036,-1.3533907,-0.5805726,0.37904096,1.3133211,-0.87992775,0.71363527,-0.09243137,0.05567932,-0.4217224,0.84070903,-1.1296717,-0.51683056,0.37046194,0.054908752,-0.4514923,0.74918824,0.7739899,-0.0041835406,0.09892998,0.6254079,-0.9910893,-0.06728434,0.3209851,1.0,0.0,0.0,0.0,0.0,0.0,0.0,-0.7056793,0.021722406,-0.29070902,4.270506,-15.847361,2.7006984,0.46827793,-1.1022568,-5.7679296,-2.0212352
-3.6931145,12.64983,7.510104,14.887297,1.4552498,0.06089869,0.09705206,-0.7056769,-0.43956432,0.2419766,0.7557472,-0.65115684,0.6050919,-0.23783073,0.5789086,-0.74433225,-1.6557975,-1.6060481,2.170415,1.799799,-0.90554345,0.6363251,-0.7072356,-1.6760164,-1.6683935,2.2266004,1.7460551,-0.8827827,-1.3020715,-0.72114646,0.4044108,1.326299,-0.8979377,0.66467416,-0.10536322,0.044391632,-0.4268875,0.8436635,-1.1285423,-0.5163138,0.27044663,0.04485321,-0.45230103,0.7521833,0.7796371,-0.0128861135,0.100928046,0.61791056,-1.0124842,-0.078544624,0.28954256,1.0,0.0,0.0,0.0,0.0,0.0,0.0,-0.6943916,0.026887506,-0.2936635,5.2205563,-14.068031,2.5671363,1.377821,-1.9705415,-4.7549486,-1.218909
-0.8158426,21.122034,11.298197,14.834656,1.0782828,0.046598464,0.10409096,-0.67771274,-0.45693475,0.24592789,0.7573009,-0.6515374,0.6018618,-0.21035239,0.56855386,-0.75292903,-1.6514237,-1.5926634,2.1614466,1.8062413,-0.90381795,0.6237118,-0.71517015,-1.6717955,-1.655023,2.2174985,1.7523952,-0.8838928,-1.2475865,-0.8176965,0.42814705,1.3410077,-0.9147812,0.62449896,-0.1126888,0.033115387,-0.43204498,0.84561855,-1.127414,-0.5157976,0.17053135,0.034679413,-0.4531479,0.7549346,0.7850875,-0.02148757,0.10257779,0.6104536,-1.0213537,-0.07919371,0.26736504,1.0,0.0,0.0,0.0,0.0,0.0,0.0,-0.68311536,0.032044977,-0.29561853,5.5078983,-9.685791,2.4084926,1.5465975,-1.8800616,-3.8395047,-0.6839648
-0.87650466,22.54909,10.983865,14.109327,1.0262754,-0.036140084,0.08550723,-0.65125316,-0.51133823,0.23098464,0.7490566,-0.6435123,0.60099477,-0.19432434,0.5585865,-0.76630396,-1.648697,-1.5801173,2.1531472,1.8124946,-0.9033252,0.61163735,-0.7239449,-1.6674734,-1.6415704,2.208286,1.758388,-0.8850486,-1.193911,-0.8975317,0.43361318,1.346866,-0.9238196,0.59147507,-0.116425894,0.021850586,-0.43720245,0.8465752,-1.1262867,-0.5152819,0.07071595,0.024433136,-0.45399475,0.7574367,0.7903547,-0.0299519,0.10394988,0.60302293,-1.0289301,-0.08031302,0.24125992,1.0,0.0,0.0,0.0,0.0,0.0,0.0,-0.67185056,0.037202448,-0.2965752,5.4080963,-8.019983,0.58376193,0.6655216,-1.0873795,-3.122127,-0.3323689
0.9282646,23.775915,10.924612,12.463252,0.8843965,-0.20432651,0.11086449,-0.6045624,-0.5526297,0.21404919,0.7373473,-0.6321053,0.5992613,-0.17441219,0.55118114,-0.7792079,-1.6460686,-1.5678357,2.1450756,1.8183142,-0.90248984,0.60017514,-0.73343015,-1.6632391,-1.6281523,2.1990583,1.7640929,-0.8862188,-1.1302727,-0.9656085,0.42026865,1.3403882,-0.92347443,0.56417984,-0.11705219,0.010593414,-0.4423523,0.84653443,-1.1251607,-0.5147667,-0.028999653,0.014156342,-0.4548645,0.7596338,0.79543686,-0.038203057,0.10504196,0.5956399,-1.0307413,-0.083136864,0.20912592,1.0,0.0,0.0,0.0,0.0,0.0,0.0,-0.6605934,0.04235229,-0.29653442,6.365061,-6.849718,-1.2714326,-0.5760193,-0.14653206,-2.5552154,-0.03118068
4.520579,25.936106,11.386258,10.728762,0.6721674,-0.46932745,0.16035075,-0.53777504,-0.5756113,0.17726062,0.73598003,-0.6210225,0.59939265,-0.10628932,0.5463976,-0.7909913,-1.645513,-1.5545542,2.136956,1.8240322,-0.8968477,0.5895188,-0.7434828,-1.6593348,-1.6148275,2.1898878,1.7695613,-0.8873403,-1.0443057,-1.0186996,0.38084468,1.3300385,-0.9155953,0.54166216,-0.11039847,-0.00064849854,-0.4474945,0.84549725,-1.1240358,-0.51425207,-0.12861556,0.003932953,-0.45578766,0.7614761,0.8003061,-0.04616311,0.10587336,0.588362,-1.0223582,-0.08971607,0.17235652,1.0,0.0,0.0,0.0,0.0,0.0,0.0,-0.6493515,0.0474945,-0.29549724,8.542657,-5.357194,-3.8337767,-0.9780407,0.6084204,-2.0878553,0.6809786
0.853189,23.900904,7.553677,11.081589,0.85870445,-0.6571266,0.04280576,-0.5176097,-0.58332556,0.07754562,0.7373339,-0.61884856,0.60032666,-0.03772049,0.5377578,-0.8018154,-1.6515802,-1.5410941,2.128003,1.8295939,-0.8911123,0.57965493,-0.753916,-1.6562697,-1.6015886,2.1808088,1.774837,-0.88834167,-0.9671706,-1.0517027,0.28190178,1.3220183,-0.9056787,0.52318907,-0.09677541,-0.011882782,-0.45263672,0.8434647,-1.122912,-0.5137379,-0.22813186,-0.0062675476,-0.45687866,0.7628741,0.80505335,-0.053654127,0.10651596,0.5810892,-1.0220283,-0.10740918,0.12513809,1.0,0.0,0.0,0.0,0.0,0.0,0.0,-0.6381172,0.052636713,-0.29346466,7.6589823,-3.344345,-9.81217,-0.71713924,0.88733435,-1.6924143,1.3714359
-6.953701,18.114151,0.21511436,12.2419,1.2608849,-0.8843248,-0.19197741,-0.5042146,-0.57986164,-0.094448924,0.7418516,-0.6219213,0.6004277,-0.016702615,0.52923346,-0.81190217,-1.6657145,-1.5274035,2.1186166,1.8348798,-0.8900119,0.57041574,-0.7645142,-1.6549193,-1.5883821,2.1718137,1.7799506,-0.8891971,-0.9096006,-1.0625399,0.08636181,1.320651,-0.8973121,0.5078343,-0.08179706,-0.023101807,-0.4577713,0.84043765,-1.1217893,-0.51322424,-0.3275487,-0.016601562,-0.45825958,0.76366115,0.8098999,-0.06034997,0.10709186,0.57354265,-1.0399544,-0.14330237,0.05939986,1.0,0.0,0.0,0.0,0.0,0.0,0.0,-0.62689817,0.057771295,-0.29043764,5.7293653,-1.1136532,-19.537083,0.0039100647,0.8610368,-1.40239,1.501204
-18.352509,8.03791,-9.291674,14.233227,1.928284,-0.9860398,-0.50626653,-0.5130554,-0.5888663,-0.29331046,0.75207037,-0.6058148,0.6021668,-0.094463944,0.5191102,-0.82340086,-1.6842504,-1.5131751,2.1112323,1.8401673,-0.8986435,0.56150746,-0.775161,-1.656241,-1.5751146,2.1629407,1.7849288,-0.8899734,-0.884478,-1.0655257,-0.20509662,1.3295865,-0.88362193,0.4947358,-0.076208584,-0.034313202,-0.46289825,0.83642566,-1.1206678,-0.51271117,-0.4257429,-0.027347565,-0.46014404,0.7636336,0.81514794,-0.06589382,0.10766689,0.56533146,-1.0881151,-0.1988875,-0.027576692,1.0,0.0,0.0,0.0,0.0,0.0,0.0,-0.6156868,0.06289825,-0.28642565,2.5662065,-0.3118515,-29.230228,1.1253357,1.5374422,-1.2408078,0.5667031
-18.067387,11.637912,-7.1817694,14.825724,1.7556863,-0.87854505,-0.5025284,-0.48658186,-0.58151114,-0.36792314,0.7704038,-0.62447274,0.6158439,-0.10305489,0.5128493,-0.83331215,-1.6930333,-1.4980742,2.1004934,1.8465132,-0.90027887,0.55281186,-0.7857621,-1.6603762,-1.5616621,2.1541288,1.7898021,-0.8907163,-0.8641951,-1.0583965,-0.4832793,1.3513378,-0.8800459,0.48489764,-0.0736745,-0.04550934,-0.4680252,0.83143246,-1.1195474,-0.51219857,-0.52383894,-0.038555145,-0.46253204,0.76279587,0.8208598,-0.07024595,0.10834332,0.5563419,-1.1331913,-0.24532865,-0.10692544,1.0,0.0,0.0,0.0,0.0,0.0,0.0,-0.60449064,0.0680252,-0.28143245,2.129817,0.6748438,-27.915138,2.4291277,0.49499273,-0.95618963,0.239259
-24.132664,6.4603257,-9.578432,15.854629,2.0855222,-0.58138084,-0.5640895,-0.51726323,-0.6242734,-0.48613477,0.7680067,-0.6096364,0.6236378,-0.16078989,0.5010855,-0.8481894,-1.7089896,-1.4848614,2.0931652,1.8521658,-0.9067953,0.5440934,-0.7964804,-1.6671473,-1.548015,2.1453702,1.7945933,-0.891484,-0.8738148,-1.0764543,-0.7421656,1.3701851,-0.87396276,0.47703022,-0.077790126,-0.056697845,-0.47314453,0.82545906,-1.118428,-0.51168644,-0.6218369,-0.050354004,-0.46536255,0.76113635,0.82706046,-0.07345118,0.10906407,0.5465171,-1.1967969,-0.28778458,-0.19038883,1.0,0.0,0.0,0.0,0.0,0.0,0.0,-0.59330213,0.073144525,-0.27545905,-0.7749796,-1.8592834,-26.022207,2.2119284,0.74323416,-0.8330107,-0.4093066
-18.007393,14.46538,-2.4111536,14.400011,1.6223557,-0.31819814,-0.37345544,-0.49353755,-0.6366399,-0.5094069,0.76444477,-0.6047546,0.6475979,-0.21770611,0.49473962,-0.8601444,-1.7180879,-1.4715705,2.084895,1.8593531,-0.9132546,0.53533196,-0.80745053,-1.6758734,-1.5342458,2.136669,1.799335,-0.8923385,-0.8763443,-1.104219,-0.9163737,1.3799943,-0.8688753,0.47295853,-0.088020585,-0.067871094,-0.47825623,0.81849325,-1.1173098,-0.51117486,-0.7214943,-0.06265259,-0.4684372,0.7587606,0.8335998,-0.0757461,0.109757945,0.536029,-1.2435228,-0.3083297,-0.25847033,1.0,0.0,0.0,0.0,0.0,0.0,0.0,-0.5821289,0.07825622,-0.26849324,-0.09562969,-2.8667927,-17.480457,1.2745142,0.5186081,-0.4638493,-1.0241687
-14.291482,17.074362,1.3926344,12.644005,1.3986032,-0.1022256,-0.22162898,-0.4897471,-0.6775062,-0.5510624,0.75408286,-0.58306766,0.656084,-0.2411096,0.48635724,-0.87520117,-1.7309797,-1.4588375,2.0783622,1.8649434,-0.9164495,0.5265677,-0.8188603,-1.6858431,-1.5204805,2.1280668,1.80405,-0.8933084,-0.8760583,-1.1535968,-1.023715,1.3763629,-0.8573926,0.47081712,-0.0999723,-0.07903671,-0.48336792,0.81053156,-1.1161927,-0.5106638,-0.82105213,-0.07537842,-0.47164917,0.7557556,0.84030354,-0.07737531,0.11029569,0.5251073,-1.2821454,-0.31578085,-0.3198933,1.0,0.0,0.0,0.0,0.0,0.0,0.0,-0.57096326,0.083367914,-0.26053154,0.15040636,-5.0453424,-10.730516,-0.08504391,1.0791659,-0.28008223,-1.1743098
0.020227432,27.849262,10.085403,8.374804,0.56613445,-0.20662063,0.07874656,-0.41408727,-0.6899539,-0.55450577,0.7498101,-0.5739256,0.6626389,-0.2254482,0.48515898,-0.8878557,-1.7412937,-1.4454995,2.0706742,1.8703139,-0.9158532,0.5181649,-0.8307564,-1.6963812,-1.5068086,2.1195943,1.8087554,-0.89437747,-0.8284169,-1.202012,-1.0635021,1.3645798,-0.8448553,0.47052515,-0.10910566,-0.09019089,-0.48847198,0.80157506,-1.1150767,-0.51015323,-0.9205104,-0.088207245,-0.47483826,0.75225157,0.84692055,-0.07860044,0.11060985,0.5141138,-1.2835702,-0.31055298,-0.36643893,0.0,1.0,0.0,0.0,0.0,0.0,0.0,-0.5598091,0.08847198,-0.25157505,4.7424793,-4.955864,-3.8476229,-1.0211706,1.085031,-0.04720092,-0.8918837
8.652515,32.47061,13.812071,5.402725,0.06711444,-0.3758571,0.24753109,-0.3641636,-0.71783984,-0.585749,0.74388814,-0.58649826,0.66537213,-0.20481531,0.48174852,-0.9025404,-1.7549561,-1.4324198,2.0609446,1.8752927,-0.914859,0.5104687,-0.84315133,-1.7071348,-1.4932855,2.111183,1.8134646,-0.8955095,-0.75032294,-1.2524128,-1.0786374,1.348618,-0.84045035,0.47116002,-0.11451877,-0.10133362,-0.49356842,0.7916247,-1.1139618,-0.50964314,-1.0198693,-0.100883484,-0.47794342,0.7483105,0.853274,-0.0795607,0.110702865,0.50332737,-1.2630272,-0.30426064,-0.40933067,0.0,1.0,0.0,0.0,0.0,0.0,0.0,-0.54866636,0.093568414,-0.24162471,7.7028275,-5.149007,-1.3170481,-1.500392,0.24012327,0.07238984,-0.5145669
29.62444,42.615627,21.228909,-1.4528353,-1.0646771,-0.96898234,0.5694652,-0.20934857,-0.7275177,-0.59203225,0.7280783,-0.5943444,0.6687739,-0.2176655,0.48953387,-0.9159031,-1.7663381,-1.4204777,2.0517485,1.880342,-0.917276,0.50418204,-0.85596305,-1.7179672,-1.4800158,2.1027193,1.8180681,-0.8966846,-0.58663833,-1.2893205,-1.1027857,1.3068863,-0.85723513,0.42280468,-0.11513829,-0.11320114,-0.4977188,0.7828496,-1.4085568,-0.07409947,-0.060201906,-0.112957,-0.4810791,0.7439612,0.8591454,-0.08025325,0.110616736,0.49314553,-1.182594,-0.3151927,-0.4566479,0.0,1.0,0.0,0.0,0.0,0.0,0.0,-0.53679883,0.097718805,-0.2328496,16.410208,-3.548026,-4.715991,-5.993581,-3.319645,-9.773689,0.4373774
-11.7348795,65.57708,25.440462,19.09608,0.14368069,0.66627204,-0.02956041,-0.55244166,-0.51833963,-0.5517171,0.79564035,-0.6920131,0.64642346,0.12368373,0.44893786,-0.90779704,-1.7731389,-1.4004517,2.033518,1.8827105,-0.8843162,0.49775428,-0.8680461,-1.7287532,-1.4667654,2.0938158,1.8222891,-0.8976278,-0.6608569,-1.1820843,-1.0705552,1.3311505,-0.9025285,0.42189285,-0.088058084,-0.12727356,-0.4984665,0.78149587,-1.4071486,-0.07402539,-0.16042092,-0.12471008,-0.4838333,0.73967516,0.8647927,-0.08051494,0.11117306,0.48300254,-1.1720979,-0.25681588,-0.42564812,0.0,1.0,0.0,0.0,0.0,0.0,0.0,-0.5227264,0.098466486,-0.23149586,-7.2535276,10.461211,3.2860756,2.4617672,-4.9426436,-0.057572126,2.484697
-37.040607,62.766533,19.151386,28.210787,1.3480196,1.2696865,-0.43167746,-0.6350386,-0.49466935,-0.62997967,0.8029787,-0.6575284,0.62446904,0.1669084,0.4342504,-0.917513,-1.7917511,-1.3864676,2.028063,1.8847361,-0.8809369,0.48983735,-0.87883884,-1.7395698,-1.453166,2.0845766,1.8264891,-0.8982648,-0.83408654,-1.0459721,-1.0856175,1.3702703,-0.93233943,0.41941822,-0.05643621,-0.14133453,-0.4991989,0.7791407,-1.4057418,-0.07395138,-0.2605397,-0.1367569,-0.4859619,0.7357295,0.8705347,-0.08051672,0.112722136,0.47220758,-1.2153038,-0.18737683,-0.3899609,0.0,1.0,0.0,0.0,0.0,0.0,0.0,-0.50866544,0.09919891,-0.2291407,-16.960262,13.298488,-1.5571356,4.0883064,-3.375733,-0.2982974,2.8997302
-38.612396,57.384003,16.354563,27.75199,1.6578741,1.2541187,-0.44996667,-0.62016594,-0.49835166,-0.6517565,0.80132806,-0.63719296,0.6118261,0.15163344,0.42782074,-0.928674,-1.8047454,-1.3730332,2.0208573,1.8876717,-0.88310146,0.48029298,-0.8884786,-1.7506496,-1.4391737,2.0751925,1.8306929,-0.8986177,-0.99347067,-0.93761235,-1.1154461,1.4094318,-0.94141525,0.4204133,-0.029051078,-0.15538406,-0.49993134,0.7757851,-1.4043365,-0.07387744,-0.36055845,-0.1493187,-0.48739624,0.7320586,0.8764467,-0.08019018,0.115122475,0.46060547,-1.2684646,-0.12240121,-0.36446813,0.0,1.0,0.0,0.0,0.0,0.0,0.0,-0.4946159,0.09993133,-0.22578508,-15.614616,10.529173,-2.9888391,4.1326523,-1.2789488,-0.013887882,2.5232267
-28.705387,46.937912,13.349394,21.82187,1.5108151,0.85388577,-0.27142727,-0.59853035,-0.5311037,-0.6615009,0.801088,-0.62717015,0.60070795,0.14934342,0.42043993,-0.94158894,-1.8167996,-1.3590649,2.0124755,1.8907636,-0.8836833,0.4696414,-0.8975242,-1.7620612,-1.4248838,2.0658236,1.8349005,-0.89872736,-1.088348,-0.8943191,-1.1495333,1.4362558,-0.9364098,0.42036352,-0.00524768,-0.16941833,-0.50066376,0.77143,-1.4029324,-0.073803574,-0.46047717,-0.16233826,-0.48836517,0.7284495,0.8824314,-0.07952057,0.11798847,0.44840816,-1.3122214,-0.07536462,-0.3640725,0.0,1.0,0.0,0.0,0.0,0.0,0.0,-0.48058164,0.10066375,-0.22143,-9.277654,4.079604,-3.3396244,2.9026031,0.19228458,-0.14165044,2.251513
-20.893509,40.955574,12.0293255,17.110737,1.297555,0.5935457,-0.122198805,-0.6213296,-0.5347357,-0.6679698,0.79937387,-0.61800414,0.57534206,0.15891628,0.40750843,-0.95099777,-1.8288583,-1.3449465,2.004023,1.8924347,-0.88283575,0.4583575,-0.9064544,-1.7737724,-1.4104376,2.0565653,1.8390871,-0.89861864,-1.1412845,-0.8932318,-1.1779679,1.448137,-0.92334217,0.4177449,0.016089633,-0.18343735,-0.5013962,0.76607656,-1.4015297,-0.07372978,-0.56029594,-0.1757164,-0.48890686,0.72471744,0.8883802,-0.07850352,0.12099608,0.43586418,-1.3455045,-0.038949728,-0.38022977,0.0,1.0,0.0,0.0,0.0,0.0,0.0,-0.46656263,0.10139617,-0.21607655,-5.1606417,-0.09877682,-2.7267933,1.3967991,1.0300875,-0.39731264,2.0562892
-2.9664085,41.511074,15.271382,9.920066,0.53058815,0.16013384,0.14273776,-0.5634619,-0.5483321,-0.6511657,0.7961698,-0.6271457,0.6000965,0.11199527,0.40201133,-0.9612876,-1.8388889,-1.3308206,1.9938507,1.8990967,-0.8874191,0.4470989,-0.9155906,-1.7855979,-1.3959703,2.0474062,1.84327,-0.8983554,-1.1207786,-0.92089623,-1.1833957,1.4465486,-0.9142216,0.41812655,0.029637039,-0.1974411,-0.5021286,0.75972563,-1.4001284,-0.07365607,-0.6600149,-0.18916321,-0.48918915,0.720765,0.8941276,-0.07722932,0.12393949,0.4233324,-1.3437436,-0.014642173,-0.4041318,0.0,1.0,0.0,0.0,0.0,0.0,0.0,-0.45255888,0.102128595,-0.20972562,2.0358324,-2.9197454,-0.33769608,-0.055360794,0.64834356,-0.040519238,1.3060726
4.751576,36.675083,14.285276,5.882768,0.28380966,-0.110548556,0.25432572,-0.543554,-0.59133613,-0.6622051,0.7910968,-0.6191005,0.59790957,0.10443288,0.3927435,-0.9747242,-1.8518184,-1.3168607,1.9854962,1.9030609,-0.88791215,0.43630663,-0.9252289,-1.7975019,-1.3816078,2.0384436,1.847465,-0.89796776,-1.0653871,-0.9783495,-1.1944778,1.4318551,-0.88910973,0.41963702,0.042203575,-0.21088028,-0.50239563,0.75411534,-1.3201938,0.009441547,-0.44258717,-0.20253372,-0.48934174,0.7164585,0.89959645,-0.07573216,0.1265888,0.4110548,-1.3337117,-0.0043830457,-0.4442718,0.0,1.0,0.0,0.0,0.0,0.0,0.0,-0.4391197,0.102395624,-0.20411533,5.4017305,-5.9180737,-0.10650158,-1.0342598,0.6717205,-0.055491924,1.0196537
4.105446,46.636887,19.019756,7.580639,0.25807172,0.11377621,0.25822604,-0.5756016,-0.5600935,-0.6048978,0.7909937,-0.60395324,0.57373923,0.14227252,0.37874648,-0.98123825,-1.8579917,-1.3025084,1.9780482,1.9048389,-0.8837405,0.42590824,-0.93524534,-1.809181,-1.3673866,2.0296705,1.8516494,-0.89745563,-1.0316156,-1.0099715,-1.1582887,1.4191318,-0.8740295,0.4179048,0.054121997,-0.22396469,-0.50214386,0.74956155,-1.3042141,0.030875213,-0.46010378,-0.21575165,-0.48929596,0.7119174,0.90476197,-0.0741232,0.12899174,0.39908978,-1.3152959,0.019613383,-0.46143588,0.0,1.0,0.0,0.0,0.0,0.0,0.0,-0.42603528,0.102143854,-0.19956154,3.300333,-3.3115387,3.8821936,-1.2236834,1.2078404,-0.22708774,1.1629909
6.0673294,56.369152,23.582369,8.544139,0.11450577,0.20865327,0.27056897,-0.5572626,-0.54577845,-0.56860495,0.7918828,-0.60351473,0.58739275,0.14210075,0.37018198,-0.98982316,-1.8660414,-1.2881984,1.969319,1.9103887,-0.8832456,0.41581073,-0.9453801,-1.8203123,-1.3532647,2.0210185,1.8558276,-0.8968377,-1.0028275,-1.0152686,-1.0969299,1.4098252,-0.8637813,0.41754445,0.06407057,-0.23682785,-0.5016327,0.74498844,-1.2805598,0.05758505,-0.45695564,-0.2286911,-0.48893738,0.70734316,0.9096025,-0.072550476,0.13130605,0.38745102,-1.2856059,0.05071124,-0.46018955,0.0,1.0,0.0,0.0,0.0,0.0,0.0,-0.41317213,0.101632684,-0.19498843,2.7837038,-0.7033825,6.44083,-0.9389162,0.6394744,-0.0818491,0.93103874
1.7196488,50.566036,19.569523,8.962553,0.33758706,0.14711535,0.20989707,-0.5514978,-0.5845712,-0.6001511,0.7826003,-0.5928879,0.57056934,0.18781857,0.36066094,-1.0038372,-1.8803273,-1.2750046,1.9617298,1.9128845,-0.8780559,0.40592635,-0.9556502,-1.8310354,-1.339238,2.0124552,1.8599892,-0.89609945,-0.9838463,-1.0314927,-1.0632054,1.400492,-0.85502005,0.41539815,0.0768879,-0.24949265,-0.50089264,0.7403416,-1.2618871,0.07995653,-0.46798185,-0.24143219,-0.48831177,0.7026903,0.9141646,-0.07094619,0.13354015,0.37608063,-1.2680814,0.07628751,-0.4709746,0.0,1.0,0.0,0.0,0.0,0.0,0.0,-0.40050733,0.10089263,-0.19034159,1.8444777,-1.7844677,3.631115,-0.87907314,0.5445361,-0.2808094,1.237759
-3.0388832,52.950893,19.066486,10.982721,0.491751,0.19606292,0.14579813,-0.5628711,-0.5640657,-0.59533906,0.7860399,-0.5908216,0.51939476,0.25253043,0.34963924,-1.0120568,-1.8905693,-1.2606341,1.9533731,1.9119287,-0.8708464,0.3961012,-0.96595657,-1.8415449,-1.3252611,2.0039568,1.8640885,-0.89519715,-0.9821467,-1.0309166,-1.045926,1.3969572,-0.8490774,0.4079038,0.09449664,-0.26197433,-0.49991608,0.73560965,-1.2440509,0.10346079,-0.47578532,-0.25404358,-0.48739624,0.6979571,0.9185019,-0.06920305,0.13576224,0.36487487,-1.2565174,0.104737684,-0.47804743,0.0,1.0,0.0,0.0,0.0,0.0,0.0,-0.38802564,0.09991607,-0.18560964,0.15063286,-0.12047291,1.9684792,-0.27947426,0.25510788,-0.82859397,1.6957909
-5.501265,47.532673,15.683342,10.613946,0.6334851,0.121132314,0.10010755,-0.55453104,-0.5915421,-0.611694,0.77639234,-0.5714042,0.50929826,0.23835665,0.3406481,-1.0251107,-1.9027143,-1.2476219,1.9468163,1.9150183,-0.8713615,0.3862766,-0.9763497,-1.8520639,-1.3113375,1.9955552,1.8681059,-0.8941415,-0.9825262,-1.0426674,-1.0530568,1.3913565,-0.83818775,0.39940983,0.109072044,-0.27431488,-0.49873352,0.73069376,-1.2304821,0.122791916,-0.4978012,-0.2666092,-0.48625183,0.69306076,0.9226646,-0.06721663,0.13793083,0.35376105,-1.2536247,0.12842557,-0.49733987,0.0,1.0,0.0,0.0,0.0,0.0,0.0,-0.3756851,0.098733515,-0.18069375,-0.036525726,-1.3391972,-0.50525665,-0.4425764,0.7982254,-0.95087886,1.4119313
0.3445387,47.03905,16.07415,8.142324,0.34750652,-0.038015425,0.18633252,-0.5159742,-0.6067362,-0.6012495,0.7704856,-0.5897962,0.5157662,0.27818078,0.3346792,-1.0370233,-1.9121889,-1.2342889,1.9365755,1.9196825,-0.8663234,0.37661168,-0.9869212,-1.8626592,-1.2974844,1.9871955,1.8720539,-0.8929275,-0.9612618,-1.062483,-1.0608758,1.383622,-0.83609235,0.3928301,0.12530638,-0.2864952,-0.49738312,0.7255213,-1.2140018,0.13912225,-0.5239596,-0.279068,-0.48490143,0.68793637,0.9266337,-0.06496195,0.14001662,0.3428195,-1.2402354,0.14530216,-0.5212297,0.0,1.0,0.0,0.0,0.0,0.0,0.0,-0.36350477,0.09738311,-0.17552131,2.091384,-2.1285057,-0.5554676,-0.6831169,-0.07098913,-0.7471621,1.5798748
2.8057327,46.70384,16.137402,7.147316,0.2903514,-0.12378001,0.20639947,-0.50187653,-0.6205001,-0.5988211,0.7690882,-0.57746565,0.4842422,0.28442916,0.32642403,-1.0489712,-1.9225414,-1.2205756,1.929449,1.9204781,-0.8644846,0.36722466,-0.99773204,-1.8733177,-1.2837019,1.9788756,1.8759212,-0.89156353,-0.9313523,-1.0877962,-1.0667052,1.376863,-0.83171916,0.38433605,0.14003268,-0.29850388,-0.49588013,0.7200757,-1.196605,0.15361145,-0.5520895,-0.2913704,-0.48343658,0.682561,0.9303997,-0.06244967,0.14197949,0.33211163,-1.2239326,0.15804967,-0.54679495,0.0,1.0,0.0,0.0,0.0,0.0,0.0,-0.3514961,0.09588012,-0.17007571,2.9420376,-2.6710749,-0.3465414,-0.59227943,0.16050339,-0.9440601,1.4381975
4.1841936,43.810608,14.643375,5.8518987,0.21071082,-0.24268466,0.23052746,-0.4822226,-0.64333874,-0.6238337,0.76103806,-0.5781301,0.45053884,0.32651678,0.3190024,-1.062066,-1.9357011,-1.2075981,1.9210626,1.9209751,-0.8589119,0.3581863,-1.008856,-1.8841306,-1.2700036,1.9705868,1.8796864,-0.89003676,-0.8947942,-1.1210355,-1.0853957,1.3677937,-0.82876617,0.3735357,0.15674694,-0.3103485,-0.4942627,0.7142827,-1.1801857,0.16470519,-0.58887756,-0.30351257,-0.4818573,0.6768694,0.9339692,-0.05962944,0.14377668,0.3216737,-1.2073706,0.16493475,-0.5804499,0.0,1.0,0.0,0.0,0.0,0.0,0.0,-0.33965147,0.09426269,-0.16428268,3.6050081,-3.451109,-1.6469717,-0.81100464,0.046479702,-1.1813581,1.6478658
3.5792856,43.03836,13.500547,5.3413515,0.08686966,-0.31896317,0.2500075,-0.47174048,-0.65160733,-0.6538955,0.74937147,-0.6088424,0.3595836,0.37963903,0.31101227,-1.0740168,-1.9495201,-1.1950665,1.9097025,1.9156448,-0.85207283,0.34949023,-1.0202868,-1.8952544,-1.256431,1.9622269,1.8832835,-0.88832086,-0.86135054,-1.1510711,-1.1206682,1.3540908,-0.8392611,0.354776,0.17648493,-0.3220253,-0.49254608,0.70808774,-1.163912,0.17386264,-0.6305898,-0.31547546,-0.48023987,0.67080474,0.93735003,-0.05637175,0.14543758,0.31152022,-1.1895784,0.16883117,-0.61910665,0.0,1.0,0.0,0.0,0.0,0.0,0.0,-0.32797468,0.092546076,-0.15808773,3.301096,-3.1303406,-3.3189058,-1.2638092,-1.2926579,-1.9831479,1.9389927
1.2094173,46.30283,14.141795,6.6980057,0.15721184,-0.253981,0.21830244,-0.46793905,-0.6510215,-0.66326314,0.7547073,-0.62026876,0.31314048,0.40307966,0.30269632,-1.0853889,-1.9615806,-1.1809603,1.9002,1.9145975,-0.8480129,0.34105545,-1.031935,-1.9067365,-1.2429498,1.9537202,1.8866673,-0.88640773,-0.83759975,-1.1699307,-1.1564767,1.346646,-0.8553696,0.3325228,0.19612731,-0.33353424,-0.49072266,0.701517,-1.1466086,0.18457575,-0.6661057,-0.32727814,-0.47856903,0.664397,0.9405541,-0.05262047,0.14703475,0.30161217,-1.173205,0.17606449,-0.65186054,0.0,1.0,0.0,0.0,0.0,0.0,0.0,-0.31646574,0.09072265,-0.15151697,2.3429751,-2.0286798,-3.3612013,-0.63524246,-1.8808246,-2.348119,1.9129217
10.355364,45.9064,15.306005,3.3135214,-0.1855354,-0.43596768,0.31701118,-0.40118697,-0.6839901,-0.67170376,0.7443636,-0.6224672,0.34932107,0.40737548,0.30093676,-1.1003339,-1.9739069,-1.1685135,1.8914735,1.9215994,-0.84567016,0.33307892,-1.0438464,-1.9185318,-1.2295603,1.9450651,1.889876,-0.8843145,-0.7846017,-1.1984442,-1.1864636,1.3367628,-0.86971205,0.31667623,0.21358255,-0.344841,-0.48882294,0.69457895,-1.1254804,0.19171596,-0.7039658,-0.3388176,-0.47689056,0.65763384,0.94355404,-0.0484272,0.14853692,0.2920571,-1.1436839,0.17320278,-0.6882867,0.0,1.0,0.0,0.0,0.0,0.0,0.0,-0.30515897,0.08882293,-0.14457893,5.2194595,-2.9720306,-2.7591705,-0.923419,-1.6885519,-1.7012835,1.7007977
10.404118,47.965797,16.162321,3.6823604,-0.13755679,-0.39265788,0.31191376,-0.39285597,-0.69333345,-0.6726406,0.74339205,-0.6327096,0.3136841,0.42798027,0.29379332,-1.1131797,-1.9857959,-1.1552211,1.8817942,1.9212444,-0.84151644,0.32560262,-1.0560286,-1.9305372,-1.2162489,1.936267,1.8929218,-0.8820517,-0.735548,-1.2252554,-1.2044698,1.3294033,-0.88414466,0.30009115,0.23031671,-0.3559227,-0.48684692,0.68729943,-1.1028754,0.19937848,-0.73672384,-0.35006332,-0.475235,0.65054154,0.94634426,-0.04385316,0.14993262,0.28289515,-1.1137093,0.17127705,-0.72020555,0.0,1.0,0.0,0.0,0.0,0.0,0.0,-0.29407728,0.08684692,-0.13729942,4.8226357,-2.8090954,-1.541543,-0.6750822,-1.7226338,-1.789087,1.6296625
-4.0205407,45.153725,12.856824,7.6441913,0.49968994,-0.069057465,0.17104065,-0.4498933,-0.71526545,-0.6827815,0.72701824,-0.6164349,0.22083737,0.45844504,0.2806133,-1.1275551,-1.9988154,-1.143547,1.8746235,1.9150056,-0.8362072,0.31823316,-1.0685141,-1.942689,-1.2030596,1.9273944,1.895744,-0.8796169,-0.73744375,-1.25682,-1.2179226,1.3160467,-0.88926256,0.27561522,0.2477565,-0.36684036,-0.48477173,0.6796625,-1.0879209,0.21033515,-0.7737644,-0.36118698,-0.4734726,0.6431157,0.9489881,-0.03887797,0.15115574,0.2739745,-1.1078044,0.1846846,-0.7540021,0.0,1.0,0.0,0.0,0.0,0.0,0.0,-0.2831596,0.08477172,-0.12966251,-0.19848347,-3.3084393,-1.1131287,-1.1750937,-0.8067608,-2.6218235,1.7287642
-4.8163996,47.68028,13.752916,8.0521755,0.5989127,0.0565387,0.16104123,-0.43155056,-0.7244866,-0.67590505,0.7195813,-0.6027884,0.2527268,0.4807262,0.27507812,-1.1409627,-2.0102794,-1.1311014,1.8671155,1.9210167,-0.8315443,0.3107993,-1.0812876,-1.954887,-1.1900172,1.9185423,1.8983607,-0.8770086,-0.74538976,-1.2847301,-1.219712,1.3006939,-0.88507754,0.25631216,0.2651117,-0.377594,-0.48257446,0.67169166,-1.0716988,0.22265933,-0.8058522,-0.37226105,-0.47154236,0.63538796,0.9515077,-0.03356328,0.15216246,0.26524147,-1.1018453,0.20293759,-0.7830922,0.0,1.0,0.0,0.0,0.0,0.0,0.0,-0.27240598,0.08257446,-0.121691644,-0.8064389,-2.9494524,0.07092953,-1.3809681,0.09813309,-2.117151,1.7220676
6.24585,50.719788,16.913221,4.9491935,0.35459054,-0.05696428,0.23462349,-0.37355503,-0.7467174,-0.6505515,0.7144852,-0.555755,0.32591006,0.45230386,0.2734438,-1.1559594,-2.0199423,-1.1185687,1.8629668,1.9309517,-0.8317782,0.30352753,-1.0943644,-1.9669472,-1.1771255,1.9098941,1.9008648,-0.8742657,-0.7213951,-1.3157219,-1.200452,1.2856804,-0.85922503,0.24786334,0.27736843,-0.38814163,-0.4802704,0.66344744,-1.0494605,0.23265454,-0.83124846,-0.38315582,-0.46949005,0.62740624,0.9538823,-0.028103722,0.15286739,0.25680804,-1.0810037,0.21269922,-0.80708706,0.0,1.0,0.0,0.0,0.0,0.0,0.0,-0.26185834,0.08027038,-0.11344743,2.3288965,-3.2387018,2.2118807,-1.4204502,2.26084,-1.0250658,1.2224436
