Afshin1997/kuka_rl_ros2/src/catch_and_throw/input_files/idealpd/recorded_trajectories/env_266_data.csv
torque0,torque1,torque2,torque3,torque4,torque5,torque6,action0,action1,action2,action3,action4,action5,action6,set_target_0,set_target_1,set_target_2,set_target_3,set_target_4,set_target_5,set_target_6,joint_pos_0,joint_pos_1,joint_pos_2,joint_pos_3,joint_pos_4,joint_pos_5,joint_pos_6,joint_vel_0,joint_vel_1,joint_vel_2,joint_vel_3,joint_vel_4,joint_vel_5,joint_vel_6,tennisball_pos_0,tennisball_pos_1,tennisball_pos_2,tennisball_lin_vel_0,tennisball_lin_vel_1,tennisball_lin_vel_2,end_effector_pos_0,end_effector_pos_1,end_effector_pos_2,end_effector_rot_0,end_effector_rot_1,end_effector_rot_2,end_effector_rot_3,end_effector_lin_vel_0,end_effector_lin_vel_1,end_effector_lin_vel_2,obs_task_0,obs_task_1,obs_task_2,obs_task_3,obs_task_4,obs_task_5,obs_task_6,to_final_target_0,to_final_target_1,to_final_target_2,joint_acc_0,joint_acc_1,joint_acc_2,joint_acc_3,joint_acc_4,joint_acc_5,joint_acc_6
0.0,0.0,0.0,0.0,0.0,0.0,0.0,0.0,0.0,0.0,0.0,0.0,0.0,0.0,1.7802359,-1.0646509,-1.8151424,-1.1170107,1.9373155,1.1170107,-0.91629785,1.7802359,-1.0646509,-1.8151424,-1.1170107,1.9373155,1.1170107,-0.91629785,0.0,0.0,0.0,0.0,0.0,0.0,0.0,3.0115955,-0.46355438,0.14280486,-3.092648,0.027424794,5.3144894,0.530416,-0.45449448,0.693097,0.5745483,0.17512383,0.15255436,0.7848268,0.0,0.0,0.0,1.0,0.0,0.0,0.0,0.0,0.0,0.0,-3.6615953,0.06355438,0.40719515,0.0,0.0,0.0,0.0,0.0,0.0,0.0
0.0,0.0,0.0,0.0,0.0,0.0,0.0,0.0,0.0,0.0,0.0,0.0,0.0,0.0,1.7802359,-1.0646509,-1.8151424,-1.1170107,1.9373155,1.1170107,-0.91629785,1.7802359,-1.0646509,-1.8151424,-1.1170107,1.9373155,1.1170107,-0.91629785,0.0,0.0,0.0,0.0,0.0,0.0,0.0,3.0115955,-0.46355438,0.14280486,-3.092648,0.027424794,5.3144894,0.530416,-0.45449448,0.693097,0.5745483,0.17512383,0.15255436,0.7848268,0.0,0.0,0.0,1.0,0.0,0.0,0.0,0.0,0.0,0.0,-3.6615953,0.06355438,0.40719515,0.0,0.0,0.0,0.0,0.0,0.0,0.0
0.0,0.0,0.0,0.0,0.0,0.0,0.0,0.0,0.0,0.0,0.0,0.0,0.0,0.0,1.7802359,-1.0646509,-1.8151424,-1.1170107,1.9373155,1.1170107,-0.91629785,1.7802359,-1.0646509,-1.8151424,-1.1170107,1.9373155,1.1170107,-0.91629785,0.0,0.0,0.0,0.0,0.0,0.0,0.0,3.0115955,-0.46355438,0.14280486,-3.092648,0.027424794,5.3144894,0.530416,-0.45449448,0.693097,0.5745483,0.17512383,0.15255436,0.7848268,0.0,0.0,0.0,1.0,0.0,0.0,0.0,0.0,0.0,0.0,-3.6615953,0.06355438,0.40719515,0.0,0.0,0.0,0.0,0.0,0.0,0.0
-176.0,56.90901,-11.067984,110.0,11.357796,4.368056,-3.7106295,-0.82275385,0.29927176,-0.56105596,0.7246348,0.3947045,0.6382923,-0.5953956,1.6979605,-1.0347238,-1.871248,-1.0445472,1.9767859,1.1808399,-0.9758374,1.7790152,-1.0626577,-1.8211029,-1.1120859,1.9427342,1.1223608,-0.9181451,-0.16255635,0.26517484,-0.79412633,0.656982,0.7219013,0.71153116,-0.24567358,2.9806924,-0.46327972,0.19517344,-3.089556,0.027397376,5.21099,0.52831316,-0.4578514,0.6937531,0.57843167,0.17372882,0.15086721,0.78260726,-0.2802108,-0.44740444,0.087317124,1.0,0.0,0.0,0.0,0.0,0.0,0.0,-3.6306925,0.06327972,0.35482657,-16.169815,26.328894,-79.27927,65.8088,71.94914,70.60078,-24.375849
-176.0,-34.532116,-46.917625,110.0,12.656746,1.3476806,-2.9977458,-0.80653006,-0.18212631,-0.5423633,0.6939341,0.49137542,0.6276507,-0.60468644,1.6983622,-1.0808704,-1.8753392,-1.0426925,1.9918718,1.185126,-0.97861373,1.77764,-1.0603307,-1.8360641,-1.09788,1.953629,1.1357638,-0.9194774,-0.13044977,0.21318835,-1.7104236,1.6763797,1.2012687,1.5244788,-0.09923419,2.94982,-0.46300507,0.2465078,-3.086467,0.027369983,5.1075935,0.5236397,-0.46647263,0.69436973,0.58684546,0.17042367,0.14664373,0.7778584,-0.53058696,-0.9992994,0.05560789,1.0,0.0,0.0,0.0,0.0,0.0,0.0,-3.5998201,0.06300506,0.30349222,2.8148174,-7.8158436,-85.73604,102.36404,44.685913,73.61677,13.625372
-158.5397,105.86768,28.21759,91.252365,8.409508,7.548207,-1.689763,-0.7755117,0.23951107,0.07295837,0.597507,0.5254226,0.66779995,-0.5650664,1.7000889,-1.0363797,-1.8287683,-1.0381293,2.0061712,1.2025437,-0.97598404,1.7730223,-1.0576452,-1.8511665,-1.0795885,1.9660039,1.1508452,-0.92071146,-0.5723839,0.28378335,-1.4372761,1.881535,1.2448071,1.4962096,-0.1326832,2.9189782,-0.4627304,0.29680896,-3.0833812,0.02734262,5.004301,0.5160761,-0.47802734,0.6964404,0.5980026,0.16566907,0.1408814,0.77142656,-0.8396373,-1.2004914,0.26130837,1.0,0.0,0.0,0.0,0.0,0.0,0.0,-3.5689783,0.0627304,0.25319105,-44.186455,6.12998,29.191875,20.929504,2.8803587,-4.813504,-3.72383
-104.89572,94.60016,35.711548,55.896397,5.41309,7.3063965,-0.1891267,-0.7792474,0.0012657647,0.20222811,0.6235972,0.5202707,0.6507617,-0.59012604,1.6950976,-1.0575186,-1.8309437,-1.0172288,2.018031,1.2159214,-0.97972405,1.7639948,-1.0554422,-1.8605583,-1.0615679,1.9776444,1.1648337,-0.92235464,-1.0136427,0.19705877,-0.76592845,1.7765434,1.1318375,1.3631518,-0.17643532,2.8881679,-0.46245575,0.34607798,-3.0802984,0.027315283,4.9011116,0.5059118,-0.49048233,0.7001979,0.6099905,0.15974337,0.13371861,0.7645345,-1.0872772,-1.2487473,0.41809398,1.0,0.0,0.0,0.0,0.0,0.0,0.0,-3.538168,0.062455744,0.20392203,-44.358826,-9.276215,69.25162,-10.245609,-12.880611,-14.324498,-4.839012
-49.522778,97.592636,41.08394,28.08528,2.574524,6.191295,0.59686834,-0.7952077,0.027711773,0.24369079,0.61202997,0.60621583,0.64733714,-0.5821586,1.684474,-1.0526711,-1.8361892,-1.0003649,2.038266,1.2295674,-0.9805705,1.75133,-1.0540651,-1.8630283,-1.0457369,1.9881234,1.1773497,-0.9244403,-1.3516384,0.116569914,-0.06850633,1.5186039,1.016242,1.2135758,-0.22087365,2.857388,-0.4621811,0.39431587,-3.0772188,0.027287973,4.798025,0.4939108,-0.5026016,0.70521927,0.6215707,0.15291673,0.12526782,0.75800675,-1.2503929,-1.1868515,0.5315276,1.0,0.0,0.0,0.0,0.0,0.0,0.0,-3.507388,0.062181085,0.15568414,-34.058426,-8.42896,71.38693,-25.813366,-12.695837,-15.243793,-4.9255667
-7.886351,104.93661,42.680084,12.559801,0.4388399,4.7230296,0.65850765,-0.80538577,0.12072702,0.2555482,0.6150157,0.6190886,0.6425005,-0.5878618,1.6707914,-1.0419924,-1.8374735,-0.98423535,2.0500324,1.2415998,-0.9832265,1.7363974,-1.0529264,-1.8599975,-1.0324045,1.9976678,1.1885,-0.9269313,-1.5410924,0.112116806,0.43043038,1.2709006,0.9317833,1.0827978,-0.26022914,2.8266387,-0.46190643,0.44152367,-3.0741422,0.02726069,4.6950417,0.48087406,-0.51369476,0.7111847,0.6323264,0.14544062,0.11610451,0.7520172,-1.3337016,-1.0709109,0.61676425,1.0,0.0,0.0,0.0,0.0,0.0,0.0,-3.4766388,0.061906427,0.10847634,-19.14928,-0.7262781,50.942253,-24.901867,-9.036183,-12.966442,-4.4206023
18.829136,141.05385,51.17223,9.0600605,-1.3957647,4.237942,0.22240916,-0.8205881,0.37085772,0.19187711,0.58902097,0.6070025,0.63337785,-0.5804298,1.6543386,-1.0158406,-1.8408098,-0.97350246,2.058368,1.2518378,-0.9849743,1.7204539,-1.0504411,-1.8541095,-1.021094,2.0065942,1.1985003,-0.92976946,-1.6129223,0.29280627,0.643924,1.0839576,0.87902415,0.97360593,-0.29360342,2.7959204,-0.46163177,0.48770243,-3.0710688,0.027233437,4.592161,0.46740294,-0.5232582,0.718219,0.6424272,0.13734867,0.10731257,0.7462617,-1.362686,-0.9066128,0.72927594,1.0,0.0,0.0,0.0,0.0,0.0,0.0,-3.4459205,0.06163177,0.062297583,-7.40571,17.77713,22.063791,-18.789864,-5.463946,-10.61989,-3.9111912
28.813965,145.5437,48.305862,7.4671626,-2.2099292,3.1856527,-0.13861516,-0.82605845,0.47953504,0.1226835,0.5607331,0.61205983,0.6219082,-0.5819815,1.637848,-1.0024877,-1.8418412,-0.96502066,2.0678,1.260691,-0.9879676,1.7043616,-1.0455755,-1.8478687,-1.0111281,2.0152154,1.2075468,-0.9328956,-1.6088207,0.55028003,0.61924154,0.96740127,0.85642403,0.8826425,-0.32061785,2.765233,-0.46135712,0.5328532,-3.0679982,0.027206209,4.4893837,0.45391226,-0.53118896,0.7262775,0.65218526,0.12881221,0.09973116,0.74034816,-1.3538206,-0.7434007,0.82828563,1.0,0.0,0.0,0.0,0.0,0.0,0.0,-3.4152331,0.06135711,0.017146826,0.18484592,25.507122,-1.9929528,-11.689949,-2.2544503,-8.770895,-3.1867206
33.49243,144.28821,46.24089,6.8808346,-2.397744,2.6428242,-0.24950843,-0.8238702,0.57968783,0.13314444,0.5238216,0.6310398,0.6317577,-0.58951885,1.6219746,-0.9876067,-1.8345542,-0.9587459,2.0783193,1.2707226,-0.9918475,1.6885859,-1.0380186,-1.8425777,-1.001969,2.0237985,1.2158076,-0.9362573,-1.5679402,0.8235568,0.5004591,0.8985584,0.8591107,0.8078923,-0.3428283,2.7345762,-0.46108246,0.5769769,-3.064931,0.027179008,4.386709,0.44062757,-0.5375519,0.73527676,0.66177684,0.1199573,0.09364669,0.73409253,-1.327546,-0.5871822,0.9209744,1.0,0.0,0.0,0.0,0.0,0.0,0.0,-3.3845763,0.061082453,-0.026976883,3.8658142,27.121902,-11.467897,-6.9162726,0.30772686,-7.2365403,-2.6351273
32.57926,129.2019,40.644615,5.610402,-2.1513307,2.0765095,-0.19092055,-0.82101005,0.64089316,0.13222538,0.47989836,0.6483038,0.636095,-0.5880042,1.6064849,-0.9739293,-1.8293551,-0.95397913,2.0886288,1.279417,-0.9950577,1.6732718,-1.0280641,-1.8385723,-0.99335486,2.0325265,1.2234198,-0.9398069,-1.5198939,1.052223,0.36837888,0.8488049,0.8772711,0.74607563,-0.36019593,2.70395,-0.4608078,0.6200746,-3.0618665,0.027151834,4.2841372,0.42763567,-0.5424957,0.74502647,0.671223,0.110909924,0.08892872,0.7274959,-1.2951206,-0.45077342,0.99028736,1.0,0.0,0.0,0.0,0.0,0.0,0.0,-3.35395,0.060807794,-0.07007462,4.5998335,22.706736,-12.8372965,-5.0590515,1.8515348,-6.027794,-2.0846188
28.460228,109.82375,34.263374,4.834888,-1.6709517,1.6135693,-0.08148975,-0.8156749,0.68291444,0.12782778,0.44961306,0.6587117,0.63288105,-0.5886122,1.5917042,-0.9597727,-1.8257895,-0.9483935,2.0983977,1.2867079,-0.9986681,1.6583811,-1.0163301,-1.8356597,-0.9851714,2.0414758,1.2304903,-0.9435033,-1.4793576,1.2134047,0.2665235,0.8077816,0.9007108,0.6944488,-0.37391728,2.6733541,-0.46053314,0.6621474,-3.0588055,0.027124688,4.181668,0.41493988,-0.5462799,0.75527024,0.6804777,0.10179168,0.08524657,0.7206397,-1.264613,-0.3393116,1.0332439,1.0,0.0,0.0,0.0,0.0,0.0,0.0,-3.3233542,0.060533136,-0.11214739,3.8728476,16.003872,-9.84425,-4.2435765,2.3794413,-5.057454,-1.6785204
25.308733,92.167336,28.863253,3.725587,-1.2512847,1.2518625,0.051588267,-0.8041128,0.71277547,0.12683645,0.41908082,0.6665625,0.6405078,-0.5827567,1.5779698,-0.94505256,-1.8229761,-0.9432633,2.1081321,1.2945411,-1.001779,1.64383,-1.0034727,-1.8334339,-0.97740084,2.0506501,1.2371184,-0.94731325,-1.4475453,1.3097304,0.20886193,0.7662679,0.92331785,0.6527186,-0.3842588,2.642789,-0.46025848,0.7031963,-3.0557473,0.027097568,4.079301,0.40252352,-0.54909897,0.76576585,0.68945986,0.09268639,0.082241744,0.713646,-1.2364244,-0.24824946,1.0526484,1.0,0.0,0.0,0.0,0.0,0.0,0.0,-3.292789,0.060258478,-0.15319628,3.0211449,9.558392,-5.4446726,-4.3404818,2.3015141,-4.062164,-1.3229787
19.904385,75.86195,23.47827,4.022444,-0.773239,0.92834365,0.10869673,-0.7970501,0.7240631,0.11287034,0.40826237,0.6711723,0.6471151,-0.5708368,1.564125,-0.9310664,-1.8221468,-0.9365746,2.1177673,1.3018298,-1.0043969,1.629521,-0.990064,-1.8315666,-0.9699841,2.060019,1.2433935,-0.9512014,-1.4258938,1.3511634,0.18030173,0.73279446,0.9417548,0.6193526,-0.39116183,2.6122541,-0.45999146,0.74322224,-3.0526922,0.027070476,3.9770365,0.39033842,-0.551178,0.77629936,0.69813293,0.08366132,0.07961594,0.7065921,-1.2140036,-0.18049581,1.0512363,1.0,0.0,0.0,0.0,0.0,0.0,0.0,-3.2622542,0.05999145,-0.19322222,2.0296574,4.1032553,-2.5778115,-3.5634756,1.9008517,-3.2138944,-0.95798373
15.642758,64.91032,19.525188,4.1621213,-0.49838024,0.67665136,0.13127452,-0.7957913,0.7371876,0.08972947,0.37956628,0.68211734,0.65521,-0.57143867,1.5499419,-0.91634524,-1.8225936,-0.93202746,2.1282308,1.3089145,-1.0083452,1.6153456,-0.9764732,-1.8299148,-0.96292883,2.0695596,1.2493864,-0.9551458,-1.415233,1.3617052,0.16098964,0.69564986,0.9584035,0.5932209,-0.3963549,2.58175,-0.45972443,0.7822263,-3.0496402,0.027043412,3.8748744,0.37834644,-0.5527077,0.7867011,0.7064924,0.074787304,0.07720053,0.69951075,-1.1949822,-0.12828013,1.0339757,1.0,0.0,0.0,0.0,0.0,0.0,0.0,-3.23175,0.05972442,-0.23222631,0.94115734,1.0369301,-1.6856939,-3.9495468,1.7348051,-2.4678469,-0.766623
16.334248,61.143597,18.565144,3.097292,-0.49656963,0.571024,0.20970483,-0.7891823,0.7448018,0.10329976,0.33636287,0.6870114,0.6473902,-0.56362253,1.5364274,-0.90199304,-1.8195848,-0.92929256,2.1382606,1.3141254,-1.011508,1.6012446,-0.96288526,-1.8282974,-0.95635515,2.0792375,1.2551504,-0.9591283,-1.408913,1.3578265,0.16276713,0.6438063,0.9715895,0.57158923,-0.39968598,2.5512762,-0.4594574,0.82020956,-3.046591,0.027016373,3.7728145,0.36655998,-0.55371094,0.7968874,0.7144883,0.06608983,0.074905165,0.69247943,-1.1732697,-0.07763135,1.0108646,1.0,0.0,0.0,0.0,0.0,0.0,0.0,-3.2012763,0.05945739,-0.27020955,0.50776005,-0.39360523,0.42873025,-5.427575,1.3910294,-1.9842267,-0.5796313
17.203344,59.0038,17.612715,1.7589698,-0.6432002,0.42382982,0.2499514,-0.7904097,0.75372744,0.08784831,0.28022313,0.6905458,0.65809685,-0.56189454,1.5222036,-0.8875125,-1.8195125,-0.92833287,2.148292,1.3209602,-1.0153178,1.5871645,-0.9493412,-1.826678,-0.9504681,2.0890222,1.260739,-0.96313566,-1.4080778,1.3532572,0.16237253,0.5694559,0.9814363,0.5554161,-0.40195173,2.520833,-0.45919037,0.85717297,-3.0435452,0.026989363,3.6708567,0.35502958,-0.55420685,0.8067905,0.7220778,0.057608318,0.07274055,0.6855608,-1.1457654,-0.026243692,0.98071116,1.0,0.0,0.0,0.0,0.0,0.0,0.0,-3.170833,0.059190363,-0.30717295,-0.045204163,-0.45199394,0.20551085,-7.6854944,1.0625243,-1.3954163,-0.45949817
24.24205,60.830482,18.682354,-2.2768264,-1.1155224,0.28661975,0.40315104,-0.78399837,0.7631572,0.10824773,0.18023427,0.69680804,0.65527105,-0.55168843,1.5087647,-0.8730255,-1.8158532,-0.9324447,2.1587029,1.326266,-1.0183045,1.5731016,-0.9357971,-1.8249576,-0.9456673,2.0988984,1.2661921,-0.96715444,-1.4059273,1.3547916,0.17613898,0.44940645,0.98992723,0.5430189,-0.4026995,2.4904203,-0.45892334,0.89311755,-3.0405023,0.026962379,3.5690007,0.34389114,-0.55408096,0.81635785,0.72913986,0.049392026,0.07075401,0.678903,-1.1017597,0.0383711,0.94584864,1.0,0.0,0.0,0.0,0.0,0.0,0.0,-3.1404204,0.058923334,-0.34311754,0.07739067,0.16949177,1.6424417,-12.261974,0.92543364,-0.93318224,-0.30762553
28.470604,62.11673,19.143353,-4.7498546,-1.4538491,0.13840047,0.48397142,-0.78357923,0.77361745,0.111956425,0.09261462,0.69631356,0.65431726,-0.5407595,1.4947437,-0.85843533,-1.813762,-0.93640584,2.1685297,1.3316238,-1.0212303,1.5590578,-0.9221767,-1.8230846,-0.94229704,2.1088357,1.2715422,-0.97117037,-1.4042168,1.364551,0.19195393,0.29871923,0.99538517,0.5335867,-0.4018638,2.4600382,-0.4586563,0.9280444,-3.0374622,0.026935423,3.4672468,0.33328295,-0.553257,0.82554966,0.7355848,0.04148935,0.06901796,0.67262924,-1.0450975,0.10972985,0.9073098,1.0,0.0,0.0,0.0,0.0,0.0,0.0,-3.1100383,0.058656305,-0.37804437,0.036525726,1.0072231,1.8269837,-15.317088,0.63768625,-0.5772114,-0.1290381
40.183586,60.652603,19.305523,-12.843586,-2.2840493,-0.28489935,0.74118954,-0.77674013,0.775928,0.13768329,-0.10170477,0.6992577,0.65178066,-0.5364036,1.4813838,-0.8445839,-1.8093163,-0.9524675,2.1787615,1.3367202,-1.0248107,1.5450598,-0.90844667,-1.8209598,-0.9410592,2.1188188,1.2768198,-0.975172,-1.3987043,1.3760473,0.22011964,0.06462022,0.99952656,0.5274273,-0.40023535,2.4296865,-0.45838928,0.96195436,-3.0344255,0.026908493,3.3655944,0.3234744,-0.55158234,0.8342206,0.74121165,0.034054056,0.06762407,0.6669876,-0.95658726,0.19705425,0.8504407,1.0,0.0,0.0,0.0,0.0,0.0,0.0,-3.0796866,0.058389276,-0.41195434,0.42939186,1.2103558,3.0429661,-23.656939,0.5128145,-0.08792877,-0.022929907
47.513317,62.280567,20.634579,-16.787409,-2.6937065,-0.4666461,0.9087674,-0.76913154,0.7830722,0.1922418,-0.24569651,0.7002087,0.6434869,-0.53141576,1.4681467,-0.83013946,-1.8017356,-0.9656288,2.1888397,1.3411685,-1.0283135,1.5311514,-0.89458597,-1.818341,-0.94245917,2.1288323,1.2820421,-0.9791526,-1.3886789,1.3896158,0.2762172,-0.20886719,1.0028188,0.52263314,-0.39782006,2.3993654,-0.45812225,0.9948486,-3.0313916,0.026881589,3.2640438,0.31467915,-0.54896164,0.84229994,0.745857,0.027167834,0.066593885,0.6622117,-0.85011786,0.29307443,0.79007715,1.0,0.0,0.0,0.0,0.0,0.0,0.0,-3.0493655,0.058122247,-0.4448486,0.9228468,1.445508,5.753517,-27.54294,0.4758358,0.12221336,0.09931326
53.157803,63.995903,22.058023,-18.98307,-2.9090264,-0.59546316,1.0223684,-0.7491114,0.78759384,0.25129813,-0.38386306,0.701365,0.64046717,-0.5264808,1.4562403,-0.8158266,-1.7932112,-0.98084545,2.198969,1.3460889,-1.0318007,1.5174261,-0.8805965,-1.8149574,-0.9466782,2.1388803,1.2872263,-0.98310465,-1.3670567,1.4024776,0.35897332,-0.4933163,1.0061091,0.5189929,-0.39470235,2.3690739,-0.45785522,1.0267282,-3.0283608,0.026854713,3.1625948,0.3070302,-0.5453415,0.849789,0.74942666,0.02083279,0.065882534,0.65847176,-0.73162365,0.39329416,0.7310347,1.0,0.0,0.0,0.0,0.0,0.0,0.0,-3.019074,0.05785522,-0.47672814,2.1508217,1.405549,8.275759,-28.564526,0.55758953,0.2798915,0.22343993
51.94371,67.12523,23.705475,-15.890003,-2.5913994,-0.4700698,0.98980105,-0.7275318,0.7931405,0.32112327,-0.46161607,0.70754856,0.6373899,-0.5100108,1.444673,-0.80128247,-1.782845,-0.9928398,2.209635,1.3509653,-1.0341058,1.5039984,-0.866485,-1.810559,-0.9534102,2.1489778,1.2923743,-0.9870147,-1.334441,1.4145104,0.46629307,-0.7333058,1.0121949,0.51551485,-0.38991052,2.3388128,-0.4575882,1.057594,-3.0253332,0.026827864,3.061247,0.30050373,-0.5407448,0.85680383,0.7519467,0.014930739,0.065378286,0.6558039,-0.62086207,0.48834676,0.6868996,1.0,0.0,0.0,0.0,0.0,0.0,0.0,-2.988813,0.05758819,-0.5075939,3.3141613,1.350379,10.554117,-24.046875,0.95534325,0.26382208,0.43728352
53.67968,73.58403,27.107874,-12.793894,-2.3376436,-0.24649495,0.98090225,-0.67585385,0.8001263,0.42030302,-0.52104264,0.7097122,0.6252531,-0.48983958,1.436413,-0.7864724,-1.7685287,-1.0055145,2.219949,1.3548995,-1.0359987,1.4910952,-0.8522533,-1.8048332,-0.9620772,2.159144,1.297484,-0.9908647,-1.2751796,1.426751,0.60672516,-0.9110888,1.0197171,0.5113672,-0.38336855,2.3085823,-0.45732117,1.0874469,-3.0223083,0.026801042,2.9600008,0.29503298,-0.5351753,0.8635497,0.75345135,0.009239535,0.06491955,0.65422547,-0.51645166,0.5849956,0.6651433,1.0,0.0,0.0,0.0,0.0,0.0,0.0,-2.9585824,0.05732116,-0.5374469,6.053877,1.4058828,13.655829,-17.75925,1.2530088,0.19654036,0.63931346
44.85836,73.88789,27.025255,-5.7593236,-1.6540502,-0.02165553,0.78788066,-0.65475,0.803698,0.47414854,-0.5358222,0.7079784,0.6137306,-0.45802093,1.4256202,-0.7718835,-1.7574183,-1.0156595,2.2299418,1.3588572,-1.0366668,1.4788061,-0.8379129,-1.7977226,-0.9719315,2.169375,1.3025423,-0.9946298,-1.2129855,1.4371151,0.74425083,-1.0100467,1.0258574,0.5058604,-0.3742469,2.2783818,-0.45705414,1.1162883,-3.0192866,0.026774246,2.8588555,0.29042578,-0.52874374,0.87020886,0.7540957,0.0035629515,0.06439778,0.65358996,-0.43587515,0.66685766,0.6602211,1.0,0.0,0.0,0.0,0.0,0.0,0.0,-2.928382,0.057054132,-0.5662883,6.362653,1.234293,13.262093,-9.866703,1.1860847,-0.011384487,0.9090543
32.735413,71.56163,25.379578,2.0598764,-0.899556,0.17902192,0.53238976,-0.63777715,0.81048155,0.51044625,-0.5234837,0.70588034,0.6168149,-0.41512442,1.4150285,-0.7568648,-1.746678,-1.0242798,2.239963,1.3642238,-1.0361422,1.4670798,-0.8234676,-1.7894142,-0.9822102,2.179644,1.3075472,-0.99827856,-1.1588296,1.4475883,0.8578688,-1.0338628,1.0292903,0.5002674,-0.36181024,2.2482114,-0.4567871,1.144119,-3.016268,0.026747478,2.7578113,0.28641224,-0.52163315,0.87691545,0.7541173,-0.0022455924,0.06377747,0.6536317,-0.38336337,0.7294972,0.6675939,1.0,0.0,0.0,0.0,0.0,0.0,0.0,-2.8982115,0.056787103,-0.594119,5.5298805,1.2524366,10.859764,-2.382636,0.9218693,-0.1128912,1.2377322
21.253033,63.66642,21.362028,6.7014284,-0.38503614,0.12911047,0.32135168,-0.63787526,0.8097741,0.52744997,-0.5449558,0.7002851,0.61314887,-0.39591888,1.4032922,-0.7424902,-1.7366692,-1.0367059,2.2496727,1.3688622,-1.0378704,1.4557291,-0.8089508,-1.7802494,-0.9925185,2.1899133,1.3124949,-1.0017977,-1.1267914,1.4536965,0.9345177,-1.0300518,1.0279173,0.4941505,-0.34875906,2.2180715,-0.45652008,1.17094,-3.0132523,0.026720736,2.6568682,0.28278112,-0.514061,0.8836588,0.75373477,-0.008176989,0.06310504,0.65409076,-0.34995857,0.77149934,0.66975445,1.0,0.0,0.0,0.0,0.0,0.0,0.0,-2.8680716,0.056520075,-0.62094,3.2620907,0.80382824,7.2508693,0.3289938,0.36685467,-0.25262237,1.2945235
9.105981,56.006912,17.370468,11.921251,0.20432413,0.13880019,0.10227305,-0.64751107,0.81008476,0.5385416,-0.52132434,0.69713783,0.61454254,-0.35951445,1.390978,-0.7279423,-1.7263952,-1.0446509,2.259627,1.3739492,-1.0377492,1.4445044,-0.7943996,-1.7705753,-1.0025697,2.200152,1.3173834,-1.0051718,-1.1212498,1.4562315,0.9771697,-0.9972902,1.0235678,0.48804083,-0.33382496,2.1879616,-0.45625305,1.1967524,-3.0102396,0.02669402,2.5560262,0.2793193,-0.50621414,0.89040256,0.7531617,-0.014191525,0.062432956,0.6547122,-0.3383229,0.79225343,0.66887426,1.0,0.0,0.0,0.0,0.0,0.0,0.0,-2.8379617,0.056253046,-0.6467524,0.5343437,0.436759,3.9512992,3.1567216,0.0044822693,-0.33959746,1.4743805
-0.6061306,48.38547,13.608473,15.643412,0.68234956,0.10574746,-0.064965956,-0.66656315,0.8070267,0.54086566,-0.4996909,0.7023946,0.6178206,-0.3351722,1.377848,-0.71369696,-1.7164887,-1.0525388,2.2703915,1.3791654,-1.038689,1.4331423,-0.77985704,-1.7606857,-1.0121884,2.2103562,1.3222147,-1.0083933,-1.1415088,1.45423,0.9923049,-0.95058906,1.0207123,0.48235425,-0.31835902,2.1578817,-0.45598602,1.221557,-3.00723,0.026667332,2.4552848,0.27584934,-0.49830627,0.8970984,0.75258106,-0.02023494,0.06179847,0.65528095,-0.34330767,0.7946819,0.66271675,1.0,0.0,0.0,0.0,0.0,0.0,0.0,-2.8078818,0.055986017,-0.671557,-2.119875,-0.029110909,1.3002157,4.4891715,0.09279251,-0.3676176,1.520437
-6.209157,43.492996,11.225737,17.641184,0.93182814,0.06982057,-0.16172822,-0.6894469,0.8072503,0.54094255,-0.4813446,0.70152855,0.62219745,-0.30614936,1.3641976,-0.699132,-1.7065914,-1.0603229,2.280509,1.3844345,-1.0390083,1.421435,-0.7653421,-1.7507732,-1.0213227,2.2205338,1.3269984,-1.0114546,-1.1809958,1.4510664,0.9903942,-0.90176797,1.0179687,0.47748634,-0.30202007,2.127832,-0.455719,1.245355,-3.0042233,0.02664067,2.3546443,0.27226067,-0.490448,0.9037039,0.7521088,-0.02625924,0.061231412,0.6556626,-0.3571528,0.78686595,0.6526022,1.0,0.0,0.0,0.0,0.0,0.0,0.0,-2.777832,0.05571899,-0.695355,-4.0946007,-0.15528202,-0.33156872,4.6664953,0.06394386,-0.33038855,1.6072452
-5.6877136,41.491455,10.609301,17.065228,0.88590336,-0.028421476,-0.15140283,-0.6992653,0.8047849,0.54628676,-0.467645,0.69836074,0.6172718,-0.27112162,1.3515085,-0.6848636,-1.6961445,-1.0680872,2.29037,1.3887255,-1.0385667,1.4093233,-0.75086915,-1.7409103,-1.0300183,2.230681,1.3317362,-1.0143404,-1.2218533,1.4465814,0.9845471,-0.8595269,1.0147054,0.4728648,-0.2843065,2.0978122,-0.45545197,1.2681473,-3.0012197,0.026614035,2.2541044,0.26855326,-0.48266983,0.9101842,0.75176287,-0.032226596,0.06075406,0.6558375,-0.36820975,0.7780601,0.63935816,1.0,0.0,0.0,0.0,0.0,0.0,0.0,-2.7478123,0.05545196,-0.71814734,-4.235697,-0.29540062,-0.69891214,4.008043,-0.010180473,-0.31206608,1.7437041
-2.9593143,40.36204,10.496332,15.346548,0.72797513,-0.16938072,-0.099801086,-0.710134,0.80216193,0.5436632,-0.46092588,0.7037895,0.62337416,-0.23829535,1.3383099,-0.670653,-1.686544,-1.076111,2.30106,1.3940736,-1.03817,1.3968416,-0.7364458,-1.7311218,-1.0383878,2.2408166,1.3364359,-1.0170412,-1.2572777,1.4413534,0.9763901,-0.8299313,1.0141703,0.46962065,-0.26554152,2.0678225,-0.45518494,1.289935,-2.9982193,0.026587427,2.153665,0.26478815,-0.4749756,0.9165023,0.75150675,-0.038097747,0.060377404,0.6558512,-0.37181866,0.77110404,0.62204564,1.0,0.0,0.0,0.0,0.0,0.0,0.0,-2.7178226,0.05518493,-0.739935,-3.6780596,-0.37670135,-0.9172678,2.754867,0.24278164,-0.16458035,1.8483996
1.6239858,39.79716,10.618582,12.093306,0.382047,-0.38221043,-0.012420844,-0.7219383,0.800934,0.53922576,-0.48153037,0.69793695,0.6202315,-0.22160293,1.3246478,-0.6563524,-1.6771992,-1.0865408,2.3106103,1.3984591,-1.0392015,1.3840586,-0.7220701,-1.7214229,-1.0466695,2.2509332,1.341107,-1.0195608,-1.2856547,1.4367394,0.96731997,-0.8283208,1.0118645,0.46695328,-0.24750347,2.0378628,-0.4549179,1.310719,-2.9952216,0.026560845,2.0533261,0.26108885,-0.46730804,0.92259043,0.7512686,-0.043801483,0.06014333,0.6557892,-0.36166894,0.7695105,0.597199,1.0,0.0,0.0,0.0,0.0,0.0,0.0,-2.6878629,0.0549179,-0.760719,-2.9460907,-0.32389164,-0.996542,-0.018823147,0.036668777,-0.082194805,1.7808229
4.1755733,40.849583,11.4586115,11.282766,0.2583148,-0.43036556,0.035885714,-0.7303843,0.80061865,0.5447608,-0.46668193,0.69615114,0.6172394,-0.17510486,1.3110201,-0.64200824,-1.6669469,-1.0933377,2.3205483,1.402831,-1.0370713,1.3710505,-0.70772874,-1.7117698,-1.0549512,2.2610269,1.3457533,-1.021884,-1.3061856,1.4336807,0.9641927,-0.8286856,1.0092279,0.46461454,-0.22741029,2.0079331,-0.45465088,1.3305004,-2.9922268,0.02653429,1.9530874,0.2575264,-0.45962143,0.9284408,0.75099254,-0.04932877,0.060061723,0.65572053,-0.34650037,0.7719741,0.5738244,1.0,0.0,0.0,0.0,0.0,0.0,0.0,-2.6579332,0.054650873,-0.78050035,-2.1441936,-0.16653538,-0.41464567,-0.20034313,0.009202957,-0.04053712,1.9862145
1.2417316,39.0496,11.0111265,14.059481,0.57486707,-0.33452523,-0.025419898,-0.74790466,0.7902199,0.5449082,-0.41497684,0.6963436,0.625624,-0.13194402,1.29626,-0.62870675,-1.657279,-1.0964489,2.3306613,1.4083157,-1.0350784,1.3578345,-0.6934551,-1.7021244,-1.0630174,2.2710977,1.3503844,-1.0239935,-1.3273083,1.425832,0.9642606,-0.80003583,1.0073688,0.46324345,-0.20565985,1.9780335,-0.45438385,1.3492801,-2.9892354,0.02650776,1.8529488,0.25403738,-0.45195007,0.9341099,0.7507104,-0.054752003,0.060076952,0.6556117,-0.34154314,0.76841545,0.55739415,1.0,0.0,0.0,0.0,0.0,0.0,0.0,-2.6280336,0.054383844,-0.7992801,-2.222371,-0.64132214,-0.09893179,2.6781201,0.10304451,0.028562546,2.1407127
1.8969584,39.998817,11.73762,14.68201,0.590838,-0.30207413,-0.016576398,-0.7541502,0.79146755,0.5507823,-0.40078947,0.6971204,0.6243776,-0.09016088,1.2824194,-0.61430836,-1.6470461,-1.1030964,2.3408098,1.4128221,-1.0330095,1.3444372,-0.6792444,-1.6924388,-1.0707326,2.281157,1.355004,-1.0258741,-1.344436,1.4199933,0.96952546,-0.76244384,1.0065887,0.4620585,-0.18249133,1.9481635,-0.45411682,1.3670592,-2.9862468,0.026481258,1.7529103,0.25059414,-0.4442978,0.9396489,0.75042665,-0.060131885,0.060153414,0.65545815,-0.33725616,0.7671504,0.54565924,1.0,0.0,0.0,0.0,0.0,0.0,0.0,-2.5981636,0.054116815,-0.8170592,-1.8208027,-0.43740273,0.4128337,3.5799742,0.22318363,0.043290854,2.2815318
4.3626304,38.703255,11.291283,12.236395,0.35203707,-0.49456748,0.03355789,-0.76331764,0.78957295,0.5410451,-0.43020788,0.6975491,0.6270719,-0.08447859,1.2681055,-0.6002871,-1.6383343,-1.1137534,2.3509119,1.4177111,-1.034322,1.3308798,-0.6650833,-1.6827438,-1.0782647,2.2912126,1.3596159,-1.0275431,-1.3598654,1.4152485,0.9692122,-0.75061697,1.0062855,0.46149638,-0.16168967,1.9183235,-0.4538498,1.3838388,-2.983261,0.026454782,1.6529716,0.24726582,-0.4366455,0.9450112,0.75010955,-0.0654106,0.06032387,0.6552999,-0.32298976,0.767835,0.5260122,1.0,0.0,0.0,0.0,0.0,0.0,0.0,-2.5683236,0.053849787,-0.83383876,-1.6358614,-0.33712387,-0.12117624,1.0200977,0.23701191,0.11947751,2.050528
3.614563,39.730766,12.143943,14.424925,0.5180191,-0.3693902,0.03363586,-0.7655813,0.787242,0.55544335,-0.3674975,0.69348145,0.6326197,0.049076863,1.2543217,-0.5863591,-1.6271994,-1.1150144,2.3605607,1.4228779,-1.0226353,1.317206,-0.65096414,-1.6729972,-1.0854764,2.3012567,1.3642279,-1.0289278,-1.3704294,1.4113322,0.97629267,-0.71191007,1.0050042,0.4615076,-0.13081023,1.8885136,-0.45358276,1.3996196,-2.9802783,0.026428333,1.553133,0.24403095,-0.42897797,0.9502479,0.7497405,-0.070651345,0.06056422,0.6551561,-0.31513494,0.7692164,0.51586866,1.0,0.0,0.0,0.0,0.0,0.0,0.0,-2.5385137,0.053582758,-0.84961957,-1.1555195,-0.24592876,0.5976558,3.7050128,0.17158985,0.16227365,3.0517995
-0.9980669,35.414963,10.335743,17.383877,0.8748083,-0.30486298,-0.06500982,-0.7886154,0.77621317,0.54169714,-0.31863603,0.68550026,0.6481245,0.10273981,1.2383444,-0.5733428,-1.6188276,-1.11734,2.3698068,1.4290403,-1.0186539,1.3033568,-0.63692224,-1.663245,-1.0921216,2.3112664,1.3688494,-1.0299864,-1.3901813,1.4022404,0.9747067,-0.6494227,1.0006334,0.46280435,-0.097611755,1.8587332,-0.45331573,1.4144028,-2.9772987,0.026401909,1.4533942,0.24078369,-0.42136383,0.9554081,0.74938774,-0.07591949,0.060844574,0.6549444,-0.3192688,0.7610666,0.50897485,1.0,0.0,0.0,0.0,0.0,0.0,0.0,-2.5087333,0.05331573,-0.86440283,-2.1142244,-0.7652283,-0.24323463,6.048262,-0.13816357,0.25366545,3.276211
0.7321167,35.005386,10.571655,16.428333,0.7822708,-0.3747576,0.0005899444,-0.7883344,0.77058315,0.55328125,-0.31313413,0.6832473,0.64420134,0.20028378,1.2245233,-0.5598639,-1.6079168,-1.123435,2.3795912,1.4332695,-1.009958,1.2893435,-0.62298715,-1.6534679,-1.0982003,2.3212266,1.3734823,-1.0306692,-1.4055179,1.3910536,0.9785654,-0.5945753,0.9956342,0.46379068,-0.058654893,1.8289824,-0.4530487,1.4281895,-2.974322,0.026375512,1.3537551,0.2375288,-0.41381836,0.9604887,0.7490256,-0.08121702,0.061156426,0.654694,-0.31896594,0.75524783,0.50078255,1.0,0.0,0.0,0.0,0.0,0.0,0.0,-2.4789824,0.0530487,-0.8781895,-1.6559601,-0.9791374,0.3015995,5.2981853,-0.20622015,0.2309978,3.8497872
1.1664352,33.530293,10.162062,16.450712,0.78692365,-0.44028157,0.0041449964,-0.78581345,0.76303965,0.5423093,-0.2716684,0.6730793,0.6554195,0.27213272,1.2107621,-0.5466832,-1.599237,-1.1253672,2.3885345,1.4390243,-1.003456,1.2752348,-0.6091789,-1.6437042,-1.103684,2.3311143,1.3781325,-1.0309439,-1.4129968,1.3778365,0.9753153,-0.5336262,0.9874633,0.46575928,-0.01712942,1.7992616,-0.45278168,1.4409806,-2.9713483,0.026349142,1.2542157,0.23428392,-0.40634155,0.9654871,0.748635,-0.08654844,0.061503004,0.65442526,-0.31741786,0.7480142,0.49260953,1.0,0.0,0.0,0.0,0.0,0.0,0.0,-2.4492617,0.05278167,-0.89098054,-0.8561373,-1.1840105,-0.414598,5.9097767,-0.53031445,0.32874942,4.1020055
3.8996072,33.188026,10.134285,13.784951,0.52378243,-0.6227511,0.07888673,-0.7914699,0.7589171,0.54323727,-0.2867982,0.67209774,0.64772797,0.31366864,1.1960878,-0.53328717,-1.5893805,-1.1323638,2.398324,1.4429053,-0.999577,1.2610689,-0.5954946,-1.6339748,-1.1087766,2.3409257,1.3827959,-1.0308104,-1.4180437,1.3656846,0.97195715,-0.5017249,0.97998047,0.46699077,0.023335598,1.7695704,-0.45251465,1.4527769,-2.9683774,0.026322799,1.1547757,0.23113489,-0.39889908,0.97034746,0.74816686,-0.09184263,0.061922234,0.6541993,-0.3051106,0.74395597,0.47700444,1.0,0.0,0.0,0.0,0.0,0.0,0.0,-2.4195704,0.052514642,-0.9027769,-0.59034824,-1.0870934,-0.40761232,3.0287385,-0.49265623,0.2744496,4.001026
8.144021,34.805214,11.021435,10.39879,0.14688438,-0.8076377,0.18643335,-0.78667164,0.7575057,0.55237335,-0.3083868,0.6718873,0.6474633,0.34250852,1.1824018,-0.51974404,-1.5787375,-1.1396153,2.4081144,1.4475423,-0.9965595,1.2469012,-0.5819057,-1.624232,-1.1138062,2.350676,1.3874689,-1.0302935,-1.416386,1.3570136,0.9748411,-0.5037751,0.9741607,0.4682405,0.061017275,1.7399087,-0.45225525,1.4635795,-2.9654098,0.026296481,1.0554352,0.22821712,-0.39146042,0.9749972,0.74753255,-0.09700528,0.06245749,0.65412843,-0.27847996,0.7469522,0.45426384,1.0,0.0,0.0,0.0,0.0,0.0,0.0,-2.3899088,0.052255243,-0.9135795,0.11687279,-0.74658394,0.22289753,-0.32936335,-0.35495758,0.30462742,3.7288644
9.0323715,35.47911,11.501814,10.201011,0.073536634,-0.832406,0.20529158,-0.78457946,0.75459564,0.55632037,-0.28913578,0.6624861,0.6490863,0.39162138,1.1684432,-0.5064462,-1.5686,-1.1427199,2.4169247,1.4523776,-0.9911313,1.2327753,-0.5683855,-1.6144321,-1.1188684,2.360354,1.3921572,-1.0294046,-1.4113361,1.3508747,0.9813462,-0.50735074,0.96671844,0.46947277,0.09789338,1.7102771,-0.45199585,1.4733895,-2.962445,0.02627019,0.9561939,0.22558355,-0.38396072,0.97942674,0.7466942,-0.10202382,0.0631296,0.654258,-0.24948756,0.75253713,0.432554,1.0,0.0,0.0,0.0,0.0,0.0,0.0,-2.3602772,0.051995844,-0.9233895,0.46420097,-0.4921198,0.5802274,-0.469172,-0.51727295,0.30316114,3.6510184
8.01384,34.141163,11.02593,11.330027,0.18422103,-0.83633554,0.16203897,-0.77882,0.7495221,0.5468555,-0.2641115,0.65693855,0.650301,0.41985106,1.1548933,-0.49343327,-1.5597465,-1.1452795,2.4260478,1.4571873,-0.98741955,1.2187277,-0.55492437,-1.604615,-1.1238656,2.3699555,1.3968569,-1.0281668,-1.4026484,1.3449316,0.98140985,-0.4975497,0.95880747,0.47057113,0.13218734,1.680675,-0.45173645,1.4822078,-2.9594831,0.026243925,0.85705197,0.2232151,-0.37641907,0.9836606,0.7456785,-0.10692301,0.06393176,0.6545562,-0.22364704,0.75536656,0.41365317,1.0,0.0,0.0,0.0,0.0,0.0,0.0,-2.3306751,0.051736444,-0.93220776,0.82502365,-0.46958923,-0.06985664,0.8623719,-0.5602598,0.2771616,3.3922286
8.391953,32.576374,10.567803,10.801096,0.1879909,-0.92530406,0.17983037,-0.7691772,0.7409852,0.54901993,-0.27357262,0.65887856,0.640597,0.4540758,1.1418099,-0.48082584,-1.549713,-1.1512228,2.4358435,1.4609166,-0.9827592,1.2048022,-0.5415443,-1.5948036,-1.1287999,2.3795,1.4015566,-1.0265989,-1.3892345,1.3360333,0.9807743,-0.49247867,0.9535868,0.4704946,0.16466354,1.6511025,-0.45147705,1.4900354,-2.9565241,0.026217686,0.7580091,0.2211237,-0.3688736,0.9876904,0.74448574,-0.11168392,0.064846076,0.6550287,-0.19563985,0.75621504,0.39278403,1.0,0.0,0.0,0.0,0.0,0.0,0.0,-2.3011026,0.051477045,-0.9400354,1.3144016,-0.76737404,-0.14468431,0.39416552,-0.3030777,0.16025901,3.209722
7.997792,30.364502,9.4182625,9.605783,0.12121552,-1.0526582,0.17334104,-0.7788272,0.73884153,0.5426693,-0.30549955,0.6558442,0.6423959,0.45076355,1.1269194,-0.46766016,-1.5405366,-1.1593499,2.4450843,1.4657962,-0.98152256,1.1909453,-0.52824914,-1.5850322,-1.1338506,2.3889985,1.4062563,-1.0247469,-1.3846796,1.3277885,0.97589946,-0.5095972,0.9490102,0.4704113,0.19197196,1.6215596,-0.45121765,1.4968734,-2.9535682,0.026191473,0.6590652,0.2193389,-0.36133194,0.9914601,0.7431291,-0.11622883,0.065896444,0.65567344,-0.16397716,0.754183,0.36517087,1.0,0.0,0.0,0.0,0.0,0.0,0.0,-2.2715597,0.051217645,-0.94687337,0.41935444,-0.7096052,-0.5355716,-1.8213272,-0.26659966,0.15653372,2.7007194
6.059194,29.169666,9.147175,11.95818,0.3393777,-0.95645595,0.111399055,-0.77217704,0.73422086,0.5419881,-0.26508614,0.6512219,0.64450914,0.4765192,1.1137276,-0.45482707,-1.5308334,-1.1603591,2.4541206,1.4707072,-0.97709495,1.1771303,-0.515036,-1.5753105,-1.1389012,2.3984475,1.410956,-1.0226374,-1.3804718,1.3195546,0.97076863,-0.50379837,0.9443926,0.4703228,0.21720046,1.5920463,-0.45095825,1.5027226,-2.9506154,0.026165286,0.56022024,0.21781111,-0.35382843,0.9950053,0.74165314,-0.12059656,0.06706541,0.6564368,-0.1404195,0.749834,0.34450117,1.0,0.0,0.0,0.0,0.0,0.0,0.0,-2.2420464,0.050958246,-0.9527226,0.3613472,-0.7022619,-0.56431293,0.45642853,-0.25029182,0.13363361,2.4918704
5.32658,27.019896,8.194441,11.883198,0.3708071,-1.0218409,0.08834627,-0.7720802,0.728033,0.5310987,-0.27911103,0.6448497,0.64520085,0.4843358,1.0999223,-0.44223267,-1.5222006,-1.1668123,2.4629326,1.4754761,-0.97420377,1.1633402,-0.5019125,-1.5656784,-1.143929,2.407843,1.4156557,-1.020299,-1.378654,1.3103904,0.96037,-0.5027187,0.93837184,0.4702355,0.23923491,1.562562,-0.45069885,1.5075842,-2.9476655,0.026139125,0.46147415,0.21652174,-0.34638596,0.9983274,0.74009234,-0.1247841,0.068350144,0.65728253,-0.11668635,0.7423319,0.32166705,1.0,0.0,0.0,0.0,0.0,0.0,0.0,-2.212562,0.050698847,-0.9575842,0.11751652,-0.7986069,-1.0774732,-0.01809597,-0.40451288,0.12649298,2.17458
5.495284,25.894053,7.5867896,10.877827,0.29992175,-1.1243324,0.09097468,-0.77606946,0.72636175,0.52343535,-0.3050323,0.6456172,0.6450623,0.48240608,1.0857333,-0.4292763,-1.5133349,-1.1744323,2.4724047,1.4801619,-0.97205836,1.1495386,-0.4888667,-1.556174,-1.1490655,2.4171891,1.4203535,-1.0177698,-1.380796,1.3030003,0.94711274,-0.5177575,0.9338501,0.47011295,0.25750646,1.5331073,-0.45043945,1.511459,-2.9447184,0.026112992,0.36282682,0.21549797,-0.33903503,1.0013882,0.7384629,-0.12873246,0.06977661,0.65820324,-0.08916604,0.7335166,0.29447994,1.0,0.0,0.0,0.0,0.0,0.0,0.0,-2.1831074,0.050439447,-0.961459,-0.27844906,-0.6262779,-1.3438463,-1.6217113,-0.2744317,0.12024045,1.8033028
6.113693,24.165287,6.753646,9.313678,0.21624494,-1.2784972,0.11087486,-0.770459,0.7190878,0.5094979,-0.3320815,0.6431342,0.64455575,0.4868018,1.0724927,-0.4169579,-1.5052242,-1.1822736,2.4815025,1.4848092,-0.9690896,1.1357371,-0.47590578,-1.5468452,-1.1544862,2.4264894,1.4250494,-1.0150766,-1.3800234,1.2941434,0.9282747,-0.5503872,0.9295573,0.46997064,0.27301642,1.5036821,-0.45018005,1.5143481,-2.9417741,0.026086885,0.26427814,0.21479464,-0.3317833,1.0041302,0.7367621,-0.13236155,0.07136666,0.65921825,-0.055896617,0.7218848,0.26124418,1.0,0.0,0.0,0.0,0.0,0.0,0.0,-2.1536822,0.050180048,-0.96434814,0.04041195,-0.7786751,-1.9028068,-3.3693552,-0.27922392,0.12053251,1.529032
7.959873,23.079208,5.934972,5.7182326,-0.038739473,-1.5476329,0.17555432,-0.7704671,0.7160195,0.49383214,-0.405318,0.64945006,0.64096045,0.48259243,1.0586903,-0.40430382,-1.497462,-1.1950179,2.4914343,1.4891455,-0.9668174,1.1219488,-0.4630283,-1.5377433,-1.1605458,2.4357743,1.4297434,-1.0122538,-1.3783437,1.2859752,0.90414906,-0.6246741,0.92867416,0.46959242,0.2854812,1.4742866,-0.44992065,1.5162524,-2.9388328,0.026060805,0.16582797,0.21452045,-0.32466125,1.006445,0.734963,-0.13551897,0.073157795,0.6603877,-0.009763992,0.70804477,0.21544988,1.0,0.0,0.0,0.0,0.0,0.0,0.0,-2.1242867,0.04992065,-0.9662524,0.18200874,-0.721097,-2.4285078,-7.504225,0.010943413,0.105547905,1.2309611
6.4703913,21.080917,5.462398,7.77464,0.1716272,-1.4722136,0.12794471,-0.75769114,0.70407254,0.48266464,-0.38213477,0.6288193,0.64143604,0.4934418,1.0461798,-0.39262104,-1.4894769,-1.1987593,2.4986563,1.4938871,-0.9629096,1.1082369,-0.45026577,-1.5288894,-1.1671662,2.4449983,1.4344336,-1.0093145,-1.3686403,1.2733785,0.87889147,-0.6746663,0.9210253,0.46909773,0.29664654,1.4449205,-0.44966125,1.5171729,-2.9358947,0.02603475,0.067476235,0.2146554,-0.3176918,1.0083487,0.7330834,-0.13822502,0.0751346,0.6616927,0.029284136,0.6913376,0.17592765,1.0,0.0,0.0,0.0,0.0,0.0,0.0,-2.0949206,0.04966125,-0.9671729,0.987792,-1.1570454,-2.571082,-5.0892115,-0.6453872,0.07314682,1.094985
5.6277156,18.182127,4.2321854,7.538861,0.2306566,-1.5405378,0.11192553,-0.75317365,0.6916964,0.46164885,-0.4260764,0.6143104,0.6481186,0.48638034,1.0329195,-0.38109612,-1.4827245,-1.2097739,2.5064292,1.4992454,-0.9606765,1.0946413,-0.43766534,-1.5203273,-1.1743245,2.4541078,1.4391218,-1.0062838,-1.3563552,1.2559317,0.8483245,-0.7297608,0.90785164,0.46918112,0.3052365,1.4155836,-0.44940186,1.5171107,-2.9329596,0.026008721,-0.030777177,0.21518326,-0.31093216,1.0098354,0.7311515,-0.14047487,0.0772892,0.6631067,0.06825338,0.6699375,0.13353038,1.0,0.0,0.0,0.0,0.0,0.0,0.0,-2.0655837,0.04940185,-0.9671107,1.26822,-1.6454935,-3.1138778,-5.599928,-1.2128949,0.117874146,0.8341491
4.487906,13.405354,1.8885235,5.7442446,0.27415335,-1.7225364,0.110699534,-0.75813156,0.67278785,0.43636933,-0.5032432,0.61241513,0.64583725,0.46711907,1.0188282,-0.37038654,-1.4766904,-1.2246488,2.5153494,1.5037056,-0.95957184,1.0811259,-0.42529857,-1.5121257,-1.1822476,2.4630876,1.4438082,-1.0031939,-1.3494755,1.2305553,0.81067365,-0.8133806,0.89515907,0.46894336,0.31024504,1.3862758,-0.44914246,1.5160667,-2.9300272,0.025982719,-0.12893234,0.21612692,-0.30444717,1.0108194,0.7291944,-0.14215186,0.07962752,0.66462606,0.110197134,0.63893706,0.08081509,1.0,0.0,0.0,0.0,0.0,0.0,0.0,-2.0362759,0.04914245,-0.96606666,0.7636547,-2.4517536,-3.8184762,-8.444965,-1.2121677,0.06959438,0.4751861
4.903595,13.317555,2.2834375,5.550716,0.21660727,-1.6990311,0.15224719,-0.7468648,0.6572344,0.4433356,-0.5426788,0.5741891,0.64657414,0.4879779,1.0064393,-0.35957512,-1.4677922,-1.2365155,2.5205064,1.5084656,-0.95439607,1.0677038,-0.41321552,-1.5041912,-1.1910481,2.4718537,1.4484946,-1.0000486,-1.3393258,1.201143,0.7872575,-0.9026679,0.87044454,0.4686939,0.31602624,1.3569975,-0.44888306,1.5140418,-2.9270978,0.02595674,-0.22698937,0.21749878,-0.29824448,1.0112748,0.7271847,-0.14323145,0.08215547,0.6662864,0.15315151,0.6107646,0.027896574,1.0,0.0,0.0,0.0,0.0,0.0,0.0,-2.0069976,0.04888305,-0.96404177,1.1202097,-2.8541088,-2.4282455,-8.996654,-2.4080873,0.05518198,0.55108666
4.2146063,10.891511,1.8721011,6.149261,0.34037957,-1.6446359,0.17543313,-0.7321799,0.6259488,0.44254738,-0.58050317,0.5427237,0.64979166,0.49817726,0.99448586,-0.35062063,-1.4599364,-1.2490984,2.5261261,1.5134737,-0.9502309,1.0544325,-0.4015125,-1.4964035,-1.2007184,2.4803033,1.4531809,-0.99684334,-1.3224691,1.1603495,0.77550524,-0.98882633,0.83688766,0.4686419,0.32190517,1.3277488,-0.44862366,1.5110372,-2.9241712,0.025930788,-0.32494837,0.21927738,-0.2923355,1.0112066,0.72508866,-0.1437392,0.08484386,0.66812193,0.19232011,0.5810656,-0.02404438,1.0,0.0,0.0,0.0,0.0,0.0,0.0,-1.9777488,0.04862365,-0.9610372,1.8236637,-3.9927483,-1.3076425,-8.684217,-3.2814503,0.057804585,0.5537212
2.1601057,6.927657,0.36903954,7.325109,0.5696332,-1.6141201,0.13855353,-0.7221147,0.5967009,0.41954896,-0.61745626,0.5152402,0.6390802,0.5002879,0.98222107,-0.3418424,-1.4544486,-1.262464,2.5318272,1.5170889,-0.94681454,1.0413538,-0.39028013,-1.4887702,-1.2111936,2.488379,1.4578558,-0.99358463,-1.3024942,1.1111525,0.7585605,-1.0675063,0.79828304,0.46725744,0.32711196,1.2985287,-0.44836426,1.5070537,-2.9212475,0.025904862,-0.42280945,0.22140217,-0.28677368,1.0106268,0.722925,-0.14368902,0.08765368,0.6701117,0.22501028,0.5452077,-0.07490051,1.0,0.0,0.0,0.0,0.0,0.0,0.0,-1.9485286,0.04836425,-0.9570537,2.1448374,-4.8384666,-1.8428206,-7.950115,-3.7899017,-0.103503466,0.47813058
0.2534641,3.9981766,-0.32088518,9.470352,0.8344108,-1.4758563,0.11127406,-0.71001154,0.5617297,0.41968048,-0.6396227,0.4820001,0.63355553,0.51040894,0.97035265,-0.33410716,-1.4468021,-1.2751558,2.5365791,1.5212114,-0.94254375,1.0284926,-0.37960374,-1.4812686,-1.2223344,2.496039,1.4625117,-0.9902725,-1.2803934,1.0533857,0.74674,-1.1297876,0.7554327,0.46509597,0.33241507,1.2693381,-0.44810486,1.5020924,-2.9183266,0.025878962,-0.5205727,0.22379017,-0.2815857,1.0095779,0.72071195,-0.14313611,0.09052771,0.6722284,0.24820341,0.50686,-0.120189816,1.0,0.0,0.0,0.0,0.0,0.0,0.0,-1.9193381,0.048104852,-0.95209235,2.3404837,-5.6969166,-1.3397813,-6.329441,-4.196155,-0.20560026,0.48224926
-1.9927531,1.3342928,-1.5418153,10.963491,1.0696486,-1.4058388,0.050827026,-0.7150621,0.53613436,0.40253776,-0.678223,0.47585288,0.62378895,0.49936172,0.95698637,-0.32599032,-1.4410149,-1.2901567,2.5436242,1.5248905,-0.94033635,1.0157744,-0.36950195,-1.4739234,-1.2340684,2.5033288,1.4671389,-0.9869213,-1.2686261,0.9960206,0.73003876,-1.1881456,0.7204836,0.46180204,0.33586997,1.2401767,-0.44784546,1.4961541,-2.915409,0.025853088,-0.6182383,0.22635794,-0.2768097,1.008091,0.71850055,-0.14209893,0.093421765,0.6744161,0.26381162,0.4638566,-0.16321243,1.0,0.0,0.0,0.0,0.0,0.0,0.0,-1.8901767,0.047845453,-0.94615406,1.2632847,-5.6641936,-1.7846346,-5.949664,-3.416729,-0.3521502,0.29930472
-5.6822343,-7.0054436,-4.8779116,12.333742,1.5195878,-1.3777747,-0.0008215178,-0.6995583,0.46893743,0.38210848,-0.7065988,0.4330344,0.6046828,0.49821416,0.94581854,-0.3226082,-1.4357126,-1.3047283,2.5466323,1.5276072,-0.9370999,1.0031897,-0.36014402,-1.4668071,-1.2463441,2.5102258,1.4717184,-0.98354244,-1.2545273,0.91592866,0.7049603,-1.2411684,0.67983747,0.45655146,0.33828026,1.2110443,-0.44758606,1.4892399,-2.9124944,0.02582724,-0.7158061,0.22899914,-0.27257156,1.0061673,0.71634716,-0.14056486,0.09625625,0.6766262,0.26809573,0.40662837,-0.20685828,1.0,0.0,0.0,0.0,0.0,0.0,0.0,-1.8610443,0.047586054,-0.9392399,1.5211344,-7.9558015,-2.6433706,-5.43921,-4.0076017,-0.5808294,0.1772523
-16.276863,-30.05796,-16.000128,14.338885,2.700369,-1.5695848,-0.231337,-0.676873,0.360191,0.25208515,-0.7224186,0.39857072,0.58894724,0.50314564,0.9355024,-0.32412493,-1.4415987,-1.318586,2.550083,1.5306132,-0.9332279,0.990821,-0.35194862,-1.460511,-1.2590718,2.5166879,1.4762331,-0.98014355,-1.2303329,0.78737503,0.60386395,-1.283882,0.6345721,0.4493147,0.34004337,1.1819415,-0.44732666,1.4813508,-2.9095826,0.025801418,-0.81327647,0.23150158,-0.26927567,1.003741,0.7144651,-0.13841256,0.09888251,0.678678,0.24730673,0.30030528,-0.25891683,1.0,0.0,0.0,0.0,0.0,0.0,0.0,-1.8319415,0.047326654,-0.93135077,2.622652,-12.862646,-10.267269,-4.4650555,-4.5886517,-0.86255074,0.05301833
-43.98872,-99.26154,-46.82647,17.257904,6.047932,-2.0460522,-0.6128334,-0.5901376,0.00076672155,0.021328036,-0.7421711,0.26034886,0.5530084,0.50265604,0.9318072,-0.35187194,-1.4583782,-1.3332889,2.5427227,1.531534,-0.92987794,0.979087,-0.346537,-1.4562633,-1.2721791,2.5223489,1.4806429,-0.976738,-1.1522305,0.4584952,0.36364555,-1.320705,0.5423355,0.43702826,0.33975315,1.1528673,-0.44706726,1.4724877,-2.9066737,0.025775623,-0.91064936,0.2332778,-0.26807785,1.0005597,0.7132691,-0.13530177,0.10076165,0.680285,0.15640879,0.05651834,-0.34137812,1.0,0.0,0.0,0.0,0.0,0.0,0.0,-1.8028673,0.047067255,-0.9224877,8.450031,-33.06745,-24.470102,-3.9485455,-9.553469,-1.5821934,-0.31753778
-62.785168,-149.31738,-68.89817,18.984905,7.5876875,-2.326068,-0.88895965,-0.4149091,-0.3368875,-0.23756203,-0.7248728,-0.34264413,0.5059735,0.51064193,0.9375961,-0.38022575,-1.4800195,-1.3446664,2.4880846,1.5312402,-0.9256738,0.9689151,-0.34569824,-1.4554279,-1.2854466,2.5253625,1.4848887,-0.9733381,-0.9689179,-0.04201814,-0.012288617,-1.3289449,0.21959762,0.41843754,0.33858088,1.1238227,-0.44680786,1.4626516,-2.9037676,0.025749853,-1.0079248,0.23387098,-0.26992035,0.99635637,0.7131017,-0.13109234,0.101920836,0.68111145,0.026831804,-0.2662055,-0.44863144,1.0,0.0,0.0,0.0,0.0,0.0,0.0,-1.7738227,0.046807855,-0.9126516,19.295681,-50.35991,-38.302593,-0.8955717,-32.74903,-2.4673045,-0.55541396
-61.680676,-155.47089,-69.23146,18.559784,7.7170267,-2.1319678,-0.6665882,-0.2164252,-0.59945184,-0.37230197,-0.72385913,-0.5564942,0.53124,0.5187586,0.9472726,-0.40564343,-1.4926581,-1.3578326,2.469713,1.5380126,-0.9214623,0.9613277,-0.350366,-1.4584377,-1.2986722,2.5246797,1.4889723,-0.96993923,-0.68628377,-0.60952276,-0.39890274,-1.3193599,-0.16536166,0.40240827,0.339092,1.0948067,-0.44654846,1.4518435,-2.9008644,0.02572411,-1.105103,0.23314476,-0.27497864,0.99104285,0.71383387,-0.1258828,0.10232125,0.6812672,-0.108116634,-0.58634174,-0.5598047,1.0,0.0,0.0,0.0,0.0,0.0,0.0,-1.7448066,0.046548456,-0.9018435,28.976036,-57.091766,-39.186794,1.2776852,-38.881954,-2.3590207,-0.3039062
-20.52288,-86.640526,-32.089943,8.785263,4.1116323,-1.7769896,0.4385392,0.19474857,-0.7025446,-0.3530131,-0.732876,-0.63547707,0.5988617,0.49993223,0.98080254,-0.42062047,-1.493739,-1.3719598,2.461132,1.5488585,-0.919946,0.95802414,-0.3599838,-1.4642856,-1.3118005,2.5204873,1.4929758,-0.96653175,-0.21331415,-1.0798159,-0.6459631,-1.3094021,-0.5034498,0.3978818,0.3411546,1.0658197,-0.44628906,1.4400643,-2.897964,0.02569839,-1.2021842,0.23179913,-0.28214645,0.98476326,0.714444,-0.12008866,0.10191663,0.68173414,-0.14701293,-0.75735235,-0.6520091,1.0,0.0,0.0,0.0,0.0,0.0,0.0,-1.7158197,0.046289057,-0.8900643,46.81262,-47.21229,-24.423658,1.3550758,-33.760178,-0.9684324,0.17592311
10.908799,-22.500034,-1.7809969,2.3858867,0.9224448,-1.589747,0.97690874,0.40282202,-0.7464944,-0.425738,-0.7295269,-0.6840387,0.63199705,0.45350778,0.99830633,-0.43463326,-1.5068594,-1.3847532,2.4520833,1.5561756,-0.92118096,0.9597007,-0.37305963,-1.4719017,-1.3248353,2.5135522,1.4969851,-0.96312904,0.28985983,-1.3837886,-0.7967262,-1.3013353,-0.75570285,0.40085986,0.34054637,1.0368619,-0.44602966,1.427315,-2.8950665,0.025672697,-1.2991682,0.23067617,-0.2901001,0.9777295,0.71415174,-0.114074074,0.10093761,0.68321735,-0.10273487,-0.8057824,-0.7235652,1.0,0.0,0.0,0.0,0.0,0.0,0.0,-1.6868619,0.046029657,-0.877315,48.8966,-30.47595,-14.075637,0.9145975,-24.997854,-0.027424097,0.10868311
20.375692,9.44333,9.165952,1.6249456,-0.29028633,-1.622827,0.8004599,0.4904433,-0.7870382,-0.5868792,-0.7210286,-0.6504521,0.63567406,0.31837916,1.0087451,-0.45176345,-1.5305896,-1.3969382,2.448507,1.5605525,-0.9312911,0.96569455,-0.38806474,-1.4810321,-1.3377843,2.504931,1.5010382,-0.95983505,0.6978583,-1.5396588,-0.9484326,-1.2927386,-0.8970629,0.40574783,0.3264206,1.0079327,-0.44577026,1.4135966,-2.8921719,0.02564703,-1.3960553,0.23019981,-0.29824066,0.9700877,0.7129437,-0.10790563,0.09966145,0.6856641,-0.02830437,-0.81113946,-0.78260565,1.0,0.0,0.0,0.0,0.0,0.0,0.0,-1.6579326,0.045770258,-0.8635966,39.38123,-15.648317,-14.124977,0.83010197,-13.986778,0.20560622,-1.2196422
24.48834,32.222603,16.897255,3.056281,-0.9562061,-1.4281414,0.5977049,0.5530372,-0.7964471,-0.61798316,-0.72923434,-0.59824926,0.6241255,0.21929222,1.0209982,-0.46770945,-1.5428305,-1.4107077,2.445106,1.5634507,-0.93790585,0.9747783,-0.40376413,-1.4913814,-1.3507123,2.495627,1.5051333,-0.95675755,0.9755086,-1.5801811,-1.0617006,-1.2931395,-0.9416869,0.41026407,0.30215964,0.979033,-0.44551086,1.3989102,-2.88928,0.025621388,-1.4928455,0.23050833,-0.30618668,0.96197706,0.71102816,-0.10157058,0.098279014,0.6888132,0.05471831,-0.7843169,-0.8270086,1.0,0.0,0.0,0.0,0.0,0.0,0.0,-1.629033,0.04551086,-0.84891015,26.831554,-4.0948153,-10.680914,-0.12943745,-4.405558,0.25479198,-2.2522807
23.711582,42.216553,20.121183,5.7661037,-0.9725694,-1.1326393,0.42892605,0.61516285,-0.808528,-0.62887883,-0.7347963,-0.5341591,0.62862414,0.1598062,1.0362946,-0.48461694,-1.5542693,-1.424192,2.442211,1.5679957,-0.94077694,0.9858209,-0.4194187,-1.5025394,-1.3636937,2.4864182,1.5092779,-0.95395756,1.1457924,-1.5606536,-1.1327792,-1.2999359,-0.9142486,0.4153109,0.27315038,0.95016193,-0.44525146,1.3832564,-2.8863912,0.025595771,-1.5895389,0.23156261,-0.31377792,0.9535224,0.7085892,-0.0950732,0.09682352,0.6924504,0.12840337,-0.7442884,-0.85868204,1.0,0.0,0.0,0.0,0.0,0.0,0.0,-1.6001619,0.04525146,-0.8332564,16.586924,1.917243,-6.8623066,-0.76048374,2.7234793,0.37733316,-2.7513385
19.303186,44.093697,20.725683,10.529835,-0.55860007,-0.6857254,0.2608099,0.64273995,-0.8126493,-0.6195149,-0.71491116,-0.4807618,0.63549745,0.11225186,1.0500948,-0.5006836,-1.5644909,-1.4351848,2.438342,1.5728277,-0.9427324,0.99790394,-0.43471515,-1.514056,-1.3766522,2.4777818,1.513476,-0.95146275,1.2289518,-1.5194863,-1.1580907,-1.2945977,-0.84707373,0.42124608,0.24208078,0.9213195,-0.44499207,1.3666365,-2.8835056,0.02557018,-1.6861358,0.23317766,-0.32094955,0.94487125,0.70579106,-0.088495925,0.09522714,0.6963901,0.17948563,-0.7015053,-0.8745141,1.0,0.0,0.0,0.0,0.0,0.0,0.0,-1.5713195,0.04499206,-0.8166365,8.253741,4.0726423,-2.5598526,0.4969597,6.624162,0.5450547,-2.9851496
14.906363,41.70056,19.618969,13.38861,-0.076437116,-0.4102329,0.17197096,0.66375226,-0.81220746,-0.6144745,-0.7187847,-0.39568087,0.6238941,0.09314973,1.0642792,-0.5159359,-1.5755035,-1.4485307,2.4382136,1.5758654,-0.9421478,1.0104123,-0.4496106,-1.5255954,-1.3895593,2.4700494,1.5177218,-0.9492636,1.258612,-1.4797113,-1.1532667,-1.2893502,-0.74892163,0.42564723,0.21284464,0.89250565,-0.4447403,1.3490514,-2.8806229,0.025544615,-1.7826359,0.23516226,-0.32773972,0.9361133,0.7027429,-0.08187758,0.0933541,0.7005237,0.21178311,-0.66506183,-0.8832703,1.0,0.0,0.0,0.0,0.0,0.0,0.0,-1.5425056,0.04474029,-0.79905134,3.0968428,3.9234638,0.32174587,0.53384304,9.684885,0.42402744,-2.8125138
11.416739,38.698845,18.533112,15.461239,0.20417905,-0.18342572,0.13197088,0.6726951,-0.8110452,-0.5972955,-0.7127613,-0.37606052,0.6249731,0.11962167,1.0776819,-0.5307151,-1.585325,-1.4608355,2.4324434,1.580219,-0.9373014,1.0229894,-0.46419656,-1.5369155,-1.4023881,2.4632363,1.5220076,-0.94730663,1.2582222,-1.4518247,-1.1256212,-1.2807808,-0.6591152,0.4295759,0.19036624,0.8637214,-0.44448853,1.3305019,-2.877743,0.025519077,-1.8790396,0.23737192,-0.3342018,0.92729807,0.6994958,-0.075258866,0.09115008,0.7047931,0.23099777,-0.632549,-0.88771564,1.0,0.0,0.0,0.0,0.0,0.0,0.0,-1.5137213,0.04448852,-0.7805019,0.16961098,2.7265072,2.557397,0.90169907,8.835041,0.39382577,-2.1508427
8.477604,35.037003,16.352186,15.985146,0.22537446,-0.15060015,0.078072496,0.67909104,-0.80486405,-0.61480933,-0.70962393,-0.4278431,0.6219782,0.17069001,1.0908985,-0.544683,-1.5983964,-1.4733505,2.420452,1.5842054,-0.93023765,1.0354825,-0.47858036,-1.5480354,-1.4151311,2.4569764,1.5263239,-0.9455061,1.2470556,-1.4341801,-1.1080756,-1.2717131,-0.61542404,0.4323229,0.1767888,0.8349657,-0.44423676,1.3109891,-2.874866,0.025493562,-1.9753469,0.23974657,-0.340374,0.9184091,0.69609696,-0.06864543,0.08875344,0.709126,0.2460125,-0.60509807,-0.8955188,1.0,0.0,0.0,0.0,0.0,0.0,0.0,-1.4849657,0.04423675,-0.7609891,-0.89673996,1.6953468,1.5520573,0.9853363,4.216647,0.25460124,-1.2937069
6.192267,31.510237,14.35281,16.232323,0.23962343,-0.14181541,0.025798038,0.6808808,-0.8073725,-0.6226765,-0.7009242,-0.4701671,0.6246,0.15744619,1.1035706,-0.5593176,-1.610303,-1.4852235,2.4099598,1.5887839,-0.92976147,1.0478536,-0.49288118,-1.5590732,-1.4277596,2.4508348,1.530665,-0.9438276,1.2344102,-1.4290133,-1.1028705,-1.2596711,-0.61447406,0.4345293,0.16503988,0.80623865,-0.443985,1.2905141,-2.8719919,0.025468074,-2.0715578,0.24225092,-0.34630585,0.9094121,0.6926021,-0.062039025,0.08632903,0.71344286,0.25830388,-0.5826436,-0.907086,1.0,0.0,0.0,0.0,0.0,0.0,0.0,-1.4562386,0.04398498,-0.7405141,-1.0640383,0.4397154,0.34344196,1.3100624,-0.063586235,0.17656088,-1.1336803
4.259726,29.238605,12.988375,16.93304,0.2639805,-0.09745228,-0.01646091,0.6762154,-0.8089478,-0.6305776,-0.680301,-0.52111435,0.6364798,0.18967605,1.1154752,-0.57377595,-1.622131,-1.4957898,2.3987234,1.594313,-0.92486,1.0600969,-0.50719154,-1.5701473,-1.4401937,2.4444337,1.5350348,-0.9422264,1.2216054,-1.4319899,-1.1093142,-1.2375518,-0.64950985,0.4373771,0.1584903,0.7775402,-0.44373322,1.2690775,-2.8691206,0.025442611,-2.1676724,0.24485779,-0.35204315,0.9002909,0.68905455,-0.05546451,0.08401992,0.7176824,0.26742876,-0.56359124,-0.919454,1.0,0.0,0.0,0.0,0.0,0.0,0.0,-1.4275402,0.04373321,-0.7190775,-1.0981083,-0.38285255,-0.7916689,2.3369312,-3.6740541,0.22884607,-0.6346166
3.190432,28.543762,12.267871,16.583008,0.26835907,-0.087749615,-0.020172447,0.65852785,-0.8060166,-0.63481075,-0.68432415,-0.53101856,0.6367607,0.2281954,1.1259496,-0.58779323,-1.6336284,-1.5086261,2.391332,1.5987109,-0.9194069,1.0721608,-0.52153957,-1.5813282,-1.4524541,2.4376245,1.5394293,-0.94065,1.2021335,-1.4360536,-1.1213576,-1.2217933,-0.69189703,0.43975818,0.15743431,0.7488704,-0.44348145,1.2466806,-2.8662522,0.025417173,-2.263691,0.24754715,-0.35761642,0.89102066,0.6854714,-0.04890086,0.081897795,0.72182435,0.2752111,-0.5467769,-0.93508816,1.0,0.0,0.0,0.0,0.0,0.0,0.0,-1.3988703,0.04348144,-0.6966806,-1.7533064,-0.4929781,-1.3602018,1.7168522,-4.417813,0.1675129,-0.091958046
1.4384584,26.073544,10.329657,15.542987,0.39148164,-0.15272227,-0.040720724,0.63994795,-0.8118139,-0.6606075,-0.69864273,-0.5264693,0.6331138,0.22739778,1.1361556,-0.602721,-1.6473889,-1.5223184,2.3849776,1.6027406,-0.9179102,1.0839788,-0.5359534,-1.5927398,-1.4646745,2.4304566,1.5438391,-0.9390764,1.1756588,-1.4434512,-1.1483814,-1.2215112,-0.72527844,0.441078,0.15739095,0.72022915,-0.44322968,1.2233243,-2.8633866,0.025391761,-2.3596134,0.25029898,-0.36306763,0.88153076,0.6818792,-0.042246703,0.07994894,0.7258539,0.28086334,-0.537795,-0.9590484,1.0,0.0,0.0,0.0,0.0,0.0,0.0,-1.3702291,0.04322967,-0.6733243,-2.4399757,-0.83072186,-2.8710842,0.19743443,-3.5259247,0.031727552,0.0104397535
2.408968,29.913101,12.895203,15.923058,0.27466035,0.055224188,0.008909531,0.6153468,-0.8079816,-0.621824,-0.6897287,-0.5448518,0.65244895,0.23487605,1.1455134,-0.61675155,-1.6549222,-1.5336473,2.3759716,1.609084,-0.9155888,1.0954648,-0.550413,-1.6042144,-1.4768968,2.4229875,1.5482737,-0.9374943,1.1402755,-1.4470584,-1.1476675,-1.2218609,-0.75458086,0.4442204,0.15851165,0.69161654,-0.4429779,1.1990094,-2.860524,0.025366375,-2.45544,0.25309753,-0.36836243,0.8718476,0.6782407,-0.035532117,0.078143105,0.72980857,0.28458625,-0.5191056,-0.9766153,1.0,0.0,0.0,0.0,0.0,0.0,0.0,-1.3416165,0.0429779,-0.6490094,-3.3117294,-0.4438877,-0.12173653,0.121450424,-3.118515,0.237149,0.13354123
-0.6040077,30.488361,12.569955,16.710789,0.32846725,0.24493594,-0.027478255,0.5516991,-0.7997043,-0.6213705,-0.701664,-0.581821,0.6587576,0.30381283,1.1506348,-0.63038343,-1.6663514,-1.5470631,2.3648055,1.6141495,-0.907113,1.1063672,-0.56485164,-1.6156204,-1.4891877,2.4151902,1.5527445,-0.93585014,1.074445,-1.4431853,-1.1390918,-1.230901,-0.7888379,0.44788995,0.16635622,0.66303253,-0.44272614,1.1737369,-2.857664,0.025341013,-2.5511708,0.25587463,-0.37347412,0.8619962,0.67456985,-0.028780194,0.07651993,0.7336701,0.28020972,-0.49973342,-0.99316305,1.0,0.0,0.0,0.0,0.0,0.0,0.0,-1.3130325,0.04272613,-0.6237369,-6.284499,0.30462742,0.6142616,-0.7305145,-3.635335,0.30071735,0.7853508
-6.1875114,25.887154,8.840733,17.222652,0.7250962,0.27852333,-0.1393892,0.49306282,-0.8054307,-0.6590151,-0.71952456,-0.5723994,0.6379606,0.2911536,1.1556735,-0.6453947,-1.6815219,-1.5611402,2.3579502,1.6165406,-0.90673476,1.1164266,-0.5792674,-1.6271026,-1.5016484,2.4071412,1.5572344,-0.93413925,0.98405427,-1.4414275,-1.1520337,-1.2505744,-0.81115776,0.44897592,0.17268743,0.63447714,-0.44247437,1.1475079,-2.8548071,0.025315678,-2.646806,0.258523,-0.37849808,0.8519222,0.6709803,-0.02189135,0.075059526,0.73734134,0.26422426,-0.49526268,-1.017086,1.0,0.0,0.0,0.0,0.0,0.0,0.0,-1.2844771,0.04247436,-0.5975079,-8.693493,0.07941723,-1.557064,-1.7475128,-2.469492,0.0264287,0.62126815
-12.618034,24.32161,6.8648796,19.55057,1.0697244,0.5582824,-0.26682365,0.3963164,-0.79494715,-0.654849,-0.72142977,-0.59591305,0.6510442,0.30619687,1.1560582,-0.6587621,-1.6925875,-1.5737914,2.34755,1.6223388,-0.9035196,1.1252843,-0.59362304,-1.6387126,-1.514296,2.3988671,1.5617415,-0.93236065,0.85438174,-1.4339821,-1.1650859,-1.2687154,-0.83409184,0.45104435,0.17940833,0.60595036,-0.4422226,1.1203233,-2.851953,0.025290366,-2.7423456,0.26089,-0.3835411,0.8416247,0.66761166,-0.014838901,0.07376346,0.7406979,0.2314985,-0.49796385,-1.0386702,1.0,0.0,0.0,0.0,0.0,0.0,0.0,-1.2559503,0.04222259,-0.5703233,-12.546182,0.6353855,-1.5996695,-1.5623331,-2.5712252,0.14210343,0.6340176
-39.260036,11.011355,-4.5281353,28.484642,2.6816893,1.3934956,-0.78563553,0.090687074,-0.79026604,-0.6598705,-0.73242444,-0.61277574,0.65303195,0.32510376,1.134353,-0.6726496,-1.7046998,-1.5875385,2.3375895,1.6270447,-0.89985025,1.1316491,-0.6078919,-1.6504638,-1.5271249,2.3903565,1.5662714,-0.9305124,0.56625265,-1.4250861,-1.18,-1.286254,-0.85828817,0.45342195,0.18619378,0.5774522,-0.44197083,1.092184,-2.8491018,0.02526508,-2.8377895,0.26244926,-0.38891602,0.83111584,0.66494626,-0.0075895716,0.07263837,0.7433118,0.13394612,-0.5421657,-1.0593995,1.0,0.0,0.0,0.0,0.0,0.0,0.0,-1.2274522,0.04197082,-0.54218394,-28.08664,0.7133961,-1.9258261,-1.3488054,-2.855122,0.21001697,0.5480379
-74.83447,-7.4378185,-20.388409,39.19143,4.8498445,2.4033365,-1.4539512,-0.3009504,-0.7906079,-0.68115747,-0.75885546,-0.60983664,0.6175926,0.29679158,1.1015542,-0.6869527,-1.7185795,-1.6030104,2.329373,1.6280307,-0.90083325,1.1336328,-0.62209594,-1.662442,-1.5401902,2.3816476,1.5707918,-0.92862797,0.079402916,-1.4197704,-1.2056637,-1.3111552,-0.87738276,0.45145783,0.18841478,0.5489826,-0.44171906,1.0630908,-2.8462534,0.025239822,-2.933138,0.26240826,-0.39516068,0.8203602,0.66371596,-1.44011665e-05,0.0716374,0.74454623,-0.048043128,-0.64415354,-1.0851008,1.0,0.0,0.0,0.0,0.0,0.0,0.0,-1.1989826,0.04171905,-0.5130908,-47.559772,0.22964478,-3.1937838,-1.823473,-2.5841594,-0.2811849,0.0026106834
-74.21657,-2.9703531,-17.309458,38.037643,4.784935,2.6516988,-1.2945232,-0.42941558,-0.78835684,-0.6396033,-0.7921018,-0.55894303,0.57960886,0.38929918,1.0906912,-0.7009316,-1.7264023,-1.6194004,2.3257532,1.6287527,-0.889698,1.1307985,-0.63626087,-1.6744449,-1.5536084,2.37295,1.575257,-0.92665386,-0.40047425,-1.416574,-1.2007171,-1.3497663,-0.8699808,0.44409594,0.19991702,0.52054167,-0.4414673,1.0330449,-2.8434079,0.025214586,-3.0283911,0.26052523,-0.4023552,0.8093727,0.663986,0.007921388,0.07058371,0.74436396,-0.23468652,-0.735306,-1.1073157,1.0,0.0,0.0,0.0,0.0,0.0,0.0,-1.1705416,0.04146728,-0.48304492,-46.862354,-0.030183792,-0.16453266,-3.1215668,0.015246868,-0.9511173,1.0115743
-57.022472,9.938716,-6.6745563,32.38327,3.7546117,2.4868903,-0.8484541,-0.49799109,-0.7911421,-0.60579133,-0.7998503,-0.52370334,0.5583015,0.46899155,1.0809994,-0.71537507,-1.7350241,-1.6335934,2.3205798,1.6310871,-0.8797547,1.1239835,-0.65042293,-1.6861751,-1.5673928,2.3644738,1.5796324,-0.9245014,-0.77223206,-1.4170763,-1.1656882,-1.3857435,-0.84196824,0.43437684,0.22028548,0.49212933,-0.44121552,1.0020473,-2.8405652,0.025189377,-3.1235492,0.25704384,-0.41018677,0.7982268,0.665329,0.016129544,0.06927724,0.74315387,-0.3877921,-0.78923666,-1.1205583,1.0,0.0,0.0,0.0,0.0,0.0,0.0,-1.1421293,0.04121551,-0.4520473,-36.28763,-0.3680706,2.9430866,-2.938223,2.171564,-1.2250423,2.0208688
-38.779514,19.567427,1.2793326,25.809406,2.6503153,1.9924607,-0.49971598,-0.55385804,-0.79341805,-0.64702606,-0.7983632,-0.5360713,0.5614953,0.4939902,1.0685977,-0.72976476,-1.7508777,-1.6472292,2.3108666,1.6357819,-0.8751024,1.1144391,-0.6646069,-1.6977336,-1.5814424,2.3562455,1.5839182,-0.9221325,-1.0130287,-1.4197336,-1.1540363,-1.409608,-0.81786203,0.42583036,0.24267212,0.46374464,-0.44096375,0.9700988,-2.8377254,0.025164193,-3.218612,0.25236654,-0.4183426,0.7869379,0.6673152,0.024547063,0.06765304,0.74129003,-0.498022,-0.8146485,-1.1349447,1.0,0.0,0.0,0.0,0.0,0.0,0.0,-1.1137446,0.04096374,-0.42009878,-23.467243,-0.5194664,0.757432,-1.8435955,1.9175649,-1.1014044,2.2882314
-29.730612,22.987745,3.90025,22.107294,2.1807241,1.6216993,-0.3915884,-0.6458282,-0.7965964,-0.6986735,-0.79554886,-0.5179654,0.5453464,0.43619797,1.0498563,-0.74426657,-1.767601,-1.6609973,2.304449,1.6384529,-0.8785127,1.1030942,-0.67883193,-1.7094829,-1.5956235,2.3482728,1.5881163,-0.91959953,-1.173571,-1.424125,-1.1831155,-1.4194411,-0.79194415,0.41678205,0.25708738,0.43538857,-0.44071198,0.93720037,-2.8348885,0.025139034,-3.3135798,0.24676895,-0.42671204,0.7754606,0.6697463,0.033193048,0.06568884,0.7389337,-0.5852217,-0.8319996,-1.1549488,1.0,0.0,0.0,0.0,0.0,0.0,0.0,-1.0853885,0.04071197,-0.38720036,-15.600824,-0.6573677,-3.2065392,-0.4949808,2.175963,-1.1668563,1.5145898
-22.24302,27.921022,7.617263,19.702837,1.7815161,1.4811115,-0.28924537,-0.7117164,-0.79396117,-0.70668983,-0.7907649,-0.475033,0.5438277,0.40339825,1.0319226,-0.75822806,-1.7801518,-1.6747,2.3007696,1.6424991,-0.8792597,1.0905439,-0.6930808,-1.7216022,-1.6098142,2.3406358,1.5922323,-0.91696835,-1.2809325,-1.4257634,-1.2223864,-1.4176733,-0.75512314,0.40905473,0.2654409,0.4070611,-0.4404602,0.903353,-2.8320544,0.0251139,-3.4084527,0.24042368,-0.43516922,0.76379716,0.6725016,0.04204975,0.06334187,0.73618007,-0.65634954,-0.83796835,-1.1728835,1.0,0.0,0.0,0.0,0.0,0.0,0.0,-1.0570611,0.0404602,-0.35335296,-10.399866,-0.34804344,-4.143429,0.59826374,3.334725,-1.0139763,0.9278536
-15.961695,30.919424,10.262262,17.309328,1.4575092,1.3253248,-0.23042808,-0.74178535,-0.80142915,-0.72880775,-0.7873123,-0.4365697,0.5131869,0.2624492,1.0163653,-0.7732237,-1.794483,-1.6885453,2.2969787,1.643551,-0.8907234,1.0772477,-0.70736873,-1.7341659,-1.62394,2.3334336,1.5962588,-0.9143753,-1.3449955,-1.4303323,-1.2682008,-1.4096737,-0.7094202,0.39969116,0.25760487,0.37876177,-0.44020844,0.8685576,-2.8292227,0.02508879,-3.5032308,0.23347664,-0.4436264,0.7519489,0.6754981,0.05109908,0.060549937,0.73309267,-0.7132787,-0.83600265,-1.1913644,1.0,0.0,0.0,0.0,0.0,0.0,0.0,-1.0287617,0.04020843,-0.31855756,-6.1627626,-0.61080456,-4.737568,1.168108,4.289806,-1.1583626,-0.6750345
-12.259973,33.67135,12.678129,16.239452,1.3626101,1.3308097,-0.23347971,-0.7736779,-0.80675435,-0.7343771,-0.77841765,-0.34455732,0.48979062,0.027116705,0.99987996,-0.78804415,-1.8076036,-1.7017817,2.2989779,1.6452378,-0.91166365,1.0634748,-0.7217206,-1.7471149,-1.6379437,2.326899,1.6001841,-0.91204643,-1.3873739,-1.4372141,-1.3041369,-1.396194,-0.6357834,0.38935915,0.22515123,0.35049057,-0.43995667,0.83281505,-2.8263938,0.025063707,-3.597914,0.22600651,-0.4520378,0.7399446,0.6787259,0.0603045,0.05718192,0.72967434,-0.76429516,-0.8290723,-1.2059202,1.0,0.0,0.0,0.0,0.0,0.0,0.0,-1.0004905,0.03995666,-0.28281504,-4.0516615,-0.8239269,-3.7090302,1.6747713,7.1379304,-1.2335181,-3.1110973
-10.692139,37.440495,15.154353,16.956667,1.4473131,1.482193,-0.32604623,-0.80063236,-0.79922664,-0.73878914,-0.7497768,-0.21732563,0.50916564,-0.29580155,0.98341155,-0.80164325,-1.8209938,-1.7129214,2.3051665,1.6511006,-0.9416266,1.0493451,-0.7360953,-1.7603252,-1.6516976,2.3213944,1.6040312,-0.9102783,-1.4208891,-1.4379343,-1.326758,-1.3675253,-0.5229303,0.3824549,0.16116203,0.32224798,-0.4397049,0.7961264,-2.8235679,0.025038648,-3.6925025,0.21801901,-0.46037674,0.7278735,0.6822701,0.06956647,0.053076755,0.72584486,-0.81602097,-0.8197174,-1.2099403,1.0,0.0,0.0,0.0,0.0,0.0,0.0,-0.97224796,0.03970489,-0.24612641,-3.2045603,-0.19893646,-2.325654,3.1492949,11.112285,-0.86759925,-6.2460957
-9.586018,40.344147,17.171223,18.100594,1.6031005,1.6188382,-0.36311024,-0.812064,-0.7977686,-0.74247515,-0.70911723,-0.07756899,0.51963633,-0.41609907,0.96813875,-0.8158722,-1.8345727,-1.7226094,2.3136375,1.6559949,-0.9518882,1.0349504,-0.7504529,-1.7736747,-1.6650071,2.3172975,1.6078268,-0.9092121,-1.4452338,-1.4354273,-1.3376337,-1.3181143,-0.37236896,0.37818605,0.08902182,0.29403353,-0.43945312,0.75849265,-2.8207448,0.025013614,-3.7869966,0.20950031,-0.4686203,0.71584314,0.68619543,0.07876586,0.048073016,0.7215406,-0.86950916,-0.8111819,-1.2031512,1.0,0.0,0.0,0.0,0.0,0.0,0.0,-0.9440335,0.03945312,-0.20849264,-2.3248434,0.13165474,-1.0944605,5.183673,14.936501,-0.58667064,-7.0483727
-7.7373705,42.757744,18.55394,17.470173,1.5252293,1.6300235,-0.3476102,-0.8172361,-0.79194057,-0.7553661,-0.69503057,0.039981466,0.5301757,-0.48628464,0.95322675,-0.82964694,-1.8492113,-1.7345102,2.3212955,1.6608444,-0.95784056,1.0203801,-0.7647513,-1.7871215,-1.6778245,2.3148446,1.6115977,-0.9088602,-1.4605627,-1.428398,-1.3471391,-1.2688978,-0.20330715,0.37608463,0.01775434,0.2658472,-0.43920135,0.7199067,-2.8179245,0.024988607,-3.8824615,0.20047188,-0.47676468,0.70389044,0.6904972,0.08785442,0.04209073,0.71674514,-0.91958344,-0.8002169,-1.1951616,0.0,1.0,0.0,0.0,0.0,0.0,0.0,-0.9158472,0.03920135,-0.16990668,-1.4466524,0.59161186,-0.92892647,5.1386356,16.822916,-0.36749244,-6.9629235
-5.67728,46.014523,20.260527,16.105377,0.9056849,1.6764328,-0.30935544,-0.8279593,-0.77622634,-0.7601376,-0.67534435,-0.028432617,0.54936683,-0.49048093,0.9375842,-0.84237397,-1.8631353,-1.745359,2.3120012,1.6665343,-0.9579083,1.0056345,-0.7787686,-1.8018703,-1.6907473,2.310679,1.6162037,-0.9081818,-1.476949,-1.3964982,-1.491373,-1.2852519,-0.4255284,0.45803443,0.05520665,0.25088882,-0.4441223,0.72242135,-1.4033792,-0.5196555,0.7014475,0.19115114,-0.4843979,0.6915447,0.6947416,0.09680516,0.036835965,0.71176255,-0.9428346,-0.74242544,-1.2393217,0.0,1.0,0.0,0.0,0.0,0.0,0.0,-0.9008888,0.04412231,-0.17242134,-0.847888,1.4710665,-1.3117075,5.3758144,9.625441,-0.31794906,-6.60411
71.15861,176.0,110.0,95.0357,-6.199832,9.772152,-0.5507845,-0.72720766,0.45771277,0.7209813,0.75093794,-0.29378006,0.62589204,-0.37666807,0.9329138,-0.7329973,-1.7297722,-1.6156535,2.281301,1.6787928,-0.9458486,0.99568295,-0.7902289,-1.816803,-1.6929293,2.2972093,1.629784,-0.90587485,-0.83819103,-1.0619963,-1.486754,0.13237447,-1.650447,1.6652335,0.28467196,0.23686552,-0.44931412,0.7286861,-1.4019761,-0.519136,0.601495,0.18209839,-0.48996353,0.68327326,0.69931865,0.096730545,0.036922675,0.7072717,-0.8969312,-0.4787278,-0.69053286,1.0,0.0,0.0,0.0,0.0,0.0,0.0,-0.8868655,0.04931411,-0.17868608,62.780357,33.623672,2.6443958,140.22472,-121.308754,122.84434,21.612507
19.179474,159.4883,106.73108,93.52571,0.5471324,7.3128657,-0.5653837,-0.7936016,-0.5291676,0.48466295,0.78541654,-0.5743882,0.52853674,-0.33311084,0.9163228,-0.84314567,-1.7683367,-1.6143876,2.2397704,1.6826377,-0.9391859,0.98744893,-0.7996684,-1.8254814,-1.6845522,2.2798028,1.6464351,-0.90334,-0.81867903,-0.9057897,-0.6585244,1.0714387,-1.7748796,1.6708235,0.24332634,0.22285652,-0.4545021,0.7339521,-1.4005743,-0.518617,0.5016425,0.17299461,-0.4939804,0.6805343,0.7045209,0.0889093,0.039853714,0.70296305,-0.9159311,-0.3659189,-0.13846569,1.0,0.0,0.0,0.0,0.0,0.0,0.0,-0.8728565,0.0545021,-0.1839521,1.8927813,15.255367,83.7251,93.49817,-13.593936,2.2931337,-4.046142
-14.111064,118.07418,66.6051,70.41087,2.4749727,4.938894,-0.8952331,-0.77708334,-0.38770822,0.02949566,0.7357612,-0.63685805,0.6251085,-0.2260018,0.90974057,-0.83843917,-1.8225318,-1.6109761,2.216117,1.708946,-0.92594016,0.9782574,-0.80755335,-1.8280106,-1.6698084,2.262919,1.6622299,-0.9013001,-0.9509837,-0.7505993,-0.11800667,1.6094345,-1.6635232,1.5523325,0.19167833,0.20886135,-0.45968246,0.73822033,-1.399174,-0.5180984,0.40188983,0.16330242,-0.49736023,0.6817665,0.71057713,0.077148855,0.043441642,0.6980265,-0.9872322,-0.32131246,0.2047825,1.0,0.0,0.0,0.0,0.0,0.0,0.0,-0.8588613,0.05968246,-0.18822032,-12.723219,15.1582,53.990753,53.98445,10.002565,-10.905361,-4.9085083
-14.194496,115.22402,59.69584,47.051285,1.2993335,3.9370365,-0.5187102,-0.79662573,-0.19044715,0.2825294,0.77067816,-0.6122504,0.57283056,-0.13614208,0.89859486,-0.82659805,-1.7997576,-1.5927405,2.201694,1.7195129,-0.91491425,0.9671967,-0.81349,-1.8256073,-1.6522932,2.248053,1.6764644,-0.8997389,-1.1563052,-0.54241544,0.358727,1.7993109,-1.4312329,1.3830026,0.14478278,0.19488001,-0.464859,0.74149173,-1.397775,-0.51758045,0.30223686,0.15307474,-0.4999962,0.6856861,0.7171623,0.06350005,0.047119528,0.69240576,-1.03671,-0.23807885,0.44793478,1.0,0.0,0.0,0.0,0.0,0.0,0.0,-0.84488,0.064859,-0.19149172,-20.09368,20.500029,47.31127,19.13712,22.179556,-16.242195,-4.5522184
-30.521858,50.901176,16.49322,24.166046,2.3307076,1.5623342,-0.557894,-0.8065411,-0.35714507,0.058829594,0.75837725,-0.61970854,0.6012415,-0.25393015,0.8865426,-0.8492045,-1.8197243,-1.5764555,2.1860821,1.7365886,-0.9251319,0.95427823,-0.8185225,-1.8210964,-1.6346102,2.2354188,1.6891006,-0.89868224,-1.3363314,-0.49051428,0.4807576,1.7583468,-1.2087017,1.2250552,0.09300463,0.18091297,-0.47003174,0.7437674,-1.3963776,-0.51706296,0.2026835,0.14219856,-0.50239563,0.6904038,0.72416234,0.04997586,0.050304774,0.6859742,-1.1077714,-0.23272721,0.4738644,1.0,0.0,0.0,0.0,0.0,0.0,0.0,-0.83091295,0.07003173,-0.19376737,-17.76638,5.102277,11.876363,-3.9777517,21.98987,-15.445209,-5.052531
-22.62015,28.800392,4.7387013,10.414522,1.6250548,0.3603613,-0.29053703,-0.79521626,-0.3592307,0.12827314,0.7610405,-0.62128806,0.6010803,-0.28258637,0.8747566,-0.8544456,-1.8082691,-1.5585061,2.17329,1.7492087,-0.92694086,0.94009423,-0.8235541,-1.8163261,-1.6180582,2.2245889,1.7003158,-0.89811766,-1.4456421,-0.5074169,0.4751772,1.6210353,-1.0417904,1.087796,0.044475194,0.16695976,-0.47519684,0.7450483,-1.3949815,-0.516546,0.1032297,0.13083172,-0.50483704,0.6947448,0.73138314,0.037631594,0.052796423,0.67887783,-1.1503295,-0.2393152,0.41588166,1.0,0.0,0.0,0.0,0.0,0.0,0.0,-0.81695974,0.07519683,-0.19504827,-10.873747,-1.708883,-0.7218778,-13.71417,16.583084,-13.493276,-4.795035
-13.547581,22.059517,2.5331235,5.296587,1.0142231,-0.2180422,-0.10877836,-0.7958712,-0.35697144,0.16082649,0.7651502,-0.6202522,0.5887618,-0.24519259,0.86050713,-0.85925126,-1.8002435,-1.5415432,2.1625636,1.759192,-0.9226369,0.925298,-0.8289805,-1.8120079,-1.6029043,2.2149606,1.7103142,-0.8979584,-1.4910343,-0.5543959,0.41716552,1.4801646,-0.9368579,0.9713164,0.006412969,0.15302038,-0.48035812,0.74533534,-1.3935869,-0.5160296,0.003875336,0.119223595,-0.5073662,0.6983194,0.7386288,0.026695628,0.054701485,0.67135876,-1.1681468,-0.24853846,0.33375207,1.0,0.0,0.0,0.0,0.0,0.0,0.0,-0.80302036,0.08035812,-0.19533533,-4.551697,-4.7009587,-5.865711,-14.096165,10.398376,-11.45693,-3.7862606
-10.982502,14.141323,-1.7373933,4.6868505,1.0210791,-0.62528723,-0.11966843,-0.79083943,-0.3994665,0.07361938,0.760783,-0.6176282,0.59793323,-0.23869103,0.84621406,-0.8689272,-1.804646,-1.526826,2.1531978,1.7701075,-0.9218275,0.91040254,-0.8350745,-1.8087444,-1.5888815,2.2060113,1.7193016,-0.8981234,-1.4889953,-0.62779653,0.29591608,1.376499,-0.88085306,0.8751687,-0.024127237,0.13909483,-0.4855156,0.7446296,-1.3921937,-0.51551366,-0.095379695,0.10747385,-0.51010895,0.7009473,0.74587774,0.017187906,0.056161348,0.66348845,-1.1807601,-0.27358788,0.23553754,1.0,0.0,0.0,0.0,0.0,0.0,0.0,-0.7890948,0.08551559,-0.19462961,0.19040108,-7.3258877,-12.15477,-10.341716,5.5631638,-9.476733,-3.0374663
-9.769587,14.536552,-1.2575659,7.211625,1.0745554,-0.647025,-0.16783239,-0.7862049,-0.4260988,0.025525318,0.7676961,-0.61927325,0.5933962,-0.24090157,0.83178204,-0.87768435,-1.8061919,-1.5121119,2.144084,1.7786412,-0.92221355,0.89571214,-0.8419257,-1.8067989,-1.5754919,2.1973672,1.7274517,-0.8985535,-1.4623599,-0.7041013,0.16055153,1.3266248,-0.85907453,0.7953524,-0.049177166,0.1251831,-0.49066544,0.7429321,-1.3908017,-0.51499826,-0.19453548,0.09559536,-0.5131264,0.70266277,0.7531782,0.0089466125,0.057330027,0.6552525,-1.1937293,-0.3030247,0.14692055,0.0,1.0,0.0,0.0,0.0,0.0,0.0,-0.7751831,0.09066543,-0.19293207,2.67694,-7.6239467,-13.554251,-4.9094915,2.150631,-7.873678,-2.4864316
-10.459305,19.425909,1.0392704,10.385035,1.1661996,-0.47737098,-0.23343493,-0.78801215,-0.43633676,-0.027924838,0.7671116,-0.59123856,0.5844106,-0.23739363,0.8169109,-0.8855594,-1.8095914,-1.4987807,2.1382434,1.7858927,-0.9222928,0.8813069,-0.849413,-1.8061829,-1.5623045,2.1888795,1.7349018,-0.8991972,-1.4330912,-0.7636415,0.028661193,1.3164278,-0.8451425,0.7286668,-0.06934036,0.11128569,-0.49581146,0.7402408,-1.3894111,-0.5144834,-0.29398587,0.08355236,-0.5164223,0.7036191,0.760591,0.0017589288,0.058342982,0.6466022,-1.2113082,-0.32977852,0.07542195,0.0,1.0,0.0,0.0,0.0,0.0,0.0,-0.76128566,0.09581146,-0.1902408,2.9692888,-5.967474,-13.210789,-0.8966446,1.3624787,-6.577122,-2.000483
-8.542027,25.711414,6.024517,12.361437,1.1353197,-0.17405492,-0.19083706,-0.7783751,-0.47401425,-0.015020143,0.77061975,-0.5612017,0.58526045,-0.26048028,0.80346936,-0.8968144,-1.8076849,-1.4852425,2.1327593,1.7934278,-0.9252452,0.8671868,-0.85747534,-1.8064766,-1.549037,2.1805558,1.741774,-0.90003073,-1.4048481,-0.82048297,-0.048756626,1.3307127,-0.8283025,0.6737329,-0.088007435,0.097402096,-0.5009537,0.7365558,-1.388022,-0.513969,-0.39333686,0.07132578,-0.51989746,0.70403373,0.7680936,-0.0046867398,0.05920087,0.6375778,-1.2296745,-0.34493926,0.026960274,0.0,1.0,0.0,0.0,0.0,0.0,0.0,-0.7474021,0.10095367,-0.1865558,2.8794289,-5.7229757,-7.736181,1.5638828,1.597786,-5.4109693,-1.8448263
-5.610093,31.730244,10.520253,12.489242,0.9161552,0.044712067,-0.11414899,-0.76355535,-0.49938175,-0.017608697,0.7632914,-0.55252856,0.5977248,-0.28866318,0.79083127,-0.90741354,-1.8082374,-1.4727079,2.125303,1.8015465,-0.928897,0.8533509,-0.8660557,-1.807249,-1.5356243,2.1723154,1.7480527,-0.9011103,-1.3734987,-0.8697798,-0.10276302,1.3387982,-0.84777087,0.57661366,-0.1319592,0.08280039,-0.5054207,0.7334796,-1.6918705,-0.21716055,0.30236056,0.05898094,-0.5234413,0.7040632,0.77562827,-0.010571817,0.059936035,0.6282489,-1.2312899,-0.35270804,-0.014858934,0.0,1.0,0.0,0.0,0.0,0.0,0.0,-0.73280036,0.10542068,-0.1834796,3.5724163,-4.8548937,-7.545237,0.07433891,-5.572164,-14.955008,-6.9217725
1.8513179,86.804344,34.011192,18.529144,-0.70853955,0.67191124,-0.20905578,-0.7909397,-0.13934895,-0.056626387,0.78887844,-0.5652529,0.5965144,-0.28868303,0.7742569,-0.87999064,-1.8129116,-1.4567364,2.1157901,1.8077042,-0.9299786,0.8396151,-0.8732989,-1.8084639,-1.522023,2.1638734,1.7535573,-0.90256083,-1.3737481,-0.67643017,-0.1277604,1.3670317,-0.8437568,0.5426854,-0.1500311,0.06589413,-0.50758743,0.7357536,-1.6901789,-0.21694344,0.20241337,0.046915054,-0.5265503,0.7043886,0.7832286,-0.015983623,0.061589677,0.6184692,-1.2016873,-0.28739363,0.04488783,0.0,1.0,0.0,0.0,0.0,0.0,0.0,-0.7158941,0.10758743,-0.18575358,-0.03783703,19.159626,-2.489178,2.785015,0.092458725,-3.116691,-2.014047
-8.591508,75.02333,24.066761,19.535675,-0.08047232,0.43963194,-0.4068983,-0.8016429,-0.18556958,-0.23897274,0.7940914,-0.55867916,0.5891945,-0.2990793,0.7594508,-0.89185584,-1.8323612,-1.4426138,2.1080055,1.8124768,-0.9324688,0.82575345,-0.8786881,-1.8106612,-1.5081508,2.155481,1.7587739,-0.90417254,-1.3902745,-0.493642,-0.25049517,1.3940601,-0.83813727,0.5153308,-0.16549127,0.04900503,-0.5097542,0.73702884,-1.6884891,-0.21672654,0.1025661,0.034977913,-0.52918625,0.7050842,0.79098684,-0.020993311,0.06433059,0.6080795,-1.1939081,-0.24619843,0.074855186,0.0,1.0,0.0,0.0,0.0,0.0,0.0,-0.699005,0.109754175,-0.18702883,-1.6294241,18.123692,-12.316426,2.7270317,0.3789425,-2.5595427,-1.73513
-12.9904995,65.56011,17.815887,18.679863,0.20413858,0.2902454,-0.43203497,-0.799873,-0.14895013,-0.34502137,0.7910721,-0.5787231,0.60483384,-0.2741453,0.74576616,-0.8935831,-1.8451633,-1.4290437,2.0976088,1.8192573,-0.9315871,0.8117087,-0.88242936,-1.8144683,-1.4940727,2.1471345,1.7638055,-0.9058806,-1.4090936,-0.334676,-0.42400897,1.4126996,-0.8342367,0.49952915,-0.1731953,0.032133102,-0.5119209,0.7373063,-1.686801,-0.21650986,0.002818657,0.023033142,-0.53150177,0.7058978,0.7989639,-0.025345953,0.06810291,0.5969726,-1.1968963,-0.21801877,0.08139246,0.0,1.0,0.0,0.0,0.0,0.0,0.0,-0.6821331,0.11192092,-0.18730628,-1.8479824,15.751802,-17.39527,1.8986702,0.2679944,-1.4903247,-0.9582579
-16.400412,47.172253,9.629304,16.526798,0.7093085,0.12589616,-0.39237875,-0.7998456,-0.17481151,-0.4147463,0.79286957,-0.57731766,0.62056565,-0.29405567,0.73172414,-0.8999105,-1.8559428,-1.4147857,2.0894027,1.825862,-0.93528616,0.7975104,-0.8851874,-1.8200759,-1.4798687,2.1388185,1.7687188,-0.9076611,-1.423185,-0.25647074,-0.60652775,1.4233366,-0.83054376,0.4884987,-0.18018833,0.015277386,-0.5140877,0.73658705,-1.6851145,-0.2162934,-0.09682906,0.010932922,-0.5336914,0.70653,0.8071368,-0.02890311,0.07260016,0.5851701,-1.2163217,-0.20948328,0.05544276,0.0,1.0,0.0,0.0,0.0,0.0,0.0,-0.66527736,0.11408767,-0.18658704,-1.3446093,7.705796,-18.278622,1.1343718,0.3045678,-1.0984063,-0.84858835
-14.958582,39.460033,8.032859,14.713163,0.8417234,0.13886124,-0.26893574,-0.7977553,-0.16887932,-0.4472561,0.7952642,-0.57620037,0.6335849,-0.28148717,0.7177349,-0.9020753,-1.8648015,-1.4003422,2.0811985,1.8320774,-0.9358098,0.7832317,-0.8875642,-1.8272713,-1.4656104,2.130599,1.7736666,-0.9094569,-1.4289997,-0.23160703,-0.75982267,1.4257777,-0.8151935,0.5058227,-0.17737421,-0.00089883804,-0.5162735,0.73592585,-1.5466356,-0.21940458,0.032964613,-0.0014104843,-0.53580856,0.70681477,0.81539965,-0.03174427,0.07747862,0.5728111,-1.2432792,-0.20284076,0.017189227,0.0,1.0,0.0,0.0,0.0,0.0,0.0,-0.64910114,0.11627349,-0.18592584,-0.46069622,2.4353118,-16.038036,0.066781044,2.7165651,4.1809263,0.84679425
-11.832516,37.052353,10.013844,13.657417,0.9732894,0.30033493,-0.14162557,-0.7995118,-0.18630742,-0.43028745,0.79770625,-0.5331101,0.6339189,-0.33200657,0.7032805,-0.9061949,-1.8703,-1.3858397,2.077288,1.8370585,-0.9426576,0.7689256,-0.8900342,-1.8354253,-1.4513453,2.1225848,1.7786908,-0.9112904,-1.4310157,-0.25249115,-0.8334438,1.4270623,-0.79712075,0.5011317,-0.18559743,-0.016391277,-0.51836014,0.73605865,-1.5494374,-0.20544384,0.0054407655,-0.01401186,-0.5378418,0.70675623,0.8236274,-0.034088694,0.082404085,0.56007624,-1.267283,-0.19307846,-0.014579811,0.0,1.0,0.0,0.0,0.0,0.0,0.0,-0.6336087,0.11836013,-0.18605864,-0.16269684,-2.1942139,-7.2680235,0.21026134,1.7048717,-0.4913926,-0.8982301
-6.1770053,44.986885,16.411175,13.183828,0.72215116,0.5220853,0.003048364,-0.7996927,-0.16519834,-0.39751372,0.79709244,-0.5188994,0.6247137,-0.32157338,0.6889563,-0.90655404,-1.8751767,-1.371636,2.070695,1.8411622,-0.94344777,0.75461763,-0.892715,-1.8437451,-1.4370881,2.11478,1.7836673,-0.9131929,-1.4307963,-0.27368775,-0.83081615,1.4253789,-0.7757268,0.49628097,-0.19205679,-0.031850338,-0.5202637,0.7360808,-1.5446839,-0.1852742,0.0003654043,-0.026762009,-0.5396614,0.70654017,0.8316866,-0.036184188,0.08725018,0.547152,-1.27906,-0.16759005,-0.02494061,0.0,1.0,0.0,0.0,0.0,0.0,0.0,-0.61814964,0.120263666,-0.18608081,0.004863739,-2.2450268,0.44425726,-0.13275146,1.9222379,-0.5283117,-0.72808266
-0.73865557,51.914696,21.939476,12.86282,0.5353175,0.67321664,0.11792372,-0.79330724,-0.1750753,-0.34551302,0.79768616,-0.50459707,0.6293254,-0.33668295,0.6752869,-0.91022253,-1.8782964,-1.3573195,2.0643203,1.8465998,-0.9468612,0.7403478,-0.89563036,-1.8515443,-1.4228498,2.1071925,1.7885972,-0.9151642,-1.426011,-0.29787645,-0.7619927,1.4232225,-0.7540348,0.49187553,-0.1991073,-0.047222614,-0.52192307,0.7361901,-1.534743,-0.15943252,0.013666986,-0.0395422,-0.5411377,0.70635396,0.8394577,-0.038312122,0.09194178,0.5342187,-1.2788224,-0.13047922,-0.017523218,0.0,1.0,0.0,0.0,0.0,0.0,0.0,-0.60277736,0.12192306,-0.18619007,0.4133463,-2.5546849,7.1363926,-0.22008419,1.8772125,-0.46169758,-0.7791549
-0.37288427,52.16148,21.857304,12.769573,0.55032426,0.6315854,0.12990382,-0.7920771,-0.18866773,-0.3528236,0.79763573,-0.49494648,0.6154637,-0.30881816,0.6611401,-0.91449714,-1.8868266,-1.3430862,2.0576978,1.8501436,-0.946046,0.7261314,-0.89879555,-1.8586453,-1.4086324,2.099811,1.79348,-0.9171774,-1.4203563,-0.32314888,-0.6919409,1.4213305,-0.7339258,0.48699734,-0.20230167,-0.062488556,-0.52332306,0.73642486,-1.5238769,-0.13352855,0.026168263,-0.05230999,-0.5422516,0.706239,0.84691,-0.040549148,0.0964578,0.5213396,-1.2770219,-0.09430246,-0.010560447,0.0,1.0,0.0,0.0,0.0,0.0,0.0,-0.5875114,0.12332305,-0.18642485,0.5031109,-2.6588917,7.2563767,-0.19109249,1.7233133,-0.5010724,-0.3884524
-0.24767303,52.13921,21.955841,12.969253,0.6816808,0.611104,0.13982578,-0.79113734,-0.21665643,-0.30489972,0.7964994,-0.4624943,0.60077167,-0.29702026,0.64701766,-0.9204612,-1.8891352,-1.3289825,2.0535617,1.8535572,-0.9468794,0.71196645,-0.9022822,-1.8649569,-1.3944341,2.0926852,1.7983091,-0.9192058,-1.4153922,-0.3576686,-0.6101287,1.4194577,-0.7066595,0.48144856,-0.20320411,-0.07764435,-0.52446365,0.73677367,-1.512849,-0.107603215,0.03717098,-0.06507301,-0.5430145,0.7061908,0.8540439,-0.04293314,0.10072555,0.50854707,-1.2766063,-0.059505764,-0.004099073,0.0,1.0,0.0,0.0,0.0,0.0,0.0,-0.5723556,0.12446365,-0.18677366,0.4389763,-3.579706,8.436119,-0.1794815,2.43783,-0.5667865,-0.14330149
-0.81506205,54.84437,21.96754,13.344723,0.5996187,0.5583276,0.11765202,-0.79049945,-0.20126235,-0.29865015,0.7952741,-0.46963486,0.59335315,-0.27183095,0.6329165,-0.9224084,-1.8948219,-1.3149067,2.0457218,1.8576444,-0.9463889,0.69784063,-0.9059767,-1.8706052,-1.3802549,2.0857692,1.8030834,-0.92121994,-1.4118274,-0.37385914,-0.5490686,1.4175018,-0.6874108,0.47607285,-0.20103812,-0.09267855,-0.5253372,0.7372409,-1.5002638,-0.080873944,0.04918227,-0.07780886,-0.5434265,0.7062134,0.8608763,-0.04542417,0.104828976,0.49582207,-1.2730887,-0.02399149,0.0030647733,0.0,1.0,0.0,0.0,0.0,0.0,0.0,-0.5573214,0.12533721,-0.1872409,0.30527115,-1.7500997,6.342578,-0.19030571,1.6458511,-0.5371392,0.14910996
-4.4168425,49.714573,17.668648,13.362663,0.68710124,0.38395077,0.054664873,-0.78949165,-0.22109745,-0.33254772,0.7973274,-0.48059085,0.57467055,-0.23977484,0.6188915,-0.92808646,-1.90386,-1.3005221,2.0377102,1.8605505,-0.9451974,0.68374246,-0.909841,-1.876009,-1.3660775,2.0789602,1.8077927,-0.9231882,-1.4091904,-0.39108926,-0.536905,1.417967,-0.6794368,0.469084,-0.19560558,-0.10760689,-0.5259743,0.7377141,-1.4903514,-0.05806591,0.046353552,-0.09056139,-0.54354095,0.7061998,0.8674624,-0.047845695,0.10886811,0.48308107,-1.2759433,0.0028534243,-0.0041945353,0.0,1.0,0.0,0.0,0.0,0.0,0.0,-0.5423931,0.12597427,-0.1877141,0.24428368,-1.8410921,1.3999939,0.083994865,0.5794883,-0.700891,0.47669113
-5.749988,50.188683,16.513092,13.53328,0.6273697,0.30461872,0.034936417,-0.78776324,-0.21265212,-0.3433674,0.79681164,-0.48834944,0.5704768,-0.19371454,0.60496616,-0.9311062,-1.9103457,-1.2863964,2.0301251,1.8648404,-0.94255966,0.66966814,-0.91378444,-1.8815157,-1.3518926,2.0721664,1.8124335,-0.925069,-1.4067843,-0.39578933,-0.5548224,1.4188372,-0.6800018,0.46237713,-0.1858638,-0.12243271,-0.52638626,0.7381381,-1.480021,-0.03569064,0.04048673,-0.103337765,-0.5433922,0.70608616,0.8738322,-0.050051935,0.112959474,0.47026813,-1.2781968,0.028174283,-0.015158615,0.0,1.0,0.0,0.0,0.0,0.0,0.0,-0.52756727,0.12638626,-0.18813807,0.22852421,-0.5898237,-1.6276121,0.1288414,-0.2554059,-0.67154765,0.89331865
-8.661306,44.121,12.600693,13.182618,0.7695547,0.17521912,-0.010368589,-0.7864628,-0.23993188,-0.38276407,0.7966074,-0.47622392,0.56529236,-0.18739623,0.59102184,-0.93777764,-1.9197922,-1.2722318,2.024544,1.8689628,-0.9438086,0.65561765,-0.91785663,-1.8874495,-1.3376962,2.0653777,1.8170052,-0.9268534,-1.4043708,-0.4115025,-0.60582215,1.4201003,-0.67881596,0.4553244,-0.17623766,-0.13718033,-0.5266075,0.73839164,-1.4730222,-0.01727205,0.019883664,-0.11619806,-0.5430603,0.70575905,0.88002765,-0.05189799,0.11710807,0.4573222,-1.2884469,0.045782924,-0.039953146,0.0,1.0,0.0,0.0,0.0,0.0,0.0,-0.51281965,0.12660751,-0.18839163,0.253129,-1.6794086,-4.971206,0.19834042,-0.034475327,-0.7258594,0.8909017
-6.902153,50.41842,15.042514,13.472425,0.6014628,0.18868583,0.02096542,-0.78038716,-0.20921975,-0.3916847,0.79808336,-0.48049667,0.55274904,-0.12972674,0.57757896,-0.93877864,-1.926618,-1.2578878,2.017328,1.8722801,-0.9398261,0.64161295,-0.9219231,-1.8939097,-1.3234845,2.0585916,1.8215067,-0.9285071,-1.3991492,-0.40541506,-0.65883225,1.4216061,-0.6791215,0.44834036,-0.16207784,-0.15182734,-0.52661896,0.73851395,-1.4619596,0.004198431,0.009358945,-0.12910223,-0.542511,0.70524955,0.8860367,-0.053348996,0.12138779,0.44424978,-1.2905171,0.068330854,-0.05594932,0.0,1.0,0.0,0.0,0.0,0.0,0.0,-0.49817264,0.12661895,-0.18851393,0.51374435,0.48345327,-5.144739,0.19507408,-0.2179265,-0.7224083,1.3170272
-8.008849,50.282616,14.18371,13.463716,0.5826993,0.16278374,0.017510697,-0.7823565,-0.21002667,-0.4398199,0.79464453,-0.48915437,0.55427015,-0.10101085,0.5633773,-0.94292575,-1.9378917,-1.2440201,2.0096762,1.8769338,-0.93860817,0.62764543,-0.92589897,-1.9010127,-1.3092767,2.0517786,1.8259453,-0.9300082,-1.395985,-0.3953797,-0.72690564,1.4205911,-0.68285376,0.44219252,-0.14647655,-0.16636276,-0.5264206,0.73850846,-1.4506654,0.025309708,-0.003742434,-0.14203167,-0.54174423,0.7045578,0.891853,-0.054350622,0.12586045,0.4310492,-1.2930309,0.09031053,-0.07485149,0.0,1.0,0.0,0.0,0.0,0.0,0.0,-0.4836372,0.12642059,-0.18850845,0.31039715,0.8736253,-6.6512346,-0.055336952,-0.558877,-0.6530583,1.4499724
-9.204563,51.017735,13.630927,13.777403,0.594962,0.13449174,0.011170765,-0.78254265,-0.19806775,-0.4956154,0.7953796,-0.4842897,0.5348426,-0.048882324,0.54939115,-0.9457058,-1.9505742,-1.2297387,2.0033495,1.8794296,-0.9348964,0.613697,-0.92972034,-1.9089186,-1.2950803,2.0449426,1.8303149,-0.93132895,-1.3945224,-0.3781574,-0.8113799,1.4194791,-0.6845642,0.43478405,-0.12761009,-0.1807828,-0.52601624,0.73836803,-1.4390222,0.046311766,-0.017603252,-0.15499496,-0.5407562,0.7036692,0.897481,-0.054826196,0.1305654,0.41770154,-1.2964694,0.11189173,-0.09467254,0.0,1.0,0.0,0.0,0.0,0.0,0.0,-0.46921718,0.12601623,-0.18836802,0.14338493,1.5840888,-8.290207,-0.06456375,-0.34815073,-0.82558393,1.774171
-7.3832283,52.444412,14.626315,13.529126,0.59709215,0.13306993,0.037987396,-0.7708316,-0.19746642,-0.515661,0.79933494,-0.47008085,0.54160297,-0.026199825,0.5366138,-0.949467,-1.9604847,-1.2151468,1.9979346,1.8844752,-0.93394893,0.5998067,-0.9333901,-1.9175949,-1.280878,2.0381372,1.83462,-0.93245924,-1.3871942,-0.3637829,-0.88562816,1.4207553,-0.679603,0.4288122,-0.10857372,-0.1950736,-0.52539825,0.73810256,-1.4255266,0.06778228,-0.028978031,-0.16797352,-0.53954315,0.702604,0.902905,-0.054797396,0.1354717,0.4042365,-1.2971783,0.13411207,-0.111426376,0.0,1.0,0.0,0.0,0.0,0.0,0.0,-0.45492637,0.12539825,-0.18810254,0.71413517,1.2943268,-7.2337627,0.15799999,0.2919674,-0.7037461,1.7856985
-8.305462,50.18283,13.600908,13.365123,0.6445768,0.14784437,0.054216027,-0.773906,-0.2087395,-0.5517931,0.7986262,-0.49046054,0.5440652,0.018037627,0.5224161,-0.95426404,-1.9727743,-1.2010154,1.9890912,1.8890265,-0.9306555,0.58597076,-0.9370102,-1.9269693,-1.2666605,2.0313272,1.8388729,-0.9333846,-1.3824478,-0.36187294,-0.95408237,1.4221553,-0.68228674,0.42363966,-0.08762535,-0.20923471,-0.5245743,0.7376855,-1.4126366,0.08824883,-0.044932876,-0.18098164,-0.5381279,0.70134294,0.90811175,-0.05428314,0.1405393,0.3906852,-1.3004075,0.15589137,-0.13187376,0.0,1.0,0.0,0.0,0.0,0.0,0.0,-0.44076526,0.124574274,-0.18768549,0.45919418,0.047826767,-6.641054,0.18265247,-0.47864914,-0.6262541,1.978302
-8.9627905,45.105583,11.653592,12.464287,0.7248728,0.12108171,0.08424276,-0.7720786,-0.23625976,-0.5833226,0.7933426,-0.48958623,0.5285322,0.078084216,0.5087629,-0.9606362,-1.9853015,-1.1873262,1.9823686,1.8917261,-0.92557615,0.5721749,-0.9407801,-1.936973,-1.252453,2.0244832,1.8430651,-0.9340762,-1.3785744,-0.3823827,-1.0149509,1.4204041,-0.68592024,0.4173018,-0.063288294,-0.22328329,-0.5235634,0.7370306,-1.4019654,0.105927095,-0.07131549,-0.19405508,-0.53650665,0.69981223,0.9130949,-0.053272124,0.14567149,0.37709355,-1.3080631,0.17484038,-0.16082285,0.0,1.0,0.0,0.0,0.0,0.0,0.0,-0.4267167,0.12356338,-0.18703061,0.37956238,-2.1838784,-5.8814287,-0.10912418,-0.5685568,-0.7437408,2.3320527
-6.7850494,49.688107,13.894514,12.372232,0.6225657,0.18317437,0.13073052,-0.76675844,-0.22172716,-0.59379375,0.7902053,-0.4997759,0.5300475,0.11937331,0.49549907,-0.9629528,-1.9963523,-1.1734325,1.9745057,1.8960699,-0.92213887,0.55842763,-0.9446997,-1.9474496,-1.238285,2.017577,1.8472018,-0.9345141,-1.3735183,-0.3956557,-1.0576906,1.41577,-0.69308114,0.41194206,-0.03761501,-0.23719597,-0.52236557,0.7361634,-1.3871043,0.12560561,-0.090041295,-0.20715141,-0.53466415,0.69804806,0.91782415,-0.051816665,0.15085877,0.36353186,-1.3082405,0.19805641,-0.18232903,0.0,1.0,0.0,0.0,0.0,0.0,0.0,-0.412804,0.122365564,-0.18616337,0.47073364,-1.4717162,-4.019046,-0.42450428,-0.966382,-0.66274405,2.4567611
-5.6429195,51.198143,14.735793,12.3412075,0.61846346,0.20973295,0.14596623,-0.76132745,-0.23353298,-0.60844105,0.7934252,-0.5089617,0.53770155,0.13623552,0.4822949,-0.968053,-2.0082936,-1.1589425,1.9666808,1.900972,-0.92089057,0.54474527,-0.9487681,-1.9582545,-1.2241455,2.0105798,1.8512967,-0.934707,-1.3666008,-0.4111033,-1.0873449,1.413372,-0.7027925,0.4080992,-0.013466725,-0.2509451,-0.5209694,0.7351272,-1.3702362,0.14558975,-0.10649906,-0.22022867,-0.5325813,0.6960921,0.9222827,-0.049980745,0.15609936,0.35004196,-1.3055928,0.22246866,-0.20080532,0.0,1.0,0.0,0.0,0.0,0.0,0.0,-0.39905488,0.120969385,-0.1851272,0.6436825,-1.6926765,-2.6806593,-0.20916462,-1.2457132,-0.5101085,2.300561
-8.001497,45.41951,11.970755,11.936434,0.7127755,0.17780995,0.14779718,-0.7655086,-0.27304816,-0.64049894,0.79161245,-0.53019893,0.52719086,0.2041292,0.4681944,-0.9760729,-2.0223043,-1.1449842,1.95756,1.9040158,-0.91429406,0.5311009,-0.95313686,-1.9693813,-1.2100252,2.0034263,1.8553455,-0.9346339,-1.3638272,-0.4459227,-1.1203381,1.4118128,-0.7198736,0.40346158,0.013911414,-0.26455307,-0.5193939,0.73382974,-1.3569876,0.16236123,-0.13525394,-0.23333502,-0.53028107,0.6938741,0.92648035,-0.047734194,0.16134444,0.33663568,-1.3100281,0.24389312,-0.22950767,0.0,1.0,0.0,0.0,0.0,0.0,0.0,-0.3854469,0.119393915,-0.18382972,0.25248528,-3.6200345,-3.038144,-0.082206726,-1.9576788,-0.58870316,2.6421542
-10.927091,41.058395,9.503728,11.740153,0.7899634,0.16947907,0.1432201,-0.77340525,-0.2999679,-0.6713173,0.78534156,-0.5458958,0.51104736,0.2619722,0.4537604,-0.9831337,-2.036513,-1.1314911,1.9488367,1.9064503,-0.9084367,0.51743084,-0.9579405,-1.980895,-1.1959392,1.9960719,1.8593355,-0.93427,-1.36808,-0.49233738,-1.1610087,1.4078948,-0.7413317,0.3972454,0.04362639,-0.2780547,-0.5176697,0.73216414,-1.3471276,0.17676613,-0.17464685,-0.24653578,-0.5277748,0.69130373,0.93043596,-0.045004707,0.16654462,0.3233055,-1.3210078,0.26432708,-0.2670055,0.0,1.0,0.0,0.0,0.0,0.0,0.0,-0.37194526,0.11766967,-0.18216413,-0.42693615,-4.776263,-3.8298607,-0.27618408,-2.3772478,-0.7548213,2.891159
-7.650743,47.824852,12.628454,11.993322,0.7431365,0.23485231,0.15972376,-0.76064014,-0.29499277,-0.6618583,0.7899251,-0.53841007,0.53458405,0.26389694,0.44136682,-0.9874398,-2.047081,-1.1169467,1.9422309,1.912794,-0.9078803,0.5037665,-0.9631075,-1.9926875,-1.1818701,1.988563,1.8632872,-0.93363506,-1.3659996,-0.5252547,-1.1842833,1.4069283,-0.7548439,0.3940758,0.06990282,-0.2914176,-0.5157852,0.7301855,-1.3317174,0.19339764,-0.20280844,-0.25978136,-0.52503586,0.6884456,0.9341396,-0.041864034,0.17169996,0.31008,-1.3230281,0.28880104,-0.2928525,0.0,1.0,0.0,0.0,0.0,0.0,0.0,-0.35858238,0.11578521,-0.1801855,0.17080307,-3.4400463,-2.0308495,-0.022363663,-1.6375303,-0.46634078,2.5341802
-8.28927,40.17324,9.676596,10.451084,0.7661958,0.15823013,0.18208642,-0.75989765,-0.3612278,-0.68500733,0.7840797,-0.5584012,0.521275,0.320351,0.4277767,-0.9992303,-2.0611882,-1.1034621,1.9327228,1.9154147,-0.90159994,0.4901336,-0.96879905,-2.0047162,-1.167824,1.9808949,1.867201,-0.9327256,-1.3624172,-0.5841524,-1.2083588,1.4042068,-0.7715021,0.3900415,0.09779843,-0.3046627,-0.51376724,0.72779983,-1.3211005,0.20562412,-0.24741618,-0.27309036,-0.52207947,0.68522704,0.93759996,-0.038309205,0.1767211,0.29699904,-1.3305767,0.3084862,-0.33249134,0.0,1.0,0.0,0.0,0.0,0.0,0.0,-0.34533727,0.11376724,-0.17779982,0.3424406,-6.0171366,-2.1490097,-0.15165806,-1.9087672,-0.54872036,2.7282
-7.2513776,39.914185,9.705477,9.845157,0.7478977,0.1431356,0.19867784,-0.755644,-0.3881441,-0.6903991,0.78211564,-0.5635993,0.49363387,0.3488254,0.4145692,-1.0076134,-2.073756,-1.0896125,1.924535,1.9165643,-0.89784306,0.47655463,-0.97510964,-2.0169375,-1.1538103,1.9730748,1.8710574,-0.93154436,-1.3564484,-0.64713144,-1.2259113,1.4009314,-0.7860646,0.3836214,0.124811515,-0.31780052,-0.5116348,0.72494656,-1.3101892,0.21674146,-0.29454198,-0.28646517,-0.51893616,0.681604,0.9408253,-0.034338422,0.18154094,0.2840978,-1.3364297,0.32768068,-0.37324053,0.0,1.0,0.0,0.0,0.0,0.0,0.0,-0.33219945,0.11163482,-0.17494655,0.57570934,-6.422782,-1.4893532,-0.20287037,-1.7065525,-0.78730583,2.647157
-3.9380586,43.05124,11.247396,9.138458,0.6189921,0.13776791,0.24161053,-0.74061877,-0.4074419,-0.6940105,0.7801462,-0.5751623,0.5025575,0.40095958,0.40249276,-1.0158539,-2.0863385,-1.0757957,1.9155586,1.9213132,-0.8914484,0.46309665,-0.9820028,-2.0292885,-1.1398329,1.9651113,1.8748604,-0.930082,-1.3424338,-0.7038156,-1.2373121,1.3968904,-0.80046916,0.378692,0.15318696,-0.33080292,-0.5093918,0.72164834,-1.2955993,0.22759078,-0.3380124,-0.29983854,-0.5155983,0.6776027,0.9438048,-0.029986372,0.18615846,0.27143747,-1.3341602,0.34654567,-0.41034245,0.0,1.0,0.0,0.0,0.0,0.0,0.0,-0.31919706,0.10939178,-0.17164832,1.3550043,-5.793798,-0.84474087,-0.30891895,-1.7170191,-0.6295383,2.7691483
-0.5463228,51.455482,14.967547,9.868019,0.6357318,0.23320603,0.25499222,-0.73156023,-0.41613513,-0.6631954,0.78485304,-0.5673529,0.515574,0.43024898,0.38994062,-1.0236163,-2.095608,-1.0613476,1.908376,1.9264178,-0.8870571,0.44980517,-0.9893423,-2.0415561,-1.1258706,1.9570657,1.8786292,-0.92834115,-1.325011,-0.744406,-1.2224517,1.3961649,-0.80687916,0.37585422,0.18080647,-0.343606,-0.50702286,0.71802986,-1.2738116,0.24078225,-0.36620194,-0.31311893,-0.5120392,0.67334914,0.9465255,-0.025390584,0.19059208,0.25907385,-1.3222556,0.3693182,-0.43185294,0.0,1.0,0.0,0.0,0.0,0.0,0.0,-0.30639398,0.10702285,-0.16802984,1.6535997,-4.1995883,1.8605232,-0.030875206,-0.99482536,-0.42712092,2.678153
-4.915097,43.21317,10.824717,9.231255,0.69629914,0.14010608,0.23577987,-0.74065065,-0.47878492,-0.698075,0.775786,-0.59225017,0.42022213,0.46908844,0.3757401,-1.0372207,-2.1113636,-1.048292,1.8978407,1.9206514,-0.8814323,0.43661526,-0.9972274,-2.053808,-1.1119426,1.9489014,1.8823007,-0.9263263,-1.3171146,-0.8036539,-1.2249771,1.3920722,-0.8203354,0.36381823,0.2083412,-0.35624886,-0.50455093,0.71399087,-1.2595768,0.25022924,-0.41261077,-0.3263626,-0.50829315,0.6687628,0.94901925,-0.020463783,0.19479373,0.24697983,-1.321058,0.38849798,-0.46905655,0.0,1.0,0.0,0.0,0.0,0.0,0.0,-0.29375112,0.10455093,-0.16399086,0.74772835,-6.0532928,0.049567223,-0.29182434,-1.6403794,-1.3512194,2.702731
-9.984705,36.987118,7.389418,9.297604,0.82920516,0.108985186,0.19500741,-0.75028116,-0.5256959,-0.7153681,0.773999,-0.5967334,0.34386897,0.49312487,0.36158714,-1.0497969,-2.1253448,-1.0345428,1.8892281,1.9166876,-0.8770138,0.42341727,-1.0058079,-2.0661855,-1.0980532,1.9405967,1.8857952,-0.92404747,-1.3206756,-0.8765886,-1.241326,1.3883814,-0.8343541,0.34410444,0.23444447,-0.36880255,-0.5019989,0.7093784,-1.2524676,0.25768885,-0.47364095,-0.3396821,-0.50434875,0.6637197,0.9513308,-0.015077077,0.1986866,0.23508741,-1.3310612,0.40787604,-0.5177547,0.0,1.0,0.0,0.0,0.0,0.0,0.0,-0.28119743,0.101998895,-0.15937841,-0.3530264,-7.419884,-1.3925314,-0.17404556,-1.6512036,-2.1447897,2.5978951
-5.3285995,35.412838,8.082597,7.527997,0.7614981,0.08281684,0.23367979,-0.72270036,-0.58036363,-0.6811002,0.7818833,-0.59186566,0.3665042,0.5279738,0.35114723,-1.0638442,-2.1342955,-1.0198649,1.8814101,1.9224457,-0.8712501,0.41028544,-1.0152302,-2.0785701,-1.0841556,1.9321915,1.8891201,-0.9215093,-1.3107573,-0.9644392,-1.2366077,1.3908207,-0.8430485,0.32806197,0.2604059,-0.38128328,-0.49938583,0.70412904,-1.244862,0.26343012,-0.5377612,-0.35306692,-0.50022507,0.6581779,0.953474,-0.009300812,0.20217149,0.22344433,-1.3362913,0.42442295,-0.5681673,0.0,1.0,0.0,0.0,0.0,0.0,0.0,-0.2687167,0.09938583,-0.15412903,0.97613335,-8.896017,0.72693825,0.4332304,-1.108861,-1.7755568,2.6091485
-3.3636572,35.445366,8.200556,6.4790707,0.58855844,0.07389283,0.26848423,-0.71559024,-0.619541,-0.6884216,0.7779336,-0.63202494,0.3477938,0.5597448,0.3387264,-1.0771843,-2.1474123,-1.0063622,1.868989,1.9238995,-0.86553484,0.39728734,-1.0255318,-2.090909,-1.0702425,1.9236095,1.8922898,-0.91871506,-1.2962024,-1.0524025,-1.2320235,1.3921629,-0.8637862,0.31265122,0.28581795,-0.3936777,-0.49671936,0.69822735,-1.2359129,0.26806232,-0.603608,-0.36646414,-0.49594498,0.65211445,0.9554434,-0.0031564771,0.20525181,0.2121078,-1.3358203,0.43922642,-0.62117237,0.0,1.0,0.0,0.0,0.0,0.0,0.0,-0.25632226,0.096719354,-0.14822733,1.4314413,-8.903837,0.7160902,0.3214836,-2.3138165,-1.6993761,2.5474608
4.257197,40.145947,11.2682,4.8819027,0.43768495,0.066607594,0.31675643,-0.68318003,-0.6561433,-0.6593407,0.7775071,-0.60688007,0.37346905,0.570292,0.32896933,-1.0911461,-2.1568432,-0.99249184,1.8629215,1.9296367,-0.8616859,0.3845671,-1.036663,-2.1030614,-1.056324,1.9149228,1.8953416,-0.91568613,-1.264202,-1.133704,-1.2087722,1.3921465,-0.8709898,0.30228183,0.30868977,-0.40593386,-0.49401474,0.691729,-1.2203362,0.27176932,-0.66101325,-0.37976027,-0.49155426,0.6455793,0.9572328,0.0032362265,0.2079069,0.20117027,-1.3220885,0.45039776,-0.66676444,0.0,1.0,0.0,0.0,0.0,0.0,0.0,-0.24406612,0.094014734,-0.141729,3.1240702,-8.231235,2.6427507,0.11525154,-1.0072708,-1.2038112,2.287209
7.2006407,44.09505,12.671864,4.4722643,0.30969113,0.07061243,0.3332438,-0.66616035,-0.68407136,-0.66258407,0.77405477,-0.6208694,0.37429348,0.5784956,0.31795108,-1.1050702,-2.1693199,-0.97891855,1.8528359,1.932771,-0.85783654,0.3722107,-1.0485077,-2.1150112,-1.0424285,1.9061618,1.8983074,-0.91244954,-1.2264626,-1.201726,-1.1890953,1.3890076,-0.8784891,0.2940834,0.3286514,-0.41800022,-0.4912758,0.68470025,-1.2002286,0.27480492,-0.7127099,-0.3928609,-0.48706818,0.6386207,0.9588391,0.009826339,0.21017374,0.19067755,-1.3003742,0.4595665,-0.7082089,0.0,1.0,0.0,0.0,0.0,0.0,0.0,-0.23199975,0.09127578,-0.13470024,3.674674,-6.9080353,2.3162127,-0.23374557,-1.0705829,-0.98994374,1.9740105
18.857164,51.95052,17.11033,2.293015,0.03364986,-0.030627608,0.4085921,-0.6060308,-0.6996498,-0.63831234,0.76402825,-0.58093643,0.36382273,0.5869895,0.31160763,-1.1184727,-2.1788425,-0.96602565,1.8480681,1.9346898,-0.8537506,0.360437,-1.0608883,-2.1266983,-1.0286207,1.897479,1.9011978,-0.9090327,-1.1616113,-1.2503506,-1.1605171,1.3779597,-0.866001,0.28672335,0.3458945,-0.42978287,-0.4885292,0.6772659,-1.169163,0.27504894,-0.7497827,-0.4056015,-0.48255157,0.6313346,0.96025556,0.01650574,0.21205708,0.18074453,-1.2589836,0.45880246,-0.7382228,0.0,1.0,0.0,0.0,0.0,0.0,0.0,-0.22021711,0.0885292,-0.12726587,6.307626,-4.960394,3.2950401,-1.1526585,0.8515835,-0.9014845,1.6586244
