Afshin1997/kuka_rl_ros2/src/catch_and_throw/input_files/idealpd/recorded_trajectories/env_383_data.csv
torque0,torque1,torque2,torque3,torque4,torque5,torque6,action0,action1,action2,action3,action4,action5,action6,set_target_0,set_target_1,set_target_2,set_target_3,set_target_4,set_target_5,set_target_6,joint_pos_0,joint_pos_1,joint_pos_2,joint_pos_3,joint_pos_4,joint_pos_5,joint_pos_6,joint_vel_0,joint_vel_1,joint_vel_2,joint_vel_3,joint_vel_4,joint_vel_5,joint_vel_6,tennisball_pos_0,tennisball_pos_1,tennisball_pos_2,tennisball_lin_vel_0,tennisball_lin_vel_1,tennisball_lin_vel_2,end_effector_pos_0,end_effector_pos_1,end_effector_pos_2,end_effector_rot_0,end_effector_rot_1,end_effector_rot_2,end_effector_rot_3,end_effector_lin_vel_0,end_effector_lin_vel_1,end_effector_lin_vel_2,obs_task_0,obs_task_1,obs_task_2,obs_task_3,obs_task_4,obs_task_5,obs_task_6,to_final_target_0,to_final_target_1,to_final_target_2,joint_acc_0,joint_acc_1,joint_acc_2,joint_acc_3,joint_acc_4,joint_acc_5,joint_acc_6
0.0,0.0,0.0,0.0,0.0,0.0,0.0,0.0,0.0,0.0,0.0,0.0,0.0,0.0,1.7802359,-1.0646509,-1.8151424,-1.1170107,1.9373155,1.1170107,-0.91629785,1.7802359,-1.0646509,-1.8151424,-1.1170107,1.9373155,1.1170107,-0.91629785,0.0,0.0,0.0,0.0,0.0,0.0,0.0,3.086567,-0.43080997,0.27497798,-3.060788,-0.26692778,5.149551,0.5304184,-0.45449448,0.693097,0.5745483,0.17512383,0.15255436,0.7848268,0.0,0.0,0.0,1.0,0.0,0.0,0.0,0.0,0.0,0.0,-3.736567,0.030809969,0.27502203,0.0,0.0,0.0,0.0,0.0,0.0,0.0
0.0,0.0,0.0,0.0,0.0,0.0,0.0,0.0,0.0,0.0,0.0,0.0,0.0,0.0,1.7802359,-1.0646509,-1.8151424,-1.1170107,1.9373155,1.1170107,-0.91629785,1.7802359,-1.0646509,-1.8151424,-1.1170107,1.9373155,1.1170107,-0.91629785,0.0,0.0,0.0,0.0,0.0,0.0,0.0,3.086567,-0.43080997,0.27497798,-3.060788,-0.26692778,5.149551,0.5304184,-0.45449448,0.693097,0.5745483,0.17512383,0.15255436,0.7848268,0.0,0.0,0.0,1.0,0.0,0.0,0.0,0.0,0.0,0.0,-3.736567,0.030809969,0.27502203,0.0,0.0,0.0,0.0,0.0,0.0,0.0
0.0,0.0,0.0,0.0,0.0,0.0,0.0,0.0,0.0,0.0,0.0,0.0,0.0,0.0,1.7802359,-1.0646509,-1.8151424,-1.1170107,1.9373155,1.1170107,-0.91629785,1.7802359,-1.0646509,-1.8151424,-1.1170107,1.9373155,1.1170107,-0.91629785,0.0,0.0,0.0,0.0,0.0,0.0,0.0,3.086567,-0.43080997,0.27497798,-3.060788,-0.26692778,5.149551,0.5304184,-0.45449448,0.693097,0.5745483,0.17512383,0.15255436,0.7848268,0.0,0.0,0.0,1.0,0.0,0.0,0.0,0.0,0.0,0.0,-3.736567,0.030809969,0.27502203,0.0,0.0,0.0,0.0,0.0,0.0,0.0
-176.0,49.964153,-12.998516,110.0,10.866822,4.1328597,-3.7365963,-0.79791665,0.24540885,-0.5323952,0.7352917,0.17729941,0.68322664,-0.6096836,1.7004442,-1.04011,-1.8683819,-1.0434816,1.9550455,1.1853334,-0.9772662,1.7790743,-1.0628237,-1.8210723,-1.111775,1.9408154,1.122006,-0.91677755,-0.15461257,0.24294874,-0.7902887,0.6982893,0.4661338,0.66452795,-0.06356053,3.0559807,-0.4334774,0.32569844,-3.0577278,-0.2666609,5.0462165,0.52843094,-0.4577322,0.69367015,0.5780938,0.1736926,0.15156846,0.7827294,-0.2642451,-0.4317179,0.07614787,1.0,0.0,0.0,0.0,0.0,0.0,0.0,-3.7059808,0.033477396,0.22430158,-15.361444,24.104286,-78.923935,69.95874,46.431854,66.01705,-6.23558
-176.0,-60.649582,-57.212627,110.0,12.790921,0.36030942,-3.1447897,-0.78313434,-0.30858487,-0.56089544,0.7032314,0.30395648,0.6689335,-0.60633475,1.7007608,-1.0936822,-1.8771619,-1.0414519,1.9712111,1.1888994,-0.97741103,1.7781912,-1.0613912,-1.8361938,-1.0963331,1.9477715,1.1350771,-0.91554064,-0.07141387,0.09334116,-1.7104238,1.826136,0.75001353,1.4760293,0.17471638,3.025425,-0.43614197,0.3753863,-3.0546706,-0.2663943,4.942985,0.5240822,-0.46634388,0.6939012,0.5859591,0.1702631,0.14859572,0.7781912,-0.4925074,-1.0017939,0.009905382,1.0,0.0,0.0,0.0,0.0,0.0,0.0,-3.675425,0.03614196,0.17461371,6.7677946,-19.94338,-79.30026,112.74073,21.737755,67.57798,20.415922
-153.78314,100.24629,29.877182,91.509056,9.173442,8.025705,-1.5816503,-0.7462945,0.13400775,0.2394869,0.66754127,0.40630525,0.6977769,-0.5039113,1.7035618,-1.0479904,-1.8122451,-1.029579,1.9884021,1.2048548,-0.9659318,1.7742869,-1.0603555,-1.850518,-1.0762888,1.955668,1.1497465,-0.9141225,-0.49667242,0.10359298,-1.3330985,2.0655553,0.7967903,1.4580419,0.13023144,2.9948997,-0.43880367,0.4240426,-3.0516167,-0.26612794,4.8398566,0.51688385,-0.4779539,0.6955945,0.596453,0.16525431,0.14381959,0.7721727,-0.8023558,-1.2064704,0.22596885,1.0,0.0,0.0,0.0,0.0,0.0,0.0,-3.6448998,0.038803667,0.1259574,-42.470135,0.074379146,39.72578,24.49503,2.910769,-3.5547018,-4.6194463
-107.969055,80.393,31.94727,55.81612,6.475036,7.3749347,-0.002698578,-0.77192926,-0.15024471,0.30486917,0.6779879,0.43857703,0.67271656,-0.58042914,1.697094,-1.07538,-1.820031,-1.0084901,1.9995257,1.2170182,-0.97216547,1.765927,-1.060428,-1.8583457,-1.0564905,1.9633946,1.1634089,-0.9133825,-0.9494724,-0.04604748,-0.5923287,1.9523417,0.75848174,1.3325186,0.0549966,2.964405,-0.44146347,0.47166842,-3.0485656,-0.26586187,4.736831,0.5070267,-0.49064827,0.6988935,0.6077103,0.15912268,0.13700257,0.76589715,-1.0584857,-1.279149,0.36772352,1.0,0.0,0.0,0.0,0.0,0.0,0.0,-3.6144052,0.041463464,0.07833159,-45.40192,-15.521516,76.161026,-10.962033,-5.7163715,-13.502431,-7.6260304
-47.474667,121.41598,51.19651,31.069147,3.1783345,7.515468,0.68843734,-0.7830004,0.03467925,0.37645867,0.65981215,0.5716064,0.6691723,-0.587507,1.687627,-1.0569601,-1.8206999,-0.99050933,2.0205553,1.230326,-0.97213316,1.7537752,-1.0610231,-1.8586509,-1.0391394,1.9709611,1.1756712,-0.9134349,-1.3046484,-0.06557697,0.16278455,1.6624628,0.7511384,1.1893427,-0.026786946,2.933941,-0.44411945,0.5182647,-3.0455177,-0.26559606,4.6339087,0.4951744,-0.50295544,0.7037778,0.61857194,0.15195394,0.12841362,0.7601241,-1.2410208,-1.2022818,0.52864105,1.0,0.0,0.0,0.0,0.0,0.0,0.0,-3.583941,0.044119447,0.0317353,-35.76069,-2.4481864,77.35307,-29.05159,-2.2048354,-14.759994,-8.618234
-14.356792,97.56962,38.64283,12.763619,0.9872912,4.6341267,0.6472459,-0.7983302,-0.002184099,0.28819367,0.65819544,0.5650826,0.6502989,-0.6200685,1.6739422,-1.0612415,-1.8298316,-0.9733198,2.0274694,1.2407011,-0.97544175,1.7391726,-1.061683,-1.8535697,-1.0246321,1.9785085,1.1866194,-0.9142532,-1.5125266,-0.067210354,0.62622213,1.3797479,0.75375247,1.0633999,-0.10120628,2.9035072,-0.44677353,0.5638326,-3.0424728,-0.26533052,4.5310893,0.48215103,-0.5143404,0.70958626,0.6287017,0.14425737,0.11882682,0.7548538,-1.3337255,-1.105601,0.595263,1.0,0.0,0.0,0.0,0.0,0.0,0.0,-3.5535073,0.046773523,-0.013832569,-20.93866,-0.44579357,47.278946,-28.380537,-0.42222738,-12.534308,-7.765599
16.779171,154.58006,55.022785,10.625345,-1.357624,4.822285,0.07503398,-0.81302345,0.36784557,0.24096358,0.6242121,0.5578456,0.6678431,-0.606507,1.6578703,-1.0248985,-1.8294734,-0.9622109,2.034293,1.2534037,-0.9749039,1.7234141,-1.0604929,-1.8460624,-1.0124651,1.986115,1.1964804,-0.91573423,-1.5975757,0.17991209,0.7945988,1.1622775,0.76213,0.9612341,-0.16552171,2.873104,-0.44942474,0.60837305,-3.0394309,-0.26506525,4.428373,0.4686165,-0.5241804,0.71654356,0.638325,0.13598686,0.10962649,0.7496872,-1.372161,-0.9326438,0.72537094,1.0,0.0,0.0,0.0,0.0,0.0,0.0,-3.5231042,0.049424738,-0.058373034,-8.726716,24.348131,17.552137,-21.773983,0.5743742,-9.915447,-6.98452
27.94662,155.00807,51.157352,8.121384,-2.2936184,3.593626,-0.28759736,-0.8181934,0.45787016,0.17552032,0.59627914,0.56757253,0.6541383,-0.6096991,1.6415948,-1.0147059,-1.8285104,-0.9528372,2.0428722,1.2618942,-0.9767041,1.7074248,-1.0563883,-1.8386028,-1.0018526,1.9938493,1.2054487,-0.91777605,-1.6001999,0.48623458,0.7313884,1.027541,0.77703905,0.87643665,-0.21863705,2.8427315,-0.4520731,0.6518871,-3.0363922,-0.26480025,4.3257594,0.45500183,-0.53230476,0.7246638,0.64774746,0.1272425,0.10176018,0.74422944,-1.3678976,-0.7608759,0.83710134,1.0,0.0,0.0,0.0,0.0,0.0,0.0,-3.4927316,0.05207309,-0.10188711,-0.4970789,30.334812,-5.8223486,-13.4351015,1.4350772,-8.143735,-5.7822256
34.42945,158.3004,51.355816,7.9845715,-2.534785,3.2284324,-0.37989348,-0.8169681,0.58995086,0.19545592,0.564436,0.59450716,0.65899956,-0.5844161,1.6257279,-0.9973932,-1.8190572,-0.94540906,2.0533,1.2713487,-0.9762176,1.6917177,-1.0490869,-1.83232,-0.9921223,2.001802,1.2136809,-0.9202575,-1.5616065,0.81058866,0.5956579,0.95493114,0.80132097,0.8060569,-0.2594585,2.8123894,-0.45471954,0.6943758,-3.0333564,-0.2645355,4.223248,0.4415474,-0.53872204,0.73393667,0.6571176,0.11807012,0.095523484,0.73833,-1.3462981,-0.5897844,0.9541605,1.0,0.0,0.0,0.0,0.0,0.0,0.0,-3.4623895,0.054719537,-0.1443758,3.62463,32.162464,-13.082684,-7.210386,2.3920894,-6.8302155,-4.5043945
32.50424,139.80147,44.701233,7.5085297,-2.131277,2.562829,-0.32746235,-0.80919135,0.653084,0.18572167,0.5496712,0.61524063,0.65024513,-0.57052827,1.6107986,-0.98377854,-1.8137478,-0.9371552,2.0633261,1.2787054,-0.97731036,1.6764952,-1.0390066,-1.8274295,-0.98278296,2.010034,1.2212874,-0.92307466,-1.5097831,1.0729192,0.4551344,0.9269372,0.83035207,0.7458945,-0.29033768,2.7820778,-0.45736313,0.73584014,-3.0303235,-0.26427102,4.1208396,0.42832565,-0.54364204,0.744189,0.66646385,0.1085575,0.090740636,0.73198855,-1.31995,-0.44545203,1.0459093,1.0,0.0,0.0,0.0,0.0,0.0,0.0,-3.432078,0.057363123,-0.18584013,4.977131,26.013638,-13.60265,-2.8044581,2.864194,-5.9476495,-3.4407616
26.446259,115.6012,36.131203,7.5217357,-1.536626,1.900671,-0.2742357,-0.79473376,0.70416003,0.13926058,0.55427843,0.62226284,0.6654365,-0.55909306,1.5970218,-0.9685906,-1.8135035,-0.9273551,2.0722604,1.2878311,-0.978984,1.6617876,-1.0269026,-1.8238552,-0.97347414,2.0185332,1.2283789,-0.9261436,-1.4584471,1.2558393,0.32608858,0.9319571,0.856276,0.69677037,-0.3134124,2.7517967,-0.46000385,0.7762812,-3.027294,-0.2640068,4.018533,0.41532898,-0.5473814,0.75510424,0.67578834,0.098844275,0.08707745,0.72522914,-1.2963042,-0.33519727,1.1039946,1.0,0.0,0.0,0.0,0.0,0.0,0.0,-3.4017968,0.060003847,-0.22628117,4.964447,18.128849,-12.524777,0.42346716,2.5684,-4.921603,-2.610594
18.238838,88.36466,26.58206,7.4903154,-0.8800159,1.23722,-0.21627197,-0.7843152,0.7201932,0.095085144,0.5619239,0.6195521,0.66997755,-0.5534446,1.5833561,-0.9548832,-1.8143467,-0.91728175,2.0804884,1.2953767,-0.98148805,1.6475168,-1.0136198,-1.8214176,-0.9639803,2.027227,1.235047,-0.9294023,-1.4172105,1.3520945,0.21733885,0.9546299,0.8736651,0.6568557,-0.33088526,2.7215462,-0.46264172,0.81569993,-3.0242672,-0.26374283,3.9163296,0.40252304,-0.5503006,0.76630914,0.6850844,0.08909812,0.08418176,0.71807677,-1.2787817,-0.2617953,1.1232721,1.0,0.0,0.0,0.0,0.0,0.0,0.0,-3.3715463,0.06264171,-0.26569992,3.989315,9.521055,-10.579952,2.108252,1.7485738,-4.0004015,-2.0177305
11.790066,68.44409,19.805845,6.934019,-0.41633567,0.82074094,-0.12035175,-0.78564864,0.73068905,0.07054201,0.54262155,0.6261959,0.66901547,-0.55744976,1.568952,-0.94055086,-1.8143634,-0.90971816,2.0898466,1.3019485,-0.98514724,1.6335169,-0.9998544,-1.8198383,-0.95434535,2.036058,1.2413718,-0.9328107,-1.3947263,1.384491,0.13900617,0.96567345,0.8864634,0.6244608,-0.3450892,2.6913261,-0.46527672,0.8540974,-3.0212436,-0.26347914,3.8142285,0.38983154,-0.5526705,0.7774853,0.69430244,0.07946583,0.081749596,0.7105957,-1.2672298,-0.21253252,1.1132398,1.0,0.0,0.0,0.0,0.0,0.0,0.0,-3.3413262,0.06527671,-0.3040974,2.1248817,3.1768322,-7.570538,0.8824229,1.3100147,-3.2076955,-1.6774833
11.349325,59.125366,17.224106,5.21557,-0.28811377,0.6507902,0.027649937,-0.77789444,0.73872477,0.06984379,0.5138991,0.6338297,0.6749921,-0.5574474,1.5557275,-0.9259819,-1.8128539,-0.9029554,2.0994408,1.3088709,-0.98855543,1.6196619,-0.98603565,-1.8187454,-0.94478476,2.0449996,1.2474238,-0.9363422,-1.3827302,1.3808558,0.10032527,0.95192814,0.8968054,0.5990842,-0.35672796,2.6611366,-0.4679098,0.8914746,-3.018223,-0.26321572,3.7122295,0.37726593,-0.55459404,0.78845465,0.7033331,0.07001168,0.0795535,0.7029169,-1.2552478,-0.1693177,1.0891385,1.0,0.0,0.0,0.0,0.0,0.0,0.0,-3.3111367,0.06790981,-0.3414746,1.0714769,-0.4058361,-3.5762548,-1.6324401,1.056993,-2.4570704,-1.4307916
9.743057,56.531868,16.445494,5.6216216,-0.15292531,0.64162195,0.0704519,-0.77628183,0.7474872,0.053811215,0.5106437,0.6371979,0.6749537,-0.55545026,1.5420338,-0.91128695,-1.8133643,-0.8937204,2.1087193,1.3149191,-0.9918872,1.6058642,-0.972339,-1.8178871,-0.9354149,2.0540252,1.2532583,-0.9399728,-1.3792291,1.3658562,0.081836924,0.93120784,0.9046074,0.57852644,-0.36606154,2.6309776,-0.47054005,0.9278326,-3.0152054,-0.26295257,3.6103323,0.36479187,-0.5561104,0.79916793,0.7121214,0.06072955,0.07747795,0.6951202,-1.2459033,-0.12986518,1.0630205,1.0,0.0,0.0,0.0,0.0,0.0,0.0,-3.2809777,0.07054004,-0.3778326,0.21970272,-1.537013,-1.5403569,-2.3299694,0.79842806,-1.9741774,-1.1985183
13.203206,59.03854,17.834518,3.844986,-0.32471463,0.7161161,0.21435726,-0.7788654,0.75155574,0.07974677,0.454276,0.64863133,0.6769912,-0.5490462,1.5279776,-0.8971834,-1.8099124,-0.8899873,2.1188884,1.3209574,-0.99487746,1.5920511,-0.95878726,-1.816962,-0.9264971,2.0631385,1.2589194,-0.9436807,-1.3826294,1.3514992,0.097323224,0.8778134,0.91360575,0.5622698,-0.37322438,2.6008492,-0.47316742,0.9631724,-3.0121908,-0.26268965,3.5085368,0.3524475,-0.5571518,0.8096334,0.72056156,0.051590748,0.07545478,0.6873397,-1.2314459,-0.08017841,1.0387694,1.0,0.0,0.0,0.0,0.0,0.0,0.0,-3.2508492,0.07316741,-0.41317236,-0.49171448,-1.4760017,1.9310385,-5.6022644,0.89000463,-1.5167713,-0.9995043
14.860971,62.97576,19.013905,3.9510703,-0.43740335,0.7551762,0.22955912,-0.77348906,0.7640567,0.067931436,0.43939716,0.650421,0.68081945,-0.5317446,1.5147022,-0.8823816,-1.8101689,-0.8825574,2.1281805,1.3270013,-0.99685514,1.5782133,-0.945288,-1.8158767,-0.9181324,2.072328,1.264443,-0.9474363,-1.3846936,1.3492013,0.11370773,0.8219493,0.92099476,0.54942125,-0.37727404,2.5707512,-0.47579288,0.997495,-3.0091794,-0.26242703,3.4068432,0.34026337,-0.5576563,0.81990016,0.7286124,0.04255054,0.07350358,0.67964,-1.2135757,-0.025388302,1.0202359,1.0,0.0,0.0,0.0,0.0,0.0,0.0,-3.2207513,0.07579288,-0.44749498,-0.3602743,-0.27275085,2.0280452,-5.8340907,0.7318616,-1.1783957,-0.6859064
16.558514,63.66987,19.092634,3.187056,-0.5671967,0.67440104,0.26342225,-0.774571,0.76294875,0.07192433,0.39705428,0.65579075,0.67868453,-0.5280081,1.5007563,-0.8689931,-1.8086843,-0.87842697,2.1379073,1.3323115,-1.0002371,1.5643526,-0.9317792,-1.8146255,-0.9104048,2.081594,1.2698561,-0.9512214,-1.3869036,1.3513565,0.13017,0.75548494,0.92815775,0.53907466,-0.37981492,2.5406837,-0.47841454,1.0308014,-3.0061707,-0.26216465,3.3052514,0.32829666,-0.5575905,0.8299775,0.73625207,0.033603963,0.07165347,0.6720636,-1.190245,0.031892654,1.0008537,1.0,0.0,0.0,0.0,0.0,0.0,0.0,-3.1906838,0.07841453,-0.4808014,-0.37531853,0.17974377,2.0277352,-6.890118,0.71754456,-0.9000063,-0.52651167
22.787153,65.78814,20.016382,-0.05556202,-0.95959556,0.54148465,0.39358413,-0.76919013,0.7711452,0.093812,0.3136455,0.6700114,0.6762089,-0.52178615,1.4874337,-0.8546647,-1.8052443,-0.87904024,2.148595,1.337477,-1.0034,1.5505015,-0.918196,-1.8131492,-0.9035889,2.090959,1.2751814,-0.95502275,-1.3849356,1.3605741,0.15482834,0.6562143,0.9388759,0.5311095,-0.38111094,2.5106468,-0.48103428,1.0630926,-3.003165,-0.26190254,3.203761,0.31666183,-0.55687237,0.83984107,0.74338716,0.024783958,0.06993736,0.66473293,-1.1521776,0.0990935,0.9786537,1.0,0.0,0.0,0.0,0.0,0.0,0.0,-3.160647,0.08103427,-0.5130926,0.037121773,0.89643,2.859673,-10.174561,1.0734677,-0.59155226,-0.40287971
29.151985,66.7835,20.528269,-3.7101412,-1.3864424,0.34288555,0.529007,-0.76408666,0.77991706,0.11402912,0.22008036,0.6782621,0.6748477,-0.51148206,1.4740928,-0.8402043,-1.8017462,-0.8815808,2.1587853,1.3426661,-1.006171,1.5366999,-0.9044803,-1.8113754,-0.8980366,2.1004348,1.2804419,-0.958826,-1.3789418,1.3751142,0.1861861,0.520786,0.95089215,0.525419,-0.3809099,2.4806404,-0.48365116,1.0943698,-3.0001626,-0.2616407,3.1023722,0.30553818,-0.55541706,0.849444,0.7499053,0.016146218,0.06839887,0.6578016,-1.0972472,0.17441402,0.95102715,1.0,0.0,0.0,0.0,0.0,0.0,0.0,-3.1306405,0.083651155,-0.54436976,0.44310093,1.4460802,3.5167873,-13.788438,1.2167931,-0.27834177,-0.24254918
30.477781,66.84107,20.617453,-3.8668342,-1.4045913,0.24193236,0.5507151,-0.7569313,0.7827419,0.14085156,0.17456608,0.6803142,0.6682612,-0.5064015,1.4610068,-0.8262061,-1.7972902,-0.88058,2.168466,1.347268,-1.0094662,1.5229918,-0.8906253,-1.8092239,-0.89381087,2.110021,1.2856528,-0.9626207,-1.3685606,1.3889977,0.22577877,0.38909867,0.9613249,0.52052265,-0.37980315,2.4506645,-0.48626518,1.1246338,-2.997163,-0.2613791,3.0010848,0.29498672,-0.5532141,0.8587835,0.75577796,0.0076940227,0.06702769,0.6513429,-1.0382323,0.24750438,0.92476094,1.0,0.0,0.0,0.0,0.0,0.0,0.0,-3.1006646,0.08626518,-0.5746338,0.9066105,1.3986588,4.2752476,-13.3871975,1.0960102,-0.1770854,-0.1277864
31.969542,66.36634,20.531778,-4.698912,-1.4883189,0.12384036,0.59810764,-0.7549079,0.7889016,0.17468804,0.08836259,0.68292147,0.67014784,-0.49870527,1.447501,-0.81173515,-1.7917551,-0.8849746,2.1783133,1.3526676,-1.0124912,1.5093848,-0.8766368,-1.8065994,-0.8909737,2.1196952,1.2908236,-0.9663972,-1.3584493,1.4022769,0.2755104,0.24801265,0.9700615,0.5170951,-0.37769663,2.4207153,-0.4888773,1.1538857,-2.9941664,-0.2611178,2.8998985,0.28506088,-0.5502806,0.8678501,0.76098835,-0.0005639309,0.06581651,0.6454181,-0.97378945,0.31988695,0.89696634,1.0,0.0,0.0,0.0,0.0,0.0,0.0,-3.0707154,0.08887729,-0.6038857,0.89957714,1.3568401,5.2298517,-14.302537,0.9625435,0.0064611435,-7.1525574e-05
35.77781,66.192474,20.820518,-7.032828,-1.7015994,-0.034838974,0.7145013,-0.7488558,0.79442036,0.22703348,-0.025592841,0.6928098,0.65692353,-0.4822199,1.4344991,-0.7971948,-1.7838961,-0.893533,2.1889763,1.3565159,-1.0146192,1.4958826,-0.8625253,-1.803334,-0.88973105,2.1294684,1.2959582,-0.9701404,-1.3475761,1.4143274,0.34416214,0.08244241,0.980007,0.513646,-0.3738552,2.3907928,-0.49148655,1.1821265,-2.9911728,-0.26085672,2.7988133,0.2758484,-0.5465965,0.87661505,0.76546746,-0.008592667,0.064742066,0.6401516,-0.8987705,0.3948552,0.86552507,1.0,0.0,0.0,0.0,0.0,0.0,0.0,-3.040793,0.09148654,-0.6321265,1.0006189,1.2535334,7.064426,-16.720821,1.1188626,0.06438494,0.20202398
41.283615,67.12697,21.762201,-9.915574,-1.9745284,-0.18126561,0.8668578,-0.7337011,0.7988417,0.29785416,-0.14180195,0.69776165,0.6480317,-0.44956803,1.4225125,-0.7826411,-1.7735486,-0.90391123,2.1992445,1.3607613,-1.0150971,1.4825388,-0.84830695,-1.7991779,-0.8903214,2.1393409,1.3010584,-0.97382253,-1.3303348,1.4246805,0.4396645,-0.10665861,0.98995584,0.51054734,-0.36675596,2.3609009,-0.49409294,1.2093571,-2.9881823,-0.26059592,2.6978292,0.26748276,-0.54211617,0.8850522,0.76910627,-0.016365275,0.063769385,0.6357209,-0.81077486,0.4748616,0.83196586,1.0,0.0,0.0,0.0,0.0,0.0,0.0,-3.010901,0.094092935,-0.65935713,1.6806126,1.1049986,9.664404,-19.024715,1.1678338,0.16652346,0.56176186
41.29347,63.722385,20.678598,-10.806997,-2.0054548,-0.38370097,0.90588313,-0.7332855,0.7957593,0.3465091,-0.24901395,0.6973813,0.63897413,-0.42724338,1.4092103,-0.768731,-1.764527,-0.91522276,2.209079,1.3649558,-1.0165468,1.4693419,-0.83403045,-1.7940128,-0.89288485,2.1492896,1.3061281,-0.9774179,-1.3161069,1.4289916,0.54210025,-0.30654845,0.997464,0.50737405,-0.3575302,2.3310394,-0.49669743,1.2355788,-2.9851947,-0.2603354,2.5969462,0.2600174,-0.5368681,0.893111,0.77186894,-0.023831224,0.06288863,0.6322146,-0.718553,0.5491726,0.7922824,1.0,0.0,0.0,0.0,0.0,0.0,0.0,-2.9810395,0.09669742,-0.68557876,1.4187574,0.5197525,10.254079,-20.063644,0.97352266,0.19056797,0.82173944
36.2309,67.28842,22.083618,-4.791491,-1.4106812,-0.13742328,0.7750843,-0.704599,0.80203104,0.4188324,-0.22551702,0.6967099,0.6288186,-0.34551597,1.3988819,-0.75382733,-1.7521296,-0.91543657,2.2189605,1.36901,-1.0119694,1.4563833,-0.81970817,-1.7877262,-0.896855,2.1592994,1.3111597,-0.9808664,-1.2890598,1.4337252,0.65694463,-0.4271525,1.0030268,0.5030195,-0.34087113,2.3012085,-0.49929905,1.2607924,-2.98221,-0.2600751,2.496164,0.25333405,-0.5309267,0.9009364,0.7738453,-0.031150177,0.062001392,0.6295624,-0.6459767,0.61605835,0.7739281,1.0,0.0,0.0,0.0,0.0,0.0,0.0,-2.9512086,0.09929904,-0.71079236,2.7435064,0.586009,11.33424,-12.091494,0.8900285,0.006711483,1.5882134
19.422924,67.41796,21.516096,7.8671694,-0.10358536,0.33883366,0.40001392,-0.7065379,0.80095327,0.46380407,-0.12854418,0.69348454,0.6257912,-0.26369536,1.3857296,-0.7396128,-1.7413458,-0.9097094,2.2286477,1.3737389,-1.0072359,1.4436442,-0.80535823,-1.7803504,-0.9010588,2.1693435,1.3161379,-0.98409647,-1.268616,1.435944,0.7635877,-0.4183245,1.0060815,0.4972372,-0.31738058,2.271408,-0.5018978,1.2849989,-2.9792285,-0.25981507,2.3954828,0.24700546,-0.5244713,0.90879124,0.7753157,-0.038619805,0.060966555,0.627437,-0.62134,0.66148114,0.7836018,1.0,0.0,0.0,0.0,0.0,0.0,0.0,-2.9214082,0.101897806,-0.7349989,2.057767,0.35378933,10.415876,0.82733035,0.7321358,-0.2916515,2.2676468
4.933388,63.736805,19.39813,16.93568,0.8353374,0.5997144,0.082047276,-0.72102994,0.80015093,0.48797807,-0.080091305,0.6948676,0.62628084,-0.23114488,1.3715411,-0.7253431,-1.7315526,-0.9090679,2.2388303,1.378766,-1.007211,1.4309775,-0.7910016,-1.7720897,-0.90457976,2.1794066,1.3210589,-0.9870834,-1.2660896,1.436124,0.84606814,-0.33041295,1.0081488,0.49082693,-0.29278496,2.2416382,-0.5044937,1.3081993,-2.97625,-0.2595553,2.294902,0.24065399,-0.517704,0.9168387,0.7765674,-0.04643384,0.05971749,0.6254764,-0.63273907,0.6881233,0.8057241,1.0,0.0,0.0,0.0,0.0,0.0,0.0,-2.8916383,0.10449371,-0.7581993,0.2145052,0.15609264,7.9988837,8.69227,0.65095425,-0.47493577,2.3736417
-10.070905,60.678185,17.378815,27.269505,1.8362088,0.9216768,-0.29936382,-0.7253664,0.8030987,0.48723918,0.070789225,0.68338335,0.63494223,-0.17201555,1.3584409,-0.71069175,-1.7233658,-0.8975008,2.247745,1.3845531,-1.004285,1.4182554,-0.77663547,-1.763293,-0.90645564,2.1894507,1.3259188,-0.9898042,-1.2744547,1.4372642,0.8898808,-0.1404718,1.004875,0.4845654,-0.26542768,2.2118988,-0.50708675,1.3303946,-2.9732742,-0.2592958,2.1944218,0.23388672,-0.51080894,0.92523533,0.7779078,-0.0547821,0.05823376,0.6232714,-0.68373024,0.6961613,0.8445459,1.0,0.0,0.0,0.0,0.0,0.0,0.0,-2.861899,0.10708675,-0.7803946,-0.9249687,0.2604723,4.124069,18.850676,0.13861656,-0.605464,2.6412845
-20.958405,53.323162,14.022053,32.831932,2.4361854,0.9899742,-0.56374115,-0.750966,0.79450345,0.4770791,0.17929791,0.67706704,0.64403456,-0.1826416,1.3431588,-0.6971851,-1.7155851,-0.88852584,2.2571573,1.3903222,-1.0080683,1.4053084,-0.76229984,-1.7543361,-0.9061047,2.1994414,1.3307253,-0.99228376,-1.3017778,1.4327285,0.8966604,0.093039505,0.99837035,0.47894523,-0.24245276,2.18219,-0.5096779,1.3515859,-2.9703014,-0.25903657,2.094042,0.22642899,-0.50395584,0.93401754,0.77957976,-0.06373748,0.056532107,0.62048125,-0.75896007,0.6883571,0.8828373,1.0,0.0,0.0,0.0,0.0,0.0,0.0,-2.83219,0.10967788,-0.80158585,-2.8625727,-0.31433105,0.45019388,23.173656,-0.20163059,-0.6464124,2.2076101
-21.695679,48.745937,12.085045,31.728184,2.303897,0.8329249,-0.6064533,-0.76700205,0.79511356,0.4622722,0.24262463,0.67916036,0.65189505,-0.20923054,1.3286082,-0.6827885,-1.7081089,-0.8818422,2.2673573,1.3959148,-1.0132068,1.3920275,-0.74801093,-1.7455204,-0.9035536,2.209371,1.3354841,-0.9945802,-1.3372446,1.4280351,0.8758956,0.3086172,0.9928105,0.4747365,-0.22567414,2.1525116,-0.51226616,1.3717741,-2.967332,-0.2587776,1.9937625,0.21825027,-0.4972,0.94310087,0.7816591,-0.073225304,0.054691654,0.6169731,-0.83135736,0.67907435,0.91011524,1.0,0.0,0.0,0.0,0.0,0.0,0.0,-2.8025117,0.11226615,-0.82177407,-3.682232,-0.35071373,-2.2577167,21.387884,-0.15051365,-0.5262196,1.5995592
-17.635551,44.982872,10.804975,27.640598,1.8856727,0.5631881,-0.5277878,-0.776568,0.78924996,0.44332075,0.30533344,0.6758471,0.6594606,-0.20203005,1.3143708,-0.6690859,-1.7011883,-0.8730203,2.2769558,1.4014302,-1.0147833,1.3784071,-0.7337888,-1.7370422,-0.8991362,2.2192473,1.3402144,-0.99672884,-1.3706942,1.4205098,0.8382149,0.48554265,0.98688734,0.47231612,-0.21145868,2.1228638,-0.51485157,1.3909603,-2.9643652,-0.25851884,1.893583,0.20944977,-0.49052048,0.9523466,0.7840966,-0.08311243,0.05279769,0.6127783,-0.88873637,0.67290205,0.92250144,1.0,0.0,0.0,0.0,0.0,0.0,0.0,-2.7728639,0.114851564,-0.8409603,-3.468299,-0.6574154,-3.8963556,17.533123,-0.24119616,-0.31729937,1.3451576
-8.410508,42.214134,9.870008,19.544168,1.028547,0.091541484,-0.34158003,-0.7838515,0.7882183,0.4064145,0.30438274,0.67470604,0.6629362,-0.23468053,1.300022,-0.65496695,-1.6964008,-0.8686979,2.286718,1.406508,-1.0201969,1.3645064,-0.71963626,-1.7290714,-0.8935324,2.2290664,1.3449332,-0.9987783,-1.3969107,1.4137056,0.78330904,0.58488184,0.9813796,0.4719793,-0.20304292,2.0932388,-0.5174351,1.4091455,-2.9614015,-0.2582604,1.7935038,0.20031738,-0.4838543,0.96154785,0.7867585,-0.0931685,0.05098881,0.60805494,-0.91367316,0.67413366,0.9124874,1.0,0.0,0.0,0.0,0.0,0.0,0.0,-2.743239,0.11743507,-0.85914546,-2.734375,-0.61216354,-5.52963,9.776592,-0.28437376,-0.00082850456,0.7616699
2.3999233,43.988964,10.7993965,11.624313,0.14290577,-0.2696455,-0.09098735,-0.7864109,0.7915041,0.39882088,0.28875265,0.6700067,0.655621,-0.23012781,1.2858653,-0.6404859,-1.6891893,-0.8646571,2.296067,1.4104953,-1.0217911,1.3504225,-0.70552,-1.7215908,-0.88749754,2.2388244,1.3496519,-1.0007571,-1.4127192,1.4110285,0.73655635,0.6092689,0.9745971,0.47238815,-0.19638914,2.0636444,-0.5200157,1.4263307,-2.9584405,-0.2580022,1.6935246,0.191185,-0.47708225,0.97053933,0.78945404,-0.10319097,0.049382452,0.6030549,-0.90501857,0.68808496,0.8879005,1.0,0.0,0.0,0.0,0.0,0.0,0.0,-2.7136445,0.12001571,-0.8763307,-1.6808987,-0.22552013,-4.6070457,2.2957683,-0.5019307,0.18191338,0.56687295
10.969224,43.37547,10.774602,4.473984,-0.57328486,-0.6669374,0.12665284,-0.7936456,0.78705513,0.38129696,0.24036759,0.6717653,0.66022974,-0.2391427,1.271058,-0.6268145,-1.6834611,-0.8634608,2.306001,1.4156749,-1.0246713,1.3362185,-0.6914342,-1.7145221,-0.8817564,2.248529,1.354386,-1.0026873,-1.4231561,1.407879,0.697428,0.5619009,0.9693798,0.47454426,-0.192102,2.0340805,-0.5225935,1.4425167,-2.9554827,-0.25774422,1.5936455,0.1823616,-0.47013092,0.97916764,0.7920129,-0.112982474,0.048062056,0.59803057,-0.8667628,0.7073731,0.84777075,1.0,0.0,0.0,0.0,0.0,0.0,0.0,-2.6840806,0.12259349,-0.8925167,-1.1356592,-0.2853632,-3.7635803,-4.878676,-0.42039156,0.4692018,0.32202005
15.82593,46.660294,12.271941,1.9750662,-0.85917556,-0.7573164,0.26262736,-0.7920695,0.78900546,0.39233577,0.23020966,0.67152876,0.6582957,-0.21469744,1.2570115,-0.6125337,-1.6752886,-0.85873544,2.315682,1.4202155,-1.024157,1.3219668,-0.67736083,-1.7076614,-0.87664855,2.2581916,1.359141,-1.0045642,-1.425978,1.4071691,0.6826497,0.49340224,0.9654556,0.47675422,-0.1864662,2.004547,-0.5251694,1.4577047,-2.952528,-0.25748655,1.4938662,0.17400742,-0.46293354,0.987403,0.79431254,-0.12249268,0.047025222,0.5931709,-0.816437,0.7331957,0.80880594,1.0,0.0,0.0,0.0,0.0,0.0,0.0,-2.6545472,0.12516937,-0.90770465,-0.35209656,-0.04591942,-1.2998819,-6.961417,-0.32391548,0.4985988,0.44849217
18.983582,49.044,13.500801,0.5850172,-0.98163426,-0.8097112,0.38601196,-0.79025805,0.786326,0.41429475,0.19592726,0.6736001,0.64811957,-0.15358636,1.2429409,-0.59872824,-1.6662319,-0.85705584,2.3255515,1.4239529,-1.0199229,1.3077284,-0.6632989,-1.7007377,-0.8723074,2.2678313,1.3639094,-1.0063437,-1.4232103,1.4058628,0.69604516,0.41407517,0.963716,0.47784653,-0.17546369,1.9750443,-0.5277424,1.4718956,-2.9495761,-0.25722912,1.3941866,0.16621017,-0.45544052,0.99526685,0.79625237,-0.131734,0.046217006,0.5886359,-0.7594985,0.76302004,0.7723905,1.0,0.0,0.0,0.0,0.0,0.0,0.0,-2.6250443,0.12774238,-0.92189556,0.23190975,-0.104403496,1.5200734,-8.012814,-0.119650364,0.39744377,0.98264515
16.623339,50.563812,14.156353,3.663167,-0.6844361,-0.6786505,0.3466586,-0.7875407,0.78808206,0.41913882,0.21807274,0.6730417,0.6547456,-0.07843845,1.2289743,-0.5844907,-1.6588238,-0.85050017,2.3351355,1.4293839,-1.0141876,1.2935454,-0.6492389,-1.693608,-0.8684889,2.2774634,1.3686892,-1.0079612,-1.4169468,1.4061899,0.71920556,0.37095332,0.96333975,0.4787766,-0.1577006,1.9455719,-0.53031254,1.4850906,-2.9466271,-0.25697193,1.2946067,0.15888977,-0.4476471,1.0028467,0.79782426,-0.14081313,0.045564912,0.5844415,-0.71392536,0.7925508,0.7468553,1.0,0.0,0.0,0.0,0.0,0.0,0.0,-2.595572,0.13031253,-0.9350906,0.5941391,0.06921291,2.4427056,-4.3726387,0.05786419,0.3273487,1.6633868
13.587404,49.02669,13.681301,6.1852884,-0.39554393,-0.6288016,0.30548084,-0.78776395,0.7830652,0.4251907,0.21965456,0.66759783,0.65434116,0.029825537,1.214769,-0.5709324,-1.651089,-0.84652346,2.3442233,1.4341233,-1.0049787,1.2794176,-0.63519603,-1.6862361,-0.8648926,2.287084,1.3734747,-1.0093306,-1.4112812,1.403877,0.74352837,0.3556526,0.9617618,0.4791203,-0.13046601,1.9161301,-0.5328808,1.4972905,-2.943681,-0.25671503,1.1951264,0.1519432,-0.43958187,1.0102124,0.7990579,-0.14981964,0.045019746,0.5805461,-0.6788394,0.8181923,0.72672606,1.0,0.0,0.0,0.0,0.0,0.0,0.0,-2.5661302,0.13288078,-0.9472905,0.53510666,-0.18525124,2.5173664,-1.5911996,-0.028729439,0.232476,2.6159616
11.884111,45.875908,12.370559,6.5696597,-0.3389964,-0.74060386,0.27160522,-0.79020476,0.7814895,0.4147448,0.19454771,0.6609206,0.65148896,0.09638961,1.2003971,-0.55704707,-1.6447617,-0.8454378,2.353176,1.4386237,-0.99969167,1.2653223,-0.6211818,-1.678725,-0.8614298,2.2966666,1.3782603,-1.0103949,-1.4091375,1.4006995,0.7539416,0.34286398,0.9578402,0.47902414,-0.098769255,1.8867188,-0.53544617,1.5084964,-2.9407377,-0.25645837,1.0957456,0.14533615,-0.4312992,1.0173614,0.79999125,-0.15874363,0.04460816,0.5769095,-0.64523727,0.8381725,0.70437413,1.0,0.0,0.0,0.0,0.0,0.0,0.0,-2.5367188,0.13544616,-0.9584964,0.17688274,-0.26640892,1.1094689,-1.3489187,-0.25157928,0.1889348,3.073916
11.210304,44.156826,11.820107,6.887123,-0.2818188,-0.8052548,0.2881575,-0.7851671,0.7767634,0.42669204,0.1913763,0.6524812,0.6436197,0.22650811,1.1868056,-0.54350543,-1.6360558,-0.8422922,2.3619146,1.4426222,-0.9877441,1.2512575,-0.60721713,-1.6711166,-0.8580519,2.306188,1.3830382,-1.011072,-1.4057224,1.3952053,0.7631895,0.33587956,0.95092976,0.4780261,-0.05753449,1.8573303,-0.5380087,1.5187092,-2.9377978,-0.25620195,0.996464,0.13905334,-0.42283535,1.0242893,0.8006291,-0.16757414,0.04434518,0.5735375,-0.6128965,0.85528296,0.68234885,1.0,0.0,0.0,0.0,0.0,0.0,0.0,-2.5073304,0.13800868,-0.9687092,0.3098488,-0.4944086,0.9774685,-0.76770186,-0.5438447,0.09506345,4.0313387
11.001834,39.20752,10.006628,5.8050947,-0.31857103,-1.0322067,0.28265727,-0.7741507,0.76510024,0.40389952,0.17807989,0.63443565,0.64256465,0.3170101,1.1738424,-0.5307071,-1.6307267,-0.84024394,2.3696318,1.4472946,-0.979371,1.237271,-0.5933545,-1.6635616,-0.85477126,2.3155951,1.3878065,-1.011299,-1.3963633,1.3834736,0.75305,0.32516426,0.93780684,0.47715625,-0.011466106,1.8279724,-0.5405693,1.5279299,-2.9348607,-0.2559458,0.89728177,0.13312912,-0.41426086,1.0309526,0.80098987,-0.17625122,0.044276305,0.5704299,-0.576678,0.86369145,0.6544381,1.0,0.0,0.0,0.0,0.0,0.0,0.0,-2.4779725,0.1405693,-0.9779299,0.9235859,-1.1130333,-0.9881735,-1.1502445,-1.1715293,0.13105273,4.5244174
10.695739,33.02117,7.8445253,4.555231,-0.37601894,-1.2806246,0.259564,-0.75931764,0.74511045,0.38047612,0.16816488,0.58553815,0.64484364,0.38228342,1.1613392,-0.5188435,-1.625514,-0.83795476,2.3741488,1.4522909,-0.9730707,1.2234408,-0.5796893,-1.656245,-0.8516232,2.3247352,1.3925692,-1.0110568,-1.3785107,1.3610368,0.7245244,0.3111014,0.9067146,0.4768953,0.03575579,1.798645,-0.54312706,1.5361595,-2.9319265,-0.25568992,0.7981987,0.127594,-0.40567493,1.0372863,0.8011155,-0.18469658,0.044478286,0.56755847,-0.5360121,0.8619046,0.6198722,1.0,0.0,0.0,0.0,0.0,0.0,0.0,-2.448645,0.14312705,-0.9861595,1.8019676,-2.178216,-2.8612018,-1.4972568,-2.9806018,0.21892786,4.6486297
12.830268,28.161854,5.9912243,0.446342,-0.69158673,-1.6517633,0.32787484,-0.7591243,0.7301068,0.3630216,0.08558835,0.5651144,0.6383053,0.4161827,1.1475283,-0.50667864,-1.6199428,-0.84306437,2.3812466,1.4563997,-0.9694385,1.2097708,-0.56629306,-1.6492813,-0.84897673,2.333528,1.3973299,-1.0103644,-1.3630629,1.3327523,0.6871182,0.24887541,0.8701816,0.47670668,0.08017113,1.7693481,-0.54568195,1.5433991,-2.9289951,-0.25543427,0.69921464,0.122592926,-0.39717388,1.0431763,0.80101496,-0.19273746,0.045036104,0.56497693,-0.4795341,0.85098326,0.57258594,1.0,0.0,0.0,0.0,0.0,0.0,0.0,-2.4193482,0.14568195,-0.9933991,1.5825987,-2.7670383,-3.733778,-6.309372,-3.572929,0.28473735,4.382515
18.232365,27.700642,5.8732853,-5.3584623,-1.1870513,-2.0148995,0.51633745,-0.7472468,0.71491724,0.37735665,-0.027120477,0.5493363,0.6308159,0.46273136,1.1350461,-0.49480134,-1.6115456,-0.8516888,2.3884616,1.4604115,-0.9640913,1.1962725,-0.5531991,-1.6425598,-0.8474442,2.3419585,1.4020869,-1.009241,-1.3451166,1.3018037,0.6671937,0.121303745,0.834116,0.4764505,0.12274386,1.7400818,-0.54823494,1.5496496,-2.9260666,-0.25517887,0.6003295,0.118320465,-0.38879776,1.0485064,0.8006075,-0.20017198,0.046001058,0.56288767,-0.39937857,0.8371422,0.51401776,1.0,0.0,0.0,0.0,0.0,0.0,0.0,-2.390082,0.14823493,-0.9996496,1.8870592,-3.041315,-1.9682288,-12.798487,-3.596723,0.3367722,4.2103543
21.48979,26.33952,5.701862,-8.77129,-1.3598824,-2.2706056,0.64436066,-0.7232155,0.6883397,0.38810822,-0.10968775,0.53934693,0.6264464,0.49760035,1.123951,-0.48436514,-1.6037489,-0.858413,2.395893,1.4647315,-0.95948094,1.1830279,-0.5404685,-1.6358955,-0.84744036,2.3500686,1.406838,-1.0077151,-1.317036,1.2636673,0.6659012,-0.039879285,0.80342925,0.4759616,0.16255361,1.710846,-0.55078506,1.5549119,-2.923141,-0.25492376,0.5015433,0.1149559,-0.3805895,1.053207,0.79981124,-0.20687166,0.047330517,0.56148535,-0.3069776,0.8178469,0.4499792,1.0,0.0,0.0,0.0,0.0,0.0,0.0,-2.360846,0.15078506,-1.0049119,2.972269,-3.7589073,-0.1488924,-16.116688,-3.0937672,0.32924414,3.9465725
19.880516,24.938095,5.590573,-7.131417,-1.083673,-2.2464716,0.622535,-0.70463645,0.6629846,0.3963863,-0.14513649,0.5223632,0.6272533,0.5321636,1.1125642,-0.47417006,-1.5962569,-0.86195403,2.402305,1.4695634,-0.95449877,1.1701056,-0.5281585,-1.6291473,-0.8489214,2.3579001,1.4115835,-1.0058097,-1.2831094,1.2203435,0.6776103,-0.18415268,0.77637106,0.47517154,0.19975108,1.681633,-0.5533323,1.559187,-2.9202185,-0.2546689,0.4028559,0.112449646,-0.3725958,1.0573053,0.79861385,-0.21285929,0.04892439,0.56081474,-0.22311266,0.79506093,0.39134696,1.0,0.0,0.0,0.0,0.0,0.0,0.0,-2.331633,0.15333232,-1.009187,3.580594,-4.2697906,1.0866284,-14.418737,-2.7033567,0.25321245,3.6907048
15.723665,20.814367,4.2098875,-4.2430615,-0.687879,-2.228348,0.49006742,-0.69370264,0.6383707,0.37203547,-0.19141032,0.5161709,0.62712383,0.51947564,1.1007353,-0.4643214,-1.5919437,-0.86806244,2.4095173,1.474296,-0.9538621,1.1575075,-0.51630145,-1.6223819,-0.8516613,2.3655105,1.4163176,-1.0035838,-1.251419,1.1744064,0.67580616,-0.3041053,0.7560629,0.4739473,0.22999518,1.6524506,-0.5558777,1.5624762,-2.917299,-0.25441426,0.30426717,0.11068344,-0.36488247,1.0608484,0.79709804,-0.21818212,0.05070851,0.56076723,-0.15325698,0.7644955,0.33712345,1.0,0.0,0.0,0.0,0.0,0.0,0.0,-2.3024507,0.15587768,-1.0124762,3.3373833,-4.5258045,-0.2937317,-12.013912,-2.0025134,0.15742183,2.9986024
13.75572,17.289398,2.8602793,-3.836462,-0.59003675,-2.3262851,0.42890495,-0.68262386,0.6130288,0.356652,-0.28085548,0.49298662,0.62372947,0.53130656,1.0892452,-0.45499858,-1.5867168,-0.87974685,2.4148092,1.4786905,-0.95045316,1.1451937,-0.5049127,-1.6157291,-0.8556315,2.3729072,1.4210383,-1.001089,-1.2241268,1.127325,0.6614303,-0.42806485,0.73417836,0.4721661,0.25608698,1.6232986,-0.5584202,1.5647801,-2.9143825,-0.2541599,0.205777,0.10959625,-0.35752106,1.0638362,0.7953463,-0.22281078,0.052686024,0.561252,-0.08599496,0.7271384,0.2815588,1.0,0.0,0.0,0.0,0.0,0.0,0.0,-2.2732987,0.15842018,-1.01478,2.892971,-4.6427965,-1.5523434,-12.422752,-2.169764,0.069874525,2.587709
10.719661,13.278722,1.5245234,-2.119485,-0.36721772,-2.3284817,0.3414241,-0.6711458,0.5805201,0.34591493,-0.33425745,0.45647055,0.62938726,0.54694694,1.0780791,-0.44686067,-1.5811377,-0.8890572,2.4185543,1.483977,-0.94639426,1.1331202,-0.4940275,-1.6092746,-0.86076224,2.3800216,1.4257437,-0.9983548,-1.2011855,1.0757585,0.63977563,-0.5415589,0.70389277,0.47070977,0.27913588,1.5941772,-0.5609598,1.5660999,-2.9114687,-0.2539058,0.10738534,0.10913086,-0.35056973,1.0662764,0.7934356,-0.22674042,0.054871492,0.5621725,-0.027089989,0.68397367,0.22731581,1.0,0.0,0.0,0.0,0.0,0.0,0.0,-2.2441773,0.16095981,-1.0160999,2.4398327,-5.093479,-2.2766232,-11.398721,-3.0085921,0.060015917,2.2771
7.0014877,2.1276,-2.0424113,-1.5679188,-0.113823235,-2.4849343,0.24231233,-0.64889276,0.5149954,0.3180321,-0.39189523,0.35303175,0.6322875,0.5663799,1.0682309,-0.44252795,-1.5774714,-0.89995176,2.4153247,1.4889724,-0.9417168,1.121308,-0.4838432,-1.6031368,-0.8669764,2.3865638,1.4304358,-0.9954051,-1.1741196,0.99946886,0.6047274,-0.6483937,0.6378172,0.46936673,0.2999896,1.5650864,-0.56349754,1.5664364,-2.908558,-0.25365195,0.009092025,0.109199524,-0.34417152,1.0681268,0.791466,-0.22993495,0.05731148,0.56340647,0.024931546,0.62410897,0.16702303,1.0,0.0,0.0,0.0,0.0,0.0,0.0,-2.2150865,0.16349754,-1.0164363,2.8681278,-7.5816274,-3.606367,-10.770965,-6.6271544,0.03273487,2.0249188
-1.1877851,-35.759224,-13.598787,-3.1172552,0.97477484,-3.1250224,0.10354149,-0.58284146,0.33154297,0.2556753,-0.44906357,0.231859,0.62710243,0.567788,1.0630238,-0.4506889,-1.5775692,-0.91188276,2.4097497,1.4931461,-0.9386263,1.1100184,-0.47515285,-1.5975883,-0.87422717,2.3921332,1.4351088,-0.992277,-1.1130452,0.82547325,0.5380036,-0.7513224,0.5295281,0.46709022,0.31647193,1.536026,-0.5660324,1.5657909,-2.90565,-0.25339833,-0.08910301,0.10965347,-0.3388548,1.0691715,0.7895871,-0.23218969,0.05985144,0.56485224,0.057097606,0.4995832,0.08018904,1.0,0.0,0.0,0.0,0.0,0.0,0.0,-2.186026,0.1660324,-1.0157909,6.382227,-17.419636,-6.7382574,-10.479439,-11.014056,-0.1259327,1.4751434
-22.910238,-124.290794,-41.032978,-4.9496975,3.8518388,-4.4633474,-0.25501442,-0.48606458,-0.06379939,0.11225916,-0.4952968,0.05349027,0.6158225,0.5639469,1.0614119,-0.48153278,-1.5863624,-0.92375684,2.3974822,1.496691,-0.93588233,1.099732,-0.46988094,-1.5932834,-0.8824488,2.3961844,1.4397417,-0.9890231,-0.9991632,0.42704195,0.39525732,-0.84705627,0.3618769,0.46140075,0.3269492,1.5069885,-0.5685644,1.564164,-2.9027448,-0.25314498,-0.18719986,0.10998535,-0.3359251,1.0688927,0.788138,-0.23299502,0.061953697,0.5663157,0.030581009,0.22255184,-0.0663807,1.0,0.0,0.0,0.0,0.0,0.0,0.0,-2.1569886,0.16856441,-1.014164,11.809217,-40.051113,-14.0868845,-9.943342,-17.35419,-0.717932,0.6155133
-19.80429,-168.85144,-53.866005,-16.21824,4.2672215,-5.7171497,-0.0927167,-0.14897603,-0.40615582,0.0012657947,-0.54756904,-0.38651884,0.5726309,0.50266814,1.0848345,-0.5104965,-1.5931568,-0.9372057,2.3575325,1.4970049,-0.9387563,1.0920321,-0.46981275,-1.5907657,-0.8915945,2.3974395,1.4442679,-0.9857358,-0.6920418,-0.13437688,0.20489712,-0.93792146,0.04408087,0.4476945,0.32746506,1.4779816,-0.5710945,1.561557,-2.8998425,-0.2528919,-0.28519866,0.11021805,-0.33635426,1.0668215,0.78716075,-0.2319569,0.063306816,0.56794894,0.021809945,-0.13216552,-0.25519282,1.0,0.0,0.0,0.0,0.0,0.0,0.0,-2.1279817,0.1710945,-1.0115571,31.217457,-56.480564,-18.734316,-9.331632,-32.505608,-1.9218981,-0.51864386
7.0866876,-149.46404,-44.193443,-27.390686,3.3479784,-6.0210385,0.609654,0.4025063,-0.6632141,-0.05633278,-0.47119316,-0.5548784,0.62645084,0.46314353,1.1322827,-0.5361342,-1.596399,-0.93871385,2.3419516,1.506913,-0.9394214,1.089686,-0.47566593,-1.5900753,-0.901034,2.395349,1.4486853,-0.982479,-0.08319246,-0.7366833,0.026301596,-0.94654185,-0.29458785,0.4365993,0.32372236,1.4490051,-0.57362175,1.5579708,-2.896943,-0.25263906,-0.38309947,0.11079407,-0.34014416,1.0629169,0.7860626,-0.22930215,0.063415594,0.57052994,0.068805754,-0.46109125,-0.435876,1.0,0.0,0.0,0.0,0.0,0.0,0.0,-2.0990052,0.17362174,-1.0079708,60.60651,-60.557617,-17.13145,-1.0547876,-34.195915,-2.0012796,-0.8018255
7.5845137,-115.72613,-35.88204,-18.139505,2.7897918,-5.261423,0.17693137,0.5315118,-0.74629843,-0.37691325,-0.35173655,-0.5692733,0.6689605,0.27487215,1.1428372,-0.55029577,-1.6277666,-0.93620765,2.3384216,1.5155814,-0.95499176,1.09331,-0.486565,-1.5921657,-0.9097525,2.3904243,1.4530264,-0.97939384,0.5068391,-1.2086885,-0.28264886,-0.8472308,-0.5596046,0.42991555,0.302685,1.4200592,-0.5761461,1.5534061,-2.8940465,-0.25238645,-0.48090237,0.111824036,-0.3468151,1.0574723,0.7848745,-0.22542799,0.062394638,0.5738127,0.11426989,-0.73367065,-0.58172464,1.0,0.0,0.0,0.0,0.0,0.0,0.0,-2.0700593,0.17614612,-1.003406,57.833378,-47.5196,-29.41671,9.830642,-26.714808,-1.6995788,-2.3262858
15.290627,-59.353184,-20.530529,-13.819009,0.90803915,-4.3306623,0.0145256035,0.6391912,-0.7779543,-0.5236258,-0.37544948,-0.62325245,0.6766981,0.13671684,1.1572291,-0.56436044,-1.6445283,-0.94729745,2.328099,1.5206962,-0.96572214,1.1019217,-0.5007737,-1.5975559,-0.91750777,2.3833938,1.4573275,-0.976611,0.97483325,-1.4923596,-0.61967534,-0.75165236,-0.75095403,0.42727202,0.26993877,1.3911438,-0.5786686,1.5478642,-2.8911529,-0.2521341,-0.5786076,0.11353302,-0.355505,1.0508329,0.7837727,-0.22060962,0.06086801,0.5773446,0.19111626,-0.9106116,-0.69442105,1.0,0.0,0.0,0.0,0.0,0.0,0.0,-2.041144,0.17866859,-0.9978642,45.43594,-28.600334,-32.25567,9.538436,-19.186901,-1.1252582,-3.3285856
17.500359,-13.898325,-8.079927,-8.786697,-0.38209698,-3.3767962,-0.1480793,0.6857712,-0.8083276,-0.6229837,-0.4074936,-0.6020271,0.6549316,-0.07355968,1.1704988,-0.5816065,-1.6598543,-0.95825714,2.3231912,1.5228206,-0.983967,1.1138865,-0.51663333,-1.6060798,-0.9246441,2.375112,1.4616057,-0.9742936,1.2671323,-1.6175737,-0.92680085,-0.7009155,-0.85380733,0.42606103,0.21903749,1.3622513,-0.5811882,1.541346,-2.8882625,-0.25188205,-0.6762151,0.116054535,-0.36537075,1.0432884,0.78290176,-0.21499363,0.05938681,0.58078885,0.2788463,-1.0077555,-0.77994645,1.0,0.0,0.0,0.0,0.0,0.0,0.0,-2.0122514,0.1811882,-0.99134594,28.281736,-12.671757,-29.798805,5.096841,-10.272324,-0.73073506,-5.0971627
18.783743,21.931715,3.056517,-3.945485,-1.0598578,-2.4104772,-0.13540863,0.72726774,-0.82176334,-0.662597,-0.42522043,-0.5399552,0.64884764,-0.20155796,1.1866132,-0.59880966,-1.6723396,-0.9671662,2.3211164,1.5264904,-0.9944494,1.1276823,-0.5329345,-1.6170223,-0.93161166,2.3664298,1.4658839,-0.97254837,1.4157603,-1.6346225,-1.148853,-0.695361,-0.872745,0.4272283,0.15971808,1.3333893,-0.58370495,1.5338525,-2.885375,-0.25163022,-0.77372503,0.119392395,-0.37571907,1.0350999,0.7822672,-0.20874365,0.05818945,0.5840359,0.36265144,-1.0390168,-0.8392147,1.0,0.0,0.0,0.0,0.0,0.0,0.0,-1.9833893,0.18370494,-0.98385245,14.411616,-1.782608,-21.85874,0.53988695,-1.8687844,-0.25250316,-5.9252443
21.104866,48.574554,12.471499,-1.3938637,-1.544294,-1.5946095,0.044530183,0.74568987,-0.8161287,-0.64389765,-0.48061466,-0.5095861,0.647053,-0.26502192,1.2022513,-0.6145474,-1.681412,-0.97967315,2.3154712,1.5305891,-0.99905056,1.1421896,-0.5489438,-1.6292961,-0.9389492,2.3579116,1.4701849,-0.9713944,1.4620095,-1.5897175,-1.2538382,-0.746936,-0.8444056,0.43015525,0.10076019,1.3045578,-0.5862198,1.5253845,-2.8824904,-0.25137863,-0.87113744,0.123542786,-0.385993,1.026473,0.7817093,-0.20203142,0.057315383,0.5872212,0.4430383,-1.0178069,-0.87894493,1.0,0.0,0.0,0.0,0.0,0.0,0.0,-1.9545578,0.18621978,-0.97538453,4.520583,4.478407,-10.584116,-5.257535,2.8675795,0.08393526,-5.8707504
22.216995,59.97699,17.298294,-0.18990421,-1.6225882,-1.1140242,0.21545036,0.7684945,-0.81725806,-0.6373983,-0.53028923,-0.48488408,0.63940865,-0.3016035,1.2190391,-0.6306696,-1.6930358,-0.99197817,2.3094232,1.5341258,-1.0015547,1.1567923,-0.56439143,-1.6419647,-0.94708216,2.3498359,1.4745108,-0.9707955,1.4599096,-1.5296673,-1.2722559,-0.83577234,-0.79481626,0.43297467,0.046547864,1.2757568,-0.58873177,1.5159432,-2.8796086,-0.25112727,-0.9684525,0.12844849,-0.39587212,1.0175211,0.7810398,-0.19497217,0.056681614,0.5905504,0.5171429,-0.9716311,-0.90930176,1.0,0.0,0.0,0.0,0.0,0.0,0.0,-1.9257568,0.18873176,-0.96594316,-0.16596317,6.033063,-2.1428585,-9.014595,5.0076246,0.13793707,-5.3556986
21.771614,62.295815,18.897434,0.82281876,-1.5235734,-0.8546104,0.30121416,0.78006303,-0.81024545,-0.63919604,-0.57225025,-0.48082557,0.63206893,-0.3247079,1.2347986,-0.64541596,-1.7058842,-1.0043072,2.3017533,1.5377177,-1.0032663,1.1712462,-0.57928115,-1.6544826,-0.9562012,2.342237,1.4788576,-0.97069156,1.440694,-1.4752532,-1.2461241,-0.9376673,-0.7480435,0.43497276,-0.0013663142,1.2469826,-0.5912409,1.5055295,-2.8767297,-0.25087622,-1.0656703,0.13404083,-0.40523434,1.0082889,0.78013617,-0.18763663,0.05620363,0.5941558,0.58404785,-0.9171332,-0.93631685,1.0,0.0,0.0,0.0,0.0,0.0,0.0,-1.8969826,0.19124088,-0.9555295,-1.822257,5.48923,2.2192717,-10.2993965,4.741645,0.07839799,-4.6897526
19.384338,59.239876,18.57562,2.957222,-1.1685393,-0.6679953,0.28881896,0.7882242,-0.80680233,-0.6338982,-0.58864594,-0.4711508,0.64028543,-0.36241505,1.2500685,-0.6599614,-1.7178724,-1.0150658,2.295122,1.5428861,-1.0069331,1.1855208,-0.5937579,-1.6666095,-0.96620524,2.3350425,1.4832293,-0.97103584,1.4232941,-1.4383837,-1.2028428,-1.0214859,-0.7098305,0.43765774,-0.0450316,1.218235,-0.5937481,1.4941443,-2.8738537,-0.2506254,-1.1627908,0.1402092,-0.4140749,0.9988044,0.7789588,-0.18010782,0.055789504,0.5980566,0.6379423,-0.8649029,-0.96058875,1.0,0.0,0.0,0.0,0.0,0.0,0.0,-1.868235,0.19374809,-0.9441443,-1.6356468,3.7313461,3.9361477,-8.443748,3.8823724,0.16772151,-4.2359796
15.596653,56.79126,18.32961,6.7834973,-0.7813515,-0.40737212,0.21677825,0.7874951,-0.8006674,-0.6104219,-0.57457817,-0.5085443,0.65375257,-0.3470849,1.2642703,-0.67382467,-1.7276517,-1.023663,2.284188,1.5486045,-1.0057443,1.1996561,-0.60798484,-1.678231,-0.97672045,2.3280158,1.487641,-0.97175395,1.4105611,-1.4173471,-1.1496915,-1.0616267,-0.7001998,0.4419328,-0.08024536,1.189518,-0.59625244,1.4817888,-2.8709805,-0.25037482,-1.2598143,0.14680862,-0.4224043,0.98913246,0.7775237,-0.17253874,0.05541129,0.6021768,0.6751545,-0.81358904,-0.9770411,1.0,0.0,0.0,0.0,0.0,0.0,0.0,-1.839518,0.19625244,-0.93178874,-1.1776209,2.1340132,4.9705267,-4.0393114,0.99766254,0.3800273,-3.3882751
10.629685,52.13475,16.849863,10.680014,-0.34884942,-0.24334443,0.09116611,0.7855566,-0.8016916,-0.6080238,-0.54790163,-0.5474599,0.66683,-0.32523948,1.2782118,-0.688154,-1.7390333,-1.0315106,2.27327,1.554324,-1.004278,1.2136999,-0.62211543,-1.6894081,-0.9872776,2.3208823,1.4921023,-0.97276103,1.4027636,-1.4116668,-1.1078016,-1.053696,-0.7180179,0.44752154,-0.10722802,1.1608315,-0.5987539,1.4684635,-2.8681102,-0.25012448,-1.3567407,0.15364456,-0.43027782,0.9793361,0.7759066,-0.16506718,0.0550952,0.60637134,0.6955623,-0.7695917,-0.9878206,1.0,0.0,0.0,0.0,0.0,0.0,0.0,-1.8108314,0.19875392,-0.9184635,-0.6969452,0.5720377,3.937149,0.8098364,-1.8028498,0.54677725,-2.5853486
4.770622,44.822426,13.89964,13.659645,0.12695265,-0.2210696,-0.040622532,0.7738575,-0.8097617,-0.6265376,-0.5246625,-0.5595921,0.6696682,-0.2715082,1.2910857,-0.7030916,-1.7520618,-1.0397439,2.264923,1.559069,-0.99991184,1.2276503,-0.63629466,-1.7003791,-0.9975096,2.3134933,1.496617,-0.97396076,1.3925724,-1.4201084,-1.094139,-1.012774,-0.7461464,0.4528101,-0.123903684,1.1321716,-0.6012535,1.4541699,-2.8652427,-0.24987441,-1.4535702,0.16058731,-0.43782902,0.9694243,0.7742198,-0.15773459,0.054872192,0.6104855,0.7008026,-0.7406317,-0.9992525,1.0,0.0,0.0,0.0,0.0,0.0,0.0,-1.7821716,0.2012535,-0.90416986,-0.93176365,-0.87349415,1.2181044,4.1665792,-2.9097319,0.51490664,-1.5835285
1.3954115,40.452007,11.872603,14.985945,0.37741148,-0.26064208,-0.11217564,0.7678799,-0.81258476,-0.6476326,-0.5015347,-0.5699619,0.67062837,-0.20709588,1.3044382,-0.71755314,-1.7651424,-1.0476631,2.2564971,1.5636798,-0.99467033,1.2414938,-0.6505979,-1.7114265,-1.0072109,2.3058105,1.5011793,-0.9752492,1.3818848,-1.4339097,-1.1085073,-0.95554787,-0.77592456,0.45734426,-0.13031732,1.1035385,-0.6037502,1.4389087,-2.8623781,-0.24962458,-1.550303,0.16752625,-0.44517326,0.9593786,0.77255166,-0.15051548,0.054780897,0.6144168,0.6991153,-0.7225463,-1.013077,1.0,0.0,0.0,0.0,0.0,0.0,0.0,-1.7535385,0.20375022,-0.8889087,-0.97773075,-1.4318705,-1.5143156,5.8352113,-3.1245232,0.42431355,-0.5802512
0.7176132,39.858746,11.569353,15.16543,0.44384718,-0.25992095,-0.10729998,0.7628219,-0.8179599,-0.64509386,-0.4787842,-0.5845181,0.66950595,-0.16599308,1.317776,-0.73239386,-1.7759359,-1.0550892,2.2473586,1.5681299,-0.99184847,1.2552305,-0.66505176,-1.7226589,-1.0163184,2.2978415,1.5057799,-0.97655094,1.3713051,-1.4494513,-1.1282752,-0.8953454,-0.80450773,0.46091932,-0.12995364,1.0749359,-0.6062441,1.4226807,-2.8595164,-0.24937502,-1.6469389,0.17444229,-0.4523592,0.94918776,0.7709218,-0.14338681,0.05483427,0.61815274,0.69603413,-0.7075154,-1.0277023,1.0,0.0,0.0,0.0,0.0,0.0,0.0,-1.7249359,0.20624408,-0.8726807,-0.96702576,-1.6141891,-2.0323992,6.147015,-3.019607,0.3189087,0.093227625
-7.012682,44.44845,13.212533,23.275219,1.1155827,0.26628,-0.28522378,0.73580676,-0.8160649,-0.6232896,-0.32505244,-0.63243073,0.69574744,-0.09011621,1.3288112,-0.74665827,-1.7849878,-1.0488237,2.2345984,1.5753546,-0.98556256,1.2687651,-0.67962104,-1.7339618,-1.0242416,2.2895026,1.5104395,-0.97778404,1.3476843,-1.4597002,-1.1308268,-0.75775486,-0.8448642,0.46794164,-0.12095286,1.0463638,-0.60873604,1.4054872,-2.8566575,-0.24912569,-1.7434783,0.18109894,-0.45937538,0.9390378,0.76941806,-0.13659976,0.05501789,0.62153786,0.6631513,-0.6899609,-1.0172789,1.0,0.0,0.0,0.0,0.0,0.0,0.0,-1.6963638,0.20873603,-0.85548717,-2.2604942,-1.1078835,-0.21948814,13.874208,-4.2809963,0.8130729,0.9365797
-15.010784,43.20352,12.066681,29.207935,1.8017423,0.4671429,-0.48255315,0.7143148,-0.8229872,-0.6598063,-0.20119992,-0.6380836,0.6937944,-0.034546085,1.3401966,-0.76191974,-1.7999425,-1.0443616,2.2256942,1.579819,-0.98123866,1.2819906,-0.6942876,-1.7454078,-1.0303622,2.2807975,1.5151659,-0.9788846,1.3145748,-1.4693496,-1.148727,-0.56320375,-0.88026595,0.47494483,-0.106387146,1.0178185,-0.6112251,1.387329,-2.8538015,-0.24887662,-1.8399212,0.18724823,-0.46630573,0.9290874,0.76819897,-0.1303431,0.05530988,0.624357,0.6070088,-0.68460184,-0.9939827,1.0,0.0,0.0,0.0,0.0,0.0,0.0,-1.6678184,0.21122512,-0.837329,-3.1885862,-1.0827303,-1.6548872,19.604038,-3.8663268,0.88359714,1.4716372
-8.875658,42.415314,11.723129,23.267807,1.2904145,0.09496245,-0.32725173,0.71812844,-0.82864124,-0.6754514,-0.2274459,-0.6379103,0.6783055,-0.04761734,1.3538035,-0.7771517,-1.812953,-1.0531068,2.2170064,1.5829965,-0.98364633,1.2949549,-0.70904666,-1.7570903,-1.0349723,2.2718177,1.51994,-0.9798564,1.2908652,-1.4784489,-1.1743708,-0.4263775,-0.9047676,0.47837508,-0.09395264,0.9892998,-0.6137123,1.3682071,-2.8509483,-0.2486278,-1.9362676,0.19301987,-0.47319126,0.91925055,0.7672344,-0.1244694,0.055726573,0.62670034,0.5741424,-0.68093103,-0.986433,1.0,0.0,0.0,0.0,0.0,0.0,0.0,-1.6392998,0.2137123,-0.8182071,-2.2542715,-1.0231256,-2.473569,13.845974,-2.7308583,0.40854812,1.2661457
-0.34271622,43.51774,12.24915,15.76278,0.536505,-0.26341265,-0.11139245,0.7132035,-0.8250685,-0.68710715,-0.2513277,-0.63679266,0.6725327,-0.06663063,1.3662752,-0.7915535,-1.825801,-1.0601051,2.2081385,1.5871933,-0.98651946,1.3077399,-0.7238534,-1.7690494,-1.0388004,2.2626777,1.5247313,-0.9807309,1.2747864,-1.4817349,-1.2029778,-0.3676982,-0.917967,0.4790363,-0.08522215,0.9608116,-0.61619663,1.3481225,-2.848098,-0.24837922,-2.0325177,0.19867706,-0.47999,0.9093508,0.7663821,-0.11870698,0.056314006,0.628805,0.5702708,-0.67099583,-0.9973202,1.0,0.0,0.0,0.0,0.0,0.0,0.0,-1.6108116,0.21619663,-0.79812247,-1.5014648,-0.4241228,-2.83916,6.018442,-1.5417814,0.0070512295,0.8970335
4.1516232,46.67797,13.888221,13.219962,0.29982042,-0.2981998,-0.010052636,0.7118203,-0.82624614,-0.6786622,-0.20374279,-0.61782706,0.6821225,-0.10359683,1.3789219,-0.806478,-1.8369156,-1.0591747,2.200895,1.5929435,-0.9910906,1.3204256,-0.7386735,-1.7811935,-1.0422145,2.2535224,1.5295283,-0.9815587,1.2667723,-1.4824445,-1.2181685,-0.3323901,-0.91570663,0.47967142,-0.08182744,0.932354,-0.61867905,1.3270761,-2.8452506,-0.24813089,-2.1286712,0.20436859,-0.48663807,0.89932835,0.76553625,-0.11295639,0.0570269,0.63082725,0.5757255,-0.6546909,-1.0101254,1.0,0.0,0.0,0.0,0.0,0.0,0.0,-1.582354,0.21867904,-0.77707607,-0.71656704,-0.1588583,-1.5121698,3.6575913,0.021636486,-0.02707839,0.37864894
7.63058,49.004616,15.073282,11.065938,0.029087126,-0.315262,0.087094724,0.70893127,-0.8266971,-0.6778149,-0.19233441,-0.6365705,0.68308896,-0.06629931,1.3913188,-0.82134324,-1.848975,-1.061448,2.1898654,1.5978372,-0.9881886,1.3330637,-0.7534898,-1.7934139,-1.0454284,2.2443671,1.534329,-0.982335,1.2630978,-1.4816933,-1.2232945,-0.31747505,-0.91631514,0.4798686,-0.07604548,0.90392303,-0.6211586,1.3050689,-2.842406,-0.24788281,-2.2247288,0.210186,-0.4930792,0.88915914,0.7646093,-0.107182845,0.057858314,0.6328798,0.5897188,-0.6320096,-1.0253117,1.0,0.0,0.0,0.0,0.0,0.0,0.0,-1.553923,0.2211586,-0.75506884,-0.29559135,-0.0052452087,-0.52058697,1.6031146,-0.25126934,-0.100171566,0.6193593
11.880906,49.411274,15.465309,7.476295,-0.33649576,-0.42294294,0.19959283,0.7082618,-0.8270158,-0.68446153,-0.22952977,-0.6341563,0.68207663,-0.07333494,1.4038899,-0.83619136,-1.86186,-1.0683814,2.1809516,1.6025367,-0.9896685,1.3456866,-0.76829654,-1.8056686,-1.0487777,2.2352157,1.5391299,-0.9830626,1.2624385,-1.4805491,-1.22648,-0.34033003,-0.9152455,0.47932172,-0.07159616,0.8755188,-0.6236353,1.2821018,-2.8395643,-0.24763498,-2.3206902,0.21622849,-0.49925423,0.87877053,0.7635103,-0.10129207,0.058826335,0.6350837,0.6161449,-0.6041702,-1.0494362,1.0,0.0,0.0,0.0,0.0,0.0,0.0,-1.5255188,0.22363529,-0.73210174,0.0022649765,0.046610832,-0.36492348,-2.1775186,-0.0551939,-0.2308011,0.4899621
12.959455,50.605022,15.988654,6.7262154,-0.44552404,-0.38225377,0.24364212,0.70624304,-0.8251178,-0.6859096,-0.23139548,-0.6438885,0.6805578,-0.021653896,1.4163109,-0.8508083,-1.8742596,-1.0719173,2.170827,1.6071856,-0.985228,1.3583075,-0.7830842,-1.8179424,-1.052415,2.226049,1.5439211,-0.98371303,1.2622044,-1.4782934,-1.228044,-0.37136066,-0.91799647,0.47845683,-0.062720194,0.8471451,-0.6261101,1.2581757,-2.8367255,-0.2473874,-2.4165556,0.22255325,-0.5051279,0.86813194,0.7621847,-0.09524215,0.05995171,0.63750225,0.6446902,-0.57261974,-1.0746171,1.0,0.0,0.0,0.0,0.0,0.0,0.0,-1.497145,0.22611007,-0.7081757,0.046491623,0.16374588,-0.21739006,-2.9952705,-0.43008327,-0.27421117,0.93340576
12.016772,52.166626,16.592602,7.8793793,-0.31560725,-0.25623655,0.21972486,0.7064783,-0.82390434,-0.68405384,-0.21874318,-0.6360293,0.6858433,-0.009597743,1.4289553,-0.86547464,-1.8863478,-1.0742893,2.162446,1.6125054,-0.9846728,1.3709303,-0.7978452,-1.8302143,-1.0562698,2.2168746,1.5487086,-0.98427,1.2626342,-1.4756197,-1.2271445,-0.38974506,-0.91777843,0.47831708,-0.05330179,0.8188019,-0.628582,1.2332917,-2.8338895,-0.24714006,-2.5123253,0.22912979,-0.51068115,0.8572745,0.7606295,-0.089073315,0.061219133,0.6401257,0.6679771,-0.5403241,-1.0952721,1.0,0.0,0.0,0.0,0.0,0.0,0.0,-1.4688019,0.228582,-0.68329173,0.11115074,0.20503998,0.038909912,-1.7309964,-0.140059,-0.18243194,0.992877
7.5823145,54.238487,17.212198,11.813203,0.09680474,0.002300337,0.115546316,0.7003087,-0.82555157,-0.6715245,-0.170559,-0.6459113,0.691593,0.014477257,1.4409611,-0.88040036,-1.8973668,-1.0733256,2.1522834,1.6178678,-0.98282224,1.3835303,-0.8125928,-1.8424118,-1.0600082,2.2076735,1.5535036,-0.9847239,1.2592268,-1.4747404,-1.2173082,-0.36794418,-0.92140687,0.47952086,-0.042581633,0.79048157,-0.63105106,1.207451,-2.8310564,-0.24689297,-2.6079993,0.23583221,-0.51593304,0.84630024,0.75890404,-0.082921326,0.06258556,0.642862,0.6761125,-0.5107296,-1.1037246,1.0,0.0,0.0,0.0,0.0,0.0,0.0,-1.4404815,0.23105106,-0.657451,-0.2772808,0.015974045,0.9762049,2.2863567,-0.5568147,0.015246868,1.1237309
4.8328624,54.13962,16.72741,12.997192,0.24076891,0.07991819,0.06267265,0.6887681,-0.822524,-0.6804815,-0.17431743,-0.65135485,0.68785745,0.025238462,1.4524071,-0.8948452,-1.9104599,-1.0774399,2.142538,1.6222894,-0.9822001,1.3960406,-0.82732517,-1.8545539,-1.0634853,2.198423,1.5583102,-0.985073,1.2486393,-1.4729607,-1.2129867,-0.34077412,-0.927128,0.48049766,-0.032224946,0.7621918,-0.6335182,1.1806542,-2.828226,-0.24664612,-2.7035775,0.24256897,-0.52091694,0.83524853,0.7570665,-0.07683112,0.06405814,0.6456344,0.67861867,-0.48420042,-1.1111456,1.0,0.0,0.0,0.0,0.0,0.0,0.0,-1.4121917,0.23351821,-0.63065416,-0.9853363,0.100302696,0.4395485,2.8341293,-0.77922344,0.0021398067,1.0759122
2.1205816,53.039158,15.777674,13.765436,0.36592013,0.11077474,-0.003461957,0.6772445,-0.82218444,-0.6923962,-0.16500373,-0.65599173,0.6826913,-0.015500257,1.463765,-0.90954363,-1.9237936,-1.0799856,2.1328237,1.6265793,-0.986623,1.4083983,-0.84204227,-1.8667247,-1.0666782,2.1891074,1.5631186,-0.98536,1.2317411,-1.4714983,-1.2185825,-0.31170365,-0.934041,0.48083752,-0.027508773,0.7339325,-0.6359825,1.1529022,-2.8253984,-0.24639954,-2.7990603,0.24930191,-0.52566624,0.8241092,0.7551744,-0.070781425,0.06566489,0.64837456,0.67668474,-0.46199444,-1.120221,1.0,0.0,0.0,0.0,0.0,0.0,0.0,-1.3839325,0.23598251,-0.60290223,-1.6072989,0.062465668,-0.5391121,3.0394256,-0.9072423,-0.06259084,0.5003676
9.317536,49.31121,14.828771,7.0154843,-0.26950562,-0.19556665,0.15357085,0.68300164,-0.8278774,-0.70413226,-0.25898907,-0.6507591,0.66580147,-0.11779779,1.4766984,-0.92483,-1.937138,-1.0925771,2.1240315,1.6296988,-0.9971398,1.4206377,-0.8567746,-1.8790252,-1.0700885,2.17975,1.5679117,-0.98568714,1.2216498,-1.4739796,-1.234118,-0.35029855,-0.93695766,0.47815415,-0.034405965,0.7056999,-0.6384449,1.1241962,-2.8225734,-0.24615319,-2.8944478,0.25618362,-0.53015137,0.81271464,0.75315106,-0.064572066,0.067439295,0.651188,0.6965814,-0.4339549,-1.1510698,1.0,0.0,0.0,0.0,0.0,0.0,0.0,-1.3556999,0.2384449,-0.57419616,-0.9193659,-0.3169775,-1.6003609,-3.704828,-0.4566908,-0.48211813,-0.65233636
4.9767566,50.4906,14.623964,9.09997,-0.09900308,0.0045265853,0.07129097,0.6538799,-0.82120126,-0.70842606,-0.22879615,-0.6817477,0.6843168,-0.1484438,1.4860257,-0.93889475,-1.9498678,-1.0929681,2.1115751,1.6363435,-1.0005316,1.4326807,-0.8715041,-1.8914936,-1.0738174,2.170282,1.5726935,-0.9861144,1.1988541,-1.4728614,-1.2512195,-0.3799191,-0.9506574,0.47751904,-0.045442592,0.67749405,-0.6409044,1.0945369,-2.8197513,-0.24590708,-2.98974,0.26319504,-0.5343571,0.80103767,0.7510148,-0.058176428,0.06943486,0.65404195,0.7065822,-0.40595922,-1.1783638,1.0,0.0,0.0,0.0,0.0,0.0,0.0,-1.327494,0.24090442,-0.5445369,-2.1742105,0.039243698,-1.7457485,-2.8025806,-1.5554905,-0.25557876,-1.084774
4.455887,46.21358,12.596265,6.18046,-0.33746982,-0.066084296,0.11511865,0.623736,-0.82763755,-0.7299404,-0.31722596,-0.70121026,0.6681641,-0.24412426,1.4950544,-0.95426786,-1.9644876,-1.1055399,2.1001608,1.6395099,-1.0105268,1.4443861,-0.88624793,-1.9042022,-1.0781966,2.1606307,1.5774561,-0.98671997,1.1617055,-1.4751885,-1.277696,-0.4567966,-0.9708119,0.47476622,-0.0655879,0.6493187,-0.64336205,1.0639254,-2.816932,-0.24566121,-3.0849366,0.27033234,-0.53827953,0.78896403,0.7487586,-0.05147019,0.071717665,0.6569382,0.72086644,-0.37692085,-1.2221692,1.0,0.0,0.0,0.0,0.0,0.0,0.0,-1.2993187,0.24336204,-0.5139254,-3.5747528,-0.3007412,-2.7306318,-7.4882627,-2.1860003,-0.5394101,-2.0046465
1.3624921,45.199734,11.951438,6.4144516,-0.2048409,0.08738461,0.117341034,0.58917576,-0.8330354,-0.7257025,-0.3575782,-0.69975454,0.6687259,-0.28850657,1.5033036,-0.96955144,-1.9767724,-1.1139544,2.0906553,1.6443287,-1.0155706,1.4556128,-0.9010423,-1.9171131,-1.0834495,2.150804,1.5821921,-0.98754966,1.1100488,-1.4809955,-1.2958231,-0.5475042,-0.98739254,0.472131,-0.088705465,0.62117004,-0.6458168,1.0323627,-2.8141155,-0.24541561,-3.180038,0.27757263,-0.541914,0.77642804,0.7463675,-0.044385806,0.07426481,0.6598865,0.72751737,-0.3480215,-1.2690221,1.0,0.0,0.0,0.0,0.0,0.0,0.0,-1.27117,0.2458168,-0.4823627,-5.003977,-0.6490946,-1.9136667,-8.847427,-1.8399119,-0.53866506,-2.2937343
-11.018247,46.33056,10.77949,10.883396,0.3644656,0.55043876,0.019011095,0.494503,-0.82385087,-0.71599925,-0.40582573,-0.7108323,0.6794711,-0.2806617,1.505063,-0.98342735,-1.988713,-1.124032,2.0797207,1.6501392,-1.0156158,1.4659697,-0.9158481,-1.9300945,-1.0896655,2.1408134,1.5869128,-0.98858726,1.0115405,-1.4806927,-1.2993999,-0.6453602,-1.0039479,0.47128677,-0.10875977,0.5930481,-0.6482687,0.99984974,-2.811302,-0.24517025,-3.2750444,0.2846794,-0.54529667,0.76346296,0.7439012,-0.03694934,0.07704651,0.66280425,0.707289,-0.32382065,-1.3104963,1.0,0.0,0.0,0.0,0.0,0.0,0.0,-1.2430481,0.2482687,-0.44984972,-9.638953,-0.050997734,-0.45166016,-9.538424,-1.9048333,-0.31588078,-2.007538
-33.49417,44.045944,6.729352,18.360888,1.4407676,1.1313767,-0.18598291,0.34494925,-0.82026696,-0.71669585,-0.467114,-0.70595574,0.6757539,-0.25478292,1.5004646,-0.9978748,-2.001764,-1.136377,2.0702178,1.6544881,-1.0140655,1.4747683,-0.93062335,-1.9430606,-1.0969135,2.1307006,1.5916277,-0.9897841,0.8370443,-1.4767679,-1.2958957,-0.7503006,-1.0148197,0.47096476,-0.12341069,0.56495667,-0.6507187,0.9663874,-2.8084912,-0.24492513,-3.3699558,0.29125595,-0.5485811,0.7501027,0.74152726,-0.029163573,0.08002473,0.6654943,0.64274174,-0.31808946,-1.3491659,1.0,0.0,0.0,0.0,0.0,0.0,0.0,-1.2149566,0.25071868,-0.41638738,-17.165207,0.2727747,0.2999544,-10.182595,-1.4551163,-0.21287203,-1.4991269
-105.471794,29.321575,-9.648326,40.142433,4.7290373,2.5817206,-0.8536169,-0.1016014,-0.8188348,-0.7144803,-0.5891284,-0.6776603,0.66379523,-0.13894647,1.4646082,-1.0125068,-2.0145087,-1.1558263,2.0629346,1.6580073,-1.0036788,1.4799696,-0.9453576,-1.9559543,-1.1055156,2.1205802,1.5963331,-0.99102294,0.41624376,-1.4732364,-1.2866993,-0.8949821,-1.0139662,0.4699972,-0.12455098,0.53689575,-0.6531658,0.9319767,-2.8056834,-0.24468024,-3.4647722,0.29620743,-0.55231476,0.73629487,0.7397863,-0.020861514,0.083132505,0.6673603,0.4462899,-0.38048372,-1.3955822,1.0,0.0,0.0,0.0,0.0,0.0,0.0,-1.1868957,0.2531658,-0.38197666,-41.561073,0.06480217,1.0524035,-13.876486,-0.70176125,-0.24522543,-0.24894774
-174.5907,18.233006,-24.43524,59.97258,8.00103,4.038758,-1.3429544,-0.5729174,-0.8085785,-0.6778672,-0.75033844,-0.55986357,0.5929275,0.14765751,1.4226779,-1.0262154,-2.023741,-1.1805494,2.0645938,1.6556259,-0.9762572,1.4791743,-0.96002895,-1.9685771,-1.116027,2.1108184,1.6009661,-0.99203765,-0.24220909,-1.4669282,-1.2531683,-1.0997238,-0.968018,0.45981196,-0.09411573,0.5088577,-0.65561104,0.8966185,-2.8028784,-0.24443562,-3.5594938,0.29823685,-0.557147,0.72198486,0.7392226,-0.011777495,0.08611238,0.6678292,0.12066755,-0.50706166,-1.4467078,1.0,0.0,0.0,0.0,0.0,0.0,0.0,-1.1588577,0.25561103,-0.34661847,-65.08897,0.08625984,3.6837578,-19.424843,3.2624006,-1.391077,2.9654324
-152.33759,39.46707,-11.324306,56.771915,7.8316946,4.387574,-0.93531024,-0.6474578,-0.79406714,-0.5130036,-0.77768636,-0.35976347,0.6040743,0.370222,1.4144285,-1.0394356,-2.0198774,-1.1937957,2.074842,1.6613735,-0.9550155,1.4723841,-0.97457916,-1.9801204,-1.1283561,2.1021247,1.6055037,-0.99255836,-0.8224017,-1.4528632,-1.1207682,-1.2737741,-0.84083045,0.44999582,-0.03713976,0.48085022,-0.6580534,0.8603138,-2.8000762,-0.24419124,-3.654121,0.2971573,-0.563015,0.7074993,0.73967755,-0.0021391297,0.08828956,0.6671413,-0.18820591,-0.60302365,-1.4524344,1.0,0.0,0.0,0.0,0.0,0.0,0.0,-1.1308502,0.2580534,-0.31031376,-57.369495,0.8746147,13.4066105,-16.317535,11.484814,-1.4464438,5.970612
-104.09895,49.171368,-0.10862565,43.238007,6.150988,3.4483175,-0.5304757,-0.6607842,-0.8061799,-0.5447586,-0.76113594,-0.23438741,0.5779404,0.43327534,1.4063057,-1.0551971,-2.0345962,-1.2044697,2.078686,1.6632978,-0.94923085,1.4612929,-0.989055,-1.990567,-1.1418563,2.0950255,1.6099306,-0.99247634,-1.2030554,-1.447119,-1.019347,-1.3724728,-0.6694677,0.43876037,0.024812702,0.45287323,-0.66049385,0.8230635,-2.7972767,-0.2439471,-3.7486532,0.2936058,-0.56958485,0.69303584,0.7407718,0.007840089,0.089253105,0.6657549,-0.41577965,-0.6644617,-1.4469053,1.0,0.0,0.0,0.0,0.0,0.0,0.0,-1.1028732,0.26049384,-0.27306348,-37.61816,0.18773079,10.144305,-8.964682,16.311848,-1.5732348,6.6355543
-56.60623,50.97101,7.137853,28.374516,4.521145,2.1151547,-0.23730934,-0.6686684,-0.80798614,-0.64215386,-0.7572693,0.06042834,0.5478192,0.42796707,1.394426,-1.0698535,-2.0547824,-1.2175833,2.1010683,1.6647125,-0.9496796,1.4479243,-1.0035056,-2.0007427,-1.1558639,2.0903144,1.6142355,-0.9918288,-1.3806977,-1.4451318,-1.0169227,-1.4078959,-0.40650752,0.4264958,0.07962388,0.42491913,-0.66293144,0.7848686,-2.7944798,-0.2437032,-3.843091,0.28842545,-0.5766287,0.6785437,0.74221694,0.01821099,0.088741586,0.66400844,-0.5584372,-0.70596266,-1.4517561,1.0,0.0,0.0,0.0,0.0,0.0,0.0,-1.0749191,0.26293144,-0.23486859,-17.50555,-0.02708435,0.21178722,-2.9138565,25.834196,-1.6130686,5.9438615
-30.563524,48.701096,9.438883,19.660645,3.732308,1.1940262,-0.22071405,-0.71781075,-0.8076068,-0.7170205,-0.76166475,0.37619445,0.46550843,0.19882526,1.3761432,-1.0842663,-2.0724447,-1.2320304,2.1279337,1.6607864,-0.9719463,1.4336706,-1.0179499,-2.0115306,-1.1699458,2.0888534,1.6183668,-0.99086845,-1.439567,-1.4447101,-1.0990773,-1.4067426,-0.06020196,0.40752068,0.10299761,0.39699554,-0.6653662,0.74573004,-2.7916858,-0.24345954,-3.9374344,0.2821808,-0.584074,0.6638867,0.7439539,0.029149784,0.08653484,0.66196275,-0.6538269,-0.7447413,-1.4718208,1.0,0.0,0.0,0.0,0.0,0.0,0.0,-1.0469955,0.26536617,-0.19573003,-5.7335854,-0.10359287,-8.185697,0.57644844,34.34403,-2.2881806,2.78759
-17.267439,57.224773,14.467873,17.387398,2.8020923,1.1670855,-0.27038783,-0.7637492,-0.7856832,-0.7138455,-0.7311835,0.3618918,0.508791,0.07023194,1.3572958,-1.0965183,-2.0829153,-1.2430642,2.1250424,1.669246,-0.98384523,1.4192091,-1.0322913,-2.023196,-1.1837474,2.0903182,1.6223589,-0.9898356,-1.4480988,-1.4308298,-1.1886061,-1.3703434,0.21499744,0.3955456,0.104574315,0.36910248,-0.667799,0.7056408,-2.7888947,-0.24321613,-4.0327487,0.27519226,-0.5917425,0.64910555,0.74597424,0.040518723,0.08288835,0.659553,-0.72293895,-0.76095587,-1.4817861,1.0,0.0,0.0,0.0,0.0,0.0,0.0,-1.0191025,0.267799,-0.15564078,-0.7658005,1.3062477,-8.910775,3.9438486,27.38959,-1.4932454,0.502117
-16.08085,55.580482,13.077169,15.63839,1.5660079,1.1553444,-0.3246922,-0.8067143,-0.7933671,-0.7759405,-0.710329,0.08067855,0.49481827,0.09727353,1.3385377,-1.111628,-2.10079,-1.2547803,2.098386,1.6718408,-0.98010826,1.4046923,-1.0465316,-2.0358837,-1.1970664,2.0930114,1.6262385,-0.98880756,-1.4525254,-1.4220701,-1.2953534,-1.3181614,0.2866581,0.38446346,0.10280423,0.3412323,-0.6702299,0.6645991,-2.7861063,-0.24297297,-4.1279674,0.26763535,-0.5994234,0.634147,0.7482299,0.05216402,0.07867363,0.6566897,-0.7736,-0.7562082,-1.5025579,0.0,1.0,0.0,0.0,0.0,0.0,0.0,-0.9912323,0.2702299,-0.11459911,-0.35681725,0.7843733,-10.616589,5.536127,7.036996,-1.4185429,-0.0038772821
-7.7805986,57.38881,15.464017,11.816959,0.58189726,1.2038126,-0.22933082,-0.7990843,-0.79638386,-0.78068256,-0.7143979,0.040514354,0.4765725,-0.019714095,1.3247838,-1.1261699,-2.113952,-1.2685062,2.0970628,1.6738957,-0.990779,1.3901675,-1.0606613,-2.0498002,-1.2102792,2.0962727,1.6294572,-0.98805994,-1.4603587,-1.4002986,-1.4839184,-1.3741167,0.4265127,0.1748623,0.05206171,0.3185196,-0.67342186,0.6369419,-1.4701856,-0.3808823,0.10413952,0.25976944,-0.6070118,0.6188154,0.7506623,0.06447797,0.07431146,0.6533196,-0.7880356,-0.7694585,-1.5729135,0.0,1.0,0.0,0.0,0.0,0.0,0.0,-0.96851957,0.27342185,-0.0869419,-2.2424936,3.935957,-29.755163,-14.855647,30.476212,-41.135483,-8.53128
67.606346,176.0,110.0,110.0,0.601705,12.61299,-1.3671461,-0.55226916,0.6155273,0.743883,0.6675814,-0.46790707,0.680327,-0.39122993,1.3349406,-0.9991086,-1.9754119,-1.1435211,2.049482,1.69749,-1.0271829,1.380823,-1.0773361,-2.058946,-1.2069652,2.0874128,1.6426408,-0.9848605,-0.7440062,-1.6762143,-0.849783,0.86589855,-1.2093841,1.7592756,0.44103223,0.30397797,-0.67721844,0.6381005,-1.4687157,-0.3805015,0.004784284,0.2512703,-0.6134987,0.60764194,0.753746,0.06540623,0.073325664,0.64977866,-0.8801415,-0.59163666,-0.9664321,0.0,1.0,0.0,0.0,0.0,0.0,0.0,-0.95397794,0.27721843,-0.08810049,76.076256,-3.329444,25.07478,213.08081,-128.12611,174.34679,48.428043
-17.944954,176.0,93.02325,92.14903,5.6378574,7.040221,-1.5784206,-0.7840722,-0.65357757,0.49004966,0.741986,-0.5209754,0.615433,-0.32727355,1.3024158,-1.1426939,-2.0099409,-1.1327666,2.0353153,1.7041842,-1.0175878,1.3733863,-1.0940979,-2.0603876,-1.1910942,2.0721083,1.6601064,-0.981021,-0.74271774,-1.6762149,0.09376074,1.8276188,-1.6413869,1.7485412,0.3669997,0.28930283,-0.68102074,0.63740385,-1.4672472,-0.38012108,-0.094471656,0.24160385,-0.61926365,0.6017849,0.75811297,0.0576239,0.073774256,0.64536935,-0.9976275,-0.5594598,-0.46242553,0.0,1.0,0.0,0.0,0.0,0.0,0.0,-0.9393028,0.28102073,-0.087403834,0.40239096,-4.7683716e-05,95.12574,96.22283,-44.323635,0.78217983,-6.7908645
-56.384384,148.54543,43.736336,59.068058,4.503991,3.851698,-1.3986808,-0.7609462,-0.6177594,-0.130808,0.60570604,-0.5497589,0.689416,-0.3166285,1.2972916,-1.1558738,-2.0734684,-1.1305236,2.0171323,1.729048,-1.0126839,1.3648661,-1.1093948,-2.0576563,-1.1708248,2.0558653,1.6767671,-0.97791106,-0.88675123,-1.4821002,0.33356404,2.0949085,-1.6210603,1.6413258,0.29280147,0.27464294,-0.6848192,0.63571537,-1.4657804,-0.37974104,-0.19362836,0.23065186,-0.6248951,0.5988537,0.7636911,0.047201317,0.07462329,0.63951474,-1.1281369,-0.555792,-0.24443385,0.0,1.0,0.0,0.0,0.0,0.0,0.0,-0.9246429,0.28481922,-0.08571535,-13.952982,19.065762,24.131065,27.211021,1.2275696,-9.850907,-7.2634816
-41.067917,134.93399,42.70965,35.53905,3.2489588,3.4307125,-0.44260016,-0.77209765,-0.6484331,0.4825331,0.6933702,-0.58836293,0.65142995,-0.28215638,1.2876564,-1.1742381,-2.009403,-1.1014878,1.997029,1.7419101,-1.0061266,1.3543433,-1.1228683,-2.0516787,-1.1507862,2.0410566,1.6918619,-0.9755812,-1.1064628,-1.3034723,0.6859499,1.9740518,-1.4372238,1.467575,0.21358177,0.25999832,-0.6886139,0.6330361,-1.4643149,-0.3793614,-0.29268593,0.21866608,-0.63012505,0.5976746,0.7698018,0.036166053,0.074917175,0.6328384,-1.2253749,-0.5044039,-0.08457979,0.0,1.0,0.0,0.0,0.0,0.0,0.0,-0.9099983,0.2886139,-0.083036065,-21.714724,17.580414,35.279655,-11.945796,17.424892,-16.780329,-7.7362895
-31.16179,100.16139,27.695114,17.682865,1.8162856,2.0565517,-0.10086522,-0.7848515,-0.6131217,0.42001775,0.6754476,-0.5726697,0.65465003,-0.30925566,1.2758582,-1.1841805,-2.009677,-1.0832415,1.9837897,1.7573268,-1.0065068,1.3418406,-1.1347663,-2.0435839,-1.1332004,2.0283575,1.705301,-0.97399336,-1.2978879,-1.1525912,0.85006934,1.6869246,-1.2152985,1.3043089,0.14074308,0.24536896,-0.69240475,0.62936693,-1.4628509,-0.3789821,-0.39164448,0.2060051,-0.63483906,0.59729546,0.7760048,0.02561552,0.07437383,0.62580264,-1.2845223,-0.4525133,-0.03038803,0.0,1.0,0.0,0.0,0.0,0.0,0.0,-0.89536893,0.29240474,-0.07936692,-19.052744,14.950371,16.142427,-28.685951,21.790504,-15.842915,-7.217708
-14.91498,80.27714,22.049955,8.395136,1.029642,1.0797881,0.04761935,-0.7846782,-0.58679986,0.46104705,0.6655297,-0.45894676,0.62731284,-0.38590217,1.2633728,-1.1934463,-1.9974792,-1.0666474,1.9824629,1.7680323,-1.0125836,1.3279464,-1.1455036,-2.034575,-1.1185223,2.0179365,1.7169373,-0.97301966,-1.4201353,-1.0464327,0.9033772,1.3856219,-0.98011684,1.0693023,0.09607326,0.22969818,-0.69558907,0.62773395,-1.7386973,-0.20552431,0.4574398,0.19306946,-0.63912964,0.597069,0.78210455,0.0162235,0.073005766,0.6186431,-1.2958431,-0.41996858,-0.032587316,0.0,1.0,0.0,0.0,0.0,0.0,0.0,-0.87969816,0.29558906,-0.077733934,-12.236452,10.707641,3.144908,-31.456207,23.786236,-30.698086,-2.3784041
-8.161158,132.07578,39.148655,20.424423,0.719215,1.5127897,-0.25023508,-0.80439806,-0.23651363,0.43229973,0.7227656,-0.4069657,0.6275107,-0.40742892,1.2475066,-1.169155,-1.991345,-1.0462457,1.9772398,1.7796884,-1.0137626,1.313256,-1.1539608,-2.0256486,-1.1058861,2.0095708,1.7267182,-0.9725295,-1.4852651,-0.77931106,0.88869107,1.2233415,-0.7898274,0.9497271,0.033067748,0.21232224,-0.6976423,0.6315605,-1.736959,-0.20531882,0.35773128,0.18009186,-0.64287376,0.5975768,0.78818995,0.0077405088,0.07164403,0.61119854,-1.3040334,-0.3513343,0.07355935,0.0,1.0,0.0,0.0,0.0,0.0,0.0,-0.8623222,0.29764232,-0.08156049,-6.5120697,26.556837,-1.6119838,-16.070032,18.76694,-11.353123,-6.400314
-5.4557242,129.98183,37.723072,22.374758,0.59702206,1.1244934,-0.3699283,-0.8086742,-0.18622245,0.37286043,0.71767855,-0.3782536,0.6268733,-0.38119704,1.2323886,-1.1725831,-1.9883626,-1.0341183,1.9717455,1.7894055,-1.0106492,1.2982585,-1.1598145,-2.0173821,-1.094133,2.0027158,1.7354882,-0.9725848,-1.5044191,-0.5212581,0.80569303,1.1601802,-0.65124756,0.8543491,-0.018694203,0.19496536,-0.6996937,0.6343907,-1.7352223,-0.20511355,0.25812244,0.16708755,-0.6460123,0.5991169,0.794408,-0.00048650106,0.07086179,0.60323644,-1.3036017,-0.2931306,0.17699483,0.0,1.0,0.0,0.0,0.0,0.0,0.0,-0.84496534,0.29969367,-0.0843907,-1.919961,25.663162,-8.360887,-6.105304,13.655222,-9.032679,-5.277037
-7.828755,121.622055,33.223907,23.780449,0.42803502,0.80992365,-0.48069793,-0.8140262,-0.09680061,0.26272967,0.7294398,-0.43475536,0.6321012,-0.36768103,1.2168559,-1.1694945,-1.9911091,-1.0211891,1.9592403,1.7986983,-1.0093529,1.2832534,-1.1632668,-2.0104394,-1.0824181,1.9966486,1.7434971,-0.9730969,-1.4991982,-0.28667092,0.6531499,1.1741269,-0.580274,0.78461546,-0.06566192,0.17762756,-0.7017431,0.6362226,-1.6608604,-0.18389668,0.27949965,0.15409851,-0.6486454,0.6015613,0.8008229,-0.0085003115,0.071153544,0.5945986,-1.3019807,-0.2466141,0.2627293,0.0,1.0,0.0,0.0,0.0,0.0,0.0,-0.82762754,0.30174312,-0.08622259,0.5031109,23.362286,-15.676975,1.4346838,8.147181,-6.5541983,-5.135067
-5.815222,109.97359,30.536465,22.095423,0.5689194,0.6589746,-0.43592435,-0.8146564,-0.045163084,0.2838425,0.732891,-0.37516576,0.63823366,-0.40636262,1.2017878,-1.1677831,-1.9820552,-1.0091289,1.959132,1.8073205,-1.0137331,1.2683778,-1.1648098,-2.004808,-1.0703554,1.9912691,1.7508484,-0.97405577,-1.4837103,-0.11071803,0.5342467,1.2181922,-0.52658147,0.71952313,-0.10581619,0.16142273,-0.7032957,0.6404566,-1.6178294,-0.14785741,0.44365814,0.14111328,-0.6508999,0.60472953,0.807445,-0.01629889,0.072384484,0.58525836,-1.3002958,-0.20920606,0.3326948,0.0,1.0,0.0,0.0,0.0,0.0,0.0,-0.8114227,0.3032957,-0.090456605,1.5449286,17.42427,-11.509811,4.7369957,4.509878,-6.1424136,-3.9941816
0.099040985,111.99663,33.859764,20.55265,0.63921547,0.82832444,-0.29996827,-0.813016,0.046857104,0.34778756,0.7259998,-0.3149394,0.64907444,-0.43446755,1.1870762,-1.1601241,-1.9700292,-0.9977554,1.9597752,1.8157558,-1.0175025,1.2536664,-1.1647965,-1.9996848,-1.0578622,1.9863803,1.7576423,-0.9753769,-1.4671041,0.03811088,0.5057623,1.2601396,-0.4774916,0.6662075,-0.14118467,0.14535522,-0.70455456,0.6455083,-1.6034851,-0.11722637,0.5263346,0.12816238,-0.6527138,0.6086897,0.8141447,-0.024147695,0.07428407,0.5753844,-1.2957817,-0.1627448,0.4149741,0.0,1.0,0.0,0.0,0.0,0.0,0.0,-0.7953552,0.30455455,-0.09550828,1.6214371,14.705955,-2.5989056,4.3197155,4.557353,-5.2140474,-3.6220818
3.5403216,101.37022,31.8977,17.092743,0.63841283,0.8009938,-0.17367896,-0.8085835,0.06691245,0.3720931,0.72598815,-0.30089748,0.6604684,-0.47315675,1.172808,-1.1581053,-1.9624755,-0.98526335,1.9562906,1.8236891,-1.0226926,1.2391076,-1.1637017,-1.9943823,-1.045041,1.981875,1.7639822,-0.9770342,-1.4523565,0.13267659,0.53952587,1.2896887,-0.44274738,0.6233563,-0.17409125,0.12942505,-0.70550156,0.6512829,-1.5898044,-0.086016886,0.59515256,0.11525345,-0.6540632,0.61335486,0.8208082,-0.032191876,0.07650681,0.5651409,-1.289818,-0.11637228,0.4818743,0.0,1.0,0.0,0.0,0.0,0.0,0.0,-0.779425,0.30550155,-0.101282895,1.4241457,9.287101,3.7075639,3.034544,3.074807,-4.2256355,-3.3646405
1.8922076,86.019775,26.496855,14.092906,0.72552687,0.6546358,-0.109577596,-0.8127099,0.08015593,0.35106593,0.71789515,-0.25081402,0.661642,-0.46934444,1.1578367,-1.155686,-1.9592757,-0.97325146,1.9567935,1.8301464,-1.0239687,1.2246346,-1.1620079,-1.988702,-1.0320729,1.9777585,1.7699616,-0.9789791,-1.4458946,0.18130656,0.5785382,1.2992374,-0.4025178,0.5894517,-0.20140813,0.113609314,-0.7061634,0.65751004,-1.5797915,-0.05824596,0.63275856,0.102378845,-0.65501404,0.6184691,0.8273754,-0.040366903,0.0787791,0.55462986,-1.2883562,-0.07779196,0.51951224,0.0,1.0,0.0,0.0,0.0,0.0,0.0,-0.7636093,0.3061634,-0.10751003,0.5982399,4.72801,4.2045116,0.9976864,3.6778986,-3.3427954,-2.7938485
1.7607791,90.38078,27.466007,14.422455,0.5911313,0.70678854,-0.077808924,-0.8108856,0.1652441,0.35171682,0.7238147,-0.26114565,0.6600204,-0.46893466,1.1435461,-1.1454835,-1.9535304,-0.9596914,1.951644,1.8359636,-1.0258726,1.2101922,-1.1597115,-1.9826765,-1.01907,1.9739377,1.7756472,-0.9811607,-1.4437108,0.24517044,0.6115659,1.3009784,-0.37642273,0.5616294,-0.22396468,0.09790039,-0.7065153,0.6641692,-1.5686275,-0.026184712,0.6779035,0.08953476,-0.65552807,0.62399787,0.8338028,-0.048667267,0.08114088,0.5438938,-1.2839301,-0.032601498,0.5621244,0.0,1.0,0.0,0.0,0.0,0.0,0.0,-0.74790037,0.3065153,-0.11416918,0.16219616,6.240928,3.6228538,0.22556782,2.2584498,-2.7251601,-2.3219852
-0.4103284,78.49059,22.645864,12.744542,0.52701557,0.5310838,-0.06694607,-0.8098758,0.15204811,0.33835056,0.72856975,-0.27802232,0.6683441,-0.47824818,1.1292046,-1.1445067,-1.9488415,-0.94621307,1.9461355,1.8424816,-1.0289855,1.1957555,-1.1569954,-1.9764794,-1.0060619,1.9702396,1.7811066,-0.983545,-1.4438276,0.2800673,0.6232306,1.3006778,-0.36836332,0.540771,-0.24341962,0.08228302,-0.7065716,0.67109495,-1.5596876,0.0025099674,0.69821024,0.076725006,-0.6556454,0.6297717,0.84007704,-0.05699585,0.08364396,0.5329405,-1.2805496,0.005390238,0.580635,0.0,1.0,0.0,0.0,0.0,0.0,0.0,-0.732283,0.30657157,-0.12109494,-0.061178207,3.3747017,1.436913,-0.004220009,0.5241096,-2.010274,-2.0087361
-5.3857813,74.05645,19.34859,13.346683,0.51777434,0.4036032,-0.1030617,-0.819585,0.19204997,0.27363297,0.7303357,-0.267301,0.64809334,-0.45333752,1.113797,-1.1377904,-1.9491161,-0.93302834,1.9435096,1.8459159,-1.0288788,1.1812634,-1.1539003,-1.9705608,-0.99305755,1.9665914,1.7863775,-0.98607934,-1.4510305,0.31900546,0.58195317,1.3004583,-0.36410615,0.52267015,-0.2569635,0.06673813,-0.70635605,0.6781253,-1.5529237,0.02925483,0.7053502,0.06391525,-0.65542316,0.63563615,0.84622073,-0.06517802,0.08643107,0.5217201,-1.2807617,0.038193505,0.5864738,0.0,1.0,0.0,0.0,0.0,0.0,0.0,-0.7167381,0.30635604,-0.12812531,-0.76494217,3.7958384,-3.9362192,0.0044584274,0.23064613,-1.7170906,-1.4134198
-1.8055643,76.21714,21.05852,12.672174,0.5833882,0.4211588,-0.060488988,-0.8111336,0.205285,0.3372949,0.73071486,-0.22791976,0.65374434,-0.46920493,1.1001501,-1.1333717,-1.9368314,-0.91998607,1.9437994,1.851752,-1.0329999,1.1667371,-1.1504651,-1.9648004,-0.9800561,1.9630815,1.7914925,-0.9887402,-1.4532493,0.35139993,0.5749737,1.3000302,-0.34748033,0.5077249,-0.26927507,0.051273346,-0.7058487,0.68528706,-1.5449128,0.059431795,0.7203712,0.051124573,-0.65485096,0.6416066,0.8522111,-0.07326601,0.089404985,0.5102696,-1.2784239,0.0739638,0.5988261,0.0,1.0,0.0,0.0,0.0,0.0,0.0,-0.7012733,0.3058487,-0.13528705,-0.2759695,3.1272888,-0.4267454,-0.027704239,1.3947368,-1.4412522,-1.2983084
-3.4875476,75.65855,20.120968,13.078438,0.6092056,0.36328188,-0.07631759,-0.8174012,0.23763792,0.28489178,0.7327812,-0.20467621,0.642302,-0.45560676,1.0849969,-1.1267014,-1.9363111,-0.906778,1.9426138,1.8557227,-1.0343009,1.1521745,-1.1466542,-1.9592841,-0.9670488,1.9597982,1.7964699,-0.9914975,-1.4574624,0.39074546,0.54484725,1.3010613,-0.322691,0.49431577,-0.2780599,0.035881042,-0.70503616,0.69258684,-1.5374755,0.090186544,0.73385805,0.03834915,-0.6539326,0.64768666,0.85804486,-0.081250325,0.09255953,0.49858806,-1.2773502,0.10856275,0.609413,0.0,1.0,0.0,0.0,0.0,0.0,0.0,-0.685881,0.30503616,-0.14258683,-0.476408,3.82334,-2.7613878,0.120043755,2.238071,-1.2955487,-0.94468594
-1.3280368,78.96085,21.743303,12.971587,0.6982956,0.38715076,-0.047950707,-0.816899,0.25798938,0.3144573,0.72983867,-0.15933186,0.6357169,-0.45000812,1.0704845,-1.1208553,-1.9278383,-0.89406496,1.9438651,1.8600416,-1.0364983,1.1375813,-1.1424447,-1.953886,-0.95404476,1.9568717,1.8013198,-0.9943249,-1.4602561,0.4307799,0.53909916,1.3001493,-0.2834177,0.48182362,-0.2844756,0.020568848,-0.703887,0.7000829,-1.5290568,0.124650694,0.7555612,0.025585175,-0.65264225,0.6539275,0.8637014,-0.08919452,0.09580117,0.48670977,-1.2750975,0.1465582,0.6273768,0.0,1.0,0.0,0.0,0.0,0.0,0.0,-0.6705688,0.30388698,-0.15008289,-0.34353733,3.8778484,-0.2575755,-0.07839203,3.6302626,-1.2373805,-0.7137418
-1.0068315,80.01109,21.849562,13.084898,0.82778555,0.32898232,-0.059433207,-0.8159401,0.28703114,0.28581488,0.7293344,-0.06678602,0.6253987,-0.44786233,1.0559874,-1.1137416,-1.9253045,-0.8811113,1.9501932,1.8638597,-1.0391111,1.122973,-1.1377965,-1.9486158,-0.9410548,1.9545705,1.8060511,-0.9972042,-1.4612386,0.4757791,0.52403164,1.2986416,-0.21330383,0.4699539,-0.28926903,0.005340576,-0.702384,0.7077973,-1.5210078,0.16053563,0.77756083,0.012825012,-0.6509781,0.6603581,0.86917895,-0.09712517,0.09901373,0.4746482,-1.2741301,0.18372656,0.64655036,0.0,1.0,0.0,0.0,0.0,0.0,0.0,-0.65534055,0.302384,-0.15779728,-0.16758442,4.3711605,-1.1818767,-0.14147758,6.713548,-1.1986792,-0.5541444
-0.9288921,85.763084,23.559572,14.153648,1.015766,0.34397444,-0.073908836,-0.8202585,0.32690865,0.28670508,0.7286546,0.0250618,0.6177373,-0.45105383,1.0409471,-1.1051056,-1.9199452,-0.86818933,1.9570767,1.8678249,-1.0423095,1.1083417,-1.1326162,-1.9434618,-0.9280838,1.9531753,1.8106657,-1.0001253,-1.4639401,0.5316082,0.5137489,1.2966753,-0.11592706,0.45832056,-0.29325753,-0.009807587,-0.70049095,0.7157924,-1.5128165,0.20076735,0.80781525,6.1035156e-05,-0.6489191,0.66704315,0.8744791,-0.1050956,0.10209086,0.46240512,-1.2751312,0.22427055,0.6741742,0.0,1.0,0.0,0.0,0.0,0.0,0.0,-0.6401924,0.30049095,-0.1657924,-0.3473997,5.4383636,-0.6594181,-0.18055439,9.41328,-1.2145638,-0.47527552
-4.0102243,83.16738,21.75014,14.550562,1.1500825,0.2758662,-0.11115861,-0.8318584,0.35581,0.22924072,0.71871084,0.13914946,0.60561913,-0.4580873,1.0251559,-1.0970352,-1.9205377,-0.8562127,1.9670902,1.8712276,-1.045934,1.0936341,-1.1268579,-1.9386455,-0.9151747,1.9529628,1.8151691,-1.0030856,-1.4733971,0.5902231,0.47184405,1.2889622,0.009628724,0.44724494,-0.29711777,-0.0248909,-0.698205,0.724025,-1.5066592,0.23964207,0.8294201,-0.012748718,-0.64647865,0.67395383,0.87962717,-0.11305254,0.104976885,0.44995007,-1.2812043,0.26194495,0.6950596,0.0,1.0,0.0,0.0,0.0,0.0,0.0,-0.6251091,0.298205,-0.174025,-1.0263681,5.7267785,-3.8653314,-0.7680893,12.292702,-1.1655271,-0.4618585
-1.7105687,87.124306,22.756908,14.300829,0.7941518,0.2658881,-0.06344963,-0.82710415,0.3993729,0.22081783,0.72540087,0.083824076,0.61193913,-0.4599889,1.0109237,-1.0869206,-1.9165637,-0.8426346,1.9613452,1.876363,-1.0490845,1.0788579,-1.1204492,-1.9342563,-0.90230846,1.9536575,1.8195758,-1.0060806,-1.4792427,0.65726924,0.42905346,1.2858336,0.088676214,0.43792227,-0.3007289,-0.039886475,-0.6954889,0.7325335,-1.4958304,0.28534538,0.8589793,-0.025539398,-0.6436119,0.6811071,0.88459325,-0.12099347,0.10786182,0.4372884,-1.2761493,0.30634055,0.72047716,0.0,1.0,0.0,0.0,0.0,0.0,0.0,-0.6101135,0.29548892,-0.1825335,-0.6801367,6.5516233,-3.8873494,-0.31797886,7.611178,-1.00016,-0.45105815
-0.46293133,83.945114,21.658733,13.265136,0.60311127,0.2043382,-0.029774979,-0.8281037,0.4125393,0.20655361,0.7247156,0.09517547,0.60969156,-0.46182504,0.9960475,-1.0791953,-1.9136009,-0.8298369,1.963175,1.8805449,-1.0522631,1.0640397,-1.1134607,-1.9302732,-0.8894613,1.9549266,1.8239022,-1.0091119,-1.483126,0.7123504,0.38954917,1.2841955,0.13893524,0.43042696,-0.30419555,-0.05476761,-0.6923256,0.7413012,-1.4844716,0.3290066,0.8841475,-0.038246155,-0.6403084,0.6884647,0.88934374,-0.12891153,0.110875964,0.42444786,-1.2656574,0.35032386,0.7394021,0.0,1.0,0.0,0.0,0.0,0.0,0.0,-0.59523237,0.2923256,-0.19130117,-0.49057007,5.359626,-3.5333693,-0.19648075,4.7238274,-0.8058131,-0.44842958
-2.8542747,74.90905,17.707304,12.336634,0.2843176,0.049254835,-0.0114346,-0.8369327,0.42474416,0.12176362,0.7251715,0.043179996,0.5843092,-0.4448705,0.98034644,-1.0709863,-1.9180968,-0.8169441,1.9592446,1.8823332,-1.0535989,1.0491586,-1.1060315,-1.926969,-0.87661666,1.9563516,1.8281491,-1.0121619,-1.490097,0.75250214,0.31183806,1.284293,0.14291243,0.42278498,-0.30566975,-0.06952286,-0.6887398,0.7501746,-1.4721793,0.36914927,0.8906845,-0.05083084,-0.63661766,0.69587183,0.8938778,-0.1366392,0.11424901,0.41141126,-1.2514265,0.38729256,0.73955375,0.0,1.0,0.0,0.0,0.0,0.0,0.0,-0.5804771,0.28873977,-0.20017457,-0.79681873,3.891611,-7.425064,-0.059723854,0.15541613,-0.7487595,-0.25414824
-3.4548185,61.23586,12.900829,10.222137,0.17983496,-0.19943655,-0.0066883303,-0.8316169,0.41220856,0.037648518,0.7230746,0.09510476,0.5462849,-0.42322984,0.96599686,-1.0648106,-1.9232042,-0.8043092,1.9658622,1.8827776,-1.0544848,1.0342431,-1.0984117,-1.9247273,-0.8637751,1.9578408,1.8323113,-1.0152099,-1.4921875,0.76485586,0.1957063,1.283689,0.15048547,0.41411015,-0.3048316,-0.08416748,-0.68483067,0.7589027,-1.4617723,0.39901364,0.86934096,-0.0632782,-0.63266754,0.703097,0.89822584,-0.14394976,0.11803408,0.39816666,-1.2380873,0.40964964,0.71541995,0.0,1.0,0.0,0.0,0.0,0.0,0.0,-0.5658325,0.28483066,-0.20890272,-0.2998829,1.1506557,-11.36581,-0.18341541,0.60248077,-0.8047879,-0.03359914
-2.7572565,51.839417,10.422888,8.753963,0.24982467,-0.31575525,-0.005077496,-0.8283073,0.38637736,0.019795554,0.7279214,0.10852855,0.5268328,-0.42645216,0.9514124,-1.0597739,-1.9227477,-0.79098296,1.9686936,1.8849945,-1.0578551,1.0193391,-1.0909044,-1.9235479,-0.85091525,1.9594033,1.8363858,-1.0182521,-1.4898967,0.74582475,0.09256939,1.2861859,0.15797865,0.40536827,-0.30428934,-0.098724365,-0.68067265,0.7672955,-1.45312,0.4225896,0.8320978,-0.07562256,-0.6285591,0.7099825,0.9024074,-0.15076546,0.122103214,0.38473558,-1.2280439,0.4230022,0.6783884,0.0,1.0,0.0,0.0,0.0,0.0,0.0,-0.5512756,0.28067264,-0.21729547,0.14932156,-1.9662261,-10.082148,0.09851456,0.60814023,-0.80549717,-0.074750185
-6.8416176,37.454636,5.049596,7.824552,0.16581893,-0.5184367,-0.027644884,-0.83405656,0.35715553,-0.12194376,0.72956777,0.09209359,0.50809485,-0.40790722,0.9359334,-1.0551888,-1.9357423,-0.77795845,1.9686127,1.8871953,-1.0590428,1.0044427,-1.0837728,-1.9237872,-0.8380192,1.9609672,1.8403807,-1.0212753,-1.489698,0.70219094,-0.06255104,1.2901899,0.15608144,0.3977873,-0.30205253,-0.11322403,-0.67636776,0.77510285,-1.4481919,0.4342378,0.7666094,-0.0879097,-0.6244278,0.7163091,0.90647125,-0.1568769,0.12649208,0.3710783,-1.2239555,0.42125982,0.61652774,0.0,1.0,0.0,0.0,0.0,0.0,0.0,-0.53677595,0.27636775,-0.22510284,-0.03118515,-4.387057,-15.438214,0.23319721,-0.19561648,-0.6318927,0.101691484
-9.172631,23.679,0.77891207,6.63993,0.24297708,-0.67881113,-0.04641962,-0.8317705,0.2972454,-0.20995906,0.7346187,0.10977702,0.48111454,-0.38749328,0.92126566,-1.0540482,-1.9447831,-0.7645573,1.9719449,1.8884921,-1.0600246,0.98955774,-1.0773278,-1.9257098,-0.8250596,1.9625378,1.8442984,-1.0242622,-1.4880838,0.6253426,-0.23580918,1.2972713,0.15786672,0.3902709,-0.29791686,-0.1277008,-0.67202854,0.7820622,-1.4479655,0.43409213,0.6763018,-0.10022354,-0.6204195,0.7218619,0.91046995,-0.1621027,0.13115337,0.35716358,-1.2285088,0.40552422,0.53437257,0.0,1.0,0.0,0.0,0.0,0.0,0.0,-0.5222992,0.27202854,-0.23206216,0.14765263,-7.6743245,-17.374321,0.54888725,0.27347505,-0.59904456,0.30225515
-14.284851,1.8256345,-6.043611,5.1081095,0.3191054,-0.86935717,-0.08860472,-0.83419245,0.19445433,-0.33948484,0.7452865,0.094988786,0.46111104,-0.3794619,0.9061385,-1.0578824,-1.9596584,-0.75053096,1.9720366,1.8904095,-1.0622084,0.97467947,-1.072033,-1.9296104,-0.8119847,1.9640903,1.848136,-1.0272014,-1.4874891,0.49793443,-0.44245452,1.3105012,0.15534407,0.38237667,-0.29287547,-0.14216995,-0.6676903,0.788068,-1.446518,0.43365812,0.5753464,-0.11268997,-0.6167221,0.7263407,0.91447777,-0.16620694,0.13600682,0.34294,-1.2480788,0.36898956,0.41910815,0.0,1.0,0.0,0.0,0.0,0.0,0.0,-0.50783,0.26769027,-0.23806798,0.12013912,-12.67435,-20.953882,1.2157202,0.041022897,-0.5816579,0.43245554
-11.549304,-2.42067,-6.2325583,3.6341763,0.23157829,-0.87465364,-0.013449024,-0.822407,0.11512558,-0.36257124,0.75141805,0.01422428,0.4492437,-0.31241843,0.89243877,-1.0605205,-1.9658675,-0.73684293,1.9655128,1.8930603,-1.0584433,0.9598603,-1.0682031,-1.9352428,-0.798762,1.9653721,1.8518934,-1.0300434,-1.4796649,0.34499723,-0.6044298,1.3260036,0.120171346,0.37427714,-0.28145164,-0.15662384,-0.66335773,0.79306495,-1.4450718,0.43322456,0.47449198,-0.12534714,-0.6134052,0.72963893,0.9184798,-0.16917399,0.14098364,0.32847902,-1.26663,0.33043128,0.30059674,0.0,1.0,0.0,0.0,0.0,0.0,0.0,-0.49337614,0.26335773,-0.24306494,0.86956024,-15.224904,-16.470741,1.5093327,-3.24039,-0.6154418,1.0877371
-13.052974,-4.8822765,-6.713688,3.8848684,0.346227,-0.9063686,-0.0032513663,-0.8254617,0.03528191,-0.45387155,0.7583909,0.01578522,0.36424214,-0.2633315,0.87731415,-1.0646749,-1.9806299,-0.7229229,1.9669507,1.8883176,-1.0563765,0.945106,-1.0659753,-1.9424049,-0.7853772,1.9663124,1.8555117,-1.0327384,-1.4736744,0.18233915,-0.7544792,1.3426815,0.086246215,0.35838658,-0.2654431,-0.17106247,-0.659029,0.7970541,-1.4436271,0.4327914,0.37373835,-0.13822174,-0.6104889,0.731741,0.9224709,-0.17100026,0.14600633,0.3138287,-1.2914635,0.2897529,0.18095286,0.0,1.0,0.0,0.0,0.0,0.0,0.0,-0.4789375,0.259029,-0.2470541,0.71713924,-16.204075,-15.303982,1.7120123,-3.1043603,-1.4391482,1.5800893
-12.346431,15.573494,-1.1780896,7.1153154,0.30311245,-0.8094459,0.054496937,-0.8267282,0.03322712,-0.5308033,0.7717777,-0.03519074,0.25452152,-0.148797,0.8624332,-1.0626526,-1.9954852,-0.70819944,1.9627934,1.8809638,-1.0476182,0.930388,-1.0650045,-1.9509612,-0.7718026,1.9668064,1.8588934,-1.035197,-1.4710271,0.06883243,-0.88948804,1.3626543,0.03721983,0.33151045,-0.23970999,-0.18548584,-0.6547041,0.80003655,-1.4421839,0.4323587,0.27308547,-0.15128708,-0.60784626,0.7328919,0.9263976,-0.17176211,0.15122679,0.29902425,-1.3073511,0.26686993,0.09439582,0.0,1.0,0.0,0.0,0.0,0.0,0.0,-0.46451414,0.2547041,-0.25003654,0.33464432,-11.372074,-13.550997,2.0516157,-4.84429,-2.6547432,2.5155635
-11.368699,15.58817,-0.79326916,6.549306,0.2915217,-0.81889194,0.11511499,-0.8245048,-0.06644676,-0.57658726,0.7691226,-0.07581367,0.14456366,-0.06483808,0.84793746,-1.0716492,-2.00862,-0.6948903,1.959225,1.8733498,-1.0416808,0.915689,-1.0652143,-1.9606773,-0.75808114,1.9667568,1.8619375,-1.0373523,-1.4692465,-0.05096827,-0.999117,1.3756288,-0.01897641,0.29539248,-0.20756358,-0.19989395,-0.650383,0.8020132,-1.440742,0.43192646,0.17253324,-0.16449356,-0.6054287,0.73318577,0.9302255,-0.17148158,0.15664288,0.28414348,-1.3228133,0.2446232,0.009008962,0.0,1.0,0.0,0.0,0.0,0.0,0.0,-0.45010602,0.250383,-0.2520132,0.24936199,-12.0086,-10.969151,1.3854265,-5.610598,-3.6014438,3.164658
-13.004188,-0.27936268,-4.956715,3.8474653,0.20670821,-1.0323511,0.18686585,-0.8303325,-0.20136699,-0.64549035,0.7576688,-0.13845037,-0.16989495,0.06656124,0.8326557,-1.085351,-2.0252264,-0.6823143,1.9529117,1.844948,-1.0306962,0.90097475,-1.0669214,-1.9714576,-0.74432725,1.9660587,1.8644114,-1.0391071,-1.4716887,-0.2106594,-1.1049502,1.3759065,-0.08632383,0.23159313,-0.16492419,-0.21429062,-0.6460676,0.80298513,-1.4393016,0.43149462,0.072081536,-0.17791748,-0.60335064,0.7324492,0.93398434,-0.16992874,0.16211742,0.2692868,-1.3462971,0.20701097,-0.099992834,0.0,1.0,0.0,0.0,0.0,0.0,0.0,-0.43570936,0.24606761,-0.25298512,-0.104141235,-15.9533415,-10.785007,0.2261877,-6.586077,-6.327343,4.281673
-7.9730225,33.57938,3.7279935,7.280291,-0.15881917,-0.89521,0.3331003,-0.834771,-0.13321118,-0.67610186,0.74205256,-0.28517455,-0.38109338,0.18777163,0.8174977,-1.0802425,-2.0390677,-0.67012197,1.9375412,1.826302,-1.02033,0.8862033,-1.0696031,-1.9831077,-0.73069066,1.9643364,1.8661184,-1.040385,-1.4790289,-0.28756136,-1.1840541,1.3597603,-0.20204309,0.1503837,-0.11581053,-0.22867584,-0.64175606,0.8029533,-1.4378626,0.4310632,-0.028269736,-0.19136429,-0.6014538,0.7309917,0.9375849,-0.16711779,0.16793178,0.2545687,-1.3414934,0.19563183,-0.15966985,0.0,1.0,0.0,0.0,0.0,0.0,0.0,-0.42132413,0.24175605,-0.2529533,-0.7396698,-7.787389,-7.586241,-1.5687704,-11.914245,-8.174321,4.7912984
-5.9732,20.646305,0.6830046,3.5485847,-0.4187709,-0.98296666,0.42240593,-0.8339629,-0.26990604,-0.71891236,0.71110505,-0.3789159,-0.4723999,0.25014147,0.802807,-1.0965937,-2.0549989,-0.6595802,1.9264448,1.8188784,-1.0153708,0.87136793,-1.0732995,-1.9954787,-0.7173659,1.9613171,1.8670092,-1.0411651,-1.4849148,-0.39701426,-1.2541276,1.3237633,-0.33589652,0.068586096,-0.065751925,-0.2430458,-0.6374483,0.8019187,-1.4364251,0.43063223,-0.12852068,-0.20476532,-0.599761,0.7287681,0.94099796,-0.16295859,0.17410323,0.24011551,-1.3368421,0.17216963,-0.24202967,0.0,1.0,0.0,0.0,0.0,0.0,0.0,-0.40695417,0.2374483,-0.25191867,-0.5527258,-10.994434,-6.8309784,-3.4911633,-13.609564,-8.180681,4.921442
-1.9691509,45.682137,7.0507913,6.828019,-0.41372934,-0.81354064,0.4569644,-0.8274052,-0.23265593,-0.73746926,0.7173621,-0.47021428,-0.5104315,0.33810133,0.7886274,-1.0965651,-2.0692258,-0.6456297,1.9142957,1.815966,-1.007355,0.8565135,-1.0776616,-2.0083902,-0.70434827,1.9568825,1.8671293,-1.041434,-1.485863,-0.4498338,-1.3013107,1.294402,-0.48125136,-0.0073054656,-0.01466048,-0.2574005,-0.63314533,0.7998823,-1.434989,0.43020168,-0.2286714,-0.21799088,-0.5981569,0.7260012,0.94415385,-0.157595,0.18074062,0.22598678,-1.316408,0.16761824,-0.28730658,0.0,1.0,0.0,0.0,0.0,0.0,0.0,-0.39259946,0.23314533,-0.24988228,-0.17542839,-5.407089,-4.1383743,-2.9658794,-15.127868,-7.6966233,4.9213367
-2.7737377,43.968765,6.804639,7.1349907,-0.12292035,-0.75285304,0.3897601,-0.83136004,-0.30513972,-0.7463717,0.70904666,-0.50859535,-0.5249192,0.30823398,0.7733775,-1.1081756,-2.0830274,-0.6334436,1.9060229,1.8146374,-1.0106107,0.8416486,-1.0826265,-2.0216234,-0.6915795,1.9511509,1.8665628,-1.0412662,-1.4869463,-0.512408,-1.3288395,1.2710848,-0.6056025,-0.07362977,0.026638556,-0.27173996,-0.6288471,0.79684514,-1.4335543,0.42977157,-0.328722,-0.2310791,-0.5965948,0.72277075,0.94704413,-0.15117706,0.18772493,0.2121607,-1.3041248,0.16335891,-0.33432162,0.0,1.0,0.0,0.0,0.0,0.0,0.0,-0.37826002,0.22884712,-0.24684513,-0.17895699,-6.379175,-2.175641,-2.3287773,-13.026201,-6.784071,3.964303
-2.5157347,56.614754,9.947406,9.899838,0.29738328,-0.59929943,0.31107306,-0.8306883,-0.30113977,-0.746996,0.7071401,-0.5149791,-0.51941144,0.30660874,0.75857973,-1.1127404,-2.096323,-0.6208655,1.899653,1.8146217,-1.0106053,0.82677794,-1.0880262,-2.0349824,-0.6789748,1.9444466,1.8654127,-1.0407436,-1.4875073,-0.5495563,-1.3357445,1.2566882,-0.69480455,-0.12953837,0.060250554,-0.28606415,-0.6245527,0.79280823,-1.432121,0.42934188,-0.42867255,-0.24404526,-0.5949831,0.71922565,0.9496638,-0.1439331,0.19489823,0.19858633,-1.2931626,0.17104012,-0.36079186,0.0,1.0,0.0,0.0,0.0,0.0,0.0,-0.36393583,0.22455272,-0.24280822,-0.1832962,-3.873837,0.09615421,-1.5002966,-9.705723,-5.8375463,3.163825
-1.1219513,48.83521,8.336092,7.918537,0.37319016,-0.6077574,0.29389548,-0.8245881,-0.36788335,-0.75308686,0.6844605,-0.54785496,-0.5255361,0.29038525,0.74431914,-1.1248145,-2.1102912,-0.61052877,1.8896611,1.812859,-1.011705,0.81193495,-1.0939485,-2.0483644,-0.6665532,1.937027,1.8637724,-1.0399425,-1.4836158,-0.6070233,-1.3363067,1.2372215,-0.7597417,-0.17641139,0.08640278,-0.30037308,-0.62026215,0.78777254,-1.4306892,0.42891264,-0.52852315,-0.25694656,-0.5933342,0.71532327,0.9520319,-0.13595806,0.20205379,0.18526958,-1.2874116,0.17332415,-0.3999348,0.0,1.0,0.0,0.0,0.0,0.0,0.0,-0.3496269,0.22026214,-0.23777252,0.28920174,-5.875647,0.6189823,-1.9680262,-7.170713,-4.932496,2.449733
-3.7060962,40.377678,6.162689,7.181471,0.54681,-0.5863021,0.25397754,-0.83207107,-0.42330757,-0.76408607,0.6724016,-0.55884165,-0.5274714,0.29439774,0.7287278,-1.1362792,-2.124773,-0.599313,1.8811429,1.8110253,-1.0105027,0.7970996,-1.1005899,-2.061773,-0.65433663,1.9291363,1.861722,-1.0389106,-1.4837015,-0.6837265,-1.3407928,1.2167687,-0.8005184,-0.21538173,0.10841726,-0.31466675,-0.61597633,0.7817391,-1.4292588,0.4284838,-0.6282739,-0.26986694,-0.5916815,0.710931,0.95418876,-0.12726521,0.20898673,0.17219691,-1.2929513,0.17282644,-0.4525244,0.0,1.0,0.0,0.0,0.0,0.0,0.0,-0.33533323,0.21597633,-0.2317391,-0.05865097,-7.7810287,0.08084774,-1.985836,-4.623282,-4.151863,2.0827875
-6.3476577,37.397453,5.1473227,7.622131,0.69246835,-0.5327008,0.20207271,-0.8351395,-0.46357816,-0.7738633,0.67368394,-0.58501,-0.5355876,0.2721483,0.7135856,-1.1469477,-2.1391594,-0.58696824,1.8706353,1.8081633,-1.0116957,0.78224325,-1.1080495,-2.0752695,-0.6422669,1.9209137,1.8593283,-1.0377014,-1.4863883,-0.7673145,-1.351243,1.2040846,-0.8311525,-0.24852118,0.124554284,-0.32894516,-0.6116953,0.7747089,-1.4278299,0.4280554,-0.7279249,-0.28290176,-0.5900221,0.7059773,0.95615906,-0.117871866,0.21560757,0.15930907,-1.305687,0.17380472,-0.51023775,0.0,1.0,0.0,0.0,0.0,0.0,0.0,-0.32105482,0.21169528,-0.22470891,-0.29039383,-8.470249,-0.5812645,-1.1534214,-3.5503626,-3.593132,1.5232801
-3.9492815,19.018269,1.4544294,2.2393856,0.4441256,-0.5938185,0.288644,-0.8334634,-0.56776863,-0.772609,0.61376095,-0.5639762,-0.53839195,0.28169188,0.6988969,-1.1648264,-2.1525304,-0.58089083,1.864516,1.8054891,-1.0095322,0.76736975,-1.116644,-2.0888727,-0.6305463,1.9125614,1.8566446,-1.0363452,-1.4875766,-0.89028466,-1.362871,1.1621479,-0.83744645,-0.2758418,0.13905492,-0.34321594,-0.60741806,0.766683,-1.4264023,0.42762744,-0.8274763,-0.29610825,-0.588439,0.7002114,0.95798796,-0.10770992,0.2216673,0.14670083,-1.3239701,0.16360772,-0.59950906,0.0,1.0,0.0,0.0,0.0,0.0,0.0,-0.30678403,0.20741805,-0.21668297,-0.0688076,-12.351632,-0.98888874,-3.9766788,-0.842309,-2.9777765,1.4266491
-1.8705461,17.356583,1.249512,0.82642525,0.31595278,-0.52703476,0.3261105,-0.82777,-0.61771846,-0.7776372,0.59702146,-0.5823384,-0.5138001,0.28542313,0.6845927,-1.1784159,-2.1666365,-0.5708441,1.8543276,1.8052646,-1.007803,0.75251627,-1.1264879,-2.1025941,-0.61928433,1.9041615,1.8537416,-1.0348613,-1.4844393,-1.0157908,-1.3748671,1.1150725,-0.84149694,-0.29608896,0.15153438,-0.35747147,-0.60314465,0.7576623,-1.4249762,0.4271999,-0.92692816,-0.30947113,-0.586957,0.6935148,0.95968634,-0.09678289,0.22706354,0.13445154,-1.3391312,0.15422814,-0.6941756,0.0,1.0,0.0,0.0,0.0,0.0,0.0,-0.2925285,0.20314464,-0.20766228,0.3668785,-12.600887,-1.0555744,-4.472971,-0.5865097,-2.292633,1.2377232
-0.44631624,19.689747,1.9663801,1.039411,0.36775172,-0.40792936,0.31947258,-0.8151509,-0.67923844,-0.7728343,0.60510623,-0.58605045,-0.45021355,0.32926238,0.6710012,-1.1944118,-2.1798775,-0.5587737,1.8455564,1.8087204,-1.0019351,0.7377554,-1.1375755,-2.1164176,-0.6083821,1.8958236,1.8507512,-1.033262,-1.4733082,-1.1398927,-1.3875773,1.0809364,-0.82367593,-0.29767752,0.16005996,-0.3714409,-0.5990486,0.74859947,-1.3616624,0.3897418,-0.8103283,-0.3229866,-0.58552647,0.685891,0.9612483,-0.085222036,0.23176432,0.12257277,-1.3542422,0.15085661,-0.787492,0.0,1.0,0.0,0.0,0.0,0.0,0.0,-0.2785591,0.19904861,-0.19859946,1.1166811,-12.447071,-1.8728971,-3.6128283,3.5752892,0.39448738,0.21901429
1.4378848,33.469204,5.4576902,4.1214123,0.9164396,-0.13318145,0.24096894,-0.7947312,-0.7160227,-0.73599386,0.6320617,-0.48533332,-0.28131393,0.41827682,0.6582823,-1.2091777,-2.190017,-0.5451759,1.8472903,1.8226198,-0.99143434,0.72319376,-1.149752,-2.1301277,-0.59756273,1.8878949,1.8478558,-1.0315014,-1.450453,-1.2437958,-1.3640867,1.0827675,-0.7839539,-0.28828287,0.18154433,-0.38500977,-0.59515667,0.73996335,-1.3549464,0.39038372,-0.881965,-0.33662796,-0.5840187,0.6775307,0.96267015,-0.07339177,0.235685,0.11105078,-1.365553,0.16257684,-0.8541401,0.0,1.0,0.0,0.0,0.0,0.0,0.0,-0.2649902,0.19515666,-0.18996334,2.2601366,-10.484266,2.7487278,0.3512621,3.600371,0.48665404,2.1826506
