Afshin1997/kuka_rl_ros2/src/catch_and_throw/input_files/idealpd/recorded_trajectories/env_164_data.csv
torque0,torque1,torque2,torque3,torque4,torque5,torque6,action0,action1,action2,action3,action4,action5,action6,set_target_0,set_target_1,set_target_2,set_target_3,set_target_4,set_target_5,set_target_6,joint_pos_0,joint_pos_1,joint_pos_2,joint_pos_3,joint_pos_4,joint_pos_5,joint_pos_6,joint_vel_0,joint_vel_1,joint_vel_2,joint_vel_3,joint_vel_4,joint_vel_5,joint_vel_6,tennisball_pos_0,tennisball_pos_1,tennisball_pos_2,tennisball_lin_vel_0,tennisball_lin_vel_1,tennisball_lin_vel_2,end_effector_pos_0,end_effector_pos_1,end_effector_pos_2,end_effector_rot_0,end_effector_rot_1,end_effector_rot_2,end_effector_rot_3,end_effector_lin_vel_0,end_effector_lin_vel_1,end_effector_lin_vel_2,obs_task_0,obs_task_1,obs_task_2,obs_task_3,obs_task_4,obs_task_5,obs_task_6,to_final_target_0,to_final_target_1,to_final_target_2,joint_acc_0,joint_acc_1,joint_acc_2,joint_acc_3,joint_acc_4,joint_acc_5,joint_acc_6
0.0,0.0,0.0,0.0,0.0,0.0,0.0,0.0,0.0,0.0,0.0,0.0,0.0,0.0,1.7802359,-1.0646509,-1.8151424,-1.1170107,1.9373155,1.1170107,-0.91629785,1.7802359,-1.0646509,-1.8151424,-1.1170107,1.9373155,1.1170107,-0.91629785,0.0,0.0,0.0,0.0,0.0,0.0,0.0,2.7406979,-0.31957316,0.153992,-3.258,-0.29199052,5.310484,0.5304146,-0.4544952,0.693097,0.5745483,0.17512383,0.15255436,0.7848268,0.0,0.0,0.0,1.0,0.0,0.0,0.0,0.0,0.0,0.0,-3.390698,-0.08042684,0.396008,0.0,0.0,0.0,0.0,0.0,0.0,0.0
0.0,0.0,0.0,0.0,0.0,0.0,0.0,0.0,0.0,0.0,0.0,0.0,0.0,0.0,1.7802359,-1.0646509,-1.8151424,-1.1170107,1.9373155,1.1170107,-0.91629785,1.7802359,-1.0646509,-1.8151424,-1.1170107,1.9373155,1.1170107,-0.91629785,0.0,0.0,0.0,0.0,0.0,0.0,0.0,2.7406979,-0.31957316,0.153992,-3.258,-0.29199052,5.310484,0.5304146,-0.4544952,0.693097,0.5745483,0.17512383,0.15255436,0.7848268,0.0,0.0,0.0,1.0,0.0,0.0,0.0,0.0,0.0,0.0,-3.390698,-0.08042684,0.396008,0.0,0.0,0.0,0.0,0.0,0.0,0.0
0.0,0.0,0.0,0.0,0.0,0.0,0.0,0.0,0.0,0.0,0.0,0.0,0.0,0.0,1.7802359,-1.0646509,-1.8151424,-1.1170107,1.9373155,1.1170107,-0.91629785,1.7802359,-1.0646509,-1.8151424,-1.1170107,1.9373155,1.1170107,-0.91629785,0.0,0.0,0.0,0.0,0.0,0.0,0.0,2.7406979,-0.31957316,0.153992,-3.258,-0.29199052,5.310484,0.5304146,-0.4544952,0.693097,0.5745483,0.17512383,0.15255436,0.7848268,0.0,0.0,0.0,1.0,0.0,0.0,0.0,0.0,0.0,0.0,-3.390698,-0.08042684,0.396008,0.0,0.0,0.0,0.0,0.0,0.0,0.0
-176.0,70.037125,-6.0285473,110.0,10.56305,4.822046,-3.9460223,-0.81735724,0.36044776,-0.5583815,0.73884743,0.105433084,0.6595786,-0.5666948,1.6985002,-1.0286062,-1.8709805,-1.043126,1.9478588,1.1829686,-0.9729673,1.7787844,-1.0622,-1.8211696,-1.1122919,1.9409146,1.1218172,-0.9171266,-0.1934691,0.32629505,-0.8028206,0.6294561,0.47920448,0.6392922,-0.11014983,2.7081432,-0.3224907,0.20632055,-3.2547426,-0.29169858,5.2069883,0.52837753,-0.45752597,0.6938424,0.5782114,0.17368785,0.1518672,0.7825856,-0.27179155,-0.40419888,0.09934226,1.0,0.0,0.0,0.0,0.0,0.0,0.0,-3.3581433,-0.077509314,0.34367946,-19.279507,32.419334,-80.10357,63.021755,47.70102,63.43426,-10.945236
-176.0,-45.872063,-51.896393,110.0,12.929025,0.99393594,-3.3721619,-0.8116381,-0.2252303,-0.5754019,0.71771723,0.20425363,0.64875245,-0.5883636,1.6976206,-1.084723,-1.8787098,-1.0405202,1.96134,1.1866925,-0.97596294,1.7772719,-1.0595219,-1.8363769,-1.0980288,1.9485536,1.1346976,-0.9171266,-0.14373863,0.22944641,-1.710423,1.6907268,0.83262146,1.4527448,0.022773987,2.6756191,-0.32540536,0.2576149,-3.2514884,-0.29140693,5.103596,0.523859,-0.4657452,0.69445693,0.58644223,0.17019354,0.1492633,0.77771467,-0.5115693,-0.95815635,0.054204702,1.0,0.0,0.0,0.0,0.0,0.0,0.0,-3.3256192,-0.07459465,0.2923851,3.0044584,-15.380049,-75.92585,105.72724,27.552986,65.846825,9.101585
-162.28798,80.85772,17.964127,91.407166,9.114388,6.867602,-1.9192518,-0.7621572,0.17245735,-0.020517394,0.6557853,0.32186285,0.67424136,-0.50308025,1.7010561,-1.0422761,-1.8384286,-1.0324502,1.9807398,1.2021217,-0.96743464,1.7726485,-1.0571091,-1.8519104,-1.0792547,1.9570127,1.1491343,-0.91718763,-0.5681104,0.2423877,-1.4954667,1.9415044,0.8453159,1.4348329,-0.015951825,2.6431293,-0.32831717,0.30787614,-3.2482376,-0.29111558,5.0003076,0.5165653,-0.47713757,0.6961972,0.5975695,0.16543366,0.14527482,0.7709977,-0.80949044,-1.1925571,0.21812737,1.0,0.0,0.0,0.0,0.0,0.0,0.0,-3.2931294,-0.07168284,0.24212387,-42.31624,0.39248765,23.161554,25.691532,-0.25068521,-3.5691977,-3.9707742
-103.66521,94.56172,36.601944,57.627995,6.050128,7.76277,-0.22824717,-0.77321666,0.012729017,0.2021416,0.666724,0.35825756,0.64813024,-0.56062835,1.6953268,-1.0558362,-1.8316962,-1.0125823,1.9928384,1.2139473,-0.97325045,1.7637278,-1.055362,-1.8618114,-1.0604445,1.9648423,1.1625601,-0.9177732,-1.000795,0.14989023,-0.8142251,1.8619213,0.75604683,1.3080351,-0.07380275,2.61067,-0.3312261,0.35710526,-3.24499,-0.29082453,4.897122,0.50668335,-0.489563,0.6995892,0.60962224,0.15953742,0.13979211,0.76378447,-1.0589899,-1.2479384,0.38393715,1.0,0.0,0.0,0.0,0.0,0.0,0.0,-3.2606702,-0.068773896,0.19289476,-43.501472,-9.918207,70.37368,-7.657933,-10.786152,-13.780427,-6.0881057
-49.76355,111.62078,46.240818,32.154926,3.0024517,7.080027,0.4861443,-0.79441196,0.08952516,0.1950951,0.6722095,0.4288563,0.6375601,-0.5500727,1.6842866,-1.0464095,-1.8423018,-0.99322355,2.0077279,1.2263161,-0.97278047,1.7511946,-1.0541012,-1.8648689,-1.0436045,1.9718404,1.1745745,-0.9189281,-1.3384702,0.116527796,-0.13004835,1.6246179,0.6765255,1.1642574,-0.13092537,2.5782452,-0.3341322,0.40530327,-3.2417457,-0.29053378,4.7940392,0.49489594,-0.5016494,0.7044982,0.6214162,0.1526319,0.1329922,0.756874,-1.2308744,-1.1827763,0.52832496,1.0,0.0,0.0,0.0,0.0,0.0,0.0,-3.2282453,-0.06586781,0.14469674,-34.063984,-3.8215547,70.26571,-23.75729,-9.359991,-14.891577,-6.141697
-13.393767,109.85153,42.49793,15.910891,0.6756625,5.047596,0.44900697,-0.8125565,0.17071763,0.101537384,0.66951686,0.44178566,0.6264339,-0.5693423,1.6699389,-1.0370295,-1.8547151,-0.9766528,2.0160189,1.2372179,-0.9758623,1.7363306,-1.0526116,-1.8630378,-1.0291659,1.9782491,1.1852709,-0.9206142,-1.5365072,0.15873323,0.29110593,1.3833367,0.6264427,1.0378898,-0.18248637,2.5458508,-0.33703542,0.45247126,-3.2385046,-0.2902433,4.6910596,0.48200607,-0.5127549,0.710469,0.63261104,0.14511064,0.12564446,0.75030637,-1.3206072,-1.0737772,0.6191204,1.0,0.0,0.0,0.0,0.0,0.0,0.0,-3.1958508,-0.06296459,0.097528756,-20.043755,3.8856893,43.228115,-24.258877,-5.7484627,-12.713599,-5.5689125
10.583588,134.21063,45.811546,11.178326,-1.3194561,4.0323977,-0.09087747,-0.82290137,0.41286218,-0.042184666,0.6591776,0.40896893,0.6291799,-0.5595287,1.6540405,-1.0113254,-1.8672563,-0.96324813,2.019146,1.2481889,-0.97656703,1.7203852,-1.049434,-1.8594863,-1.0166689,1.9842553,1.194863,-0.9227533,-1.6148869,0.3694835,0.37893978,1.2045051,0.5908539,0.9335245,-0.2259401,2.5134907,-0.33993578,0.4986102,-3.2352667,-0.2899531,4.588183,0.46865654,-0.52248526,0.7173758,0.6434303,0.13719589,0.11900297,0.7436484,-1.3502703,-0.9268927,0.71225727,1.0,0.0,0.0,0.0,0.0,0.0,0.0,-3.1634908,-0.060064226,0.051389813,-8.110213,20.757263,9.502763,-18.019629,-3.8648129,-10.317302,-4.8384995
22.713724,134.9022,42.75535,8.306488,-2.0823948,2.903494,-0.36005473,-0.8241275,0.5119254,-0.10070046,0.63435304,0.45425197,0.6152774,-0.5566452,1.6379725,-0.9982414,-1.8695564,-0.9532336,2.0296805,1.2563907,-0.9784178,1.7042605,-1.0437424,-1.8566234,-1.005448,1.9901738,1.2035414,-0.9252662,-1.612542,0.6346846,0.2571374,1.0940844,0.59168494,0.84635687,-0.26125985,2.481161,-0.34283328,0.54372114,-3.232032,-0.28966323,4.4854093,0.45529747,-0.5307622,0.72509354,0.6541202,0.12910703,0.11381266,0.73654926,-1.3402376,-0.78171444,0.7893441,1.0,0.0,0.0,0.0,0.0,0.0,0.0,-3.1311612,-0.057166725,0.0062788725,-0.046610832,26.257408,-11.657465,-11.190701,-0.04671812,-8.584202,-3.9832563
26.234417,128.29358,39.578323,8.178072,-1.9780445,2.303489,-0.4202936,-0.82271445,0.5856176,-0.108121336,0.62277997,0.48931876,0.6134401,-0.54787016,1.621989,-0.9851807,-1.8674356,-0.94317,2.0391057,1.2648854,-0.98005325,1.6884505,-1.035495,-1.8554676,-0.99487746,1.9962926,1.2114569,-0.9280767,-1.5712487,0.88725483,0.06989525,1.0440261,0.618261,0.7733453,-0.2888777,2.448866,-0.34572792,0.58780515,-3.2288008,-0.2893736,4.3827386,0.44212914,-0.53771544,0.7335092,0.66480273,0.12096563,0.110163234,0.7288817,-1.3161557,-0.6527898,0.85731757,1.0,0.0,0.0,0.0,0.0,0.0,0.0,-3.098866,-0.054272085,-0.03780514,3.8698673,25.0345,-18.262459,-5.190301,2.566886,-7.2809577,-3.1658053
24.862951,118.399704,36.827255,9.324747,-1.4446895,2.1101375,-0.35233602,-0.81722766,0.645775,-0.0964319,0.6210926,0.5053189,0.63033545,-0.5602447,1.6067277,-0.9709175,-1.8651108,-0.9327682,2.0468245,1.2744905,-0.9841012,1.6731268,-1.0250981,-1.8559482,-0.9844824,2.002743,1.218743,-0.9311313,-1.5199764,1.0896719,-0.08581749,1.0372684,0.6536333,0.71347255,-0.31219143,2.4166012,-0.3486197,0.63086325,-3.2255726,-0.2890843,4.2801704,0.4291706,-0.54352856,0.7425647,0.67549604,0.11275119,0.10775813,0.7206804,-1.2948807,-0.5429342,0.9204594,1.0,0.0,0.0,0.0,0.0,0.0,0.0,-3.0666013,-0.051380306,-0.08086324,4.89552,20.043766,-15.100095,-0.8901596,3.435135,-6.101203,-2.7064383
22.737993,103.81645,32.90259,8.8964405,-0.9454721,1.9014449,-0.18520755,-0.8069476,0.67935294,-0.09084569,0.6042858,0.51339114,0.64195853,-0.55682087,1.592432,-0.9571628,-1.8650328,-0.92405385,2.0540822,1.2829388,-0.98681337,1.6582838,-1.0131905,-1.8575103,-0.97406447,2.0095294,1.2255179,-0.9343843,-1.4730991,1.22392,-0.17805967,1.0424823,0.686582,0.6649744,-0.3308522,2.3843708,-0.35150838,0.6728964,-3.2223477,-0.28879526,4.177705,0.41637802,-0.54837465,0.7521377,0.68611574,0.1044353,0.10617374,0.7120853,-1.2781816,-0.44996032,0.9688652,1.0,0.0,0.0,0.0,0.0,0.0,0.0,-3.034371,-0.048491627,-0.12289637,4.4758797,13.257742,-8.732292,0.27873516,3.184247,-5.0103545,-2.2284985
17.68305,88.9176,28.45171,8.980425,-0.40612102,1.7224953,-0.041322898,-0.8080997,0.69930387,-0.08553247,0.59021896,0.53169405,0.64778477,-0.55867505,1.5774739,-0.94326013,-1.8660636,-0.9150426,2.0626988,1.2902963,-0.9902518,1.6437765,-1.0004094,-1.8595397,-0.9636141,2.0166323,1.2318789,-0.9377994,-1.4438132,1.2957085,-0.2095753,1.044965,0.71757823,0.6258605,-0.34610638,2.352171,-0.35439396,0.71390563,-3.219126,-0.28850654,4.0753417,0.4036808,-0.5524316,0.76206213,0.6965659,0.09602493,0.10500386,0.7032419,-1.2702633,-0.37515712,0.9998222,1.0,0.0,0.0,0.0,0.0,0.0,0.0,-3.002171,-0.045606047,-0.16390562,2.7321339,7.0429325,-2.6483476,-0.0020742416,2.9878378,-4.0726304,-1.8711567
13.678135,77.55223,24.840952,9.142697,-0.038941503,1.5560356,0.042458292,-0.8014116,0.71273965,-0.08373987,0.5908517,0.5374853,0.65503854,-0.5558412,1.5636353,-0.9291354,-1.8679137,-0.9045289,2.070381,1.2973827,-0.9933835,1.6294695,-0.98724294,-1.861592,-0.9531418,2.0239909,1.237908,-0.94134325,-1.4270201,1.3232725,-0.20216498,1.047061,0.74157876,0.59485936,-0.35817918,2.3200035,-0.35727668,0.753892,-3.2159076,-0.28821808,3.973081,0.3910141,-0.5558448,0.7721898,0.7067832,0.087531835,0.10396838,0.69425225,-1.2684832,-0.31402892,1.0165886,1.0,0.0,0.0,0.0,0.0,0.0,0.0,-2.9700036,-0.042723328,-0.203892,1.4980555,2.6456594,1.2389213,-0.038719177,2.2967815,-3.2380342,-1.5407205
11.752015,70.50334,22.642288,8.610717,0.13106126,1.4528799,0.13494329,-0.8026509,0.71837646,-0.05907972,0.5700026,0.5506075,0.6549823,-0.55612653,1.5492045,-0.9154053,-1.8675001,-0.8961415,2.0790517,1.3034062,-0.9969559,1.615235,-0.9740031,-1.8633316,-0.9427563,2.031563,1.243672,-0.9449901,-1.4227332,1.3239691,-0.16286047,1.0349779,0.76195556,0.57004005,-0.3679546,2.2878685,-0.36015654,0.7928566,-3.2126923,-0.28792992,3.870923,0.37833786,-0.5586915,0.7824074,0.71670246,0.07896942,0.10288718,0.6852121,-1.2692993,-0.25858128,1.0228825,1.0,0.0,0.0,0.0,0.0,0.0,0.0,-2.9378686,-0.03984347,-0.24285656,0.24921894,-0.022602081,4.4408174,-1.4578819,1.9336462,-2.58044,-1.3046622
11.155159,69.47506,22.245556,9.057196,0.17075586,1.4620631,0.14889158,-0.7966992,0.72887456,-0.036392096,0.5754226,0.5349222,0.6564851,-0.5453466,1.535565,-0.9011156,-1.8669708,-0.88521403,2.0850554,1.3093206,-0.9995248,1.6010195,-0.9608071,-1.8645637,-0.9324709,2.0392382,1.2492243,-0.94871324,-1.4216903,1.3177742,-0.10849981,1.0256541,0.76888466,0.55011994,-0.37483615,2.255766,-0.36303353,0.8308003,-3.2094803,-0.28764206,3.7688673,0.36564636,-0.5609827,0.79268795,0.7262966,0.07030039,0.10171056,0.6761701,-1.2709457,-0.20326973,1.02876,1.0,0.0,0.0,0.0,0.0,0.0,0.0,-2.905766,-0.036966473,-0.28080028,-0.07054806,-0.7086754,5.9541883,-1.168108,0.5877137,-2.080226,-1.012367
11.8382435,70.638954,22.516607,8.927943,0.15132797,1.4813204,0.1896087,-0.7984771,0.73842317,-0.00649969,0.55589247,0.562253,0.6586049,-0.54530036,1.5211718,-0.8869648,-1.8652136,-0.87688166,2.0954635,1.3150848,-1.0032433,1.5867869,-0.9476483,-1.865195,-0.9223467,2.0470164,1.2546068,-0.95249456,-1.4243456,1.314981,-0.046218578,1.0072412,0.7806808,0.5342194,-0.38026777,2.2236958,-0.36590767,0.86772424,-3.2062714,-0.28735447,3.6669135,0.3529396,-0.5626979,0.8030332,0.7355387,0.061497424,0.10041609,0.66717124,-1.2714142,-0.14471261,1.0351949,1.0,0.0,0.0,0.0,0.0,0.0,0.0,-2.8736959,-0.034092337,-0.31772423,-0.4454136,-0.3682375,6.7652545,-2.0691156,1.0665059,-1.6685367,-0.86534023
12.822359,73.29698,23.336983,9.548929,0.14310086,1.543926,0.19193095,-0.7921735,0.74344987,0.03345216,0.5641734,0.55815494,0.6619363,-0.53424406,1.5075696,-0.8733033,-1.8618498,-0.86592937,2.1028318,1.3208004,-1.005919,1.5725523,-0.93448186,-1.8651493,-0.91234076,2.0548823,1.2598559,-0.956314,-1.4236691,1.3168241,0.023356805,0.9977304,0.78790104,0.52152514,-0.38354057,2.191656,-0.36877894,0.9036294,-3.2030659,-0.28706717,3.5650616,0.34022903,-0.56379986,0.81348586,0.7444176,0.05249982,0.09899676,0.6582445,-1.2710956,-0.08256329,1.046863,1.0,0.0,0.0,0.0,0.0,0.0,0.0,-2.8416562,-0.031221062,-0.3536294,-0.106310844,0.09109974,7.5033574,-1.1568785,0.6042361,-1.3567448,-0.6487727
12.011336,72.0845,22.345745,9.689506,0.11846709,1.4389474,0.1709279,-0.7971389,0.74561894,0.047077723,0.5525615,0.56529915,0.6681491,-0.53488654,1.4928384,-0.85991997,-1.8604414,-0.85708463,2.1114123,1.3266708,-1.0098027,1.5583063,-0.9212773,-1.8645027,-0.9024416,2.0628169,1.2650019,-0.96015924,-1.4254408,1.3213898,0.08015467,0.9866863,0.7952318,0.51202464,-0.38593057,2.1596508,-0.37164736,0.93851686,-3.1998634,-0.28678018,3.4633114,0.32753372,-0.5642905,0.8240277,0.75294596,0.043306354,0.09748956,0.6493786,-1.269513,-0.02195502,1.0545064,1.0,0.0,0.0,0.0,0.0,0.0,0.0,-2.809651,-0.028352648,-0.38851684,-0.34561157,0.36969185,6.1996484,-1.3019204,0.62943697,-1.0172844,-0.5449712
11.967593,71.10303,21.518879,9.512981,0.05842513,1.3179,0.1589485,-0.79787916,0.75092137,0.06444597,0.54210603,0.5741494,0.6648361,-0.5335585,1.4785184,-0.84618515,-1.8580581,-0.848231,2.1202319,1.3314855,-1.0135151,1.5440413,-0.90800405,-1.863385,-0.8926703,2.0708392,1.2700659,-0.96402353,-1.4275668,1.3290671,0.123875946,0.9732959,0.8037716,0.5042865,-0.3875497,2.127676,-0.3745129,0.97238755,-3.196664,-0.28649345,3.361663,0.3148651,-0.5641813,0.834621,0.7611355,0.033947885,0.095935434,0.6405595,-1.2651342,0.037719987,1.0583675,1.0,0.0,0.0,0.0,0.0,0.0,0.0,-2.777676,-0.025487095,-0.42238754,-0.3768921,0.6871462,4.8691707,-1.5316725,0.76322556,-0.8181572,-0.45541525
14.049315,70.56873,21.106945,8.321277,-0.11638874,1.1813132,0.18748309,-0.7926209,0.75712824,0.08476533,0.52343136,0.5775554,0.66873103,-0.5200114,1.4647791,-0.83229125,-1.8549085,-0.84032714,2.1285946,1.336939,-1.0160247,1.5297819,-0.8946345,-1.8618934,-0.8830925,2.0789378,1.275067,-0.9678907,-1.425979,1.3393604,0.15915772,0.9519696,0.81181914,0.49875358,-0.38742572,2.0957336,-0.3773756,1.0052425,-3.193468,-0.28620702,3.2601163,0.30228996,-0.56346035,0.84522456,0.76896906,0.024455436,0.094386324,0.63180673,-1.2537842,0.099343486,1.0581018,1.0,0.0,0.0,0.0,0.0,0.0,0.0,-2.7457337,-0.022624403,-0.45524246,-0.0028133392,0.9558439,4.0144176,-2.3255706,0.72107315,-0.5598724,-0.27626157
14.354349,66.59986,19.363369,7.252734,-0.22834885,0.9353672,0.18570615,-0.7916289,0.75517493,0.084344015,0.50606364,0.5790905,0.6736868,-0.51639456,1.4506191,-0.819117,-1.853459,-0.83248615,2.1368468,1.3424356,-1.0195302,1.5155493,-0.8811877,-1.8601768,-0.87377703,2.0871089,1.280028,-0.9717521,-1.4230212,1.3461882,0.17724504,0.9241861,0.81826955,0.49536008,-0.3865396,2.0638237,-0.38023543,1.0370827,-3.1902752,-0.28592086,3.1586711,0.2898655,-0.56215477,0.8557606,0.77644295,0.014892244,0.092889756,0.62312603,-1.2368033,0.15655117,1.0487434,1.0,0.0,0.0,0.0,0.0,0.0,0.0,-2.7138238,-0.019764572,-0.48708266,0.14240742,0.6251097,2.250892,-2.978897,0.5859852,-0.29597878,-0.18417239
11.835201,62.60823,17.222958,7.6030307,-0.2063039,0.7074973,0.12351978,-0.7978444,0.76135993,0.05917531,0.4959756,0.5889368,0.6707881,-0.5073387,1.4357649,-0.8050517,-1.8542593,-0.8241795,2.1460025,1.3471068,-1.022486,1.5013148,-0.8676684,-1.8584983,-0.86473525,2.0953562,1.2849604,-0.97559637,-1.4241028,1.3536471,0.16592254,0.8968087,0.82687515,0.4927866,-0.38448438,2.0319443,-0.3830924,1.0679092,-3.1870856,-0.285635,3.0573275,0.27760887,-0.56033754,0.86614996,0.78360456,0.0053413077,0.09151788,0.614459,-1.219448,0.20536421,1.0320417,1.0,0.0,0.0,0.0,0.0,0.0,0.0,-2.6819444,-0.016907603,-0.5179092,-0.25696754,0.7018566,-0.74962676,-2.944851,0.8367777,-0.19091964,-0.042301416
12.424955,61.468353,16.839418,7.1768284,-0.23424691,0.62022537,0.15037973,-0.79795724,0.760419,0.08283541,0.47333437,0.59072626,0.66880274,-0.5044692,1.421519,-0.7916265,-1.8502148,-0.8174018,2.154429,1.3518406,-1.0260433,1.4870611,-0.8540995,-1.8568828,-0.8560053,2.10368,1.2898699,-0.97941774,-1.4261811,1.3578768,0.16150905,0.8644584,0.8341826,0.49074408,-0.3822169,2.0000973,-0.3859465,1.0977231,-3.1838992,-0.28534943,2.956085,0.26553917,-0.55803823,0.8763595,0.79045534,-0.0041668545,0.09027596,0.6058162,-1.1994008,0.2531955,1.0136768,1.0,0.0,0.0,0.0,0.0,0.0,0.0,-2.6500974,-0.014053494,-0.5477231,-0.35574436,0.38530827,-0.059187412,-3.4423232,0.70819855,-0.120937824,-0.018513203
18.646606,62.896454,17.794043,3.7349248,-0.5962495,0.50587654,0.30977643,-0.7927275,0.7677983,0.113097996,0.40096956,0.6085817,0.66394544,-0.49790826,1.4077884,-0.77731967,-1.8455731,-0.8159084,2.1645381,1.3562645,-1.0292085,1.4728113,-0.8404715,-1.8551567,-0.84786665,2.1121142,1.2947642,-0.9832153,-1.4250041,1.3642431,0.17779495,0.79640406,0.84627277,0.48929343,-0.3796744,1.9682827,-0.38879776,1.1265254,-3.180716,-0.28506413,2.8549435,0.25378036,-0.55519676,0.8863591,0.7968966,-0.013602607,0.089141786,0.5973478,-1.1642823,0.30910915,0.9915923,1.0,0.0,0.0,0.0,0.0,0.0,0.0,-2.6182828,-0.011202246,-0.5765254,-0.038194656,0.6051779,2.0554752,-7.0183754,1.1639714,0.00590086,-0.002783537
20.803974,63.37836,18.145443,2.835946,-0.6750993,0.44114226,0.37292552,-0.7916559,0.76913536,0.13563962,0.36965618,0.6156581,0.66792023,-0.4931481,1.3936458,-0.763558,-1.8415927,-0.81090105,2.17368,1.3615562,-1.0325301,1.4585844,-0.8267863,-1.8531463,-0.84047186,2.1206744,1.2996489,-0.98698515,-1.4224072,1.3697928,0.21030177,0.7198329,0.8591007,0.4888218,-0.3769586,1.9364986,-0.39164615,1.154317,-3.177536,-0.28477913,2.7539034,0.24240875,-0.55178213,0.89614177,0.8028665,-0.022962764,0.08808074,0.5891688,-1.1238524,0.36612597,0.9697632,1.0,0.0,0.0,0.0,0.0,0.0,0.0,-2.5864987,-0.008353859,-0.604317,0.11200905,0.53191185,3.6703796,-7.8564644,1.2423038,0.12976527,0.020569563
25.848206,64.499985,18.902365,-0.20950365,-0.9809789,0.3213476,0.52396476,-0.79340804,0.7758948,0.18055673,0.27801296,0.6346083,0.66274124,-0.490594,1.3792436,-0.74919677,-1.8350906,-0.8126706,2.1841352,1.365923,-1.0360446,1.4443747,-0.8130295,-1.8506286,-0.8341166,2.1293986,1.3045298,-0.9907283,-1.4210138,1.3776066,0.2671042,0.6068036,0.8763832,0.48875907,-0.37430635,1.904747,-0.39449167,1.1810989,-3.174359,-0.2844944,2.652964,0.23153496,-0.5477514,0.9056786,0.8082743,-0.032215748,0.08705967,0.58144253,-1.0699298,0.42863122,0.9441364,1.0,0.0,0.0,0.0,0.0,0.0,0.0,-2.554747,-0.0055083334,-0.6310989,-0.0059366226,0.769186,6.1095834,-11.49025,1.6853213,0.241822,0.020647049
32.907192,65.12387,19.666693,-4.6637564,-1.4385799,0.12016067,0.72036624,-0.7885033,0.780513,0.23979746,0.16251904,0.6448686,0.6589922,-0.4744181,1.3655243,-0.7349782,-1.8266488,-0.81786466,2.1938853,1.370429,-1.0381701,1.4301974,-0.79918694,-1.8473384,-0.8292366,2.1382983,1.3094145,-0.9944362,-1.4171598,1.3864727,0.35076421,0.44787765,0.89435154,0.4895033,-0.37031493,1.8730278,-0.39733434,1.2068722,-3.1711855,-0.28420997,2.552126,0.22134781,-0.5430436,0.91491073,0.81299,-0.041296445,0.08606674,0.5743991,-0.99633485,0.49689448,0.911695,1.0,0.0,0.0,0.0,0.0,0.0,0.0,-2.523028,-0.0026656687,-0.6568722,0.25963783,0.89125633,8.773666,-16.055382,1.7653346,0.42705536,0.17220378
43.32273,61.895576,19.27864,-13.104189,-2.2746458,-0.368524,1.0208428,-0.7886276,0.78210527,0.30128077,-0.040499996,0.6611476,0.6492057,-0.45683903,1.3513346,-0.7209764,-1.8172103,-0.83328664,2.204413,1.374335,-1.0401201,1.4160544,-0.78526616,-1.8430622,-0.8266226,2.1473925,1.3143088,-0.99809164,-1.4136078,1.3941034,0.45445603,0.19876626,0.9144648,0.49122602,-0.36458245,1.8413391,-0.40017414,1.231638,-3.168015,-0.28392583,2.4513886,0.21214867,-0.5376191,0.9236631,0.8168277,-0.05000126,0.085144036,0.5683685,-0.88829124,0.5684069,0.8582896,1.0,0.0,0.0,0.0,0.0,0.0,0.0,-2.4913392,0.00017413497,-0.68163794,0.26676655,0.79495907,10.713863,-25.042921,2.003479,0.71477294,0.39120913
46.835712,60.22128,18.63633,-16.187714,-2.6445923,-0.700016,1.106289,-0.78413415,0.7942268,0.33512488,-0.171581,0.66403526,0.6520221,-0.4109897,1.337641,-0.70584345,-1.8095497,-0.8437807,2.2137961,1.379511,-1.0391906,1.4019629,-0.7712338,-1.8378017,-0.8267237,2.1566622,1.3192259,-1.0016556,-1.407727,1.4065665,0.5506342,-0.079949535,0.93159556,0.4939181,-0.35414815,1.8096828,-0.40301108,1.2553971,-3.1648476,-0.28364196,2.3507519,0.20413971,-0.53149796,0.93182254,0.8197157,-0.058178067,0.08438066,0.56352574,-0.7644592,0.63589287,0.7968289,1.0,0.0,0.0,0.0,0.0,0.0,0.0,-2.459683,0.0030110776,-0.70539707,0.5646229,1.3042212,9.800661,-27.93633,1.7841458,0.88456273,0.93556046
41.556286,58.287937,17.603693,-12.410573,-2.2253866,-0.76302874,0.97339165,-0.7754123,0.7944835,0.3712463,-0.21932454,0.66737115,0.6602516,-0.334675,1.3244216,-0.69178545,-1.8006771,-0.8486562,2.2233994,1.385251,-1.0351231,1.3879648,-0.75709367,-1.8316791,-0.8292376,2.1660807,1.3241717,-1.0050621,-1.3970021,1.4167266,0.6328872,-0.3086924,0.945697,0.49676356,-0.33636883,1.778059,-0.40584517,1.2781506,-3.1616836,-0.28335837,2.2502158,0.19726944,-0.52478075,0.9394281,0.8217473,-0.06585241,0.08378953,0.55979824,-0.6538296,0.69096625,0.74303013,1.0,0.0,0.0,0.0,0.0,0.0,0.0,-2.428059,0.0058451593,-0.72815055,1.1079788,1.1013508,8.210314,-22.890007,1.5908241,0.8447528,1.7292202
31.220163,56.718567,16.543987,-4.708757,-1.3868148,-0.61959875,0.7226074,-0.77151126,0.7920395,0.40932444,-0.23001152,0.6607197,0.64494246,-0.24859168,1.3108137,-0.6778897,-1.7907467,-0.8522387,2.2321527,1.3886659,-1.0299213,1.3740793,-0.74289155,-1.8248203,-0.8333775,2.175587,1.329127,-1.0082359,-1.3855036,1.4216927,0.70304245,-0.44909027,0.9532305,0.49667197,-0.3111726,1.7464657,-0.40867662,1.2998993,-3.1585224,-0.28307506,2.1497803,0.19127655,-0.5176058,0.9466221,0.8231111,-0.07317736,0.083322056,0.5569474,-0.57322973,0.7323087,0.7058467,1.0,0.0,0.0,0.0,0.0,0.0,0.0,-2.3964658,0.008676618,-0.7498993,1.1986732,0.60584545,6.8564415,-14.057243,1.0356188,0.44113398,2.4925768
14.928875,56.303795,15.339723,7.7124586,-0.12381065,-0.22696276,0.31047118,-0.7735884,0.79693335,0.41216308,-0.15330355,0.6495043,0.6511813,-0.122644104,1.2967205,-0.66319823,-1.783604,-0.84870785,2.2405374,1.394245,-1.0205003,1.360272,-0.7286446,-1.8174751,-0.8379313,2.1851084,1.3340746,-1.0110817,-1.3791034,1.4261614,0.7440994,-0.45773104,0.9529832,0.4951266,-0.27583492,1.7149029,-0.41150546,1.3206446,-3.1553645,-0.28279206,2.0494452,0.18571663,-0.51011705,0.9536484,0.824093,-0.08042876,0.08292063,0.55455035,-0.5413167,0.75941974,0.6955412,1.0,0.0,0.0,0.0,0.0,0.0,0.0,-2.364903,0.011505455,-0.7706446,0.63562393,0.5776644,3.8774967,-0.9456396,0.34530163,0.1272142,3.4912705
-4.4120455,54.376923,13.530867,22.254772,1.3941287,0.26770493,-0.19047505,-0.7831645,0.79448754,0.39873582,-0.0034618494,0.6415086,0.6514504,-0.039185442,1.2819556,-0.64919585,-1.7776015,-0.83827746,2.2492592,1.3992196,-1.0150002,1.3464495,-0.71437955,-1.8099754,-0.8414475,2.194588,1.3389956,-1.0135384,-1.3835797,1.427056,0.7509908,-0.3168376,0.9476749,0.49145484,-0.23587161,1.6833744,-0.41433144,1.3403872,-3.1522098,-0.28250933,1.9492103,0.18003845,-0.50247383,0.9607942,0.82504404,-0.08794656,0.082503244,0.55205154,-0.5683742,0.7708024,0.7147454,1.0,0.0,0.0,0.0,0.0,0.0,0.0,-2.3333745,0.01433143,-0.7903872,-0.54733753,0.23264885,0.46063662,13.904917,-0.10129213,-0.28731823,3.9118767
-24.85341,52.710426,11.967455,38.333836,3.070406,0.9182368,-0.7077172,-0.7979042,0.7864768,0.3826982,0.23933303,0.6175134,0.6590373,0.10103137,1.266659,-0.6357319,-1.7717055,-0.8175142,2.2563393,1.4048994,-1.0034353,1.3324896,-0.7001555,-1.8026111,-0.8423115,2.2039416,1.3438746,-1.0155258,-1.4008933,1.4213836,0.73080903,-0.010543869,0.9330391,0.48613444,-0.18689796,1.6518764,-0.41715455,1.3591282,-3.149058,-0.28222686,1.8490754,0.1735897,-0.49480796,0.96838486,0.8263188,-0.096148886,0.081954494,0.5488497,-0.6615137,0.7702064,0.7676229,1.0,0.0,0.0,0.0,0.0,0.0,0.0,-2.3018765,0.017154545,-0.8091282,-1.9195318,-0.42324066,-2.2496343,30.362392,-0.96490383,-0.7024646,4.7689705
-34.36557,50.735546,10.856644,45.756508,3.793822,1.2426653,-0.98795754,-0.8114698,0.78212494,0.3564978,0.41798332,0.5993079,0.6661534,0.11040904,1.2513427,-0.621943,-1.7669613,-0.80051315,2.2638724,1.4104899,-1.0044849,1.3182951,-0.68601346,-1.7956111,-0.8395468,2.2131045,1.3486983,-1.0170574,-1.4261874,1.4121203,0.68877506,0.37131414,0.9124008,0.4800513,-0.1423187,1.620409,-0.4199748,1.3768686,-3.1459098,-0.2819447,1.7490407,0.16597748,-0.48716807,0.97660196,0.8281323,-0.1052958,0.08122164,0.5445298,-0.785909,0.76809907,0.8332312,1.0,0.0,0.0,0.0,0.0,0.0,0.0,-2.270409,0.019974798,-0.8268686,-2.7205944,-0.8061409,-4.442489,37.942688,-1.5558958,-0.96111894,4.3322415
-27.30723,47.11138,10.07734,39.10889,3.0479085,0.94909954,-0.8389639,-0.81672126,0.7735146,0.33723968,0.45879936,0.57675016,0.66312826,0.0620412,1.236623,-0.608662,-1.7618872,-0.79366684,2.2707796,1.415011,-1.0108533,1.3038641,-0.67199636,-1.7890842,-0.83346426,2.2220118,1.3534647,-1.0182266,-1.4493687,1.398492,0.64006567,0.68660635,0.8853386,0.47447488,-0.108819716,1.5889721,-0.4227922,1.3936095,-3.1427646,-0.28166282,1.649106,0.1573124,-0.47950864,0.9853156,0.8304276,-0.11528152,0.08038881,0.5391084,-0.8849065,0.7729575,0.87741905,1.0,0.0,0.0,0.0,0.0,0.0,0.0,-2.2389722,0.02279219,-0.8436095,-2.4497032,-1.2846231,-5.0489783,31.363083,-2.2925615,-0.88526607,3.2443986
-14.101397,42.51301,8.837777,26.347122,1.6434608,0.2901769,-0.5531845,-0.82178986,0.77257663,0.27950823,0.45104423,0.5679565,0.65866566,-0.040377554,1.2216852,-0.5947387,-1.7611334,-0.7883598,2.2788074,1.4193313,-1.0222644,1.2892405,-0.65810037,-1.7832134,-0.8252169,2.2306597,1.3581873,-1.0191841,-1.4672276,1.3868095,0.56923425,0.8702977,0.8588034,0.47106767,-0.091732986,1.5575695,-0.42560673,1.4093517,-3.1396224,-0.28138122,1.5492712,0.14803696,-0.47178292,0.9941957,0.8330257,-0.12572211,0.07965541,0.5328386,-0.9324295,0.7819858,0.88470143,1.0,0.0,0.0,0.0,0.0,0.0,0.0,-2.2075696,0.025606722,-0.8593517,-1.8888474,-1.1239052,-7.141316,18.22976,-2.3710728,-0.48179626,1.6139299
-0.3752632,37.964165,7.50842,12.786357,0.20548522,-0.4663798,-0.22843629,-0.8268283,0.7722696,0.21331818,0.40933406,0.57398355,0.6620822,-0.10514757,1.2065576,-0.5808734,-1.7618816,-0.78428346,2.288058,1.4243956,-1.0296988,1.2744738,-0.6442902,-1.7782295,-0.81620085,2.2391093,1.3628985,-1.0200577,-1.4799799,1.3791447,0.47486633,0.9115905,0.8406921,0.4713203,-0.086158134,1.5261974,-0.4284184,1.4240963,-3.1364834,-0.2810999,1.4495363,0.1387043,-0.46398473,1.0028728,0.8357332,-0.13614446,0.079245284,0.52605593,-0.92459536,0.78968155,0.85515386,1.0,0.0,0.0,0.0,0.0,0.0,0.0,-2.1761975,0.028418392,-0.87409633,-1.379919,-0.73826313,-9.368717,3.9704084,-1.6447067,0.1371026,0.46018213
12.582196,32.869892,6.042418,-0.37886715,-1.1076761,-1.2729294,0.105991624,-0.8298685,0.7678482,0.14861512,0.30835456,0.58814096,0.664615,-0.15206431,1.191487,-0.56750536,-1.763368,-0.7853654,2.2979233,1.4293599,-1.0352641,1.2596174,-0.63054585,-1.7743175,-0.80781424,2.2474673,1.3676306,-1.0209312,-1.4878364,1.3730036,0.36393815,0.81372625,0.83455545,0.4751067,-0.08820211,1.4948559,-0.4312272,1.4378444,-3.1333475,-0.28081885,1.3499011,0.12984657,-0.45616984,1.011,0.8383703,-0.14606448,0.07934127,0.5191389,-0.8632892,0.78944284,0.79199535,1.0,0.0,0.0,0.0,0.0,0.0,0.0,-2.144856,0.031227201,-0.8878444,-0.8848667,-0.5808115,-10.93483,-9.972477,-0.54394007,0.7569611,-0.3000155
23.388622,34.07468,7.151452,-9.053445,-1.9333601,-1.6999439,0.4407638,-0.82739395,0.7633242,0.15615952,0.20321643,0.597561,0.6652552,-0.14841981,1.1768781,-0.5542134,-1.7587016,-0.7874926,2.3072233,1.4341562,-1.0357733,1.2447325,-0.6168606,-1.7712429,-0.8010994,2.255833,1.3724104,-1.0218334,-1.4887499,1.3671126,0.28951094,0.62356985,0.8367928,0.4805273,-0.0911038,1.4635448,-0.43403316,1.4505968,-3.130215,-0.28053808,1.2503655,0.12187767,-0.4483552,1.0183917,0.8407471,-0.1552007,0.07996952,0.51250535,-0.7654581,0.78869104,0.71548957,1.0,0.0,0.0,0.0,0.0,0.0,0.0,-2.113545,0.03403315,-0.9005968,-0.15175343,-0.5479574,-7.2121263,-19.169819,0.19747019,1.0599077,-0.38801432
29.088999,39.356575,9.456329,-11.876234,-2.2209446,-1.7679551,0.6691145,-0.8244074,0.76656026,0.17588799,0.11655561,0.5951566,0.67502075,-0.04209842,1.1622918,-0.5402046,-1.753654,-0.78944385,2.3153486,1.4399124,-1.0260433,1.2298781,-0.6032021,-1.7685382,-0.7965237,2.2642252,1.3772494,-1.0226822,-1.4841552,1.3656367,0.26491806,0.4019556,0.8403317,0.48674044,-0.083323024,1.4322662,-0.43683624,1.4623545,-3.1270852,-0.28025758,1.1509293,0.114990234,-0.44049692,1.0250424,0.8427055,-0.16350965,0.08107342,0.5064968,-0.6530876,0.7931611,0.64279824,1.0,0.0,0.0,0.0,0.0,0.0,0.0,-2.0822663,0.036836237,-0.9123545,0.4490614,-0.09703636,-2.2312105,-22.248972,0.29711723,1.1479914,0.6918639
27.185707,43.29128,11.280867,-7.9543414,-1.7383566,-1.523668,0.7232454,-0.82088697,0.75806534,0.21101516,0.091314755,0.5883138,0.68513256,0.15467225,1.1477894,-0.52739555,-1.7474368,-0.7873922,2.3230567,1.4457626,-1.007215,1.215098,-0.5895817,-1.7657001,-0.793841,2.2726367,1.3821493,-1.023304,-1.4760063,1.361035,0.29073313,0.22357464,0.841514,0.49235067,-0.055443835,1.40102,-0.4396367,1.4731188,-3.1239588,-0.27997738,1.0515927,0.10911751,-0.432544,1.0310931,0.84416556,-0.171172,0.08249937,0.5012767,-0.55611557,0.80245066,0.5873232,1.0,0.0,0.0,0.0,0.0,0.0,0.0,-2.0510201,0.0396367,-0.92311877,0.83920956,-0.39789677,2.7239442,-17.87718,0.12097359,0.9908378,2.7130983
13.620062,44.572006,11.40308,5.7004037,-0.35685003,-0.91372395,0.36450273,-0.8216758,0.7524676,0.19308999,0.20962463,0.5579195,0.6856346,0.30782083,1.1329304,-0.514335,-1.746391,-0.7728785,2.3284285,1.4507128,-0.9925219,1.2003847,-0.57602715,-1.7625949,-0.7918278,2.280968,1.3870856,-1.0235405,-1.469954,1.3539041,0.31729794,0.1935865,0.83119625,0.49495518,-0.013274757,1.3698044,-0.44243455,1.4828904,-3.1208355,-0.27969748,0.9523553,0.10379791,-0.42445588,1.0368427,0.8452585,-0.1786005,0.08410014,0.4965552,-0.5141786,0.81601995,0.5657126,1.0,0.0,0.0,0.0,0.0,0.0,0.0,-2.0198045,0.042434543,-0.93289036,0.57554245,-0.64718723,2.699405,-3.080824,-0.8878827,0.46585202,4.1240196
-0.09727669,36.281944,7.7919145,15.980305,0.65360546,-0.731176,-0.094173245,-0.8167542,0.73949486,0.0842161,0.29811138,0.5047357,0.68119574,0.40014926,1.1187093,-0.5020777,-1.7541733,-0.76201665,2.3314414,1.4552051,-0.9835256,1.1857325,-0.5625937,-1.7597721,-0.78920805,2.2890399,1.3920332,-1.0233097,-1.4640043,1.3400257,0.2704024,0.28424892,0.8000092,0.49484548,0.034747127,1.3386192,-0.44522953,1.4916704,-3.1177154,-0.27941784,0.8532172,0.09857559,-0.4163053,1.0424912,0.84625685,-0.18607175,0.08591417,0.4917776,-0.5156289,0.81895345,0.55941534,1.0,0.0,0.0,0.0,0.0,0.0,0.0,-1.9886192,0.045229524,-0.94167036,0.50764084,-1.3194323,-4.7205567,8.893004,-2.8809428,0.05260706,4.694067
-2.9619265,25.758013,4.384593,15.217399,0.74028695,-1.0158436,-0.16100875,-0.8195597,0.70937806,0.05294432,0.25084302,0.4765264,0.67659074,0.4601811,1.1037765,-0.4916559,-1.7544776,-0.76412374,2.3366926,1.4596922,-0.9772916,1.1711088,-0.54942346,-1.7576358,-0.78572905,2.296734,1.3969733,-1.0225945,-1.4620388,1.3096333,0.19439848,0.36855495,0.7597074,0.4940357,0.083471514,1.3074646,-0.44802165,1.4994597,-3.1145983,-0.27913848,0.75417817,0.09331131,-0.40824485,1.0479981,0.8472953,-0.19352753,0.088013396,0.4867148,-0.52001673,0.8060461,0.54272497,1.0,0.0,0.0,0.0,0.0,0.0,0.0,-1.9574646,0.048021644,-0.94945973,0.12011528,-2.970171,-7.654038,8.233333,-3.8011193,0.009822845,4.773143
2.7503247,21.801258,3.6932902,8.526788,0.16783386,-1.3968968,0.05062242,-0.815308,0.68544227,0.071888484,0.16687183,0.44136772,0.6712771,0.49156606,1.089578,-0.48087922,-1.750447,-0.7690419,2.3408709,1.464101,-0.97343785,1.1565119,-0.5366366,-1.7560966,-0.78195727,2.3039668,1.4019057,-1.0214157,-1.4589974,1.2685416,0.14026494,0.37955523,0.7119557,0.49361175,0.12896551,1.2763405,-0.4508109,1.5062594,-3.1114843,-0.2788594,0.6552381,0.08819389,-0.40037274,1.0532135,0.8483135,-0.20075855,0.09043894,0.48154005,-0.4999381,0.78527945,0.50966364,1.0,0.0,0.0,0.0,0.0,0.0,0.0,-1.9263405,0.050810903,-0.9562594,0.28336048,-4.0377855,-5.453205,0.94379187,-4.6125293,0.15619993,4.466188
6.7068305,20.631771,3.6698146,4.3399744,-0.24126446,-1.6340734,0.18769827,-0.81094223,0.66458905,0.06314471,0.13928413,0.3926573,0.6669435,0.5184214,1.0754176,-0.47017768,-1.7497821,-0.76802886,2.3432324,1.4686,-0.96957356,1.1419607,-0.5242903,-1.7549579,-0.7784287,2.310654,1.4068342,-1.0198135,-1.4538505,1.2236539,0.10478667,0.34357634,0.65484536,0.49347472,0.17045222,1.2452507,-0.4535973,1.5120704,-3.1083734,-0.2785806,0.55639696,0.08340073,-0.3927374,1.0580335,0.849239,-0.2076057,0.093219995,0.47644824,-0.46304694,0.76049733,0.46833795,1.0,0.0,0.0,0.0,0.0,0.0,0.0,-1.8952507,0.0535973,-0.9620704,0.5317211,-4.414749,-3.5798714,-3.7203252,-5.59448,0.24554133,4.075816
5.195547,18.13501,2.6168947,4.8867035,-0.16418749,-1.7528894,0.112796456,-0.805338,0.6474838,-0.012588417,0.16344444,0.37830463,0.6647807,0.53575784,1.0614269,-0.45954195,-1.7562168,-0.76208425,2.3484843,1.4733123,-0.9662378,1.1274801,-0.5123713,-1.7543743,-0.7752234,2.316826,1.4117609,-1.0178318,-1.4460694,1.1815091,0.042590436,0.3124056,0.6049814,0.493094,0.20721808,1.2141914,-0.45638084,1.5168937,-3.1052656,-0.27830207,0.45765474,0.078956604,-0.38539124,1.0624431,0.8501103,-0.21400762,0.09638112,0.47140628,-0.4293868,0.7295555,0.42769125,1.0,0.0,0.0,0.0,0.0,0.0,0.0,-1.8641914,0.05638084,-0.96689373,0.80161095,-4.1387796,-6.2801695,-3.2441616,-4.8645973,0.20660758,3.6102533
0.32840872,12.225958,0.13982284,7.4843287,0.048871636,-1.8628567,-0.09868373,-0.80040973,0.6222881,-0.12273124,0.19898207,0.30839327,0.657837,0.55515844,1.0474392,-0.4501425,-1.7666473,-0.75532514,2.3476655,1.4775447,-0.962316,1.1130873,-0.50087667,-1.7548263,-0.77210104,2.3224032,1.4166762,-1.0155125,-1.4368316,1.139037,-0.07491868,0.31167373,0.54273564,0.4917802,0.23997809,1.1831627,-0.45916176,1.5207304,-3.102161,-0.27802384,0.35901123,0.074762344,-0.37842155,1.0664576,0.85106945,-0.21993493,0.100029394,0.46615818,-0.40737852,0.6893438,0.38900542,1.0,0.0,0.0,0.0,0.0,0.0,0.0,-1.8331627,0.059161752,-0.97073036,0.9449482,-4.171419,-11.861629,-0.22878647,-6.0732245,0.08289218,3.2100499
-3.94379,5.722953,-2.1691794,9.437931,0.23109877,-1.9496833,-0.25352448,-0.8022358,0.5856092,-0.19991103,0.21269047,0.21083955,0.650162,0.57833827,1.0328637,-0.44231576,-1.7748175,-0.750832,2.3434873,1.4816923,-0.9576786,1.0987612,-0.4898669,-1.7566726,-0.7688376,2.3271754,1.4215723,-1.012888,-1.4311618,1.088556,-0.22155565,0.33067444,0.45606494,0.48958758,0.2696887,1.1521645,-0.46194005,1.5235814,-3.0990593,-0.27774587,0.26046637,0.070718765,-0.3719132,1.0700842,0.85224533,-0.22536197,0.104285076,0.46045023,-0.39561686,0.6409022,0.35060123,1.0,0.0,0.0,0.0,0.0,0.0,0.0,-1.8021644,0.061940044,-0.9735814,0.59247017,-4.975748,-14.807808,1.7295897,-8.499992,-0.019931793,2.8995574
-5.696413,3.2471938,-3.0210662,10.253966,0.30493706,-1.9882513,-0.31329975,-0.80378246,0.55838007,-0.2717027,0.2106508,0.1488394,0.65208626,0.5797565,1.0183829,-0.4340289,-1.7838429,-0.7477725,2.3420594,1.486781,-0.9549123,1.0844618,-0.47937793,-1.7600486,-0.7653719,2.3310206,1.4264475,-1.0100002,-1.429467,1.0358349,-0.37682554,0.35136667,0.36121696,0.48764938,0.29476258,1.1211967,-0.46471548,1.5254477,-3.0959609,-0.27746817,0.16202001,0.06676674,-0.36590838,1.0733296,0.85369813,-0.2302637,0.10920576,0.4541498,-0.38824153,0.58968353,0.31299984,1.0,0.0,0.0,0.0,0.0,0.0,0.0,-1.7711967,0.064715475,-0.9754477,0.2012968,-5.206895,-15.674591,1.9052923,-9.324473,-0.005531311,2.4286687
-3.8870482,4.295629,-2.3098114,8.948208,0.0118787885,-1.9873064,-0.23874196,-0.8022494,0.5211723,-0.28925678,0.18953419,-0.019786362,0.6492428,0.5880957,1.0042368,-0.4272607,-1.7889743,-0.7464185,2.329042,1.4913718,-0.95119065,1.07017,-0.469464,-1.764693,-0.7618338,2.3335803,1.4313055,-1.0068893,-1.4289705,0.97678345,-0.49398845,0.35426927,0.22114927,0.4858984,0.31630075,1.0902596,-0.46748805,1.5263304,-3.0928655,-0.27719077,0.06367209,0.06295395,-0.3603866,1.0761867,0.855395,-0.23462431,0.11487846,0.44727364,-0.3719142,0.54240245,0.2742941,1.0,0.0,0.0,0.0,0.0,0.0,0.0,-1.7402595,0.067488045,-0.97633034,0.0995636,-5.844128,-11.8385315,0.16150475,-13.880152,0.032407045,2.0626545
2.2668111,4.688266,-1.1049128,3.1358678,-0.5711917,-2.16261,0.033994026,-0.7950617,0.46739325,-0.25355816,0.099349804,-0.18784158,0.65498674,0.58777815,0.9906639,-0.42272466,-1.7900488,-0.7518988,2.3147962,1.4968042,-0.94811153,1.0559126,-0.46025532,-1.7699382,-0.7587391,2.3344233,1.4361559,-1.0035896,-1.4243674,0.90250605,-0.53515875,0.29437774,0.039284475,0.48566568,0.33411744,1.0593529,-0.47025776,1.5262302,-3.0897732,-0.27691364,-0.034577522,0.05948639,-0.35535288,1.0785762,0.85719544,-0.23834693,0.1213353,0.440096,-0.33185664,0.4927157,0.22525965,1.0,0.0,0.0,0.0,0.0,0.0,0.0,-1.7093529,0.07025775,-0.9762302,0.5650282,-7.3504925,-4.227066,-6.0528336,-18.11655,0.24787784,1.6882002
9.113594,13.463676,2.5510526,-0.48596072,-0.9782671,-2.101634,0.32532528,-0.79178876,0.44183046,-0.18138339,0.023242192,-0.28758946,0.66551584,0.57033664,0.97673374,-0.41607228,-1.7880765,-0.7564149,2.3056643,1.5027075,-0.946556,1.0417143,-0.4517576,-1.7749202,-0.75661623,2.3334162,1.4410139,-1.0001488,-1.4181079,0.8324302,-0.4860274,0.18480569,-0.14709088,0.48660326,0.34703106,1.0284767,-0.4730246,1.5251483,-3.086684,-0.27663678,-0.1327289,0.056573868,-0.350734,1.0804719,0.8589028,-0.24141255,0.12847213,0.43301365,-0.2720832,0.4533046,0.17601535,1.0,0.0,0.0,0.0,0.0,0.0,0.0,-1.6784767,0.0730246,-0.97514826,0.7182121,-6.92513,4.8821745,-10.978612,-18.631784,0.3507793,1.1958003
6.6582317,21.95663,5.4151893,6.524505,-0.31354478,-1.5912819,0.24765868,-0.7842372,0.41455507,-0.1432696,0.11199646,-0.38699928,0.67572796,0.5686146,0.9632906,-0.4103021,-1.7892472,-0.7454166,2.2947164,1.5085868,-0.9432873,1.0275999,-0.44390506,-1.7790725,-0.75505793,2.3306086,1.4458834,-0.9966011,-1.4091166,0.769702,-0.3914168,0.14605941,-0.32514158,0.48763034,0.3571273,0.997633,-0.47578907,1.5230855,-3.083598,-0.2763602,-0.23078215,0.05409813,-0.34633327,1.0820409,0.8604249,-0.24410914,0.1361052,0.4260928,-0.2340432,0.43656442,0.14894953,1.0,0.0,0.0,0.0,0.0,0.0,0.0,-1.647633,0.075789064,-0.97308546,0.91223717,-6.219363,9.493727,-3.9131045,-17.799786,0.2539456,0.91852546
-2.3079293,20.886608,4.1635814,16.033354,0.7105839,-1.2866231,-0.11477129,-0.78766894,0.3910321,-0.22378308,0.2151764,-0.4269242,0.66808575,0.5439892,0.94883305,-0.40480185,-1.8014508,-0.7335403,2.2879162,1.512692,-0.9422022,1.0135409,-0.43660468,-1.7827251,-0.75315154,2.3262942,1.4507548,-0.9929848,-1.404995,0.7168324,-0.3561438,0.20531058,-0.4671658,0.48705563,0.3627905,0.9668217,-0.47855067,1.520043,-3.080515,-0.27608392,-0.32873738,0.05171776,-0.34203482,1.0834864,0.8618681,-0.2467224,0.14411688,0.41897696,-0.23471594,0.42787662,0.1414599,1.0,0.0,0.0,0.0,0.0,0.0,0.0,-1.6168216,0.07855067,-0.970043,0.3594637,-5.2661896,3.5808504,5.836293,-14.180195,0.019818544,0.478971
-4.457056,14.577273,2.6118977,16.776514,1.2405612,-1.4000294,-0.13985407,-0.77488124,0.33437908,-0.19403678,0.20071986,-0.4315764,0.6549411,0.5423608,0.93605274,-0.40316677,-1.8021288,-0.73307955,2.2831366,1.5162488,-0.9387487,0.9995638,-0.42992944,-1.7861049,-0.7505709,2.3209193,1.455607,-0.9893236,-1.3954266,0.6511287,-0.33186138,0.27539834,-0.5605533,0.48491973,0.3670233,0.9360409,-0.4813094,1.5160216,-3.077435,-0.2758079,-0.42659464,0.04921913,-0.33789468,1.0848576,0.86328274,-0.2493092,0.15228665,0.41157818,-0.25031623,0.40946576,0.13405272,1.0,0.0,0.0,0.0,0.0,0.0,0.0,-1.5860409,0.08130941,-0.9660216,0.94337463,-6.550503,2.4278522,6.9315968,-9.310794,-0.14500022,0.35727024
-3.6515493,11.111532,2.0812216,14.866151,1.4043925,-1.542906,-0.044058517,-0.77347857,0.28985915,-0.14331296,0.1786225,-0.43753427,0.6568999,0.5403736,0.92221594,-0.40094352,-1.8004363,-0.73270863,2.277166,1.5212971,-0.9352863,0.98567545,-0.4239747,-1.7891357,-0.74748385,2.3149111,1.4604403,-0.9856281,-1.3865767,0.57697177,-0.29361466,0.31972134,-0.61425537,0.48292634,0.3702962,0.9052906,-0.4840653,1.5110224,-3.0743582,-0.27553213,-0.5243541,0.046548843,-0.33399987,1.0861205,0.8646435,-0.25181794,0.16037756,0.40405223,-0.26790172,0.38302377,0.12219793,1.0,0.0,0.0,0.0,0.0,0.0,0.0,-1.5552906,0.08406529,-0.96102244,0.9057522,-7.3915243,3.7999392,4.3784323,-5.3557873,-0.13357401,0.27923584
-4.8141003,-11.077241,-3.5229616,8.111795,1.519009,-2.2125187,0.06801909,-0.76410526,0.17829104,-0.13875711,0.12046513,-0.4613436,0.656182,0.54118407,0.9092649,-0.4061456,-1.8030114,-0.73543733,2.2687767,1.5260584,-0.93150973,0.97190535,-0.41911906,-1.7918422,-0.7444006,2.3085215,1.4652563,-0.9819031,-1.3733485,0.45524615,-0.26372972,0.304434,-0.64728636,0.4815597,0.3730076,0.87457085,-0.48681855,1.5050464,-3.0712845,-0.27525663,-0.62201583,0.04366684,-0.330693,1.0870835,0.86597973,-0.25397357,0.16816255,0.39660776,-0.29076293,0.3134814,0.08630657,1.0,0.0,0.0,0.0,0.0,0.0,0.0,-1.5245708,0.086818546,-0.95504636,1.4825344,-12.120485,2.798301,-1.5488267,-3.23869,-0.028175116,0.22040606
-12.121811,-68.36036,-17.8468,-3.6019366,2.2789145,-3.5931249,0.18214646,-0.7427115,-0.078661844,-0.11961782,0.018581847,-0.4767486,0.6527161,0.52310485,0.8976342,-0.42698523,-1.803804,-0.74254245,2.2608466,1.530528,-0.9295926,0.9583584,-0.41649407,-1.7942703,-0.7420784,2.3018916,1.470059,-0.97816944,-1.3469557,0.19859575,-0.23766978,0.208347,-0.6674406,0.48028636,0.3732776,0.8438816,-0.4895692,1.4980944,-3.068214,-0.27498144,-0.71957994,0.040296555,-0.3288293,1.0873175,0.8674359,-0.2552282,0.17516139,0.38952795,-0.34892747,0.1444421,0.0015190425,1.0,0.0,0.0,0.0,0.0,0.0,0.0,-1.4938816,0.08956918,-0.9480944,3.0884027,-25.567951,2.0599782,-9.568977,-1.8194437,-0.0032305717,-0.038945675
-19.374887,-125.89564,-32.20682,-15.812173,2.942945,-4.9716263,0.31392464,-0.7139691,-0.3547482,-0.109970935,-0.12382371,-0.478601,0.6485156,0.4948397,0.8869615,-0.45196888,-1.8052673,-0.7544608,2.2540314,1.5349106,-0.9286855,0.9451891,-0.41744202,-1.7964828,-0.7413794,2.295132,1.474837,-0.97445965,-1.3048549,-0.19234341,-0.21800508,0.02421742,-0.67792976,0.47648498,0.3699191,0.8132229,-0.49231696,1.4901676,-3.0651462,-0.2747065,-0.81704646,0.036081314,-0.32940054,1.086324,0.8692005,-0.25495377,0.1808092,0.38314098,-0.44440454,-0.12354935,-0.13335396,1.0,0.0,0.0,0.0,0.0,0.0,0.0,-1.4632229,0.092316955,-0.9401676,4.846549,-39.0176,1.3150483,-18.291668,-0.87765455,-0.4949689,-0.43973923
-10.326567,-125.147995,-28.968819,-23.970074,2.850949,-4.9183316,0.8971663,-0.6961474,-0.53697336,0.20675239,-0.33375636,-0.41589785,0.6639478,0.45707628,0.87557435,-0.47113937,-1.7758076,-0.774755,2.2535422,1.5412318,-0.928752,0.93245375,-0.42257375,-1.7970645,-0.7433058,2.2884905,1.4795653,-0.97081184,-1.2616901,-0.6202601,-0.005201879,-0.2644541,-0.6599306,0.46956414,0.36287248,0.7825947,-0.49506187,1.4812669,-3.0620818,-0.27443185,-0.9144156,0.031009674,-0.33265495,1.083875,0.8711113,-0.2530341,0.18446308,0.37830156,-0.5284167,-0.39102077,-0.2822238,1.0,0.0,0.0,0.0,0.0,0.0,0.0,-1.4325947,0.09506187,-0.93126684,4.7249556,-42.831802,21.125555,-28.744925,1.6435623,-1.2986422,-0.7857144
0.5382526,-115.76709,-26.451517,-34.566055,1.2372538,-5.105929,1.2496078,-0.64907134,-0.6901397,0.21135093,-0.62047714,-0.49332863,0.65184826,0.41843137,0.8675466,-0.49158773,-1.7759295,-0.8053535,2.2391577,1.5447501,-0.9289687,0.92025054,-0.43177336,-1.7955158,-0.74904406,2.2818034,1.4841906,-0.967268,-1.2065524,-1.0205648,0.2102781,-0.67705286,-0.6733045,0.4563456,0.35076314,0.751997,-0.49780393,1.4713931,-3.0590203,-0.2741575,-1.0116873,0.025499344,-0.3386016,1.0797532,0.873038,-0.24921907,0.1861476,0.37555754,-0.560889,-0.6594711,-0.45620802,1.0,0.0,0.0,0.0,0.0,0.0,0.0,-1.401997,0.09780392,-0.9213931,5.4968834,-40.242924,22.134634,-41.294395,-1.8892646,-2.4792552,-1.4369667
14.958792,-57.623676,-10.45874,-28.156248,0.2275095,-3.6948175,1.3747462,-0.5419357,-0.74078685,0.35142478,-0.6725198,-0.52599543,0.6496262,0.37710744,0.866057,-0.50585204,-1.7603734,-0.81629604,2.229204,1.5491532,-0.92955726,0.9089695,-0.44411677,-1.7915771,-0.7584692,2.2748682,1.48869,-0.96386623,-1.1031907,-1.3064291,0.45731878,-1.0314374,-0.70194596,0.44399345,0.33621013,0.7214298,-0.5005436,1.4605473,-3.0559618,-0.27388337,-1.1088618,0.02007103,-0.34650326,1.0741835,0.87472486,-0.2439416,0.18616194,0.37509006,-0.54100007,-0.82874537,-0.59246916,1.0,0.0,0.0,0.0,0.0,0.0,0.0,-1.3714298,0.10054359,-0.9105473,9.96201,-28.833628,25.406658,-35.59158,-3.297615,-2.361381,-1.5859604
19.088093,-3.415017,2.967314,-12.749731,-0.038989633,-2.1368537,1.0276558,-0.46516597,-0.7696982,0.36998215,-0.6385301,-0.5672993,0.65927905,0.3117324,0.8624529,-0.5210866,-1.7545788,-0.82232225,2.2181382,1.5546179,-0.932693,0.8989426,-0.45838088,-1.7856643,-0.7702757,2.2675517,1.4931113,-0.96063995,-0.9705522,-1.4668586,0.636681,-1.2308363,-0.74190354,0.43937775,0.31828362,0.6908932,-0.50328016,1.4487306,-3.0529065,-0.27360955,-1.2059392,0.015003204,-0.35534668,1.0676751,0.8760131,-0.23799789,0.18500929,0.37646985,-0.49943253,-0.8956941,-0.6732791,1.0,0.0,0.0,0.0,0.0,0.0,0.0,-1.3408931,0.10328016,-0.8987306,12.880206,-16.178535,18.174458,-20.063066,-4.0300727,-1.0605454,-1.7371833
17.356987,38.127403,12.571062,3.101871,0.040306076,-0.9014739,0.56211346,-0.41678545,-0.7705271,0.3608528,-0.6059846,-0.58758235,0.66116256,0.2739748,0.85726404,-0.5354336,-1.7495791,-0.8308742,2.2087934,1.5592275,-0.9332425,0.89023554,-0.47341985,-1.7786567,-0.78295004,2.2598422,1.4975325,-0.9575987,-0.8380636,-1.5161214,0.72103155,-1.279662,-0.7797048,0.4431923,0.3002052,0.66038704,-0.50601435,1.4359438,-3.049854,-0.273336,-1.3029195,0.010372162,-0.3642764,1.0607557,0.87689483,-0.23208092,0.18326369,0.37895668,-0.454052,-0.8833501,-0.7014851,1.0,0.0,0.0,0.0,0.0,0.0,0.0,-1.310387,0.10601434,-0.88594383,13.05374,-4.8976183,8.111954,-4.8882008,-3.4771562,0.42791367,-1.5773118
9.930407,52.017967,14.300335,13.375815,0.3048624,-0.44768214,0.11834561,-0.40530035,-0.77993613,0.30833372,-0.6099793,-0.592903,0.64683634,0.23740053,0.8497055,-0.5514135,-1.7478234,-0.84394795,2.2005517,1.5622162,-0.93385863,0.882589,-0.4884879,-1.7715824,-0.79549944,2.2518198,1.5020052,-0.95474625,-0.7401084,-1.5033463,0.7012987,-1.2462535,-0.8088942,0.44961366,0.28122893,0.6299114,-0.5087457,1.4221879,-3.046805,-0.2730627,-1.3998029,0.0060806274,-0.37288094,1.0537472,0.87751365,-0.22647375,0.18140617,0.38179985,-0.4224836,-0.8434699,-0.7038901,1.0,0.0,0.0,0.0,0.0,0.0,0.0,-1.2799114,0.108745664,-0.8721879,9.818947,1.3748884,-2.5107145,3.4733534,-2.607727,0.9831786,-1.6303599
8.157535,56.81214,14.971232,16.257044,0.32325482,-0.39593917,-0.0336081,-0.33596018,-0.78503233,0.2858831,-0.6075737,-0.60139805,0.64959437,0.23048906,0.84899294,-0.56699115,-1.7429941,-0.85625684,2.19168,1.5669646,-0.93169737,0.87590086,-0.5032477,-1.7650936,-0.80747473,2.243561,1.5065466,-0.9520693,-0.6448526,-1.466474,0.6297187,-1.1807587,-0.8310264,0.45703828,0.26394963,0.5994663,-0.51147413,1.4074639,-3.0437586,-0.27278972,-1.4965893,0.002084732,-0.3810475,1.0467838,0.87797236,-0.22123185,0.1796853,0.3846221,-0.39333406,-0.7987932,-0.6968246,1.0,0.0,0.0,0.0,0.0,0.0,0.0,-1.2494663,0.11147413,-0.8574639,9.565711,3.800559,-7.645118,6.7033052,-1.9563794,1.1573672,-1.4793813
4.2105665,47.298115,11.2424,15.467278,0.3792737,-0.74865794,-0.13931462,-0.30731583,-0.7887014,0.1919135,-0.62362987,-0.5777545,0.63164467,0.22695634,0.8451693,-0.5821178,-1.7459022,-0.8698377,2.1857855,1.5697111,-0.9293736,0.87002146,-0.51765007,-1.7597702,-0.8189026,2.2352068,1.5111357,-0.94955254,-0.56871724,-1.4313661,0.49905258,-1.1294785,-0.836702,0.46044844,0.24813151,0.56905174,-0.5142002,1.3917727,-3.0407155,-0.27251697,-1.593279,-0.0016937256,-0.38892245,1.0398186,0.87839717,-0.21615686,0.17820254,0.38721883,-0.37313157,-0.77554417,-0.6992698,1.0,0.0,0.0,0.0,0.0,0.0,0.0,-1.2190517,0.114200205,-0.84177274,7.6639056,3.575158,-13.356519,5.301833,-0.48713684,0.6075144,-1.4163375
1.9589764,33.79814,6.5559244,11.810873,0.31274074,-1.2259514,-0.13400123,-0.27588367,-0.7947087,0.082353026,-0.65629154,-0.5488843,0.6239501,0.2524959,0.8424331,-0.59712094,-1.7515348,-0.88453174,2.1803184,1.5735307,-0.92430294,0.8647982,-0.53181404,-1.7561004,-0.8301207,2.2269251,1.5157362,-0.9471607,-0.5066893,-1.4114363,0.3225463,-1.1187121,-0.82586926,0.45988894,0.23643517,0.5386677,-0.5169234,1.3751155,-3.0376754,-0.2722445,-1.689872,-0.005311966,-0.39678,1.0326812,0.8788979,-0.21091226,0.17696457,0.38953567,-0.3578704,-0.78169346,-0.721393,1.0,0.0,0.0,0.0,0.0,0.0,0.0,-1.1886677,0.11692342,-0.8251155,6.2332273,1.9941568,-17.728132,1.2504339,0.9966731,-0.012624264,-1.0942936
-1.0416005,20.962164,1.8540483,9.014857,0.25978798,-1.6119081,-0.14771228,-0.25458738,-0.7970947,-0.05910345,-0.6761399,-0.54177254,0.62493926,0.29574424,0.83933944,-0.6115235,-1.7620108,-0.89773464,2.1727479,1.5782301,-0.9175863,0.8600842,-0.54588646,-1.7545459,-0.84146655,2.2187846,1.5203158,-0.94484043,-0.45954803,-1.406047,0.10000259,-1.1392902,-0.8109385,0.4567903,0.23052892,0.50831413,-0.5196438,1.3574929,-3.0346382,-0.27197233,-1.7863685,-0.008823395,-0.4048853,1.0251769,0.87957025,-0.20515297,0.17599596,0.39152747,-0.34893495,-0.8131629,-0.76323134,1.0,0.0,0.0,0.0,0.0,0.0,0.0,-1.1583141,0.11964378,-0.8074929,4.7559023,0.48646927,-22.175547,-1.8616676,1.2640715,-0.46385527,-0.5940795
2.1652992,13.197241,-0.9090594,3.3382797,-0.2406379,-2.036283,-0.03993538,-0.1820389,-0.80016124,-0.22867872,-0.7168573,-0.5553346,0.6132444,0.35024586,0.84188026,-0.6259026,-1.7774138,-0.9131523,2.1632512,1.5816402,-0.90981585,0.8560053,-0.5599837,-1.7555702,-0.8532654,2.2107317,1.5248457,-0.9425287,-0.3907957,-1.411231,-0.16892609,-1.1929108,-0.8042703,0.45052293,0.23108,0.4779911,-0.5223613,1.3389062,-3.0316043,-0.2717004,-1.8827685,-0.012149811,-0.41347218,1.0170997,0.8804402,-0.19855447,0.17535481,0.39325806,-0.32773152,-0.8671435,-0.82620287,1.0,0.0,0.0,0.0,0.0,0.0,0.0,-1.1279911,0.12236127,-0.78890616,6.8406105,-0.6014824,-26.644543,-5.190754,0.35597086,-0.9658873,-0.023531914
7.201739,17.211103,1.1495886,0.9677887,-0.46608588,-1.9446054,0.124046,-0.12682056,-0.8022431,-0.28784543,-0.7353721,-0.5625724,0.62185353,0.3828885,0.84332323,-0.640208,-1.7843547,-0.92680264,2.1544745,1.5870311,-0.9042399,0.85273707,-0.57416576,-1.7590072,-0.8656565,2.2027018,1.5293204,-0.9401789,-0.305721,-1.4207451,-0.40136996,-1.2540282,-0.8036532,0.44530967,0.2361141,0.4476986,-0.5250764,1.3193562,-3.0285733,-0.27142876,-1.9790722,-0.0151901245,-0.42256165,1.0083772,0.88141483,-0.19107492,0.17498925,0.39493918,-0.29501668,-0.9160818,-0.8921421,1.0,0.0,0.0,0.0,0.0,0.0,0.0,-1.0976986,0.12507638,-0.7693562,8.436608,-1.0161877,-23.056036,-5.9802055,-0.1705885,-0.8725524,0.44715106
8.578717,24.671286,4.3362026,2.4669194,-0.38083443,-1.5610422,0.2111066,-0.10882719,-0.80241096,-0.32498607,-0.7449498,-0.5935498,0.62043494,0.42955294,0.84185433,-0.65440685,-1.7915058,-0.94015145,2.1433468,1.5913639,-0.8972236,0.85023844,-0.5884356,-1.7642734,-0.87858546,2.1945689,1.5337511,-0.9377403,-0.23127897,-1.4292413,-0.56832397,-1.3054035,-0.81688815,0.4414346,0.24640869,0.4174366,-0.52778864,1.2988439,-3.0255454,-0.27115738,-2.0752792,-0.017885208,-0.43200326,0.9990593,0.8823764,-0.1828727,0.17483874,0.39673772,-0.26079842,-0.94680315,-0.9503717,1.0,0.0,0.0,0.0,0.0,0.0,0.0,-1.0674366,0.12778863,-0.74884385,7.4087234,-0.88829994,-16.6646,-5.0188065,-1.4568925,-0.6620765,1.0231793
2.3508515,33.8233,8.06149,9.5949545,0.40235743,-0.7798404,0.17640197,-0.16723256,-0.80225474,-0.27443907,-0.7497541,-0.58769906,0.6246453,0.43694407,0.83351517,-0.66866106,-1.7917173,-0.9535609,2.135799,1.5962156,-0.89404595,0.8480059,-0.6027674,-1.7703521,-0.8918921,2.1863215,1.5381609,-0.93519306,-0.22008185,-1.4345367,-0.6218085,-1.3385836,-0.82778996,0.44041649,0.25781798,0.38720512,-0.530498,1.2773701,-3.0225205,-0.2708863,-2.1713903,-0.020406723,-0.44150972,0.98931754,0.88324404,-0.17427923,0.17476295,0.39870372,-0.24824858,-0.94493693,-0.98814243,1.0,0.0,0.0,0.0,0.0,0.0,0.0,-1.0372051,0.13049802,-0.7273701,1.2474746,-0.5545616,-5.576217,-3.1523705,-1.1606574,-0.21167994,1.2291133
-6.543282,40.577343,10.615195,17.34804,1.2752355,-0.050058186,0.07849505,-0.23780736,-0.8016369,-0.22348398,-0.75521344,-0.5843178,0.6282873,0.4400903,0.8242251,-0.68293107,-1.7927005,-0.9674134,2.1278896,1.6009897,-0.89118403,0.84536135,-0.6171259,-1.7762554,-0.9054123,2.177994,1.5425745,-0.9325342,-0.27824736,-1.4363649,-0.5814874,-1.3556876,-0.83432794,0.44189924,0.26906052,0.35700417,-0.53320503,1.254936,-3.0194986,-0.27061546,-2.267405,-0.023002625,-0.45078683,0.9793511,0.8839933,-0.16563115,0.17462644,0.40078393,-0.26264912,-0.9147824,-1.0056815,1.0,0.0,0.0,0.0,0.0,0.0,0.0,-1.0070041,0.13320503,-0.70493597,-5.520344,-0.20670891,3.597796,-1.4786005,-0.71160793,0.18993616,1.2910187
-9.266597,44.52378,12.318359,20.288986,1.6769656,0.25294816,0.04923184,-0.25031075,-0.80412513,-0.21051355,-0.7603235,-0.5591944,0.6221327,0.44075298,0.82033026,-0.69753844,-1.7973068,-0.98144466,2.1220746,1.6047878,-0.8884589,0.84200823,-0.6314978,-1.7814872,-0.919027,2.1697047,1.5470053,-0.9297714,-0.3532022,-1.437478,-0.50542426,-1.36263,-0.82726127,0.4438522,0.279336,0.32683182,-0.5359092,1.2315425,-3.0164797,-0.2703449,-2.363324,-0.025821686,-0.4596808,0.96929014,0.88461757,-0.15713906,0.17430371,0.4029606,-0.2873539,-0.87334734,-1.0121918,1.0,0.0,0.0,0.0,0.0,0.0,0.0,-0.9768318,0.13590917,-0.68154246,-7.1654677,-0.1251936,7.091975,-0.4487276,0.68410635,0.31607747,1.244086
-7.9913673,46.115074,12.933033,20.01448,1.608833,0.22665858,0.027613819,-0.2428355,-0.801948,-0.2329622,-0.7539235,-0.5654356,0.6225675,0.43454912,0.8177247,-0.7116926,-1.8047835,-0.99441934,2.113161,1.609262,-0.88631654,0.83804667,-0.645863,-1.7861087,-0.93262637,2.161484,1.5514551,-0.9269228,-0.40953672,-1.4361788,-0.44920754,-1.358275,-0.8202311,0.44595778,0.28739274,0.29668808,-0.53861046,1.2071905,-3.013464,-0.2700746,-2.4591467,-0.028856277,-0.46817303,0.95917785,0.8851252,-0.14885361,0.17378335,0.40521017,-0.30845788,-0.8332732,-1.0163133,1.0,0.0,0.0,0.0,0.0,0.0,0.0,-0.94668806,0.13861045,-0.6571905,-5.350578,0.1275301,5.140531,0.6630182,0.70278645,0.34785867,1.0188758
-8.564157,35.42566,8.14388,16.973677,1.3417637,-0.29920596,-0.06155985,-0.23467901,-0.8121204,-0.36434653,-0.7588485,-0.5648294,0.6075263,0.4405664,0.8145788,-0.72707504,-1.8225434,-1.0085112,2.105001,1.6122078,-0.88286614,0.83374274,-0.6602616,-1.7909477,-0.94617903,2.1533206,1.5559069,-0.92400455,-0.43651032,-1.4411483,-0.4964163,-1.3533664,-0.81528133,0.4446697,0.29375273,0.26657486,-0.54130936,1.1818811,-3.010451,-0.2698046,-2.554874,-0.032096863,-0.47646785,0.94887656,0.8856068,-0.1405234,0.17316994,0.40738896,-0.32856664,-0.8201145,-1.0397825,1.0,0.0,0.0,0.0,0.0,0.0,0.0,-0.91657484,0.14130935,-0.63188106,-2.468127,-0.5373001,-4.982722,0.7511139,0.36990643,-0.15611053,0.76494217
-13.561821,27.062145,3.8950949,16.855219,1.3492569,-0.53235084,-0.18747371,-0.27730238,-0.81537974,-0.43762386,-0.7584416,-0.5829773,0.5904057,0.44135922,0.8060125,-0.74179953,-1.8347101,-1.0220232,2.095023,1.6149474,-0.8798686,0.82913077,-0.6747288,-1.7967575,-0.95968115,2.1451304,1.5603243,-0.9210348,-0.46858078,-1.4488415,-0.60941416,-1.3480766,-0.8208419,0.4401474,0.2983416,0.23649216,-0.5440054,1.1556151,-3.007441,-0.26953483,-2.6505053,-0.035606384,-0.48474717,0.9382318,0.8861769,-0.13185996,0.1726006,0.40928292,-0.3578853,-0.82214874,-1.0776427,1.0,0.0,0.0,0.0,0.0,0.0,0.0,-0.88649213,0.14400539,-0.6056151,-2.952969,-0.8548498,-11.424947,0.85544586,-0.81413984,-0.6054759,0.522244
-19.840525,23.162003,1.4245377,18.334692,1.5280658,-0.48753893,-0.2846738,-0.33650908,-0.81471884,-0.4866448,-0.76390123,-0.595528,0.57824624,0.43709534,0.79547983,-0.7562007,-1.8454219,-1.0360713,2.0855775,1.6181489,-0.8773253,0.82401335,-0.6892628,-1.8038661,-0.97316515,2.1368334,1.5646826,-0.91803074,-0.52503395,-1.4553571,-0.7449131,-1.3471198,-0.83408034,0.43363732,0.30122778,0.20643997,-0.5466986,1.1283935,-3.0044343,-0.26926535,-2.746041,-0.039506912,-0.4930687,0.9271563,0.88691556,-0.1226907,0.17216186,0.41071647,-0.39992583,-0.8269528,-1.1227223,1.0,0.0,0.0,0.0,0.0,0.0,0.0,-0.85643995,0.14669856,-0.5783935,-5.3272367,-0.7771015,-13.623762,0.49381256,-1.68823,-0.8798301,0.3197074
-27.558197,19.919977,-0.7513987,20.712337,1.8879333,-0.33497328,-0.3879737,-0.4055424,-0.8194307,-0.5495588,-0.76810145,-0.5946929,0.5487023,0.40163642,0.7834591,-0.7712059,-1.858822,-1.0499753,2.0773642,1.6195529,-0.8778671,0.81809294,-0.7038683,-1.8123672,-0.9866673,2.128403,1.5689532,-0.9150295,-0.61305696,-1.4628925,-0.8854073,-1.3496965,-0.8473144,0.42397863,0.2997581,0.1764183,-0.54938936,1.1002173,-3.0014305,-0.26899615,-2.8414814,-0.043952942,-0.5014334,0.9155997,0.8878903,-0.11291506,0.17186794,0.4115367,-0.45989102,-0.8306292,-1.1722031,1.0,0.0,0.0,0.0,0.0,0.0,0.0,-0.8264183,0.14938936,-0.55021733,-8.404684,-0.92639923,-14.090252,0.22668839,-1.7970204,-1.2636781,-0.1280725
-30.682058,20.606382,-0.7893132,21.642488,2.129991,-0.14668626,-0.39044076,-0.45471823,-0.82308745,-0.6029719,-0.7759818,-0.5669829,0.52470785,0.39034662,0.7726211,-0.7861771,-1.8726645,-1.0642655,2.0717046,1.621424,-0.87599486,0.811195,-0.71855015,-1.8221824,-1.0002352,2.1199458,1.573115,-0.91205406,-0.7138333,-1.4706454,-1.0137192,-1.3574202,-0.8469179,0.41238943,0.29690233,0.14642715,-0.5520773,1.0710875,-2.9984295,-0.2687272,-2.9368265,-0.049066544,-0.5098009,0.90354764,0.8891143,-0.10251825,0.17162906,0.4117148,-0.5287826,-0.8291563,-1.2222011,1.0,0.0,0.0,0.0,0.0,0.0,0.0,-0.79642713,0.15207729,-0.52108747,-9.650862,-0.97448826,-12.863291,-0.24652481,-0.4799962,-1.4944613,-0.2490282
-40.01361,23.305132,-0.46167183,26.500488,2.7931676,0.36343902,-0.4860202,-0.5684178,-0.82352096,-0.6181286,-0.76608384,-0.5547071,0.5323085,0.373832,0.7543532,-0.80090225,-1.8839953,-1.0768436,2.064475,1.6263459,-0.87467086,0.8029715,-0.73329586,-1.8329875,-1.013825,2.1115534,1.5771757,-0.9091177,-0.8567979,-1.4766237,-1.102864,-1.3575587,-0.8386597,0.40281725,0.2928331,0.11646652,-0.55476236,1.0410049,-2.995432,-0.26845855,-3.0320761,-0.05504036,-0.5180402,0.89106816,0.89060867,-0.09160884,0.17133941,0.41117722,-0.62103885,-0.81164616,-1.2627552,1.0,0.0,0.0,0.0,0.0,0.0,0.0,-0.7664665,0.15476236,-0.49100488,-13.792777,-0.84228516,-8.957434,0.5885601,0.22628307,-1.2918711,-0.33547282
-45.84599,26.152838,-0.060958385,29.206345,3.2596319,0.70825565,-0.548139,-0.65803105,-0.8186792,-0.6674682,-0.76886123,-0.4924187,0.5349651,0.32477093,0.7371684,-0.8151638,-1.8997344,-1.0907112,2.0623116,1.6306722,-0.8766406,0.7931572,-0.7480597,-1.844569,-1.0274092,2.103432,1.5811526,-0.9062538,-1.0212178,-1.4772676,-1.1766798,-1.3566095,-0.805347,0.39476627,0.2846538,0.08653641,-0.55744505,1.0099703,-2.9924371,-0.26819015,-3.1272304,-0.062044144,-0.5260296,0.8782306,0.8923996,-0.08028947,0.17086424,0.40985587,-0.7286956,-0.783248,-1.2972225,1.0,0.0,0.0,0.0,0.0,0.0,0.0,-0.7365364,0.15744504,-0.4599703,-15.904367,-0.3446579,-7.4086905,0.7495403,2.6698709,-1.1681914,-0.70927143
-47.459167,29.56731,0.9045055,30.200708,3.5149722,0.90807784,-0.59184635,-0.72540313,-0.81518286,-0.71997726,-0.75691295,-0.423469,0.5147506,0.2260798,0.72061694,-0.829578,-1.9165667,-1.1031005,2.061085,1.6326276,-0.88364583,0.78172934,-0.7627978,-1.8568733,-1.0409228,2.0958369,1.5850416,-0.9035387,-1.1815565,-1.4736707,-1.2483189,-1.347317,-0.74637055,0.3858401,0.2675592,0.056632996,-0.5601249,0.977985,-2.9894452,-0.267922,-3.2222896,-0.07016373,-0.5336909,0.86508876,0.89450693,-0.06864026,0.17005624,0.40770915,-0.84248793,-0.74785155,-1.3263948,1.0,0.0,0.0,0.0,0.0,0.0,0.0,-0.706633,0.16012487,-0.427985,-15.517068,0.06172657,-7.157254,1.5947342,5.225885,-1.2843609,-1.5675366
-42.096172,35.31165,3.7055151,28.60297,3.2789361,1.0403571,-0.5503569,-0.7630315,-0.8151422,-0.7479243,-0.73700994,-0.42162508,0.5330233,0.11716503,0.7054262,-0.844312,-1.9316657,-1.1146238,2.0536745,1.6383439,-0.8918222,0.7689358,-0.7774939,-1.8698223,-1.0542532,2.0887835,1.5888678,-0.90106773,-1.3106091,-1.4691684,-1.3101844,-1.326409,-0.6933192,0.3801791,0.24079439,0.026760101,-0.5628023,0.9450499,-2.9864564,-0.26765415,-3.3172536,-0.07932472,-0.54095554,0.851693,0.8968941,-0.05677428,0.1688649,0.40477422,-0.9433342,-0.70545036,-1.3504798,1.0,0.0,0.0,0.0,0.0,0.0,0.0,-0.6767601,0.16280231,-0.39504987,-12.475657,0.17719269,-6.1738253,2.6939392,4.7257066,-0.93319416,-2.5220156
-32.27678,41.33545,7.2445135,24.829983,2.750322,1.0496571,-0.4533623,-0.7841748,-0.8147637,-0.7687063,-0.73103213,-0.41137382,0.50563675,-0.05663629,0.6905183,-0.8589703,-1.946693,-1.1273564,2.047646,1.6394315,-0.90673137,0.7551695,-0.7921471,-1.8832977,-1.067372,2.0821917,1.5926272,-0.89897823,-1.397511,-1.4647983,-1.3599216,-1.3052709,-0.64949185,0.3735457,0.19886202,-0.0030822754,-0.5654769,0.9111657,-2.9834707,-0.26738656,-3.4121227,-0.089307785,-0.5477772,0.83807385,0.899487,-0.04478436,0.16727632,0.40116823,-1.0196649,-0.6594966,-1.3721286,1.0,0.0,0.0,0.0,0.0,0.0,0.0,-0.6469177,0.16547689,-0.3611657,-8.371687,0.21748543,-4.979992,2.6134014,3.9454222,-0.97792745,-4.0334225
-24.283735,46.486732,10.498357,22.22757,2.6122656,1.0618527,-0.3868121,-0.8042385,-0.81255,-0.7846379,-0.7169504,-0.27687067,0.46568832,-0.24318784,0.6747457,-0.8734021,-1.9617615,-1.139067,2.0545046,1.639196,-0.92329705,0.7407938,-0.8067555,-1.8971775,-1.0802656,2.0763323,1.5963007,-0.8974199,-1.4500941,-1.4600494,-1.3971463,-1.2827239,-0.5658002,0.3642779,0.14216128,-0.032894135,-0.5681486,0.8763336,-2.9804878,-0.26711923,-3.506897,-0.09994888,-0.5541358,0.82428145,0.9022412,-0.032795753,0.16512154,0.39701393,-1.0819851,-0.6119425,-1.3879087,1.0,0.0,0.0,0.0,0.0,0.0,0.0,-0.61710584,0.1681486,-0.32633358,-5.03366,0.30190945,-3.7385464,2.6560307,8.055628,-1.1944473,-5.469778
-20.447357,52.414837,13.947855,22.749023,3.1829007,1.2147443,-0.3684399,-0.82350034,-0.8055975,-0.7819416,-0.67903334,0.025169298,0.45801425,-0.3382086,0.6584438,-0.8873152,-1.9753716,-1.1481689,2.0788493,1.6421021,-0.9312408,0.72605383,-0.8212933,-1.9112766,-1.092816,2.0721247,1.5998846,-0.8964548,-1.4814234,-1.4521681,-1.4141086,-1.244796,-0.3732174,0.3556137,0.082293466,-0.062675476,-0.57081795,0.8405545,-2.9775078,-0.26685217,-3.6015766,-0.11125374,-0.55999374,0.8104551,0.9051696,-0.021074587,0.16195454,0.39242136,-1.1493347,-0.5604547,-1.3870431,0.0,1.0,0.0,0.0,0.0,0.0,0.0,-0.5873245,0.17081794,-0.29055446,-2.9835463,0.64406395,-1.697135,4.1032314,19.046705,-1.0911763,-5.692777
-16.439024,56.05203,16.247152,22.00817,3.3340268,1.3056444,-0.326976,-0.8302629,-0.8022074,-0.785673,-0.65888405,0.21008863,0.48235607,-0.3779838,0.64302754,-0.90151405,-1.9898438,-1.1587044,2.0931337,1.6481203,-0.9342532,0.7111194,-0.83570814,-1.9259211,-1.1051173,2.070344,1.603758,-0.895974,-1.497832,-1.4325747,-1.5496224,-1.2494743,-0.1158527,0.43156278,0.046838436,-0.08664131,-0.5723939,0.8173666,-1.481203,0.13452363,0.15380983,-0.123249054,-0.5653496,0.79654664,0.90826887,-0.009776971,0.157523,0.38747695,-1.2215413,-0.5164983,-1.4204736,0.0,1.0,0.0,0.0,0.0,0.0,0.0,-0.56335866,0.17239389,-0.2673666,-1.7095089,2.9314518,-26.58906,-4.8899174,26.661882,15.467673,-1.1620297
32.561314,176.0,110.0,110.0,5.3928275,12.094827,-1.5419943,-0.8177921,0.4306314,0.6395599,0.6148987,-0.20807528,0.69352585,-0.39352193,0.6293402,-0.792645,-1.8619651,-1.0436275,2.0495365,1.6731106,-0.93532616,0.6998448,-0.8524699,-1.9324967,-1.1039033,2.0591438,1.6146116,-0.89467335,-0.99288785,-1.6762147,-0.5018413,0.5502525,-1.3194785,1.3680303,0.19098668,-0.1011467,-0.57087135,0.8192395,-1.479722,0.1343891,0.0554701,-0.13525009,-0.5678544,0.7866248,0.9107067,-0.007614043,0.15730174,0.3818527,-1.1939465,-0.1436647,-0.85438335,0.0,1.0,0.0,0.0,0.0,0.0,0.0,-0.5488533,0.17087135,-0.2692395,53.80018,4.7683716e-05,61.0803,171.029,-80.2543,113.39785,24.405937
-43.673466,150.55884,53.708397,88.41365,7.607621,4.372192,-2.1228585,-0.777272,-0.68951076,-0.29219946,0.6973271,-0.4457732,0.6309847,-0.2794175,0.6221176,-0.921421,-1.9617167,-1.0341706,2.0145664,1.67771,-0.9226151,0.6902155,-0.86869574,-1.9350125,-1.0918698,2.044953,1.6284189,-0.8929939,-0.9513378,-1.6057637,-0.16623417,1.4231526,-1.4544495,1.3890688,0.1619166,-0.115932465,-0.5695286,0.81904936,-1.4782425,0.13425474,-0.043836515,-0.14810371,-0.5682616,0.7806051,0.9134455,-0.011239604,0.15960205,0.37419006,-1.3130176,0.0044378336,-0.5227167,0.0,1.0,0.0,0.0,0.0,0.0,0.0,-0.5340675,0.16952857,-0.26904935,4.61812,6.7311525,34.12558,87.94663,-14.166188,3.3216715,-2.40449
-48.676857,135.87918,37.44098,64.85345,5.10931,2.4701622,-1.5237701,-0.75740814,-0.5625414,-0.36000624,0.6982425,-0.5955823,0.5816744,0.18093964,0.6144747,-0.9249499,-1.9710131,-1.0220456,1.9853948,1.6865864,-0.8749,0.68013805,-0.8830104,-1.9366318,-1.0746522,2.0309455,1.6416388,-0.891366,-1.0248326,-1.37464,-0.16039455,1.8233013,-1.3844756,1.3020514,0.16326545,-0.13070297,-0.56818724,0.8178669,-1.4767647,0.13412051,-0.14304385,-0.16186523,-0.56743956,0.776932,0.9167141,-0.016446501,0.16310236,0.36436582,-1.3939689,0.11638966,-0.3223623,1.0,0.0,0.0,0.0,0.0,0.0,0.0,-0.519297,0.16818723,-0.2678669,-6.82199,22.714256,0.6539494,40.64746,6.43487,-8.012962,0.19388795
-20.11211,117.04647,36.46548,36.55772,2.9339652,1.7771955,-0.38931134,-0.6991667,-0.64687544,0.11162846,0.75904614,-0.62875974,0.61313,0.14097513,0.6102214,-0.94769794,-1.9254689,-0.9987476,1.9680696,1.7029518,-0.8772685,0.66914886,-0.89554834,-1.9370342,-1.0560098,2.0181472,1.6536837,-0.88979435,-1.1230078,-1.2148204,0.0013163222,1.8787271,-1.247839,1.1729453,0.15529253,-0.14545822,-0.56684685,0.81569314,-1.4752883,0.13398641,-0.242152,-0.1758709,-0.5656252,0.77468497,0.920126,-0.02210334,0.16683662,0.35361692,-1.4012496,0.2119706,-0.19925143,1.0,0.0,0.0,0.0,0.0,0.0,0.0,-0.50454175,0.16684684,-0.26569313,-9.638715,15.600419,16.559324,5.7732344,12.715864,-12.6072645,-0.76093674
-6.2972655,72.79104,20.570982,13.290169,1.0080925,0.34126884,0.18031034,-0.68255955,-0.6759843,-0.0030602673,0.7247167,-0.615894,0.6082698,0.08821873,0.6008929,-0.9631468,-1.9373403,-0.9835381,1.9565579,1.7145107,-0.8809725,0.65736336,-0.9071183,-1.9365994,-1.0383439,2.0067337,1.6644888,-0.88833904,-1.197129,-1.1384181,0.058366094,1.7291718,-1.1077416,1.050059,0.14200321,-0.16020012,-0.5655079,0.81252897,-1.4738133,0.13385245,-0.34116107,-0.1897583,-0.563282,0.7727883,0.923456,-0.027330503,0.1701445,0.34283066,-1.3818811,0.25114208,-0.19303966,0.0,1.0,0.0,0.0,0.0,0.0,0.0,-0.48979986,0.16550788,-0.26252896,-7.4347734,7.4251175,5.933882,-14.93237,13.406229,-12.137055,-1.3746053
10.230747,67.93146,21.972048,4.4988203,0.07974255,0.10978103,0.51273155,-0.6726075,-0.6404473,0.14770222,0.73840594,-0.6452148,0.5952051,0.101860024,0.5901026,-0.97116303,-1.9218291,-0.9645033,1.9422122,1.7240093,-0.878153,0.6451172,-0.91822195,-1.9351975,-1.02249,1.9963744,1.6741762,-0.88700294,-1.2342805,-1.1017526,0.16904941,1.5372096,-1.014356,0.9420415,0.13073315,-0.17492867,-0.56417036,0.8083755,-1.4723397,0.13371862,-0.44007117,-0.20319748,-0.5606351,0.77083474,0.92656314,-0.031981096,0.17283437,0.33254507,-1.329237,0.2786547,-0.2018011,0.0,1.0,0.0,0.0,0.0,0.0,0.0,-0.4750713,0.16417035,-0.25837547,-3.8541794,3.475213,11.497496,-19.28339,8.624625,-10.680521,-1.18393
11.184153,48.03994,14.133557,0.7415962,-0.18207186,-0.524284,0.47434387,-0.6612574,-0.6586569,0.068126306,0.7237065,-0.6274235,0.59428453,0.09821862,0.5789915,-0.98408765,-1.9283849,-0.9501194,1.933632,1.7336047,-0.87718105,0.6327633,-0.929296,-1.9332882,-1.0083661,1.9867232,1.6829119,-0.88576794,-1.2362288,-1.1096611,0.19917218,1.3708079,-0.9501646,0.8508865,0.12089187,-0.18964195,-0.56283426,0.8032336,-1.4708676,0.13358493,-0.5388823,-0.21618652,-0.5579252,0.7685188,0.9294599,-0.035921656,0.1749164,0.32282835,-1.2871268,0.27754402,-0.24622667,0.0,1.0,0.0,0.0,0.0,0.0,0.0,-0.46035802,0.16283426,-0.2532336,-0.310421,-0.9136677,3.290832,-16.67168,5.9539914,-9.037161,-1.0182053
7.6176887,33.865612,7.413444,0.95300317,-0.18676192,-1.0174744,0.304605,-0.6394708,-0.66971797,-0.03758055,0.71724486,-0.62200475,0.5882879,0.10548882,0.56881624,-0.9962678,-1.9370463,-0.93664163,1.9245228,1.7417407,-0.87521905,0.62061447,-0.9406209,-1.9318348,-0.99545455,1.9775221,1.6908464,-0.884614,-1.2079648,-1.140376,0.12790756,1.2647057,-0.9111268,0.7743499,0.11349845,-0.20433998,-0.5614996,0.7971044,-1.4693971,0.13345137,-0.63759476,-0.22888756,-0.55538034,0.76558465,0.93223614,-0.03891981,0.17654619,0.3134522,-1.2626873,0.25537953,-0.31333965,0.0,1.0,0.0,0.0,0.0,0.0,0.0,-0.44566,0.16149959,-0.2471044,2.757883,-3.151393,-6.9948463,-10.550928,3.6606789,-7.62136,-0.7620752
3.5210824,22.289566,1.6828542,1.8292788,-0.18256848,-1.3984457,0.14288747,-0.60548884,-0.69425374,-0.15969373,0.7180103,-0.6328368,0.6007121,0.13513552,0.56006557,-1.0100462,-1.9478042,-0.92365354,1.9142385,1.7509177,-0.8711004,0.6089377,-0.952374,-1.9318043,-0.9831426,1.9685366,1.6981211,-0.88350105,-1.1542522,-1.1871912,-0.038556896,1.220538,-0.8944887,0.71186066,0.11047587,-0.21902275,-0.5601659,0.78998876,-1.467928,0.13331795,-0.7362085,-0.24146652,-0.5531745,0.7618379,0.9349735,-0.04074455,0.17793544,0.30414364,-1.2549987,0.21714497,-0.39904392,0.0,1.0,0.0,0.0,0.0,0.0,0.0,-0.43097723,0.16016588,-0.23998874,5.3463697,-4.7342777,-16.627384,-4.267454,1.5977263,-6.2719703,-0.32179803
-8.537998,12.408542,-4.543237,5.4532604,0.0971134,-1.5663415,-0.06662765,-0.6066407,-0.71380496,-0.3388464,0.7279967,-0.6372666,0.5949256,0.19439667,0.5482736,-1.0237545,-1.965689,-0.91034293,1.90481,1.7576137,-0.86406136,0.5977503,-0.96461594,-1.93427,-0.9709422,1.9594476,1.7047429,-0.8823969,-1.1067638,-1.2367562,-0.31438988,1.2218021,-0.90907514,0.64813256,0.111025795,-0.2341938,-0.55717516,0.7853359,-1.5190759,0.31591788,-0.45058405,-0.2541504,-0.55143213,0.7570734,0.93775785,-0.040976245,0.1793773,0.29454184,-1.2714016,0.16892026,-0.5051662,0.0,1.0,0.0,0.0,0.0,0.0,0.0,-0.41580617,0.15717515,-0.23533589,4.746151,-5.057001,-26.613197,0.8899212,0.53617954,-5.2564144,0.35392195
-29.893364,20.587666,-5.102007,15.853763,0.99041295,-1.0648909,-0.35204214,-0.6724933,-0.678736,-0.47451073,0.76228666,-0.6394754,0.55490726,0.26268145,0.530501,-1.0324895,-1.981721,-0.8947135,1.8955001,1.7602336,-0.85612875,0.5866066,-0.97708523,-1.9396602,-0.9583604,1.9503362,1.7108712,-0.8812,-1.1162226,-1.2505771,-0.61479074,1.2717516,-0.9113038,0.6007399,0.1224933,-0.24937248,-0.5540185,0.78008896,-1.517557,0.31560203,-0.5493847,-0.26726532,-0.5499363,0.7514282,0.9406602,-0.039598394,0.1810983,0.28424242,-1.3228213,0.1515992,-0.5880937,0.0,1.0,0.0,0.0,0.0,0.0,0.0,-0.4006275,0.15401849,-0.23008895,-0.73013306,-1.4805555,-30.318325,5.446434,-0.048482418,-4.8479795,1.1315033
-36.516388,25.53074,-3.536943,18.981472,1.4228886,-0.6220549,-0.37481925,-0.6874182,-0.7039344,-0.55340225,0.7620611,-0.6258372,0.55730736,0.27873603,0.5178648,-1.0474787,-1.9950004,-0.8821543,1.8877525,1.7666019,-0.85332644,0.57517207,-0.9896852,-1.9477664,-0.9452483,1.941261,1.7165914,-0.87987536,-1.1516986,-1.2635615,-0.87646204,1.3259642,-0.9061428,0.56208163,0.13585593,-0.2645359,-0.5508647,0.7738548,-1.5160398,0.3152865,-0.6480866,-0.28097153,-0.54846954,0.745038,0.9436718,-0.03673867,0.18312553,0.27312773,-1.3833011,0.15434779,-0.6598023,0.0,1.0,0.0,0.0,0.0,0.0,0.0,-0.38546407,0.15086469,-0.22385478,-3.2876015,-1.4484882,-26.381779,5.9233427,0.5909562,-4.0429235,1.3333142
-31.697811,35.191486,1.5068433,18.096088,1.43662,-0.16598749,-0.2342138,-0.6916862,-0.719791,-0.5809137,0.7529145,-0.61902213,0.5921372,0.27759686,0.50600344,-1.0616642,-2.0058577,-0.86995685,1.8793589,1.7758051,-0.8521157,0.5633484,-1.0024314,-1.9578391,-0.93174046,1.9322507,1.7220025,-0.87842673,-1.1919458,-1.2789191,-1.0508127,1.3604313,-0.8997216,0.53337777,0.14781502,-0.27968407,-0.54771423,0.76663136,-1.5145241,0.31497127,-0.74708354,-0.29517746,-0.54685545,0.7380527,0.94670665,-0.03271428,0.18534306,0.26138875,-1.4292953,0.17426331,-0.71531314,0.0,1.0,0.0,0.0,0.0,0.0,0.0,-0.3703159,0.14771423,-0.21663135,-3.8220167,-1.7270088,-17.436659,3.8813114,0.5046487,-3.0948162,1.1888862
-10.867594,44.74052,8.22269,11.20285,0.7385493,-0.04239154,0.081780724,-0.6365547,-0.7371815,-0.60101885,0.74425876,-0.61671734,0.6102899,0.33025622,0.49969295,-1.0761496,-2.017941,-0.8573146,1.870579,1.7830315,-0.8454011,0.5514494,-1.0153766,-1.9690403,-0.91808677,1.9232663,1.7271897,-0.8768395,-1.1891303,-1.300373,-1.1423448,1.3677375,-0.89918077,0.51325035,0.1621387,-0.29492188,-0.54440784,0.759035,-1.5265411,0.3366237,-0.760262,-0.3095398,-0.5450673,0.7305955,0.9496253,-0.027879072,0.18760955,0.24947347,-1.4339699,0.19172584,-0.7597336,0.0,1.0,0.0,0.0,0.0,0.0,0.0,-0.3550781,0.14440784,-0.20903498,0.31089783,-2.331233,-8.8133335,0.9843588,-0.16924143,-2.260685,1.3822883
-0.030630589,51.782368,12.315312,8.094166,0.47057125,0.058373213,0.23998906,-0.62650347,-0.7443669,-0.6294403,0.7454638,-0.5981663,0.58655065,0.36924276,0.48879907,-1.0898132,-2.0319843,-0.8435404,1.8634497,1.7858447,-0.8399152,0.53972304,-1.0285316,-1.980765,-0.9044645,1.9143264,1.7321897,-0.8750962,-1.1673827,-1.3211739,-1.1810303,1.3607525,-0.89394194,0.49491993,0.17808357,-0.31025887,-0.5408788,0.7513066,-1.5364952,0.35834154,-0.7783158,-0.3237915,-0.54311323,0.7227734,0.95234406,-0.022502411,0.18980744,0.23771328,-1.4177773,0.20855178,-0.79338646,0.0,1.0,0.0,0.0,0.0,0.0,0.0,-0.3397411,0.14087877,-0.20130658,2.1104336,-2.25842,-3.4317493,-0.603199,0.06364584,-2.066189,1.5202105
8.069576,59.87645,15.938194,6.5694714,0.23158556,0.1558702,0.3355458,-0.60653675,-0.7406096,-0.63956106,0.7495278,-0.62452096,0.5920069,0.4105058,0.47906935,-1.1025925,-2.0447211,-0.8295117,1.8518744,1.7913903,-0.83404565,0.52832377,-1.0418258,-1.9926273,-0.8909349,1.905389,1.7370406,-0.8731726,-1.1312369,-1.3326923,-1.1860409,1.3503253,-0.8954798,0.4811185,0.19684936,-0.3253975,-0.5371814,0.7434474,-1.5056144,0.3725668,-0.7903151,-0.33775902,-0.5409913,0.71470904,0.9548139,-0.016778745,0.19193038,0.22629973,-1.3841351,0.22511807,-0.81446004,0.0,1.0,0.0,0.0,0.0,0.0,0.0,-0.32460248,0.13718137,-0.19344741,3.4729004,-1.3336182,0.07753372,-1.0534048,-0.66530704,-1.5681863,1.7887831
14.941503,64.118965,17.878824,4.9266515,0.03759089,0.12855113,0.3968925,-0.57142305,-0.7428731,-0.6529043,0.745807,-0.6170163,0.5927328,0.43335912,0.47118145,-1.1161131,-2.0579176,-0.81635416,1.8436873,1.7963139,-0.82983667,0.5174023,-1.0551904,-2.004466,-0.8775218,1.8964593,1.7417753,-0.8710595,-1.0796674,-1.3382332,-1.1807115,1.3379233,-0.8942553,0.47030503,0.21564138,-0.34013557,-0.53335667,0.7355076,-1.4636272,0.38498718,-0.7963027,-0.3513012,-0.5387392,0.70647657,0.9570138,-0.01081982,0.19398306,0.21535583,-1.3385161,0.23659861,-0.8296546,0.0,1.0,0.0,0.0,0.0,0.0,0.0,-0.3098644,0.13335666,-0.1855076,4.963875,-0.73046684,1.1913061,-1.3332605,-0.5058646,-1.2586713,1.7575294
6.8169656,64.96369,16.719328,8.089812,0.4045688,0.21813083,0.30969232,-0.59247243,-0.74098885,-0.6709634,0.7441832,-0.61721677,0.54630494,0.46682766,0.45815504,-1.1292894,-2.0715623,-0.8031035,1.8347377,1.7964058,-0.8243767,0.5068146,-1.0685648,-2.0162997,-0.86421424,1.8875371,1.7463821,-0.8687535,-1.0522326,-1.337926,-1.1820012,1.3283492,-0.89372045,0.45670727,0.23520873,-0.35447693,-0.5294061,0.72751045,-1.4251912,0.39766225,-0.8022149,-0.36447716,-0.53631973,0.69811285,0.95896775,-0.0046158796,0.19599055,0.20481037,-1.3052846,0.25441065,-0.84212774,0.0,1.0,0.0,0.0,0.0,0.0,0.0,-0.29552305,0.12940606,-0.17751044,2.596712,-0.16458035,0.50981045,-0.9893894,-0.58956146,-1.5584528,1.8459976
-7.2887497,64.63258,14.294308,12.948721,0.91766816,0.3717515,0.17464149,-0.6277742,-0.733597,-0.6993437,0.742027,-0.6315614,0.5126011,0.502948,0.44403717,-1.1419245,-2.086234,-0.7900115,1.824381,1.7976422,-0.8184587,0.4962145,-1.0818857,-2.028286,-0.8509763,1.8785692,1.750835,-0.8662462,-1.0628198,-1.3308281,-1.2021257,1.322591,-0.8999894,0.44065204,0.2556489,-0.3684845,-0.52531433,0.7194204,-1.3936502,0.41274774,-0.8124302,-0.37747383,-0.53362846,0.68962336,0.9607128,0.0019438916,0.1980166,0.19446497,-1.292009,0.2843791,-0.854446,0.0,1.0,0.0,0.0,0.0,0.0,0.0,-0.28151548,0.12531433,-0.16942036,-1.1289358,0.48687458,-1.42591,-0.5009413,-1.2729526,-1.8345654,1.9444406
-6.6153984,66.67382,14.5951185,13.014551,0.90398896,0.4008475,0.1799755,-0.6050564,-0.7274564,-0.7062173,0.73839134,-0.6342986,0.52690727,0.52960235,0.43570888,-1.1546314,-2.0989077,-0.77713716,1.8151394,1.8035257,-0.813286,0.48552668,-1.0951036,-2.0405083,-0.837786,1.8695307,1.7551533,-0.86353415,-1.0710387,-1.3195887,-1.2264473,1.3180192,-0.90749156,0.4278876,0.2759004,-0.382164,-0.5210848,0.7112376,-1.3602372,0.42621556,-0.8208639,-0.39031982,-0.5306344,0.6810255,0.96224946,0.008888873,0.20010257,0.184271,-1.2760587,0.3145,-0.86473876,0.0,1.0,0.0,0.0,0.0,0.0,0.0,-0.26783597,0.12108478,-0.1612376,-0.90765953,0.8984804,-1.8076897,-0.4056692,-1.4296651,-1.5242636,1.9049287
2.0268352,68.61832,16.146763,10.505699,0.6947621,0.32483935,0.2504555,-0.56889606,-0.7299094,-0.69256717,0.73797023,-0.6251646,0.50279516,0.5466774,0.4286371,-1.1680945,-2.109765,-0.763989,1.8070142,1.8054328,-0.8088664,0.47492707,-1.1082338,-2.052868,-0.82462925,1.8604593,1.7593447,-0.86062837,-1.0567676,-1.311598,-1.2364129,1.3148154,-0.90961486,0.41529232,0.29500577,-0.39547348,-0.51674604,0.70300174,-1.3216873,0.4360924,-0.8249575,-0.40291977,-0.5273981,0.6723454,0.9635678,0.016140027,0.2022072,0.17432402,-1.2484244,0.3364825,-0.8720894,0.0,1.0,0.0,0.0,0.0,0.0,0.0,-0.2545265,0.11674604,-0.15300173,1.2856245,0.5896807,-0.29876232,-0.3487587,-0.93073845,-1.5103638,1.775825
-5.006796,67.402985,14.643954,12.689479,0.97582614,0.39824712,0.18650419,-0.6040125,-0.72485346,-0.7114,0.7386059,-0.6359592,0.46117395,0.57528347,0.4145258,-1.1807191,-2.124008,-0.75076866,1.7968634,1.8054621,-0.8031,0.46432984,-1.1212896,-2.0653496,-0.81148666,1.8513438,1.7633907,-0.85753185,-1.0610439,-1.3041581,-1.2498667,1.3142442,-0.9146004,0.39999804,0.31409976,-0.4084301,-0.51230764,0.6947002,-1.2873956,0.44636226,-0.83230793,-0.41531944,-0.5238981,0.6635885,0.9646794,0.023704266,0.2043153,0.16458128,-1.231197,0.36436468,-0.8796554,0.0,1.0,0.0,0.0,0.0,0.0,0.0,-0.24156988,0.11230764,-0.14470017,-0.53527355,0.5255461,-0.6668806,-0.031471252,-1.2186527,-1.7976701,1.7907143
-2.0897744,71.763245,15.980561,12.600077,0.9684205,0.43437693,0.20020202,-0.5894486,-0.70912904,-0.7050249,0.7381769,-0.64139426,0.4408991,0.5891016,0.405385,-1.1922026,-2.135852,-0.737669,1.7872043,1.8074806,-0.79862165,0.45373356,-1.1342195,-2.0779,-0.7983452,1.8421707,1.767283,-0.8542551,-1.05963,-1.2899914,-1.2540114,1.3140078,-0.92095035,0.38464966,0.33169383,-0.42101097,-0.5077796,0.6863708,-1.2488128,0.4548595,-0.8331035,-0.4275093,-0.52012444,0.654807,0.96558243,0.03155009,0.20644005,0.15504058,-1.207695,0.39109176,-0.8802569,0.0,1.0,0.0,0.0,0.0,0.0,0.0,-0.228989,0.10777959,-0.13637078,-0.0006198883,1.1961222,0.3466606,-0.05171299,-1.4288783,-1.8129945,1.6177416
-1.9601738,70.4111,15.542097,12.172166,1.0784247,0.42705655,0.20729229,-0.5940073,-0.71542794,-0.6944704,0.7252846,-0.6135471,0.39397156,0.5955233,0.39433283,-1.2057623,-2.147347,-0.7258167,1.780816,1.8066801,-0.79470277,0.44312918,-1.147056,-2.090408,-0.78526175,1.833025,1.7710006,-0.85081786,-1.0611638,-1.2822815,-1.247118,1.3062732,-0.91510224,0.36647218,0.3474199,-0.4332199,-0.5031786,0.6780032,-1.211703,0.46170408,-0.83727914,-0.4394722,-0.51608706,0.6460081,0.9662939,0.039618615,0.2084945,0.14572772,-1.1864218,0.4172662,-0.88231564,0.0,1.0,0.0,0.0,0.0,0.0,0.0,-0.21678007,0.10317859,-0.12800318,-0.2959013,0.5598545,1.4552355,-0.79836845,-0.21697283,-2.1120489,1.4536321
3.246484,74.93391,17.369394,11.473164,1.1259526,0.42391586,0.23370774,-0.5792595,-0.70713717,-0.6584151,0.7207648,-0.599822,0.33266854,0.5962211,0.38520324,-1.2177697,-2.1562495,-0.71318525,1.7730428,1.8042675,-0.79119575,0.43257675,-1.1598104,-2.102657,-0.77228034,1.8239919,1.774509,-0.8472416,-1.0538918,-1.2737546,-1.2147099,1.2951385,-0.90233123,0.34459597,0.3607099,-0.4450245,-0.49852848,0.6696396,-1.1699166,0.46588877,-0.83534545,-0.4511757,-0.51181173,0.637241,0.9668324,0.047790572,0.21039042,0.13670002,-1.158342,0.43986127,-0.8772045,0.0,1.0,0.0,0.0,0.0,0.0,0.0,-0.20497549,0.098528475,-0.119639575,0.5449772,0.646615,4.1014433,-1.1959076,0.3917694,-2.4929345,1.2095869
-3.4498873,71.87231,15.322994,12.763757,1.3543938,0.39892328,0.19406329,-0.61196625,-0.7064966,-0.67009205,0.6981467,-0.576833,0.19903839,0.60305876,0.37138012,-1.23046,-2.1696663,-0.70246565,1.7663085,1.7944129,-0.7869357,0.42194757,-1.1725,-2.114649,-0.7594973,1.8151454,1.7777135,-0.8435435,-1.0663929,-1.2680821,-1.1913295,1.2725911,-0.8815508,0.31134376,0.37256047,-0.45645905,-0.4938383,0.66122454,-1.1341991,0.47004133,-0.84259737,-0.46268082,-0.50728035,0.6284831,0.9672282,0.056101426,0.21203823,0.1279145,-1.1412551,0.46628642,-0.87753713,0.0,1.0,0.0,0.0,0.0,0.0,0.0,-0.19354093,0.093838304,-0.11122453,-1.3911247,0.36373138,3.13313,-2.2737503,1.2298226,-3.64663,1.0978937
-10.368017,74.16451,14.567738,15.244189,1.6631396,0.3683746,0.14303812,-0.6418641,-0.684794,-0.67047215,0.6763867,-0.546822,-0.07999578,0.62434775,0.35776114,-1.2409794,-2.1816962,-0.6918586,1.7604631,1.769714,-0.78110874,0.4110404,-1.1850542,-2.1264744,-0.7470136,1.8065679,1.7803973,-0.8397262,-1.0991942,-1.2518113,-1.1772131,1.2402924,-0.8527095,0.25286186,0.38450414,-0.4675598,-0.48910713,0.65272945,-1.1014925,0.47426638,-0.8506732,-0.47408485,-0.5024438,0.6197483,0.96750784,0.06466834,0.21335676,0.11927059,-1.1330599,0.49788988,-0.8742093,0.0,1.0,0.0,0.0,0.0,0.0,0.0,-0.18244016,0.089107126,-0.10272944,-3.3999681,1.414752,2.2038698,-3.2208204,2.0053148,-6.1935186,1.1186361
-4.7114277,73.26913,14.8909025,12.607132,1.5743247,0.25755817,0.21779443,-0.63646007,-0.6825545,-0.64260113,0.62062055,-0.46078956,-0.28250954,0.6134663,0.34739438,-1.2533096,-2.1907344,-0.68495154,1.760489,1.7521464,-0.77837956,0.3998495,-1.19745,-2.1380935,-0.7350649,1.7984984,1.782377,-0.8358104,-1.1261685,-1.2361425,-1.1546575,1.1795936,-0.79453886,0.17849542,0.39376184,-0.47833252,-0.4843595,0.64413214,-1.0682865,0.4749069,-0.86095595,-0.48536682,-0.49734402,0.6110329,0.9677072,0.07348104,0.2141535,0.110822126,-1.120052,0.52239746,-0.8727842,0.0,1.0,0.0,0.0,0.0,0.0,0.0,-0.17166746,0.0843595,-0.094132125,-2.839923,1.3820887,3.0466795,-6.113744,4.932916,-7.791543,0.8597195
-0.4217763,73.87415,15.690052,11.481972,1.7000519,0.25764245,0.22269112,-0.6389662,-0.68147224,-0.60139203,0.59675527,-0.37871963,-0.36578116,0.60360456,0.33595288,-1.2655972,-2.1982327,-0.6753894,1.7606264,1.745799,-0.77545,0.38844928,-1.20972,-2.1493423,-0.72375804,1.7912006,1.7836065,-0.83182126,-1.1451353,-1.2243496,-1.1121892,1.1141583,-0.71092117,0.103147455,0.40049905,-0.48876762,-0.4796214,0.63544255,-1.0343357,0.47337002,-0.8698669,-0.49650574,-0.49201632,0.6023555,0.96787256,0.082380064,0.21425304,0.102624565,-1.1051761,0.5445705,-0.8678038,0.0,1.0,0.0,0.0,0.0,0.0,0.0,-0.16123235,0.079621404,-0.08544254,-2.0547867,1.0140419,5.045676,-6.6189528,7.4850082,-7.895307,0.62829256
13.301022,75.35228,18.438278,7.5293865,1.7831466,0.26834792,0.29423088,-0.61507434,-0.6862115,-0.5031301,0.5409132,-0.20524946,-0.41840583,0.58971995,0.32694185,-1.2783412,-2.1996553,-0.6696667,1.7706757,1.741766,-0.77284926,0.37704375,-1.2219328,-2.1597593,-0.7132322,1.7851588,1.7841195,-0.82778364,-1.1397161,-1.2206793,-1.0155213,1.0315657,-0.57142985,0.032877237,0.4047706,-0.49882126,-0.47493052,0.62671703,-0.99465394,0.46730506,-0.87097085,-0.5074158,-0.48653102,0.5937915,0.96809334,0.09095346,0.2133787,0.094827935,-1.0793062,0.55804217,-0.85431814,0.0,1.0,0.0,0.0,0.0,0.0,0.0,-0.15117872,0.07493052,-0.07671702,0.33442974,0.24094582,10.508442,-8.432436,13.06566,-7.379487,0.40550232
24.973726,71.13764,19.448282,1.8405564,1.6400357,0.31084204,0.45518255,-0.61796176,-0.69786733,-0.39475846,0.40822205,-0.03401063,-0.45791173,0.5786565,0.31524757,-1.2917196,-2.1992352,-0.67241,1.7817577,1.7383283,-0.76991796,0.36573315,-1.2341951,-2.1688032,-0.7039872,1.7808702,1.783982,-0.82371736,-1.1288733,-1.2281994,-0.86482084,0.8880982,-0.38393256,-0.030246358,0.40730175,-0.508461,-0.47033143,0.61796963,-0.95281,0.45707035,-0.8739165,-0.5179806,-0.4809754,0.5853287,0.96848166,0.09878272,0.21117476,0.08769558,-1.0420759,0.5626932,-0.84515846,0.0,1.0,0.0,0.0,0.0,0.0,0.0,-0.14153898,0.070331424,-0.06796962,0.86739063,-0.8272648,15.842283,-14.568127,17.940062,-6.6142917,0.26336312
30.67964,86.482056,25.736921,4.7028494,2.904399,0.7202249,0.3328755,-0.61676645,-0.6866787,-0.1280173,0.3797744,0.23605993,-0.43396893,0.60237736,0.3040565,-1.302863,-2.1816049,-0.6660097,1.8044761,1.7405851,-0.7634796,0.3545375,-1.2464937,-2.1753142,-0.6961087,1.779006,1.7833138,-0.81961346,-1.1171943,-1.230715,-0.5769349,0.75357383,-0.123369165,-0.07999238,0.41167825,-0.51760674,-0.4658451,0.60944647,-0.90093404,0.44583005,-0.843023,-0.5281639,-0.47526765,0.57729125,0.96921784,0.10501518,0.20731314,0.081301205,-1.0043448,0.5808438,-0.79159635,0.0,1.0,0.0,0.0,0.0,0.0,0.0,-0.13239324,0.0658451,-0.059446454,0.9335995,-0.32317638,29.65597,-13.717103,25.200653,-5.229108,0.4951775
38.703236,107.984,33.776684,8.1420765,4.0450296,1.2205974,0.21524043,-0.61179966,-0.6664986,0.22506656,0.3209356,0.40237007,-0.42657948,0.5873043,0.29335752,-1.3131436,-2.1528075,-0.6640151,1.819243,1.7406558,-0.76088303,0.34345865,-1.2587103,-2.1776602,-0.68951696,1.7798887,1.782234,-0.8154813,-1.105485,-1.2189697,-0.1178011,0.62667936,0.15605724,-0.117854655,0.41391024,-0.5261059,-0.46150684,0.601589,-0.8320422,0.430388,-0.76547486,-0.5378952,-0.46929598,0.5701994,0.97047096,0.108643174,0.20163919,0.075659506,-0.95688516,0.6093935,-0.68356663,0.0,1.0,0.0,0.0,0.0,0.0,0.0,-0.123894095,0.061506838,-0.051589012,0.9508133,1.0971546,46.843266,-12.9749775,27.083263,-3.9201066,0.27169585
48.38164,102.43566,32.359882,3.6958761,3.1460974,0.8826788,0.31688645,-0.5595938,-0.6642681,0.2679224,0.23129359,0.5128058,-0.51634705,0.59936595,0.28749928,-1.325137,-2.150868,-0.6663876,1.8311694,1.7305993,-0.7555447,0.3327155,-1.2707914,-2.175894,-0.6842498,1.7834059,1.7807753,-0.81132215,-1.06437,-1.2046,0.2770193,0.49284497,0.41488546,-0.15544021,0.4166442,-0.53390884,-0.45738506,0.5944751,-0.76312846,0.40677577,-0.6932142,-0.5470772,-0.46321154,0.5640501,0.972224,0.10964033,0.19427228,0.0708365,-0.90034986,0.6142909,-0.5938228,0.0,1.0,0.0,0.0,0.0,0.0,0.0,-0.11609113,0.057385057,-0.04447508,3.9729834,1.3545513,40.168415,-13.557225,25.293333,-3.7569642,0.27917624
49.894424,102.80247,29.737074,3.1980731,1.9731348,0.50860846,0.34237427,-0.5085632,-0.6029985,0.22743283,0.19023395,0.5601622,-0.5136222,0.60727847,0.2818592,-1.3310913,-2.1531508,-0.6652264,1.8394221,1.729413,-0.7505943,0.32259524,-1.2824606,-2.1714766,-0.6801681,1.7890924,1.7789923,-0.80713224,-0.994828,-1.1548781,0.49838728,0.37981415,0.61884356,-0.18557468,0.41971084,-0.5410118,-0.45354342,0.5880537,-0.69372267,0.37684968,-0.6263113,-0.55563545,-0.4572401,0.558655,0.97427875,0.10871838,0.18574516,0.06678196,-0.8365731,0.5972316,-0.5235606,0.0,1.0,0.0,0.0,0.0,0.0,0.0,-0.108988166,0.05354342,-0.03805369,6.879163,4.8817635,22.5864,-11.348433,20.083225,-2.8889477,0.2816081
43.340004,106.85903,28.302307,7.160855,1.6797135,0.36491174,0.21119323,-0.4732917,-0.56551915,0.30887094,0.2101788,0.6001074,-0.4801336,0.61994725,0.27526608,-1.3390125,-2.1405895,-0.6591502,1.8491032,1.730979,-0.7451375,0.31325066,-1.2934946,-2.1655529,-0.67677015,1.7963909,1.7769767,-0.8029047,-0.9143941,-1.0864009,0.62501216,0.32677528,0.7664131,-0.20643324,0.42372265,-0.5474434,-0.45001316,0.5823304,-0.6278012,0.3456298,-0.5568805,-0.5635872,-0.45145988,0.55394906,0.97645473,0.10645821,0.1766285,0.06328586,-0.77893525,0.5769621,-0.45503533,0.0,1.0,0.0,0.0,0.0,0.0,0.0,-0.102556586,0.050013155,-0.032330394,8.028531,6.7635536,12.952161,-5.235714,14.644337,-1.9163191,0.39246082
44.06872,112.793495,29.14645,7.8302045,1.3552493,0.4206436,0.23934126,-0.43907973,-0.51429874,0.44363907,0.13970527,0.6261154,-0.43742323,0.6092531,0.2693427,-1.3449244,-2.1211889,-0.6627996,1.8590025,1.7332344,-0.7419794,0.3047091,-1.3037103,-2.1584353,-0.67391783,1.8047942,1.7748222,-0.79864806,-0.8340307,-1.0003399,0.7416757,0.2717707,0.86493665,-0.21770954,0.42636514,-0.55319405,-0.44681644,0.5773868,-0.55924445,0.3117665,-0.476912,-0.5709095,-0.44591618,0.54997075,0.9786461,0.10309771,0.16728881,0.060308702,-0.7142171,0.551643,-0.38108873,0.0,1.0,0.0,0.0,0.0,0.0,0.0,-0.09680593,0.04681644,-0.027386785,8.054674,8.521271,11.866593,-5.376041,9.852732,-0.8916259,0.26299357
58.223537,101.866486,27.86263,-1.6824294,0.12037099,0.31687912,0.60166305,-0.39114305,-0.49511322,0.5459736,-0.052553833,0.673284,-0.34959796,0.6001445,0.2655948,-1.3532217,-2.103838,-0.67917323,1.8721226,1.7398624,-0.73863363,0.29699245,-1.3131441,-2.1500673,-0.672334,1.8139945,1.7726486,-0.7943706,-0.75084305,-0.9246515,0.8690952,0.121061474,0.9384102,-0.21630074,0.42827493,-0.55825233,-0.44399333,0.57315046,-0.48972014,0.27334732,-0.40984815,-0.57741356,-0.4408052,0.5465329,0.9808082,0.0987441,0.15771598,0.058228202,-0.62768793,0.5017943,-0.3337042,0.0,1.0,0.0,0.0,0.0,0.0,0.0,-0.09174764,0.043993324,-0.023150444,8.341038,7.4700475,12.862455,-14.913646,7.4153423,0.4682541,0.21839142
66.13179,90.91198,25.52646,-9.836087,-1.021752,0.2528053,0.9473917,-0.37167734,-0.4507372,0.58607304,-0.26891255,0.71262896,-0.22729392,0.57191306,0.25982472,-1.3582178,-2.09146,-0.69922525,1.8852575,1.7499192,-0.7371793,0.28998917,-1.3218282,-2.140558,-0.67312384,1.8238271,1.7705953,-0.7900924,-0.68332106,-0.8498567,0.9780006,-0.1449188,0.9988898,-0.20026237,0.42794847,-0.5626278,-0.4415655,0.5694412,-0.42181647,0.23348062,-0.36202955,-0.58291626,-0.43632674,0.5433473,0.9829007,0.093579374,0.14779174,0.057504192,-0.5235343,0.43341845,-0.31556705,0.0,1.0,0.0,0.0,0.0,0.0,0.0,-0.087372184,0.041565508,-0.019441187,6.805384,7.3807716,10.767805,-26.375854,6.320882,2.0368874,0.067049265
58.21073,78.8685,21.737574,-10.114015,-1.131152,0.18360248,0.92452574,-0.35155705,-0.45283613,0.62298596,-0.3314461,0.7294135,-0.06381887,0.57496554,0.25483346,-1.3671118,-2.0782595,-0.7062684,1.8967685,1.7642134,-0.73259586,0.28354147,-1.3299764,-2.1301184,-0.67652947,1.8341466,1.7688211,-0.78581434,-0.63155395,-0.80341905,1.0647737,-0.40474522,1.0444529,-0.1685235,0.42840576,-0.5664139,-0.43949223,0.56602734,-0.36527252,0.19960815,-0.3382491,-0.5874653,-0.43248963,0.5401776,0.9848901,0.08775526,0.13748884,0.058199666,-0.43180797,0.36989194,-0.3193066,0.0,1.0,0.0,0.0,0.0,0.0,0.0,-0.0835861,0.03949222,-0.016027331,5.2889585,4.5755982,8.302331,-25.688046,5.038595,3.593254,0.24558306
55.45608,74.342766,20.4099,-8.684545,-1.0739071,0.058461532,0.7802061,-0.28431496,-0.45004436,0.6526623,-0.34713766,0.7408214,0.093200184,0.5882779,0.25510997,-1.3749809,-2.0648522,-0.7112432,1.9082288,1.7781411,-0.7269865,0.2777417,-1.3378423,-2.1189759,-0.6819816,1.8448209,1.7674686,-0.78152126,-0.5623148,-0.7811088,1.1294308,-0.5908332,1.0770885,-0.12307823,0.43042302,-0.5696964,-0.4377346,0.562776,-0.31644878,0.16855092,-0.32331264,-0.5911827,-0.42927527,0.53692776,0.9867409,0.08134227,0.12692185,0.06013862,-0.3514995,0.3074857,-0.32811195,0.0,1.0,0.0,0.0,0.0,0.0,0.0,-0.08030355,0.037734598,-0.012776017,7.0798874,2.197659,5.972767,-18.270147,3.8581133,4.946953,0.46215057
61.29166,71.60297,20.399797,-9.1806135,-1.2762771,-0.16143306,0.65383327,-0.18445338,-0.4573907,0.67345834,-0.3498864,0.738081,0.25235727,0.5730292,0.25929636,-1.3835814,-2.05163,-0.71697026,1.9186289,1.7927043,-0.72421837,0.27295712,-1.3456606,-2.1073296,-0.6886192,1.8557099,1.7666608,-0.77721894,-0.44992036,-0.7819129,1.1749277,-0.6868526,1.0947328,-0.06540245,0.43114364,-0.5725231,-0.43629336,0.55963725,-0.2720635,0.13619156,-0.31190786,-0.59412956,-0.42675447,0.5335752,0.98841554,0.07436147,0.11627381,0.063129835,-0.27496028,0.23520839,-0.3383923,0.0,1.0,0.0,0.0,0.0,0.0,0.0,-0.07747686,0.036293358,-0.009637237,11.4155655,-0.0916481,4.079318,-9.241926,2.3490667,6.169735,0.35233498
60.59607,67.10025,19.001812,-9.314556,-1.4449943,-0.3744489,0.5780277,-0.12705891,-0.46177688,0.6610275,-0.4033352,0.74386466,0.26750043,0.55082774,0.26025122,-1.3918383,-2.0412269,-0.7289527,1.9300964,1.7934109,-0.72213614,0.26939514,-1.3535799,-2.095462,-0.6959291,1.8667114,1.7663937,-0.77292645,-0.32433462,-0.7952651,1.1890815,-0.74443305,1.1037517,-0.012697958,0.4296181,-0.5749512,-0.43516302,0.5565163,-0.2329863,0.10538112,-0.31223896,-0.59635353,-0.4249866,0.5300577,0.9898814,0.066952355,0.10563879,0.06702641,-0.20494139,0.1585277,-0.35683563,0.0,1.0,0.0,0.0,0.0,0.0,0.0,-0.075048804,0.035163015,-0.006516278,12.737125,-1.3405442,0.9934902,-5.380547,1.4251709,5.634777,0.14694929
43.09625,81.99716,20.361908,0.14989942,-0.7176859,-0.19768974,0.2998771,-0.10292873,-0.4000305,0.6180192,-0.37766019,0.738204,0.30301303,0.5508986,0.25910228,-1.3935829,-2.0336602,-0.73369515,1.9405317,1.796695,-0.7178366,0.26693752,-1.3613523,-2.0838,-0.703383,1.8777413,1.7666253,-0.76865286,-0.21886651,-0.7710138,1.1568024,-0.7444986,1.1051074,0.03646648,0.42767107,-0.5770283,-0.43429708,0.5535049,-0.19939521,0.08024594,-0.29626724,-0.5979996,-0.4238186,0.5265475,0.9911069,0.05931385,0.09528315,0.07148482,-0.15117459,0.10387601,-0.34946957,0.0,1.0,0.0,0.0,0.0,0.0,0.0,-0.0729717,0.03429708,-0.0035048723,10.756591,2.4867177,-3.798008,0.3847599,0.8241892,5.3237743,0.11689067
48.127567,83.83179,21.278528,-0.65125936,-0.94758034,-0.38604364,0.27006873,0.0029141242,-0.40413967,0.61483306,-0.3610457,0.73496825,0.2805549,0.5408753,0.26722893,-1.4017663,-2.0223167,-0.7394876,1.9512382,1.7946808,-0.71456534,0.26570925,-1.3688749,-2.0725307,-0.71058416,1.8887507,1.7672755,-0.7644046,-0.09007544,-0.745758,1.1154062,-0.7106449,1.1018564,0.07592543,0.4248666,-0.5787773,-0.43369198,0.550669,-0.16637488,0.053820748,-0.2776484,-0.5991039,-0.4232657,0.52314466,0.99208313,0.051550165,0.0853365,0.076363176,-0.09638551,0.039863154,-0.3375239,0.0,1.0,0.0,0.0,0.0,0.0,0.0,-0.07122266,0.033691972,-0.00066900253,13.085363,2.5897026,-4.6402216,3.7793279,0.31256676,4.3446054,0.014925003
33.41877,87.42917,20.870554,4.9024887,-0.36947608,-0.25190285,0.11076096,0.020134162,-0.38205373,0.59455746,-0.33570844,0.72875875,0.29194358,0.5431076,0.26772267,-1.4070803,-2.013075,-0.744155,1.9616265,1.7964698,-0.71009386,0.26555994,-1.376077,-2.0617154,-0.7172922,1.8996967,1.7682744,-0.7601837,0.010764107,-0.7116129,1.068398,-0.6563123,1.0945331,0.10909243,0.42211238,-0.5802479,-0.4333024,0.5480309,-0.14039451,0.03386756,-0.25690508,-0.5997753,-0.4232049,0.51992357,0.9928219,0.04372987,0.0758625,0.08146987,-0.057431016,-0.0044978857,-0.31762138,0.0,1.0,0.0,0.0,0.0,0.0,0.0,-0.0697521,0.033302397,0.001969099,10.284493,3.500104,-5.225539,5.79834,-0.073337555,3.6875322,0.0068962574
16.48622,107.344536,24.289955,14.477679,0.46045852,0.099619195,-0.11084703,0.040177315,-0.29216042,0.56899893,-0.26898205,0.7133894,0.299507,0.5386492,0.26957768,-1.4052931,-2.0048156,-0.7441904,1.9710356,1.7982252,-0.7063188,0.26619127,-1.3825811,-2.0514,-0.72321343,1.9105338,1.7695707,-0.75599515,0.081360236,-0.62949413,1.0166786,-0.56951916,1.0829289,0.13805334,0.41869617,-0.5814762,-0.43306184,0.5458367,-0.11691671,0.02045558,-0.20440578,-0.60015297,-0.42339206,0.51717937,0.99334157,0.035879195,0.0670899,0.08651004,-0.031285517,-0.022858774,-0.26062542,0.0,1.0,0.0,0.0,0.0,0.0,0.0,-0.068523765,0.033061832,0.004163325,7.2804294,8.35005,-5.8382034,9.030294,-0.32668114,3.3480911,-0.08332133
7.159661,123.807014,27.171444,19.79058,0.6717922,0.29503483,-0.18161306,0.0643071,-0.19133656,0.501067,-0.25105077,0.6987592,0.26995465,0.529673,0.272622,-1.4017148,-2.0012932,-0.7483185,1.9804097,1.7965661,-0.70302784,0.26735905,-1.387874,-2.0418131,-0.72831357,1.9212316,1.7711002,-0.7518457,0.12935995,-0.49536562,0.93687755,-0.48898676,1.0684153,0.15959463,0.41449726,-0.5824642,-0.43292594,0.54436135,-0.09283414,0.011284478,-0.12646575,-0.60027885,-0.423676,0.5152099,0.99365765,0.02811883,0.059276387,0.09132343,-0.0066031003,-0.029807247,-0.17646399,0.0,1.0,0.0,0.0,0.0,0.0,0.0,-0.06753576,0.032925934,0.005638659,5.024892,13.571167,-8.708262,8.402782,-0.52781105,2.6467025,-0.18115044
-9.556278,126.73561,27.036423,26.42599,1.5029123,0.5010031,-0.3787752,0.06077032,-0.15205121,0.50100887,-0.15040421,0.6929021,0.28065512,0.5209362,0.27343607,-1.4030792,-1.9917122,-0.74335396,1.9905218,1.7991657,-0.6997521,0.26878428,-1.391826,-2.03289,-0.73234755,1.9317793,1.7728184,-0.7477459,0.14756687,-0.36106122,0.8748165,-0.37391797,1.053398,0.17757289,0.4092259,-0.5832691,-0.43281984,0.54372954,-0.07660377,0.008748516,-0.040239338,-0.6003151,-0.42383718,0.5141577,0.99381703,0.02042496,0.05251102,0.095671624,-0.003264571,-0.011003051,-0.08227756,0.0,0.0,1.0,0.0,0.0,0.0,0.0,-0.06673086,0.032819837,0.0062704682,2.018836,13.593263,-6.892514,11.791921,-0.60493946,2.2571087,-0.32514334
-21.20724,112.67436,22.063715,27.613932,1.6217648,0.3602659,-0.4660319,0.05788409,-0.11934921,0.3799648,-0.093180664,0.67639166,0.26378965,0.51234555,0.2745727,-1.4037609,-1.9948936,-0.7416656,1.9994184,1.7991974,-0.6965113,0.27023387,-1.3945993,-2.0249512,-0.7351818,1.9421381,1.7746667,-0.7437032,0.14456078,-0.2490215,0.7654154,-0.25248832,1.0324963,0.18820024,0.4031485,-0.58397484,-0.4326856,0.54377085,-0.067629464,0.014967004,0.019900018,-0.6004391,-0.4237435,0.5138493,0.99386585,0.01300345,0.04675927,0.099372916,-0.015933082,0.016511068,-0.0146656595,0.0,0.0,1.0,0.0,0.0,0.0,0.0,-0.06602514,0.032685608,0.006229162,-0.16127527,11.335582,-11.458599,12.356436,-1.3874769,1.386115,-0.4386902
-23.93804,85.76181,13.474748,22.58629,0.8785261,-0.11241364,-0.40585598,0.060858365,-0.0971757,0.15899867,-0.08390869,0.6427086,0.22334822,0.49978888,0.2763197,-1.4043169,-2.0090513,-0.74357265,2.006409,1.7970015,-0.6937243,0.27159524,-1.3965029,-2.0189393,-0.73703957,1.9522014,1.7765609,-0.7397235,0.13354655,-0.1705576,0.54535764,-0.16312964,0.9990271,0.19047473,0.39666435,-0.5846424,-0.43252134,0.54400903,-0.06596904,0.017395936,0.0254356,-0.60071373,-0.42347217,0.5138007,0.99383605,0.006433925,0.041914593,0.10242846,-0.031756576,0.030857304,-0.0027834093,0.0,0.0,1.0,0.0,0.0,0.0,0.0,-0.065357566,0.032521337,0.005990982,-1.0359645,7.928002,-22.311687,9.066481,-2.9245257,0.3838241,-0.5069494
