Afshin1997/kuka_rl_ros2/src/catch_and_throw/input_files/idealpd/recorded_trajectories/env_310_data.csv
torque0,torque1,torque2,torque3,torque4,torque5,torque6,action0,action1,action2,action3,action4,action5,action6,set_target_0,set_target_1,set_target_2,set_target_3,set_target_4,set_target_5,set_target_6,joint_pos_0,joint_pos_1,joint_pos_2,joint_pos_3,joint_pos_4,joint_pos_5,joint_pos_6,joint_vel_0,joint_vel_1,joint_vel_2,joint_vel_3,joint_vel_4,joint_vel_5,joint_vel_6,tennisball_pos_0,tennisball_pos_1,tennisball_pos_2,tennisball_lin_vel_0,tennisball_lin_vel_1,tennisball_lin_vel_2,end_effector_pos_0,end_effector_pos_1,end_effector_pos_2,end_effector_rot_0,end_effector_rot_1,end_effector_rot_2,end_effector_rot_3,end_effector_lin_vel_0,end_effector_lin_vel_1,end_effector_lin_vel_2,obs_task_0,obs_task_1,obs_task_2,obs_task_3,obs_task_4,obs_task_5,obs_task_6,to_final_target_0,to_final_target_1,to_final_target_2,joint_acc_0,joint_acc_1,joint_acc_2,joint_acc_3,joint_acc_4,joint_acc_5,joint_acc_6
0.0,0.0,0.0,0.0,0.0,0.0,0.0,0.0,0.0,0.0,0.0,0.0,0.0,0.0,1.7802359,-1.0646509,-1.8151424,-1.1170107,1.9373155,1.1170107,-0.91629785,1.7802359,-1.0646509,-1.8151424,-1.1170107,1.9373155,1.1170107,-0.91629785,0.0,0.0,0.0,0.0,0.0,0.0,0.0,2.8634205,-0.39790726,0.12863384,-3.1026082,-0.25516662,5.322824,0.5304146,-0.45449448,0.693097,0.5745483,0.17512383,0.15255436,0.7848268,0.0,0.0,0.0,1.0,0.0,0.0,0.0,0.0,0.0,0.0,-3.5134206,-0.0020927489,0.42136616,0.0,0.0,0.0,0.0,0.0,0.0,0.0
0.0,0.0,0.0,0.0,0.0,0.0,0.0,0.0,0.0,0.0,0.0,0.0,0.0,0.0,1.7802359,-1.0646509,-1.8151424,-1.1170107,1.9373155,1.1170107,-0.91629785,1.7802359,-1.0646509,-1.8151424,-1.1170107,1.9373155,1.1170107,-0.91629785,0.0,0.0,0.0,0.0,0.0,0.0,0.0,2.8634205,-0.39790726,0.12863384,-3.1026082,-0.25516662,5.322824,0.5304146,-0.45449448,0.693097,0.5745483,0.17512383,0.15255436,0.7848268,0.0,0.0,0.0,1.0,0.0,0.0,0.0,0.0,0.0,0.0,-3.5134206,-0.0020927489,0.42136616,0.0,0.0,0.0,0.0,0.0,0.0,0.0
0.0,0.0,0.0,0.0,0.0,0.0,0.0,0.0,0.0,0.0,0.0,0.0,0.0,0.0,1.7802359,-1.0646509,-1.8151424,-1.1170107,1.9373155,1.1170107,-0.91629785,1.7802359,-1.0646509,-1.8151424,-1.1170107,1.9373155,1.1170107,-0.91629785,0.0,0.0,0.0,0.0,0.0,0.0,0.0,2.8634205,-0.39790726,0.12863384,-3.1026082,-0.25516662,5.322824,0.5304146,-0.45449448,0.693097,0.5745483,0.17512383,0.15255436,0.7848268,0.0,0.0,0.0,1.0,0.0,0.0,0.0,0.0,0.0,0.0,-3.5134206,-0.0020927489,0.42136616,0.0,0.0,0.0,0.0,0.0,0.0,0.0
-176.0,61.778683,-9.131777,110.0,10.669171,4.5193815,-3.8839617,-0.81114644,0.31719515,-0.557533,0.73806924,0.12601434,0.66676027,-0.58426154,1.6991212,-1.0329313,-1.8708957,-1.0432038,1.9499168,1.1836867,-0.974724,1.7789274,-1.0624155,-1.8212001,-1.1122195,1.941277,1.1220022,-0.9169645,-0.17425145,0.2973722,-0.80734634,0.6391511,0.5273861,0.6639097,-0.088595286,2.8324184,-0.40045547,0.1810857,-3.0995061,-0.2549115,5.219316,0.52840424,-0.45759583,0.69375235,0.578082,0.1737339,0.15160106,0.78272265,-0.2679655,-0.41380146,0.087070376,1.0,0.0,0.0,0.0,0.0,0.0,0.0,-3.4824185,0.0004554689,0.3689143,-17.347425,29.530457,-80.57229,64.00803,52.517075,65.898254,-8.759861
-176.0,-62.611492,-59.185287,110.0,12.768294,0.36769474,-3.4088302,-0.804041,-0.3103803,-0.5671988,0.7062186,0.16669981,0.6517228,-0.59479725,1.6985233,-1.0934535,-1.87792,-1.0415976,1.957947,1.1871746,-0.9764442,1.777886,-1.0604566,-1.8365314,-1.0974585,1.9489865,1.135226,-0.91641515,-0.090133645,0.13770968,-1.7104228,1.7525508,0.81819785,1.4768386,0.08398527,2.801447,-0.4030037,0.23250327,-3.0964074,-0.25465664,5.1159115,0.52402306,-0.46600723,0.69406617,0.586057,0.17030397,0.14863817,0.7781005,-0.4944489,-0.98007035,0.019249238,1.0,0.0,0.0,0.0,0.0,0.0,0.0,-3.451447,0.0030036867,0.31749675,5.633594,-23.247272,-70.90268,110.58636,18.93444,61.755753,11.62021
-159.55573,88.08628,23.334808,92.71771,9.134516,7.4475064,-1.8047225,-0.75223535,0.12742333,0.14143644,0.66694725,0.3405056,0.68384117,-0.4880492,1.7026625,-1.0477144,-1.8223878,-1.0307637,1.9830371,1.2036102,-0.9652201,1.7738062,-1.0591158,-1.8512905,-1.078034,1.957274,1.1498954,-0.9158706,-0.5135197,0.12985869,-1.3915068,2.0078535,0.82681715,1.4579238,0.044244688,2.770506,-0.4055481,0.28288755,-3.0933115,-0.25440204,5.0126104,0.51685715,-0.47753143,0.69564044,0.59679383,0.16543818,0.14404333,0.7718283,-0.7979957,-1.2022516,0.20738342,1.0,0.0,0.0,0.0,0.0,0.0,0.0,-3.420506,0.0055480897,0.26711246,-42.23836,-1.7058909,33.725,26.152658,-0.7948756,-3.6061525,-4.093691
-108.877106,64.48619,26.57606,54.86601,6.5803466,6.9087152,0.06634563,-0.76570004,-0.21786448,0.31939015,0.6726154,0.38430357,0.66765565,-0.5664646,1.6972362,-1.0809022,-1.8193514,-1.0107725,1.9957043,1.216661,-0.9725171,1.765349,-1.059379,-1.8595836,-1.0586554,1.9649835,1.1635406,-0.9159021,-0.95657265,-0.07993392,-0.6351491,1.9161159,0.74602854,1.3306928,-0.018886948,2.7395954,-0.40808868,0.3322396,-3.090219,-0.2541477,4.9094124,0.5070896,-0.4902916,0.6985702,0.6082778,0.15956111,0.13741274,0.7652817,-1.0472541,-1.2891936,0.325075,1.0,0.0,0.0,0.0,0.0,0.0,0.0,-3.3895955,0.008088678,0.21776041,-44.395874,-21.482927,77.636246,-8.714676,-9.93129,-13.579917,-6.3118877
-53.506233,95.846634,41.742058,30.83091,3.4847994,6.7482376,0.72450304,-0.7859875,-0.08347895,0.3588147,0.68355733,0.46645072,0.67056537,-0.5741159,1.6867503,-1.0677269,-1.8237021,-0.99029964,2.0116286,1.2305971,-0.9733137,1.753163,-1.0609411,-1.860297,-1.0413862,1.9720311,1.1757896,-0.91658205,-1.3065736,-0.18310654,0.12222233,1.6638714,0.6861076,1.1883448,-0.08520928,2.7087154,-0.41062927,0.38056043,-3.0871294,-0.2538936,4.8063173,0.49537086,-0.5029373,0.7027272,0.6193618,0.15279979,0.12892504,0.75922424,-1.2260382,-1.2443275,0.44591475,1.0,0.0,0.0,0.0,0.0,0.0,0.0,-3.3587155,0.0106292665,0.16943958,-35.153126,-10.723686,77.384964,-25.178696,-7.418525,-14.608765,-6.886313
-17.86436,88.3687,35.866375,13.7951765,1.2385321,4.5085936,0.692673,-0.80340606,-0.07573659,0.30165967,0.6765137,0.48601356,0.6511038,-0.5947504,1.6728224,-1.0685147,-1.830131,-0.97373486,2.0206325,1.2408999,-0.9760571,1.738547,-1.0630716,-1.855439,-1.0266672,1.9786935,1.1867282,-0.91788,-1.5136739,-0.22383277,0.6098712,1.4077224,0.6571178,1.0625404,-0.14546724,2.677866,-0.41316605,0.42785108,-3.084043,-0.25363976,4.7033257,0.4824829,-0.5148468,0.7076384,0.6297171,0.1455574,0.11934251,0.7536755,-1.3222255,-1.1624299,0.5032345,1.0,0.0,0.0,0.0,0.0,0.0,0.0,-3.327866,0.01316604,0.12214893,-20.80629,-4.3350277,49.65073,-25.681091,-3.6274433,-12.539649,-6.2701597
8.281532,135.45609,47.28351,11.929089,-1.0194331,4.2256866,-0.0063154474,-0.81698346,0.23464145,0.1782127,0.66782796,0.46324047,0.65352786,-0.587096,1.6568487,-1.0396074,-1.8376176,-0.95988446,2.0250175,1.252081,-0.9765896,1.7227713,-1.0638155,-1.8482902,-1.0139948,1.9851575,1.1965702,-0.9197177,-1.5994406,-0.025671516,0.75197595,1.220448,0.6421347,0.958861,-0.1980185,2.647047,-0.415699,0.4741126,-3.0809596,-0.25338617,4.6004367,0.46904182,-0.5254898,0.7134427,0.63963807,0.13788797,0.110101625,0.7481495,-1.363617,-1.021385,0.60215855,1.0,0.0,0.0,0.0,0.0,0.0,0.0,-3.2970471,0.015699,0.07588741,-8.742833,19.496298,14.791239,-18.74783,-1.7652512,-10.094547,-5.707699
19.964632,144.17357,45.231884,9.757092,-2.3365717,3.1044674,-0.51763046,-0.8212341,0.36614677,0.044093892,0.6381159,0.42493007,0.65878594,-0.5752531,1.6406479,-1.0272008,-1.8438808,-0.9501832,2.0276506,1.2624488,-0.97724307,1.7067534,-1.0618109,-1.8418205,-1.0026633,1.9914498,1.2055194,-0.92200655,-1.6033814,0.2749504,0.6132875,1.1041431,0.6249753,0.8746334,-0.24066849,2.6162605,-0.41823196,0.519346,-3.0778792,-0.25313285,4.4976506,0.4555149,-0.5346489,0.7201514,0.64951104,0.12993625,0.10242047,0.7421334,-1.3596123,-0.87032396,0.6900865,1.0,0.0,0.0,0.0,0.0,0.0,0.0,-3.2662606,0.018231958,0.030654013,-0.6170273,29.780132,-13.484621,-11.622596,-1.7502546,-8.0912,-4.7096343
23.365723,148.42822,44.14313,10.782745,-2.6593378,2.5792775,-0.7815608,-0.8230869,0.51312584,-0.04786223,0.62480223,0.45586097,0.651369,-0.57818556,1.6244447,-1.0104983,-1.8466067,-0.94018304,2.037036,1.2706563,-0.9798251,1.6909891,-1.0564741,-1.8377712,-0.9920212,1.9977078,1.2137268,-0.9246654,-1.5681194,0.6190468,0.33667457,1.0507827,0.6261739,0.8034849,-0.27570185,2.5855064,-0.4207611,0.5635523,-3.074802,-0.25287977,4.3949676,0.44215584,-0.54235077,0.727746,0.659607,0.12183241,0.096857265,0.735319,-1.3368022,-0.7245762,0.77971065,1.0,0.0,0.0,0.0,0.0,0.0,0.0,-3.2355065,0.020761102,-0.013552308,3.2807112,34.143238,-27.307297,-5.3640366,0.12149811,-6.936574,-3.9147377
22.586086,133.67284,39.03207,10.289205,-2.2285204,2.0453033,-0.6935071,-0.8181573,0.5821225,-0.08988189,0.6055337,0.5053534,0.642692,-0.5780204,1.6091734,-0.9982618,-1.8467593,-0.93146783,2.0482433,1.277996,-0.9824674,1.6756655,-1.0480913,-1.8365047,-0.9816567,2.004161,1.2213008,-0.92762464,-1.5212,0.91039073,0.057822473,1.0312439,0.6516393,0.74205035,-0.30390623,2.5547829,-0.42328644,0.6067326,-3.0717278,-0.25262693,4.2923875,0.42904282,-0.54877853,0.73609567,0.66996396,0.113691665,0.09325721,0.7276851,-1.3096874,-0.6016531,0.8513636,1.0,0.0,0.0,0.0,0.0,0.0,0.0,-3.204783,0.023286432,-0.056732595,4.4567585,28.901768,-27.509726,-2.0874262,2.5060058,-6.1564565,-3.1864285
19.888762,116.68269,34.312355,10.230455,-1.6080608,1.7679935,-0.52778643,-0.8068292,0.6434841,-0.12584372,0.60582674,0.5031943,0.64306235,-0.5802074,1.5949826,-0.9837429,-1.849089,-0.921074,2.0544803,1.2856071,-0.9856454,1.6607977,-1.0373815,-1.8375576,-0.9713093,2.010867,1.2283332,-0.93082803,-1.4758914,1.1237574,-0.15835552,1.0352093,0.6769005,0.68972,-0.3269314,2.5240898,-0.42581177,0.6488878,-3.0686567,-0.25237435,4.1899095,0.41615105,-0.554142,0.7450336,0.6805053,0.1055506,0.091167256,0.71934706,-1.2874621,-0.5012592,0.9067353,1.0,0.0,0.0,0.0,0.0,0.0,0.0,-3.17409,0.025811762,-0.0988878,4.3148518,21.135235,-21.202797,0.182724,2.4486065,-5.3779483,-2.650851
15.91813,95.57973,28.298265,9.22962,-0.94574267,1.4440457,-0.30423865,-0.8019558,0.6721637,-0.15979303,0.58956164,0.5232239,0.65037495,-0.5856138,1.5806022,-0.97016513,-1.8535368,-0.91235316,2.0631895,1.2933707,-0.9893894,1.6462923,-1.0252012,-1.8402011,-0.96092856,2.017848,1.2349117,-0.9342336,-1.4427744,1.2488694,-0.29817015,1.0381821,0.70470786,0.6467602,-0.3461325,2.4934273,-0.42833328,0.690019,-3.0655885,-0.25212204,4.0875344,0.4034176,-0.55869293,0.7543286,0.6910907,0.09745566,0.090049885,0.7104836,-1.2722598,-0.42468846,0.93666524,1.0,0.0,0.0,0.0,0.0,0.0,0.0,-3.1434274,0.028333277,-0.140019,3.1144142,12.354016,-13.551259,0.03027916,2.6976943,-4.4633627,-2.2558093
12.27631,79.46867,23.889933,8.529108,-0.40235168,1.2669517,-0.1037233,-0.8013834,0.6910188,-0.17304374,0.5733779,0.54005885,0.66212505,-0.5816105,1.566154,-0.95609933,-1.8575056,-0.9035908,2.0718539,1.3011242,-0.9923947,1.6320006,-1.0122904,-1.8436935,-0.9505898,2.0251036,1.2411277,-0.9378013,-1.4251578,1.304685,-0.3648413,1.0314372,0.73213863,0.612786,-0.36143234,2.4627953,-0.43085098,0.7301272,-3.0625236,-0.25186998,3.9852617,0.39077377,-0.5626106,0.7637776,0.70157635,0.08943149,0.08942758,0.7012812,-1.264694,-0.36531028,0.94751394,1.0,0.0,0.0,0.0,0.0,0.0,0.0,-3.1127954,0.030850977,-0.1801272,1.5743494,5.461359,-6.2140884,-0.96144676,2.6551843,-3.5422325,-1.8592477
11.972076,70.986725,22.01163,7.510565,-0.13975525,1.2084396,0.06383891,-0.7944695,0.70503575,-0.16580884,0.5561808,0.54938006,0.6628911,-0.5885874,1.5525537,-0.94178677,-1.8602744,-0.8949717,2.0800416,1.3074168,-0.99666005,1.6178232,-0.9991411,-1.8473995,-0.94040835,2.0326033,1.2470539,-0.9415063,-1.4159034,1.3180262,-0.37094054,1.0127203,0.7555075,0.58562195,-0.3746407,2.4321938,-0.43336868,0.7692135,-3.0594616,-0.25161815,3.8830914,0.37818527,-0.5659828,0.7732629,0.7118302,0.0814612,0.08896482,0.69191545,-1.2597747,-0.31191027,0.9490062,1.0,0.0,0.0,0.0,0.0,0.0,0.0,-3.0821939,0.033368677,-0.21921349,0.73826313,1.2377024,-0.12046099,-2.1639824,2.2378922,-2.8236747,-1.6546667
12.31686,67.87575,21.425558,6.956971,-0.050546587,1.210115,0.16598018,-0.79251546,0.7166007,-0.15587668,0.5361495,0.55482423,0.6684838,-0.58525586,1.5385717,-0.92748106,-1.8629872,-0.8867934,2.0880857,1.3139023,-1.000032,1.6036917,-0.9859947,-1.8508956,-0.9304968,2.0402975,1.252753,-0.9453239,-1.4129426,1.3131495,-0.34082806,0.98298067,0.7732954,0.5643885,-0.38529345,2.4016228,-0.43588257,0.8072788,-3.056403,-0.25136656,3.7810233,0.36563683,-0.56882095,0.7827386,0.7217615,0.07350524,0.08848362,0.6825159,-1.2551671,-0.2588799,0.94702995,1.0,0.0,0.0,0.0,0.0,0.0,0.0,-3.0516229,0.035882562,-0.2572788,0.10519028,-0.5718231,3.5301208,-3.2635689,1.6730905,-2.2011042,-1.4028788
11.660179,68.08034,21.426224,7.8215837,0.034962296,1.2509063,0.17389514,-0.7897707,0.7254543,-0.1474274,0.5357148,0.55678385,0.6767561,-0.5776462,1.5247146,-0.9134493,-1.8656384,-0.87692535,2.0959759,1.3204286,-1.0030885,1.5895716,-0.97291887,-1.8539951,-0.92084277,2.0481215,1.2582767,-0.9492282,-1.4122369,1.3054725,-0.2979031,0.95864433,0.7850181,0.5480186,-0.39323375,2.3710823,-0.43839264,0.84432423,-3.053347,-0.25111526,3.6790571,0.3531189,-0.57112503,0.79221284,0.73135155,0.06550823,0.0879284,0.67312866,-1.2522373,-0.20644028,0.9472877,1.0,0.0,0.0,0.0,0.0,0.0,0.0,-3.0210824,0.038392633,-0.29432422,-0.116825104,-0.8508682,4.8170447,-2.7065992,1.065743,-1.7172098,-1.1268497
12.421387,69.831665,21.941559,7.8780527,0.010640383,1.292447,0.21133372,-0.79268134,0.7313307,-0.11846077,0.50900453,0.5712627,0.6755699,-0.5759388,1.5103035,-0.8997858,-1.8658412,-0.8699423,2.1052477,1.3258337,-1.0068221,1.5754343,-0.9598917,-1.8565834,-0.91148627,2.0560675,1.2636592,-0.9531984,-1.4150119,1.3015724,-0.2440173,0.9271427,0.797017,0.5347882,-0.39944172,2.3405724,-0.4409027,0.88035077,-3.0502944,-0.2508642,3.577193,0.3406334,-0.5728874,0.8017081,0.74057627,0.057430428,0.08727688,0.66380054,-1.248076,-0.15035672,0.94975245,1.0,0.0,0.0,0.0,0.0,0.0,0.0,-2.9905725,0.040902704,-0.33035076,-0.4708767,-0.47290325,5.9334335,-3.4150362,1.0870695,-1.3952136,-0.95303655
15.627675,73.175316,23.197886,7.113921,-0.12613404,1.3365839,0.2794357,-0.7884726,0.73850054,-0.07607131,0.47944894,0.5849339,0.68116814,-0.5694737,1.496587,-0.88604164,-1.8641905,-0.86354136,2.1145608,1.331776,-1.0101458,1.5612837,-0.94685113,-1.8585384,-0.902516,2.0641432,1.268933,-0.95721716,-1.4156201,1.3046412,-0.17729975,0.8862437,0.8107911,0.5247632,-0.403865,2.310093,-0.44340897,0.9153594,-3.0472448,-0.2506134,3.475431,0.32822418,-0.574028,0.81125736,0.7493878,0.049228624,0.08652027,0.6546057,-1.2385643,-0.086725816,0.9558569,1.0,0.0,0.0,0.0,0.0,0.0,0.0,-2.960093,0.04340896,-0.36535937,-0.26049614,0.22559166,7.2393627,-4.3486834,1.2590289,-1.0556698,-0.77983737
21.209484,77.03259,25.050161,5.0919514,-0.34900874,1.3844593,0.42056248,-0.78497267,0.7429445,-0.00077885913,0.42803538,0.60481167,0.6803782,-0.5722663,1.4827864,-0.8725567,-1.8586162,-0.8597125,2.1246243,1.3369709,-1.0144438,1.5471503,-0.93374574,-1.8596046,-0.89411604,2.0723906,1.274123,-0.96127695,-1.4135212,1.3122414,-0.08103751,0.8236925,0.8289903,0.5170784,-0.4077882,2.279644,-0.4459114,0.94935113,-3.044198,-0.2503628,3.3737705,0.31598282,-0.57444763,0.8208952,0.75768405,0.040855765,0.0856065,0.6456912,-1.2198312,-0.011826653,0.96508235,1.0,0.0,0.0,0.0,0.0,0.0,0.0,-2.929644,0.0459114,-0.39935112,0.0020503998,0.68371296,10.232168,-6.5074086,1.6914248,-0.7770896,-0.7408142
24.407688,80.01263,25.985321,4.3689647,-0.5116526,1.3563987,0.46260017,-0.7770695,0.75773937,0.039445497,0.4006629,0.6157482,0.6798227,-0.56291556,1.4694433,-0.8579718,-1.8556601,-0.85404974,2.1339655,1.3421053,-1.0175685,1.5330778,-0.92049825,-1.8596866,-0.88636744,2.0808287,1.279248,-0.96536344,-1.4059025,1.3286916,0.01795945,0.7577809,0.84810305,0.51118535,-0.41004527,2.2492256,-0.44841385,0.9823271,-3.0411546,-0.2501125,3.2722116,0.30396652,-0.57406235,0.83064795,0.7654149,0.032280643,0.084537014,0.6371431,-1.1940476,0.06841281,0.9767373,1.0,0.0,0.0,0.0,0.0,0.0,0.0,-2.8992257,0.048413843,-0.4323271,0.56524277,1.5755177,10.482283,-6.820929,1.8008113,-0.56494474,-0.5643785
23.432053,76.70841,24.076616,4.252485,-0.59074837,1.108602,0.40875253,-0.7745429,0.76501554,0.042912655,0.373375,0.61638564,0.6834095,-0.5454321,1.4556235,-0.8439967,-1.8553953,-0.84902996,2.1424673,1.3475889,-1.0199066,1.5190893,-0.9070686,-1.8590019,-0.8792559,2.0894232,1.2843292,-0.96945375,-1.3970741,1.347608,0.087100394,0.6949218,0.86316335,0.5072865,-0.40969083,2.2188377,-0.45091248,1.0142882,-3.038114,-0.24986243,3.1707542,0.29224014,-0.5729408,0.84046197,0.7726124,0.023549955,0.08340256,0.6289351,-1.1641496,0.14259544,0.98052853,1.0,0.0,0.0,0.0,0.0,0.0,0.0,-2.8688378,0.05091247,-0.46428818,0.7092953,1.8407583,7.4061313,-6.501353,1.4464617,-0.3189206,-0.26891828
21.88356,71.60029,21.78067,3.9488678,-0.5950662,0.8384853,0.3805315,-0.77507424,0.76603127,0.06602427,0.3336953,0.62883794,0.67641467,-0.52994496,1.441582,-0.8304655,-1.8523995,-0.84588635,2.152307,1.3519707,-1.0224483,1.5051714,-0.89348066,-1.8577793,-0.8727871,2.0981665,1.2893741,-0.973525,-1.3905344,1.3623922,0.13545494,0.63011396,0.8782671,0.50405633,-0.4071424,2.1884804,-0.4534073,1.0452355,-3.0350766,-0.24961263,3.0693982,0.28081703,-0.5711136,0.85024446,0.7793162,0.014750639,0.08226566,0.6210322,-1.1316633,0.208224,0.97462386,1.0,0.0,0.0,0.0,0.0,0.0,0.0,-2.8384805,0.05340728,-0.4952355,0.49829483,1.4480591,5.249585,-6.6912174,1.4916897,-0.20560026,-0.017368793
29.182196,65.265274,19.774473,-2.854537,-1.2547541,0.3305927,0.57604396,-0.7728935,0.7708168,0.09141758,0.18447399,0.64854497,0.6761698,-0.52775323,1.4278821,-0.816399,-1.8486375,-0.8543397,2.1630208,1.356991,-1.0263003,1.4913069,-0.8797687,-1.8561561,-0.8675009,2.107089,1.2944,-0.9775676,-1.3855711,1.3741236,0.17251454,0.49404654,0.8970626,0.5031181,-0.40415147,2.1581535,-0.4559021,1.07517,-3.0320423,-0.24936306,2.9681437,0.26991463,-0.5686188,0.8597909,0.7854208,0.0060915635,0.08121162,0.61358106,-1.0732335,0.27630487,0.9446437,1.0,0.0,0.0,0.0,0.0,0.0,0.0,-2.8081536,0.055902094,-0.52517,0.3403902,1.1758804,4.087463,-13.846808,1.8801332,0.19395351,0.04864931
36.31794,62.58936,19.048283,-8.304472,-1.8604815,-0.061223567,0.7389165,-0.76563567,0.7835876,0.11553395,0.060829893,0.64890575,0.67126673,-0.5112169,1.4147433,-0.80140996,-1.8446027,-0.8614179,2.1719797,1.3615266,-1.0286893,1.4775091,-0.8659204,-1.8541934,-0.86398566,2.1161718,1.2994239,-0.98156923,-1.3783628,1.3886008,0.20522414,0.3032381,0.9121805,0.50353104,-0.3995252,2.1278572,-0.4583969,1.1040927,-3.0290108,-0.24911375,2.8669903,0.25977135,-0.5654068,0.8689274,0.79080516,-0.0022382739,0.08035012,0.6067669,-0.9908465,0.34752414,0.89975387,1.0,0.0,0.0,0.0,0.0,0.0,0.0,-2.7778573,0.058396906,-0.5540927,0.5826473,1.4810324,3.5929294,-19.317669,1.5472174,0.46194792,0.24439692
42.82689,61.49469,19.275127,-12.48724,-2.262751,-0.32768604,0.9103849,-0.7568701,0.7871562,0.17132984,-0.06909277,0.65629196,0.6684558,-0.49838075,1.4018221,-0.7872048,-1.8370605,-0.8708949,2.181801,1.3662695,-1.0314074,1.4638125,-0.8519405,-1.851752,-0.86267436,2.125392,1.3044574,-0.9855165,-1.367146,1.401267,0.2579053,0.072990604,0.92571306,0.5048917,-0.39370984,2.0975914,-0.4608841,1.1320047,-3.0259824,-0.2488647,2.765938,0.25057793,-0.5614662,0.87755936,0.795359,-0.010133637,0.07970982,0.60078925,-0.89000416,0.4211337,0.84710205,1.0,0.0,0.0,0.0,0.0,0.0,0.0,-2.7475915,0.06088409,-0.5820047,1.0231495,1.3298273,5.5020123,-23.225174,1.4370918,0.65186024,0.40348172
43.112576,61.16473,19.305695,-12.276169,-2.2225919,-0.4349407,0.93047494,-0.7508345,0.7925274,0.21218516,-0.16166914,0.6589978,0.66478956,-0.4705982,1.388729,-0.7726878,-1.8305335,-0.8788413,2.1912918,1.3709364,-1.0325763,1.4502417,-0.8378433,-1.8486888,-0.8636328,2.1347265,1.3095024,-0.98938745,-1.3539901,1.4127712,0.322869,-0.15256855,0.93660593,0.5060595,-0.38528153,2.0673542,-0.46337128,1.1589069,-3.022957,-0.24861588,2.6649868,0.24240875,-0.55680084,0.88568133,0.799066,-0.01758173,0.07926922,0.59573543,-0.7872769,0.4901138,0.79630667,1.0,0.0,0.0,0.0,0.0,0.0,0.0,-2.7173543,0.06337127,-0.6089069,1.2670279,1.2391567,6.5937223,-22.701044,1.2501717,0.6459594,0.7172406
45.40979,59.9253,19.176569,-14.180916,-2.3771698,-0.63078815,1.0249454,-0.74905723,0.7989217,0.26256713,-0.32286584,0.672802,0.64888513,-0.44348937,1.3753359,-0.75795114,-1.8224322,-0.8959194,2.2020068,1.3743908,-1.0337363,1.4367853,-0.82363546,-1.8448703,-0.86702025,2.144187,1.3145473,-0.9931573,-1.3427598,1.4239064,0.40132463,-0.4011501,0.9498249,0.50593287,-0.37443924,2.0371456,-0.46585846,1.1848004,-3.0199347,-0.24836731,2.5641367,0.23532104,-0.5514488,0.8932631,0.8018966,-0.024530802,0.07901074,0.59170705,-0.6759692,0.55724126,0.74083525,1.0,0.0,0.0,0.0,0.0,0.0,0.0,-2.6871457,0.06585845,-0.6348004,1.1242151,1.2264252,7.81945,-24.945705,1.5484095,0.5581379,1.0168314
46.12187,64.65001,21.529856,-12.099336,-2.1523151,-0.46353,1.0635762,-0.7273104,0.8024408,0.36819348,-0.39962715,0.6707597,0.63569224,-0.38472396,1.3640543,-0.7433914,-1.808051,-0.90698296,2.211263,1.3781165,-1.0316297,1.423514,-0.80932844,-1.8399456,-0.8726536,2.1537542,1.3195808,-0.9967813,-1.321683,1.433418,0.52210814,-0.6174967,0.9603664,0.5042787,-0.3584619,2.0069675,-0.468338,1.209686,-3.0169153,-0.248119,2.4633873,0.22930908,-0.5453949,0.9004071,0.80382955,-0.031092135,0.078828916,0.5887931,-0.5698209,0.626822,0.7004876,1.0,0.0,0.0,0.0,0.0,0.0,0.0,-2.6569676,0.06833801,-0.659686,2.1744967,1.0923862,11.860347,-21.646536,1.415968,0.39904118,1.575917
34.305878,68.32051,22.536917,-1.6023698,-1.0598288,-0.0052302256,0.804132,-0.7173805,0.80254155,0.43943408,-0.35165054,0.66924304,0.6280833,-0.26834697,1.351776,-0.7290743,-1.7960021,-0.9078187,2.2206786,1.3823891,-1.023616,1.4104716,-0.79495466,-1.8336837,-0.87958777,2.1634054,1.3245857,-1.0001688,-1.2983176,1.4393495,0.6593801,-0.71875674,0.9681573,0.50074047,-0.3323191,1.97682,-0.47081757,1.233565,-3.013899,-0.24787092,2.3627386,0.22406578,-0.538723,0.9073751,0.8050169,-0.037565406,0.078551106,0.5868273,-0.5023947,0.6859542,0.6901062,1.0,0.0,0.0,0.0,0.0,0.0,0.0,-2.62682,0.07081756,-0.68356496,2.4117231,0.75712204,13.350368,-10.130453,1.2802005,0.097215176,2.5998712
24.34094,67.11483,21.609066,5.683234,-0.31747058,0.18384911,0.56693166,-0.7076245,0.8023332,0.4782328,-0.34903657,0.66789025,0.6253468,-0.17868821,1.3397092,-0.7147213,-1.7858604,-0.9144914,2.2301943,1.3871204,-1.0180377,1.397658,-0.7805475,-1.826163,-0.8869339,2.1731062,1.3295505,-1.0032454,-1.2754747,1.4417922,0.7816726,-0.7400295,0.97282505,0.49629372,-0.29941815,1.946703,-0.47329712,1.2564381,-3.0108857,-0.2476231,2.2621906,0.21928596,-0.5315361,0.91435117,0.8056521,-0.044162374,0.07810321,0.5855547,-0.46239895,0.73312867,0.6941673,1.0,0.0,0.0,0.0,0.0,0.0,0.0,-2.596703,0.07329711,-0.7064381,2.3447752,0.4192114,11.802959,-2.157724,1.0100603,-0.073224306,3.2688916
10.519565,62.493458,18.938501,14.072386,0.5353191,0.34069803,0.25650612,-0.71485204,0.79992163,0.49667296,-0.29400977,0.6548094,0.62399215,-0.04339815,1.3261728,-0.7005553,-1.7764958,-0.9163349,2.2385871,1.3919498,-1.0075852,1.384976,-0.76614416,-1.8176811,-0.8938967,2.1827993,1.3344676,-1.0059175,-1.2657835,1.4404129,0.8690995,-0.68206084,0.9697512,0.49098688,-0.25658426,1.9166164,-0.47576904,1.2783066,-3.0078754,-0.24737553,2.1617432,0.21465683,-0.52402115,0.9214472,0.80595934,-0.051014617,0.077488475,0.58465594,-0.45568848,0.76268137,0.70848536,1.0,0.0,0.0,0.0,0.0,0.0,0.0,-2.5666165,0.07576904,-0.7283066,0.9671211,0.03888607,8.3583355,5.6983113,0.22091866,-0.27131438,4.2403755
-2.3499937,55.93336,15.399479,20.930653,1.2261217,0.3913797,-0.046980042,-0.72926205,0.79913235,0.48822916,-0.22308868,0.64377487,0.63263935,0.06880833,1.3120499,-0.6862309,-1.7688582,-0.9162056,2.247177,1.3977315,-0.9990367,1.3722597,-0.7517675,-1.8086917,-0.89984286,2.1924162,1.3393371,-1.008111,-1.2738806,1.4373269,0.9080582,-0.5660941,0.96036804,0.4860392,-0.20709404,1.8865604,-0.47824097,1.2991713,-3.0048683,-0.2471282,2.0613961,0.20988274,-0.51633835,0.9287133,0.80617654,-0.05817869,0.076780334,0.5837801,-0.47697508,0.7742596,0.72623277,1.0,0.0,0.0,0.0,0.0,0.0,0.0,-2.5365605,0.07824096,-0.7491713,-0.8887291,-0.13656616,3.5992503,11.423564,-0.46038628,-0.3411889,4.8880367
-14.864994,48.623978,11.605067,27.393175,1.9037759,0.43296334,-0.3587632,-0.75465477,0.795465,0.46405,-0.12027819,0.63621545,0.64145666,0.13214456,1.2967943,-0.672221,-1.7622868,-0.91187066,2.2560377,1.4034828,-0.99489653,1.359305,-0.73743856,-1.7996738,-0.9042517,2.2019148,1.3441627,-1.0098047,-1.303274,1.4319987,0.89914984,-0.4000231,0.9477178,0.48155403,-0.15705936,1.856535,-0.4807129,1.3190334,-3.001864,-0.24688113,1.9611493,0.20468521,-0.50868225,0.936172,0.80654484,-0.06568134,0.07605327,0.5825696,-0.52563864,0.7680151,0.7458857,1.0,0.0,0.0,0.0,0.0,0.0,0.0,-2.506535,0.080712885,-0.7690334,-3.100133,-0.36923885,-1.0983586,16.361076,-0.8330941,-0.40256977,4.9293337
-24.895031,45.432064,9.895255,34.667156,2.6561089,0.65863824,-0.6300415,-0.7689463,0.78847176,0.45294505,0.052521095,0.6267065,0.64787,0.21862817,1.2824104,-0.6585914,-1.7543793,-0.8989996,2.2645855,1.4089497,-0.9879419,1.3459955,-0.7231878,-1.7909286,-0.90645945,2.211276,1.3489482,-1.0109854,-1.3408133,1.4231956,0.8656608,-0.16190547,0.93354595,0.47722882,-0.10517488,1.82654,-0.48317719,1.3378937,-2.9988625,-0.2466343,1.8610026,0.19878387,-0.5011635,0.94392186,0.8072709,-0.073653065,0.075296655,0.58070594,-0.60358787,0.7513804,0.7780569,1.0,0.0,0.0,0.0,0.0,0.0,0.0,-2.47654,0.08317718,-0.7878937,-3.9559364,-0.7205963,-3.5452604,23.529428,-0.97175837,-0.5003333,5.1007433
-37.686424,43.464176,8.600784,45.134598,3.6886284,1.0957235,-1.0043596,-0.7911064,0.7784423,0.41772154,0.3137049,0.5990375,0.66567326,0.28518224,1.2668849,-0.64534354,-1.7491565,-0.87508893,2.27118,1.4155155,-0.9824672,1.3322684,-0.709061,-1.7826927,-0.90546477,2.220439,1.3536975,-1.0116472,-1.3840219,1.4097556,0.8086299,0.18556483,0.9122193,0.47352105,-0.053589612,1.7965755,-0.48564148,1.3557533,-2.9958644,-0.24638772,1.7609559,0.19178963,-0.49388123,0.95215714,0.8085942,-0.08236075,0.07444884,0.57779706,-0.72309273,0.72610813,0.83210963,1.0,0.0,0.0,0.0,0.0,0.0,0.0,-2.4465756,0.08564147,-0.8057533,-4.538846,-1.1879921,-5.9529185,34.45776,-1.6284227,-0.61460733,5.067664
-35.242043,42.696396,8.632745,44.044666,3.5176046,1.0709496,-0.99866295,-0.795175,0.77309066,0.37960806,0.4369504,0.5904922,0.678411,0.3131507,1.2527509,-0.63175195,-1.7447319,-0.86176974,2.279488,1.4215386,-0.98033214,1.3181864,-0.69507444,-1.7751358,-0.90099204,2.229392,1.358422,-1.0118246,-1.4166873,1.3953786,0.73715883,0.53380203,0.89108014,0.47105175,-0.0061101103,1.7666378,-0.48810577,1.3726132,-2.9928691,-0.24614137,1.6610093,0.1836319,-0.48680878,0.96090794,0.8105514,-0.09188657,0.07351167,0.573724,-0.83860093,0.707581,0.882822,1.0,0.0,0.0,0.0,0.0,0.0,0.0,-2.416638,0.08810577,-0.8226132,-3.4169436,-1.3145447,-7.4147344,34.613808,-1.6353011,-0.547719,4.6731644
-20.907463,43.603207,9.911652,32.93021,2.3367112,0.6687095,-0.6570927,-0.8029914,0.7707251,0.3700533,0.43840063,0.601573,0.6667804,0.23461765,1.2378873,-0.61800194,-1.7381305,-0.857152,2.2895494,1.4251001,-0.98836285,1.3038527,-0.6812128,-1.7681987,-0.89386714,2.238204,1.3631217,-1.0116396,-1.4391094,1.3833578,0.6787844,0.7715531,0.87868285,0.46891445,0.026300931,1.7367306,-0.49056244,1.3884743,-2.9898767,-0.24589528,1.5611626,0.17463875,-0.47981262,0.9699748,0.81292903,-0.10202074,0.072549805,0.5687483,-0.9110499,0.7066766,0.90797913,1.0,0.0,0.0,0.0,0.0,0.0,0.0,-2.3867307,0.09056243,-0.83847433,-2.341032,-1.1293173,-5.9821367,23.636223,-0.88738203,-0.41301847,3.1592937
-3.9982176,42.97902,10.56425,18.40688,0.8704376,0.03652346,-0.2111098,-0.81155765,0.7662793,0.35237968,0.39251354,0.6194126,0.659469,0.1718522,1.2226969,-0.6045849,-1.7329607,-0.8546158,2.3001451,1.4290687,-0.9944544,1.2893492,-0.667457,-1.7617404,-0.8854929,2.2469778,1.3678081,-1.0112314,-1.4544525,1.3730805,0.6350904,0.85894126,0.87771827,0.4684705,0.045455746,1.7068539,-0.4930191,1.4033378,-2.9868875,-0.24564944,1.4614158,0.16534996,-0.47273636,0.97902894,0.8154195,-0.11237688,0.07167149,0.5633165,-0.92704916,0.71865034,0.89784336,1.0,0.0,0.0,0.0,0.0,0.0,0.0,-2.356854,0.0930191,-0.8533378,-1.6309977,-0.9933233,-4.319179,8.605957,0.096833706,-0.034105778,1.8062897
11.225084,43.981346,11.640741,5.885981,-0.43558705,-0.5259947,0.20756939,-0.8085809,0.7640899,0.3466254,0.34108794,0.61510384,0.66261905,0.1934457,1.2084911,-0.591048,-1.727078,-0.8513841,2.3084881,1.43407,-0.99188685,1.2747713,-0.65378225,-1.755574,-0.8771826,2.2557516,1.372504,-1.0106535,-1.4591173,1.3655771,0.6111924,0.8213431,0.87761533,0.47073588,0.061429743,1.6770077,-0.49547577,1.4172046,-2.9839013,-0.24540384,1.3617686,0.15628052,-0.46546555,0.98778105,0.8177284,-0.12259755,0.07099525,0.5578976,-0.8915804,0.74023604,0.86096025,1.0,0.0,0.0,0.0,0.0,0.0,0.0,-2.3270078,0.09547576,-0.8672046,-0.5623102,-0.73883533,-2.1707177,-3.894174,0.04556179,0.4420638,1.4593966
20.638493,45.7734,12.882319,-1.2224121,-1.1763713,-0.84781575,0.49448097,-0.8043379,0.75729936,0.36805618,0.30138624,0.5987327,0.6617238,0.25059342,1.1943375,-0.5780523,-1.7187684,-0.847044,2.315625,1.4386764,-0.98559415,1.2602125,-0.6401876,-1.7494152,-0.8697611,2.2644796,1.3772285,-1.0098982,-1.4549656,1.3574501,0.6182714,0.7154307,0.87120086,0.4742333,0.079840176,1.647192,-0.4979248,1.4300756,-2.980918,-0.24515848,1.2622211,0.14779472,-0.45793915,0.9960774,0.8196428,-0.13248801,0.07058187,0.552857,-0.8254891,0.7670818,0.8126669,1.0,0.0,0.0,0.0,0.0,0.0,0.0,-2.297192,0.0979248,-0.88007563,0.34162998,-0.8095026,1.0091186,-10.70323,-0.669086,0.67822933,1.6907066
22.096548,47.845535,13.777303,-1.4587479,-1.218847,-0.8775008,0.55607903,-0.8044103,0.75505906,0.38604188,0.29543397,0.59398615,0.66156673,0.29817846,1.1797715,-0.5646817,-1.710811,-0.8402177,2.3238783,1.4433851,-0.98008037,1.2457167,-0.62666357,-1.7430274,-0.86340773,2.2731314,1.3819873,-1.0089407,-1.4480014,1.3507941,0.646609,0.60838795,0.86286885,0.47751755,0.10064986,1.6174068,-0.50037384,1.4419519,-2.9779375,-0.24491337,1.1627731,0.13998985,-0.4501152,1.003923,0.82108754,-0.14204259,0.07041553,0.5483436,-0.7563555,0.79534906,0.76876634,1.0,0.0,0.0,0.0,0.0,0.0,0.0,-2.267407,0.100373834,-0.89195186,0.64804554,-0.6589174,3.115368,-10.781455,-0.8627176,0.64949393,1.9389302
19.618343,45.657032,12.805388,0.28248358,-1.0183377,-0.94798744,0.4891871,-0.79933023,0.7477653,0.37187356,0.2822433,0.58097726,0.65961885,0.36218554,1.1657836,-0.55188704,-1.7058401,-0.8351834,2.3312292,1.4479492,-0.9727222,1.2313105,-0.6132177,-1.7364242,-0.8579527,2.2816687,1.3867729,-1.0077448,-1.4383003,1.3425323,0.66554147,0.5243263,0.8510208,0.47997162,0.12553237,1.5876484,-0.5028229,1.4528344,-2.9749603,-0.24466851,1.0634246,0.13282967,-0.4420662,1.0113577,0.8221006,-0.151295,0.070491664,0.5443264,-0.6936574,0.8170617,0.72868437,1.0,0.0,0.0,0.0,0.0,0.0,0.0,-2.2376485,0.10282287,-0.90283436,0.94447136,-0.80456734,2.0934105,-8.472288,-1.1736155,0.54205656,2.3689792
16.340624,42.52884,11.576359,2.5000296,-0.74514115,-0.9936335,0.40127903,-0.7931544,0.73692334,0.37037125,0.26606315,0.56441396,0.65899146,0.4174971,1.1519951,-0.5395254,-1.6993871,-0.8313464,2.33811,1.452672,-0.9659951,1.2170149,-0.5998863,-1.7297027,-0.8531338,2.290061,1.3915775,-1.006278,-1.4268008,1.3301011,0.6748177,0.46752834,0.83507,0.48158425,0.15321401,1.5579205,-0.5052681,1.4627241,-2.971986,-0.2444239,0.9641754,0.12622261,-0.4338379,1.018421,0.8227517,-0.16028416,0.070798226,0.54071814,-0.6404186,0.83168495,0.6925996,1.0,0.0,0.0,0.0,0.0,0.0,0.0,-2.2079206,0.10526809,-0.9127241,1.1382103,-1.2077808,1.0572791,-5.7471514,-1.545155,0.42729378,2.665165
13.101757,37.88378,9.700602,3.8711777,-0.5718316,-1.1130838,0.3014568,-0.7910754,0.72571397,0.35332668,0.24023171,0.53516257,0.65002555,0.4503203,1.1379074,-0.5273149,-1.69437,-0.8291106,2.3435771,1.45658,-0.961246,1.2028204,-0.58671033,-1.723027,-0.84876883,2.2982283,1.3963878,-1.0045366,-1.4171277,1.313521,0.66536295,0.4258868,0.810915,0.48181796,0.18096088,1.528223,-0.5077095,1.4716222,-2.9690146,-0.24417952,0.86502546,0.12010002,-0.42552185,1.0251219,0.82312936,-0.16900541,0.07137052,0.5374024,-0.5935371,0.8373926,0.65637827,1.0,0.0,0.0,0.0,0.0,0.0,0.0,-2.1782231,0.1077095,-0.9216222,0.9566307,-1.6106367,-0.8692026,-4.2459965,-2.336502,0.27786493,2.6891112
8.688131,33.26835,7.6831837,6.371959,-0.30881095,-1.1877569,0.14247629,-0.78668505,0.7174836,0.30976215,0.24815142,0.5127832,0.65094227,0.47399354,1.124152,-0.51496196,-1.6920508,-0.8239537,2.3495066,1.461482,-0.9571373,1.1887118,-0.5737089,-1.7166831,-0.8446175,2.306117,1.4011981,-1.0025263,-1.4086815,1.2959179,0.6240034,0.41122344,0.7822536,0.4815882,0.20738842,1.4985561,-0.5101509,1.4795295,-2.966046,-0.24393538,0.7659746,0.11436844,-0.41721344,1.0314766,0.8233546,-0.17745751,0.07225796,0.53420466,-0.55727774,0.83420163,0.6224772,1.0,0.0,0.0,0.0,0.0,0.0,0.0,-2.1485562,0.1101509,-0.9295295,0.82395077,-1.7013311,-4.113674,-1.5719056,-2.74899,0.20196438,2.5719345
7.7756305,26.614208,5.1579523,4.644063,-0.40163705,-1.481791,0.104898475,-0.7861988,0.6991505,0.26741937,0.19084099,0.47972214,0.65526414,0.48049223,1.1100919,-0.50379384,-1.6899412,-0.8255334,2.3540893,1.4667245,-0.9544771,1.1746641,-0.56092775,-1.7109401,-0.84076273,2.3136702,1.4060123,-1.0002756,-1.4034388,1.2723495,0.55762786,0.3764411,0.74659795,0.48206183,0.23072916,1.4689178,-0.5125885,1.4864471,-2.9630806,-0.2436915,0.66702276,0.10903168,-0.40901947,1.037422,0.82351124,-0.18553211,0.073536396,0.5310362,-0.51634157,0.8188158,0.5794483,1.0,0.0,0.0,0.0,0.0,0.0,0.0,-2.118918,0.112588495,-0.9364471,0.5065918,-2.2924423,-6.6313505,-3.6026776,-3.4564734,0.3067553,2.276516
11.18405,23.979614,4.3605814,0.06251621,-0.7717803,-1.8066992,0.2336058,-0.7871571,0.6844417,0.25973317,0.090715386,0.46290326,0.6507219,0.49088854,1.0959485,-0.4924836,-1.6849668,-0.8316912,2.3599606,1.4710845,-0.9511868,1.1606432,-0.548406,-1.7058094,-0.837669,2.3208723,1.4108284,-0.9978121,-1.4015734,1.2456719,0.49829945,0.2867256,0.71152824,0.48265165,0.25139984,1.4393082,-0.5150223,1.4923759,-2.9601183,-0.24344787,0.56816983,0.1042366,-0.4010353,1.0428516,0.8235822,-0.1930456,0.075253375,0.5279988,-0.4584309,0.7966407,0.5254488,1.0,0.0,0.0,0.0,0.0,0.0,0.0,-2.0893083,0.11502227,-0.94237584,0.19133091,-2.6055336,-5.9040604,-9.079254,-3.4474492,0.37431717,2.0171552
20.576714,25.578823,5.4559283,-8.795033,-1.5639293,-2.2340233,0.5828987,-0.7774302,0.66805685,0.29539114,-0.0815511,0.44391143,0.64646363,0.5204219,1.0829002,-0.4816003,-1.6762702,-0.8458241,2.3652635,1.4754747,-0.9457699,1.1466738,-0.5361694,-1.7009456,-0.8361975,2.3277311,1.415652,-0.99514467,-1.3949538,1.2164162,0.48250556,0.10047094,0.6773563,0.4836572,0.27174464,1.409729,-0.51745605,1.4973168,-2.9571588,-0.24320447,0.4694158,0.10028458,-0.3932686,1.0476222,0.82340753,-0.19976051,0.077412084,0.52545524,-0.36499795,0.7724172,0.45594063,1.0,0.0,0.0,0.0,0.0,0.0,0.0,-2.059729,0.11745605,-0.9473168,0.74756145,-2.8678417,-1.5294075,-18.658937,-3.449142,0.50365925,1.9967556
18.327415,28.730227,6.767358,-4.776525,-1.1541483,-2.0305839,0.5234104,-0.76746374,0.6596257,0.29161936,-0.05705548,0.44207174,0.64285564,0.5416476,1.0699275,-0.47020683,-1.6717837,-0.84190303,2.3719382,1.4799376,-0.9409799,1.1328131,-0.524197,-1.696099,-0.8362738,2.334323,1.4204776,-0.9922798,-1.382948,1.1910719,0.48510334,-0.043680776,0.652799,0.4834717,0.29121906,1.3801804,-0.519886,1.501271,-2.9542022,-0.24296132,0.37076053,0.097156525,-0.38571548,1.0518075,0.8229481,-0.20575687,0.079902075,0.5234847,-0.2866453,0.7528016,0.4014481,1.0,0.0,0.0,0.0,0.0,0.0,0.0,-2.0301805,0.11988601,-0.951271,1.2947321,-2.4663687,0.24172664,-14.433895,-2.4356484,0.30158162,1.9162238
11.23542,25.95626,5.842413,2.0556726,-0.40366173,-1.7968425,0.2988561,-0.7654126,0.63907146,0.25971037,-0.03393566,0.42663705,0.6411762,0.56082875,1.0562718,-0.46028984,-1.670128,-0.8396674,2.3769867,1.4845953,-0.9361969,1.1190668,-0.5124992,-1.6913097,-0.8372599,2.3406973,1.4252975,-0.989229,-1.3718952,1.1629646,0.47665656,-0.117073074,0.63237494,0.48215815,0.3096283,1.3506603,-0.52231216,1.5042393,-2.9512484,-0.2427184,0.27220392,0.09459877,-0.37836075,1.0555588,0.822306,-0.21124151,0.08261361,0.5218858,-0.23763919,0.7312141,0.36204222,1.0,0.0,0.0,0.0,0.0,0.0,0.0,-2.0006604,0.12231216,-0.9542393,1.1557102,-2.7322292,-0.90723634,-7.405488,-1.9530058,0.10139942,1.8036783
2.851324,22.416069,4.2814827,9.6028,0.30723083,-1.5481983,-0.002334021,-0.7710938,0.62760776,0.2079146,-0.0016109913,0.3977719,0.6450402,0.5650293,1.0419575,-0.44973844,-1.6705183,-0.837421,2.3804746,1.4898015,-0.9327261,1.1053702,-0.50106657,-1.6868427,-0.8384243,2.346839,1.4301021,-0.9860123,-1.3690509,1.1369851,0.4365314,-0.116804205,0.608453,0.48041904,0.3255076,1.3211689,-0.5247383,1.5062228,-2.9482977,-0.24247572,0.17374584,0.092300415,-0.37122345,1.0590236,0.82165575,-0.21641351,0.08552391,0.5203198,-0.2192268,0.7083588,0.33715662,1.0,0.0,0.0,0.0,0.0,0.0,0.0,-1.9711689,0.124738306,-0.95622283,0.24921894,-2.5146723,-4.0656805,-0.11134595,-2.2457838,-0.021082163,1.5360355
0.60037804,16.888165,2.1554546,10.014751,0.35230756,-1.6936061,-0.10765652,-0.76032007,0.60566837,0.15266743,-0.04038339,0.34376597,0.64428705,0.57089114,1.0293381,-0.44049972,-1.6715759,-0.84246266,2.3812156,1.4945308,-0.9289232,1.0917231,-0.4899243,-1.6830204,-0.8395306,2.3526258,1.4348896,-0.9826525,-1.3634387,1.1068825,0.36385775,-0.109110564,0.5688933,0.47863597,0.33931205,1.291708,-0.52716064,1.5072225,-2.9453502,-0.24223329,0.07538618,0.090168,-0.36437607,1.0622185,0.821119,-0.22127916,0.08871053,0.5185841,-0.20341013,0.67701083,0.30964366,1.0,0.0,0.0,0.0,0.0,0.0,0.0,-1.941708,0.12716064,-0.9572225,0.5298853,-2.9292583,-7.323283,0.6125316,-3.822577,-0.031071901,1.3231456
-0.9391036,11.133024,0.19509691,9.62203,0.46230882,-1.8576823,-0.15101078,-0.75813,0.57959145,0.105170645,-0.061096013,0.33356148,0.6423178,0.5718491,1.01591,-0.43196517,-1.6725032,-0.8456402,2.385982,1.4991213,-0.92546755,1.0781294,-0.47913587,-1.680064,-0.84061015,2.3580313,1.4396579,-0.9791706,-1.3580706,1.0697176,0.2727953,-0.10819877,0.5315635,0.47686324,0.35086274,1.2622776,-0.52957916,1.5072395,-2.9424055,-0.24199112,-0.022875138,0.08818245,-0.35792542,1.0651052,0.8207638,-0.22576249,0.09219872,0.51660186,-0.19012642,0.6353685,0.2780223,1.0,0.0,0.0,0.0,0.0,0.0,0.0,-1.9122776,0.12957916,-0.95723945,0.5177021,-3.639555,-9.161639,-0.07339269,-3.621292,-0.0315547,1.094377
-3.1638212,3.2239196,-1.9183896,10.012407,0.7564248,-1.944238,-0.17468473,-0.74941057,0.52835786,0.080099605,-0.048924007,0.27953696,0.65146726,0.5857198,1.0031884,-0.42630008,-1.672054,-0.84550256,2.385985,1.5048046,-0.9205986,1.0646178,-0.46888387,-1.6779659,-0.8416401,2.3629751,1.4444168,-0.9755791,-1.3486906,1.0106514,0.18839325,-0.10178225,0.48247775,0.47621182,0.3617013,1.2328758,-0.5319977,1.5062743,-2.9394636,-0.24174918,-0.12103822,0.08626366,-0.35195923,1.0676534,0.8206167,-0.22984132,0.0959301,0.5143524,-0.18551624,0.5829141,0.24381721,1.0,0.0,0.0,0.0,0.0,0.0,0.0,-1.8828758,0.13199767,-0.95627433,0.9485245,-5.833864,-8.520097,0.47047734,-4.8061075,0.07606745,1.0122538
-3.9847603,-5.1215982,-4.4386153,7.8123264,0.85912526,-2.199842,-0.13875882,-0.7518742,0.48121932,0.028894542,-0.09648961,0.2664952,0.6490905,0.5895221,0.9894303,-0.42076194,-1.6750765,-0.8512891,2.3896246,1.5093259,-0.9166269,1.0511767,-0.45935094,-1.6767261,-0.84283507,2.3674688,1.4491718,-0.9718893,-1.3422879,0.93443733,0.10221759,-0.1258678,0.43844768,0.4756613,0.37123773,1.2035027,-0.5344162,1.5043284,-2.9365246,-0.24150749,-0.21910316,0.08439636,-0.34664536,1.0697849,0.8206911,-0.23340067,0.099834085,0.511882,-0.18099643,0.51469743,0.20015652,1.0,0.0,0.0,0.0,0.0,0.0,0.0,-1.8535026,0.1344162,-0.95432836,0.6938219,-7.5553894,-8.70616,-2.563581,-4.3426633,0.092077255,0.8829653
-7.5818553,-14.644438,-7.062131,9.220243,1.318971,-2.2569873,-0.20023952,-0.7403605,0.4107106,-0.014306205,-0.06925318,0.20891973,0.6544599,0.5966435,0.9771406,-0.4182799,-1.6781567,-0.8497604,2.3883607,1.5146178,-0.91222495,1.0378348,-0.45076978,-1.6763275,-0.8441559,2.3714476,1.4539249,-0.9681099,-1.3312058,0.8328424,0.018776828,-0.13464348,0.384225,0.47555286,0.3798702,1.17416,-0.5368271,1.5014025,-2.9335885,-0.24126603,-0.31707007,0.082466125,-0.34210587,1.0714706,0.8210204,-0.23641711,0.10381678,0.50917035,-0.19163685,0.43392363,0.15567766,1.0,0.0,0.0,0.0,0.0,0.0,0.0,-1.82416,0.13682708,-0.9514025,1.1968613,-10.102129,-8.464007,-1.030463,-5.3714514,0.111699104,0.78310966
-8.073635,-23.204437,-9.10174,7.4345903,1.4212382,-2.4150205,-0.133949,-0.7236657,0.32131624,-0.019998344,-0.10536939,0.101861894,0.6549142,0.59784764,0.96546817,-0.41863817,-1.6783273,-0.8546928,2.3816338,1.5194163,-0.90832514,1.0246664,-0.44343555,-1.6765659,-0.84568846,2.3746557,1.458678,-0.9642542,-1.3114177,0.7004617,-0.038647935,-0.15979955,0.2995243,0.47551116,0.3872468,1.144846,-0.539238,1.4974977,-2.9306557,-0.2410248,-0.41493902,0.08042145,-0.338459,1.0726527,0.8215918,-0.23884873,0.10781375,0.5062749,-0.20392723,0.3411274,0.10393284,1.0,0.0,0.0,0.0,0.0,0.0,0.0,-1.7948459,0.13923797,-0.94749767,2.1414042,-13.188744,-5.9097,-2.6268573,-8.445907,0.113362074,0.65506697
-14.386001,-76.39017,-24.214462,-3.4915967,2.2122025,-3.585264,0.011784585,-0.69411963,0.030256132,-0.011227046,-0.2633003,-0.09426028,0.66030705,0.58042186,0.95525444,-0.44040993,-1.6776886,-0.8720185,2.3652296,1.5247087,-0.90621203,1.0118243,-0.4385413,-1.6771247,-0.84817564,2.3765287,1.463433,-0.96034795,-1.2738138,0.41918367,-0.06264299,-0.2784037,0.14936392,0.47585088,0.39133403,1.1155605,-0.54164886,1.4926149,-2.9277258,-0.24078383,-0.51271015,0.078165054,-0.33642578,1.0729084,0.82243145,-0.24023144,0.11154639,0.50344086,-0.22982618,0.15707071,-0.0017368633,1.0,0.0,0.0,0.0,0.0,0.0,0.0,-1.7655605,0.14164886,-0.94261485,4.2046785,-28.108156,-2.7159677,-11.886612,-15.1355715,0.13089776,0.2952218
-16.937908,-113.009026,-34.735016,-14.176359,2.4055173,-4.5238104,0.2008804,-0.6686826,-0.20476066,0.0035928874,-0.444957,-0.30163676,0.6513173,0.5312309,0.944956,-0.45901737,-1.6767654,-0.89267135,2.346365,1.5285648,-0.90722483,0.99943614,-0.4372381,-1.6776817,-0.8526398,2.3764296,1.4681709,-0.95644933,-1.2251354,0.03381913,-0.054269776,-0.5021204,-0.06410131,0.47278705,0.38866344,1.0863056,-0.5440521,1.4867553,-2.9247987,-0.24054308,-0.61038357,0.075660706,-0.3367195,1.0717635,0.82356364,-0.2400005,0.114794455,0.500964,-0.25509548,-0.092213675,-0.15259743,1.0,0.0,0.0,0.0,0.0,0.0,0.0,-1.7363056,0.14405212,-0.93675524,5.436301,-38.601578,0.60332566,-22.297514,-21.658909,-0.46455264,-0.45831203
-22.238165,-158.29164,-47.328945,-22.615837,3.3952277,-5.415549,0.33532307,-0.56951225,-0.55636144,0.013439257,-0.581935,-0.47135368,0.6475467,0.4806732,0.9424849,-0.49287423,-1.6763377,-0.9108333,2.3292942,1.5329256,-0.908382,0.9879148,-0.44080484,-1.6780097,-0.8597275,2.3739538,1.4728477,-0.95262796,-1.1259277,-0.487615,-0.025558887,-0.77702713,-0.3104251,0.46343353,0.37878877,1.0570793,-0.5464554,1.4799196,-2.9218745,-0.24030258,-0.7079593,0.072748184,-0.3400917,1.0687791,0.82499474,-0.23771134,0.117102794,0.49916315,-0.3037014,-0.41746625,-0.347235,1.0,0.0,0.0,0.0,0.0,0.0,0.0,-1.7070793,0.14645538,-0.92991954,10.484147,-52.380966,2.9366095,-27.317179,-25.179688,-1.6889453,-1.3214767
-8.669718,-125.57615,-35.002213,-22.782387,2.795449,-4.650741,0.7661276,-0.4315103,-0.7036054,0.1711067,-0.65500075,-0.5577952,0.6479493,0.46328267,0.9447638,-0.5111654,-1.660899,-0.9252276,2.3181744,1.5376426,-0.9062997,0.9778917,-0.4493369,-1.6772964,-0.8693882,2.3691778,1.4774139,-0.94891626,-0.9607693,-0.97610664,0.10473213,-1.0286511,-0.5350029,0.45064807,0.36776677,1.0278816,-0.54885864,1.4721088,-2.9189532,-0.24006231,-0.8054375,0.069540024,-0.34626007,1.064001,0.8263815,-0.23361981,0.11810106,0.49856532,-0.32911453,-0.6822835,-0.52203697,1.0,0.0,0.0,0.0,0.0,0.0,0.0,-1.6778816,0.14885864,-0.9221088,16.63673,-49.159492,13.409263,-25.015438,-22.892529,-2.4121046,-1.3855636
36.369915,-34.328564,-2.7454927,-30.446238,-0.32560435,-3.647781,1.6856782,0.037351243,-0.7447671,0.25864345,-0.68119234,-0.6318703,0.6477783,0.3932166,0.9816268,-0.5238136,-1.651432,-0.93750745,2.3059907,1.5421917,-0.9095946,0.9714334,-0.4616598,-1.6749141,-0.88102305,2.362464,1.4818733,-0.9453476,-0.5442312,-1.3181295,0.2853902,-1.209532,-0.71649975,0.44145432,0.35302672,0.99871445,-0.5512543,1.4633241,-2.9160347,-0.23982228,-0.9028182,0.06700325,-0.35408783,1.0578821,0.826904,-0.22854573,0.11768808,0.5001461,-0.23230521,-0.81176704,-0.64369494,1.0,0.0,0.0,0.0,0.0,0.0,0.0,-1.6487144,0.15125427,-0.91332406,40.64137,-34.339428,18.818441,-18.41433,-17.963266,-1.7848074,-1.529783
46.471436,17.207878,11.7316475,-21.50494,-1.475679,-2.7527301,1.3769995,0.20669289,-0.7759329,0.080287516,-0.60518706,-0.6469651,0.65384984,0.27655432,0.9921027,-0.53925306,-1.6668854,-0.94154173,2.2977674,1.5472583,-0.9176922,0.9695213,-0.47624052,-1.6718242,-0.89344275,2.3543768,1.4862754,-0.9419983,-0.07825211,-1.5049356,0.31987005,-1.2543745,-0.83845204,0.43811864,0.32909992,0.9695759,-0.5536499,1.4535662,-2.913119,-0.23958252,-1.0001016,0.06565094,-0.36260986,1.0509492,0.8263749,-0.22317229,0.116251335,0.50377,-0.104544215,-0.8599321,-0.71275604,1.0,0.0,0.0,0.0,0.0,0.0,0.0,-1.6195759,0.1536499,-0.9035662,45.18959,-18.728876,4.3819785,-4.964018,-11.884832,-0.83253384,-2.335912
44.616764,36.970116,13.810393,-15.736258,-2.1228342,-2.6755934,0.8324807,0.35141248,-0.79071736,-0.18186808,-0.62719595,-0.60613453,0.6435388,0.24418363,1.0046625,-0.5553123,-1.690011,-0.95616233,2.2937634,1.5506293,-0.91757995,0.97201324,-0.491763,-1.6700523,-0.905892,2.3455877,1.4906547,-0.9388998,0.35378885,-1.5681224,0.1332734,-1.2432516,-0.89162844,0.43676537,0.30342484,0.9404659,-0.55604553,1.4428362,-2.9102066,-0.239343,-1.0972877,0.065633774,-0.37147522,1.0434673,0.82512826,-0.21757609,0.11442367,0.5086563,0.03303095,-0.88777184,-0.76363933,1.0,0.0,0.0,0.0,0.0,0.0,0.0,-1.5904659,0.15604553,-0.89283615,41.8349,-6.3504696,-17.603004,0.6947756,-5.1841617,-0.48348308,-2.5467217
34.02653,37.01116,9.905743,-9.356635,-1.9586506,-2.6679025,0.29001606,0.4456962,-0.80508506,-0.37449372,-0.64409584,-0.56902665,0.63944286,0.23691694,1.0165828,-0.5722715,-1.7075016,-0.9703016,2.288685,1.554599,-0.9152081,0.97809196,-0.5073923,-1.6712406,-0.91809523,2.3366613,1.4950264,-0.9360445,0.6891813,-1.5613966,-0.19987994,-1.213437,-0.89325625,0.4362343,0.2794101,0.9113865,-0.55843735,1.431135,-2.9072971,-0.23910372,-1.1943766,0.06682587,-0.38064194,1.0354991,0.8236149,-0.21154283,0.11271877,0.51400644,0.1516223,-0.9198454,-0.8122933,1.0,0.0,0.0,0.0,0.0,0.0,0.0,-1.5613865,0.15843734,-0.88113505,32.525314,0.62713623,-32.39801,2.742505,-0.2016902,-0.35864115,-2.4387658
26.791386,35.74576,7.4766603,-5.8127885,-1.8008859,-2.5688932,0.039964035,0.5476941,-0.80720705,-0.50423867,-0.66490906,-0.5662592,0.63729936,0.23562612,1.0328614,-0.588113,-1.7216644,-0.9845861,2.2800355,1.5587562,-0.9124819,0.98686385,-0.5227169,-1.6760356,-0.9300839,2.3278723,1.4993942,-0.9334057,0.9376494,-1.5230304,-0.57071483,-1.19441,-0.87454414,0.4358394,0.25847733,0.88233566,-0.56082535,1.4184638,-2.9043906,-0.23886468,-1.2913685,0.06907654,-0.3901329,1.0270286,0.82212085,-0.20487344,0.11143823,0.5193512,0.25567824,-0.95272964,-0.8640479,1.0,0.0,0.0,0.0,0.0,0.0,0.0,-1.5323356,0.16082534,-0.8684638,24.180817,3.7920713,-36.4403,1.7827034,1.7904162,-0.3427267,-2.155912
22.017776,37.67694,8.186928,-1.8719716,-1.4374788,-2.1532097,-0.0231082,0.62702024,-0.8071776,-0.5615,-0.6613065,-0.5588816,0.63848025,0.16062541,1.0495659,-0.6034346,-1.7321856,-0.9962145,2.271984,1.5632422,-0.91734314,0.99756503,-0.53762853,-1.6840484,-0.94192755,2.3193235,1.5037601,-0.9310053,1.1130053,-1.4807553,-0.8769008,-1.181132,-0.8486872,0.43615553,0.23379074,0.85331345,-0.56321335,1.4048234,-2.9014869,-0.23862587,-1.3882633,0.07222557,-0.399868,1.0180798,0.82071865,-0.19757667,0.11061201,0.52454686,0.3415225,-0.97340053,-0.91157055,1.0,0.0,0.0,0.0,0.0,0.0,0.0,-1.5033134,0.16321334,-0.8548234,17.154861,4.1989565,-30.295599,1.2692928,2.5387883,-0.22414327,-2.4950771
17.485044,39.419086,9.581747,2.563682,-0.9541146,-1.6416751,-0.039540738,0.68133986,-0.8058905,-0.6170124,-0.6409171,-0.5602587,0.6385536,0.097171165,1.065699,-0.6182176,-1.7457497,-1.0060192,2.2632976,1.5676155,-0.9212882,1.009576,-0.5521921,-1.6944454,-0.95359576,2.3109999,1.5081336,-0.9288748,1.2299635,-1.4482903,-1.0936655,-1.1622392,-0.8270677,0.43715894,0.20616965,0.82432175,-0.56559753,1.3902148,-2.898586,-0.2383873,-1.4850614,0.076063156,-0.40970612,1.0087222,0.819383,-0.1898114,0.110137954,0.5295777,0.40617037,-0.9797761,-0.95110446,1.0,0.0,0.0,0.0,0.0,0.0,0.0,-1.4743217,0.16559753,-0.8402148,11.50701,3.2236814,-21.56831,1.869154,2.1298885,-0.09378791,-2.7494967
11.5264,38.48798,10.189985,7.192586,-0.3677491,-1.1172926,-0.03980364,0.69231373,-0.814464,-0.64228857,-0.62670654,-0.57694197,0.64868057,0.09517233,1.0788074,-0.6336385,-1.7586743,-1.0162665,2.2533057,1.5730017,-0.91935754,1.0223113,-0.5665792,-1.7062919,-0.9650446,2.3027906,1.5125282,-0.92699605,1.2877616,-1.435739,-1.2149364,-1.1390134,-0.81911796,0.43972525,0.18196164,0.79535675,-0.5679779,1.3746389,-2.895688,-0.23814897,-1.5817627,0.080358505,-0.41951752,0.99902517,0.81806725,-0.18176414,0.109888144,0.53446454,0.44600648,-0.97532564,-0.98373646,1.0,0.0,0.0,0.0,0.0,0.0,0.0,-1.4453567,0.1679779,-0.8246389,5.74193,1.2227058,-12.153888,2.355194,0.7353902,0.1142323,-2.380246
4.935434,39.553467,11.327974,12.69728,0.24145252,-0.53832376,-0.06220381,0.6723528,-0.8163753,-0.63290215,-0.59882104,-0.59057367,0.66217446,0.1096009,1.0895466,-0.6482167,-1.7695822,-1.0249267,2.2437332,1.5787456,-0.91603595,1.0351936,-0.5809425,-1.718684,-0.97617495,2.29457,1.5169628,-0.9253195,1.2884939,-1.4366795,-1.2477511,-1.1040757,-0.82344586,0.44438127,0.16316268,0.7664223,-0.5703583,1.3580967,-2.892793,-0.23791088,-1.6783673,0.08485603,-0.4291954,0.9890878,0.8167331,-0.1736542,0.10974626,0.5392095,0.4596939,-0.95789784,-1.0050253,1.0,0.0,0.0,0.0,0.0,0.0,0.0,-1.4164222,0.17035827,-0.8080967,0.16076565,-0.13756752,-3.3952236,3.5689592,-0.54513216,0.40762424,-1.8205613
0.9324579,38.632156,11.263782,14.55177,0.53220516,-0.27711764,-0.023407713,0.64692104,-0.8211626,-0.6351169,-0.61290675,-0.59180593,0.6598213,0.17199238,1.0998857,-0.66305876,-1.7821957,-1.0374656,2.2353895,1.5829449,-0.9081203,1.0477763,-0.59538496,-1.7310379,-0.9870764,2.2862768,1.5214393,-0.9237564,1.2488635,-1.4468501,-1.2318617,-1.0851642,-0.8318364,0.44861764,0.15422778,0.7375164,-0.57273865,1.3405892,-2.8899007,-0.23767303,-1.7748753,0.089393616,-0.43867493,0.9789454,0.8153471,-0.16556157,0.10964234,0.5438537,0.4605543,-0.9372249,-1.0252424,1.0,0.0,0.0,0.0,0.0,0.0,0.0,-1.3875164,0.17273864,-0.79058915,-3.786683,-1.0667086,1.4099121,2.011919,-0.9883642,0.37677884,-0.82475543
-1.7319126,41.28401,12.393707,17.041674,0.749778,0.0027832985,-0.034036636,0.62265843,-0.8193664,-0.6169959,-0.5856097,-0.60433644,0.6707477,0.17998546,1.1100422,-0.6773216,-1.7927375,-1.0456374,2.2258432,1.5885141,-0.9057579,1.0598136,-0.6099256,-1.7430065,-0.9977442,2.2778616,1.5259655,-0.92225534,1.1893282,-1.4567312,-1.1858509,-1.0602361,-0.8451044,0.4538957,0.14900166,0.70863914,-0.5751114,1.3221173,-2.8870113,-0.23743542,-1.8712867,0.093868256,-0.4479065,0.9686554,0.8138915,-0.15757592,0.109548494,0.54840636,0.4513926,-0.9094321,-1.038088,1.0,0.0,0.0,0.0,0.0,0.0,0.0,-1.3586391,0.17511138,-0.7721173,-5.7371855,-1.0375738,4.3922186,2.6240587,-1.494813,0.53206086,-0.44626892
-1.1227646,43.573235,13.224617,16.715775,0.6162101,0.0592359,0.011722714,0.6053768,-0.8178147,-0.61066025,-0.58426243,-0.6394899,0.6816241,0.23803307,1.1203513,-0.6917071,-1.8040725,-1.0561705,2.2139125,1.5941279,-0.89845204,1.071252,-0.6245369,-1.7544963,-1.0082175,2.2692251,1.5305469,-0.9207514,1.1294858,-1.4628018,-1.1373963,-1.0424799,-0.8703331,0.45967153,0.15114997,0.6797905,-0.57748413,1.302682,-2.8841248,-0.23719804,-1.9676019,0.098278046,-0.45682144,0.95824033,0.8123405,-0.14971772,0.10951387,0.55289614,0.4455264,-0.87834585,-1.0501852,1.0,0.0,0.0,0.0,0.0,0.0,0.0,-1.3297905,0.17748412,-0.75268203,-5.7665586,-0.6495476,4.618478,1.9066572,-2.6839256,0.58200955,0.28876066
-0.24182606,44.360123,13.440792,15.876251,0.5458164,0.021640599,0.032130405,0.585244,-0.81829166,-0.6074016,-0.58379394,-0.6343711,0.68000025,0.2346757,1.1297764,-0.70636606,-1.8152364,-1.0665969,2.205788,1.598547,-0.8972838,1.082141,-0.63918626,-1.7655876,-1.0185724,2.260375,1.5351799,-0.91922075,1.0760556,-1.4657074,-1.1003695,-1.0325658,-0.89003646,0.46444318,0.15385915,0.65097046,-0.5798569,1.2822843,-2.881241,-0.2369609,-2.0638204,0.10265541,-0.46544266,0.9476893,0.81068146,-0.1419507,0.10955948,0.55735284,0.44284412,-0.8485468,-1.0638099,1.0,0.0,0.0,0.0,0.0,0.0,0.0,-1.3009704,0.17985687,-0.73228425,-5.1350355,-0.33051968,3.4777641,1.12679,-2.125883,0.4672408,0.3478825
1.7316847,42.625935,12.658094,13.152412,0.35661817,-0.16426453,0.090783104,0.5678298,-0.82186055,-0.6179495,-0.6112566,-0.62691826,0.6679041,0.25575587,1.138924,-0.7213723,-1.8273826,-1.0796981,2.197683,1.6019703,-0.89364517,1.0925704,-0.6538614,-1.7764843,-1.0290056,2.2514029,1.5398414,-0.91764814,1.0325842,-1.4683632,-1.086687,-1.0464615,-0.9004369,0.4666052,0.15863594,0.62218094,-0.582222,1.260925,-2.8783603,-0.236724,-2.1599429,0.10707283,-0.47381592,0.93693185,0.8088996,-0.1341486,0.10968227,0.56183213,0.4484201,-0.8247811,-1.0867128,1.0,0.0,0.0,0.0,0.0,0.0,0.0,-1.2721809,0.18222198,-0.71092504,-4.151058,-0.30453205,1.1437654,-1.2377977,-1.1833429,0.14399886,0.5550504
2.432486,43.867718,13.225902,12.770937,0.34208977,-0.1295467,0.120279804,0.5443786,-0.82149667,-0.5993082,-0.610161,-0.62612766,0.6727062,0.282719,1.1470083,-0.7360111,-1.836415,-1.0900217,2.18879,1.607112,-0.8893762,1.1025993,-0.6685518,-1.7872608,-1.0396048,2.2423697,1.544524,-0.9160107,0.9935987,-1.4694229,-1.0753303,-1.0638078,-0.90447253,0.4685002,0.16580802,0.5934181,-0.5845871,1.2386054,-2.8754823,-0.23648731,-2.255969,0.1115551,-0.4819374,0.92594254,0.80697113,-0.12626636,0.10986535,0.5663779,0.45498812,-0.79987735,-1.1096611,1.0,0.0,0.0,0.0,0.0,0.0,0.0,-1.2434181,0.18458709,-0.68860537,-3.7108183,-0.14150143,0.908494,-1.5825987,-0.54044724,0.114524364,0.80313385
-0.22202206,43.960865,12.898338,13.738359,0.47916067,-0.0231165,0.0810395,0.49761263,-0.81775403,-0.59294623,-0.6227329,-0.622346,0.6718367,0.27826005,1.1523606,-0.7503272,-1.8465554,-1.101878,2.180135,1.6117076,-0.88818467,1.1121417,-0.68322885,-1.7979457,-1.0504137,2.2333326,1.5492218,-0.9143093,0.9417617,-1.4672775,-1.0668596,-1.0860778,-0.90376663,0.46995553,0.17187943,0.5646858,-0.5869522,1.2153261,-2.8726072,-0.23625086,-2.3518994,0.116062164,-0.48981476,0.9147232,0.8049141,-0.11828687,0.11009602,0.5709644,0.45518166,-0.7750835,-1.1324962,1.0,0.0,0.0,0.0,0.0,0.0,0.0,-1.2146858,0.1869522,-0.66532606,-4.967129,0.17559528,0.61438084,-2.0553827,-0.08524656,0.0751853,0.6879717
-4.2097406,42.641125,11.78834,14.973854,0.6483214,0.07315767,0.015728101,0.45042697,-0.8159425,-0.6005101,-0.6377159,-0.6315169,0.67470056,0.27845365,1.1571845,-0.7648231,-1.8579967,-1.1141853,2.170181,1.6166918,-0.88646394,1.121051,-0.6978725,-1.8086116,-1.0614706,2.224288,1.5539348,-0.91255456,0.8747623,-1.4635583,-1.0672432,-1.1116086,-0.90531313,0.4713631,0.17690141,0.5359802,-0.5893135,1.1910883,-2.869735,-0.23601465,-2.4477336,0.12051201,-0.49747467,0.9032629,0.8027777,-0.110177256,0.1103975,0.5755183,0.44691846,-0.7526033,-1.1568526,1.0,0.0,0.0,0.0,0.0,0.0,0.0,-1.1859802,0.1893135,-0.6410883,-6.452441,0.32379627,-0.2634287,-2.3519754,-0.33996105,0.06611347,0.56809187
-10.570216,40.483173,10.186428,16.629904,0.9208678,0.24852714,-0.035718948,0.36924377,-0.81560886,-0.585678,-0.67649484,-0.6353428,0.6602799,0.30360973,1.1579753,-0.7794334,-1.8671794,-1.1291201,2.1607537,1.6199628,-0.88219357,1.1290408,-0.71248186,-1.8192356,-1.0729071,2.2152166,1.5586479,-0.9107378,0.7746609,-1.4602355,-1.0617242,-1.1535518,-0.90873396,0.47102147,0.18342695,0.50730515,-0.591671,1.1658928,-2.8668656,-0.23577867,-2.543472,0.12477493,-0.5049095,0.8915361,0.8006122,-0.10188183,0.11078225,0.5799719,0.4251033,-0.7322345,-1.184089,1.0,0.0,0.0,0.0,0.0,0.0,0.0,-1.1573051,0.19167098,-0.6158928,-9.701216,0.27058125,0.3101349,-3.9452076,-0.5727768,-0.11856556,0.70702136
-32.685993,37.771152,6.745367,26.524696,2.1640744,0.9921961,-0.32079312,0.167641,-0.8082786,-0.5259073,-0.68558776,-0.6332848,0.6714265,0.34442437,1.1458049,-0.7933097,-1.8718263,-1.1414659,2.1518881,1.6257905,-0.8762954,1.1352569,-0.7270349,-1.8295314,-1.0847346,2.206111,1.5633686,-0.9088324,0.57236654,-1.4539316,-1.0196565,-1.191512,-0.91258144,0.4724216,0.19302523,0.47865677,-0.5940285,1.1397407,-2.8639991,-0.23554294,-2.6391149,0.12842178,-0.5121727,0.8796176,0.7985959,-0.09345835,0.11123065,0.5840699,0.3488736,-0.71390635,-1.2002686,1.0,0.0,0.0,0.0,0.0,0.0,0.0,-1.1286567,0.19402847,-0.5897407,-19.756054,0.5256653,3.9505005,-3.448248,-0.7622123,0.13902783,0.98789334
-63.047585,28.633877,-0.66264987,37.508987,3.7482972,1.7160144,-0.70054024,-0.098473854,-0.80850315,-0.48920685,-0.733056,-0.625432,0.6497677,0.36414322,1.1254095,-0.8078852,-1.8784521,-1.1580402,2.1435678,1.6283454,-0.87241805,1.1384555,-0.7415384,-1.8392456,-1.097056,2.1969824,1.5680873,-0.90682393,0.23809935,-1.4498034,-0.95621103,-1.2439818,-0.91458774,0.47171533,0.20351005,0.4500389,-0.59638214,1.1126329,-2.8611355,-0.23530744,-2.734662,0.13079643,-0.51934814,0.86754656,0.79702693,-0.08489086,0.11171141,0.5874198,0.20360388,-0.70970523,-1.2147655,1.0,0.0,0.0,0.0,0.0,0.0,0.0,-1.1000389,0.19638214,-0.56263286,-32.73639,0.22492409,6.0786843,-4.711914,-0.7837415,-0.06631017,1.0507017
-67.17914,31.813745,0.5161481,39.37358,4.150893,2.0322323,-0.6512483,-0.21990688,-0.80529624,-0.41772115,-0.7657243,-0.57270706,0.6366142,0.44558287,1.1164649,-0.82206804,-1.8810177,-1.1736284,2.1397116,1.6317488,-0.86226565,1.1382095,-0.7560009,-1.8480785,-1.1099516,2.1880026,1.572789,-0.9046534,-0.10986993,-1.4457959,-0.8602157,-1.3027049,-0.8944728,0.4695217,0.22185966,0.42144775,-0.598732,1.0845703,-2.8582747,-0.23507218,-2.830114,0.13162613,-0.52646255,0.855392,0.7959586,-0.07623401,0.11205224,0.5899852,0.04427301,-0.70201874,-1.2206606,1.0,0.0,0.0,0.0,0.0,0.0,0.0,-1.0714477,0.19873199,-0.5345703,-34.096123,0.19757748,9.268391,-5.28934,1.4341116,-0.2227962,1.9244105
-58.210594,39.22431,4.9065285,36.881817,3.778831,2.0331247,-0.5005154,-0.3036384,-0.8003938,-0.37046194,-0.76985145,-0.5805742,0.6368218,0.47624278,1.1078457,-0.83604026,-1.8851247,-1.1869367,2.1299453,1.6364712,-0.8570291,1.1348792,-0.77041185,-1.8558872,-1.123324,2.1792097,1.5774696,-0.90228254,-0.4055697,-1.440143,-0.755527,-1.347133,-0.87569404,0.4675252,0.24271807,0.39288712,-0.60108185,1.0555539,-2.8554168,-0.23483716,-2.92547,0.13100815,-0.5334091,0.8432444,0.7952819,-0.06760859,0.11214613,0.59192806,-0.09712489,-0.6843682,-1.2171746,1.0,0.0,0.0,0.0,0.0,0.0,0.0,-1.0428871,0.20108184,-0.5055539,-28.970474,0.3939867,10.089302,-3.9014816,1.4169455,-0.18925071,2.255127
-44.65764,36.550495,4.1393075,29.449703,2.8257916,1.2609055,-0.41821694,-0.33566126,-0.794126,-0.49961317,-0.775043,-0.61705685,0.62332314,0.50401163,1.1013131,-0.8498244,-1.9058485,-1.2008283,2.1175041,1.6398019,-0.8518814,1.1293365,-0.7847475,-1.8634784,-1.1370188,2.1704664,1.582114,-0.89970094,-0.6021936,-1.4318854,-0.76110685,-1.3750652,-0.87515444,0.46322647,0.26373145,0.36435318,-0.6034279,1.0255847,-2.8525617,-0.23460238,-3.0207312,0.12928009,-0.5402756,0.83098096,0.7949287,-0.058850877,0.11215049,0.5933356,-0.1989003,-0.6772812,-1.2330179,1.0,0.0,0.0,0.0,0.0,0.0,0.0,-1.0143532,0.20342788,-0.4755847,-19.210552,0.6667137,-0.8081198,-2.2872686,-0.3548622,-0.5393326,2.2286117
-33.093746,31.049074,2.079874,22.287483,2.0024323,0.50132036,-0.35285813,-0.36981314,-0.7972123,-0.6101811,-0.7820817,-0.64173627,0.6030081,0.5134753,1.0923551,-0.8644687,-1.9244965,-1.215227,2.1062927,1.6424148,-0.8483534,1.1224719,-0.79902875,-1.8719051,-1.1509005,2.1616163,1.5866973,-0.89692575,-0.71339583,-1.4273751,-0.87013745,-1.3909404,-0.88967395,0.45585844,0.28228572,0.33584976,-0.6057701,0.9946636,-2.8497095,-0.23436783,-3.115897,0.12679482,-0.54717255,0.8183729,0.7948586,-0.049674153,0.11226416,0.5942465,-0.2668979,-0.68328345,-1.2733638,1.0,0.0,0.0,0.0,0.0,0.0,0.0,-0.98584974,0.2057701,-0.44466358,-10.7865095,0.29058456,-11.003506,-1.1047602,-1.8566966,-0.98050237,1.9172192
-35.454845,23.877533,-1.972184,21.079247,2.063199,0.24956852,-0.45019773,-0.46619114,-0.80723315,-0.68991196,-0.7822312,-0.64073104,0.5757295,0.46166426,1.0758529,-0.87975204,-1.9408963,-1.2291236,2.0975432,1.6442703,-0.8507593,1.1146232,-0.81333387,-1.8818481,-1.1648546,2.1526098,1.5911853,-0.89402753,-0.8074812,-1.4322389,-1.0355021,-1.3949796,-0.90591466,0.44500238,0.29235402,0.30737305,-0.60811234,0.96279156,-2.8468602,-0.23413351,-3.2109673,0.123615265,-0.5542221,0.805235,0.7951271,-0.039850328,0.11255629,0.5945719,-0.3375533,-0.702808,-1.3306644,1.0,0.0,0.0,0.0,0.0,0.0,0.0,-0.957373,0.20811233,-0.41279155,-9.083414,-0.69379807,-16.527403,0.14369488,-2.1034837,-1.4577508,1.0290802
-45.818142,24.702702,-2.9375248,25.374035,2.7309759,0.71652186,-0.58290243,-0.59866947,-0.8055568,-0.7019607,-0.77250075,-0.6156066,0.58642197,0.43455195,1.0547563,-0.89388955,-1.9520441,-1.2421048,2.0910492,1.6498275,-0.85057235,1.1055633,-0.82769716,-1.8932788,-1.1787497,2.1435347,1.595576,-0.8910683,-0.9376381,-1.4385359,-1.1787652,-1.3856025,-0.9099703,0.43565774,0.2972524,0.27892685,-0.61045456,0.9299695,-2.8440137,-0.23389941,-3.3059428,0.11952591,-0.56147385,0.79157877,0.7958257,-0.029397681,0.112928614,0.5941753,-0.43621933,-0.7203731,-1.3810413,1.0,0.0,0.0,0.0,0.0,0.0,0.0,-0.9289268,0.21045455,-0.37996948,-12.6440525,-0.89433193,-14.279652,1.5647411,-0.9718895,-1.3501704,0.5319536
-55.501335,28.257786,-2.4680243,29.789124,3.5371704,1.2821677,-0.6992866,-0.7148455,-0.8038226,-0.7244736,-0.7651849,-0.51625365,0.5784161,0.3483058,1.0340787,-0.9080794,-1.9657261,-1.2552682,2.0919094,1.6534177,-0.8562377,1.0949184,-0.84211195,-1.9058483,-1.192494,2.1347456,1.5998752,-0.8881338,-1.1056035,-1.4434557,-1.2827687,-1.3684239,-0.8706241,0.42651618,0.29251787,0.25050735,-0.61278915,0.8961984,-2.84117,-0.23366556,-3.4008234,0.11423111,-0.5688591,0.77752054,0.79704636,-0.018452836,0.11311311,0.5929435,-0.56489694,-0.73305583,-1.4180459,1.0,0.0,0.0,0.0,0.0,0.0,0.0,-0.90050733,0.21278915,-0.34619838,-16.38937,-0.81021786,-10.329318,2.414298,3.2954097,-1.3652205,-0.36712885
-53.23653,36.79038,1.9152918,30.632269,3.6724687,1.6799932,-0.66522425,-0.7687946,-0.7998636,-0.7425397,-0.7373081,-0.459206,0.60046965,0.29946923,1.0180389,-0.9220983,-1.9801022,-1.2662249,2.088825,1.6599221,-0.8581869,1.082656,-0.85654104,-1.9191501,-1.2059542,2.1265402,1.6041114,-0.88528615,-1.265365,-1.4437668,-1.3459992,-1.3363122,-0.8060411,0.42131603,0.28272453,0.22211647,-0.61512375,0.8614792,-2.8383293,-0.23343194,-3.495609,0.1076355,-0.5762787,0.76322633,0.79877985,-0.007232916,0.112876534,0.5908953,-0.6962401,-0.7319046,-1.4373794,1.0,0.0,0.0,0.0,0.0,0.0,0.0,-0.87211645,0.21512374,-0.3114792,-15.615892,-0.3391266,-6.2536716,3.8656712,5.8689594,-0.9356022,-0.8140862
-41.948017,46.225456,8.077785,27.577797,3.3012924,1.8154857,-0.5256203,-0.79795897,-0.79428124,-0.7492187,-0.72865146,-0.368004,0.5797509,0.17392376,1.0028601,-0.9359692,-1.994072,-1.2788193,2.0897398,1.6620865,-0.86789376,1.06907,-0.8709301,-1.9328201,-1.2190977,2.119197,1.6082942,-0.88262445,-1.3887842,-1.4381876,-1.3738675,-1.3052633,-0.71167034,0.4160691,0.2613365,0.1937542,-0.61745834,0.8258129,-2.8354914,-0.23319855,-3.5902998,0.09987068,-0.58358,0.7488399,0.80092806,0.004066541,0.11201744,0.588175,-0.8082156,-0.71518975,-1.4431467,1.0,0.0,0.0,0.0,0.0,0.0,0.0,-0.8437542,0.21745834,-0.27581286,-12.072182,0.31003952,-2.7497053,3.6394835,8.980751,-0.86723566,-1.9211292
-31.228113,51.20185,12.497977,24.399815,3.4209208,1.7549558,-0.46183267,-0.821028,-0.7972617,-0.75954,-0.71586126,-0.052673444,0.5330288,-0.11091017,0.9869672,-0.95065624,-2.008774,-1.2906839,2.1139295,1.6615971,-0.89371544,1.0545608,-0.88527143,-1.9466255,-1.2319514,2.1136312,1.612397,-0.8803757,-1.4708625,-1.4334021,-1.3827063,-1.2772939,-0.5061227,0.4073809,0.21380411,0.16542053,-0.6197891,0.78920037,-2.8326564,-0.23296541,-3.684896,0.091070175,-0.5907097,0.73446155,0.80345756,0.015300367,0.11003554,0.5849051,-0.90924656,-0.6972958,-1.4399465,1.0,0.0,0.0,0.0,0.0,0.0,0.0,-0.8154205,0.21978912,-0.23920035,-8.02331,0.2875328,-0.8622408,3.2188177,20.239485,-1.1771142,-4.430434
-26.750313,56.37064,15.866472,26.110554,4.14485,1.7839671,-0.5983241,-0.83427006,-0.7915989,-0.7776277,-0.6233833,0.32196817,0.5104088,-0.36585942,0.97113377,-0.96443135,-2.0243883,-1.2942897,2.145828,1.6634378,-0.9169616,1.0395137,-0.899547,-1.9605033,-1.2441794,2.1110678,1.6164043,-0.8787697,-1.5157042,-1.42617,-1.389251,-1.2036988,-0.17362787,0.39736333,0.14420249,0.13711548,-0.6221161,0.7516426,-2.8298242,-0.2327325,-3.7793977,0.081207275,-0.59773254,0.72025955,0.8064845,0.026247554,0.106346264,0.58102006,-1.0177025,-0.6874678,-1.417341,0.0,1.0,0.0,0.0,0.0,0.0,0.0,-0.78711545,0.22211608,-0.20164257,-4.381275,0.5630493,-0.5608082,7.671833,33.06258,-1.2919605,-6.5620275
-22.044794,60.107697,17.897243,25.715164,3.6863146,1.7838635,-0.64497125,-0.8457571,-0.78813225,-0.79296196,-0.560674,0.30615738,0.5098374,-0.43246183,0.954938,-0.9783602,-2.0397995,-1.3002467,2.1416836,1.6673881,-0.9220159,1.0241792,-0.913694,-1.9749151,-1.2556827,2.1114824,1.6203929,-0.8778191,-1.5419179,-1.4039747,-1.5210913,-1.1646407,0.11082153,0.3835853,0.08546139,0.1138916,-0.62457275,0.72751033,-1.5681812,-0.17711347,0.1748398,0.07034874,-0.6046562,0.7061523,0.8100441,0.03696703,0.10109005,0.576405,-1.1101004,-0.68729657,-1.4363618,0.0,1.0,0.0,0.0,0.0,0.0,0.0,-0.7638916,0.22457275,-0.17751032,-3.1687498,3.5057306,-25.134897,-2.140832,29.071596,-2.1502256,-4.3110414
46.391872,176.0,110.0,110.0,2.1517034,12.618465,-1.5525934,-0.7730006,0.4926112,0.6975322,0.70748955,-0.3472702,0.6914182,-0.3980973,0.94687915,-0.86443293,-1.905162,-1.1849338,2.0767553,1.6895348,-0.9176288,1.0129002,-0.93009317,-1.9837244,-1.2530719,2.1019435,1.6333978,-0.8760499,-0.98376256,-1.6762153,-0.72683406,0.7221721,-1.2461247,1.6444359,0.2255566,0.098472595,-0.6262512,0.7298023,-1.5666134,-0.1769364,0.07541395,0.058835983,-0.6096573,0.69611853,0.8138494,0.037484977,0.099993564,0.5711789,-1.170107,-0.41889057,-0.8600689,0.0,1.0,0.0,0.0,0.0,0.0,0.0,-0.7484726,0.22625121,-0.1798023,57.582676,-14.335179,60.157944,183.65326,-117.12212,136.77574,19.540373
-3.877165,176.0,91.88144,87.95488,4.970153,6.5230856,-1.4402058,-0.78512436,-0.6427513,0.34066543,0.74828815,-0.52992016,0.6304899,-0.30941656,0.9343878,-0.9943683,-1.9496578,-1.178243,2.0489514,1.6964468,-0.90699154,1.0032681,-0.94685495,-1.9844491,-1.2390949,2.0868182,1.6495702,-0.87442863,-0.9551356,-1.676215,0.14733195,1.6232463,-1.6042296,1.6144321,0.14304371,0.08281708,-0.62802124,0.72981143,-1.5650471,-0.17675951,-0.023912605,0.046613693,-0.61299133,0.69105756,0.81831753,0.030253315,0.10132088,0.5649559,-1.2388328,-0.29221857,-0.39281344,0.0,1.0,0.0,0.0,0.0,0.0,0.0,-0.73281705,0.22802123,-0.17981142,3.2211423,0.0,87.927376,90.20884,-36.773014,-1.1110544,-7.6182785
-35.74946,136.81586,44.91239,57.19684,3.717234,3.0372229,-1.3378646,-0.75788194,-0.5903263,-0.23220246,0.66199577,-0.60517085,0.65017754,-0.16936812,0.9274799,-1.0058876,-2.0076694,-1.1728953,2.0263011,1.7145879,-0.89136547,0.9931493,-0.9620956,-1.9817522,-1.22042,2.07093,1.6648805,-0.87330043,-1.0291318,-1.4743215,0.31059048,1.9505608,-1.5857928,1.5063678,0.10305663,0.06717682,-0.62978745,0.728828,-1.5634824,-0.1765828,-0.12313985,0.03361702,-0.6155205,0.68873537,0.8235661,0.020681387,0.10368759,0.557279,-1.3204206,-0.23104498,-0.18644884,0.0,1.0,0.0,0.0,0.0,0.0,0.0,-0.7171768,0.22978744,-0.178828,-6.908214,19.871975,16.336542,33.235287,1.1670828,-9.881735,-3.911975
-20.22575,134.66406,45.70782,35.67202,2.103709,2.5166988,-0.44318244,-0.74850374,-0.5555118,0.27419925,0.7516067,-0.62824696,0.6102532,-0.07129574,0.9182989,-1.0176468,-1.9543322,-1.1452594,2.0081053,1.7259059,-0.88043,0.98188925,-0.9750589,-1.9771707,-1.2010509,2.0563235,1.6787374,-0.8724879,-1.1575112,-1.2380763,0.507268,1.9327431,-1.4216214,1.3475628,0.07387833,0.051553726,-0.63154984,0.72685313,-1.5619192,-0.17640626,-0.2222679,0.02022171,-0.6172104,0.6880815,0.82912266,0.010624066,0.10633383,0.5487585,-1.3472872,-0.14046998,-0.033725377,0.0,1.0,0.0,0.0,0.0,0.0,0.0,-0.7015537,0.23154983,-0.17685312,-12.606573,23.297047,19.666218,-1.6080141,15.590501,-15.192938,-2.955918
-17.038612,89.33681,24.8336,16.102087,0.90378904,0.95371777,-0.056336477,-0.7525278,-0.5792578,0.17161289,0.7249523,-0.633708,0.6195892,-0.07376003,0.9066365,-1.0329847,-1.9600095,-1.1285557,1.9929527,1.7406963,-0.8798639,0.96944475,-0.98616254,-1.9720113,-1.1832248,2.043529,1.6910894,-0.87192047,-1.2734054,-1.0683352,0.5181629,1.7324797,-1.2332816,1.1994244,0.050709646,0.0359478,-0.6333122,0.7238877,-1.5603577,-0.1762299,-0.32129687,0.0067310333,-0.6182709,0.68799525,0.83467,0.001272929,0.108810425,0.5398931,-1.3518248,-0.08526116,-0.007955763,0.0,1.0,0.0,0.0,0.0,0.0,0.0,-0.6859478,0.23331222,-0.17388767,-11.561775,16.804218,0.8986592,-19.988655,18.506168,-14.360094,-2.4258456
-1.0961604,81.12495,24.38908,8.064341,0.00079262257,0.41757938,0.19162548,-0.7308629,-0.511645,0.2534239,0.7407956,-0.6337612,0.6191551,-0.1550648,0.8963585,-1.037327,-1.946669,-1.1091453,1.980153,1.7530049,-0.887427,0.9562354,-0.995849,-1.9668443,-1.167514,2.0323482,1.70211,-0.8716134,-1.3370024,-0.9358746,0.51614845,1.5170304,-1.0814587,1.0706007,0.02358455,0.020357132,-0.6350746,0.7199327,-1.5587976,-0.17605369,-0.4202268,-0.006542206,-0.6188202,0.68799764,0.8400352,-0.0070520956,0.11103791,0.5310005,-1.3216329,-0.036140814,-0.0032707162,0.0,1.0,0.0,0.0,0.0,0.0,0.0,-0.6703571,0.23507461,-0.16993266,-6.45082,13.093638,-0.20107031,-21.586847,14.795041,-12.531495,-2.84678
1.998599,59.855457,16.717196,4.919541,0.00073087215,-0.22417617,0.17399451,-0.72751224,-0.5250458,0.21193977,0.739157,-0.60239124,0.6233218,-0.17927155,0.8834842,-1.0483536,-1.9456503,-1.0935982,1.9721091,1.7644422,-0.88954055,0.9427297,-1.0047475,-1.9622177,-1.1536341,2.0222654,1.711584,-0.87158036,-1.3552924,-0.8746832,0.4432086,1.344323,-0.9845816,0.9061058,-0.0038313605,0.0035362244,-0.6344147,0.72099596,-1.7201755,0.15825687,0.33467966,-0.0194664,-0.61917114,0.68771356,0.845222,-0.014008965,0.11304477,0.5221343,-1.2845079,-0.025957607,-0.04200293,0.0,1.0,0.0,0.0,0.0,0.0,0.0,-0.6535362,0.23441467,-0.17099595,-2.0989895,5.8662295,-4.8246503,-16.228056,11.1196995,-10.510885,-2.6953788
-3.5294173,98.69071,29.425121,17.632664,0.3612056,0.51397264,-0.15829237,-0.78588486,-0.25727347,0.18828836,0.7536283,-0.54,0.6052143,-0.25320503,0.8641412,-1.0304749,-1.9433888,-1.0782713,1.9682654,1.7721055,-0.8969009,0.92895865,-1.0121652,-1.9582561,-1.1407785,2.013133,1.7199553,-0.87183976,-1.384537,-0.6980247,0.38054794,1.2661089,-0.89060944,0.8153663,-0.0337309,-0.0136528015,-0.6328354,0.7235958,-1.7184557,0.15809865,0.23509388,-0.03211975,-0.61911774,0.6876881,0.85036093,-0.020124014,0.11531523,0.51301426,-1.2601264,0.023193935,0.006718158,0.0,1.0,0.0,0.0,0.0,0.0,0.0,-0.6363472,0.23283538,-0.17359579,-2.9644728,17.504883,-6.210923,-7.7477455,9.068478,-8.754897,-3.122968
-8.337235,92.176125,26.66412,20.584372,0.9180207,0.46570915,-0.29018596,-0.7902663,-0.26756084,0.15097657,0.74899745,-0.48666322,0.59345543,-0.26305786,0.849932,-1.0389212,-1.9431585,-1.0658787,1.9644667,1.7793009,-0.89814556,0.91495395,-1.0180722,-1.9549545,-1.1282434,2.0048704,1.7275695,-0.8723738,-1.4057971,-0.5552364,0.31360802,1.2495273,-0.8054765,0.74409145,-0.06022206,-0.030824661,-0.6312561,0.72520053,-1.7167376,0.15794058,0.13560767,-0.044672012,-0.61866,0.68812823,0.8555493,-0.025759537,0.11797523,0.5034418,-1.2540395,0.062181517,0.053416125,0.0,1.0,0.0,0.0,0.0,0.0,0.0,-0.6191753,0.2312561,-0.17520052,-2.1309137,14.132285,-6.6271963,-1.5400887,8.2404375,-6.9115043,-2.7284033
-16.392897,81.42256,19.893782,22.157408,1.0588974,0.19188511,-0.4253218,-0.8006205,-0.20591153,-0.021105703,0.75080436,-0.49321505,0.5743945,-0.21135843,0.8348919,-1.0386634,-1.9570651,-1.053163,1.9555489,1.7850089,-0.8935097,0.9007585,-1.0226499,-1.9529575,-1.1155958,1.9972486,1.7345675,-0.8731034,-1.4239852,-0.42557427,0.16173896,1.2702352,-0.7482592,0.68568933,-0.07749136,-0.047979355,-0.6296768,0.7258111,-1.7150213,0.15778267,0.036220938,-0.05727005,-0.6179123,0.6888648,0.8608688,-0.030765735,0.12120251,0.4932224,-1.2621357,0.08707429,0.077918515,0.0,1.0,0.0,0.0,0.0,0.0,0.0,-0.6020206,0.22967681,-0.17581111,-1.7980576,12.837357,-15.186673,2.21982,5.578816,-5.6910634,-1.8141627
-20.730062,74.01664,14.765398,22.49905,0.90774345,-0.10057342,-0.51677686,-0.7986035,-0.12435138,-0.1974406,0.7735966,-0.5110656,0.56238735,-0.22798306,0.8208982,-1.035085,-1.9727015,-1.0382361,1.9461421,1.7908063,-0.8959017,0.8864534,-1.0259439,-1.953133,-1.1025515,1.9899664,1.7410487,-0.8739903,-1.4326556,-0.29785287,-0.07751762,1.3163319,-0.72180784,0.63609254,-0.09296795,-0.06511688,-0.62809753,0.72542566,-1.7133065,0.15762492,-0.06346018,-0.06997681,-0.6170006,0.6896972,0.8663712,-0.03484996,0.12529641,0.48216927,-1.2737062,0.10131315,0.082883805,0.0,1.0,0.0,0.0,0.0,0.0,0.0,-0.5848831,0.22809753,-0.17542565,-0.83811283,12.639588,-23.954979,4.752016,2.572143,-4.8716664,-1.67934
-25.026388,48.805466,4.77689,18.944977,1.0254457,-0.47049308,-0.4972231,-0.80518436,-0.16390385,-0.3298569,0.7793186,-0.47525904,0.5708091,-0.23831353,0.80593497,-1.0423343,-1.9861187,-1.0246196,1.9424405,1.7981296,-0.89782166,0.87208295,-1.028492,-1.9560093,-1.0890567,1.9829865,1.7471563,-0.87501836,-1.4382159,-0.24039634,-0.36385107,1.3588642,-0.67734426,0.6128789,-0.1063863,-0.081783295,-0.62659836,0.7247443,-1.5555732,0.13841064,0.09575327,-0.08293724,-0.61610794,0.6902255,0.8720773,-0.03775637,0.13013108,0.4702357,-1.3046011,0.09513072,0.039524496,0.0,1.0,0.0,0.0,0.0,0.0,0.0,-0.5682167,0.22659835,-0.17474431,-0.4720688,5.712697,-29.663319,4.076123,6.5324664,-0.54392815,-1.4447079
-12.223159,61.492527,13.580693,16.920069,0.82855177,-0.09794557,-0.27994668,-0.78711414,-0.10700035,-0.25814876,0.78998196,-0.45580345,0.6016516,-0.28530264,0.79337156,-1.039192,-1.9818242,-1.0100585,1.9374061,1.8073214,-0.9035486,0.85776734,-1.0305405,-1.9608234,-1.0751979,1.9763662,1.7530271,-0.876198,-1.4293555,-0.19335276,-0.5200053,1.395207,-0.6572268,0.57874256,-0.122329675,-0.097415924,-0.62495804,0.7256207,-1.5630171,0.17010835,0.08446052,-0.09603691,-0.615139,0.6905395,0.87784576,-0.039816603,0.13544102,0.45766485,-1.3107436,0.10687505,0.027844068,0.0,1.0,0.0,0.0,0.0,0.0,0.0,-0.55258405,0.22495803,-0.17562068,0.87373257,4.5549273,-15.453249,3.6779642,1.8932223,-3.3425212,-1.7471061
-9.638648,50.357124,11.525119,13.429366,0.9554702,-0.06528854,-0.13649209,-0.7963341,-0.15819511,-0.3017828,0.78051436,-0.4168001,0.6084187,-0.28809634,0.7781339,-1.04636,-1.9910017,-0.9971465,1.9346862,1.813869,-0.9050076,0.84351367,-1.0325508,-1.9666885,-1.0611368,1.9700162,1.7586254,-0.87752366,-1.4241211,-0.20416355,-0.60804343,1.4100153,-0.6283984,0.5532223,-0.13630179,-0.11297417,-0.62314606,0.7262543,-1.5534574,0.1851409,0.056581065,-0.109233856,-0.6140709,0.6906239,0.88356364,-0.04126048,0.14088689,0.4447063,-1.321387,0.11601316,0.0013032402,0.0,1.0,0.0,0.0,0.0,0.0,0.0,-0.5370258,0.22314605,-0.17625427,0.50816536,-1.205638,-8.5909,1.5177965,2.66999,-2.6675105,-1.5010476
-2.9060326,60.630386,17.255297,12.892462,0.8773789,0.1977486,-0.0033866763,-0.78906906,-0.12340283,-0.28962842,0.7852481,-0.40230986,0.61129713,-0.26600295,0.7646068,-1.0448911,-1.9956514,-0.982612,1.9297853,1.8197551,-0.90412396,0.8293296,-1.0346394,-1.9728663,-1.0470052,1.9639256,1.7639962,-0.8789561,-1.4168398,-0.21095245,-0.6197607,1.4141773,-0.6037569,0.53114414,-0.14588882,-0.128376,-0.6211357,0.726784,-1.5355027,0.20757781,0.052373413,-0.12244415,-0.6128235,0.6905999,0.8891293,-0.042373843,0.14628501,0.4315717,-1.3192261,0.13842861,-0.0039881608,0.0,1.0,0.0,0.0,0.0,0.0,0.0,-0.52162397,0.2211357,-0.17678398,0.6494045,-0.83049536,-0.7837653,0.39486885,2.0955682,-2.339065,-1.0767698
1.1243069,69.92469,21.516956,13.06179,0.82690597,0.40033937,0.069461584,-0.7885009,-0.10170035,-0.27240497,0.7808823,-0.39725572,0.6084537,-0.27377388,0.7504795,-1.0448093,-2.0001068,-0.96891695,1.9242,1.8248416,-0.90633345,0.8152019,-1.036705,-1.9788036,-1.032908,1.9580448,1.7691739,-0.8804737,-1.4117851,-0.2057104,-0.5833611,1.4078709,-0.5844244,0.5125727,-0.15419462,-0.14354515,-0.61885834,0.72741145,-1.5104371,0.23596215,0.067031115,-0.13555908,-0.6112671,0.69065124,0.8944673,-0.04340366,0.15160002,0.41840395,-1.3069186,0.17124379,0.007894551,0.0,1.0,0.0,0.0,0.0,0.0,0.0,-0.5064548,0.21885833,-0.17741144,0.38046837,0.3502518,4.1545033,-0.6944895,1.4503956,-2.0017624,-0.9627551
3.696539,74.14709,23.359753,12.93607,0.7923893,0.46556234,0.113289684,-0.78331786,-0.09908475,-0.25244,0.7776788,-0.39344284,0.60881746,-0.26525313,0.7368701,-1.0466135,-2.0040476,-0.9551401,1.9187005,1.8300556,-0.906999,0.8011304,-1.0386848,-1.9842011,-1.0189099,1.9523169,1.7741905,-0.8820565,-1.4061054,-0.19615082,-0.5232796,1.3968012,-0.57049495,0.4973654,-0.16010983,-0.158432,-0.6162796,0.72824436,-1.4810631,0.26681226,0.08963809,-0.14850426,-0.60935974,0.69087654,0.8995363,-0.04448918,0.15682912,0.4052896,-1.2882291,0.20788646,0.0270966,0.0,1.0,0.0,0.0,0.0,0.0,0.0,-0.49156797,0.2162796,-0.17824435,0.4226923,0.7759005,6.581378,-1.1894464,0.8593559,-1.6639173,-0.7280469
-1.4331948,65.93173,19.081963,13.048383,0.95395553,0.32958654,0.069083326,-0.794038,-0.118506975,-0.28968388,0.7725476,-0.35950065,0.58966124,-0.2425141,0.7217266,-1.0505356,-2.0131695,-0.94165516,1.9163668,1.8331567,-0.9063079,0.7870523,-1.0406666,-1.9892343,-1.0050339,1.9467833,1.7790604,-0.88367295,-1.4087121,-0.19934058,-0.49528456,1.3843862,-0.54894465,0.48298788,-0.16241808,-0.17307281,-0.61343,0.7291638,-1.4575661,0.29275596,0.0936868,-0.16134644,-0.60713196,0.6911753,0.9043681,-0.04554374,0.16193771,0.3921992,-1.2809105,0.23723105,0.030487403,0.0,1.0,0.0,0.0,0.0,0.0,0.0,-0.47692716,0.21343002,-0.17916381,-0.3652811,-0.47571063,3.2699108,-1.2836456,1.7018199,-1.495266,-0.3588766
-3.280049,67.734146,18.843517,14.115901,1.0095613,0.33185682,0.041437622,-0.79594725,-0.09921402,-0.28188175,0.7731065,-0.3530983,0.58882606,-0.22837132,0.70745754,-1.050588,-2.0174224,-0.92772317,1.9114735,1.837943,-0.9065101,0.77292454,-1.0426121,-1.994094,-0.99125373,1.941455,1.7838024,-0.88529414,-1.4144197,-0.19354081,-0.4814338,1.375854,-0.5288607,0.47074652,-0.16239575,-0.18747139,-0.6103134,0.73013234,-1.4333826,0.3192967,0.09897433,-0.17412949,-0.6046066,0.69152176,0.908984,-0.04650827,0.16697203,0.37908494,-1.2749833,0.267769,0.03571107,0.0,1.0,0.0,0.0,0.0,0.0,0.0,-0.4625286,0.21031341,-0.18013233,-0.66792965,0.41633844,1.8488705,-0.8816242,1.5788198,-1.3708115,-0.10675192
-9.269226,54.39544,12.622854,13.38639,1.0541071,0.11378884,-0.0057555437,-0.8048332,-0.13102275,-0.34805027,0.7672935,-0.3288816,0.57120407,-0.20416707,0.6924412,-1.0557144,-2.028899,-0.9145244,1.9085668,1.8409228,-0.9057108,0.7587024,-1.0446472,-1.9992224,-0.9775492,1.9363538,1.788424,-0.88689417,-1.4249793,-0.2072692,-0.52221066,1.3687981,-0.5048151,0.45885015,-0.15944265,-0.20169449,-0.606987,0.73094463,-1.4182066,0.33814514,0.07686124,-0.18695259,-0.6018524,0.69173497,0.9134292,-0.04717569,0.17194085,0.36586583,-1.2824804,0.28757808,0.016296053,0.0,1.0,0.0,0.0,0.0,0.0,0.0,-0.4483055,0.206987,-0.18094462,-1.0996342,-1.5033513,-3.7674546,-0.6845474,2.1172762,-1.320535,0.21103024
-5.925562,68.585,17.101366,15.1381445,0.932529,0.19913876,0.015050452,-0.7936436,-0.065327354,-0.34996545,0.775534,-0.32394952,0.55216235,-0.14183308,0.67933804,-1.05118,-2.034219,-0.8999958,1.9039588,1.8436402,-0.90107745,0.744438,-1.0465221,-2.0048137,-0.96385527,1.9314728,1.7929249,-0.88841784,-1.4272172,-0.18159156,-0.5699802,1.3694463,-0.48378116,0.44675276,-0.15047778,-0.21569252,-0.60342026,0.73171484,-1.3931675,0.36318684,0.07886425,-0.19975471,-0.5988426,0.69191915,0.9176803,-0.047521386,0.17699924,0.35252762,-1.2767404,0.31548604,0.018808154,0.0,1.0,0.0,0.0,0.0,0.0,0.0,-0.43430746,0.20342025,-0.18171483,-0.31442642,2.3961067,-4.3477654,0.035357475,1.7001271,-1.3438642,0.7554412
-5.8942785,57.278625,13.542222,13.083485,0.92936456,0.05169916,0.028796725,-0.79106224,-0.12886313,-0.36024168,0.77744085,-0.3209807,0.55628145,-0.15402447,0.6653318,-1.0594084,-2.0408378,-0.8861112,1.8993747,1.8485531,-0.9038203,0.730189,-1.0484142,-2.0108593,-0.9501231,1.9267572,1.797321,-0.88986284,-1.4243379,-0.19220011,-0.6146532,1.3743976,-0.46832007,0.43687773,-0.14292635,-0.22948265,-0.5996475,0.7323524,-1.3734708,0.38228732,0.060820825,-0.2125473,-0.59560776,0.6919911,0.92173576,-0.047531247,0.18209493,0.33909476,-1.2766888,0.33489007,0.0033159263,0.0,1.0,0.0,0.0,0.0,0.0,0.0,-0.42051733,0.19964752,-0.18235236,0.22234917,-1.2008518,-4.096794,0.48799515,1.2129605,-1.1183441,0.64229965
-8.461239,49.23912,9.974644,12.139696,0.7711102,-0.089172184,0.05982388,-0.79662746,-0.14992148,-0.4278407,0.7754157,-0.36827484,0.5466662,-0.08526062,0.6505263,-1.0634063,-2.0536432,-0.8725815,1.8899298,1.8519876,-0.8983889,0.7159545,-1.0505525,-2.0175455,-0.9363451,1.9220052,1.8016256,-0.8911904,-1.4232074,-0.22142772,-0.6855126,1.3789827,-0.47817668,0.42796022,-0.129673,-0.24310875,-0.5957222,0.7326639,-1.3581334,0.39646086,0.024011375,-0.22536659,-0.59223557,0.6917702,0.92559385,-0.04705025,0.18724866,0.3255767,-1.2806418,0.34769505,-0.03052071,0.0,1.0,0.0,0.0,0.0,0.0,0.0,-0.40689123,0.19572219,-0.18266392,0.0767231,-3.0451984,-6.789291,0.48241615,-1.2493432,-1.0006368,1.2154967
-9.864935,44.460804,8.108976,11.558502,0.75950086,-0.14169288,0.07492179,-0.7987641,-0.17155842,-0.46109986,0.77673364,-0.36866558,0.52590597,-0.053364046,0.63607806,-1.0677084,-2.0636554,-0.8586717,1.8851386,1.8542162,-0.8965268,0.70171803,-1.0530797,-2.0249755,-0.9225232,1.9171153,1.8058363,-0.89236945,-1.4238175,-0.26351836,-0.7612031,1.3834058,-0.49314722,0.4183818,-0.1143257,-0.25660515,-0.5916748,0.73253435,-1.3456761,0.40797552,-0.022398345,-0.23825645,-0.5887604,0.6911465,0.9292547,-0.045977443,0.19245459,0.31198236,-1.2884617,0.35787356,-0.07286972,0.0,1.0,0.0,0.0,0.0,0.0,0.0,-0.39339483,0.1916748,-0.18253434,-0.08127689,-4.3239236,-7.3016047,0.48942566,-1.7344713,-1.069808,1.4339477
-9.276838,38.70694,6.4779444,10.155082,0.7047665,-0.19594127,0.11378527,-0.7923801,-0.21663493,-0.48785773,0.7809522,-0.38383076,0.532203,-0.008397208,0.62248003,-1.0747433,-2.0737612,-0.844428,1.8787322,1.8590566,-0.89320916,0.68750256,-1.0561734,-2.0331151,-0.9086469,1.9120346,1.8099656,-0.89337385,-1.4208331,-0.32504573,-0.8310862,1.389233,-0.51345617,0.4107547,-0.096076615,-0.26999664,-0.58753586,0.7318611,-1.3359556,0.41640428,-0.07924315,-0.25123978,-0.5852089,0.6900291,0.93271464,-0.044286553,0.19764848,0.29835734,-1.2982519,0.36468026,-0.12469512,0.0,1.0,0.0,0.0,0.0,0.0,0.0,-0.38000333,0.18753585,-0.1818611,0.2916813,-6.2539997,-6.747544,0.65305233,-2.2393823,-0.87289214,1.7385483
-10.170641,26.141386,2.6489873,7.6827545,0.6607593,-0.3291673,0.17259325,-0.79141897,-0.29412058,-0.5306399,0.77664953,-0.3843058,0.5045336,0.08864126,0.60836065,-1.0855855,-2.0861793,-0.8309819,1.873604,1.8604189,-0.88450974,0.67332333,-1.0601426,-2.0419605,-0.894738,1.9067732,1.8140079,-0.89413774,-1.41682,-0.42108896,-0.9018857,1.3917371,-0.53078294,0.40184346,-0.070032306,-0.28335,-0.5833626,0.73044527,-1.3352801,0.4184206,-0.15876226,-0.26438522,-0.58164215,0.68823755,0.9359856,-0.041905317,0.20267543,0.28477597,-1.31635,0.36411884,-0.19721247,0.0,1.0,0.0,0.0,0.0,0.0,0.0,-0.36665,0.18336257,-0.18044525,0.43637753,-9.673082,-6.9473505,0.38068295,-1.8494844,-0.9876251,2.5592878
-8.861412,26.51891,2.8843026,7.1378307,0.5394944,-0.3118837,0.22353375,-0.7842542,-0.3280801,-0.5625387,0.7832941,-0.42852452,0.5013498,0.17013243,0.5948979,-1.0929507,-2.0982144,-0.81640863,1.8639208,1.8641429,-0.8771245,0.6592118,-1.0650827,-2.0514743,-0.88078654,1.9012465,1.817967,-0.8945987,-1.409095,-0.5185915,-0.96762425,1.3966635,-0.5602563,0.39364114,-0.038227014,-0.29668427,-0.5791702,0.72822934,-1.3319302,0.42046744,-0.23861888,-0.27768326,-0.5780754,0.68571913,0.93905383,-0.038809095,0.20752016,0.2713061,-1.3309262,0.36434516,-0.27019376,0.0,1.0,0.0,0.0,0.0,0.0,0.0,-0.3533157,0.17917022,-0.17822933,0.80411434,-9.824848,-6.421733,0.63796043,-3.0840755,-0.92330575,3.1375482
-10.290849,9.842881,-1.9445075,3.8190885,0.46579686,-0.46511698,0.29094878,-0.7840381,-0.449483,-0.5979831,0.7750416,-0.4299082,0.4553907,0.27688846,0.580808,-1.110031,-2.1112726,-0.8032824,1.8582557,1.8635061,-0.86690986,0.6451728,-1.0713369,-2.061629,-0.86682665,1.8954654,1.821818,-0.89468265,-1.4018996,-0.6609306,-1.0318538,1.3966534,-0.58421975,0.38172892,0.0017473534,-0.30999374,-0.57496643,0.72509277,-1.3305985,0.42004704,-0.33865955,-0.2912178,-0.5745697,0.682267,0.94194174,-0.034916196,0.212,0.25803572,-1.3572111,0.35603794,-0.37032157,0.0,1.0,0.0,0.0,0.0,0.0,0.0,-0.34000623,0.17496642,-0.17509276,0.8149624,-14.266264,-6.4417243,0.2503395,-2.365911,-1.2880206,4.0327606
-4.199514,19.070187,2.3257983,3.5838017,0.64568454,-0.28533864,0.33200258,-0.76698214,-0.48673955,-0.55433154,0.7727833,-0.36723316,0.4802533,0.33648235,0.56847453,-1.1200109,-2.117062,-0.78954834,1.858742,1.8698434,-0.8610344,0.6312644,-1.0789338,-2.0720394,-0.8528906,1.8896785,1.8255736,-0.8943536,-1.3869928,-0.7927855,-1.0437971,1.3933117,-0.57711744,0.3729185,0.043560058,-0.32328987,-0.57077026,0.72095656,-1.3292682,0.41962707,-0.43860015,-0.3049469,-0.5710945,0.6779528,0.944661,-0.030444205,0.21591711,0.24508871,-1.3743732,0.35605568,-0.4521719,0.0,1.0,0.0,0.0,0.0,0.0,0.0,-0.3267101,0.17077026,-0.17095655,1.5281439,-13.238871,-1.0530949,-0.12598038,0.5982995,-1.0355353,4.232419
-6.1949525,13.995733,1.0146121,2.7492206,0.8215877,-0.23495209,0.32072002,-0.7797941,-0.5856922,-0.55480754,0.7549758,-0.33385736,0.42926463,0.34537157,0.553285,-1.137503,-2.12752,-0.77739304,1.8562927,1.8685,-0.8598165,0.6174275,-1.087967,-2.082404,-0.83906996,1.8841186,1.8292109,-0.8936355,-1.3823605,-0.9404159,-1.0340799,1.3792212,-0.5492626,0.36023557,0.081645146,-0.33657265,-0.5665779,0.7158217,-1.3279392,0.4192075,-0.5384409,-0.31890488,-0.56759644,0.67277294,0.9472591,-0.025534526,0.21905394,0.23251517,-1.3990277,0.35874954,-0.54083437,0.0,1.0,0.0,0.0,0.0,0.0,0.0,-0.31342733,0.1665779,-0.16582167,0.52757263,-14.809179,1.0658741,-1.1338234,2.703023,-1.4538646,3.9304235
1.7377591,26.74128,6.1213884,2.6554468,0.7898356,-0.03485495,0.3691725,-0.7530753,-0.62827486,-0.49041817,0.7562435,-0.3417405,0.45994782,0.41626117,0.54212,-1.1507945,-2.1314456,-0.7634456,1.8499445,1.8752056,-0.8520094,0.6037242,-1.098324,-2.0922916,-0.8253828,1.8788047,1.8327547,-0.8925283,-1.3663884,-1.0679044,-0.9730636,1.3658755,-0.52630806,0.35176715,0.12077974,-0.34984207,-0.5623894,0.70968914,-1.3266115,0.4187884,-0.63818175,-0.3329754,-0.56401825,0.66687536,0.9497328,-0.020430643,0.22137834,0.22041307,-1.405102,0.36877358,-0.60746145,0.0,1.0,0.0,0.0,0.0,0.0,0.0,-0.3001579,0.16238937,-0.15968913,1.582694,-12.81929,6.407237,-1.1481762,2.0250082,-1.0537326,4.014011
4.2449007,28.744314,6.8982162,1.480854,0.660904,0.018520355,0.40934923,-0.75210726,-0.6964335,-0.4712587,0.7204568,-0.32351783,0.4250553,0.4420039,0.52851343,-1.1679673,-2.1394174,-0.75333714,1.846453,1.8752602,-0.8483279,0.59016484,-1.1099015,-2.1014926,-0.8119675,1.8737254,1.8361994,-0.89105105,-1.3524787,-1.1877373,-0.9013623,1.3340164,-0.50292295,0.3414529,0.15702996,-0.36309814,-0.55820465,0.70255995,-1.3252852,0.4183697,-0.73782283,-0.34705162,-0.56033707,0.6603198,0.95208687,-0.01523138,0.22287884,0.20886274,-1.4036436,0.3797068,-0.67307174,0.0,1.0,0.0,0.0,0.0,0.0,0.0,-0.28690183,0.15820464,-0.15255994,1.3598919,-12.055421,7.507932,-3.018713,2.020681,-1.2410223,3.7296267
6.603363,38.92546,9.248279,2.4036956,0.48338854,0.08021134,0.41156352,-0.7387749,-0.71642876,-0.4741134,0.70609623,-0.33484802,0.39588422,0.4614256,0.5162873,-1.1815444,-2.148904,-0.74135786,1.8402406,1.8757879,-0.8449085,0.57677144,-1.1224216,-2.1101308,-0.79891515,1.8687985,1.83955,-0.8892515,-1.3351483,-1.2739148,-0.85015124,1.2960397,-0.49024883,0.331928,0.18797232,-0.37631226,-0.55397797,0.69510496,-1.3165487,0.42459214,-0.75068265,-0.36101723,-0.5565338,0.6531981,0.9543072,-0.009919071,0.22371602,0.19786471,-1.3890681,0.39262706,-0.7272491,0.0,1.0,0.0,0.0,0.0,0.0,0.0,-0.27368772,0.15397796,-0.14510494,1.6602039,-8.718967,5.668199,-3.620243,0.91952085,-1.3388455,3.2574415
6.6112328,49.250633,11.2802725,4.432937,0.4735452,0.16177583,0.36900088,-0.73055595,-0.73180467,-0.47024417,0.6941352,-0.32872382,0.39179087,0.46125564,0.5037159,-1.195602,-2.1571553,-0.7295016,1.835926,1.8787291,-0.8431259,0.56355065,-1.1355575,-2.118412,-0.7862252,1.8639815,1.8427943,-0.88717073,-1.3179759,-1.3272755,-0.8192322,1.2602407,-0.48027742,0.3213286,0.21469048,-0.38928986,-0.5496788,0.6872586,-1.2905773,0.43199396,-0.79394543,-0.37478447,-0.55257034,0.6456445,0.95638114,-0.004461828,0.22407848,0.18736078,-1.3671032,0.40889886,-0.7670275,0.0,1.0,0.0,0.0,0.0,0.0,0.0,-0.26071012,0.1496788,-0.13725859,1.6234398,-5.458522,3.5909057,-3.5153866,0.5077779,-1.270926,2.6632845
7.5373383,54.082413,12.087142,4.788192,0.5422039,0.1597575,0.3508031,-0.71836597,-0.74995726,-0.4835395,0.6552051,-0.22125062,0.38259038,0.47599354,0.49171406,-1.2105533,-2.166766,-0.7207047,1.8418565,1.8810533,-0.83957136,0.5505149,-1.1490654,-2.126594,-0.77398175,1.8595572,1.8459353,-0.8848468,-1.2991337,-1.3590617,-0.81645095,1.2124163,-0.43143263,0.3109988,0.23818581,-0.40198898,-0.54530334,0.6790192,-1.262168,0.43924078,-0.8319081,-0.38831902,-0.54844666,0.6377377,0.95832664,0.0011382939,0.22398111,0.17731662,-1.3428781,0.42545778,-0.80106694,0.0,1.0,0.0,0.0,0.0,0.0,0.0,-0.248011,0.14530334,-0.1290192,1.7750263,-3.307438,0.7880807,-4.754114,4.3785214,-1.2587249,2.3234725
6.857849,55.506927,11.51397,4.5735617,0.49014398,0.08063108,0.3571188,-0.7141163,-0.7535574,-0.5371818,0.59815544,-0.12544687,0.28711164,0.48352587,0.47910324,-1.2244211,-2.1803122,-0.7141662,1.8470125,1.8746465,-0.8364942,0.5376422,-1.1627449,-2.1350963,-0.76238966,1.8558863,1.8489126,-0.8823133,-1.2836717,-1.3715336,-0.8601119,1.1414694,-0.34720412,0.2925298,0.2582492,-0.41440773,-0.54087067,0.67038894,-1.2342728,0.44502708,-0.8715921,-0.40161133,-0.5441704,0.62947756,0.9601704,0.006985708,0.22337693,0.16771008,-1.3183724,0.43974394,-0.83691925,0.0,1.0,0.0,0.0,0.0,0.0,0.0,-0.23559225,0.14087066,-0.120388925,1.4380217,-1.3743877,-3.9035916,-7.085824,7.9443455,-2.0863116,1.9626498
5.9413533,56.04607,10.858049,4.3364544,0.44915354,0.01806432,0.36994115,-0.7116415,-0.75278455,-0.58852094,0.5393115,-0.031294614,0.18285264,0.49770066,0.46647802,-1.2380233,-2.1939485,-0.7084585,1.8527569,1.8671979,-0.83254325,0.5248868,-1.1764492,-2.1443045,-0.7516664,1.853257,1.8516377,-0.8795953,-1.2730972,-1.3704667,-0.93964577,1.0492816,-0.23628014,0.2649391,0.27614677,-0.42655373,-0.5363884,0.6613439,-1.2073671,0.44948462,-0.91362315,-0.4146576,-0.5397644,0.6208386,0.9619339,0.013207225,0.22220957,0.15852919,-1.294363,0.4522991,-0.8751917,0.0,1.0,0.0,0.0,0.0,0.0,0.0,-0.22344625,0.13638839,-0.11134386,0.95403194,-0.015950203,-7.5309753,-9.2242,10.637814,-3.0148923,1.7355204
7.1514826,60.987793,12.323135,5.181407,0.68459153,0.056894958,0.3367696,-0.70208913,-0.7498515,-0.58458626,0.5026463,0.077837795,0.09910095,0.5147563,0.45467788,-1.2514343,-2.202763,-0.70140177,1.8610407,1.8615478,-0.82811964,0.5122383,-1.1900829,-2.1542065,-0.7418682,1.8519056,1.8540406,-0.8767077,-1.2624007,-1.3615483,-1.0052856,0.9565092,-0.10288914,0.23112656,0.29281992,-0.4384117,-0.53186035,0.65194196,-1.1777337,0.45414534,-0.9470244,-0.42747116,-0.53520966,0.61189413,0.9636446,0.019725028,0.22039092,0.14975879,-1.2700245,0.46692,-0.90307623,0.0,1.0,0.0,0.0,0.0,0.0,0.0,-0.21158826,0.13186035,-0.10194194,0.95026493,0.770998,-6.0850263,-9.322178,12.843267,-3.656259,1.6165733
7.0553365,61.60826,12.80168,5.578308,0.972087,0.052919686,0.2804496,-0.7033272,-0.7617059,-0.57435566,0.45278415,0.1914544,-0.084094524,0.48053065,0.44190562,-1.2662535,-2.211642,-0.69658977,1.8710511,1.8456311,-0.8286546,0.4996612,-1.2036785,-2.1645286,-0.7330035,1.8520092,1.8559934,-0.8736979,-1.2565451,-1.359082,-1.0397501,0.86297864,0.04649396,0.18239556,0.30371985,-0.4499817,-0.5272865,0.6422232,-1.149066,0.45850554,-0.97808874,-0.44007492,-0.53050613,0.6027067,0.965352,0.026391307,0.21775328,0.14135914,-1.2500486,0.482955,-0.9258917,0.0,1.0,0.0,0.0,0.0,0.0,0.0,-0.20001829,0.12728652,-0.09222317,0.46977997,0.13558865,-2.9546738,-9.397877,14.438164,-5.1612196,1.0731041
2.5772111,68.25057,13.999086,9.434602,1.3231682,0.16669428,0.16298485,-0.7103308,-0.75484157,-0.5572638,0.45592326,0.17953794,-0.21787983,0.50042385,0.42862812,-1.2791626,-2.220255,-0.6874112,1.8699629,1.8342054,-0.8236555,0.4870818,-1.2172359,-2.1749346,-0.724817,1.8533015,1.8573934,-0.8705824,-1.2587532,-1.3549224,-1.0390882,0.80380917,0.15513091,0.12472396,0.31412488,-0.4612465,-0.52266693,0.6322901,-1.1177914,0.46414903,-0.996397,-0.4525051,-0.52557755,0.59340197,0.96706116,0.033101108,0.21436705,0.1332057,-1.2342981,0.5057264,-0.9337629,0.0,1.0,0.0,0.0,0.0,0.0,0.0,-0.18875349,0.122666925,-0.08229011,-0.3333807,0.29284954,0.62155724,-5.94697,10.32279,-6.085904,1.025033
7.2517834,74.16393,16.042248,9.736652,1.2481765,0.19408268,0.16460435,-0.6909307,-0.7465271,-0.52977735,0.42753226,0.1895927,-0.3392204,0.514775,0.41798872,-1.2918886,-2.2279124,-0.68206376,1.8722608,1.8234713,-0.8191049,0.4745514,-1.2307228,-2.1850963,-0.7171131,1.8554101,1.858175,-0.86736643,-1.251604,-1.3468069,-1.0065005,0.7588735,0.2277177,0.061720368,0.32391655,-0.472147,-0.51799774,0.6222705,-1.0798504,0.4675275,-1.0017455,-0.46471596,-0.5204582,0.58410215,0.96874845,0.039766338,0.21036096,0.12527247,-1.2094791,0.5247365,-0.93045276,0.0,1.0,0.0,0.0,0.0,0.0,0.0,-0.17785299,0.117997736,-0.07227051,0.5721092,0.69930553,3.876686,-4.5853376,6.6902966,-6.564354,0.9162307
7.3620358,84.94152,18.864178,13.023703,1.5703373,0.37716365,0.082168266,-0.6914302,-0.72797406,-0.4568477,0.43380913,0.19332713,-0.37340677,0.5317629,0.40540838,-1.3035202,-2.230781,-0.67373216,1.8747429,1.8208344,-0.81419015,0.46208972,-1.2440513,-2.1945715,-0.7096552,1.8580096,1.8583602,-0.86405224,-1.2448913,-1.3284895,-0.9252319,0.7409719,0.268724,0.0032563182,0.33362687,-0.48261452,-0.51329803,0.61235523,-1.0350136,0.47070307,-0.9863321,-0.47665405,-0.5151024,0.57500106,0.9703956,0.046193615,0.20588565,0.11751425,-1.1817012,0.54865026,-0.90499365,0.0,1.0,0.0,0.0,0.0,0.0,0.0,-0.16738546,0.11329803,-0.06235522,0.503397,1.7150402,8.845472,-1.9275308,3.4707665,-6.090123,0.87519884
7.8080735,84.29685,18.45856,12.475131,1.4094701,0.40447313,0.11681813,-0.6956078,-0.7238198,-0.4341178,0.38805148,0.19048937,-0.43725523,0.5313084,0.39252895,-1.3164333,-2.2379832,-0.6708501,1.8770585,1.8146347,-0.8109214,0.44966376,-1.2571949,-2.2031884,-0.7024629,1.8608394,1.8579785,-0.8606522,-1.2423875,-1.309958,-0.838694,0.7115365,0.28586987,-0.052689895,0.34180918,-0.49263382,-0.50858307,0.6025877,-0.9902807,0.4715645,-0.97187644,-0.4882927,-0.5095329,0.5661349,0.97198725,0.05235211,0.20102863,0.10994311,-1.1509124,0.5697928,-0.88230616,0.0,1.0,0.0,0.0,0.0,0.0,0.0,-0.15736616,0.10858306,-0.052587688,0.094652176,1.74582,9.3341465,-3.0686855,1.1090934,-5.8189077,0.71862936
11.226456,79.42507,17.13024,8.999551,0.9525988,0.3480916,0.25815865,-0.697793,-0.70778215,-0.43380225,0.29242665,0.23676491,-0.50669736,0.5332302,0.37988445,-1.3279731,-2.2465687,-0.6732203,1.8845159,1.8073087,-0.8073292,0.43723497,-1.2701172,-2.211123,-0.6959474,1.8638792,1.85705,-0.85717887,-1.243528,-1.2867212,-0.77668583,0.6311016,0.30818677,-0.10686096,0.34882075,-0.50221634,-0.50388336,0.5928946,-0.9471348,0.46894863,-0.96728283,-0.49956322,-0.50380707,0.55739105,0.9735139,0.058360193,0.1957531,0.102690555,-1.1130444,0.5827223,-0.8735802,0.0,1.0,0.0,0.0,0.0,0.0,0.0,-0.14778364,0.103883356,-0.0428946,-0.25515556,2.2388697,6.7793965,-8.168197,1.6892552,-5.6050167,0.6014049
13.957802,77.607216,16.486559,7.3212404,0.55029136,0.3207603,0.33575892,-0.69094926,-0.69290847,-0.41303626,0.25353062,0.18429331,-0.53236717,0.5338996,0.36814004,-1.339408,-2.2524266,-0.67059433,1.8823085,1.8038132,-0.8037889,0.4248181,-1.2827858,-2.2185693,-0.6903484,1.8669398,1.8556234,-0.8536446,-1.241525,-1.260503,-0.73251015,0.5357657,0.3038529,-0.15527515,0.35463017,-0.5113678,-0.49924088,0.5832241,-0.90357506,0.46308845,-0.96615434,-0.5104084,-0.4980011,0.54867953,0.97494686,0.064354636,0.19012602,0.095860004,-1.0682381,0.5881359,-0.87213486,0.0,1.0,0.0,0.0,0.0,0.0,0.0,-0.13863218,0.09924087,-0.033224106,0.07202625,2.5532007,4.91302,-9.653902,-0.893867,-5.025175,0.48068166
21.640514,77.81755,17.678246,5.1802635,0.46011543,0.3095004,0.37654656,-0.66768223,-0.6856453,-0.34395805,0.20722045,0.24143283,-0.52624446,0.5315891,0.35804987,-1.3513503,-2.252965,-0.66962636,1.8910831,1.8029989,-0.80048573,0.41253093,-1.295214,-2.2254353,-0.685744,1.8700902,1.8537772,-0.8500616,-1.2249023,-1.2372425,-0.6698495,0.43487856,0.31755376,-0.19494918,0.35922247,-0.5200691,-0.4946823,0.5735937,-0.8579421,0.45370632,-0.96127295,-0.5207577,-0.49219513,0.5399978,0.9762981,0.07022623,0.18410076,0.0895383,-1.0173975,0.5860854,-0.868616,0.0,1.0,0.0,0.0,0.0,0.0,0.0,-0.12993085,0.094682306,-0.023593664,1.5312433,2.2829056,6.7021728,-10.240662,0.9881973,-4.120284,0.36369562
15.2544,87.579994,19.574804,11.055536,1.250732,0.5078399,0.16602615,-0.67638457,-0.6674289,-0.24530032,0.24408358,0.2319674,-0.5179626,0.54114306,0.34489247,-1.361957,-2.2499652,-0.66133565,1.893287,1.801981,-0.7959473,0.4003668,-1.3073925,-2.2313442,-0.6817338,1.8733441,1.8515918,-0.84643304,-1.2139333,-1.2115409,-0.5633367,0.38921434,0.32683662,-0.2269515,0.3638308,-0.52830887,-0.4902115,0.56415254,-0.8120043,0.4455352,-0.9380401,-0.5306816,-0.48631287,0.53153247,0.9775974,0.075698145,0.17773224,0.08357121,-0.97849286,0.5964201,-0.84093773,0.0,1.0,0.0,0.0,0.0,0.0,0.0,-0.12169111,0.09021148,-0.014152527,0.98252296,2.5215864,11.078751,-4.6935854,0.5849421,-3.3539205,0.384593
19.519094,99.755104,23.216934,13.470778,1.5647444,0.6617036,0.111204945,-0.65434253,-0.63079304,-0.13460276,0.22365226,0.22434239,-0.50182843,0.563356,0.33493257,-1.3704718,-2.2448044,-0.6593686,1.8957783,1.801409,-0.7900975,0.3883815,-1.3192047,-2.2358303,-0.67801833,1.8766551,1.8491461,-0.8427481,-1.1937776,-1.1712838,-0.40884215,0.36498356,0.33144104,-0.25078523,0.3697172,-0.5360317,-0.48583984,0.55513173,-0.7591492,0.43378597,-0.88974434,-0.540184,-0.4803276,0.5235361,0.9788644,0.08046761,0.17112288,0.077886626,-0.9348169,0.60663205,-0.78748345,0.0,1.0,0.0,0.0,0.0,0.0,0.0,-0.11396825,0.08583984,-0.0051317215,1.8910646,3.9862394,15.893203,-2.5978446,0.12640953,-2.462685,0.4869163
28.038637,112.483826,28.48739,14.588406,2.1783698,0.876106,0.080423504,-0.6373662,-0.60675067,0.10430375,0.19180417,0.304088,-0.50153315,0.5811285,0.3246449,-1.3798797,-2.2254,-0.6588379,1.907064,1.7989929,-0.78463525,0.37664607,-1.3305668,-2.2379112,-0.674543,1.8802366,1.8465037,-0.83899647,-1.167235,-1.1246402,-0.13985662,0.3411261,0.36603615,-0.26890668,0.3766605,-0.54317474,-0.4816246,0.54683536,-0.6984352,0.41778183,-0.8097439,-0.5492096,-0.4742279,0.51632106,0.9801779,0.083947085,0.16414775,0.072524264,-0.88688385,0.6177796,-0.7010204,0.0,1.0,0.0,0.0,0.0,0.0,0.0,-0.10682523,0.0816246,0.003164649,2.5313616,4.637933,27.341053,-2.595991,3.1552017,-1.767087,0.5906105
