Afshin1997/kuka_rl_ros2/src/catch_and_throw/input_files/idealpd/recorded_trajectories/env_50_data.csv
torque0,torque1,torque2,torque3,torque4,torque5,torque6,action0,action1,action2,action3,action4,action5,action6,set_target_0,set_target_1,set_target_2,set_target_3,set_target_4,set_target_5,set_target_6,joint_pos_0,joint_pos_1,joint_pos_2,joint_pos_3,joint_pos_4,joint_pos_5,joint_pos_6,joint_vel_0,joint_vel_1,joint_vel_2,joint_vel_3,joint_vel_4,joint_vel_5,joint_vel_6,tennisball_pos_0,tennisball_pos_1,tennisball_pos_2,tennisball_lin_vel_0,tennisball_lin_vel_1,tennisball_lin_vel_2,end_effector_pos_0,end_effector_pos_1,end_effector_pos_2,end_effector_rot_0,end_effector_rot_1,end_effector_rot_2,end_effector_rot_3,end_effector_lin_vel_0,end_effector_lin_vel_1,end_effector_lin_vel_2,obs_task_0,obs_task_1,obs_task_2,obs_task_3,obs_task_4,obs_task_5,obs_task_6,to_final_target_0,to_final_target_1,to_final_target_2,joint_acc_0,joint_acc_1,joint_acc_2,joint_acc_3,joint_acc_4,joint_acc_5,joint_acc_6
0.0,0.0,0.0,0.0,0.0,0.0,0.0,0.0,0.0,0.0,0.0,0.0,0.0,0.0,1.7802359,-1.0646509,-1.8151424,-1.1170107,1.9373155,1.1170107,-0.91629785,1.7802359,-1.0646509,-1.8151424,-1.1170107,1.9373155,1.1170107,-0.91629785,0.0,0.0,0.0,0.0,0.0,0.0,0.0,3.0309067,-0.44885254,0.24576305,-3.1475313,-0.22768223,5.3301077,0.5304184,-0.45449638,0.693097,0.5745483,0.17512383,0.15255436,0.7848268,0.0,0.0,0.0,1.0,0.0,0.0,0.0,0.0,0.0,0.0,-3.6809068,0.048852533,0.30423695,0.0,0.0,0.0,0.0,0.0,0.0,0.0
0.0,0.0,0.0,0.0,0.0,0.0,0.0,0.0,0.0,0.0,0.0,0.0,0.0,0.0,1.7802359,-1.0646509,-1.8151424,-1.1170107,1.9373155,1.1170107,-0.91629785,1.7802359,-1.0646509,-1.8151424,-1.1170107,1.9373155,1.1170107,-0.91629785,0.0,0.0,0.0,0.0,0.0,0.0,0.0,3.0309067,-0.44885254,0.24576305,-3.1475313,-0.22768223,5.3301077,0.5304184,-0.45449638,0.693097,0.5745483,0.17512383,0.15255436,0.7848268,0.0,0.0,0.0,1.0,0.0,0.0,0.0,0.0,0.0,0.0,-3.6809068,0.048852533,0.30423695,0.0,0.0,0.0,0.0,0.0,0.0,0.0
0.0,0.0,0.0,0.0,0.0,0.0,0.0,0.0,0.0,0.0,0.0,0.0,0.0,0.0,1.7802359,-1.0646509,-1.8151424,-1.1170107,1.9373155,1.1170107,-0.91629785,1.7802359,-1.0646509,-1.8151424,-1.1170107,1.9373155,1.1170107,-0.91629785,0.0,0.0,0.0,0.0,0.0,0.0,0.0,3.0309067,-0.44885254,0.24576305,-3.1475313,-0.22768223,5.3301077,0.5304184,-0.45449638,0.693097,0.5745483,0.17512383,0.15255436,0.7848268,0.0,0.0,0.0,1.0,0.0,0.0,0.0,0.0,0.0,0.0,-3.6809068,0.048852533,0.30423695,0.0,0.0,0.0,0.0,0.0,0.0,0.0
-176.0,55.65952,-11.058714,110.0,10.75144,4.335909,-3.8125103,-0.80512184,0.27757725,-0.53845793,0.7372385,0.13587642,0.6713373,-0.5996076,1.6997237,-1.0368931,-1.8689882,-1.0432868,1.950903,1.1841445,-0.97625864,1.7789484,-1.0624651,-1.8212535,-1.1124388,1.9422784,1.1222254,-0.9174356,-0.17134517,0.29054713,-0.8141892,0.6101123,0.66074973,0.6935444,-0.1511751,2.9994507,-0.451128,0.29828772,-3.1443844,-0.2274546,5.2265925,0.52838516,-0.4576645,0.69369406,0.5781136,0.17382124,0.15118912,0.78275955,-0.2707142,-0.4225354,0.07932924,1.0,0.0,0.0,0.0,0.0,0.0,0.0,-3.6494508,0.051128,0.2517123,-17.055052,28.839636,-81.23451,61.109818,65.808655,68.8177,-14.975318
-176.0,-49.636612,-54.435097,110.0,12.560826,0.8332158,-3.359677,-0.79813737,-0.24613264,-0.55649734,0.7058628,0.333073,0.65195763,-0.59760684,1.6991347,-1.0870783,-1.8769033,-1.0418525,1.9755857,1.1874212,-0.9771963,1.7777239,-1.0601685,-1.8365428,-1.0986506,1.9526181,1.1356207,-0.91819185,-0.11409012,0.1874827,-1.7104231,1.6334192,1.1269821,1.4979955,-0.06556059,2.9680252,-0.45340157,0.349778,-3.1412406,-0.2272272,5.123181,0.52391434,-0.46606255,0.69405377,0.586166,0.17066193,0.1473356,0.77818763,-0.5054497,-0.9758762,0.02717401,1.0,0.0,0.0,0.0,0.0,0.0,0.0,-3.6180253,0.05340156,0.20022202,3.3706143,-16.931625,-72.62506,101.81315,37.20821,63.365364,4.0090995
-158.14026,104.80773,30.990313,97.01609,8.954404,8.014305,-1.8405932,-0.75672096,0.18677302,0.19050223,0.66676825,0.4280029,0.6870855,-0.52106833,1.7020518,-1.0414912,-1.8174926,-1.0319737,1.9954184,1.2043293,-0.9702987,1.7733732,-1.0580456,-1.8510425,-1.0803648,1.9640412,1.1504675,-0.9191293,-0.5419999,0.21714845,-1.3559667,1.8953658,1.1416776,1.4736307,-0.10436571,2.9366302,-0.4556713,0.40023494,-3.1381,-0.22700001,5.019872,0.51657486,-0.4774456,0.69597805,0.5970196,0.16591142,0.14169711,0.77198625,-0.8180274,-1.1856171,0.25141302,1.0,0.0,0.0,0.0,0.0,0.0,0.0,-3.5866303,0.055671304,0.14976507,-42.789536,1.9145638,37.580227,26.72329,-0.26729107,-4.416013,-4.239285
-104.94931,93.00388,37.088326,59.857986,5.956325,7.6000314,-0.20207044,-0.7642274,-0.054274205,0.27599022,0.6630039,0.44536704,0.6649468,-0.5802426,1.6969506,-1.0634731,-1.8234435,-1.0140644,2.0085778,1.2169622,-0.97715354,1.7646815,-1.0567658,-1.8591831,-1.0619055,1.9745336,1.1642405,-0.92053884,-0.97871363,0.0961731,-0.6259435,1.8304945,1.012385,1.3417332,-0.1545097,2.9052658,-0.45793915,0.44965956,-3.1349626,-0.22677307,4.9166675,0.50658035,-0.48983192,0.6997059,0.60875523,0.15980977,0.13439287,0.7653864,-1.0708331,-1.2453309,0.41690665,1.0,0.0,0.0,0.0,0.0,0.0,0.0,-3.555266,0.057939142,0.100340456,-43.861282,-12.761749,75.229706,-6.147194,-14.701247,-14.244676,-5.408332
-49.420536,111.349075,47.481895,33.0928,2.9365163,6.9077015,0.5521014,-0.7845942,0.045059428,0.31076157,0.65624195,0.55469364,0.6620596,-0.5766623,1.6862221,-1.0522598,-1.8281069,-0.9962813,2.0300028,1.2304465,-0.9782051,1.7523466,-1.0561745,-1.860091,-1.0453249,1.9838567,1.1765715,-0.9224338,-1.3191543,0.045192394,0.093545884,1.6006504,0.9012813,1.1954604,-0.20284665,2.8739395,-0.46020508,0.4980529,-3.131828,-0.22654633,4.8135657,0.4946556,-0.50190353,0.70494807,0.62018913,0.15259488,0.1257092,0.7591294,-1.2459283,-1.1818229,0.5605604,1.0,0.0,0.0,0.0,0.0,0.0,0.0,-3.5239396,0.060205072,0.051947117,-34.276318,-5.5816402,73.71999,-22.978378,-12.39872,-15.057588,-5.344349
-11.861817,108.30113,43.416775,15.839973,0.5727178,4.844873,0.5047397,-0.79445696,0.11755077,0.2429086,0.6646578,0.5371961,0.66350317,-0.5943572,1.6729009,-1.0444194,-1.8358002,-0.9788591,2.0375762,1.2429218,-0.9818695,1.7377039,-1.0555241,-1.855828,-1.0310522,1.9922433,1.1875769,-0.92477316,-1.5132729,0.07052583,0.5406481,1.369081,0.8156314,1.068777,-0.24583718,2.8426514,-0.4624691,0.545416,-3.128697,-0.22631983,4.710567,0.48160934,-0.51299286,0.71123093,0.63097346,0.14466947,0.1164674,0.75324523,-1.3362551,-1.0729588,0.64855963,1.0,0.0,0.0,0.0,0.0,0.0,0.0,-3.4926515,0.062469095,0.0045840144,-19.59045,2.1976955,45.746582,-23.243046,-9.210968,-12.656784,-4.7562213
12.961618,140.61337,50.236774,11.858172,-1.4975538,4.150793,-0.063162334,-0.81074756,0.38695696,0.1334089,0.65070635,0.4983871,0.66064304,-0.5954173,1.6566292,-1.0168284,-1.8424871,-0.9659816,2.042082,1.2536412,-0.9843149,1.7219969,-1.0531762,-1.8495243,-1.0186659,1.9999223,1.1974741,-0.9274959,-1.5905519,0.2882153,0.6627858,1.1950122,0.75109386,0.9639528,-0.28295508,2.8113937,-0.46473122,0.59174985,-3.1255689,-0.22609356,4.6076713,0.46808624,-0.5226288,0.71853983,0.64133584,0.13619299,0.107962064,0.7473179,-1.3690336,-0.9161219,0.75489247,1.0,0.0,0.0,0.0,0.0,0.0,0.0,-3.4613938,0.06473121,-0.041749835,-7.955694,21.419975,12.91548,-17.447329,-6.7097664,-10.275197,-4.24577
21.269995,138.42627,45.033382,9.546618,-2.283874,2.8904486,-0.4360726,-0.82199264,0.4867936,0.038070235,0.6292054,0.51164436,0.6515425,-0.5916374,1.6397977,-1.0044968,-1.8457172,-0.95574534,2.0510867,1.2626283,-0.98665965,1.7060705,-1.0481961,-1.8438137,-1.0075155,2.0072045,1.2064558,-0.93053716,-1.59428,0.56687135,0.54205686,1.0884534,0.7199481,0.87687534,-0.31255892,2.7801666,-0.46698952,0.6370556,-3.122444,-0.22586751,4.5048785,0.45451736,-0.5307579,0.72673416,0.65158826,0.12742111,0.10104747,0.74093586,-1.3626441,-0.76572746,0.83765286,1.0,0.0,0.0,0.0,0.0,0.0,0.0,-3.4301667,0.06698951,-0.087055564,-0.6204605,27.58075,-11.601377,-10.679078,-3.1889558,-8.490288,-3.4011304
24.176857,133.64076,41.88134,9.408474,-2.289844,2.2914045,-0.5389425,-0.82478285,0.5840669,0.014280167,0.6118525,0.5389455,0.64291936,-0.5820691,1.6235923,-0.98978937,-1.8423856,-0.9463303,2.061099,1.2707478,-0.9887441,1.6903731,-1.0404179,-1.8399608,-0.9970181,2.0144029,1.2146708,-0.9338235,-1.562474,0.8472625,0.33455858,1.0366607,0.7198001,0.80321234,-0.33523133,2.74897,-0.46924782,0.6813341,-3.119322,-0.2256417,4.4021883,0.4411087,-0.53748703,0.735685,0.66189754,0.118525445,0.09592509,0.7339221,-1.3410504,-0.629003,0.9115295,1.0,0.0,0.0,0.0,0.0,0.0,0.0,-3.3989701,0.06924781,-0.13133407,2.935958,27.7907,-20.327837,-5.243039,-0.069999695,-7.2727203,-2.648282
23.665844,119.57197,37.358707,9.149128,-1.8010577,1.8802174,-0.43392387,-0.81561697,0.6378683,0.010161797,0.60608745,0.5580408,0.6443842,-0.57113975,1.6088114,-0.9766311,-1.8389447,-0.93640935,2.0702069,1.2791092,-0.9909375,1.6750952,-1.0302727,-1.8380458,-0.98674417,2.0217423,1.2222391,-0.93729204,-1.5170113,1.0695242,0.14527506,1.0238272,0.73826206,0.74122685,-0.35196266,2.717804,-0.4715023,0.7245865,-3.1162033,-0.2254161,4.2996006,0.42791748,-0.543026,0.7452602,0.67226774,0.109573215,0.0923033,0.7263125,-1.3175414,-0.5145662,0.9707528,1.0,0.0,0.0,0.0,0.0,0.0,0.0,-3.367804,0.0715023,-0.17458647,4.327059,22.01612,-18.507019,-1.4159918,1.7703891,-6.233597,-2.0174682
22.189213,105.20081,33.636185,8.591247,-1.2276528,1.6985991,-0.22997484,-0.80701905,0.67925626,0.019804943,0.5931634,0.5703172,0.64755905,-0.56694156,1.5943933,-0.9623471,-1.8360653,-0.9274278,2.078774,1.286995,-0.9939862,1.6602522,-1.0184453,-1.8374889,-0.9764912,2.0293183,1.2292677,-0.94089884,-1.4740118,1.2200117,0.027466347,1.0252258,0.76376176,0.6895495,-0.364764,2.6866684,-0.47375488,0.7668138,-3.113088,-0.22519073,4.197116,0.414917,-0.54756546,0.7553235,0.6825946,0.10056198,0.089696206,0.71826625,-1.2988987,-0.41821164,1.0166336,1.0,0.0,0.0,0.0,0.0,0.0,0.0,-3.3366685,0.07375488,-0.2168138,4.0985107,14.868927,-11.319878,-0.04634857,2.4466634,-5.277133,-1.6184688
17.46011,88.05837,28.131304,8.368342,-0.67463726,1.414516,-0.09760781,-0.8022604,0.70370924,-0.009680147,0.58734417,0.5818499,0.6571913,-0.5689303,1.5800261,-0.94807434,-1.8384569,-0.9177568,2.0875034,1.2949868,-0.9977919,1.6457545,-1.0056164,-1.8377407,-0.96619344,2.0371575,1.2358519,-0.9446153,-1.4425089,1.303337,-0.041095447,1.0304712,0.79009104,0.64787495,-0.37504023,2.6555634,-0.47600555,0.808017,-3.1099753,-0.22496557,4.094733,0.4020424,-0.55130386,0.7656814,0.6927862,0.091526255,0.08767422,0.70991784,-1.2870247,-0.34384823,1.040819,1.0,0.0,0.0,0.0,0.0,0.0,0.0,-3.3055634,0.07600555,-0.258017,2.9706955,8.193469,-6.4121494,0.30486584,2.543211,-4.2779326,-1.3491869
15.621746,75.89773,24.55142,6.9027014,-0.37524754,1.2329162,0.07364069,-0.80001324,0.718391,-0.0034141568,0.5555739,0.59993684,0.66176903,-0.57238996,1.5657531,-0.93377733,-1.8380821,-0.91063607,2.0971513,1.3020288,-1.0018543,1.6314665,-0.99232525,-1.83829,-0.9559891,2.0452638,1.2420832,-0.9484233,-1.4248084,1.3372693,-0.057987276,1.0162985,0.8170451,0.6146338,-0.38373098,2.6244888,-0.4782524,0.84819716,-3.1068661,-0.22474065,3.9924536,0.38925552,-0.55438995,0.77615047,0.70272845,0.08250571,0.08590687,0.70141673,-1.2780098,-0.28007945,1.0476534,1.0,0.0,0.0,0.0,0.0,0.0,0.0,-3.274489,0.078252405,-0.29819715,1.5920401,3.2856464,-1.2240365,-1.6662836,2.6053548,-3.3926964,-1.1910617
13.041492,68.21495,21.940018,7.0368147,-0.15039408,1.1047636,0.12192191,-0.79330665,0.72888476,-0.010725247,0.55697656,0.59925514,0.6676579,-0.5694717,1.5521358,-0.91943675,-1.8393625,-0.90029144,2.1051893,1.308849,-1.0053705,1.6172968,-0.978908,-1.8388298,-0.9459317,2.0535798,1.2480341,-0.9523029,-1.4148858,1.3429266,-0.051293723,1.001411,0.8364866,0.5884848,-0.39050096,2.5934448,-0.48049927,0.8873553,-3.1037598,-0.22451596,3.8902762,0.37654114,-0.55690384,0.786614,0.71236837,0.07351263,0.084212616,0.6928459,-1.2721157,-0.22594467,1.0445521,1.0,0.0,0.0,0.0,0.0,0.0,0.0,-3.243445,0.08049926,-0.33735532,0.82564354,0.47962666,1.1190742,-1.7400503,1.866746,-2.655518,-0.988251
10.336189,63.5733,19.973314,7.712023,-0.0014707446,0.9983434,0.11524571,-0.79191697,0.73481,-0.022079501,0.5543927,0.6061223,0.67047703,-0.5637572,1.5381051,-0.905427,-1.8410378,-0.8904924,2.114192,1.3150818,-1.0086786,1.6031786,-0.965527,-1.8392799,-0.9360106,2.0620599,1.2537638,-0.9562358,-1.4113489,1.3362315,-0.041520488,0.98822063,0.85135937,0.5677124,-0.39528644,2.5624313,-0.4827423,0.92549247,-3.1006567,-0.22429149,3.7882009,0.36385345,-0.55893326,0.7970008,0.72171134,0.06455538,0.08252423,0.68421847,-1.2688847,-0.17920883,1.035154,1.0,0.0,0.0,0.0,0.0,0.0,0.0,-3.2124314,0.0827423,-0.37549245,0.19598007,-0.74296,1.4031827,-1.566267,1.4261246,-2.1026134,-0.7749975
11.161469,63.946167,20.08556,7.229154,-0.059666812,1.0018016,0.16615158,-0.79331887,0.74199307,-0.002993346,0.52427906,0.6162173,0.6747161,-0.56227225,1.5238467,-0.8913277,-1.8395792,-0.8835827,2.1236815,1.3212354,-1.0124631,1.5890566,-0.95221275,-1.8395431,-0.9263241,2.0706735,1.2593199,-0.96020883,-1.4129213,1.3296301,-0.01988196,0.9613472,0.8643024,0.55145824,-0.3989551,2.5314484,-0.48498344,0.9626096,-3.0975566,-0.22406724,3.6862276,0.35121155,-0.5604706,0.8072898,0.730729,0.0556228,0.08082335,0.6755803,-1.2637538,-0.12912779,1.0251619,1.0,0.0,0.0,0.0,0.0,0.0,0.0,-3.1814485,0.08498344,-0.41260958,-0.3243208,-0.73189735,2.616655,-2.9348493,1.2241006,-1.634109,-0.66511035
11.796964,64.881226,20.28587,7.3772793,-0.09630394,0.99657714,0.1790837,-0.7903462,0.7431771,0.009794562,0.51639044,0.6155216,0.6749151,-0.5494417,1.510022,-0.87789506,-1.8385637,-0.8746851,2.1322255,1.3268114,-1.015153,1.5749193,-0.93894905,-1.8395545,-0.9169066,2.0793786,1.2647368,-0.9642028,-1.414429,1.3250518,0.006648123,0.9344085,0.87238735,0.538391,-0.40059188,2.500496,-0.48722267,0.9987078,-3.0944598,-0.22384322,3.5843563,0.33862686,-0.5614891,0.8174926,0.73940396,0.046685234,0.07911841,0.66696507,-1.2568518,-0.07728636,1.0167252,1.0,0.0,0.0,0.0,0.0,0.0,0.0,-3.150496,0.087222666,-0.44870776,-0.31695366,-0.5281925,3.1095715,-2.93231,0.7399082,-1.3086438,-0.45970082
15.585331,68.428215,21.62655,6.066682,-0.30284765,1.009677,0.256841,-0.7877609,0.7537987,0.03566183,0.47733793,0.63093686,0.67330337,-0.54379404,1.4961432,-0.8635692,-1.8359884,-0.8691728,2.1424723,1.3320671,-1.0185822,1.5607802,-0.92566437,-1.8392265,-0.90788007,2.088183,1.2700411,-0.96820635,-1.4142994,1.3294302,0.043164328,0.89129543,0.88275146,0.5278011,-0.40121114,2.469574,-0.48945808,1.033788,-3.0913658,-0.22361942,3.4825869,0.32616425,-0.5619278,0.8276327,0.74768317,0.03771763,0.07741983,0.6584476,-1.242807,-0.016627034,1.0109842,1.0,0.0,0.0,0.0,0.0,0.0,0.0,-3.119574,0.08945808,-0.48378795,-0.16438961,0.3656149,4.144441,-4.54762,0.95311403,-1.040101,-0.36646128
19.040483,70.02866,22.111773,4.340961,-0.53595245,0.9278597,0.32882378,-0.7873319,0.76262206,0.051841166,0.4304789,0.6436018,0.67622846,-0.5325168,1.482047,-0.8494022,-1.8340423,-0.86483216,2.152543,1.337664,-1.021458,1.5466486,-0.91227955,-1.8385246,-0.8994334,2.0971093,1.2752577,-0.9722051,-1.4134282,1.3411673,0.08104053,0.8282989,0.89566857,0.51989144,-0.40042433,2.4386826,-0.4916935,1.0678513,-3.0882752,-0.22339584,3.3809192,0.3139038,-0.5617027,0.8377045,0.755505,0.028729659,0.075759284,0.65011317,-1.2198312,0.050124098,1.0034338,1.0,0.0,0.0,0.0,0.0,0.0,0.0,-3.0886827,0.09169349,-0.5178513,-0.09634495,1.1089325,4.286578,-6.5370917,1.2136579,-0.72820187,-0.22411346
19.766865,67.4361,20.77763,3.500513,-0.6580482,0.71089673,0.31949794,-0.7833041,0.76411873,0.044234518,0.4025503,0.6413745,0.6782942,-0.5209936,1.4683182,-0.83586764,-1.8341011,-0.85917836,2.1612468,1.3430871,-1.0243045,1.5325457,-0.8987755,-1.837569,-0.8916447,2.1061425,1.2804114,-0.97618574,-1.40985,1.3532857,0.10172113,0.761542,0.90524346,0.5142216,-0.3981813,2.4078217,-0.4939251,1.1008987,-3.0851874,-0.22317249,3.2793531,0.30191422,-0.5608406,0.8476552,0.76286733,0.019768521,0.07419502,0.64197946,-1.1903661,0.11351798,0.98943496,1.0,0.0,0.0,0.0,0.0,0.0,0.0,-3.0578218,0.09392509,-0.55089873,0.18658638,1.1649847,2.5113,-6.9123864,0.9122133,-0.4584074,-0.057190657
19.653412,65.32059,19.735693,3.1568432,-0.6983467,0.55752015,0.31750914,-0.7856604,0.76829714,0.054993443,0.36225012,0.64671487,0.6806116,-0.51596755,1.4539796,-0.8219458,-1.8320696,-0.8554197,2.170814,1.3484725,-1.0277824,1.5184656,-0.8851561,-1.836457,-0.8845608,2.1152596,1.2855211,-0.9801397,-1.4079354,1.3646613,0.11563176,0.68992513,0.913786,0.51032066,-0.3953475,2.3769913,-0.4961548,1.1329312,-3.082103,-0.22294936,3.1778886,0.29023743,-0.5593605,0.857436,0.76978415,0.0108773075,0.07277066,0.6340493,-1.1574497,0.17326951,0.97121775,1.0,0.0,0.0,0.0,0.0,0.0,0.0,-3.0269914,0.09615478,-0.5829312,0.02784729,1.1058569,1.7932951,-7.3953032,0.8338928,-0.25074482,0.021672249
24.38948,65.43488,20.163187,0.4368043,-0.94395536,0.42133614,0.4433144,-0.78073424,0.7730114,0.09766597,0.28337404,0.6580717,0.67617023,-0.5113894,1.4403923,-0.80785495,-1.8266904,-0.8562234,2.1810668,1.3531382,-1.0312786,1.5044218,-0.87143177,-1.8350742,-0.8783896,2.1244721,1.2905966,-0.98406404,-1.4039093,1.3749629,0.147304,0.59206855,0.9239537,0.5074949,-0.39231035,2.3461914,-0.49838257,1.1639498,-3.0790215,-0.22272645,3.0765257,0.27897644,-0.55724335,0.8670079,0.77618873,0.0020938714,0.07147541,0.6264326,-1.1128923,0.23763572,0.9492195,1.0,0.0,0.0,0.0,0.0,0.0,0.0,-2.9961915,0.09838256,-0.61394984,0.24228096,1.0136843,3.5663576,-10.016894,1.0036588,-0.07965565,0.046265125
31.473629,65.49333,20.82111,-4.211269,-1.3605573,0.22964025,0.65314394,-0.78183085,0.77745706,0.15289749,0.16245691,0.6678464,0.66873854,-0.5013625,1.4262388,-0.79368603,-1.8197844,-0.86214393,2.1912568,1.3574705,-1.0342003,1.4904047,-0.857613,-1.8331554,-0.8735783,2.133803,1.2956492,-0.9879531,-1.4013295,1.3842101,0.20798884,0.44338003,0.93576926,0.50557816,-0.3885851,2.315422,-0.50061035,1.1939557,-3.0759432,-0.22250377,2.975264,0.26828003,-0.5544281,0.8763031,0.78194016,-0.006512884,0.07028437,0.61934423,-1.0501051,0.30977198,0.9194138,1.0,0.0,0.0,0.0,0.0,0.0,0.0,-2.9654222,0.100610346,-0.64395565,0.101566315,0.9288788,6.464374,-15.093035,1.1773705,0.11469126,0.12680888
37.4334,67.19812,21.978676,-7.384117,-1.6538222,0.099841,0.8184185,-0.7762707,0.78575426,0.21418704,0.060366116,0.68098474,0.66022176,-0.48925143,1.4127777,-0.7790376,-1.8117367,-0.8675417,2.2019014,1.3616713,-1.0368782,1.4764334,-0.8436894,-1.8304183,-0.87049127,2.143271,1.3006827,-0.99179834,-1.3962783,1.3951778,0.2969636,0.26320535,0.9505165,0.5040531,-0.3838726,2.2846832,-0.5028305,1.2229496,-3.0728679,-0.2222813,2.8741035,0.25832748,-0.550827,0.8852865,0.78691304,-0.014900046,0.069167554,0.61299396,-0.9730783,0.3877326,0.88751835,1.0,0.0,0.0,0.0,0.0,0.0,0.0,-2.9346833,0.1028305,-0.6729496,0.37498474,1.1215448,9.240246,-18.204647,1.5055895,0.22946596,0.25280118
39.801453,62.777924,20.45818,-9.854936,-1.8503863,-0.24381718,0.87367237,-0.768755,0.7836084,0.23344462,-0.04337324,0.6847108,0.653467,-0.46584558,1.399558,-0.7653285,-1.8070738,-0.8748286,2.2117422,1.3660294,-1.0383829,1.4625422,-0.82968944,-1.8268459,-0.8693335,2.1528764,1.3057028,-0.9955806,-1.3869965,1.4017853,0.3779787,0.06611835,0.9640226,0.50292176,-0.37690428,2.253975,-0.50505066,1.2509327,-3.0697956,-0.22205907,2.773044,0.2492218,-0.54649353,0.8938785,0.7910675,-0.022977881,0.06814421,0.60748714,-0.8844941,0.45917222,0.84542996,1.0,0.0,0.0,0.0,0.0,0.0,0.0,-2.903975,0.10505065,-0.7009327,0.84450245,0.7139683,8.321344,-19.864063,1.4402151,0.34292936,0.5295098
41.641335,65.74199,21.654985,-10.136255,-1.9285634,-0.25909203,0.93667173,-0.7667282,0.7995269,0.31040317,-0.14958534,0.69162333,0.65625095,-0.42651966,1.3858694,-0.7497368,-1.7958056,-0.88429207,2.2220387,1.3713279,-1.0382326,1.4487444,-0.81557506,-1.8223236,-0.87018895,2.1626115,1.3107172,-0.99926656,-1.3776269,1.4148765,0.47730476,-0.13636328,0.9771755,0.5025845,-0.36623952,2.223297,-0.5072708,1.2779058,-3.0667264,-0.22183706,2.6720858,0.24103165,-0.5414047,0.9020863,0.7943777,-0.03074126,0.06721794,0.6029102,-0.7916972,0.5332121,0.8078968,1.0,0.0,0.0,0.0,0.0,0.0,0.0,-2.8732972,0.10727081,-0.7279058,0.8952856,1.3830185,10.038227,-20.340519,1.4784694,0.446105,0.9479463
37.430557,64.51906,21.155174,-6.7961283,-1.5691464,-0.25491875,0.8486528,-0.7577079,0.7946411,0.3672536,-0.19122076,0.6870922,0.6454663,-0.37377277,1.3729737,-0.7361109,-1.7855982,-0.889311,2.2313206,1.3752638,-1.0366439,1.435063,-0.801372,-1.8167694,-0.8727553,2.172442,1.3157221,-1.0028123,-1.364983,1.4224684,0.5814467,-0.29694116,0.98554766,0.5010886,-0.3509174,2.1926498,-0.50948715,1.3038702,-3.0636604,-0.22161527,2.5712285,0.23367691,-0.53564453,0.90997547,0.7969054,-0.03826252,0.06634065,0.59923,-0.7097477,0.59769905,0.7775304,1.0,0.0,0.0,0.0,0.0,0.0,0.0,-2.84265,0.109487146,-0.7538702,1.2663841,0.85544586,10.373127,-16.111073,1.0889888,0.3025055,1.4517903
28.338825,65.1651,21.11231,0.93408823,-0.7990499,-0.0061039496,0.63718116,-0.7461393,0.7928042,0.4281423,-0.16395395,0.68453383,0.63980997,-0.30124432,1.3604491,-0.72209156,-1.7739551,-0.8891507,2.2408953,1.379703,-1.0329367,1.4215399,-0.7871298,-1.8101432,-0.87627053,2.1823258,1.3207022,-1.0061597,-1.3481958,1.4251078,0.68909514,-0.3698965,0.9902137,0.49822897,-0.32967737,2.162033,-0.5116997,1.3288268,-3.0605974,-0.22139369,2.470472,0.22693253,-0.52931976,0.9177089,0.7988038,-0.045733843,0.065410726,0.59627354,-0.6555956,0.6505882,0.76641035,1.0,0.0,0.0,0.0,0.0,0.0,0.0,-2.8120332,0.11169967,-0.7788268,1.6988277,0.38015842,10.594416,-7.3377666,0.81409216,0.077557564,2.055496
9.078299,65.35596,20.046757,15.746486,0.610474,0.52629936,0.16366675,-0.7481148,0.79356706,0.45422977,-0.018928085,0.67712295,0.6421607,-0.22260946,1.3467284,-0.7077731,-1.7647202,-0.87816334,2.2500381,1.3849182,-1.0284206,1.4081427,-0.77288,-1.802594,-0.87938905,2.1922174,1.325648,-1.0092534,-1.337138,1.4253225,0.77608395,-0.29280168,0.99015087,0.49390012,-0.30277288,2.1314468,-0.5139122,1.3527765,-3.0575373,-0.22117235,2.3698163,0.22031021,-0.5226135,0.9255707,0.8003933,-0.05349426,0.06430046,0.59361136,-0.65674233,0.6835859,0.78690064,1.0,0.0,0.0,0.0,0.0,0.0,0.0,-2.781447,0.113912195,-0.8027765,1.0834694,0.15776157,8.444632,7.6195836,0.43262243,-0.2531588,2.6061714
-4.95164,61.53794,17.595505,24.65744,1.4381691,0.75959295,-0.18909216,-0.7640127,0.79483867,0.45811954,0.05296246,0.6732294,0.65145844,-0.2155057,1.3317415,-0.69339615,-1.7567819,-0.8740928,2.2595403,1.3907938,-1.0308039,1.3947359,-0.7586331,-1.7944362,-0.88115335,2.202086,1.3305517,-1.0120934,-1.3420945,1.4249789,0.82815385,-0.13800387,0.9870455,0.48953268,-0.27801415,2.100891,-0.5161247,1.3757205,-3.0544806,-0.22095121,2.2692611,0.21341324,-0.51568985,0.9337235,0.8019661,-0.061742846,0.06297896,0.590823,-0.6927468,0.70157695,0.81862444,1.0,0.0,0.0,0.0,0.0,0.0,0.0,-2.7508912,0.11612472,-0.8257205,-0.571537,0.1032114,4.9702287,15.346101,0.12993813,-0.38731098,2.3854494
-13.544319,56.8498,15.275651,29.865868,1.9245917,0.83556247,-0.42757684,-0.7672159,0.79002833,0.45541647,0.15745185,0.6644917,0.6544865,-0.19870836,1.3180144,-0.6796302,-1.7488946,-0.8654082,2.2685351,1.3960004,-1.0319643,1.38123,-0.7444138,-1.7860115,-0.88098454,2.2118936,1.3354136,-1.0147008,-1.3537047,1.4212997,0.8464174,0.067983896,0.98004115,0.4849811,-0.25513688,2.070366,-0.5183296,1.3976595,-3.0514266,-0.2207303,2.1688066,0.20600128,-0.5086708,0.94222224,0.80372053,-0.07056852,0.061467167,0.58760107,-0.74963176,0.70892054,0.85390294,1.0,0.0,0.0,0.0,0.0,0.0,0.0,-2.720366,0.118329614,-0.8476595,-1.2612343,-0.23677349,1.6092777,20.442686,-0.27899742,-0.50072074,2.193886
-20.813478,51.14736,12.715022,33.360844,2.2833307,0.8690244,-0.6077487,-0.79072917,0.78290874,0.44556794,0.27234966,0.66086763,0.665258,-0.20223211,1.302157,-0.6661229,-1.7414547,-0.8537496,2.2779803,1.4019394,-1.034924,1.3675009,-0.7302651,-1.7776096,-0.87857366,2.2216249,1.3402392,-1.0171078,-1.3799312,1.4131541,0.83748764,0.2982404,0.972092,0.48127902,-0.23605423,2.0398712,-0.5205345,1.4185948,-3.0483758,-0.22050962,2.0684526,0.19789886,-0.50164795,0.95105845,0.80579317,-0.07999308,0.059790105,0.5837152,-0.8228515,0.7077857,0.88692373,1.0,0.0,0.0,0.0,0.0,0.0,0.0,-2.6898713,0.12053451,-0.8685948,-2.7478695,-0.6951809,-1.0844588,22.855953,-0.38745403,-0.4952371,1.8200666
-15.822498,47.963776,11.520449,28.222279,1.7169037,0.5580489,-0.5280848,-0.79639477,0.78808373,0.41694495,0.29718626,0.6601182,0.66905,-0.23455065,1.2878615,-0.6514567,-1.7359151,-0.848855,2.2876368,1.4071442,-1.0405629,1.3535086,-0.7161669,-1.7694957,-0.87425065,2.2312837,1.345038,-1.01937,-1.4061605,1.4089271,0.80205405,0.47654143,0.9648406,0.47893658,-0.22330286,2.009407,-0.5227394,1.4385273,-3.0453281,-0.22028916,1.9681987,0.18920898,-0.49460983,0.9600963,0.8081651,-0.08987179,0.058066927,0.5791549,-0.8762775,0.710926,0.9026066,1.0,0.0,0.0,0.0,0.0,0.0,0.0,-2.6594071,0.122739404,-0.88852733,-2.7410746,-0.33175945,-3.6622405,17.679422,-0.38956404,-0.31790137,1.1953205
-5.846779,46.083504,11.3498955,19.827911,0.88660204,0.1560951,-0.29251623,-0.7987796,0.7835971,0.4135057,0.29577953,0.65530026,0.66890204,-0.25142798,1.2736306,-0.6378072,-1.7281451,-0.8446727,2.2968137,1.4119283,-1.0445127,1.3393008,-0.70211643,-1.7617424,-0.8687384,2.2408662,1.3498198,-1.0215386,-1.4259415,1.4040595,0.7663575,0.5756177,0.95683384,0.4780972,-0.2150908,1.9789734,-0.5249405,1.457458,-3.0422833,-0.22006892,1.8680449,0.18022919,-0.48748207,0.96913666,0.8106873,-0.09997827,0.05641807,0.5741143,-0.8971624,0.7220386,0.89770275,1.0,0.0,0.0,0.0,0.0,0.0,0.0,-2.6289735,0.124940485,-0.907458,-2.0830393,-0.42636395,-3.5808206,9.770525,-0.5625248,-0.06506443,0.73041916
6.046855,44.597168,11.237593,9.802944,-0.093292,-0.3677612,-0.009839401,-0.79774475,0.78419924,0.39042792,0.25277576,0.6590273,0.66411155,-0.26451072,1.2595263,-0.6236965,-1.7226995,-0.84346086,2.306769,1.4162309,-1.0479897,1.3249689,-0.6880984,-1.7543724,-0.8629391,2.2503915,1.3546015,-1.02365,-1.435743,1.4011089,0.7274183,0.5809296,0.95132655,0.47863027,-0.21028572,1.9485703,-0.52713776,1.475388,-3.0392418,-0.21984889,1.7679912,0.17134094,-0.48020554,0.9779573,0.81316775,-0.110039115,0.054968454,0.5688831,-0.8777759,0.739268,0.8699462,1.0,0.0,0.0,0.0,0.0,0.0,0.0,-2.5985703,0.12713775,-0.92538804,-1.0728598,-0.25737286,-3.7958264,0.398314,-0.41552782,0.22066236,0.37963688
12.921396,44.844505,11.703085,4.3779306,-0.5972849,-0.64026445,0.18880394,-0.80332357,0.782155,0.39224535,0.2341891,0.6624041,0.6634889,-0.23830752,1.2446365,-0.6098829,-1.7151479,-0.8395202,2.3166318,1.4209504,-1.0474808,1.3105723,-0.67410797,-1.7472847,-0.85748506,2.2598863,1.3593928,-1.0257043,-1.4413788,1.398449,0.70286644,0.53312045,0.9487463,0.48012444,-0.20425022,1.9181976,-0.529335,1.4923183,-3.0362031,-0.21962908,1.6680375,0.16281891,-0.47272682,0.98642755,0.8154567,-0.1198804,0.05377034,0.563709,-0.83631843,0.7599974,0.83254683,1.0,0.0,0.0,0.0,0.0,0.0,0.0,-2.5681977,0.12933502,-0.94231826,-0.64537525,-0.23815632,-2.2943616,-4.90185,-0.1795888,0.39483905,0.49502254
15.713495,47.541786,12.882752,3.4266167,-0.74268323,-0.6724698,0.26576382,-0.7993703,0.7842679,0.39804766,0.24376322,0.6494709,0.6655152,-0.20487769,1.2306353,-0.5956812,-1.7074798,-0.8331087,2.3248334,1.4259443,-1.046192,1.2961699,-0.6601252,-1.7403152,-0.85253835,2.2693238,1.3642012,-1.0276803,-1.4399836,1.3982251,0.69541204,0.481538,0.94245684,0.48185077,-0.19573629,1.8878555,-0.5315323,1.5082496,-3.0331676,-0.2194095,1.5681838,0.15473938,-0.46500587,0.9945492,0.81748104,-0.12949698,0.052823164,0.5587173,-0.78864384,0.7849985,0.79869723,1.0,0.0,0.0,0.0,0.0,0.0,0.0,-2.5378556,0.13153228,-0.9582496,0.07970333,0.003695488,-0.57986975,-5.25043,-0.5649328,0.4202962,0.7394284
17.67701,47.145622,12.833561,1.7039557,-0.88037133,-0.81860447,0.33674517,-0.80224735,0.78277475,0.39464223,0.1959159,0.65422267,0.66282487,-0.18524808,1.2159451,-0.5818477,-1.700851,-0.8329468,2.3347461,1.4304837,-1.046205,1.2817847,-0.64614433,-1.7333629,-0.84824014,2.2787232,1.3690249,-1.0295628,-1.4379891,1.3980691,0.6956761,0.41227603,0.93884057,0.4834311,-0.18601704,1.857544,-0.5337219,1.5231832,-3.0301352,-0.21919012,1.4684299,0.1471901,-0.45703697,1.0023123,0.81919825,-0.13885935,0.052114796,0.5540003,-0.73365873,0.80887514,0.7622646,1.0,0.0,0.0,0.0,0.0,0.0,0.0,-2.507544,0.13372192,-0.9731832,0.15232563,0.013947487,0.18835068,-7.004392,-0.30622482,0.43076277,0.8681208
16.736586,47.481644,13.002494,2.7363405,-0.7595512,-0.812792,0.34948418,-0.8067316,0.7829696,0.406252,0.17982134,0.6569608,0.65787774,-0.12279709,1.2011116,-0.5678474,-1.6927377,-0.830258,2.3444192,1.4348127,-1.0418426,1.2674013,-0.6321625,-1.7263229,-0.8445771,2.2881074,1.3738581,-1.03131,-1.4385574,1.398372,0.70708704,0.35083786,0.9381221,0.48409778,-0.17111647,1.8272629,-0.53591156,1.5371201,-3.0271056,-0.21897098,1.3687758,0.14017105,-0.44883347,1.0097423,0.82059395,-0.14798409,0.051612794,0.54960185,-0.6824065,0.8318358,0.73005587,1.0,0.0,0.0,0.0,0.0,0.0,0.0,-2.477263,0.13591155,-0.9871201,-0.10018349,0.066924095,1.2780786,-6.2097907,0.003361702,0.32073855,1.3940096
13.340658,48.338905,13.354182,6.5927687,-0.40527576,-0.6567506,0.3014282,-0.8015273,0.78243905,0.41665527,0.21352586,0.6462038,0.6595467,0.026038919,1.1872486,-0.5539186,-1.6846573,-0.8232245,2.352728,1.4398128,-1.0287061,1.2530314,-0.6181788,-1.7191188,-0.84119916,2.297461,1.3786951,-1.0328053,-1.4364396,1.398518,0.725069,0.33322093,0.93466544,0.4841247,-0.14268315,1.7970123,-0.5381012,1.5500611,-3.024079,-0.21875206,1.2692214,0.13355255,-0.44038963,1.0169346,0.82168335,-0.15699449,0.051264618,0.5454915,-0.6455313,0.8550294,0.7091146,1.0,0.0,0.0,0.0,0.0,0.0,0.0,-2.4470124,0.13810119,-1.000061,0.17175674,0.062084198,1.8819332,-1.8221438,-0.22099018,0.19677877,2.747777
7.7719817,47.392338,13.079449,12.194623,0.13199544,-0.44298607,0.18091923,-0.7923532,0.7761319,0.41694924,0.28434777,0.6303047,0.6624364,0.18138917,1.173796,-0.5405656,-1.677424,-0.8127644,2.3604915,1.4449388,-1.0146664,1.2387263,-0.6042227,-1.7117603,-0.8374989,2.3067384,1.3835284,-1.0339154,-1.4286822,1.3948178,0.7395094,0.38197047,0.92589873,0.48349312,-0.10071176,1.7667923,-0.540287,1.5620074,-3.0210557,-0.21853335,1.1697664,0.12713242,-0.43172455,1.0240165,0.82251656,-0.16607702,0.051004656,0.5415564,-0.6309042,0.87660134,0.7012808,1.0,0.0,0.0,0.0,0.0,0.0,0.0,-2.4167924,0.14028701,-1.0120075,0.7328987,-0.309515,1.4624,4.801643,-0.68979263,0.04938245,4.0955725
3.0920486,40.980587,10.619657,14.405329,0.41613388,-0.5129806,0.05082047,-0.79839844,0.76612014,0.38220465,0.30451715,0.62334543,0.66058713,0.23520969,1.1588864,-0.5276107,-1.6735399,-0.8070472,2.369073,1.4495871,-1.0103945,1.224465,-0.59035057,-1.7044647,-0.8331435,2.3159127,1.388354,-1.0345906,-1.4253795,1.3848668,0.72624147,0.45295194,0.91545177,0.48238572,-0.056831475,1.7366028,-0.542469,1.5729598,-3.0180352,-0.21831487,1.0704108,0.12077713,-0.4229164,1.0310087,0.8231852,-0.1752738,0.050837692,0.5376437,-0.6273986,0.88829356,0.69183654,1.0,0.0,0.0,0.0,0.0,0.0,0.0,-2.3866029,0.14246902,-1.0229597,0.2666235,-0.9273052,-1.333642,6.9895926,-0.83310604,-0.021451712,4.2941995
3.9337072,38.04193,9.589634,12.777571,0.3018602,-0.6858885,0.06956106,-0.7908166,0.760579,0.3726877,0.3000361,0.6206754,0.658564,0.2786854,1.1453834,-0.51429266,-1.6671959,-0.80313987,2.3779802,1.4542103,-1.0067221,1.2102572,-0.57659763,-1.6973846,-0.82818437,2.324988,1.3931681,-1.0348366,-1.4194989,1.3723726,0.70173097,0.50986785,0.90583915,0.48133224,-0.013974643,1.7064438,-0.54465103,1.5829194,-3.0150177,-0.2180966,0.97115463,0.11450195,-0.41401672,1.0378647,0.82371444,-0.18452223,0.050793257,0.5337285,-0.6182528,0.8959213,0.6767646,1.0,0.0,0.0,0.0,0.0,0.0,0.0,-2.356444,0.14465103,-1.0329194,0.5354881,-1.1864424,-2.4470448,5.5850563,-0.7734895,0.0047445297,4.195221
4.295365,32.445988,7.402271,10.213172,0.07022786,-0.9744925,0.05658826,-0.7924884,0.74974155,0.32940954,0.29368,0.58658457,0.6577007,0.3105398,1.1310084,-0.50162345,-1.6644436,-0.7988164,2.3836462,1.4589381,-1.0037826,1.1960894,-0.56299824,-1.6907375,-0.8228581,2.3338876,1.3979727,-1.0346745,-1.4161779,1.3560281,0.6524265,0.53975046,0.8852836,0.48077422,0.02611256,1.6763153,-0.54683304,1.5918871,-3.0120034,-0.21787855,0.87199765,0.10838318,-0.4051113,1.0444899,0.82414097,-0.19368458,0.050979488,0.52979153,-0.5995374,0.89468277,0.65112704,1.0,0.0,0.0,0.0,0.0,0.0,0.0,-2.3263154,0.14683303,-1.041887,0.2817154,-1.5728235,-4.9217463,2.86901,-1.8872738,0.10203123,3.9329047
8.067306,29.366547,6.278946,4.993525,-0.3626337,-1.3366075,0.17437157,-0.7959744,0.74012685,0.31202936,0.23256874,0.5811003,0.65078914,0.33887744,1.1164919,-0.48898554,-1.6595346,-0.7996012,2.3919976,1.4630516,-1.0007868,1.1819235,-0.5495762,-1.6846073,-0.81767774,2.3425813,1.4027735,-1.0341347,-1.4167435,1.337772,0.6001974,0.5104276,0.86475074,0.4804801,0.06312529,1.6462173,-0.5490074,1.599864,-3.008992,-0.21766073,0.77293986,0.1026001,-0.39626694,1.0507588,0.82445127,-0.20255917,0.051494837,0.5259259,-0.5608886,0.8867387,0.6124734,1.0,0.0,0.0,0.0,0.0,0.0,0.0,-2.2962174,0.14900741,-1.049864,-0.09071827,-1.7712355,-5.175543,-3.0396342,-1.941967,0.2076745,3.6368587
11.854942,26.220722,5.2151256,-0.003189087,-0.7855254,-1.7008724,0.29332194,-0.7891948,0.7239539,0.2863528,0.17322342,0.5440383,0.64846665,0.39668813,1.103004,-0.47718084,-1.655972,-0.8003554,2.396985,1.4676201,-0.99446595,1.1677767,-0.5363726,-1.6790054,-0.813164,2.3509965,1.4075724,-1.033223,-1.4140404,1.3147739,0.5471071,0.4313748,0.8338172,0.48083034,0.100302,1.6161499,-0.5511818,1.6068512,-3.0059836,-0.21744311,0.6739811,0.0973587,-0.38755417,1.056556,0.82461125,-0.21094854,0.05242878,0.52227205,-0.5026281,0.8710277,0.56268907,1.0,0.0,0.0,0.0,0.0,0.0,0.0,-2.26615,0.15118179,-1.0568511,0.2793789,-2.2460222,-5.2591324,-7.991588,-3.0318499,0.34541488,3.6658988
12.83909,22.399504,3.9882905,-2.1542597,-0.9041498,-1.9469041,0.32640722,-0.7806569,0.7032907,0.25151595,0.13523935,0.5096935,0.64505166,0.44601557,1.0897111,-0.46604353,-1.6538538,-0.79964006,2.4019659,1.4720776,-0.9886215,1.1536986,-0.5234484,-1.6739643,-0.8095801,2.3590417,1.4123751,-1.0319413,-1.4056423,1.2851377,0.4899594,0.33381483,0.794755,0.48115903,0.1371942,1.586113,-0.5533562,1.6128495,-3.0029783,-0.2172257,0.5751212,0.092754364,-0.37905884,1.061817,0.82462347,-0.21873519,0.0538331,0.51889586,-0.43710977,0.8464043,0.5082287,1.0,0.0,0.0,0.0,0.0,0.0,0.0,-2.236113,0.15335616,-1.0628495,0.8910656,-2.902794,-5.7031336,-9.83007,-3.8615823,0.36825538,3.6489038
14.491659,19.696424,3.184674,-4.8936596,-1.0606959,-2.190071,0.39107606,-0.77757293,0.6831406,0.23221754,0.048672326,0.48418283,0.6451823,0.46534324,1.0759413,-0.45513433,-1.6507425,-0.80471283,2.40746,1.4768933,-0.985407,1.1397158,-0.51085705,-1.6694458,-0.8072007,2.366675,1.4171816,-1.0303162,-1.3955512,1.25059,0.43900877,0.20572823,0.753006,0.48175713,0.17087482,1.5561066,-0.55552673,1.61786,-2.999976,-0.21700852,0.47636023,0.088871,-0.37086105,1.0664911,0.8244874,-0.22580917,0.05572133,0.5158738,-0.36234337,0.81406945,0.4485164,1.0,0.0,0.0,0.0,0.0,0.0,0.0,-2.2061067,0.15552673,-1.0678599,1.103282,-3.3898354,-5.107361,-12.858558,-4.1592956,0.4161656,3.338915
14.624823,23.583601,4.8852687,-3.2705154,-0.8705183,-2.0660055,0.4341839,-0.7717566,0.67237765,0.2573426,0.0133600505,0.48841852,0.6365553,0.49356663,1.0625402,-0.44361928,-1.6437114,-0.8058647,2.4155169,1.4808371,-0.9809596,1.1258436,-0.4985891,-1.6651733,-0.8060229,2.37398,1.4219862,-1.0283726,-1.384158,1.2191247,0.42321372,0.0883623,0.723443,0.48094156,0.20212929,1.5261307,-0.5576935,1.6218835,-2.9969764,-0.21679156,0.37769803,0.08569336,-0.36293983,1.0706348,0.8241612,-0.23222558,0.057980537,0.51329106,-0.2937972,0.78760475,0.3982938,1.0,0.0,0.0,0.0,0.0,0.0,0.0,-2.1761308,0.15769348,-1.0718834,1.240015,-3.0784369,-1.6097188,-11.7624,-2.9286385,0.22261739,3.0951233
11.81616,24.916006,5.566934,0.6565051,-0.47782677,-1.8758967,0.35970968,-0.76596504,0.65738535,0.24965115,0.004013802,0.48288676,0.636901,0.5128138,1.0492471,-0.43285057,-1.6402081,-0.8056215,2.4222686,1.4856763,-0.97709125,1.1120859,-0.4866181,-1.660958,-0.8057473,2.381064,1.4267794,-1.0261391,-1.3727391,1.190002,0.4206315,0.007190309,0.7036564,0.47951144,0.23042321,1.4961853,-0.5598602,1.6249212,-2.9939802,-0.2165748,0.27913445,0.08308029,-0.35523796,1.0743593,0.8236459,-0.2381313,0.06047574,0.5111199,-0.24108414,0.7651909,0.35936284,1.0,0.0,0.0,0.0,0.0,0.0,0.0,-2.1461854,0.15986022,-1.0749211,1.216507,-2.8377056,-0.315547,-8.155825,-1.9059062,0.099509954,2.7970462
9.364656,22.880651,4.994957,3.088376,-0.2521352,-1.8281186,0.2698645,-0.7497404,0.6344792,0.22636768,-0.016730415,0.43504748,0.6329453,0.5379233,1.0371119,-0.42317018,-1.6383213,-0.8074203,2.4245687,1.4900739,-0.9723468,1.0984904,-0.4749604,-1.6568172,-0.8060658,2.387877,1.4315535,-1.0236367,-1.3550837,1.1579356,0.41174722,-0.04506584,0.67420334,0.47741762,0.25669634,1.4662704,-0.562027,1.626974,-2.9909868,-0.21635827,0.18066943,0.08093643,-0.3477707,1.0777334,0.82298845,-0.2436257,0.06316993,0.5092603,-0.19813792,0.74161005,0.32589918,1.0,0.0,0.0,0.0,0.0,0.0,0.0,-2.1162705,0.16202697,-1.0769739,1.836586,-3.1267166,-0.9816587,-5.2823124,-2.8443217,0.0020623207,2.5924623
3.4882252,20.9821,4.0476246,8.755331,0.18861759,-1.6369013,0.041370206,-0.75829476,0.62963796,0.17756702,0.012649985,0.42457992,0.6299269,0.5368074,1.0226609,-0.4119966,-1.6390605,-0.8048008,2.430335,1.4945462,-0.969956,1.0849959,-0.46356827,-1.6529758,-0.80653596,2.3944116,1.4363028,-1.0209035,-1.3476908,1.1332576,0.37466106,-0.047987193,0.6472245,0.47458056,0.27866507,1.4363861,-0.5641861,1.6280428,-2.9879963,-0.21614197,0.08230285,0.079055786,-0.34052658,1.0808504,0.82230985,-0.24883255,0.06607421,0.5074671,-0.17669274,0.7195621,0.3030343,1.0,0.0,0.0,0.0,0.0,0.0,0.0,-2.0863862,0.16418609,-1.0780427,0.7189989,-2.3857355,-3.7721276,-0.4095599,-2.5506139,-0.13372898,2.1522284
-3.111724,10.31381,0.35522068,12.714827,0.6535643,-1.6663207,-0.21093692,-0.74709463,0.5921445,0.093405426,0.05208383,0.361597,0.62857306,0.5599706,1.0102865,-0.40435383,-1.6436353,-0.8013276,2.4305713,1.49916,-0.9649064,1.0715834,-0.45251614,-1.6498802,-0.80669713,2.4005456,1.4410235,-1.0179623,-1.3393124,1.096114,0.28749207,-0.0061399145,0.6028664,0.4716202,0.29901952,1.4065323,-0.5663452,1.6281288,-2.985009,-0.21592587,-0.015965383,0.07724762,-0.33359146,1.0837516,0.8217866,-0.25381285,0.06924701,0.50542134,-0.17517748,0.6846112,0.28202102,1.0,0.0,0.0,0.0,0.0,0.0,0.0,-2.0565324,0.16634521,-1.0781288,0.78332424,-3.6319256,-8.789343,4.0000296,-4.2662144,-0.17235279,1.975143
-2.7766695,-2.5558553,-3.695959,7.5078535,0.55084294,-2.1505728,-0.16201174,-0.73654956,0.53597784,0.048402973,-0.041882377,0.31784436,0.6340176,0.566116,0.99792844,-0.39891836,-1.6450399,-0.81088537,2.4323301,1.5044253,-0.96135074,1.0582834,-0.44202954,-1.6477916,-0.8068392,2.4061608,1.4457232,-1.0148362,-1.3268617,1.0331119,0.18223022,-0.017440543,0.54813266,0.47008622,0.31685063,1.376709,-0.56850433,1.6272328,-2.9820247,-0.21570998,-0.11413537,0.075531006,-0.32720184,1.0863049,0.82149714,-0.25835967,0.07272915,0.5030935,-0.16329876,0.62375844,0.24301384,1.0,0.0,0.0,0.0,0.0,0.0,0.0,-2.026709,0.16850433,-1.0772328,1.2925386,-6.222582,-10.644415,-1.2871375,-5.3725004,0.023120642,1.7301023
-6.744855,-9.924918,-5.960682,9.477076,0.9981258,-2.1833925,-0.2631384,-0.7463908,0.5006006,-0.013363419,-0.012049173,0.32888225,0.6370582,0.5643593,0.98364437,-0.39196947,-1.649128,-0.80804414,2.439049,1.509429,-0.95840025,1.0450388,-0.4322496,-1.6468494,-0.80703664,2.411345,1.4504114,-1.0115556,-1.3235741,0.9598272,0.06458384,-0.021077119,0.50897413,0.4689983,0.33156252,1.3469162,-0.57065964,1.6253558,-2.9790432,-0.21549432,-0.2122072,0.073825836,-0.3215027,1.0884689,0.8215089,-0.262394,0.076451406,0.5004274,-0.1668844,0.5521671,0.20461959,1.0,0.0,0.0,0.0,0.0,0.0,0.0,-1.9969162,0.17065963,-1.0753558,0.36182404,-7.2577357,-11.872199,-0.53745806,-3.821981,0.040233135,1.4134645
-5.707679,-18.692333,-8.250845,5.4087663,0.9858691,-2.50007,-0.15819252,-0.72536457,0.42735448,-0.048533197,-0.077685475,0.2670155,0.6391312,0.574265,0.97250235,-0.38951415,-1.6517028,-0.8148052,2.4380465,1.5143245,-0.95412904,1.031901,-0.42339808,-1.6469867,-0.80758023,2.41606,1.4550959,-1.0081395,-1.3099573,0.8605268,-0.040439818,-0.065877125,0.45908517,0.46863744,0.34476656,1.3171539,-0.5728111,1.6224989,-2.9760647,-0.21527886,-0.31018096,0.07213211,-0.31664848,1.0901583,0.82181656,-0.26578307,0.08033743,0.49751642,-0.16412446,0.46272308,0.15470144,1.0,0.0,0.0,0.0,0.0,0.0,0.0,-1.9671539,0.17281112,-1.0724988,1.5070915,-9.862053,-10.675417,-4.60113,-4.9472866,0.13381243,1.2690663
-7.795924,-19.912954,-8.060359,8.41613,1.3239473,-2.321052,-0.1878857,-0.7166193,0.37148157,-0.07103711,-0.038803227,0.20261405,0.6409698,0.5797972,0.96023905,-0.38624993,-1.6540904,-0.81146055,2.4363213,1.5191928,-0.9501598,1.0189272,-0.4156161,-1.6479785,-0.80837464,2.4201722,1.4597746,-1.0046033,-1.2928544,0.75092137,-0.11938303,-0.08433498,0.39557394,0.46818596,0.356274,1.2874222,-0.5749626,1.618663,-2.9730892,-0.21506363,-0.40805677,0.07036972,-0.31266022,1.0914016,0.822397,-0.26858896,0.08430503,0.4943843,-0.17550239,0.37735483,0.1123405,1.0,0.0,0.0,0.0,0.0,0.0,0.0,-1.9374222,0.17496261,-1.0686629,1.8508673,-10.904158,-8.065648,-1.9567266,-6.3035607,0.07888675,1.0890365
-13.363,-46.516914,-15.567163,6.3522606,2.1340773,-2.758283,-0.24471311,-0.6873517,0.21279544,-0.14473712,-0.07975865,0.15531054,0.6412311,0.5636608,0.95019203,-0.39433655,-1.6624522,-0.8163505,2.4357033,1.5238978,-0.9482372,1.0062414,-0.40943104,-1.6498287,-0.8094523,2.4236054,1.4644495,-1.0009793,-1.2596107,0.5745181,-0.20781629,-0.11578092,0.32576594,0.46767187,0.36431712,1.257721,-0.5771141,1.613849,-2.9701169,-0.21484861,-0.5058347,0.06834793,-0.30985832,1.0920913,0.823309,-0.27069902,0.08813398,0.49103624,-0.20771949,0.2476071,0.053245723,1.0,0.0,0.0,0.0,0.0,0.0,0.0,-1.9077209,0.1771141,-1.063849,3.6232948,-17.595219,-9.136107,-3.2064557,-6.9854975,0.056374073,0.74481964
-15.382414,-81.5917,-25.611168,-4.8293896,2.3148043,-3.7112014,-0.08321473,-0.67193365,0.0021378507,-0.15345506,-0.27785677,-0.02006505,0.6203927,0.536278,0.93904805,-0.40921727,-1.6651741,-0.83723795,2.421599,1.5264888,-0.9473515,0.99392855,-0.4057179,-1.6523845,-0.8117001,2.4259324,1.4691015,-0.9973072,-1.2201594,0.30365008,-0.27271888,-0.2609361,0.2011145,0.4646519,0.3679369,1.228035,-0.57925797,1.6080581,-2.9671474,-0.21463381,-0.60351497,0.06605148,-0.30885696,1.0918732,0.824615,-0.27161372,0.0916752,0.48767984,-0.23443474,0.050916415,-0.047559716,1.0,0.0,0.0,0.0,0.0,0.0,0.0,-1.878035,0.17925796,-1.058058,4.474807,-27.065557,-6.8756433,-14.445379,-12.626964,-0.24732947,0.29881
-13.337336,-107.07255,-32.587864,-17.99456,1.9301664,-4.55258,0.21142815,-0.6496268,-0.21694356,-0.1013983,-0.51443684,-0.28510448,0.6187791,0.4762738,0.92896587,-0.42741227,-1.6625243,-0.8631438,2.397422,1.5309795,-0.9496798,0.9820448,-0.405325,-1.6551139,-0.8164284,2.4263482,1.4737097,-0.99365747,-1.175781,-0.049015548,-0.27388623,-0.54274386,-0.012747135,0.45908427,0.3635367,1.1983795,-0.5814018,1.6012911,-2.9641807,-0.21441922,-0.7010976,0.06365967,-0.3102131,1.0903233,0.8263016,-0.2707455,0.0949123,0.4846795,-0.23936665,-0.19737232,-0.19097249,1.0,0.0,0.0,0.0,0.0,0.0,0.0,-1.8483795,0.18140182,-1.051291,5.072999,-35.32205,-0.3848076,-27.981972,-21.768713,-0.7514179,-0.58408976
-12.874946,-130.45795,-35.789146,-22.379206,3.053889,-4.5877647,0.6530571,-0.5480505,-0.56098133,0.17377168,-0.61104953,-0.48633352,0.6442286,0.49166465,0.9272398,-0.46142313,-1.6377368,-0.8775334,2.3777149,1.5381325,-0.944491,0.9709765,-0.40943056,-1.6563671,-0.82411695,2.4242501,1.4782606,-0.9900507,-1.0820142,-0.5317824,-0.07589338,-0.84340286,-0.27701223,0.45145854,0.35899764,1.1687546,-0.5835457,1.5935489,-2.961217,-0.21420485,-0.7985826,0.061058044,-0.31427383,1.0871985,0.8280627,-0.2680299,0.09722187,0.4827213,-0.26988956,-0.4749815,-0.3532543,1.0,0.0,0.0,0.0,0.0,0.0,0.0,-1.8187546,0.18354568,-1.0435488,9.905529,-48.49223,19.78192,-29.811192,-26.897924,-1.4572501,-0.69666505
0.30398047,-91.221565,-20.975561,-18.591228,2.759603,-3.5178425,1.1064997,-0.39492634,-0.6951442,0.392488,-0.63342816,-0.5675932,0.65954095,0.46484214,0.93148386,-0.478945,-1.6171182,-0.88745975,2.3674908,1.5442147,-0.94356644,0.9614254,-0.4181233,-1.6545589,-0.8342755,2.419684,1.4827429,-0.986503,-0.91277367,-0.9826548,0.26695845,-1.0731128,-0.5174818,0.4438856,0.3528565,1.1391602,-0.58568573,1.5848325,-2.9582565,-0.21399069,-0.8959702,0.058238983,-0.32053757,1.0826916,0.8293715,-0.26406202,0.098037936,0.48249632,-0.28786263,-0.6756015,-0.484119,1.0,0.0,0.0,0.0,0.0,0.0,0.0,-1.7891601,0.18568572,-1.0348325,16.930317,-45.350586,34.48309,-22.906578,-24.237144,-1.6694307,-0.77483654
32.37959,-16.786825,3.6850157,-21.253597,0.56217664,-2.746983,1.6346986,0.044015214,-0.7385429,0.39008704,-0.60834736,-0.5918107,0.6468809,0.32661632,0.9658269,-0.4919776,-1.6155502,-0.89511025,2.360503,1.547431,-0.9538414,0.9553591,-0.43034035,-1.6497028,-0.84585786,2.4131913,1.4871584,-0.983106,-0.5078842,-1.3017371,0.5604699,-1.1879392,-0.69217557,0.4386596,0.3354175,1.1095963,-0.58782196,1.5751431,-2.955299,-0.21377674,-0.99326044,0.055892944,-0.3280201,1.0772471,0.8296169,-0.25965646,0.09719372,0.48463154,-0.22008806,-0.7683974,-0.56650865,1.0,0.0,0.0,0.0,0.0,0.0,0.0,-1.7595962,0.18782195,-1.0251431,39.479233,-32.027126,29.940487,-11.859894,-17.147064,-1.1592567,-1.7020464
40.12244,25.907864,14.713648,-13.68523,-0.5417158,-2.147451,1.2874777,0.22024438,-0.7708662,0.25711095,-0.5460158,-0.5884674,0.65440226,0.20235914,0.97738355,-0.507427,-1.6239917,-0.9004594,2.3543446,1.5525986,-0.9628701,0.9537531,-0.44469124,-1.6433246,-0.85765386,2.405478,1.491551,-0.9799675,-0.049449332,-1.4796745,0.6663013,-1.1783508,-0.79643124,0.43844604,0.307125,1.0800629,-0.5899582,1.5644815,-2.9523442,-0.21356301,-1.0904534,0.05442047,-0.33595467,1.0712951,0.8287382,-0.25536984,0.0950432,0.48882094,-0.12461622,-0.7960279,-0.60710275,1.0,0.0,0.0,0.0,0.0,0.0,0.0,-1.7300628,0.18995818,-1.0144815,44.485302,-17.835545,11.43806,0.4812956,-10.096741,-0.33034682,-2.6961625
32.799072,33.40119,11.999366,-7.3712063,-0.99428093,-2.2811844,0.5492606,0.3229525,-0.78606784,-0.02117046,-0.5468467,-0.5276723,0.65109307,0.13115495,0.98604834,-0.523298,-1.6454417,-0.9123385,2.3527107,1.5566603,-0.96685195,0.9563023,-0.45996815,-1.6379821,-0.86897683,2.3972955,1.4959513,-0.9771551,0.35212788,-1.5439141,0.49404505,-1.1180341,-0.82578087,0.43977362,0.27278224,1.05056,-0.5920944,1.5528487,-2.9493923,-0.21334949,-1.1875491,0.0538826,-0.344162,1.0650148,0.8272326,-0.2511462,0.092273355,0.4940622,-0.030056084,-0.821742,-0.63770914,1.0,0.0,0.0,0.0,0.0,0.0,0.0,-1.70056,0.19209442,-1.0028486,38.89273,-6.482792,-16.114325,5.6955338,-2.935636,-0.08235574,-3.3913612
24.758614,24.2289,4.344206,-6.771391,-1.2421991,-2.853994,-0.026324823,0.4670763,-0.80114865,-0.3149165,-0.5782902,-0.45827493,0.6519425,0.08381176,1.0030099,-0.540083,-1.6694738,-0.92680585,2.351468,1.5611455,-0.9687739,0.9623791,-0.47540098,-1.6361301,-0.879781,2.3892694,1.500363,-0.9747013,0.68908936,-1.5433893,0.086579375,-1.0685465,-0.7956164,0.4405165,0.23586917,1.0210876,-0.59422684,1.5402457,-2.9464433,-0.21313618,-1.2845478,0.05426407,-0.35283852,1.0583258,0.82569754,-0.24651663,0.08951378,0.49943995,0.06387271,-0.87737215,-0.68263674,1.0,0.0,0.0,0.0,0.0,0.0,0.0,-1.6710876,0.19422683,-0.99024564,32.574665,-0.056385994,-39.4696,4.7478437,2.7759671,-0.23961663,-3.7873447
19.78939,18.712063,-0.17722559,-7.7879696,-1.5180075,-3.1352699,-0.24038282,0.5518139,-0.79942787,-0.48927113,-0.63610584,-0.44464177,0.63711786,0.10922418,1.0175605,-0.55534375,-1.6850572,-0.94339156,2.3448052,1.5640748,-0.96377885,0.97114813,-0.49057728,-1.638911,-0.8904793,2.3816857,1.5047652,-0.97256696,0.9368466,-1.5094103,-0.39641795,-1.0706539,-0.74694526,0.4387341,0.2055035,0.9916458,-0.59635544,1.5266733,-2.9434977,-0.2129231,-1.3814496,0.055583954,-0.36218262,1.0510685,0.8244997,-0.24101306,0.08720571,0.5044878,0.16083468,-0.947469,-0.7444803,1.0,0.0,0.0,0.0,0.0,0.0,0.0,-1.6416458,0.19635543,-0.9766733,23.982025,3.2864094,-47.30675,-0.3014326,4.618418,-0.5868077,-3.1877995
19.370121,21.14804,0.5031302,-8.397662,-1.6657548,-2.9752378,-0.15080458,0.63254434,-0.8005674,-0.57459587,-0.68030757,-0.44614932,0.62449366,0.10368003,1.0344026,-0.570634,-1.6963706,-0.9585101,2.3370707,1.5672145,-0.962199,0.98186266,-0.50537676,-1.6460273,-0.90154004,2.374556,1.5091368,-0.97069967,1.1146417,-1.4702843,-0.8149322,-1.118087,-0.7020429,0.4352706,0.1800262,0.9622345,-0.59848404,1.5121328,-2.9405549,-0.21271022,-1.4782543,0.057868958,-0.37215614,1.0431472,0.82367843,-0.23444046,0.08549655,0.5091972,0.25930023,-1.0088258,-0.81377184,1.0,0.0,0.0,0.0,0.0,0.0,0.0,-1.6122345,0.19848403,-0.96213275,17.29126,3.8424015,-41.29833,-4.787755,4.3616295,-0.78309774,-2.6577206
17.375309,26.213394,3.488766,-4.9508505,-1.3956497,-2.3941925,-0.046040982,0.67574316,-0.80491567,-0.6208352,-0.68766826,-0.45931014,0.62287545,0.047525533,1.0494369,-0.5858683,-1.7081108,-0.9703069,2.328625,1.5714244,-0.9659471,0.9938637,-0.5198707,-1.656348,-0.91313577,2.3677506,1.5134779,-0.9690927,1.2277675,-1.4424764,-1.1039299,-1.1734505,-0.67386043,0.43242797,0.1541522,0.9328537,-0.60061264,1.4966248,-2.937615,-0.21249755,-1.5749624,0.061019897,-0.38257408,1.0345831,0.82311064,-0.22692008,0.0843012,0.5137017,0.34282035,-1.0472877,-0.87767214,1.0,0.0,0.0,0.0,0.0,0.0,0.0,-1.5828537,0.20061263,-0.9466248,11.080599,2.749586,-28.724396,-5.5431843,2.78157,-0.658834,-2.6227891
13.138252,31.556244,6.7115774,1.4074292,-0.9288293,-1.6701505,-0.02487345,0.69885576,-0.804047,-0.6706021,-0.6624346,-0.50142825,0.6232448,0.019314403,1.0637493,-0.6002754,-1.7234082,-0.97937924,2.3176079,1.5758024,-0.9671613,1.0066019,-0.5341806,-1.6686637,-0.925071,2.3610024,1.5177981,-0.9677347,1.2889223,-1.4272039,-1.2742939,-1.200085,-0.67505276,0.4312442,0.12961565,0.9034996,-0.6027336,1.4801506,-2.9346778,-0.21228509,-1.6715738,0.06483078,-0.39318466,1.0254927,0.8226704,-0.21875282,0.083511576,0.5180601,0.4021296,-1.0598766,-0.9274507,1.0,0.0,0.0,0.0,0.0,0.0,0.0,-1.5534996,0.2027336,-0.93015057,6.051135,1.5079498,-17.063904,-2.6429653,-0.13884306,-0.37582517,-2.4462402
9.893704,35.196373,9.3141365,6.146139,-0.4822145,-1.0996904,0.03474573,0.70841956,-0.81157124,-0.68634933,-0.66258025,-0.5196606,0.61763835,0.035335146,1.0774438,-0.6153377,-1.7372987,-0.991329,2.3090365,1.579562,-0.96420115,1.0196635,-0.5484523,-1.6819217,-0.93713117,2.3541207,1.5221106,-0.9665817,1.3119049,-1.4273368,-1.3434386,-1.2079028,-0.6926039,0.43082663,0.110702224,0.8741722,-0.6048546,1.462711,-2.9317436,-0.21207285,-1.7680886,0.06907272,-0.40378952,1.0159948,0.82223445,-0.21023014,0.082985766,0.52234757,0.44121426,-1.054273,-0.9658238,1.0,0.0,0.0,0.0,0.0,0.0,0.0,-1.5241722,0.20485458,-0.91271096,2.3218632,-0.032925606,-7.052827,-0.7430792,-1.7745256,-0.21065474,-1.8457487
8.386427,41.893585,12.799683,10.3748455,-0.20003462,-0.577163,0.085277066,0.71426165,-0.8096644,-0.67055607,-0.6425287,-0.5480425,0.6349702,0.03728926,1.0910896,-0.62941873,-1.7489773,-1.001384,2.2993164,1.5856076,-0.9628528,1.0327898,-0.56276506,-1.695277,-0.9490874,2.3469644,1.5264403,-0.9655889,1.3130628,-1.4326584,-1.3335607,-1.1914631,-0.7230079,0.43352112,0.09579679,0.84487534,-0.60697556,1.4443069,-2.9288123,-0.21186082,-1.8645068,0.07361221,-0.4141922,1.0062245,0.8216873,-0.20163661,0.08260894,0.52663875,0.46638006,-1.0288403,-0.9895308,1.0,0.0,0.0,0.0,0.0,0.0,0.0,-1.4948753,0.20697555,-0.89430684,0.17199516,-0.54540634,0.78094006,1.6668797,-3.0502439,0.20835996,-1.411277
5.605782,43.011692,13.57123,13.101579,0.08562374,-0.31338173,0.08514538,0.69939977,-0.8149122,-0.67293733,-0.63445854,-0.5575,0.643893,0.081792526,1.1027298,-0.6442563,-1.7625707,-1.0125332,2.2912145,1.5908296,-0.9574097,1.045775,-0.5771665,-1.7082984,-0.96080804,2.3395028,1.5308062,-0.9646896,1.2940884,-1.4426802,-1.292345,-1.1653645,-0.75383955,0.4376203,0.08828104,0.815609,-0.6090927,1.4249393,-2.9258842,-0.211649,-1.9608287,0.07831192,-0.42430496,0.99626446,0.8209812,-0.19312812,0.08230999,0.5309581,0.47924644,-0.9979747,-1.0068461,1.0,0.0,0.0,0.0,0.0,0.0,0.0,-1.465609,0.2090927,-0.87493926,-1.7939568,-1.0239363,3.899455,2.657032,-3.1318069,0.38952827,-0.6642625
0.8659315,41.342506,12.727034,16.164877,0.43116468,-0.14272022,0.009324223,0.6716212,-0.81989926,-0.68119514,-0.6059622,-0.5725197,0.6574057,0.14820635,1.1129372,-0.65915644,-1.776418,-1.0214043,2.282251,1.5965468,-0.949869,1.0584265,-0.5916814,-1.7209194,-0.9721587,2.3317437,1.5352236,-0.96379983,1.2560399,-1.4545898,-1.2525781,-1.124647,-0.7837193,0.44308063,0.08946879,0.78637314,-0.61120605,1.4046092,-2.922959,-0.21143739,-2.0570543,0.08301544,-0.4341221,0.9861586,0.8201485,-0.18476915,0.08207947,0.535238,0.47729936,-0.96848494,-1.0202289,1.0,0.0,0.0,0.0,0.0,0.0,0.0,-1.4363731,0.21120605,-0.8546092,-3.6456108,-1.2334108,3.785491,4.163718,-3.1099558,0.5510986,0.18904805
1.3853302,42.5666,13.140841,15.632177,0.39289486,-0.13835952,0.043494448,0.6625037,-0.81971306,-0.6673474,-0.60914403,-0.576066,0.6622693,0.17751876,1.1246768,-0.6736527,-1.7876542,-1.0330731,2.274137,1.6014506,-0.94604796,1.0706927,-0.6062917,-1.7331665,-0.9831784,2.3237405,1.5396944,-0.9628662,1.217305,-1.4632419,-1.2159567,-1.0940889,-0.8064915,0.4484133,0.094951935,0.7571678,-0.6133194,1.3833176,-2.9200368,-0.211226,-2.1531835,0.08772278,-0.4436512,0.97591144,0.81918985,-0.17654635,0.08191531,0.5394897,0.47712255,-0.93921614,-1.0342354,1.0,0.0,0.0,0.0,0.0,0.0,0.0,-1.4071678,0.21331939,-0.8333176,-3.7069082,-0.9040117,3.4592152,3.1552792,-2.401483,0.5282521,0.6242797
4.0292215,44.42955,13.807386,13.571891,0.110633075,-0.21121511,0.1169534,0.65681434,-0.81809914,-0.66055024,-0.6168724,-0.6123447,0.66866076,0.23076485,1.1363741,-0.68810165,-1.7992215,-1.0448656,2.262506,1.6065605,-0.9397897,1.0826327,-0.6209497,-1.7451217,-0.99402547,2.3154626,1.5442148,-0.9618372,1.1865746,-1.4668053,-1.1892831,-1.0813575,-0.83523345,0.45333895,0.10586677,0.7279892,-0.61543274,1.3610654,-2.9171174,-0.21101482,-2.2492163,0.09250641,-0.45287514,0.96549684,0.8180725,-0.16839515,0.081876695,0.5437799,0.48708963,-0.9089657,-1.0517538,1.0,0.0,0.0,0.0,0.0,0.0,0.0,-1.3779892,0.21543273,-0.8110654,-2.9186487,-0.3843546,2.446723,1.3681412,-2.9778004,0.45551658,1.1653914
6.4329205,45.10244,14.135852,11.521432,-0.03030765,-0.303454,0.17664413,0.6494109,-0.8189998,-0.6577322,-0.6274182,-0.59497195,0.6628666,0.24507737,1.1475737,-0.7028497,-1.810895,-1.0567673,2.2559655,1.6105015,-0.9373294,1.0943304,-0.6356229,-1.7568958,-1.0048821,2.3070016,1.5487753,-0.9606918,1.164589,-1.4675245,-1.1740457,-1.0867788,-0.85001194,0.45658353,0.11769131,0.6988373,-0.61753845,1.3378537,-2.9142008,-0.21080385,-2.3451533,0.09744263,-0.46181488,0.95487165,0.81676257,-0.16023085,0.08195693,0.54818606,0.5041383,-0.88046,-1.0736412,1.0,0.0,0.0,0.0,0.0,0.0,0.0,-1.3488373,0.21753845,-0.78785366,-2.0554066,-0.09303093,1.2917042,-0.4449606,-1.5642166,0.25228262,1.2672514
6.4652157,47.56013,15.149848,12.217295,-0.008851111,-0.19469276,0.17768116,0.63319254,-0.8160768,-0.6381181,-0.6092513,-0.61218464,0.67753357,0.2715812,1.1576496,-0.7172306,-1.8207076,-1.0658072,2.245783,1.6165286,-0.93353367,1.1058184,-0.6502761,-1.7685001,-1.0157521,2.2983994,1.5533739,-0.95941865,1.1438594,-1.4647092,-1.1567658,-1.0869356,-0.86398226,0.46079773,0.13084105,0.6697159,-0.61964417,1.3136833,-2.911287,-0.21059309,-2.4409945,0.10255432,-0.47044182,0.94405466,0.8152434,-0.15206455,0.082146265,0.5527264,0.5196378,-0.8481086,-1.0918365,1.0,0.0,0.0,0.0,0.0,0.0,0.0,-1.3197159,0.21964416,-0.76368326,-1.9321203,0.26435852,1.4955521,0.07658005,-1.4833331,0.3689766,1.4031694
7.0348186,47.806038,15.303369,11.675194,-0.039710283,-0.1971792,0.19090961,0.6258793,-0.81681764,-0.6376006,-0.6172216,-0.6195119,0.67633665,0.291682,1.1684064,-0.7319579,-1.8322601,-1.0774742,2.2364483,1.6210076,-0.93025047,1.1171271,-0.6649007,-1.7799785,-1.0266602,2.2896714,1.5580088,-0.95801103,1.1269948,-1.4618176,-1.1454704,-1.0916615,-0.87574273,0.46419045,0.14436497,0.640625,-0.6217499,1.2885551,-2.9083762,-0.21038254,-2.5367398,0.10782623,-0.47875214,0.9330431,0.8135068,-0.14388315,0.08244385,0.5574113,0.53661203,-0.8163841,-1.1113303,1.0,0.0,0.0,0.0,0.0,0.0,0.0,-1.290625,0.22174987,-0.73855513,-1.54984,0.27251244,0.90038776,-0.3724575,-1.2612581,0.2728939,1.4422983
6.3312535,46.916443,15.011897,11.783877,0.10273641,-0.18112805,0.176516,0.6151448,-0.8198636,-0.6357577,-0.6193378,-0.59159636,0.6694483,0.29021835,1.1786416,-0.7468871,-1.8435543,-1.088594,2.2305117,1.6249536,-0.9289892,1.1282717,-0.67951673,-1.7913768,-1.0376198,2.2809396,1.5626684,-0.9564823,1.1107737,-1.4615767,-1.1388553,-1.0970854,-0.8724419,0.4663031,0.15602805,0.61156464,-0.6238518,1.2624704,-2.9054682,-0.21017219,-2.6323893,0.11323166,-0.48677063,0.9218285,0.81155777,-0.13566594,0.082783036,0.5622416,0.5499844,-0.787715,-1.1317592,1.0,0.0,0.0,0.0,0.0,0.0,0.0,-1.2615646,0.22385177,-0.71247035,-1.4845371,0.0028848648,0.4431486,-0.42660236,0.23901463,0.13924241,1.266259
4.5864253,46.751316,14.709069,12.706274,0.18162435,-0.116470456,0.13639344,0.6012972,-0.8171683,-0.64332175,-0.61039734,-0.6135427,0.67391914,0.33010665,1.1884015,-0.76123357,-1.855709,-1.0986595,2.2195854,1.6300603,-0.9234716,1.139237,-0.6941251,-1.802777,-1.0485814,2.272204,1.5673491,-0.9548229,1.0922228,-1.460712,-1.1411572,-1.0954607,-0.87458366,0.4683908,0.16965003,0.5825348,-0.62594986,1.2354298,-2.9025636,-0.20996206,-2.7279432,0.118759155,-0.49451256,0.91041416,0.8094218,-0.12740695,0.08317362,0.5671737,0.55930495,-0.7598309,-1.151389,1.0,0.0,0.0,0.0,0.0,0.0,0.0,-1.2325348,0.22594985,-0.68542975,-1.7124891,0.05941391,-0.42705536,0.29075146,-0.32405853,0.14028549,1.4497727
2.5483599,43.952454,13.141602,12.235085,0.19560194,-0.1517576,0.0893429,0.57836473,-0.818073,-0.66551936,-0.63499504,-0.6208716,0.661999,0.29419705,1.1970735,-0.77593243,-1.869329,-1.1120808,2.2101169,1.633549,-0.9254032,1.1499544,-0.70873255,-1.814326,-1.0596268,2.2634225,1.5720354,-0.9530672,1.0653225,-1.4608252,-1.1600162,-1.1070552,-0.8797736,0.4685389,0.17777522,0.55352783,-0.62804794,1.2074343,-2.8996618,-0.20975214,-2.8234017,0.124370575,-0.50201416,0.8987501,0.8071437,-0.119024925,0.08366507,0.57214695,0.5668983,-0.73668826,-1.1778977,1.0,0.0,0.0,0.0,0.0,0.0,0.0,-1.2035278,0.22804794,-0.6574343,-2.5231123,-0.04951954,-2.0709991,-0.99601746,-0.6513357,-0.09369254,0.8809656
3.1439018,45.682728,13.901245,11.511789,0.08662599,-0.06983355,0.13434082,0.55990887,-0.8126289,-0.65344787,-0.65962106,-0.6292909,0.66739273,0.3200407,1.2059454,-0.78999543,-1.8796709,-1.1255889,2.2004933,1.6387748,-0.9210631,1.1603628,-0.7233171,-1.8260067,-1.070905,2.2545648,1.5767256,-0.95122373,1.0332967,-1.4577435,-1.1715282,-1.1339403,-0.88817537,0.46881264,0.18665364,0.5245514,-0.630146,1.178485,-2.8967628,-0.20954244,-2.9187648,0.13006592,-0.50925064,0.8868103,0.804707,-0.11047945,0.084280744,0.57718086,0.5765141,-0.70919013,-1.2056339,1.0,0.0,0.0,0.0,0.0,0.0,0.0,-1.1745514,0.23014602,-0.628485,-3.0222893,0.27604103,-1.3631582,-2.5217295,-0.96788406,-0.093501806,0.95743835
-0.6338768,45.611652,13.576754,13.134985,0.31365663,0.11116177,0.08236774,0.51939005,-0.813859,-0.64808875,-0.6656435,-0.6272757,0.6689836,0.29451862,1.2123019,-0.804703,-1.8908155,-1.1374693,2.1918373,1.643624,-0.9217719,1.1703287,-0.73787683,-1.8377388,-1.0824559,2.2456384,1.5814196,-0.94932115,0.9848639,-1.4555327,-1.1744723,-1.161466,-0.89473706,0.46930474,0.19159415,0.49560547,-0.6322403,1.1485828,-2.8938668,-0.20933294,-3.0140326,0.13578415,-0.51621246,0.87460583,0.80212796,-0.10178177,0.08499781,0.5822427,0.5758562,-0.68125176,-1.2315979,1.0,0.0,0.0,0.0,0.0,0.0,0.0,-1.1456054,0.23224029,-0.5985828,-4.639077,0.182271,-0.5056381,-2.5672436,-0.80912113,-0.058156252,0.56185424
-10.492344,46.237885,12.741715,17.963783,0.8170593,0.5183045,-0.046993196,0.4322074,-0.80729836,-0.6247991,-0.6686949,-0.6524796,0.68099445,0.31207708,1.2135495,-0.8186067,-1.9002186,-1.1493254,2.1803904,1.6495191,-0.91811347,1.179484,-0.7523908,-1.8493564,-1.0942338,2.2365823,1.5861307,-0.9473671,0.89331937,-1.4501834,-1.1581435,-1.1824855,-0.909914,0.47147408,0.19681449,0.46669006,-0.63433075,1.1177286,-2.8909736,-0.20912366,-3.109205,0.14131546,-0.52288437,0.8621982,0.7994841,-0.09300305,0.08582438,0.58720505,0.5509978,-0.65182865,-1.2497531,1.0,0.0,0.0,0.0,0.0,0.0,0.0,-1.11669,0.23433074,-0.5677286,-8.8939905,0.48015118,1.4323711,-1.8898249,-1.7378926,0.16210079,0.56625605
-39.04956,35.42856,4.380232,28.07283,2.2789145,1.0526483,-0.47514772,0.2293375,-0.8110101,-0.6413812,-0.6883603,-0.63987786,0.65252227,0.25241175,1.2024177,-0.8334918,-1.9134946,-1.1630697,2.1725945,1.6513829,-0.9221259,1.186896,-0.766879,-1.8608692,-1.1062348,2.2274156,1.5908419,-0.9454149,0.6920404,-1.4488726,-1.149451,-1.2047911,-0.9202534,0.47091836,0.19449502,0.43780518,-0.6364212,1.0859234,-2.8880832,-0.20891458,-3.204282,0.14614105,-0.52941895,0.8495881,0.7970722,-0.0840964,0.08676577,0.59167176,0.46367228,-0.64355606,-1.2704766,1.0,0.0,0.0,0.0,0.0,0.0,0.0,-1.0878052,0.2364212,-0.5359234,-19.710339,-0.008630753,0.76100826,-1.8726587,-1.4674544,-0.093102455,-0.26281476
-90.59734,16.75642,-10.841858,44.946815,4.804671,2.0055015,-1.144985,-0.14987208,-0.81104946,-0.6462662,-0.74875325,-0.6056834,0.6166661,0.25555363,1.1719087,-0.84798396,-1.9254957,-1.1811101,2.1668472,1.6525085,-0.9198595,1.1907469,-0.7813749,-1.8723419,-1.1186669,2.2182565,1.5955168,-0.9434942,0.2852179,-1.4509717,-1.1465067,-1.2538173,-0.9173709,0.46599603,0.19074541,0.40894318,-0.63851166,1.0531682,-2.8851957,-0.20870571,-3.2992642,0.14928055,-0.53614426,0.8367013,0.79542446,-0.07486993,0.08780648,0.5949659,0.26638457,-0.67121536,-1.3001727,1.0,0.0,0.0,0.0,0.0,0.0,0.0,-1.0589432,0.23851165,-0.50316817,-39.955868,-0.5277157,0.31659603,-4.236603,-0.5551934,-0.5847275,-0.5142689
-95.30088,20.50526,-9.561045,46.51529,5.2221417,2.3687105,-1.0387166,-0.27836153,-0.8114142,-0.5659603,-0.7856092,-0.55372834,0.59821635,0.3907291,1.1629107,-0.8625163,-1.9289379,-1.1972278,2.1628838,1.6553384,-0.90442127,1.1903864,-0.79590315,-1.8834407,-1.1316998,2.2093034,1.600125,-0.9415029,-0.14058793,-1.454661,-1.0976939,-1.3171008,-0.89099807,0.45847204,0.2017974,0.3801117,-0.6405945,1.0194638,-2.882311,-0.20849705,-3.3941514,0.1503334,-0.5431061,0.8235735,0.79462427,-0.06532513,0.08873882,0.5970178,0.052927617,-0.69489735,-1.32188,1.0,0.0,0.0,0.0,0.0,0.0,0.0,-1.0301117,0.24059448,-0.46946377,-41.824097,-0.73235035,4.8372507,-5.5656195,1.7530322,-0.92281103,1.0767937
-83.93644,34.153515,-1.5412207,44.828262,4.9356265,2.6164415,-0.78991145,-0.3968648,-0.8082071,-0.46868685,-0.77823335,-0.5253743,0.6012853,0.45737904,1.1507,-0.8767239,-1.9303094,-1.2095231,2.156766,1.6602535,-0.895765,1.1861426,-0.81044954,-1.8936107,-1.1452191,2.200705,1.6046644,-0.93933904,-0.5167964,-1.4556317,-0.99074227,-1.3612087,-0.8518852,0.4521408,0.22162277,0.35131073,-0.6426773,0.9848113,-2.8794293,-0.2082886,-3.4889438,0.14937592,-0.5501518,0.8104011,0.79447913,-0.05570994,0.08930156,0.5981007,-0.1450501,-0.6977064,-1.3203408,1.0,0.0,0.0,0.0,0.0,0.0,0.0,-1.0013107,0.2426773,-0.4348113,-36.962364,-0.41544437,10.525,-3.7004232,3.1876802,-0.76776147,2.1072416
-64.527756,35.95421,0.7996266,36.074627,3.7255716,1.9315064,-0.6121433,-0.4514428,-0.8048418,-0.5817199,-0.7828309,-0.5842139,0.5926284,0.46958986,1.1409982,-0.89093375,-1.9517827,-1.2235022,2.1422837,1.6639273,-0.89238006,1.1789786,-0.8249778,-1.9033401,-1.1590474,2.192286,1.6091391,-0.9369739,-0.7811732,-1.4528953,-0.9672721,-1.3877267,-0.8406824,0.44507045,0.24183165,0.32254028,-0.64476013,0.94921154,-2.8765504,-0.20808035,-3.5836413,0.14683914,-0.557209,0.79714376,0.7948276,-0.045988984,0.089610115,0.59841806,-0.29294193,-0.69787306,-1.3315822,1.0,0.0,0.0,0.0,0.0,0.0,0.0,-0.97254026,0.24476013,-0.39921153,-25.925457,0.002169609,2.2021294,-1.9981384,0.536561,-0.92365146,2.1498382
-46.799934,32.993065,0.94438076,27.044846,2.6167254,1.1520877,-0.46797192,-0.49900052,-0.8125665,-0.6822649,-0.78545874,-0.61739993,0.57727826,0.47585818,1.1290785,-0.90623444,-1.9715666,-1.2375933,2.130546,1.6668669,-0.8893881,1.1699606,-0.83950895,-1.9135444,-1.1730263,2.183806,1.6135336,-0.9344219,-0.9406532,-1.4540268,-1.0383143,-1.3993821,-0.851884,0.43651903,0.25991336,0.29379654,-0.64683914,0.91266555,-2.8736744,-0.20787232,-3.678244,0.1431694,-0.56430435,0.7836049,0.79554754,-0.035942845,0.0898882,0.5981072,-0.3945926,-0.70185167,-1.3649459,1.0,0.0,0.0,0.0,0.0,0.0,0.0,-0.9437965,0.24683914,-0.36266553,-15.5658245,-0.3519535,-7.1654797,-0.56364536,-1.6236305,-1.1637151,1.8952906
-47.16744,29.314388,-1.6835742,25.603605,2.591907,0.93833053,-0.56629443,-0.6230381,-0.81027645,-0.7543898,-0.7821187,-0.58428293,0.54250467,0.394072,1.1076568,-0.9205366,-1.9889834,-1.2512382,2.1253777,1.6677841,-0.8950147,1.1595312,-0.8540477,-1.9249065,-1.1870244,2.1752763,1.6178175,-0.9317726,-1.0756513,-1.4547291,-1.1688116,-1.3976605,-0.85542566,0.42434877,0.26675597,0.2650795,-0.64891434,0.8751743,-2.8708012,-0.20766449,-3.7727525,0.13850403,-0.5715027,0.7696378,0.7966706,-0.025378225,0.09021314,0.5971042,-0.4946583,-0.7141711,-1.4108346,1.0,0.0,0.0,0.0,0.0,0.0,0.0,-0.9150795,0.24891433,-0.32517427,-13.13777,-0.3455162,-13.007307,0.8215666,-0.91501474,-1.6323149,0.7411182
-47.306103,33.349834,-0.01827526,26.309391,2.82034,1.1476189,-0.58538914,-0.71549284,-0.8080285,-0.76564205,-0.7701345,-0.51177937,0.55193835,0.34096262,1.0879819,-0.9348506,-2.0014708,-1.2640378,2.1240983,1.6730113,-0.89767635,1.1478049,-0.8685836,-1.9375007,-1.200908,2.1669374,1.6219946,-0.9291128,-1.2037816,-1.4540849,-1.2893536,-1.3831412,-0.8283023,0.41400775,0.2660851,0.23639297,-0.65098953,0.8367306,-2.867931,-0.20745687,-3.8682315,0.13279724,-0.578804,0.7552595,0.7982207,-0.0143125765,0.0904441,0.5953644,-0.60149807,-0.7224251,-1.4504887,1.0,0.0,0.0,0.0,0.0,0.0,0.0,-0.88639295,0.25098953,-0.2867306,-12.474608,-0.22625923,-11.976385,2.1048307,2.1461248,-1.475209,0.02411604
-42.924366,40.10307,4.02285,25.884209,2.9127033,1.3935575,-0.55350024,-0.76894575,-0.8062837,-0.7762522,-0.7553398,-0.4140892,0.5473975,0.20239244,1.0709103,-0.949212,-2.015126,-1.2764419,2.1255283,1.6767343,-0.90887356,1.134915,-0.8831014,-1.9510467,-1.2145741,2.1591783,1.6260782,-0.9265703,-1.3164585,-1.4518988,-1.3759911,-1.3592845,-0.7600655,0.405036,0.25085646,0.20773697,-0.6530647,0.7973329,-2.8650634,-0.20724946,-3.9636152,0.12602234,-0.5861206,0.74058324,0.8001743,-0.0028940865,0.09030582,0.59292287,-0.7075932,-0.72105557,-1.4771212,1.0,0.0,0.0,0.0,0.0,0.0,0.0,-0.85773695,0.25306472,-0.24733287,-10.983205,-0.05326271,-8.585501,2.9808998,6.322503,-1.3128102,-1.3730407
-34.01684,48.096333,9.602427,24.047731,2.8761253,1.5536709,-0.47143728,-0.79704386,-0.803428,-0.77969754,-0.741595,-0.258457,0.51194245,0.02860402,1.0552106,-0.96344423,-2.0290165,-1.2887336,2.1333325,1.6772724,-0.92370987,1.1211039,-0.897582,-1.9651515,-1.2279751,2.152533,1.6300608,-0.9243063,-1.4020694,-1.4475095,-1.4219091,-1.3319519,-0.63370883,0.39465547,0.21893923,0.17910767,-0.6551361,0.75698197,-2.8621988,-0.20704226,-4.0589037,0.11827469,-0.59334946,0.7257534,0.8024779,0.008695644,0.08944699,0.5898753,-0.8041748,-0.7091664,-1.4887044,0.0,1.0,0.0,0.0,0.0,0.0,0.0,-0.82910764,0.2551361,-0.20698196,-8.353329,0.21915436,-4.539275,3.217554,12.256742,-1.3910174,-2.9655366
-27.910967,53.533417,13.624227,23.747671,3.2275627,1.6422138,-0.52104723,-0.81825536,-0.80432177,-0.79285467,-0.6989366,0.011590547,0.4688115,-0.27139875,1.0392784,-0.9780142,-2.044437,-1.2978687,2.153692,1.676942,-0.9514462,1.1065029,-0.9118955,-1.9803578,-1.2416428,2.148488,1.6324357,-0.9227535,-1.47721,-1.4277482,-1.5480692,-1.3716185,-0.34175652,0.17423338,0.14137809,0.15930176,-0.65623856,0.74732333,-1.8412408,-0.031311072,-0.11368823,0.10964584,-0.60079956,0.7105637,0.80528903,0.02149242,0.087239526,0.58603495,-0.8864978,-0.7405862,-1.531612,0.0,1.0,0.0,0.0,0.0,0.0,0.0,-0.80930173,0.25623855,-0.19732332,-5.388856,0.005698204,-2.0004034,5.5767536,20.839691,-2.6433408,-5.5336924
33.134003,176.0,110.0,110.0,2.7485666,12.936396,-1.6155641,-0.7712522,0.59449553,0.67716426,0.6990404,-0.3524727,0.68380445,-0.37305698,1.0293777,-0.85244596,-1.9126413,-1.1717387,2.1132407,1.7008162,-0.9600592,1.094992,-0.9285543,-1.9884945,-1.242421,2.1360369,1.6431988,-0.92177886,-1.0303893,-1.6762146,-0.6775466,0.327875,-1.4489014,1.4269663,0.11779148,0.14090347,-0.65655136,0.74544287,-1.8393999,-0.031279765,-0.21282573,0.09995651,-0.6062622,0.699512,0.80854887,0.02396433,0.08739648,0.58140886,-1.0026103,-0.46432248,-0.9671073,1.0,0.0,0.0,0.0,0.0,0.0,0.0,-0.79090345,0.25655136,-0.19544286,48.28899,-4.1202784,54.49207,162.32388,-81.52246,140.25783,8.1630335
-47.329044,176.0,71.11449,103.81211,6.9914722,5.949084,-2.2928174,-0.81992495,-0.58285683,-0.17488877,0.7497708,-0.5345536,0.5647916,-0.34097493,1.0129995,-0.98684,-2.0059834,-1.167444,2.0825815,1.6996781,-0.95587635,1.0845646,-0.9448869,-1.9911152,-1.2318314,2.1199617,1.6573838,-0.9212858,-1.0456175,-1.619861,-0.12123917,1.3036914,-1.6628832,1.4210081,0.028164566,0.12252045,-0.65686417,0.7425718,-1.8375609,-0.031248493,-0.3118641,0.088638306,-0.61055374,0.6930965,0.81311905,0.01920053,0.08919631,0.5749023,-1.1749997,-0.40517637,-0.53686345,1.0,0.0,0.0,0.0,0.0,0.0,0.0,-0.7725204,0.25686416,-0.19257176,-1.1321545,5.347991,56.320824,97.96187,-22.230434,0.9796381,-8.449164
-66.788124,160.40565,44.831238,80.439,5.459907,3.6871848,-2.0472023,-0.8231354,-0.40142667,-0.47745013,0.70482326,-0.5536685,0.5763195,0.099564694,1.002251,-0.9850296,-2.0388603,-1.161349,2.064595,1.7150158,-0.9113293,1.0733017,-0.9586141,-1.9924332,-1.2152566,2.1042643,1.6709431,-0.9210264,-1.1513015,-1.2917496,-0.13530222,1.7774216,-1.5402659,1.3373847,0.025237413,0.10416031,-0.657177,0.738711,-1.8357236,-0.031217251,-0.41080347,0.075725555,-0.61434937,0.6897692,0.8190847,0.012086833,0.092213176,0.5660837,-1.3307703,-0.36171702,-0.27096888,1.0,0.0,0.0,0.0,0.0,0.0,0.0,-0.7541603,0.25717697,-0.18871099,-9.97951,32.401585,-1.4476746,47.978256,11.785555,-7.4020624,-0.30497575
-65.02856,98.78534,16.579672,48.124935,4.0222263,1.5051224,-1.3239008,-0.81907445,-0.5168659,-0.45630586,0.75085837,-0.50392014,0.51354253,0.07198114,0.9913942,-1.0103008,-2.0380638,-1.1401707,2.0538723,1.7222974,-0.9138283,1.0607055,-0.96968246,-1.9952561,-1.196719,2.090726,1.6832284,-0.92076796,-1.2942547,-1.0461717,-0.33264124,1.8805916,-1.2920128,1.1931247,0.025796872,0.08581543,-0.6574898,0.7338616,-1.8338883,-0.03118604,-0.50964385,0.061504364,-0.61795425,0.68772316,0.8260215,0.005253586,0.09591062,0.55539364,-1.4531276,-0.35101736,-0.1893225,0.0,1.0,0.0,0.0,0.0,0.0,0.0,-0.7358154,0.25748977,-0.18386161,-13.894677,24.251986,-20.11999,10.7789755,24.769688,-14.106321,-0.032579526
-45.31226,59.743774,4.177052,22.427212,2.2245085,0.29656923,-0.64678663,-0.8142793,-0.52197933,-0.4747693,0.74899584,-0.42451614,0.5585146,-0.14323857,0.9792776,-1.0218804,-2.042733,-1.1218195,2.0482743,1.7390798,-0.9350918,1.0469116,-0.978997,-2.0004768,-1.1787442,2.0798273,1.6941537,-0.9206411,-1.4073449,-0.8938418,-0.58648235,1.7705437,-1.0219834,1.05897,0.007844271,0.067489624,-0.6578026,0.72802454,-1.8320549,-0.03115486,-0.6083855,0.046463013,-0.6215248,0.6856539,0.83345973,-1.34207e-05,0.09967227,0.54351646,-1.5230991,-0.34738645,-0.21841222,0.0,1.0,0.0,0.0,0.0,0.0,0.0,-0.7174896,0.25780258,-0.17802453,-11.145568,15.0421505,-25.70954,-10.799122,27.004623,-13.414025,-1.9268159
-25.183784,38.667698,1.4386458,7.890788,1.111,-0.22489852,-0.16605996,-0.81409,-0.5262951,-0.4835723,0.755965,-0.357849,0.5606558,-0.24971901,0.9655026,-1.0316265,-2.048834,-1.1031477,2.0440423,1.7502192,-0.945613,1.0323318,-0.9875028,-2.0078735,-1.1623582,2.071374,1.7038659,-0.9207708,-1.4749173,-0.83650994,-0.79125345,1.5949075,-0.7868434,0.9416428,-0.020129472,0.04918289,-0.6581154,0.7212008,-1.8302231,-0.031123713,-0.70702845,0.030994415,-0.6250839,0.6829354,0.84104264,-0.0034365922,0.10305098,0.53105175,-1.5549645,-0.34569022,-0.29380912,0.0,1.0,0.0,0.0,0.0,0.0,0.0,-0.69918287,0.25811538,-0.17120081,-6.720209,5.6194544,-20.614994,-17.483616,23.406696,-11.860073,-2.875773
-11.023814,37.605106,5.6339717,3.6730347,0.7623302,-0.19250119,0.061008997,-0.8208666,-0.5025666,-0.49567538,0.750294,-0.22195303,0.54760927,-0.28152853,0.95024514,-1.0377594,-2.057441,-1.0873288,2.0491786,1.7586268,-0.9489237,1.0173534,-0.9957845,-2.016735,-1.1476105,2.0651178,1.7125367,-0.9211866,-1.505495,-0.8255961,-0.9176965,1.4348792,-0.572597,0.8416255,-0.048911802,0.030891418,-0.6584282,0.7133914,-1.8283932,-0.031092595,-0.80557275,0.015365601,-0.62859344,0.6794921,0.84857106,-0.005301659,0.105741225,0.51838005,-1.5680809,-0.3383908,-0.364091,0.0,1.0,0.0,0.0,0.0,0.0,0.0,-0.6808914,0.2584282,-0.16339141,-3.0902386,0.99203587,-12.587393,-15.978098,21.18634,-10.178196,-2.9057682
3.971426,46.66078,14.523385,3.1841333,0.6280437,0.13291979,0.21556756,-0.8047188,-0.514281,-0.41604927,0.7451168,-0.1364862,0.5948711,-0.3520006,0.93688154,-1.0472126,-2.05834,-1.0730989,2.0514693,1.7720238,-0.9563867,1.0023527,-1.0042166,-2.0260134,-1.1341425,2.0606563,1.7201492,-0.921861,-1.4987701,-0.8493909,-0.9289599,1.317977,-0.40393165,0.7368557,-0.074498124,0.011638641,-0.6579132,0.70877486,-1.941889,0.069046356,-0.390488,-0.00022888184,-0.63196564,0.6755292,0.8558962,-0.0060835863,0.10756153,0.5058016,-1.5587425,-0.32249525,-0.4086495,0.0,1.0,0.0,0.0,0.0,0.0,0.0,-0.6616386,0.2579132,-0.15877485,0.4993677,-2.5677323,0.32236576,-10.984588,17.288177,-8.224047,-3.181515
8.775746,96.80762,33.46453,14.881646,0.3051973,1.147424,0.09320989,-0.82555425,-0.29745778,-0.41166246,0.75776285,-0.1906557,0.5654181,-0.3414619,0.9197973,-1.0339624,-2.0671797,-1.0583662,2.0415907,1.776691,-0.9560072,0.9874169,-1.0119413,-2.034907,-1.1213143,2.057311,1.7269542,-0.9228089,-1.4926933,-0.7476152,-0.8739463,1.2701733,-0.31341377,0.6610393,-0.1024081,-0.008033752,-0.656868,0.7054274,-1.9757704,0.1192182,-0.31798726,-0.015602112,-0.63481903,0.67188215,0.8629786,-0.006599956,0.1091059,0.49327496,-1.5303154,-0.25792235,-0.35195148,0.0,1.0,0.0,0.0,0.0,0.0,0.0,-0.6419662,0.25686797,-0.1554274,0.35989285,9.932173,6.158602,-5.0261736,8.440524,-7.775581,-3.0448809
7.424941,121.98988,41.323524,22.738903,0.26350522,1.6114078,-0.043585736,-0.83023834,-0.19692494,-0.43363836,0.7602656,-0.21414506,0.5496096,-0.3342642,0.9043931,-1.0316339,-2.078271,-1.0452877,2.0358965,1.7819152,-0.9562353,0.9725234,-1.0181402,-2.0432537,-1.1086245,2.0544977,1.7331473,-0.9240172,-1.4892058,-0.5783507,-0.8185679,1.2677051,-0.27313697,0.6050924,-0.12815948,-0.02746582,-0.65533066,0.7031118,-1.9325763,0.16505659,-0.20389597,-0.030639648,-0.63687897,0.6691615,0.86983293,-0.0073132534,0.11102802,0.48063478,-1.4964182,-0.17478698,-0.2468003,0.0,1.0,0.0,0.0,0.0,0.0,0.0,-0.62253416,0.25533065,-0.15311182,0.055217743,16.607464,6.3585043,-0.5551815,3.2801151,-5.6798577,-2.9417918
2.9906006,129.99744,41.62883,26.954662,0.090128124,1.6910616,-0.14945295,-0.8306931,-0.10704129,-0.4839324,0.7691486,-0.31779593,0.56463575,-0.3167198,0.88945407,-1.0288444,-2.091647,-1.0317096,2.0227182,1.7896109,-0.9556892,0.957647,-1.0224127,-2.051383,-1.0957499,2.0515494,1.7388824,-0.9254413,-1.4881665,-0.3780493,-0.8081926,1.2932992,-0.30459395,0.5625428,-0.1486272,-0.04644394,-0.6533165,0.7020322,-1.8860947,0.21331066,-0.07663086,-0.045310974,-0.6380768,0.6675725,0.87646776,-0.008293106,0.113923475,0.4677145,-1.4586957,-0.08788704,-0.13042082,0.0,1.0,0.0,0.0,0.0,0.0,0.0,-0.60355604,0.2533165,-0.1520322,-0.1875639,19.674515,1.8899322,2.276945,-3.899175,-4.3718934,-2.470529
-0.25826073,123.989136,37.632584,27.157162,-0.07726437,1.5215161,-0.16590439,-0.82672143,-0.042720523,-0.51563996,0.78159815,-0.4254139,0.5938776,-0.28657988,0.8749749,-1.0266848,-2.102947,-1.01759,2.009008,1.7982702,-0.9540993,0.9427889,-1.0247816,-2.0596993,-1.0825205,2.047853,1.7442839,-0.9270195,-1.4859254,-0.19101825,-0.8366247,1.332226,-0.39348206,0.5322163,-0.16222958,-0.06496048,-0.65084076,0.70212835,-1.8400903,0.25898597,0.038025375,-0.05961609,-0.6384468,0.667034,0.8828606,-0.009411804,0.118175216,0.4544262,-1.4196869,-0.007929328,-0.028576976,0.0,1.0,0.0,0.0,0.0,0.0,0.0,-0.5850395,0.25084075,-0.15212834,-0.05083084,18.347412,-2.0120502,3.6604166,-9.615517,-3.1855226,-1.7803758
-1.9730484,114.7971,33.604393,25.718184,-0.02791673,1.3502924,-0.13645415,-0.8298857,0.01874264,-0.51979285,0.7837394,-0.46112153,0.61272365,-0.290187,0.85980034,-1.0229074,-2.1116786,-1.0041466,2.001741,1.8055563,-0.9560382,0.92793447,-1.0254968,-2.068374,-1.0689363,2.0431912,1.7494494,-0.92871124,-1.4861767,-0.032903936,-0.8748531,1.3665662,-0.49285546,0.5106231,-0.17275134,-0.083034515,-0.64793396,0.70323974,-1.7959926,0.30132547,0.13576354,-0.073539734,-0.6380806,0.66737205,0.8889776,-0.010547732,0.123810485,0.44077036,-1.3834928,0.06343077,0.05481395,0.0,1.0,0.0,0.0,0.0,0.0,0.0,-0.56696546,0.24793395,-0.15323973,-0.29232502,15.471467,-3.0035615,3.2322645,-10.656953,-2.352178,-1.4421314
-5.6815753,82.01761,21.783123,19.538923,0.20770484,0.80183893,-0.093153775,-0.8302233,-0.031055802,-0.55089164,0.7845789,-0.48127967,0.62666667,-0.33890876,0.8449121,-1.0286024,-2.1234632,-0.99047846,1.9950632,1.812116,-0.96260214,0.91307527,-1.0253614,-2.0775216,-1.0550854,2.0376217,1.75445,-0.930525,-1.4864578,0.028319616,-0.9261941,1.3908148,-0.5799215,0.49598292,-0.18518233,-0.10076141,-0.6447029,0.7048757,-1.7648919,0.33069605,0.1727758,-0.08724594,-0.6372032,0.66810226,0.89482,-0.011466997,0.13045552,0.4267868,-1.3648536,0.10725039,0.07970016,0.0,1.0,0.0,0.0,0.0,0.0,0.0,-0.54923856,0.2447029,-0.1548757,-0.20244122,5.879074,-4.5273304,2.3201466,-9.230196,-1.6269743,-1.5306652
-5.1077967,75.26402,19.449692,17.486664,0.24319893,0.68272495,-0.024670877,-0.8305013,0.027330259,-0.5680948,0.7829039,-0.51673967,0.63968784,-0.30964085,0.83002514,-1.0226284,-2.134331,-0.976795,1.9859477,1.8184187,-0.9614891,0.8982113,-1.024772,-2.0871687,-1.0410926,2.0312815,1.759342,-0.9324284,-1.4870381,0.068357825,-0.9754951,1.4017092,-0.6540693,0.4862995,-0.192969,-0.11818695,-0.6411934,0.70678437,-1.7347656,0.35762003,0.19718717,-0.10077667,-0.6359253,0.66897714,0.9003626,-0.012056545,0.13785683,0.4125498,-1.347698,0.14561854,0.09080087,0.0,1.0,0.0,0.0,0.0,0.0,0.0,-0.531813,0.24119338,-0.15678436,-0.23083687,3.7843883,-4.3368697,0.9795189,-7.9232216,-1.1320472,-1.0577619
-4.8631744,58.296272,14.117078,13.435447,0.3679278,0.3975723,0.041183546,-0.826608,-0.010755123,-0.58277214,0.7807704,-0.5250879,0.6424231,-0.3230973,0.8155505,-1.0258476,-2.1454458,-0.9630156,1.9787726,1.8235843,-0.96473813,0.88336164,-1.0241827,-2.097251,-1.027066,2.0243578,1.7641593,-0.93440545,-1.4846454,0.05538791,-1.0175837,1.4026735,-0.7063582,0.47969985,-0.20007083,-0.1353569,-0.63746643,0.70870966,-1.7110132,0.37757728,0.19094959,-0.11420441,-0.6343689,0.66974264,0.90559393,-0.012234018,0.1456923,0.39815038,-1.3386655,0.16987553,0.07266653,0.0,1.0,0.0,0.0,0.0,0.0,0.0,-0.5146431,0.23746642,-0.15870965,0.110435486,-1.4547921,-3.7285447,0.019598007,-5.6256294,-0.7937908,-0.94025433
-6.6582975,55.07098,12.385942,13.228445,0.45419556,0.34297067,0.060467415,-0.8314369,0.007818747,-0.62819487,0.7846938,-0.5536251,0.63704014,-0.25814903,0.8002179,-1.0234008,-2.1600704,-0.9485966,1.9689953,1.8278633,-0.96022034,0.86851484,-1.0237535,-2.1078367,-1.0130471,2.0169878,1.7689184,-0.9363949,-1.4849824,0.038163766,-1.0706061,1.4013544,-0.74845415,0.4741432,-0.19937581,-0.15229797,-0.63355255,0.710533,-1.6885335,0.396121,0.17927094,-0.12758255,-0.63258743,0.6702856,0.9105086,-0.01192823,0.15382867,0.38362536,-1.3342235,0.19143282,0.04895237,0.0,1.0,0.0,0.0,0.0,0.0,0.0,-0.497702,0.23355255,-0.16053301,-0.14955997,-1.8757969,-4.846263,-0.19328594,-4.5881867,-0.69723725,-0.15555322
-7.991493,43.46974,8.49662,10.939238,0.56903094,0.16653079,0.09598485,-0.83233994,-0.04728311,-0.65037435,0.7788848,-0.5572967,0.63554937,-0.24602917,0.7852808,-1.0284818,-2.1728742,-0.9351586,1.9612582,1.8324733,-0.96099776,0.85365945,-1.0237546,-2.1189413,-0.9990737,2.009305,1.7736294,-0.9383604,-1.4860162,-0.013160714,-1.1225324,1.3959528,-0.7760048,0.46962923,-0.19623154,-0.16905594,-0.6294899,0.7120787,-1.6718059,0.40973806,0.1462733,-0.14097595,-0.630661,0.6704449,0.9151143,-0.011070443,0.16207439,0.36901927,-1.3385135,0.20433745,0.005844858,0.0,1.0,0.0,0.0,0.0,0.0,0.0,-0.48094404,0.2294899,-0.16207868,-0.17697811,-5.249309,-4.8322678,-0.55708885,-3.043139,-0.5757868,0.12871623
-8.110118,46.58529,9.103973,11.764238,0.5587869,0.1985588,0.13979135,-0.83071107,-0.041730996,-0.68621445,0.7846104,-0.60003924,0.6345626,-0.12011101,0.77058834,-1.0279276,-2.1875627,-0.92061263,1.9493011,1.8370857,-0.9503715,0.83880025,-1.0242009,-2.1305993,-0.9851262,2.0013134,1.7783006,-0.9401991,-1.4862156,-0.055567622,-1.1790406,1.3943032,-0.80785465,0.46590525,-0.18038143,-0.1856308,-0.6252823,0.7133355,-1.6523588,0.42420456,0.11860178,-0.15439606,-0.6285782,0.6702069,0.91938925,-0.009633087,0.17042425,0.3543814,-1.3413604,0.21935837,-0.032913208,0.0,1.0,0.0,0.0,0.0,0.0,0.0,-0.46436918,0.22528228,-0.1633355,-0.10385513,-4.373134,-5.253315,-0.18210411,-3.5099745,-0.51336884,1.3852328
-11.796613,13.96074,-1.1355939,5.2112465,0.6331519,-0.29080832,0.22206411,-0.83310556,-0.22179459,-0.7098699,0.7758541,-0.59729785,0.6141535,-0.067646995,0.7554897,-1.0463804,-2.2015862,-0.9075408,1.9415836,1.839716,-0.9469638,0.82393533,-1.0257974,-2.1428025,-0.9712102,1.9930605,1.782926,-0.9418415,-1.4863663,-0.19448401,-1.2335712,1.3912405,-0.83114755,0.46106422,-0.15913215,-0.20215607,-0.6210327,0.71386284,-1.652028,0.4251465,0.030168263,-0.16802216,-0.6265297,0.6691685,0.9233651,-0.007447923,0.17853588,0.33980325,-1.3665506,0.21123266,-0.12663297,0.0,1.0,0.0,0.0,0.0,0.0,0.0,-0.4478439,0.22103271,-0.16386282,0.04324913,-13.923292,-5.3887367,-0.16372204,-2.3292303,-0.54012537,2.0517735
-10.802866,17.09217,0.15249944,5.3614235,0.638994,-0.19913834,0.29494214,-0.8347671,-0.2376057,-0.71593887,0.77002966,-0.60865754,0.6100815,0.067744784,0.7404586,-1.0495579,-2.2143965,-0.89420724,1.9321947,1.843934,-0.935067,0.8090618,-1.0287404,-2.1554327,-0.95734465,1.9846033,1.7875017,-0.9431825,-1.4875373,-0.3278512,-1.272231,1.3855522,-0.8505464,0.45614898,-0.12597844,-0.21866989,-0.61676407,0.7135405,-1.6507859,0.4272217,-0.05284653,-0.18188477,-0.624527,0.66723627,0.92704046,-0.0045027304,0.18626346,0.3253946,-1.3899428,0.20795344,-0.21479502,0.0,1.0,0.0,0.0,0.0,0.0,0.0,-0.43133008,0.21676406,-0.16354048,-0.07197857,-13.383781,-3.7568808,-0.40721893,-1.9890428,-0.5797744,3.257686
-9.370497,21.952345,2.0303843,6.160164,0.73992836,-0.096781075,0.30069852,-0.830321,-0.28870606,-0.72187555,0.7783887,-0.5959801,0.6105323,0.101464204,0.72602975,-1.057611,-2.2276204,-0.87950575,1.9250053,1.848555,-0.9330361,0.7941988,-1.0329576,-2.168334,-0.9434897,1.9760492,1.7920336,-0.9441858,-1.4859059,-0.4530948,-1.2951827,1.3861363,-0.85738635,0.4516646,-0.0919582,-0.23514557,-0.6124649,0.71245074,-1.6462659,0.43094897,-0.12784517,-0.19596481,-0.6225128,0.66449594,0.9304214,-0.0008993017,0.19355848,0.31120762,-1.4115657,0.2096209,-0.2932017,0.0,1.0,0.0,0.0,0.0,0.0,0.0,-0.4148544,0.2124649,-0.16245073,0.18789768,-12.590879,-2.1254063,0.22656918,-0.8015156,-0.5814254,3.3580542
-8.886829,31.052174,4.673135,8.010715,0.8188198,0.07640463,0.31768262,-0.83512694,-0.3265024,-0.72978866,0.77545905,-0.5994538,0.59287333,0.2056419,0.7106861,-1.0656078,-2.241313,-0.8659438,1.9161038,1.8513209,-0.9236216,0.7793291,-1.0382504,-2.181388,-0.9296309,1.9674633,1.796512,-0.94480187,-1.4873013,-0.55515695,-1.3075322,1.3862404,-0.8596707,0.4459357,-0.051654726,-0.2515335,-0.6081047,0.7107202,-1.6361798,0.437753,-0.18827462,-0.2102356,-0.6204262,0.66108894,0.9335076,0.0032687283,0.20044897,0.29727602,-1.428807,0.21968248,-0.35647318,0.0,1.0,0.0,0.0,0.0,0.0,0.0,-0.39846647,0.2081047,-0.16072017,-0.15201569,-10.305368,-0.955987,0.16036034,-0.4594326,-0.7486284,3.9753869
-5.9027643,42.78747,8.467082,9.878693,0.88897306,0.26451588,0.31937605,-0.8279496,-0.35226896,-0.7256763,0.7778822,-0.5841369,0.6056503,0.25600442,0.69653416,-1.0734774,-2.2539556,-0.85184264,1.9090495,1.857077,-0.91920143,0.7644747,-1.044352,-2.1944685,-0.9157635,1.95893,1.8009486,-0.9450117,-1.4851259,-0.6290318,-1.3069909,1.3872963,-0.8525075,0.44211838,-0.011039359,-0.2677536,-0.60364914,0.7085294,-1.6175003,0.44786128,-0.22970125,-0.22459793,-0.61818314,0.65719837,0.93629384,0.007869519,0.2069837,0.28363618,-1.436847,0.23816334,-0.40013885,0.0,1.0,0.0,0.0,0.0,0.0,0.0,-0.38224638,0.20364913,-0.1585294,0.14388561,-7.516539,0.48270226,0.19350052,0.34265518,-0.59731007,3.9769032
-4.2696486,51.021946,10.712616,11.035095,0.85274696,0.3953088,0.34105945,-0.8287297,-0.37495205,-0.73091906,0.76781523,-0.59720886,0.60666484,0.32739285,0.6816017,-1.0818473,-2.2675605,-0.838982,1.8992091,1.8616151,-0.9122724,0.7496384,-1.0510182,-2.2075272,-0.90193665,1.9504428,1.8053544,-0.94480187,-1.4835913,-0.6796264,-1.3037808,1.3812178,-0.84915644,0.43929857,0.03118934,-0.28373718,-0.59908295,0.7060163,-1.5919601,0.45961502,-0.258862,-0.23898315,-0.6157112,0.65295935,0.9387685,0.012837763,0.21324983,0.270321,-1.4364989,0.26232317,-0.43215466,0.0,1.0,0.0,0.0,0.0,0.0,0.0,-0.3662628,0.19908294,-0.15601629,0.036883354,-5.2072883,0.8555174,-0.5701065,-0.14454126,-0.5138278,4.1031933
-2.1036022,61.82913,13.921827,13.291053,1.0113447,0.5570096,0.31146586,-0.8233733,-0.38209173,-0.71141964,0.7779045,-0.57803863,0.62162536,0.36253753,0.66730106,-1.0892274,-2.278669,-0.8241462,1.8926389,1.8675169,-0.9085481,0.73483545,-1.0580125,-2.2204514,-0.8881312,1.9420421,1.8097489,-0.94418585,-1.4797447,-0.7066329,-1.2865622,1.3802347,-0.8390074,0.43865338,0.071242355,-0.29940796,-0.59438324,0.70333123,-1.5583607,0.47345123,-0.27106497,-0.2533188,-0.61294556,0.648543,0.9409337,0.018047465,0.21930918,0.2573351,-1.4290426,0.2928607,-0.4452741,0.0,1.0,0.0,0.0,0.0,0.0,0.0,-0.35059202,0.19438323,-0.15333122,0.21250248,-2.8729916,2.405548,-0.12187958,0.39881468,-0.32622218,3.8563774
-4.920006,52.47425,10.7221155,11.729147,1.100975,0.43935204,0.28822798,-0.8316504,-0.4516228,-0.71528935,0.77021915,-0.5365869,0.60066473,0.36270484,0.6516704,-1.1031748,-2.2919803,-0.8111093,1.8883834,1.8698153,-0.90791535,0.72002965,-1.065455,-2.2332304,-0.8743553,1.9338486,1.8141243,-0.9432143,-1.481226,-0.75711507,-1.2731225,1.376907,-0.81449085,0.43594173,0.10567123,-0.3148079,-0.58958435,0.7003841,-1.5336019,0.48383862,-0.30247337,-0.26766205,-0.6099129,0.64388263,0.9428399,0.023497652,0.22504552,0.24465328,-1.4313884,0.31926426,-0.47328487,0.0,1.0,0.0,0.0,0.0,0.0,0.0,-0.33519208,0.18958434,-0.15038407,-0.26640892,-5.1980615,1.9005775,-0.28252602,1.9629598,-0.50716996,3.3435254
-2.3874664,62.71164,13.500724,13.531145,1.1054864,0.56291103,0.28788936,-0.82325315,-0.42892003,-0.7030239,0.7720072,-0.55350953,0.5948402,0.42836586,0.6377043,-1.1083469,-2.3035328,-0.7971546,1.8784977,1.8736084,-0.9003777,0.7052372,-1.0732083,-2.2458491,-0.8606041,1.9258394,1.8184705,-0.94189197,-1.4791231,-0.7821307,-1.2559233,1.3744833,-0.79835993,0.43307707,0.14084151,-0.32989502,-0.584671,0.6972366,-1.4996927,0.49532923,-0.31810457,-0.2819519,-0.606575,0.63906157,0.94448835,0.029152641,0.23051909,0.23227756,-1.4232789,0.3502994,-0.4857011,0.0,1.0,0.0,0.0,0.0,0.0,0.0,-0.32010496,0.18467101,-0.14723659,0.03979206,-2.6727319,2.414894,-0.25200844,1.0451317,-0.6542742,3.4727633
-3.7249556,62.608364,12.908833,13.896246,1.1770673,0.5676757,0.26320282,-0.8294233,-0.45406902,-0.6972717,0.7697054,-0.5364981,0.58448213,0.44315842,0.6222949,-1.1186153,-2.3155763,-0.7836336,1.8721896,1.8769187,-0.89757615,0.6904381,-1.0812135,-2.2583077,-0.84687954,1.9179978,1.8227804,-0.9402433,-1.4807079,-0.8071794,-1.2401818,1.3718357,-0.78144324,0.42929268,0.17255796,-0.34465027,-0.57964706,0.6939086,-1.4667789,0.5057611,-0.3365939,-0.29616547,-0.6029167,0.6341115,0.94589186,0.035001162,0.23575525,0.22018819,-1.4167987,0.38181952,-0.49857852,0.0,1.0,0.0,0.0,0.0,0.0,0.0,-0.3053497,0.17964706,-0.14390856,-0.32219887,-2.6747465,2.2657871,-0.26659966,1.065886,-0.67812204,3.0659735
-4.4855475,59.60363,11.453018,13.069874,1.0422711,0.49778792,0.27511597,-0.82947767,-0.47629097,-0.7144208,0.7604379,-0.5451885,0.55647886,0.46755227,0.6074903,-1.1288426,-2.3297498,-0.77083576,1.863479,1.8784282,-0.89348805,0.67562073,-1.0894912,-2.2707317,-0.8332161,1.910258,1.8270346,-0.9382977,-1.4826487,-0.8351517,-1.2410415,1.3645506,-0.7733155,0.42309064,0.20167463,-0.3590927,-0.57453537,0.6903376,-1.4357744,0.51404864,-0.3624524,-0.3103218,-0.5989723,0.6289746,0.9470563,0.04112573,0.24077997,0.20836984,-1.4100125,0.4107969,-0.51928455,0.0,1.0,0.0,0.0,0.0,0.0,0.0,-0.29090726,0.17453536,-0.14033759,-0.3405571,-2.9587984,0.556159,-0.71258545,0.22610426,-0.9140253,2.8095305
-2.470587,61.25559,12.146758,13.054976,1.1011006,0.51673603,0.2758121,-0.8231589,-0.4908013,-0.6885388,0.76526934,-0.52104706,0.5575603,0.5095995,0.5933049,-1.1385714,-2.3395855,-0.75668913,1.8581533,1.8827906,-0.88733774,0.6608139,-1.0980495,-2.2830832,-0.8195967,1.9026365,1.8312305,-0.93606347,-1.4805727,-0.8633496,-1.2309802,1.3609892,-0.7602431,0.41745475,0.2304745,-0.37321472,-0.5693474,0.6865132,-1.4032235,0.52119017,-0.38713965,-0.32437515,-0.5947304,0.62365925,0.94799477,0.04749634,0.24557123,0.19683659,-1.4002749,0.43967932,-0.53630966,0.0,1.0,0.0,0.0,0.0,0.0,0.0,-0.27678525,0.16934738,-0.13651317,0.04477501,-2.977872,1.6911745,-0.35996437,0.6793022,-0.8671522,2.781123
-3.5826044,48.527115,8.679261,9.734119,0.950897,0.3517878,0.31635362,-0.82798725,-0.5543796,-0.69408876,0.74851674,-0.4952317,0.52332366,0.53757656,0.5780152,-1.1534874,-2.352492,-0.744745,1.8531134,1.8835629,-0.8823058,0.64601284,-1.1071151,-2.2953732,-0.80606914,1.8951902,1.835348,-0.93355167,-1.480348,-0.9214126,-1.2264901,1.3502378,-0.7408331,0.4088657,0.25800398,-0.3870964,-0.5641098,0.68226683,-1.3817279,0.5252989,-0.43514007,-0.33839798,-0.5902481,0.61801094,0.9487452,0.054165088,0.24998768,0.18562037,-1.3974162,0.46277198,-0.5749251,0.0,1.0,0.0,0.0,0.0,0.0,0.0,-0.26290357,0.1641098,-0.13226682,-0.08015633,-5.9327126,0.961709,-1.0057688,1.4646649,-1.1424661,2.7104259
-0.85762215,56.68024,10.958238,11.165605,1.034558,0.45032007,0.30719218,-0.8205071,-0.54223156,-0.6730589,0.7511886,-0.49434698,0.49942204,0.5760472,0.5639621,-1.1613383,-2.362679,-0.7309503,1.8457556,1.8852903,-0.87594694,0.6312433,-1.1166309,-2.3075335,-0.7926296,1.8879209,1.8393683,-0.9307655,-1.4762522,-0.96218926,-1.2105644,1.3419086,-0.72391903,0.39877376,0.28532156,-0.40070724,-0.5588341,0.67762715,-1.3528732,0.529161,-0.47105095,-0.35233688,-0.58551025,0.6120794,0.94931746,0.061083484,0.25403202,0.17473641,-1.386386,0.4882698,-0.60002935,0.0,1.0,0.0,0.0,0.0,0.0,0.0,-0.24929273,0.15883407,-0.12762713,0.26049614,-4.215455,2.2369146,-0.82023144,1.0948181,-1.3121545,2.665782
0.5522368,59.96749,11.896991,11.645424,1.1440451,0.48975968,0.2970177,-0.82013065,-0.5615482,-0.648876,0.74319994,-0.4673351,0.45513418,0.5990593,0.5492302,-1.1727858,-2.372421,-0.7183096,1.8411874,1.8848817,-0.87085956,0.6165146,-1.1265128,-2.319435,-0.77928823,1.8808663,1.8432627,-0.9277179,-1.472306,-0.997283,-1.1812292,1.3314922,-0.7012408,0.38526732,0.31112587,-0.41401672,-0.553524,0.672654,-1.321846,0.5322165,-0.5035667,-0.36613846,-0.58052063,0.6059446,0.9497315,0.06816896,0.25768867,0.16419381,-1.3723967,0.51443255,-0.618704,0.0,1.0,0.0,0.0,0.0,0.0,0.0,-0.23598325,0.15352401,-0.12265396,0.2266407,-3.6468148,3.6379814,-1.0531425,1.6088486,-1.6582847,2.5134444
0.7758875,58.673775,11.470959,10.925608,1.2577808,0.42762852,0.29766837,-0.8228622,-0.58610004,-0.6422048,0.71437615,-0.3767087,0.33536968,0.61950153,0.5342284,-1.1851227,-2.3836553,-0.70785064,1.8431954,1.8767996,-0.8657678,0.6018042,-1.1367419,-2.331046,-0.76616234,1.8742658,1.84694,-0.92442614,-1.4711256,-1.0318599,-1.152298,1.3062384,-0.6480488,0.36088482,0.33518776,-0.4270439,-0.5481949,0.6673084,-1.2944012,0.5342059,-0.5419313,-0.37981796,-0.5752754,0.5996134,0.95004135,0.075393066,0.26081365,0.15399204,-1.3606403,0.5393923,-0.63870305,0.0,1.0,0.0,0.0,0.0,0.0,0.0,-0.22295606,0.14819488,-0.11730838,-0.043201447,-3.5849333,3.5727024,-2.537775,4.6654463,-2.7524412,2.3628354
4.7749786,66.03799,14.141463,11.9747715,1.7506737,0.50760734,0.2358008,-0.8134084,-0.5848528,-0.58709085,0.6971713,-0.1976037,0.28920084,0.62268525,0.52046335,-1.1952271,-2.3897552,-0.6964452,1.8545054,1.8758601,-0.8621576,0.5871367,-1.1472151,-2.3421729,-0.75334835,1.8686887,1.8503509,-0.92091656,-1.4659002,-1.0528177,-1.0970609,1.2728257,-0.5297208,0.33325756,0.35621655,-0.43977737,-0.54284286,0.6616376,-1.2645675,0.53627247,-0.5727375,-0.39337158,-0.56975555,0.5932175,0.950351,0.082514115,0.26315987,0.1441223,-1.3471196,0.5672607,-0.6406251,0.0,1.0,0.0,0.0,0.0,0.0,0.0,-0.2102226,0.14284286,-0.11163759,0.31673908,-2.2195816,6.322074,-3.4242868,11.078811,-3.104341,2.0796716
12.409393,66.87223,16.862032,10.260571,2.5950565,0.5424894,0.15968916,-0.80236495,-0.61629975,-0.4728111,0.6462097,0.20484973,0.24092624,0.60486054,0.5069002,-1.2088451,-2.389454,-0.6887274,1.8891736,1.8744435,-0.8604305,0.5725674,-1.1579535,-2.3522844,-0.7410531,1.8653932,1.8534662,-0.91723293,-1.4547191,-1.0809515,-0.97966236,1.2145311,-0.26502916,0.30303738,0.37282526,-0.4522705,-0.5374603,0.6556117,-1.2415539,0.5394875,-0.60852146,-0.4068222,-0.5639343,0.58691883,0.95090395,0.0889704,0.2640974,0.13460489,-1.3383826,0.5975926,-0.62687683,0.0,1.0,0.0,0.0,0.0,0.0,0.0,-0.19772947,0.13746032,-0.10561168,0.8835316,-2.9053688,12.59886,-5.980134,25.680912,-3.4088016,1.7443419
17.445496,66.71173,17.650915,7.562263,2.5369525,0.45753843,0.23388818,-0.8108854,-0.6109809,-0.4111454,0.5335613,0.3550252,-0.06306184,0.58778334,0.49147886,-1.2190516,-2.393399,-0.687697,1.9008957,1.84716,-0.8584546,0.558059,-1.1688807,-2.361061,-0.72978896,1.8649794,1.856083,-0.91341984,-1.4504217,-1.096913,-0.84073466,1.0962721,0.030833013,0.24667428,0.3845718,-0.46452332,-0.53206253,0.64921355,-1.2183101,0.54065806,-0.6467555,-0.4201393,-0.5578499,0.580755,0.95184606,0.094559476,0.26323465,0.1255195,-1.3222076,0.62302727,-0.6136235,0.0,1.0,0.0,0.0,0.0,0.0,0.0,-0.18547666,0.13206252,-0.09921354,0.19054413,-1.6582489,14.744043,-12.029672,28.78586,-5.9711485,1.2543857
26.7276,79.94654,21.750864,8.405004,2.2835665,0.4824733,0.28531337,-0.79290366,-0.57379323,-0.2952887,0.47525224,0.35083193,-0.32923543,0.5805407,0.47876862,-1.2262601,-2.39059,-0.68226373,1.9000626,1.8231595,-0.85536575,0.5436498,-1.179724,-2.3681707,-0.7198532,1.8670584,1.8579752,-0.9095127,-1.438762,-1.0802716,-0.66479677,0.9582016,0.2643069,0.16941965,0.3926707,-0.47640228,-0.5266876,0.6426308,-1.1761723,0.5358523,-0.65904516,-0.4331169,-0.5515709,0.57486576,0.9531597,0.09924929,0.26068786,0.11695256,-1.2827414,0.63985217,-0.5815841,0.0,1.0,0.0,0.0,0.0,0.0,0.0,-0.1735977,0.12668762,-0.0926308,0.8773804,1.6125202,18.579842,-14.117516,22.437826,-7.9390316,0.76357126
33.370113,93.41825,26.637705,11.189655,2.8094091,0.6748659,0.2127305,-0.79475313,-0.56721914,-0.041850027,0.42827058,0.490845,-0.4613799,0.590225,0.46417448,-1.2364459,-2.3723557,-0.67702615,1.916143,1.8118372,-0.8504902,0.5293323,-1.1903193,-2.3726904,-0.71125346,1.8713075,1.859054,-0.9055286,-1.4303678,-1.0528727,-0.37748685,0.8261457,0.47567415,0.08682885,0.40012288,-0.48776627,-0.5213814,0.6361188,-1.1217004,0.5284356,-0.64626986,-0.4456215,-0.5451126,0.5695338,0.95488626,0.10265184,0.25648814,0.10894308,-1.2339656,0.6575985,-0.5180778,0.0,1.0,0.0,0.0,0.0,0.0,0.0,-0.16223371,0.12138137,-0.08611882,0.54848194,2.6938677,29.789335,-13.542498,20.207626,-8.404435,0.68472624
40.417416,82.652824,25.203667,4.795948,2.0132003,0.5248771,0.4352549,-0.7921649,-0.57750654,0.07427416,0.25218004,0.56004375,-0.59052247,0.5955937,0.4501158,-1.24807,-2.365263,-0.68603545,1.9273119,1.8000017,-0.84596926,0.51508725,-1.2007105,-2.3742425,-0.7044459,1.8773628,1.8592938,-0.9014783,-1.4231902,-1.0346032,-0.07834189,0.6313266,0.6467852,0.0029748317,0.40650663,-0.4985962,-0.51618576,0.62964576,-1.0686015,0.51605105,-0.64572406,-0.45755386,-0.53857803,0.56465,0.95702386,0.104739666,0.2505864,0.10169267,-1.1737696,0.6613822,-0.47962996,0.0,1.0,0.0,0.0,0.0,0.0,0.0,-0.15140378,0.116185755,-0.07964575,0.49347878,1.8030167,30.706957,-19.763517,16.411041,-8.388088,0.56746006
28.231644,89.246056,22.732826,10.343001,1.9488685,0.49765676,0.3128553,-0.7992499,-0.51123995,0.05291204,0.21496935,0.61285955,-0.6103298,0.5990011,0.43516225,-1.2518345,-2.3689513,-0.68294895,1.9386488,1.7982608,-0.8415782,0.50086224,-1.2106745,-2.3736017,-0.6994048,1.8848529,1.8587673,-0.89736784,-1.4226693,-0.98374164,0.11299333,0.46126688,0.7818656,-0.071096934,0.41232184,-0.508873,-0.51111984,0.623255,-1.0141878,0.5036248,-0.6368494,-0.46895218,-0.531971,0.5601528,0.95944154,0.10585263,0.24336724,0.09507676,-1.1239151,0.6696652,-0.4413192,0.0,1.0,0.0,0.0,0.0,0.0,0.0,-0.14112699,0.11111984,-0.073255,-0.07534027,5.0474644,19.576336,-17.150545,13.147354,-7.3445425,0.5227983
17.359985,100.57191,22.00726,17.914232,2.1724086,0.54294974,0.10246968,-0.79402894,-0.45928538,0.099643685,0.21888521,0.6327142,-0.6013975,0.59658045,0.42145935,-1.256603,-2.3636372,-0.6775163,1.9481243,1.7986275,-0.8377098,0.48665202,-1.2199385,-2.3716257,-0.69557303,1.8933946,1.8575937,-0.89320594,-1.4207076,-0.9075625,0.22677541,0.35701588,0.8778612,-0.13255751,0.41728732,-0.51856995,-0.5061798,0.61709476,-0.95532256,0.4910235,-0.6096576,-0.47992325,-0.5252228,0.5561423,0.96198404,0.106267825,0.2353926,0.08879297,-1.084089,0.68483377,-0.3893331,0.0,1.0,0.0,0.0,0.0,0.0,0.0,-0.13143003,0.1061798,-0.06709474,0.13751984,7.5787067,11.5976515,-10.476255,9.491241,-6.0589523,0.45773983
22.07256,101.44298,23.11731,16.760761,1.9752516,0.60282344,0.1628853,-0.78703356,-0.4392818,0.27088886,0.11031705,0.6623177,-0.58760124,0.5992505,0.40794867,-1.2638667,-2.3445368,-0.68454134,1.9596263,1.7988335,-0.8332809,0.47249,-1.2284606,-2.3682919,-0.69282866,1.9026972,1.8558984,-0.88899726,-1.4148122,-0.83370304,0.36936653,0.24678612,0.9476228,-0.181391,0.42181396,-0.5276451,-0.50138855,0.611267,-0.8928006,0.47519097,-0.5754645,-0.49044037,-0.5183487,0.55265975,0.96459687,0.105956025,0.2268532,0.08284718,-1.0365484,0.6955511,-0.33615083,0.0,1.0,0.0,0.0,0.0,0.0,0.0,-0.122354865,0.101388544,-0.06126696,0.5567074,7.3596835,14.367252,-11.059677,6.995642,-4.7340364,0.4192829
25.324636,88.22608,20.164642,10.317607,1.0246129,0.4550532,0.39815947,-0.7885752,-0.40950826,0.2704124,-0.059434507,0.6823485,-0.57259005,0.5878145,0.3936325,-1.2694113,-2.3412507,-0.69877213,1.970932,1.7986394,-0.8302158,0.4583766,-1.2362864,-2.3638902,-0.69165975,1.9125348,1.8537966,-0.8847586,-1.4101961,-0.76561606,0.46372405,0.07359447,0.996002,-0.21901925,0.42460784,-0.5361366,-0.4967785,0.6056406,-0.835558,0.45652014,-0.5600213,-0.500412,-0.51145935,0.54946136,0.9672239,0.10514064,0.21777254,0.07744949,-0.98110986,0.6942019,-0.31605974,0.0,1.0,0.0,0.0,0.0,0.0,0.0,-0.11386335,0.09677848,-0.05564058,0.45251846,6.792295,9.366613,-17.312487,4.9927115,-3.544724,0.29329062
22.750473,99.3613,21.441378,14.314477,1.0937021,0.54176223,0.33201575,-0.78467417,-0.32137728,0.29156405,-0.096898064,0.697792,-0.54802316,0.57752657,0.37990916,-1.2684242,-2.3347337,-0.70134956,1.982314,1.7989943,-0.8270059,0.44431752,-1.243212,-2.3588173,-0.692114,1.922763,1.851392,-0.88050175,-1.4043609,-0.66819715,0.52112484,-0.08485323,1.0326673,-0.24663611,0.42617998,-0.54400635,-0.4923725,0.6003214,-0.7725368,0.43577296,-0.5257986,-0.50981903,-0.5045662,0.54657674,0.9697939,0.103965014,0.2083766,0.07259515,-0.9239259,0.6941851,-0.2808107,0.0,1.0,0.0,0.0,0.0,0.0,0.0,-0.10599363,0.09237251,-0.0503214,0.61905384,9.74766,5.4773865,-15.799612,4.034996,-2.4925203,0.20167828
