Afshin1997/kuka_rl_ros2/src/catch_and_throw/input_files/idealpd/recorded_trajectories/env_159_data.csv
torque0,torque1,torque2,torque3,torque4,torque5,torque6,action0,action1,action2,action3,action4,action5,action6,set_target_0,set_target_1,set_target_2,set_target_3,set_target_4,set_target_5,set_target_6,joint_pos_0,joint_pos_1,joint_pos_2,joint_pos_3,joint_pos_4,joint_pos_5,joint_pos_6,joint_vel_0,joint_vel_1,joint_vel_2,joint_vel_3,joint_vel_4,joint_vel_5,joint_vel_6,tennisball_pos_0,tennisball_pos_1,tennisball_pos_2,tennisball_lin_vel_0,tennisball_lin_vel_1,tennisball_lin_vel_2,end_effector_pos_0,end_effector_pos_1,end_effector_pos_2,end_effector_rot_0,end_effector_rot_1,end_effector_rot_2,end_effector_rot_3,end_effector_lin_vel_0,end_effector_lin_vel_1,end_effector_lin_vel_2,obs_task_0,obs_task_1,obs_task_2,obs_task_3,obs_task_4,obs_task_5,obs_task_6,to_final_target_0,to_final_target_1,to_final_target_2,joint_acc_0,joint_acc_1,joint_acc_2,joint_acc_3,joint_acc_4,joint_acc_5,joint_acc_6
0.0,0.0,0.0,0.0,0.0,0.0,0.0,0.0,0.0,0.0,0.0,0.0,0.0,0.0,1.7802359,-1.0646509,-1.8151424,-1.1170107,1.9373155,1.1170107,-0.91629785,1.7802359,-1.0646509,-1.8151424,-1.1170107,1.9373155,1.1170107,-0.91629785,0.0,0.0,0.0,0.0,0.0,0.0,0.0,3.0472794,-0.26757812,0.38428044,-3.0523207,-0.27346316,5.356631,0.5304146,-0.45449448,0.693097,0.5745483,0.17512383,0.15255436,0.7848268,0.0,0.0,0.0,1.0,0.0,0.0,0.0,0.0,0.0,0.0,-3.6972795,-0.13242188,0.16571957,0.0,0.0,0.0,0.0,0.0,0.0,0.0
0.0,0.0,0.0,0.0,0.0,0.0,0.0,0.0,0.0,0.0,0.0,0.0,0.0,0.0,1.7802359,-1.0646509,-1.8151424,-1.1170107,1.9373155,1.1170107,-0.91629785,1.7802359,-1.0646509,-1.8151424,-1.1170107,1.9373155,1.1170107,-0.91629785,0.0,0.0,0.0,0.0,0.0,0.0,0.0,3.0472794,-0.26757812,0.38428044,-3.0523207,-0.27346316,5.356631,0.5304146,-0.45449448,0.693097,0.5745483,0.17512383,0.15255436,0.7848268,0.0,0.0,0.0,1.0,0.0,0.0,0.0,0.0,0.0,0.0,-3.6972795,-0.13242188,0.16571957,0.0,0.0,0.0,0.0,0.0,0.0,0.0
0.0,0.0,0.0,0.0,0.0,0.0,0.0,0.0,0.0,0.0,0.0,0.0,0.0,0.0,1.7802359,-1.0646509,-1.8151424,-1.1170107,1.9373155,1.1170107,-0.91629785,1.7802359,-1.0646509,-1.8151424,-1.1170107,1.9373155,1.1170107,-0.91629785,0.0,0.0,0.0,0.0,0.0,0.0,0.0,3.0472794,-0.26757812,0.38428044,-3.0523207,-0.27346316,5.356631,0.5304146,-0.45449448,0.693097,0.5745483,0.17512383,0.15255436,0.7848268,0.0,0.0,0.0,1.0,0.0,0.0,0.0,0.0,0.0,0.0,-3.6972795,-0.13242188,0.16571957,0.0,0.0,0.0,0.0,0.0,0.0,0.0
-176.0,78.267624,-1.799057,110.0,10.964541,5.1875486,-3.7858427,-0.8174332,0.39067656,-0.52100927,0.7259659,0.3352149,0.645994,-0.5975237,1.6984925,-1.0255833,-1.8672433,-1.0444142,1.970837,1.1816101,-0.9760502,1.7786242,-1.0621103,-1.8207862,-1.1125056,1.9417882,1.1216933,-0.9178638,-0.21480103,0.3380128,-0.75173765,0.600661,0.5956345,0.62257695,-0.20838039,3.0167809,-0.27030945,0.43707013,-3.0492692,-0.27318975,5.253089,0.52828217,-0.45755768,0.69399667,0.5783734,0.17372017,0.15149195,0.7825316,-0.28429174,-0.40857133,0.1197063,1.0,0.0,0.0,0.0,0.0,0.0,0.0,-3.666781,-0.12969056,0.11292988,-21.430483,33.596775,-74.96974,60.126762,59.321583,61.708855,-20.749258
-176.0,17.530098,-26.031874,110.0,12.467896,3.2473469,-3.302453,-0.81354773,0.09047301,-0.5616983,0.70823777,0.45658448,0.6337127,-0.6222865,1.6972694,-1.053063,-1.8769561,-1.0416818,1.9874467,1.1850646,-0.9800924,1.775971,-1.0576147,-1.83516,-1.1002566,1.9524674,1.1339365,-0.9199733,-0.2804888,0.48483357,-1.6665484,1.4351968,1.2246828,1.4186664,-0.2091721,2.9863129,-0.27304077,0.48882517,-3.0462205,-0.27291662,5.1496506,0.5233593,-0.46533966,0.69547075,0.5869576,0.17035195,0.14832184,0.77747124,-0.5633576,-0.90008336,0.15721337,1.0,0.0,0.0,0.0,0.0,0.0,0.0,-3.636313,-0.12695923,0.06117484,-6.0218515,14.119064,-91.69004,84.11284,62.69028,77.713844,0.7115483
-154.8131,110.60352,28.063152,91.60985,8.484948,7.5120373,-1.9566866,-0.7674122,0.36898068,-0.0944435,0.60961306,0.47089007,0.65101117,-0.5745694,1.6992298,-1.0207167,-1.8446044,-1.0392952,1.9995564,1.1990377,-0.9774302,1.7699858,-1.0517534,-1.8506896,-1.0842158,1.965117,1.1480032,-0.92234606,-0.7048154,0.6165816,-1.5087451,1.6614174,1.2737541,1.395104,-0.24817194,2.9558735,-0.27576828,0.5395466,-3.043175,-0.27264374,5.0463157,0.51553345,-0.47590256,0.69857603,0.5985549,0.16554816,0.14400081,0.7704477,-0.86274457,-1.1027735,0.36600283,1.0,0.0,0.0,0.0,0.0,0.0,0.0,-3.6058736,-0.124231726,0.010453403,-42.53974,12.18555,17.692614,22.917032,3.5147905,-4.6401978,-4.3483496
-94.970276,125.570595,44.86947,59.475056,4.910984,8.041846,-0.6327906,-0.78423595,0.35170233,-0.007579614,0.6038862,0.47672307,0.62315387,-0.5926167,1.6915622,-1.0165832,-1.8514476,-1.0238272,2.0127892,1.2103186,-0.98160774,1.759936,-1.0451597,-1.861922,-1.0679842,1.9769692,1.1610609,-0.92508024,-1.1065955,0.67119056,-0.9868137,1.6105269,1.1509751,1.2709564,-0.2844441,2.9254627,-0.27849197,0.5892355,-3.0401325,-0.27237117,4.9430842,0.5052109,-0.48716354,0.7037359,0.61130816,0.15941073,0.13900766,0.7626056,-1.0998728,-1.1223869,0.5717432,1.0,0.0,0.0,0.0,0.0,0.0,0.0,-3.5754628,-0.12150803,-0.039235473,-40.62408,4.6799183,54.53483,-5.042577,-13.71026,-13.891625,-4.4121923
-36.915672,138.99391,55.091167,33.15063,1.7818731,7.416234,0.14833327,-0.8014186,0.4513146,0.032585867,0.59801394,0.5162264,0.6125739,-0.58719265,1.6797941,-1.0000283,-1.8586634,-1.0081829,2.0285919,1.2223183,-0.9837995,1.746657,-1.0379003,-1.8674572,-1.0532957,1.9873166,1.1727148,-0.92814726,-1.4034503,0.7424514,-0.4020315,1.4209894,0.992529,1.1277398,-0.3170581,2.8950825,-0.28121567,0.6378928,-3.037093,-0.27209884,4.839956,0.49315643,-0.49766922,0.7108215,0.6239888,0.15196463,0.1336287,0.7547769,-1.2530222,-1.0132713,0.75819004,1.0,0.0,0.0,0.0,0.0,0.0,0.0,-3.5450826,-0.11878434,-0.08789277,-30.228329,6.5628767,60.553272,-19.13359,-16.907322,-15.046096,-4.114318
3.7105365,128.40482,51.131283,14.192509,-0.24008071,5.418063,0.43941796,-0.809179,0.5054166,0.028956134,0.58516246,0.56676686,0.6070726,-0.60093963,1.665739,-0.9873587,-1.8645616,-0.99477947,2.0439932,1.233422,-0.9882412,1.7314459,-1.0298551,-1.8683212,-1.0406157,1.9964242,1.1830641,-0.9315061,-1.5618668,0.8239412,0.023510909,1.2161112,0.88144535,1.0034364,-0.3443922,2.8647327,-0.28393173,0.6855196,-3.0340564,-0.2718268,4.7369304,0.48019028,-0.5067711,0.7193398,0.636022,0.14356595,0.12820746,0.7472802,-1.3217411,-0.8604029,0.884355,1.0,0.0,0.0,0.0,0.0,0.0,0.0,-3.5147328,-0.116068274,-0.13551956,-16.282463,7.7892423,43.977287,-20.731426,-11.689842,-12.620497,-3.4264565
27.6357,127.728775,50.147556,6.7879457,-1.1595097,4.2581754,0.44621247,-0.81476396,0.58607394,0.12816793,0.5957563,0.5777336,0.60554796,-0.5803672,1.6499695,-0.97124773,-1.8555044,-0.98104006,2.0541975,1.2436188,-0.98954284,1.7154757,-1.0207876,-1.865979,-1.0295283,2.0047822,1.1923281,-0.9350833,-1.6097282,0.933417,0.3076695,1.072272,0.8195202,0.9005982,-0.36407977,2.8344135,-0.2866478,0.73211694,-3.031023,-0.27155504,4.634008,0.4669037,-0.5142555,0.72899425,0.6472806,0.13444073,0.12298818,0.74015355,-1.3394994,-0.69493985,0.99181736,1.0,0.0,0.0,0.0,0.0,0.0,0.0,-3.4844136,-0.11335221,-0.18211693,-5.1249743,10.674238,29.443443,-14.586949,-6.5117955,-10.277343,-2.5633335
34.106728,119.27315,44.761894,5.3161235,-1.3201573,3.1849005,0.28065145,-0.8168488,0.644291,0.16301197,0.6038435,0.5868811,0.6117913,-0.5636173,1.6337909,-0.9563585,-1.8496778,-0.9691439,2.0634704,1.2535073,-0.99144506,1.6995302,-1.0105547,-1.8618743,-1.0193106,2.012816,1.2007071,-0.9388084,-1.5902473,1.0524443,0.4469416,1.0044754,0.7975393,0.81713605,-0.3768934,2.8041248,-0.28936386,0.7776858,-3.0279925,-0.27128354,4.5311885,0.4536209,-0.5202141,0.7395538,0.6578933,0.12477427,0.11813933,0.7332468,-1.3315091,-0.5486501,1.0753729,1.0,0.0,0.0,0.0,0.0,0.0,0.0,-3.454125,-0.110636145,-0.22768581,1.7109632,11.69585,14.639294,-6.9137096,-2.3617744,-8.290493,-1.7582059
32.09916,105.37181,37.456738,5.3628902,-1.1703879,2.2739453,0.1294048,-0.8112528,0.67975086,0.17517895,0.5979397,0.5930488,0.6212365,-0.55689317,1.618405,-0.94257957,-1.8443564,-0.95951664,2.072121,1.2628307,-0.9944977,1.6840082,-0.9992309,-1.8571727,-1.0093809,2.0208077,1.2083727,-0.9426288,-1.5400223,1.1584059,0.47944784,0.9889536,0.7999349,0.7498837,-0.38509092,2.7738667,-0.2920723,0.82222724,-3.0249653,-0.2710123,4.428472,0.4404869,-0.5249405,0.7507378,0.6680379,0.11477627,0.113746054,0.7263701,-1.3127463,-0.43067706,1.1301454,1.0,0.0,0.0,0.0,0.0,0.0,0.0,-3.4238667,-0.10792771,-0.27222723,4.8531055,10.444546,3.7482142,-1.6640186,0.16622543,-6.6616654,-1.203227
26.149525,89.98093,30.155575,5.6661024,-0.8731018,1.5878346,0.05184966,-0.8066058,0.70355535,0.17558502,0.5811225,0.6158861,0.632225,-0.5498901,1.6033477,-0.9288754,-1.8396143,-0.9512687,2.0823963,1.2715952,-0.99761784,1.669007,-0.98704106,-1.8526142,-0.9994552,2.0289636,1.2154661,-0.9465074,-1.4874234,1.2388968,0.44919333,0.99315697,0.8210742,0.6961431,-0.38987586,2.743639,-0.29478073,0.86574227,-3.021941,-0.27074134,4.3258586,0.42753983,-0.52869034,0.7622571,0.67784023,0.10465578,0.1097863,0.7193933,-1.2927997,-0.3406128,1.1561857,1.0,0.0,0.0,0.0,0.0,0.0,0.0,-3.393639,-0.105219275,-0.31574225,5.124378,7.941675,-2.6611686,0.28812885,2.0918965,-5.3076744,-0.79469085
18.652214,76.985115,24.395159,6.577413,-0.5087206,1.1942887,0.02017058,-0.8073066,0.71834964,0.1772311,0.56881124,0.6296932,0.635782,-0.54257756,1.5882763,-0.9152061,-1.8348911,-0.9425741,2.0919328,1.2790444,-1.0007652,1.6544176,-0.9742618,-1.8485115,-0.98947215,2.0373864,1.2220999,-0.9504165,-1.4499584,1.2907718,0.39838117,0.99943125,0.84931535,0.6527185,-0.39220735,2.7134418,-0.29748917,0.908232,-3.0189195,-0.27047068,4.223347,0.41474533,-0.5317154,0.7738784,0.6873715,0.0945658,0.10617334,0.7122534,-1.2784957,-0.27343118,1.1609677,1.0,0.0,0.0,0.0,0.0,0.0,0.0,-3.363442,-0.10251084,-0.35823196,3.6236286,5.1119804,-4.786748,0.4639268,2.8411508,-4.278612,-0.5088031
13.399326,66.53543,19.90989,6.8476686,-0.30784196,0.88248265,0.00057694316,-0.79824907,0.72880423,0.14941326,0.56268924,0.6308754,0.64443785,-0.5341962,1.5745927,-0.9013814,-1.8335701,-0.9332032,2.1004739,1.2865437,-1.0038362,1.6401068,-0.9611402,-1.8450096,-0.9794557,2.046061,1.2283674,-0.9543361,-1.4250134,1.3191094,0.33475545,1.0016749,0.8737285,0.618345,-0.39265049,2.6832752,-0.30018997,0.9496973,-3.0159013,-0.27020025,4.120939,0.40206337,-0.53419113,0.78541815,0.69667387,0.08461047,0.10285344,0.7049169,-1.26711,-0.22194721,1.148326,1.0,0.0,0.0,0.0,0.0,0.0,0.0,-3.3332753,-0.099810034,-0.3996973,2.376175,2.7827978,-6.112379,0.02682209,2.486658,-3.356135,-0.29515624
9.257923,60.668175,17.50876,7.420983,-0.12777215,0.78024083,0.0074507035,-0.8004942,0.73585784,0.1373001,0.5504209,0.63946676,0.64646274,-0.53402174,1.5600574,-0.8875544,-1.8312795,-0.9244136,2.1100078,1.2930137,-1.0077382,1.6259276,-0.9478565,-1.8420818,-0.96949077,2.0549493,1.2343413,-0.9582557,-1.4159501,1.3313398,0.27952003,0.99404716,0.8941872,0.59062207,-0.3925439,2.653139,-0.30289078,0.9901393,-3.012886,-0.26993012,4.0186324,0.3894558,-0.5362091,0.7967684,0.7057605,0.0748388,0.09977187,0.69738567,-1.2602823,-0.17926447,1.1274513,1.0,0.0,0.0,0.0,0.0,0.0,0.0,-3.3031392,-0.09710923,-0.4401393,0.7822275,1.1835814,-5.2735987,-0.9798765,2.0990133,-2.6902556,-0.22886395
9.982443,61.16989,18.25933,7.366872,-0.095300436,0.888499,0.07907237,-0.79392534,0.7405259,0.16087489,0.53976434,0.6398768,0.64661837,-0.5282738,1.546535,-0.8738039,-1.8259943,-0.91551435,2.118937,1.2990031,-1.0110831,1.611796,-0.93451935,-1.8394363,-0.9596603,2.063994,1.2400767,-0.96217054,-1.4126059,1.3344536,0.260629,0.9785985,0.90754914,0.56793576,-0.39190093,2.6230335,-0.30558777,1.029559,-3.0098736,-0.26966023,3.9164288,0.37690926,-0.53777695,0.8079376,0.71458733,0.06519799,0.09683963,0.68973637,-1.2544876,-0.13292508,1.1103741,1.0,0.0,0.0,0.0,0.0,0.0,0.0,-3.2730336,-0.09441224,-0.479559,0.20258427,0.26705265,-1.5817225,-1.7611384,1.3676524,-2.1977305,-0.19295812
11.283812,61.810608,18.75417,6.695478,-0.14664328,0.9185536,0.15104587,-0.79530925,0.7456654,0.16383633,0.51119214,0.6567267,0.6451703,-0.5238119,1.5322651,-0.8599528,-1.8230526,-0.9085411,2.1296666,1.3045937,-1.0145518,1.5976568,-0.92116886,-1.8368137,-0.9501054,2.073176,1.2456137,-0.96607584,-1.4148455,1.3350952,0.26410678,0.947075,0.9215384,0.54932857,-0.39092362,2.5929585,-0.30828094,1.0679574,-3.0068645,-0.26939064,3.8143272,0.36442566,-0.5388527,0.81894034,0.7230896,0.055647053,0.09399367,0.6820631,-1.2467843,-0.08221744,1.0938851,1.0,0.0,0.0,0.0,0.0,0.0,0.0,-3.2429585,-0.09171906,-0.5179574,-0.36699772,0.018930435,0.6972313,-3.370607,1.4170527,-1.778996,-0.16922355
13.783858,64.33242,19.967686,6.2586555,-0.23893368,0.9759449,0.20563129,-0.7892221,0.7505568,0.18081735,0.49688643,0.6570395,0.64760447,-0.51602775,1.5187347,-0.8461132,-1.8187319,-0.9004168,2.1388798,1.3103741,-1.0176786,1.583512,-0.9078031,-1.8340003,-0.94089675,2.0824609,1.2509924,-0.9699659,-1.4149591,1.3368942,0.2883905,0.9114372,0.9311547,0.5343539,-0.38936004,2.562914,-0.31097412,1.1053356,-3.0038583,-0.2691213,3.7123277,0.35204315,-0.53936005,0.8298142,0.7312142,0.04612481,0.09119961,0.6744486,-1.2357104,-0.025292821,1.0820075,1.0,0.0,0.0,0.0,0.0,0.0,0.0,-3.212914,-0.089025885,-0.5553356,-0.15542507,0.13167858,2.8089464,-3.7701368,0.96794367,-1.4109015,-0.120806694
16.135406,65.50449,20.299053,4.9345016,-0.45119703,0.9159092,0.2576996,-0.7930269,0.7595016,0.18736973,0.45111766,0.6587863,0.64911324,-0.50789595,1.5042093,-0.831853,-1.8152634,-0.895785,2.1483395,1.3159038,-1.0207555,1.5693499,-0.89438015,-1.8309066,-0.93218684,2.0918221,1.2562453,-0.9738359,-1.417264,1.3438436,0.31772983,0.8568501,0.9376081,0.5226769,-0.38713384,2.532898,-0.31366348,1.1416945,-3.000855,-0.26885223,3.6104302,0.33981705,-0.53925705,0.8405573,0.7389115,0.036621533,0.08848046,0.66696304,-1.2178305,0.037520226,1.0682868,1.0,0.0,0.0,0.0,0.0,0.0,0.0,-3.182898,-0.08633652,-0.59169453,-0.38256645,0.64942837,3.3305228,-5.664265,0.65010786,-1.0442495,-0.05323291
19.15759,66.16694,20.590626,3.4693532,-0.6301657,0.81338847,0.32030705,-0.7885492,0.76418746,0.20665054,0.4105161,0.6712805,0.64926106,-0.49401534,1.490495,-0.8179614,-1.8102416,-0.8911352,2.15895,1.3211714,-1.0232375,1.5551878,-0.8808704,-1.8274791,-0.9241216,2.1012635,1.2613989,-0.9776754,-1.416542,1.3532563,0.3524292,0.789062,0.9462004,0.51361877,-0.3837316,2.5029106,-0.31634903,1.1770353,-2.9978547,-0.26858342,3.5086348,0.32782173,-0.5384979,0.8511523,0.74612975,0.02714714,0.08585187,0.6596838,-1.1920601,0.10425481,1.0528377,1.0,0.0,0.0,0.0,0.0,0.0,0.0,-3.1529107,-0.08365098,-0.6270353,-0.07712841,0.90265274,3.8651526,-6.9787383,0.86659193,-0.74368715,0.06828308
19.995718,65.491646,20.167074,2.9727216,-0.71468127,0.6930516,0.33119917,-0.7886346,0.76855093,0.22028345,0.3761014,0.6688784,0.6527799,-0.48672178,1.4763243,-0.8040153,-1.8054508,-0.8865115,2.1681514,1.3266768,-1.0263475,1.5410353,-0.86725956,-1.8237159,-0.916764,2.1107697,1.2664801,-0.9814767,-1.4151862,1.3634983,0.38554627,0.71731997,0.95185345,0.5069509,-0.37977093,2.4729538,-0.31903458,1.2113589,-2.9948575,-0.2683149,3.4069412,0.31611443,-0.5370636,0.8615794,0.7528556,0.017712582,0.0833362,0.6526482,-1.1617179,0.17020015,1.0352502,1.0,0.0,0.0,0.0,0.0,0.0,0.0,-3.122954,-0.08096543,-0.6613589,-0.0051021576,0.9959936,3.6781251,-7.364571,0.58852434,-0.4771471,0.13971329
23.129313,65.59746,20.255602,1.1395073,-0.9390246,0.5503041,0.39796686,-0.78515154,0.77616596,0.24748683,0.31224227,0.671476,0.6542381,-0.47282138,1.4625201,-0.789643,-1.7989672,-0.88553977,2.1779172,1.3319039,-1.0287589,1.5269152,-0.8535333,-1.8195827,-0.91025424,2.1203218,1.2715098,-0.98523134,-1.4115866,1.3755581,0.4238587,0.628316,0.9563777,0.50231224,-0.3747959,2.4430275,-0.3217163,1.2446662,-2.9918633,-0.26804662,3.305349,0.30477333,-0.5349426,0.87180656,0.7590469,0.008343751,0.08096115,0.64592826,-1.121884,0.23949163,1.0143204,1.0,0.0,0.0,0.0,0.0,0.0,0.0,-3.0930276,-0.0782837,-0.6946662,0.22585392,1.1874199,4.1853666,-9.082532,0.48325062,-0.22488832,0.2511263
26.249403,64.73326,20.076466,-0.8914838,-1.1393683,0.3644719,0.4743861,-0.78037643,0.7801328,0.2771413,0.24357136,0.67982525,0.6497904,-0.458075,1.4488776,-0.77552,-1.7918686,-0.8858971,2.1883042,1.3364888,-1.0310389,1.5128504,-0.83969456,-1.8150146,-0.90476966,2.129931,1.2764994,-0.9889278,-1.4052006,1.3866925,0.46868268,0.5212731,0.9625429,0.49878895,-0.36878574,2.4131317,-0.32439423,1.2769585,-2.9888718,-0.26777864,3.2038586,0.29390526,-0.53211975,0.88179195,0.7646482,-0.00091622246,0.07873247,0.6396198,-1.0721134,0.30996972,0.98872167,1.0,0.0,0.0,0.0,0.0,0.0,0.0,-3.0631318,-0.07560578,-0.72695845,0.51796436,1.1082172,4.8093915,-10.875475,0.6591201,-0.0590086,0.36985874
26.612768,61.977474,18.98693,-1.876502,-1.2064967,0.15761256,0.49743232,-0.78323346,0.7814984,0.29833254,0.17647459,0.6837523,0.64347404,-0.46077845,1.434527,-0.7615447,-1.7851814,-0.8871222,2.198306,1.3408468,-1.0350056,1.4988276,-0.8257671,-1.8100002,-0.90044665,2.139605,1.2814566,-0.9925708,-1.4015923,1.3948034,0.5132995,0.4020763,0.96922064,0.49575746,-0.36349162,2.3832664,-0.32707214,1.3082366,-2.9858837,-0.2675109,3.1024697,0.2835636,-0.5286217,0.8914798,0.76964426,-0.010007751,0.07666082,0.6337749,-1.0169271,0.37588945,0.9572963,1.0,0.0,0.0,0.0,0.0,0.0,0.0,-3.0332665,-0.07292786,-0.7582366,0.25436878,0.82206726,4.738879,-12.080556,0.73297024,0.030106306,0.32587647
27.74629,60.282547,18.35727,-3.0213408,-1.3119462,-0.026538283,0.5349439,-0.7813055,0.7857326,0.32638586,0.09964735,0.68618184,0.6440176,-0.440751,1.420697,-0.7471938,-1.7773616,-0.8904819,2.2082233,1.3458583,-1.0366459,1.4848372,-0.8117681,-1.8045261,-0.89740634,2.149344,1.286389,-0.99615186,-1.3985314,1.401775,0.55970645,0.2709192,0.9755086,0.49372336,-0.35680476,2.3534317,-0.32974243,1.3385016,-2.9828985,-0.26724344,3.001182,0.27382278,-0.5244713,0.9008228,0.77402234,-0.018876497,0.07475844,0.6284458,-0.95536625,0.4391661,0.92169964,1.0,0.0,0.0,0.0,0.0,0.0,0.0,-3.0034318,-0.070257574,-0.78850156,0.21781921,0.72345734,4.8659325,-13.259739,0.7182121,0.16753078,0.49266815
28.831276,59.24659,18.054922,-3.8833823,-1.3832844,-0.17046002,0.5740404,-0.77906895,0.78874713,0.36237323,0.020517413,0.6913539,0.64968526,-0.42184907,1.4069303,-0.7328934,-1.7682887,-0.89535457,2.2184794,1.3513575,-1.0383368,1.4708773,-0.79770714,-1.7985389,-0.8957422,2.1591477,1.29131,-0.9996566,-1.3953182,1.4076658,0.61242896,0.13120218,0.9823072,0.49299008,-0.34878427,2.3236237,-0.33241272,1.3677545,-2.979916,-0.26697624,2.8999958,0.26472473,-0.5197029,0.90979606,0.7777663,-0.027491778,0.07302759,0.62369114,-0.8887395,0.5002921,0.88394237,1.0,0.0,0.0,0.0,0.0,0.0,0.0,-2.9736238,-0.067587286,-0.81775445,0.25510788,0.62937737,5.442226,-14.0922785,0.7953882,0.32497644,0.65276027
30.570652,58.79751,18.070427,-4.794659,-1.4760542,-0.30939844,0.6210172,-0.77016,0.79043806,0.4017727,-0.05732668,0.68836296,0.6431821,-0.380898,1.3938613,-0.71866333,-1.7583617,-0.90147483,2.227984,1.3556281,-1.0377464,1.4569842,-0.7835975,-1.7919624,-0.89550185,2.1689973,1.2962233,-1.0030553,-1.3873483,1.4122553,0.6730097,-0.011966568,0.98639715,0.49221385,-0.3373634,2.2938461,-0.335083,1.3959962,-2.9769366,-0.26670933,2.7989106,0.2563324,-0.51431274,0.91838825,0.7808519,-0.03583711,0.07146632,0.6195793,-0.8162423,0.56025845,0.84545225,1.0,0.0,0.0,0.0,0.0,0.0,0.0,-2.9438462,-0.064917,-0.8459962,0.76289177,0.5137682,6.1606526,-14.407495,0.55532455,0.34598708,1.0182381
30.774567,56.191887,17.088997,-5.7407928,-1.5513613,-0.5131467,0.64266455,-0.7710311,0.7907302,0.42691317,-0.15122335,0.6884732,0.6427554,-0.34872004,1.379881,-0.7045245,-1.749271,-0.9106242,2.2378447,1.3604988,-1.0379274,1.4431597,-0.7694555,-1.7848003,-0.89677024,2.1788735,1.3011309,-1.0063226,-1.3807545,1.4149897,0.7307293,-0.16544606,0.9889299,0.49179032,-0.3235507,2.2640991,-0.33774567,1.4232279,-2.9739604,-0.26644266,2.6979265,0.2487011,-0.508358,0.9265591,0.783274,-0.04385918,0.07009908,0.6161527,-0.7387017,0.6154059,0.80185187,1.0,0.0,0.0,0.0,0.0,0.0,0.0,-2.9140992,-0.06225434,-0.8732279,0.64868927,0.3414631,5.813396,-15.418358,0.42141676,0.40397048,1.290375
25.401651,56.66039,17.05687,-1.0013514,-1.0671592,-0.39006853,0.52260864,-0.76374745,0.79448754,0.45702967,-0.14369906,0.6876862,0.63576543,-0.26660064,1.3667849,-0.69000673,-1.7390974,-0.91114014,2.247642,1.3647075,-1.0329827,1.4294192,-0.75528103,-1.7770793,-0.89916396,2.1887689,1.306027,-1.0094011,-1.3717967,1.4185672,0.7856723,-0.26424047,0.99053633,0.4901275,-0.3029131,2.2343826,-0.34040833,1.4494505,-2.970987,-0.26617628,2.5970435,0.24171638,-0.501915,0.9343943,0.785123,-0.051641002,0.06888584,0.6133267,-0.677584,0.66181403,0.771458,1.0,0.0,0.0,0.0,0.0,0.0,0.0,-2.8843827,-0.05959168,-0.8994505,0.8996248,0.44550896,5.4391146,-9.935856,0.39628744,0.21435022,1.9917071
16.600813,54.791573,15.987442,5.2174277,-0.4065977,-0.21984108,0.33296114,-0.77235603,0.793293,0.47552553,-0.13097061,0.68290895,0.6381873,-0.21154118,1.3521836,-0.6759517,-1.7295268,-0.912261,2.2570598,1.3698457,-1.0305552,1.4157072,-0.7410837,-1.7688777,-0.90209174,2.1986642,1.3109041,-1.0122449,-1.3708351,1.4204232,0.83112365,-0.30246922,0.99000937,0.48794627,-0.27860323,2.2046967,-0.34307098,1.474665,-2.9680166,-0.26591015,2.4962611,0.23515892,-0.49509048,0.9420184,0.7865615,-0.059314962,0.067770824,0.610909,-0.6406993,0.6955618,0.7531868,1.0,0.0,0.0,0.0,0.0,0.0,0.0,-2.8546968,-0.056929022,-0.92466503,0.07853508,0.28932095,4.434669,-3.8992822,0.2357006,0.077843666,2.3669958
11.1263685,52.143772,14.679489,8.775434,-0.035509884,-0.20009182,0.19361356,-0.7730738,0.79473597,0.47573656,-0.13500105,0.6840147,0.6376507,-0.17733058,1.3383999,-0.66161007,-1.721304,-0.91559184,2.2670658,1.3746692,-1.029978,1.40198,-0.72686917,-1.7603691,-0.9051254,2.208552,1.3157583,-1.0148427,-1.3734583,1.4221282,0.8569813,-0.30405518,0.98953587,0.48538178,-0.2535257,2.1750374,-0.345726,1.4988725,-2.965049,-0.2656443,2.3955796,0.22886658,-0.48799515,0.94949704,0.78773344,-0.06695134,0.066740304,0.6087194,-0.61724997,0.7196477,0.7397032,1.0,0.0,0.0,0.0,0.0,0.0,0.0,-2.8250375,-0.054273993,-0.9488725,-0.2999544,0.28243065,2.4589896,-0.2577424,0.25564432,-0.009638071,2.447611
9.095316,48.904037,13.393633,9.49666,0.05309385,-0.30071735,0.14013502,-0.7747746,0.79239994,0.4807926,-0.15265858,0.67913973,0.63837326,-0.1474717,1.3245026,-0.64762914,-1.7122898,-0.92039126,2.276466,1.3795956,-1.0295899,1.3882109,-0.71265465,-1.751704,-0.90811896,2.2184205,1.3205878,-1.0171907,-1.3782469,1.4215778,0.8692594,-0.29813492,0.9870127,0.4830202,-0.2287552,2.1454086,-0.34838104,1.5220739,-2.9620848,-0.2653787,2.2949986,0.22279167,-0.48070145,0.9568248,0.788711,-0.07454214,0.06581411,0.6066687,-0.5964431,0.73773503,0.72402936,1.0,0.0,0.0,0.0,0.0,0.0,0.0,-2.7954087,-0.051618963,-0.97207385,-0.5265951,0.057458878,1.1094332,0.47786832,0.04056692,-0.003015995,2.4190574
7.550377,46.85765,12.675327,10.346094,0.15627337,-0.3460828,0.10357067,-0.77790624,0.7904161,0.48954388,-0.14486724,0.6781318,0.639862,-0.1166843,1.3104203,-0.63361305,-1.7027496,-0.9226057,2.2862337,1.3845739,-1.0288591,1.3743826,-0.6984592,-1.7429569,-0.9109895,2.2282624,1.3253981,-1.0192945,-1.3845403,1.4191947,0.87630665,-0.2837337,0.9842665,0.48098108,-0.20437331,2.1158104,-0.35103226,1.5442702,-2.9591234,-0.26511338,2.1945183,0.21689224,-0.4732666,0.96399736,0.789536,-0.082087286,0.06499622,0.60470665,-0.57889694,0.7519409,0.7085597,1.0,0.0,0.0,0.0,0.0,0.0,0.0,-2.7658105,-0.04896775,-0.99427015,-0.68523884,-0.124931335,0.5909562,1.316601,0.014638901,0.014477968,2.3802817
0.59950733,45.665527,12.16299,16.393692,0.7766503,-0.11133817,-0.06219452,-0.78168166,0.7875389,0.4842823,-0.03656548,0.6685464,0.6482347,-0.013440998,1.2962145,-0.6197053,-1.6945287,-0.9146461,2.2951171,1.3902216,-1.0206386,1.3604838,-0.68430096,-1.734206,-0.91322017,2.2380548,1.3301932,-1.0211027,-1.3920368,1.4151188,0.87434167,-0.20337479,0.97866064,0.47932166,-0.17330961,2.0862427,-0.35367966,1.5654625,-2.9561648,-0.26484832,2.0941386,0.21099281,-0.4657402,0.9711243,0.7903187,-0.089724906,0.06423331,0.60267717,-0.5851733,0.75846654,0.7075177,1.0,0.0,0.0,0.0,0.0,0.0,0.0,-2.7362428,-0.04632035,-1.0154624,-0.8367777,-0.2835989,-0.33539534,7.8795013,-0.2276659,-0.02809167,3.0358434
-6.852503,42.90574,11.104388,22.26908,1.4125648,0.11198259,-0.24103168,-0.795472,0.7795278,0.47443262,0.06451301,0.6630028,0.65580326,0.03377767,1.2809366,-0.60634816,-1.6867627,-0.90676886,2.3043551,1.3957735,-1.0177249,1.346459,-0.67021614,-1.7255428,-0.9142072,2.2477822,1.3349749,-1.0225923,-1.4064684,1.4067442,0.86328316,-0.0645003,0.9719422,0.4778341,-0.14106317,2.0567017,-0.35632706,1.5856518,-2.9532092,-0.26458353,1.993859,0.20484352,-0.4582138,0.97832775,0.79120153,-0.09761829,0.06344921,0.60037076,-0.61612433,0.75663006,0.718052,1.0,0.0,0.0,0.0,0.0,0.0,0.0,-2.7067018,-0.04367295,-1.0356517,-1.5687227,-0.7093668,-1.2518167,13.696137,-0.30372143,-0.09559393,3.1415641
-10.698576,44.215435,11.738078,26.770573,1.8136919,0.38157013,-0.35113513,-0.8001874,0.78046036,0.4785302,0.17702155,0.6598306,0.65372556,0.06640287,1.2664403,-0.5921701,-1.6776898,-0.89650506,2.3137653,1.4003475,-1.015952,1.3322855,-0.65620095,-1.7169712,-0.91344523,2.2574449,1.3397375,-1.0237672,-1.4214998,1.4002343,0.85454154,0.12235642,0.96565175,0.47554967,-0.109749325,2.0271912,-0.35897064,1.604839,-2.9502563,-0.264319,1.8936796,0.19824982,-0.4506836,0.9857379,0.7922729,-0.105941094,0.06256757,0.5976331,-0.66474754,0.75649464,0.74202895,1.0,0.0,0.0,0.0,0.0,0.0,0.0,-2.6771913,-0.041029364,-1.0548389,-1.6407251,-0.52485466,-1.0316491,18.501146,-0.23069382,-0.25457144,3.0397325
-10.566982,44.878586,12.223176,27.66981,1.857785,0.46226087,-0.35317484,-0.7995622,0.7778238,0.4728109,0.27009362,0.65721774,0.65944964,0.13510874,1.2523293,-0.57841855,-1.66969,-0.88643587,2.3231666,1.4056824,-1.0102564,1.3179976,-0.6422449,-1.7084911,-0.9107044,2.2670465,1.3444792,-1.0246084,-1.4315674,1.3945285,0.84536994,0.32412854,0.96006423,0.47358298,-0.07603394,1.9977112,-0.3616104,1.6230251,-2.9473069,-0.26405472,1.7936003,0.19114494,-0.4431343,0.99341387,0.79353386,-0.11478756,0.061556272,0.594423,-0.71684664,0.7609373,0.76947516,1.0,0.0,0.0,0.0,0.0,0.0,0.0,-2.6477113,-0.038389593,-1.073025,-1.1273146,-0.45626163,-1.0678291,20.020617,-0.16781092,-0.26543736,3.2743752
-6.746353,44.21256,12.014878,24.122952,1.4406834,0.26921165,-0.28283602,-0.8044977,0.77721566,0.45612183,0.3098705,0.6530502,0.65379643,0.10745209,1.2375478,-0.56452334,-1.6628789,-0.87971735,2.3323514,1.4098588,-1.0138632,1.3036257,-0.62833077,-1.7001522,-0.90621734,2.2765908,1.3491999,-1.0251672,-1.4393209,1.390658,0.82951415,0.48983374,0.95404905,0.47153673,-0.04943392,1.9682617,-0.36425018,1.6402112,-2.9443603,-0.26379073,1.6936212,0.18362999,-0.43550873,1.0012876,0.7949302,-0.12409268,0.060465723,0.59078825,-0.75440055,0.7706128,0.7864304,1.0,0.0,0.0,0.0,0.0,0.0,0.0,-2.6182618,-0.035749823,-1.0902112,-0.8762598,-0.29485226,-1.6825199,16.443752,-0.26882887,-0.24977326,2.5638707
2.4564962,43.062714,11.539832,14.806108,0.4710729,-0.25126535,-0.063205406,-0.8088256,0.7778612,0.44469085,0.25917277,0.6585922,0.6471007,0.04602332,1.2227432,-0.5505446,-1.655683,-0.88030005,2.3424501,1.4139099,-1.0205649,1.2891871,-0.6144386,-1.6919963,-0.9008291,2.2861009,1.3539053,-1.0255411,-1.4455823,1.388956,0.8108714,0.55482286,0.9507916,0.47040296,-0.03361047,1.938839,-0.36688614,1.6563982,-2.9414165,-0.26352698,1.5937419,0.17602348,-0.427742,1.0091395,0.7963239,-0.13358642,0.059431367,0.58693343,-0.75386107,0.7862288,0.7778207,1.0,0.0,0.0,0.0,0.0,0.0,0.0,-2.588839,-0.033113867,-1.1063981,-0.70757866,-0.10848045,-1.8464804,6.395936,-0.110542774,-0.028282404,1.4865838
10.196532,44.639236,12.2591305,8.138825,-0.23993403,-0.58117765,0.15291713,-0.803979,0.7794529,0.45799437,0.24763197,0.6591416,0.6462329,0.08117916,1.2087892,-0.5364933,-1.6461968,-0.87606585,2.352015,1.4185286,-1.0174232,1.2747313,-0.60054547,-1.6839244,-0.8953016,2.295588,1.358605,-1.0257604,-1.4456171,1.3895148,0.80631125,0.5517774,0.94850606,0.47041294,-0.018305197,1.9094467,-0.36951828,1.6715871,-2.9384756,-0.26326352,1.4939624,0.16863441,-0.41976166,1.0168012,0.7975472,-0.14305334,0.05854998,0.58311754,-0.7247979,0.80883527,0.7553299,1.0,0.0,0.0,0.0,0.0,0.0,0.0,-2.5594468,-0.030481726,-1.121587,-0.058817863,0.09744167,-0.35595894,-0.37777424,-0.0988245,0.18023252,1.4261223
12.243785,44.02063,12.15653,6.2113276,-0.39828634,-0.7239029,0.23770227,-0.8029121,0.7753319,0.45902216,0.2691738,0.66175675,0.6574412,0.1568512,1.1944401,-0.5230123,-1.6380222,-0.8683842,2.3617637,1.4243492,-1.0100753,1.2603003,-0.5866609,-1.675843,-0.88994,2.3050675,1.3633162,-1.025789,-1.442482,1.388242,0.80892247,0.53077877,0.9480021,0.47202483,0.0019495405,1.880085,-0.37215042,1.685779,-2.9355376,-0.2630003,1.3942828,0.16159248,-0.4115677,1.0242093,0.79850787,-0.15241422,0.057837766,0.5794911,-0.68786865,0.8309654,0.72893196,1.0,0.0,0.0,0.0,0.0,0.0,0.0,-2.530085,-0.027849585,-1.1357789,0.2748251,-0.087976456,0.37295818,-2.1605253,0.05648136,0.36706328,1.920826
12.448621,42.185257,11.438349,5.406516,-0.4531451,-0.8595743,0.25366497,-0.8036891,0.7730596,0.4500843,0.26469764,0.6563648,0.655122,0.19455042,1.1799314,-0.50935495,-1.6308346,-0.86347026,2.370704,1.4288284,-1.006334,1.2458998,-0.5728002,-1.6677577,-0.8848455,2.3145318,1.3680445,-1.0256021,-1.4391525,1.3855426,0.8088008,0.50214326,0.94592714,0.4736308,0.023861153,1.8507519,-0.37477875,1.698975,-2.9326026,-0.26273736,1.2947029,0.15494728,-0.40317154,1.0313332,0.7991909,-0.16162522,0.05731074,0.57609594,-0.6475158,0.8496673,0.69986737,1.0,0.0,0.0,0.0,0.0,0.0,0.0,-2.500752,-0.025221258,-1.1489749,0.3021717,-0.22790432,0.09115934,-2.9209614,-0.10612011,0.380826,2.095123
11.156077,38.735542,10.141876,5.691371,-0.34602278,-0.9832134,0.22817844,-0.799177,0.76683855,0.4316504,0.265406,0.65912414,0.6561375,0.25475353,1.1659821,-0.49611637,-1.6245927,-0.8583049,2.3804443,1.4336582,-1.0001267,1.2315489,-0.55899197,-1.659764,-0.87999034,2.3239846,1.3727881,-1.025171,-1.4337907,1.3793353,0.7965023,0.47968403,0.9452862,0.47517502,0.049183585,1.8214474,-0.37740326,1.7111758,-2.9296708,-0.2624747,1.1952224,0.14868736,-0.39462662,1.0381578,0.79962176,-0.17065662,0.056974374,0.57291806,-0.60910213,0.86121607,0.6697007,1.0,0.0,0.0,0.0,0.0,0.0,0.0,-2.4714475,-0.022596747,-1.1611757,0.51329136,-0.5706072,-1.1588812,-2.3109376,0.048792362,0.37398338,2.4461672
8.348976,35.80575,9.15202,7.8309917,-0.084445834,-0.97498083,0.16069913,-0.7972341,0.7592859,0.42132476,0.2896683,0.64969444,0.6540493,0.31656682,1.1518255,-0.48306337,-1.6176316,-0.8510235,2.3889542,1.438193,-0.99351436,1.2172533,-0.5452753,-1.6519439,-0.87517715,2.333407,1.3775412,-1.0244634,-1.4283316,1.3693377,0.7772476,0.48160213,0.9416112,0.47597253,0.077689454,1.7921734,-0.38002777,1.7223827,-2.9267418,-0.26221225,1.0958414,0.14274025,-0.38601685,1.0447115,0.799852,-0.17954093,0.056811463,0.5698897,-0.58021903,0.8675246,0.6436799,1.0,0.0,0.0,0.0,0.0,0.0,0.0,-2.4421735,-0.019972235,-1.1723826,0.5180359,-0.9399891,-1.8916011,0.11333823,-0.22369623,0.26912093,2.7700095
6.003622,33.494457,8.258749,9.490932,0.09043777,-0.97970575,0.088866286,-0.79824096,0.75588155,0.39923063,0.30248708,0.6445521,0.6550856,0.34640533,1.1374292,-0.4696871,-1.6120209,-0.84492844,2.3978622,1.4430498,-0.98982286,1.2029921,-0.53165966,-1.6443965,-0.8702228,2.3427796,1.3823,-1.0234754,-1.4253834,1.3591,0.7472095,0.49978566,0.93643236,0.4764204,0.10579159,1.762928,-0.38264847,1.7325964,-2.9238157,-0.2619501,0.99655986,0.13702583,-0.3773651,1.051025,0.7999437,-0.1883146,0.05682159,0.5669206,-0.5583718,0.87019485,0.6204886,1.0,0.0,0.0,0.0,0.0,0.0,0.0,-2.412928,-0.017351538,-1.1825964,0.25236607,-0.95870495,-2.9881954,1.7274141,-0.35094023,0.20992756,2.7353196
6.7495756,29.02366,6.397972,6.454607,-0.12182534,-1.2877636,0.1088494,-0.80794984,0.74642795,0.3674785,0.23584309,0.64992434,0.65628135,0.32984325,1.1221972,-0.45701686,-1.6076487,-0.8466385,2.407772,1.4479282,-0.9904911,1.1887003,-0.5181671,-1.6372516,-0.8653877,2.3521218,1.3870646,-1.0222452,-1.4304632,1.3461251,0.7036227,0.4777228,0.9339268,0.47738025,0.12851283,1.7337112,-0.38526535,1.7418181,-2.9208925,-0.2616882,0.8973775,0.1316185,-0.36874008,1.0570222,0.7999319,-0.19684787,0.05705769,0.5640073,-0.5254412,0.8640959,0.58613604,1.0,0.0,0.0,0.0,0.0,0.0,0.0,-2.3837113,-0.014734656,-1.191818,-0.55286884,-1.2356043,-4.3213725,-2.3034394,-0.116956234,0.31354427,2.213657
8.132779,29.904589,6.706704,5.421015,-0.25639313,-1.3766152,0.14630833,-0.80103284,0.7448455,0.35984322,0.22724313,0.64491254,0.6529098,0.35984406,1.108597,-0.44368252,-1.6012673,-0.84266335,2.416613,1.4523555,-0.9862608,1.1743819,-0.5047851,-1.6305072,-0.8608501,2.3614335,1.3918368,-1.0207956,-1.432242,1.3356766,0.6648299,0.44553527,0.9306382,0.47798675,0.15031028,1.704525,-0.38788223,1.7500486,-2.917972,-0.26142657,0.7982943,0.12658119,-0.36017227,1.0626757,0.7998079,-0.20508225,0.057547543,0.5611923,-0.48688594,0.8591245,0.55204296,1.0,0.0,0.0,0.0,0.0,0.0,0.0,-2.354525,-0.012117773,-1.2000487,-0.20494461,-0.98502636,-3.8406014,-3.297025,-0.21237135,0.28389096,2.123487
8.497654,29.886667,6.6992145,5.103834,-0.30171812,-1.4408242,0.15751645,-0.80070525,0.74032974,0.34079483,0.2148062,0.6402653,0.65328985,0.3893993,1.0943114,-0.43075216,-1.5964278,-0.8393695,2.42546,1.4571657,-0.98185563,1.1600558,-0.49149677,-1.6241348,-0.8566606,2.3707032,1.3966147,-1.0191305,-1.4326508,1.326719,0.62816435,0.4098508,0.92629784,0.47853056,0.17167956,1.6753674,-0.3904915,1.7572892,-2.9150546,-0.2611652,0.6993102,0.12194252,-0.35165405,1.0679933,0.7995658,-0.21300878,0.0583004,0.5585005,-0.44623092,0.85390216,0.5188526,1.0,0.0,0.0,0.0,0.0,0.0,0.0,-2.3253675,-0.00950852,-1.2072892,-0.058436394,-0.83498955,-3.6337376,-3.636533,-0.32265186,0.27478337,2.083972
10.238653,29.469608,6.456836,2.8566055,-0.5256217,-1.6252056,0.20666587,-0.79935634,0.73503304,0.32135513,0.15923448,0.630487,0.65241796,0.3936747,1.0801201,-0.41799346,-1.5919993,-0.84073716,2.4337518,1.4618565,-0.979763,1.1457411,-0.47829458,-1.6181152,-0.85300994,2.379908,1.4013983,-1.0172727,-1.4309851,1.3183115,0.5933396,0.3500644,0.91860163,0.47914022,0.19047058,1.6462383,-0.39310074,1.7635406,-2.91214,-0.26090407,0.60042506,0.11779022,-0.34319305,1.0729458,0.7991943,-0.22056282,0.059346892,0.5559841,-0.39548975,0.846594,0.48154518,1.0,0.0,0.0,0.0,0.0,0.0,0.0,-2.2962384,-0.0068992674,-1.2135406,0.17850399,-0.7809639,-3.4530163,-6.0253086,-0.6884217,0.30656457,1.8353552
9.3384,29.274221,6.5687284,4.1499753,-0.37753803,-1.5942398,0.18985426,-0.79769033,0.72972864,0.3119669,0.16136803,0.6329055,0.6454082,0.42294106,1.0659721,-0.40532172,-1.5869185,-0.8368731,2.4431987,1.4659392,-0.9749786,1.1314551,-0.4651763,-1.6123912,-0.8498552,2.389052,1.4061819,-1.015228,-1.4280187,1.3099172,0.5654797,0.30380452,0.9132213,0.4787139,0.20914036,1.6171398,-0.39571,1.7688038,-2.9092286,-0.26064324,0.50163877,0.1140995,-0.33480072,1.0775613,0.7986952,-0.22776714,0.060660504,0.5536501,-0.35016066,0.8393257,0.44921315,1.0,0.0,0.0,0.0,0.0,0.0,0.0,-2.26714,-0.0042900145,-1.2188039,0.30748844,-0.7741928,-2.775526,-4.6720324,-0.43988228,0.17642379,1.8235862
10.660166,27.340918,5.7353835,1.4222164,-0.575251,-1.83536,0.23784408,-0.8006482,0.7237374,0.28850597,0.07815999,0.6364004,0.6470371,0.42200828,1.0513903,-0.39280257,-1.5835407,-0.84203917,2.452692,1.4708856,-0.9730272,1.1171805,-0.45214722,-1.6069629,-0.84740996,2.3981652,1.4109637,-1.0130155,-1.4269791,1.3007936,0.53524315,0.22460942,0.91070664,0.47869077,0.22514553,1.588068,-0.39831161,1.77308,-2.90632,-0.26038265,0.4029513,0.11094475,-0.32653046,1.0818006,0.7980696,-0.23453407,0.062251013,0.55154634,-0.29430535,0.8258689,0.4100782,1.0,0.0,0.0,0.0,0.0,0.0,0.0,-2.238068,-0.001688391,-1.2230799,0.14674664,-0.8470297,-3.0198336,-7.9447417,-0.18837452,0.24787784,1.572749
9.1359415,25.768173,5.4534287,3.2012644,-0.37403423,-1.7937578,0.20029229,-0.7914234,0.71354157,0.27735138,0.08591164,0.61547893,0.64275193,0.46475023,1.0380381,-0.38079306,-1.5792278,-0.8388188,2.4597132,1.4752388,-0.96654046,1.1029536,-0.43923447,-1.6018131,-0.8455913,2.4072022,1.4157397,-1.0106313,-1.421127,1.2883139,0.5080096,0.16753449,0.9018068,0.47797033,0.24276038,1.5590267,-0.40091324,1.77637,-2.9034145,-0.2601223,0.3043625,0.108291626,-0.31839752,1.085687,0.7973333,-0.24088724,0.06410226,0.54965794,-0.24623169,0.8111792,0.3762535,1.0,0.0,0.0,0.0,0.0,0.0,0.0,-2.2090268,0.00091323256,-1.2263701,0.6324291,-1.1745691,-2.7570724,-5.7413397,-0.799644,0.14994144,1.7326713
7.8945117,22.022255,4.351034,3.5443516,-0.23726863,-1.8648092,0.17388448,-0.7870383,0.69772387,0.2568182,0.052644122,0.6027794,0.6457954,0.4813425,1.0242497,-0.36946207,-1.5761312,-0.8403269,2.4674802,1.4803191,-0.96249706,1.0888029,-0.4264972,-1.596957,-0.8443134,2.416121,1.4205118,-1.0080755,-1.4127764,1.2691156,0.47798976,0.11443181,0.8887234,0.4775328,0.25968722,1.530014,-0.40351486,1.778675,-2.9005117,-0.25986224,0.20587227,0.10609436,-0.3104477,1.0892324,0.7965144,-0.24684083,0.0661883,0.5479539,-0.20175199,0.790421,0.3423137,1.0,0.0,0.0,0.0,0.0,0.0,0.0,-2.1800141,0.003514856,-1.2286749,0.897789,-1.8416405,-3.0660033,-5.3513646,-1.2140155,0.17231107,1.6673148
7.136846,17.956928,2.9796803,2.7285614,-0.20455119,-2.017452,0.16588032,-0.786839,0.68241525,0.23142421,-0.0018772598,0.5909086,0.64120185,0.5013011,1.0101191,-0.35825565,-1.5738145,-0.84450114,2.4752119,1.484632,-0.95794535,1.0747267,-0.4139931,-1.592448,-0.84365726,2.4248872,1.4252764,-1.0053537,-1.4057516,1.2444336,0.441662,0.049195386,0.8728766,0.47678018,0.276258,1.50103,-0.40610886,1.7799957,-2.8976119,-0.25960243,0.10748049,0.10435104,-0.30276108,1.0924116,0.79564655,-0.25233638,0.068514265,0.54642344,-0.15623268,0.76148313,0.30502546,1.0,0.0,0.0,0.0,0.0,0.0,0.0,-2.15103,0.0061088502,-1.2299957,0.78663826,-2.3886442,-3.7153006,-6.5638275,-1.5057087,0.14607906,1.6396105
5.6747656,15.59225,2.1639204,3.5743198,-0.08835566,-2.052276,0.11777811,-0.7850664,0.672562,0.20035753,-0.022871934,0.5792873,0.639367,0.5186867,0.99622005,-0.34673688,-1.5724123,-0.84594446,2.482816,1.4892131,-0.953485,1.0607077,-0.401736,-1.588372,-0.8436105,2.4334855,1.4300314,-1.0024717,-1.4003745,1.2197504,0.3961455,-0.010345594,0.8557483,0.47571424,0.29214838,1.4720764,-0.40870285,1.7803332,-2.8947148,-0.25934288,0.009187081,0.10303688,-0.29539108,1.095228,0.7947768,-0.25735584,0.07108943,0.5450175,-0.114994586,0.7289048,0.26940468,1.0,0.0,0.0,0.0,0.0,0.0,0.0,-2.1220765,0.008702844,-1.2303331,0.6129265,-2.3871183,-4.639596,-6.005536,-1.6286135,0.095027685,1.5726745
2.027599,9.876908,0.26034027,6.2332516,0.25761563,-2.0384686,-0.016568992,-0.78138405,0.65276694,0.13867372,-0.013247828,0.5578581,0.6421368,0.53432614,0.9825693,-0.33645928,-1.5745046,-0.8449353,2.4892714,1.494245,-0.9490391,1.0467383,-0.38975736,-1.5849483,-0.8439529,2.4418817,1.4347769,-0.9994371,-1.3956321,1.1908774,0.32420212,-0.04254952,0.8345528,0.47471592,0.3071776,1.4431496,-0.41129684,1.7796886,-2.8918207,-0.2590836,-0.08900806,0.10203171,-0.2883911,1.0977154,0.7940031,-0.26193485,0.07391952,0.5435853,-0.087307006,0.6891576,0.23765719,1.0,0.0,0.0,0.0,0.0,0.0,0.0,-2.0931497,0.0112968385,-1.2296886,0.5156994,-2.8038025,-7.284993,-3.3162904,-2.0125866,0.06877184,1.4784276
0.11158085,3.008756,-2.6190448,5.132352,0.24123776,-2.3056748,-0.11518693,-0.7773643,0.6373439,0.03230055,-0.067604505,0.5322159,0.6439048,0.54228187,0.9690018,-0.32602298,-1.5817182,-0.8507134,2.4951034,1.4991674,-0.9452089,1.0328223,-0.37807485,-1.5826309,-0.844713,2.4500222,1.4395148,-0.9962623,-1.3899844,1.1609849,0.2007087,-0.08745336,0.8074417,0.4740513,0.32080805,1.4142532,-0.4138832,1.7780627,-2.8889294,-0.25882456,-0.18710501,0.10132408,-0.2819023,1.0998383,0.79346263,-0.26597518,0.077102594,0.5419681,-0.05758716,0.6346987,0.19994447,1.0,0.0,0.0,0.0,0.0,0.0,0.0,-2.0642533,0.013883203,-1.2280626,0.6453991,-2.9080153,-12.462768,-4.5920343,-2.640748,0.103253126,1.3437331
3.2788882,0.11928773,-3.825119,-1.5784836,-0.25995874,-2.7581682,0.040025007,-0.7759718,0.6091943,0.009164093,-0.21888779,0.4940754,0.6442936,0.5550349,0.95522505,-0.31715542,-1.5817145,-0.86660177,2.4994297,1.5039442,-0.9407588,1.0189635,-0.36674997,-1.5814865,-0.84652495,2.4578156,1.4442507,-0.9929569,-1.3835918,1.1232256,0.084916525,-0.2124092,0.7697079,0.47400045,0.33380985,1.3853855,-0.41646957,1.7754567,-2.886041,-0.25856578,-0.2851039,0.10110283,-0.276062,1.1014563,0.7931598,-0.2692101,0.08073395,0.5402827,-0.0033162802,0.5664001,0.1456972,1.0,0.0,0.0,0.0,0.0,0.0,0.0,-2.0353856,0.016469568,-1.2254567,0.8804083,-3.6962748,-11.760815,-12.509251,-3.807032,0.20716786,1.3033926
5.8097806,0.31685185,-3.3209562,-5.201442,-0.516095,-2.91331,0.20272125,-0.77363646,0.5761104,0.024868287,-0.32094184,0.43715546,0.65159684,0.5586055,0.9415998,-0.30913892,-1.5789996,-0.87861913,2.5015311,1.5094104,-0.93709636,1.0051733,-0.35588,-1.5811393,-0.8499515,2.4651093,1.4489924,-0.9895332,-1.3764985,1.0751601,0.017069455,-0.38580754,0.7158599,0.47476915,0.34525457,1.3565464,-0.41905594,1.7718713,-2.8831553,-0.25830728,-0.38300478,0.10152435,-0.2709198,1.1024735,0.7930025,-0.2714763,0.08481522,0.53875226,0.063681714,0.4949087,0.08400049,1.0,0.0,0.0,0.0,0.0,0.0,0.0,-2.0065465,0.019055933,-1.2218714,1.0606289,-4.7257423,-7.026128,-17.281937,-5.4700494,0.2847612,1.1539578
9.702104,6.6949687,-0.41782016,-7.5808625,-0.72474456,-2.8746178,0.42441592,-0.767526,0.55363023,0.08251317,-0.4391525,0.4223818,0.6628616,0.55333894,0.9284207,-0.30051696,-1.572888,-0.8938668,2.5073476,1.5152786,-0.9341993,0.9914707,-0.3455021,-1.5808971,-0.85538554,2.4718957,1.4537474,-0.98601127,-1.3668705,1.025623,0.02557366,-0.59553784,0.66590226,0.47642076,0.35449427,1.3277378,-0.42163467,1.7673076,-2.8802726,-0.258049,-0.4808078,0.102703094,-0.2664261,1.1028612,0.79280967,-0.27273953,0.089218155,0.5376859,0.14112583,0.43214533,0.020865742,1.0,0.0,0.0,0.0,0.0,0.0,0.0,-1.9777378,0.021634668,-1.2173076,1.3848066,-4.8665524,0.53572655,-20.842642,-5.0741315,0.34296513,0.95193386
11.586663,11.834309,2.2743678,-6.9420567,-0.8029687,-2.6540704,0.5568843,-0.7548188,0.5187763,0.15568954,-0.52465844,0.31096587,0.6636515,0.5656435,0.9159888,-0.2936245,-1.5653281,-0.9078514,2.5029924,1.5201125,-0.92944694,0.97790563,-0.33566353,-1.5800216,-0.8628919,2.4779572,1.4585177,-0.98240066,-1.3515185,0.97027147,0.10680018,-0.8019388,0.5861716,0.47770265,0.3632765,1.2989559,-0.4242134,1.7617667,-2.8773928,-0.257791,-0.578513,0.10466957,-0.26244354,1.1026487,0.79241043,-0.2730989,0.093855724,0.5373024,0.21959233,0.3835974,-0.03812957,1.0,0.0,0.0,0.0,0.0,0.0,0.0,-1.9489559,0.024213403,-1.2117667,1.974535,-5.443156,7.7173204,-20.484734,-7.971561,0.265944,0.90895295
9.835534,8.755572,2.113141,-4.540581,-0.43634164,-2.4788396,0.5494412,-0.73900586,0.46716905,0.19704515,-0.597229,0.24440661,0.66667795,0.55932885,0.90400505,-0.28894663,-1.5603172,-0.9226148,2.502398,1.5251855,-0.9264678,0.9645456,-0.32649156,-1.5781162,-0.872278,2.48313,1.4632994,-0.9787195,-1.3293827,0.89977175,0.21700475,-0.9837311,0.49461073,0.4785745,0.36976165,1.2702045,-0.42679214,1.7552494,-2.8745158,-0.25753328,-0.67612064,0.107328415,-0.25893402,1.1018775,0.7917361,-0.2726762,0.09861939,0.53765756,0.2847052,0.3362784,-0.093029074,1.0,0.0,0.0,0.0,0.0,0.0,0.0,-1.9202045,0.026792139,-1.2052493,2.6480675,-6.9699645,10.563222,-18.05464,-9.095955,0.16944408,0.6576419
4.7153788,-2.0482945,-0.75523996,-0.4264717,0.01166749,-2.29757,0.40410957,-0.7130322,0.38648495,0.23137441,-0.6303747,0.0105637135,0.66056514,0.57384306,0.89324236,-0.28784308,-1.5549787,-0.93531543,2.4841864,1.5293559,-0.92133516,0.95149076,-0.3182628,-1.575114,-0.88309836,2.4868417,1.4680811,-0.9749763,-1.2961614,0.7973954,0.32662523,-1.114586,0.3300661,0.47805098,0.37553003,1.2414799,-0.42936325,1.7477568,-2.8716416,-0.2572758,-0.7736307,0.11048508,-0.25592422,1.1005878,0.79084444,-0.27161765,0.10355889,0.5385762,0.32877016,0.28437135,-0.14397517,1.0,0.0,0.0,0.0,0.0,0.0,0.0,-1.8914798,0.029363245,-1.1977568,3.7222385,-10.190498,10.519701,-13.049698,-16.368282,-0.029784441,0.50041676
-5.5867796,-25.039494,-8.2180605,5.2646127,0.98897994,-2.2350025,0.071438484,-0.6950068,0.2764108,0.19394521,-0.6321627,-0.20122719,0.6610593,0.5620134,0.8819901,-0.2906217,-1.5557195,-0.94631463,2.466719,1.5341871,-0.91877496,0.9387945,-0.31140205,-1.57145,-0.89474845,2.4884515,1.4728514,-0.97119975,-1.2597425,0.64884293,0.3788242,-1.182234,0.10472886,0.47653595,0.3775639,1.2127857,-0.43193436,1.7392899,-2.8687704,-0.25701857,-0.8710432,0.11379242,-0.2536316,1.098805,0.78996384,-0.2700288,0.10877206,0.53963894,0.33422017,0.20746249,-0.19277528,1.0,0.0,0.0,0.0,0.0,0.0,0.0,-1.8627857,0.03193435,-1.1892898,3.9519548,-14.87981,4.98209,-6.876111,-22.544926,-0.21928549,-0.024223328
-27.813835,-90.57404,-29.71151,9.195278,3.5352952,-2.8074703,-0.4675934,-0.6579179,-0.0046978546,0.053456105,-0.6438901,-0.4290495,0.6412377,0.54610294,0.8730027,-0.31187183,-1.5661044,-0.95913744,2.4455466,1.5369751,-0.91658944,0.92656076,-0.30710718,-1.5681942,-0.9067619,2.487414,1.4775835,-0.96743846,-1.2097367,0.35560226,0.30834877,-1.2086384,-0.17452079,0.47095782,0.37386596,1.1841183,-0.43450546,1.7298495,-2.865902,-0.2567616,-0.96835834,0.11657143,-0.25287247,1.0963931,0.7895725,-0.2677305,0.114080206,0.5402605,0.26044372,0.02822903,-0.26000735,1.0,0.0,0.0,0.0,0.0,0.0,0.0,-1.8341182,0.034505457,-1.1798494,5.4187536,-29.549767,-6.931978,-2.9147387,-28.307858,-0.8357942,-0.9238899
-53.255573,-164.31256,-53.99996,14.064103,6.8746767,-3.378065,-1.0035448,-0.6260999,-0.34445906,-0.105676964,-0.6342177,-0.5427577,0.6399853,0.5235051,0.8639508,-0.3415531,-1.5787618,-0.9701837,2.4331381,1.5415821,-0.91508794,0.91489446,-0.30698988,-1.5665462,-0.91877437,2.4836679,1.4822413,-0.96374774,-1.150156,-0.10445766,0.11822401,-1.1995842,-0.4441502,0.46190715,0.3646815,1.1554813,-0.43706894,1.7194366,-2.8630364,-0.2565049,-1.0655761,0.1178627,-0.2548027,1.0931655,0.7902049,-0.26442903,0.11890813,0.5399206,0.08501553,-0.26873496,-0.3455638,1.0,0.0,0.0,0.0,0.0,0.0,0.0,-1.8054813,0.037068933,-1.1694367,6.5994024,-46.46713,-18.598608,0.6685257,-27.723711,-1.5371203,-1.7552614
-51.719162,-161.88844,-50.403873,16.965889,7.837063,-2.7863057,-0.6533902,-0.5820384,-0.5609482,0.11527575,-0.6542653,-0.5567657,0.6483838,0.52226454,0.85669065,-0.3630847,-1.5550187,-0.9842009,2.4279914,1.5470797,-0.9115213,0.9039148,-0.311815,-1.5656745,-0.9306781,2.4777474,1.4868075,-0.9601352,-1.0779641,-0.61010736,0.07723792,-1.1870154,-0.64341295,0.45203352,0.35816374,1.1268711,-0.43963242,1.7080524,-2.8601737,-0.25624844,-1.1626967,0.117204666,-0.25959396,1.0891461,0.79166466,-0.26025966,0.1224642,0.5390124,-0.1177469,-0.5487429,-0.42197227,1.0,0.0,0.0,0.0,0.0,0.0,0.0,-1.7768711,0.03963241,-1.1580524,7.985759,-51.035507,-4.0082006,1.3525963,-20.504463,-1.8438399,-1.2456954
-27.891714,-103.1783,-27.815893,12.590049,6.0366063,-1.9240682,0.20386901,-0.44800833,-0.67923176,0.35031182,-0.7213643,-0.566331,0.64875543,0.5272947,0.859114,-0.37973818,-1.5306433,-1.0028145,2.4211144,1.551683,-0.90740573,0.8941206,-0.3211467,-1.5637004,-0.942765,2.4703927,1.4912878,-0.95655227,-0.9451488,-1.041919,0.23671608,-1.2151774,-0.7664313,0.44390932,0.35781604,1.0982914,-0.4421959,1.6956978,-2.857314,-0.25599226,-1.2597202,0.115011215,-0.26644135,1.0844738,0.7931606,-0.2556198,0.12424304,0.53862625,-0.25712872,-0.72777754,-0.48371333,1.0,0.0,0.0,0.0,0.0,0.0,0.0,-1.7482914,0.042195886,-1.1456978,13.719082,-43.49785,15.770221,-2.5969982,-12.454534,-1.6060054,-0.17231107
-0.036765277,-30.04407,-1.9001878,8.589518,3.2611144,-1.1720123,0.8196467,-0.23180348,-0.73216236,0.4095432,-0.6983871,-0.5931125,0.62678987,0.43499377,0.8709402,-0.39436293,-1.5227461,-1.0126038,2.4110816,1.5539668,-0.9130529,0.88645303,-0.33373758,-1.5596454,-0.9550626,2.4622064,1.4956976,-0.95301795,-0.70814824,-1.3318663,0.46166626,-1.2343711,-0.8356335,0.43877286,0.3527606,1.0697384,-0.44475174,1.6823735,-2.8544571,-0.25573632,-1.3566468,0.11211014,-0.27421188,1.0793788,0.7939542,-0.25100753,0.12425494,0.5396226,-0.3050058,-0.7889876,-0.52022547,1.0,0.0,0.0,0.0,0.0,0.0,0.0,-1.7197384,0.044751734,-1.1323736,23.446978,-29.117155,22.450703,-1.8596172,-6.7026496,-0.9196341,-0.30108094
14.144311,16.324272,11.75214,7.906839,1.256315,-0.9417186,0.79111356,-0.085435286,-0.7531619,0.28234515,-0.6467746,-0.57721794,0.642854,0.3198335,0.8779095,-0.40905377,-1.5314109,-1.0197401,2.4044845,1.559983,-0.9210346,0.88151014,-0.3481376,-1.5542114,-0.96726775,2.453673,1.500094,-0.94961333,-0.4252262,-1.476116,0.5714026,-1.21605,-0.85817224,0.4399296,0.3372718,1.0412159,-0.4473076,1.6680808,-2.851603,-0.25548062,-1.4534763,0.10917282,-0.28211975,1.0740738,0.7938617,-0.24673142,0.12295833,0.54202247,-0.2923546,-0.78518945,-0.5365425,1.0,0.0,0.0,0.0,0.0,0.0,0.0,-1.6912159,0.04730758,-1.1180809,27.633715,-14.440322,11.221636,1.7761469,-2.0149946,0.057655573,-1.2697875
22.90721,42.72217,18.119572,5.04423,-0.22172421,-1.1916964,0.6737955,0.087356515,-0.7671573,0.17077674,-0.64006406,-0.5490522,0.6353498,0.24744381,0.8902458,-0.42485332,-1.5371337,-1.0312742,2.3987677,1.563629,-0.92486894,0.8796333,-0.363188,-1.5487335,-0.9792068,2.44517,1.5045134,-0.94641566,-0.11152074,-1.5146414,0.5418026,-1.1869994,-0.8470393,0.44284865,0.3146578,1.0127201,-0.44986343,1.6528206,-2.8487518,-0.2552252,-1.550209,0.1067009,-0.289814,1.0686547,0.7929843,-0.24280019,0.120879106,0.54553825,-0.23245978,-0.7571488,-0.5463792,1.0,0.0,0.0,0.0,0.0,0.0,0.0,-1.6627201,0.049863428,-1.1028206,30.436438,-3.8294315,-2.3863912,2.7650356,1.2695312,0.38719177,-2.0305157
18.236065,38.11555,12.064408,3.8205113,-0.62728155,-1.8061092,0.23356235,0.17709927,-0.77223957,-0.06566071,-0.64093477,-0.5382304,0.63931,0.244818,0.8973432,-0.44041196,-1.5552995,-1.0433003,2.391347,1.5684444,-0.9219339,0.8806013,-0.378175,-1.5450103,-0.9908817,2.436873,1.5089613,-0.9434421,0.16325147,-1.4934702,0.3184244,-1.161393,-0.8240573,0.44539952,0.2918473,0.98425484,-0.45241165,1.6365936,-2.8459034,-0.25497004,-1.6468452,0.10489273,-0.29742432,1.0630579,0.7917527,-0.23888712,0.118594,0.54954165,-0.16336767,-0.7564784,-0.5669978,1.0,0.0,0.0,0.0,0.0,0.0,0.0,-1.6342548,0.052411646,-1.0865936,26.579365,2.0947456,-21.537155,2.45471,2.2382379,0.2564609,-2.2170126
14.825894,24.230402,3.7043974,-1.3479152,-0.64826643,-2.6764042,-0.006042585,0.3468087,-0.78646976,-0.32412067,-0.68282014,-0.43929154,0.61852163,0.23634306,0.91528213,-0.45682198,-1.5774224,-1.0591637,2.3929439,1.5708135,-0.9198078,0.8843025,-0.39284918,-1.54473,-1.002568,2.429091,1.5134054,-0.9406879,0.4358398,-1.4590098,-0.06541709,-1.1714064,-0.76349026,0.44316313,0.26977518,0.95581627,-0.45495987,1.619401,-2.8430579,-0.2547151,-1.7433847,0.103816986,-0.3053856,1.0570738,0.79057896,-0.23446172,0.1163891,0.55359375,-0.08692083,-0.8041282,-0.6122374,1.0,0.0,0.0,0.0,0.0,0.0,0.0,-1.6058162,0.054959863,-1.069401,26.268608,3.3655882,-37.324024,-1.1195898,5.8842063,-0.46076775,-2.270782
12.95807,14.657633,-1.2188313,-4.777108,-0.6071726,-3.0934646,-0.06053125,0.46609044,-0.79497534,-0.48908478,-0.72246885,-0.3973142,0.60898876,0.2652595,0.93091154,-0.47234672,-1.5936384,-1.0748149,2.3893595,1.5743043,-0.9141619,0.8905481,-0.40723583,-1.5486057,-1.0146091,2.4219956,1.5178076,-0.9381101,0.68448555,-1.4322549,-0.49189535,-1.2151932,-0.6918314,0.43795502,0.25349057,0.9274082,-0.4575081,1.6012437,-2.8402152,-0.25446045,-1.8398277,0.1035099,-0.31402206,1.050499,0.78965753,-0.22912109,0.11434597,0.55755657,-0.007947515,-0.8783713,-0.6768357,1.0,0.0,0.0,0.0,0.0,0.0,0.0,-1.5774082,0.05750808,-1.0512438,23.982895,2.5786638,-41.68563,-4.4712305,7.0006013,-0.92090964,-1.7152071
14.825745,15.670687,-0.16095114,-6.2326136,-0.64069444,-3.0074089,0.07249197,0.5692921,-0.7987589,-0.56893945,-0.7600812,-0.3502256,0.58597267,0.26063502,0.94747734,-0.48711172,-1.6054996,-1.0906172,2.3869731,1.5764048,-0.9120466,0.8990549,-0.42145416,-1.5562332,-1.0272586,2.4156556,1.5221411,-0.9356725,0.90365076,-1.4185679,-0.85068715,-1.281887,-0.61478007,0.43013352,0.2405456,0.8990269,-0.46004868,1.5821228,-2.8373754,-0.25420606,-1.9361743,0.10400009,-0.32336807,1.0432384,0.7889254,-0.22274797,0.112375945,0.5615618,0.07329294,-0.9485825,-0.74798745,1.0,0.0,0.0,0.0,0.0,0.0,0.0,-1.5490268,0.06004867,-1.0321229,21.203577,1.2972355,-35.210217,-6.7418337,7.6375723,-1.2209713,-1.3075829
15.973349,21.334349,3.6789572,-3.9301105,-0.504403,-2.5139544,0.18924707,0.63533634,-0.8009396,-0.6117308,-0.7739832,-0.2996143,0.56843513,0.2201568,0.96258855,-0.5015481,-1.6174062,-1.1046569,2.3856943,1.5789846,-0.91365683,0.9094051,-0.43561956,-1.5665729,-1.0405471,2.4101014,1.5263907,-0.9333713,1.0771278,-1.4160286,-1.093963,-1.3445996,-0.5358927,0.4218611,0.22692648,0.87067413,-0.46258926,1.5620391,-2.8345385,-0.2539519,-2.0324244,0.105234146,-0.3332405,1.0353285,0.78821,-0.21548414,0.11030145,0.56579596,0.14621247,-0.9966853,-0.8121295,1.0,0.0,0.0,0.0,0.0,0.0,0.0,-1.5206741,0.06258926,-1.0120392,16.843975,0.21104813,-23.981285,-6.3184977,7.903719,-1.1969984,-1.2825817
16.541672,31.083527,9.1294,0.34121847,-0.5416405,-1.8254015,0.26618004,0.6684334,-0.7922842,-0.6207744,-0.7788331,-0.32267976,0.5567569,0.20950168,0.97624844,-0.514848,-1.6286503,-1.1184305,2.3778334,1.5820664,-0.9124211,0.9210619,-0.44976208,-1.5784175,-1.0543239,2.405108,1.530562,-0.9311979,1.1942284,-1.4136999,-1.2144138,-1.3890151,-0.48688155,0.41472945,0.21466064,0.84235,-0.46512985,1.5409937,-2.8317044,-0.253698,-2.1285782,0.107120514,-0.34334564,1.0268977,0.7873421,-0.20762034,0.108080626,0.57035506,0.21063334,-1.0103728,-0.8612127,1.0,0.0,0.0,0.0,0.0,0.0,0.0,-1.49235,0.06512985,-0.9909937,11.41448,0.21750927,-11.983466,-4.48575,4.967606,-0.95021725,-1.0984957
13.240121,34.871826,11.442712,5.4500237,-0.45549303,-1.2372608,0.20912936,0.67117107,-0.7906461,-0.65021896,-0.77726656,-0.3889176,0.5623166,0.2208107,0.98817897,-0.5288267,-1.6434394,-1.1320505,2.3662162,1.5867937,-0.9091168,0.9334291,-0.46388742,-1.5909011,-1.0683696,2.4002404,1.5346781,-0.9291246,1.2506164,-1.4122003,-1.2600524,-1.4097365,-0.4867586,0.41026333,0.20516646,0.8140545,-0.4676628,1.5189874,-2.8288732,-0.25344434,-2.2246358,0.109537125,-0.35342026,1.0180733,0.78627044,-0.19941843,0.10584021,0.57515997,0.2600373,-1.001274,-0.89788204,1.0,0.0,0.0,0.0,0.0,0.0,0.0,-1.4640545,0.067662805,-0.9689874,5.55315,0.13473034,-4.674101,-2.081585,0.041240454,-0.5914211,-0.84427
8.01101,32.818027,10.992564,10.054245,-0.082099974,-0.85337484,0.100129195,0.67046636,-0.80064845,-0.6819764,-0.76705194,-0.40838557,0.5532195,0.23860358,1.0004758,-0.5439523,-1.6590987,-1.1450748,2.359402,1.59,-0.90526426,0.94602144,-0.47805187,-1.6035984,-1.082444,2.3951898,1.5387541,-0.9271219,1.2623111,-1.4179739,-1.2733927,-1.406417,-0.51091677,0.40642005,0.19885519,0.7857876,-0.47019577,1.4960213,-2.8260448,-0.25319096,-2.3205974,0.11229324,-0.36336517,1.0089439,0.7850411,-0.19104797,0.10367676,0.58005357,0.28907132,-0.9860651,-0.92643416,1.0,0.0,0.0,0.0,0.0,0.0,0.0,-1.4357876,0.070195764,-0.94602126,1.2315035,-0.6145716,-1.4969349,0.37908554,-2.4657607,-0.48597455,-0.56141615
5.1376953,32.650017,11.119311,12.634133,0.14722943,-0.6038358,0.05075989,0.66788316,-0.8030384,-0.68637866,-0.7655082,-0.41051677,0.55899686,0.2502049,1.0128098,-0.5583557,-1.6722362,-1.1589948,2.3541381,1.5946538,-0.9021014,0.9585365,-0.49229023,-1.6162822,-1.0964057,2.3898644,1.5428034,-0.925164,1.2483149,-1.4259467,-1.2674085,-1.3924177,-0.53989756,0.404223,0.19495961,0.7575474,-0.47272873,1.4720962,-2.8232193,-0.25293782,-2.4164631,0.115249634,-0.3731346,0.999567,0.78368926,-0.18260732,0.10160828,0.58494556,0.30614442,-0.96693206,-0.9499064,1.0,0.0,0.0,0.0,0.0,0.0,0.0,-1.4075474,0.07272872,-0.9220962,-1.2584448,-0.84495544,0.4065752,1.4772654,-2.992773,-0.29226542,-0.33290088
4.2803473,33.337173,11.472693,13.336164,0.16152918,-0.4834959,0.05752994,0.6639857,-0.8065727,-0.68436897,-0.7674593,-0.44519582,0.5632546,0.29563555,1.0249351,-0.5729475,-1.6847191,-1.1731517,2.3453448,1.5991288,-0.89560044,0.9708351,-0.50661445,-1.6288421,-1.1102283,2.3841844,1.5468394,-0.9232042,1.2242875,-1.4347727,-1.2528621,-1.3784853,-0.5777871,0.40305743,0.1965348,0.7293358,-0.47525406,1.4472132,-2.8203967,-0.25268492,-2.512233,0.118356705,-0.38268661,0.9899638,0.782214,-0.17413627,0.09966774,0.58981705,0.32020935,-0.94507205,-0.9721745,1.0,0.0,0.0,0.0,0.0,0.0,0.0,-1.3793358,0.07525405,-0.89721316,-2.2333622,-0.9315014,1.2455463,1.4856815,-3.9004087,-0.1847148,0.20901561
3.114944,33.015602,11.250535,13.750748,0.23663008,-0.41544202,0.045034423,0.6459185,-0.81138796,-0.6849464,-0.7666371,-0.4580175,0.56345034,0.307561,1.035427,-0.58775324,-1.6973368,-1.186892,2.3383827,1.6031843,-0.89244807,0.9828304,-0.5210302,-1.6412647,-1.1239364,2.3781419,1.5508639,-0.9212148,1.1919308,-1.4440616,-1.2392099,-1.3677709,-0.61330765,0.40221962,0.19988997,0.7011528,-0.4777794,1.4213731,-2.817577,-0.2524323,-2.607907,0.1215744,-0.39203644,0.9801329,0.7806229,-0.16562778,0.09786633,0.59465736,0.33055863,-0.92405456,-0.99491626,1.0,0.0,0.0,0.0,0.0,0.0,0.0,-1.3511528,0.07777938,-0.8713731,-3.040409,-0.9818077,1.149416,1.1846066,-3.6834717,-0.15853047,0.38400292
2.3259244,33.248825,11.27643,14.04051,0.3037498,-0.3495323,0.04048436,0.6254081,-0.81514806,-0.68003577,-0.7637279,-0.46693894,0.566126,0.32294047,1.0453712,-0.602545,-1.7092682,-1.2003092,2.331448,1.6074765,-0.8889208,0.9944633,-0.53553367,-1.6535575,-1.1375587,2.3717942,1.5548846,-0.91918063,1.1544905,-1.4527181,-1.2268695,-1.3599614,-0.6426018,0.40180996,0.20476826,0.6729984,-0.48030472,1.3945773,-2.81476,-0.25217992,-2.7034855,0.12487984,-0.40117645,0.9700726,0.7789223,-0.15707475,0.096184686,0.599463,0.33791557,-0.9034073,-1.0178069,1.0,0.0,0.0,0.0,0.0,0.0,0.0,-1.3229984,0.08030471,-0.84457725,-3.5328627,-0.9207487,1.0138273,0.9091139,-3.0752897,-0.11845827,0.53833425
2.7627263,34.50261,11.796606,13.644403,0.27602035,-0.3217039,0.062105164,0.61060214,-0.8172008,-0.67440224,-0.7673139,-0.47516337,0.5542587,0.33815703,1.0555235,-0.6172537,-1.7209978,-1.2142901,2.3242779,1.6103104,-0.88536495,1.0057329,-0.5501106,-1.6657379,-1.1511505,2.3652024,1.5588919,-0.9170892,1.1183916,-1.4594235,-1.2158687,-1.3583571,-0.6650044,0.400316,0.21082586,0.64487267,-0.48282242,1.3668263,-2.811946,-0.2519278,-2.7989683,0.12826347,-0.4101143,0.9597767,0.77710134,-0.14845416,0.09460284,0.6042558,0.34621775,-0.882001,-1.041302,1.0,0.0,0.0,0.0,0.0,0.0,0.0,-1.2948726,0.08282241,-0.8168263,-3.4007072,-0.7225752,0.87435246,0.29280186,-2.3832202,-0.23280978,0.66417456
1.7473302,35.7761,12.251442,14.299717,0.333838,-0.1971527,0.05630231,0.5751514,-0.8166873,-0.66074365,-0.76646924,-0.48450905,0.56531197,0.36340815,1.063248,-0.6317793,-1.7318122,-1.2277974,2.3167515,1.6154231,-0.8807484,1.0165704,-0.5647285,-1.677779,-1.1647441,2.3584237,1.5628954,-0.9149225,1.0730642,-1.4627328,-1.2010081,-1.359133,-0.68272644,0.40007716,0.21877198,0.6167736,-0.48534012,1.3381212,-2.8091347,-0.2516759,-2.8943558,0.13170624,-0.4188118,0.9492574,0.7751562,-0.13977367,0.093107685,0.60903776,0.35070574,-0.8583156,-1.0631588,1.0,0.0,0.0,0.0,0.0,0.0,0.0,-1.2667736,0.08534011,-0.78812116,-4.29914,-0.3824234,1.246357,0.06430149,-1.9281387,-0.0978291,0.8531749
1.0672688,36.555145,12.374456,14.37906,0.3468157,-0.14096105,0.042825237,0.5477398,-0.81487566,-0.6618986,-0.77351916,-0.4917771,0.558371,0.35919902,1.0713444,-0.64621603,-1.7439688,-1.2420961,2.309246,1.6187326,-0.8790026,1.0269235,-0.57935214,-1.6897075,-1.1783855,2.3514962,1.5668932,-0.9126861,1.023452,-1.462338,-1.1908518,-1.3652809,-0.6966046,0.39928997,0.22546585,0.58870316,-0.48785782,1.3084629,-2.8063262,-0.25142425,-2.9896479,0.13518715,-0.4272766,0.93851435,0.7730987,-0.13101715,0.091699384,0.6137947,0.3536136,-0.83432436,-1.0853769,1.0,0.0,0.0,0.0,0.0,0.0,0.0,-1.2387031,0.08785781,-0.75846285,-4.714608,-0.01180172,0.7713795,-0.4626751,-1.5526295,-0.15696287,0.7258862
-0.34485292,35.906006,11.938146,14.642643,0.49632728,-0.097646594,0.021583341,0.5158405,-0.81774545,-0.661224,-0.78083277,-0.4689972,0.53302,0.35160363,1.0785075,-0.6611267,-1.7558299,-1.2564688,2.3045964,1.6201953,-0.87752575,1.0367445,-0.5939739,-1.7015674,-1.1921203,2.3445344,1.5708624,-0.91039634,0.96912616,-1.4623517,-1.1851034,-1.3757538,-0.6962481,0.39594814,0.23039073,0.5606613,-0.4903679,1.2778523,-2.8035202,-0.2511729,-3.0848446,0.13866425,-0.43553162,0.9275413,0.77095175,-0.12214914,0.090327926,0.6185094,0.35180804,-0.813408,-1.1085126,1.0,0.0,0.0,0.0,0.0,0.0,0.0,-1.2106613,0.09036788,-0.7278523,-5.1757336,-0.057578087,0.33466816,-0.877285,-0.14059544,-0.41992664,0.5543232
-4.860527,34.272137,10.552383,16.336214,0.68584925,0.050057977,-0.07179275,0.45344985,-0.815453,-0.6659033,-0.7820575,-0.5076797,0.52457577,0.34094104,1.0820894,-0.67551917,-1.7681577,-1.270326,2.2937665,1.62332,-0.87630224,1.0458597,-0.60858417,-1.7134197,-1.2059524,2.3374925,1.5747935,-0.9080732,0.8932326,-1.46087,-1.186172,-1.3849814,-0.7076245,0.39182332,0.23298949,0.5326462,-0.49287796,1.2462904,-2.800717,-0.2509218,-3.1799462,0.14204216,-0.4435959,0.9163333,0.76878816,-0.11314721,0.08902964,0.62308604,0.33956346,-0.79489213,-1.131853,1.0,0.0,0.0,0.0,0.0,0.0,0.0,-1.1826462,0.092877954,-0.69629043,-7.285559,0.0783205,-0.34267902,-0.71868896,-1.3565898,-0.5004585,0.29362738
-6.7938256,35.594917,11.007465,17.552961,0.7506615,0.23983636,-0.09242429,0.40848875,-0.8126944,-0.64919126,-0.78101945,-0.5356717,0.5410913,0.35420933,1.0867085,-0.6898536,-1.7783388,-1.2840544,2.2839253,1.6289026,-0.87265223,1.0541452,-0.62316775,-1.7252223,-1.2198455,2.3302598,1.5786997,-0.9057205,0.80796456,-1.4577527,-1.179212,-1.3902333,-0.72935605,0.3899231,0.23610751,0.50465965,-0.49538803,1.2137784,-2.797917,-0.2506709,-3.2749527,0.14526558,-0.45145416,0.90491784,0.76664114,-0.104049444,0.08785299,0.62746865,0.321519,-0.772984,-1.1516268,1.0,0.0,0.0,0.0,0.0,0.0,0.0,-1.1546596,0.095388025,-0.66377836,-8.212996,0.23989677,0.4584074,-0.3154993,-2.4046063,-0.26119947,0.33876896
-14.981988,30.323269,7.369737,19.676048,1.1953262,0.36070302,-0.23270322,0.3099981,-0.8144892,-0.6743301,-0.7979521,-0.54198045,0.4812865,0.34217373,1.085145,-0.70461667,-1.7926553,-1.2996408,2.2760618,1.6268283,-0.8715031,1.0613054,-0.6377332,-1.7370765,-1.2338417,2.322802,1.582543,-0.9033506,0.686591,-1.4564744,-1.1881233,-1.4019691,-0.7521034,0.38228253,0.2372222,0.47670174,-0.49789047,1.180317,-2.7951195,-0.25042027,-3.3698642,0.14817238,-0.4591713,0.89326566,0.76462793,-0.09478289,0.086828455,0.63152283,0.28501508,-0.7619644,-1.1761984,1.0,0.0,0.0,0.0,0.0,0.0,0.0,-1.1267017,0.09789047,-0.63031703,-11.748516,0.024461746,-1.1184692,-0.8944273,-2.5805354,-0.8649528,0.10409951
-23.288706,26.598137,4.6173825,22.525665,1.7362984,0.6014919,-0.36441755,0.2067563,-0.8163582,-0.6763275,-0.8010874,-0.5324409,0.47147933,0.31228298,1.0819811,-0.71936905,-1.8047093,-1.3139504,2.269558,1.629691,-0.8721223,1.0669874,-0.65230346,-1.7490394,-1.2479522,2.3151803,1.5863062,-0.90099597,0.53035456,-1.4576281,-1.1999047,-1.41293,-0.76637465,0.3739096,0.23480368,0.44877052,-0.5003929,1.1459073,-2.792325,-0.2501699,-3.464681,0.15055847,-0.4668312,0.8813626,0.7628851,-0.08530541,0.085919924,0.6350961,0.22654122,-0.7589914,-1.2012656,1.0,0.0,0.0,0.0,0.0,0.0,0.0,-1.0987705,0.10039291,-0.5959073,-15.172613,-0.2513647,-1.394701,-0.7570982,-1.802063,-0.9488344,-0.26524663
-41.542786,18.44046,-1.5603704,29.170403,2.8619409,1.0761127,-0.6527364,0.011642447,-0.8206261,-0.68524605,-0.79777884,-0.5293842,0.42294395,0.30890372,1.0681516,-0.73436606,-1.817564,-1.3277301,2.2622418,1.6286006,-0.8701056,1.070495,-0.6669128,-1.7611492,-1.2621219,2.3074708,1.5899531,-0.89867187,0.29308224,-1.4628196,-1.2153202,-1.4169232,-0.7746533,0.3613468,0.23139724,0.42086792,-0.50289536,1.11055,-2.7895334,-0.24991979,-3.5594027,0.15201378,-0.47460175,0.86921215,0.7616649,-0.07557641,0.085080124,0.63789976,0.12175825,-0.7726483,-1.2258029,1.0,0.0,0.0,0.0,0.0,0.0,0.0,-1.0708679,0.10289535,-0.56055003,-23.12401,-0.7284403,-1.7451763,0.06918907,-1.3570428,-1.3905048,-0.40993392
-61.459526,12.031143,-7.239649,36.515213,4.0817547,1.6989574,-0.94158375,-0.21834111,-0.82171917,-0.67565304,-0.7997726,-0.5054066,0.38813308,0.290445,1.0486609,-0.7490847,-1.8287145,-1.3420992,2.25693,1.6287664,-0.86962736,1.0709509,-0.68158317,-1.773341,-1.276305,2.2997727,1.593455,-0.8963945,-0.034467325,-1.4694079,-1.221059,-1.4166132,-0.7704342,0.34599668,0.22622074,0.39299393,-0.50539017,1.0742463,-2.7867446,-0.24966992,-3.6540298,0.15204811,-0.48260498,0.8568415,0.7612545,-0.06558334,0.0842334,0.63960534,-0.03462845,-0.7997753,-1.2466086,1.0,0.0,0.0,0.0,0.0,0.0,0.0,-1.0429939,0.10539016,-0.5242463,-31.979525,-0.9557724,-0.79085827,0.654006,-0.27724504,-1.7133415,-0.6097764
-65.3179,13.214296,-7.4868083,37.595222,4.316626,1.9214358,-0.9728695,-0.34569567,-0.8216257,-0.6838436,-0.79824877,-0.4957738,0.38141602,0.2664267,1.0363812,-0.7637457,-1.8417253,-1.3561299,2.2501953,1.6315966,-0.8697518,1.0681051,-0.69631076,-1.7855899,-1.2904575,2.2921662,1.59681,-0.894181,-0.36540794,-1.4749557,-1.2267827,-1.4126205,-0.76024073,0.33092687,0.21955359,0.36514664,-0.507885,1.036997,-2.7839582,-0.2494203,-3.7485623,0.15044212,-0.49088287,0.8442772,0.7617481,-0.05534669,0.08329669,0.64010787,-0.20217419,-0.82636505,-1.2653013,1.0,0.0,0.0,0.0,0.0,0.0,0.0,-1.0151466,0.10788497,-0.48699695,-32.30886,-0.8898258,-0.7910967,1.0885239,0.28538704,-1.754576,-0.723663
-62.15873,15.197175,-6.642898,35.347904,4.1406064,1.8281009,-0.902701,-0.45608735,-0.82911026,-0.7202529,-0.79877245,-0.48509666,0.34430975,0.25059003,1.0224963,-0.7792218,-1.8576152,-1.3703347,2.2436566,1.631241,-0.869122,1.0622305,-0.71111274,-1.7980449,-1.304568,2.2846894,1.5999953,-0.8920381,-0.6591191,-1.483196,-1.2521881,-1.4081336,-0.7459029,0.31328872,0.21254022,0.33732796,-0.5103798,0.99879503,-2.7811747,-0.24917093,-3.8440657,0.14723587,-0.49941254,0.8314872,0.7630995,-0.04482822,0.082204655,0.6394623,-0.3617471,-0.85157025,-1.2890004,1.0,0.0,0.0,0.0,0.0,0.0,0.0,-0.98732793,0.110379785,-0.44879502,-28.645098,-1.1737347,-2.7400017,1.1735201,0.7181525,-2.1016657,-0.7137239
-62.310543,17.013731,-6.273898,34.83514,4.2530737,1.906933,-0.94792163,-0.60954463,-0.83064616,-0.74603766,-0.7865027,-0.4181838,0.32278222,0.06542552,1.001276,-0.79417735,-1.8726487,-1.3832183,2.242871,1.6322734,-0.88549554,1.0535635,-0.725991,-1.8108566,-1.3185813,2.2775369,1.6029993,-0.8900945,-0.93349004,-1.4906365,-1.2914009,-1.3966272,-0.7073701,0.29478383,0.18845466,0.3095379,-0.512867,0.9596388,-2.778394,-0.24892181,-3.9394736,0.14241791,-0.50819397,0.81845653,0.7653192,-0.034012012,0.080822214,0.6376499,-0.52451694,-0.8758691,-1.3131031,1.0,0.0,0.0,0.0,0.0,0.0,0.0,-0.95953786,0.11286697,-0.40963876,-26.74204,-1.1175871,-4.0911674,1.9175053,3.1363964,-2.2670448,-2.3787558
-60.36254,21.643646,-4.113079,34.213093,4.2772985,2.0960798,-0.96837634,-0.7396839,-0.82803524,-0.7607206,-0.7692876,-0.32971406,0.3977506,-0.1446016,0.97959507,-0.80879456,-1.8869287,-1.3955101,2.2445655,1.6427743,-0.90455467,1.0423368,-0.7409122,-1.8240726,-1.3324115,2.27101,1.6058909,-0.8885381,-1.1837074,-1.4939123,-1.332268,-1.3757881,-0.6367625,0.285687,0.1450116,0.28177452,-0.51535416,0.91952914,-2.7756162,-0.24867293,-4.034786,0.13597679,-0.51717377,0.80521715,0.76841694,-0.022976859,0.07896866,0.6346426,-0.6883161,-0.8925893,-1.3327514,1.0,0.0,0.0,0.0,0.0,0.0,0.0,-0.9317745,0.11535415,-0.36952913,-24.378967,-0.7078171,-4.22616,2.8550386,6.375873,-1.3744354,-4.262385
-46.98805,31.541985,2.763352,30.386448,3.8257244,2.0670145,-0.7915016,-0.7804557,-0.8255145,-0.7579804,-0.74539185,-0.16672376,0.4295149,-0.30183378,0.9642913,-0.8234637,-1.8998706,-1.4069507,2.2543375,1.6488423,-0.9187215,1.0291399,-0.7558315,-1.83759,-1.3459518,2.2656198,1.6087366,-0.8875072,-1.3633415,-1.4923009,-1.358482,-1.3447622,-0.508438,0.2827512,0.08958049,0.25403976,-0.51784134,0.8784671,-2.7728412,-0.24842432,-4.130003,0.12808037,-0.5262108,0.79185635,0.77225626,-0.011878318,0.07635515,0.63059425,-0.82879835,-0.8940203,-1.3423125,1.0,0.0,0.0,0.0,0.0,0.0,0.0,-0.90403974,0.11784133,-0.32846707,-17.487598,-0.15456676,-2.7158737,3.7394524,12.308586,-0.7148862,-5.3808064
-31.235966,41.65599,10.282669,25.780598,3.4709733,1.9334897,-0.5732693,-0.8011141,-0.81530404,-0.7573572,-0.7322362,0.14048873,0.4537815,-0.43829045,0.9490285,-0.8373619,-1.9133257,-1.4191754,2.2796686,1.6541147,-0.9313362,1.0147127,-0.7706716,-1.8512561,-1.3591793,2.2623086,1.6115862,-0.8870876,-1.468105,-1.481945,-1.3696105,-1.3137704,-0.2728501,0.28445742,0.026982889,0.22633171,-0.5203209,0.8364536,-2.7700691,-0.24817595,-4.2251244,0.11898041,-0.53518677,0.7784753,0.77663493,-0.0008682108,0.07250948,0.62576336,-0.94322205,-0.8844452,-1.3417422,1.0,0.0,0.0,0.0,0.0,0.0,0.0,-0.8763317,0.12032089,-0.2864536,-10.18126,0.80604553,-1.1532068,3.5511732,23.22737,-0.18731952,-6.003475
-15.150592,48.742596,16.343868,19.858173,2.6397574,1.6530712,-0.33406705,-0.7983347,-0.812168,-0.7633083,-0.7286535,0.28555268,0.43407658,-0.4946755,0.93487924,-0.8518884,-1.9275869,-1.4320446,2.2908638,1.6549939,-0.93655515,0.999761,-0.78538966,-1.8649814,-1.3721645,2.261561,1.6144472,-0.8872793,-1.5037142,-1.4687924,-1.3736016,-1.2923806,-0.009275205,0.28578496,-0.033581067,0.19865227,-0.52280045,0.7934896,-2.7672994,-0.24792781,-4.320151,0.10901642,-0.5439949,0.7651044,0.78132516,0.009980545,0.067198165,0.6204158,-1.0210552,-0.86270124,-1.3404179,0.0,1.0,0.0,0.0,0.0,0.0,0.0,-0.84865224,0.12280044,-0.24348956,-3.4201145,1.176095,-0.4082203,2.421236,26.210928,-0.1300931,-5.777676
-6.825645,52.140343,18.985435,16.427576,1.7978727,1.4940697,-0.2293558,-0.8092378,-0.80454296,-0.7847879,-0.70981014,0.28740093,0.43634224,-0.50424886,0.9188372,-0.86584395,-1.9434602,-1.4431455,2.290301,1.6580814,-0.93770415,0.98470473,-0.7999046,-1.8792607,-1.3851022,2.262148,1.6176382,-0.88762593,-1.5075444,-1.4393877,-1.5037274,-1.3152672,-0.038201075,0.3466377,-0.0007607261,0.17599678,-0.5259094,0.7684309,-1.6196737,-0.30751666,0.53174734,0.09853935,-0.5524521,0.7515558,0.786058,0.020726174,0.0611308,0.6147732,-1.0499953,-0.8181154,-1.3867489,0.0,1.0,0.0,0.0,0.0,0.0,0.0,-0.82599676,0.12590942,-0.21843088,-0.6885767,4.2268515,-24.81277,-6.517482,-26.535347,11.757935,12.133286
64.03038,176.0,110.0,109.7634,-3.5574927,11.90469,-0.5801135,-0.7707276,0.5454625,0.67369175,0.726844,-0.32339376,0.68523484,-0.38549206,0.907632,-0.74535835,-1.8118914,-1.3124177,2.2298086,1.6861618,-0.9261751,0.9752739,-0.81535506,-1.8913867,-1.3835876,2.2483752,1.6310402,-0.8859747,-0.7600533,-1.5800071,-1.102135,0.6380695,-1.8025601,1.6835651,0.2155582,0.16005135,-0.52882767,0.775232,-1.6180543,-0.3072092,0.43196434,0.08821106,-0.55827713,0.7420839,0.7904083,0.020888295,0.06205207,0.6090713,-1.0333018,-0.4877142,-0.800244,0.0,1.0,0.0,0.0,0.0,0.0,0.0,-0.8100513,0.12882766,-0.225232,73.21949,-13.775897,42.073463,193.93738,-174.70207,137.08768,20.412504
-17.312172,160.1028,74.91586,91.88098,3.4577358,5.943,-1.3066392,-0.80021375,-0.5916959,-0.05141462,0.7729887,-0.63579965,0.58454376,-0.28192815,0.8952525,-0.87452465,-1.8965282,-1.3062887,2.1847951,1.6894946,-0.9141675,0.96788865,-0.83014274,-1.898854,-1.370177,2.2282526,1.6480614,-0.8839815,-0.7302687,-1.4467432,-0.62534964,1.57638,-2.0863523,1.7139778,0.19432116,0.14388275,-0.5318947,0.778804,-1.6164365,-0.30690205,0.3322813,0.07720184,-0.5623741,0.73732466,0.79535574,0.013688976,0.06665143,0.60231173,-1.1231111,-0.37261608,-0.37366852,1.0,0.0,0.0,0.0,0.0,0.0,0.0,-0.7938827,0.13189468,-0.22880399,3.2735229,12.830949,48.586773,94.07401,-29.707241,4.7167063,-1.9803017
-40.805187,139.61925,50.296032,67.94008,3.7744002,3.967625,-1.2917806,-0.7871579,-0.41772288,-0.3288961,0.72988707,-0.6432287,0.61441916,-0.06549286,0.88917285,-0.87191504,-1.9317436,-1.2971883,2.1639297,1.7095033,-0.8905308,0.95940286,-0.8425386,-1.903466,-1.3513706,2.2083018,1.6643025,-0.8822525,-0.8858742,-1.1721653,-0.40646225,1.9833132,-1.968681,1.5975813,0.1658737,0.12773132,-0.5349617,0.7813799,-1.6148204,-0.3065952,0.2326979,0.06514549,-0.5655365,0.7356494,0.8012141,0.0039867596,0.07247731,0.59395874,-1.2315034,-0.28960258,-0.10746037,1.0,0.0,0.0,0.0,0.0,0.0,0.0,-0.7777313,0.1349617,-0.23137987,-14.930498,26.944447,21.88791,41.079998,10.665154,-10.63323,-2.8099923
-45.98457,117.112206,33.047047,44.943733,2.9567523,2.4680862,-0.9805789,-0.78886557,-0.3151726,-0.3573332,0.79111797,-0.64713854,0.5540011,0.00082025357,0.8805163,-0.87405586,-1.9391993,-1.2722588,2.1435878,1.7197026,-0.8821705,0.9488066,-0.851876,-1.9072635,-1.3313415,2.1908686,1.6789318,-0.8808029,-1.1162318,-0.8557172,-0.3717556,2.0100868,-1.6703141,1.4200116,0.13733645,0.111595154,-0.5380249,0.78296065,-1.6132059,-0.3062887,0.13321409,0.0521698,-0.5679779,0.73566616,0.80780727,-0.0057895426,0.0787092,0.5841392,-1.318735,-0.2205654,0.029336775,1.0,0.0,0.0,0.0,0.0,0.0,0.0,-0.76159513,0.1380249,-0.23296064,-22.614431,31.228851,3.135103,2.859521,29.177116,-17.1921,-3.0317485
-38.08836,86.02079,18.39564,25.418999,1.7669004,1.1078763,-0.6054138,-0.7945209,-0.2830445,-0.42296618,0.79328674,-0.6498653,0.59617674,-0.03460064,0.8693545,-0.8801805,-1.9495602,-1.2520128,2.1258821,1.7385495,-0.884263,0.9361542,-0.85852027,-1.9117649,-1.3124588,2.1763918,1.6918827,-0.87964135,-1.3144729,-0.60160404,-0.47725192,1.8476571,-1.3748751,1.2543262,0.10821224,0.09547424,-0.5410843,0.7835444,-1.611593,-0.30598247,0.033436004,0.038599014,-0.5699043,0.7362286,0.8148619,-0.014272137,0.08499049,0.5732129,-1.3698293,-0.17402457,0.05806442,1.0,0.0,0.0,0.0,0.0,0.0,0.0,-0.7454742,0.14108428,-0.23354441,-19.689728,25.126148,-10.811127,-16.230583,29.1806,-16.331123,-3.1790285
-23.627666,67.34554,13.265904,14.151396,0.81769156,0.26473504,-0.28951877,-0.7966729,-0.23741652,-0.4459586,0.7985943,-0.61708575,0.5909188,-0.099982664,0.8564869,-0.88226193,-1.9563607,-1.2325994,2.1146832,1.7509747,-0.8896396,0.92205507,-0.8632076,-1.9176338,-1.2955005,2.1644366,1.7033345,-0.8787897,-1.4418292,-0.42522812,-0.62354356,1.6448085,-1.1366134,1.1089584,0.076634675,0.0793705,-0.5441437,0.7831311,-1.6099818,-0.30567655,-0.06624232,0.024780273,-0.5715027,0.7366915,0.8221208,-0.020998277,0.091192394,0.56156963,-1.3857106,-0.14302003,0.037407745,1.0,0.0,0.0,0.0,0.0,0.0,0.0,-0.7293705,0.14414367,-0.23313111,-12.765217,17.432749,-14.684725,-20.367409,23.48423,-14.476609,-3.415635
-13.132842,43.830666,7.5687304,7.796344,0.61647356,-0.35980695,-0.076390766,-0.79517955,-0.2835742,-0.4616169,0.79901564,-0.59455985,0.5960288,-0.1389868,0.8425371,-0.891565,-1.9637954,-1.215599,2.1049807,1.7629373,-0.8926884,0.9072283,-0.86704993,-1.9248493,-1.2802665,2.1543162,1.7135082,-0.8782471,-1.4964203,-0.37106007,-0.7539761,1.4826832,-0.9714763,0.9867606,0.046294805,0.06328392,-0.54719543,0.78172183,-1.6083721,-0.30537093,-0.16582099,0.010889053,-0.572979,0.73667043,0.82940364,-0.026022235,0.097100206,0.54953074,-1.3900335,-0.13782251,-0.018534612,1.0,0.0,0.0,0.0,0.0,0.0,0.0,-0.7132839,0.14719543,-0.23172182,-5.5021524,5.3032756,-12.999558,-16.262054,16.237045,-12.249351,-3.1853535
-4.9483676,32.695786,6.994734,5.9676933,0.584928,-0.531132,0.05967086,-0.792901,-0.31309405,-0.44748968,0.79334205,-0.5877887,0.6089837,-0.16244616,0.8279382,-0.89835936,-1.9695983,-1.2009323,2.0955374,1.7744067,-0.8944917,0.892247,-0.871001,-1.9329402,-1.2661731,2.1453364,1.7226273,-0.8779896,-1.4988543,-0.40340316,-0.82697445,1.3848971,-0.87398094,0.8867587,0.018766213,0.0472126,-0.5502472,0.77931744,-1.6067641,-0.3050656,-0.26530012,-0.003004074,-0.5744858,0.736041,0.8365838,-0.02969271,0.10254939,0.53733546,-1.389045,-0.1430708,-0.07985293,1.0,0.0,0.0,0.0,0.0,0.0,0.0,-0.6972126,0.15024719,-0.22931743,-0.27692318,-3.3040106,-7.1832776,-9.776306,9.49986,-10.044014,-2.8236701
-2.2719245,19.322172,4.4661794,5.539137,0.92364836,-0.6295345,0.11185889,-0.7824049,-0.4022087,-0.43558776,0.7961278,-0.5677217,0.613132,-0.17589517,0.8140065,-0.91122186,-1.9764991,-1.1865604,2.0885642,1.7839404,-0.8955791,0.8774832,-0.8759134,-1.9413517,-1.2525871,2.1370127,1.7308823,-0.8779791,-1.4688495,-0.5206334,-0.84537977,1.3502048,-0.81909716,0.80498266,-0.0047483784,0.03115654,-0.55329514,0.775919,-1.6051576,-0.3047606,-0.36467978,-0.016954422,-0.57614136,0.7347362,0.8436055,-0.03239313,0.10732614,0.52513,-1.3972203,-0.16177295,-0.1490497,1.0,0.0,0.0,0.0,0.0,0.0,0.0,-0.6811565,0.15329513,-0.22591901,3.007865,-11.754274,-1.721847,-3.3672094,5.314696,-8.233679,-2.31844
1.1338983,22.383411,7.6011267,6.7577324,0.93250996,-0.42682213,0.14429218,-0.76925004,-0.43556783,-0.39914343,0.79433334,-0.56373423,0.6223873,-0.20328845,0.8005582,-0.9194702,-1.981266,-1.1731538,2.0806394,1.793121,-0.8983079,0.86312085,-0.88212657,-1.9495437,-1.2390544,2.1290095,1.7384373,-0.8781927,-1.4253752,-0.65502554,-0.8096838,1.3545719,-0.7948725,0.73901224,-0.026734348,0.015115738,-0.55633926,0.7715275,-1.6035528,-0.3044559,-0.4639601,-0.030971527,-0.5779419,0.73284847,0.85042816,-0.034503583,0.11138641,0.5130052,-1.4031901,-0.17319325,-0.20373479,1.0,0.0,0.0,0.0,0.0,0.0,0.0,-0.6651157,0.15633926,-0.22152752,4.338622,-13.482451,3.7570834,0.56402683,2.2198558,-6.645167,-2.136843
3.2933178,26.919523,10.204818,7.3515816,0.85427505,-0.2579099,0.17921397,-0.75247115,-0.48417053,-0.36813858,0.7868221,-0.555766,0.6112525,-0.18392166,0.78787374,-0.9305436,-1.9863576,-1.1603723,2.073433,1.7995626,-0.89658487,0.8492144,-0.88965964,-1.9571445,-1.2253807,2.1211283,1.7454163,-0.87858564,-1.3792133,-0.786301,-0.74288565,1.3720243,-0.78624856,0.6841241,-0.043280892,-0.00090789795,-0.5593834,0.766144,-1.6019496,-0.3041515,-0.5631411,-0.045015335,-0.5797806,0.7304959,0.8570143,-0.036286093,0.11477828,0.50103456,-1.4051414,-0.17663316,-0.24785873,0.0,1.0,0.0,0.0,0.0,0.0,0.0,-0.6490921,0.15938339,-0.21614397,4.588318,-13.186562,6.919372,1.8743038,0.6208539,-5.5292726,-1.5868403
3.4130898,33.872475,12.070023,8.358025,0.67766947,-0.13584292,0.14759052,-0.73323953,-0.50763243,-0.37815198,0.7880565,-0.5644688,0.6139837,-0.19987288,0.7758904,-0.9404229,-1.9949597,-1.146575,2.0646815,1.8068147,-0.8985729,0.83575326,-0.89827514,-1.9641807,-1.2115142,2.1132433,1.7519222,-0.879134,-1.3351812,-0.8869474,-0.68985534,1.3920065,-0.7903411,0.63943297,-0.058646996,-0.016914368,-0.5624199,0.7597694,-1.600348,-0.3038474,-0.662223,-0.059038162,-0.5816002,0.7277698,0.86336875,-0.037827257,0.11767775,0.48919883,-1.4019431,-0.1720912,-0.28339282,0.0,1.0,0.0,0.0,0.0,0.0,0.0,-0.6330856,0.16241989,-0.20976937,4.365468,-10.147786,5.5607677,2.1157742,-0.6746292,-4.498732,-1.5028656
12.374952,41.22963,16.805103,6.0643067,0.23418495,-0.073599696,0.2825839,-0.68119955,-0.5642256,-0.28629577,0.7750472,-0.5617067,0.64028895,-0.21606006,0.7676333,-0.9546977,-1.9928102,-1.1340095,2.0570726,1.8159511,-0.90074,0.82285386,-0.9078157,-1.9704082,-1.1975486,2.1052973,1.7580639,-0.87983114,-1.2752922,-0.97683024,-0.5991236,1.3981394,-0.797608,0.605715,-0.073360905,-0.03290558,-0.5654564,0.7524047,-1.598748,-0.30354363,-0.76120573,-0.072877884,-0.5833092,0.724765,0.8694153,-0.039283536,0.12013943,0.47764033,-1.3777355,-0.15867114,-0.30909607,0.0,1.0,0.0,0.0,0.0,0.0,0.0,-0.6170944,0.16545638,-0.20240468,5.879712,-9.078062,9.430588,0.6527424,-1.0766029,-3.374815,-1.4597759
8.936256,35.53238,12.674941,5.111084,0.18285847,-0.22933143,0.23655677,-0.6633083,-0.6147287,-0.34174374,0.76943046,-0.5747,0.6449962,-0.18164511,0.756523,-0.9692886,-2.0045826,-1.1206056,2.0478272,1.8225635,-0.89799565,0.81052095,-0.9182079,-1.9761417,-1.1835983,2.0972407,1.7639214,-0.8806341,-1.218654,-1.0601293,-0.5686688,1.3930101,-0.82091826,0.56990725,-0.09088781,-0.04888153,-0.5684891,0.7440594,-1.6675572,-0.18823099,-0.6417433,-0.0865078,-0.58493423,0.7213837,0.87517226,-0.040543675,0.12224699,0.46635336,-1.3559777,-0.15488842,-0.3527684,0.0,1.0,0.0,0.0,0.0,0.0,0.0,-0.60111845,0.16848907,-0.19405937,5.670023,-8.393884,2.818203,-0.5746126,-3.7744164,-4.502642,-2.5803952
-1.4184539,38.568302,9.819549,8.674913,0.32986283,-0.15176445,0.08349379,-0.67481846,-0.5967586,-0.42035276,0.7791286,-0.60680956,0.63427407,-0.10354872,0.74303913,-0.97788376,-2.018177,-1.1056855,2.0365598,1.8273488,-0.890989,0.7985693,-0.9291046,-1.9822388,-1.1696988,2.08872,1.7693565,-0.88164186,-1.1877522,-1.0999075,-0.6205733,1.3901833,-0.8584456,0.5382712,-0.10093124,-0.066244125,-0.56879044,0.7403758,-1.7318212,-0.02537858,-0.3706551,-0.09999275,-0.5865288,0.71753144,0.8807732,-0.04118826,0.12442364,0.45503923,-1.3471166,-0.1497047,-0.39858586,0.0,1.0,0.0,0.0,0.0,0.0,0.0,-0.58375585,0.16879043,-0.1903758,2.9638052,-4.113698,-4.289973,0.06709099,-2.490604,-2.1704674,-0.03848523
-14.397226,56.618225,12.539125,16.7315,0.7087822,0.36228734,-0.13621521,-0.71957266,-0.51796484,-0.4531894,0.7968196,-0.61900353,0.63461906,-0.12087587,0.72661203,-0.9809011,-2.0275576,-1.0900168,2.0268197,1.8328184,-0.89372945,0.78656065,-0.93981236,-1.9890732,-1.1557202,2.07995,1.7746077,-0.88265765,-1.2051207,-1.0616013,-0.7038045,1.4009641,-0.8839013,0.52055967,-0.10216338,-0.0834713,-0.56887436,0.7365927,-1.7202545,-0.0032029075,-0.38389346,-0.113529205,-0.587883,0.71348006,0.88629323,-0.041297738,0.12698808,0.44345558,-1.3555769,-0.12100384,-0.41083097,0.0,1.0,0.0,0.0,0.0,0.0,0.0,-0.5665287,0.16887435,-0.1865927,-1.691699,3.650856,-8.176481,1.2406826,-2.7900815,-1.780355,-0.23633242
-24.133734,62.702385,12.196407,21.063467,1.162137,0.61910236,-0.23112796,-0.74817586,-0.5031103,-0.5110279,0.7943257,-0.60055184,0.618083,-0.053956967,0.71174306,-0.9901234,-2.040176,-1.0762876,2.0198948,1.836416,-0.88805336,0.77414584,-0.94993657,-1.996917,-1.1416308,2.0710762,1.7797105,-0.88361645,-1.253268,-0.99676573,-0.8107441,1.4122297,-0.88950515,0.50671405,-0.0943128,-0.1006031,-0.5687103,0.7327428,-1.7114322,0.022558961,-0.3886584,-0.12728119,-0.5888939,0.7093727,0.89179385,-0.04082473,0.13010733,0.43140358,-1.3808503,-0.08354423,-0.41415524,0.0,1.0,0.0,0.0,0.0,0.0,0.0,-0.5493969,0.16871032,-0.18274277,-4.729843,6.2628984,-10.554457,1.3229609,-0.82883835,-1.4407277,0.64718276
-15.608176,76.87298,19.010498,21.031185,0.87476623,0.77364635,-0.12835625,-0.72041106,-0.45254433,-0.49652785,0.8051915,-0.6079944,0.6401344,-0.04898456,0.70210475,-0.995191,-2.0465698,-1.0611116,2.0102768,1.843724,-0.8885149,0.7613914,-0.9592272,-2.0055664,-1.1274077,2.0621727,1.7847166,-0.88449395,-1.282947,-0.90724397,-0.8817506,1.426083,-0.8919273,0.4983722,-0.08630245,-0.117565155,-0.5682297,0.72905666,-1.6916529,0.055798743,-0.36495414,-0.141119,-0.5894356,0.7054122,0.89719886,-0.039925013,0.13383967,0.4189595,-1.3845385,-0.034261603,-0.39295813,0.0,1.0,0.0,0.0,0.0,0.0,0.0,-0.5324348,0.16822967,-0.17905664,-2.981615,8.699751,-6.774807,1.4530659,-0.66714287,-0.90272427,0.5966723
-14.698068,78.42672,19.91471,20.806124,0.97941375,0.824507,-0.084204145,-0.7464562,-0.42958274,-0.5177807,0.7992489,-0.57993066,0.62067366,-0.023789681,0.68674576,-1.0021855,-2.0573444,-1.0474827,2.0041795,1.846784,-0.8868729,0.7483232,-0.9676672,-2.0147564,-1.1131027,2.053353,1.7896419,-0.8852783,-1.3149632,-0.823866,-0.93013674,1.4320145,-0.88040376,0.4900835,-0.07651284,-0.13431549,-0.5674095,0.7256415,-1.6699567,0.09009429,-0.3363243,-0.15499687,-0.58948135,0.7016884,0.9024513,-0.038714398,0.1380932,0.40621793,-1.3873088,0.016728545,-0.36825773,0.0,1.0,0.0,0.0,0.0,0.0,0.0,-0.5156845,0.16740951,-0.17564148,-3.245592,8.0795765,-4.4431806,0.6315708,0.6719947,-0.93898773,0.776048
-5.469941,82.49672,23.694933,18.695375,0.83621204,0.81395614,0.038402468,-0.7317541,-0.40275913,-0.4796568,0.80353224,-0.5567001,0.629014,-0.015789334,0.6751478,-1.0079432,-2.0627222,-1.0327494,1.997683,1.8525432,-0.8868572,0.7350892,-0.9753672,-2.0240378,-1.0987581,2.0447242,1.7945044,-0.8859652,-1.3266389,-0.75281084,-0.9255464,1.4350377,-0.85885817,0.48451245,-0.06681999,-0.15079498,-0.5662346,0.72259504,-1.6409407,0.12618081,-0.2961252,-0.1687851,-0.58901596,0.6982756,0.90747476,-0.037385862,0.14269072,0.3933587,-1.3743323,0.06858311,-0.33439872,0.0,1.0,0.0,0.0,0.0,0.0,0.0,-0.499205,0.16623458,-0.17259502,-1.2899876,6.8566084,0.9845972,0.2560377,1.5850186,-0.67974925,0.76744854
-6.376258,77.22426,21.594498,17.752693,0.9284842,0.73164785,0.05660469,-0.7541274,-0.3874095,-0.5029202,0.7980168,-0.55203533,0.6091488,0.013334933,0.65967643,-1.0141082,-2.0743299,-1.0189564,1.9895207,1.8554193,-0.88463175,0.7217158,-0.9825064,-2.0332391,-1.0844301,2.0363123,1.7993038,-0.8865423,-1.3412507,-0.70177394,-0.9164684,1.4320219,-0.8372838,0.47791493,-0.05524693,-0.16699791,-0.56472397,0.719872,-1.6136096,0.15917532,-0.2658867,-0.18247414,-0.58805466,0.6951283,0.9122487,-0.035977904,0.14749995,0.38046244,-1.3652611,0.1154538,-0.3099962,0.0,1.0,0.0,0.0,0.0,0.0,0.0,-0.48300207,0.16472396,-0.16987199,-1.5742064,4.872906,1.4161348,-0.3248453,1.6158819,-0.7965505,0.9821236
-7.6303577,78.04191,21.017048,18.26231,0.9438071,0.70259726,0.05895426,-0.7664661,-0.3390667,-0.5297999,0.80146015,-0.55628574,0.59229803,0.087313585,0.6450692,-1.0164131,-2.086219,-1.0042841,1.9806838,1.8585336,-0.87781096,0.7081822,-0.98910296,-2.0424516,-1.0701269,2.028065,1.8040315,-0.88695896,-1.3577772,-0.64646524,-0.92089325,1.4297607,-0.82242966,0.4705427,-0.037733313,-0.18292046,-0.5628891,0.71744204,-1.585334,0.1914678,-0.23661211,-0.19607353,-0.5866318,0.69221956,0.916769,-0.034431208,0.15254234,0.36753196,-1.3561856,0.16166987,-0.2860314,0.0,1.0,0.0,0.0,0.0,0.0,0.0,-0.46707952,0.1628891,-0.16744202,-1.7665386,5.297327,0.07328987,-0.24998188,0.94299316,-0.8822918,1.563897
-8.519542,66.89704,16.74672,15.997135,0.9142369,0.5016031,0.07697901,-0.76842004,-0.35882106,-0.5516447,0.7942712,-0.5594412,0.5982649,0.10495078,0.6313402,-1.0249851,-2.0976162,-0.99069977,1.9721209,1.863858,-0.8764639,0.6945113,-0.9953848,-2.051832,-1.0558733,2.019916,1.8086933,-0.8871967,-1.370434,-0.62281424,-0.941939,1.4241254,-0.81402683,0.4642468,-0.01968977,-0.19859695,-0.5607796,0.71513516,-1.5617543,0.21762067,-0.22934322,-0.20962906,-0.5848274,0.68938726,0.9210433,-0.03262893,0.15775561,0.35458118,-1.3527267,0.19788045,-0.2835311,0.0,1.0,0.0,0.0,0.0,0.0,0.0,-0.45140302,0.16077957,-0.16513515,-1.3504505,2.1653056,-1.6641498,-0.54473877,0.38576126,-0.7759392,1.6478993
-9.050909,64.01047,15.1317215,15.41012,0.8442841,0.42264172,0.08693483,-0.7728932,-0.33814287,-0.5806934,0.7946254,-0.5739691,0.6082356,0.14871028,0.61722195,-1.0291991,-2.1099012,-0.97641075,1.9625192,1.8695168,-0.8723257,0.68073547,-1.0014755,-2.061552,-1.0416654,2.0117755,1.8133055,-0.8872386,-1.3802346,-0.60517013,-0.9807326,1.419705,-0.81559914,0.45982167,0.00045367118,-0.21404266,-0.5584259,0.7128399,-1.5387887,0.2413944,-0.22985758,-0.22315025,-0.58267975,0.6865228,0.9250703,-0.030469816,0.16314422,0.3416145,-1.3494991,0.23077664,-0.2886218,0.0,1.0,0.0,0.0,0.0,0.0,0.0,-0.4359573,0.1584259,-0.16283989,-1.0576248,1.5720129,-3.4580112,-0.41427612,-0.5857229,-0.59098005,1.8519442
-11.598331,53.437263,10.813454,13.853498,0.85372245,0.24399036,0.09111714,-0.7801215,-0.36422154,-0.62612224,0.7928291,-0.57885826,0.5781505,0.20025611,0.6027233,-1.0378976,-2.1241643,-0.96238256,1.9538896,1.8711206,-0.867213,0.6668645,-1.0075942,-2.0718288,-1.0274956,2.0035858,1.8178546,-0.8870583,-1.3894209,-0.6146195,-1.0423295,1.4165674,-0.82129407,0.4527734,0.023434585,-0.22930527,-0.5558739,0.71038,-1.52187,0.2596195,-0.25136307,-0.2367096,-0.5802727,0.68345577,0.92886406,-0.02780373,0.16865402,0.32862467,-1.355077,0.25530753,-0.31374338,0.0,1.0,0.0,0.0,0.0,0.0,0.0,-0.4206947,0.15587386,-0.16038,-0.95579624,-1.1137486,-5.824733,-0.22983551,-0.91085434,-0.8595884,2.163001
-8.309925,52.625214,11.247653,12.5392,0.78009176,0.22395796,0.14389633,-0.77262384,-0.3705611,-0.6195605,0.79053897,-0.5780983,0.59528196,0.24096735,0.5896021,-1.0446503,-2.1337848,-0.94844174,1.945776,1.8773829,-0.8629616,0.65296376,-1.0138866,-2.0826006,-1.0133564,1.99534,1.8223522,-0.88663775,-1.3904449,-0.634645,-1.0875708,1.4134282,-0.82682335,0.4481162,0.047845997,-0.24438667,-0.5531578,0.7076954,-1.503185,0.2767701,-0.27428445,-0.250288,-0.5776253,0.6801258,0.932412,-0.024638152,0.17420544,0.3156787,-1.3559719,0.27854165,-0.3403023,0.0,1.0,0.0,0.0,0.0,0.0,0.0,-0.4056133,0.1531578,-0.15769541,-0.15809536,-2.1630645,-4.1557074,-0.24619102,-0.90420246,-0.6493449,2.311007
-9.786736,42.945354,7.924394,10.733958,0.80980754,0.113689244,0.16039011,-0.7805179,-0.4191865,-0.6521961,0.7839062,-0.57859474,0.57296664,0.2730687,0.57491195,-1.0558052,-2.1478202,-0.93496585,1.9374806,1.8796488,-0.8593309,0.63904196,-1.0205985,-2.0938308,-0.9992647,1.9870487,1.8267901,-0.8859711,-1.3927939,-0.683849,-1.1339525,1.4081476,-0.83082867,0.44158384,0.07267499,-0.25932503,-0.5503044,0.7046377,-1.4903338,0.28953475,-0.31543857,-0.263937,-0.5747795,0.67640346,0.9357263,-0.02093991,0.17966059,0.30281982,-1.3646269,0.29618454,-0.38378197,0.0,1.0,0.0,0.0,0.0,0.0,0.0,-0.39067495,0.1503044,-0.1546377,-0.2557993,-5.057192,-4.342985,-0.4036665,-0.6855488,-0.83978176,2.3934999
-7.370843,49.014122,10.319183,11.347069,0.86857414,0.20772654,0.17589632,-0.77618605,-0.4136064,-0.64822346,0.7890953,-0.5627021,0.57280546,0.3156694,0.56142336,-1.0619591,-2.1586533,-0.9203552,1.9307785,1.8840706,-0.8544042,0.625124,-1.027732,-2.105374,-0.9851953,1.9787774,1.8311689,-0.88504905,-1.3916948,-0.72363037,-1.159988,1.4067684,-0.82719594,0.43583465,0.09836819,-0.27409935,-0.5473099,0.7012466,-1.472697,0.3040663,-0.34617484,-0.27763557,-0.5717468,0.672332,0.93880486,-0.016790014,0.18496452,0.290089,-1.367543,0.31817275,-0.41587552,0.0,1.0,0.0,0.0,0.0,0.0,0.0,-0.37590063,0.14730987,-0.1512466,0.055146217,-4.128635,-2.2249699,-0.04785061,0.008261204,-0.7836759,2.474597
-9.294596,45.172253,8.622864,10.870509,0.9061527,0.18708861,0.17487678,-0.7855782,-0.4539746,-0.677327,0.78210515,-0.56761813,0.5426326,0.34296957,0.5465661,-1.0731294,-2.173107,-0.90698475,1.9220155,1.8854321,-0.8507521,0.6111784,-1.0353423,-2.117192,-0.9711581,1.9705356,1.8354714,-0.88387513,-1.3955607,-0.77390444,-1.1882538,1.4031079,-0.82421523,0.42753544,0.123484716,-0.28872108,-0.5441818,0.6974787,-1.4580053,0.3167017,-0.38569966,-0.2913952,-0.56848145,0.66788536,0.9416591,-0.012184974,0.19006932,0.2774946,-1.3748834,0.33940235,-0.45529777,0.0,1.0,0.0,0.0,0.0,0.0,0.0,-0.3612789,0.14418182,-0.1474787,-0.42116642,-5.1723003,-2.4811268,-0.23872852,-0.03646612,-1.0449767,2.4369626
-4.68032,52.41242,11.591133,10.933728,0.84242725,0.27548558,0.21372813,-0.77111953,-0.45654756,-0.664453,0.7833327,-0.56287664,0.5664633,0.38983628,0.53406644,-1.0809971,-2.1836374,-0.8928248,1.914248,1.8921177,-0.8448915,0.59725857,-1.043357,-2.1291506,-0.9571495,1.9623338,1.8397161,-0.8824426,-1.3909764,-0.8111247,-1.1968648,1.4002867,-0.82008797,0.42272928,0.14959975,-0.30314636,-0.54091644,0.6934035,-1.4363062,0.33062217,-0.41326421,-0.30514336,-0.564991,0.6631354,0.944275,-0.007211728,0.19498031,0.2650947,-1.370813,0.3636257,-0.4825691,0.0,1.0,0.0,0.0,0.0,0.0,0.0,-0.3468536,0.14091644,-0.14340347,0.3742218,-3.8756013,-0.41389465,-0.21829605,-0.008106232,-0.7042825,2.5128663
-4.2666264,50.870884,11.162573,10.417962,0.8425204,0.27371567,0.22491476,-0.7728633,-0.49671876,-0.66361856,0.7835938,-0.57320714,0.5518973,0.42021337,0.5199722,-1.0930289,-2.1955125,-0.87879014,1.9050131,1.8949058,-0.84042126,0.58338445,-1.0518066,-2.1411207,-0.943159,1.9541373,1.8439082,-0.8807518,-1.3865094,-0.85670704,-1.1952384,1.3989061,-0.8209103,0.4174119,0.17535582,-0.31735802,-0.5375252,0.6890211,-1.4150165,0.34312692,-0.44449002,-0.31885338,-0.56126785,0.65809447,0.946653,-0.0019244569,0.19967577,0.25293073,-1.3665142,0.38706467,-0.51229185,0.0,1.0,0.0,0.0,0.0,0.0,0.0,-0.33264196,0.13752517,-0.1390211,0.36468506,-4.70587,0.6112814,-0.06170273,-0.50388575,-0.7543981,2.491918
-3.1720395,49.48669,10.708079,9.574155,0.7656529,0.24137104,0.2489678,-0.7668787,-0.52626073,-0.6725752,0.7799257,-0.5779521,0.53597677,0.4665373,0.5066966,-1.1044326,-2.208378,-0.8651664,1.8963422,1.8975059,-0.83409804,0.5695761,-1.0607425,-2.1530755,-0.92919135,1.9459102,1.848041,-0.87879497,-1.3792188,-0.9065306,-1.1942732,1.3962998,-0.82464993,0.4112314,0.2021785,-0.33135796,-0.5340195,0.68429494,-1.3938559,0.35390222,-0.4798649,-0.33250618,-0.5573158,0.65273136,0.9487979,0.0036815351,0.2041338,0.241036,-1.3602039,0.40850663,-0.54564774,0.0,1.0,0.0,0.0,0.0,0.0,0.0,-0.31864202,0.13401946,-0.13429493,0.6472826,-5.1227927,0.5369425,-0.18079281,-0.78977346,-0.8378148,2.6038437
-3.2407932,50.348927,10.883116,9.83168,0.848016,0.27165258,0.23948637,-0.766607,-0.5526567,-0.65752566,0.7843672,-0.57251567,0.5181484,0.49454474,0.4929154,-1.1160082,-2.218828,-0.8507546,1.8886586,1.8998559,-0.8293405,0.55582976,-1.0701877,-2.1649463,-0.9152237,1.9376594,1.8521042,-0.8765759,-1.373383,-0.95765615,-1.1833282,1.3971623,-0.8265207,0.403859,0.2282674,-0.34514236,-0.53041077,0.67921764,-1.3722047,0.36419612,-0.51482713,-0.34609795,-0.55314636,0.64705074,0.9507241,0.009574894,0.20832488,0.22941785,-1.3540052,0.43112436,-0.5768479,0.0,1.0,0.0,0.0,0.0,0.0,0.0,-0.3048576,0.13041076,-0.12921762,0.49946308,-5.255258,1.5542269,0.17271042,-0.62248707,-0.9699166,2.544117
-3.5110724,50.642124,10.783646,9.858766,0.90618825,0.2972241,0.23178566,-0.76681167,-0.5809999,-0.6475474,0.78150976,-0.56558293,0.5008534,0.5136684,0.4791486,-1.1282877,-2.229701,-0.83707273,1.8811011,1.9021895,-0.825209,0.5421235,-1.0801479,-2.1766646,-0.9012542,1.9294167,1.8560859,-0.87410957,-1.3699746,-1.0094767,-1.1665845,1.3971252,-0.8248917,0.39540362,0.25262675,-0.35871315,-0.5267029,0.67377925,-1.3505999,0.3738442,-0.55094945,-0.35963058,-0.5487404,0.64106315,0.95245034,0.015719593,0.21221484,0.21807323,-1.3479865,0.4547521,-0.6076203,0.0,1.0,0.0,0.0,0.0,0.0,0.0,-0.29128683,0.12670287,-0.12377924,0.25775433,-5.3250194,2.1416187,0.09076595,-0.28401613,-1.0948062,2.385673
-0.15998888,49.21403,10.641827,8.172144,0.67426956,0.23884052,0.28214496,-0.75006175,-0.61453116,-0.64813197,0.77483237,-0.5913956,0.4869934,0.55423653,0.4671173,-1.141601,-2.2414777,-0.82377094,1.870277,1.9047853,-0.8186859,0.52851266,-1.0906497,-2.188238,-0.88731706,1.9211189,1.8599786,-0.8713965,-1.3583871,-1.0643094,-1.153106,1.3927851,-0.8327226,0.38660327,0.27735597,-0.37206078,-0.5229187,0.6679495,-1.327898,0.38115168,-0.59095836,-0.37306213,-0.54413986,0.63473165,0.95397484,0.022137571,0.21580152,0.2070545,-1.33533,0.47377005,-0.643291,0.0,1.0,0.0,0.0,0.0,0.0,0.0,-0.2779392,0.122918695,-0.117949486,1.0654688,-5.6141853,1.8125772,-0.3563404,-1.2276173,-1.1156023,2.4128497
2.760583,51.793636,11.572326,7.81744,0.60794747,0.23564422,0.29375803,-0.7360257,-0.63340664,-0.63987845,0.77673364,-0.58693624,0.48302516,0.5715459,0.4549101,-1.1539904,-2.2522256,-0.8096437,1.8624252,1.9082811,-0.8142419,0.5150716,-1.1016532,-2.199681,-0.8734162,1.9127556,1.8637894,-0.86844975,-1.3396393,-1.1129173,-1.1395416,1.3892372,-0.8390337,0.37860703,0.30025533,-0.38515854,-0.5190697,0.6617424,-1.3020254,0.3872152,-0.6277065,-0.3863182,-0.539341,0.62806904,0.95529634,0.028815148,0.21910492,0.19639616,-1.316712,0.4908173,-0.67562354,0.0,1.0,0.0,0.0,0.0,0.0,0.0,-0.26484144,0.119069666,-0.11174238,1.7596245,-4.9916744,1.8612146,-0.309062,-1.1117697,-1.0340214,2.2146344
3.2049608,52.854786,11.575874,7.676696,0.5566117,0.23014128,0.3061228,-0.7321301,-0.6558959,-0.6374416,0.7671103,-0.60036874,0.4386611,0.5987625,0.44185856,-1.1672428,-2.263425,-0.7967051,1.8527187,1.9076556,-0.8085735,0.5018116,-1.1131068,-2.2110102,-0.85958874,1.9043008,1.8674968,-0.86527985,-1.321847,-1.1566261,-1.1294433,1.3807433,-0.8492784,0.36735487,0.32233372,-0.39798737,-0.5151634,0.65516794,-1.2750235,0.3920893,-0.664435,-0.3993721,-0.53440094,0.6210853,0.9564178,0.03576738,0.2221401,0.18611638,-1.2955652,0.5066687,-0.7078005,0.0,1.0,0.0,0.0,0.0,0.0,0.0,-0.2520126,0.115163416,-0.105167925,1.6593695,-4.5019627,1.5259504,-0.8111,-1.52601,-1.36047,2.1242678
0.5070553,55.255764,11.333007,8.680128,0.70182186,0.23481876,0.28387845,-0.73878574,-0.66533184,-0.6442851,0.7475393,-0.56961036,0.31570914,0.6134077,0.42793304,-1.17964,-2.2754388,-0.7848348,1.8473397,1.8990678,-0.8039391,0.48865414,-1.1249095,-2.2223084,-0.84592813,1.8958462,1.8710073,-0.86190313,-1.3141115,-1.1887603,-1.1281415,1.3613238,-0.8457855,0.3446773,0.34250864,-0.41055107,-0.5112114,0.6482293,-1.2483438,0.39669874,-0.7002992,-0.41224098,-0.529274,0.61380225,0.95735985,0.043048736,0.22487567,0.17618075,-1.277285,0.52461815,-0.73700434,0.0,1.0,0.0,0.0,0.0,0.0,0.0,-0.2394489,0.11121139,-0.09822929,0.6583452,-3.3527374,0.6525755,-1.8993378,-0.18270016,-2.5228202,1.9349813
5.7541614,62.6712,13.907394,8.678457,0.735086,0.23466027,0.30590364,-0.71426505,-0.6598884,-0.62722117,0.72808,-0.52224815,0.2348812,0.6398328,0.41722763,-1.1908984,-2.2850306,-0.77312016,1.8436215,1.8944955,-0.79791987,0.4756388,-1.1368896,-2.2335384,-0.8325384,1.8875868,1.8742418,-0.85832894,-1.2978687,-1.2017453,-1.1195215,1.3313531,-0.8211495,0.31555125,0.3619629,-0.42279434,-0.50722504,0.6410228,-1.2145196,0.39957803,-0.7243941,-0.42485237,-0.5239868,0.6063218,0.9581397,0.05059818,0.22725792,0.16661881,-1.2495275,0.53993964,-0.7537515,0.0,1.0,0.0,0.0,0.0,0.0,0.0,-0.22720563,0.10722503,-0.09102279,1.4579535,-1.4376402,1.4888525,-3.0444145,1.8263817,-3.1724572,1.8299341
10.720812,67.42284,16.09745,8.237676,0.8901503,0.23413002,0.31629702,-0.70245427,-0.6668495,-0.57984036,0.6959432,-0.44959688,0.12161152,0.6440156,0.40539336,-1.2035745,-2.2915225,-0.7629441,1.8426272,1.886403,-0.7939274,0.46281275,-1.1489402,-2.2444668,-0.81955963,1.8797921,1.8771216,-0.85457927,-1.2781881,-1.2067748,-1.081829,1.2864058,-0.76789397,0.27793488,0.3789925,-0.43466377,-0.5032234,0.6336385,-1.1758016,0.4004855,-0.7397786,-0.43714905,-0.51856613,0.59875387,0.95879936,0.05824671,0.22914755,0.15748757,-1.2161206,0.5527634,-0.7597585,0.0,1.0,0.0,0.0,0.0,0.0,0.0,-0.2153362,0.10322341,-0.08363849,1.763773,-0.63226223,4.4807196,-4.611349,4.599488,-4.022688,1.5894413
17.426113,66.563545,17.70896,5.909976,1.329818,0.094079256,0.30411434,-0.68802136,-0.6887823,-0.5042817,0.6305767,-0.18463476,-0.15375444,0.6249956,0.3940106,-1.2178184,-2.294895,-0.756502,1.8613286,1.8617461,-0.7920797,0.45021275,-1.1610975,-2.2546852,-0.80726755,1.8732811,1.8794463,-0.8506913,-1.2546599,-1.2189966,-0.9992238,1.2095681,-0.6144067,0.21644565,0.39197978,-0.44615173,-0.49922943,0.6261076,-1.1378332,0.39893886,-0.7538703,-0.449131,-0.5130539,0.5911722,0.9594845,0.06566716,0.23005155,0.14884035,-1.1858835,0.5609533,-0.7592709,0.0,1.0,0.0,0.0,0.0,0.0,0.0,-0.20384824,0.099229425,-0.07610756,2.1294594,-1.3207674,8.983874,-7.851815,14.604807,-6.4408183,1.2628317
14.252753,61.097855,15.749848,4.255642,1.7499853,0.020912826,0.28488705,-0.7098096,-0.68773776,-0.5082239,0.5075888,0.13004358,-0.37212405,0.6201186,0.37923178,-1.2298713,-2.3055077,-0.75650865,1.8862854,1.8422339,-0.7886795,0.4376985,-1.1733522,-2.2641788,-0.7962104,1.86915,1.8810251,-0.8466937,-1.2509675,-1.2278657,-0.93067276,1.0706726,-0.3479957,0.13739413,0.40247554,-0.4573288,-0.49524307,0.61833817,-1.1092398,0.39807752,-0.7810537,-0.46092033,-0.5074158,0.583535,0.9603714,0.072663255,0.22938591,0.14067338,-1.1697716,0.57298255,-0.7667575,0.0,1.0,0.0,0.0,0.0,0.0,0.0,-0.19267118,0.09524307,-0.068338156,0.19094944,-0.96325874,7.430148,-14.023423,26.012629,-8.220548,1.088351
12.840206,57.54637,14.269443,3.0846338,1.6751716,0.012047648,0.2895448,-0.7126372,-0.69170874,-0.48986113,0.4224083,0.24157849,-0.49161935,0.58518267,0.36643478,-1.2425231,-2.313165,-0.75396955,1.8933079,1.8318632,-0.7881754,0.4251502,-1.1856852,-2.273089,-0.78675926,1.86775,1.881782,-0.8426321,-1.256609,-1.235332,-0.8763734,0.9030157,-0.07228271,0.05417334,0.40762365,-0.46824646,-0.49127197,0.61023754,-1.0840809,0.39684153,-0.81620884,-0.47256088,-0.501667,0.575757,0.9615292,0.07922425,0.22694647,0.13296765,-1.1553985,0.5851416,-0.7830907,0.0,1.0,0.0,0.0,0.0,0.0,0.0,-0.18175352,0.09127197,-0.060237527,-0.70552826,-0.8083105,5.8948755,-16.862917,27.046616,-8.614928,0.5687356
