Afshin1997/kuka_rl_ros2/src/catch_and_throw/input_files/idealpd/recorded_trajectories/env_49_data.csv
torque0,torque1,torque2,torque3,torque4,torque5,torque6,action0,action1,action2,action3,action4,action5,action6,set_target_0,set_target_1,set_target_2,set_target_3,set_target_4,set_target_5,set_target_6,joint_pos_0,joint_pos_1,joint_pos_2,joint_pos_3,joint_pos_4,joint_pos_5,joint_pos_6,joint_vel_0,joint_vel_1,joint_vel_2,joint_vel_3,joint_vel_4,joint_vel_5,joint_vel_6,tennisball_pos_0,tennisball_pos_1,tennisball_pos_2,tennisball_lin_vel_0,tennisball_lin_vel_1,tennisball_lin_vel_2,end_effector_pos_0,end_effector_pos_1,end_effector_pos_2,end_effector_rot_0,end_effector_rot_1,end_effector_rot_2,end_effector_rot_3,end_effector_lin_vel_0,end_effector_lin_vel_1,end_effector_lin_vel_2,obs_task_0,obs_task_1,obs_task_2,obs_task_3,obs_task_4,obs_task_5,obs_task_6,to_final_target_0,to_final_target_1,to_final_target_2,joint_acc_0,joint_acc_1,joint_acc_2,joint_acc_3,joint_acc_4,joint_acc_5,joint_acc_6
0.0,0.0,0.0,0.0,0.0,0.0,0.0,0.0,0.0,0.0,0.0,0.0,0.0,0.0,1.7802359,-1.0646509,-1.8151424,-1.1170107,1.9373155,1.1170107,-0.91629785,1.7802359,-1.0646509,-1.8151424,-1.1170107,1.9373155,1.1170107,-0.91629785,0.0,0.0,0.0,0.0,0.0,0.0,0.0,2.7763672,-0.486351,0.40820748,-2.9277496,0.112942494,4.935097,0.5304184,-0.45449448,0.693097,0.5745483,0.17512383,0.15255436,0.7848268,0.0,0.0,0.0,1.0,0.0,0.0,0.0,0.0,0.0,0.0,-3.4263673,0.08635101,0.14179254,0.0,0.0,0.0,0.0,0.0,0.0,0.0
0.0,0.0,0.0,0.0,0.0,0.0,0.0,0.0,0.0,0.0,0.0,0.0,0.0,0.0,1.7802359,-1.0646509,-1.8151424,-1.1170107,1.9373155,1.1170107,-0.91629785,1.7802359,-1.0646509,-1.8151424,-1.1170107,1.9373155,1.1170107,-0.91629785,0.0,0.0,0.0,0.0,0.0,0.0,0.0,2.7763672,-0.486351,0.40820748,-2.9277496,0.112942494,4.935097,0.5304184,-0.45449448,0.693097,0.5745483,0.17512383,0.15255436,0.7848268,0.0,0.0,0.0,1.0,0.0,0.0,0.0,0.0,0.0,0.0,-3.4263673,0.08635101,0.14179254,0.0,0.0,0.0,0.0,0.0,0.0,0.0
0.0,0.0,0.0,0.0,0.0,0.0,0.0,0.0,0.0,0.0,0.0,0.0,0.0,0.0,1.7802359,-1.0646509,-1.8151424,-1.1170107,1.9373155,1.1170107,-0.91629785,1.7802359,-1.0646509,-1.8151424,-1.1170107,1.9373155,1.1170107,-0.91629785,0.0,0.0,0.0,0.0,0.0,0.0,0.0,2.7763672,-0.486351,0.40820748,-2.9277496,0.112942494,4.935097,0.5304184,-0.45449448,0.693097,0.5745483,0.17512383,0.15255436,0.7848268,0.0,0.0,0.0,1.0,0.0,0.0,0.0,0.0,0.0,0.0,-3.4263673,0.08635101,0.14179254,0.0,0.0,0.0,0.0,0.0,0.0,0.0
-176.0,87.32139,1.6888771,110.0,11.226365,5.5166135,-3.7540243,-0.8268209,0.4415467,-0.52439517,0.72067183,0.48502868,0.62461877,-0.590151,1.6975538,-1.0204962,-1.867582,-1.0449436,1.9858184,1.1794726,-0.97531295,1.7784125,-1.0618452,-1.8207042,-1.1125933,1.9428945,1.1217047,-0.9175939,-0.24283074,0.37346828,-0.74073815,0.5890938,0.7430104,0.62379676,-0.17243968,2.7471085,-0.48522186,0.45678496,-2.9248226,0.11282957,4.831977,0.52812195,-0.4576912,0.6941851,0.5782569,0.1738153,0.15101857,0.7826881,-0.3054555,-0.42557284,0.14491108,1.0,0.0,0.0,0.0,0.0,0.0,0.0,-3.3971086,0.08522186,0.09321505,-24.245592,37.14035,-73.8469,58.954536,74.04061,61.748535,-17.138008
-176.0,22.82753,-22.99314,110.0,11.7845125,3.247819,-3.433237,-0.8169979,0.117240116,-0.5597209,0.69021827,0.55772203,0.62529683,-0.6008485,1.6967127,-1.0501212,-1.8766763,-1.0435715,1.9986666,1.1842344,-0.9776788,1.7752177,-1.0571016,-1.8343017,-1.1002508,1.9539189,1.1329981,-0.91866773,-0.3432548,0.50627285,-1.5667529,1.451422,1.2216159,1.2913895,-0.08340016,2.7178802,-0.4840927,0.504332,-2.9218984,0.11271677,4.72896,0.5229721,-0.46565628,0.6960513,0.5865577,0.1707023,0.14752641,0.77784747,-0.58730084,-0.9191129,0.20120561,1.0,0.0,0.0,0.0,0.0,0.0,0.0,-3.3678803,0.08409271,0.045668006,-9.536028,12.731224,-82.760956,86.86871,47.646786,64.80291,9.590319
-149.14839,110.37327,27.606743,87.55953,7.755791,7.1944923,-2.1123614,-0.78267676,0.41193357,-0.1181301,0.5897569,0.55276096,0.66879374,-0.57962173,1.69695,-1.0159082,-1.8461148,-1.0412751,2.009195,1.1998775,-0.9766299,1.7685915,-1.0508894,-1.8489769,-1.0841185,1.9665589,1.1458079,-0.919815,-0.76950455,0.65632,-1.428499,1.6681411,1.2740045,1.2702131,-0.1265631,2.6886826,-0.48296356,0.5508497,-2.918977,0.112604074,4.626046,0.514904,-0.47636795,0.69960296,0.5978512,0.16619937,0.14306459,0.7710279,-0.8869486,-1.1162328,0.41063157,1.0,0.0,0.0,0.0,0.0,0.0,0.0,-3.3386827,0.082963556,-0.0008496642,-42.711746,14.088213,15.551782,21.950222,4.002404,-4.326248,-4.7495036
-91.02654,114.72328,39.179863,54.786095,4.3061123,7.1397724,-0.7735498,-0.79070365,0.37434325,-0.08834507,0.60260236,0.53852785,0.64566183,-0.5920885,1.6895212,-1.013455,-1.8578113,-1.0238583,2.0204117,1.210374,-0.9790239,1.7580096,-1.0438532,-1.8600032,-1.0678507,1.9785352,1.1577383,-0.92143625,-1.1557217,0.71725553,-0.9872376,1.6133065,1.1682383,1.1626593,-0.17630276,2.6595154,-0.48183823,0.596339,-2.9160585,0.112491496,4.523235,0.504406,-0.48779297,0.705029,0.6103787,0.16048035,0.13808642,0.7632929,-1.1153995,-1.1398023,0.5923637,1.0,0.0,0.0,0.0,0.0,0.0,0.0,-3.3095155,0.08183822,-0.046338975,-39.003574,5.397618,46.167015,-5.4245234,-11.811757,-12.128806,-5.6583524
-31.176838,129.20863,50.76829,27.875954,1.3090452,6.6901627,0.18071452,-0.80739665,0.4702704,0.0023831346,0.57181585,0.5950005,0.6376248,-0.5815522,1.6772699,-0.9968261,-1.8597649,-1.0106691,2.0380352,1.2215008,-0.9795915,1.7443796,-1.0361322,-1.865916,-1.0532843,1.9893003,1.1684653,-0.9235448,-1.4337785,0.7887354,-0.45282233,1.4038897,1.0428411,1.0405815,-0.22505261,2.6303787,-0.4807167,0.64080095,-2.913143,0.11237902,4.420526,0.49227905,-0.4984436,0.7121768,0.6228416,0.1535716,0.1327857,0.7555475,-1.2578362,-1.0260899,0.7597748,1.0,0.0,0.0,0.0,0.0,0.0,0.0,-3.2803788,0.0807167,-0.09080094,-28.338455,6.6502094,55.358696,-21.152067,-13.473916,-12.829447,-5.6804686
8.445688,123.21884,49.21354,10.710571,-0.52950007,5.0725403,0.51268214,-0.8162916,0.528567,0.021443585,0.5638788,0.6199873,0.62136173,-0.5852652,1.6627505,-0.98327553,-1.8637717,-0.9968964,2.051299,1.2306014,-0.98207134,1.7289702,-1.0276293,-1.8673809,-1.0408865,1.9990468,1.1780764,-0.9260883,-1.5781243,0.86959964,-0.039724767,1.1841025,0.95033646,0.9342165,-0.26644406,2.6012726,-0.47959518,0.6842366,-2.9102302,0.11226667,4.31792,0.47932434,-0.5076065,0.7206645,0.6346256,0.1457244,0.12743375,0.7481813,-1.31885,-0.8645691,0.88011813,1.0,0.0,0.0,0.0,0.0,0.0,0.0,-3.2512727,0.07959518,-0.13423657,-14.886451,7.766211,42.678505,-22.256638,-9.754026,-10.7542515,-4.834357
29.84446,117.86937,46.146503,3.1662903,-1.3711467,3.7916,0.5310133,-0.82368433,0.59248406,0.08307859,0.5502045,0.6413785,0.6236158,-0.57228136,1.6466017,-0.96838087,-1.859073,-0.98586607,2.0631847,1.240438,-0.9833164,1.7128893,-1.0181936,-1.8657882,-1.0303046,2.008202,1.1867625,-0.9289798,-1.6193235,0.96744215,0.22869313,1.0155967,0.9030328,0.84709233,-0.29869452,2.572197,-0.47847366,0.72664696,-2.9073207,0.112154424,4.215417,0.46613693,-0.5151062,0.73015064,0.64558876,0.13720158,0.12226231,0.7412441,-1.3280138,-0.6963529,0.9712678,1.0,0.0,0.0,0.0,0.0,0.0,0.0,-3.222197,0.07847366,-0.17664695,-4.4633627,9.562755,27.79108,-17.10105,-4.9616575,-8.612907,-3.812158
34.809658,106.89996,39.842743,1.8242207,-1.486979,2.692998,0.35415128,-0.8257039,0.6355645,0.11477249,0.54513395,0.63943243,0.6299676,-0.566516,1.6303189,-0.95463717,-1.854311,-0.97579116,2.0721452,1.2497592,-0.9856314,1.69686,-1.0077795,-1.8625457,-1.0208575,2.017098,1.1947008,-0.9321384,-1.5984335,1.0655422,0.3580129,0.9203936,0.8850475,0.7768059,-0.3231728,2.5431519,-0.47735214,0.7680331,-2.9044142,0.11204229,4.113016,0.45302963,-0.5210991,0.7403455,0.65586203,0.12822925,0.11744392,0.7345809,-1.3116195,-0.55168074,1.0340592,1.0,0.0,0.0,0.0,0.0,0.0,0.0,-3.193152,0.07735214,-0.21803308,1.851964,9.658337,13.560236,-9.714365,-1.8731713,-6.8703294,-2.917081
32.73431,97.67467,34.565655,2.9624872,-1.295202,2.0246463,0.1938696,-0.8213911,0.67822623,0.14589316,0.5305028,0.6459142,0.6388506,-0.55666816,1.6147208,-0.93995684,-1.8479564,-0.9678072,2.0816894,1.2585859,-0.9878052,1.6812388,-0.99642694,-1.8586776,-1.011952,2.0259633,1.2020403,-0.93549436,-1.5506865,1.1580863,0.39788345,0.87996817,0.88697606,0.7202063,-0.34098905,2.5141296,-0.47623062,0.8083959,-2.9015105,0.11193027,4.010718,0.44012833,-0.52583694,0.7510364,0.6656279,0.11897035,0.11305487,0.72801375,-1.287491,-0.43253258,1.0785103,1.0,0.0,0.0,0.0,0.0,0.0,0.0,-3.1641297,0.076230615,-0.2583959,4.6039343,9.145093,4.427159,-4.199791,0.19317865,-5.5163026,-2.1650434
28.19234,88.370865,29.918974,4.1184998,-1.0271261,1.5879606,0.11386931,-0.81362844,0.70835054,0.16776359,0.50847685,0.6550933,0.63900805,-0.54328495,1.5998759,-0.9255919,-1.8419013,-0.96110433,2.0914726,1.2659411,-0.98982286,1.6661192,-0.9842628,-1.8547466,-1.0032564,2.0349317,1.2088934,-0.9389877,-1.499549,1.2354969,0.3926635,0.8655642,0.9001998,0.67386657,-0.35319388,2.4851303,-0.4751091,0.8477366,-2.8986096,0.111818366,3.9085224,0.42746353,-0.52954865,0.7620539,0.67500895,0.109544076,0.10908278,0.7214318,-1.2634777,-0.3350479,1.1067668,1.0,0.0,0.0,0.0,0.0,0.0,0.0,-3.1351304,0.075109094,-0.2977366,4.9771786,7.660389,-0.18339157,-1.5908957,1.3570547,-4.5122147,-1.546812
21.213432,76.640236,24.614002,5.285328,-0.68829036,1.2058065,0.058748126,-0.809726,0.7201575,0.1634754,0.49325126,0.66174537,0.647055,-0.53774387,1.5851467,-0.91224706,-1.838399,-0.95393133,2.1011062,1.2735989,-0.9927621,1.6514212,-0.97151506,-1.8510559,-0.99463594,2.0440602,1.2153498,-0.94257635,-1.4600769,1.2877047,0.3621698,0.8604388,0.9171988,0.63660437,-0.3616389,2.4561615,-0.4739952,0.886056,-2.8957117,0.11170657,3.806429,0.41498947,-0.5324631,0.7732077,0.6840904,0.10007495,0.1054665,0.7147601,-1.2443492,-0.26051754,1.1154206,1.0,0.0,0.0,0.0,0.0,0.0,0.0,-3.1061616,0.0739952,-0.336056,3.8289309,5.1665306,-2.78095,-0.679338,1.7591715,-3.6153555,-1.1240602
15.852751,66.80254,20.269,5.4636455,-0.5112611,0.8957335,0.040801555,-0.8068747,0.73287416,0.1432279,0.46631846,0.6625221,0.65436417,-0.5328447,1.5707337,-0.89822763,-1.8367331,-0.94800407,2.1103125,1.2807862,-0.9958608,1.6370016,-0.95839727,-1.8477829,-0.9861387,2.0533376,1.2214895,-0.9462299,-1.4363724,1.3196727,0.31643274,0.84552664,0.9318443,0.60705954,-0.36738703,2.4272232,-0.47288132,0.9233553,-2.8928165,0.111594886,3.7044375,0.40267944,-0.5347328,0.7843119,0.69291383,0.090682626,0.10217403,0.7079601,-1.2279364,-0.20132202,1.1057798,1.0,0.0,0.0,0.0,0.0,0.0,0.0,-3.0772233,0.07288131,-0.37335527,2.2531033,3.1645298,-4.344445,-1.687634,1.5446663,-2.82588,-0.824219
14.074555,62.72306,18.956614,5.0728064,-0.41624784,0.83746445,0.11598688,-0.80719167,0.74180096,0.165539,0.429814,0.6757028,0.654912,-0.5334474,1.5562825,-0.88421714,-1.831229,-0.9431573,2.1209078,1.2869807,-0.9995746,1.622706,-0.9450706,-1.8447978,-0.9779428,2.0627713,1.2273775,-0.9499311,-1.4277246,1.3368727,0.29329726,0.81026244,0.9472395,0.5832608,-0.3718436,2.3983154,-0.47176743,0.95963544,-2.8899243,0.11148331,3.6025481,0.39052582,-0.5364456,0.79527175,0.70144475,0.08141405,0.099121034,0.7010863,-1.2131785,-0.14558026,1.089621,1.0,0.0,0.0,0.0,0.0,0.0,0.0,-3.0483155,0.07176742,-0.40963542,0.736928,1.6959906,-2.0603895,-3.7392735,1.6150475,-2.237916,-0.6919861
15.250357,60.506657,18.454382,3.713601,-0.5011589,0.7546162,0.20588896,-0.80195737,0.7479747,0.173064,0.38823453,0.67561054,0.6532887,-0.5246248,1.5425103,-0.8702732,-1.8274914,-0.9391194,2.1303325,1.2927064,-1.0023936,1.6084486,-0.93164,-1.8418987,-0.9702629,2.0723233,1.2330633,-0.95366377,-1.4256265,1.3450588,0.28970635,0.7532066,0.95841,0.5641007,-0.37455732,2.3694382,-0.47065353,0.9948974,-2.887035,0.11137185,3.5007606,0.37854385,-0.53757477,0.80602974,0.70961094,0.07228567,0.09625614,0.69423467,-1.1941726,-0.08781809,1.0681254,1.0,0.0,0.0,0.0,0.0,0.0,0.0,-3.0194383,0.07065353,-0.4448974,0.07460117,0.80266,-0.08428097,-5.930388,1.1898041,-1.7376184,-0.5203068
18.207502,60.220634,18.682392,2.013935,-0.66811144,0.6710758,0.3002429,-0.7952659,0.7551529,0.18174042,0.3396619,0.68199575,0.6544209,-0.51324624,1.5289221,-0.85612476,-1.8237246,-0.9362967,2.140523,1.2985054,-1.0049884,1.5942103,-0.91814935,-1.8389194,-0.963302,2.0819745,1.2385851,-0.95741075,-1.4237063,1.3504976,0.30174273,0.6763122,0.9677725,0.54900897,-0.37551862,2.3405914,-0.46953964,1.0291424,-2.8841484,0.1112605,3.3990748,0.3667946,-0.53809357,0.8165521,0.7173322,0.06330843,0.0935537,0.68751305,-1.1676745,-0.025310142,1.0438077,1.0,0.0,0.0,0.0,0.0,0.0,0.0,-2.9905915,0.06953964,-0.47914237,0.054621696,0.535655,1.4906824,-7.917285,1.0104179,-1.288271,-0.34723282
19.035027,59.38075,18.116077,1.1303244,-0.8096012,0.53572637,0.32194677,-0.7984287,0.765653,0.16941296,0.28685632,0.6789578,0.6595019,-0.50083244,1.5143673,-0.841584,-1.8219781,-0.9346164,2.1498704,1.3045353,-1.007494,1.5799662,-0.9045805,-1.8358543,-0.95722234,2.0916867,1.2439829,-0.961153,-1.425102,1.358965,0.30890113,0.5844817,0.97274005,0.53760797,-0.37467432,2.3117752,-0.46842575,1.0623713,-2.8812647,0.11114927,3.2974906,0.3553543,-0.53798676,0.82679975,0.7245768,0.054509334,0.09105689,0.6809741,-1.1351984,0.037693832,1.015016,1.0,0.0,0.0,0.0,0.0,0.0,0.0,-2.9617753,0.068425745,-0.51237124,-0.27735233,0.84900856,0.98505616,-9.41025,0.5839348,-0.88448524,-0.15000701
22.760044,57.005756,17.162397,-1.8300576,-1.1389127,0.238069,0.39325115,-0.7927598,0.77065986,0.15617152,0.19919951,0.68265474,0.65766966,-0.49871293,1.5006902,-0.82751447,-1.8202372,-0.9373024,2.1599522,1.3097498,-1.0110242,1.5657297,-0.89091814,-1.8328025,-0.95228326,2.101441,1.2492872,-0.96488374,-1.423576,1.3686347,0.3047307,0.46293706,0.9764976,0.5290976,-0.37328407,2.2829895,-0.46731186,1.094585,-2.8783839,0.11103814,3.196008,0.3443451,-0.53722,0.83667886,0.73129696,0.045979347,0.088844724,0.6746831,-1.0883592,0.10298504,0.975247,1.0,0.0,0.0,0.0,0.0,0.0,0.0,-2.9329896,0.06731185,-0.54458493,0.019311905,0.98690987,-0.17288923,-12.391603,0.4715085,-0.51829815,-0.07733703
27.030132,56.267334,17.281517,-4.7291107,-1.4110968,0.051747233,0.52255106,-0.794094,0.7728327,0.18537083,0.09444375,0.69266546,0.6534053,-0.49295303,1.4863204,-0.8136349,-1.8142655,-0.9428389,2.1707075,1.3146278,-1.014179,1.5515047,-0.877169,-1.8296783,-0.94881856,2.1112485,1.2545191,-0.96859735,-1.4226135,1.3770794,0.3157004,0.3068169,0.9826426,0.52256435,-0.37131166,2.2542343,-0.4662056,1.1257846,-2.875506,0.11092713,3.094627,0.33388138,-0.53575134,0.84611326,0.7374002,0.03779601,0.08693607,0.6687709,-1.0286384,0.17287096,0.9291088,1.0,0.0,0.0,0.0,0.0,0.0,0.0,-2.9042344,0.06620559,-0.5757846,-0.030183792,0.880003,1.330328,-15.844107,0.71896315,-0.2547264,-0.006043911
33.657425,55.61458,17.650084,-9.265102,-1.8624042,-0.20093116,0.7092756,-0.79260916,0.77608573,0.21814603,-0.05157871,0.6943126,0.6460356,-0.48869216,1.4722438,-0.7995604,-1.8078637,-0.95397645,2.1806798,1.3191227,-1.0174665,1.5372931,-0.8633436,-1.8262889,-0.94729936,2.121117,1.2596956,-0.9722881,-1.4208182,1.3844826,0.34738326,0.099521264,0.9883882,0.51757795,-0.36892048,2.2254944,-0.46509933,1.1559713,-2.8726308,0.11081622,2.9933472,0.32416916,-0.53351974,0.85501426,0.7427435,0.030052187,0.085343584,0.6634346,-0.9494381,0.25121737,0.8731182,1.0,0.0,0.0,0.0,0.0,0.0,0.0,-2.8754945,0.06509933,-0.6059713,0.070118904,0.7956743,3.377664,-20.945526,0.69042444,-0.0036239624,0.0585258
38.17704,56.280914,18.397755,-11.686546,-2.1131387,-0.35620385,0.8285457,-0.786137,0.781317,0.25583974,-0.17327873,0.6953769,0.64191055,-0.4796207,1.4586794,-0.7852119,-1.800705,-0.9646272,2.1906548,1.3238868,-1.0202501,1.523131,-0.8494419,-1.8224285,-0.94803464,2.1310353,1.2648302,-0.9759492,-1.4150007,1.3923206,0.39937428,-0.13179195,0.9934331,0.5137084,-0.3656088,2.196785,-0.46399307,1.1851459,-2.8697586,0.11070543,2.8921685,0.31533432,-0.53046036,0.86333877,0.7472233,0.022797434,0.084068164,0.6588399,-0.8575638,0.3337182,0.81472605,1.0,0.0,0.0,0.0,0.0,0.0,0.0,-2.846785,0.06399307,-0.63514584,0.5097866,0.8595705,5.3372145,-23.30404,0.6572604,0.15804768,0.18569827
39.132717,58.086365,19.53096,-10.9921255,-2.0257542,-0.33532095,0.8695687,-0.7782766,0.7834097,0.3134242,-0.2636811,0.7003726,0.64520854,-0.45094886,1.4453033,-0.77110094,-1.7910861,-0.9744028,2.2010727,1.3293511,-1.0210441,1.5090624,-0.83547056,-1.8178546,-0.95099294,2.1410108,1.2699324,-0.979557,-1.4042777,1.3989922,0.4769912,-0.35094926,0.99943405,0.51090175,-0.35950562,2.168106,-0.4628868,1.2133094,-2.8668892,0.11059474,2.791091,0.307415,-0.5265808,0.8711385,0.7508127,0.015983514,0.08304031,0.6550794,-0.7653366,0.41513488,0.7638581,1.0,0.0,0.0,0.0,0.0,0.0,0.0,-2.8181062,0.062886804,-0.6633094,1.0460615,0.76260567,7.7916565,-22.032919,0.81961155,0.25863647,0.50058365
37.022884,60.282597,20.678232,-7.856232,-1.7006462,-0.19229358,0.82897735,-0.7677871,0.78414106,0.37908703,-0.32558572,0.69982535,0.6445625,-0.41910693,1.4322836,-0.7570565,-1.779946,-0.9835515,2.2109933,1.3343886,-1.0214677,1.4951388,-0.8214487,-1.8123252,-0.9558395,2.1510358,1.2750078,-0.98308176,-1.3883262,1.4036424,0.57791436,-0.5294022,1.0046693,0.508257,-0.35047206,2.1394577,-0.46178055,1.240463,-2.8640227,0.11048417,2.6901145,0.30033493,-0.5219116,0.87853813,0.7535537,0.009479277,0.08215241,0.6521641,-0.68245125,0.4916724,0.72698003,1.0,0.0,0.0,0.0,0.0,0.0,0.0,-2.7894578,0.061780542,-0.690463,1.6094446,0.57969093,9.998488,-17.914736,0.8277416,0.2374053,0.821203
34.273003,62.231716,21.5197,-4.4348683,-1.3789326,-0.062883295,0.7565799,-0.7530829,0.7893635,0.43542746,-0.3786897,0.70308614,0.6376961,-0.37740824,1.4198304,-0.74251235,-1.7687825,-0.9937085,2.2213445,1.3387774,-1.0208225,1.4814211,-0.8073734,-1.8057144,-0.9621347,2.1611142,1.2800547,-0.9864902,-1.3661492,1.4093044,0.68798435,-0.6629036,1.0103322,0.5050479,-0.33788106,2.1108398,-0.4606743,1.2666076,-2.861159,0.110373706,2.5892391,0.29400253,-0.5165024,0.8856714,0.75552154,0.0031487122,0.08131654,0.6500498,-0.6099102,0.5629881,0.70331985,1.0,0.0,0.0,0.0,0.0,0.0,0.0,-2.76084,0.06067428,-0.71660763,2.26233,0.6991863,10.804213,-13.386833,0.9437084,0.14688969,1.2012839
28.289097,59.448174,20.006573,-1.0251241,-1.0331935,-0.07460159,0.61453456,-0.7537824,0.79039556,0.46273094,-0.4299114,0.6993529,0.63883746,-0.34889856,1.4060428,-0.72833383,-1.7594413,-1.0051259,2.2310495,1.3439385,-1.0213801,1.4678828,-0.7932495,-1.7981288,-0.9695085,2.1712308,1.285071,-0.98976034,-1.3494829,1.413928,0.7812494,-0.762331,1.0132558,0.5018419,-0.32350147,2.0822525,-0.45956802,1.2917442,-2.8582983,0.110263355,2.4884646,0.2883072,-0.5104675,0.89259356,0.75684375,-0.0030616785,0.08052165,0.64860964,-0.5495795,0.6217122,0.6826579,1.0,0.0,0.0,0.0,0.0,0.0,0.0,-2.7322526,0.059568018,-0.7417442,1.7110348,0.6037235,9.082341,-9.980321,0.6848097,0.09820461,1.399833
23.905098,57.929535,19.142887,2.0260305,-0.7435249,-0.06435375,0.4940737,-0.741654,0.79412204,0.49971125,-0.4536401,0.69932884,0.63076556,-0.3112507,1.3937174,-0.71383727,-1.7481577,-1.0148726,2.2411637,1.3481476,-1.0208855,1.4545141,-0.779075,-1.7897232,-0.97760713,2.1813626,1.2900492,-0.9928703,-1.3324602,1.4191122,0.85944515,-0.8259434,1.0148264,0.4978535,-0.30697635,2.0536957,-0.4584694,1.3158737,-2.8554404,0.11015312,2.387791,0.28313446,-0.5039177,0.8993506,0.757641,-0.009193263,0.07977658,0.64771235,-0.49942896,0.6710626,0.6671339,1.0,0.0,0.0,0.0,0.0,0.0,0.0,-2.7036958,0.058469385,-0.76587373,1.7450571,0.66974163,7.5431585,-6.404996,0.5651951,-0.018000603,1.6233981
17.154308,56.378838,18.137863,6.8726387,-0.2700325,0.047247797,0.32279712,-0.7361195,0.7975671,0.52780485,-0.42969796,0.69581115,0.6281497,-0.2427543,1.3809022,-0.6993183,-1.7369426,-1.020577,2.2509437,1.3528641,-1.0171458,1.4412943,-0.76484525,-1.7806613,-0.9859489,2.1914945,1.2949854,-0.995779,-1.3185034,1.4248539,0.9209577,-0.8371083,1.014068,0.49343055,-0.28562537,2.0251694,-0.45737076,1.3389974,-2.8525853,0.11004298,2.2872179,0.27832794,-0.49696732,0.90602624,0.75806004,-0.015330432,0.07906641,0.6471927,-0.46697804,0.7082782,0.66126406,1.0,0.0,0.0,0.0,0.0,0.0,0.0,-2.6751695,0.057370752,-0.78899735,1.4134169,0.736022,5.862558,-1.1873126,0.3472805,-0.12168288,2.103734
11.456583,51.639164,15.936293,9.584114,0.060800314,-0.002283901,0.18817776,-0.73958683,0.79418725,0.5393134,-0.43189013,0.6994708,0.62781763,-0.2271775,1.3673357,-0.68542653,-1.72673,-1.029138,2.2614415,1.3577672,-1.0184968,1.4281508,-0.75058687,-1.7711437,-0.994223,2.2016263,1.2998797,-0.99848074,-1.312975,1.4266937,0.9613153,-0.8246224,1.0140303,0.48902902,-0.26503345,1.9966583,-0.45627213,1.3611159,-2.849733,0.10993296,2.1867454,0.27375793,-0.48973465,0.9126388,0.7582378,-0.021491354,0.07838951,0.6468914,-0.44588396,0.7323612,0.65446675,1.0,0.0,0.0,0.0,0.0,0.0,0.0,-2.6466584,0.05627212,-0.8111159,0.5384922,0.34370422,3.7832856,1.1430144,0.3878355,-0.1674056,2.0248234
7.605883,47.660786,14.009576,10.905882,0.20607525,-0.09128685,0.09851715,-0.7464061,0.79697,0.5418033,-0.4355705,0.6932453,0.6290315,-0.18749776,1.3535101,-0.67088985,-1.7169633,-1.03778,2.2709508,1.3627828,-1.0172305,1.4149901,-0.73631227,-1.76138,-1.0023277,2.2117352,1.3047339,-1.0009679,-1.3172282,1.4282802,0.98075014,-0.8061668,1.0111097,0.484996,-0.24329339,1.9681778,-0.4551735,1.3822305,-2.8468838,0.10982305,2.0863733,0.2693596,-0.4823265,0.9191559,0.7582691,-0.02763841,0.07779097,0.6466935,-0.43023536,0.74772877,0.6438712,1.0,0.0,0.0,0.0,0.0,0.0,0.0,-2.618178,0.055173486,-0.8322305,-0.470829,0.31268597,1.7397046,1.7158151,0.060129166,-0.16448498,2.1420746
6.442248,43.60577,12.319525,10.335015,0.19310474,-0.26123562,0.074869454,-0.75127405,0.79476476,0.5436605,-0.44991803,0.6946152,0.6305584,-0.17583609,1.3398627,-0.6568358,-1.7070138,-1.0473195,2.2811968,1.3677897,-1.0185515,1.4017435,-0.7220396,-1.7515304,-1.0103328,2.2218175,1.3095518,-1.003249,-1.3273306,1.4273987,0.9858313,-0.79917896,1.0083364,0.48159465,-0.22328225,1.9397278,-0.45407486,1.4023421,-2.8440373,0.10971325,1.9861014,0.2651329,-0.47481537,0.9255095,0.75819623,-0.033695113,0.0773159,0.6465488,-0.41285375,0.7574074,0.625484,1.0,0.0,0.0,0.0,0.0,0.0,0.0,-2.5897279,0.054074854,-0.85234207,-1.0694504,0.057077408,0.3483057,0.5560756,0.034356117,-0.112205744,1.971072
7.4435964,41.565094,11.792824,9.3051815,0.12852955,-0.39137042,0.114990905,-0.74859816,0.7907149,0.5553923,-0.45518112,0.69663036,0.62466383,-0.122257516,1.3268837,-0.64296806,-1.6959912,-1.055851,2.2914805,1.3720182,-1.0154748,1.3884131,-0.7077993,-1.7416389,-1.018338,2.2318845,1.3143374,-1.0053147,-1.3350822,1.4233736,0.9897555,-0.80139506,1.0068276,0.47820687,-0.20094347,1.9113083,-0.45297623,1.4214518,-2.8411937,0.10960356,1.8859297,0.26110077,-0.46720505,0.9316475,0.7580033,-0.03960604,0.07697434,0.6464806,-0.3911342,0.7657568,0.6028785,1.0,0.0,0.0,0.0,0.0,0.0,0.0,-2.5613084,0.05297622,-0.8714518,-0.8265734,-0.26168823,0.24462938,-0.3628373,0.14204979,-0.10693073,2.2027552
6.538701,41.0515,11.674158,10.3024845,0.20436954,-0.3857271,0.08454296,-0.75240827,0.7926069,0.5559187,-0.4320766,0.69063586,0.62573826,-0.08110516,1.3131722,-0.6285386,-1.6860471,-1.0615456,2.3009481,1.3769112,-1.0134252,1.3750082,-0.69358957,-1.7317283,-1.026284,2.2419248,1.3190924,-1.0071458,-1.3422899,1.4206227,0.9910367,-0.79270256,1.0036963,0.4752904,-0.17740083,1.8829193,-0.4518776,1.4395604,-2.838353,0.10949398,1.7858582,0.2572708,-0.45952225,0.9375818,0.75770354,-0.045382414,0.076768436,0.64647686,-0.37214595,0.77250403,0.5831916,1.0,0.0,0.0,0.0,0.0,0.0,0.0,-2.5329194,0.051877588,-0.8895604,-0.7801533,-0.13167858,-0.016593933,0.7231951,-0.017929077,-0.074619055,2.3222713
5.667291,40.095253,11.444467,11.032286,0.2825055,-0.38709107,0.06791035,-0.76016015,0.7903822,0.55962986,-0.42359942,0.69174826,0.6268072,-0.048286866,1.2989922,-0.61455137,-1.6757653,-1.0686439,2.3110995,1.3817731,-1.0119745,1.3615175,-0.6794094,-1.7217968,-1.0341022,2.2519383,1.3238207,-1.0087403,-1.3515075,1.4176109,0.9932832,-0.7787584,1.00142,0.47279748,-0.15362269,1.8545609,-0.4507866,1.4566691,-2.835515,0.10938451,1.6858866,0.2536087,-0.45179367,0.94333184,0.75731635,-0.051045943,0.076687366,0.64651775,-0.3556462,0.7775999,0.5651018,1.0,0.0,0.0,0.0,0.0,0.0,0.0,-2.504561,0.050786585,-0.9066691,-0.99139214,-0.15816689,0.09106398,1.2437463,0.065398216,-0.04634857,2.3445158
3.1577234,38.559845,10.914701,12.92915,0.48678124,-0.32875335,0.017975904,-0.7731812,0.7867229,0.5606121,-0.39535785,0.6879276,0.6349412,0.012681248,1.2841995,-0.6007371,-1.6657355,-1.073638,2.3207312,1.3873148,-1.0074722,1.3478934,-0.6652683,-1.7118442,-1.0416667,2.2619252,1.3285319,-1.0100754,-1.3665148,1.4133933,0.99562573,-0.7493992,0.9984171,0.4712815,-0.12708099,1.8262329,-0.4496956,1.4727788,-2.83268,0.10927515,1.5860151,0.25005722,-0.44403076,0.9489299,0.75687903,-0.056634713,0.0767085,0.646562,-0.34671476,0.7787087,0.5509335,1.0,0.0,0.0,0.0,0.0,0.0,0.0,-2.476233,0.04969558,-0.9227788,-1.595974,-0.27735233,0.11540651,2.7686477,-0.0024080276,0.024664402,2.6173174
2.2599034,36.501762,10.288417,13.379722,0.56569934,-0.35627496,0.015191577,-0.78248185,0.7797476,0.56282216,-0.38449183,0.6832231,0.6408558,0.07679934,1.2696452,-0.58729357,-1.655562,-1.0801159,2.3302476,1.3926175,-1.0023955,1.3340975,-0.651194,-1.701863,-1.0489204,2.2718701,1.3332354,-1.0111245,-1.3844289,1.4058144,0.99878013,-0.7178009,0.99421966,0.47061902,-0.09748565,1.7979279,-0.44860458,1.4878906,-2.8298478,0.10916589,1.4862435,0.2465744,-0.43627548,0.9543836,0.7564077,-0.06216518,0.07681863,0.6465923,-0.33976877,0.7770757,0.5364098,1.0,0.0,0.0,0.0,0.0,0.0,0.0,-2.447928,0.048604578,-0.9378906,-1.8964529,-0.61700344,0.21290779,2.9847264,-0.12842417,0.09866953,2.9186547
2.8606596,35.60784,10.165065,13.043362,0.53338224,-0.4131366,0.041323297,-0.78756946,0.7760904,0.5655527,-0.37535644,0.6794732,0.6392673,0.14155182,1.2553406,-0.5735849,-1.6453078,-1.0864561,2.3398175,1.3971621,-0.9969693,1.3201338,-0.6372026,-1.6918418,-1.0558803,2.2817693,1.3379332,-1.0118569,-1.4008077,1.397293,1.00297,-0.6893245,0.9892125,0.47004104,-0.06505766,1.7696457,-0.44751358,1.5020055,-2.8270185,0.10905675,1.3865715,0.24317932,-0.42853546,0.9596862,0.75588465,-0.06763034,0.07701505,0.6466321,-0.33073452,0.77561915,0.5210667,1.0,0.0,0.0,0.0,0.0,0.0,0.0,-2.4196458,0.047513574,-0.95200545,-1.7387629,-0.7137537,0.32253265,2.6774049,-0.21561384,0.10724664,3.2014236
4.016423,35.188972,10.275696,12.46154,0.4809997,-0.47369927,0.085476995,-0.79070204,0.77195644,0.5695246,-0.36482587,0.6824422,0.6461982,0.21879669,1.2410636,-0.560007,-1.6348894,-1.0923629,2.3500135,1.402553,-0.98997724,1.3060366,-0.623299,-1.6817672,-1.0625865,2.291634,1.342631,-1.0122365,-1.4130238,1.3885025,1.0086528,-0.6650508,0.9865046,0.47031048,-0.028921533,1.741394,-0.44642258,1.5151243,-2.824192,0.10894772,1.2869992,0.2399025,-0.42080688,0.96482974,0.75527525,-0.073021434,0.077293776,0.6467247,-0.31856674,0.77519596,0.50497925,1.0,0.0,0.0,0.0,0.0,0.0,0.0,-2.3913941,0.04642257,-0.9651243,-1.3112545,-0.74272156,0.4727602,2.2669196,0.007557869,0.19658804,3.572122
3.7028055,34.725834,10.300789,13.302313,0.54146165,-0.45783454,0.06693535,-0.7947504,0.76727694,0.5710181,-0.33022854,0.67428535,0.6558152,0.26463506,1.2265615,-0.5465713,-1.6246654,-1.0956094,2.3590627,1.4082125,-0.98577297,1.2918421,-0.6094831,-1.6716392,-1.0689666,2.301457,1.3473383,-1.0122536,-1.42191,1.3797048,1.0138457,-0.6294459,0.9818719,0.47152945,0.0073179496,1.7131729,-0.44533157,1.5272481,-2.8213685,0.10883879,1.1875265,0.23672485,-0.4130783,0.96983653,0.7545787,-0.07836925,0.07764555,0.6468697,-0.30852735,0.7744417,0.4921948,1.0,0.0,0.0,0.0,0.0,0.0,0.0,-2.363173,0.045331568,-0.97724813,-0.97978115,-0.74203014,0.42147636,3.3989906,-0.17968416,0.28210282,3.5791914
6.9299603,34.609573,10.394853,10.466538,0.2462359,-0.660763,0.14824152,-0.79162836,0.76561064,0.5693658,-0.36140865,0.67752045,0.6552886,0.28683,1.2126793,-0.532922,-1.6147026,-1.1051075,2.369209,1.4128672,-0.98357064,1.2776114,-0.5957407,-1.6614807,-1.0751998,2.3112493,1.3520609,-1.0119275,-1.4238343,1.3728588,1.0162041,-0.6219277,0.979184,0.47294453,0.040886827,1.6849823,-0.44424057,1.538378,-2.8185477,0.10872997,1.0881531,0.23374176,-0.40533066,0.9746571,0.7537491,-0.08361521,0.07809997,0.64712524,-0.28588387,0.7770327,0.47164908,1.0,0.0,0.0,0.0,0.0,0.0,0.0,-2.3349824,0.044240564,-0.988378,-0.24986267,-0.5546093,0.14462471,0.6183982,-0.016629696,0.32655,3.3183765
8.177245,34.16929,10.497213,9.589401,0.16193056,-0.7414647,0.19002272,-0.7900629,0.75871795,0.5792162,-0.35618874,0.6745478,0.64941996,0.32931507,1.1986051,-0.51986885,-1.603559,-1.1108187,2.378704,1.4170029,-0.978996,1.2633921,-0.58207643,-1.6512668,-1.0814197,2.321015,1.3567911,-1.0112714,-1.4211931,1.3647571,1.0228024,-0.6224364,0.97640836,0.47370782,0.0736136,1.6568222,-0.4431572,1.548515,-2.8157299,0.10862127,0.9888792,0.23101425,-0.3975525,0.9792586,0.7527452,-0.08871542,0.07866754,0.6475459,-0.25889042,0.7806725,0.4492989,1.0,0.0,0.0,0.0,0.0,0.0,0.0,-2.3068223,0.04315719,-0.99851495,0.2248764,-0.68194866,0.56374073,-0.17170906,-0.033044815,0.26788712,3.2348037
9.418472,33.77183,10.414419,8.393176,0.02993226,-0.8542011,0.22321834,-0.78650445,0.7572168,0.57730454,-0.36834994,0.67178106,0.65249854,0.36571243,1.1847416,-0.50635475,-1.5935364,-1.1182547,2.388193,1.4220409,-0.9747001,1.2492281,-0.56848085,-1.6410034,-1.0877388,2.33075,1.361529,-1.0102967,-1.4148873,1.3582572,1.0271591,-0.63553774,0.9732063,0.47463402,0.10519047,1.6286926,-0.44207382,1.5576599,-2.8129148,0.10851267,0.8897045,0.22860336,-0.38972473,0.9836098,0.75153863,-0.09362938,0.07936893,0.6481696,-0.22604267,0.78522635,0.4234319,1.0,0.0,0.0,0.0,0.0,0.0,0.0,-2.2786927,0.042073816,-1.0076599,0.60846806,-0.5247116,0.34172535,-1.4162183,-0.09326935,0.29063225,3.1243384
10.647799,31.546078,9.350311,5.790487,-0.17278212,-1.0956566,0.2650441,-0.7888087,0.7524302,0.56874645,-0.42052993,0.67349374,0.64466864,0.36922637,1.1703472,-0.49323782,-1.5841287,-1.1297917,2.3980994,1.4259958,-0.97337407,1.2351137,-0.554953,-1.6307495,-1.0944374,2.3404622,1.3662726,-1.0090398,-1.4102093,1.3513973,1.0244483,-0.6815557,0.9709917,0.4747733,0.13255353,1.6005783,-0.44099045,1.5658138,-2.8101027,0.108404174,0.79062897,0.22660065,-0.38186646,0.9876202,0.7501098,-0.0982378,0.08025242,0.6490332,-0.18311517,0.7872837,0.38665816,1.0,0.0,0.0,0.0,0.0,0.0,0.0,-2.2505784,0.040990442,-1.0158138,0.46687126,-0.5711794,-0.34332275,-4.6916366,-0.039315224,0.22166371,2.7116985
10.591421,29.827742,8.674328,4.967408,-0.21104544,-1.1973106,0.27542928,-0.7911425,0.74637216,0.5736103,-0.44929945,0.67200977,0.6448759,0.3806305,1.1559995,-0.48031574,-1.5733885,-1.1393673,2.407663,1.4307601,-0.9709767,1.2210222,-0.5415033,-1.6205127,-1.1017044,2.3501515,1.3710161,-1.007533,-1.4088562,1.3431166,1.0231313,-0.74201167,0.9688666,0.47476974,0.15660715,1.5724945,-0.43990707,1.5729777,-2.8072932,0.10829579,0.69165254,0.22504425,-0.37399292,0.99123096,0.7484542,-0.102459,0.08134134,0.6501554,-0.13733004,0.7870067,0.34554732,1.0,0.0,0.0,0.0,0.0,0.0,0.0,-2.2224946,0.039907068,-1.0229776,0.14109612,-0.7169485,-0.19500256,-6.128478,-0.047707558,0.20064712,2.3855896
9.452403,30.2486,9.003237,6.8131857,-0.093173325,-1.1041269,0.2300707,-0.78736436,0.7483043,0.5768106,-0.43960202,0.6617443,0.6466143,0.4227546,1.1422858,-0.46667287,-1.5628316,-1.1456646,2.416326,1.4356775,-0.9652575,1.2069479,-0.52810895,-1.6102722,-1.109431,2.359795,1.3757578,-1.0057839,-1.4070483,1.3384992,1.0240672,-0.78316873,0.9635084,0.47465086,0.18089296,1.5444412,-0.4388237,1.5791526,-2.8044863,0.10818752,0.59277505,0.22390747,-0.366127,0.9944825,0.746599,-0.10633525,0.0826313,0.65150195,-0.09709763,0.7874962,0.3113674,1.0,0.0,0.0,0.0,0.0,0.0,0.0,-2.1944413,0.038823694,-1.0291526,0.16925335,-0.34196377,0.02219677,-4.203546,-0.34806728,0.16694069,2.4099946
7.759798,26.925608,7.9620643,8.151299,0.15680975,-1.0984478,0.19088158,-0.7786307,0.73075813,0.5745698,-0.44563186,0.6671837,0.6526238,0.43293157,1.1290848,-0.45503312,-1.5528152,-1.1539942,2.4265134,1.4410203,-0.96249074,1.192927,-0.5148233,-1.6000278,-1.1174495,2.3694081,1.3805033,-1.0038117,-1.4005557,1.3256732,1.0240605,-0.80839175,0.9610093,0.47497118,0.20258485,1.5164185,-0.43774033,1.5843395,-2.8016822,0.10807935,0.4939964,0.22312546,-0.35829544,0.9974109,0.7445774,-0.109912895,0.08405795,0.6530375,-0.06326635,0.78141314,0.27967286,1.0,0.0,0.0,0.0,0.0,0.0,0.0,-2.1664186,0.03774032,-1.0343394,0.64024925,-1.1606455,-0.08633137,-2.629435,-0.058233738,0.19364357,2.1426678
7.451649,27.287302,8.118014,8.841015,0.16116762,-1.0857027,0.15925243,-0.77631366,0.73635495,0.5693188,-0.46207148,0.6596491,0.6473828,0.4402215,1.1152956,-0.44118783,-1.543096,-1.1636567,2.435373,1.4452416,-0.9597896,1.1789767,-0.50162446,-1.5898101,-1.1256759,2.378983,1.3852469,-1.0016431,-1.3933103,1.3183149,1.020678,-0.82776666,0.95681983,0.47468144,0.22163124,1.4884262,-0.43665695,1.5885394,-2.798881,0.107971296,0.39531657,0.22267151,-0.35051727,1.0000433,0.74242055,-0.11321605,0.085619494,0.65472364,-0.030314956,0.7765333,0.25077367,1.0,0.0,0.0,0.0,0.0,0.0,0.0,-2.1384263,0.036656946,-1.0385394,0.7058382,-0.61044693,-0.41985512,-2.041316,-0.22319555,0.12049079,1.882565
5.6816235,25.610281,7.6910334,10.927553,0.377389,-1.000084,0.10283565,-0.770239,0.7269177,0.5676891,-0.44225144,0.6510005,0.6506352,0.4693803,1.1019528,-0.4289327,-1.5330412,-1.169901,2.444083,1.4503103,-0.95470506,1.1651121,-0.48851517,-1.5796344,-1.1339271,2.388493,1.3899885,-0.9992856,-1.3843576,1.3089129,1.016141,-0.8247384,0.9501941,0.47447005,0.2403943,1.4604645,-0.4355812,1.5917531,-2.7960827,0.107863344,0.2967354,0.22249985,-0.34280396,1.0024321,0.74016774,-0.11630894,0.08729458,0.6565086,-0.0051076026,0.7689925,0.22798327,1.0,0.0,0.0,0.0,0.0,0.0,0.0,-2.1104646,0.0355812,-1.041753,0.854373,-0.80981255,-0.5355358,0.17902851,-0.4501462,0.10813475,1.8491238
4.5575695,23.61832,6.918982,11.365959,0.4629951,-1.0135415,0.0753766,-0.775366,0.7203434,0.5652482,-0.45715058,0.6506794,0.64905155,0.46807143,1.0875756,-0.41648084,-1.5231096,-1.1796422,2.453561,1.4548937,-0.9524784,1.1512934,-0.475508,-1.5695083,-1.142165,2.397946,1.3947283,-0.9967612,-1.3812623,1.2984066,1.0112451,-0.8238042,0.9444266,0.4739951,0.25627393,1.432518,-0.43450546,1.5939817,-2.7932873,0.107755505,0.19825278,0.22256088,-0.3351822,1.0045882,0.7378509,-0.11919901,0.08906459,0.6583578,0.017789587,0.75853604,0.20468177,1.0,0.0,0.0,0.0,0.0,0.0,0.0,-2.082518,0.034505457,-1.0439818,0.25017262,-0.92344284,-0.5482435,-0.036227703,-0.3727913,0.06799102,1.5621603
6.0244036,22.885134,6.577537,8.994942,0.2699687,-1.1870997,0.13962848,-0.7688953,0.71515554,0.5628917,-0.50601965,0.6498808,0.648016,0.47622302,1.0744039,-0.40399244,-1.5132191,-1.1927669,2.462934,1.4595299,-0.9491389,1.1375147,-0.46260718,-1.5594318,-1.1506145,2.407353,1.3994604,-0.99409187,-1.3767141,1.2877021,1.0063256,-0.85226333,0.9398186,0.4734968,0.27037126,1.404602,-0.43342972,1.5952264,-2.7904947,0.10764777,0.099868625,0.22291565,-0.3276596,1.0064468,0.7354462,-0.121796094,0.09095091,0.66031235,0.04995742,0.74790674,0.17281125,1.0,0.0,0.0,0.0,0.0,0.0,0.0,-2.0546021,0.033429712,-1.0452263,0.43656826,-0.95226765,-0.55253506,-2.947414,-0.29073954,0.07036924,1.3897777
3.8379881,20.62737,5.8657713,11.46734,0.54663134,-1.0840482,0.065974995,-0.7644896,0.70624226,0.55281895,-0.46365464,0.6453896,0.65297496,0.49785438,1.0610658,-0.39198294,-1.5041499,-1.19698,2.4718919,1.4647579,-0.94430643,1.1237894,-0.44982794,-1.5494392,-1.1591537,2.4167142,1.4041926,-0.99128425,-1.3713604,1.2750493,0.99693495,-0.85498446,0.935193,0.4733043,0.2842216,1.3767166,-0.43235397,1.5954878,-2.787705,0.107540146,0.001582829,0.223526,-0.32027817,1.0080392,0.7329866,-0.1241389,0.09292444,0.6623331,0.07242929,0.73329705,0.1479849,1.0,0.0,0.0,0.0,0.0,0.0,0.0,-2.0267167,0.032353967,-1.0454879,0.48222542,-1.1422157,-0.9906411,-0.40103197,-0.274992,0.07824302,1.3597846
3.65135,17.076687,4.432936,10.148067,0.5618794,-1.2313683,0.09058836,-0.7559453,0.68655187,0.54250544,-0.5024846,0.6399865,0.6533005,0.5001318,1.0481949,-0.38117275,-1.4951886,-1.2094022,2.480713,1.4695226,-0.94127107,1.11015,-0.4372404,-1.5395744,-1.1678455,2.4260182,1.4089228,-0.9883517,-1.3616271,1.2537107,0.9826903,-0.8744997,0.92937994,0.473224,0.29622293,1.3488617,-0.43127823,1.5947672,-2.7849176,0.107432626,-0.0966047,0.22438812,-0.31309128,1.0093311,0.73047876,-0.1261818,0.09496536,0.6644249,0.09819923,0.71249974,0.11621726,1.0,0.0,0.0,0.0,0.0,0.0,0.0,-1.9988617,0.031278223,-1.0447671,0.96411705,-2.0208359,-1.4904141,-2.074039,-0.42471886,0.08599758,1.1712134
2.822063,15.380807,3.4904873,9.848381,0.5594484,-1.2953696,0.061470203,-0.7640889,0.6829264,0.5281331,-0.52573305,0.63204193,0.6500462,0.48768044,1.0337411,-0.36894774,-1.4867611,-1.2204188,2.4892225,1.4739274,-0.93958366,1.0965544,-0.4248512,-1.5298965,-1.1768177,2.4352498,1.4136492,-0.98532283,-1.3589561,1.2342963,0.96268225,-0.9053736,0.9214452,0.47265738,0.305067,1.3210373,-0.43020248,1.5930655,-2.782133,0.10732522,-0.19469407,0.22550964,-0.30612564,1.0102795,0.7279505,-0.12786084,0.097096816,0.6665672,0.12469456,0.68876064,0.08116032,1.0,0.0,0.0,0.0,0.0,0.0,0.0,-1.9710373,0.030202478,-1.0430655,0.24726391,-1.8349409,-2.0383596,-3.2066703,-0.65948963,0.020253658,0.8592069
2.8202748,14.6493,3.1298637,9.232581,0.5260644,-1.3513826,0.06656377,-0.76386446,0.67465353,0.52107304,-0.5550044,0.6332589,0.6501904,0.47531912,1.020168,-0.35738584,-1.4777892,-1.232318,2.4985757,1.4786682,-0.93779093,1.0829645,-0.41264513,-1.520417,-1.1861961,2.4444165,1.418368,-0.98222816,-1.3590614,1.2163762,0.942812,-0.9490772,0.9154414,0.47202057,0.31096038,1.2932434,-0.42912674,1.5903835,-2.7793515,0.107217915,-0.29268536,0.22691727,-0.29940033,1.010853,0.7254151,-0.12912467,0.099333204,0.6687545,0.15339744,0.6641071,0.043052103,1.0,0.0,0.0,0.0,0.0,0.0,0.0,-1.9432434,0.029126734,-1.0403836,-0.021958351,-1.689887,-2.016735,-4.4774055,-0.48234463,0.00084638596,0.56859255
2.49119,12.052891,1.9477952,8.040307,0.51509047,-1.465219,0.07808133,-0.76162314,0.6555243,0.5060462,-0.600031,0.6219756,0.65255105,0.46141726,1.0068022,-0.3470927,-1.4698124,-1.2461991,2.506614,1.483623,-0.9360864,1.0693747,-0.4006565,-1.5111587,-1.1961486,2.4535031,1.423083,-0.9790944,-1.358912,1.1933513,0.9199763,-1.0109932,0.9066611,0.4715433,0.3140868,1.2654648,-0.42805862,1.5867224,-2.7765727,0.10711072,-0.3905787,0.2286377,-0.29296112,1.0109957,0.7228761,-0.12989947,0.10168186,0.670997,0.18497412,0.6347449,-0.0015811725,1.0,0.0,0.0,0.0,0.0,0.0,0.0,-1.9154648,0.028058618,-1.0367224,0.042033195,-2.2094488,-2.3246884,-6.2872767,-0.7894039,0.0024020672,0.2901435
2.4994054,10.677792,1.538769,7.389127,0.50575656,-1.5080961,0.102716215,-0.75852954,0.63797605,0.5036013,-0.64171326,0.6095479,0.6454101,0.44741952,0.99352175,-0.33685887,-1.4607986,-1.26032,2.514458,1.4876239,-0.93435246,1.055802,-0.3889325,-1.5020912,-1.2068088,2.462479,1.4277884,-0.97594726,-1.3566635,1.1657232,0.9023041,-1.0846105,0.8946151,0.47033852,0.31487578,1.2377167,-0.4269905,1.5820831,-2.7737968,0.10700363,-0.48837414,0.23069382,-0.28681946,1.0106667,0.7203222,-0.13013266,0.10413726,0.67331773,0.21806513,0.6040635,-0.049452223,1.0,0.0,0.0,0.0,0.0,0.0,0.0,-1.8877167,0.026990503,-1.032083,0.28800964,-2.674055,-1.8332243,-7.4445486,-1.1272073,-0.08409619,0.05596876
2.145448,8.808585,1.3343477,7.809945,0.60382664,-1.4558328,0.1361468,-0.7483538,0.6097592,0.51001185,-0.6712468,0.5879571,0.6436737,0.46266875,0.9809666,-0.3279566,-1.45109,-1.2739335,2.5212748,1.4921558,-0.9296804,1.0422999,-0.37755993,-1.4931133,-1.2181919,2.4712873,1.4324805,-0.9727849,-1.3477283,1.1280652,0.8959373,-1.1565886,0.8763006,0.46888915,0.31657878,1.2099991,-0.4259224,1.5764666,-2.7710238,0.10689665,-0.58607185,0.23305511,-0.2809868,1.0098654,0.71771985,-0.12983443,0.10666108,0.6757549,0.2482421,0.57278246,-0.096410915,1.0,0.0,0.0,0.0,0.0,0.0,0.0,-1.8599991,0.025922388,-1.0264666,0.9887934,-3.6774635,-0.74687004,-7.2805405,-1.7416358,-0.122869015,0.14249086
1.224589,7.3120594,1.2406788,9.490045,0.78207034,-1.3370849,0.11823004,-0.7365603,0.5861005,0.5067934,-0.6847956,0.5717313,0.6330836,0.45091936,0.96864384,-0.31894988,-1.442434,-1.2866714,2.5284605,1.4957888,-0.92769295,1.028937,-0.36660507,-1.484164,-1.2301738,2.4798856,1.4371516,-0.9696168,-1.3320725,1.0849144,0.89401746,-1.2124026,0.8548271,0.46636957,0.31687024,1.182312,-0.42485428,1.5698738,-2.768253,0.106789775,-0.6836719,0.235672,-0.27546692,1.008636,0.7150624,-0.12906569,0.1092013,0.67830884,0.2718189,0.5414528,-0.13766266,1.0,0.0,0.0,0.0,0.0,0.0,0.0,-1.832312,0.024854273,-1.0198739,1.6553879,-4.2236567,-0.32336712,-5.6779623,-2.034092,-0.24616718,-0.001847744
-0.9396198,3.6487932,0.109984875,11.658727,1.0804857,-1.2051606,0.07292275,-0.72962046,0.55169183,0.500254,-0.69553113,0.5487526,0.63523144,0.46599373,0.95597494,-0.31143588,-1.4341387,-1.299727,2.534761,1.5006747,-0.9230174,1.0157439,-0.3561509,-1.4752414,-1.2425773,2.4882398,1.4417979,-0.96643627,-1.3148131,1.0325319,0.89118624,-1.2499,0.8289863,0.46404612,0.318364,1.1546555,-0.42378616,1.5623057,-2.7654853,0.10668301,-0.78117436,0.23846436,-0.27029037,1.0070344,0.7123735,-0.12789787,0.1116991,0.68094736,0.28516704,0.5057966,-0.17331538,1.0,0.0,0.0,0.0,0.0,0.0,0.0,-1.8046554,0.023786157,-1.0123057,1.7889261,-5.149555,-0.4100442,-3.873992,-2.4581432,-0.24868846,0.110667944
-3.6160061,-1.5682222,-1.9856043,13.275728,1.4093516,-1.1493485,0.01411009,-0.7194786,0.50988615,0.481651,-0.7111641,0.5253216,0.6226045,0.4726707,0.943796,-0.30516228,-1.4270763,-1.3136938,2.540772,1.5040584,-0.9191692,1.0027338,-0.34630755,-1.4664276,-1.2552707,2.4963078,1.4464117,-0.96323574,-1.2961864,0.96853584,0.8777881,-1.2764546,0.79953885,0.46049604,0.32034227,1.1270218,-0.42271805,1.5537634,-2.7627203,0.106576346,-0.8785794,0.24131012,-0.26554108,1.0050939,0.709704,-0.12636422,0.11410237,0.6836176,0.2890968,0.46127892,-0.20647264,1.0,0.0,0.0,0.0,0.0,0.0,0.0,-1.7770218,0.022718042,-1.0037634,1.9154787,-6.32149,-1.4602661,-2.8047562,-2.8293371,-0.398463,0.14958382
-5.5595546,-5.968708,-3.767332,14.088958,1.6413419,-1.1264863,-0.017778188,-0.70389163,0.46415314,0.46465147,-0.73143256,0.4968468,0.61325365,0.47262317,0.9323447,-0.29989225,-1.4199624,-1.328414,2.5459926,1.507737,-0.9159734,0.9899403,-0.33718756,-1.4578216,-1.2682159,2.504044,1.4509856,-0.9600171,-1.27359,0.8933656,0.8545608,-1.3010144,0.7653726,0.45613146,0.32207793,1.099411,-0.42164993,1.5442477,-2.7599583,0.10646979,-0.97588694,0.24415207,-0.26128006,1.0028198,0.7070922,-0.12446286,0.116372794,0.6862849,0.28691885,0.4095125,-0.23940794,1.0,0.0,0.0,0.0,0.0,0.0,0.0,-1.749411,0.021649927,-0.99424773,2.328968,-7.450509,-2.45651,-2.6145458,-3.3173203,-0.503844,0.1188457
-14.512499,-26.443651,-12.948366,16.151377,2.7563088,-1.2145162,-0.17454945,-0.6778622,0.34160414,0.38167137,-0.7324206,0.46451667,0.6026766,0.4891048,0.92215407,-0.30302715,-1.4196545,-1.341458,2.5504956,1.5112532,-0.9111066,0.97745097,-0.32923582,-1.4498107,-1.2813385,2.5113988,1.4555079,-0.95677364,-1.2402475,0.7624593,0.7827524,-1.3166456,0.72543675,0.4504576,0.32473093,1.0718307,-0.42058945,1.5337597,-2.757199,0.10636334,-1.0730973,0.24679184,-0.25787735,1.0001774,0.70467997,-0.12212017,0.11832987,0.6888475,0.25910306,0.3147833,-0.27704537,1.0,0.0,0.0,0.0,0.0,0.0,0.0,-1.7218307,0.020589441,-0.9837597,3.4918785,-13.076485,-7.366359,-1.7818928,-3.978598,-0.7066965,0.16499758
-26.403713,-56.762318,-25.404572,18.233871,4.283423,-1.2497808,-0.2706158,-0.6346625,0.13188532,0.32285613,-0.74782836,0.359358,0.57625353,0.51255345,0.9139847,-0.31604728,-1.4175252,-1.3561213,2.5473347,1.5131333,-0.9055183,0.9654499,-0.32339075,-1.4427459,-1.294625,2.5181012,1.4599539,-0.9534911,-1.1855254,0.52503836,0.6797094,-1.3335172,0.65183955,0.4416491,0.3289141,1.044281,-0.41952896,1.5223004,-2.7544422,0.106257,-1.1702105,0.24888611,-0.25584412,0.9970885,0.7026008,-0.11923236,0.11965292,0.69124454,0.19461253,0.16335462,-0.323255,1.0,0.0,0.0,0.0,0.0,0.0,0.0,-1.694281,0.019528955,-0.97230035,5.8250666,-23.803938,-10.664344,-1.9483328,-7.4326754,-1.1271477,0.2590716
-56.936222,-130.20859,-58.712704,22.002771,7.9057975,-1.6916056,-0.73470557,-0.5211094,-0.3001379,0.024485204,-0.74557847,0.12474708,0.5340889,0.51162225,0.913339,-0.35340455,-1.4402974,-1.369183,2.530576,1.5133628,-0.90232885,0.9544693,-0.32164744,-1.4379699,-1.3080223,2.5234303,1.4642683,-0.9501761,-1.0663528,0.056570444,0.40815526,-1.3428285,0.49208477,0.42591116,0.33132383,1.0167618,-0.41846848,1.5098706,-2.7516882,0.10615076,-1.2672265,0.24972916,-0.25645828,0.99331033,0.7012931,-0.11548647,0.11977337,0.69318473,0.048104495,-0.13920063,-0.39851034,1.0,0.0,0.0,0.0,0.0,0.0,0.0,-1.6667618,0.01846847,-0.95987064,12.682581,-47.101204,-27.800358,-1.1979342,-16.345484,-2.1656215,-0.056284666
-63.85878,-151.71983,-69.68333,19.894539,7.9113245,-2.0949428,-0.9018729,-0.27629778,-0.55321985,-0.29606,-0.737358,-0.48046637,0.49376765,0.5377849,0.92683953,-0.37696943,-1.4675759,-1.3817581,2.4753838,1.513645,-0.89639765,0.94569933,-0.32522562,-1.4371612,-1.3214157,2.5254788,1.4683901,-0.94682395,-0.8113535,-0.49708146,-0.030050728,-1.3378626,0.107503004,0.40461314,0.33535412,0.98926926,-0.417408,1.4964715,-2.7489371,0.106044635,-1.3641455,0.24911499,-0.2603569,0.9885768,0.70101947,-0.1107543,0.11903169,0.69436055,-0.09792316,-0.47341418,-0.49922043,1.0,0.0,0.0,0.0,0.0,0.0,0.0,-1.6392692,0.017407984,-0.9464715,26.255894,-55.69452,-44.406567,0.5692482,-38.924736,-2.9850423,0.049233437
-34.155872,-103.904465,-43.493874,12.381868,5.2058306,-1.8743525,-0.0057758214,0.10947967,-0.68102145,-0.33989838,-0.7384173,-0.5390157,0.5420852,0.51868534,0.9566473,-0.39332777,-1.471151,-1.3952574,2.4715772,1.5225986,-0.8949554,0.940972,-0.3338578,-1.4403026,-1.3347232,2.5238118,1.4723574,-0.94343746,-0.36049658,-0.98602426,-0.40837157,-1.3273348,-0.2588172,0.3918666,0.33932725,0.96180344,-0.4163475,1.482104,-2.7461889,0.10593861,-1.4609677,0.24763107,-0.2667656,0.98289204,0.7010759,-0.10529855,0.11762274,0.6953917,-0.16908176,-0.6954053,-0.5922617,1.0,0.0,0.0,0.0,0.0,0.0,0.0,-1.6118034,0.016347498,-0.93210393,44.888176,-49.122192,-37.700184,1.360774,-36.77526,-1.9465685,0.26102662
-0.9137454,-42.83901,-13.576818,3.1863878,1.8114825,-1.8679127,0.7558552,0.42401084,-0.74809295,-0.4549983,-0.7542274,-0.60293,0.59264094,0.4862328,0.98337305,-0.4086671,-1.4858024,-1.410146,2.4635189,1.5316215,-0.8948142,0.9415842,-0.34629133,-1.4466751,-1.3480079,2.51899,1.4762675,-0.940029,0.19705808,-1.3295184,-0.70982856,-1.3281597,-0.55622995,0.38918355,0.34168935,0.9343605,-0.41528702,1.4667689,-2.7434433,0.105832696,-1.557693,0.24613953,-0.2744789,0.97633946,0.7005871,-0.099402234,0.11577086,0.697061,-0.14392328,-0.7912263,-0.67837125,1.0,0.0,0.0,0.0,0.0,0.0,0.0,-1.5843605,0.015287012,-0.91676885,54.308693,-34.46717,-29.018736,0.09205341,-29.621452,-0.7115066,0.31371713
13.499874,-2.9064374,2.6552484,1.529571,0.0954389,-1.720524,0.77447945,0.47950494,-0.7749629,-0.56125224,-0.75361615,-0.57358354,0.6102847,0.39959285,0.98953474,-0.42378762,-1.5028002,-1.4233695,2.4616318,1.5372959,-0.9000697,0.94696486,-0.36095694,-1.4555194,-1.3613288,2.5120625,1.480187,-0.93666255,0.6463395,-1.5125531,-0.93823814,-1.3330703,-0.73789287,0.39160022,0.3355608,0.9069481,-0.41422653,1.4504672,-2.7407002,0.10572688,-1.6543216,0.24520493,-0.28261185,0.96905136,0.6993138,-0.09319217,0.113737896,0.69952774,-0.07716919,-0.81773007,-0.7498735,1.0,0.0,0.0,0.0,0.0,0.0,0.0,-1.5569481,0.014226526,-0.9004672,43.337585,-18.386412,-21.593307,-0.46260357,-18.04701,-0.08517504,-0.46148896
18.937029,22.258854,12.337883,3.432949,-0.5971001,-1.3692743,0.61205584,0.51005137,-0.79252136,-0.58789194,-0.7607717,-0.48743054,0.6087448,0.2893679,0.99797,-0.4402091,-1.5143087,-1.4374061,2.4633195,1.5410615,-0.90772575,0.95560706,-0.37653616,-1.4659469,-1.3747394,2.5042348,1.484141,-0.933442,0.93347645,-1.5732931,-1.0751429,-1.3439914,-0.797524,0.39581463,0.31807226,0.8795624,-0.41316986,1.4332,-2.73796,0.105621174,-1.7508535,0.2449646,-0.2907257,0.9612081,0.6973613,-0.08673281,0.1116243,0.7026411,-0.0028285205,-0.80295706,-0.80204856,1.0,0.0,0.0,0.0,0.0,0.0,0.0,-1.5295624,0.013169855,-0.8832,27.690363,-6.1357975,-12.935758,-1.1371136,-5.918908,0.20928383,-1.5911043
17.845272,34.941708,17.282343,8.383489,-0.50628805,-0.8001774,0.39369017,0.5130599,-0.7972303,-0.56978637,-0.75322866,-0.38128763,0.6128557,0.2237375,1.0069131,-0.4562592,-1.5229255,-1.4500623,2.466106,1.5454266,-0.91106826,0.96591914,-0.39215878,-1.47704,-1.3882148,2.4965672,1.4881445,-0.9304427,1.0628663,-1.5587778,-1.1201458,-1.3489019,-0.75675464,0.40163535,0.29425904,0.85220337,-0.412117,1.4149681,-2.7352228,0.10551558,-1.8472891,0.24531174,-0.29853058,0.95303196,0.69492394,-0.08012528,0.109362334,0.70618725,0.053569887,-0.76720905,-0.8300084,1.0,0.0,0.0,0.0,0.0,0.0,0.0,-1.5022033,0.012116998,-0.8649681,12.643433,1.3967752,-4.3387413,-0.53327084,4.0207267,0.50260425,-2.2508025
16.2834,40.832523,20.144361,12.123796,-0.24578685,-0.35852742,0.3002954,0.5471963,-0.79641634,-0.5494197,-0.75207055,-0.27135533,0.6038101,0.20759946,1.0206388,-0.47180042,-1.5319821,-1.4634218,2.4694316,1.5485256,-0.90968275,0.9768492,-0.40739277,-1.4880874,-1.4017093,2.4898267,1.4922014,-0.9276799,1.1034818,-1.5117201,-1.1002122,-1.3498254,-0.64729327,0.40699202,0.2707133,0.82487106,-0.41106415,1.3957726,-2.7324882,0.105410084,-1.9436281,0.24609375,-0.3059044,0.9447144,0.6921166,-0.0734707,0.10679023,0.710051,0.09272858,-0.72186863,-0.8397782,1.0,0.0,0.0,0.0,0.0,0.0,0.0,-1.474871,0.011064142,-0.84577256,4.1710377,4.6565533,1.8349409,-0.12216568,10.842646,0.54846406,-2.2353172
13.141312,39.16522,19.459747,14.377067,0.18004638,-0.14179222,0.24022892,0.57182837,-0.79978967,-0.5452231,-0.75681376,-0.17085047,0.58400327,0.22278224,1.034032,-0.48737174,-1.5426097,-1.4773906,2.4727416,1.5506017,-0.90540165,0.9878708,-0.42216042,-1.4987476,-1.4152172,2.4844441,1.4962927,-0.9251183,1.1025599,-1.4653065,-1.0553975,-1.3510785,-0.5023068,0.4099413,0.25169316,0.79756546,-0.4100113,1.3756144,-2.729756,0.105304696,-2.0398707,0.24715042,-0.31287384,0.9363503,0.68900824,-0.06679133,0.10373892,0.71417415,0.116473965,-0.68289703,-0.8422404,1.0,0.0,0.0,0.0,0.0,0.0,0.0,-1.4475654,0.010011286,-0.8256144,0.1689434,4.586649,4.219222,-0.11882782,14.378405,0.33496022,-1.7882526
11.619224,36.786484,18.10878,14.485677,0.06368685,-0.15155047,0.19869003,0.6082442,-0.79420376,-0.5624218,-0.75672513,-0.2478081,0.5620083,0.2680298,1.0486952,-0.5015808,-1.5549898,-1.4908897,2.4596634,1.5524936,-0.89831537,0.99888957,-0.43653992,-1.5090511,-1.4287326,2.480084,1.5003897,-0.9226903,1.102513,-1.4290178,-1.022664,-1.3513627,-0.41397923,0.40970165,0.24016348,0.7702904,-0.40895844,1.3544946,-2.727027,0.10519941,-2.136017,0.24844742,-0.31947327,0.927935,0.68563896,-0.06008654,0.10034229,0.7184846,0.14025044,-0.64587057,-0.8476299,1.0,0.0,0.0,0.0,0.0,0.0,0.0,-1.4202904,0.008958429,-0.80449456,0.23093224,3.5726786,3.0385256,0.0023841858,8.723492,-0.007688999,-1.0711551
10.813261,34.197403,16.677008,14.011643,-0.31905025,-0.19617577,0.14785883,0.63829035,-0.7927946,-0.57601684,-0.7482969,-0.41682315,0.576291,0.27436557,1.0627186,-0.5158194,-1.5666528,-1.5035623,2.4384017,1.5580188,-0.8952537,1.0100211,-0.45067242,-1.5191886,-1.4422061,2.475819,1.5044905,-0.9203538,1.1173041,-1.4081883,-1.0113994,-1.3457199,-0.4312178,0.40998805,0.23161633,0.7430382,-0.40790558,1.3324139,-2.7243006,0.10509423,-2.232067,0.2500267,-0.3256836,0.91941917,0.6820389,-0.053402074,0.096989654,0.72288597,0.16941585,-0.60620046,-0.85885763,1.0,0.0,0.0,0.0,0.0,0.0,0.0,-1.3930382,0.007905573,-0.7824139,1.6410828,2.0249605,0.94976425,0.6140709,-1.824826,0.0030219555,-0.8173734
7.6002493,28.04169,13.04627,14.05197,-0.15452081,-0.27673742,0.06564902,0.6449042,-0.8008804,-0.605223,-0.7443334,-0.44738543,0.57410705,0.28067884,1.0745115,-0.53076047,-1.579711,-1.5166395,2.4310806,1.5619012,-0.8922859,1.0213317,-0.4647372,-1.5294425,-1.4555995,2.4710698,1.5085875,-0.918085,1.1359365,-1.4061561,-1.0303944,-1.3369199,-0.48953876,0.40946814,0.22535355,0.7158165,-0.40685272,1.3093736,-2.7215767,0.104989156,-2.3280213,0.2518654,-0.33159637,0.9107345,0.67828137,-0.046715114,0.093893774,0.7272799,0.19424519,-0.57954323,-0.8773009,1.0,0.0,0.0,0.0,0.0,0.0,0.0,-1.3658165,0.006852716,-0.7593736,1.9860268,0.12943745,-2.028489,0.9711027,-5.956769,-0.12822151,-0.6083697
4.621318,23.736803,10.44853,14.895375,0.13816899,-0.25871414,-0.012828834,0.6464059,-0.80517685,-0.62730026,-0.7280969,-0.45832902,0.5941027,0.27547768,1.0859723,-0.5452549,-1.5921726,-1.5284092,2.425237,1.5679977,-0.8905372,1.0328044,-0.47886732,-1.5400302,-1.4688385,2.4656835,1.512694,-0.9158734,1.1514555,-1.4156114,-1.0686855,-1.3191227,-0.55517113,0.41069654,0.219763,0.6886215,-0.40580368,1.2853744,-2.7188556,0.104884185,-2.4238796,0.2538948,-0.33732986,0.90184766,0.67445165,-0.04000489,0.09107429,0.7315873,0.21127173,-0.5646257,-0.89795816,1.0,0.0,0.0,0.0,0.0,0.0,0.0,-1.3386215,0.0058036745,-0.7353744,1.6642094,-1.0350466,-3.9273024,1.9027472,-6.715572,0.026738644,-0.5488068
3.832942,23.57798,10.233021,14.909574,0.2073031,-0.20380276,-0.02394636,0.64068526,-0.8033567,-0.62852246,-0.7292986,-0.4746201,0.59395015,0.2595889,1.0968729,-0.55920297,-1.6028825,-1.5417683,2.4182215,1.572089,-0.8899145,1.0443591,-0.4931014,-1.5509784,-1.4819248,2.4596944,1.5168139,-0.9137219,1.157344,-1.4263227,-1.1038266,-1.3047509,-0.6138572,0.41191542,0.21354888,0.66145325,-0.40475845,1.2604173,-2.7161374,0.104779325,-2.5196419,0.256073,-0.34292984,0.89274716,0.67058384,-0.033253692,0.088501155,0.7357846,0.2252257,-0.55144006,-0.919498,1.0,0.0,0.0,0.0,0.0,0.0,0.0,-1.3114532,0.0047584474,-0.71041733,0.72233677,-1.1629343,-3.6284924,1.5732527,-6.0325265,0.020867586,-0.6091535
1.8217645,23.836786,10.243788,15.605961,0.28826356,-0.015915956,-0.04793053,0.5992901,-0.8044504,-0.61529964,-0.73175496,-0.5112895,0.5999654,0.27333015,1.1042881,-0.5735464,-1.6125084,-1.5551003,2.4085655,1.5768104,-0.8863889,1.0557421,-0.50743085,-1.5621307,-1.4949176,2.4531407,1.520949,-0.91161716,1.1324667,-1.4354396,-1.1196327,-1.297146,-0.6695637,0.41370958,0.20942143,0.6343117,-0.40371323,1.2345034,-2.7134218,0.10467457,-2.6153085,0.25832748,-0.34840012,0.8834432,0.6666995,-0.026465362,0.08616124,0.7398564,0.23140794,-0.53738666,-0.93944603,1.0,0.0,0.0,0.0,0.0,0.0,0.0,-1.2843117,0.0037132204,-0.6845034,-2.276206,-1.0042429,-1.7564774,0.9142637,-5.7547927,0.08890033,-0.40926933
0.40802813,24.636364,10.574069,16.061085,0.38342398,0.14532103,-0.057828017,0.5680473,-0.80559856,-0.61038315,-0.7345429,-0.5158094,0.6075467,0.2683733,1.1125469,-0.5879907,-1.623169,-1.5683719,2.4015598,1.5817037,-0.8847798,1.0667094,-0.5218294,-1.5733249,-1.5078895,2.4461446,1.525107,-0.9095515,1.0857298,-1.4416244,-1.1201837,-1.2965147,-0.7103273,0.41621068,0.20565695,0.6071968,-0.402668,1.2076334,-2.7107089,0.10456992,-2.7108796,0.26060104,-0.3537178,0.87395316,0.6628169,-0.019643182,0.08400554,0.743795,0.23099272,-0.52281713,-0.9574601,1.0,0.0,0.0,0.0,0.0,0.0,0.0,-1.2571968,0.0026679933,-0.65763336,-4.4085264,-0.7097721,-0.2748251,0.2278328,-4.2742133,0.172925,-0.37145317
-3.8130598,22.4991,8.713083,16.935516,0.7870229,0.2856267,-0.12879837,0.5038464,-0.80841374,-0.6173472,-0.7473838,-0.46831274,0.5963315,0.27520442,1.117094,-0.6026708,-1.6350596,-1.5826279,2.3993132,1.5847402,-0.8820311,1.0769576,-0.53627855,-1.5845077,-1.5209377,2.4389997,1.5292803,-0.90751255,1.0056516,-1.4463065,-1.1184548,-1.3068502,-0.7165401,0.41745946,0.20324896,0.58011246,-0.40162277,1.1798085,-2.7079988,0.10446537,-2.806355,0.26277924,-0.35897827,0.8642706,0.6590068,-0.0127258375,0.081902236,0.74755615,0.21744218,-0.5187261,-0.97689986,1.0,0.0,0.0,0.0,0.0,0.0,0.0,-1.2301124,0.0016227663,-0.6298085,-7.665205,-0.56710243,-0.098109245,-0.8358002,-0.8455992,0.055736303,-0.23432672
-9.318035,20.996424,7.150777,18.671432,1.1124921,0.5655714,-0.22745958,0.40243113,-0.80649704,-0.59704894,-0.7590227,-0.4771695,0.5867799,0.3025852,1.1172007,-0.6169282,-1.6442126,-1.5968399,2.3912828,1.5879583,-0.877254,1.0860442,-0.5507477,-1.5955703,-1.5341461,2.4318585,1.5334574,-0.90547454,0.8777965,-1.4474549,-1.1032763,-1.324844,-0.7142452,0.417628,0.20397136,0.553051,-0.40057755,1.1510295,-2.7052913,0.10436093,-2.9017348,0.2646942,-0.36423874,0.8544061,0.6553761,-0.0056837467,0.079786085,0.7510553,0.18742007,-0.52084357,-0.9945495,1.0,0.0,0.0,0.0,0.0,0.0,0.0,-1.203051,0.0005775392,-0.60102946,-12.337685,-0.22192001,1.176095,-1.5666962,-0.029087067,-0.03324747,0.06171167
-25.476437,11.681299,-0.69076943,23.839012,2.1588018,1.0456842,-0.6316383,0.19328536,-0.80707943,-0.61415565,-0.7638663,-0.49806103,0.58530796,0.2613013,1.1053728,-0.63145566,-1.6569859,-1.6105328,2.3820524,1.5919882,-0.8793444,1.0930709,-0.5652197,-1.6065681,-1.5475318,2.4247022,1.5376345,-0.9034604,0.6465772,-1.447627,-1.1003247,-1.3420925,-0.71716785,0.41758695,0.20035596,0.52602005,-0.39953232,1.1212975,-2.7025864,0.10425659,-2.9970193,0.26600266,-0.3697586,0.844354,0.65228605,0.0015289851,0.07766546,0.7539818,0.11580159,-0.55342335,-1.0135036,1.0,0.0,0.0,0.0,0.0,0.0,0.0,-1.17602,-0.00046768785,-0.57129747,-22.456038,-0.16686916,-0.16038418,-1.3819695,-0.65356493,-0.039696693,-0.43318272
-57.83252,-6.51197,-16.260515,34.100784,4.228614,1.9967339,-1.3926466,-0.2098057,-0.8021441,-0.6361919,-0.7762668,-0.5212693,0.583586,0.27889273,1.0720903,-0.64543414,-1.6701872,-1.6251585,2.3725753,1.595993,-0.87557113,1.0962237,-0.5796698,-1.6176841,-1.561095,2.4174352,1.5418078,-0.9014739,0.20861621,-1.4450752,-1.1177988,-1.3590432,-0.7317634,0.4170453,0.19746237,0.499012,-0.3984871,1.0906132,-2.6998844,0.10415236,-3.0922086,0.26598358,-0.37604523,0.8340841,0.65048146,0.009012618,0.07557785,0.7556988,-0.03845726,-0.6452246,-1.0358666,1.0,0.0,0.0,0.0,0.0,0.0,0.0,-1.149012,-0.0015129149,-0.54061323,-42.67728,-0.00021457672,-2.4483442,-1.1081934,-2.0498633,-0.118368864,-0.47403872
-68.56244,-11.357546,-20.904442,36.41072,5.026647,2.3078616,-1.572504,-0.4045292,-0.8037258,-0.6526569,-0.79846674,-0.4441909,0.49600387,0.27612868,1.0557708,-0.66004235,-1.6829498,-1.6409416,2.373016,1.5914081,-0.873861,1.0946311,-0.59410554,-1.6290729,-1.5748775,2.410252,1.5459028,-0.8995141,-0.27761647,-1.444235,-1.1486025,-1.3821503,-0.7162683,0.40623114,0.19502237,0.47203445,-0.3974495,1.058978,-2.697185,0.10404823,-3.1873028,0.26421356,-0.38339996,0.82355595,0.65033674,0.01690234,0.07338869,0.7559038,-0.22200379,-0.7577934,-1.0626473,1.0,0.0,0.0,0.0,0.0,0.0,0.0,-1.1220344,-0.0025505126,-0.50897795,-47.37228,-0.25279522,-3.8596392,-1.5727282,0.84079504,-1.2989819,-0.40681958
-54.929825,0.14570928,-11.795485,31.895937,4.046664,2.203784,-1.1428732,-0.45176324,-0.80615306,-0.6306978,-0.7964245,-0.44649175,0.48766956,0.37449738,1.0494548,-0.6747208,-1.6921427,-1.6545199,2.365603,1.5946698,-0.86206436,1.0889624,-0.6085499,-1.6406314,-1.5888374,2.4032407,1.5498816,-0.89749515,-0.66000617,-1.4455777,-1.160314,-1.3983128,-0.6979026,0.39396188,0.20389028,0.44508362,-0.3964119,1.0263923,-2.6944883,0.103944205,-3.282302,0.26084137,-0.39161682,0.8128069,0.65154546,0.025140721,0.07098397,0.7548626,-0.37674418,-0.83441424,-1.0828949,1.0,0.0,0.0,0.0,0.0,0.0,0.0,-1.0950836,-0.0035881102,-0.47639233,-37.211235,-0.45995712,-1.8288612,-0.9322643,1.1964083,-1.51456,0.8120179
-40.7132,10.3198395,-4.036953,26.495647,2.9657598,1.9214563,-0.7841967,-0.53723,-0.8038965,-0.6612175,-0.80000085,-0.4753655,0.49128032,0.4003606,1.0352395,-0.6889396,-1.7067531,-1.6688374,2.355704,1.5990096,-0.85745907,1.0803012,-0.622999,-1.6523693,-1.6029232,2.3963132,1.5537459,-0.8953618,-0.9322545,-1.4456036,-1.180023,-1.4099485,-0.6924216,0.3830566,0.21641852,0.41815948,-0.3953743,0.9928574,-2.6917944,0.103840284,-3.377206,0.2562027,-0.40037918,0.8018557,0.6536814,0.033646367,0.068365656,0.75292397,-0.49655744,-0.8782639,-1.1029882,1.0,0.0,0.0,0.0,0.0,0.0,0.0,-1.0681595,-0.004625708,-0.44285738,-26.451324,-0.2868414,-2.4765253,-0.57103634,0.009441376,-1.3892174,1.2332082
-31.03307,16.51492,0.853477,22.68623,2.361246,1.7123787,-0.57201535,-0.6348957,-0.80841035,-0.6900027,-0.80076826,-0.43587416,0.4924277,0.32885367,1.0168116,-0.70384,-1.7213695,-1.683,2.3527257,1.6029886,-0.8624764,1.0695189,-0.6374653,-1.6643875,-1.6170852,2.3895307,1.5575148,-0.8931607,-1.1247784,-1.447778,-1.2105781,-1.416569,-0.6751085,0.373984,0.22153369,0.39126205,-0.3943367,0.9583742,-2.6891031,0.10373647,-3.4720154,0.25053787,-0.40943146,0.79069555,0.65646464,0.042383242,0.06547101,0.7503141,-0.5935912,-0.90387386,-1.1239148,1.0,0.0,0.0,0.0,0.0,0.0,0.0,-1.041262,-0.0056633055,-0.4083742,-18.668865,-0.46405792,-3.4414768,-0.14081001,1.2769818,-1.1984587,0.53825676
-23.298992,22.36371,5.3264766,19.937763,1.9412267,1.5961812,-0.4342679,-0.7088249,-0.8060557,-0.7013878,-0.80060995,-0.3586303,0.47055444,0.19062245,0.9986364,-0.71807086,-1.7345263,-1.6971462,2.3536677,1.6045703,-0.8740985,1.0572432,-0.65193826,-1.6767147,-1.6312835,2.3831372,1.5611922,-0.89102066,-1.2602111,-1.4479588,-1.2410015,-1.4194381,-0.6284558,0.36458206,0.21170226,0.36439133,-0.3932991,0.92294365,-2.6864145,0.103632756,-3.5667298,0.24404144,-0.41864014,0.779343,0.6597235,0.05132379,0.06216907,0.74717176,-0.6738431,-0.9149509,-1.1424669,1.0,0.0,0.0,0.0,0.0,0.0,0.0,-1.0143913,-0.006700903,-0.37294364,-13.104558,-0.22890568,-3.3315182,0.15895367,4.290879,-1.2068868,-0.9160578
-16.537704,27.047014,9.492069,18.21273,1.7767717,1.5539739,-0.38850647,-0.74683124,-0.81328714,-0.6986439,-0.7902832,-0.20673828,0.47806895,-0.19698553,0.9825601,-0.73326695,-1.746579,-1.7103119,2.3624635,1.608999,-0.9107192,1.0439852,-0.66644174,-1.6892536,-1.6454475,2.3776402,1.5647932,-0.8892745,-1.3464661,-1.4517117,-1.2589728,-1.4139781,-0.5241307,0.35767895,0.16277061,0.3375473,-0.3922615,0.88656664,-2.6837287,0.10352914,-3.6613495,0.23682404,-0.42790604,0.7678499,0.66339433,0.060405713,0.058190133,0.7435543,-0.74247503,-0.91712624,-1.1549033,1.0,0.0,0.0,0.0,0.0,0.0,0.0,-0.9875473,-0.007738501,-0.33656663,-8.317161,-0.5512476,-1.9942045,0.9123087,10.157299,-0.9165764,-4.771167
-13.117954,30.231049,12.084488,18.553967,2.3045328,1.572308,-0.37076613,-0.7759224,-0.8088385,-0.7068626,-0.7656375,0.17266198,0.48600224,-0.4008067,0.966393,-0.7473256,-1.7599398,-1.7220112,2.3949065,1.6133934,-0.92935514,1.0301169,-0.68095857,-1.701926,-1.6594322,2.3742452,1.568339,-0.8881587,-1.399546,-1.4522673,-1.270269,-1.3924813,-0.2781201,0.3527325,0.09520723,0.31072998,-0.3912239,0.8492441,-2.6810455,0.10342563,-3.7558746,0.22892761,-0.4372635,0.756305,0.6674905,0.06959593,0.052949835,0.7394654,-0.812988,-0.92787117,-1.1577052,1.0,0.0,0.0,0.0,0.0,0.0,0.0,-0.96072996,-0.0087760985,-0.2992441,-5.091119,-0.21317005,-1.226902,2.4521828,24.411285,-0.73308945,-6.5505834
-8.850533,34.72486,15.206373,17.93534,2.2180092,1.5935371,-0.3222982,-0.78642344,-0.79663986,-0.71005905,-0.7480037,0.35827515,0.5228193,-0.48492578,0.95147455,-0.76062256,-1.7729319,-1.7342325,2.4100726,1.620621,-0.93665123,1.0159224,-0.6954153,-1.7146652,-1.6731327,2.3736844,1.5718733,-0.88773906,-1.425568,-1.4438926,-1.2753375,-1.3618613,0.017907992,0.35278305,0.02492512,0.28393936,-0.39019394,0.8109771,-2.678365,0.10332222,-3.8503053,0.22036743,-0.44670105,0.7447799,0.671982,0.078824125,0.046130303,0.73491424,-0.87728316,-0.9332382,-1.1541575,1.0,0.0,0.0,0.0,0.0,0.0,0.0,-0.93393934,-0.009806067,-0.2609771,-2.4611235,0.7035494,-0.5219698,3.2944202,29.507307,-0.20852685,-6.8107886
-5.1771216,40.223263,18.220776,16.151525,1.5307121,1.620723,-0.27380067,-0.8063207,-0.7687522,-0.71049196,-0.7503408,0.3945715,0.5375141,-0.49552298,0.93529034,-0.7722905,-1.7857144,-1.7481668,2.4131415,1.6256247,-0.9372914,1.0015334,-0.7096527,-1.7274215,-1.686589,2.3757558,1.5754267,-0.887967,-1.4430246,-1.4174109,-1.2756984,-1.3395686,0.27010044,0.3555604,-0.038056213,0.25717545,-0.38916397,0.7717664,-2.6756873,0.10321892,-3.9446416,0.21125793,-0.45604706,0.7333029,0.6767821,0.08801428,0.03792064,0.7299188,-0.9285344,-0.9199681,-1.1491034,0.0,1.0,0.0,0.0,0.0,0.0,0.0,-0.9071754,-0.010836035,-0.22176641,-1.6405582,2.535081,-0.020074844,2.4020433,25.1816,0.11309981,-6.132922
-3.2512164,42.49245,19.24121,14.492315,0.746918,1.5950745,-0.26309842,-0.81592065,-0.7573152,-0.72460294,-0.73951596,0.32802847,0.53233624,-0.515682,0.9199413,-0.78538424,-1.7998818,-1.7605406,2.4085586,1.6286603,-0.9395352,0.9870365,-0.72352827,-1.7408419,-1.7001003,2.3778827,1.5804377,-0.8881461,-1.4467576,-1.3699088,-1.4495031,-1.3889428,-0.03894785,0.7128996,0.04754586,0.23627472,-0.39104462,0.75021863,-1.2521739,-0.58118874,1.0535364,0.2016983,-0.4648819,0.7216578,0.68162066,0.096588,0.02956533,0.72469985,-0.97160447,-0.82322186,-1.2026284,0.0,1.0,0.0,0.0,0.0,0.0,0.0,-0.8862747,-0.008955389,-0.20021862,0.56278706,6.2345266,-34.06,-11.613703,-76.46221,71.061966,22.805912
72.71482,176.0,110.0,88.731926,-8.663971,9.725397,-0.48211265,-0.7277618,0.516635,0.6938659,0.73441595,-0.33895576,0.65732867,-0.38272437,0.9142603,-0.67186475,-1.6714553,-1.6266587,2.3439872,1.6461705,-0.92641854,0.97745025,-0.73421496,-1.7555491,-1.7035646,2.3668838,1.595973,-0.88581157,-0.8006111,-0.9683503,-1.4627274,-0.0017067366,-1.4289979,1.8300462,0.28726465,0.22406387,-0.39696884,0.76173943,-1.2509218,-0.58060765,0.9542972,0.1926384,-0.47069168,0.71388817,0.68645424,0.09552073,0.028493429,0.72030866,-0.8899345,-0.48901224,-0.634161,0.0,1.0,0.0,0.0,0.0,0.0,0.0,-0.87406385,-0.0030311644,-0.21173942,63.388027,40.337708,0.9539366,137.0773,-137.58797,114.14852,22.195461
14.919719,146.36032,96.19376,91.60171,-1.1233261,7.3736153,-0.70387554,-0.7960207,-0.43968967,0.37461278,0.8004453,-0.62383866,0.5577023,-0.31103095,0.8978482,-0.77818394,-1.7180878,-1.6235201,2.3044999,1.6517433,-0.91691464,0.9695176,-0.74233645,-1.764855,-1.6962996,2.3502288,1.6142569,-0.8831632,-0.7908086,-0.76132727,-0.7502191,0.968154,-1.7476269,1.8339633,0.2563934,0.21156311,-0.402771,0.77053076,-1.2496712,-0.58002716,0.8540919,0.18364716,-0.4745407,0.71165156,0.69190544,0.08688272,0.031358097,0.7160551,-0.90279955,-0.33968455,-0.0900581,1.0,0.0,0.0,0.0,0.0,0.0,0.0,-0.8615631,0.0027709901,-0.22053075,0.9727478,20.32255,72.10841,96.65774,-32.832455,2.2383451,-3.37196
-18.888935,108.42963,57.220768,72.777756,1.9666698,4.802428,-1.2761695,-0.78509355,-0.23625223,-0.15908979,0.7645377,-0.6664435,0.6285906,-0.17970178,0.89100826,-0.76596165,-1.780764,-1.6198457,2.2835844,1.6771159,-0.9011334,0.96047294,-0.7482702,-1.7692496,-1.6821146,2.333013,1.631484,-0.88096786,-0.940447,-0.5386845,-0.33627474,1.5695084,-1.716287,1.689059,0.20773402,0.1990776,-0.40856552,0.77832085,-1.2484218,-0.57944727,0.75398684,0.17405319,-0.47763824,0.7133563,0.6984283,0.07453636,0.035775688,0.71088845,-0.97827965,-0.29276174,0.2518719,1.0,0.0,0.0,0.0,0.0,0.0,0.0,-0.8490776,0.008565515,-0.22832084,-14.410294,21.89119,41.24956,60.36942,2.0985126,-13.481593,-4.734573
-15.499435,112.07794,52.062233,49.02355,0.7040827,3.4546971,-0.98376393,-0.7849727,0.060989317,-0.016633816,0.7951502,-0.6545237,0.6079151,-0.1561448,0.88197565,-0.7421713,-1.7709129,-1.6025996,2.2675607,1.6922755,-0.89658237,0.9494895,-0.7512571,-1.7702662,-1.6645937,2.3173385,1.6469412,-0.87927985,-1.1497078,-0.21985935,-0.024783054,1.8133618,-1.5209491,1.5002006,0.15580936,0.18659973,-0.41435623,0.7851106,-1.2471735,-0.5788679,0.6539818,0.16397476,-0.4799881,0.7176788,0.70581496,0.060725387,0.04114622,0.7045883,-1.0187987,-0.20885336,0.48603722,1.0,0.0,0.0,0.0,0.0,0.0,0.0,-0.8365997,0.014356226,-0.23511058,-20.554495,31.528006,30.760485,24.511576,18.578339,-18.209576,-5.202222
-37.340157,41.842403,4.413295,26.539152,2.7958994,0.86076725,-1.1740376,-0.8147967,-0.12279355,-0.3752048,0.7809305,-0.65323836,0.6376383,-0.3191531,0.8680098,-0.76353645,-1.8077867,-1.5865006,2.2520146,1.710705,-0.91119516,0.93655765,-0.7524778,-1.7711378,-1.6465197,2.3037848,1.6606245,-0.8781841,-1.340294,-0.08989613,-0.109033115,1.8058581,-1.3004067,1.3250825,0.09426438,0.17413712,-0.4201393,0.79090106,-1.2459266,-0.57828915,0.5540768,0.15320206,-0.48236847,0.7225617,0.7140996,0.047687594,0.046670265,0.69685686,-1.0987898,-0.23797032,0.48353675,1.0,0.0,0.0,0.0,0.0,0.0,0.0,-0.8241371,0.020139307,-0.24090105,-18.84768,12.899521,-8.78724,-0.65026283,21.994257,-17.235828,-6.1441617
-36.844025,4.4889517,-15.148295,11.890014,3.0146651,-0.49895823,-0.88259685,-0.8127415,-0.19675313,-0.41767412,0.78274906,-0.65272045,0.6509116,-0.3551342,0.8552835,-0.77215314,-1.8129052,-1.5682447,2.2385128,1.7257156,-0.9136975,0.92223537,-0.75351447,-1.7739283,-1.6293898,2.2921233,1.6727419,-0.8776767,-1.4624429,-0.10813433,-0.33659616,1.6822546,-1.1203976,1.1739877,0.036273196,0.16168976,-0.42591858,0.7956932,-1.244681,-0.577711,0.4542716,0.1416626,-0.48535156,0.72656125,0.7231426,0.036671713,0.051723063,0.68778235,-1.1741226,-0.30927163,0.36781576,1.0,0.0,0.0,0.0,0.0,0.0,0.0,-0.81168973,0.025918573,-0.2456932,-12.075019,-1.8033832,-22.973946,-12.308168,18.183279,-15.047145,-5.799875
-23.821701,1.2121758,-11.742697,6.038708,2.1367311,-0.7468366,-0.43783912,-0.80778223,-0.19121964,-0.34916976,0.7920064,-0.6244466,0.65024406,-0.34031993,0.8414571,-0.7726364,-1.8088453,-1.5501891,2.2296786,1.7377663,-0.9117087,0.9072236,-0.75517005,-1.7787062,-1.6135988,2.2819,1.6835299,-0.8776748,-1.5137826,-0.18472333,-0.52513033,1.5451276,-0.98981,1.0471225,-0.011840688,0.14925003,-0.43169022,0.79948807,-1.2434366,-0.5771334,0.35456625,0.12958908,-0.488945,0.72933966,0.7325719,0.027742995,0.05610688,0.67780584,-1.2206659,-0.36550105,0.2446689,1.0,0.0,0.0,0.0,0.0,0.0,0.0,-0.79925,0.03169021,-0.24948806,-5.0429344,-7.6369286,-18.943298,-13.656187,13.110328,-12.685919,-4.813737
-10.57484,10.7358885,-1.2580565,5.5774164,1.215517,-0.49121952,-0.088754304,-0.80288434,-0.20562543,-0.30294073,0.7964658,-0.6105934,0.6574322,-0.35948524,0.8269352,-0.7757326,-1.8090003,-1.5339522,2.2208407,1.7492731,-0.91362333,0.89208305,-0.7577097,-1.7846438,-1.5989084,2.272615,1.6932211,-0.8781059,-1.51399,-0.27706972,-0.6164712,1.4437882,-0.90834326,0.943287,-0.053574502,0.13682556,-0.43745804,0.8022866,-1.2421933,-0.5765564,0.25496057,0.117256165,-0.49287796,0.7311327,0.7420317,0.020385163,0.059874106,0.6673744,-1.2396472,-0.39122406,0.15496865,1.0,0.0,0.0,0.0,0.0,0.0,0.0,-0.78682554,0.037458032,-0.2522866,0.0103235245,-9.243473,-9.110165,-10.082817,8.033693,-10.3513,-4.176047
-1.3835452,20.662874,8.637673,7.374961,0.6604806,-0.07893652,0.16062236,-0.7981419,-0.25789422,-0.24277133,0.7949447,-0.59773254,0.6606262,-0.36406958,0.81226885,-0.7834991,-1.8089209,-1.519414,2.2128417,1.7592837,-0.9145128,0.87714183,-0.7612564,-1.7906862,-1.5848894,2.2638793,1.7020197,-0.8789041,-1.4875922,-0.38073137,-0.59968096,1.3882505,-0.8632321,0.8589905,-0.08857149,0.12441254,-0.44321823,0.80408984,-1.2409514,-0.57597995,0.1554545,0.10487366,-0.49687195,0.73231995,0.75125647,0.013947031,0.06308343,0.6568406,-1.2419852,-0.39075777,0.104361705,1.0,0.0,0.0,0.0,0.0,0.0,0.0,-0.7744125,0.043218225,-0.25408983,2.62146,-10.406017,1.7995715,-5.5145264,4.2782664,-8.34173,-3.4921095
5.4262333,33.16859,18.528564,10.141302,0.23512661,0.38504076,0.31948373,-0.7924905,-0.2918359,-0.14390703,0.79856074,-0.5834142,0.6522099,-0.38037694,0.7978928,-0.79043996,-1.805077,-1.5050334,2.2055378,1.7672406,-0.9169418,0.862522,-0.7657692,-1.7957884,-1.5711203,2.2554297,1.7100878,-0.8800199,-1.4535309,-0.47503093,-0.47978753,1.3732023,-0.8398046,0.7898338,-0.11917675,0.112010956,-0.4489746,0.8048988,-1.2397107,-0.5754041,0.05604792,0.09254837,-0.50065994,0.7333158,0.7600684,0.007801435,0.06581599,0.64645433,-1.2312988,-0.36418316,0.09559828,1.0,0.0,0.0,0.0,0.0,0.0,0.0,-0.76201093,0.048974603,-0.2548988,3.3501625,-9.506893,12.183332,-1.4950514,1.9993424,-6.7679167,-3.0553074
13.561475,44.66269,28.705029,11.168715,-0.26481876,0.8206511,0.57240236,-0.775781,-0.3540941,0.051587623,0.7873622,-0.58421296,0.6490719,-0.37430346,0.78494394,-0.8011786,-1.7906296,-1.4923841,2.1970084,1.774995,-0.91745025,0.84826744,-0.77125376,-1.7987448,-1.5573797,2.2470946,1.7175589,-0.88139796,-1.4163432,-0.57327145,-0.23329785,1.3742136,-0.8334529,0.7335822,-0.14399578,0.099624634,-0.45472336,0.8047144,-1.2384713,-0.5748288,-0.043259274,0.08046341,-0.5039749,0.73450154,0.7682485,0.0013499528,0.06806987,0.6365209,-1.2033768,-0.3094888,0.12358347,1.0,0.0,0.0,0.0,0.0,0.0,0.0,-0.7496246,0.054723352,-0.25471437,3.6286116,-9.929442,24.918503,0.06651878,0.15671253,-5.4061294,-2.4692953
15.112759,47.26081,30.8866,11.507362,-0.3251985,0.9159745,0.638055,-0.762556,-0.41320503,0.16124967,0.77696216,-0.59484726,0.6403919,-0.3429243,0.7720118,-0.81257427,-1.7826198,-1.4796835,2.18761,1.7815981,-0.9156904,0.8343648,-0.7777445,-1.7989699,-1.5436125,2.2387252,1.7245378,-0.8829677,-1.3817714,-0.6746862,0.048616126,1.3775423,-0.8396846,0.68679893,-0.16119294,0.087249756,-0.4604683,0.80353767,-1.237233,-0.5742541,-0.14246719,0.068683624,-0.506691,0.7360284,0.77569747,-0.005708166,0.069839485,0.62720275,-1.1722935,-0.24948661,0.1596122,1.0,0.0,0.0,0.0,0.0,0.0,0.0,-0.73724973,0.060468286,-0.25353765,3.4037113,-10.2522135,28.443003,0.30522346,-1.1309266,-4.447341,-1.6965598
11.602171,43.113052,25.88729,11.169664,-0.14019887,0.6237363,0.50796664,-0.73674273,-0.4491282,0.16288276,0.7691476,-0.62522095,0.6348201,-0.29796743,0.7606905,-0.8226573,-1.7826816,-1.4666977,2.176203,1.7880199,-0.91276443,0.820835,-0.7851612,-1.7969347,-1.5298376,2.230184,1.7311068,-0.88464904,-1.3434023,-0.7643603,0.25572124,1.37732,-0.86041105,0.6476142,-0.17033069,0.07488632,-0.4662056,0.8013667,-1.235996,-0.57368,-0.24196963,0.057170868,-0.50891113,0.7377766,0.7825041,-0.013257878,0.07122716,0.6184159,-1.1469178,-0.20408453,0.17678815,1.0,0.0,0.0,0.0,0.0,0.0,0.0,-0.7248863,0.06620559,-0.25136667,3.8281918,-9.061384,20.891956,-0.016903877,-2.4918675,-3.70605,-0.89375675
5.708397,31.69961,16.664598,9.8243,0.27393553,0.17608619,0.34044644,-0.7073721,-0.516899,0.14675184,0.75365317,-0.642961,0.6265724,-0.25325295,0.75009775,-0.8368511,-1.7822596,-1.4544723,2.165888,1.793764,-0.90997434,0.8077353,-0.7935268,-1.7936236,-1.5161448,2.221395,1.7373266,-0.88636756,-1.2988045,-0.86083513,0.3565265,1.3668854,-0.88592637,0.61405337,-0.17222387,0.06253815,-0.4719391,0.79820144,-1.2347603,-0.5731064,-0.34137264,0.0458107,-0.51086426,0.7394342,0.78883505,-0.02094427,0.07228696,0.6099796,-1.1352804,-0.18526193,0.15884706,1.0,0.0,0.0,0.0,0.0,0.0,0.0,-0.7125381,0.07193908,-0.24820143,4.469943,-9.708225,10.201865,-0.99766254,-2.8344512,-3.186667,-0.15419126
2.3390665,26.698874,11.003332,9.0357275,0.4772814,-0.17320555,0.18842027,-0.673351,-0.5429593,0.12670977,0.74590796,-0.63824075,0.6279097,-0.23087537,0.7404002,-0.8478228,-1.7809526,-1.441554,2.1575708,1.8001176,-0.9094551,0.795143,-0.8027355,-1.7899939,-1.502593,2.2124038,1.7432547,-0.88807654,-1.246135,-0.9410109,0.36534268,1.3515811,-0.9037526,0.5861682,-0.17040066,0.0501976,-0.47766495,0.7940428,-1.2335258,-0.5725334,-0.44067627,0.034519196,-0.51276016,0.7407496,0.7948551,-0.028433345,0.073084705,0.60171044,-1.1300874,-0.18362507,0.11914875,1.0,0.0,0.0,0.0,0.0,0.0,0.0,-0.7001976,0.07766494,-0.24404281,5.26309,-8.061361,0.9687245,-1.461029,-1.9645452,-2.6392221,0.21328628
-1.1324906,21.940575,6.06053,8.715028,0.697066,-0.43929893,0.052190337,-0.6439458,-0.57931274,0.079952195,0.74068356,-0.6383135,0.6213167,-0.20961237,0.7307484,-0.86066675,-1.7819986,-1.4285247,2.1485724,1.8053863,-0.90903777,0.7831019,-0.8126661,-1.7868334,-1.4891939,2.2032905,1.7489347,-0.88974833,-1.1902283,-1.0105752,0.29999357,1.3361986,-0.91382056,0.5622676,-0.16594805,0.037872314,-0.483387,0.788892,-1.2322925,-0.571961,-0.53988063,0.023227692,-0.51475143,0.7415383,0.8007123,-0.035455752,0.07367885,0.5934426,-1.132592,-0.1968902,0.061968382,1.0,0.0,0.0,0.0,0.0,0.0,0.0,-0.6878723,0.08338699,-0.23889196,5.578041,-6.9885135,-6.4753056,-1.4373541,-1.1033177,-2.266121,0.47686994
-10.043936,9.734929,-4.910511,8.884585,1.2521461,-0.8988131,-0.24480736,-0.6149986,-0.61170214,-0.13544878,0.74318874,-0.62874854,0.6138313,-0.1855213,0.7216021,-0.87383634,-1.8003783,-1.414875,2.1404157,1.8103179,-0.90830046,0.77162254,-0.82322234,-1.785422,-1.4758959,2.194158,1.7543974,-0.8913572,-1.1338848,-1.0705848,0.0881245,1.3281201,-0.9125675,0.5411307,-0.1591603,0.025558472,-0.4891014,0.78274983,-1.2310605,-0.57138914,-0.63898575,0.011741638,-0.5171051,0.74148625,0.8066625,-0.041553874,0.074148946,0.5848681,-1.1565088,-0.24134086,-0.031312484,0.0,1.0,0.0,0.0,0.0,0.0,0.0,-0.67555845,0.089101404,-0.23274982,5.6319714,-6.003952,-21.20179,-0.62732697,0.21282434,-2.0488858,0.7170886
-13.425154,7.2749662,-8.122935,9.399313,1.4034877,-1.0176048,-0.37776297,-0.5885297,-0.6313003,-0.24864611,0.7508836,-0.6215399,0.6135768,-0.20562994,0.71276957,-0.88635236,-1.8102865,-1.4008075,2.132004,1.8157551,-0.9119202,0.7606877,-0.83428115,-1.7865397,-1.4625998,2.1850905,1.7596731,-0.8929174,-1.08001,-1.1176225,-0.17844465,1.330789,-0.90439814,0.5229745,-0.15491384,0.013256073,-0.494812,0.77561736,-1.2298297,-0.5708179,-0.73799175,-3.8146973e-05,-0.5199661,0.74043345,0.8128744,-0.04646269,0.074578285,0.5757728,-1.1882181,-0.29347417,-0.13387066,0.0,1.0,0.0,0.0,0.0,0.0,0.0,-0.66325605,0.094812006,-0.22561735,5.4132223,-4.7110558,-26.710302,0.50697327,0.96594095,-1.8007755,0.4590392
-17.548342,6.2135673,-9.637551,10.422403,1.569849,-0.91083443,-0.4772247,-0.5848474,-0.6587404,-0.3672108,0.7547476,-0.6069999,0.62263954,-0.26434803,0.702203,-0.9001552,-1.8232608,-1.387125,2.1243906,1.8219371,-0.9193522,0.7501639,-0.8457748,-1.7904192,-1.4492292,2.1761527,1.7647924,-0.8944862,-1.0429114,-1.1600859,-0.458308,1.340072,-0.88965094,0.50823253,-0.15734433,0.0009689331,-0.500515,0.7674956,-1.2286,-0.5702472,-0.8368988,-0.01222229,-0.52334213,0.7383429,0.8194393,-0.05010723,0.07500267,0.5660239,-1.2305734,-0.34485462,-0.23850536,0.0,1.0,0.0,0.0,0.0,0.0,0.0,-0.6509689,0.10051498,-0.21749556,3.7938833,-4.27022,-28.081995,1.2344122,1.6459584,-1.5168548,-0.20570755
-19.64604,9.826825,-7.458895,11.079888,1.535176,-0.5887134,-0.46258467,-0.59517395,-0.67972624,-0.44625062,0.7444453,-0.588795,0.63302416,-0.30284742,0.6906465,-0.91374743,-1.8350443,-1.3747847,2.117273,1.8280948,-0.92477095,0.7398658,-0.85765207,-1.7970109,-1.4358981,2.1670759,1.7694064,-0.8963473,-1.0250356,-1.1969957,-0.72704375,1.3316888,-0.9121843,0.44917843,-0.1946254,-0.014213562,-0.5028229,0.7651957,-1.599413,-0.12388569,-0.009527633,-0.024765015,-0.5271988,0.7352007,0.8264189,-0.052264657,0.07556124,0.55550927,-1.2647516,-0.39051163,-0.34434906,0.0,1.0,0.0,0.0,0.0,0.0,0.0,-0.6357864,0.10282287,-0.21519572,1.3250589,-3.886342,-24.203682,0.6816864,1.9779325,-1.1068344,-0.73115826
-31.121523,57.80115,11.290953,23.950136,1.0830796,0.7435707,-0.6907474,-0.75388885,-0.38403565,-0.4960332,0.8058919,-0.6036236,0.60473317,-0.16478501,0.6644769,-0.89605564,-1.8466142,-1.3553089,2.1067135,1.8298798,-0.91282576,0.7288575,-0.8684162,-1.805594,-1.4223025,2.1580122,1.7738124,-0.89825463,-1.1250848,-1.037115,-0.9026175,1.3694283,-0.90483004,0.4376825,-0.19012068,-0.030193329,-0.50405884,0.76435316,-1.597814,-0.12376183,-0.10916301,-0.03774643,-0.5309067,0.73183864,0.83382136,-0.053504914,0.07693756,0.54402184,-1.311038,-0.35557842,-0.3386294,0.0,1.0,0.0,0.0,0.0,0.0,0.0,-0.61980665,0.10405883,-0.21435314,-9.726167,15.749884,-17.694675,3.982687,0.57479143,-1.1783302,0.22874177
-32.198853,63.18059,15.333592,25.468967,1.2199973,1.1649818,-0.63111585,-0.76363,-0.4183157,-0.5420731,0.8076237,-0.5713108,0.6011834,-0.24061155,0.65249455,-0.91024774,-1.8598013,-1.3415401,2.100881,1.8339307,-0.9223158,0.716743,-0.8776449,-1.8154321,-1.408314,2.149143,1.7781497,-0.90014195,-1.2394216,-0.8856872,-1.0109785,1.4092134,-0.8817975,0.43219873,-0.18906526,-0.046157837,-0.5052948,0.76252335,-1.5962164,-0.12363809,-0.20757556,-0.051231384,-0.534153,0.7286837,0.8415685,-0.05423562,0.079233795,0.53154755,-1.3620118,-0.30422688,-0.31233177,0.0,1.0,0.0,0.0,0.0,0.0,0.0,-0.60384214,0.105294794,-0.21252334,-11.185074,14.860439,-10.869539,4.1466713,2.0235062,-0.6496668,-0.12124181
-30.413101,59.103485,15.054668,23.642254,1.2977061,1.2316282,-0.51148814,-0.7863201,-0.4229291,-0.5978576,0.8029564,-0.5504098,0.61693716,-0.26883262,0.638111,-0.9199378,-1.8752178,-1.3280183,2.094102,1.8398434,-0.9270252,0.7035632,-0.8856729,-1.8260884,-1.3940203,2.1405637,1.7824641,-0.9020331,-1.343626,-0.77608526,-1.0836415,1.4367875,-0.85104483,0.43066323,-0.18972348,-0.062107086,-0.50653076,0.7597102,-1.5946206,-0.12351448,-0.3058897,-0.06522751,-0.5368881,0.7257399,0.8495356,-0.054602366,0.08220461,0.5182183,-1.4130999,-0.25154245,-0.29214466,0.0,1.0,0.0,0.0,0.0,0.0,0.0,-0.5878929,0.106530756,-0.20971018,-10.225868,10.680353,-7.2152376,2.9222488,2.7639031,-0.30973554,-0.25509596
-17.043732,63.312,20.148174,18.902159,0.63656926,1.0863025,-0.20586254,-0.77026296,-0.3714858,-0.5897121,0.8028632,-0.5607527,0.620226,-0.24127418,0.6265369,-0.9228215,-1.8850596,-1.313734,2.0844884,1.8444867,-0.9261605,0.6896987,-0.8927654,-1.8370957,-1.3795607,2.1322134,1.7867748,-0.9039118,-1.4004751,-0.6878592,-1.1059363,1.4493833,-0.8304822,0.43078166,-0.18783896,-0.07804108,-0.5077667,0.7559146,-1.5930263,-0.123390995,-0.40410557,-0.07948685,-0.53904724,0.72302437,0.85748744,-0.05474987,0.08569454,0.5043551,-1.4317467,-0.19281082,-0.2678608,0.0,1.0,0.0,0.0,0.0,0.0,0.0,-0.5719589,0.10776672,-0.20591462,-5.6302547,8.564556,-2.0446777,1.3082266,1.681292,-0.108772516,-0.0011354685
-4.6978455,59.338974,21.797184,13.706195,0.24249417,0.8101846,0.07035951,-0.7493042,-0.3941802,-0.5594072,0.80142534,-0.5698011,0.63218606,-0.24864724,0.61476827,-0.93218344,-1.8930365,-1.2994182,2.0752332,1.8499933,-0.92877656,0.6756387,-0.89939535,-1.8479638,-1.365063,2.123985,1.7911006,-0.90577435,-1.4079751,-0.6552995,-1.0797395,1.4498615,-0.82161963,0.43297997,-0.18616156,-0.09395981,-0.5090027,0.75112444,-1.5914335,-0.12326763,-0.50398076,-0.09375763,-0.54068756,0.7204697,0.8651955,-0.05482686,0.08945882,0.4903343,-1.4268274,-0.1409759,-0.25405204,0.0,1.0,0.0,0.0,0.0,0.0,0.0,-0.55604017,0.10900268,-0.20112443,-0.79865456,3.0523539,2.8949738,0.043082237,0.51271915,0.15531778,0.022867322
0.93311214,51.94819,19.76034,10.227169,0.08734724,0.5287963,0.21336755,-0.74130195,-0.4076485,-0.57277906,0.8019611,-0.5889824,0.631396,-0.17707372,0.6015085,-0.9401602,-1.9052417,-1.2848668,2.0650868,1.8542402,-0.9234817,0.6617198,-0.90600526,-1.858542,-1.3506014,2.1157415,1.7954513,-0.9075663,-1.3867993,-0.66343206,-1.049523,1.4449042,-0.82632846,0.43549925,-0.17715274,-0.10986328,-0.510231,0.74533623,-1.5898424,-0.12314438,-0.60375607,-0.107910156,-0.541893,0.71792316,0.87254035,-0.05484739,0.09331589,0.47640035,-1.4128833,-0.1012421,-0.25719506,0.0,1.0,0.0,0.0,0.0,0.0,0.0,-0.5401367,0.11023101,-0.19533622,2.039814,-0.9698987,3.3062935,-0.4966259,-0.7942319,0.22218227,0.79152584
-0.079949856,38.40231,13.482106,8.153643,0.3352692,0.22791696,0.22140959,-0.73304945,-0.45613366,-0.61025524,0.8033718,-0.57831997,0.6066616,-0.10708116,0.58841485,-0.9516186,-1.9195675,-1.2702643,2.0579095,1.8561175,-0.9182744,0.64811647,-0.9130365,-1.8691432,-1.3362219,2.1076753,1.8001863,-0.90909517,-1.351583,-0.71685183,-1.0628301,1.4360077,-0.8026086,0.48297876,-0.14647992,-0.12397766,-0.51163864,0.74168366,-1.3709576,-0.13576695,-0.28603482,-0.12206268,-0.54280853,0.7150972,0.87949973,-0.0548276,0.097003646,0.46267086,-1.4157639,-0.076207094,-0.29336697,0.0,1.0,0.0,0.0,0.0,0.0,0.0,-0.5260223,0.111638635,-0.19168365,3.3736467,-5.526793,0.11754036,-0.44634342,-0.6586909,-0.29295683,1.3529718
6.436277,50.806107,20.159454,8.296452,0.061490685,0.3284213,0.29240912,-0.7084353,-0.40985802,-0.5256075,0.80802846,-0.54479617,0.6146938,-0.14476854,0.57727295,-0.95402235,-1.921704,-1.2554191,2.0531957,1.8616557,-0.923572,0.63493377,-0.920397,-1.8794638,-1.3218806,2.0997028,1.8050044,-0.91049695,-1.3075826,-0.7429757,-1.0206882,1.4334686,-0.7964276,0.48129237,-0.13834332,-0.1379242,-0.5126457,0.7387963,-1.4025576,-0.087781645,-0.28923264,-0.136055,-0.5434303,0.71212655,0.8860655,-0.05477186,0.10055708,0.44919512,-1.3925656,-0.045154195,-0.30076256,0.0,1.0,0.0,0.0,0.0,0.0,0.0,-0.5120758,0.112645715,-0.18879628,4.292083,-2.7473688,4.5235395,-0.26853085,0.31381845,-0.20216107,0.7409543
6.197246,54.747356,22.396944,9.371479,0.17921558,0.45269334,0.2831493,-0.7114366,-0.43365902,-0.45861402,0.8038112,-0.5268002,0.6102609,-0.17112418,0.5637901,-0.9637629,-1.9253252,-1.2414994,2.0470228,1.8660305,-0.9276094,0.6220935,-0.9280197,-1.8890448,-1.3075621,2.0918481,1.8098135,-0.9118398,-1.2766356,-0.76929986,-0.9361839,1.431111,-0.78296316,0.48091358,-0.13310744,-0.15185165,-0.51332855,0.7359654,-1.3884205,-0.06273007,-0.2810099,-0.1498146,-0.54369736,0.70917225,0.89223385,-0.054845314,0.1039492,0.43601063,-1.3701963,-0.008396424,-0.2962133,0.0,1.0,0.0,0.0,0.0,0.0,0.0,-0.49814832,0.11332855,-0.18596536,2.9800415,-2.7805328,8.798229,-0.25565624,0.99487305,0.024169683,0.47061145
6.1299176,60.20497,24.974064,10.405127,0.28128916,0.5893728,0.27748865,-0.7086957,-0.4374741,-0.38622403,0.7942898,-0.4929286,0.60909325,-0.18257023,0.55122393,-0.9717671,-1.9276671,-1.2281331,2.0425553,1.8707228,-0.9300968,0.60946494,-0.9358379,-1.8975172,-1.2933029,2.084215,1.8146129,-0.9131494,-1.2586471,-0.78661805,-0.81644374,1.4239291,-0.75812507,0.4792737,-0.13041666,-0.1655922,-0.5137291,0.7333079,-1.3688555,-0.030708417,-0.26122063,-0.16334534,-0.5435524,0.7063605,0.8980133,-0.055215873,0.107125506,0.42314,-1.346261,0.034507792,-0.27875975,0.0,1.0,0.0,0.0,0.0,0.0,0.0,-0.48440778,0.11372909,-0.18330789,1.6822338,-1.8941879,12.351966,-0.75120926,2.0501256,-0.1546979,0.20726323
11.56711,68.94243,29.797768,10.202322,0.06352806,0.6435263,0.37647966,-0.6797305,-0.42968735,-0.2766737,0.790331,-0.49805102,0.6144772,-0.1147581,0.54149187,-0.9788067,-1.9251846,-1.2142698,2.0344098,1.8760606,-0.9246252,0.59706146,-0.9437248,-1.9044752,-1.2791334,2.0767922,1.819414,-0.9143867,-1.2347963,-0.789955,-0.65418124,1.4143398,-0.73847044,0.48031083,-0.121719584,-0.17908478,-0.5138054,0.73099023,-1.3428113,0.0013128932,-0.22252198,-0.17652512,-0.54291534,0.70385414,0.90335673,-0.05607621,0.11011122,0.41070375,-1.3064413,0.083300814,-0.24385695,0.0,1.0,0.0,0.0,0.0,0.0,0.0,-0.4709152,0.11380538,-0.18099022,2.2355556,-0.5050063,16.661692,-1.0438204,1.469481,0.12529492,0.7981688
2.054534,61.48967,24.050087,12.007717,0.53187895,0.5965161,0.20503986,-0.7100482,-0.4518106,-0.28311694,0.7839381,-0.47365004,0.59213793,-0.13869374,0.52605665,-0.98890585,-1.932787,-1.2007396,2.0294273,1.8786278,-0.92825603,0.58470184,-0.9516966,-1.9101324,-1.2650687,2.0695908,1.8241975,-0.9155605,-1.2365686,-0.800187,-0.53522897,1.403951,-0.71530455,0.47766575,-0.116090044,-0.19237137,-0.5135765,0.72893184,-1.3238984,0.030683076,-0.20087616,-0.18946457,-0.5418396,0.70158136,0.9083547,-0.057327587,0.11290501,0.39856955,-1.2891086,0.12567146,-0.2243144,0.0,1.0,0.0,0.0,0.0,0.0,0.0,-0.4576286,0.1135765,-0.17893183,-0.24454594,-1.1832237,12.223721,-1.0285378,1.9042969,-0.24358034,0.520283
2.4529653,62.620644,23.87339,11.746212,0.448228,0.52716756,0.21881324,-0.69538593,-0.4435537,-0.21808769,0.7734289,-0.4793037,0.5963613,-0.07379495,0.51516324,-0.99605197,-1.9319412,-1.1877258,2.0216603,1.8838336,-0.92293996,0.57233393,-0.9597141,-1.9146948,-1.2511336,2.0625634,1.8289584,-0.91663694,-1.2370114,-0.8028076,-0.42881542,1.3901507,-0.6998481,0.4754675,-0.104974814,-0.2054596,-0.5130539,0.7270844,-1.3037168,0.059928976,-0.18000686,-0.20220947,-0.54034805,0.6994954,0.9130438,-0.058878783,0.11555817,0.38669178,-1.268272,0.1666356,-0.20592567,0.0,1.0,0.0,0.0,0.0,0.0,0.0,-0.44454038,0.11305389,-0.17708439,-0.106310844,-0.4172206,10.953045,-1.3694763,1.1475563,-0.17960072,1.0593817
-1.4502888,60.286766,21.17692,12.443045,0.55942786,0.42922294,0.15316616,-0.70411086,-0.43930227,-0.20596938,0.76915866,-0.47258162,0.5672445,-0.025538346,0.50192285,-1.0036443,-1.9352918,-1.1742177,2.0153053,1.8856828,-0.91919076,0.5599114,-0.96771544,-1.918478,-1.2373264,2.0556664,1.8336738,-0.91757363,-1.244181,-0.7997273,-0.3606808,1.3777736,-0.68755263,0.46987045,-0.09000808,-0.2183609,-0.5122566,0.7253868,-1.2856194,0.088385016,-0.16747129,-0.2148056,-0.53847504,0.6975347,0.91746795,-0.060586352,0.11814287,0.3749987,-1.254665,0.20334816,-0.19526784,0.0,1.0,0.0,0.0,0.0,0.0,0.0,-0.43163908,0.11225662,-0.17538679,-0.7474899,0.16086102,7.066387,-1.1914015,0.89176893,-0.545007,1.451601
-2.7716162,58.01059,18.530748,12.258664,0.42404866,0.2306109,0.13422161,-0.692964,-0.42751184,-0.23462307,0.7729294,-0.5116289,0.55660295,0.07234048,0.49061495,-1.0104666,-1.9419403,-1.1600335,2.0045035,1.8893341,-0.9103396,0.54747164,-0.9756176,-1.9220028,-1.2235897,2.0487423,1.8383263,-0.9182993,-1.2440528,-0.7875821,-0.3489127,1.3725328,-0.695339,0.46377772,-0.066912115,-0.23109055,-0.5112076,0.7237407,-1.2686416,0.11043263,-0.16409817,-0.22725677,-0.53629684,0.6956027,0.9216605,-0.062218215,0.12082178,0.36341825,-1.241181,0.23289181,-0.19498947,0.0,1.0,0.0,0.0,0.0,0.0,0.0,-0.41890943,0.111207575,-0.17374068,-0.0059843063,1.0770321,1.3843536,-0.46133995,-1.056397,-0.57747364,2.2464216
-11.438444,47.02506,11.391051,13.089821,0.77308744,0.04187435,-0.02397938,-0.714765,-0.44666278,-0.3070025,0.7742059,-0.48309013,0.4867871,0.05931475,0.47599512,-1.0202838,-1.952703,-1.1461691,2.0004332,1.8870051,-0.9123678,0.5349461,-0.9834921,-1.9259511,-1.2098587,2.0417917,1.8428547,-0.91882,-1.2552093,-0.7878096,-0.40981802,1.3736031,-0.6955208,0.44917023,-0.04726809,-0.24371338,-0.5099602,0.72192967,-1.2604669,0.12890013,-0.18714102,-0.23974991,-0.53388214,0.6934935,0.9257214,-0.063450485,0.12361888,0.35175604,-1.2503211,0.2524674,-0.21874112,0.0,1.0,0.0,0.0,0.0,0.0,0.0,-0.4062866,0.10996017,-0.17192966,-1.0784149,-0.14079809,-5.9903383,0.24688244,-0.18119812,-1.456964,1.922281
-13.013783,46.22591,9.836095,13.0262785,0.7038548,-0.03371948,-0.030517016,-0.71382654,-0.4270513,-0.3533418,0.7712974,-0.49246332,0.4845366,0.1449865,0.46356344,-1.0261972,-1.9612854,-1.1327289,1.9925454,1.8913084,-0.9043214,0.5223185,-0.9913036,-1.9307939,-1.1961124,2.0348148,1.8472397,-0.9191036,-1.2651663,-0.7792917,-0.5087108,1.3754495,-0.6986143,0.43491742,-0.0222232,-0.25626373,-0.50855255,0.7198429,-1.2531838,0.1448092,-0.21601859,-0.25234985,-0.5312958,0.6910999,0.929688,-0.06406615,0.12659083,0.33992732,-1.2604921,0.27015325,-0.24855372,0.0,1.0,0.0,0.0,0.0,0.0,0.0,-0.39373624,0.108552545,-0.1698429,-0.95250607,0.7302165,-9.807319,0.33288002,-0.44692755,-1.4571607,2.44404
-12.578632,39.395008,6.8252354,11.378446,0.6663645,-0.20015311,-0.015562065,-0.70143896,-0.45511478,-0.42026076,0.77318436,-0.4886065,0.45674613,0.19176279,0.45217457,-1.036815,-1.9728199,-1.118794,1.9859542,1.8929143,-0.8999273,0.50967175,-0.9991685,-1.9368248,-1.1823356,2.0278225,1.8514699,-0.9191236,-1.2644099,-0.7891688,-0.63423103,1.3790207,-0.699548,0.41878903,0.0045879716,-0.2687645,-0.50702286,0.71734035,-1.2489548,0.15578145,-0.26144546,-0.26507568,-0.52859116,0.6882911,0.9335698,-0.06391896,0.12969705,0.32793352,-1.2741776,0.27992406,-0.29378277,0.0,1.0,0.0,0.0,0.0,0.0,0.0,-0.38123548,0.10702285,-0.16734034,0.12505054,-1.0964155,-12.489021,0.5228758,-0.1916647,-1.6745448,2.6265094
-7.880908,46.156918,10.111472,10.7641535,0.4011167,-0.1566363,0.058739863,-0.6886738,-0.42954078,-0.4471639,0.776918,-0.51234263,0.49096432,0.22296196,0.44080436,-1.0421226,-1.9815412,-1.1046438,1.9765882,1.9005663,-0.8968274,0.49711728,-1.0070287,-1.9440018,-1.1685123,2.0207613,1.8555816,-0.91887647,-1.2524197,-0.78543586,-0.74497676,1.3837804,-0.7089309,0.40848312,0.031144338,-0.28118134,-0.50536346,0.714464,-1.2387353,0.16919167,-0.29546264,-0.27783585,-0.52576065,0.6851118,0.93732494,-0.06304185,0.13298622,0.31585148,-1.2737652,0.29288217,-0.3281608,0.0,1.0,0.0,0.0,0.0,0.0,0.0,-0.36881864,0.10536346,-0.164464,1.2116432,0.24695396,-10.940134,0.59046745,-1.1031151,-1.0963857,2.5625956
-8.025433,41.595802,8.7648735,9.761998,0.5005982,-0.1547215,0.08390996,-0.6921485,-0.46866906,-0.48993438,0.77105445,-0.49306753,0.46753648,0.26454577,0.42790243,-1.0538956,-1.9929953,-1.091407,1.9714545,1.9023353,-0.8924219,0.48467085,-1.0150205,-1.9521707,-1.1546762,2.0136652,1.8595837,-0.91835994,-1.2419422,-0.8042417,-0.8404705,1.384085,-0.7105761,0.3972969,0.05827036,-0.29351425,-0.50358963,0.71117854,-1.230843,0.1805273,-0.33829033,-0.2906227,-0.5228195,0.68153363,0.94093806,-0.06148608,0.13635248,0.30374813,-1.277961,0.30436,-0.3698371,0.0,1.0,0.0,0.0,0.0,0.0,0.0,-0.35648572,0.103589624,-0.16117853,1.064229,-2.0008206,-9.405958,0.16386509,-0.32953024,-1.2138247,2.642958
-5.381339,48.100006,11.568563,9.919267,0.32565743,-0.07999772,0.13531542,-0.6804835,-0.44733813,-0.52773887,0.77915615,-0.5352138,0.4764481,0.30968806,0.4166225,-1.0597543,-2.0049446,-1.0767605,1.9601438,1.9072286,-0.88739115,0.47235888,-1.0231038,-1.9611712,-1.1408135,2.00644,1.8634969,-0.9175664,-1.2276404,-0.81005627,-0.91925395,1.387319,-0.7269873,0.38894767,0.08606587,-0.3057251,-0.5016823,0.707552,-1.2176036,0.19442588,-0.3693944,-0.30338287,-0.5197334,0.6776212,0.944375,-0.059315156,0.13984257,0.2916873,-1.271529,0.31965482,-0.4002709,0.0,1.0,0.0,0.0,0.0,0.0,0.0,-0.34427488,0.101682276,-0.157552,1.4176607,-0.7197857,-7.668686,0.41618347,-1.8716574,-0.93147755,2.676639
-4.6337414,45.546795,10.698086,8.89955,0.2765841,-0.13470548,0.17197016,-0.6720149,-0.4734756,-0.5772362,0.77334785,-0.5491856,0.4069507,0.35539877,0.4051574,-1.0704514,-2.0188947,-1.0634787,1.9515214,1.904192,-0.88202655,0.4602009,-1.0313321,-1.9709305,-1.1269469,1.9990166,1.8672842,-0.9164888,-1.2118906,-0.82755333,-0.99398845,1.3866013,-0.7481963,0.37487292,0.11466269,-0.31781006,-0.49965286,0.7035636,-1.2048801,0.20617345,-0.40667647,-0.31607437,-0.51652145,0.673364,0.94762135,-0.056515336,0.14343762,0.27972385,-1.2647586,0.33185038,-0.4361901,0.0,1.0,0.0,0.0,0.0,0.0,0.0,-0.33218992,0.09965286,-0.15356356,1.5597582,-1.8824935,-7.257271,0.026774406,-2.356267,-1.5147269,2.7613907
-7.2974424,42.594467,9.406154,9.080011,0.41673788,-0.074005544,0.16255017,-0.6812221,-0.50155973,-0.6038322,0.7719737,-0.56554663,0.3777574,0.38820034,0.3920787,-1.0814881,-2.0313137,-1.0497496,1.942462,1.9050599,-0.8776688,0.44812256,-1.0398427,-1.9813403,-1.1131012,1.9913559,1.8709131,-0.91513,-1.2064841,-0.85941863,-1.0560166,1.3845184,-0.77282107,0.35850108,0.14271007,-0.3297844,-0.49751282,0.69916034,-1.1945047,0.21727465,-0.44965783,-0.3287468,-0.5131645,0.6687142,0.95068467,-0.05308323,0.14706017,0.26786956,-1.2642765,0.34604713,-0.47646934,0.0,1.0,0.0,0.0,0.0,0.0,0.0,-0.32021558,0.09751281,-0.14916033,0.54011345,-3.320372,-5.9848547,-0.07326603,-2.7026534,-1.7666042,2.7270496
-8.004944,38.346706,7.784096,8.210572,0.3996682,-0.087745905,0.18270627,-0.67656744,-0.5361329,-0.6393853,0.7682678,-0.60602355,0.33242828,0.42323527,0.3804658,-1.093456,-2.0452788,-1.0362744,1.9307536,1.904156,-0.8728065,0.4360795,-1.0487977,-1.9923356,-1.09929,1.9833666,1.874354,-0.91349447,-1.2035022,-0.9077531,-1.1134875,1.3804246,-0.80835104,0.33890495,0.170364,-0.3416748,-0.4952774,0.69425184,-1.1862242,0.22622278,-0.502035,-0.34143448,-0.5096817,0.6635977,0.95357096,-0.048988596,0.15064773,0.25614014,-1.2662278,0.35881266,-0.5252719,0.0,1.0,0.0,0.0,0.0,0.0,0.0,-0.30832517,0.0952774,-0.14425182,0.30798912,-4.959774,-5.539942,-0.2409935,-3.7810564,-2.0986795,2.7048974
-5.927802,32.129486,6.0433507,6.0439596,0.33582866,-0.16830122,0.22854893,-0.660145,-0.5901297,-0.6672231,0.76177615,-0.61541426,0.29612845,0.46608675,0.370065,-1.1078107,-2.059058,-1.0231124,1.9218252,1.9039669,-0.8668858,0.42412224,-1.0584127,-2.0038614,-1.0855434,1.9750417,1.8775847,-0.91157854,-1.1930761,-0.9797688,-1.1653659,1.3734474,-0.8410412,0.31749552,0.19860405,-0.35350037,-0.49297714,0.688718,-1.1806141,0.23158732,-0.5676828,-0.35414505,-0.50611496,0.65790325,0.9562829,-0.044216115,0.15406883,0.24460323,-1.269214,0.36647522,-0.5863455,0.0,1.0,0.0,0.0,0.0,0.0,0.0,-0.2964996,0.09297714,-0.13871801,1.0555506,-7.3082566,-5.004263,-0.49932003,-3.460586,-2.289629,2.796194
0.60405064,32.483326,7.132086,3.6684709,0.06343418,-0.2723782,0.31313908,-0.62730676,-0.6213539,-0.68912864,0.75922686,-0.63998127,0.2517096,0.50901246,0.36139157,-1.120548,-2.0727744,-1.0096207,1.9110436,1.9027556,-0.8606773,0.41241243,-1.0687772,-2.0158546,-1.0718712,1.9663891,1.8805902,-0.9093765,-1.1636955,-1.0556234,-1.2102594,1.3657827,-0.8739444,0.2945006,0.22736454,-0.36524582,-0.49064255,0.68252265,-1.1719358,0.2346715,-0.63426477,-0.36681747,-0.5025139,0.6515875,0.95880497,-0.03878527,0.15724716,0.23337103,-1.26142,0.36753595,-0.6489056,0.0,1.0,0.0,0.0,0.0,0.0,0.0,-0.28475416,0.09064254,-0.13252264,2.9185772,-7.6800346,-4.285836,-0.60203075,-3.4885287,-2.446121,2.845186
14.061214,34.816868,10.358073,-0.30419588,-0.34234238,-0.40433663,0.4420232,-0.56111366,-0.6674738,-0.6782387,0.75866854,-0.63595146,0.31693092,0.5233141,0.35630107,-1.1355246,-2.0836785,-0.9960043,1.9027939,1.9122833,-0.8570451,0.40128055,-1.0799409,-2.0281103,-1.0582641,1.9574968,1.8834411,-0.9069035,-1.0966582,-1.1369576,-1.2295076,1.359103,-0.8948625,0.28162184,0.25388697,-0.37685394,-0.4882965,0.6756959,-1.1562053,0.23489527,-0.69585925,-0.37926483,-0.49900055,0.6446711,0.9611033,-0.032864165,0.16009952,0.22263968,-1.2336411,0.35734114,-0.7083368,0.0,1.0,0.0,0.0,0.0,0.0,0.0,-0.27314603,0.0882965,-0.12569588,6.6115856,-8.203721,-1.6678572,-0.59628487,-2.3038268,-1.423496,2.618155
15.946405,37.970745,11.55913,-0.48993707,-0.38841972,-0.38653618,0.4520937,-0.5458349,-0.6948034,-0.6956346,0.7506836,-0.6466288,0.29016203,0.53630435,0.34669706,-1.1494212,-2.0976737,-0.9831958,1.8928338,1.9124573,-0.8532731,0.39082533,-1.0918504,-2.040515,-1.0447447,1.9484332,1.8861676,-0.9041855,-1.0288627,-1.2092111,-1.2432446,1.349808,-0.91083103,0.26916242,0.2776551,-0.38827896,-0.48594666,0.66829926,-1.137454,0.23523864,-0.7517374,-0.39139175,-0.4955635,0.637198,0.9631747,-0.02654578,0.16260536,0.21248372,-1.2013,0.34634656,-0.7629748,0.0,1.0,0.0,0.0,0.0,0.0,0.0,-0.26172101,0.08594665,-0.118299246,6.672144,-7.303214,-1.0905027,-0.8777857,-1.8419743,-1.3983369,2.3377657
23.470688,44.24221,14.923641,-1.9271834,-0.5287774,-0.38359684,0.50331444,-0.49164316,-0.71826786,-0.6758668,0.73344225,-0.6117233,0.32216844,0.5223532,0.341661,-1.1636772,-2.1081016,-0.9714005,1.8872608,1.9183844,-0.85195017,0.38114786,-1.1043817,-2.0528967,-1.0313872,1.9393703,1.8888123,-0.9012681,-0.9478816,-1.2681531,-1.2353486,1.3311177,-0.90576035,0.26236534,0.29627424,-0.39946365,-0.4835968,0.66044205,-1.111466,0.23534955,-0.7946405,-0.40310287,-0.4922943,0.629263,0.96501946,-0.019983627,0.16472565,0.20298648,-1.1557041,0.33162373,-0.8066186,0.0,1.0,0.0,0.0,0.0,0.0,0.0,-0.25053632,0.083596796,-0.11044204,7.93972,-5.972004,1.1362553,-1.8999338,0.20008087,-0.8404553,1.8087387
14.241892,45.81941,13.856584,1.0806017,-0.053144395,-0.18486679,0.3912428,-0.5092059,-0.744671,-0.6798868,0.71235704,-0.56780183,0.28056702,0.5252683,0.3302273,-1.1788487,-2.1208854,-0.9601515,1.88259,1.916869,-0.8487413,0.37202257,-1.1174318,-2.0651796,-1.0182892,1.9305193,1.8913642,-0.8981896,-0.9011178,-1.3177519,-1.224892,1.3028957,-0.8793297,0.25227654,0.31167385,-0.41041183,-0.48122406,0.6521797,-1.0886347,0.23844415,-0.8349633,-0.41446686,-0.48905945,0.6209252,0.96668386,-0.013245709,0.1663941,0.19406119,-1.1242981,0.3288641,-0.84596866,0.0,1.0,0.0,0.0,0.0,0.0,0.0,-0.23958814,0.081224054,-0.102179706,4.5609355,-5.062747,1.3827324,-2.792573,2.3062587,-1.2104213,1.5124142
9.978169,54.800663,16.068298,4.3313146,0.2967454,0.030403018,0.31099477,-0.49565256,-0.7417677,-0.6508873,0.7081481,-0.5388944,0.27753574,0.54217446,0.3224573,-1.1916085,-2.1302683,-0.9474744,1.87663,1.9191178,-0.84397215,0.3632249,-1.1308023,-2.07723,-1.0054508,1.922016,1.8938217,-0.89496624,-0.87303066,-1.3440632,-1.197124,1.2773994,-0.8420008,0.24281467,0.32576588,-0.42110062,-0.47879028,0.64365077,-1.0617695,0.24514748,-0.8578095,-0.42554474,-0.48576355,0.6123347,0.9681991,-0.0064413934,0.16763936,0.18559614,-1.0953385,0.33689928,-0.86662877,0.0,1.0,0.0,0.0,0.0,0.0,0.0,-0.22889936,0.07879028,-0.09365076,2.6930928,-2.7626753,3.177023,-2.5378227,3.3082366,-1.1620611,1.3678372
