Afshin1997/kuka_rl_ros2/src/catch_and_throw/input_files/idealpd/recorded_trajectories/env_86_data.csv
torque0,torque1,torque2,torque3,torque4,torque5,torque6,action0,action1,action2,action3,action4,action5,action6,set_target_0,set_target_1,set_target_2,set_target_3,set_target_4,set_target_5,set_target_6,joint_pos_0,joint_pos_1,joint_pos_2,joint_pos_3,joint_pos_4,joint_pos_5,joint_pos_6,joint_vel_0,joint_vel_1,joint_vel_2,joint_vel_3,joint_vel_4,joint_vel_5,joint_vel_6,tennisball_pos_0,tennisball_pos_1,tennisball_pos_2,tennisball_lin_vel_0,tennisball_lin_vel_1,tennisball_lin_vel_2,end_effector_pos_0,end_effector_pos_1,end_effector_pos_2,end_effector_rot_0,end_effector_rot_1,end_effector_rot_2,end_effector_rot_3,end_effector_lin_vel_0,end_effector_lin_vel_1,end_effector_lin_vel_2,obs_task_0,obs_task_1,obs_task_2,obs_task_3,obs_task_4,obs_task_5,obs_task_6,to_final_target_0,to_final_target_1,to_final_target_2,joint_acc_0,joint_acc_1,joint_acc_2,joint_acc_3,joint_acc_4,joint_acc_5,joint_acc_6
0.0,0.0,0.0,0.0,0.0,0.0,0.0,0.0,0.0,0.0,0.0,0.0,0.0,0.0,1.7802359,-1.0646509,-1.8151424,-1.1170107,1.9373155,1.1170107,-0.91629785,1.7802359,-1.0646509,-1.8151424,-1.1170107,1.9373155,1.1170107,-0.91629785,0.0,0.0,0.0,0.0,0.0,0.0,0.0,2.7366257,-0.28851318,0.32277095,-2.9239666,-0.30889472,5.193531,0.5304184,-0.45448303,0.693097,0.5745483,0.17512383,0.15255436,0.7848268,0.0,0.0,0.0,1.0,0.0,0.0,0.0,0.0,0.0,0.0,-3.3866258,-0.11148682,0.22722906,0.0,0.0,0.0,0.0,0.0,0.0,0.0
0.0,0.0,0.0,0.0,0.0,0.0,0.0,0.0,0.0,0.0,0.0,0.0,0.0,0.0,1.7802359,-1.0646509,-1.8151424,-1.1170107,1.9373155,1.1170107,-0.91629785,1.7802359,-1.0646509,-1.8151424,-1.1170107,1.9373155,1.1170107,-0.91629785,0.0,0.0,0.0,0.0,0.0,0.0,0.0,2.7366257,-0.28851318,0.32277095,-2.9239666,-0.30889472,5.193531,0.5304184,-0.45448303,0.693097,0.5745483,0.17512383,0.15255436,0.7848268,0.0,0.0,0.0,1.0,0.0,0.0,0.0,0.0,0.0,0.0,-3.3866258,-0.11148682,0.22722906,0.0,0.0,0.0,0.0,0.0,0.0,0.0
0.0,0.0,0.0,0.0,0.0,0.0,0.0,0.0,0.0,0.0,0.0,0.0,0.0,0.0,1.7802359,-1.0646509,-1.8151424,-1.1170107,1.9373155,1.1170107,-0.91629785,1.7802359,-1.0646509,-1.8151424,-1.1170107,1.9373155,1.1170107,-0.91629785,0.0,0.0,0.0,0.0,0.0,0.0,0.0,2.7366257,-0.28851318,0.32277095,-2.9239666,-0.30889472,5.193531,0.5304184,-0.45448303,0.693097,0.5745483,0.17512383,0.15255436,0.7848268,0.0,0.0,0.0,1.0,0.0,0.0,0.0,0.0,0.0,0.0,-3.3866258,-0.11148682,0.22722906,0.0,0.0,0.0,0.0,0.0,0.0,0.0
-176.0,76.36835,-2.903471,110.0,10.83853,5.098837,-3.8591795,-0.8148765,0.38471195,-0.53613245,0.7388087,0.25400087,0.6640889,-0.5874428,1.6987482,-1.0261797,-1.8687556,-1.0431298,1.9627155,1.1834196,-0.9750421,1.7786795,-1.0619539,-1.8211448,-1.112826,1.9426751,1.1220785,-0.91871446,-0.2073366,0.35890967,-0.7994784,0.55826217,0.7136025,0.6735996,-0.32181948,2.707405,-0.29159546,0.37393087,-2.9210434,-0.30858588,5.0901523,0.528286,-0.45752716,0.6939233,0.57857704,0.17372322,0.15131392,0.78241473,-0.2836383,-0.40490365,0.10997249,1.0,0.0,0.0,0.0,0.0,0.0,0.0,-3.3574052,-0.10840455,0.17606914,-20.688297,35.664803,-79.696365,55.878014,71.05924,66.74778,-32.067608
-176.0,-16.678625,-40.122265,110.0,12.5765,2.0755742,-3.1104882,-0.8026188,-0.083071604,-0.55098057,0.7154627,0.3467413,0.6511781,-0.60585564,1.6984177,-1.0702611,-1.8762429,-1.0412797,1.9773493,1.1871964,-0.9793,1.7766196,-1.0580934,-1.8361957,-1.1003023,1.9540696,1.1351992,-0.9216346,-0.20893194,0.38269964,-1.7104234,1.4833933,1.264643,1.4907297,-0.28899962,2.678215,-0.29467773,0.42405775,-2.918123,-0.30827737,4.986877,0.5235214,-0.46549988,0.6949435,0.587361,0.17034122,0.1477552,0.7772768,-0.5412069,-0.9251101,0.102640934,1.0,0.0,0.0,0.0,0.0,0.0,0.0,-3.3282151,-0.10532227,0.12594226,-1.1814356,-1.362139,-82.1321,92.45885,50.0263,71.51368,1.2080967
-157.20607,103.73754,28.619751,95.20164,8.881498,7.730996,-1.7346649,-0.7595269,0.26154754,0.06943,0.64839095,0.42401522,0.67763245,-0.54860836,1.7006669,-1.0319387,-1.8292527,-1.0354632,1.9964712,1.2029624,-0.97649544,1.7713743,-1.0538,-1.8512943,-1.0835062,1.9667859,1.1499716,-0.92469686,-0.6299121,0.44142425,-1.4361378,1.7465073,1.2686526,1.4654744,-0.31331903,2.6490555,-0.29776,0.47315267,-2.9152055,-0.30796915,4.8837047,0.51587677,-0.47637177,0.6975533,0.5990272,0.16540264,0.14269373,0.770355,-0.8465499,-1.1357089,0.31795013,1.0,0.0,0.0,0.0,0.0,0.0,0.0,-3.2990556,-0.102239996,0.076847345,-42.169563,4.8426747,29.492165,26.750446,-1.1363268,-4.7049522,-2.865553
-98.86538,117.12397,45.204082,62.099533,5.5128517,8.268122,-0.3636424,-0.77685946,0.18370484,0.18470716,0.6432281,0.45628998,0.64095485,-0.5794546,1.6936884,-1.0354295,-1.8328235,-1.0191834,2.012415,1.2140671,-0.9826423,1.7619559,-1.0495752,-1.8607166,-1.0663038,1.9783673,1.1636606,-0.9279842,-1.0469714,0.41332278,-0.7695414,1.7120152,1.1158808,1.332263,-0.33617872,2.6199265,-0.3008423,0.52121663,-2.9122908,-0.30766124,4.7806354,0.5056305,-0.48805237,0.7022574,0.61166406,0.15896834,0.13643523,0.7628771,-1.0955021,-1.1683965,0.5258653,1.0,0.0,0.0,0.0,0.0,0.0,0.0,-3.2699265,-0.09915772,0.028783381,-42.06468,-3.5861492,69.08171,-3.2607555,-16.884922,-14.652801,-2.997446
-42.948566,133.64899,54.581467,35.500935,2.2070549,7.457969,0.25525478,-0.794511,0.3010635,0.16628215,0.640866,0.4859274,0.6245289,-0.5708735,1.6825048,-1.0194689,-1.8440883,-1.0022173,2.0269601,1.2261136,-0.98507154,1.7491175,-1.0451864,-1.8635681,-1.050593,1.988255,1.1758677,-0.9314813,-1.3640374,0.44548467,-0.11711527,1.5238473,0.94244415,1.1813929,-0.35677353,2.590828,-0.30391693,0.56825066,-2.909379,-0.30735365,4.677669,0.49352264,-0.49913025,0.70886266,0.6241149,0.15117772,0.12944101,0.75556004,-1.2610598,-1.0739828,0.70759916,1.0,0.0,0.0,0.0,0.0,0.0,0.0,-3.240828,-0.096083075,-0.018250644,-32.1121,2.644968,67.23786,-18.894625,-18.500912,-15.706539,-2.837962
-3.6266508,134.66002,52.52504,17.800076,-0.25114274,5.564016,0.28109494,-0.8075824,0.42380443,0.09393552,0.63505995,0.4754291,0.6184298,-0.58918583,1.6683593,-1.002806,-1.8541745,-0.987087,2.0357978,1.2377107,-0.9903999,1.7341467,-1.0398744,-1.8617599,-1.0369002,1.9966416,1.1866976,-0.93516916,-1.5426493,0.5583433,0.28456005,1.3170462,0.8020064,1.0498848,-0.37498572,2.5617561,-0.30698395,0.6142558,-2.90647,-0.30704635,4.5748057,0.48039627,-0.5088577,0.7169266,0.6359874,0.14241514,0.122545786,0.7484787,-1.3415427,-0.9250733,0.838901,1.0,0.0,0.0,0.0,0.0,0.0,0.0,-3.2117562,-0.09301606,-0.064255774,-18.211699,10.870827,41.481754,-20.836998,-14.6591425,-13.2891655,-2.4918973
15.951924,126.67926,45.621155,9.445967,-1.4833668,3.7225058,0.069462724,-0.82101977,0.5163536,0.03857197,0.6355408,0.47463188,0.61466575,-0.58193195,1.6520448,-0.98823905,-1.8579026,-0.9733461,2.0441048,1.2481642,-0.99336237,1.7182261,-1.0330385,-1.8579452,-1.0248839,2.0039926,1.1963755,-0.93900484,-1.6094314,0.7244496,0.41670164,1.162894,0.71203846,0.940875,-0.38809705,2.532711,-0.31005096,0.65923303,-2.903564,-0.30673936,4.4720454,0.46689606,-0.5170822,0.72596484,0.6473391,0.13313526,0.11647799,0.7413906,-1.3621107,-0.77359796,0.9238771,1.0,0.0,0.0,0.0,0.0,0.0,0.0,-3.1827111,-0.08994904,-0.10923302,-6.9760084,16.30932,14.035982,-15.557957,-9.278572,-10.826468,-1.8337369
26.23102,116.232056,39.41277,5.5162683,-1.8491579,2.4092097,-0.05865439,-0.81624,0.5868278,0.024874095,0.62515837,0.51847404,0.6181683,-0.57070786,1.636602,-0.9743557,-1.8554578,-0.962368,2.05584,1.2581923,-0.99607563,1.7022215,-1.0244497,-1.8541076,-1.013928,2.0108972,1.205113,-0.94293875,-1.5981894,0.90308404,0.37463087,1.0728031,0.68313175,0.8519555,-0.3964543,2.5036964,-0.31311798,0.7031835,-2.9006612,-0.3064327,4.369388,0.45344925,-0.5239105,0.73562515,0.65831345,0.12368577,0.11154159,0.7340869,-1.3467462,-0.6381865,0.9778815,1.0,0.0,0.0,0.0,0.0,0.0,0.0,-3.1536965,-0.086882025,-0.15318346,0.8665085,17.641438,-3.6411881,-9.159708,-3.027606,-8.771694,-1.2590945
29.021055,108.54341,36.178352,5.1314673,-1.61844,1.8781849,-0.06289139,-0.8165681,0.6424854,0.06458417,0.6084784,0.54866695,0.6206842,-0.56072134,1.6205647,-0.96020114,-1.8476492,-0.95308024,2.065764,1.2671815,-0.99901086,1.6865793,-1.014211,-1.8510349,-1.003512,2.0178246,1.2130839,-0.9469299,-1.553539,1.0635716,0.28629577,1.0308505,0.6956919,0.7788405,-0.4012315,2.4747124,-0.316185,0.7461081,-2.8977613,-0.30612633,4.2668333,0.4402237,-0.5295334,0.74574953,0.66898715,0.11420331,0.10763409,0.7265182,-1.3209434,-0.5205907,1.0216954,1.0,0.0,0.0,0.0,0.0,0.0,0.0,-3.1247125,-0.08381501,-0.1961081,4.244256,15.867949,-8.354319,-4.357195,1.1535764,-7.2492123,-0.8479357
25.411295,98.31178,32.356007,6.775431,-1.09796,1.5954707,-0.06709195,-0.8099398,0.68033165,0.06807873,0.61423504,0.55950475,0.6298098,-0.5585261,1.6055853,-0.9461779,-1.844227,-0.94208854,2.073775,1.2760649,-1.0027825,1.6714388,-1.0026487,-1.8488395,-0.9932085,2.0250077,1.2204233,-0.9509544,-1.5014144,1.1866585,0.19879694,1.0295402,0.72534776,0.71902263,-0.4040493,2.4457588,-0.31924438,0.78800803,-2.8948643,-0.30582026,4.164381,0.4272194,-0.5341339,0.7562442,0.6794211,0.10471426,0.10449405,0.7186813,-1.298892,-0.4260569,1.0566418,1.0,0.0,0.0,0.0,0.0,0.0,0.0,-3.095759,-0.08075562,-0.23800802,5.0313473,12.158108,-8.327013,-0.29993057,2.886176,-5.9977055,-0.6140232
20.757776,87.28439,28.405718,7.428121,-0.6749169,1.3962846,-0.016327837,-0.8061565,0.7081482,0.059944972,0.5952946,0.57735276,0.63940215,-0.55156446,1.5908232,-0.93183386,-1.8428451,-0.93367904,2.082743,1.2843635,-1.0061108,1.6567427,-0.99015653,-1.8473575,-0.9828669,2.0325341,1.2272516,-0.9549951,-1.459448,1.2696368,0.13281555,1.0350525,0.76167595,0.67059225,-0.4051866,2.416832,-0.32229614,0.8288842,-2.8919702,-0.3055145,4.0620313,0.41436386,-0.5379486,0.7669891,0.689622,0.09523954,0.101857334,0.7106167,-1.2830343,-0.3488986,1.078414,1.0,0.0,0.0,0.0,0.0,0.0,0.0,-3.066832,-0.07770386,-0.27888417,4.031849,8.172846,-6.193465,0.35943985,3.5685062,-4.8896074,-0.42682886
15.76067,76.4107,24.609232,8.030748,-0.30814838,1.2424941,0.028622258,-0.80120194,0.7169576,0.059451897,0.5907212,0.5768354,0.6442801,-0.54926175,1.5766225,-0.9184608,-1.8414123,-0.92379475,2.0902176,1.2916796,-1.0099213,1.6423594,-0.97713983,-1.8463066,-0.97246325,2.0403695,1.2336642,-0.95904154,-1.4318235,1.3120265,0.097157955,1.0414693,0.79076904,0.63146937,-0.40551704,2.3879318,-0.3253479,0.8687376,-2.8890789,-0.30520907,3.959784,0.4016266,-0.54109955,0.7778527,0.6995716,0.08579694,0.09949942,0.7023804,-1.2741231,-0.28684017,1.0870385,1.0,0.0,0.0,0.0,0.0,0.0,0.0,-3.037932,-0.074652106,-0.31873757,2.6097298,4.1378975,-3.1697795,0.43251514,2.856493,-3.960824,-0.33427477
12.226347,70.31333,22.737034,8.705809,-0.011484146,1.2472308,0.087424226,-0.80036086,0.7237632,0.08142931,0.5847458,0.5907198,0.65310425,-0.5534113,1.5623233,-0.9047635,-1.8381636,-0.91398865,2.0994415,1.2989746,-1.0143827,1.6281401,-0.9639114,-1.8453205,-0.96203387,2.0484643,1.2397467,-0.9630937,-1.4192219,1.3262249,0.10049338,1.0427808,0.8157082,0.6003236,-0.40602633,2.3590622,-0.32839966,0.9075692,-2.8861904,-0.30490392,3.8576393,0.38891602,-0.5436783,0.7887604,0.70923954,0.07636337,0.09722206,0.6940431,-1.2724546,-0.23267879,1.0900416,1.0,0.0,0.0,0.0,0.0,0.0,0.0,-3.0090623,-0.07160035,-0.35756922,1.108098,1.3288975,0.75790435,-0.08146763,2.431047,-3.1694412,-0.35018325
11.7885275,67.45295,21.859287,8.273247,0.03491223,1.2184749,0.14552063,-0.79524976,0.73265296,0.09194005,0.56930137,0.60315174,0.65449744,-0.54734886,1.5486151,-0.8906461,-1.8361264,-0.90510374,2.1087794,1.3051964,-1.0178286,1.6139876,-0.95063627,-1.844136,-0.9516798,2.0567842,1.2455622,-0.9671449,-1.414421,1.3276957,0.12573123,1.0322173,0.8369299,0.57533956,-0.40589947,2.330223,-0.33145142,0.9453802,-2.8833048,-0.30459908,3.7555969,0.37621307,-0.54572296,0.7996654,0.71857715,0.06691991,0.09491342,0.6856822,-1.2714018,-0.17915162,1.0885427,1.0,0.0,0.0,0.0,0.0,0.0,0.0,-2.9802232,-0.06854859,-0.3953802,0.32343864,0.063586235,2.9726372,-1.2741566,2.0555854,-2.5332332,-0.29017925
11.976568,66.99812,21.625015,7.978635,0.005966246,1.2077239,0.1806331,-0.794899,0.740763,0.106417164,0.553869,0.6138164,0.65622,-0.5420944,1.5344976,-0.87656,-1.8334943,-0.8962929,2.1181657,1.3111842,-1.0213543,1.5998408,-0.937363,-1.8426139,-0.9415108,2.065291,1.251166,-0.9711904,-1.4151968,1.3268541,0.16247773,1.0111303,0.8550891,0.5553135,-0.40517554,2.3014145,-0.33449554,0.9821716,-2.880422,-0.30429453,3.6536565,0.3635292,-0.54722595,0.8105448,0.7275489,0.057447292,0.09254471,0.6773536,-1.2693415,-0.123756245,1.0852848,1.0,0.0,0.0,0.0,0.0,0.0,0.0,-2.9514146,-0.06550446,-0.43217158,-0.23965836,-0.1648426,4.1427493,-2.324295,1.7431974,-2.0208716,-0.22929311
12.794793,66.46839,21.315819,7.434521,-0.06130165,1.1487925,0.20956928,-0.79447246,0.7419025,0.12588315,0.53598005,0.62417674,0.65603846,-0.5374745,1.5203935,-0.86317277,-1.8300257,-0.8879128,2.1277087,1.3167698,-1.0249379,1.585673,-0.92410505,-1.8406856,-0.9316164,2.0739655,1.2566,-0.9752254,-1.4180502,1.3251412,0.20448242,0.9815299,0.87110883,0.53926396,-0.403994,2.2726288,-0.33753204,1.0179443,-2.8775423,-0.3039903,3.5518177,0.35087204,-0.54816437,0.821376,0.7361258,0.04793855,0.09010964,0.6691046,-1.2644199,-0.066774,1.079683,1.0,0.0,0.0,0.0,0.0,0.0,0.0,-2.9226289,-0.062467963,-0.46794432,-0.44822693,-0.2468586,4.672286,-3.1727314,1.5314817,-1.5975952,-0.18013716
11.654883,64.081,19.772589,7.49915,-0.11110425,0.9795533,0.16941424,-0.7967095,0.7452234,0.111221336,0.52474684,0.6266659,0.66097635,-0.52877873,1.5060021,-0.84958273,-1.8295635,-0.87914175,2.1366322,1.3226976,-1.0281032,1.5714632,-0.910848,-1.8384979,-0.9220215,2.0827699,1.2618986,-0.97924227,-1.4224366,1.3256947,0.2250285,0.9513938,0.88319165,0.526964,-0.40184358,2.2438736,-0.34056854,1.0526994,-2.8746653,-0.30368638,3.4500809,0.33827972,-0.54855347,0.83210886,0.7443352,0.038426436,0.087674685,0.6609097,-1.2569989,-0.0136755435,1.0682086,1.0,0.0,0.0,0.0,0.0,0.0,0.0,-2.8938737,-0.059431463,-0.50269943,-0.5950451,-0.007867813,2.4788082,-3.2255173,1.1683702,-1.193428,-0.062412024
15.082338,65.10366,20.01044,5.72307,-0.37615648,0.8679687,0.21350926,-0.7925431,0.75457746,0.12718578,0.48260313,0.6360071,0.664832,-0.53030753,1.492209,-0.83539027,-1.8257793,-0.8737612,2.1463706,1.3283818,-1.032273,1.5572344,-0.8975376,-1.8361347,-0.91285384,2.0916848,1.2670981,-0.98324007,-1.4235404,1.3326695,0.24142675,0.90449226,0.8942893,0.5178558,-0.4000156,2.215149,-0.34360504,1.086438,-2.8717911,-0.30338275,3.3484457,0.32582855,-0.5483551,0.84270895,0.7521523,0.028935304,0.08530846,0.65280324,-1.2402693,0.045255233,1.0540667,1.0,0.0,0.0,0.0,0.0,0.0,0.0,-2.865149,-0.056394964,-0.5364379,-0.27234554,0.6383419,2.0734577,-4.90607,1.0678172,-0.8313656,-0.09440184
17.642332,65.165924,19.8693,4.3861628,-0.5695966,0.7286657,0.24442504,-0.7884281,0.7605994,0.13193922,0.44993252,0.64298695,0.66730076,-0.5169054,1.4783916,-0.82147765,-1.8229407,-0.86786056,2.1559834,1.3338281,-1.0349306,1.5430247,-0.884128,-1.8336532,-0.90422976,2.1007066,1.2722231,-0.98721117,-1.4205811,1.3435227,0.25160152,0.8476533,0.90461737,0.51127535,-0.3970686,2.1864548,-0.34664154,1.1191608,-2.8689198,-0.30307943,3.2469122,0.31360626,-0.54756165,0.8531491,0.7595478,0.019489747,0.0830621,0.64483166,-1.2153918,0.10642517,1.0370781,1.0,0.0,0.0,0.0,0.0,0.0,0.0,-2.8364549,-0.053358465,-0.56916076,0.13618469,1.0343313,1.4394939,-5.899906,0.9979367,-0.54017305,0.02400875
20.339092,64.70887,19.742655,2.647253,-0.7499113,0.588797,0.31020945,-0.7895139,0.7640763,0.15113878,0.39595908,0.6537666,0.66071534,-0.5045311,1.4640733,-0.80772036,-1.8185394,-0.86463386,2.1660833,1.3382946,-1.0376643,1.5288454,-0.8706068,-1.8310268,-0.89631426,2.109839,1.2772909,-0.991146,-1.4176381,1.3547869,0.2676124,0.7720171,0.9162313,0.50588155,-0.39314422,2.1577873,-0.3496704,1.1508691,-2.8660514,-0.3027764,3.1454802,0.30168533,-0.54613495,0.8633916,0.76647544,0.010125831,0.08095464,0.63707066,-1.1821511,0.16976537,1.0162317,1.0,0.0,0.0,0.0,0.0,0.0,0.0,-2.8077874,-0.050329596,-0.6008691,0.13403893,1.0862112,2.020806,-7.781577,1.133573,-0.37593842,0.12626052
23.477463,65.265625,20.00859,1.0018644,-0.9488276,0.4715754,0.3730048,-0.78499144,0.7731206,0.16936252,0.34051934,0.65929693,0.66431123,-0.49314854,1.4503462,-0.7932947,-1.8140905,-0.8622623,2.1757686,1.3437221,-1.0404608,1.514712,-0.85695684,-1.8281868,-0.88927233,2.119082,1.2823187,-0.9950351,-1.4124775,1.3683381,0.2907604,0.6808424,0.9271508,0.5023315,-0.38841942,2.1291466,-0.35269165,1.1815639,-2.863186,-0.3024737,3.0441494,0.29016113,-0.5440445,0.8734121,0.7728853,0.00086661073,0.07899779,0.62960845,-1.1400236,0.23614997,0.99348754,1.0,0.0,0.0,0.0,0.0,0.0,0.0,-2.7791467,-0.047308356,-0.63156384,0.3616333,1.3255596,2.723068,-9.327221,1.0726094,-0.14754534,0.21460652
27.117737,64.59744,20.040583,-1.5836763,-1.1899147,0.3152154,0.47859257,-0.78766084,0.77602977,0.2074645,0.2521948,0.6652146,0.66146255,-0.48820272,1.4359459,-0.77935386,-1.8074403,-0.86405283,2.1856034,1.348465,-1.0438554,1.500609,-0.8431858,-1.8249748,-0.88337004,2.1284318,1.2873179,-0.9988765,-1.4100074,1.3799515,0.3325581,0.55933726,0.9374103,0.4999678,-0.3836312,2.1005363,-0.3557129,1.211246,-2.8603232,-0.3021713,2.9429202,0.27913666,-0.5412674,0.88316625,0.7787024,-0.008244044,0.07718877,0.6225725,-1.0868806,0.30561185,0.9653086,1.0,0.0,0.0,0.0,0.0,0.0,0.0,-2.7505364,-0.044287115,-0.661246,0.097084045,1.1467457,4.5790377,-12.353468,1.0137796,0.037831068,0.23416877
30.982382,66.74353,21.274822,-2.8581753,-1.3063174,0.27020457,0.5718926,-0.776135,0.7817696,0.26529402,0.1913932,0.6731411,0.6514231,-0.46962628,1.4229956,-0.7650088,-1.7984453,-0.86423075,2.195746,1.3524601,-1.0458392,1.4865748,-0.82930505,-1.8211334,-0.8787371,2.1378884,1.2922903,-1.0026621,-1.4016662,1.390776,0.40263623,0.4307705,0.94797605,0.49750662,-0.37757453,2.0719566,-0.35873413,1.2399167,-2.8574634,-0.30186918,2.841792,0.26868057,-0.5377426,0.89266527,0.7838542,-0.01721989,0.07547522,0.6161003,-1.0263833,0.37886912,0.9403511,1.0,0.0,0.0,0.0,0.0,0.0,0.0,-2.7219567,-0.041265875,-0.6899167,0.71094036,1.0808706,7.368702,-13.023722,1.0679603,0.062203407,0.3731668
29.71841,65.277534,20.581982,-2.2227416,-1.2248725,0.16668504,0.5563195,-0.77825135,0.78628397,0.2899369,0.13621555,0.6782267,0.6558074,-0.45900166,1.4087496,-0.75067663,-1.7921396,-0.8651155,2.2057111,1.357871,-1.0485623,1.4726073,-0.8153261,-1.8165767,-0.87534773,2.1474442,1.2972456,-1.0063814,-1.3954655,1.4003593,0.47425663,0.3078988,0.95803136,0.49602717,-0.37084317,2.0434036,-0.36175537,1.2675768,-2.8546064,-0.30156738,2.740765,0.25883102,-0.5335388,0.90191466,0.78834903,-0.02607048,0.0738336,0.610225,-0.96644384,0.44651178,0.9150933,1.0,0.0,0.0,0.0,0.0,0.0,0.0,-2.6934037,-0.038244635,-0.7175768,0.52177906,0.9742975,7.4393454,-12.4255295,1.0621071,0.17426014,0.47675967
32.370583,60.04698,18.69865,-5.777655,-1.5351844,-0.21643949,0.63131905,-0.77832276,0.78569984,0.31124347,0.006067042,0.68500036,0.6536804,-0.44424736,1.394775,-0.7367561,-1.7854524,-0.874741,2.2159443,1.3626137,-1.0508062,1.4586836,-0.80128133,-1.8113716,-0.8734633,2.1570992,1.3021914,-1.0100282,-1.3914887,1.4059387,0.5365391,0.14820573,0.9680047,0.49560294,-0.3631002,2.0148773,-0.36476898,1.2942275,-2.8517523,-0.30126587,2.6398392,0.24968338,-0.5286865,0.910803,0.7921635,-0.034670107,0.07231539,0.60501695,-0.89203966,0.50941133,0.87501913,1.0,0.0,0.0,0.0,0.0,0.0,0.0,-2.6648774,-0.035231024,-0.74422747,0.32150745,0.593853,6.443727,-16.098886,1.0744929,0.36881566,0.61760545
38.431595,58.23924,18.242645,-10.846146,-2.0658984,-0.57443,0.77436966,-0.7737987,0.7949384,0.3548693,-0.14795764,0.68863636,0.6515566,-0.4158801,1.3813038,-0.7217875,-1.7758846,-0.88825905,2.2259629,1.367347,-1.0516163,1.4448057,-0.7871622,-1.8055313,-0.87356913,2.166842,1.307139,-1.0135816,-1.3866578,1.4140309,0.60041535,-0.063855015,0.9768343,0.496211,-0.35308424,1.9863815,-0.36777496,1.3198696,-2.848901,-0.30096465,2.539014,0.241436,-0.5231476,0.9191963,0.795208,-0.042856887,0.07101206,0.60063696,-0.7958101,0.57466054,0.8221274,1.0,0.0,0.0,0.0,0.0,0.0,0.0,-2.6363816,-0.032225043,-0.7698696,0.44293404,0.862813,6.539774,-21.299267,0.978601,0.57163835,0.8903146
38.871204,57.906155,18.313549,-10.698029,-2.022948,-0.6770058,0.79907674,-0.7635368,0.794798,0.40948752,-0.21890928,0.6903506,0.6471069,-0.35673842,1.3684521,-0.7076824,-1.7645825,-0.89546007,2.235877,1.3718498,-1.0492555,1.4310156,-0.77297914,-1.7989719,-0.87573016,2.176661,1.3120905,-1.0169977,-1.3764257,1.4199585,0.6744523,-0.26708528,0.9842285,0.49658406,-0.33785623,1.9579163,-0.37078094,1.3445042,-2.8460526,-0.30066374,2.4382899,0.23415756,-0.5170212,0.92708033,0.7974568,-0.05060256,0.06992081,0.59717077,-0.69800854,0.6358808,0.7715863,1.0,0.0,0.0,0.0,0.0,0.0,0.0,-2.6079164,-0.029219061,-0.7945042,1.0349989,0.6690264,7.4285865,-20.366913,0.9012461,0.5544305,1.45396
31.279684,57.750675,17.98834,-4.596547,-1.3940002,-0.52126527,0.6472979,-0.7612417,0.7948272,0.44758457,-0.22453685,0.68401885,0.6414154,-0.27575177,1.3548914,-0.6934964,-1.7542135,-0.8981838,2.2450628,1.376232,-1.0445728,1.4173285,-0.75875604,-1.7916667,-0.8794266,2.186522,1.3170382,-1.0202097,-1.3661675,1.4235383,0.74876606,-0.40400925,0.98755354,0.49557045,-0.3157025,1.9294739,-0.37378693,1.3681325,-2.8432071,-0.30036312,2.3376663,0.22769165,-0.5103378,0.9345715,0.7990227,-0.058031864,0.06897532,0.5945061,-0.62220556,0.6860434,0.73588693,1.0,0.0,0.0,0.0,0.0,0.0,0.0,-2.579474,-0.02621308,-0.81813246,1.0565996,0.45802593,7.3266625,-13.721138,0.5870342,0.33536553,2.1715403
22.47596,56.066593,16.944426,1.9258156,-0.72469777,-0.3807097,0.45126182,-0.7579213,0.7952096,0.46441236,-0.22750148,0.6845583,0.64129746,-0.21185169,1.3415364,-0.6792351,-1.7452255,-0.90217674,2.254978,1.3811679,-1.0413948,1.4037348,-0.74451005,-1.7837341,-0.88396895,2.196406,1.3219706,-1.0231661,-1.3569998,1.4253197,0.8076366,-0.47104645,0.9895756,0.49368322,-0.28910044,1.901062,-0.3767929,1.3907552,-2.8403645,-0.30006284,2.2371433,0.22179031,-0.50322723,0.94180477,0.80008024,-0.065290265,0.06811801,0.592426,-0.57071,0.7233978,0.7131484,1.0,0.0,0.0,0.0,0.0,0.0,0.0,-2.551062,-0.023207098,-0.84075516,0.93774796,0.29804707,5.703652,-6.752324,0.5190253,0.16636848,2.6237905
12.111674,53.582504,15.486581,9.344269,0.020403206,-0.20040417,0.22181165,-0.75999105,0.7949667,0.4708258,-0.19244415,0.67846805,0.6369736,-0.122586995,1.3277357,-0.6650134,-1.7366515,-0.9032134,2.2642527,1.3856679,-1.0354247,1.3901945,-0.7302574,-1.775378,-0.8886162,2.206286,1.3268782,-1.0258135,-1.3531337,1.4256941,0.8441248,-0.46290976,0.98840386,0.49047855,-0.25658065,1.8726807,-0.37979126,1.4123734,-2.8375247,-0.29976285,2.136721,0.2162056,-0.49585724,0.94891363,0.8008294,-0.072527155,0.06730759,0.590662,-0.5474612,0.74708754,0.7038388,1.0,0.0,0.0,0.0,0.0,0.0,0.0,-2.5226808,-0.020208746,-0.8623734,0.36714077,0.17194748,3.4371138,0.71703196,0.24169683,-0.059646368,3.2069445
2.608873,49.948727,13.650554,15.536582,0.63867825,-0.054216303,0.012826804,-0.7725936,0.7928444,0.4712492,-0.15001647,0.6666002,0.6474571,-0.061444715,1.3129351,-0.65097296,-1.7282531,-0.90361786,2.272946,1.3916239,-1.031958,1.3766066,-0.7160162,-1.7668197,-0.89276373,2.2161126,1.3317572,-1.0281156,-1.36097,1.4239929,0.8590927,-0.39918613,0.9820005,0.4876849,-0.22168556,1.8443298,-0.38278198,1.4329882,-2.8346877,-0.29946315,2.036399,0.2106514,-0.48833466,0.95599467,0.8014603,-0.07985857,0.06653583,0.5889456,-0.54875475,0.75886667,0.7030886,1.0,0.0,0.0,0.0,0.0,0.0,0.0,-2.49433,-0.017218024,-0.88298815,-0.8585453,-0.030446053,1.3031006,6.221986,-0.26581287,-0.10353327,3.4318328
-3.661109,47.966873,12.68902,20.329441,1.0927509,0.07989878,-0.13674667,-0.7748533,0.7915669,0.4695004,-0.07692034,0.6536313,0.6467524,0.021099214,1.2991213,-0.6368595,-1.7198697,-0.9004558,2.2814758,1.3964324,-1.0260057,1.3629137,-0.70179975,-1.7582309,-0.8959061,2.2258363,1.3366076,-1.0300401,-1.372434,1.421277,0.8582514,-0.2864392,0.9706451,0.48448434,-0.18299751,1.8160019,-0.3857727,1.4526004,-2.8318536,-0.29916376,1.9361769,0.20495987,-0.48075104,0.9631344,0.80211246,-0.087396026,0.06579456,0.58706784,-0.56825584,0.7639585,0.7111339,1.0,0.0,0.0,0.0,0.0,0.0,0.0,-2.466002,-0.014227301,-0.90260035,-1.2558937,-0.13017654,-0.26755333,11.09125,-0.7486582,-0.21217465,3.7981005
-14.316562,46.01368,11.687956,29.082294,1.9767797,0.43006104,-0.38149416,-0.78677404,0.786395,0.45496976,0.09309344,0.64773506,0.6605035,0.12362341,1.2842363,-0.62316024,-1.712734,-0.88659674,2.2906098,1.402658,-1.0176778,1.3490607,-0.68763196,-1.7497718,-0.89725745,2.2354455,1.3414332,-1.0315393,-1.3901775,1.4157919,0.8411162,-0.08538171,0.9589512,0.48181182,-0.1390639,1.7877045,-0.38876343,1.4712112,-2.8290224,-0.29886466,1.8360552,0.19880295,-0.47318268,0.97049195,0.8029617,-0.095349774,0.06500683,0.5847521,-0.6227593,0.7596304,0.73743147,1.0,0.0,0.0,0.0,0.0,0.0,0.0,-2.4377046,-0.011236578,-0.9212112,-1.933384,-0.40082932,-1.9109726,19.877054,-0.7307887,-0.28332472,4.303825
-23.590597,45.15032,11.326139,37.575947,2.82131,0.8351352,-0.607195,-0.79653275,0.77946174,0.44248646,0.29209027,0.64060116,0.6701561,0.19866462,1.2694074,-0.6096858,-1.7055231,-0.8680484,2.2995057,1.4084488,-1.0116729,1.3350092,-0.67354524,-1.7415531,-0.895929,2.2449365,1.3462359,-1.0325826,-1.4105328,1.4068154,0.8147843,0.20478168,0.94786376,0.47903508,-0.09300787,1.7594376,-0.39175415,1.4888216,-2.826194,-0.29856586,1.7360336,0.19184113,-0.46569824,0.97825813,0.80417764,-0.10398465,0.064057894,0.58170617,-0.7117092,0.7507349,0.7831124,1.0,0.0,0.0,0.0,0.0,0.0,0.0,-2.4094377,-0.008245856,-0.9388216,-2.2126675,-0.75252056,-2.8639555,28.779987,-0.61348677,-0.4392028,4.501638
-22.622824,44.25845,11.18904,37.03483,2.7121572,0.8313038,-0.618502,-0.80283004,0.77555835,0.42471054,0.38723898,0.62897414,0.6644295,0.17818935,1.2547262,-0.5959894,-1.699082,-0.8572051,2.307834,1.4126788,-1.0147637,1.320769,-0.6595558,-1.7336452,-0.8917204,2.2543054,1.3510062,-1.0332235,-1.4288713,1.396833,0.7820835,0.49224368,0.9349398,0.4755339,-0.054808024,1.7311974,-0.39473724,1.5054324,-2.8233685,-0.29826736,1.6361119,0.18400192,-0.45825958,0.98645824,0.8057874,-0.11336669,0.06292944,0.577836,-0.7991392,0.7470628,0.82568836,1.0,0.0,0.0,0.0,0.0,0.0,0.0,-2.3811975,-0.0052627623,-0.95543236,-1.9758463,-0.880003,-3.4815073,28.562778,-0.8371115,-0.55910945,3.7224092
-12.72867,44.801743,11.695814,28.488113,1.7992122,0.48284107,-0.41280138,-0.8102827,0.77810484,0.4158931,0.39272875,0.6396164,0.65675324,0.0949207,1.2397407,-0.5817453,-1.692056,-0.8524475,2.318267,1.4166815,-1.0237315,1.3063647,-0.64563406,-1.7260368,-0.8853127,2.263598,1.3557402,-1.0335916,-1.4446018,1.3908474,0.75349474,0.68988436,0.928407,0.47230995,-0.03126186,1.7029839,-0.3977127,1.5210449,-2.820546,-0.29796916,1.53629,0.17554474,-0.4507904,0.99492663,0.80765206,-0.12331138,0.061706945,0.57331014,-0.85311663,0.7557894,0.8470201,1.0,0.0,0.0,0.0,0.0,0.0,0.0,-2.352984,-0.0022872984,-0.97104484,-1.6821861,-0.5234957,-2.949977,19.636118,-0.31677485,-0.45654774,2.25413
0.69874954,44.547768,11.996505,16.563816,0.5999984,-0.078329906,-0.098957896,-0.8042549,0.7741921,0.40722892,0.3665881,0.6433583,0.65754324,0.074434265,1.2259392,-0.56821483,-1.6853139,-0.84865385,2.3279338,1.4214945,-1.0261482,1.2918822,-0.6317667,-1.7186649,-0.8778063,2.2728562,1.3604532,-1.0337843,-1.4496726,1.3854502,0.7319042,0.7706407,0.9252569,0.47126484,-0.015502395,1.6748009,-0.40068817,1.5356598,-2.8177261,-0.29767126,1.436568,0.16689682,-0.44315338,1.003396,0.80953854,-0.13350248,0.06052104,0.568473,-0.8595193,0.77413464,0.839839,1.0,0.0,0.0,0.0,0.0,0.0,0.0,-2.324801,0.0006881654,-0.9856598,-0.58739185,-0.50172806,-2.0977378,7.974303,-0.1324892,-0.07238984,1.4595796
10.280299,44.752213,12.158567,7.7626457,-0.29998285,-0.5270138,0.12595458,-0.8050823,0.77585983,0.39667016,0.34638235,0.6465912,0.6631192,0.048203383,1.2113739,-0.5541807,-1.6789979,-0.8431681,2.3375154,1.4267652,-1.0289639,1.2773882,-0.61792886,-1.7114742,-0.8701626,2.282103,1.365172,-1.0338663,-1.4494244,1.3832419,0.7153589,0.76190877,0.9244391,0.47265142,-0.006271563,1.6466446,-0.40366364,1.5492783,-2.814909,-0.29737365,1.3369457,0.15845871,-0.43532562,1.011644,0.81126034,-0.14366007,0.059494954,0.56363,-0.8296596,0.7973662,0.81261873,1.0,0.0,0.0,0.0,0.0,0.0,0.0,-2.2966447,0.0036636293,-0.99927825,-0.04580021,-0.20508766,-1.4774561,-0.96298456,-0.009429455,0.30810237,0.79698366
14.812601,45.45454,12.48725,3.720642,-0.70612454,-0.7457959,0.26123655,-0.8093611,0.7754139,0.40509182,0.3379408,0.64711034,0.66130465,0.083437964,1.1964521,-0.54038745,-1.670965,-0.8363685,2.3468142,1.4313025,-1.0255225,1.2628981,-0.60410154,-1.7043445,-0.8629347,2.2913423,1.3699099,-1.0338491,-1.4490296,1.3825804,0.712881,0.7096121,0.924281,0.47477224,0.0039857426,1.618515,-0.4066391,1.5619012,-2.8120944,-0.29707634,1.237423,0.15045166,-0.42723083,1.0195627,0.8127047,-0.15363672,0.058688365,0.55898345,-0.78256834,0.82264376,0.77797097,1.0,0.0,0.0,0.0,0.0,0.0,0.0,-2.268515,0.006639093,-1.0119011,-0.022768974,-0.05800724,-0.018513203,-5.303216,0.0052928925,0.443542,0.8977771
17.608343,43.354202,11.668969,0.3479147,-0.99686027,-1.0325191,0.35592017,-0.80642974,0.77134115,0.39128482,0.29386535,0.6427615,0.6626361,0.16244718,1.1822551,-0.5269674,-1.665216,-0.8335482,2.3556185,1.4361734,-1.0176044,1.2484308,-0.59029233,-1.6972568,-0.85647166,2.30057,1.3746706,-1.0336813,-1.4461896,1.3804415,0.7080919,0.6250609,0.9224722,0.47755265,0.020688118,1.590416,-0.40960693,1.5735297,-2.8092828,-0.29677933,1.1379998,0.143013,-0.41889954,1.0270741,0.81380934,-0.16330832,0.058150057,0.554674,-0.72150254,0.8433872,0.73518807,1.0,0.0,0.0,0.0,0.0,0.0,0.0,-2.240416,0.009606928,-1.0235298,0.24285316,-0.20229816,-0.25219917,-8.519006,-0.18304586,0.56964755,1.5556295
16.393547,40.407684,10.509287,0.42908287,-0.92885554,-1.169448,0.34357536,-0.8105404,0.766576,0.3802227,0.2701783,0.64020437,0.6610482,0.21209608,1.1673768,-0.51363474,-1.6592345,-0.8294538,2.3645904,1.4407754,-1.0124717,1.2339712,-0.5765232,-1.6902549,-0.8508545,2.3097749,1.3794562,-1.0333189,-1.4459711,1.3758104,0.69809556,0.5402643,0.9200581,0.47994724,0.04108873,1.5623436,-0.41256714,1.5841647,-2.806474,-0.29648262,1.038676,0.13618469,-0.41042328,1.0341502,0.8145873,-0.17261781,0.057903692,0.5507247,-0.6611355,0.8570803,0.69157004,1.0,0.0,0.0,0.0,0.0,0.0,0.0,-2.2123437,0.012567133,-1.0341647,-0.011301041,-0.4395008,-0.8160591,-8.543407,-0.22319555,0.5341828,1.9431502
15.511127,39.243595,10.007745,1.0107794,-0.8478337,-1.2476311,0.3310747,-0.806664,0.76666796,0.37029648,0.24010423,0.64325255,0.66283864,0.27867272,1.1533048,-0.49985638,-1.6532253,-0.8268441,2.3741002,1.44574,-1.0054516,1.2195269,-0.56279504,-1.6833923,-0.84602606,2.3189683,1.3842646,-1.0327181,-1.4439938,1.37197,0.68292224,0.46352467,0.9193905,0.48209968,0.066129364,1.534298,-0.41552734,1.5938072,-2.803668,-0.2961862,0.9394516,0.1299324,-0.40182495,1.0408062,0.81506413,-0.18155943,0.05794946,0.54712754,-0.6026543,0.86689293,0.6503337,1.0,0.0,0.0,0.0,0.0,0.0,0.0,-2.184298,0.015527338,-1.0438073,0.178051,-0.3503561,-1.3780951,-7.7297983,-0.028049946,0.49886107,2.4216719
11.113766,34.58375,8.4205265,4.2817893,-0.44501907,-1.2452986,0.22643171,-0.8017919,0.7521476,0.34563893,0.25670218,0.62447697,0.6582604,0.3636622,1.1393477,-0.48758027,-1.6488284,-0.82035583,2.381416,1.4500906,-0.99635184,1.2051226,-0.5491613,-1.6767776,-0.8416668,2.3281083,1.3890864,-1.0318235,-1.4392031,1.3606391,0.654557,0.42655027,0.9124172,0.48302335,0.0969835,1.5062828,-0.41848755,1.6024582,-2.800865,-0.2958901,0.8403263,0.12416077,-0.3931961,1.0470921,0.81531245,-0.19019186,0.058265287,0.543781,-0.5587934,0.8680777,0.61486065,1.0,0.0,0.0,0.0,0.0,0.0,0.0,-2.156283,0.018487543,-1.0524583,0.4626751,-1.0810137,-2.7760863,-3.775245,-0.60237646,0.33262372,3.0120373
6.0146837,28.512974,6.197675,7.5366635,-0.037969053,-1.2710922,0.07361068,-0.803058,0.73981583,0.29683602,0.2689483,0.6170711,0.65760106,0.37564686,1.1248168,-0.47517973,-1.647094,-0.814772,2.3898153,1.4548465,-0.9942588,1.1907564,-0.5356878,-1.6706417,-0.8374144,2.3371606,1.3939139,-1.0306352,-1.4359143,1.3431786,0.59998935,0.42445567,0.9033141,0.48318523,0.12575808,1.4782982,-0.42144775,1.6101187,-2.7980647,-0.29559427,0.74130017,0.11871719,-0.3846283,1.0530488,0.8154555,-0.1985649,0.05883783,0.540502,-0.5301786,0.8588257,0.583016,1.0,0.0,0.0,0.0,0.0,0.0,0.0,-2.1282983,0.021447748,-1.0601187,0.2947092,-1.6795397,-5.454111,-0.3252864,-0.76436996,0.21814704,2.8137982
4.7833757,25.836205,5.2319946,7.926492,0.00977385,-1.350752,0.038660783,-0.8024588,0.73099214,0.2691967,0.24703588,0.5974604,0.6527502,0.41886318,1.1105106,-0.46258858,-1.6437219,-0.8127108,2.3969066,1.4591889,-0.9887489,1.1764151,-0.522405,-1.6651161,-0.8331629,2.3460755,1.3987356,-1.029159,-1.4336694,1.3235285,0.5367086,0.42500988,0.8879359,0.48263437,0.15477137,1.4503365,-0.42440796,1.6167897,-2.7952673,-0.29529876,0.64237297,0.113536835,-0.37617493,1.0586863,0.81555986,-0.20667487,0.0596904,0.5372008,-0.5033613,0.8456076,0.5512589,1.0,0.0,0.0,0.0,0.0,0.0,0.0,-2.1003366,0.024407953,-1.0667896,0.18854141,-1.8962145,-6.3379765,-0.06824732,-1.3851047,0.14220476,2.8422623
6.08292,24.037457,4.6175776,5.9252253,-0.16173708,-1.5280715,0.07209564,-0.79854405,0.7186863,0.24074715,0.2053842,0.58129597,0.6532453,0.43008482,1.0965607,-0.4505364,-1.6410414,-0.81262445,2.404205,1.4640602,-0.98615044,1.1621062,-0.5093349,-1.6602314,-0.82907164,2.3548036,1.4035536,-1.0274137,-1.4301028,1.3017848,0.47240424,0.40338507,0.86830765,0.4823264,0.18085447,1.4224052,-0.4273529,1.6224722,-2.7924728,-0.2950035,0.5435447,0.108695984,-0.36786652,1.0639703,0.8156338,-0.21445735,0.0608608,0.5338965,-0.46857938,0.82875836,0.5151418,1.0,0.0,0.0,0.0,0.0,0.0,0.0,-2.0724053,0.0273529,-1.0724721,0.34165382,-2.1063328,-6.441033,-2.27471,-1.8349171,0.1932025,2.5564432
8.288807,23.476467,4.512741,3.3216238,-0.40038708,-1.6991786,0.14884964,-0.79630256,0.7049075,0.22414996,0.15698871,0.5570349,0.65738666,0.46040332,1.0824759,-0.43884417,-1.6378163,-0.8133728,2.410507,1.4692923,-0.98137337,1.1478392,-0.49649656,-1.6559055,-0.8254229,2.3632913,1.4083754,-1.0254148,-1.4257205,1.2780828,0.41917667,0.35177925,0.8424646,0.48281968,0.2059764,1.3945045,-0.43029785,1.6271671,-2.7896807,-0.29470855,0.44481534,0.10428238,-0.35974884,1.0688576,0.8156462,-0.22183013,0.062380884,0.53068006,-0.42310202,0.8099456,0.47452798,1.0,0.0,0.0,0.0,0.0,0.0,0.0,-2.0445046,0.030297846,-1.077167,0.45137405,-2.3041248,-5.325526,-5.249614,-2.4927258,0.30312538,2.4659486
10.758703,23.258398,4.4778986,0.30409336,-0.6485522,-1.8994212,0.23915309,-0.79665536,0.69282275,0.2076266,0.088522114,0.5485173,0.6562612,0.48124394,1.0681736,-0.42721426,-1.6351428,-0.8165707,2.418143,1.4740015,-0.97729045,1.1336046,-0.48389614,-1.6520221,-0.8225676,2.371531,1.4132029,-1.0231775,-1.4223778,1.2542669,0.37810233,0.26328626,0.81806237,0.48355493,0.22949141,1.3666267,-0.4332428,1.6308755,-2.7868915,-0.2944139,0.34618467,0.10041046,-0.3518448,1.0732971,0.8155583,-0.2286875,0.06426893,0.5276703,-0.36566517,0.78807276,0.4287911,1.0,0.0,0.0,0.0,0.0,0.0,0.0,-2.0166268,0.033242792,-1.0808754,0.37870407,-2.3157835,-4.105878,-8.908903,-2.3880363,0.35623908,2.315435
12.033639,25.631374,5.4329977,-0.16830492,-0.69948816,-1.918116,0.29329515,-0.7932293,0.6856102,0.20863475,0.04886896,0.5436704,0.6524492,0.50111306,1.0542817,-0.41533512,-1.6311586,-0.81768066,2.425898,1.4784478,-0.9730662,1.1194102,-0.47150648,-1.6483982,-0.820665,2.379561,1.4180323,-1.020717,-1.4181998,1.2340703,0.3571474,0.16575857,0.79837584,0.48374695,0.25145432,1.3387794,-0.43618774,1.6335982,-2.784105,-0.29411954,0.24765262,0.097141266,-0.3441162,1.0772978,0.81532675,-0.23501009,0.06648875,0.52496827,-0.30529258,0.7688768,0.385827,1.0,0.0,0.0,0.0,0.0,0.0,0.0,-1.9887794,0.03618774,-1.0835981,0.47812462,-1.9519806,-2.1014452,-9.786805,-1.9244671,0.28948188,2.1654189
8.735211,23.36926,4.787683,3.2941065,-0.3583597,-1.8285372,0.1861465,-0.78256965,0.6686844,0.1691233,0.06949092,0.50736624,0.64844996,0.53182954,1.0411532,-0.40463802,-1.6314858,-0.81371593,2.4302976,1.4828773,-0.96753407,1.1052977,-0.4593352,-1.6450546,-0.8194338,2.387339,1.4228579,-1.0180391,-1.4086108,1.2117006,0.3265427,0.108645104,0.77156824,0.4829782,0.27305657,1.3109589,-0.4391327,1.6353364,-2.7813215,-0.29382548,0.14921907,0.094371796,-0.3366089,1.0809282,0.8149953,-0.24088868,0.069007985,0.5224874,-0.25918633,0.748115,0.35102126,1.0,0.0,0.0,0.0,0.0,0.0,0.0,-1.9609588,0.039132684,-1.0853364,1.0071039,-2.1614313,-3.1108081,-5.7704434,-2.5910974,0.1437664,2.1244884
5.3343105,17.183737,2.6070948,4.9085097,-0.09513575,-1.9154835,0.072624676,-0.7810578,0.6490952,0.108857386,0.04253767,0.49059415,0.6455802,0.54100555,1.0271919,-0.3944257,-1.6341689,-0.81518006,2.4363985,1.4874159,-0.96393853,1.0912787,-0.4474243,-1.6422336,-0.8186518,2.3948464,1.4276739,-1.0151609,-1.3995689,1.1845008,0.26712042,0.067729,0.744073,0.48171082,0.29242668,1.283165,-0.44206238,1.636091,-2.7785408,-0.29353172,0.050883934,0.09198761,-0.32935333,1.0842122,0.81466514,-0.24633867,0.07182846,0.5200756,-0.22263402,0.7173726,0.3166997,1.0,0.0,0.0,0.0,0.0,0.0,0.0,-1.933165,0.042062372,-1.086091,0.94308853,-2.6406288,-6.015867,-4.1812377,-2.6457071,0.07421374,1.9017935
4.7949114,11.336006,0.4513201,2.8590097,-0.19620758,-2.180423,0.05587783,-0.7786125,0.62831515,0.05725411,-0.033939514,0.45319358,0.6455401,0.5596306,1.0134175,-0.38459277,-1.6365082,-0.82204574,2.4401658,1.4922279,-0.9591979,1.0773417,-0.43582523,-1.6401756,-0.81846106,2.4020143,1.4324785,-1.0120996,-1.3914924,1.1519643,0.18505369,0.0025786518,0.70835406,0.48067898,0.31068686,1.2554016,-0.44499207,1.6358631,-2.775763,-0.29323825,-0.047352888,0.09001541,-0.32250977,1.0870941,0.8144145,-0.25124234,0.07501979,0.51766604,-0.18050702,0.67424905,0.2748636,1.0,0.0,0.0,0.0,0.0,0.0,0.0,-1.9054016,0.04499206,-1.0858631,0.88391304,-3.1733751,-8.301515,-6.5983534,-3.5001159,0.11514425,1.7995417
2.5695853,2.1868832,-2.9171648,1.3808384,-0.15454227,-2.4909782,-0.019313097,-0.77679676,0.60124016,-0.03835444,-0.08901807,0.42637,0.6454129,0.567118,0.999662,-0.37570122,-1.644011,-0.8273629,2.4446514,1.4970199,-0.95538783,1.0634714,-0.4246105,-1.6392505,-0.8190619,2.4088044,1.4372736,-1.0088705,-1.3851193,1.1116207,0.06125705,-0.08131851,0.6691303,0.4798225,0.32691213,1.227665,-0.44792175,1.6346534,-2.7729878,-0.2929451,-0.1454915,0.08847809,-0.31624603,1.0894935,0.81435317,-0.25542912,0.07866041,0.51516724,-0.13790223,0.6122548,0.22481333,1.0,0.0,0.0,0.0,0.0,0.0,0.0,-1.8776649,0.047921747,-1.0846534,0.7564783,-3.9535522,-12.501981,-8.477728,-3.8876295,0.13644695,1.5995443
-0.13601875,-3.3255804,-4.6904583,2.4832277,0.06298092,-2.54517,-0.09084907,-0.7772287,0.5721048,-0.09884615,-0.1135971,0.3822642,0.65578604,0.5748503,0.9857486,-0.36740002,-1.6491351,-0.83042157,2.4470308,1.5028522,-0.95138544,1.0496432,-0.413854,-1.6396472,-0.8204628,2.4151406,1.4420668,-1.0054945,-1.3817918,1.0639404,-0.07364585,-0.15998268,0.6216134,0.47987574,0.34121037,1.199955,-0.45085144,1.6324632,-2.7702153,-0.2926522,-0.24353197,0.08729935,-0.31064606,1.0913898,0.8145663,-0.258843,0.08277735,0.5124741,-0.10370227,0.54208946,0.17490944,1.0,0.0,0.0,0.0,0.0,0.0,0.0,-1.849955,0.050851434,-1.0824633,0.46083927,-4.690933,-13.614172,-7.964815,-4.7339916,0.19648075,1.393795
1.4981449,-3.1115851,-3.668965,1.5630808,0.1222747,-2.5055356,0.039590254,-0.7652848,0.5258375,-0.06356212,-0.18253788,0.32450622,0.66098005,0.5817808,0.97311467,-0.36127025,-1.6460035,-0.8387166,2.4475913,1.5081648,-0.9473164,1.0358874,-0.40369022,-1.6409309,-0.82276404,2.4209046,1.4468657,-1.0019869,-1.372848,1.000791,-0.14715113,-0.25362617,0.5614916,0.48049098,0.35381123,1.1722755,-0.45378113,1.6292933,-2.7674456,-0.2923596,-0.34147444,0.08648682,-0.30571747,1.0927866,0.81497383,-0.26151103,0.0872637,0.50972,-0.0689737,0.47378042,0.12534261,1.0,0.0,0.0,0.0,0.0,0.0,0.0,-1.8222755,0.053781122,-1.0792933,1.0707617,-6.237769,-7.506712,-9.422594,-6.003809,0.2413392,1.2196481
5.8474026,2.9100032,-0.4197659,-0.31693935,0.051205397,-2.3829098,0.28610313,-0.7576281,0.48352212,0.022995,-0.27608645,0.29104257,0.66682714,0.5848657,0.96012455,-0.355338,-1.6386313,-0.8503727,2.4500089,1.5135484,-0.9435003,1.0222479,-0.39423597,-1.6421974,-0.82622683,2.426062,1.451676,-0.9983658,-1.3602899,0.92726606,-0.12061912,-0.3771484,0.50083774,0.48163977,0.3647874,1.144619,-0.4567032,1.6251447,-2.7646787,-0.2920673,-0.43931895,0.0860672,-0.30139923,1.0936962,0.8153594,-0.26349604,0.091902666,0.5072601,-0.027461728,0.41608843,0.077208,1.0,0.0,0.0,0.0,0.0,0.0,0.0,-1.794619,0.05670318,-1.0751448,1.461339,-7.2717547,2.4641185,-12.352503,-6.0438514,0.28463006,1.0705173
9.159363,7.734143,2.60252,-0.96613955,0.13469195,-2.201051,0.5025859,-0.74370265,0.4268747,0.13438803,-0.34788725,0.24628235,0.6726618,0.5879235,0.94787765,-0.3515485,-1.6287585,-0.86101556,2.4506903,1.5189422,-0.93957347,1.008782,-0.3856262,-1.6424472,-0.83102286,2.4306016,1.4565016,-0.99464554,-1.3413728,0.8390907,0.005920558,-0.5136599,0.4388102,0.48314014,0.37437218,1.116993,-0.4596176,1.6200184,-2.7619147,-0.2917753,-0.5370657,0.086078644,-0.29758453,1.0941482,0.8154878,-0.26490927,0.09643073,0.50547385,0.015170371,0.36904645,0.032469973,1.0,0.0,0.0,0.0,0.0,0.0,0.0,-1.7669929,0.05961761,-1.0700183,2.1157503,-8.736002,12.400503,-13.614488,-6.1303973,0.30234456,0.9497702
9.374147,6.722085,2.3394303,-2.108317,0.11486097,-2.281927,0.53782684,-0.7441862,0.38693544,0.14637363,-0.44529468,0.22508773,0.6736298,0.58119076,0.9343634,-0.34693265,-1.6278099,-0.8755523,2.4531105,1.5238646,-0.9365265,0.9954732,-0.37790048,-1.641381,-0.8373352,2.434588,1.4613367,-0.99084705,-1.3266134,0.75066954,0.13911861,-0.6703053,0.38516864,0.4841962,0.38169205,1.0893974,-0.46253204,1.6139152,-2.7591534,-0.29148358,-0.6347147,0.08654785,-0.29425812,1.0941277,0.8152996,-0.26572728,0.10074853,0.504505,0.06013641,0.31831038,-0.015540381,1.0,0.0,0.0,0.0,0.0,0.0,0.0,-1.7393974,0.06253204,-1.0639153,1.7209053,-8.772814,13.045755,-15.619755,-5.3027153,0.21776557,0.72918534
6.156064,-5.9907594,-1.8924272,-3.5976822,0.11073023,-2.5405116,0.4558771,-0.7256853,0.29715097,0.16180637,-0.5338425,0.036526673,0.67223036,0.5779057,0.9229047,-0.3481854,-1.6252004,-0.8907195,2.4382405,1.5285598,-0.9330565,0.98235637,-0.37125957,-1.63918,-0.8452803,2.437594,1.4661795,-0.98699135,-1.3056173,0.63533473,0.24621443,-0.8357238,0.27274185,0.48428223,0.3866933,1.0618248,-0.46544647,1.6068364,-2.7563946,-0.29119214,-0.7322661,0.087451935,-0.29159546,1.0935444,0.8148913,-0.26582518,0.104995236,0.5042471,0.10364437,0.24777398,-0.074441835,1.0,0.0,0.0,0.0,0.0,0.0,0.0,-1.7118248,0.065446466,-1.0568364,2.4184942,-11.500179,10.421702,-16.507483,-11.24627,0.05682707,0.44397116
-7.983891,-54.632195,-17.103065,-4.4816256,1.2569273,-3.1809373,0.1699766,-0.69368696,0.061812423,0.14637794,-0.59835285,-0.27744693,0.65911525,0.56992656,0.91298765,-0.36507833,-1.6245421,-0.9051156,2.4098492,1.532091,-0.9299987,0.9695657,-0.3666495,-1.636317,-0.85478747,2.438643,1.4710013,-0.98311085,-1.2688041,0.4025296,0.29910132,-0.9892196,0.047726087,0.48102662,0.38758296,1.0342827,-0.4683609,1.5987828,-2.7536387,-0.290901,-0.82972,0.08850098,-0.2901764,1.0921695,0.81454754,-0.2649406,0.10925596,0.50436276,0.10808329,0.10392479,-0.16024914,1.0,0.0,0.0,0.0,0.0,0.0,0.0,-1.6842827,0.068360895,-1.0487828,4.1308165,-23.380232,5.152881,-15.3991585,-22.753714,-0.46979785,-0.18322468
-36.49847,-143.41496,-45.54521,-2.526449,4.294143,-4.249602,-0.4363068,-0.6352578,-0.31163827,-0.042139497,-0.6088036,-0.4811446,0.64783365,0.5441877,0.9060399,-0.39781332,-1.640531,-0.91566783,2.3905284,1.5357846,-0.9286921,0.95737296,-0.36584747,-1.6340816,-0.86545527,2.4370065,1.4757582,-0.9792666,-1.2009102,-0.028480249,0.19968392,-1.0931197,-0.23655863,0.4719357,0.38107786,1.0067673,-0.4712677,1.5897554,-2.7508857,-0.29061016,-0.92707646,0.088871,-0.29122925,1.0896437,0.8148349,-0.26264098,0.11322475,0.50422597,0.013758327,-0.17873919,-0.2846388,1.0,0.0,0.0,0.0,0.0,0.0,0.0,-1.6567672,0.071267694,-1.0397553,7.365942,-43.477867,-9.551228,-10.54213,-29.206013,-1.5174329,-1.3228178
-44.859425,-166.87622,-51.325718,1.7828679,6.0751333,-4.0351477,-0.42761868,-0.5812826,-0.566191,0.08956042,-0.63696057,-0.5336454,0.66058457,0.51155293,0.8992447,-0.42246658,-1.6251255,-0.9291513,2.383642,1.5418167,-0.9281113,0.94602615,-0.3700217,-1.6323898,-0.87687457,2.4327798,1.4804159,-0.9755148,-1.1107032,-0.548756,0.16047722,-1.158127,-0.48741877,0.46046665,0.37097058,0.97927856,-0.47416687,1.5797551,-2.7481356,-0.29031962,-1.0243355,0.087882996,-0.29532623,1.0858611,0.81584233,-0.25893617,0.11620967,0.5038338,-0.13685697,-0.48632583,-0.41034397,1.0,0.0,0.0,0.0,0.0,0.0,0.0,-1.6292785,0.074166864,-1.0297551,9.595537,-52.52996,-3.4224243,-6.4718246,-25.901926,-2.1559894,-1.6891539
-32.34524,-131.34769,-38.947506,1.5236393,5.370792,-3.370853,-0.04732469,-0.4728357,-0.69267756,0.16650124,-0.70576906,-0.55021197,0.6385301,0.5022612,0.89874256,-0.43928945,-1.6157397,-0.9474515,2.3777585,1.544269,-0.9252887,0.9359191,-0.3789891,-1.6305683,-0.8889538,2.4265695,1.484944,-0.9718537,-0.9763003,-1.0142379,0.19074999,-1.2240285,-0.6671977,0.44647408,0.36312237,0.9518204,-0.47706604,1.5687829,-2.7453878,-0.29002935,-1.1214974,0.085609436,-0.30207062,1.0809321,0.81722134,-0.25411043,0.117793076,0.5036883,-0.26117393,-0.73376447,-0.52164227,1.0,0.0,0.0,0.0,0.0,0.0,0.0,-1.6018203,0.077066034,-1.0187829,13.748777,-46.994827,3.4712524,-6.4130783,-18.541182,-2.536869,-1.2031615
2.234311,-49.073715,-10.377679,-4.1905966,2.5303447,-2.4884713,0.6772556,-0.1477025,-0.7410733,0.22571713,-0.71146935,-0.59616566,0.6274519,0.42479494,0.92114884,-0.45309645,-1.6079966,-0.96010077,2.366953,1.5476892,-0.92937416,0.92841464,-0.39151943,-1.62802,-0.90153277,2.4189973,1.4893538,-0.9683003,-0.6771326,-1.3333769,0.2781121,-1.2693533,-0.7869893,0.43667045,0.35267356,0.9243851,-0.4799652,1.55684,-2.7426429,-0.28973937,-1.2185621,0.08287048,-0.31036377,1.075151,0.818257,-0.24872814,0.11791847,0.50466317,-0.28120753,-0.85716254,-0.5991329,1.0,0.0,0.0,0.0,0.0,0.0,0.0,-1.574385,0.079965204,-1.00684,29.341244,-32.119797,9.2893715,-4.572487,-11.954737,-1.7320633,-1.081258
22.674194,7.2722507,6.9447727,-5.5331225,0.33911675,-2.0709035,0.7837735,0.09080523,-0.7727954,0.049941175,-0.65540045,-0.6176921,0.6403341,0.3005468,0.9374952,-0.46879897,-1.6230259,-0.96707284,2.357228,1.5533872,-0.9382456,0.92466,-0.40612447,-1.6254394,-0.91414034,2.4105935,1.4937102,-0.9649281,-0.27906284,-1.5030487,0.25460884,-1.2587678,-0.8578637,0.43395633,0.3324171,0.8969803,-0.48286438,1.5439271,-2.7399008,-0.2894497,-1.3155298,0.0804863,-0.31932068,1.0688214,0.81860906,-0.2432334,0.11694959,0.5069905,-0.22747865,-0.90243167,-0.6474411,1.0,0.0,0.0,0.0,0.0,0.0,0.0,-1.5469803,0.082864374,-0.99392706,38.554966,-17.021488,-1.4392436,0.79495907,-6.859195,-0.62689185,-1.9201994
31.78068,36.3624,13.81826,-6.9835076,-1.1482364,-2.156787,0.6458863,0.2584299,-0.7843823,-0.15154326,-0.65754145,-0.60170305,0.6341711,0.27164745,0.950503,-0.4845627,-1.6405938,-0.9798945,2.350423,1.5571272,-0.93776333,0.92497855,-0.42154205,-1.6242187,-0.9265257,2.4018083,1.4980551,-0.9617705,0.13062365,-1.5547018,0.08165756,-1.2329221,-0.8846966,0.434042,0.3105303,0.8696022,-0.48576355,1.5300453,-2.7371616,-0.2891603,-1.4124006,0.07896423,-0.32852173,1.0620965,0.81834173,-0.23767199,0.115454294,0.510391,-0.12722148,-0.917666,-0.6848867,1.0,0.0,0.0,0.0,0.0,0.0,0.0,-1.5196022,0.085763544,-0.98004526,39.512463,-5.165148,-16.189775,2.2319078,-2.499199,-0.17126203,-2.098745
29.879572,41.474583,12.411049,-6.5005193,-1.6546421,-2.3764532,0.36351967,0.3621353,-0.78983927,-0.34040433,-0.6760671,-0.5680716,0.63396186,0.26600027,0.9611921,-0.50052595,-1.6582592,-0.9941324,2.3450012,1.5614513,-0.9351705,0.9289077,-0.43695772,-1.6256244,-0.9387289,2.3930268,1.5024058,-0.9588217,0.476213,-1.5372277,-0.21147086,-1.2170689,-0.876071,0.43480343,0.28980398,0.8422508,-0.48864746,1.5151955,-2.7344248,-0.2888712,-1.5091746,0.07849884,-0.3378601,1.0549823,0.81773216,-0.23182201,0.11393151,0.5143853,-0.016919775,-0.93541646,-0.72503734,1.0,0.0,0.0,0.0,0.0,0.0,0.0,-1.4922508,0.088647455,-0.9651955,33.337616,1.7392635,-28.307474,1.2914658,0.9213209,-0.10870695,-2.0550847
23.169191,35.453545,8.500303,-4.280544,-1.4452031,-2.4266725,0.13980286,0.43481824,-0.8024165,-0.46406418,-0.69429755,-0.54094213,0.6140565,0.26900432,0.9723895,-0.5171994,-1.6720308,-1.0081587,2.3389325,1.5638114,-0.9319213,0.93558437,-0.45204532,-1.6302001,-0.95091116,2.3844857,1.5067488,-0.956057,0.72873014,-1.4993689,-0.53723556,-1.219188,-0.84676003,0.43317944,0.27191263,0.81492996,-0.49153137,1.4993787,-2.731691,-0.28858238,-1.6058518,0.07902527,-0.34747314,1.0474234,0.8170496,-0.22544059,0.11265252,0.5185709,0.079256885,-0.9635723,-0.771756,1.0,0.0,0.0,0.0,0.0,0.0,0.0,-1.4649299,0.091531366,-0.94937867,24.43782,3.7586212,-31.867361,-0.38540363,2.9060006,-0.40313005,-1.8127024
19.451023,33.044037,7.532416,-2.5309772,-1.1546782,-2.2441654,0.10804579,0.51115525,-0.8045262,-0.5269981,-0.7217724,-0.49962285,0.6049205,0.25955775,0.9866999,-0.53249794,-1.6829,-1.0230885,2.3345234,1.5672408,-0.9301012,0.94421226,-0.46676433,-1.637656,-0.96328795,2.3763604,1.5110651,-0.95345634,0.9058213,-1.4628767,-0.81363994,-1.2440768,-0.8010022,0.43034545,0.25620422,0.787632,-0.49441528,1.4825958,-2.7289598,-0.28829387,-1.7024323,0.08039093,-0.35734558,1.0393777,0.8163806,-0.21842,0.11162681,0.5228334,0.16167316,-0.9907016,-0.8218648,1.0,0.0,0.0,0.0,0.0,0.0,0.0,-1.437632,0.09441528,-0.9325958,17.21952,3.6243677,-27.256775,-2.584362,4.5530915,-0.5467534,-1.5709281
17.27559,31.808853,7.8720713,-0.6106839,-0.80216366,-1.9623351,0.13059048,0.58753294,-0.8099695,-0.58719206,-0.7327311,-0.46482015,0.59789926,0.21057393,1.0029656,-0.54776126,-1.6963751,-1.036561,2.3298783,1.570855,-0.932399,0.9542573,-0.48123014,-1.6473358,-0.97596705,2.36875,1.515349,-0.95102733,1.0363696,-1.4412347,-1.0189092,-1.27605,-0.7478152,0.42696983,0.23862533,0.76036453,-0.4972992,1.4648478,-2.7262316,-0.28800562,-1.7989162,0.08246231,-0.36746216,1.0308405,0.8156926,-0.21079633,0.11071592,0.5272119,0.23013882,-1.0123092,-0.8715878,1.0,0.0,0.0,0.0,0.0,0.0,0.0,-1.4103645,0.09729919,-0.9148478,12.754166,2.1433353,-20.364916,-3.2428741,5.3197503,-0.5968332,-1.7102987
16.19254,35.196495,10.061045,1.991394,-0.6493167,-1.5407083,0.18414159,0.6310898,-0.8032848,-0.6182245,-0.7390524,-0.47960445,0.61094445,0.23273164,1.0173663,-0.5615586,-1.7091582,-1.0498723,2.3207896,1.5764434,-0.92775416,0.9653066,-0.4955448,-1.6584651,-0.9889437,2.3615403,1.5196139,-0.9487385,1.1272107,-1.4281927,-1.1445988,-1.3049413,-0.71191067,0.42580292,0.22592142,0.73311996,-0.5001831,1.4461356,-2.7235057,-0.28771767,-1.8953036,0.08515549,-0.37767792,1.0218536,0.8148973,-0.20270663,0.10984607,0.5317765,0.28914052,-1.0178583,-0.9155587,1.0,0.0,0.0,0.0,0.0,0.0,0.0,-1.38312,0.1001831,-0.8961356,8.920002,1.2961388,-12.591338,-2.9124498,3.6194444,-0.32418966,-1.1839956
14.725527,36.0718,11.0700655,3.8618069,-0.49260873,-1.2628708,0.20532314,0.6619687,-0.80560505,-0.6553591,-0.7546804,-0.47934437,0.57833785,0.22621742,1.0315034,-0.5761053,-1.724001,-1.0644118,2.3136058,1.5774477,-0.92611676,0.97704154,-0.5098054,-1.670449,-1.002202,2.3545823,1.5238482,-0.9465632,1.1886654,-1.4254383,-1.2167162,-1.3327215,-0.69027364,0.42208412,0.21513318,0.7059059,-0.50305176,1.4264603,-2.7207828,-0.28743002,-1.9915947,0.08836746,-0.38786316,1.0124536,0.81393343,-0.19425435,0.10898034,0.53656393,0.33978477,-1.0147603,-0.95638907,1.0,0.0,0.0,0.0,0.0,0.0,0.0,-1.3559059,0.10305175,-0.87646025,6.073022,0.27012825,-7.3407173,-2.7717113,2.1980882,-0.5548179,-0.973016
13.236889,38.80866,12.983976,6.708644,-0.24233031,-0.8763283,0.22829807,0.67546594,-0.8106267,-0.63999933,-0.7538118,-0.4642387,0.5940679,0.23117432,1.0445881,-0.59086806,-1.7344489,-1.0775832,2.3081584,1.5832549,-0.92344576,0.9891942,-0.5241019,-1.6827056,-1.0156546,2.3478036,1.5280615,-0.9444756,1.2240713,-1.4310926,-1.2293078,-1.3493978,-0.6738075,0.4208179,0.20705743,0.67871857,-0.5059204,1.4058229,-2.7180626,-0.28714263,-2.0877893,0.091999054,-0.39794922,1.002707,0.8127345,-0.18559383,0.108036876,0.5416138,0.37896755,-0.9991701,-0.9892255,1.0,0.0,0.0,0.0,0.0,0.0,0.0,-1.3287185,0.105920404,-0.85582286,3.534603,-0.56853294,-1.4695883,-1.6469002,1.6818166,-0.24906993,-0.6731659
10.852733,41.420696,14.238293,9.786384,-0.10128343,-0.55466235,0.18895054,0.6747017,-0.80754155,-0.63953304,-0.74453133,-0.49316677,0.5993633,0.24108328,1.0566643,-0.6048561,-1.7466589,-1.0901077,2.298487,1.5879978,-0.92036724,1.0015196,-0.53845567,-1.694865,-1.0291567,2.3410478,1.5322729,-0.94245,1.2356682,-1.4367168,-1.2121327,-1.3502525,-0.67623395,0.42109597,0.20146027,0.6515579,-0.50878906,1.3842242,-2.7153451,-0.28685555,-2.1838877,0.095947266,-0.40779877,0.9926927,0.81128454,-0.17686872,0.10703548,0.54688036,0.40855294,-0.9730558,-1.0139066,1.0,0.0,0.0,0.0,0.0,0.0,0.0,-1.3015579,0.10878906,-0.83422416,1.2205839,-0.5661249,1.4639854,-0.048732758,-0.23376942,-0.036251545,-0.43218434
6.9939623,41.10336,14.103305,12.905823,0.13229728,-0.2994601,0.111507565,0.66138905,-0.8145499,-0.6326612,-0.72858566,-0.5260877,0.6196025,0.24496642,1.0676584,-0.61991066,-1.7581311,-1.1020153,2.288439,1.5942332,-0.9179534,1.0137933,-0.5528886,-1.7067478,-1.0425386,2.334128,1.5365072,-0.94047016,1.2249146,-1.445587,-1.1811297,-1.3340234,-0.6973496,0.42405725,0.19724393,0.6244278,-0.5116577,1.3616651,-2.7126303,-0.28656876,-2.27989,0.10009384,-0.41736603,0.9824747,0.80961794,-0.16819043,0.10603796,0.552256,0.4255226,-0.9428588,-1.0327519,1.0,0.0,0.0,0.0,0.0,0.0,0.0,-1.2744278,0.11165771,-0.8116651,-0.9554148,-0.90317726,2.845645,1.6916752,-2.152288,0.26863813,-0.31501055
3.4187155,39.208454,12.918775,14.362386,0.27730244,-0.21029282,0.057980776,0.63717157,-0.81690645,-0.6389739,-0.73331034,-0.5448318,0.61511886,0.30348706,1.0775105,-0.63457924,-1.7706451,-1.1158696,2.2796447,1.5980191,-0.91012144,1.0258039,-0.56740636,-1.718375,-1.0557661,2.3269334,1.5407664,-0.9384827,1.1935883,-1.4540609,-1.1574347,-1.3185918,-0.72715956,0.42652553,0.19946846,0.59732056,-0.51452637,1.3381469,-2.7099183,-0.28628224,-2.3757963,0.10435867,-0.426651,0.9720628,0.8077886,-0.1595572,0.1051206,0.55764574,0.43424094,-0.9150229,-1.0521169,1.0,0.0,0.0,0.0,0.0,0.0,0.0,-1.2473205,0.11452636,-0.7881469,-2.951908,-0.8769512,2.1191359,1.6538382,-3.0773044,0.21249056,0.30276477
-0.9221554,37.345707,11.837151,16.436779,0.5808498,-0.06393948,-0.008952066,0.59630644,-0.82324225,-0.62061447,-0.72495013,-0.5417481,0.61833775,0.30550402,1.0854346,-0.64973056,-1.7804364,-1.1282611,2.2727585,1.6026001,-0.9079323,1.0373243,-0.5820195,-1.7297504,-1.0688276,2.3194833,1.5450522,-0.9364676,1.1391166,-1.4638718,-1.131934,-1.3017269,-0.75168467,0.4290999,0.20241663,0.57024384,-0.5173874,1.3136703,-2.7072089,-0.28599602,-2.4716067,0.10861206,-0.43567657,0.96146524,0.80585736,-0.15096472,0.10428591,0.56296355,0.43008846,-0.88967556,-1.0701919,1.0,0.0,0.0,0.0,0.0,0.0,0.0,-1.2202438,0.117387384,-0.76367027,-5.207348,-1.0254383,2.3007393,1.8386126,-2.6034236,0.23371577,0.3641665
-2.1095686,38.14143,11.936782,16.849237,0.65554905,0.007901281,-0.017203897,0.56900024,-0.82109815,-0.61048794,-0.72645766,-0.5373341,0.62276363,0.3186909,1.0942243,-0.6641293,-1.7907991,-1.1414734,2.26575,1.6073285,-0.9045985,1.048242,-0.59669846,-1.7408931,-1.081769,2.3118577,1.5493647,-0.9344143,1.0770112,-1.4693831,-1.1091274,-1.2910755,-0.7668847,0.43179032,0.2065859,0.54319,-0.5202408,1.2882364,-2.704502,-0.2857101,-2.5673213,0.11279678,-0.44445038,0.9506872,0.80384934,-0.14239775,0.10351714,0.5681842,0.4225322,-0.86438704,-1.0878235,1.0,0.0,0.0,0.0,0.0,0.0,0.0,-1.19319,0.12024078,-0.73823637,-5.9487104,-0.5965471,2.023363,1.2309551,-1.6845703,0.24752021,0.48716664
-3.3834553,37.892567,11.488721,16.634495,0.68975127,0.025343418,-0.023557931,0.5283074,-0.8202905,-0.6095112,-0.7389694,-0.5352413,0.61410385,0.3303468,1.1010727,-0.6787275,-1.8018442,-1.1556659,2.2583337,1.6107751,-0.90137964,1.0584787,-0.6114041,-1.751868,-1.0947065,2.3041368,1.5536925,-0.9323134,1.0068679,-1.4710833,-1.0945971,-1.2938439,-0.7742347,0.43306324,0.21149755,0.5161667,-0.5230942,1.261846,-2.7017982,-0.28542444,-2.6629403,0.11689758,-0.45298004,0.9397102,0.80178064,-0.1337999,0.10280789,0.5733026,0.41300046,-0.8411996,-1.1082017,1.0,0.0,0.0,0.0,0.0,0.0,0.0,-1.1661667,0.12309417,-0.71184593,-6.7286015,-0.21853447,1.1880636,-0.09024143,-0.9143472,0.08806586,0.55766404
-8.286555,36.37496,10.028143,18.344315,0.89609,0.1437276,-0.11005579,0.45796916,-0.81630665,-0.61498165,-0.73873186,-0.5531439,0.6135945,0.3219634,1.1042756,-0.69303477,-1.8133662,-1.1685797,2.2488225,1.6150519,-0.90011704,1.0678457,-0.6260907,-1.7627838,-1.1076994,2.2963243,1.5580298,-0.93017524,0.91438067,-1.4681355,-1.0915486,-1.3002968,-0.784319,0.43387404,0.21477765,0.48916626,-0.5259476,1.2345,-2.699097,-0.28513908,-2.7584636,0.12083435,-0.46131134,0.92852104,0.79972285,-0.12512118,0.1022,0.578224,0.39277816,-0.82086474,-1.129499,1.0,0.0,0.0,0.0,0.0,0.0,0.0,-1.1391662,0.12594756,-0.68450004,-8.910835,0.23186207,0.0477314,-0.42142868,-1.2367725,0.03798008,0.3683746
-13.993237,33.47282,8.001773,19.961906,1.1594133,0.26119772,-0.18689705,0.38003236,-0.8182062,-0.6170002,-0.74918544,-0.56980217,0.6053223,0.32627395,1.1058489,-0.7079113,-1.8244838,-1.1826179,2.2393441,1.618562,-0.89754784,1.0761045,-0.64075154,-1.7737224,-1.1208048,2.2883782,1.5623671,-0.9280066,0.79750985,-1.4656465,-1.0955337,-1.3129476,-0.79888666,0.4334828,0.21760558,0.46219635,-0.52880096,1.2061996,-2.6963983,-0.284854,-2.8538916,0.12446976,-0.46946716,0.9170965,0.79775834,-0.11630673,0.10173249,0.58284193,0.3599136,-0.80540764,-1.1535175,1.0,0.0,0.0,0.0,0.0,0.0,0.0,-1.1121963,0.12880096,-0.65619963,-11.299801,0.1655817,-0.64594746,-0.9943247,-1.7348766,-0.09865761,0.30020773
-22.785826,30.551193,5.7130322,23.117294,1.6719402,0.517153,-0.28279915,0.26190493,-0.81682175,-0.6024999,-0.7651045,-0.55489373,0.58745486,0.3474428,1.102295,-0.7224337,-1.8339725,-1.1973152,2.232889,1.6211126,-0.8932623,1.0828718,-0.6553876,-1.7846496,-1.1340914,2.2803483,1.5666853,-0.92579883,0.63806677,-1.4632479,-1.0925708,-1.3329968,-0.8056569,0.43116266,0.22191474,0.43525314,-0.5316467,1.1769457,-2.6937025,-0.2845692,-2.9492242,0.1276207,-0.47751617,0.90543145,0.7959811,-0.107318275,0.10138151,0.5870423,0.30485234,-0.7945585,-1.1773787,1.0,0.0,0.0,0.0,0.0,0.0,0.0,-1.0852531,0.13164672,-0.6269457,-15.475571,0.12795925,0.043725967,-1.6726017,-1.0290742,-0.29296875,0.43436587
-34.53737,28.658058,3.4366372,28.109486,2.281347,0.9412847,-0.42491052,0.109730296,-0.81125176,-0.5791214,-0.771011,-0.5840784,0.59598184,0.3647226,1.0938448,-0.7365128,-1.8425617,-1.2111925,2.2219405,1.6262835,-0.8893266,1.0876287,-0.66998166,-1.7954319,-1.1475744,2.2721887,1.5709883,-0.9235386,0.42326915,-1.4586366,-1.0742608,-1.3521003,-0.8212831,0.42985672,0.22732693,0.40833664,-0.53448486,1.1467391,-2.6910093,-0.28428468,-3.0444615,0.1300087,-0.48545837,0.89356166,0.7945098,-0.0981781,0.101157,0.5906626,0.22077435,-0.7850674,-1.1964873,1.0,0.0,0.0,0.0,0.0,0.0,0.0,-1.0583366,0.13448486,-0.5967391,-20.914268,0.31282902,1.5710592,-1.5081406,-2.007699,-0.17616153,0.5210072
-49.296036,23.070189,-0.9451783,33.2632,3.110916,1.2921314,-0.60673416,-0.07194195,-0.8139525,-0.574569,-0.7864344,-0.58000576,0.5544977,0.36794752,1.0804346,-0.7513769,-1.8528887,-1.2262179,2.214188,1.626438,-0.8867439,1.0897821,-0.6845519,-1.8060119,-1.1612673,2.2638955,1.5752493,-0.92122597,0.1482215,-1.4571815,-1.0534359,-1.3733557,-0.83410716,0.42438638,0.23243235,0.38144684,-0.537323,1.1155808,-2.6883187,-0.28400046,-3.1396034,0.13129425,-0.49338531,0.8814992,0.7935149,-0.08886148,0.10103796,0.59348875,0.1012688,-0.7855247,-1.2154299,1.0,0.0,0.0,0.0,0.0,0.0,0.0,-1.0314468,0.13732299,-0.5655808,-26.830465,-0.06248951,1.828742,-1.6087055,-1.8464804,-0.6216824,0.47616363
-55.517006,20.118294,-3.1817122,34.798126,3.602454,1.3937325,-0.66335183,-0.19941047,-0.8175399,-0.5864839,-0.79670954,-0.5240395,0.5250895,0.38620505,1.069841,-0.76630586,-1.8646603,-1.2409382,2.2114916,1.6277583,-0.88260543,1.0891165,-0.6991374,-1.8164756,-1.1751661,2.2556634,1.5794302,-0.91885227,-0.1359731,-1.4598757,-1.0448778,-1.393406,-0.82144034,0.41555992,0.23905046,0.35458374,-0.54016113,1.0834719,-2.685631,-0.2837165,-3.2346501,0.1312828,-0.5013809,0.8692299,0.7930912,-0.079312645,0.10089273,0.5954297,-0.035045795,-0.79491085,-1.2363973,1.0,0.0,0.0,0.0,0.0,0.0,0.0,-1.0045837,0.14016113,-0.5334719,-27.729565,-0.5209446,0.6264925,-1.4130354,0.648427,-1.0213256,0.6608516
-62.008255,21.741793,-3.2532334,37.955917,4.0705304,1.745686,-0.71962255,-0.37330478,-0.8169502,-0.5485704,-0.7893653,-0.51157445,0.52160037,0.4053137,1.051786,-0.7808324,-1.8713326,-1.2541027,2.204506,1.6315902,-0.8783209,1.0854772,-0.7137553,-1.8267295,-1.1891718,2.247622,1.5835234,-0.9164004,-0.43751878,-1.46338,-1.019771,-1.4009249,-0.80039024,0.40678427,0.2473733,0.32774734,-0.54299927,1.0504131,-2.682946,-0.28343284,-3.3296018,0.12976456,-0.5094528,0.85681003,0.79328984,-0.06959164,0.10059222,0.59643054,-0.19034187,-0.802408,-1.2491746,1.0,0.0,0.0,0.0,0.0,0.0,0.0,-0.9777473,0.14299926,-0.5004131,-29.44408,-0.63598156,2.2734404,-0.09999275,1.4517546,-1.0364294,0.8744955
-56.36548,20.019781,-4.045782,33.603638,3.7766907,1.3401788,-0.6787151,-0.4373297,-0.8219656,-0.6366986,-0.79934585,-0.4707579,0.4352486,0.3524217,1.0417442,-0.79595184,-1.8903995,-1.2691064,2.2005463,1.6270483,-0.88115823,1.0792574,-0.72842854,-1.8371742,-1.2032461,2.2399049,1.5874678,-0.9139094,-0.68129385,-1.4695857,-1.0531328,-1.4072783,-0.76447535,0.3893056,0.24989438,0.30093765,-0.5458374,1.0164057,-2.6802635,-0.28314948,-3.4244585,0.12682724,-0.51769257,0.84416384,0.7941083,-0.059575677,0.10006404,0.59651476,-0.32952902,-0.8186331,-1.2747427,1.0,0.0,0.0,0.0,0.0,0.0,0.0,-0.9509376,0.1458374,-0.4664057,-23.755419,-0.915885,-3.5057545,0.036025047,2.962494,-2.026832,0.31797886
-53.755898,19.76072,-4.4242125,31.437141,3.5865831,1.2179675,-0.6642334,-0.5428275,-0.82651454,-0.68751514,-0.7876492,-0.46875477,0.4577841,0.36341834,1.0249746,-0.81108,-1.9059258,-1.282011,2.1930294,1.6332462,-0.8775675,1.0708822,-0.7431771,-1.8482406,-1.2172995,2.232512,1.5912596,-0.9113926,-0.8875,-1.477644,-1.1249841,-1.4023632,-0.73308533,0.37449747,0.252541,0.27415466,-0.5486603,0.9814503,-2.677584,-0.2828664,-3.5192206,0.12256241,-0.5260849,0.83120567,0.79552686,-0.04917119,0.09930961,0.5956984,-0.46150827,-0.83650935,-1.3077022,1.0,0.0,0.0,0.0,0.0,0.0,0.0,-0.92415464,0.14866027,-0.4314503,-20.055687,-1.1152029,-7.294178,1.184845,2.5114417,-1.8426061,0.33264756
-55.4777,19.890041,-5.2980933,31.201656,3.7213151,1.255101,-0.7604214,-0.6682368,-0.8243507,-0.74238086,-0.781007,-0.39768037,0.42658302,0.16671081,1.0040585,-0.8256122,-1.9224787,-1.2954001,2.192744,1.6339179,-0.89472157,1.0605348,-0.75798386,-1.8602302,-1.2312517,2.225573,1.5948912,-0.90899986,-1.0818667,-1.4827647,-1.223844,-1.3904018,-0.68274164,0.35774672,0.23516802,0.24739838,-0.55148315,0.94554806,-2.6749067,-0.28258356,-3.6138878,0.116947174,-0.5346832,0.81789017,0.797605,-0.038320243,0.09826978,0.59388614,-0.59882736,-0.85605925,-1.3444065,1.0,0.0,0.0,0.0,0.0,0.0,0.0,-0.89739835,0.15148315,-0.39554805,-18.882132,-0.85611343,-9.935403,1.9387007,4.366982,-2.129221,-1.6591042
-53.81768,26.244587,-2.2033386,31.759336,3.9040742,1.5374894,-0.78232443,-0.7616447,-0.82029456,-0.7527561,-0.7531391,-0.26830694,0.45674887,-0.0044153477,0.98437035,-0.8400133,-1.9355059,-1.3065656,2.1987424,1.6405661,-0.9094414,1.0483698,-0.772803,-1.8730915,-1.2449598,2.219458,1.5983931,-0.9069075,-1.2596952,-1.4827454,-1.3070556,-1.3620007,-0.58937645,0.34602323,0.20096353,0.2206688,-0.55430603,0.9086998,-2.6722324,-0.28230104,-3.7084606,0.10992813,-0.5434265,0.80429125,0.80036485,-0.02713521,0.09672773,0.59103596,-0.7407411,-0.86641765,-1.3701196,1.0,0.0,0.0,0.0,0.0,0.0,0.0,-0.87066877,0.15430602,-0.3586998,-17.28015,-0.3448248,-8.334684,3.558445,8.7046385,-1.6410291,-3.2892168
-43.54981,35.59011,3.8661952,29.26009,3.7074277,1.659447,-0.7017893,-0.7976272,-0.8161361,-0.76197976,-0.7341671,-0.09137902,0.46316373,-0.2678474,0.96860707,-0.8544166,-1.9492894,-1.3183765,2.2103202,1.6447095,-0.9336922,1.0347685,-0.78758496,-1.886584,-1.2583284,2.214724,1.6018015,-0.90533775,-1.3921998,-1.4775722,-1.3635311,-1.3264855,-0.4365722,0.33763134,0.142967,0.19396591,-0.5571289,0.87090653,-2.6695607,-0.2820188,-3.8029385,0.101615906,-0.5521622,0.79052824,0.80374324,-0.015804451,0.09435784,0.5872339,-0.8683427,-0.8633764,-1.3834192,1.0,0.0,0.0,0.0,0.0,0.0,0.0,-0.8439659,0.1571289,-0.32090652,-12.869215,0.22277832,-5.642915,4.1493177,14.787924,-1.2646139,-5.598587
-33.34433,46.776405,11.1094475,28.669846,3.8633268,1.8533173,-0.6149061,-0.8212581,-0.8032526,-0.75918555,-0.67782104,0.22631043,0.5020638,-0.40144446,0.9526427,-0.8679102,-1.9625026,-1.3261106,2.237355,1.6520079,-0.9454822,1.020202,-0.8022477,-1.900399,-1.2711515,2.2123055,1.6051718,-0.9044108,-1.4772619,-1.4632701,-1.3872732,-1.2660033,-0.17805095,0.33569175,0.07678761,0.16728973,-0.5599518,0.83216923,-2.6668916,-0.28173685,-3.897322,0.09207535,-0.5608139,0.7768027,0.8076601,-0.0046133013,0.090678245,0.5826158,-0.9881597,-0.8504239,-1.3739332,1.0,0.0,0.0,0.0,0.0,0.0,0.0,-0.8172897,0.15995178,-0.28216922,-8.265781,1.2001514,-2.3219824,6.4754963,25.534275,-0.545609,-6.330641
-22.647348,53.994373,16.182798,25.983469,3.3972142,1.8235468,-0.50894153,-0.8290701,-0.7968084,-0.7744952,-0.6426297,0.35360986,0.50163007,-0.48147207,0.937295,-0.88192856,-1.9778485,-1.3354145,2.2476666,1.6553348,-0.952558,1.0051206,-0.81674355,-1.914355,-1.2832994,2.2125726,1.6085364,-0.9041514,-1.5180249,-1.4456168,-1.3982205,-1.1967542,0.094250254,0.33568963,0.009955753,0.14064026,-0.562767,0.7924808,-2.6642253,-0.28145516,-3.9926765,0.08150864,-0.56928253,0.7632307,0.8120126,0.0062491256,0.08551363,0.5773074,-1.0859544,-0.82793444,-1.3567164,0.0,1.0,0.0,0.0,0.0,0.0,0.0,-0.79064023,0.16276702,-0.24248081,-3.944397,1.5977621,-1.0155201,7.2173357,27.070778,-0.2844751,-6.4025693
-10.859821,57.251766,19.463036,19.960945,2.1479123,1.6634011,-0.31991506,-0.8291394,-0.7933195,-0.77941614,-0.6501176,0.2999122,0.50704944,-0.48849356,0.9222067,-0.8960755,-1.9922967,-1.3483112,2.2425637,1.6592413,-0.9530007,0.9898678,-0.8309665,-1.9293667,-1.2953911,2.2139175,1.6123114,-0.90413296,-1.5264298,-1.4152918,-1.5350748,-1.2110312,0.1429679,0.37506267,-0.0076667946,0.121593475,-0.5642166,0.78636783,-1.7340887,-0.043467734,0.49927303,0.070365906,-0.57740784,0.74938023,0.81652087,0.017121067,0.079837225,0.57151246,-1.1288319,-0.7917604,-1.3993593,0.0,1.0,0.0,0.0,0.0,0.0,0.0,-0.77159345,0.16421661,-0.23636782,-0.3058672,1.4018059,-0.51887035,5.2546024,18.141243,-0.58661103,-6.010002
57.163124,176.0,110.0,110.0,-1.2727638,12.624609,-0.8816894,-0.8025029,0.59064215,0.6392103,0.7158618,-0.22852303,0.6854837,-0.41909504,0.90961754,-0.77190226,-1.8654457,-1.223805,2.191065,1.6808597,-0.9460425,0.9796015,-0.84721327,-1.9397331,-1.2930317,2.2028892,1.6260881,-0.9033042,-0.86079115,-1.6762148,-0.8929963,0.70973474,-1.490251,1.733283,0.12042881,0.104263306,-0.56464386,0.79061234,-1.7323549,-0.04342428,0.39952266,0.059066772,-0.5829544,0.7396542,0.82082903,0.017125506,0.079567365,0.5653453,-1.1352825,-0.45805943,-0.8333908,1.0,0.0,0.0,0.0,0.0,0.0,0.0,-0.7542633,0.16464385,-0.24061233,66.328415,-20.599031,57.478046,189.51633,-154.84851,142.25478,14.998284
-30.105984,167.7478,68.46268,94.04803,4.3514137,5.566435,-1.5966198,-0.82300425,-0.54522026,-0.2653367,0.76070565,-0.56013435,0.55652094,-0.21861072,0.8973011,-0.9017353,-1.9662669,-1.2169611,2.1468759,1.6817403,-0.9251653,0.97115767,-0.86282206,-1.9459225,-1.2791767,2.185971,1.6435194,-0.9022609,-0.8377247,-1.5241501,-0.5246233,1.6120673,-1.7620249,1.7517893,0.09890704,0.086956024,-0.5650711,0.79386014,-1.7306229,-0.04338086,0.29987204,0.046928406,-0.5867996,0.7343245,0.82584715,0.010211649,0.082801856,0.5576881,-1.2395905,-0.3477688,-0.43855152,1.0,0.0,0.0,0.0,0.0,0.0,0.0,-0.736956,0.1650711,-0.24386013,2.6663303,14.707947,37.712265,90.606735,-28.200293,3.4335852,-2.1649241
-49.344364,166.89812,51.729713,73.65507,3.3979936,3.899616,-1.44469,-0.81320506,-0.27378914,-0.5182136,0.7437979,-0.616014,0.5752865,0.21051793,0.88983715,-0.890201,-1.9977438,-1.2047969,2.1243696,1.701048,-0.88120914,0.96169055,-0.875113,-1.9508702,-1.2601719,2.1687782,1.6600733,-0.9012128,-0.98117036,-1.1327758,-0.48449945,1.9979132,-1.708321,1.6268742,0.10549887,0.069664,-0.56549835,0.7961122,-1.7288927,-0.043337487,0.20032106,0.033809662,-0.5895462,0.73205185,0.831793,0.0013426935,0.08804471,0.54805714,-1.3337001,-0.2413051,-0.16518125,1.0,0.0,0.0,0.0,0.0,0.0,0.0,-0.719664,0.16549835,-0.24611217,-13.794697,38.520645,4.127133,38.949467,4.475093,-11.422133,0.27647167
-52.164654,130.35948,31.689548,48.18425,2.4907527,2.251082,-0.98474437,-0.81442237,-0.2658164,-0.5221523,0.7896107,-0.627265,0.5502199,0.1328927,0.8802483,-0.90169466,-2.0030854,-1.1812109,2.1060517,1.7150953,-0.88792354,0.9502922,-0.883615,-1.9565445,-1.2401237,2.1533363,1.6749468,-0.90018094,-1.1916608,-0.7577337,-0.59557474,2.0078464,-1.4912066,1.4424429,0.10088129,0.052387238,-0.5659256,0.7973695,-1.7271641,-0.043294158,0.10086964,0.019924164,-0.59142303,0.73146164,0.8383925,-0.00713209,0.09455551,0.53675544,-1.4055668,-0.16054253,-0.031613566,1.0,0.0,0.0,0.0,0.0,0.0,0.0,-0.7023872,0.16592559,-0.24736947,-20.748352,36.98957,-11.248565,1.1410236,21.10715,-17.954588,-0.9098038
-37.720535,99.49561,21.184315,27.684011,1.1830828,1.11691,-0.4919421,-0.8165757,-0.21969779,-0.53992754,0.79567534,-0.631803,0.592753,-0.0034846938,0.86863464,-0.9055848,-2.0105374,-1.1605562,2.090156,1.734222,-0.9005294,0.9370333,-0.8890147,-1.9637295,-1.2213097,2.1401145,1.6880827,-0.8992969,-1.3705559,-0.46871588,-0.75945824,1.8391198,-1.2676666,1.2709458,0.08272094,0.035125732,-0.56635284,0.79763293,-1.7254373,-0.043250874,0.0015176355,0.005634308,-0.59265137,0.73149884,0.8452947,-0.014104119,0.10174036,0.52433467,-1.4357121,-0.09799119,0.009459356,1.0,0.0,0.0,0.0,0.0,0.0,0.0,-0.6851257,0.16635284,-0.24763292,-17.876076,28.516132,-16.35617,-16.944742,21.800686,-17.024183,-2.2620902
-21.646332,68.778336,13.406964,13.741661,0.46306252,0.18797904,-0.099985085,-0.81381416,-0.21581773,-0.5737656,0.79348993,-0.6110481,0.5939001,-0.005262902,0.85565186,-0.9105965,-2.021106,-1.1419606,2.0790098,1.7474728,-0.8998232,0.92250025,-0.8924937,-1.9725147,-1.2044697,2.1288269,1.6996717,-0.8985883,-1.4812696,-0.3084413,-0.91764784,1.6318166,-1.0842444,1.1214482,0.06581535,0.017887115,-0.5667801,0.7969036,-1.7237122,-0.043207634,-0.09773505,-0.00876236,-0.5934601,0.7314559,0.8522055,-0.019243957,0.10912293,0.51133895,-1.4388285,-0.06411082,-0.012604593,1.0,0.0,0.0,0.0,0.0,0.0,0.0,-0.6678871,0.16678008,-0.2469036,-11.171627,15.787673,-15.64883,-20.872068,17.847776,-14.993596,-2.0231485
-10.1794815,51.195305,10.411192,8.101258,0.21313393,-0.27518576,0.08490505,-0.8170686,-0.19906199,-0.61054343,0.7942785,-0.6028892,0.5956751,-0.004759309,0.8407934,-0.91239995,-2.033569,-1.1250418,2.068538,1.7592392,-0.89906424,0.907333,-0.895102,-1.9826542,-1.1893749,2.1189353,1.7099485,-0.89802754,-1.5289487,-0.24541241,-1.0453346,1.4684236,-0.95908684,0.9960705,0.051984344,0.0006637573,-0.56720734,0.7951826,-1.7219889,-0.043164432,-0.1968885,-0.023082733,-0.5940933,0.73100066,0.85896087,-0.022675911,0.116419025,0.4981151,-1.4299214,-0.049790736,-0.058568954,1.0,0.0,0.0,0.0,0.0,0.0,0.0,-0.65066373,0.16720733,-0.24518257,-4.8736334,6.1504183,-12.538838,-16.459251,12.084972,-12.625909,-1.6217821
-8.502782,29.193611,4.221575,6.0542536,0.5593458,-0.5927484,0.1084002,-0.8284204,-0.2628826,-0.6482401,0.7918379,-0.6022511,0.6110307,-0.036550898,0.82449096,-0.9213903,-2.0474782,-1.1101911,2.0587103,1.7710516,-0.9016826,0.8919741,-0.8978791,-1.9938313,-1.1753998,2.1098983,1.7191439,-0.8976041,-1.5382291,-0.28875086,-1.1414245,1.3739879,-0.886114,0.8938404,0.038727358,-0.016544342,-0.5676346,0.79247075,-1.7202673,-0.043121275,-0.2959428,-0.037433624,-0.5947647,0.7298967,0.8655333,-0.024645824,0.123381205,0.4847904,-1.4344115,-0.059216198,-0.12889598,1.0,0.0,0.0,0.0,0.0,0.0,0.0,-0.63345563,0.16763458,-0.24247074,-0.9439707,-4.4111547,-9.465742,-9.425449,7.0385695,-10.320902,-1.4337242
-7.093728,17.428429,1.7395654,5.7552505,0.88467,-0.6675321,0.098881595,-0.8232628,-0.3256418,-0.65540427,0.78866136,-0.58392704,0.6149585,-0.10176013,0.8096478,-0.9304433,-2.0593717,-1.0965337,2.0515056,1.7806398,-0.9077801,0.87671626,-0.90161085,-2.0056493,-1.1619205,2.1013572,1.727458,-0.8973428,-1.5215682,-0.40145734,-1.1950207,1.3397778,-0.84388655,0.8103385,0.022000642,-0.033737183,-0.5680618,0.7887691,-1.7185473,-0.04307816,-0.3948981,-0.05189514,-0.5955887,0.7280289,0.8719382,-0.025456946,0.12979196,0.47141245,-1.4500253,-0.07930258,-0.20683911,1.0,0.0,0.0,0.0,0.0,0.0,0.0,-0.6162628,0.16806182,-0.23876911,1.7021179,-11.314601,-5.2595615,-3.2907963,4.067397,-8.456457,-1.6812994
-6.3578,19.506884,3.5316284,7.689067,1.0732806,-0.46717018,0.077046014,-0.81939787,-0.35951686,-0.6541356,0.79275614,-0.5718108,0.6249474,-0.11418748,0.79477644,-0.9375625,-2.0710628,-1.0826449,2.044176,1.7899528,-0.90876156,0.861693,-0.9065852,-2.0177228,-1.148468,2.0930946,1.7350569,-0.8972417,-1.4957898,-0.52959675,-1.2110584,1.3478347,-0.8207873,0.7428585,0.006307822,-0.050907135,-0.5684891,0.78407574,-1.7168292,-0.043035094,-0.4941482,-0.06655884,-0.59659576,0.72546786,0.878183,-0.025429284,0.13559791,0.4579967,-1.4699323,-0.094100155,-0.27328348,1.0,0.0,0.0,0.0,0.0,0.0,0.0,-0.59909284,0.16848907,-0.23407573,2.612996,-12.874853,-1.4587402,0.9873867,2.1517754,-6.8700194,-1.5414654
-5.9832153,26.115509,6.200159,9.578033,1.1064842,-0.21988922,0.05968508,-0.81364864,-0.39504418,-0.65598524,0.7966506,-0.5679718,0.62084675,-0.12203011,0.78032815,-0.9460896,-2.0833213,-1.068803,2.0362973,1.7971416,-0.90944475,0.8469273,-0.91275835,-2.0297964,-1.1347866,2.0849693,1.7420721,-0.89728653,-1.4701617,-0.64681846,-1.205145,1.3757665,-0.8105123,0.6872228,-0.007939354,-0.06806183,-0.5689163,0.7783905,-1.7151127,-0.04299207,-0.593299,-0.081401825,-0.5976639,0.7223496,0.8842644,-0.024806822,0.14087094,0.44454062,-1.488804,-0.09855866,-0.3255787,1.0,0.0,0.0,0.0,0.0,0.0,0.0,-0.58193815,0.16891631,-0.22839051,2.5772333,-11.812305,0.80411434,2.982831,0.82398653,-5.6968927,-1.4001664
-3.3971136,32.88993,9.06051,9.773188,0.9508407,-0.024472475,0.09841238,-0.7989592,-0.43835047,-0.6436761,0.79156685,-0.56360024,0.6320733,-0.11557751,0.7670314,-0.9565934,-2.094164,-1.05563,2.0286093,1.8052795,-0.9088443,0.8324219,-0.9199815,-2.0416791,-1.120842,2.0768974,1.7486143,-0.8974525,-1.4439586,-0.7477886,-1.181865,1.4011251,-0.806895,0.6427587,-0.019500885,-0.08520126,-0.56934357,0.77171457,-1.713398,-0.042949084,-0.6923507,-0.0963707,-0.5987091,0.71878684,0.8901501,-0.023751559,0.14569539,0.4310931,-1.4994875,-0.09293289,-0.3679481,1.0,0.0,0.0,0.0,0.0,0.0,0.0,-0.5647987,0.16934356,-0.22171456,2.5951385,-10.204887,2.6145697,2.6921988,0.098872185,-4.578483,-1.1513647
-3.772099,30.396534,7.96122,8.456874,0.9384816,-0.0010371208,0.13631713,-0.7930125,-0.512418,-0.6413946,0.77979153,-0.52821934,0.62436163,-0.087463774,0.75312066,-0.9712233,-2.1058185,-1.0428628,2.0240755,1.8110504,-0.90619886,0.8181397,-0.928246,-2.0533216,-1.1067581,2.06894,1.7547674,-0.8976966,-1.4229797,-0.8530212,-1.1573803,1.411316,-0.7928495,0.6056066,-0.02598215,-0.10232544,-0.5697708,0.7640489,-1.711685,-0.042906143,-0.79130334,-0.111465454,-0.5996933,0.71474844,0.89582586,-0.022297118,0.15002562,0.4177214,-1.5117122,-0.08675703,-0.41748223,1.0,0.0,0.0,0.0,0.0,0.0,0.0,-0.54767454,0.1697708,-0.21404886,2.0797253,-10.62417,2.7135372,1.1954308,1.1551499,-3.857839,-0.61960036
-2.2550004,35.835968,9.749278,8.505247,0.74149466,0.13718736,0.17217404,-0.7801924,-0.5422683,-0.62791127,0.7848783,-0.5565304,0.64336795,-0.049134273,0.7401204,-0.98247284,-2.1161127,-1.0282702,2.0132868,1.8191042,-0.90261006,0.8040577,-0.937428,-2.0647047,-1.092619,2.0610244,1.7606134,-0.8979665,-1.4033513,-0.9403008,-1.1307019,1.4151925,-0.7920758,0.5770826,-0.02724313,-0.11942673,-0.57019806,0.75539434,-1.7099736,-0.042863246,-0.89015704,-0.12662125,-0.6005554,0.7102603,0.9012646,-0.020481007,0.1539408,0.40448087,-1.5159013,-0.073077,-0.46124887,1.0,0.0,0.0,0.0,0.0,0.0,0.0,-0.53057325,0.17019805,-0.20539433,1.9194841,-8.843255,2.9779434,0.5355358,-0.21547079,-2.9863596,-0.1266487
-0.77473545,36.75867,10.094309,7.4940495,0.58212745,0.17822969,0.2138232,-0.76837987,-0.5941855,-0.60992986,0.77647275,-0.5658674,0.64832145,-0.0335518,0.7272197,-0.99684656,-2.1256976,-1.0149716,2.0044377,1.8254455,-0.9013217,0.7901684,-0.94745207,-2.0757978,-1.0785179,2.053067,1.7662191,-0.89822876,-1.3842607,-1.0235604,-1.1011143,1.4088476,-0.7983754,0.5545659,-0.025915114,-0.13651276,-0.5706253,0.74575204,-1.708264,-0.042820394,-0.9889119,-0.14178848,-0.6012726,0.7053249,0.90644217,-0.018326242,0.15749852,0.39143446,-1.5146979,-0.05709124,-0.50670385,0.0,1.0,0.0,0.0,0.0,0.0,0.0,-0.5134872,0.1706253,-0.19575202,1.8546104,-8.439636,3.2776594,-0.49631596,-0.93500614,-2.3806453,0.12818724
4.7503867,36.403206,11.095172,5.179743,0.34973538,0.13505912,0.28330034,-0.7357545,-0.655719,-0.5742849,0.77266896,-0.5680015,0.6680958,-0.03642075,0.71659297,-1.013024,-2.1332264,-1.001251,1.9962668,1.8330287,-0.90187085,0.776569,-0.9583554,-2.0864942,-1.0645161,2.0450294,1.7716455,-0.8984767,-1.3521026,-1.1130137,-1.0580765,1.3978833,-0.8068045,0.538391,-0.024477655,-0.15358353,-0.57105255,0.7351229,-1.7065561,-0.04277758,-1.0875682,-0.15685654,-0.6018295,0.69991726,0.911332,-0.01588942,0.16067196,0.37868983,-1.5030662,-0.04251555,-0.5547615,0.0,1.0,0.0,0.0,0.0,0.0,0.0,-0.49641645,0.17105255,-0.1851229,3.129816,-9.043837,4.6484947,-0.98912716,-1.1569738,-1.7413616,0.14570281
10.152731,31.008905,10.207288,1.402272,0.12318364,-0.042238593,0.33127972,-0.70121056,-0.7241875,-0.56443036,0.74561304,-0.5258664,0.6772006,-0.12420046,0.70644796,-1.0307741,-2.1429372,-0.98995477,1.9924427,1.8393656,-0.9108968,0.7634026,-0.9702525,-2.096794,-1.0507393,2.0370452,1.7769423,-0.8987762,-1.3052557,-1.2155036,-1.019338,1.3712229,-0.7968331,0.52637357,-0.031682808,-0.17063904,-0.5714798,0.723508,-1.7048498,-0.04273481,-1.1861258,-0.17175674,-0.6022949,0.6939334,0.91593856,-0.013184091,0.16332531,0.36634335,-1.4844056,-0.035370734,-0.61580867,0.0,1.0,0.0,0.0,0.0,0.0,0.0,-0.47936094,0.17147979,-0.17350799,4.582739,-10.319543,4.1881323,-2.5711775,0.7215977,-1.3385415,-0.6902747
9.948898,34.997826,11.032981,1.9847703,0.12241763,0.02001375,0.32411042,-0.69285554,-0.7459579,-0.5525694,0.7311713,-0.51389444,0.6538889,-0.09532058,0.694117,-1.0448483,-2.1520507,-0.97762215,1.9856558,1.8423312,-0.9083082,0.75070906,-0.9830471,-2.1070008,-1.0373455,2.0292218,1.7822673,-0.8992464,-1.2578945,-1.3010262,-1.0200776,1.3294444,-0.77186155,0.5400201,-0.04830164,-0.18709183,-0.5693054,0.7190888,-1.5802267,0.2627396,-0.21951976,-0.18645477,-0.6026993,0.6872913,0.9202898,-0.010173291,0.165492,0.35436633,-1.4641103,-0.026117906,-0.68319374,0.0,1.0,0.0,0.0,0.0,0.0,0.0,-0.46290815,0.16930541,-0.16908878,4.101467,-8.64346,3.493905,-3.0838728,1.4677405,-1.391387,-0.4701428
2.83213,83.20664,26.227148,17.04971,1.1240503,1.2436428,0.18804379,-0.7620668,-0.6314094,-0.3261688,0.7710734,-0.53340447,0.617641,0.054691296,0.6745024,-1.0461881,-2.1396177,-0.9602382,1.9758813,1.8440315,-0.89377725,0.7380042,-0.9959055,-2.1159883,-1.0240551,2.0215428,1.7875717,-0.89965266,-1.2751645,-1.2814555,-0.85619044,1.3284844,-0.76886517,0.5269278,-0.038407203,-0.20288086,-0.5666809,0.71615624,-1.5786468,0.26247692,-0.31782198,-0.20093536,-0.60259247,0.6808064,0.9243685,-0.0074902703,0.16741768,0.34272155,-1.4395846,0.03383106,-0.6404537,0.0,1.0,0.0,0.0,0.0,0.0,0.0,-0.44711912,0.1666809,-0.16615623,-1.9072294,1.7379999,17.104769,-0.15823841,-0.44252872,-1.3929248,0.89786947
-4.2113214,90.135475,26.408936,21.557495,1.5827065,1.376789,0.03299936,-0.7621314,-0.6462966,-0.33819306,0.7728118,-0.5061295,0.6266199,-0.041908875,0.6617911,-1.0605352,-2.1498075,-0.94677395,1.9709299,1.8502337,-0.9038435,0.7250047,-1.0084019,-2.123423,-1.0106655,2.013944,1.7927501,-0.9000141,-1.308551,-1.239963,-0.7034408,1.3424853,-0.7593415,0.51443857,-0.035736732,-0.21865463,-0.5640564,0.7122414,-1.5770684,0.26221448,-0.41602588,-0.21525192,-0.60186005,0.67485607,0.92822987,-0.0053380067,0.16928416,0.3312152,-1.4261689,0.09906877,-0.5832474,0.0,1.0,0.0,0.0,0.0,0.0,0.0,-0.43134534,0.16405639,-0.1622414,-3.4715414,3.910923,15.955103,1.384759,0.2225399,-1.32128,0.18255636
-1.8951802,97.859695,28.313107,22.541418,1.4449775,1.3545482,0.025663756,-0.74679285,-0.609077,-0.30239972,0.7715847,-0.5251822,0.6360526,-0.010720175,0.6503254,-1.0693096,-2.1536632,-0.9335071,1.9614257,1.8563554,-0.9010861,0.7117467,-1.0202942,-2.1294808,-0.99711424,2.0063527,1.7978141,-0.90033454,-1.3321449,-1.1730287,-0.57071686,1.3589941,-0.7617255,0.5035047,-0.031316407,-0.23441315,-0.5614319,0.7073453,-1.5754917,0.26195234,-0.51413167,-0.22935486,-0.6004715,0.66955155,0.9318783,-0.0037074543,0.17126866,0.31977507,-1.4022119,0.16441348,-0.51597506,0.0,1.0,0.0,0.0,0.0,0.0,0.0,-0.41558683,0.16143188,-0.1573453,-2.5115013,6.4493656,13.982809,1.6015291,-0.9920716,-1.1322498,0.31043738
-5.9833016,82.79326,20.811974,19.714943,1.1207975,0.8563943,0.027507463,-0.74245393,-0.6137331,-0.39144877,0.7698123,-0.53854287,0.6314667,0.10005295,0.6375013,-1.0816675,-2.1686258,-0.920133,1.9524984,1.8609608,-0.89032924,0.69835234,-1.0316334,-2.1350465,-0.983429,1.9986897,1.802777,-0.9005329,-1.342106,-1.1213491,-0.55007404,1.3718491,-0.7695697,0.4937163,-0.016381597,-0.2501564,-0.5588074,0.7014557,-1.5739166,0.26169044,-0.6138968,-0.24328232,-0.5985565,0.66463244,0.93531686,-0.002198271,0.17351505,0.30833402,-1.3867724,0.21107961,-0.48663798,0.0,1.0,0.0,0.0,0.0,0.0,0.0,-0.39984357,0.15880737,-0.1514557,-1.0876417,4.9562216,2.567482,1.3289928,-1.3259768,-1.0320127,1.3685114
-8.448209,70.635376,15.423362,17.264118,0.93069416,0.50686973,0.048486788,-0.7414931,-0.6072129,-0.4259144,0.7774497,-0.5251512,0.60198057,0.21338491,0.624203,-1.0923547,-2.1776378,-0.90568405,1.9461745,1.8629751,-0.87919444,0.6849332,-1.0425797,-2.1409326,-0.96961886,1.9909935,1.8076293,-0.9005005,-1.3420882,-1.086501,-0.60042363,1.3843236,-0.7709022,0.4823009,0.009393235,-0.2658844,-0.5561981,0.6945692,-1.572343,0.2614288,-0.7135622,-0.2571144,-0.5962753,0.65980625,0.938553,-0.0004244926,0.17605305,0.29685605,-1.3786882,0.24481498,-0.48417625,0.0,1.0,0.0,0.0,0.0,0.0,0.0,-0.38411558,0.15619811,-0.14456916,-0.056409836,3.296423,-4.657054,1.3419151,-0.5392432,-1.2224317,2.4608715
-5.1934166,59.819412,12.956966,13.413043,0.84346336,0.31386477,0.100386895,-0.7339877,-0.6323126,-0.3861105,0.77209634,-0.4852583,0.6082658,0.19219576,0.6115344,-1.1058109,-2.1795435,-0.8924092,1.9424677,1.8684559,-0.8812809,0.6715921,-1.0534414,-2.1473083,-0.9557548,1.9834759,1.8124208,-0.90023017,-1.3306155,-1.0866838,-0.65588194,1.3856713,-0.73604256,0.48754913,0.03394295,-0.28124237,-0.5532303,0.6879546,-1.4565876,0.3451907,-0.43974435,-0.27088165,-0.59371185,0.6548504,0.9416033,0.001692865,0.17866625,0.28540975,-1.3746909,0.27062836,-0.50385,0.0,1.0,0.0,0.0,0.0,0.0,0.0,-0.3687576,0.15323028,-0.1379546,1.2883186,-0.20492077,-6.4448714,-0.0797987,4.9010277,1.9054115,2.5992837
-9.962196,60.243732,12.008549,14.65106,1.0186715,0.39618465,0.08304332,-0.76176745,-0.6070773,-0.40262252,0.769103,-0.4860762,0.5668397,0.2512737,0.59541535,-1.1141491,-2.1875706,-0.8788445,1.9348683,1.8691049,-0.8751028,0.65823877,-1.0642904,-2.1542094,-0.941918,1.9762837,1.8172339,-0.8997006,-1.3370247,-1.0847219,-0.7007413,1.3834486,-0.71483064,0.47861862,0.059099574,-0.29563522,-0.5496597,0.6834324,-1.4332565,0.36093113,-0.4570825,-0.28465652,-0.59085846,0.64970505,0.9444844,0.0041449843,0.18126072,0.27400103,-1.3752342,0.3002636,-0.5204681,0.0,1.0,0.0,0.0,0.0,0.0,0.0,-0.35436475,0.14965972,-0.13343239,-0.6811857,0.028324127,-4.14623,-0.097727776,1.7607808,-1.002115,2.4369082
-8.039906,63.343906,13.412962,14.5655,1.0353053,0.477516,0.1076313,-0.7591632,-0.6019852,-0.38958564,0.76675344,-0.4819361,0.56365496,0.27396142,0.5823225,-1.124489,-2.193168,-0.86524266,1.9280901,1.8735994,-0.87230444,0.6448125,-1.0751165,-2.1613696,-0.9281307,1.969278,1.8219655,-0.89892805,-1.3447585,-1.0825907,-0.71976036,1.3775293,-0.69716084,0.47057807,0.08313319,-0.3097763,-0.54595184,0.67877465,-1.407559,0.37582502,-0.46902412,-0.2984085,-0.58769226,0.64443755,0.94718975,0.0068933214,0.18383421,0.26265767,-1.3709582,0.3325066,-0.53110063,0.0,1.0,0.0,0.0,0.0,0.0,0.0,-0.34022367,0.14595184,-0.12877464,-0.8366823,0.04017353,-1.4881968,-0.49409866,1.3410091,-0.9748757,2.3352861
-9.746426,57.116154,11.090153,13.232803,1.0325655,0.38360035,0.117879786,-0.7671275,-0.6253721,-0.42935282,0.7524028,-0.44608864,0.51190424,0.30577934,0.5680998,-1.1376537,-2.204305,-0.85289043,1.9246691,1.8731558,-0.8683501,0.63127506,-1.0860342,-2.1687698,-0.91446066,1.9624857,1.8265686,-0.89791816,-1.3568937,-1.0953782,-0.74538386,1.364004,-0.67445457,0.45627704,0.106817715,-0.32369614,-0.5421066,0.6738984,-1.386352,0.38831434,-0.49327126,-0.31215668,-0.58423615,0.63897437,0.94973385,0.009980994,0.18629302,0.25139776,-1.371761,0.36163363,-0.5534241,0.0,1.0,0.0,0.0,0.0,0.0,0.0,-0.32630384,0.14210662,-0.12389839,-1.2555838,-1.4375687,-2.2046208,-1.2237549,1.8972158,-1.6040206,2.3289979
-3.5846846,59.825428,13.521686,12.090138,1.0604345,0.44213766,0.15471204,-0.75606424,-0.6377705,-0.36892688,0.7541226,-0.41668388,0.52455926,0.320455,0.55566865,-1.1498113,-2.2056625,-0.8390484,1.9208173,1.8790245,-0.8658727,0.6176852,-1.0971426,-2.1760712,-0.9009071,1.9559699,1.8310508,-0.89668506,-1.359932,-1.1166795,-0.72335714,1.3527564,-0.64535797,0.44464874,0.12882535,-0.33737946,-0.538147,0.6688264,-1.3612893,0.40038005,-0.511684,-0.32584763,-0.5804901,0.633348,0.95212585,0.013243975,0.18850702,0.24030401,-1.3643402,0.3909397,-0.5677796,0.0,1.0,0.0,0.0,0.0,0.0,0.0,-0.31262052,0.13814697,-0.11882639,-0.38676262,-2.2832394,2.6660204,-1.0489941,2.4276853,-1.271522,2.1260395
-6.3203278,50.988514,10.029348,10.355803,0.93427116,0.30782676,0.16144976,-0.7685414,-0.6679725,-0.42435655,0.734698,-0.41066578,0.47269192,0.34692726,0.5408311,-1.1639398,-2.2185068,-0.8274373,1.9149034,1.87832,-0.86199236,0.60403717,-1.1085829,-2.1833494,-0.8875223,1.9497166,1.8353838,-0.8952363,-1.3665781,-1.1534542,-0.7281202,1.3341665,-0.619858,0.42869854,0.15024121,-0.35085297,-0.53408813,0.66343707,-1.3425103,0.40960136,-0.547609,-0.33952332,-0.57647705,0.6274406,0.9543819,0.016758366,0.19040848,0.22938813,-1.3627659,0.41565064,-0.60033035,0.0,1.0,0.0,0.0,0.0,0.0,0.0,-0.299147,0.13408813,-0.11343706,-0.70667267,-3.8133621,-0.12828112,-1.7233133,2.1936655,-1.8124759,2.1511197
1.0859699,58.91604,13.267524,10.066006,0.6531586,0.3396296,0.21372674,-0.7411294,-0.6559881,-0.40190727,0.7469344,-0.46104223,0.48355144,0.4069902,0.5299242,-1.1741817,-2.22354,-0.81282884,1.9036124,1.8837389,-0.8545373,0.5904625,-1.1202844,-2.190593,-0.87424034,1.943515,1.8395832,-0.89355123,-1.3547565,-1.1761676,-0.72159004,1.3264196,-0.6217115,0.4166346,0.17439504,-0.3640709,-0.5299301,0.65778655,-1.314471,0.4180645,-0.56926376,-0.3530426,-0.57221985,0.6212995,0.95646757,0.020516181,0.1921278,0.21871397,-1.3436286,0.43805367,-0.62068194,0.0,1.0,0.0,0.0,0.0,0.0,0.0,-0.28592908,0.12993011,-0.107786536,1.0828972,-2.415371,1.1312366,-0.7188797,-0.6534338,-1.3684332,2.346027
5.885992,59.087578,14.165916,8.614387,0.5282186,0.31353635,0.25600538,-0.72962487,-0.6836024,-0.3718579,0.738181,-0.4561509,0.47951776,0.44344002,0.51750004,-1.1886446,-2.227779,-0.80042225,1.8978999,1.887535,-0.8492072,0.5770739,-1.1322548,-2.1976347,-0.8610338,1.9372549,1.8436761,-0.89161885,-1.3339252,-1.2044532,-0.69670266,1.3188158,-0.6288906,0.4064453,0.19927317,-0.37699127,-0.52570343,0.6519294,-1.2840999,0.42465365,-0.5900317,-0.36632156,-0.5678024,0.61496073,0.95836884,0.024436615,0.1936877,0.20836744,-1.3173976,0.45639637,-0.6403061,0.0,1.0,0.0,0.0,0.0,0.0,0.0,-0.2730087,0.12570342,-0.10192937,1.962328,-2.9651403,3.0139327,-0.73390007,-1.2235999,-1.1779249,2.4152994
-2.2999973,59.629284,12.04412,10.895008,0.6411582,0.33062744,0.1976208,-0.75406617,-0.6769456,-0.43039978,0.72648454,-0.47268683,0.41148123,0.4623004,0.50166726,-1.1999494,-2.2406747,-0.78838533,1.8899863,1.8848242,-0.8453888,0.56376153,-1.1444085,-2.2047143,-0.8479283,1.930861,1.8476272,-0.8894507,-1.3305812,-1.2195522,-0.7102041,1.3080704,-0.6441855,0.39084697,0.22245029,-0.38962936,-0.52140045,0.64584076,-1.2566142,0.43164223,-0.6137179,-0.37940216,-0.5631485,0.60840523,0.9600907,0.028658295,0.19517441,0.198271,-1.2999473,0.47854632,-0.6626649,0.0,1.0,0.0,0.0,0.0,0.0,0.0,-0.2603706,0.121400446,-0.09584075,0.2513647,-1.658392,-0.8967161,-0.9932995,-1.9915462,-1.726681,2.2419362
-5.807685,57.169167,10.074402,11.013238,0.5640286,0.27308363,0.19272812,-0.75125414,-0.6879106,-0.47468254,0.7173644,-0.48854312,0.36754787,0.5023747,0.4886361,-1.2131995,-2.2521825,-0.77619183,1.8820066,1.884382,-0.83921325,0.5504473,-1.1566937,-2.2121906,-0.8349506,1.924279,1.8513975,-0.8870477,-1.3318182,-1.2320923,-0.75883156,1.2946303,-0.6641571,0.37183225,0.24598123,-0.4020157,-0.51703644,0.63946366,-1.231838,0.43754205,-0.64421976,-0.3923378,-0.5582657,0.6015681,0.96162945,0.0333786,0.19666258,0.18835725,-1.286113,0.4998159,-0.692878,0.0,1.0,0.0,0.0,0.0,0.0,0.0,-0.24798429,0.11703643,-0.08946365,-0.18482208,-1.4032602,-4.4694304,-1.230669,-2.4247646,-2.1351695,2.282536
-6.1309624,54.23163,9.181592,10.165319,0.7075311,0.24182451,0.18424499,-0.7481026,-0.7079828,-0.48657492,0.6996087,-0.4009444,0.34155068,0.5187228,0.47563702,-1.227492,-2.260848,-0.76498973,1.8841845,1.8855525,-0.83517545,0.5371158,-1.1691506,-2.2201972,-0.82216364,1.9177836,1.8549668,-0.88442206,-1.3337376,-1.2506957,-0.81355083,1.2737684,-0.6457482,0.35137713,0.2679043,-0.41418076,-0.51262665,0.6327256,-1.2107464,0.44267616,-0.6818531,-0.40518188,-0.5531769,0.5943937,0.96301526,0.03861589,0.19801037,0.17861186,-1.277335,0.521196,-0.7276411,0.0,1.0,0.0,0.0,0.0,0.0,0.0,-0.23581922,0.11262664,-0.082725585,-0.24728775,-2.0031214,-5.1038265,-1.964736,1.4348507,-2.3121119,2.146083
-2.9369113,53.901844,8.8102865,8.487367,0.314007,0.12882495,0.25085127,-0.7328537,-0.7012721,-0.5654018,0.6749737,-0.44496438,0.24584508,0.5521647,0.46383044,-1.2392778,-2.2767375,-0.75466627,1.8732872,1.8795513,-0.8292056,0.52383673,-1.1817276,-2.2290163,-0.8096685,1.9113833,1.8582791,-0.8815782,-1.3262509,-1.2604539,-0.90364134,1.2416493,-0.6393364,0.32397303,0.28958678,-0.42612076,-0.5081787,0.625592,-1.1874125,0.44500554,-0.7215062,-0.41786957,-0.5479355,0.5868244,0.96422815,0.044517882,0.1992341,0.16907981,-1.2597051,0.53562075,-0.7685656,0.0,1.0,0.0,0.0,0.0,0.0,0.0,-0.22387922,0.108178705,-0.07559198,0.67465305,-1.1132717,-8.64141,-3.1288147,0.24187565,-2.9548466,2.0592213
5.259952,55.957092,11.077969,6.2730665,0.39711025,0.107764006,0.30353457,-0.7149709,-0.712596,-0.5453935,0.63776255,-0.3152713,0.17119534,0.5817438,0.45233965,-1.2529873,-2.2835557,-0.7458922,1.8798561,1.8753986,-0.82340384,0.5107179,-1.1944096,-2.2385027,-0.79762346,1.9054176,1.8612831,-0.8785172,-1.3074535,-1.2711419,-0.9619087,1.1920601,-0.58380264,0.29186186,0.31123492,-0.43780518,-0.50372314,0.6180918,-1.1613375,0.44528687,-0.757255,-0.430336,-0.542572,0.5788937,0.9652947,0.05095359,0.2001257,0.15987334,-1.2354201,0.545943,-0.80294687,0.0,1.0,0.0,0.0,0.0,0.0,0.0,-0.2121948,0.10372314,-0.06809181,1.7579556,-1.1912584,-5.3658247,-4.962158,5.0697803,-3.4600377,2.0603
7.2416134,61.449047,12.816497,6.8898363,0.52875507,0.16013718,0.30686194,-0.7162662,-0.7032989,-0.55493,0.60753053,-0.2922726,0.0477287,0.5937897,0.4390913,-1.2647395,-2.2939959,-0.7368704,1.8761903,1.866056,-0.8191382,0.49776673,-1.2071239,-2.2483976,-0.7861429,1.9000564,1.8639026,-0.87525463,-1.2915336,-1.2718228,-0.99720216,1.1332222,-0.5219537,0.25120682,0.3309534,-0.4492035,-0.4992752,0.6102965,-1.1315702,0.44463468,-0.7842594,-0.4425316,-0.53712463,0.5706993,0.96624213,0.057776295,0.2005599,0.15104172,-1.2074147,0.55667454,-0.8265797,0.0,1.0,0.0,0.0,0.0,0.0,0.0,-0.20079648,0.0992752,-0.060296476,1.4438629,-0.18978119,-2.9858828,-5.937648,5.6181073,-4.3262362,1.8572986
15.332102,62.87536,15.045304,4.4347324,0.7591305,0.0826208,0.34156555,-0.6991108,-0.7103688,-0.5215998,0.5294878,-0.08835952,-0.18954317,0.5827305,0.42785564,-1.2781608,-2.3005576,-0.7331941,1.8912205,1.8449483,-0.81698155,0.4850108,-1.2198478,-2.2583148,-0.77550256,1.8958336,1.8659705,-0.87182444,-1.2708497,-1.2729759,-0.9879153,1.0405158,-0.39098573,0.19119973,0.34679267,-0.46029282,-0.49485016,0.60225517,-1.100413,0.44150493,-0.80802876,-0.45441818,-0.53157043,0.5623238,0.96715397,0.06473875,0.2001724,0.1426643,-1.1761632,0.56235254,-0.8427755,0.0,1.0,0.0,0.0,0.0,0.0,0.0,-0.18970716,0.09485015,-0.052255154,1.8852234,-0.20866394,1.5256166,-9.40721,12.472796,-6.2816916,1.5008807
4.650088,66.8644,13.889131,9.129078,1.1525831,0.15998513,0.22021368,-0.72459936,-0.69860804,-0.5575913,0.531113,-0.1098904,-0.35810217,0.6010465,0.41255087,-1.2897086,-2.314074,-0.72239125,1.8848445,1.8301603,-0.8117198,0.4723006,-1.2325202,-2.2682016,-0.7656299,1.8927246,1.8673502,-0.86824554,-1.2715589,-1.2658743,-0.98709655,0.9693199,-0.2859599,0.11933944,0.36139902,-0.47109222,-0.49044037,0.5939977,-1.0718176,0.44004393,-0.8283691,-0.46609497,-0.5259094,0.5538401,0.9680563,0.07183633,0.19896547,0.13460761,-1.1579015,0.5770376,-0.85171556,0.0,1.0,0.0,0.0,0.0,0.0,0.0,-0.17890775,0.09044036,-0.043997705,-0.21412373,0.5949259,0.6571412,-7.1789145,9.895462,-7.4823914,1.3944209
9.209785,84.047134,19.027428,13.430543,1.5528084,0.3496526,0.12643974,-0.6947784,-0.66541314,-0.47255924,0.5500971,-0.08903523,-0.41169772,0.61161727,0.40282273,-1.2990615,-2.3154576,-0.71062016,1.8838211,1.8261805,-0.80708385,0.45966956,-1.2449657,-2.2776728,-0.7561665,1.8904972,1.8680378,-0.86453134,-1.2609832,-1.2378255,-0.9314561,0.9380994,-0.20397349,0.05107629,0.37433586,-0.48151398,-0.48606873,0.5857702,-1.0314927,0.43622193,-0.818156,-0.47752762,-0.5200882,0.54553115,0.9689449,0.078837335,0.19713344,0.12676275,-1.1312128,0.59369135,-0.82530385,0.0,1.0,0.0,0.0,0.0,0.0,0.0,-0.168486,0.08606872,-0.035770178,0.8514166,2.6808739,6.3440204,-3.2876134,7.4432015,-7.1108723,1.172179
12.934166,81.58592,19.69381,11.550945,1.9178996,0.40266567,0.1208314,-0.6973566,-0.68023664,-0.39758897,0.4632246,0.15923741,-0.46041554,0.6056152,0.38993388,-1.3129894,-2.3174317,-0.70984405,1.906421,1.8219962,-0.8039698,0.4471201,-1.2572128,-2.286244,-0.7472218,1.8895975,1.868075,-0.8607074,-1.253588,-1.2205696,-0.830227,0.87937784,-0.054099854,-0.012849817,0.38488322,-0.4915619,-0.48173523,0.5776143,-0.9945626,0.43188873,-0.8119906,-0.48871994,-0.51408386,0.5374984,0.9699076,0.0853611,0.19441523,0.11914484,-1.1084301,0.61160994,-0.79718065,0.0,1.0,0.0,0.0,0.0,0.0,0.0,-0.15843809,0.08173522,-0.027614295,0.5393028,1.6284466,10.866558,-6.0486555,14.274925,-6.684333,0.98543763
12.260957,86.58728,20.833609,12.8822,2.1450849,0.56054085,0.09608649,-0.7108515,-0.65235037,-0.32223248,0.41809955,0.21181718,-0.5120614,0.59717757,0.37603495,-1.3224478,-2.3184671,-0.70541185,1.9107792,1.8168689,-0.8009896,0.43456107,-1.2692138,-2.2935636,-0.7389687,1.8901708,1.8675079,-0.8567988,-1.2572979,-1.1937705,-0.6968004,0.80669165,0.09242709,-0.07200056,0.3926275,-0.5012207,-0.4774475,0.56957895,-0.9556383,0.4268452,-0.7980227,-0.49967575,-0.5078583,0.5298242,0.9709939,0.09117168,0.19070654,0.111756586,-1.0846628,0.63366514,-0.7588356,0.0,1.0,0.0,0.0,0.0,0.0,0.0,-0.14877927,0.077447504,-0.019578934,-0.56319237,2.589941,14.0810375,-7.449436,13.953807,-6.1787663,0.7026255
31.946123,106.069275,29.835709,12.881256,2.3305645,0.8706495,0.14752406,-0.672152,-0.61762226,-0.019289253,0.38988885,0.21455386,-0.4705627,0.59756726,0.36734587,-1.330976,-2.2954924,-0.6999798,1.9116262,1.8204516,-0.79704213,0.42212266,-1.2808372,-2.2983658,-0.7314488,1.8919603,1.8664674,-0.8528226,-1.2402147,-1.1520175,-0.40540826,0.73261476,0.2051298,-0.11516851,0.39882028,-0.51034164,-0.47327423,0.56200874,-0.89669406,0.41345948,-0.74110436,-0.5101814,-0.5014725,0.522868,0.972248,0.0956338,0.18603893,0.10477344,-1.0324668,0.6466853,-0.6758196,0.0,1.0,0.0,0.0,0.0,0.0,0.0,-0.13965833,0.073274225,-0.012008727,1.4473915,4.111409,30.068695,-7.7509284,10.456565,-4.465395,0.47613978
38.21724,113.377716,33.033993,13.088674,2.5316806,0.99754876,0.16512349,-0.67531145,-0.59283066,0.17619218,0.32481486,0.29626894,-0.5107552,0.6047196,0.35459152,-1.3401202,-2.2807467,-0.69896734,1.9215871,1.8153918,-0.79235065,0.4098455,-1.2919894,-2.2996814,-0.724792,1.8948232,1.8650365,-0.84878695,-1.224271,-1.1033797,-0.037245005,0.64235365,0.3110516,-0.1525019,0.40468428,-0.51882553,-0.4692688,0.5551493,-0.8319807,0.3958828,-0.6665372,-0.52009964,-0.49499512,0.5168768,0.9737223,0.09826759,0.18039264,0.09831936,-0.9736908,0.65645784,-0.57495,0.0,1.0,0.0,0.0,0.0,0.0,0.0,-0.13117445,0.06926879,-0.005149305,1.378727,4.8018456,37.66049,-9.330821,9.868688,-3.7833095,0.45121312
41.522694,128.36588,37.082767,18.242168,3.1423028,1.0258121,-0.009052969,-0.6320914,-0.54926664,0.36710393,0.39294186,0.41247812,-0.51793647,0.6210328,0.34663635,-1.3469161,-2.262971,-0.6854978,1.936071,1.8132428,-0.7866837,0.39790308,-1.3025542,-2.2970912,-0.7185225,1.8988531,1.8632874,-0.84468883,-1.1846911,-1.041008,0.36013103,0.62116027,0.43179056,-0.18236263,0.41111535,-0.52661514,-0.465477,0.5492668,-0.76111495,0.37364182,-0.56120634,-0.5294647,-0.48841858,0.51214325,0.9754511,0.09869868,0.17389975,0.09226327,-0.9195167,0.66546124,-0.44089043,0.0,1.0,0.0,0.0,0.0,0.0,0.0,-0.12338483,0.065476984,0.00073319674,3.8186312,6.150317,40.50122,-2.3197055,11.496126,-2.967319,0.52095056
36.068413,129.6477,35.231873,21.040512,3.1369014,0.8694028,-0.11098079,-0.6027681,-0.5039384,0.42551073,0.40602413,0.5089521,-0.50063854,0.62746257,0.33762628,-1.3529481,-2.2545402,-0.6779201,1.9497483,1.8132236,-0.7819426,0.3864566,-1.3124063,-2.2911823,-0.71216816,1.9041585,1.8612945,-0.8405279,-1.1314836,-0.96700954,0.670109,0.64017874,0.5620571,-0.20486878,0.41744715,-0.5337219,-0.46191406,0.5444681,-0.6943101,0.35038453,-0.45367536,-0.5383682,-0.48173523,0.508725,0.9773891,0.09703142,0.16682455,0.086400576,-0.87643105,0.67408794,-0.31046423,0.0,1.0,0.0,0.0,0.0,0.0,0.0,-0.11627805,0.061914057,0.005531907,5.277109,7.289219,31.587898,1.8837333,12.631494,-2.1964908,0.54908395
21.898457,138.76791,32.5966,25.852541,2.8943365,0.8980305,-0.11730264,-0.61462533,-0.36775103,0.3961807,0.32817778,0.58102894,-0.46311122,0.63296545,0.3249941,-1.3491814,-2.2515643,-0.6793504,1.9622613,1.8149834,-0.77723134,0.37540212,-1.3210351,-2.2833517,-0.7058792,1.9107485,1.8591394,-0.8363048,-1.096748,-0.82842886,0.8217252,0.6255186,0.69067276,-0.21877237,0.4237742,-0.54016495,-0.45858002,0.54081017,-0.62892437,0.328151,-0.3400206,-0.5468521,-0.4749298,0.506593,0.9794038,0.09383736,0.15957972,0.08060395,-0.8374643,0.6902788,-0.18259509,0.0,1.0,0.0,0.0,0.0,0.0,0.0,-0.10983503,0.05858001,0.009189844,3.4951448,13.748693,15.44733,-1.3423443,12.750519,-1.2502909,0.59437156
15.96162,133.41748,28.683662,24.18624,2.152847,0.7741051,0.006321445,-0.60703236,-0.2892907,0.39871013,0.24483624,0.6261386,-0.46357307,0.620896,0.31469887,-1.3499643,-2.2434807,-0.6813956,1.9733623,1.8127822,-0.77421516,0.36460003,-1.3280962,-2.274873,-0.70014596,1.9184943,1.8568673,-0.8320311,-1.0745687,-0.6655896,0.857017,0.5565387,0.80268574,-0.22947364,0.4285589,-0.54598236,-0.45547485,0.5381986,-0.56790614,0.30626482,-0.23921148,-0.55493164,-0.46798706,0.50555724,0.9813731,0.089758776,0.15243673,0.074921854,-0.7951672,0.7022134,-0.07917367,0.0,1.0,0.0,0.0,0.0,0.0,0.0,-0.104017615,0.055474848,0.011801422,2.2506237,16.187906,3.6049128,-6.716609,11.2957115,-0.8703798,0.48964024
