Afshin1997/kuka_rl_ros2/src/catch_and_throw/input_files/idealpd/recorded_trajectories/env_116_data.csv
torque0,torque1,torque2,torque3,torque4,torque5,torque6,action0,action1,action2,action3,action4,action5,action6,set_target_0,set_target_1,set_target_2,set_target_3,set_target_4,set_target_5,set_target_6,joint_pos_0,joint_pos_1,joint_pos_2,joint_pos_3,joint_pos_4,joint_pos_5,joint_pos_6,joint_vel_0,joint_vel_1,joint_vel_2,joint_vel_3,joint_vel_4,joint_vel_5,joint_vel_6,tennisball_pos_0,tennisball_pos_1,tennisball_pos_2,tennisball_lin_vel_0,tennisball_lin_vel_1,tennisball_lin_vel_2,end_effector_pos_0,end_effector_pos_1,end_effector_pos_2,end_effector_rot_0,end_effector_rot_1,end_effector_rot_2,end_effector_rot_3,end_effector_lin_vel_0,end_effector_lin_vel_1,end_effector_lin_vel_2,obs_task_0,obs_task_1,obs_task_2,obs_task_3,obs_task_4,obs_task_5,obs_task_6,to_final_target_0,to_final_target_1,to_final_target_2,joint_acc_0,joint_acc_1,joint_acc_2,joint_acc_3,joint_acc_4,joint_acc_5,joint_acc_6
0.0,0.0,0.0,0.0,0.0,0.0,0.0,0.0,0.0,0.0,0.0,0.0,0.0,0.0,1.7802359,-1.0646509,-1.8151424,-1.1170107,1.9373155,1.1170107,-0.91629785,1.7802359,-1.0646509,-1.8151424,-1.1170107,1.9373155,1.1170107,-0.91629785,0.0,0.0,0.0,0.0,0.0,0.0,0.0,3.0961723,-0.5901642,0.11670926,-3.368077,0.05847799,5.3271785,0.5304184,-0.45449638,0.693097,0.5745483,0.17512383,0.15255436,0.7848268,0.0,0.0,0.0,1.0,0.0,0.0,0.0,0.0,0.0,0.0,-3.7461724,0.19016418,0.43329075,0.0,0.0,0.0,0.0,0.0,0.0,0.0
0.0,0.0,0.0,0.0,0.0,0.0,0.0,0.0,0.0,0.0,0.0,0.0,0.0,0.0,1.7802359,-1.0646509,-1.8151424,-1.1170107,1.9373155,1.1170107,-0.91629785,1.7802359,-1.0646509,-1.8151424,-1.1170107,1.9373155,1.1170107,-0.91629785,0.0,0.0,0.0,0.0,0.0,0.0,0.0,3.0961723,-0.5901642,0.11670926,-3.368077,0.05847799,5.3271785,0.5304184,-0.45449638,0.693097,0.5745483,0.17512383,0.15255436,0.7848268,0.0,0.0,0.0,1.0,0.0,0.0,0.0,0.0,0.0,0.0,-3.7461724,0.19016418,0.43329075,0.0,0.0,0.0,0.0,0.0,0.0,0.0
0.0,0.0,0.0,0.0,0.0,0.0,0.0,0.0,0.0,0.0,0.0,0.0,0.0,0.0,1.7802359,-1.0646509,-1.8151424,-1.1170107,1.9373155,1.1170107,-0.91629785,1.7802359,-1.0646509,-1.8151424,-1.1170107,1.9373155,1.1170107,-0.91629785,0.0,0.0,0.0,0.0,0.0,0.0,0.0,3.0961723,-0.5901642,0.11670926,-3.368077,0.05847799,5.3271785,0.5304184,-0.45449638,0.693097,0.5745483,0.17512383,0.15255436,0.7848268,0.0,0.0,0.0,1.0,0.0,0.0,0.0,0.0,0.0,0.0,-3.7461724,0.19016418,0.43329075,0.0,0.0,0.0,0.0,0.0,0.0,0.0
-176.0,44.274258,-15.906082,110.0,11.267492,3.9225254,-3.7088764,-0.81024384,0.2293572,-0.5580023,0.7385927,0.28499877,0.6652659,-0.5995493,1.6992115,-1.0417151,-1.8709426,-1.0431515,1.9658153,1.1835372,-0.9762528,1.7792116,-1.0630506,-1.821141,-1.111447,1.9407468,1.1221281,-0.91645044,-0.13620406,0.21268919,-0.7995791,0.742201,0.4571262,0.68088675,-0.019854123,3.062519,-0.5895767,0.16920465,-3.3647096,0.058419526,5.223666,0.5284462,-0.45785522,0.6936068,0.57803184,0.17368528,0.15145867,0.78279805,-0.26264966,-0.4479399,0.06771305,1.0,0.0,0.0,0.0,0.0,0.0,0.0,-3.7125192,0.18957672,0.38079536,-13.50646,21.095724,-79.90462,74.37093,45.563187,67.67451,-1.8351558
-176.0,-43.65703,-49.847572,110.0,13.153485,1.0630838,-3.1886473,-0.8009427,-0.23112105,-0.53838,0.69478893,0.4335054,0.6401574,-0.5756747,1.6991174,-1.0861627,-1.874979,-1.0419681,1.9840974,1.1861439,-0.9740179,1.7782313,-1.0615362,-1.8361557,-1.0960299,1.9483533,1.1352736,-0.915122,-0.08735813,0.120647706,-1.7104226,1.8092793,0.8491382,1.4955708,0.17793748,3.0288963,-0.5889931,0.2206657,-3.3613455,0.05836112,5.1202574,0.52399445,-0.4665451,0.6939397,0.5858433,0.17027093,0.1481639,0.7783591,-0.50654835,-1.0071537,0.024832893,1.0,0.0,0.0,0.0,0.0,0.0,0.0,-3.6788964,0.18899307,0.32933432,4.2346554,-12.331702,-83.589294,107.06491,35.41646,72.44551,18.04233
-158.82504,112.64586,31.346165,92.532394,8.875147,8.232685,-1.8617271,-0.76555353,0.23635148,0.1033988,0.65071476,0.43479505,0.69104844,-0.5158178,1.7016759,-1.037901,-1.8258158,-1.0309584,1.9918329,1.2043784,-0.9667038,1.7740408,-1.0596899,-1.8511055,-1.076325,1.9573464,1.1501147,-0.913721,-0.52963096,0.20283067,-1.4167413,2.025458,0.9107542,1.4739687,0.126418,2.995308,-0.58841324,0.27109343,-3.3579848,0.05830277,5.0169516,0.51662827,-0.47816277,0.69582903,0.5964338,0.16530988,0.14332402,0.7722678,-0.82084244,-1.2055223,0.24733612,1.0,0.0,0.0,0.0,0.0,0.0,0.0,-3.645308,0.18841323,0.27890658,-44.18872,7.269606,31.262493,22.046328,4.548311,-4.039049,-5.4486156
-105.76761,96.6545,36.489212,55.579018,5.8177323,7.727305,-0.1893337,-0.76747954,-0.029936643,0.20549357,0.65871817,0.451413,0.67275316,-0.55300486,1.6972928,-1.0626836,-1.8305562,-1.0104532,2.0024877,1.21739,-0.9690215,1.7653929,-1.0582289,-1.8602607,-1.0570189,1.9661222,1.1639239,-0.91301817,-0.97716737,0.12505528,-0.7412178,1.8998716,0.8605113,1.3467057,0.050553385,2.9617538,-0.5878334,0.32048884,-3.3546274,0.058244478,4.9137497,0.5066223,-0.49067116,0.6994717,0.6079077,0.15918641,0.13691975,0.76574206,-1.072503,-1.2548357,0.4071428,1.0,0.0,0.0,0.0,0.0,0.0,0.0,-3.611754,0.1878334,0.22951117,-44.967712,-8.380318,69.69568,-12.319016,-6.795454,-13.746357,-7.8992953
-49.427155,118.07331,48.273026,30.301638,2.7800868,7.251584,0.5744236,-0.7914013,0.08495078,0.259517,0.64935523,0.5615682,0.6683605,-0.56454974,1.6862527,-1.0497338,-1.834309,-0.9920834,2.022279,1.2307599,-0.9694731,1.7529951,-1.0570863,-1.8624408,-1.0401541,1.9744554,1.1763102,-0.9130983,-1.3281468,0.10894742,-0.03751953,1.6151791,0.81977654,1.2012373,-0.029127942,2.9282303,-0.5872536,0.36885303,-3.3512735,0.058186244,4.810651,0.4946823,-0.50273514,0.704649,0.61906826,0.15207133,0.12910855,0.75957865,-1.2470174,-1.1777855,0.5557466,1.0,0.0,0.0,0.0,0.0,0.0,0.0,-3.5782304,0.18725356,0.18114698,-35.397507,-2.0678372,72.18715,-28.54879,-5.4126263,-14.9695635,-8.453627
-9.752684,117.5376,45.475548,14.15452,0.48533928,5.25854,0.55913997,-0.7990871,0.16995929,0.19844376,0.65170044,0.58254296,0.65859985,-0.57978463,1.6730864,-1.0400904,-1.8425964,-0.97498405,2.0327096,1.2421702,-0.9710767,1.7382246,-1.0555986,-1.8594272,-1.0260245,1.9825234,1.1873671,-0.9139127,-1.5272943,0.16082409,0.41798124,1.3452233,0.8002201,1.0736763,-0.1004445,2.8947449,-0.58667374,0.416187,-3.347923,0.05812807,4.707655,0.48162842,-0.5136986,0.7109706,0.62955445,0.14428084,0.12060533,0.7538558,-1.3364449,-1.0558308,0.6560201,1.0,0.0,0.0,0.0,0.0,0.0,0.0,-3.544745,0.18667373,0.13381302,-20.152998,4.865584,46.651943,-27.144575,-2.6206493,-12.735295,-7.6029353
17.294981,142.75117,49.755695,9.048795,-1.465348,4.324337,0.088283904,-0.8063586,0.39495906,0.120507285,0.63208956,0.55501187,0.66441864,-0.5777138,1.6575887,-1.0161027,-1.8473765,-0.9628155,2.0380247,1.253809,-0.9716841,1.7224127,-1.0524534,-1.8540752,-1.0140425,1.9904275,1.197312,-0.9153604,-1.5998727,0.36466828,0.5768771,1.1488525,0.78629875,0.9687616,-0.16133186,2.86129,-0.5860939,0.46249178,-3.344576,0.058069956,4.604762,0.46813202,-0.5231285,0.7183585,0.6395424,0.13595842,0.1125531,0.7482196,-1.364892,-0.89402086,0.7636559,1.0,0.0,0.0,0.0,0.0,0.0,0.0,-3.51129,0.1860939,0.08750823,-7.5098753,20.080667,16.619068,-19.747902,-1.6298175,-10.256683,-6.6289873
23.957657,138.55963,43.211906,7.783291,-2.1815734,2.9223685,-0.353265,-0.81925154,0.500983,0.0077136224,0.61417353,0.56601864,0.6488625,-0.58119494,1.6404876,-1.0023551,-1.8533038,-0.95262516,2.0470293,1.2621982,-0.97347987,1.7064387,-1.046861,-1.8490398,-1.0033861,1.9982934,1.2063357,-0.91733736,-1.5973287,0.6234201,0.48051974,1.037427,0.78647965,0.8811182,-0.2112811,2.8278694,-0.58551407,0.5077684,-3.341232,0.0580119,4.501972,0.45461655,-0.5310669,0.72661215,0.6493777,0.12736669,0.10582189,0.74221826,-1.3555003,-0.74646205,0.8430474,1.0,0.0,0.0,0.0,0.0,0.0,0.0,-3.4778695,0.18551406,0.04223162,0.015616417,25.644135,-9.203404,-11.212349,0.005042553,-8.5078,-5.4321437
25.646,127.30089,37.18752,6.926782,-2.2625804,2.0164757,-0.4938581,-0.8213757,0.5795667,-0.03586089,0.5789903,0.5863597,0.65023,-0.57333493,1.6243011,-0.98890436,-1.8526258,-0.94548714,2.0569293,1.2713586,-0.9746708,1.6907545,-1.0387434,-1.8457916,-0.9934498,2.0062592,1.2145964,-0.91973776,-1.5595113,0.8737927,0.27399257,0.97871625,0.79999304,0.8083632,-0.25083905,2.7944832,-0.58493423,0.5520179,-3.3378916,0.057953898,4.399285,0.44132996,-0.5376663,0.73547995,0.65925974,0.11874736,0.100714736,0.73561686,-1.3280367,-0.61871827,0.8988046,1.0,0.0,0.0,0.0,0.0,0.0,0.0,-3.4444833,0.18493423,-0.0020179152,3.5582542,24.858868,-20.331484,-5.9868813,1.392901,-7.1006417,-4.3200912
24.076042,112.790085,32.415432,6.9862237,-1.8458744,1.5649102,-0.4364568,-0.8140231,0.6322822,-0.04399588,0.564474,0.5980698,0.65324247,-0.56905085,1.6093522,-0.9755151,-1.8501911,-0.9370024,2.0660663,1.2799206,-0.97664285,1.6755282,-1.0285162,-1.8445652,-0.9838234,2.0144036,1.2222239,-0.9224729,-1.5111364,1.0718215,0.07327294,0.9566959,0.819294,0.7477211,-0.28218624,2.7611275,-0.5843544,0.5952413,-3.3345544,0.057895955,4.2967,0.4283104,-0.54317474,0.7447816,0.66922295,0.11019738,0.097054556,0.72840744,-1.2986368,-0.5135307,0.9386518,1.0,0.0,0.0,0.0,0.0,0.0,0.0,-3.4111276,0.1843544,-0.045241296,4.6430826,19.661499,-19.77275,-2.38055,1.9691586,-5.998206,-3.4641862
19.169376,96.51219,27.601564,7.665232,-1.2589135,1.3089898,-0.33501154,-0.8105734,0.66735286,-0.067758515,0.5559328,0.58998114,0.66210246,-0.5757811,1.5944709,-0.9617809,-1.851341,-0.92823017,2.0734017,1.2884341,-0.980051,1.6607252,-1.016807,-1.8449867,-0.97427046,2.022693,1.2293288,-0.9254808,-1.4704944,1.2036778,-0.07973561,0.95409596,0.8325352,0.69793636,-0.30804753,2.72781,-0.58377457,0.6374396,-3.3312206,0.05783807,4.194218,0.41552734,-0.5478058,0.7543568,0.67923456,0.101738,0.09448333,0.7206682,-1.2763028,-0.4315472,0.9623961,1.0,0.0,0.0,0.0,0.0,0.0,0.0,-3.37781,0.18377456,-0.0874396,3.8959026,13.074803,-15.003336,-0.48213005,1.3556957,-4.9836636,-2.8948426
15.578972,82.86909,24.166302,7.612908,-0.7178007,1.191613,-0.15955502,-0.8063329,0.687066,-0.071898416,0.53665537,0.60780835,0.66322684,-0.5770886,1.580092,-0.9481003,-1.8521765,-0.92060494,2.0834737,1.2956514,-0.98318964,1.6462294,-1.0042394,-1.8464248,-0.96475375,2.031131,1.2360007,-0.9287128,-1.4431189,1.2742511,-0.16421467,0.950034,0.8477503,0.6569186,-0.32929382,2.6945229,-0.58319473,0.67861384,-3.3278902,0.057780247,4.0918384,0.40289688,-0.55173874,0.7640686,0.68919176,0.09336676,0.09257923,0.71254927,-1.2618439,-0.3659011,0.9731466,1.0,0.0,0.0,0.0,0.0,0.0,0.0,-3.344523,0.18319473,-0.12861383,2.579999,6.970215,-8.117125,-0.6540179,1.534009,-4.128313,-2.429366
14.055368,76.730606,23.18907,7.6132264,-0.37820634,1.2560236,-0.0025462005,-0.80226856,0.71139294,-0.06281732,0.5186329,0.6214665,0.66679835,-0.5817862,1.5660025,-0.93310016,-1.8527066,-0.91289043,2.0932777,1.3026805,-0.9868914,1.6319147,-0.9912399,-1.8482292,-0.9553429,2.0397332,1.2423197,-0.93213266,-1.4280689,1.3082571,-0.18474175,0.93722415,0.8641378,0.6234912,-0.3472679,2.6612663,-0.5826149,0.7187651,-3.324563,0.05772248,3.9895616,0.39035797,-0.55506516,0.77386206,0.6989774,0.085031554,0.09099242,0.7042163,-1.2535732,-0.30574793,0.9805279,1.0,0.0,0.0,0.0,0.0,0.0,0.0,-3.3112664,0.1826149,-0.16876507,1.3431072,3.3237457,-1.6633421,-1.533997,1.6262174,-3.3779502,-2.1106005
14.617059,71.46184,22.146158,6.6503024,-0.26548278,1.2056904,0.12440579,-0.7930487,0.71700853,-0.053557802,0.49950784,0.62075394,0.6693511,-0.58288735,1.5526099,-0.91953903,-1.853585,-0.9053921,2.1018085,1.3092548,-0.9904214,1.6177145,-0.9780983,-1.8499286,-0.9461409,2.048465,1.2483526,-0.9357099,-1.4179959,1.3158793,-0.16363943,0.91369593,0.8760214,0.5967189,-0.36227188,2.628048,-0.58203506,0.75789434,-3.3212392,0.057664767,3.887387,0.37790298,-0.5578041,0.7836835,0.7084847,0.07669503,0.08950716,0.69581294,-1.2451184,-0.24762648,0.9818317,1.0,0.0,0.0,0.0,0.0,0.0,0.0,-3.278048,0.18203506,-0.20789433,0.8462429,0.7002592,2.525148,-2.6091218,1.1699438,-2.678752,-1.8188357
15.522276,71.66561,22.661875,6.070277,-0.2466599,1.2818655,0.23923275,-0.797575,0.73075485,-0.018505078,0.462532,0.6365763,0.6666414,-0.578161,1.5379571,-0.9050228,-1.8517791,-0.8998877,2.1121225,1.3150167,-0.993526,1.6035448,-0.96492994,-1.8511531,-0.93731844,2.0573266,1.2541548,-0.93941396,-1.4172105,1.3170086,-0.10735958,0.8708132,0.8894896,0.57481676,-0.37424162,2.59486,-0.58145523,0.79600257,-3.3179188,0.057607114,3.7853146,0.3655243,-0.5599251,0.79352415,0.71761703,0.06831584,0.087989844,0.6874711,-1.2363896,-0.1853778,0.9836595,1.0,0.0,0.0,0.0,0.0,0.0,0.0,-3.2448602,0.18145522,-0.24600255,-0.094127655,0.05452633,6.08813,-4.5396447,1.3133764,-2.1717787,-1.5206456
17.500904,71.22179,22.407661,4.994502,-0.38463566,1.185258,0.2901818,-0.79029876,0.7400516,-0.010044203,0.43231285,0.6415094,0.6740653,-0.5721098,1.5245149,-0.89092475,-1.8521576,-0.89408714,2.1214776,1.3215613,-0.99662495,1.5893866,-0.95174253,-1.8518054,-0.9290129,2.066314,1.2597758,-0.9432172,-1.4158586,1.3190814,-0.04959805,0.81638104,0.9014273,0.55809325,-0.38335255,2.5617027,-0.580883,0.83309084,-3.3146014,0.05754952,3.6833441,0.35327148,-0.5614052,0.8033582,0.72631633,0.059890367,0.086423814,0.6792706,-1.2218133,-0.12038241,0.9819333,1.0,0.0,0.0,0.0,0.0,0.0,0.0,-3.2117028,0.18088302,-0.28309083,-0.035071373,0.15938282,6.223298,-5.6920767,1.1735797,-1.610899,-1.2268662
17.485924,68.20886,20.714985,4.171957,-0.5009612,0.9471574,0.28476793,-0.7913079,0.7449692,-0.01868266,0.39403912,0.65063417,0.67333233,-0.56319606,1.5102558,-0.8772456,-1.8536737,-0.889609,2.1313775,1.327109,-0.9995368,1.5752302,-0.9385179,-1.8520477,-0.92133105,2.0754197,1.2652556,-0.94709104,-1.4161295,1.3234526,-0.014364039,0.75129694,0.91363424,0.5450158,-0.38958406,2.5285835,-0.5803108,0.86916023,-3.3112874,0.05749198,3.5814757,0.3412094,-0.56225586,0.81310993,0.73457813,0.051480643,0.08487481,0.67122346,-1.2014723,-0.0586692,0.97113544,1.0,0.0,0.0,0.0,0.0,0.0,0.0,-3.1785836,0.18031082,-0.31916022,-0.18982887,0.40504932,3.9203718,-6.759095,1.2261391,-1.1974931,-0.9141803
21.128256,66.86109,20.031605,1.4111953,-0.84174734,0.7107347,0.3647594,-0.79112947,0.75329256,-0.0024434929,0.31464508,0.66007626,0.67243356,-0.55540144,1.4961174,-0.8631887,-1.8522921,-0.88986653,2.1414273,1.3324989,-1.0026312,1.5610682,-0.9252151,-1.8520133,-0.9145371,2.0846512,1.2706267,-0.9510097,-1.4167159,1.3325388,0.010773225,0.65456253,0.9262792,0.53520846,-0.3935504,2.4954948,-0.5797386,0.9042117,-3.3079767,0.0574345,3.4797094,0.32943344,-0.5624504,0.82268625,0.7423512,0.043179315,0.08342381,0.6633933,-1.1683863,0.0071334303,0.95104223,1.0,0.0,0.0,0.0,0.0,0.0,0.0,-3.145495,0.17973861,-0.3542117,-0.22411346,0.8945942,2.8889775,-9.936464,1.2888789,-0.7883549,-0.67428946
28.583773,66.81773,20.386137,-3.2548466,-1.3676163,0.47214893,0.54228073,-0.78723484,0.7611666,0.035530094,0.20043482,0.67030084,0.6732616,-0.5488587,1.4823447,-0.84909844,-1.8484603,-0.8944936,2.1516814,1.3379529,-1.0058956,1.5469195,-0.9117931,-1.8516567,-0.909083,2.0940163,1.2759215,-0.95495504,-1.4149557,1.345475,0.04520264,0.5081806,0.93983763,0.528612,-0.39583376,2.4624405,-0.5791664,0.93824625,-3.3046694,0.057377078,3.3780446,0.31814194,-0.56191635,0.831993,0.74950314,0.035079323,0.082127206,0.6559494,-1.1153764,0.08298971,0.9215322,1.0,0.0,0.0,0.0,0.0,0.0,0.0,-3.1124406,0.1791664,-0.38824624,0.008368492,1.3026476,3.8093607,-14.911234,1.3938546,-0.35248995,-0.49709678
33.657448,64.55873,19.595795,-7.095,-1.7958155,0.13466176,0.6559783,-0.7858729,0.77018684,0.04079928,0.08553975,0.6797932,0.66844255,-0.5396274,1.4683322,-0.83477443,-1.8475767,-0.900529,2.1619956,1.3427657,-1.0089178,1.5327975,-0.8982185,-1.8510063,-0.90539706,2.1035187,1.2811629,-0.9589109,-1.4119978,1.361591,0.07267628,0.32110307,0.9539525,0.52407795,-0.39630428,2.4294205,-0.5785942,0.9712649,-3.3013654,0.057319712,3.2764814,0.30749512,-0.56059265,0.8409168,0.75593454,0.027304573,0.08105862,0.64903533,-1.0444664,0.16122524,0.879947,1.0,0.0,0.0,0.0,0.0,0.0,0.0,-3.0794206,0.1785942,-0.4212649,0.14264584,1.6486645,3.0569725,-18.977648,1.4782786,-0.044703484,-0.28247237
46.2617,62.340256,19.697638,-15.724957,-2.6974833,-0.3484378,0.9600897,-0.7756868,0.77751726,0.083249055,-0.12830332,0.69052166,0.6640871,-0.5359578,1.4552288,-0.82046676,-1.8426814,-0.9182274,2.172571,1.3475716,-1.0125067,1.5187498,-0.884478,-1.8499706,-0.90423167,2.11317,1.2863737,-0.9628648,-1.4028453,1.378526,0.1147879,0.047407955,0.96891874,0.5220476,-0.39572927,2.396431,-0.578022,1.0032687,-3.2980647,0.057262402,3.1750197,0.29782486,-0.5583725,0.84927666,0.7614392,0.020048264,0.080293484,0.6429319,-0.93823665,0.25221583,0.81830615,1.0,0.0,0.0,0.0,0.0,0.0,0.0,-3.046431,0.178022,-0.4532687,0.79140663,1.7716646,4.4597297,-27.626545,1.5935183,0.39173365,-0.13876557
48.10092,61.933125,19.854105,-16.403934,-2.7599263,-0.5006437,1.0111473,-0.77018595,0.7836483,0.12660953,-0.23447897,0.68592423,0.658538,-0.514446,1.4417312,-0.8061131,-1.8373096,-0.92767954,2.1817622,1.3522276,-1.0143094,1.5048147,-0.8705772,-1.8483932,-0.90583384,2.122928,1.2915655,-0.966793,-1.3906208,1.3942412,0.17233057,-0.23010713,0.97892404,0.52044,-0.39237678,2.363472,-0.5774498,1.0342587,-3.2947674,0.05720515,3.0736597,0.28925705,-0.5552635,0.8570238,0.76594764,0.0133665055,0.07983959,0.6377861,-0.825402,0.3396633,0.7566326,1.0,0.0,0.0,0.0,0.0,0.0,0.0,-3.013472,0.1774498,-0.4842587,1.1550665,1.6787529,5.8641105,-27.944273,1.1703491,0.45535564,0.19950867
44.933155,61.31306,19.64408,-13.463987,-2.414184,-0.52843994,0.9279867,-0.75843316,0.78717905,0.15994394,-0.31449506,0.6903121,0.65800536,-0.5004919,1.4289714,-0.7918593,-1.8323988,-0.93728334,2.1919591,1.3573661,-1.0168422,1.4910399,-0.8565458,-1.846194,-0.90992224,2.1327736,1.296744,-0.97067636,-1.3731079,1.4065723,0.23569338,-0.46882883,0.98734075,0.5187852,-0.38727948,2.3305511,-0.5768776,1.0642359,-3.2914734,0.05714796,2.972401,0.28175735,-0.55134964,0.8642146,0.7695381,0.007202517,0.07963849,0.6335748,-0.72029227,0.41597834,0.70260245,1.0,0.0,0.0,0.0,0.0,0.0,0.0,-2.9805512,0.17687759,-0.5142359,1.7381907,1.3622284,6.293616,-24.007887,1.0941982,0.40683746,0.42479634
39.849953,64.75392,21.076563,-7.7026296,-1.8046241,-0.2653509,0.80346346,-0.7421973,0.79242784,0.23191945,-0.36012608,0.69001746,0.65367144,-0.47740096,1.4168202,-0.77730304,-1.8230021,-0.94593483,2.2017753,1.3621111,-1.0184164,1.4774901,-0.8424076,-1.8431728,-0.9158827,2.142688,1.3018996,-0.9744939,-1.3490365,1.4167612,0.32362464,-0.6387662,0.9937694,0.51627517,-0.38010862,2.2976608,-0.5763054,1.0932013,-3.2881825,0.057090823,2.8712432,0.2751541,-0.5467224,0.8710275,0.7723359,0.0013667373,0.079559326,0.6302107,-0.63385963,0.48433623,0.6696839,1.0,0.0,0.0,0.0,0.0,0.0,0.0,-2.947661,0.17630538,-0.54320127,2.428627,1.1665821,8.605278,-17.086756,1.0081172,0.25094748,0.6566644
34.03302,68.03267,22.516012,-1.9340887,-1.191344,0.06030818,0.69597673,-0.7355738,0.79469925,0.31843945,-0.40432474,0.6902644,0.6485524,-0.45645508,1.4039327,-0.76293766,-1.8113289,-0.95631516,2.2117145,1.3667548,-1.0201395,1.4641691,-0.82819116,-1.8390357,-0.92309535,2.152652,1.3070246,-0.9782285,-1.3263131,1.4239277,0.44280967,-0.7490389,0.9988014,0.51284957,-0.3714404,2.264801,-0.5757332,1.1211557,-3.284895,0.057033744,2.7701867,0.26926804,-0.5414467,0.8776657,0.7744552,-0.0043676645,0.0794488,0.62760496,-0.56801033,0.5474444,0.6568473,1.0,0.0,0.0,0.0,0.0,0.0,0.0,-2.9148011,0.17573318,-0.5711557,2.3055315,0.8773565,11.625683,-11.094082,0.9652972,0.09946823,0.8196354
31.735264,70.40153,23.855717,1.305717,-0.85597396,0.256105,0.66235906,-0.7171176,0.79581565,0.40437675,-0.44660547,0.69469315,0.6390347,-0.4194258,1.3924574,-0.7486096,-1.798598,-0.9677559,2.2221212,1.370928,-1.020171,1.4511038,-0.8139242,-1.8335235,-0.9311167,2.1626656,1.3121096,-0.98185533,-1.2997257,1.4281789,0.5860429,-0.8199577,1.0044078,0.5086218,-0.3599786,2.2319794,-0.575161,1.1481004,-3.2816107,0.056976724,2.6692312,0.26395035,-0.5355377,0.8842774,0.77594745,-0.010172818,0.07918286,0.6257252,-0.5130545,0.6095138,0.6571829,1.0,0.0,0.0,0.0,0.0,0.0,0.0,-2.8819795,0.17516097,-0.59810036,2.712369,0.5981684,13.942647,-7.133639,1.0963321,0.0019431114,1.1087239
27.679039,71.68973,24.227758,4.6568713,-0.5818776,0.3990704,0.5777929,-0.7097055,0.8051409,0.46951857,-0.4655002,0.6912795,0.63430154,-0.37527776,1.3801333,-0.7334101,-1.7865716,-0.97766674,2.2317936,1.3755398,-1.0193831,1.4382807,-0.7995914,-1.8265693,-0.9396063,2.1727211,1.3171507,-0.9853439,-1.2764797,1.4355975,0.7305153,-0.8586966,1.0075729,0.5040502,-0.34521806,2.1991882,-0.5745888,1.1740363,-3.2783298,0.056919757,2.5683768,0.25909805,-0.52902985,0.890962,0.7768751,-0.016159317,0.07872419,0.62450486,-0.4692909,0.66912514,0.66638273,1.0,0.0,0.0,0.0,0.0,0.0,0.0,-2.8491883,0.17458877,-0.62403625,2.38173,0.9221792,14.025927,-3.8998365,0.8846283,-0.062060356,1.451087
19.480999,68.431786,22.516531,10.045134,-0.022163868,0.4644605,0.37043214,-0.6956024,0.8019874,0.50452405,-0.4106603,0.68584335,0.6318425,-0.30959412,1.3687204,-0.71939266,-1.776117,-0.98067236,2.2413056,1.380335,-1.0163033,1.4256865,-0.7852119,-1.8183677,-0.9480158,2.1827805,1.322146,-0.98864836,-1.2535394,1.439308,0.84873885,-0.835153,1.0070612,0.49912977,-0.3255829,2.1664276,-0.5740166,1.1989644,-3.2750523,0.05686285,2.4676232,0.25453186,-0.52202606,0.89779717,0.7773889,-0.022420187,0.07807682,0.623753,-0.4453244,0.7144858,0.6829985,1.0,0.0,0.0,0.0,0.0,0.0,0.0,-2.8164277,0.17401657,-0.64896435,2.3336172,0.55418015,11.403,2.2983193,0.5066395,-0.16278625,1.9269586
3.9054408,61.451767,18.549257,18.429113,0.9187523,0.5839882,0.022033127,-0.716924,0.80025315,0.51170456,-0.32308507,0.68965894,0.63536984,-0.25285962,1.3539941,-0.7051866,-1.7671973,-0.9803243,2.2517464,1.3856831,-1.0139344,1.4131552,-0.770821,-1.8093231,-0.9556595,2.1928322,1.3270937,-0.9917297,-1.2532355,1.4395864,0.9218465,-0.7412677,1.0063672,0.49390188,-0.3024427,2.1337013,-0.573452,1.2228856,-3.2717779,0.056805998,2.3669703,0.24995041,-0.51475906,0.90484756,0.7777554,-0.02902706,0.07725445,0.6231257,-0.45598584,0.73505956,0.70583487,1.0,0.0,0.0,0.0,0.0,0.0,0.0,-2.7837014,0.17345199,-0.6728856,-0.013279915,0.2061367,6.9790244,9.254276,0.43575764,-0.32017827,2.2585988
-9.274708,54.004974,14.514271,25.122763,1.6599107,0.6414945,-0.29223165,-0.73855567,0.79789907,0.50720924,-0.23212215,0.6782836,0.6456026,-0.21771753,1.3392997,-0.6910311,-1.7586021,-0.9788717,2.2606606,1.391654,-1.0135014,1.4004599,-0.75645196,-1.7998912,-0.9619633,2.2028382,1.3319956,-0.9945726,-1.2752641,1.4366863,0.9493805,-0.59405243,1.0004783,0.4892372,-0.27849635,2.1010094,-0.5728874,1.2458011,-3.2685068,0.056749202,2.266418,0.24504471,-0.5074463,0.91214335,0.77824956,-0.036015555,0.076305896,0.6222603,-0.4946251,0.7342606,0.7308953,1.0,0.0,0.0,0.0,0.0,0.0,0.0,-2.7510095,0.17288741,-0.6958011,-2.3266315,-0.11906624,2.5117278,14.515781,-0.13740063,-0.37290454,2.326262
-17.197662,46.757187,10.979466,28.460588,2.06117,0.5679114,-0.49736118,-0.75838184,0.7930247,0.4882879,-0.14902349,0.6717116,0.65743625,-0.200256,1.3246217,-0.6771495,-1.7510624,-0.97686565,2.2700093,1.3977392,-1.0145981,1.3874346,-0.74213827,-1.7904918,-0.9666077,2.2127678,1.3368613,-0.9971866,-1.3123795,1.4302102,0.9362902,-0.4221427,0.9916551,0.48568413,-0.25592524,2.068348,-0.57232285,1.2677118,-3.265239,0.056692466,2.1659663,0.23963547,-0.5002632,0.9196606,0.77906805,-0.043368157,0.07529443,0.62088877,-0.5481604,0.7182131,0.7519884,1.0,0.0,0.0,0.0,0.0,0.0,0.0,-2.718348,0.17232284,-0.71771175,-3.8842678,-0.48964024,-1.480031,16.941994,-0.483191,-0.3344655,2.1854699
-23.64568,40.601337,8.199289,31.85688,2.5031743,0.5422548,-0.6892315,-0.7793845,0.7824487,0.45943874,-0.021550596,0.6764173,0.6631148,-0.22270511,1.3094962,-0.6638934,-1.744548,-0.96876276,2.2804096,1.4031727,-1.0194571,1.3739802,-0.7279333,-1.7814586,-0.9692894,2.2226288,1.3416964,-0.99961656,-1.3571347,1.4177853,0.891886,-0.21775101,0.9857723,0.48263374,-0.2389049,2.035717,-0.5717583,1.2886187,-3.2619743,0.056635786,2.065615,0.23358536,-0.49334526,0.92738813,0.78037345,-0.05108602,0.07423213,0.61878663,-0.61683786,0.68883175,0.7730395,1.0,0.0,0.0,0.0,0.0,0.0,0.0,-2.685717,0.17175826,-0.7386187,-4.673457,-1.0951519,-4.585135,20.161846,-0.21253824,-0.35369396,1.6276538
-18.730232,39.267677,8.047924,28.108082,2.0823565,0.3281144,-0.6125947,-0.79034066,0.78135484,0.44449133,0.013494905,0.6779107,0.6683987,-0.28164685,1.2949461,-0.6497978,-1.7370095,-0.9679399,2.2904198,1.4085362,-1.0277812,1.3601137,-0.7138437,-1.772929,-0.97019637,2.2324517,1.3465086,-1.0019435,-1.3969125,1.4063984,0.8395571,-0.049205057,0.9822303,0.48082545,-0.23083022,2.0031242,-0.5711937,1.3085228,-3.258713,0.05657916,1.9653639,0.2269516,-0.48667336,0.935249,0.78215194,-0.05909506,0.07315297,0.6159502,-0.67082053,0.6655691,0.7838642,1.0,0.0,0.0,0.0,0.0,0.0,0.0,-2.6531243,0.17119369,-0.7585228,-4.147792,-1.0126114,-5.3503275,16.611187,-0.018894672,-0.2076149,0.74003935
-7.390481,40.293564,9.2588825,19.777874,1.1517386,-0.038912926,-0.3344997,-0.7987582,0.7806351,0.43995628,-0.008588868,0.678086,0.66189563,-0.28761622,1.2802379,-0.6357802,-1.7289333,-0.97105527,2.3002603,1.4126981,-1.0307051,1.345925,-0.6998447,-1.7648456,-0.97003424,2.2422516,1.3513075,-1.0042132,-1.4265274,1.398122,0.7977861,0.037305467,0.980071,0.47974542,-0.22584257,1.970562,-0.5706291,1.3274252,-3.255455,0.056522597,1.8652128,0.22002411,-0.4801216,0.94308,0.7842084,-0.0672157,0.072136894,0.6126137,-0.69124454,0.65771806,0.7765386,1.0,0.0,0.0,0.0,0.0,0.0,0.0,-2.620562,0.17062911,-0.7774252,-3.0909061,-0.7258892,-4.238093,8.454474,0.057208538,-0.03875494,0.43266416
3.7422724,43.48465,11.329368,12.649334,0.3101939,-0.32532248,-0.067516424,-0.7942797,0.781348,0.43691826,-0.009468965,0.67574227,0.66484594,-0.27557915,1.266497,-0.62170994,-1.7211537,-0.9709811,2.309826,1.4177921,-1.0317712,1.3315722,-0.68589437,-1.7570598,-0.9694754,2.252025,1.3561045,-1.0064353,-1.438483,1.3941827,0.77213484,0.061579254,0.97755945,0.48021337,-0.22111961,1.9380302,-0.57006454,1.3453269,-3.2522001,0.056466084,1.7651619,0.21313477,-0.47354126,0.9507517,0.786316,-0.07530413,0.07125403,0.6090642,-0.68078834,0.6653553,0.7578086,1.0,0.0,0.0,0.0,0.0,0.0,0.0,-2.5880303,0.17006454,-0.7953269,-1.2807846,-0.30667782,-2.5875568,2.2742965,-0.02720356,0.20961165,0.39986968
8.860172,45.500275,12.545803,9.578035,-0.07527995,-0.45346373,0.06955887,-0.80084765,0.78118956,0.43229875,0.0052555623,0.67206335,0.66341776,-0.24599738,1.2514874,-0.6077754,-1.71383,-0.96894985,2.3192313,1.4224463,-1.0310351,1.3171545,-0.6719612,-1.7494342,-0.9688841,2.2617714,1.3609072,-1.0085944,-1.4430748,1.3932635,0.75940675,0.05787467,0.974022,0.48113322,-0.21425842,1.9055328,-0.56949997,1.3622289,-3.2489486,0.05640963,1.6652111,0.2064476,-0.46682167,0.9582087,0.7883348,-0.083295286,0.07053126,0.6054877,-0.65611017,0.68063307,0.73548704,1.0,0.0,0.0,0.0,0.0,0.0,0.0,-2.555533,0.16949996,-0.81222886,-0.5256653,-0.00975132,-1.2768269,-0.49976856,-0.14995337,0.295496,0.6113231
9.911386,45.38193,12.593586,9.021008,-0.15264446,-0.53232586,0.091546975,-0.8046363,0.7809091,0.41426966,0.021727528,0.67207706,0.6696613,-0.23356937,1.2366909,-0.5938703,-1.7080072,-0.96671134,2.3289793,1.4278734,-1.0319513,1.3027159,-0.6580261,-1.7419422,-0.9683558,2.2714875,1.3657271,-1.0106791,-1.4442285,1.3938764,0.74582267,0.050646592,0.971208,0.4827549,-0.20681986,1.8730698,-0.5689354,1.378132,-3.2457004,0.05635323,1.5653602,0.20003128,-0.45994377,0.9654389,0.79022545,-0.091174506,0.06998231,0.6019412,-0.6279541,0.69627386,0.7127369,1.0,0.0,0.0,0.0,0.0,0.0,0.0,-2.5230699,0.16893539,-0.828132,-0.17540455,0.14412403,-1.3630748,-0.8454628,-0.08109808,0.3705144,0.67058504
14.940058,44.16635,12.328282,4.0535307,-0.6542638,-0.85901374,0.24542172,-0.8065005,0.7812514,0.40892732,-0.06260466,0.67090553,0.66420126,-0.21875149,1.2220658,-0.579901,-1.7010494,-0.9746162,2.338578,1.4321471,-1.0325543,1.2882754,-0.64407957,-1.7345684,-0.9683033,2.281173,1.3705603,-1.0126857,-1.4441048,1.3952565,0.73480445,-0.0102646155,0.9682497,0.48442596,-0.19869491,1.8406372,-0.5683708,1.3930374,-3.2424552,0.05629689,1.4656091,0.19404984,-0.45289612,0.97233844,0.7919061,-0.09880371,0.06966338,0.59855604,-0.5795647,0.713952,0.6763894,1.0,0.0,0.0,0.0,0.0,0.0,0.0,-2.4906373,0.16837081,-0.8430374,-0.030374527,0.21624565,-1.0771155,-6.1978793,-0.13825893,0.44277906,0.7494092
16.885162,44.01153,12.540082,2.601108,-0.7949689,-0.97989464,0.33281133,-0.8034718,0.7800007,0.41724202,-0.08858144,0.66527504,0.66129804,-0.1399095,1.2079282,-0.5660795,-1.6928442,-0.97716147,2.3477006,1.4366901,-1.0266767,1.2738577,-0.63012445,-1.7272308,-0.9689642,2.2908165,1.3754069,-1.0145587,-1.4411697,1.3958216,0.73355013,-0.08504833,0.96387035,0.48573595,-0.18370411,1.8082352,-0.56780624,1.4069461,-3.2392135,0.056240603,1.3659579,0.18860626,-0.44565582,0.97885966,0.79330415,-0.10611353,0.06959486,0.5954536,-0.52437776,0.73199403,0.6379138,1.0,0.0,0.0,0.0,0.0,0.0,0.0,-2.4582353,0.16780624,-0.85694605,0.26900768,0.13823509,-0.11161566,-7.5694137,-0.2831459,0.42282343,1.4419198
15.52231,43.639378,12.632021,4.1790886,-0.5954185,-0.93502665,0.34416077,-0.8034656,0.7773811,0.42683607,-0.088944376,0.6681087,0.6690696,-0.030240366,1.1935111,-0.55238634,-1.6845472,-0.97785866,2.3576274,1.4423138,-1.0175827,1.2594687,-0.6161789,-1.7198303,-0.9702498,2.3004372,1.3802706,-1.0162066,-1.4381335,1.3944207,0.7421665,-0.143366,0.96173084,0.48740104,-0.15887307,1.7758675,-0.56724167,1.4198589,-3.235975,0.056184374,1.2664062,0.18366241,-0.4382534,0.98503697,0.794398,-0.11314249,0.069730215,0.59267884,-0.4752676,0.7481156,0.6049619,1.0,0.0,0.0,0.0,0.0,0.0,0.0,-2.4258676,0.16724166,-0.8698589,0.28202534,-0.051021576,0.84884167,-5.9194775,-0.034201145,0.43390393,2.4274528
9.437326,43.950764,12.7647295,10.626913,0.02325654,-0.6251744,0.20840165,-0.8054829,0.77837753,0.42915237,-0.01918153,0.65330344,0.6671239,0.12805285,1.1789204,-0.5383411,-1.676915,-0.9721679,2.3657675,1.446983,-1.0034013,1.2450949,-0.6022438,-1.7123249,-0.97160494,2.3100007,1.3851439,-1.0175036,-1.4374889,1.3934672,0.7531136,-0.13334021,0.9555058,0.48785254,-0.12021324,1.7435341,-0.5666771,1.4317771,-3.2327397,0.0561282,1.166954,0.17903137,-0.4306984,0.9910262,0.79525226,-0.1200796,0.070007525,0.59013015,-0.45041946,0.76189077,0.5907502,1.0,0.0,0.0,0.0,0.0,0.0,0.0,-2.3935342,0.16667709,-0.8817771,0.009703636,0.0062704086,1.0433435,0.89198947,-0.37670135,0.2286017,3.8019776
2.512785,39.649834,11.001374,16.376518,0.6725051,-0.46260744,0.022043217,-0.8047712,0.76868176,0.40180805,0.04942565,0.64134794,0.66503423,0.24480666,1.1646178,-0.5253756,-1.672144,-0.9666624,2.3741355,1.4516473,-0.993023,1.2307211,-0.58836114,-1.7048557,-0.97237647,2.3194726,1.3900133,-1.0183505,-1.4377372,1.3868649,0.7445331,-0.059015874,0.9455597,0.48713583,-0.07317659,1.7112312,-0.56611633,1.4427013,-3.2295077,0.056072082,1.0676013,0.17445755,-0.4230709,0.9969617,0.79599214,-0.12709577,0.07037527,0.58761424,-0.44927195,0.76624733,0.5882954,1.0,0.0,0.0,0.0,0.0,0.0,0.0,-2.3612313,0.16611633,-0.8927013,-0.113248825,-0.55081844,-0.9329438,7.2774806,-0.7071018,0.039869547,4.627958
-0.9131117,34.971066,9.000049,18.04643,0.91264486,-0.5130327,-0.08906172,-0.81100065,0.76317126,0.37216464,0.06958839,0.6385993,0.6679999,0.26717955,1.149621,-0.512044,-1.6676393,-0.9654176,2.3833325,1.4568133,-0.9916325,1.2163092,-0.57456815,-1.6976402,-0.9722935,2.328849,1.3948771,-1.0187491,-1.44263,1.3771569,0.713883,0.030102603,0.9360593,0.48630548,-0.02881481,1.6789589,-0.5655594,1.4526328,-3.2262788,0.056016024,0.9683479,0.16983795,-0.4154644,1.0028685,0.7967227,-0.13422385,0.07083178,0.5849783,-0.45636606,0.7627785,0.58537847,1.0,0.0,0.0,0.0,0.0,0.0,0.0,-2.328959,0.16555938,-0.9026328,-0.5992651,-0.86421967,-3.1273246,8.732753,-0.6687403,0.0012993813,4.3613186
-4.2098064,32.22297,8.018513,21.065887,1.2474751,-0.4262753,-0.20017584,-0.8080033,0.7540928,0.35112342,0.15752122,0.6282137,0.6735477,0.32099858,1.1355089,-0.49915886,-1.6625278,-0.95654136,2.3916705,1.4622319,-0.9866493,1.2018629,-0.56090105,-1.6908195,-0.97106135,2.3381226,1.3997332,-1.018711,-1.4457501,1.3636109,0.67120516,0.15359096,0.9251889,0.48565164,0.0145773925,1.6467171,-0.56500244,1.4615726,-3.2230532,0.05596002,0.8691938,0.16506577,-0.40791512,1.0087942,0.79752064,-0.14153382,0.0713543,0.5820976,-0.4760885,0.75557524,0.58894074,1.0,0.0,0.0,0.0,0.0,0.0,0.0,-2.2967172,0.16500244,-0.91157264,-0.4319191,-1.2479067,-4.3453217,12.154095,-0.7843852,-0.023752451,4.258818
-4.8374004,29.184662,6.7640133,20.883747,1.2340993,-0.53610814,-0.2485173,-0.80595016,0.7464011,0.30593342,0.20536032,0.6093263,0.6658338,0.3455648,1.1212679,-0.48626095,-1.6602261,-0.95052534,2.3990552,1.4663166,-0.98415446,1.1874052,-0.54738176,-1.684571,-0.9685942,2.3472474,1.4045779,-1.0182666,-1.4461558,1.3483292,0.60915667,0.2770723,0.9093297,0.4842528,0.05420768,1.6145134,-0.5644455,1.4695216,-3.2198308,0.05590407,0.77013874,0.1600914,-0.40047073,1.0147319,0.79843754,-0.14902146,0.07197777,0.57888615,-0.49523625,0.74503094,0.5894691,1.0,0.0,0.0,0.0,0.0,0.0,0.0,-2.2645135,0.16444549,-0.91952163,-0.1506567,-1.4279366,-6.2837005,12.154031,-1.2944937,-0.102853775,3.8862326
-1.001399,27.957407,6.5542035,16.52865,0.81970406,-0.7836663,-0.117821276,-0.8062397,0.734089,0.29422253,0.1907519,0.5974384,0.66749126,0.37124744,1.1067812,-0.47397286,-1.6551487,-0.949519,2.4069912,1.471327,-0.9811418,1.1729513,-0.5340408,-1.6788929,-0.9652611,2.3561966,1.409413,-1.0174521,-1.4452549,1.3296362,0.55394244,0.35144457,0.8911044,0.48366126,0.09035008,1.5823402,-0.56388855,1.4764807,-3.2166116,0.055848178,0.67118275,0.15504837,-0.39312553,1.0205824,0.7994187,-0.15656354,0.07274967,0.5754347,-0.49767137,0.73541856,0.57779986,1.0,0.0,0.0,0.0,0.0,0.0,0.0,-2.2323403,0.16388854,-0.9264807,0.008845329,-1.781106,-5.567765,7.2679224,-1.581645,0.032025576,3.5407827
3.8414283,25.411568,5.681634,10.008988,0.22987092,-1.1990618,0.05029031,-0.8081252,0.7191682,0.26627764,0.14104566,0.57782334,0.6673907,0.38455197,1.0921388,-0.462124,-1.6522651,-0.95115656,2.413979,1.4761521,-0.97899693,1.1585051,-0.52091825,-1.6737449,-0.9617411,2.3649323,1.4142481,-1.0163096,-1.4447907,1.3066964,0.50170875,0.35174513,0.8684714,0.4841308,0.1222411,1.5501976,-0.5633316,1.4824511,-3.2133956,0.055792343,0.5723257,0.15017319,-0.3858986,1.0261683,0.80037344,-0.16392544,0.07375088,0.5719192,-0.47536084,0.72234756,0.5467356,1.0,0.0,0.0,0.0,0.0,0.0,0.0,-2.2001977,0.1633316,-0.93245107,-0.00054836273,-2.2151232,-5.2286386,-0.11688471,-2.096033,0.22939444,3.1253085
10.395383,24.765066,5.441581,2.1673741,-0.5412861,-1.6857519,0.27048925,-0.80197567,0.70931137,0.24127036,0.051839367,0.5518763,0.6691347,0.4191888,1.0783075,-0.4499871,-1.6496179,-0.95655715,2.42012,1.4811616,-0.97439075,1.1440932,-0.5080246,-1.6690872,-0.95886195,2.373397,1.4190966,-1.0148581,-1.4400766,1.2837757,0.4541236,0.2663587,0.83954287,0.4859601,0.15252572,1.5180855,-0.56277466,1.4874336,-3.210183,0.05573656,0.47356755,0.14577103,-0.37882423,1.0312873,0.8011917,-0.17081875,0.075099446,0.56857085,-0.42117256,0.7066423,0.4951392,1.0,0.0,0.0,0.0,0.0,0.0,0.0,-2.1680856,0.16277465,-0.93743354,0.47836304,-2.2192717,-4.732686,-8.648121,-2.8093934,0.46991706,2.976942
15.747864,23.282839,4.784913,-5.3199687,-1.1719973,-2.194316,0.47875142,-0.8072435,0.69826025,0.22140105,-0.08083021,0.55688787,0.65896827,0.44666407,1.0633688,-0.43819854,-1.646947,-0.966945,2.429086,1.4849935,-0.9701917,1.1297022,-0.49535465,-1.6648567,-0.95750487,2.3816292,1.4239584,-1.0131167,-1.4383721,1.2615745,0.4128607,0.09194738,0.8177849,0.48759076,0.1811455,1.4860077,-0.5622177,1.4914292,-3.2069733,0.055680837,0.37490815,0.14210892,-0.37195396,1.0357356,0.80177504,-0.17692126,0.076875575,0.56563747,-0.33842364,0.68353486,0.42325076,1.0,0.0,0.0,0.0,0.0,0.0,0.0,-2.1360078,0.1622177,-0.9414292,0.2320528,-2.148819,-4.082781,-17.507404,-2.1746516,0.5302489,2.8326154
13.795408,23.93977,5.081674,-2.466261,-0.9077343,-2.0987062,0.40886524,-0.8006686,0.6913949,0.1985877,-0.06918668,0.5421212,0.65644026,0.485642,1.0496354,-0.42621517,-1.644998,-0.96442354,2.4358413,1.4896024,-0.9645525,1.1153532,-0.48287868,-1.6610191,-0.9576689,2.3896592,1.4288317,-1.011093,-1.4336847,1.2431679,0.3740438,-0.052667886,0.79799104,0.488145,0.20931254,1.4539642,-0.56166077,1.494439,-3.203767,0.055625167,0.27634737,0.13920975,-0.36530685,1.0395423,0.8021369,-0.18223597,0.079055496,0.56313103,-0.26569325,0.66007125,0.36194116,1.0,0.0,0.0,0.0,0.0,0.0,0.0,-2.1039643,0.16166076,-0.944439,0.5372286,-1.761651,-3.8835824,-14.519814,-1.9499302,0.35630465,2.7916253
8.427766,19.090528,3.041402,1.9435983,-0.41150296,-2.0260322,0.20720385,-0.7971527,0.67471194,0.13279805,-0.07611312,0.5035855,0.65876764,0.50989586,1.035638,-0.41540748,-1.6477393,-0.96528023,2.4400177,1.4947084,-0.96010345,1.1010596,-0.47060633,-1.657769,-0.9589125,2.397426,1.4337069,-1.0088004,-1.4276811,1.2222239,0.3086907,-0.14866784,0.76961654,0.48805767,0.23573765,1.4219513,-0.5611038,1.4964639,-3.200564,0.055569556,0.17788513,0.13689041,-0.35895538,1.0428034,0.80240905,-0.18686983,0.08162904,0.560853,-0.21185333,0.6283251,0.3098954,1.0,0.0,0.0,0.0,0.0,0.0,0.0,-2.0719514,0.16110381,-0.9464639,0.6536484,-2.009368,-6.574595,-9.691755,-2.7766585,0.22112727,2.6124
2.0732446,12.749599,0.18343002,6.631199,0.15975118,-1.9779996,-0.043724936,-0.79739285,0.66324145,0.041350897,-0.08314643,0.48845232,0.6578665,0.5123014,1.0213202,-0.40428218,-1.6536338,-0.96722716,2.4462712,1.4994935,-0.95757025,1.0868117,-0.45854616,-1.6554973,-0.9607531,2.4049065,1.4385763,-1.0062732,-1.4236534,1.2008983,0.19990282,-0.19632892,0.7410281,0.48704264,0.25830567,1.3899689,-0.5605469,1.497505,-3.197364,0.055513997,0.07952133,0.13496017,-0.35299683,1.045604,0.8027777,-0.19090953,0.084600106,0.5585198,-0.17945471,0.5854795,0.26612613,1.0,0.0,0.0,0.0,0.0,0.0,0.0,-2.039969,0.16054687,-0.94750494,0.41999817,-2.0473242,-10.921905,-4.9087195,-2.7811766,0.05866289,2.2154598
-0.55562353,4.599677,-3.387265,5.520156,0.21005827,-2.2587051,-0.14286035,-0.79823905,0.64273953,-0.05674939,-0.16858521,0.4409975,0.66506344,0.52337915,1.0069878,-0.3942722,-1.6611723,-0.9776116,2.4490063,1.5050827,-0.95393527,1.0725886,-0.44674206,-1.654618,-0.96318686,2.4120095,1.4434401,-1.0035399,-1.4217159,1.1738358,0.050290555,-0.25967282,0.7003496,0.48663566,0.27816465,1.358017,-0.5599899,1.4975631,-3.1941674,0.055458494,-0.018744128,0.13335419,-0.34758186,1.0478956,0.80338424,-0.19425441,0.088053375,0.5559547,-0.1472254,0.5263474,0.21311699,1.0,0.0,0.0,0.0,0.0,0.0,0.0,-2.008017,0.15998992,-0.9475631,0.24805069,-2.6255846,-15.012726,-6.4840136,-4.039359,0.10929108,1.9396663
4.888205,8.039847,-1.3219205,0.46286964,-0.34626737,-2.3927166,0.110650174,-0.80004764,0.62264884,-0.016616186,-0.3081124,0.38127884,0.67814296,0.5241515,0.9925838,-0.38447717,-1.6562797,-0.9939981,2.4501374,1.5112544,-0.9511248,1.0583674,-0.43524694,-1.6547916,-0.9667479,2.418586,1.4483114,-1.0006312,-1.4218037,1.141688,-0.040201336,-0.3885862,0.6434333,0.48794198,0.29491964,1.3260994,-0.559433,1.4966394,-3.1909738,0.055403046,-0.11691134,0.13223267,-0.3427124,1.0495783,0.80412674,-0.19677089,0.09201625,0.55334824,-0.093859784,0.47340426,0.1500336,1.0,0.0,0.0,0.0,0.0,0.0,0.0,-1.9760994,0.15943298,-0.94663936,0.11589527,-3.129077,-9.123203,-12.9671335,-5.701244,0.3109932,1.6388655
10.822501,15.067419,2.6626284,-2.550784,-0.869037,-2.306683,0.3863425,-0.7888621,0.59594595,0.04660838,-0.3995107,0.2647027,0.6798811,0.53732514,0.97948116,-0.37565234,-1.6501307,-1.006699,2.4450562,1.5162996,-0.9468987,1.0441939,-0.42413044,-1.6552112,-0.97186816,2.4243271,1.4532,-0.9975674,-1.4151701,1.101935,-0.043117117,-0.5531178,0.5507234,0.4897054,0.3101556,1.2942162,-0.55887604,1.4947346,-3.1877835,0.055347655,-0.2149804,0.13178253,-0.33824348,1.0506178,0.8047855,-0.19846098,0.09648012,0.5510219,-0.022908181,0.43658447,0.08553575,1.0,0.0,0.0,0.0,0.0,0.0,0.0,-1.9442161,0.15887603,-0.94473463,0.8473158,-3.8770676,-0.43360293,-16.455042,-9.255945,0.37438273,1.4939666
11.5782995,15.247562,3.0750484,-3.3893147,-0.9272766,-2.3330417,0.44455627,-0.7885754,0.5757494,0.020809889,-0.48553962,0.21836098,0.68180156,0.5258902,0.9653363,-0.3665555,-1.6531302,-1.0204221,2.4461632,1.5213802,-0.9449784,1.0300909,-0.41342497,-1.6555088,-0.9787394,2.4291108,1.4581057,-0.9943783,-1.4080572,1.0603874,-0.025756951,-0.73167104,0.4542581,0.49123484,0.32175797,1.2623634,-0.5583229,1.49185,-3.1845963,0.05529232,-0.31295142,0.13207626,-0.33413696,1.0509943,0.80527323,-0.19931313,0.101418085,0.5491117,0.050905257,0.39962247,0.018739974,1.0,0.0,0.0,0.0,0.0,0.0,0.0,-1.9123634,0.1583229,-0.94185,0.9312153,-4.0550947,1.549334,-17.828644,-9.628791,0.31641126,1.132673
10.700793,12.686285,2.5179243,-3.0035248,-1.025114,-2.3056774,0.43214992,-0.7768824,0.5354973,0.031206392,-0.55898696,0.01916596,0.6827595,0.5308326,0.9524027,-0.35987523,-1.6523881,-1.034638,2.4310274,1.5263816,-0.9412951,1.0161024,-0.40322495,-1.6555221,-0.9873301,2.4325058,1.4630209,-0.9910872,-1.3948593,1.0068941,0.006042669,-0.90141624,0.3017143,0.49227914,0.33134666,1.2305412,-0.5577736,1.4879864,-3.1814122,0.055237036,-0.41082448,0.13310623,-0.33039284,1.0506943,0.80558395,-0.19934769,0.10693367,0.54759496,0.124810435,0.36307377,-0.049336147,1.0,0.0,0.0,0.0,0.0,0.0,0.0,-1.8805412,0.15777358,-0.93798643,1.5835285,-5.2535534,2.9269788,-16.934753,-15.217191,0.23107529,0.90366006
3.5541425,-7.2035646,-4.3397636,-2.073692,-0.5990779,-2.4861832,0.2698948,-0.7546656,0.42647466,0.010537427,-0.61571443,-0.2858397,0.6869497,0.5248968,0.94063586,-0.36057746,-1.6544684,-1.0489016,2.4039218,1.5317159,-0.9385975,1.0023371,-0.39396477,-1.6553485,-0.9974257,2.4336617,1.4679457,-0.98772454,-1.3692043,0.8992303,0.020030603,-1.045526,0.053626876,0.49289173,0.33745334,1.1987495,-0.5572243,1.4831449,-3.1782315,0.055181812,-0.5085997,0.134758,-0.32720566,1.0496361,0.8058205,-0.19854882,0.1131972,0.5462764,0.18224746,0.30017275,-0.12793806,1.0,0.0,0.0,0.0,0.0,0.0,0.0,-1.8487495,0.15722427,-0.93314487,2.9326677,-10.712469,1.0845801,-14.391112,-24.808819,0.12413263,0.4479766
-15.144736,-54.49003,-20.23763,3.3936608,1.6574368,-2.7246032,-0.06126671,-0.7229408,0.19240724,-0.019094141,-0.58863944,-0.50182754,0.68928957,0.529544,0.93004304,-0.37472403,-1.6572579,-1.0562897,2.3834789,1.5368747,-0.93477017,0.98895293,-0.38675165,-1.6552474,-1.0083891,2.4319794,1.4728724,-0.98431706,-1.326649,0.6617808,0.0057432475,-1.113447,-0.24279407,0.4924066,0.3405701,1.1669884,-0.55667496,1.4773263,-3.1750538,0.05512664,-0.60627717,0.13647842,-0.32517052,1.0477208,0.8062018,-0.19691701,0.1199378,0.5448645,0.1699875,0.16778867,-0.21594872,1.0,0.0,0.0,0.0,0.0,0.0,0.0,-1.8169883,0.15667495,-0.92732626,4.729724,-23.809612,-1.7230759,-6.864071,-29.727629,-0.10843873,-0.049591064
-48.862984,-142.25552,-51.961548,8.021554,5.845218,-3.6747072,-0.649617,-0.7021688,-0.19366707,-0.20165189,-0.5810037,-0.5420657,0.67323905,0.49220878,0.91873604,-0.40611836,-1.6754127,-1.0664895,2.3777728,1.5401963,-0.9350962,0.97604495,-0.3834877,-1.6561878,-1.0196005,2.4276688,1.4777666,-0.9809277,-1.2763164,0.21357766,-0.12788531,-1.1239305,-0.49529624,0.4871973,0.33617592,1.1352615,-0.55612564,1.4705316,-3.1718793,0.055071525,-0.703857,0.13716888,-0.32556915,1.0446754,0.80721134,-0.19414397,0.12625918,0.5429333,0.036442507,-0.11283937,-0.33658534,1.0,0.0,0.0,0.0,0.0,0.0,0.0,-1.7852615,0.15612563,-0.9205316,5.7673693,-45.12055,-13.526067,-1.1211872,-25.6073,-0.8826971,-1.0791004
-58.18837,-172.5425,-60.947704,8.776337,7.769742,-3.7969995,-0.53025717,-0.64307755,-0.48297495,-0.14051193,-0.6278595,-0.55794334,0.6427654,0.4899688,0.9117372,-0.4317852,-1.670239,-1.0823865,2.3718746,1.5420432,-0.93193084,0.9638255,-0.38553,-1.6581638,-1.0308939,2.4213822,1.4825674,-0.9775841,-1.2008146,-0.34481892,-0.22181213,-1.130229,-0.6747798,0.47529086,0.33195275,1.103569,-0.5555763,1.4627618,-3.168708,0.055016465,-0.80133927,0.13615036,-0.329134,1.0403473,0.80893093,-0.1900741,0.13116634,0.5406457,-0.15030941,-0.43884417,-0.4663491,1.0,0.0,0.0,0.0,0.0,0.0,0.0,-1.753569,0.15557632,-0.91276175,8.441305,-56.242752,-9.659412,-0.39346218,-18.315304,-1.9198298,-0.96915364
-39.299744,-135.86765,-44.26379,4.3523936,6.5879984,-3.101981,0.20740469,-0.5431898,-0.6514985,0.049262278,-0.7242714,-0.56898326,0.63518596,0.511936,0.90950656,-0.45067984,-1.6532376,-1.1033211,2.3644838,1.5460861,-0.9263905,0.9526914,-0.39290667,-1.6599185,-1.042626,2.4138253,1.4872385,-0.97424626,-1.0821894,-0.8697075,-0.16115203,-1.1861295,-0.7832069,0.4611807,0.33384454,1.071907,-0.555027,1.454018,-3.16554,0.054961458,-0.8987241,0.13357925,-0.33545303,1.0347975,0.8108585,-0.18490238,0.13408521,0.53883284,-0.29590005,-0.69493514,-0.5857807,1.0,0.0,0.0,0.0,0.0,0.0,0.0,-1.721907,0.155027,-0.904018,12.488723,-52.831577,5.755031,-5.1567793,-11.017668,-2.3358881,-0.0005066395
0.014700055,-46.19638,-7.7252493,0.6658795,3.0483913,-1.7267396,1.0895182,-0.34282058,-0.6859395,0.23896359,-0.7369186,-0.63769215,0.6383683,0.47791582,0.91840935,-0.4615006,-1.6360222,-1.1163179,2.3500562,1.5510753,-0.92645466,0.94346553,-0.4042902,-1.6598995,-1.0549685,2.40541,1.491799,-0.9708903,-0.86978614,-1.2282913,0.05578388,-1.2495564,-0.86026555,0.45233515,0.3367831,1.0402756,-0.5544777,1.444301,-3.162375,0.05490651,-0.9960115,0.13040161,-0.34316063,1.0283948,0.8121766,-0.17928466,0.13511303,0.5384892,-0.32914189,-0.79174364,-0.6603706,1.0,0.0,0.0,0.0,0.0,0.0,0.0,-1.6902755,0.15447769,-0.894301,21.130693,-35.991524,21.533585,-6.159878,-7.52126,-1.4503777,0.4842162
36.263096,26.52581,21.845764,-4.2104263,-0.08738868,-1.0615551,1.6819539,-0.0124904625,-0.75318515,0.269345,-0.70038563,-0.65434724,0.6470014,0.38957328,0.94221646,-0.4796087,-1.632965,-1.125007,2.3399754,1.5564991,-0.9319329,0.9375852,-0.4181652,-1.6576068,-1.067679,2.396457,1.4963118,-0.9675629,-0.49724984,-1.4403927,0.28818765,-1.2789075,-0.9059761,0.450402,0.33270666,1.0086746,-0.5539284,1.433612,-3.1592133,0.054851614,-1.0932016,0.1277008,-0.35098267,1.0215567,0.81220657,-0.17390342,0.13457136,0.54034114,-0.25327677,-0.77350426,-0.6941866,1.0,0.0,0.0,0.0,0.0,0.0,0.0,-1.6586746,0.15392837,-0.883612,36.310387,-21.16456,23.50838,-3.164482,-4.134226,-0.33754706,-0.032937527
45.644257,57.10542,30.433834,-2.7485309,-1.3707751,-1.0327113,1.4140518,0.14803492,-0.7778433,0.12970829,-0.660879,-0.6192901,0.65139973,0.31155586,0.95238864,-0.49594954,-1.644636,-1.1337669,2.334528,1.5614518,-0.9364073,0.9356721,-0.43322325,-1.6540954,-1.0803419,2.3873246,1.5008284,-0.96434045,-0.09307039,-1.5273614,0.37398148,-1.2632302,-0.9150362,0.4521488,0.3198542,0.9771042,-0.55337906,1.4219517,-3.1560547,0.054796774,-1.1902946,0.12604141,-0.35836983,1.0145509,0.8109258,-0.1690111,0.13298035,0.5441975,-0.1383198,-0.72037387,-0.7054161,1.0,0.0,0.0,0.0,0.0,0.0,0.0,-1.6271042,0.15337905,-0.87195164,39.286457,-8.6230755,9.127694,1.2351751,-0.60163736,0.20061135,-0.9642899
32.797455,48.81926,20.475296,0.641256,-1.1501184,-1.5797367,0.6525977,0.20179537,-0.7853234,-0.116941705,-0.67253023,-0.56092364,0.6481392,0.29801407,0.9558516,-0.5117556,-1.6657896,-1.1475949,2.3312323,1.5656424,-0.934539,0.93718654,-0.44853592,-1.6514728,-1.0927988,2.3783715,1.5053602,-0.9612639,0.23002845,-1.5325077,0.22716948,-1.2403722,-0.8886886,0.45337108,0.30402735,0.94556427,-0.55282974,1.4093212,-3.1528993,0.05474199,-1.2872906,0.12538528,-0.3654976,1.0073559,0.8088973,-0.16427198,0.13096017,0.54913497,-0.040830597,-0.70273775,-0.72674,1.0,0.0,0.0,0.0,0.0,0.0,0.0,-1.5955642,0.15282974,-0.8593212,31.42099,-0.51276684,-14.017034,2.1109104,2.644968,0.063467026,-1.4476657
19.548002,28.905083,7.0777874,0.4177208,-0.61431956,-2.376799,0.08161651,0.32468545,-0.79852223,-0.37255833,-0.7041598,-0.47099504,0.64304656,0.30842787,0.9696551,-0.52838814,-1.6887287,-1.1632148,2.331272,1.569665,-0.9304211,0.9414752,-0.463655,-1.6518314,-1.1051794,2.3699791,1.5098902,-0.95833516,0.4926902,-1.5052722,-0.12091309,-1.2375286,-0.823244,0.4521171,0.2890797,0.9140587,-0.5522804,1.3957214,-3.1497471,0.054687258,-1.3841895,0.12553406,-0.37285995,0.999739,0.80673265,-0.15908292,0.1289175,0.5543061,0.035513863,-0.7402604,-0.7763483,1.0,0.0,0.0,0.0,0.0,0.0,0.0,-1.5640587,0.15228042,-0.8457214,25.539696,2.6475668,-34.029274,0.25196075,6.3677907,-0.3747642,-1.514715
13.790761,21.58002,1.9915683,0.49152756,-0.50262666,-2.5606873,-0.11436825,0.4301425,-0.7970446,-0.4920755,-0.71592385,-0.48555496,0.6538617,0.33988658,0.98448944,-0.54335946,-1.701039,-1.1767718,2.3214235,1.5752764,-0.9243465,0.9479955,-0.47842884,-1.6560066,-1.1176382,2.362159,1.5144106,-0.9555199,0.70341235,-1.468407,-0.51404494,-1.2484763,-0.7689454,0.45089528,0.27886063,0.88258743,-0.5517311,1.3811535,-3.1465979,0.05463258,-1.4809916,0.12636566,-0.38071442,0.9915227,0.804729,-0.15308632,0.12710488,0.55930316,0.10331439,-0.79376423,-0.8405834,1.0,0.0,0.0,0.0,0.0,0.0,0.0,-1.5325874,0.1517311,-0.83115345,20.557762,3.5904646,-38.68239,-1.0499954,5.2235723,-0.45623183,-1.0859013
11.216923,22.256012,2.4717906,2.2394547,-0.44519228,-2.2212083,-0.10973598,0.48542324,-0.7946789,-0.54760295,-0.72443354,-0.5138253,0.65924853,0.34525013,0.9965378,-0.55789673,-1.7107669,-1.1900816,2.3107765,1.5803355,-0.9209949,0.95616657,-0.4928732,-1.6636035,-1.130263,2.3546784,1.5189234,-0.95278573,0.85401833,-1.4367481,-0.84029984,-1.2669878,-0.74133945,0.4503098,0.27143338,0.8511467,-0.5511818,1.3656182,-3.143452,0.05457796,-1.5776969,0.12779617,-0.38902092,0.9826727,0.80291736,-0.14625384,0.12563205,0.5640478,0.16210493,-0.8365825,-0.9048505,1.0,0.0,0.0,0.0,0.0,0.0,0.0,-1.5011467,0.15118179,-0.8156182,14.789831,3.0798435,-32.27365,-1.7637014,2.5853157,-0.3873527,-0.78817606
8.82023,25.72979,5.351746,5.986261,-0.22191858,-1.5725998,-0.049365297,0.5082206,-0.80027485,-0.5703114,-0.7185578,-0.54248774,0.6664823,0.3320923,1.0069886,-0.57290065,-1.7206347,-1.2021188,2.3004296,1.5855716,-0.9195765,0.9653743,-0.50711775,-1.673579,-1.1430231,2.347274,1.52344,-0.95012116,0.94273216,-1.4205555,-1.0495893,-1.2788572,-0.7409339,0.45129895,0.2646719,0.8197365,-0.5506363,1.3491167,-3.140309,0.054523394,-1.6743056,0.12970734,-0.39759636,0.9732729,0.8012116,-0.1387852,0.12446782,0.56860024,0.20540369,-0.85770696,-0.9578241,1.0,0.0,0.0,0.0,0.0,0.0,0.0,-1.4697365,0.15063629,-0.7991167,8.797479,1.5454769,-20.82199,-1.07615,-0.10719299,-0.15996695,-0.68241954
8.146909,32.415054,10.042767,9.61728,-0.03882557,-0.859658,0.070400104,0.5155185,-0.80249476,-0.5555414,-0.718743,-0.5530288,0.6769227,0.33441904,1.0169262,-0.58736724,-1.7291331,-1.2148974,2.2919712,1.5911323,-0.91667926,0.975076,-0.521296,-1.6846893,-1.1558615,2.3397706,1.5279795,-0.9475119,0.97945535,-1.4171207,-1.1317085,-1.2850974,-0.75397843,0.45445794,0.2597814,0.7883568,-0.5500946,1.3316498,-3.1371694,0.05446888,-1.7708176,0.13193893,-0.40617943,0.96347135,0.79946315,-0.13097717,0.123499215,0.5731069,0.23596106,-0.8523967,-0.99434006,1.0,0.0,0.0,0.0,0.0,0.0,0.0,-1.4383568,0.1500946,-0.78164977,3.721273,0.28643608,-8.289051,-0.5195141,-1.4260054,0.15761852,-0.44469237
6.587776,36.940464,13.116692,12.325001,0.1108042,-0.3259266,0.15232317,0.49759933,-0.80344784,-0.54304427,-0.731992,-0.5727295,0.67444193,0.3754711,1.024836,-0.6016408,-1.7389938,-1.2290606,2.2824976,1.5954237,-0.9099648,0.98479396,-0.53549623,-1.6959445,-1.1687876,2.332061,1.5325533,-0.94491315,0.96971273,-1.4211602,-1.1240922,-1.2948158,-0.7770129,0.45803934,0.26025322,0.7570076,-0.5495529,1.3132185,-3.134033,0.054414425,-1.8672332,0.1343956,-0.4145851,0.9533937,0.79755217,-0.123057134,0.12263337,0.57769245,0.2556692,-0.82896084,-1.0192069,1.0,0.0,0.0,0.0,0.0,0.0,0.0,-1.4070076,0.14955291,-0.76321846,-0.8235216,-0.4493475,0.55162907,-0.8610964,-2.4228454,0.27172565,0.12114644
3.3056371,40.656754,15.246933,16.36037,0.47714728,0.16454649,0.122052446,0.46533057,-0.80024034,-0.51671296,-0.7131928,-0.5608433,0.68682486,0.36637142,1.031327,-0.61552024,-1.7476158,-1.2401068,2.2759767,1.6012357,-0.908276,0.9941371,-0.54973936,-1.7067039,-1.1817023,2.324176,1.5371748,-0.9423096,0.92330706,-1.4254745,-1.0609967,-1.2899753,-0.79272956,0.4634706,0.26078022,0.72568893,-0.54901123,1.2938237,-3.1308994,0.05436002,-1.9635524,0.13693237,-0.42266464,0.943182,0.7954451,-0.115230955,0.1217725,0.5823747,0.25882378,-0.7935363,-1.0286515,1.0,0.0,0.0,0.0,0.0,0.0,0.0,-1.3756889,0.14901122,-0.7438237,-4.4102907,-0.47280788,6.029606,0.6019831,-1.7126322,0.54980516,0.14783144
2.4682627,41.228554,15.340511,16.586733,0.5149513,0.21470281,0.1165149,0.45770007,-0.79807824,-0.5283551,-0.72559446,-0.5689868,0.6769469,0.3894721,1.0399071,-0.6295472,-1.7595394,-1.2542617,2.2672775,1.6048695,-0.9033624,1.0029768,-0.5640092,-1.716851,-1.1946036,2.3161538,1.5418383,-0.9396813,0.8717086,-1.4276463,-1.0002152,-1.2896924,-0.8059806,0.46747023,0.26376334,0.6944008,-0.54846954,1.2734665,-3.1277692,0.054305673,-2.059775,0.1394844,-0.43039513,0.9328789,0.7931469,-0.10753629,0.12089318,0.58714443,0.25987625,-0.7584856,-1.0372605,1.0,0.0,0.0,0.0,0.0,0.0,0.0,-1.3444008,0.14846954,-0.72346646,-4.915178,-0.25629997,5.787301,0.15850067,-1.470542,0.41077733,0.3948629
-0.13396788,38.791737,13.715915,17.191257,0.69820607,0.1904867,0.044561557,0.43353134,-0.8010672,-0.5390522,-0.7202378,-0.571156,0.6776104,0.3950855,1.0463299,-0.6441159,-1.7707562,-1.2666273,2.2590382,1.6095994,-0.9001727,1.0112871,-0.57830477,-1.7265689,-1.2074782,2.3080285,1.546538,-0.9370215,0.8181785,-1.4302771,-0.96321166,-1.2861899,-0.81539226,0.47076112,0.2671203,0.66314316,-0.54792786,1.2521477,-3.1246421,0.05425138,-2.1559014,0.14200592,-0.43782997,0.92247254,0.79071283,-0.09993097,0.11999919,0.5919351,0.25471723,-0.730778,-1.0477729,1.0,0.0,0.0,0.0,0.0,0.0,0.0,-1.3131431,0.14792785,-0.70214766,-5.102706,-0.31158924,3.4362197,0.50764084,-1.1071324,0.32951832,0.4216075
-4.7244835,35.07848,10.815375,17.67383,0.90157706,0.13793215,-0.058084607,0.3787126,-0.794686,-0.5601267,-0.7339441,-0.56913286,0.6674461,0.42583692,1.0491583,-0.6577734,-1.7825816,-1.2808726,2.251115,1.6132826,-0.8944378,1.0189394,-0.59258986,-1.7361743,-1.2203833,2.2998383,1.5512568,-0.9343083,0.74844587,-1.4281435,-0.9606686,-1.2912699,-0.82055783,0.47212052,0.27290708,0.6319237,-0.54738617,1.2298684,-3.1215181,0.05419714,-2.2519317,0.14440918,-0.44506836,0.9119083,0.78824073,-0.09229523,0.11913461,0.5966281,0.24099503,-0.71329224,-1.064936,1.0,0.0,0.0,0.0,0.0,0.0,0.0,-1.2819237,0.14738616,-0.6798684,-6.679237,0.14901161,0.0041246414,-0.30546188,-0.72335005,0.10384917,0.6353557
-13.799976,30.677786,7.079781,20.420532,1.3499544,0.2856871,-0.24419719,0.27711314,-0.78643775,-0.56945777,-0.74084955,-0.5798643,0.65628964,0.42847103,1.0466506,-0.67123365,-1.7931201,-1.2944683,2.2418518,1.6168858,-0.8914612,1.0255617,-0.60680914,-1.7459133,-1.2333742,2.291587,1.5559775,-0.9315407,0.63471526,-1.4202003,-0.9790721,-1.300956,-0.82782584,0.47174546,0.2781103,0.6007347,-0.5468445,1.2066295,-3.1183972,0.054142952,-2.3478658,0.14653015,-0.45220184,0.90114576,0.7858885,-0.08451772,0.118365884,0.60102034,0.20661002,-0.70507926,-1.0854455,1.0,0.0,0.0,0.0,0.0,0.0,0.0,-1.2507347,0.14684448,-0.6566295,-10.981619,0.7054329,-2.1002889,-0.7016182,-1.003325,-0.08098483,0.53578615
-20.917652,28.579056,5.10652,22.84762,1.6914046,0.5305898,-0.35078645,0.18078052,-0.78464806,-0.55527174,-0.7484935,-0.6075031,0.65840155,0.43773273,1.0436398,-0.68527395,-1.8014405,-1.3082236,2.2308369,1.6218176,-0.88776743,1.0307707,-0.6209445,-1.755799,-1.2464873,2.283191,1.5606924,-0.9287207,0.48448047,-1.4116981,-0.9927357,-1.313887,-0.8447945,0.47130427,0.2833206,0.56957626,-0.5463028,1.182432,-3.1152794,0.05408882,-2.4437041,0.1481781,-0.45927238,0.8901792,0.7837688,-0.076562926,0.11774503,0.6049634,0.15493466,-0.6995328,-1.1057134,1.0,0.0,0.0,0.0,0.0,0.0,0.0,-1.2195762,0.14630279,-0.63243204,-14.564961,0.7424116,-1.6458392,-0.97961426,-2.0204544,-0.089251995,0.51651
-23.53914,26.555035,3.6924927,22.649666,1.8326619,0.5459093,-0.3602247,0.11606874,-0.785755,-0.57801425,-0.7677152,-0.60078746,0.6343721,0.45683005,1.0423776,-0.69952,-1.8136005,-1.3232588,2.223112,1.6241297,-0.8830377,1.0344442,-0.6350179,-1.7658927,-1.2597967,2.2746575,1.5653826,-0.92583966,0.32987022,-1.4063531,-1.0158161,-1.3355122,-0.8575568,0.46803793,0.28973925,0.53844833,-0.5457611,1.1572769,-3.1121647,0.054034743,-2.5394466,0.14927673,-0.46632957,0.878971,0.78192174,-0.06836676,0.11725294,0.60842097,0.09766041,-0.6990707,-1.1309165,1.0,0.0,0.0,0.0,0.0,0.0,0.0,-1.1884483,0.1457611,-0.60727686,-15.000629,0.41077137,-2.5759697,-1.817441,-1.6198993,-0.41208863,0.6391108
-35.33822,24.887886,1.6566584,28.128185,2.5809636,1.0778252,-0.53161025,-0.059009094,-0.7832817,-0.5413787,-0.7564503,-0.612491,0.6414671,0.47125614,1.0285434,-0.71334606,-1.8200306,-1.3354418,2.2134085,1.6295294,-0.878714,1.0361265,-0.64905024,-1.7760093,-1.273234,2.2659867,1.570048,-0.92288804,0.11626386,-1.4027361,-1.011158,-1.3451668,-0.87165636,0.46588305,0.29688787,0.5073509,-0.5452194,1.131165,-3.1090531,0.05398072,-2.6350935,0.1495552,-0.4733944,0.8675802,0.7804572,-0.059987113,0.116842486,0.61125755,0.0076905866,-0.69991386,-1.1465445,1.0,0.0,0.0,0.0,0.0,0.0,0.0,-1.1573509,0.14521942,-0.581165,-20.804388,0.20470619,0.16703606,-0.5545616,-1.8262982,-0.26986003,0.7099211
-43.762703,25.15547,0.90979624,31.788944,3.117907,1.5236217,-0.62885165,-0.21392374,-0.78049475,-0.5059696,-0.76477176,-0.606113,0.6342567,0.4624978,1.0147341,-0.7270997,-1.8266063,-1.3497112,2.2053754,1.6334736,-0.87663823,1.035354,-0.6630511,-1.7858589,-1.2867533,2.2572205,1.5746905,-0.91987634,-0.13978902,-1.3998152,-0.97748214,-1.3525808,-0.87981063,0.46347257,0.30262136,0.47628403,-0.54467773,1.1040974,-3.1059449,0.053926747,-2.7306447,0.1487732,-0.4804554,0.8560944,0.77947205,-0.051515367,0.1164321,0.61336213,-0.10593513,-0.6994602,-1.1538172,1.0,0.0,0.0,0.0,0.0,0.0,0.0,-1.126284,0.14467773,-0.55409735,-24.985704,0.10857582,3.0290246,-0.27382374,-1.2780666,-0.28449297,0.5932331
-45.476223,28.273117,2.5374882,32.682922,3.2412896,1.8157967,-0.58890676,-0.33849397,-0.7815329,-0.4597423,-0.77477926,-0.6071084,0.62934935,0.48697874,1.0015047,-0.74120444,-1.8318331,-1.3642312,2.1965096,1.6376255,-0.87117845,1.0319589,-0.67703867,-1.7951515,-1.3003584,2.248401,1.5793062,-0.91679406,-0.40403783,-1.3990234,-0.91448694,-1.3615665,-0.8844072,0.4610046,0.3104074,0.44524765,-0.54413605,1.076075,-3.1028395,0.05387283,-2.8261003,0.14682007,-0.487463,0.84458846,0.77896225,-0.043042265,0.11592651,0.614757,-0.22599442,-0.69210595,-1.1537135,1.0,0.0,0.0,0.0,0.0,0.0,0.0,-1.0952476,0.14413604,-0.52607495,-25.809032,-0.10852814,5.922985,-0.40984154,-0.91216564,-0.2825141,0.8496046
-41.51116,24.140867,0.32407475,28.312069,3.0229983,1.3364061,-0.5410688,-0.38900623,-0.7906962,-0.5528301,-0.7912941,-0.5807639,0.59494567,0.4749306,0.9930583,-0.7561083,-1.8504345,-1.3794879,2.1903245,1.6388009,-0.869301,1.0263246,-0.6910701,-1.8043163,-1.3141085,2.239631,1.5838705,-0.91364694,-0.61477786,-1.4051619,-0.91831815,-1.3777276,-0.87562597,0.45424908,0.3163572,0.4142418,-0.54359436,1.0470986,-3.0997374,0.05381897,-2.9214606,0.14375687,-0.4944954,0.8329421,0.7789069,-0.03441622,0.11526264,0.6154949,-0.33262593,-0.69772696,-1.1719354,1.0,0.0,0.0,0.0,0.0,0.0,0.0,-1.0642418,0.14359435,-0.49709862,-20.542204,-0.811553,-0.690043,-1.0996103,0.4420519,-0.8286357,0.67918897
-40.07922,19.355274,-2.7726533,25.466291,2.94344,0.9348926,-0.5648591,-0.46393198,-0.7979716,-0.6403297,-0.78540295,-0.5718923,0.5752429,0.48093346,0.9799314,-0.7708672,-1.8683493,-1.3926488,2.1824417,1.6413949,-0.8655536,1.0189165,-0.7052016,-1.8140724,-1.3279673,2.2309868,1.588349,-0.9104445,-0.78114724,-1.4165288,-0.99542737,-1.3868037,-0.86197597,0.4447173,0.3218534,0.38326645,-0.5430565,1.0171695,-3.0966382,0.053765163,-3.0167255,0.13969803,-0.5016899,0.8209817,0.7793319,-0.02541303,0.114424445,0.61555094,-0.4328369,-0.71708876,-1.2075208,1.0,0.0,0.0,0.0,0.0,0.0,0.0,-1.0332664,0.14305648,-0.46716946,-16.164553,-1.3555765,-7.9281807,-0.35116673,0.91125965,-1.2254894,0.6201863
-40.795815,18.138039,-4.216614,24.418566,2.941291,0.86551213,-0.6128395,-0.56208295,-0.79945177,-0.6917307,-0.7852486,-0.5637343,0.5728314,0.4342336,0.9627082,-0.78514683,-1.8832455,-1.4064921,2.1746135,1.6456321,-0.86702114,1.009971,-0.71944284,-1.8248718,-1.3418776,2.2224915,1.5927321,-0.90722775,-0.9306444,-1.4275281,-1.108616,-1.390294,-0.846741,0.43485337,0.3217589,0.35232162,-0.54252243,0.98628837,-3.0935423,0.053711407,-3.111895,0.1346283,-0.5091133,0.8086026,0.78027457,-0.015905943,0.113410585,0.61486304,-0.5341124,-0.73995906,-1.2514273,1.0,0.0,0.0,0.0,0.0,0.0,0.0,-1.0023216,0.14252242,-0.43628836,-14.493132,-1.3426542,-11.485195,0.24898052,1.0406971,-1.3416946,0.0526309
-43.05186,19.864414,-4.187062,24.835361,2.9931831,1.0587556,-0.6602787,-0.6643881,-0.79905355,-0.73490345,-0.7800498,-0.5654142,0.5732423,0.3988106,0.9435322,-0.7993482,-1.8983622,-1.4198825,2.16595,1.6500564,-0.8673467,0.99951863,-0.733768,-1.8368499,-1.3557669,2.2141182,1.5970217,-0.9040444,-1.0819441,-1.435036,-1.2278035,-1.3863373,-0.8360363,0.42574674,0.31741777,0.32140732,-0.5419884,0.9544563,-3.0904493,0.053657707,-3.2069697,0.12850189,-0.5167427,0.7957877,0.7817641,-0.0058775656,0.11222296,0.61336464,-0.6416549,-0.7582198,-1.2950538,1.0,0.0,0.0,0.0,0.0,0.0,0.0,-0.9714073,0.14198837,-0.40445632,-14.668131,-1.0192871,-12.057281,1.0329485,0.55435896,-1.3165832,-0.37283897
-39.44209,29.127882,1.1138191,24.880974,2.8476784,1.4547803,-0.5867998,-0.7371418,-0.78986794,-0.7277125,-0.7722984,-0.51037925,0.5906403,0.329153,0.92580444,-0.81275475,-1.9096212,-1.4329967,2.1630802,1.6560857,-0.8711291,0.98761296,-0.74809504,-1.8497093,-1.3695704,2.2059853,1.6012465,-0.90095544,-1.2254032,-1.4328413,-1.305818,-1.3762594,-0.80713606,0.42016348,0.30637103,0.29052353,-0.5414543,0.9216742,-3.0873597,0.05360406,-3.3019493,0.121334076,-0.5244179,0.7826564,0.7837425,0.0045138546,0.11077119,0.6111113,-0.74566287,-0.7576447,-1.3229548,1.0,0.0,0.0,0.0,0.0,0.0,0.0,-0.9405235,0.14145431,-0.37167418,-13.933587,-0.036287308,-7.9248905,1.5926123,2.4085283,-0.9214699,-1.0057867
-32.458603,38.48619,7.2383127,23.933388,2.6008935,1.7199951,-0.46324307,-0.78093004,-0.7847233,-0.7298446,-0.75633854,-0.4388076,0.5866338,0.27688923,0.90952,-0.82656735,-1.9226937,-1.4452043,2.1621046,1.6599098,-0.8732665,0.97445893,-0.7623534,-1.8630474,-1.3832079,2.1983368,1.6054255,-0.8980105,-1.3443732,-1.4241387,-1.3436549,-1.3578864,-0.75224876,0.4162096,0.29110017,0.25967026,-0.54092026,0.887943,-3.0842729,0.053550467,-3.3968337,0.1132164,-0.531971,0.7693699,0.7861023,0.015058,0.10889705,0.60824156,-0.83814365,-0.7401991,-1.3343161,1.0,0.0,0.0,0.0,0.0,0.0,0.0,-0.90967023,0.14092025,-0.33794302,-11.573315,0.65038204,-3.8825035,2.327633,5.085349,-0.6877899,-1.3823867
-22.843964,44.150608,11.920333,20.608276,2.1767428,1.685773,-0.3297088,-0.79760814,-0.7862657,-0.7491259,-0.7574261,-0.3582955,0.5602645,0.13065621,0.89469814,-0.84098,-1.9379599,-1.4589505,2.1625073,1.6614519,-0.88494486,0.9604132,-0.7765279,-1.8766239,-1.3966948,2.1914322,1.6095549,-0.89531446,-1.4238685,-1.4158436,-1.3625245,-1.3441645,-0.6709084,0.41106635,0.26297137,0.2288475,-0.5403862,0.8532637,-3.0811894,0.053496927,-3.4916234,0.104328156,-0.53928375,0.756007,0.78873104,0.02563375,0.10643996,0.60491043,-0.91031384,-0.7128283,-1.3405993,1.0,0.0,0.0,0.0,0.0,0.0,0.0,-0.8788475,0.1403862,-0.30326366,-7.722497,0.65875053,-1.9684792,1.7658234,7.829845,-0.75351596,-2.6301205
-15.617818,48.167305,15.365347,18.366117,1.8393643,1.6540251,-0.29131797,-0.8167367,-0.7859166,-0.75595164,-0.74226797,-0.2996696,0.5349559,-0.1051087,0.87873954,-0.8551195,-1.952219,-1.4709215,2.1614652,1.6630505,-0.9058253,0.9458077,-0.79063463,-1.8902938,-1.4100195,2.1854165,1.6136233,-0.8930609,-1.472365,-1.4093324,-1.3687204,-1.3275598,-0.57880706,0.4045853,0.21347682,0.19805527,-0.53985214,0.8176372,-3.0781088,0.05344344,-3.5863183,0.09484482,-0.5462761,0.74261415,0.7915749,0.036148276,0.1033069,0.6011906,-0.96628445,-0.6789312,-1.3422341,1.0,0.0,0.0,0.0,0.0,0.0,0.0,-0.84805524,0.13985214,-0.2676372,-4.696417,0.5204916,-0.6827116,1.975584,8.995974,-0.83248615,-4.7519565
-12.188792,51.680717,17.959705,18.856077,1.8476686,1.720027,-0.34991243,-0.83254355,-0.78389317,-0.75241214,-0.6917401,-0.21440782,0.5180507,-0.3240294,0.86255336,-0.8690239,-1.965535,-1.4791936,2.1639757,1.6654283,-0.92546386,0.93087316,-0.804687,-1.9039428,-1.4229838,2.1804268,1.6176192,-0.8914397,-1.5000979,-1.4042518,-1.3639402,-1.2852836,-0.47266418,0.39761907,0.14567252,0.16729355,-0.5393181,0.78106445,-3.0750313,0.053390007,-3.6809185,0.08483124,-0.5529213,0.72928846,0.7946623,0.046462763,0.09943566,0.59704745,-1.0170643,-0.6435288,-1.3326751,1.0,0.0,0.0,0.0,0.0,0.0,0.0,-0.8172935,0.13931808,-0.23106444,-2.67663,0.4015684,0.45711994,4.47917,10.479462,-0.8300245,-6.577545
-10.651479,55.701843,20.027,20.327631,1.6461823,1.8323911,-0.409244,-0.8424091,-0.7732402,-0.75504315,-0.62468076,-0.26289707,0.5214667,-0.37232462,0.84663224,-0.88201106,-1.9794471,-1.4854518,2.1541371,1.6697658,-0.92867213,0.9157603,-0.8186555,-1.9175308,-1.4352576,2.1761696,1.6215597,-0.89048886,-1.5148005,-1.3947386,-1.3570147,-1.2072917,-0.41035205,0.3923847,0.078716345,0.13656998,-0.538784,0.74354637,-3.0719569,0.053336628,-3.775424,0.074352264,-0.559185,0.7161445,0.7980169,0.056428358,0.095021315,0.59241515,-1.0612757,-0.6041322,-1.3112841,0.0,1.0,0.0,0.0,0.0,0.0,0.0,-0.78656995,0.13878402,-0.19354635,-1.4132261,0.8591652,0.72391033,7.9983473,6.1448755,-0.6029129,-6.5497384
-8.220471,58.234856,21.453144,19.937267,1.1166832,1.8627721,-0.38521734,-0.8453146,-0.770481,-0.7519239,-0.5817123,-0.3841303,0.542798,-0.38847274,0.8312288,-0.8957036,-1.9927232,-1.4934288,2.1377566,1.6758395,-0.92933613,0.90058374,-0.83248734,-1.9314927,-1.4467963,2.1714776,1.6261033,-0.88989174,-1.5162374,-1.3739338,-1.4701247,-1.155914,-0.5653444,0.53747874,0.07668167,0.11207199,-0.5392723,0.72119,-1.5675946,-0.13680065,0.5013821,0.06353378,-0.5649376,0.7030679,0.8015096,0.065901026,0.09073634,0.5873724,-1.0912769,-0.54265577,-1.3321989,0.0,1.0,0.0,0.0,0.0,0.0,0.0,-0.76207197,0.1392723,-0.17118996,0.27012825,3.135109,-23.40436,1.2518644,-29.591465,29.148834,5.704941
59.28326,176.0,110.0,110.0,-0.29753655,11.894774,-1.2983162,-0.78861594,0.50983834,0.6998582,0.7457934,-0.14214197,0.6214711,-0.4521052,0.82172215,-0.7815035,-1.8615068,-1.3722169,2.1572633,1.6882504,-0.9351023,0.89011467,-0.8467798,-1.9431773,-1.4449869,2.1562183,1.6410866,-0.88798916,-0.8945584,-1.4473431,-1.0572399,0.62414485,-1.8355466,1.8248303,0.224705,0.09669495,-0.5406151,0.7268135,-1.5660275,-0.13666387,0.4016295,0.052692413,-0.56863785,0.6941297,0.8050922,0.06530104,0.092397995,0.5822584,-1.0832593,-0.29639858,-0.74694335,0.0,1.0,0.0,0.0,0.0,0.0,0.0,-0.7466949,0.14061508,-0.17681348,61.018753,-7.1108103,43.105103,176.79591,-125.84989,131.64642,13.911733
-5.346133,166.37524,83.703766,89.317116,4.8222184,6.1862535,-1.4063156,-0.8167514,-0.58718926,0.17992876,0.76618487,-0.51204807,0.5044158,-0.22067387,0.8084395,-0.90549874,-1.9251845,-1.3683685,2.1050134,1.6915282,-0.91005653,0.8813342,-0.8603945,-1.9492007,-1.4321219,2.1372478,1.659317,-0.8859445,-0.87186706,-1.3342446,-0.44779682,1.5076802,-1.9215297,1.8281367,0.19906996,0.08104324,-0.54198074,0.73008233,-1.5644618,-0.13652723,0.3019768,0.041355133,-0.5710411,0.6900842,0.80943686,0.057589654,0.09685527,0.5762937,-1.1489187,-0.21085703,-0.2952972,1.0,0.0,0.0,0.0,0.0,0.0,0.0,-0.7310432,0.14198074,-0.18008232,2.467668,10.907221,61.76976,88.44085,-9.877014,1.9926548,-2.145639
-30.920618,133.59763,50.881016,62.12313,4.414532,3.661181,-1.266928,-0.78449446,-0.4445685,-0.21484323,0.7021785,-0.5950303,0.60431314,0.046299618,0.80288476,-0.9048513,-1.9706851,-1.361904,2.0777447,1.7197484,-0.8813145,0.87171066,-0.87208843,-1.9516193,-1.4142138,2.1194103,1.6765213,-0.88410294,-0.9908587,-1.115764,-0.17321683,1.8862212,-1.7411299,1.6876067,0.17977692,0.0654068,-0.5433464,0.7323554,-1.5628977,-0.13639073,0.20242372,0.029220581,-0.5728035,0.6891126,0.814627,0.047424223,0.10196687,0.56897837,-1.2344931,-0.156544,-0.03899494,1.0,0.0,0.0,0.0,0.0,0.0,0.0,-0.7154068,0.1433464,-0.1823554,-11.408448,21.455597,27.444658,38.16483,17.12458,-13.142824,-1.7402142
-31.014803,116.82629,39.81594,40.206882,3.1085563,2.614997,-0.75404054,-0.7905529,-0.38948187,-0.011562302,0.7814126,-0.6004606,0.52657896,-0.05817425,0.79265535,-0.9110366,-1.9527755,-1.3360726,2.0593643,1.7291791,-0.88992035,0.86041725,-0.8815136,-1.9518348,-1.3950602,2.1041477,1.6919041,-0.8825532,-1.174447,-0.8858401,0.02824862,1.9256909,-1.4571909,1.4903368,0.146835,0.049793243,-0.54471207,0.7336337,-1.5613351,-0.13625437,0.102970175,0.01643753,-0.5739403,0.68993396,0.82035494,0.036831662,0.106965065,0.560553,-1.292348,-0.09084998,0.11446649,1.0,0.0,0.0,0.0,0.0,0.0,0.0,-0.6997932,0.14471206,-0.18363369,-18.038963,22.673405,19.932148,4.095292,27.656507,-19.16349,-3.2442212
-29.943266,72.48366,17.45752,20.086424,2.016641,1.0028467,-0.3856097,-0.7914924,-0.43042663,-0.10439846,0.7738062,-0.6045142,0.5654995,-0.06605597,0.781268,-0.92455626,-1.9622747,-1.3176795,2.0436962,1.748454,-0.88915884,0.84749496,-0.889328,-1.9514209,-1.3768755,2.0914943,1.7054367,-0.8813201,-1.3311043,-0.7470931,0.04505996,1.7830485,-1.2021803,1.3086278,0.11537778,0.034194946,-0.5460739,0.7339182,-1.559774,-0.13611814,0.00361607,0.003200531,-0.57466125,0.6912536,0.82635045,0.027142057,0.11143957,0.5513524,-1.3351703,-0.05688382,0.13101101,1.0,0.0,0.0,0.0,0.0,0.0,0.0,-0.6841949,0.14607391,-0.18391818,-15.545058,13.719583,1.4215767,-14.20095,25.20697,-17.878365,-3.1636522
-17.274826,57.556427,12.791524,9.977744,0.88036925,0.22339916,-0.100743316,-0.78557044,-0.37965053,-0.08697135,0.7774987,-0.5913598,0.55245125,-0.11069485,0.76893795,-0.92729306,-1.960118,-1.2991257,2.0323584,1.7606819,-0.8923896,0.8334645,-0.8961096,-1.9513274,-1.3604304,2.080897,1.717329,-0.88040745,-1.426987,-0.65548646,-0.0029959828,1.5983316,-1.0135396,1.1502712,0.08304638,0.018611908,-0.54743195,0.73320985,-1.5582147,-0.13598205,-0.0956387,-0.010215759,-0.57512283,0.6923753,0.832405,0.018880667,0.11538298,0.54169387,-1.344091,-0.03266855,0.100511976,1.0,0.0,0.0,0.0,0.0,0.0,0.0,-0.6686119,0.14743194,-0.18320984,-9.605241,9.05925,-4.9308615,-18.488049,18.61937,-15.632486,-3.3060505
-8.374243,40.52203,9.359645,5.496456,0.67155194,-0.2151109,0.06303432,-0.79234886,-0.4366825,-0.025632426,0.7765492,-0.5446981,0.5447398,-0.1900842,0.7542296,-0.93977785,-1.9538907,-1.2827754,2.0264273,1.771803,-0.89941585,0.8188704,-0.90266323,-1.9515868,-1.3455817,2.0717762,1.7278233,-0.87984097,-1.4702903,-0.65547323,-0.033596825,1.4470549,-0.87924606,1.0161784,0.047869314,0.0030441284,-0.54879,0.7315097,-1.5566567,-0.1358461,-0.19479424,-0.023654938,-0.57547,0.6930062,0.83839923,0.011957499,0.11869005,0.5318424,-1.3439304,-0.024942912,0.046486292,0.0,1.0,0.0,0.0,0.0,0.0,0.0,-0.6530441,0.14878997,-0.18150967,-4.3670416,-0.05671978,-3.0710907,-15.132928,13.191736,-13.298273,-3.5260088
1.8271332,44.034824,14.768855,5.84678,0.42945385,-0.14174873,0.16412866,-0.78847647,-0.4251709,0.050274655,0.770739,-0.5300583,0.5503565,-0.21029511,0.7400228,-0.9451803,-1.9465594,-1.2685077,2.0187702,1.7828588,-0.9008705,0.80415237,-0.9094343,-1.9517051,-1.3318163,2.063605,1.737154,-0.8796073,-1.4725415,-0.6844824,-0.0043863743,1.3529985,-0.7973551,0.9057015,0.015253516,-0.012508392,-0.550148,0.7288188,-1.5551004,-0.13571028,-0.29385063,-0.036972046,-0.5757103,0.6932402,0.84424335,0.0059354235,0.121388786,0.52199876,-1.3278924,-0.013099608,0.012274142,0.0,1.0,0.0,0.0,0.0,0.0,0.0,-0.6374916,0.150148,-0.17881876,-0.2775669,-2.9655814,3.0254896,-9.414959,7.88579,-10.932541,-3.2596204
8.791014,44.54817,18.40741,6.338665,0.44946083,-0.052238166,0.23143688,-0.7761999,-0.47112638,0.13490133,0.7566799,-0.50570077,0.5572609,-0.25163096,0.7265324,-0.95654696,-1.938215,-1.2561483,2.013035,1.79288,-0.90477043,0.7896174,-0.91677,-1.9510394,-1.3186384,2.0560138,1.745533,-0.87969315,-1.4473693,-0.7501941,0.09084161,1.3061056,-0.74746114,0.8154957,-0.016346363,-0.028045654,-0.55150604,0.725138,-1.5535456,-0.1355746,-0.39280802,-0.050079346,-0.5758171,0.6932399,0.84987324,0.0003278423,0.12346497,0.51232,-1.3053477,-5.994703e-05,-0.007164471,0.0,1.0,0.0,0.0,0.0,0.0,0.0,-0.6219543,0.15150604,-0.175138,2.4668932,-6.6362023,9.70542,-4.691863,4.648173,-8.907831,-3.1258364
11.970259,41.124866,18.446375,6.035081,0.4749465,-0.09881055,0.264266,-0.75338584,-0.5287876,0.17820641,0.73969066,-0.5029843,0.5688717,-0.2487922,0.7142788,-0.9696487,-1.9332188,-1.2446694,2.0057154,1.8024201,-0.90457237,0.7754744,-0.9249754,-1.9492542,-1.3057238,2.0487278,1.7531395,-0.8800565,-1.403487,-0.84427667,0.20845404,1.2866971,-0.72304606,0.742649,-0.04280781,-0.043567657,-0.5528641,0.7204684,-1.5519924,-0.13543905,-0.49166647,-0.06295395,-0.5758209,0.6930412,0.8552571,-0.0051590493,0.12489325,0.502902,-1.2820355,0.00914968,-0.027033387,0.0,1.0,0.0,0.0,0.0,0.0,0.0,-0.6064323,0.15286407,-0.17046839,4.3489456,-9.468042,11.971045,-1.92554,2.106166,-7.1826696,-2.5897865
6.619524,32.745064,12.132781,6.4364815,0.53682125,-0.3871957,0.15468553,-0.7320694,-0.5648501,0.09319259,0.7366853,-0.54273814,0.5543498,-0.19172478,0.70226747,-0.9814604,-1.9399348,-1.2320553,1.9944539,1.8085744,-0.899229,0.7618514,-0.93413806,-1.9470468,-1.2929045,2.0411694,1.7598789,-0.88080335,-1.3484694,-0.94037193,0.22393651,1.2800993,-0.7683895,0.6522053,-0.08547532,-0.06094742,-0.5514374,0.72091734,-1.795474,0.24586926,0.2720409,-0.075611115,-0.5758743,0.6924165,0.8604844,-0.01019937,0.1259637,0.49355394,-1.2614836,-0.0010628464,-0.077762395,0.0,1.0,0.0,0.0,0.0,0.0,0.0,-0.58905256,0.15143737,-0.17091733,5.082178,-9.70887,3.7568598,0.064611435,-0.96143484,-5.904126,-1.6328245
-18.935322,65.22099,11.99215,20.28921,0.81317604,-0.051671684,-0.48924857,-0.8038917,-0.25488517,-0.25588134,0.7679537,-0.51021343,0.53878224,-0.13623045,0.68146217,-0.95962656,-1.9726349,-1.2161092,1.9901481,1.8137571,-0.8944264,0.7483149,-0.9425876,-1.9464822,-1.2798849,2.0334866,1.7660148,-0.8817198,-1.3552573,-0.813442,0.00028342128,1.3097804,-0.768308,0.60137284,-0.09412272,-0.07888794,-0.5489807,0.72288835,-1.793679,0.24562345,0.17212401,-0.08830643,-0.57585907,0.69159335,0.86582696,-0.014290786,0.12765417,0.483574,-1.273412,0.01137262,-0.08694108,0.0,1.0,0.0,0.0,0.0,0.0,0.0,-0.57111204,0.1489807,-0.17288834,-0.61604977,12.594533,-22.486916,3.1477451,0.010001659,-4.8961997,-0.98421127
-31.956667,73.54032,8.744871,25.612408,0.8749019,-0.059791446,-0.7183483,-0.8078914,-0.17453167,-0.47080377,0.79301375,-0.55442286,0.5003366,-0.020507833,0.66752577,-0.9600408,-1.9935626,-1.2005836,1.9780443,1.8160485,-0.8837706,0.73455626,-0.9491422,-1.9492745,-1.2664267,2.0257313,1.7717006,-0.882601,-1.3823677,-0.6033196,-0.37312195,1.3585907,-0.7775424,0.5580612,-0.08692531,-0.0968132,-0.54652405,0.7238609,-1.7918856,0.24537788,0.07230703,-0.10123062,-0.57570267,0.69068605,0.8714442,-0.016922653,0.13072133,0.47245163,-1.2984971,0.025805436,-0.09484965,0.0,1.0,0.0,0.0,0.0,0.0,0.0,-0.5531868,0.14652404,-0.17386091,-2.610588,20.861578,-37.52984,5.074191,-0.8517146,-4.2241454,0.48431903
-39.467552,52.84231,-0.7830166,23.391342,1.0878756,-0.23883086,-0.6663837,-0.81976706,-0.23702969,-0.6202746,0.79258907,-0.60022205,0.5072829,0.067542635,0.65257955,-0.9728452,-2.011302,-1.1871678,1.9657091,1.822429,-0.87584674,0.7204514,-0.9540765,-1.9560704,-1.2525336,2.0177777,1.7770145,-0.8833258,-1.4192886,-0.45738748,-0.78244066,1.4004428,-0.80132,0.5221985,-0.06849246,-0.114715576,-0.544075,0.72383606,-1.7900941,0.24513255,-0.027410164,-0.1145668,-0.5755005,0.6894036,0.8773372,-0.017755674,0.13516848,0.46010157,-1.3452822,0.027290551,-0.14161831,0.0,1.0,0.0,0.0,0.0,0.0,0.0,-0.5352844,0.144075,-0.17383605,-3.5269022,14.427167,-41.124786,4.411125,-2.2843719,-3.652072,1.60411
-37.252365,33.80055,-5.2399473,18.397312,1.1632851,-0.2534179,-0.4310924,-0.82582605,-0.28769925,-0.7005677,0.7891011,-0.6148794,0.5204434,0.13797139,0.6378688,-0.98284644,-2.026127,-1.1736234,1.9562898,1.8290589,-0.86952865,0.706009,-0.95828605,-1.9664521,-1.2383505,2.0095532,1.7820213,-0.8838141,-1.4519279,-0.4093959,-1.123737,1.4250815,-0.8292651,0.49298573,-0.04299605,-0.13260269,-0.541626,0.72281474,-1.7883043,0.24488746,-0.12702765,-0.12843704,-0.57533646,0.6874408,0.8833813,-0.016808443,0.14054325,0.44676882,-1.4003555,0.023400668,-0.21595475,0.0,1.0,0.0,0.0,0.0,0.0,0.0,-0.5173973,0.14162597,-0.17281473,-3.069234,4.639846,-34.255756,2.722764,-2.7414322,-3.0883312,2.3532264
-26.838284,35.36441,0.36009902,14.80716,0.9533911,0.04254484,-0.14990377,-0.8259768,-0.2726005,-0.7258018,0.7882046,-0.62660164,0.53243005,0.1659831,0.6234113,-0.9855461,-2.0390322,-1.15953,1.946893,1.8352643,-0.8672158,0.69132715,-0.96237063,-1.9793038,-1.2240416,2.0010502,1.7867839,-0.884042,-1.4732648,-0.40876243,-1.338871,1.433419,-0.8578262,0.46994147,-0.016618611,-0.15047455,-0.53917694,0.720798,-1.7865164,0.24464263,-0.22654553,-0.14273071,-0.57512665,0.68481725,0.8893805,-0.014456371,0.14642444,0.43284294,-1.439387,0.032007225,-0.27885076,0.0,1.0,0.0,0.0,0.0,0.0,0.0,-0.49952543,0.13917693,-0.170798,-2.0107508,-0.103229284,-21.46194,1.0411501,-2.9557586,-2.4997652,2.4625976
-17.451885,26.898819,1.8733943,9.888759,0.88938594,0.12925768,0.09454587,-0.8187261,-0.3519112,-0.74859416,0.7837426,-0.6274147,0.5439455,0.17726304,0.6094545,-0.99756175,-2.0541632,-1.1456673,1.9383087,1.8411785,-0.8663157,0.6765519,-0.9670093,-1.9934697,-1.209746,1.9923142,1.7913578,-0.8840172,-1.4787601,-0.4826081,-1.4419178,1.4289116,-0.8793708,0.45263514,0.008505534,-0.16832352,-0.53673553,0.71778685,-1.7847302,0.24439804,-0.3259639,-0.15736389,-0.57483673,0.6815159,0.8951803,-0.011110317,0.15232019,0.41872108,-1.4704132,0.041423086,-0.34786487,0.0,1.0,0.0,0.0,0.0,0.0,0.0,-0.48167646,0.13673553,-0.16778684,-0.47700405,-7.5047073,-10.172415,-0.23400784,-2.2810698,-1.9007444,2.4281893
-9.761732,27.629242,5.301206,7.4200506,0.769171,0.26272315,0.26283824,-0.8122546,-0.39051586,-0.7635558,0.78580755,-0.6388092,0.5579236,0.25193417,0.5953264,-1.0060608,-2.0698254,-1.1311653,1.9284333,1.8471501,-0.85882384,0.66181093,-0.9725988,-2.0080838,-1.195521,1.983384,1.7957942,-0.88371015,-1.4724163,-0.58475137,-1.4670742,1.4210644,-0.89815456,0.44040352,0.03794378,-0.18615723,-0.5342941,0.71378225,-1.7829459,0.2441537,-0.42528293,-0.17221832,-0.5744133,0.6775731,0.90067804,-0.0071124695,0.15792018,0.40470922,-1.4896485,0.05576846,-0.41043064,0.0,1.0,0.0,0.0,0.0,0.0,0.0,-0.46384275,0.13429412,-0.16378224,0.6485462,-10.314072,-2.3049116,-0.5905628,-2.0531297,-1.3702035,2.9099715
-2.1796246,45.186253,13.517257,8.32804,0.5242006,0.55724543,0.3466823,-0.8031936,-0.3582766,-0.76119006,0.7897252,-0.65911967,0.5992036,0.31592727,0.5814916,-1.0084264,-2.0842028,-1.1165485,1.917472,1.8557146,-0.8521174,0.6471959,-0.978915,-2.0225873,-1.1813589,1.9742459,1.8001602,-0.88309026,-1.4581159,-0.6476618,-1.4432322,1.4148508,-0.9200927,0.43499607,0.06973686,-0.20397568,-0.5318527,0.70878524,-1.7811632,0.24390958,-0.52450264,-0.18709564,-0.57374954,0.6732444,0.9057942,-0.0027643964,0.16327965,0.39098448,-1.4854741,0.084449835,-0.44124094,0.0,1.0,0.0,0.0,0.0,0.0,0.0,-0.4460243,0.13185272,-0.15878522,1.3463736,-6.4219117,2.7472973,-0.555706,-2.523172,-0.68457127,3.098256
-2.9826002,41.581066,12.141128,7.65052,0.6065629,0.56224966,0.3404408,-0.8086213,-0.43096223,-0.77063555,0.7809989,-0.65987813,0.595439,0.31750956,0.5663338,-1.0220112,-2.0996509,-1.1032591,1.9082581,1.859704,-0.8513393,0.6326905,-0.9859512,-2.036778,-1.1672789,1.9649266,1.8044841,-0.8821795,-1.4479715,-0.7225569,-1.4123439,1.4054763,-0.92852104,0.4406345,0.101285376,-0.22177124,-0.52941513,0.70280516,-1.7141035,0.22436349,-0.5511264,-0.2019577,-0.5728035,0.6685749,0.9105351,0.0018320505,0.16836107,0.37759352,-1.4859782,0.112974755,-0.47734663,0.0,1.0,0.0,0.0,0.0,0.0,0.0,-0.42822874,0.12941512,-0.15280515,0.9745836,-7.6040983,3.1785488,-0.8896589,-0.3340602,1.369077,3.4332423
-1.872426,49.142284,14.633257,8.732449,0.62256837,0.675562,0.32117257,-0.8017655,-0.43410134,-0.7599344,0.7806417,-0.6533504,0.62409526,0.3454329,0.55251396,-1.0293614,-2.1127715,-1.0892147,1.8995916,1.8668936,-0.8476362,0.61829543,-0.99356043,-2.0507112,-1.1532975,1.9557858,1.8091177,-0.8809052,-1.4372672,-0.77414924,-1.3838116,1.3963696,-0.91599953,0.46385118,0.13406901,-0.23738098,-0.5273819,0.6987985,-1.5542603,0.20927049,-0.39986566,-0.21681213,-0.5715027,0.6636197,0.9149166,0.006470763,0.17311566,0.36457747,-1.4823751,0.14823781,-0.50259507,0.0,1.0,0.0,0.0,0.0,0.0,0.0,-0.412619,0.12738189,-0.14879847,0.9027004,-5.3074837,3.8098097,-0.7267952,-0.87116957,0.13458729,2.614215
3.2891393,62.867867,20.432732,10.47797,0.70496464,0.8258095,0.2962026,-0.779827,-0.42343223,-0.70179313,0.79469085,-0.61271644,0.63356704,0.3417841,0.5403127,-1.0359037,-2.1208904,-1.0738285,1.8945141,1.8724744,-0.8467268,0.6040705,-1.0014483,-2.0641117,-1.1393148,1.946758,1.8138082,-0.87939554,-1.4180137,-0.7941815,-1.323555,1.3988976,-0.8997573,0.4699714,0.1564885,-0.25268173,-0.5251579,0.69482476,-1.5213432,0.22980176,-0.39631915,-0.23150635,-0.56982803,0.6586256,0.91895515,0.011079578,0.17766619,0.35189965,-1.4627688,0.18715143,-0.49989197,0.0,1.0,0.0,0.0,0.0,0.0,0.0,-0.39731824,0.12515792,-0.14482474,1.7678022,-2.1638274,6.5201044,0.20821095,1.1578083,0.43500066,2.1508546
0.19640017,56.436012,17.283653,10.403275,0.89658546,0.6906899,0.23500723,-0.7824185,-0.49056202,-0.6982704,0.79490143,-0.59653777,0.6226272,0.3159782,0.52582866,-1.0505044,-2.1339388,-1.0598246,1.8871043,1.876071,-0.84779775,0.58999896,-1.0097013,-2.0769594,-1.1252747,1.9379001,1.8185157,-0.8777211,-1.4039041,-0.835993,-1.2702703,1.4057947,-0.8824907,0.47039795,0.17096777,-0.267704,-0.5227661,0.6907766,-1.4958827,0.24312967,-0.40670308,-0.24608612,-0.56781006,0.65356773,0.9227065,0.01564417,0.18194576,0.33950505,-1.4529865,0.2202194,-0.5093859,0.0,1.0,0.0,0.0,0.0,0.0,0.0,-0.38229597,0.12276611,-0.14077657,1.2952566,-4.329872,5.766511,0.7176161,1.3136268,-0.12780428,1.3942629
1.7438331,70.075584,21.538979,12.530352,0.8685615,0.85773915,0.21899036,-0.77742004,-0.43855518,-0.6634579,0.7904519,-0.5958972,0.62446195,0.35030952,0.512257,-1.0535568,-2.143305,-1.0462295,1.8783103,1.8809619,-0.8426901,0.5760457,-1.0180554,-2.08925,-1.1111926,1.9291999,1.823228,-0.8758995,-1.3929425,-0.83586395,-1.2136025,1.4088899,-0.86766833,0.4709644,0.18547319,-0.2823906,-0.520195,0.6867755,-1.4599593,0.26154,-0.3962516,-0.26047897,-0.56539536,0.64857656,0.92617595,0.020137122,0.18607943,0.32736376,-1.4311179,0.260446,-0.49747807,0.0,1.0,0.0,0.0,0.0,0.0,0.0,-0.36760938,0.120195,-0.1367755,0.93643665,-0.165236,6.197214,0.25274754,0.9382844,-0.07634163,1.3058156
-0.91055775,62.775326,18.276762,11.957613,1.0277152,0.7369098,0.17609099,-0.7751966,-0.4922504,-0.64616203,0.79518706,-0.561871,0.60938704,0.3297841,0.49852604,-1.0672805,-2.1538663,-1.0316739,1.8730128,1.8841667,-0.8429211,0.56217355,-1.0265641,-2.1010373,-1.0970668,1.9207122,1.8279253,-0.87396467,-1.3856604,-0.85634655,-1.1656905,1.4136747,-0.8440332,0.46880177,0.19589339,-0.29675674,-0.51745987,0.6827645,-1.429237,0.27700606,-0.40127715,-0.27472305,-0.5626221,0.6436133,0.9294043,0.02457911,0.19001788,0.31543076,-1.4189528,0.29557306,-0.4977605,0.0,1.0,0.0,0.0,0.0,0.0,0.0,-0.35324323,0.11745986,-0.13276446,0.6070137,-2.2096753,5.256915,0.48408508,1.8884897,-0.36167502,0.94341636
-1.4698291,59.763355,16.602839,11.217082,0.9747793,0.64152706,0.19149353,-0.7684666,-0.50597537,-0.6369198,0.7914324,-0.5576321,0.58061993,0.38424313,0.4853269,-1.0771617,-2.1647294,-1.0179235,1.864949,1.8859873,-0.83554035,0.54837483,-1.0353131,-2.1124468,-1.0829217,1.9124384,1.8325766,-0.87190104,-1.3782119,-0.8817668,-1.1316196,1.4148924,-0.8231576,0.46336558,0.2096363,-0.3108368,-0.5145912,0.67864317,-1.400894,0.2897755,-0.41419536,-0.28886414,-0.5595207,0.63858986,0.9324134,0.0290506,0.19372001,0.30370003,-1.4078403,0.32738364,-0.50578636,0.0,1.0,0.0,0.0,0.0,0.0,0.0,-0.33916318,0.11459121,-0.12864316,0.6384611,-2.693832,3.8383722,0.14743805,1.6512275,-0.6871104,1.289162
-2.195833,53.3329,13.964921,9.865177,0.9214771,0.51421857,0.20486236,-0.76214564,-0.5406936,-0.6284972,0.79097414,-0.5475569,0.56106204,0.41189677,0.47216028,-1.0893825,-2.1752965,-1.0038244,1.8576827,1.8886828,-0.83071136,0.53466,-1.0444379,-2.123612,-1.0687748,1.9043578,1.8371539,-0.8696906,-1.3694831,-0.92330927,-1.1100758,1.4148004,-0.80433303,0.4554764,0.2246566,-0.32466888,-0.51161575,0.6742891,-1.3771267,0.299942,-0.44071576,-0.30291748,-0.55612946,0.63338864,0.9352217,0.033640843,0.19713114,0.29217783,-1.4004645,0.35446426,-0.5267452,0.0,1.0,0.0,0.0,0.0,0.0,0.0,-0.3253311,0.11161575,-0.124289095,0.7908344,-4.289651,2.5303125,0.05686283,1.506567,-0.931108,1.4453143
6.862198,59.75315,18.270441,8.705929,0.8162602,0.55001974,0.26280713,-0.72966397,-0.54946476,-0.5385556,0.79670024,-0.52225107,0.5787977,0.40927452,0.46169358,-1.0993843,-2.1774676,-0.9891048,1.8521327,1.8950337,-0.8287631,0.52116346,-1.0539556,-2.1342356,-1.0546111,1.8965003,1.8416774,-0.86734384,-1.3435704,-0.96185124,-1.0449927,1.416667,-0.7808916,0.4509766,0.2378689,-0.33820343,-0.50854874,0.66976225,-1.3448875,0.30918404,-0.4545539,-0.31677628,-0.5524864,0.6280843,0.93782437,0.038172606,0.20021012,0.28096998,-1.376577,0.37967336,-0.5336699,0.0,1.0,0.0,0.0,0.0,0.0,0.0,-0.31179655,0.10854873,-0.11976224,2.4488926,-3.9817214,6.9818497,0.16813278,1.8942952,-0.57736635,1.2649149
6.8281045,60.533688,18.33984,8.841011,0.8473666,0.5626905,0.25158614,-0.73116547,-0.5700457,-0.5102152,0.79380584,-0.5229519,0.5593383,0.41089416,0.44804692,-1.1109601,-2.1852572,-0.9752305,1.8442051,1.8976113,-0.8262544,0.5078968,-1.0638585,-2.1441383,-1.0404433,1.888834,1.8461494,-0.86487895,-1.3215021,-1.0001043,-0.9707077,1.4167136,-0.76321185,0.44561288,0.24920323,-0.3514099,-0.505394,0.6651012,-1.3120956,0.31711152,-0.46809417,-0.33039093,-0.5485878,0.62272084,0.94023347,0.04255652,0.20295788,0.27010733,-1.3516259,0.4043887,-0.53918815,0.0,1.0,0.0,0.0,0.0,0.0,0.0,-0.29859006,0.105393976,-0.11510116,2.0680666,-3.9527297,7.909119,-0.0076770782,1.3030887,-0.65535307,1.0856897
6.3586755,57.337307,16.857018,8.054145,0.81818444,0.48188788,0.26050293,-0.7216845,-0.6017664,-0.4909899,0.786192,-0.5051846,0.52743965,0.4467547,0.4357283,-1.1240351,-2.1932373,-0.9618241,1.8383155,1.8988934,-0.8202035,0.49483806,-1.0741887,-2.1533504,-1.0263135,1.8813503,1.850547,-0.8622881,-1.301022,-1.0443388,-0.90352726,1.4117146,-0.74475837,0.43734828,0.26232237,-0.3643074,-0.50217056,0.66024446,-1.2816119,0.32372218,-0.48916623,-0.34376907,-0.5444679,0.6172507,0.942471,0.04682278,0.20534694,0.25959304,-1.3286086,0.4260084,-0.55170214,0.0,1.0,0.0,0.0,0.0,0.0,0.0,-0.28569257,0.10217056,-0.11024445,1.9262552,-4.542184,7.1619987,-0.48851967,1.4104128,-0.94310045,1.2824595
10.540197,63.216843,19.39111,8.01355,0.775084,0.5213557,0.28122014,-0.7006929,-0.6043552,-0.41979945,0.7810805,-0.49857387,0.52214086,0.4598353,0.42476878,-1.1346242,-2.1953304,-0.9482055,1.8314929,1.902761,-0.81630456,0.4820211,-1.0848737,-2.1617496,-1.012262,1.8740344,1.8548666,-0.85956854,-1.2757058,-1.0767475,-0.8168376,1.4028387,-0.72872585,0.42988956,0.27512154,-0.37685394,-0.49888992,0.65525424,-1.2449417,0.32939285,-0.5001112,-0.35684586,-0.5401306,0.6117323,0.94454163,0.0509026,0.20739892,0.24947079,-1.2957089,0.4466436,-0.55381495,0.0,1.0,0.0,0.0,0.0,0.0,0.0,-0.27314603,0.09888992,-0.10525423,2.3819208,-3.3631802,9.173477,-0.92208385,1.1060476,-0.85232854,1.2399614
10.611261,58.825745,17.894728,6.7886596,0.7830599,0.43336928,0.2839122,-0.69277513,-0.64615905,-0.378257,0.7644914,-0.46368635,0.48345867,0.4569456,0.41274357,-1.1494896,-2.1995752,-0.93581283,1.8276658,1.9032125,-0.813874,0.46944064,-1.0959648,-2.169268,-0.9983647,1.8669419,1.8590872,-0.8567356,-1.2525856,-1.120199,-0.72852653,1.3852625,-0.70408654,0.4191579,0.28602394,-0.38906097,-0.49556923,0.65009046,-1.2117953,0.33311826,-0.5198503,-0.3696251,-0.5356102,0.60613596,0.9464759,0.05476507,0.209041,0.2397624,-1.2657543,0.46370268,-0.5636775,0.0,1.0,0.0,0.0,0.0,0.0,0.0,-0.260939,0.09556922,-0.100090444,2.1808386,-4.4552803,9.294772,-1.7654657,1.9985914,-1.1842132,1.085484
10.865654,60.411854,17.925638,6.8789625,0.70179695,0.4092006,0.29146487,-0.680756,-0.65451,-0.34087214,0.7557718,-0.48745805,0.45270646,0.49117494,0.40136504,-1.1614158,-2.203355,-0.9227875,1.8181962,1.9043579,-0.8076181,0.45708475,-1.1074375,-2.1759393,-0.9846641,1.8599905,1.8631873,-0.8537817,-1.2303686,-1.1564703,-0.6454385,1.3649862,-0.6934758,0.40659648,0.29846236,-0.4009285,-0.49221992,0.6447398,-1.1770238,0.33554852,-0.53792816,-0.38207245,-0.53092957,0.60044634,0.9482814,0.058445837,0.2103062,0.23047246,-1.2328671,0.4790214,-0.572973,0.0,1.0,0.0,0.0,0.0,0.0,0.0,-0.24907148,0.09221992,-0.094739795,2.0952225,-3.7391424,8.767498,-2.0334244,0.59102774,-1.3517439,1.2299716
13.508383,64.2855,19.666634,7.057271,0.80412984,0.4245115,0.28261,-0.6653951,-0.66955656,-0.25418484,0.74475586,-0.45524576,0.4106282,0.4989512,0.39054525,-1.1743932,-2.2013578,-0.9101885,1.8144659,1.9042501,-0.8038866,0.44496062,-1.1192344,-2.181604,-0.971179,1.8531986,1.867141,-0.8507091,-1.2068985,-1.1879548,-0.53889304,1.3429917,-0.67614764,0.3914643,0.31022853,-0.41241837,-0.48885155,0.63926494,-1.1386539,0.3371329,-0.5489299,-0.39416504,-0.5261078,0.59473294,0.9499785,0.061858807,0.21119057,0.22161451,-1.1961292,0.4930766,-0.573361,0.0,1.0,0.0,0.0,0.0,0.0,0.0,-0.23758161,0.08885154,-0.08926493,2.2113085,-3.2625914,11.150026,-2.2230864,1.2179255,-1.6011059,1.171881
11.702826,62.97536,18.623306,7.049817,0.85547644,0.40056604,0.26330674,-0.6643568,-0.69191116,-0.2106308,0.7212661,-0.44307348,0.37124982,0.49881598,0.37852493,-1.1884255,-2.202667,-0.8990524,1.8088913,1.904266,-0.8008275,0.43301776,-1.1313518,-2.1862235,-0.9579697,1.8465852,1.8709253,-0.84753174,-1.1904478,-1.2200211,-0.43506593,1.3135091,-0.65802205,0.373824,0.32032257,-0.4235382,-0.48547363,0.63365805,-1.1024595,0.33793893,-0.5636879,-0.4059143,-0.5211334,0.5889916,0.95159495,0.06498712,0.21166414,0.21317147,-1.1627048,0.50676095,-0.576873,0.0,1.0,0.0,0.0,0.0,0.0,0.0,-0.22646177,0.08547363,-0.08365804,1.5310049,-3.318143,10.838879,-2.944541,1.3208628,-1.8467903,1.0222137
10.0241165,66.48457,18.94582,8.114659,1.0286394,0.4104144,0.22656134,-0.6620727,-0.6888678,-0.16123372,0.6969263,-0.3931388,0.29900146,0.5174662,0.3668105,-1.2002386,-2.2023468,-0.8882771,1.8072712,1.9008255,-0.7957851,0.4211898,-1.1436905,-2.1898396,-0.9451132,1.8402709,1.874494,-0.8442522,-1.1805587,-1.2388692,-0.33594972,1.2763907,-0.62427586,0.35101607,0.33057544,-0.43429184,-0.48209,0.62793154,-1.0657206,0.33838075,-0.57456434,-0.41734314,-0.5160179,0.58325803,0.9531615,0.0678305,0.21169898,0.20509928,-1.1315545,0.5219702,-0.5747843,0.0,1.0,0.0,0.0,0.0,0.0,0.0,-0.21570814,0.08208999,-0.07793152,0.88653564,-1.9996643,10.346788,-3.7021637,2.8872967,-2.3531735,1.040101
9.5147705,65.49508,18.644325,7.402711,1.3841416,0.3566729,0.19893019,-0.6655487,-0.70469964,-0.09279342,0.6347656,-0.19865805,0.15408626,0.5227233,0.35463494,-1.2141604,-2.1991189,-0.8816366,1.8204051,1.8899026,-0.7919799,0.40939716,-1.1562065,-2.1924217,-0.932846,1.8348356,1.8777401,-0.84087664,-1.1790891,-1.2562993,-0.23096837,1.2101539,-0.51809764,0.3154155,0.3401353,-0.44470978,-0.47869873,0.62205964,-1.0328234,0.3395558,-0.58999014,-0.42852402,-0.51073456,0.5775515,0.9547676,0.07028318,0.21100588,0.19737165,-1.1080098,0.5381705,-0.57188463,0.0,1.0,0.0,0.0,0.0,0.0,0.0,-0.2052902,0.078698725,-0.07205963,0.057053566,-1.8488169,10.885164,-6.610036,10.159742,-3.6546469,1.0166049
3.7444377,52.57124,11.690044,4.4643354,1.0099659,-0.06964278,0.24533242,-0.6638024,-0.7059498,-0.23855591,0.54606354,-0.05460657,-0.11745883,0.542353,0.34301692,-1.2268015,-2.2162774,-0.87823963,1.829375,1.8659942,-0.78664136,0.3975987,-1.1688446,-2.1949048,-0.92156017,1.8308258,1.880441,-0.83740455,-1.1802967,-1.2665005,-0.2534729,1.1016595,-0.36280835,0.2546017,0.34972546,-0.45490265,-0.47531128,0.61580604,-1.0141037,0.33838233,-0.6363348,-0.43955612,-0.505352,0.571601,0.9564593,0.07276022,0.20932855,0.18992932,-1.0974449,0.5461503,-0.6052009,0.0,1.0,0.0,0.0,0.0,0.0,0.0,-0.19509733,0.07531127,-0.06580603,-0.17211437,-1.102376,-2.08534,-10.777664,15.271926,-6.202376,1.0210395
3.616306,56.005585,12.138006,5.499009,1.2254157,-0.16855961,0.17814712,-0.65223294,-0.69316477,-0.22688283,0.5229547,0.11416375,-0.2759033,0.55279523,0.3323754,-1.2381611,-2.2175932,-0.8692647,1.8422421,1.8528507,-0.782125,0.38583317,-1.1814789,-2.1978304,-0.9113129,1.8286909,1.8824475,-0.8338403,-1.1754876,-1.2625192,-0.30505544,0.9993111,-0.16443814,0.18228893,0.3588672,-0.4649086,-0.4719391,0.60911286,-0.99571735,0.33672723,-0.6792633,-0.45052338,-0.499897,0.56535846,0.9582702,0.075411804,0.20654541,0.18267514,-1.0913224,0.55338234,-0.63285494,0.0,1.0,0.0,0.0,0.0,0.0,0.0,-0.18509138,0.07193908,-0.059112847,0.43110847,0.31440258,-5.0017953,-10.165143,19.60499,-7.372957,0.97601414
-3.3091722,48.76043,7.6309485,5.561226,1.0649266,-0.31674266,0.15097429,-0.6614444,-0.70146495,-0.34256396,0.4702458,0.21141948,-0.4140631,0.5672238,0.31968874,-1.2516253,-2.232087,-0.8642883,1.8498329,1.8410412,-0.7771179,0.37407485,-1.1940769,-2.2018397,-0.9020745,1.8285265,1.8836777,-0.8301857,-1.1759374,-1.2594162,-0.43277353,0.8991808,0.032465138,0.10277058,0.36796775,-0.4747963,-0.46857643,0.6018599,-0.98622435,0.33586746,-0.73997724,-0.4615097,-0.49435997,0.55868846,0.9601902,0.078508005,0.20266668,0.17549202,-1.096345,0.5608737,-0.680843,0.0,1.0,0.0,0.0,0.0,0.0,0.0,-0.17520368,0.068576425,-0.051859915,-0.058174133,0.22916794,-12.711936,-9.877205,19.554426,-8.130887,0.9846866
2.9888418,66.30302,14.5265045,9.10994,1.3953466,-0.073470116,0.07313651,-0.64010316,-0.6740302,-0.24763845,0.48370507,0.25833452,-0.4699529,0.59615475,0.31006452,-1.2614799,-2.2266035,-0.85370404,1.85436,1.8366824,-0.7705702,0.36240235,-1.2065185,-2.2065659,-0.89350766,1.8300897,1.884151,-0.8264275,-1.1644908,-1.2394503,-0.48511595,0.8426522,0.19672395,0.028354852,0.37851986,-0.484478,-0.46523476,0.59426785,-0.96176904,0.3332624,-0.7648905,-0.47245407,-0.48873138,0.5518264,0.9621865,0.081833825,0.1978955,0.16833796,-1.0887108,0.57080466,-0.6902607,0.0,1.0,0.0,0.0,0.0,0.0,0.0,-0.16552198,0.06523475,-0.044267833,1.0903597,1.9032478,-5.002427,-5.607295,16.18032,-7.611391,1.0811269
6.7773795,78.41883,19.624058,11.112681,1.5878813,0.2614298,0.05864895,-0.6499622,-0.66231644,-0.1588664,0.44344774,0.2675537,-0.48776048,0.58882505,0.29740614,-1.2727501,-2.2224524,-0.8491629,1.856845,1.835375,-0.767545,0.35079563,-1.218716,-2.2111166,-0.88543475,1.8329169,1.8839524,-0.8225785,-1.1596447,-1.2134535,-0.44384623,0.7954067,0.31033537,-0.036243916,0.38701347,-0.49383163,-0.46192932,0.5866208,-0.926016,0.32936293,-0.7631014,-0.4832344,-0.4829769,0.54507655,0.964228,0.08499685,0.19244626,0.1612585,-1.0688128,0.58520913,-0.67192596,0.0,1.0,0.0,0.0,0.0,0.0,0.0,-0.15616834,0.061929315,-0.036620796,0.40314198,2.5062084,4.4670525,-4.7483087,11.046732,-6.5949783,0.8362174
21.341497,103.44282,31.350119,13.975281,2.1142797,0.69869167,0.026646677,-0.62656385,-0.6314268,0.09270946,0.45020965,0.29413375,-0.4876123,0.60485667,0.28813922,-1.2818587,-2.2018456,-0.8404138,1.8623302,1.8351911,-0.7620928,0.33932337,-1.2305511,-2.2138934,-0.8776365,1.8366157,1.8832011,-0.8186428,-1.1435957,-1.1736228,-0.22013602,0.7739977,0.3883641,-0.0882505,0.3954601,-0.5026512,-0.458704,0.5794281,-0.8670058,0.32002962,-0.70394105,-0.4936409,-0.47707558,0.5389675,0.9663215,0.08722008,0.18649976,0.15437995,-1.0251397,0.59926236,-0.59243304,0.0,1.0,0.0,0.0,0.0,0.0,0.0,-0.14734876,0.05870399,-0.029428065,1.4640093,3.8931847,22.913855,-2.3142576,7.372183,-5.2520657,0.7544458
36.169056,109.71372,37.154976,11.936335,2.2544572,0.75101155,0.06441059,-0.58962387,-0.64130473,0.28857264,0.42920163,0.40078834,-0.5246794,0.59949565,0.280361,-1.2946815,-2.1850362,-0.8347163,1.8766946,1.8307332,-0.7586932,0.32816777,-1.2420963,-2.2135615,-0.87002414,1.8411585,1.8819786,-0.8146356,-1.1066806,-1.1484871,0.11959419,0.7563572,0.47474,-0.13340944,0.40206206,-0.51081085,-0.4556198,0.5730118,-0.79875517,0.30460414,-0.6207149,-0.5035057,-0.4711094,0.5338269,0.9685189,0.08779271,0.1799997,0.14786313,-0.9687366,0.6029561,-0.4899714,0.0,1.0,0.0,0.0,0.0,0.0,0.0,-0.13918912,0.055619806,-0.023011804,3.5527468,2.4260283,34.57776,-1.9627094,8.185619,-4.502985,0.5491674
44.029095,108.40919,37.626717,10.129124,2.066479,0.52234685,0.079870865,-0.53554636,-0.62666154,0.36272183,0.43765867,0.511486,-0.5282654,0.61393833,0.27461314,-1.3047625,-2.1772892,-0.8262583,1.8923072,1.8291521,-0.7532417,0.31760153,-1.2534164,-2.209953,-0.86247224,1.8467169,1.8803633,-0.8105614,-1.0402701,-1.1270145,0.44310644,0.75436515,0.58139265,-0.17079705,0.40879935,-0.51828384,-0.45272636,0.5674641,-0.7306402,0.28451437,-0.5339723,-0.5127945,-0.4651928,0.529691,0.97083473,0.08650246,0.1729153,0.14176522,-0.91148525,0.59423524,-0.39048478,0.0,1.0,0.0,0.0,0.0,0.0,0.0,-0.13171613,0.05272636,-0.017464101,6.543565,2.04463,32.929344,-0.32451153,10.260736,-3.6953778,0.5605817
32.164288,104.24028,32.417362,11.959067,1.891353,0.43451437,0.04632067,-0.5386824,-0.5776897,0.35597032,0.4106735,0.56710184,-0.48751417,0.61563516,0.2637333,-1.3111854,-2.174356,-0.8214049,1.9034271,1.8316119,-0.7489979,0.30760467,-1.2643684,-2.2039647,-0.85501075,1.853327,1.8784505,-0.80642605,-0.9863023,-1.0850775,0.65219647,0.74346817,0.6865695,-0.19802332,0.41487107,-0.52513885,-0.45001602,0.56268865,-0.67199206,0.26702353,-0.4616188,-0.52160263,-0.45931816,0.52639395,0.97321427,0.08371754,0.16538973,0.13598353,-0.867997,0.5911157,-0.3119213,0.0,1.0,0.0,0.0,0.0,0.0,0.0,-0.12486112,0.050016016,-0.012688637,5.3652883,4.0887594,21.302032,-1.0830283,10.269796,-2.6529698,0.5411923
21.907665,103.93971,28.960855,13.752684,1.6890106,0.44326782,0.05273832,-0.5349504,-0.52476346,0.40615222,0.37323776,0.59653777,-0.47505888,0.62093526,0.25410962,-1.3168447,-2.1633494,-0.817687,1.9129808,1.8309447,-0.74433255,0.29801175,-1.274712,-2.196516,-0.8478129,1.8608644,1.8763131,-0.8022324,-0.9502831,-1.0178206,0.7764609,0.71214217,0.7755496,-0.2186672,0.42077708,-0.53144455,-0.447464,0.5585968,-0.61865354,0.25186452,-0.3958785,-0.53001785,-0.45343208,0.52378994,0.97558105,0.0798954,0.1576249,0.13043223,-0.8308414,0.5940596,-0.24590479,0.0,1.0,0.0,0.0,0.0,0.0,0.0,-0.11855543,0.047463983,-0.008596778,3.6084652,6.6307783,12.649703,-3.0491352,8.803022,-1.9477278,0.56545734
18.459446,106.96745,27.480436,13.507242,1.1662607,0.4513278,0.15867385,-0.51988,-0.44581422,0.41679844,0.29587674,0.61829954,-0.4416218,0.61098754,0.24602374,-1.3192934,-2.1548362,-0.8182252,1.9226943,1.8321509,-0.74113363,0.28870022,-1.2841095,-2.1884105,-0.84126604,1.8691409,1.8740267,-0.79799193,-0.9247391,-0.91398746,0.8226355,0.6359972,0.8448952,-0.23141661,0.42514437,-0.5372162,-0.44506645,0.5551673,-0.5650694,0.23639071,-0.3304202,-0.5380058,-0.44752884,0.5217862,0.97784877,0.07546869,0.14983816,0.1251592,-0.78631437,0.59512687,-0.1878,0.0,1.0,0.0,0.0,0.0,0.0,0.0,-0.11278379,0.045066446,-0.0051673055,2.5656462,10.29892,4.7039747,-7.500863,6.9742203,-1.079613,0.4400611
22.06582,100.295044,25.48796,9.268682,0.49834162,0.3231357,0.3234091,-0.49768755,-0.41387138,0.4471575,0.2070441,0.6499037,-0.43721473,0.5908001,0.23893146,-1.3254966,-2.1436949,-0.82056165,1.9341313,1.8303052,-0.7389119,0.27964136,-1.2924771,-2.180084,-0.83582646,1.87801,1.8716393,-0.79372776,-0.89960456,-0.81137556,0.83634716,0.51371074,0.9010973,-0.24045382,0.42693412,-0.5424652,-0.44283485,0.552306,-0.513658,0.21947044,-0.27715436,-0.545475,-0.44169044,0.520222,0.9799683,0.07071131,0.1420653,0.12033049,-0.7328324,0.5857006,-0.14856431,0.0,1.0,0.0,0.0,0.0,0.0,0.0,-0.107534766,0.04283485,-0.0023059845,2.5150537,10.18641,1.3959527,-12.114632,5.7201505,-0.6612539,0.20751953
