Afshin1997/kuka_rl_ros2/src/catch_and_throw/input_files/idealpd/recorded_trajectories/env_492_data.csv
torque0,torque1,torque2,torque3,torque4,torque5,torque6,action0,action1,action2,action3,action4,action5,action6,set_target_0,set_target_1,set_target_2,set_target_3,set_target_4,set_target_5,set_target_6,joint_pos_0,joint_pos_1,joint_pos_2,joint_pos_3,joint_pos_4,joint_pos_5,joint_pos_6,joint_vel_0,joint_vel_1,joint_vel_2,joint_vel_3,joint_vel_4,joint_vel_5,joint_vel_6,tennisball_pos_0,tennisball_pos_1,tennisball_pos_2,tennisball_lin_vel_0,tennisball_lin_vel_1,tennisball_lin_vel_2,end_effector_pos_0,end_effector_pos_1,end_effector_pos_2,end_effector_rot_0,end_effector_rot_1,end_effector_rot_2,end_effector_rot_3,end_effector_lin_vel_0,end_effector_lin_vel_1,end_effector_lin_vel_2,obs_task_0,obs_task_1,obs_task_2,obs_task_3,obs_task_4,obs_task_5,obs_task_6,to_final_target_0,to_final_target_1,to_final_target_2,joint_acc_0,joint_acc_1,joint_acc_2,joint_acc_3,joint_acc_4,joint_acc_5,joint_acc_6
0.0,0.0,0.0,0.0,0.0,0.0,0.0,0.0,0.0,0.0,0.0,0.0,0.0,0.0,1.7802359,-1.0646509,-1.8151424,-1.1170107,1.9373155,1.1170107,-0.91629785,1.7802359,-1.0646509,-1.8151424,-1.1170107,1.9373155,1.1170107,-0.91629785,0.0,0.0,0.0,0.0,0.0,0.0,0.0,3.0883636,-0.24371147,0.118139744,-3.8303287,-0.44523692,4.921483,0.5304184,-0.45449638,0.693097,0.5745483,0.17512383,0.15255436,0.7848268,0.0,0.0,0.0,1.0,0.0,0.0,0.0,0.0,0.0,0.0,-3.7383637,-0.15628853,0.43186027,0.0,0.0,0.0,0.0,0.0,0.0,0.0
0.0,0.0,0.0,0.0,0.0,0.0,0.0,0.0,0.0,0.0,0.0,0.0,0.0,0.0,1.7802359,-1.0646509,-1.8151424,-1.1170107,1.9373155,1.1170107,-0.91629785,1.7802359,-1.0646509,-1.8151424,-1.1170107,1.9373155,1.1170107,-0.91629785,0.0,0.0,0.0,0.0,0.0,0.0,0.0,3.0883636,-0.24371147,0.118139744,-3.8303287,-0.44523692,4.921483,0.5304184,-0.45449638,0.693097,0.5745483,0.17512383,0.15255436,0.7848268,0.0,0.0,0.0,1.0,0.0,0.0,0.0,0.0,0.0,0.0,-3.7383637,-0.15628853,0.43186027,0.0,0.0,0.0,0.0,0.0,0.0,0.0
0.0,0.0,0.0,0.0,0.0,0.0,0.0,0.0,0.0,0.0,0.0,0.0,0.0,0.0,1.7802359,-1.0646509,-1.8151424,-1.1170107,1.9373155,1.1170107,-0.91629785,1.7802359,-1.0646509,-1.8151424,-1.1170107,1.9373155,1.1170107,-0.91629785,0.0,0.0,0.0,0.0,0.0,0.0,0.0,3.0883636,-0.24371147,0.118139744,-3.8303287,-0.44523692,4.921483,0.5304184,-0.45449638,0.693097,0.5745483,0.17512383,0.15255436,0.7848268,0.0,0.0,0.0,1.0,0.0,0.0,0.0,0.0,0.0,0.0,-3.7383637,-0.15628853,0.43186027,0.0,0.0,0.0,0.0,0.0,0.0,0.0
-176.0,67.76692,-6.7292557,110.0,9.909685,4.6028357,-3.9766643,-0.79631263,0.3479397,-0.56513655,0.72252876,-0.07357814,0.65535057,-0.56016093,1.7006047,-1.0298569,-1.8716561,-1.0447578,1.9299576,1.1825458,-0.97231394,1.7787977,-1.0622762,-1.8210666,-1.1123205,1.9418817,1.1221853,-0.9179763,-0.19160292,0.3157521,-0.78921884,0.6255764,0.608035,0.6880707,-0.22336794,3.050087,-0.24816132,0.16658121,-3.8264992,-0.4447918,4.8183765,0.5282898,-0.45763016,0.6938838,0.5784482,0.1735997,0.1514003,0.7825208,-0.28339007,-0.41815704,0.10456674,1.0,0.0,0.0,0.0,0.0,0.0,0.0,-3.700087,-0.15183869,0.3834188,-19.092997,31.360405,-78.7286,62.639893,60.54787,68.271965,-22.220118
-176.0,-31.538954,-46.306675,110.0,10.736132,1.2466667,-3.3324149,-0.78947794,-0.17253487,-0.5471023,0.70097905,0.048545554,0.64145,-0.6057322,1.69985,-1.0795298,-1.8757769,-1.0422226,1.9467362,1.1863303,-0.97854954,1.7771136,-1.0593809,-1.8359878,-1.0982138,1.9497018,1.13506,-0.9185924,-0.16132854,0.2729498,-1.710423,1.674056,0.83107346,1.4663129,-0.010964592,3.011856,-0.25260544,0.21399239,-3.8226736,-0.44434708,4.715373,0.52368164,-0.46577644,0.6946888,0.5868972,0.16995792,0.1487641,0.77751863,-0.52171814,-0.9453344,0.074637525,1.0,0.0,0.0,0.0,0.0,0.0,0.0,-3.6618562,-0.14739457,0.33600762,2.8211803,-6.6249847,-87.31677,105.3509,19.637192,71.58196,20.276186
-152.51306,86.758644,20.580698,87.419846,7.483381,6.3345456,-1.8126692,-0.7462596,0.18033758,0.030850273,0.62315667,0.21396458,0.652463,-0.5242865,1.7024876,-1.0413471,-1.8329028,-1.0358981,1.9710982,1.2003063,-0.97102106,1.7723814,-1.056476,-1.8513019,-1.0797564,1.9576173,1.1495825,-0.9189243,-0.5770105,0.2933079,-1.4657465,1.9045073,0.77333444,1.4419599,-0.041329976,2.9736557,-0.25704575,0.26037428,-3.8188517,-0.44390282,4.6124725,0.51634216,-0.47681808,0.6966946,0.5981017,0.16487417,0.1451677,0.770725,-0.80940855,-1.1501063,0.24668023,1.0,0.0,0.0,0.0,0.0,0.0,0.0,-3.6236558,-0.14295426,0.28962573,-41.525078,1.1165142,26.255394,23.56553,-7.313597,-4.1228294,-3.2788959
-94.930534,101.267044,38.7629,54.663845,4.989214,7.0359483,-0.19334485,-0.7635049,0.064963266,0.20459051,0.63588685,0.29974693,0.6250292,-0.54336536,1.696031,-1.0499797,-1.8308429,-1.0161676,1.987592,1.2120855,-0.9732608,1.7634588,-1.0540327,-1.8609684,-1.0614249,1.9645143,1.1630636,-0.9196891,-0.9983039,0.22572647,-0.7925475,1.8101506,0.6555697,1.3132968,-0.08951619,2.935501,-0.26148224,0.30572796,-3.8150337,-0.443459,4.509675,0.5065613,-0.488657,0.7004226,0.6101249,0.15857626,0.1403458,0.76348156,-1.0473001,-1.1839648,0.4193513,1.0,0.0,0.0,0.0,0.0,0.0,0.0,-3.5855012,-0.13851777,0.24427205,-42.430923,-7.438877,69.61328,-9.232497,-13.638819,-13.928509,-5.191451
-45.128746,117.64456,46.93908,30.759197,2.3713822,6.239336,0.38858193,-0.78848755,0.18787286,0.110870875,0.63391954,0.38781536,0.6181746,-0.5491965,1.6846101,-1.0352454,-1.8498813,-0.9980329,2.003296,1.224881,-0.9746088,1.7510039,-1.0516828,-1.8642623,-1.045201,1.9704995,1.1751066,-0.9209737,-1.3290509,0.23646131,-0.1688918,1.5593722,0.5750577,1.1661049,-0.14292999,2.897377,-0.265913,0.35005444,-3.8112195,-0.44301564,4.40698,0.4949646,-0.50001335,0.7056976,0.6218877,0.15131336,0.13453043,0.7564796,-1.2081943,-1.1067034,0.5655126,1.0,0.0,0.0,0.0,0.0,0.0,0.0,-3.547377,-0.134087,0.19994557,-33.42905,0.5736947,64.19288,-25.16694,-9.440935,-15.257883,-5.78797
-10.256657,118.86248,44.377766,15.621717,0.3228535,4.4890885,0.34025532,-0.8080496,0.30126566,0.0032319196,0.6172562,0.41879395,0.6018293,-0.5585177,1.6701989,-1.0215563,-1.8639392,-0.9834753,2.012379,1.2352896,-0.9768255,1.7362505,-1.0485643,-1.863343,-1.0315367,1.9760213,1.1857935,-0.9227533,-1.5249289,0.3356903,0.18276839,1.3017329,0.5419125,1.0358664,-0.19105893,2.8592987,-0.27033997,0.3933547,-3.807409,-0.4425727,4.3043876,0.48236847,-0.51026535,0.71209127,0.63309467,0.14352408,0.12850639,0.7497186,-1.2889695,-0.98544246,0.6635842,1.0,0.0,0.0,0.0,0.0,0.0,0.0,-3.5092988,-0.12966004,0.1566453,-19.900131,9.568214,36.293365,-25.939226,-4.056394,-13.161683,-5.242047
17.402443,141.41585,50.598255,10.237701,-1.0935326,3.8988593,0.107215315,-0.8124777,0.488302,0.020126473,0.6022637,0.4372592,0.6050668,-0.54347247,1.6550027,-0.9997341,-1.8613304,-0.9713103,2.0197473,1.2463002,-0.9771005,1.7204443,-1.0435518,-1.8605125,-1.0199648,1.9814725,1.1953398,-0.9249515,-1.6001076,0.5553257,0.31936026,1.1085826,0.5447433,0.92755425,-0.23094574,2.821251,-0.2747631,0.43562987,-3.8036025,-0.44213024,4.201898,0.4693451,-0.5190067,0.719586,0.64381117,0.13531098,0.12307553,0.7430009,-1.3148516,-0.8243451,0.7766401,1.0,0.0,0.0,0.0,0.0,0.0,0.0,-3.471251,-0.1252369,0.11437014,-7.8475475,21.631962,14.53003,-19.481873,-0.15296936,-10.822832,-4.4679523
30.951895,143.99583,50.130672,7.9049807,-1.5657811,3.1900496,-0.031437356,-0.81309915,0.58520365,0.040030405,0.5804696,0.48958376,0.59762937,-0.53408086,1.6391344,-0.9850314,-1.8565094,-0.9619179,2.0304308,1.2551028,-0.9783596,1.7044894,-1.0360883,-1.8573368,-1.009751,1.9872155,1.20394,-0.92748636,-1.5949836,0.8091552,0.31923243,0.99176,0.5831012,0.8376322,-0.26252612,2.783249,-0.27918053,0.47688088,-3.7997997,-0.4416882,4.0995107,0.45630646,-0.5261307,0.72818255,0.65416396,0.12672108,0.11861427,0.7361671,-1.307174,-0.661938,0.8855689,1.0,0.0,0.0,0.0,0.0,0.0,0.0,-3.433249,-0.12081948,0.07311913,0.20737648,25.104916,0.6890416,-11.813211,3.5584927,-8.968842,-3.590527
38.321304,137.12738,47.871983,5.955307,-1.6075448,2.7013307,-0.0019638478,-0.8017497,0.65112543,0.09866341,0.5485542,0.51154095,0.61375356,-0.53184605,1.6243144,-0.9709758,-1.8474704,-0.95489556,2.0383697,1.2653154,-0.980671,1.6889158,-1.0262712,-1.8543937,-1.0003077,1.9934258,1.2117716,-0.93029016,-1.5455443,1.0383657,0.28814423,0.9282809,0.6328933,0.7648907,-0.28766632,2.7452774,-0.28359413,0.5171088,-3.7960007,-0.4412466,3.9972262,0.44347382,-0.53170013,0.7377959,0.6641854,0.1177691,0.11509612,0.72920567,-1.2821048,-0.5074583,0.9847004,1.0,0.0,0.0,0.0,0.0,0.0,0.0,-3.3952775,-0.116405874,0.032891214,4.676223,22.690641,-2.4796844,-6.472945,4.765618,-7.2901726,-2.9090047
35.04545,118.98543,41.101673,6.038182,-1.219058,2.1388521,0.003164487,-0.7920915,0.69202715,0.109811224,0.54368526,0.5238212,0.62633765,-0.53294605,1.6097066,-0.9570685,-1.8434126,-0.9459392,2.045808,1.2744054,-0.98358476,1.6739241,-1.0146116,-1.8518035,-0.9911648,2.000113,1.2189814,-0.93330854,-1.484292,1.2078823,0.2509119,0.90926087,0.68002146,0.7062513,-0.30768752,2.707344,-0.28800392,0.55631465,-3.7922056,-0.44080544,3.895044,0.43088531,-0.53593445,0.7482109,0.67390984,0.10851593,0.11230405,0.72212017,-1.2552387,-0.38120022,1.0584736,1.0,0.0,0.0,0.0,0.0,0.0,0.0,-3.3573442,-0.111996084,-0.0063146353,5.914736,16.774368,-3.198123,-2.029705,4.5553923,-5.919087,-2.3433626
27.771355,98.66913,33.441586,6.624765,-0.7319404,1.6432217,0.014898331,-0.7827723,0.71978503,0.109700106,0.5398911,0.5374873,0.6386093,-0.53327197,1.5956469,-0.9426331,-1.8408335,-0.9371757,2.0538619,1.2828423,-0.98663574,1.6594912,-1.0017408,-1.84953,-0.9820286,2.007216,1.2256953,-0.9364976,-1.4301113,1.3128475,0.22083151,0.91462797,0.7200966,0.6595477,-0.3236133,2.6694489,-0.292408,0.5944994,-3.7884142,-0.44036472,3.792964,0.41851807,-0.5391445,0.7591484,0.68337524,0.0990621,0.10998353,0.71490455,-1.2339463,-0.28577778,1.1031934,1.0,0.0,0.0,0.0,0.0,0.0,0.0,-3.319449,-0.10759202,-0.044499397,5.253339,10.36756,-2.576381,0.38810968,3.9043307,-4.729891,-1.8958211
17.235538,78.1926,25.11742,8.190994,-0.22875595,1.1519743,-0.040515788,-0.77662253,0.7329155,0.07565606,0.55355144,0.5410579,0.6468583,-0.52724713,1.581829,-0.9284493,-1.8419644,-0.9266735,2.0613217,1.2903811,-0.98922235,1.6454798,-0.98824155,-1.8476303,-0.9726969,2.0146356,1.2320143,-0.9398164,-1.3920918,1.3619736,0.18078052,0.93875057,0.7488756,0.62254393,-0.33555862,2.6315918,-0.29680824,0.63166416,-3.7846267,-0.43992445,3.690986,0.4062729,-0.5416565,0.7703051,0.6926537,0.089548334,0.10795063,0.7075016,-1.2222198,-0.22407696,1.1174661,1.0,0.0,0.0,0.0,0.0,0.0,0.0,-3.281592,-0.10319176,-0.081664145,3.673029,4.828143,-3.6785274,2.2342205,2.8361917,-3.742361,-1.4591694
9.658739,65.18244,20.055902,9.315224,0.13250113,0.92589384,-0.043710068,-0.7763745,0.738004,0.07803589,0.55449057,0.5427039,0.65245336,-0.5275926,1.5678424,-0.91444117,-1.8398267,-0.91724783,2.068906,1.2972597,-0.99257565,1.631703,-0.9745439,-1.8460376,-0.96311915,2.0222611,1.2380205,-0.9432363,-1.3733714,1.3721355,0.15296376,0.96346277,0.7669382,0.5931877,-0.3449747,2.593773,-0.30120468,0.66780984,-3.780843,-0.43948463,3.58911,0.39408112,-0.5437012,0.7814698,0.7017866,0.08006159,0.10606532,0.69988275,-1.2197181,-0.1822437,1.1136671,1.0,0.0,0.0,0.0,0.0,0.0,0.0,-3.243773,-0.098795325,-0.11780983,1.7538309,0.9565592,-2.489227,2.2702694,1.7905116,-2.9630184,-1.1887252
6.009798,58.90762,17.500624,9.587902,0.24302763,0.812066,-0.033849765,-0.7743279,0.7459702,0.06741986,0.5502638,0.5397231,0.65340143,-0.52333975,1.5542703,-0.8999469,-1.8392956,-0.90809274,2.0762334,1.3033607,-0.99557024,1.6180102,-0.9608711,-1.8446758,-0.9533659,2.0299935,1.243775,-0.9467334,-1.3681577,1.3653908,0.13158074,0.9785426,0.7750312,0.56965,-0.35206297,2.5559921,-0.3055973,0.7029376,-3.7770631,-0.43904522,3.487336,0.38188934,-0.54538155,0.7925215,0.7107758,0.07064745,0.104271,0.6920508,-1.2208337,-0.14771558,1.0998474,1.0,0.0,0.0,0.0,0.0,0.0,0.0,-3.2059922,-0.0944027,-0.15293759,0.39999485,-0.72288513,-1.847893,1.2923598,0.8021593,-2.3617387,-0.94750524
7.5998583,57.60958,17.233389,7.9320273,0.12623096,0.77498126,0.06375567,-0.7737421,0.749592,0.07612735,0.51757294,0.55416775,0.65659183,-0.52056676,1.540636,-0.8859119,-1.8370631,-0.90160865,2.0854104,1.3094342,-0.9987901,1.6043116,-0.94730127,-1.8434036,-0.94368136,2.0378022,1.249333,-0.95028967,-1.3709753,1.3539971,0.1268543,0.96440464,0.7830168,0.5511533,-0.35756773,2.5182495,-0.3099842,0.7370483,-3.773287,-0.43860626,3.3856635,0.36969757,-0.54667854,0.803396,0.7195462,0.06132799,0.10253982,0.684089,-1.2180954,-0.108213715,1.0808702,1.0,0.0,0.0,0.0,0.0,0.0,0.0,-3.1682496,-0.0900158,-0.18704832,-0.42161942,-1.1847019,-0.13589561,-1.6467333,0.7793784,-1.8237114,-0.800246
9.123619,60.00499,18.203632,7.826105,0.071849585,0.8380753,0.10185173,-0.77005726,0.7539906,0.084958844,0.51838464,0.55373436,0.66192025,-0.5159471,1.5273058,-0.8719022,-1.8349077,-0.8918429,2.0931756,1.315525,-1.0018843,1.5905787,-0.9338182,-1.8420742,-0.93417895,2.0456681,1.2547365,-0.9538898,-1.374495,1.3461645,0.13607298,0.9447191,0.78766274,0.5366569,-0.36159447,2.480545,-0.3143673,0.77014315,-3.7695143,-0.43816775,3.2840927,0.35757446,-0.54754066,0.8141132,0.7280478,0.052063953,0.10085472,0.6760651,-1.21353,-0.06350447,1.0660722,1.0,0.0,0.0,0.0,0.0,0.0,0.0,-3.1305451,-0.08563271,-0.22014314,-0.49862862,-0.83413124,1.2931615,-2.1928668,0.42785406,-1.429832,-0.65795183
10.079813,63.105415,19.298061,8.158551,0.07221085,0.91240656,0.12847286,-0.7732701,0.7589581,0.097992994,0.50878257,0.5707987,0.65562165,-0.5224988,1.5132517,-0.85792243,-1.8322749,-0.88330066,2.102748,1.3202987,-1.0061396,1.5767981,-0.9203638,-1.8405674,-0.9248997,2.0536141,1.2600085,-0.95752805,-1.3798895,1.3449773,0.15687749,0.92156506,0.7968823,0.52414644,-0.3655039,2.4428787,-0.31874466,0.802223,-3.7657454,-0.43772966,3.1826234,0.34545898,-0.54792404,0.82472426,0.7362543,0.042806484,0.09919355,0.66802526,-1.2086045,-0.014403823,1.0567617,1.0,0.0,0.0,0.0,0.0,0.0,0.0,-3.0928788,-0.08125535,-0.252223,-0.69277287,-0.17602444,2.4819942,-2.5268555,0.8735895,-1.2449503,-0.6502569
14.613203,66.912674,20.876137,6.759002,-0.12742007,0.9314103,0.20521986,-0.7647478,0.7673785,0.117318444,0.4807473,0.58008564,0.65923727,-0.51031107,1.5003233,-0.8436259,-1.8288355,-0.876825,2.1116228,1.3259321,-1.0085591,1.5630118,-0.9068588,-1.8387764,-0.9159361,2.061667,1.2651755,-0.961193,-1.3788077,1.3520613,0.18808451,0.88733625,0.80806315,0.5143283,-0.36769673,2.4052505,-0.3231182,0.8332889,-3.7619803,-0.437292,3.0812557,0.3334732,-0.547739,0.8352708,0.74410564,0.033511803,0.097551994,0.660051,-1.1957657,0.04451642,1.0510756,1.0,0.0,0.0,0.0,0.0,0.0,0.0,-3.0552506,-0.076881796,-0.2832889,-0.050330162,0.6481409,3.5549223,-3.627193,1.0546088,-0.9589791,-0.48843026
18.742329,66.21379,20.692276,4.078581,-0.380969,0.76412636,0.29834315,-0.76300824,0.7686767,0.12644836,0.4260645,0.60109365,0.6559252,-0.5115416,1.4867109,-0.8299911,-1.8261315,-0.87332964,2.1217763,1.330768,-1.0123472,1.549256,-0.89326894,-1.8366745,-0.9075123,2.06988,1.2702585,-0.9648761,-1.3750107,1.3610668,0.21883565,0.82664585,0.8254261,0.5066468,-0.36950836,2.3676605,-0.32748795,0.8633419,-3.758219,-0.4368548,2.9799893,0.3216858,-0.5469265,0.84571135,0.7515202,0.024218105,0.09594216,0.6522467,-1.1713799,0.10811742,1.038447,1.0,0.0,0.0,0.0,0.0,0.0,0.0,-3.0176606,-0.07251206,-0.31334192,0.21710396,0.8511305,3.5140724,-6.2830567,1.6752481,-0.682652,-0.45045614
22.837246,65.07487,20.334375,1.2772541,-0.66995883,0.5708554,0.38681626,-0.75913364,0.77322257,0.14116669,0.3654268,0.6070627,0.65769225,-0.50472957,1.4733427,-0.8159467,-1.8225578,-0.87096965,2.1305864,1.3360277,-1.015349,1.5355574,-0.8795799,-1.8342731,-0.8998972,2.078261,1.2752806,-0.9685697,-1.3685712,1.3713007,0.24868856,0.7390514,0.8423194,0.5013586,-0.37022895,2.330101,-0.33185387,0.892383,-3.7544615,-0.43641803,2.878824,0.31023407,-0.5454464,0.85596955,0.7584229,0.014993101,0.09440606,0.64471495,-1.1341685,0.17542577,1.0181307,1.0,0.0,0.0,0.0,0.0,0.0,0.0,-2.980101,-0.06814614,-0.34238297,0.483346,0.989604,3.409359,-8.979106,1.6419291,-0.36851168,-0.33367276
23.929619,63.1725,19.280846,0.25956488,-0.8379881,0.3659613,0.38385043,-0.7529428,0.7818487,0.13227206,0.32474652,0.600698,0.6628665,-0.48885044,1.4602631,-0.80139506,-1.8210459,-0.8674226,2.1383307,1.3415673,-1.0174547,1.5219465,-0.86576974,-1.8316982,-0.8932072,2.08676,1.2802645,-0.97225565,-1.3591934,1.3841323,0.26152512,0.64496946,0.85253143,0.4982371,-0.36894268,2.2925873,-0.33621407,0.92041314,-3.7507079,-0.4359817,2.7777598,0.29922485,-0.54330635,0.8659834,0.7648033,0.005895982,0.09302658,0.637485,-1.0890249,0.24007104,0.9920812,1.0,0.0,0.0,0.0,0.0,0.0,0.0,-2.9425874,-0.06378594,-0.37041312,0.79078674,1.2671232,1.6502321,-9.623718,1.009202,-0.104635954,-0.11111498
24.171047,61.474724,18.59282,-0.3657999,-0.8722566,0.2362135,0.41478822,-0.75694376,0.7848431,0.15614395,0.26015484,0.61594915,0.65706,-0.48706704,1.4462522,-0.78728545,-1.8160838,-0.86719173,2.148355,1.3459705,-1.0209624,1.5083948,-0.8518423,-1.828965,-0.8875481,2.0953736,1.2852217,-0.97592634,-1.3542479,1.3955138,0.27846265,0.53889996,0.8643654,0.49569777,-0.36719444,2.255104,-0.34057045,0.9474335,-3.746958,-0.4355458,2.6767967,0.28865814,-0.5405426,0.87571186,0.7706594,-0.0030288005,0.09182503,0.6305894,-1.0400624,0.3016643,0.96247435,1.0,0.0,0.0,0.0,0.0,0.0,0.0,-2.9051042,-0.059429556,-0.39743346,0.3545761,1.1371613,2.0264626,-10.81518,1.1934638,-0.015944242,-0.045752525
27.53804,59.391678,18.133905,-3.2802944,-1.092721,0.0377236,0.53358406,-0.7587258,0.7864042,0.18845734,0.15049854,0.63288,0.6481843,-0.48453,1.4325223,-0.7732019,-1.8101193,-0.8724982,2.1586616,1.3500401,-1.0243794,1.4948622,-0.8378252,-1.8259571,-0.8832203,2.1041322,1.290156,-0.9795789,-1.353419,1.4038194,0.30929053,0.39672157,0.87982243,0.49352515,-0.36517778,2.2176666,-0.34492302,0.9734449,-3.743212,-0.43511033,2.5759346,0.27868652,-0.5371456,0.88508254,0.77592283,-0.01170161,0.0907901,0.6241506,-0.9794574,0.36414114,0.9244798,1.0,0.0,0.0,0.0,0.0,0.0,0.0,-2.8676667,-0.055076987,-0.42344487,-0.050377846,0.8484602,3.3924222,-14.421665,1.5720725,0.09226203,-0.00088214874
35.77456,59.52055,18.975756,-8.640773,-1.5603762,-0.17551285,0.76069134,-0.75166076,0.7906708,0.24603859,0.00335084,0.645281,0.644615,-0.46584287,1.4196961,-0.75875807,-1.8013532,-0.8828852,2.1686602,1.3546175,-1.0261632,1.4813563,-0.82373464,-1.8224132,-0.8807322,2.1130586,1.2950732,-0.9831981,-1.349999,1.4108968,0.37026045,0.19893017,0.8972408,0.49246836,-0.36137432,2.1802597,-0.34926987,0.9984485,-3.7394695,-0.4346753,2.4751735,0.2694626,-0.53305244,0.89400786,0.7804368,-0.020029245,0.08991073,0.6184117,-0.8970215,0.4352447,0.8774644,1.0,0.0,0.0,0.0,0.0,0.0,0.0,-2.8302598,-0.05073014,-0.44844848,0.23303032,0.746727,6.376183,-19.956457,1.7891288,0.3129542,0.19833446
42.08568,58.85886,19.077793,-12.660848,-1.980042,-0.4515168,0.8885478,-0.7342468,0.79864067,0.26623625,-0.12057529,0.6426392,0.6513588,-0.4313612,1.4079316,-0.74387056,-1.7957896,-0.8927897,2.1773224,1.360209,-1.0263343,1.4679629,-0.8095583,-1.8182418,-0.88045084,2.122126,1.2999903,-0.9867534,-1.3358183,1.4200709,0.43319368,-0.029244887,0.91003096,0.49326694,-0.35405695,2.1428986,-0.3536129,1.0224452,-3.7357306,-0.43424073,2.3745131,0.26122284,-0.5282154,0.90240586,0.7840908,-0.027920807,0.08923643,0.61356235,-0.7949905,0.5089671,0.82253706,1.0,0.0,0.0,0.0,0.0,0.0,0.0,-2.7928987,-0.046387106,-0.4724452,1.3632298,0.98178387,6.4682302,-22.948431,1.3758063,0.5834758,0.5919516
47.328434,57.738396,19.119703,-16.176498,-2.296522,-0.71567154,1.0206212,-0.71922123,0.8011396,0.31141707,-0.2678598,0.65082747,0.6385509,-0.38206205,1.3960407,-0.7294443,-1.7871001,-0.9072368,2.187209,1.3638453,-1.0249596,1.4547793,-0.795297,-1.8133781,-0.88265574,2.131312,1.3049113,-0.9902,-1.3124831,1.4284967,0.50427955,-0.28444436,0.92199713,0.49370527,-0.34186664,2.105568,-0.35795212,1.0454361,-3.7319956,-0.43380657,2.2739534,0.25411987,-0.5226288,0.91020375,0.786798,-0.035287905,0.088805705,0.6097681,-0.6765315,0.58304495,0.76060724,1.0,0.0,0.0,0.0,0.0,0.0,0.0,-2.755568,-0.042047888,-0.49543613,2.3481607,0.93302727,7.151371,-25.58792,1.3540626,0.61409473,1.1323333
46.49548,56.297245,18.661451,-15.828844,-2.2296872,-0.8379481,1.02421,-0.712063,0.8031432,0.35590464,-0.38434017,0.66023463,0.62955916,-0.34672943,1.3835729,-0.7149827,-1.7777877,-0.92108977,2.1973352,1.3678672,-1.0248729,1.4418379,-0.78096235,-1.8077667,-0.8873764,2.1406198,1.3098303,-0.9935035,-1.2880154,1.4354049,0.5797261,-0.5346088,0.93452436,0.49325955,-0.32661948,2.0682755,-0.36228752,1.0674222,-3.7282643,-0.43337286,2.173494,0.24819946,-0.51633835,0.91738594,0.78855467,-0.042096086,0.08861061,0.60708946,-0.5578925,0.6507922,0.69868535,1.0,0.0,0.0,0.0,0.0,0.0,0.0,-2.7182755,-0.037712485,-0.51742214,2.5206804,0.8047104,7.440138,-25.025993,1.4860392,0.5255401,1.4936686
45.97759,56.757896,19.21334,-14.685862,-2.0911303,-0.8425572,1.0439663,-0.69106066,0.8013805,0.42788768,-0.49287942,0.65499514,0.6132163,-0.2611459,1.3727318,-0.7008243,-1.7649779,-0.93666434,2.2061193,1.3711519,-1.0196182,1.4291865,-0.76658857,-1.8012531,-0.89445174,2.1500154,1.3147322,-0.99660105,-1.2571182,1.4384753,0.67430335,-0.76499176,0.9425867,0.49105453,-0.30403867,2.031021,-0.3666172,1.0884044,-3.724537,-0.4329396,2.0731354,0.24343109,-0.50937843,0.9239947,0.78936803,-0.04838392,0.08860154,0.6055633,-0.4423057,0.7158831,0.64254636,1.0,0.0,0.0,0.0,0.0,0.0,0.0,-2.6810212,-0.033382803,-0.5384044,3.2277822,0.44445992,9.191406,-22.989119,1.1345863,0.34074187,2.270639
38.663544,57.844364,19.458094,-8.321498,-1.4910729,-0.639501,0.88884556,-0.67258555,0.8028618,0.47836742,-0.51851946,0.65122867,0.60194075,-0.1513111,1.3619279,-0.68630236,-1.7534163,-0.94630367,2.2151382,1.3749263,-1.0117321,1.4168669,-0.75219476,-1.793761,-0.9032904,2.1594605,1.3196017,-0.99940485,-1.2229754,1.4401565,0.77286905,-0.92326385,0.9467435,0.4871026,-0.2724343,1.9938049,-0.37094307,1.1083837,-3.7208133,-0.43250674,1.9728768,0.23964691,-0.50182724,0.9301761,0.7893404,-0.0543063,0.08869676,0.6050829,-0.34994853,0.7722342,0.6038533,1.0,0.0,0.0,0.0,0.0,0.0,0.0,-2.643805,-0.029056937,-0.55838364,3.569603,0.33094883,9.4519615,-15.770901,0.84695816,0.099903345,3.1913102
26.20411,56.032738,17.983099,0.2839489,-0.7197456,-0.41774112,0.61391157,-0.67235214,0.80587107,0.49507633,-0.5177642,0.637764,0.6009831,-0.02473377,1.3496317,-0.6716077,-1.7442534,-0.9550668,2.223237,1.3797,-1.0018783,1.4048125,-0.73778,-1.7854431,-0.9130932,2.1688943,1.3244253,-1.00182,-1.1993744,1.4425136,0.8500689,-0.9992238,0.94346637,0.4823216,-0.23125269,1.9566269,-0.37526512,1.127361,-3.7170932,-0.4320743,1.8727183,0.23653412,-0.4938221,0.93609303,0.78868335,-0.060031343,0.08886568,0.6053739,-0.29029033,0.8133966,0.58113307,1.0,0.0,0.0,0.0,0.0,0.0,0.0,-2.606627,-0.024734885,-0.57736105,2.461052,0.41480064,7.2932243,-7.597697,0.14528036,-0.08134842,4.141298
10.716484,50.2142,14.785138,9.621477,0.18024659,-0.23134047,0.29978988,-0.68987095,0.8009918,0.49824023,-0.48894942,0.6247444,0.6013669,0.14475082,1.3358253,-0.6576808,-1.7356191,-0.96198815,2.2313688,1.384562,-0.98734486,1.392819,-0.723369,-1.7765911,-0.9230629,2.1782403,1.3292013,-1.0037311,-1.1994667,1.4411643,0.8958196,-0.99655336,0.93340397,0.47687328,-0.17762612,1.9194794,-0.37958336,1.1453378,-3.7133768,-0.43164232,1.77266,0.23374176,-0.4855652,0.9418719,0.7876615,-0.06568974,0.08911139,0.6060803,-0.268416,0.83273786,0.570007,1.0,0.0,0.0,0.0,0.0,0.0,0.0,-2.5694795,-0.020416647,-0.5953378,-0.021219254,0.048446655,4.2310476,0.15536547,-0.5517721,-0.26450157,5.355051
-6.079872,42.98192,10.925393,20.060207,1.1970125,-0.02195035,-0.08672648,-0.71191627,0.7940422,0.47717154,-0.39480388,0.6090933,0.62014437,0.2691578,1.3216274,-0.64396477,-1.728874,-0.9625433,2.2391496,1.3912158,-0.97681534,1.3806425,-0.7090105,-1.7675903,-0.93231833,2.1874413,1.3339354,-1.0050548,-1.2240441,1.4347278,0.90076643,-0.90269643,0.91703,0.47264642,-0.11752018,1.8823776,-0.38389587,1.1623147,-3.709664,-0.4312108,1.6727017,0.23085022,-0.47730446,0.9476405,0.7865931,-0.071420744,0.08942459,0.606773,-0.2887057,0.82694745,0.5722149,1.0,0.0,0.0,0.0,0.0,0.0,0.0,-2.5323777,-0.016104132,-0.61231464,-2.612543,-0.46129227,0.27798414,9.133983,-1.2203097,-0.27219057,5.955386
-12.600701,37.67703,8.497743,23.726429,1.557898,-0.031824633,-0.25359172,-0.7244117,0.7888378,0.46166563,-0.35302174,0.5945444,0.6283905,0.35677287,1.3082013,-0.6301267,-1.7214237,-0.9676205,2.2468958,1.3967744,-0.9693775,1.3681437,-0.69474065,-1.7587497,-0.94039786,2.1964517,1.3386332,-1.0057663,-1.259153,1.425055,0.87814146,-0.77742505,0.89685684,0.46930736,-0.055889335,1.8453064,-0.38820457,1.1782926,-3.7059553,-0.43077967,1.5728433,0.22764587,-0.46919632,0.95344436,0.7856728,-0.07727498,0.089828506,0.6071882,-0.3234632,0.8087834,0.5762658,1.0,0.0,0.0,0.0,0.0,0.0,0.0,-2.4953065,-0.011795431,-0.6282926,-3.724122,-0.7965565,-2.398467,12.221813,-1.6447425,-0.24343729,6.0891905
-11.583787,34.649616,7.4724894,22.27554,1.4071269,-0.18017884,-0.24514782,-0.73819494,0.7831876,0.45353875,-0.3401231,0.5727595,0.6310748,0.40950355,1.2943242,-0.6164219,-1.7133958,-0.9744102,2.2537277,1.4017407,-0.9648159,1.3552786,-0.6805805,-1.7502086,-0.9473511,2.2052217,1.3433062,-1.0058845,-1.2964214,1.4135121,0.8456536,-0.6689875,0.87161154,0.46676677,0.002829358,1.8082733,-0.39250946,1.1932728,-3.7022502,-0.43034896,1.4730848,0.22413635,-0.4612732,0.9592388,0.78493583,-0.0832094,0.09037976,0.60727537,-0.35199767,0.78921664,0.57367575,1.0,0.0,0.0,0.0,0.0,0.0,0.0,-2.4582734,-0.0074905455,-0.6432728,-3.9352894,-1.0009527,-3.343141,10.549593,-2.1950006,-0.16887188,5.7992435
-10.499797,33.588478,7.4684057,22.412796,1.4149523,-0.21183062,-0.2550906,-0.73970795,0.77161545,0.44173938,-0.25439253,0.5475946,0.6415108,0.4748594,1.2813078,-0.60341895,-1.7060347,-0.97279036,2.2599812,1.4074572,-0.9583986,1.3421179,-0.6665672,-1.742007,-0.95312655,2.2137055,1.3479639,-1.0054287,-1.3231444,1.397777,0.81129193,-0.5480472,0.8416038,0.46572044,0.05947414,1.7712784,-0.39681053,1.2072562,-3.6985486,-0.4299187,1.373426,0.22033691,-0.45355415,0.9650212,0.7843842,-0.08923962,0.091082305,0.6070269,-0.37968817,0.7696273,0.57313114,1.0,0.0,0.0,0.0,0.0,0.0,0.0,-2.4212785,-0.0031894743,-0.6572562,-2.8597355,-1.426363,-3.541994,11.808121,-2.6763916,-0.02489686,5.585562
-8.603542,32.70031,7.633164,21.418455,1.310724,-0.25449902,-0.21763389,-0.7546635,0.75719655,0.44184762,-0.20365208,0.5101051,0.6420861,0.5199438,1.2666515,-0.59084755,-1.6978222,-0.9734918,2.2647161,1.4121726,-0.9534343,1.3287169,-0.6527504,-1.7340705,-0.95774996,2.221827,1.352614,-1.0044369,-1.3461834,1.3767604,0.7875111,-0.43461102,0.8032184,0.4651089,0.11232636,1.7343216,-0.40110588,1.2202437,-3.6948507,-0.42948887,1.2738668,0.21632385,-0.44600487,0.9707864,0.7839921,-0.09538558,0.09193534,0.60646987,-0.40297204,0.7527896,0.57127565,1.0,0.0,0.0,0.0,0.0,0.0,0.0,-2.3843217,0.0011058748,-0.6702437,-2.4697304,-1.965189,-2.4814963,11.078662,-3.5267234,0.021994114,5.204022
-5.984889,31.4422,7.6936607,19.576313,1.146395,-0.34108084,-0.15647732,-0.7638266,0.7389151,0.4400431,-0.16375405,0.47373134,0.64805764,0.55055594,1.2523342,-0.57885885,-1.6900662,-0.9741254,2.2692,1.4174198,-0.94938123,1.3151232,-0.63919103,-1.7262905,-0.9613596,2.2295136,1.3572642,-1.0029529,-1.3643067,1.3493571,0.7745085,-0.33722106,0.7581164,0.4654708,0.16022295,1.697403,-0.40539742,1.2322364,-3.6911566,-0.42905948,1.1744071,0.21211243,-0.43860817,0.9765018,0.7837078,-0.10163538,0.09294048,0.60566854,-0.41896078,0.73857844,0.5654207,1.0,0.0,0.0,0.0,0.0,0.0,0.0,-2.347403,0.005397409,-0.6822364,-1.9485474,-2.6138544,-1.4019251,9.498572,-4.2175055,0.13599396,4.7082605
-8.644828,32.265198,8.177332,23.47377,1.4579316,-0.16460402,-0.27511966,-0.7671076,0.72797245,0.42374605,-0.025279,0.43726075,0.65124017,0.57736033,1.2384124,-0.5663938,-1.6839159,-0.9638875,2.2732396,1.4223882,-0.9452169,1.301396,-0.62590635,-1.7186496,-0.96364844,2.2367158,1.36192,-1.0010246,-1.3761051,1.3220174,0.76034886,-0.19361617,0.70883775,0.46586743,0.20329295,1.6605148,-0.40968513,1.2432352,-3.6874664,-0.4286305,1.0750469,0.20762634,-0.43135452,0.9822554,0.78357965,-0.10811122,0.09405952,0.60453916,-0.44824067,0.7246927,0.5726889,1.0,0.0,0.0,0.0,0.0,0.0,0.0,-2.310515,0.009685129,-0.6932352,-1.31948,-2.6047707,-1.5431285,14.119467,-4.6100497,0.10073185,4.223734
-13.263018,33.065685,8.466097,29.366348,1.9270992,0.086695716,-0.4775172,-0.76464236,0.7172325,0.39412946,0.14293566,0.39661515,0.6598115,0.5765978,1.2249317,-0.5541831,-1.6792367,-0.9493549,2.2763772,1.4279011,-0.9433648,1.2876116,-0.61287725,-1.7112491,-0.96397936,2.2433991,1.3665835,-0.99871945,-1.37966,1.2970029,0.73277843,0.019642986,0.6557914,0.4664648,0.23945719,1.6236725,-0.41396904,1.2532412,-3.6837795,-0.42820194,0.9757861,0.20270538,-0.42424583,0.98821455,0.78373766,-0.11502671,0.09523631,0.60287166,-0.4980593,0.71020097,0.5978601,1.0,0.0,0.0,0.0,0.0,0.0,0.0,-2.2736726,0.013969034,-0.70324117,-0.49889088,-2.369666,-2.922213,21.08574,-4.956734,0.05606413,3.535968
-19.82626,27.518576,5.512346,33.267326,2.2996278,0.06408226,-0.71942353,-0.78437936,0.70858234,0.29961547,0.2719874,0.38218737,0.66715443,0.553272,1.2091737,-0.542019,-1.6812875,-0.93678063,2.2816179,1.433299,-0.9433923,1.2737318,-0.60006654,-1.7045314,-0.9619194,2.2496095,1.3712546,-0.996114,-1.3910657,1.2761247,0.650927,0.26722112,0.61055684,0.46716547,0.26734278,1.5868607,-0.41824722,1.2622552,-3.6800964,-0.42777383,0.87662446,0.19718933,-0.41737175,0.9944395,0.7843736,-0.12243866,0.096494354,0.60037947,-0.5638196,0.68392473,0.62499905,1.0,0.0,0.0,0.0,0.0,0.0,0.0,-2.2368608,0.018247217,-0.7122552,-1.3024092,-1.9631147,-8.359289,24.50773,-4.1754127,0.012904406,2.7297378
-17.884384,24.854824,4.3192534,30.403282,1.9893346,-0.14912094,-0.70062745,-0.78603214,0.69696826,0.24635021,0.33120134,0.33822927,0.665625,0.54920274,1.1951286,-0.5303697,-1.6798964,-0.9287993,2.2834325,1.4378171,-0.94119376,1.259749,-0.58745325,-1.698817,-0.9576193,2.255343,1.3759314,-0.9932711,-1.4011675,1.2567158,0.5443011,0.48360574,0.5619643,0.46773475,0.2897516,1.550087,-0.4225216,1.2702783,-3.676417,-0.42734614,0.777562,0.19107819,-0.4107666,1.0008488,0.78553134,-0.13023917,0.097931676,0.59698206,-0.6181374,0.658055,0.6407757,1.0,0.0,0.0,0.0,0.0,0.0,0.0,-2.200087,0.022521585,-0.7202783,-1.1380911,-1.8377542,-10.827625,21.421946,-4.543352,0.014287233,2.1936119
-9.855792,20.218004,2.5834477,20.012096,1.0585098,-0.7167682,-0.45122212,-0.7960961,0.6774253,0.19021332,0.27802494,0.29664767,0.6658609,0.53348744,1.1801394,-0.5197107,-1.6797957,-0.92981684,2.2850077,1.4425175,-0.9399224,1.2456442,-0.5750698,-1.6942489,-0.9520308,2.2605577,1.3806196,-0.990247,-1.4139011,1.2325145,0.42726168,0.5832457,0.50915504,0.4694698,0.30643526,1.5133514,-0.42679214,1.2773116,-3.6727414,-0.4269189,0.6785986,0.1847229,-0.40442657,1.0071622,0.7870836,-0.13807961,0.09972293,0.5928647,-0.63364816,0.63201046,0.6229956,1.0,0.0,0.0,0.0,0.0,0.0,0.0,-2.1633515,0.026792139,-0.72731155,-1.3688087,-2.3388624,-11.793243,9.765684,-5.0501347,0.2569914,1.6175926
4.467288,17.540062,2.0761876,4.0762506,-0.31821668,-1.4865646,0.032775067,-0.7953171,0.65425783,0.16057116,0.12581858,0.27042547,0.67181134,0.54747766,1.1661125,-0.50964403,-1.6781918,-0.9394489,2.2876003,1.4478008,-0.93549925,1.231444,-0.5629858,-1.6907203,-0.9467474,2.2652612,1.3853403,-0.9870713,-1.4221302,1.200597,0.32815358,0.5095165,0.45783684,0.47370216,0.3209879,1.4766464,-0.43105888,1.2833561,-3.6690693,-0.42649207,0.5797341,0.17864227,-0.39832687,1.0129664,0.7887342,-0.14543667,0.102036595,0.5885022,-0.58868325,0.60798025,0.56150895,1.0,0.0,0.0,0.0,0.0,0.0,0.0,-2.1266465,0.031058878,-0.73335606,-0.8769512,-3.124714,-9.867435,-7.5540304,-5.040616,0.7048249,1.378876
21.598984,21.71069,4.7296247,-11.8558,-1.7664291,-2.0902908,0.62695,-0.7903515,0.6348061,0.20251803,-0.08105998,0.2294357,0.66921574,0.5665884,1.1524088,-0.49950516,-1.6704686,-0.9548534,2.2882047,1.4522619,-0.9304124,1.2172209,-0.5512527,-1.6876781,-0.9435049,2.2694306,1.3901068,-0.9837563,-1.4223319,1.1644886,0.29668087,0.26204228,0.40312523,0.47909617,0.33465576,1.4399872,-0.4353199,1.2884126,-3.665401,-0.42606565,0.4809685,0.17353058,-0.39238358,1.0178943,0.7900716,-0.15183866,0.10497883,0.5845607,-0.4802316,0.5957814,0.4655796,1.0,0.0,0.0,0.0,0.0,0.0,0.0,-2.0899873,0.035319895,-0.73841256,-0.009274483,-3.551221,-2.975279,-24.863863,-5.53413,0.97720623,1.2659013
27.513245,19.788239,3.9131658,-19.228859,-2.4177103,-2.576518,0.823529,-0.78760445,0.61882293,0.1451442,-0.22524822,0.1786307,0.6705756,0.5700884,1.1384604,-0.48937044,-1.6731637,-0.96602976,2.2872937,1.4571644,-0.92674744,1.2030398,-0.53987634,-1.6849506,-0.9433304,2.273005,1.3949267,-0.9803183,-1.4165095,1.1289686,0.26519004,-0.06418596,0.3419218,0.48441818,0.34662163,1.4033585,-0.4395771,1.2924823,-3.6617365,-0.42563966,0.38230172,0.16970825,-0.3866005,1.0217136,0.7909154,-0.1569542,0.10865911,0.58138734,-0.34178823,0.57602227,0.3502909,1.0,0.0,0.0,0.0,0.0,0.0,0.0,-2.0533586,0.039577097,-0.74248224,0.689435,-3.4824133,-3.0314863,-32.672085,-6.232625,0.99117756,1.1119425
22.413649,16.891405,2.2638028,-15.110817,-2.2551432,-2.5664344,0.61202544,-0.7832859,0.601189,0.08120161,-0.26033324,0.0055566193,0.67079645,0.583578,1.1247112,-0.47975743,-1.6768304,-0.96936375,2.2735608,1.4620063,-0.92196053,1.1889464,-0.5288452,-1.6827171,-0.9460455,2.2755609,1.3997885,-0.9767659,-1.4066191,1.094805,0.20958984,-0.34059602,0.22681558,0.48805922,0.35790354,1.3667679,-0.4438305,1.295566,-3.6580753,-0.4252141,0.28373355,0.16719055,-0.38105774,1.0244434,0.7913848,-0.1607846,0.1132622,0.5788178,-0.21467003,0.54888135,0.24366714,1.0,0.0,0.0,0.0,0.0,0.0,0.0,-2.016768,0.043830484,-0.74556595,1.1520624,-3.3370733,-5.559227,-27.660074,-11.586666,0.7125318,1.0470629
15.939391,14.708305,1.2805316,-8.633384,-2.0653324,-2.3228147,0.34872222,-0.7752468,0.5687572,0.06560829,-0.306276,-0.29664695,0.68265647,0.5925136,1.1114217,-0.4719695,-1.6761563,-0.9766731,2.245896,1.4680542,-0.9175145,1.174977,-0.5182136,-1.6810329,-0.950935,2.2761903,1.4046866,-0.97310853,-1.393053,1.0528864,0.15450363,-0.53837425,0.008033779,0.49114877,0.36787254,1.3302155,-0.44808006,1.2976648,-3.654418,-0.42478898,0.18526393,0.16582489,-0.37576675,1.0262159,0.791666,-0.16355395,0.119072564,0.57648665,-0.10551312,0.52316564,0.15159854,1.0,0.0,0.0,0.0,0.0,0.0,0.0,-1.9802154,0.048080057,-0.74766475,1.5307665,-4.1090727,-5.5836496,-19.801224,-21.902475,0.5543053,0.8768022
-2.1299438,0.6032501,-5.520258,4.889555,-0.89765215,-2.137118,-0.2959913,-0.77973366,0.5378186,-0.116692066,-0.22993818,-0.5058518,0.68348426,0.5762228,1.0970036,-0.46443176,-1.692702,-0.9739288,2.225605,1.473035,-0.9154863,1.1610953,-0.508057,-1.6806209,-0.9566914,2.2742143,1.4096056,-0.9693816,-1.3862921,1.0034384,0.0034443527,-0.5885196,-0.26589188,0.4926071,0.3735545,1.2936935,-0.4523239,1.2987796,-3.6507645,-0.42436427,0.08689277,0.16513062,-0.3709259,1.0272229,0.7921894,-0.16550992,0.12631993,0.5736599,-0.0498675,0.47017023,0.080188245,1.0,0.0,0.0,0.0,0.0,0.0,0.0,-1.9436935,0.052323908,-0.7487796,0.75666904,-4.8893213,-15.114111,-5.1599503,-27.419949,0.27518272,0.34888387
-16.758028,-13.357723,-10.463753,17.33205,0.73033214,-1.8392583,-0.69253814,-0.7636088,0.46273547,-0.18980323,-0.13196093,-0.6144428,0.683769,0.57621366,1.0847344,-0.46178344,-1.6996012,-0.9698875,2.21277,1.4779825,-0.9117602,1.1473204,-0.49864423,-1.6819179,-0.96192324,2.2695832,1.4145342,-0.96561265,-1.3743036,0.9206924,-0.17389598,-0.5021927,-0.5289551,0.49324566,0.3771372,1.2572174,-0.45656395,1.2989115,-3.6471143,-0.42394,-0.011380057,0.16455841,-0.36680222,1.0277042,0.7932766,-0.1669534,0.13479118,0.5697982,-0.05426802,0.39110315,0.033940315,1.0,0.0,0.0,0.0,0.0,0.0,0.0,-1.9072174,0.056563944,-0.74891144,1.2279987,-8.2542305,-17.725399,8.401049,-26.305204,0.15653372,0.07428527
-24.833424,-20.163052,-11.225582,26.367601,2.2938678,-1.3877728,-0.7584241,-0.7643024,0.3726866,-0.15815207,-0.048087202,-0.6438691,0.6841005,0.5871603,1.0708902,-0.46137556,-1.6977332,-0.96673197,2.2051964,1.4829443,-0.9068966,1.133639,-0.49035728,-1.6845062,-0.9656712,2.2627816,1.4194666,-0.9618037,-1.3659786,0.79801804,-0.28740767,-0.33303463,-0.7301492,0.49361116,0.3813454,1.2207718,-0.46080017,1.2980613,-3.643468,-0.42351615,-0.10955463,0.16356659,-0.36354065,1.0279166,0.7949631,-0.16822201,0.14388424,0.56482935,-0.109771766,0.30245608,0.0138346255,1.0,0.0,0.0,0.0,0.0,0.0,0.0,-1.8707718,0.060800165,-0.74806124,0.8458376,-12.273634,-11.392647,16.692024,-20.056461,0.12639165,0.17992854
-30.485794,-27.65411,-13.035432,30.99114,3.4291813,-1.2430058,-0.7744457,-0.7703294,0.286393,-0.21010102,0.031492952,-0.6299916,0.683971,0.5752623,1.056606,-0.461718,-1.7055163,-0.9625219,2.1997824,1.4878637,-0.90427744,1.1199881,-0.48350704,-1.688029,-0.9674889,2.2545686,1.4244009,-0.9579623,-1.364578,0.647276,-0.37436125,-0.13180561,-0.85118246,0.4937551,0.38459784,1.1843643,-0.46503258,1.2962301,-3.6398253,-0.42309272,-0.20763104,0.16177368,-0.3612728,1.0280137,0.79722875,-0.16947226,0.15299293,0.5588368,-0.19946368,0.20010784,0.0057994514,1.0,0.0,0.0,0.0,0.0,0.0,0.0,-1.8343643,0.06503257,-0.74623007,0.21173954,-15.09726,-8.816778,19.969345,-12.017738,0.09608269,0.15698075
-30.308975,-54.465424,-21.374878,20.219118,3.700529,-2.0517397,-0.39777038,-0.7645155,0.08969922,-0.2301715,-0.08273544,-0.61103743,0.67742664,0.54947644,1.0435365,-0.4745371,-1.7110462,-0.9757624,2.1934648,1.4921436,-0.90301466,1.1063658,-0.47879016,-1.6921871,-0.9682108,2.2456613,1.4293314,-0.95410943,-1.360312,0.4131733,-0.43063024,-0.05227585,-0.90361875,0.4929234,0.38505918,1.147995,-0.46926117,1.2934189,-3.6361861,-0.4226697,-0.3056094,0.15912628,-0.36040688,1.0276968,0.79993063,-0.1703045,0.1615319,0.55228144,-0.28442213,0.04720008,-0.045928337,1.0,0.0,0.0,0.0,0.0,0.0,0.0,-1.797995,0.06926116,-0.7434189,0.74880123,-23.416489,-5.94548,7.9633265,-5.135834,-0.028723478,-0.097972155
-36.1723,-94.911865,-32.399178,13.900489,5.0013175,-2.5943856,-0.02708846,-0.7461621,-0.24154891,-0.090684265,-0.07199601,-0.5927545,0.67584604,0.5162795,1.0317496,-0.50294507,-1.7012554,-0.9754104,2.1863859,1.496916,-0.9024815,1.092877,-0.477589,-1.6960208,-0.96858275,2.2365823,1.4342448,-0.95027375,-1.3430265,0.022392385,-0.36956024,-0.031464648,-0.90870297,0.4907172,0.38295534,1.1116562,-0.47348404,1.2896286,-3.6325507,-0.4222471,-0.4034898,0.15538788,-0.3615589,1.0266036,0.80287355,-0.17039588,0.16856425,0.54584366,-0.4027958,-0.16949816,-0.13146213,1.0,0.0,0.0,0.0,0.0,0.0,0.0,-1.7616562,0.07348403,-0.7396286,2.312231,-39.07795,5.53388,2.3042157,-0.34730434,-0.28763413,-0.24023056
-32.35465,-112.067566,-36.202316,4.06397,5.0057454,-3.0071373,0.40441257,-0.7065103,-0.48698026,-0.003997083,-0.16307431,-0.56745595,0.66715175,0.46567875,1.022226,-0.526287,-1.6964206,-0.98489016,2.1798368,1.5009599,-0.9037059,1.079743,-0.4808873,-1.698672,-0.9694544,2.2276711,1.4391161,-0.94649243,-1.3014678,-0.44724694,-0.23213816,-0.104511596,-0.88494223,0.48496023,0.37686878,1.0753632,-0.4777031,1.2848603,-3.628919,-0.42182496,-0.5012724,0.15052795,-0.36506653,1.0244071,0.80583227,-0.1694923,0.17341675,0.540216,-0.5156943,-0.41058475,-0.24944933,1.0,0.0,0.0,0.0,0.0,0.0,0.0,-1.7253631,0.07770309,-0.73486024,4.788184,-46.97809,13.16666,-6.9407597,2.4720788,-0.9201467,-0.51825047
-9.492851,-94.743195,-27.853466,-15.257687,2.9902909,-3.20838,1.2086098,-0.6558104,-0.65939575,0.17004097,-0.47515583,-0.5353123,0.6706621,0.3940487,1.014162,-0.54682684,-1.6816679,-1.01697,2.17414,1.5061823,-0.90708756,1.0672098,-0.4887699,-1.6991985,-0.97261584,2.2191224,1.4439169,-0.9428227,-1.2361747,-0.90217674,0.0064791613,-0.38586286,-0.84562296,0.47609487,0.36415142,1.0391006,-0.48191833,1.2791148,-3.6252906,-0.42140323,-0.59895724,0.14510345,-0.37074852,1.0207249,0.8083396,-0.16726069,0.17592949,0.53633916,-0.55187523,-0.61828965,-0.40841258,1.0,0.0,0.0,0.0,0.0,0.0,0.0,-1.6891006,0.08191833,-0.72911483,6.8326235,-45.566784,23.668165,-27.87323,3.826642,-1.6061723,-1.1508167
19.53914,-40.521954,-7.738122,-25.816404,0.22409111,-2.6119847,1.7165177,-0.5495097,-0.70879966,0.29007173,-0.6513794,-0.65891385,0.6802045,0.41485074,1.0122589,-0.5596498,-1.6701913,-1.0377538,2.1532311,1.5119374,-0.9013376,1.0557123,-0.5002545,-1.6970718,-0.9792992,2.2105546,1.4486376,-0.9392607,-1.121537,-1.2310104,0.28201514,-0.762466,-0.86113095,0.46806192,0.35385725,1.0028763,-0.48612976,1.2723933,-3.6216662,-0.4209819,-0.6965444,0.14006042,-0.3777771,1.0154961,0.8098981,-0.1637457,0.17665389,0.5348326,-0.49142545,-0.7271812,-0.5621946,1.0,0.0,0.0,0.0,0.0,0.0,0.0,-1.6528763,0.086129755,-0.72239333,11.298013,-33.009647,27.695374,-37.661407,-1.71386,-1.6001225,-0.93840957
37.282696,15.940881,12.362356,-20.73206,-1.0960994,-1.535767,1.6538957,-0.41684577,-0.7330871,0.35463315,-0.6384344,-0.69877064,0.69392806,0.402638,1.0140277,-0.5735632,-1.6616085,-1.0431427,2.1406775,1.5180304,-0.89899695,1.0458151,-0.51393497,-1.6924465,-0.9890934,2.2016435,1.4533125,-0.9357979,-0.9472563,-1.4139811,0.52280515,-1.0522939,-0.9009111,0.4658323,0.3443141,0.96669006,-0.49033546,1.2646967,-3.618045,-0.42056102,-0.79403406,0.1359787,-0.38515472,1.0091424,0.81027466,-0.15952523,0.17625126,0.5356698,-0.385327,-0.73557556,-0.66131985,1.0,0.0,0.0,0.0,0.0,0.0,0.0,-1.61669,0.09033546,-0.7146967,17.036867,-18.365837,24.153948,-29.132343,-3.950274,-0.6804645,-0.80246925
29.196903,34.908623,15.4124565,-6.867685,-0.86047626,-1.0779499,0.93673325,-0.37264556,-0.7626415,0.2159858,-0.60006666,-0.69749755,0.6820049,0.36787894,1.0085505,-0.5901991,-1.6708479,-1.0491,2.1318936,1.521513,-0.89901006,1.0376002,-0.52863586,-1.6867664,-1.0006777,2.192347,1.4579798,-0.9324467,-0.78062975,-1.4887896,0.5830728,-1.193908,-0.9393809,0.4665559,0.33253747,0.93053436,-0.49453735,1.2560259,-3.6144278,-0.42014053,-0.8914262,0.13278198,-0.3924408,1.0021195,0.8097929,-0.1550141,0.17535663,0.5380114,-0.29968283,-0.7191283,-0.7173688,1.0,0.0,0.0,0.0,0.0,0.0,0.0,-1.5805343,0.09453735,-0.7060259,16.368103,-7.494831,6.0056806,-14.216161,-3.7861586,-0.08472204,-1.032412
19.626467,41.527218,14.46888,3.0762796,-0.50271493,-0.9446802,0.37586138,-0.31977522,-0.77102035,0.11654954,-0.6182568,-0.6863779,0.6696068,0.3726854,1.0056226,-0.6057379,-1.6751114,-1.0625033,2.1237092,1.5249405,-0.8951782,1.0308844,-0.5435456,-1.6816032,-1.012942,2.1827645,1.4626585,-0.9292023,-0.6360823,-1.4916079,0.49393612,-1.2370539,-0.96442163,0.4685539,0.32212457,0.8944168,-0.49873543,1.2463819,-3.610814,-0.41972047,-0.98872095,0.13028717,-0.3995571,0.9947111,0.80888766,-0.1503395,0.17446211,0.5409822,-0.2365589,-0.70164615,-0.74999684,1.0,0.0,0.0,0.0,0.0,0.0,0.0,-1.5444168,0.09873542,-0.69638187,14.249039,-0.25925636,-8.913338,-4.2744637,-2.5036097,0.22949576,-0.93473196
14.1996355,44.607357,13.937634,8.382801,-0.27023602,-0.8729314,0.09756347,-0.25598764,-0.7698559,0.06626081,-0.6366089,-0.6969459,0.67679983,0.3980066,1.0052856,-0.6205312,-1.6749771,-1.0766028,2.11307,1.5303385,-0.8894017,1.0254732,-0.5582093,-1.6778438,-1.025252,2.1729798,1.4673697,-0.92603326,-0.5099823,-1.4578421,0.3366976,-1.2286297,-0.9833791,0.4722415,0.31542346,0.8583374,-0.5029297,1.2357656,-3.607204,-0.41930082,-1.0859184,0.12831879,-0.4065132,0.9870666,0.80782384,-0.14553475,0.1738449,0.5440756,-0.18676665,-0.68520135,-0.7706171,1.0,0.0,0.0,0.0,0.0,0.0,0.0,-1.5083374,0.10292968,-0.68576556,12.461281,3.4132242,-15.699315,0.92139244,-1.9427657,0.48476458,-0.5964458
5.4212074,32.079193,7.0265055,10.579769,0.055964917,-1.2391207,-0.16492929,-0.20243865,-0.77727056,-0.115840256,-0.64045906,-0.7029234,0.67334425,0.41185167,1.0052294,-0.6359364,-1.6894279,-1.0892979,2.1026876,1.5347041,-0.8848481,1.0211817,-0.5725182,-1.6763675,-1.037314,2.1630425,1.4721075,-0.9229138,-0.40248445,-1.4218875,0.0851952,-1.1982727,-0.9980043,0.47419834,0.31068036,0.8222885,-0.50712013,1.2241781,-3.6035976,-0.4188816,-1.1830187,0.12670135,-0.41353226,0.9791337,0.80685705,-0.14040278,0.17367202,0.5469065,-0.15390672,-0.6993969,-0.8025558,1.0,0.0,0.0,0.0,0.0,0.0,0.0,-1.4722885,0.10712013,-0.67417806,10.641712,3.5836935,-24.98117,3.169036,-1.6393065,0.189358,-0.49072504
10.233573,31.14455,6.969811,6.6753016,-0.20670643,-1.4617069,-0.030180782,-0.087910086,-0.7743494,-0.20568897,-0.664821,-0.7029338,0.6814939,0.431853,1.0123907,-0.6499532,-1.6969364,-1.1037961,2.092749,1.540257,-0.8797285,1.0181566,-0.58651817,-1.6774566,-1.0491778,2.1529984,1.4768625,-0.9198201,-0.2696643,-1.3928216,-0.17281981,-1.1819906,-1.0067952,0.47562277,0.30877772,0.7862854,-0.51130676,1.2116203,-3.5999947,-0.4184628,-1.2800219,0.12551117,-0.42072678,0.9708083,0.80598617,-0.1347917,0.17394309,0.54951,-0.10746357,-0.71922785,-0.84474754,1.0,0.0,0.0,0.0,0.0,0.0,0.0,-1.4362854,0.11130676,-0.6616203,13.114762,2.8851986,-25.583849,1.7169237,-1.0400057,0.046110153,-0.22913218
6.6845083,25.92906,4.9444838,7.1514673,0.049250215,-1.4221858,-0.026008725,-0.0749453,-0.77686274,-0.29637563,-0.6710491,-0.6966133,0.6936429,0.43364298,1.0106621,-0.6642044,-1.7070942,-1.1162827,2.083337,1.5462269,-0.8764558,1.0162321,-0.60033405,-1.6809547,-1.0609709,2.14292,1.4816347,-0.91673875,-0.16702753,-1.377968,-0.40831223,-1.1778712,-1.0089204,0.4772627,0.3078135,0.7503128,-0.5154877,1.1980932,-3.5963955,-0.41804445,-1.3769282,0.12471008,-0.42817307,0.9620175,0.8051946,-0.12862736,0.17456335,0.55194575,-0.07237225,-0.7458469,-0.8935138,1.0,0.0,0.0,0.0,0.0,0.0,0.0,-1.4003128,0.115487665,-0.64809316,10.18694,1.4420748,-23.404354,0.54187775,-0.3884554,0.004184246,-0.12803674
-3.453973,26.611977,5.6755695,13.568023,0.790609,-0.76624435,-0.09652056,-0.15587272,-0.7701629,-0.27765337,-0.6698469,-0.69366926,0.699216,0.44793156,1.0006448,-0.67735034,-1.7087201,-1.1279556,2.073553,1.5515563,-0.8719456,1.0146319,-0.6140517,-1.6860569,-1.072764,2.1328492,1.4864298,-0.91365075,-0.15708153,-1.3699069,-0.5444306,-1.1791173,-1.0071563,0.4798881,0.30920634,0.7143707,-0.51966476,1.1835978,-3.5927997,-0.4176265,-1.4737375,0.12397766,-0.4357834,0.9528384,0.804505,-0.122031994,0.17539512,0.5541808,-0.07218188,-0.75928044,-0.9297143,1.0,0.0,0.0,0.0,0.0,0.0,0.0,-1.3643707,0.11966476,-0.6335978,1.1397451,0.7468939,-13.680387,0.088095665,-0.028562546,0.1683414,0.16505122
-13.270978,22.42316,3.8932111,17.285982,1.3625829,-0.3887268,-0.15158439,-0.22085615,-0.77881205,-0.3153732,-0.7078453,-0.6747377,0.6898384,0.44352594,0.99254626,-0.6919329,-1.7175941,-1.1435486,2.0653753,1.5554136,-0.86929816,1.0125471,-0.62777984,-1.6920707,-1.0847613,2.1228547,1.4912401,-0.9105494,-0.2245183,-1.374024,-0.6210404,-1.2056133,-0.9975549,0.4811565,0.3106449,0.6784744,-0.52383804,1.168135,-3.5892076,-0.41720897,-1.57045,0.123046875,-0.4435196,0.9433,0.80396336,-0.11505192,0.17629822,0.55616987,-0.10060309,-0.7717781,-0.9659296,1.0,0.0,0.0,0.0,0.0,0.0,0.0,-1.3284744,0.12383804,-0.61813504,-6.423375,-0.5035639,-7.853937,-2.3397923,0.6847143,0.0137627125,0.20014048
-8.559817,40.520237,13.950933,19.51531,1.4379424,0.4725767,0.0574877,-0.23912351,-0.76708806,-0.1624806,-0.7116017,-0.69242406,0.70148194,0.47845164,0.98863477,-0.70448864,-1.7083188,-1.1559215,2.0536122,1.5613884,-0.8627042,1.0096174,-0.64151657,-1.6977222,-1.0970446,2.1129098,1.496081,-0.9074023,-0.31466812,-1.3736805,-0.547969,-1.235178,-0.99398875,0.48530594,0.3166753,0.64260864,-0.5280075,1.1517059,-3.5856192,-0.41679186,-1.6670659,0.12181091,-0.451046,0.93362695,0.8033848,-0.10805677,0.17709671,0.5581518,-0.1294261,-0.739555,-0.97193956,1.0,0.0,0.0,0.0,0.0,0.0,0.0,-1.2926086,0.1280075,-0.60170585,-8.689463,-4.7683716e-05,6.911361,-2.7188063,0.20605326,0.504297,0.7768333
-11.776714,41.04149,14.221815,21.577888,1.6555781,0.64091337,-0.00014868379,-0.28635383,-0.7705381,-0.19707505,-0.7084781,-0.6986682,0.6980116,0.47878188,0.98098207,-0.71857035,-1.7174298,-1.1678925,2.043043,1.5658822,-0.8595241,1.0056921,-0.6552628,-1.7025688,-1.1095549,2.1029649,1.5009619,-0.9041951,-0.4171754,-1.3750995,-0.46489447,-1.255438,-0.9949925,0.48925135,0.32272327,0.6067734,-0.53217316,1.1343113,-3.5820343,-0.41637516,-1.7635851,0.12023926,-0.4582405,0.92393845,0.802735,-0.10121952,0.17773819,0.5601609,-0.16746323,-0.7055098,-0.9716742,1.0,0.0,0.0,0.0,0.0,0.0,0.0,-1.2567734,0.13217315,-0.5843113,-9.904778,-0.1737833,7.883525,-1.7675161,-0.24399757,0.5197108,0.79622865
-12.5269165,32.149097,9.108306,18.878288,1.5133405,0.11654818,-0.07101142,-0.28277388,-0.7755757,-0.33392456,-0.7261153,-0.67570496,0.6780457,0.47308835,0.9774147,-0.7328204,-1.7359612,-1.1821665,2.0353944,1.5687665,-0.8568862,1.0009791,-0.6690463,-1.7073143,-1.1222731,2.0930657,1.5058562,-0.9009392,-0.48836932,-1.3796176,-0.47867075,-1.2763853,-0.9887491,0.48948538,0.32699305,0.5709839,-0.5363331,1.1159523,-3.578453,-0.41595888,-1.8600079,0.11832428,-0.46528816,0.9141006,0.8021098,-0.094319515,0.1782743,0.56208706,-0.20006484,-0.6968764,-0.99122745,1.0,0.0,0.0,0.0,0.0,0.0,0.0,-1.2209839,0.13633308,-0.56595224,-6.8232536,-0.5088806,-1.6648233,-1.8040657,0.42612553,0.020122528,0.56130886
-9.293812,29.41977,7.4370832,15.959732,1.2412541,-0.21872771,-0.05588153,-0.2739432,-0.7763311,-0.38584456,-0.7293672,-0.6794375,0.67671806,0.49623165,0.9735848,-0.7466794,-1.7458987,-1.1952099,2.025122,1.5735279,-0.85131603,0.9958527,-0.68287647,-1.7126472,-1.1351572,2.0832162,1.5107447,-0.89763093,-0.51994294,-1.3843256,-0.5520158,-1.291546,-0.9841146,0.4883066,0.33235607,0.5352249,-0.5404892,1.0966296,-3.5748754,-0.41554302,-1.9563342,0.11618042,-0.472332,0.9039759,0.8015442,-0.08715435,0.17877054,0.56389004,-0.22070399,-0.699513,-1.022682,1.0,0.0,0.0,0.0,0.0,0.0,0.0,-1.1852249,0.14048919,-0.5466296,-2.9359102,-0.53293705,-7.5166583,-1.2379408,0.25379658,-0.19372106,0.6316602
-14.783399,23.143826,3.5303762,16.86076,1.3871977,-0.34349817,-0.17796047,-0.33216083,-0.78258,-0.45220888,-0.7302094,-0.69210726,0.6728285,0.4793419,0.96263665,-0.76113445,-1.757868,-1.2081782,2.0140054,1.5780275,-0.84969676,0.9903462,-0.69677436,-1.7190483,-1.1481386,2.0733628,1.5156122,-0.89428926,-0.5600391,-1.3920071,-0.6696937,-1.2993786,-0.9865662,0.48570338,0.33496365,0.4995041,-0.5446415,1.0763445,-3.5713012,-0.41512758,-2.0525641,0.11374664,-0.47951508,0.8934588,0.80113107,-0.079561405,0.17929374,0.5654314,-0.2514423,-0.7155851,-1.0646708,1.0,0.0,0.0,0.0,0.0,0.0,0.0,-1.1495041,0.14464149,-0.5263445,-3.7588716,-0.867033,-11.882353,-0.44739246,-0.5285263,-0.42201877,0.31700134
-17.06122,20.275772,1.5927,16.38133,1.429933,-0.40565813,-0.1982047,-0.36161017,-0.78604084,-0.5228352,-0.7493322,-0.6708851,0.65220463,0.4822758,0.9541852,-0.77537847,-1.7713318,-1.2230718,2.0062742,1.5808327,-0.84606165,0.9844105,-0.7107543,-1.7267997,-1.161244,2.0635362,1.520434,-0.89092565,-0.60387886,-1.4004626,-0.81060773,-1.3129625,-0.9824169,0.48041475,0.33701405,0.4638214,-0.54879,1.0550978,-3.5677307,-0.41471252,-2.1486976,0.11099243,-0.48690033,0.88245755,0.80092496,-0.07140107,0.17984629,0.5666359,-0.28644097,-0.7378582,-1.115476,1.0,0.0,0.0,0.0,0.0,0.0,0.0,-1.1138214,0.14878997,-0.5050978,-4.113543,-0.9686947,-14.172543,-0.9832382,0.08108616,-0.7624209,0.24755597
-21.821747,22.209377,2.2474298,18.722385,1.6783421,-0.08182067,-0.23731196,-0.4288338,-0.78714067,-0.53899944,-0.7520777,-0.6793394,0.64709383,0.4912272,0.9415271,-0.78946835,-1.7806997,-1.2364519,1.9956023,1.5851434,-0.84180295,0.9778235,-0.7248076,-1.7357566,-1.1744696,2.0537248,1.5252024,-0.88753724,-0.6759384,-1.4074582,-0.9244141,-1.324498,-0.98192525,0.47490984,0.33965024,0.42816925,-0.55293465,1.0328906,-3.5641637,-0.41429788,-2.2447352,0.10777283,-0.49445152,0.870991,0.80094665,-0.062690705,0.18039991,0.5674594,-0.33497626,-0.75244457,-1.1609675,1.0,0.0,0.0,0.0,0.0,0.0,0.0,-1.0781692,0.15293464,-0.48289055,-6.8865776,-0.84450245,-11.480308,-0.7423401,-0.32349825,-0.7859349,0.3196001
-25.76628,26.726028,4.0722213,21.252726,1.8963045,0.2983488,-0.27942288,-0.49271497,-0.779508,-0.5674359,-0.75058246,-0.68432075,0.6536003,0.48700953,0.928552,-0.8027584,-1.7925003,-1.2495278,1.9852927,1.5905625,-0.8388363,0.9703305,-0.73887527,-1.745631,-1.1877714,2.043898,1.5299269,-0.8841269,-0.7725997,-1.4069645,-1.0088326,-1.330613,-0.984481,0.47092283,0.34172437,0.39255524,-0.5570755,1.0097235,-3.5606003,-0.41388366,-2.3406768,0.10398865,-0.5020752,0.85914475,0.801207,-0.053532947,0.18093671,0.5678586,-0.39503694,-0.7555046,-1.1966311,1.0,0.0,0.0,0.0,0.0,0.0,0.0,-1.0425552,0.1570755,-0.45972353,-9.316433,-0.11036396,-8.552933,-0.1856327,-0.65943,-0.6134093,0.2771139
-27.809322,29.14469,5.122868,22.090294,2.0393174,0.53036916,-0.28316045,-0.5471536,-0.78199065,-0.6048364,-0.7596823,-0.66856575,0.6438359,0.46521965,0.91561514,-0.81707436,-1.8061147,-1.2637397,1.9770415,1.5943105,-0.83760494,0.9617865,-0.75292957,-1.7562091,-1.2011458,2.0340867,1.5346094,-0.88071275,-0.88040924,-1.4055755,-1.0744586,-1.3380535,-0.98132163,0.4666713,0.34152287,0.35697937,-0.56121063,0.9855979,-3.5570405,-0.41346985,-2.4365222,0.09954834,-0.5096836,0.84697556,0.8017051,-0.043997537,0.18140192,0.5678261,-0.4618922,-0.75203604,-1.2278779,1.0,0.0,0.0,0.0,0.0,0.0,0.0,-1.0069793,0.16121063,-0.4355979,-10.423506,-0.032758713,-6.676841,-0.3024578,-0.10445118,-0.6450534,0.07097125
-34.551334,30.502872,4.9825726,25.061867,2.4170444,0.84088516,-0.37363383,-0.64316446,-0.77522814,-0.63863397,-0.75447744,-0.64655083,0.6536795,0.45413762,0.89747006,-0.8304524,-1.8200725,-1.2765936,1.9694316,1.5999774,-0.835299,0.9519551,-0.76693714,-1.7673595,-1.2145449,2.0243745,1.5392615,-0.877311,-1.0161382,-1.3998079,-1.128916,-1.3390944,-0.9695405,0.46379885,0.34012064,0.32143402,-0.56534195,0.96051455,-3.5534842,-0.41305646,-2.532272,0.094329834,-0.51722145,0.83454347,0.80249363,-0.03414035,0.18173037,0.56728506,-0.546662,-0.7443481,-1.2526338,1.0,0.0,0.0,0.0,0.0,0.0,0.0,-0.971434,0.16534194,-0.41051453,-13.17774,0.3705263,-5.5425167,0.38514137,0.69630146,-0.5306244,-0.03145337
-36.041153,31.98593,5.3001246,25.462734,2.534269,0.9649122,-0.39978555,-0.69983304,-0.7712244,-0.6831749,-0.74980724,-0.6209716,0.65671945,0.41910493,0.8819718,-0.8440596,-1.835677,-1.2895256,1.9622773,1.6049334,-0.8354005,0.94077516,-0.7808722,-1.7790782,-1.2279135,2.014853,1.5438887,-0.8739493,-1.1506087,-1.3921578,-1.1862909,-1.3345231,-0.94809073,0.4615311,0.33535776,0.28592682,-0.56946945,0.9344744,-3.5499313,-0.4126435,-2.627926,0.08821106,-0.5246792,0.8218779,0.8036059,-0.023984946,0.18185903,0.56618863,-0.6364775,-0.7341761,-1.2753605,1.0,0.0,0.0,0.0,0.0,0.0,0.0,-0.9359268,0.16946945,-0.3844744,-13.062668,0.5438566,-5.806184,0.9620905,1.6494632,-0.50032735,-0.35305023
-36.501175,31.493591,4.7860613,25.127832,2.6153083,0.9749954,-0.43166286,-0.7520886,-0.7752649,-0.7369063,-0.7355433,-0.5902057,0.6491347,0.34301272,0.8655663,-0.85839874,-1.8527689,-1.3014678,1.9558325,1.6088022,-0.839648,0.9283421,-0.7947625,-1.7914703,-1.241162,2.0056176,1.5484892,-0.87068963,-1.2728906,-1.3888074,-1.256847,-1.3199707,-0.9171421,0.45847654,0.32335237,0.25045776,-0.57359314,0.90747845,-3.5463822,-0.41223094,-2.7234845,0.08117676,-0.532053,0.8089701,0.80507004,-0.013529831,0.18170956,0.5645005,-0.72922814,-0.725747,-1.30003,1.0,0.0,0.0,0.0,0.0,0.0,0.0,-0.90045774,0.17359313,-0.35747844,-11.865187,0.100278854,-7.0875645,1.9800425,2.5964499,-0.6260693,-1.0635614
-31.733387,36.358494,7.637066,23.744324,2.472526,1.0694594,-0.38997304,-0.7859069,-0.7679144,-0.7563729,-0.71674424,-0.5665373,0.653338,0.27904636,0.8497514,-0.87155396,-1.8671076,-1.3128364,1.9489639,1.613823,-0.842785,0.91488004,-0.80860317,-1.8045089,-1.2541872,1.9967241,1.5530668,-0.8675921,-1.3697401,-1.3831868,-1.3195015,-1.2952502,-0.88147134,0.45646375,0.30569977,0.21501923,-0.577713,0.8795276,-3.5428364,-0.4118188,-2.8189473,0.073287964,-0.53928566,0.795859,0.8068549,-0.002845881,0.18122777,0.5622575,-0.81280595,-0.7092813,-1.3188943,1.0,0.0,0.0,0.0,0.0,0.0,0.0,-0.8650192,0.177713,-0.32952762,-9.384847,0.3488779,-6.2805653,2.9456615,3.1287313,-0.49606562,-1.6154885
-25.142622,43.07422,11.8969345,22.591461,2.2681873,1.2035441,-0.34957063,-0.80581415,-0.7629707,-0.7609591,-0.67815703,-0.5674556,0.6541537,0.19261084,0.8342986,-0.8849002,-1.8806049,-1.3220029,1.9399786,1.6184822,-0.84833103,0.9006798,-0.8223742,-1.8180187,-1.2668215,1.9881296,1.5576292,-0.8647244,-1.4360145,-1.3756592,-1.3613206,-1.2515152,-0.8531826,0.45566127,0.28090617,0.1796112,-0.58182716,0.8506229,-3.5392945,-0.41140708,-2.9143147,0.06467438,-0.5462818,0.782644,0.8089025,0.007910455,0.18040963,0.55952334,-0.8826009,-0.6821356,-1.3262924,1.0,0.0,0.0,0.0,0.0,0.0,0.0,-0.8296112,0.18182716,-0.30062288,-6.4115524,0.57833195,-4.183817,4.757428,2.4909616,-0.30078888,-2.3277998
-17.095455,48.8796,16.003876,20.325527,1.9226182,1.2731465,-0.26157373,-0.81226796,-0.7610722,-0.7631653,-0.65071166,-0.5784658,0.6580939,0.1396192,0.819453,-0.8984814,-1.8943352,-1.3318927,1.9302831,1.6234386,-0.8507625,0.8860533,-0.83607185,-1.8317878,-1.2789522,1.9797201,1.5621935,-0.86212754,-1.4711175,-1.3682182,-1.3818848,-1.1993834,-0.8378763,0.45637167,0.25306568,0.14424896,-0.5859375,0.8207652,-3.5357559,-0.41099575,-3.0095868,0.055496216,-0.5529442,0.76941395,0.8111237,0.018585164,0.17929144,0.5564057,-0.9333272,-0.6454064,-1.3257273,1.0,0.0,0.0,0.0,0.0,0.0,0.0,-0.79424894,0.1859375,-0.2707652,-3.3753633,0.61604977,-2.058339,5.502653,1.293087,-0.070255995,-2.6393235
-11.094439,50.31166,17.714933,17.630896,1.6011263,1.2242595,-0.2161224,-0.8164488,-0.7689406,-0.77456903,-0.632265,-0.58739734,0.64321136,-0.03345339,0.80440843,-0.9129659,-1.9092448,-1.3421787,1.9209803,1.6265147,-0.86547285,0.8712466,-0.8497485,-1.8456905,-1.2905794,1.9713755,1.5667578,-0.859915,-1.4834627,-1.3678081,-1.393208,-1.1498713,-0.8338393,0.45620456,0.21113986,0.10891724,-0.590044,0.7899555,-3.5322208,-0.41058484,-3.1047635,0.045928955,-0.55921173,0.7561822,0.8134591,0.02910696,0.17790557,0.55297965,-0.96857166,-0.60583884,-1.3261105,1.0,0.0,0.0,0.0,0.0,0.0,0.0,-0.7589172,0.19004402,-0.23995548,-1.1459112,-0.054740906,-1.146245,5.1944017,0.23448467,-0.1183331,-4.0513425
-9.257282,54.222763,19.784918,17.985615,1.5418,1.3165426,-0.22371826,-0.82719505,-0.75520945,-0.7786019,-0.5793664,-0.59584457,0.6468346,-0.041424084,0.7885271,-0.9252694,-1.9235507,-1.3485161,1.911791,1.6314412,-0.8640574,0.8563518,-0.86334413,-1.8599057,-1.3016996,1.9631627,1.5713112,-0.8581341,-1.4963471,-1.3500994,-1.4881042,-1.1234043,-0.8112676,0.4184777,0.16783147,0.07912445,-0.5932789,0.7676806,-1.8409592,0.011042269,0.37374783,0.03601837,-0.5651169,0.74292785,0.8159219,0.039531305,0.17627737,0.54921305,-1.0020775,-0.5846314,-1.3495334,0.0,1.0,0.0,0.0,0.0,0.0,0.0,-0.7291244,0.19327888,-0.21768057,-2.0739794,2.8037071,-18.51654,-0.9581804,4.798174,-7.6636734,-4.630643
47.835896,176.0,110.0,107.978455,4.9201865,10.969429,-1.9899192,-0.7882024,0.5261667,0.7048176,0.71881,-0.41270328,0.6211589,-0.38926932,0.77753156,-0.8107275,-1.789424,-1.2298186,1.9218923,1.6334271,-0.89706105,0.84632295,-0.8779554,-1.8704076,-1.2991209,1.9470875,1.5850003,-0.85482293,-0.8423927,-1.4974264,-0.89905363,0.7145685,-1.8686202,1.6951302,0.38420558,0.06072998,-0.59316826,0.77067876,-1.8391186,0.011031228,0.27518824,0.025558472,-0.5691166,0.73362625,0.81830287,0.04061722,0.17874616,0.5447755,-1.0622507,-0.32313344,-0.791991,0.0,1.0,0.0,0.0,0.0,0.0,0.0,-0.71072996,0.19316825,-0.22067875,64.17563,-14.543748,60.406124,182.63329,-104.40562,130.50551,21.20542
-38.29631,147.58119,65.381874,90.97041,7.9741297,4.4447165,-2.3354115,-0.82195663,-0.5411442,-0.20896246,0.7557601,-0.5075673,0.57187575,-0.20819603,0.7641273,-0.9320698,-1.8913038,-1.2235448,1.8963308,1.6421878,-0.87564254,0.83797544,-0.891921,-1.8766084,-1.2854948,1.9285595,1.6019642,-0.85129434,-0.8308241,-1.3645506,-0.52463496,1.5800852,-1.8506882,1.7010635,0.3440673,0.04235077,-0.59305763,0.77269214,-1.8372799,0.011020198,0.17672716,0.013809204,-0.5719261,0.7285852,0.8217543,0.03556222,0.18324336,0.5384024,-1.2111874,-0.2568578,-0.41345617,1.0,0.0,0.0,0.0,0.0,0.0,0.0,-0.69235075,0.19305763,-0.22269213,1.5541077,12.811232,38.186073,86.95369,0.8650303,1.8507957,-3.5007358
-56.96035,127.181175,41.47646,67.48318,5.9785805,2.5927098,-1.7622573,-0.8069848,-0.3792727,-0.4731036,0.7494235,-0.5934289,0.57377285,0.24478984,0.75727695,-0.92984825,-1.9239187,-1.2105525,1.8692167,1.6593416,-0.82681537,0.82854646,-0.9035339,-1.8813157,-1.2668333,1.9116166,1.6179974,-0.84800893,-0.97821003,-1.0951508,-0.45270932,1.9629849,-1.6443634,1.5726237,0.32350573,0.023994446,-0.592947,0.77372164,-1.835443,0.01100918,0.07836452,0.0006866455,-0.5741596,0.72618294,0.826454,0.029021671,0.1883721,0.5297616,-1.344363,-0.20412686,-0.19038968,1.0,0.0,0.0,0.0,0.0,0.0,0.0,-0.6739944,0.192947,-0.22372162,-14.140976,26.443172,7.1953654,38.776443,19.959116,-12.241936,-2.0067215
-51.834602,87.08636,21.854288,39.521152,3.9363465,1.2656822,-0.8875058,-0.78054833,-0.46247312,-0.37835348,0.79902697,-0.6011396,0.5557139,0.19340894,0.7504916,-0.9497812,-1.9191511,-1.1869307,1.8515027,1.6735688,-0.82866806,0.8173141,-0.9130048,-1.8859982,-1.2470217,1.8972409,1.6323655,-0.84499246,-1.1702868,-0.89892286,-0.47401336,1.9882251,-1.3701171,1.3918284,0.29435217,0.0056533813,-0.5928364,0.77376825,-1.8336079,0.010998173,-0.019899776,-0.013473511,-0.57598495,0.7249406,0.8319497,0.022988878,0.19343106,0.519534,-1.4403903,-0.16611856,-0.10987139,1.0,0.0,0.0,0.0,0.0,0.0,0.0,-0.65565336,0.19283637,-0.22376823,-18.846584,19.268883,-2.3191571,2.812028,26.980782,-17.946743,-2.9319108
-38.858894,52.142216,7.6914425,18.547962,2.078432,0.27975044,-0.26868734,-0.78552014,-0.486093,-0.41716388,0.79813164,-0.5893907,0.5586373,0.0774765,0.7387621,-0.96161413,-1.9277146,-1.1672086,1.8383018,1.6882292,-0.8372448,0.8044109,-0.9212341,-1.8914666,-1.2282896,1.88532,1.645015,-0.84232885,-1.3297541,-0.7982467,-0.57171136,1.8351007,-1.1338537,1.2225922,0.25685713,-0.012664795,-0.59272575,0.77283293,-1.8317747,0.010987177,-0.11806582,-0.028312683,-0.57758904,0.72370267,0.8378298,0.018437367,0.1979653,0.5084396,-1.4973834,-0.14700562,-0.13479382,1.0,0.0,0.0,0.0,0.0,0.0,0.0,-0.6373352,0.19272575,-0.22283292,-15.799379,9.869933,-9.946108,-15.181017,23.353148,-16.971779,-3.7942946
-18.16597,46.195652,8.860581,7.6982813,0.7598716,-0.047493577,0.10131949,-0.7724154,-0.43648797,-0.4083461,0.8093315,-0.59465325,0.558539,0.024172265,0.72716933,-0.96488285,-1.9323013,-1.1473565,1.8258547,1.7008688,-0.83991164,0.79043955,-0.92878336,-1.8978658,-1.2113466,1.8752015,1.6561463,-0.8400534,-1.4195658,-0.7410589,-0.6626863,1.6473752,-0.9724834,1.076525,0.21749267,-0.030967712,-0.5926151,0.7709167,-1.8299433,0.010976192,-0.21613373,-0.04335022,-0.5790024,0.72201514,0.84376997,0.015505257,0.20197153,0.4970102,-1.5059385,-0.12743829,-0.18498294,1.0,0.0,0.0,0.0,0.0,0.0,0.0,-0.61903226,0.19261512,-0.22091669,-8.999586,5.569482,-9.066844,-18.776608,15.775824,-14.67495,-4.0159044
-10.711542,33.27946,5.2207885,3.9677365,0.41209063,-0.3898043,0.19104403,-0.7829228,-0.46453205,-0.4728563,0.8087989,-0.56753564,0.5423025,0.010995773,0.71214724,-0.97523654,-1.9451514,-1.1304667,1.818448,1.7103765,-0.8389538,0.77596086,-0.93621534,-1.905272,-1.1959963,1.8662655,1.6659863,-0.8381422,-1.4574895,-0.7443116,-0.7662149,1.4975097,-0.8681658,0.95280236,0.18212603,-0.04925537,-0.5925045,0.7680205,-1.8281137,0.010965218,-0.31410357,-0.058418274,-0.58034706,0.71965563,0.8496451,0.0140966475,0.20548001,0.48547146,-1.5069228,-0.12393767,-0.25668955,0.0,1.0,0.0,0.0,0.0,0.0,0.0,-0.6007446,0.1925045,-0.2180205,-3.813529,-0.41940212,-10.2969885,-14.950871,10.155988,-12.455595,-3.5776079
-4.4399805,35.688377,7.5429215,4.676492,0.27547184,-0.39443773,0.17395669,-0.7756322,-0.4450449,-0.5200147,0.8097726,-0.57701576,0.5660645,0.034559336,0.69839764,-0.9807198,-1.9572735,-1.1150191,1.808564,1.7225927,-0.8346863,0.7614164,-0.94376844,-1.9136853,-1.1816702,1.8579667,1.6747677,-0.83652765,-1.4535648,-0.7592255,-0.86592627,1.410975,-0.8180291,0.85278124,0.15435152,-0.06752014,-0.5923939,0.7641454,-1.826286,0.010954255,-0.41197547,-0.07343292,-0.58166313,0.7166448,0.85540336,0.013983042,0.20866415,0.4738657,-1.4988023,-0.121368095,-0.31897673,0.0,1.0,0.0,0.0,0.0,0.0,0.0,-0.58247983,0.19239387,-0.21414536,0.36182404,-1.5892506,-9.844696,-8.60827,4.747772,-10.083985,-2.8359265
-3.5679107,34.976555,7.896801,6.5729704,0.4361161,-0.36164248,0.12687406,-0.7699782,-0.4684683,-0.56255215,0.8111781,-0.57496065,0.5651697,0.08917256,0.68441856,-0.99061525,-1.9699405,-1.1005523,1.8004706,1.7312847,-0.8276104,0.7470712,-0.9516105,-1.9230294,-1.1677828,1.8499272,1.6826813,-0.8351105,-1.428154,-0.7929273,-0.9567033,1.3815361,-0.79983026,0.77062863,0.13727523,-0.08576965,-0.59228325,0.75929224,-1.82446,0.010943304,-0.5097496,-0.088394165,-0.5829773,0.71305764,0.86103165,0.014937371,0.21165435,0.46217272,-1.4954017,-0.12145156,-0.37475002,0.0,1.0,0.0,0.0,0.0,0.0,0.0,-0.5642303,0.19228324,-0.20929223,2.529788,-3.4719944,-8.924699,-2.85182,1.5898824,-8.313465,-1.7502755
-6.6167774,30.88882,6.222765,8.187364,0.65527403,-0.28943694,0.070576616,-0.77090144,-0.51258206,-0.60498905,0.80819076,-0.582898,0.58155364,0.08967797,0.66998106,-1.0028687,-1.9835284,-1.0869637,1.7916374,1.7408367,-0.82614267,0.7329959,-0.9599647,-1.9332147,-1.1539316,1.8419163,1.6898949,-0.8338316,-1.4006557,-0.85000837,-1.0387983,1.3868383,-0.80221593,0.70472467,0.12471933,-0.10399628,-0.5921726,0.7534621,-1.8226359,0.010932364,-0.607426,-0.10340881,-0.5843029,0.7089009,0.8665475,0.016800089,0.21447618,0.4503477,-1.5039982,-0.12292074,-0.43209636,0.0,1.0,0.0,0.0,0.0,0.0,0.0,-0.5460037,0.19217262,-0.20346206,2.77462,-5.814445,-8.061337,0.6979227,-0.42561293,-6.713116,-1.2649014
-3.0477061,38.202137,10.407923,8.86209,0.71934175,-0.017589271,0.09666151,-0.75070864,-0.526788,-0.5839731,0.80618775,-0.5923514,0.61542165,0.089338996,0.65792507,-1.0126435,-1.991612,-1.0733129,1.7826812,1.7514371,-0.8248977,0.71923536,-0.96888155,-1.9438748,-1.1399221,1.8337948,1.6965668,-0.83265764,-1.3679234,-0.90607065,-1.0741442,1.4059422,-0.8163811,0.6543577,0.11492232,-0.12220764,-0.592062,0.74664795,-1.8208137,0.010921433,-0.7060699,-0.11846924,-0.58556175,0.70429,0.8719156,0.019314496,0.21715784,0.4384434,-1.5056924,-0.11348734,-0.4735558,0.0,1.0,0.0,0.0,0.0,0.0,0.0,-0.52779233,0.19206199,-0.19664794,3.2570124,-5.734062,-3.2832623,2.0479202,-1.6770601,-5.1624656,-0.98528266
-2.2137353,40.5556,11.832848,9.153296,0.79328924,0.142569,0.110714346,-0.7374843,-0.56157273,-0.5879517,0.81438243,-0.60235983,0.62721306,0.10081263,0.64548695,-1.0250388,-2.00267,-1.0584838,1.7735589,1.7592881,-0.82257634,0.70579237,-0.9783887,-1.9546819,-1.1256762,1.8254921,1.7028172,-0.83155805,-1.3365197,-0.9660535,-1.0820321,1.4314371,-0.83572173,0.6149164,0.10833902,-0.14040375,-0.5919514,0.7388481,-1.8189932,0.010910513,-0.80461514,-0.13352966,-0.5866871,0.6993127,0.8771045,0.02227939,0.21969898,0.42652506,-1.5063245,-0.098637484,-0.5086491,0.0,1.0,0.0,0.0,0.0,0.0,0.0,-0.5095962,0.19195136,-0.18884808,3.1093597,-6.1365843,-0.4869938,2.6869774,-2.231729,-4.0773273,-0.64971
3.6955233,45.144276,15.008875,7.61163,0.7382365,0.27460504,0.19748834,-0.7060423,-0.59246165,-0.55549943,0.81130785,-0.5851703,0.64021176,0.12876172,0.63518816,-1.0376348,-2.0102317,-1.0445454,1.7669752,1.7668384,-0.8186819,0.6927335,-0.9884873,-1.9653807,-1.1112748,1.8170012,1.708684,-0.8304868,-1.2960085,-1.0250236,-1.0635079,1.4439073,-0.8533445,0.5777884,0.10657254,-0.15890503,-0.59075165,0.734252,-1.8504431,0.14125752,-0.3982943,-0.14850616,-0.58764267,0.6940135,0.88205963,0.02557959,0.22206602,0.41473246,-1.4934382,-0.08095442,-0.5395663,0.0,1.0,0.0,0.0,0.0,0.0,0.0,-0.49109495,0.19075164,-0.18425196,3.8880348,-6.0896754,3.1535625,1.7464399,-1.5094638,-3.2780886,-0.22877604
3.658708,70.755135,24.65455,12.464277,1.0690411,0.8650248,0.12602642,-0.7296326,-0.5160775,-0.47711092,0.814004,-0.58048373,0.6239788,0.104951814,0.6197703,-1.0400951,-2.0130918,-1.0298744,1.7589529,1.7710818,-0.8199916,0.67987704,-0.99867064,-1.9754101,-1.0967737,1.8084325,1.7142502,-0.82945013,-1.2826935,-1.0168678,-0.9808378,1.452118,-0.86009055,0.54900277,0.102604,-0.1774292,-0.58901024,0.73062813,-1.8532264,0.18571313,-0.35308695,-0.16327667,-0.58820915,0.688794,0.8867608,0.028872661,0.22438842,0.40307748,-1.4693755,-0.035415582,-0.5192686,0.0,1.0,0.0,0.0,0.0,0.0,0.0,-0.47257078,0.18901023,-0.18062812,1.1826754,0.5950451,8.84943,0.77762604,-1.2474418,-3.0503035,-0.43562055
2.711124,85.482445,29.194916,15.342894,1.2110212,1.1342816,0.07599867,-0.73229295,-0.473876,-0.46005416,0.80770296,-0.5889588,0.6353497,0.09538804,0.60664773,-1.0460582,-2.0214155,-1.0160035,1.7495366,1.7777852,-0.8199113,0.6670387,-1.0084212,-1.9845659,-1.0822626,1.7998672,1.7196014,-0.82845575,-1.2847402,-0.9620164,-0.8913885,1.4504589,-0.8579393,0.52999073,0.09797616,-0.1954956,-0.5868988,0.7274706,-1.7919605,0.21915846,-0.30640766,-0.177742,-0.5882225,0.68396044,0.89119995,0.03198039,0.22684611,0.3915106,-1.4389951,0.022368932,-0.47455508,0.0,1.0,0.0,0.0,0.0,0.0,0.0,-0.45450437,0.1868988,-0.17747056,-0.38120747,5.2224994,9.618044,-0.27780533,-0.4988432,-2.0506144,-0.5660042
2.416584,100.25826,33.40385,18.35181,1.3469772,1.2915338,0.029879902,-0.7305576,-0.3981377,-0.4430148,0.81075275,-0.5779406,0.631715,0.13882485,0.59398293,-1.0482349,-2.0288672,-1.0011873,1.742073,1.7827729,-0.8145733,0.6541345,-1.0172483,-1.9929243,-1.0677841,1.7913808,1.724795,-0.8274733,-1.293,-0.8572124,-0.81468475,1.4463995,-0.8483598,0.5151795,0.09777754,-0.21286774,-0.5844288,0.7249463,-1.7199893,0.25568876,-0.23745926,-0.19185638,-0.5875988,0.6797449,0.8953627,0.034852788,0.22963755,0.37997052,-1.4006242,0.08775071,-0.40672833,0.0,1.0,0.0,0.0,0.0,0.0,0.0,-0.43713224,0.18442878,-0.17494631,-1.0308743,10.180891,8.417404,-0.5783558,0.1521349,-1.644814,-0.18267035
-0.401021,101.07409,31.923998,19.424515,1.3644453,1.184691,0.0036398843,-0.7346483,-0.35196146,-0.4574142,0.8084434,-0.57708216,0.62870556,0.17067964,0.5806697,-1.0524445,-2.0386658,-0.9869397,1.7336725,1.7876655,-0.8104053,0.64112455,-1.0249254,-2.000813,-1.0533588,1.7829958,1.7298613,-0.82646525,-1.3043253,-0.7387286,-0.7777701,1.4407316,-0.8379166,0.50309265,0.10118659,-0.22953033,-0.58161545,0.7230787,-1.649127,0.28945452,-0.17236143,-0.20561981,-0.5863457,0.67618185,0.8992454,0.037601914,0.23288406,0.36838654,-1.3649552,0.14910676,-0.34181914,0.0,1.0,0.0,0.0,0.0,0.0,0.0,-0.42046964,0.18161544,-0.17307872,-1.3249159,11.547446,4.4088483,-0.72095394,0.26817322,-1.3926983,0.15823841
-1.7371528,100.43485,30.686018,19.806341,1.4127494,1.0986772,-0.011739753,-0.73993987,-0.2984132,-0.4436609,0.8037277,-0.56440353,0.63211954,0.16074507,0.56713057,-1.0547667,-2.0451791,-0.97298604,1.7265555,1.7930732,-0.8103908,0.6279934,-1.0314084,-2.0084774,-1.0390041,1.7747403,1.734826,-0.82542944,-1.3166347,-0.6190446,-0.7601943,1.4333622,-0.82413226,0.49346647,0.10379848,-0.24549103,-0.5784836,0.721827,-1.5794357,0.3205694,-0.111763805,-0.21903229,-0.5845032,0.6732408,0.9028533,0.04032032,0.23661177,0.35671425,-1.331492,0.20682564,-0.28005284,0.0,1.0,0.0,0.0,0.0,0.0,0.0,-0.40450895,0.17848358,-0.17182696,-1.420784,11.674536,2.461779,-0.8810282,0.62447786,-1.1672795,0.078861415
-9.653549,74.76433,19.566586,17.257977,1.2931838,0.64691585,1.527369e-06,-0.7549445,-0.33516228,-0.5069233,0.79895693,-0.5696567,0.616556,0.17316465,0.55249894,-1.0649247,-2.0591698,-0.9591084,1.7177746,1.7964816,-0.808113,0.61470103,-1.0371648,-2.0163853,-1.02472,1.7665734,1.7396904,-0.82436043,-1.3337924,-0.5619898,-0.7992564,1.4266376,-0.8160567,0.48349035,0.10749466,-0.26094818,-0.57512283,0.72079015,-1.5349562,0.34112713,-0.10184891,-0.23230743,-0.582222,0.67055476,0.9062301,0.04329164,0.24065495,0.34490284,-1.3238062,0.24554326,-0.26627532,0.0,1.0,0.0,0.0,0.0,0.0,0.0,-0.3890518,0.17512283,-0.17079014,-1.81005,5.477524,-3.4233809,-0.6812811,0.28921366,-1.1981726,0.2439931
-14.465119,53.785282,10.942778,14.439356,1.094603,0.291044,0.054172166,-0.7608839,-0.35255423,-0.56448066,0.79518175,-0.57303244,0.61220163,0.24308269,0.53861266,-1.0724202,-2.0728333,-0.94520175,1.7092702,1.8009106,-0.80005217,0.60124373,-1.0427438,-2.0250103,-1.010495,1.7584386,1.7444603,-0.82320553,-1.3497975,-0.55709976,-0.88266087,1.4213102,-0.8136447,0.47414455,0.117828295,-0.27611542,-0.5716171,0.7195366,-1.5104526,0.35358062,-0.1328581,-0.24565125,-0.5796604,0.6677063,0.9094044,0.04681614,0.2448179,0.3329506,-1.3341846,0.27002913,-0.2922857,0.0,1.0,0.0,0.0,0.0,0.0,0.0,-0.37388456,0.17161712,-0.16953659,-1.6217709,0.31571388,-8.036804,-0.44767857,-0.08246899,-1.1198103,0.9429455
-13.660532,47.714844,9.067268,12.9754715,1.0514578,0.210612,0.09869516,-0.75952196,-0.34902883,-0.5744867,0.7985079,-0.5619981,0.6174603,0.28883958,0.52529156,-1.0776467,-2.082459,-0.93064415,1.7022388,1.8062063,-0.7943216,0.5876758,-1.0484468,-2.0344517,-0.99628764,1.7503396,1.7491506,-0.821917,-1.3592422,-0.5753015,-0.963643,1.420821,-0.80959266,0.46653557,0.1323614,-0.29106903,-0.56801605,0.71788865,-1.4908681,0.36332765,-0.17523754,-0.25909424,-0.5768833,0.66452146,0.9123795,0.050963264,0.24896508,0.32090914,-1.3475707,0.29107788,-0.32829133,0.0,1.0,0.0,0.0,0.0,0.0,0.0,-0.35893095,0.16801605,-0.16788864,-0.95591545,-1.9779205,-7.813561,0.05633831,0.11690855,-0.96494555,1.3875753
-11.392574,46.322716,9.242455,11.929888,1.0889136,0.22301257,0.13999245,-0.75995415,-0.36178395,-0.5837247,0.79726857,-0.540225,0.6168557,0.3280076,0.51168036,-1.0846251,-2.0928242,-0.91656077,1.6963171,1.8108362,-0.78911626,0.5740535,-1.0544382,-2.0445533,-0.98207617,1.7423387,1.753774,-0.8204625,-1.3633054,-0.60764635,-1.0248995,1.4216244,-0.7979416,0.46002507,0.14978562,-0.30583954,-0.56432724,0.71579546,-1.4718921,0.37192935,-0.22065116,-0.27268982,-0.5738888,0.6609697,0.91515595,0.055656027,0.25297675,0.30886045,-1.3596969,0.3121741,-0.3651796,0.0,1.0,0.0,0.0,0.0,0.0,0.0,-0.34416044,0.16432723,-0.16579545,-0.42927265,-3.3877254,-5.808425,0.18386841,0.8663416,-0.8574724,1.6916871
-6.383692,44.63841,9.899468,9.858068,1.0412879,0.21837753,0.2121498,-0.747576,-0.3953488,-0.5861335,0.79584265,-0.5222721,0.61818814,0.39366966,0.49929592,-1.0939732,-2.1031666,-0.9024919,1.6901114,1.8155929,-0.78109556,0.560477,-1.0608774,-2.0550663,-0.9678597,1.734501,1.7583411,-0.81879747,-1.3559862,-0.6564805,-1.0587325,1.4219956,-0.7801338,0.45485026,0.1720956,-0.32041168,-0.56056404,0.7132279,-1.4520156,0.37878188,-0.26822114,-0.2863617,-0.5707073,0.65704113,0.9177307,0.060769126,0.2567246,0.296934,-1.3659805,0.3314767,-0.4028911,0.0,1.0,0.0,0.0,0.0,0.0,0.0,-0.3295883,0.16056404,-0.16322792,0.6875992,-5.021441,-3.0338764,0.12304783,1.4585376,-0.7455647,2.2126675
-3.0831337,42.93855,10.369716,8.469177,1.0816754,0.24463195,0.24178737,-0.7418598,-0.43883213,-0.57061625,0.7977803,-0.5033162,0.61569166,0.4101622,0.48629105,-1.1047606,-2.112128,-0.88808167,1.6841694,1.8199103,-0.77778125,0.54701304,-1.0679327,-2.0656705,-0.9536307,1.7268755,1.7628624,-0.816913,-1.3433334,-0.7222817,-1.0593998,1.4234457,-0.75767213,0.45035204,0.19404593,-0.3347931,-0.5567398,0.71015465,-1.4324317,0.3844991,-0.31807584,-0.30007935,-0.5673294,0.6527384,0.9201221,0.06614339,0.26008186,0.2852329,-1.3693852,0.35052595,-0.44025442,0.0,1.0,0.0,0.0,0.0,0.0,0.0,-0.3152069,0.1567398,-0.16015464,1.2075901,-6.706488,0.3136158,0.23005009,1.9051313,-0.6783068,2.2113948
2.5946279,44.36212,12.524673,7.0341396,1.1805706,0.33061188,0.26837528,-0.7272338,-0.4858578,-0.50750625,0.79894805,-0.47668374,0.6173039,0.42157245,0.47428966,-1.1165185,-2.1164212,-0.8737359,1.6792072,1.8245928,-0.7747558,0.53373116,-1.075749,-2.075871,-0.9393847,1.7195219,1.7673464,-0.8148199,-1.3234626,-0.80170363,-1.0056311,1.4251494,-0.7291879,0.44691008,0.21462847,-0.348938,-0.55286026,0.7066313,-1.4090319,0.3897002,-0.3634213,-0.31376648,-0.56375885,0.6481205,0.9223629,0.07152665,0.26291633,0.2738714,-1.3650651,0.37043852,-0.46995038,0.0,1.0,0.0,0.0,0.0,0.0,0.0,-0.301062,0.15286025,-0.15663129,1.8962383,-8.058966,5.8342695,0.22954941,2.445054,-0.56924224,2.115068
5.005592,51.401115,14.841898,7.4862146,1.1484659,0.41887772,0.27533793,-0.7199932,-0.4912868,-0.49325547,0.7942182,-0.49676812,0.59372884,0.46508148,0.46173185,-1.1248777,-2.1251965,-0.8599629,1.6698451,1.8267193,-0.76831174,0.52065057,-1.0842234,-2.0854416,-0.92515004,1.7123507,1.7717822,-0.8125114,-1.3032786,-0.8631045,-0.9393638,1.4229567,-0.7143675,0.44190323,0.23639853,-0.3628006,-0.5489254,0.7027199,-1.3774986,0.39473212,-0.39770466,-0.32733917,-0.55997276,0.64328635,0.92444885,0.076818064,0.26528886,0.2628973,-1.3504004,0.39241195,-0.48925534,0.0,1.0,0.0,0.0,0.0,0.0,0.0,-0.28719938,0.1489254,-0.15271991,1.8972635,-6.272614,7.1665645,-0.20074844,0.9873271,-0.71064234,2.2042036
5.24856,52.377926,15.044895,7.545106,1.2051716,0.4355112,0.2649107,-0.7139051,-0.5320005,-0.45519847,0.7918456,-0.4737527,0.57401085,0.4879845,0.44926006,-1.1374234,-2.1309614,-0.8459655,1.6649754,1.8291832,-0.76371294,0.507753,-1.0933024,-2.0942798,-0.91095257,1.7053399,1.776157,-0.8099889,-1.2856477,-0.92332673,-0.863343,1.4187413,-0.6981079,0.43541777,0.25766188,-0.37634277,-0.54494476,0.6984706,-1.3456502,0.39903715,-0.43174666,-0.34075928,-0.5559654,0.63827616,0.92639637,0.081970975,0.26721808,0.25231916,-1.3347187,0.41463766,-0.5063902,0.0,1.0,0.0,0.0,0.0,0.0,0.0,-0.2736572,0.14494476,-0.14847058,1.6435623,-6.155944,8.154785,-0.39737225,1.1109352,-0.8543432,2.1674275
4.3503647,54.780476,15.391816,8.140331,1.32291,0.4658242,0.2519739,-0.713287,-0.55644256,-0.4114393,0.7806815,-0.43793437,0.5255564,0.5338765,0.43642431,-1.1489466,-2.1354237,-0.83288443,1.6615465,1.8287127,-0.7566013,0.4949814,-1.1029251,-2.1023169,-0.8968466,1.6985598,1.7804351,-0.80724233,-1.2746446,-0.9758531,-0.7819482,1.4079673,-0.67287606,0.42464194,0.28061375,-0.3895645,-0.540926,0.69389254,-1.3133898,0.40305012,-0.4642049,-0.35401917,-0.55171776,0.63312894,0.9282374,0.086949654,0.26867825,0.24213026,-1.3191609,0.43864217,-0.51923656,0.0,1.0,0.0,0.0,0.0,0.0,0.0,-0.26043546,0.14092597,-0.14389253,0.9839058,-5.392456,8.706117,-1.0492325,1.9792438,-1.2928069,2.3531616
10.203682,55.71049,17.498693,6.5024786,1.6358657,0.5225824,0.26020482,-0.696202,-0.61169493,-0.27419475,0.7626821,-0.31896025,0.48977795,0.553273,0.42536122,-1.1640946,-2.1297364,-0.8205784,1.6666638,1.8294129,-0.75191504,0.4823514,-1.1131752,-2.1090872,-0.8829238,1.6923538,1.7845855,-0.8042708,-1.2595866,-1.04163,-0.6398393,1.3869481,-0.6050197,0.41105926,0.30313665,-0.40245056,-0.5368748,0.6890145,-1.2799484,0.40625837,-0.49372035,-0.36710358,-0.54722404,0.6279282,0.93006486,0.09146226,0.26943535,0.232419,-1.3000544,0.46277848,-0.5220204,0.0,1.0,0.0,0.0,0.0,0.0,0.0,-0.24754941,0.13687477,-0.13901448,1.3675213,-6.705761,14.846516,-2.1008492,6.177628,-1.5793622,2.3759842
10.581839,60.849216,20.362064,7.468112,2.575824,0.6973782,0.17454186,-0.7169581,-0.644404,-0.10638007,0.7179757,-0.033441532,0.3616806,0.5523958,0.4106556,-1.1776155,-2.1197252,-0.81112623,1.6890097,1.8207536,-0.74903125,0.46974143,-1.1240928,-2.1138551,-0.8693986,1.6876261,1.7885094,-0.80109286,-1.2618834,-1.1088598,-0.4203333,1.3410692,-0.43079984,0.38535413,0.32352492,-0.41503143,-0.532774,0.6838819,-1.2492741,0.41209844,-0.517282,-0.3800583,-0.5424156,0.62287927,0.93208647,0.09497993,0.26899776,0.22323462,-1.2896845,0.49724925,-0.5012514,0.0,1.0,0.0,0.0,0.0,0.0,0.0,-0.23496854,0.13277397,-0.13388187,-0.3663063,-6.855488,22.652107,-4.5929193,16.727102,-2.8185666,2.2674978
18.267609,71.263466,26.016376,6.577215,3.3399007,0.9308946,0.14814208,-0.72274864,-0.6592086,0.12462021,0.63324875,0.25310838,0.2051111,0.5372251,0.39746657,-1.1900136,-2.101393,-0.8060737,1.712937,1.8090205,-0.74737036,0.4570436,-1.1355884,-2.1156778,-0.85668606,1.6853814,1.7920717,-0.79774237,-1.2729924,-1.1634359,-0.10016182,1.2477077,-0.15825914,0.34572005,0.33989948,-0.42723846,-0.5286064,0.6786603,-1.2103328,0.41895846,-0.5213922,-0.3928604,-0.5371971,0.6182803,0.9345161,0.096841834,0.26685074,0.21469016,-1.271362,0.53972024,-0.4482593,0.0,1.0,0.0,0.0,0.0,0.0,0.0,-0.22276151,0.12860641,-0.12866026,-1.2750387,-5.5968046,32.844257,-9.418941,26.427492,-4.198474,1.9094408
18.678066,66.009026,22.923573,2.6149285,2.6727982,0.6457979,0.29636863,-0.7448931,-0.66336155,0.14407554,0.48096493,0.3522286,-0.20647293,0.5147856,0.3825543,-1.2019246,-2.1012702,-0.8085896,1.7206043,1.7714244,-0.7462638,0.444127,-1.1474712,-2.114743,-0.8455156,1.6858546,1.7949595,-0.7942714,-1.2983081,-1.197012,0.16010174,1.0732569,0.113728665,0.26928943,0.35011527,-0.43907166,-0.5243988,0.673318,-1.1739037,0.421891,-0.53812915,-0.40542603,-0.5316353,0.61403763,0.9373764,0.097211465,0.2628236,0.20687935,-1.2458136,0.5710248,-0.41893137,0.0,1.0,0.0,0.0,0.0,0.0,0.0,-0.21092832,0.1243988,-0.12331802,-2.6593924,-3.4741402,26.626406,-17.526865,26.53836,-7.7703476,1.2107193
0.24572515,50.54535,10.688943,4.32097,1.4335421,-0.07096058,0.28085726,-0.7499285,-0.63276076,-0.168321,0.452421,0.4129946,-0.39783958,0.53962916,0.36913413,-1.2107472,-2.131575,-0.80027354,1.727154,1.7551756,-0.7403085,0.4309606,-1.159394,-2.1134574,-0.83599794,1.6887078,1.7969815,-0.7907066,-1.3228054,-1.190886,0.11824694,0.9115023,0.34186217,0.1795934,0.35901684,-0.45069885,-0.52017975,0.66750544,-1.1592914,0.42196327,-0.5956273,-0.41788483,-0.52589035,0.60962945,0.9404828,0.09732101,0.25733823,0.19949377,-1.2433015,0.58574384,-0.45105758,0.0,1.0,0.0,0.0,0.0,0.0,0.0,-0.19930112,0.12017974,-0.11750543,-2.4801493,0.53236485,-4.100433,-16.08926,22.61976,-9.02471,1.0006547
-8.306419,59.792442,9.50132,10.773527,1.1792774,-0.30068922,0.105604514,-0.7310879,-0.5857458,-0.24173838,0.49907434,0.44440094,-0.46648684,0.59470457,0.3578518,-1.2179686,-2.1376312,-0.7860905,1.733148,1.7503327,-0.7312361,0.41769695,-1.1709335,-2.1136672,-0.8274721,1.6933751,1.7981244,-0.78702646,-1.3275461,-1.1419435,-0.06699831,0.8335121,0.5080936,0.092438936,0.37122247,-0.4621582,-0.5159683,0.661179,-1.1407512,0.42067367,-0.64480466,-0.43038177,-0.5200176,0.60489905,0.9436359,0.09803516,0.25106418,0.19211252,-1.2472304,0.5967493,-0.48307407,0.0,1.0,0.0,0.0,0.0,0.0,0.0,-0.18784177,0.11596832,-0.111178994,-0.47347546,4.8015833,-18.503485,-7.641411,16.529577,-8.7865505,1.2875319
-8.527527,61.02887,9.413111,11.437458,0.88596874,-0.27313447,0.09318875,-0.7363969,-0.5894814,-0.23751141,0.4489194,0.44258118,-0.5117762,0.606727,0.34405726,-1.2298816,-2.1374185,-0.78258014,1.7376332,1.7469468,-0.72635376,0.40442657,-1.1819904,-2.1157997,-0.81952804,1.6992036,1.7984525,-0.783226,-1.3268808,-1.0940144,-0.2614971,0.7818574,0.6071432,0.012538169,0.3831011,-0.4733963,-0.5117817,0.65440625,-1.1185135,0.41820213,-0.6898093,-0.4428711,-0.51404953,0.5998331,0.9467105,0.09962364,0.24441116,0.18460046,-1.2457387,0.60605913,-0.51706403,0.0,1.0,0.0,0.0,0.0,0.0,0.0,-0.17660367,0.11178169,-0.10440624,0.06477833,4.69265,-19.373222,-5.022621,9.776759,-8.090003,1.2253761
-5.4654303,74.02136,14.209008,14.009715,1.151598,0.0140090585,0.022698248,-0.73748934,-0.55424666,-0.20810187,0.4404146,0.44155946,-0.5373066,0.610898,0.33067763,-1.2374151,-2.1366098,-0.7754866,1.7433596,1.7447219,-0.7221362,0.39118195,-1.1925037,-2.1193435,-0.81188583,1.7056463,1.7980502,-0.77931666,-1.3237945,-1.0376602,-0.3844987,0.7586018,0.655796,-0.058208395,0.39357156,-0.48430634,-0.5076237,0.6473779,-1.082719,0.4150155,-0.70766693,-0.4552765,-0.507946,0.5946353,0.9496506,0.101906225,0.23763704,0.17693913,-1.2332076,0.62146807,-0.523155,0.0,1.0,0.0,0.0,0.0,0.0,0.0,-0.16569364,0.10762367,-0.0973779,0.27287006,5.516553,-12.053072,-2.2599816,4.625678,-7.2089696,1.0308027
13.01063,101.49169,28.346643,15.672011,2.3074262,0.7180786,-0.06267428,-0.71858805,-0.54387116,0.14258724,0.45320904,0.45843774,-0.5211597,0.61473083,0.31932312,-1.2468908,-2.105085,-0.7665649,1.75149,1.7459342,-0.7178436,0.37805414,-1.2025325,-2.1219678,-0.80427736,1.7124037,1.7970355,-0.77531093,-1.3095624,-0.991755,-0.21955523,0.7611957,0.68094695,-0.11642744,0.40254492,-0.4946289,-0.50351715,0.6406641,-1.0149071,0.40879348,-0.65857315,-0.4673462,-0.50160027,0.5899507,0.9525406,0.10375419,0.2307327,0.1693041,-1.1929134,0.6484143,-0.45226514,0.0,1.0,0.0,0.0,0.0,0.0,0.0,-0.15537107,0.103517145,-0.09066409,1.2871981,4.4639587,17.11819,0.13048649,2.0537853,-5.9516163,0.7946193
21.24594,93.469215,28.30127,10.099103,2.145053,0.78279305,0.10462246,-0.72597426,-0.5649003,0.19441797,0.34785894,0.52705765,-0.57881254,0.61871064,0.3054567,-1.2590226,-2.102526,-0.7694915,1.7651094,1.7391542,-0.7134399,0.3650279,-1.212342,-2.1223302,-0.7970562,1.7194879,1.7954735,-0.7712243,-1.3007236,-0.9777858,0.026906714,0.70870537,0.71613735,-0.16963194,0.41044968,-0.50427246,-0.49949837,0.6344064,-0.9486576,0.39961165,-0.61513,-0.4789505,-0.49502182,0.58590615,0.9554635,0.104541905,0.22342785,0.1619887,-1.1448927,0.6696857,-0.3906079,0.0,1.0,0.0,0.0,0.0,0.0,0.0,-0.14572752,0.09949836,-0.084406376,0.7622242,1.2934446,25.22919,-5.3678274,3.0813336,-5.383423,0.70783496
24.63689,103.88392,30.808096,11.285025,2.097714,0.80538917,0.096813165,-0.70094633,-0.48439136,0.20806417,0.3480248,0.55804795,-0.5749611,0.61743855,0.29493326,-1.2607812,-2.1015239,-0.7622537,1.7752928,1.7379774,-0.70948046,0.35217762,-1.2217624,-2.120412,-0.7903502,1.726962,1.793448,-0.7670701,-1.2801117,-0.93047994,0.24839243,0.65757763,0.7565877,-0.21352151,0.4166865,-0.5131912,-0.49560356,0.62873757,-0.8738258,0.38617307,-0.551628,-0.49001312,-0.48825836,0.58258367,0.9584026,0.104184136,0.21578935,0.15506469,-1.088865,0.68679225,-0.31496438,0.0,1.0,0.0,0.0,0.0,0.0,0.0,-0.13680875,0.095603555,-0.07873756,1.9597292,4.6224117,22.674223,-5.2119017,3.6781669,-4.3933096,0.52109957
34.63112,101.54164,30.98057,6.9679394,1.5442371,0.66288334,0.23294835,-0.66082925,-0.47132987,0.3114619,0.29230663,0.56955755,-0.56868476,0.61449224,0.2860947,-1.2688954,-2.0892658,-0.76111954,1.7839177,1.7365795,-0.7056209,0.33969545,-1.230706,-2.1163926,-0.7843131,1.7348138,1.7910504,-0.7628661,-1.2378775,-0.88262206,0.4545243,0.5854618,0.79349214,-0.2482788,0.42127252,-0.5213318,-0.49188995,0.62373036,-0.79555786,0.36657608,-0.48591906,-0.50040436,-0.4814415,0.57995254,0.961316,0.102710664,0.20789269,0.14866972,-1.0201586,0.68786365,-0.24812621,0.0,1.0,0.0,0.0,0.0,0.0,0.0,-0.12866819,0.09188995,-0.07373035,4.1335106,4.682839,21.078867,-7.288182,3.3911347,-3.3984513,0.35362244
29.100054,94.6009,26.906378,7.097452,1.1992737,0.4441368,0.2347708,-0.6511428,-0.44257563,0.2935708,0.2678844,0.604229,-0.55754787,0.6204913,0.27458116,-1.2749635,-2.0870354,-0.75752467,1.7952367,1.7352957,-0.7008169,0.32763675,-1.2391381,-2.1110013,-0.77897096,1.7430515,1.7883643,-0.75861824,-1.1953269,-0.83027697,0.56846225,0.5171958,0.8330863,-0.27511013,0.42577782,-0.5287552,-0.4883747,0.6192767,-0.72726446,0.34701517,-0.43580905,-0.51018524,-0.47464943,0.5778306,0.9641546,0.10042854,0.19983014,0.1427858,-0.9614815,0.6840896,-0.20236364,0.0,1.0,0.0,0.0,0.0,0.0,0.0,-0.12124479,0.088374704,-0.06927669,4.210639,5.1449656,11.687099,-6.81206,3.7984252,-2.5719106,0.40100217
36.121883,92.14902,26.533741,3.2161808,0.679402,0.32884416,0.37284082,-0.6139113,-0.40706435,0.36994737,0.1756731,0.6447534,-0.53893286,0.60760486,0.26624563,-1.2798445,-2.0740066,-0.7614036,1.8075268,1.734471,-0.69785774,0.31608155,-1.2470057,-2.1046662,-0.77456707,1.7517297,1.7854649,-0.75434095,-1.1424011,-0.7723649,0.65595275,0.41490877,0.8789299,-0.29425618,0.42818952,-0.53549194,-0.48508644,0.6153069,-0.6577857,0.32341042,-0.3873771,-0.51931,-0.46798325,0.57609063,0.966881,0.09750653,0.19162555,0.1375253,-0.8925556,0.6673524,-0.16669196,0.0,1.0,0.0,0.0,0.0,0.0,0.0,-0.11450803,0.085086435,-0.0653069,5.2485943,5.7071567,8.983982,-10.203182,4.48792,-1.7360568,0.20084977
40.432198,76.863754,22.644573,-3.5151367,-0.025430769,0.17998141,0.60188216,-0.6052734,-0.41563877,0.42397678,0.020849876,0.67962813,-0.5171826,0.59608513,0.2555542,-1.2885696,-2.0622685,-0.7724821,1.8196925,1.7337466,-0.6947324,0.3049847,-1.2544672,-2.0975642,-0.77172714,1.7608865,1.7824243,-0.75005317,-1.0988762,-0.7376023,0.72884667,0.24056149,0.92763436,-0.30642682,0.42888108,-0.54159546,-0.4820423,0.61163515,-0.5958894,0.29869285,-0.36436865,-0.5276871,-0.46157455,0.5744592,0.9694802,0.094065905,0.18311168,0.1331529,-0.8185561,0.6382108,-0.16405056,0.0,1.0,0.0,0.0,0.0,0.0,0.0,-0.10840452,0.08204231,-0.061635137,4.3142557,3.404355,7.4121356,-17.39788,4.856944,-0.9728074,0.064468384
46.771458,57.637917,17.64184,-12.367769,-1.0456544,-0.042172164,0.90296847,-0.5920757,-0.4242097,0.42223892,-0.18155096,0.7022731,-0.48130387,0.57987374,0.24577712,-1.2968882,-2.0553403,-0.78988224,1.8311138,1.7342939,-0.6920658,0.29425257,-1.2617686,-2.0899863,-0.77132887,1.7705029,1.7793186,-0.74577475,-1.0647393,-0.72791046,0.7673955,-0.026939403,0.9729643,-0.31099084,0.42769212,-0.54712677,-0.4792595,0.607939,-0.54193103,0.2721666,-0.37640095,-0.53526306,-0.4555893,0.57252645,0.97192436,0.09033362,0.17406027,0.13002206,-0.73490787,0.59054935,-0.20508407,0.0,1.0,0.0,0.0,0.0,0.0,0.0,-0.102873206,0.079259485,-0.057938993,3.3777952,0.90413094,3.8497329,-26.69611,4.6007037,-0.13881326,-0.070774555
60.69431,35.282913,13.851689,-22.402693,-1.8615857,-0.35892582,1.1364878,-0.5334094,-0.4991964,0.5021725,-0.32771677,0.72981614,-0.4161167,0.5761108,0.24091163,-1.3116882,-2.0397692,-0.8041005,1.8434845,1.7377069,-0.68816364,0.28401726,-1.2694323,-2.0818436,-0.77387726,1.78055,1.7762338,-0.74151284,-1.009889,-0.77945167,0.829728,-0.33053714,1.0153413,-0.30654526,0.42594466,-0.55218506,-0.47676468,0.60387063,-0.49528262,0.24242894,-0.42112422,-0.5419388,-0.45025635,0.5698884,0.9742136,0.08631406,0.16416775,0.12847829,-0.644541,0.5189098,-0.2851515,0.0,1.0,0.0,0.0,0.0,0.0,0.0,-0.09781492,0.07676467,-0.05387062,5.4612637,-5.232489,6.1968565,-30.284008,4.3044806,0.7543266,-0.089496374
46.220695,40.79483,13.4841795,-15.017385,-1.2223864,-0.2696043,0.8918521,-0.5408203,-0.48148265,0.5017958,-0.36606792,0.7359271,-0.35706112,0.5922728,0.22993523,-1.3175806,-2.0316641,-0.81048405,1.8541427,1.7405276,-0.68228555,0.27420348,-1.277569,-2.0732133,-0.7789958,1.7909406,1.7732407,-0.73725235,-0.9716761,-0.8252428,0.873231,-0.5716999,1.0476787,-0.2960638,0.4265769,-0.55682373,-0.47452354,0.5993848,-0.45537415,0.21854939,-0.46161354,-0.5478821,-0.4454975,0.56654054,0.97634023,0.08201874,0.15350457,0.12833141,-0.57498384,0.4642622,-0.35270786,0.0,1.0,0.0,0.0,0.0,0.0,0.0,-0.093176246,0.07452354,-0.049384773,3.8733125,-4.629159,4.1173697,-23.942137,3.4677982,1.313585,0.22044778
46.236824,48.351707,15.947611,-10.834066,-0.8174275,-0.28004378,0.6716756,-0.46658233,-0.50961083,0.54902077,-0.370357,0.7392625,-0.23591487,0.5971034,0.22754525,-1.3285302,-2.0183113,-0.8160315,1.8648669,1.7496492,-0.67754203,0.26499194,-1.2861979,-2.0640821,-0.78577185,1.801578,1.7704389,-0.7329799,-0.90402496,-0.8755377,0.9251311,-0.7122747,1.07024,-0.273887,0.42796114,-0.5610733,-0.47251892,0.5946082,-0.41568512,0.19488443,-0.48521003,-0.5531845,-0.44126892,0.5626665,0.97829354,0.07733148,0.14230232,0.12927315,-0.5143127,0.41187492,-0.400081,0.0,1.0,0.0,0.0,0.0,0.0,0.0,-0.08892667,0.072518915,-0.044608176,6.859219,-5.0421476,4.8686266,-13.859022,2.6113749,2.4882078,0.3072977
53.01052,54.089554,18.150564,-10.943579,-1.0066593,-0.3383025,0.6249311,-0.39136776,-0.52325916,0.5487195,-0.4408902,0.7425279,-0.06877667,0.59224766,0.22585516,-1.3385239,-2.00921,-0.82986087,1.8758309,1.7635612,-0.6737551,0.25669932,-1.2952673,-2.0545683,-0.7936092,1.8123852,1.7679778,-0.7286978,-0.80390996,-0.91756904,0.95905775,-0.806793,1.0855262,-0.23615053,0.42897922,-0.5649109,-0.4707718,0.58967763,-0.37233236,0.16998762,-0.4979069,-0.5578232,-0.4376335,0.5583909,0.980037,0.07219863,0.13079023,0.13118182,-0.44771746,0.35000947,-0.43745247,0.0,1.0,0.0,0.0,0.0,0.0,0.0,-0.08508909,0.07077178,-0.03967762,10.126221,-4.1937947,3.035581,-9.230745,1.955843,4.0630636,0.2945304
62.57178,61.502514,21.490614,-11.182653,-1.1412181,-0.38995034,0.56123775,-0.29018712,-0.54290414,0.5818388,-0.4360249,0.7427162,0.135706,0.57656986,0.22768061,-1.3495578,-1.9963844,-0.83721167,1.8866568,1.7815484,-0.6710408,0.2497251,-1.3047202,-2.0446959,-0.8019345,1.8233002,1.7660321,-0.72441936,-0.6614679,-0.9543887,0.99552613,-0.84028214,1.0950749,-0.1796626,0.42809907,-0.56830597,-0.4693184,0.58474004,-0.3276956,0.13834882,-0.49351954,-0.5617752,-0.43469238,0.55385935,0.98153734,0.06651299,0.11919498,0.13398889,-0.37439343,0.27741802,-0.45878774,0.0,1.0,0.0,0.0,0.0,0.0,0.0,-0.08169401,0.069318384,-0.03474003,14.376486,-3.6490917,3.2815814,-3.119421,1.4457226,5.991092,0.11175275
63.729725,67.81451,23.618076,-9.235063,-1.0185397,-0.39038163,0.4573781,-0.2106567,-0.55821925,0.6117665,-0.41762072,0.7451843,0.25400418,0.5593927,0.22865944,-1.360542,-1.9835192,-0.84369653,1.8978187,1.7914325,-0.6684801,0.244308,-1.3144972,-2.0344224,-0.8102286,1.8342824,1.7647009,-0.72016394,-0.50129,-0.98518705,1.0370089,-0.8249637,1.1010109,-0.116346925,0.42539114,-0.5712509,-0.46816063,0.5799226,-0.28288066,0.108468555,-0.47769526,-0.56500244,-0.43247795,0.54922074,0.9827803,0.060182825,0.107689545,0.13756436,-0.30388358,0.20427972,-0.46570158,0.0,1.0,0.0,0.0,0.0,0.0,0.0,-0.07874906,0.06816062,-0.029922605,16.168583,-3.0313253,3.782916,1.783669,1.115036,6.7156525,-0.06417632
46.324265,78.21472,24.146484,-1.5210438,-0.49540183,-0.1998269,0.26436102,-0.19288473,-0.5228301,0.57902414,-0.4168532,0.7401143,0.26894888,0.54670334,0.22501951,-1.3667803,-1.97652,-0.8519139,1.9082938,1.7915958,-0.6654936,0.24023126,-1.3243124,-2.023985,-0.81823653,1.8452815,1.7639576,-0.715942,-0.37589854,-0.980077,1.0445029,-0.7918047,1.1018363,-0.05882633,0.42183697,-0.57379913,-0.46725273,0.5753305,-0.24401426,0.08291787,-0.45257828,-0.5676193,-0.43083763,0.54464126,0.9837611,0.053348575,0.09646783,0.14164017,-0.24866213,0.15202382,-0.4555831,0.0,1.0,0.0,0.0,0.0,0.0,0.0,-0.07620084,0.067252725,-0.025330484,12.714994,0.59508085,0.30024052,3.6080241,0.70466995,6.170241,-0.12155771
38.65026,77.502335,22.83702,0.1486502,-0.43878296,-0.22855017,0.2240667,-0.13848358,-0.52818483,0.56545985,-0.43398088,0.7447591,0.22377686,0.5291776,0.2263829,-1.377131,-1.9674389,-0.8616346,1.9197574,1.7863353,-0.66302425,0.23725435,-1.334017,-2.013639,-0.8260007,1.8562801,1.763688,-0.7117658,-0.2710401,-0.9670144,1.0300106,-0.7702732,1.1011555,-0.015114712,0.41700247,-0.57601166,-0.46655273,0.570932,-0.2129352,0.06507771,-0.43423522,-0.5697632,-0.42967796,0.5401394,0.98448277,0.046214134,0.08556178,0.1460718,-0.20087408,0.105355546,-0.4486354,0.0,1.0,0.0,0.0,0.0,0.0,0.0,-0.07398832,0.06655273,-0.02093196,10.658562,1.3860226,-1.880455,2.4615407,0.50866604,4.761593,-0.2376914
10.583269,97.17023,24.772472,13.7676325,0.52139115,0.15010893,-0.11938231,-0.14343925,-0.42949918,0.4887678,-0.33904046,0.72539616,0.25819466,0.5479715,0.22291043,-1.376967,-1.9647622,-0.85990477,1.9288197,1.7895074,-0.65696865,0.23495199,-1.3431132,-2.00385,-0.8331818,1.8672116,1.763816,-0.70761925,-0.21598695,-0.8900656,0.9596838,-0.6997797,1.0930711,0.023725694,0.41467026,-0.5779495,-0.4659729,0.5669108,-0.18834825,0.055194296,-0.38959414,-0.57160187,-0.42871094,0.5359662,0.9849738,0.039047256,0.075279385,0.15044902,-0.17789322,0.09472978,-0.40734836,0.0,1.0,0.0,0.0,0.0,0.0,0.0,-0.07205045,0.065972894,-0.016910791,5.6978197,7.8584075,-7.6155663,7.346034,-0.08211136,4.33014,0.009959936
12.291216,104.809555,27.474108,15.078673,0.5305468,0.12607509,-0.16536912,-0.061244294,-0.39887267,0.49871317,-0.27588066,0.71381587,0.26047072,0.54740745,0.22882757,-1.3830005,-1.9539787,-0.86076987,1.9385931,1.7898631,-0.6528785,0.2332964,-1.3513244,-1.9946978,-0.83942825,1.8780311,1.7642823,-0.7034936,-0.14813524,-0.79780936,0.89875466,-0.5987046,1.0805365,0.055875957,0.41259277,-0.57964325,-0.46548843,0.56346977,-0.16370898,0.04602925,-0.32764903,-0.57321167,-0.42786407,0.5323333,0.98526704,0.031903535,0.065815456,0.15459363,-0.1551995,0.08209015,-0.34920976,0.0,1.0,0.0,0.0,0.0,0.0,0.0,-0.07035673,0.06548843,-0.013469756,6.9696336,9.390486,-6.6295505,10.382212,-0.5440712,3.6666632,-0.0034570694
6.8757463,118.737045,31.083271,19.298822,0.7234115,0.26978272,-0.2454332,-0.03849364,-0.30428597,0.47082534,-0.21736717,0.69520485,0.24550201,0.5390489,0.22944704,-1.3817531,-1.9476153,-0.861165,1.9475516,1.7888325,-0.6495887,0.23224902,-1.3583301,-1.9861432,-0.8445447,1.8886873,1.7650149,-0.6993928,-0.08966393,-0.6676119,0.83906966,-0.48181406,1.0630364,0.08058251,0.40980193,-0.58110046,-0.46508026,0.5608502,-0.13996334,0.03946055,-0.23891653,-0.57460785,-0.42707825,0.52948475,0.985395,0.024800422,0.05735387,0.15840481,-0.13490029,0.07765001,-0.2641427,0.0,1.0,0.0,0.0,0.0,0.0,0.0,-0.06889951,0.065080255,-0.010850191,6.032203,13.192892,-6.512606,11.952371,-0.99613667,2.9365273,-0.10778308
-1.794581,151.05154,38.50008,27.182611,0.7488152,0.5197791,-0.3582868,-0.023910798,-0.08243565,0.33213207,-0.14369509,0.6726647,0.23769605,0.53765386,0.22985794,-1.3665737,-1.95293,-0.8589142,1.9559537,1.7887845,-0.6456274,0.23168516,-1.3632245,-1.9786835,-0.8483956,1.8991339,1.7659476,-0.6953197,-0.044658635,-0.42940652,0.7129375,-0.35192314,1.0415783,0.0991012,0.4069278,-0.5822983,-0.46471214,0.55952483,-0.11295358,0.036219403,-0.09648216,-0.5757599,-0.42626953,0.52789354,0.9853855,0.018001076,0.05037614,0.16172111,-0.10834459,0.08250916,-0.12496851,0.0,1.0,0.0,0.0,0.0,0.0,0.0,-0.0677017,0.06471214,-0.009524822,4.6895795,24.018753,-13.205719,13.261247,-1.2736559,2.374269,-0.14652014
10.544718,133.83792,32.83567,19.852238,-0.38082522,-0.17942795,-0.25408113,0.08085024,-0.035640076,0.114431694,-0.07065286,0.63879794,0.19216241,0.49973774,0.23977019,-1.3667885,-1.9672403,-0.8554609,1.9630138,1.7851639,-0.6453459,0.23189832,-1.3658395,-1.9733256,-0.85090256,1.9092859,1.7670023,-0.6913026,0.04367149,-0.20505668,0.47578567,-0.21621576,1.0081035,0.108751304,0.40042093,-0.5832443,-0.46442795,0.55931133,-0.08928653,0.02568226,0.0039025978,-0.57657623,-0.42567062,0.5274008,0.9852614,0.012056337,0.04501568,0.16458502,-0.07198406,0.0532887,-0.024806693,0.0,0.0,1.0,0.0,0.0,0.0,0.0,-0.06675565,0.06442794,-0.009311318,8.93968,22.547522,-24.019087,13.785666,-2.8113127,1.2895554,-0.5232215
7.590456,88.8467,18.832478,13.926649,-0.5887265,-0.7240722,-0.27623448,0.11413878,-0.090064384,-0.028727934,0.020274512,0.60110754,0.24256274,0.47759992,0.2433122,-1.3748459,-1.9761984,-0.8488751,1.9693967,1.7912586,-0.6435426,0.23301964,-1.3670259,-1.9706916,-0.8519602,1.9190059,1.7681731,-0.6873649,0.1350603,-0.089458205,0.19229615,-0.06867455,0.9606085,0.12017043,0.391956,-0.58405304,-0.46425056,0.5594458,-0.07810697,0.01497652,0.016562907,-0.5771713,-0.42541695,0.52729404,0.98508096,0.0073468355,0.040930033,0.16699134,-0.056694977,0.01579019,-0.006661665,0.0,0.0,1.0,0.0,0.0,0.0,0.0,-0.06594694,0.06425056,-0.0094457865,9.167955,11.600555,-28.441816,14.841164,-4.5310736,1.2424603,-0.7438302
-10.206769,87.12678,16.809948,19.010277,-0.017755583,-0.42248255,-0.37894568,0.07443946,0.033814445,-0.13236953,0.06690623,0.5578358,0.2538479,0.4899845,0.24046358,-1.3636444,-1.9839286,-0.84526956,1.9747895,1.7935579,-0.6383664,0.23466353,-1.3670754,-1.9708213,-0.8516817,1.9281722,1.7694458,-0.6834977,0.17417364,0.023427283,-0.08164264,0.060051087,0.9024323,0.1296334,0.38504422,-0.5848007,-0.46412277,0.5596864,-0.07311867,0.012123829,0.026659833,-0.57774353,-0.42534828,0.5273613,0.9849062,0.0039677746,0.037991356,0.16882151,-0.056735326,0.003942353,0.010624333,0.0,0.0,1.0,0.0,0.0,0.0,0.0,-0.065199256,0.064122766,-0.00968641,3.9139152,11.294916,-27.430826,12.873447,-5.660689,0.9492129,-0.6506145
-4.692882,68.424515,12.690826,12.6770525,-0.27659997,-0.4715364,-0.19719015,0.11031791,0.01858132,-0.19553639,0.05854195,0.4954196,0.30750975,0.49451414,0.24569532,-1.3652173,-1.9903749,-0.8458275,1.9777142,1.8001968,-0.6340463,0.23662739,-1.366444,-1.9732627,-0.85053635,1.9366553,1.7708433,-0.6796915,0.20375523,0.076482825,-0.29818726,0.13257718,0.8304229,0.14289263,0.37926543,-0.585495,-0.46403503,0.55980235,-0.06808208,0.007808432,0.0063088345,-0.57826996,-0.42543793,0.5273657,0.9847448,0.0017883729,0.035930697,0.1702453,-0.051594958,-0.013250596,-0.0032327154,0.0,0.0,1.0,0.0,0.0,0.0,0.0,-0.06450498,0.06403503,-0.009802341,2.9451728,5.286271,-21.62933,7.2063565,-7.136464,1.2830704,-0.5724549
