Afshin1997/kuka_rl_ros2/src/catch_and_throw/input_files/idealpd/recorded_trajectories/env_307_data.csv
torque0,torque1,torque2,torque3,torque4,torque5,torque6,action0,action1,action2,action3,action4,action5,action6,set_target_0,set_target_1,set_target_2,set_target_3,set_target_4,set_target_5,set_target_6,joint_pos_0,joint_pos_1,joint_pos_2,joint_pos_3,joint_pos_4,joint_pos_5,joint_pos_6,joint_vel_0,joint_vel_1,joint_vel_2,joint_vel_3,joint_vel_4,joint_vel_5,joint_vel_6,tennisball_pos_0,tennisball_pos_1,tennisball_pos_2,tennisball_lin_vel_0,tennisball_lin_vel_1,tennisball_lin_vel_2,end_effector_pos_0,end_effector_pos_1,end_effector_pos_2,end_effector_rot_0,end_effector_rot_1,end_effector_rot_2,end_effector_rot_3,end_effector_lin_vel_0,end_effector_lin_vel_1,end_effector_lin_vel_2,obs_task_0,obs_task_1,obs_task_2,obs_task_3,obs_task_4,obs_task_5,obs_task_6,to_final_target_0,to_final_target_1,to_final_target_2,joint_acc_0,joint_acc_1,joint_acc_2,joint_acc_3,joint_acc_4,joint_acc_5,joint_acc_6
0.0,0.0,0.0,0.0,0.0,0.0,0.0,0.0,0.0,0.0,0.0,0.0,0.0,0.0,1.7802359,-1.0646509,-1.8151424,-1.1170107,1.9373155,1.1170107,-0.91629785,1.7802359,-1.0646509,-1.8151424,-1.1170107,1.9373155,1.1170107,-0.91629785,0.0,0.0,0.0,0.0,0.0,0.0,0.0,2.9786968,-0.6951752,0.36455736,-3.0790768,0.122023545,5.083855,0.5304165,-0.45448303,0.693097,0.5745483,0.17512383,0.15255436,0.7848268,0.0,0.0,0.0,1.0,0.0,0.0,0.0,0.0,0.0,0.0,-3.628697,0.29517516,0.18544266,0.0,0.0,0.0,0.0,0.0,0.0,0.0
0.0,0.0,0.0,0.0,0.0,0.0,0.0,0.0,0.0,0.0,0.0,0.0,0.0,0.0,1.7802359,-1.0646509,-1.8151424,-1.1170107,1.9373155,1.1170107,-0.91629785,1.7802359,-1.0646509,-1.8151424,-1.1170107,1.9373155,1.1170107,-0.91629785,0.0,0.0,0.0,0.0,0.0,0.0,0.0,2.9786968,-0.6951752,0.36455736,-3.0790768,0.122023545,5.083855,0.5304165,-0.45448303,0.693097,0.5745483,0.17512383,0.15255436,0.7848268,0.0,0.0,0.0,1.0,0.0,0.0,0.0,0.0,0.0,0.0,-3.628697,0.29517516,0.18544266,0.0,0.0,0.0,0.0,0.0,0.0,0.0
0.0,0.0,0.0,0.0,0.0,0.0,0.0,0.0,0.0,0.0,0.0,0.0,0.0,0.0,1.7802359,-1.0646509,-1.8151424,-1.1170107,1.9373155,1.1170107,-0.91629785,1.7802359,-1.0646509,-1.8151424,-1.1170107,1.9373155,1.1170107,-0.91629785,0.0,0.0,0.0,0.0,0.0,0.0,0.0,2.9786968,-0.6951752,0.36455736,-3.0790768,0.122023545,5.083855,0.5304165,-0.45448303,0.693097,0.5745483,0.17512383,0.15255436,0.7848268,0.0,0.0,0.0,1.0,0.0,0.0,0.0,0.0,0.0,0.0,-3.628697,0.29517516,0.18544266,0.0,0.0,0.0,0.0,0.0,0.0,0.0
-176.0,58.631233,-9.609749,110.0,11.204861,4.487704,-3.7154887,-0.80733836,0.29146376,-0.53106284,0.7405293,0.3266501,0.67969424,-0.6054024,1.699502,-1.0355045,-1.8682487,-1.0429578,1.9699805,1.1849802,-0.9768381,1.7788798,-1.0626119,-1.8209922,-1.1117731,1.9407163,1.1217142,-0.9159221,-0.1804916,0.27137458,-0.77974975,0.6987148,0.45273545,0.6257817,0.050436836,2.9479294,-0.69395447,0.41462132,-3.0759983,0.12190155,4.980586,0.5283661,-0.4577484,0.6937955,0.5778459,0.17379026,0.15160815,0.7828831,-0.27297118,-0.4340991,0.09293674,1.0,0.0,0.0,0.0,0.0,0.0,0.0,-3.5979295,0.29395446,0.13537869,-17.958513,26.949402,-77.86668,69.984825,45.102978,62.12851,5.1435356
-176.0,-16.37368,-37.785973,110.0,12.803136,1.9950963,-3.423935,-0.7921448,-0.09477333,-0.54078704,0.693657,0.4991594,0.65654165,-0.56373847,1.6996653,-1.0720893,-1.8750709,-1.0424074,1.9906322,1.1873684,-0.97229594,1.7769552,-1.0598558,-1.8354347,-1.0974413,1.9483304,1.1336943,-0.91406053,-0.194221,0.2753426,-1.6676705,1.681068,0.86470085,1.3838896,0.23430881,2.9171925,-0.69273376,0.46365336,-3.072923,0.12177967,4.8774204,0.52371025,-0.46608734,0.69468695,0.5854209,0.17059913,0.14874507,0.7784942,-0.53148943,-0.96563053,0.088365816,1.0,0.0,0.0,0.0,0.0,0.0,0.0,-3.5671926,0.29273376,0.086346656,-0.66084564,-0.058966875,-89.396194,99.19746,41.352783,74.3643,19.243113
-156.20529,113.304634,30.792334,92.57801,8.898275,8.129841,-2.1681604,-0.7746673,0.32384542,-0.005609324,0.6573277,0.49016556,0.7014629,-0.52967286,1.6994885,-1.0274713,-1.8359956,-1.0317086,1.997347,1.2038406,-0.96702784,1.7717367,-1.0561708,-1.8505085,-1.0789057,1.9576554,1.1474615,-0.9121637,-0.63096535,0.39645582,-1.4475905,1.9124485,0.94988614,1.3673944,0.1738385,2.886486,-0.69151306,0.51165456,-3.0698507,0.121657915,4.774358,0.516098,-0.47733307,0.69723386,0.59592974,0.16589206,0.14454196,0.772305,-0.8451882,-1.1708694,0.31435245,1.0,0.0,0.0,0.0,0.0,0.0,0.0,-3.5364861,0.29151306,0.038345456,-43.675327,11.1230135,23.876022,23.53127,6.9607854,-3.7029505,-6.3587217
-99.89205,117.927505,43.3398,58.67339,5.6166806,8.320406,-0.56491876,-0.7863288,0.19972563,0.08908,0.6616061,0.51277494,0.68135315,-0.5641079,1.6931039,-1.0361983,-1.8416004,-1.0127451,2.0089328,1.2155968,-0.96857446,1.7622305,-1.0520319,-1.8606594,-1.0604349,1.9670072,1.1603209,-0.9110612,-1.0583798,0.41735166,-0.8633336,1.8256578,0.92476326,1.2541188,0.08734533,2.8558102,-0.69029236,0.5586259,-3.0667815,0.12153628,4.671398,0.5058298,-0.4893875,0.70184195,0.6076037,0.15986776,0.13911588,0.7654455,-1.0988827,-1.2052625,0.5146629,1.0,0.0,0.0,0.0,0.0,0.0,0.0,-3.5058103,0.29029235,-0.008625865,-43.07009,1.3465106,60.720253,-8.53951,-4.205799,-12.668014,-9.168249
-38.590744,141.34854,57.018898,31.957264,2.2904286,7.9748573,0.32206833,-0.7949566,0.33375573,0.14929928,0.6473838,0.59069014,0.6668862,-0.5841936,1.6827348,-1.0186563,-1.8457295,-0.99569654,2.026076,1.2270095,-0.9694806,1.7492663,-1.0472902,-1.8645294,-1.0440184,1.9760022,1.1718794,-0.9108514,-1.3773663,0.4911747,-0.22119932,1.5797657,0.8867758,1.12089,-0.0035997988,2.8251648,-0.68907166,0.60456836,-3.0637152,0.121414766,4.5685415,0.49366856,-0.5007324,0.7084297,0.61919546,0.15255556,0.13270229,0.7587581,-1.2679771,-1.0965456,0.7096646,1.0,0.0,0.0,0.0,0.0,0.0,0.0,-3.475165,0.28907165,-0.05456835,-32.375,6.804502,66.326996,-24.758076,-5.1013947,-14.010692,-9.81962
1.4867449,132.38406,51.80757,13.146217,-0.11229229,5.7576203,0.48166308,-0.8074219,0.41117316,0.089598104,0.6231663,0.6089926,0.65749055,-0.59914523,1.668524,-1.0061729,-1.8555696,-0.98170173,2.0369015,1.2376285,-0.97076595,1.734183,-1.0415567,-1.8635871,-1.0301615,1.9846978,1.182221,-0.9114751,-1.5532906,0.599471,0.20399699,1.320393,0.86159706,1.0049807,-0.084039874,2.79455,-0.6878586,0.649483,-3.0606523,0.12129338,4.465788,0.48048687,-0.5106354,0.716491,0.6301974,0.14431968,0.12594174,0.7524372,-1.3467134,-0.94063073,0.83870405,1.0,0.0,0.0,0.0,0.0,0.0,0.0,-3.44455,0.28785858,-0.09948301,-17.991352,10.4478,43.906002,-26.16861,-3.1945348,-11.722732,-8.680886
24.854315,131.01132,47.649673,4.764661,-1.6281319,4.0951056,0.25852886,-0.8155071,0.5441333,0.04936224,0.5953444,0.62213826,0.6575632,-0.5859178,1.6526322,-0.9871434,-1.8586509,-0.97062707,2.0469117,1.2479774,-0.9700669,1.7182146,-1.0342687,-1.860255,-1.0184866,1.9932752,1.1915537,-0.91279596,-1.6126405,0.7707719,0.37930918,1.1157205,0.8556339,0.909913,-0.14999369,2.7639656,-0.68665314,0.69337094,-3.0575922,0.121172115,4.363137,0.46697903,-0.51888275,0.7255899,0.64060205,0.1355267,0.11959878,0.74629587,-1.3621845,-0.77012175,0.9321523,1.0,0.0,0.0,0.0,0.0,0.0,0.0,-3.4139657,0.28665313,-0.14337093,-6.274867,16.847408,18.430286,-20.68026,-0.8756399,-9.375799,-7.161081
33.39934,120.884026,41.32124,2.2143347,-2.096242,2.7990813,0.030786397,-0.8157217,0.61089337,0.058484647,0.58108944,0.6139688,0.6574008,-0.5663086,1.6366425,-0.9731794,-1.8544066,-0.9603777,2.054672,1.2572938,-0.9694268,1.7022101,-1.0252126,-1.856406,-1.0082518,2.001843,1.2000662,-0.91466993,-1.5972426,0.94992805,0.38884977,0.9920823,0.8567064,0.8325533,-0.20132442,2.7334118,-0.6854477,0.7362331,-3.0545352,0.12105097,4.260588,0.45356083,-0.52552795,0.73540837,0.65057474,0.12643747,0.11413554,0.74009395,-1.34263,-0.61612326,0.9963606,1.0,0.0,0.0,0.0,0.0,0.0,0.0,-3.383412,0.2854477,-0.1862331,1.2711763,17.717266,1.5495658,-12.541687,0.017523766,-7.536018,-5.595392
31.048689,109.09863,35.495834,3.8549166,-1.8128397,2.0656226,-0.1392728,-0.81796956,0.6630467,0.071738325,0.5761753,0.6137704,0.6597811,-0.5536015,1.6204131,-0.95890796,-1.8492322,-0.95063424,2.06322,1.2660444,-0.97003007,1.6865851,-1.0145258,-1.8530357,-0.9987033,2.010449,1.2079111,-0.91696924,-1.551625,1.1078069,0.32130232,0.9419554,0.8618462,0.7689662,-0.24078225,2.7028885,-0.68424225,0.77807057,-3.0514812,0.12092994,4.158142,0.44038582,-0.5308609,0.745739,0.66030294,0.117190756,0.10965319,0.7336501,-1.3151346,-0.4913986,1.043035,1.0,0.0,0.0,0.0,0.0,0.0,0.0,-3.3528886,0.28424224,-0.22807056,4.3581486,15.643382,-6.332469,-5.1692843,0.5043268,-6.2177896,-4.3213964
23.534485,91.11548,28.022425,5.7470903,-1.2438352,1.4163253,-0.22693875,-0.81379163,0.6854606,0.046419952,0.5723944,0.61806124,0.664506,-0.5423962,1.6052059,-0.9459797,-1.8483937,-0.9414639,2.0722551,1.2743617,-0.9712089,1.6714483,-1.0026163,-1.8506,-0.98929626,2.0191236,1.2152067,-0.91959375,-1.5016005,1.2182819,0.21855128,0.9396908,0.8694762,0.7167785,-0.27068728,2.6723957,-0.6830368,0.8188844,-3.0484302,0.12080903,4.0557985,0.4274521,-0.5352249,0.75635,0.6699292,0.1079207,0.106033415,0.7268458,-1.2907124,-0.40247455,1.0647439,1.0,0.0,0.0,0.0,0.0,0.0,0.0,-3.3223958,0.2830368,-0.26888436,4.8517466,10.950708,-9.983134,-0.40034056,0.8004427,-5.1332474,-3.2966375
15.834539,76.61201,22.410881,7.4821835,-0.6778898,1.0502032,-0.23971525,-0.8091917,0.70709187,0.017264517,0.567959,0.6313662,0.6686888,-0.53533155,1.5905292,-0.9319071,-1.8488735,-0.93250036,2.0822601,1.2820756,-0.9731269,1.6567351,-0.9899273,-1.8492057,-0.9797538,2.0279088,1.2220522,-0.92246526,-1.461709,1.2854856,0.113720864,0.95843,0.88159317,0.6739221,-0.2935329,2.6419334,-0.68183136,0.8586755,-3.0453825,0.120688245,3.9535577,0.41469097,-0.5389099,0.7670402,0.6795227,0.0987312,0.10307187,0.7196368,-1.2745894,-0.34107718,1.0681431,1.0,0.0,0.0,0.0,0.0,0.0,0.0,-3.2919335,0.28183135,-0.30867547,3.866291,6.652856,-10.253948,1.6757846,1.2695432,-4.2435884,-2.551651
9.720498,65.975914,18.528074,8.507161,-0.28057623,0.86611396,-0.21250936,-0.808296,0.7202612,-0.010652108,0.5602413,0.63026404,0.67622393,-0.54117084,1.5759054,-0.91790116,-1.850271,-0.92372966,2.0909352,1.2896746,-0.97658235,1.6422964,-0.97682476,-1.8487461,-0.97002345,2.036797,1.2285315,-0.9255342,-1.4382738,1.3182917,0.02404745,0.97706574,0.8914368,0.63935184,-0.3122314,2.6115017,-0.6806259,0.8974449,-3.0423377,0.120567575,3.8514192,0.40202427,-0.54211426,0.77766234,0.6890956,0.089682624,0.100585714,0.71202993,-1.2664912,-0.29674745,1.0581449,1.0,0.0,0.0,0.0,0.0,0.0,0.0,-3.2615018,0.2806259,-0.3474449,2.228284,3.229785,-8.750176,1.6427636,1.0490656,-3.4311414,-2.1205246
6.4961767,59.330444,16.153658,8.658974,-0.083423376,0.74465215,-0.1651827,-0.8045381,0.7301948,-0.049050454,0.5519271,0.63677394,0.6785036,-0.5430188,1.5618427,-0.90380526,-1.8536512,-0.91483074,2.1004744,1.2963818,-0.97983605,1.627999,-0.9635515,-1.8490894,-0.96018344,2.0457807,1.2347151,-0.92876524,-1.4273379,1.3301232,-0.053076986,0.9855726,0.90078336,0.6113415,-0.3275864,2.5811005,-0.6794205,0.9351938,-3.039296,0.12044703,3.749383,0.3894062,-0.5449295,0.78811264,0.69862384,0.08081455,0.09844993,0.70406055,-1.262147,-0.2609465,1.0387819,1.0,0.0,0.0,0.0,0.0,0.0,0.0,-3.2311006,0.27942047,-0.38519377,0.9756565,1.1426687,-7.4866047,0.61086416,0.9976268,-2.7726293,-1.780659
7.1667876,56.191734,15.556285,7.3352513,-0.09059477,0.7133552,-0.03592426,-0.8044371,0.7289261,-0.05373763,0.5212749,0.6422315,0.6821874,-0.5468671,1.5475552,-0.8906589,-1.8544631,-0.90805596,2.1100037,1.3029338,-0.98345196,1.6137396,-0.95027447,-1.8499782,-0.95045215,2.054852,1.2406603,-0.93213266,-1.4261038,1.3267448,-0.09988849,0.968153,0.9092616,0.58911455,-0.34067836,2.5507298,-0.678215,0.97192305,-3.0362573,0.120326616,3.6474488,0.37684155,-0.5473938,0.79832643,0.7080169,0.07214191,0.096554846,0.69583386,-1.2563754,-0.22341107,1.0139929,1.0,0.0,0.0,0.0,0.0,0.0,0.0,-3.2007298,0.27821502,-0.42192304,-0.009560585,-0.37238598,-4.4031844,-2.000904,0.8929968,-2.1661162,-1.5671194
11.325403,57.80863,16.823978,5.23949,-0.2851061,0.76176065,0.12845351,-0.8014532,0.73425144,-0.04517154,0.47824007,0.65159446,0.68489206,-0.5466287,1.5335943,-0.8768493,-1.8544954,-0.9026281,2.1200116,1.3091495,-0.98679554,1.5994669,-0.9370518,-1.8510807,-0.94112617,2.064015,1.2464186,-0.9356155,-1.42816,1.3207397,-0.112533584,0.9198603,0.91857934,0.571686,-0.35170183,2.5203896,-0.6770096,1.0076337,-3.0332215,0.12020632,3.5456161,0.3643818,-0.54935455,0.8082951,0.7171412,0.06364321,0.094818905,0.68750805,-1.2438424,-0.17559366,0.989717,1.0,0.0,0.0,0.0,0.0,0.0,0.0,-3.1703897,0.27700958,-0.45763367,-0.3600359,-0.63290596,-0.91631263,-5.1020145,0.9527564,-1.6480923,-1.3827026
14.886145,60.366703,18.012192,3.7893791,-0.4808061,0.7798996,0.2369892,-0.8004948,0.7421408,-0.04700401,0.43726048,0.6597278,0.68820107,-0.5385672,1.5194174,-0.8628377,-1.8557811,-0.89740014,2.1299877,1.3152387,-0.9894722,1.5851675,-0.9238529,-1.8521736,-0.9324468,2.0732732,1.25203,-0.93918794,-1.4310914,1.3195634,-0.106849,0.849716,0.9286214,0.5582397,-0.3601375,2.4900799,-0.67580414,1.0423268,-3.030189,0.12008614,3.4438856,0.3520956,-0.5508194,0.818034,0.72589177,0.055292826,0.093214795,0.6792163,-1.2241727,-0.11941373,0.96709174,1.0,0.0,0.0,0.0,0.0,0.0,0.0,-3.14008,0.27580413,-0.4923268,-0.46150684,-0.14681816,0.95457435,-7.291782,1.0178685,-1.2191176,-1.1348307
17.44328,63.41309,19.038727,3.2007146,-0.6451367,0.7821407,0.28132907,-0.7990201,0.7536403,-0.049821634,0.39905897,0.66103274,0.6879531,-0.5357803,1.5052655,-0.84848887,-1.8571557,-0.8925409,2.1393764,1.3208253,-0.99276596,1.5708491,-0.91059685,-1.8531654,-0.9245408,2.0826192,1.2575289,-0.94283193,-1.4326829,1.3275174,-0.09537749,0.76993465,0.9366608,0.54757154,-0.36670208,2.4598007,-0.6745987,1.0760033,-3.0271595,0.11996608,3.3422565,0.34004784,-0.5516739,0.82757306,0.73422074,0.047063686,0.091761924,0.67103255,-1.1984421,-0.05738532,0.9477657,1.0,0.0,0.0,0.0,0.0,0.0,0.0,-3.1098008,0.2745987,-0.5260033,-0.33245087,0.7703304,1.5401855,-8.250475,0.821507,-0.9231925,-0.9469032
21.505016,64.3905,19.513605,1.195086,-0.90928864,0.6661957,0.37415576,-0.7953971,0.75886315,-0.03925539,0.32982624,0.66606355,0.6899051,-0.5278998,1.4913094,-0.83471054,-1.857091,-0.8915582,2.1492255,1.3265194,-0.9956219,1.5565401,-0.89723015,-1.853997,-0.9175876,2.0920415,1.262942,-0.9465255,-1.431078,1.3397174,-0.07771797,0.6694929,0.9441769,0.53971577,-0.37121728,2.429552,-0.67339325,1.1086644,-3.0241327,0.11984614,3.240729,0.3283329,-0.55181885,0.836902,0.7420632,0.038966592,0.09048924,0.66305006,-1.1618686,0.010379666,0.9260003,1.0,0.0,0.0,0.0,0.0,0.0,0.0,-3.0795522,0.27339324,-0.5586644,-0.013184547,1.209712,2.1507263,-10.318888,0.7824898,-0.5862713,-0.7376015
23.917452,66.71453,20.540989,0.60950994,-1.0048463,0.6663974,0.4481241,-0.79703265,0.7680966,-0.0027130633,0.270358,0.67200845,0.6819163,-0.5206558,1.4768369,-0.8204205,-1.8542683,-0.8905518,2.1592424,1.3311336,-0.99859107,1.5422426,-0.88371277,-1.8545063,-0.9117139,2.10154,1.2682825,-0.9502515,-1.4298017,1.3557857,-0.040842935,0.55911076,0.95176786,0.53287387,-0.37397888,2.399334,-0.67219543,1.1403109,-3.0211093,0.11972632,3.1393032,0.31701565,-0.5512924,0.84604067,0.7493662,0.030986179,0.089381605,0.65536326,-1.1199399,0.08227448,0.90751916,1.0,0.0,0.0,0.0,0.0,0.0,0.0,-3.049334,0.27219543,-0.5903109,-0.043559074,1.606679,4.0636315,-11.297571,0.8052349,-0.46157837,-0.55457354
31.1208,65.55084,20.818794,-3.9727798,-1.4542519,0.41490108,0.6527483,-0.78982955,0.76861686,0.040596485,0.14492401,0.6811145,0.68210596,-0.5240452,1.4632597,-0.8068511,-1.8504466,-0.8972215,2.1696515,1.3364931,-1.002656,1.527989,-0.87005997,-1.8544891,-0.9072812,2.1111264,1.2735697,-0.9540023,-1.4242365,1.3685882,0.017207328,0.40370873,0.96107477,0.52844524,-0.37628925,2.3691463,-0.67100525,1.1709439,-3.0180888,0.11960662,3.0379786,0.30625534,-0.5499649,0.8549218,0.75599957,0.023179892,0.08842215,0.648158,-1.0586765,0.16171634,0.879096,1.0,0.0,0.0,0.0,0.0,0.0,0.0,-3.0191464,0.27100524,-0.62094384,0.39732456,1.3081789,6.1527185,-15.796924,0.9978652,-0.10136366,-0.4941702
39.74622,66.53757,22.062752,-9.354848,-2.019052,0.21411283,0.92589086,-0.79043657,0.77845746,0.11865501,-0.015150309,0.68637943,0.67652225,-0.50748163,1.4489454,-0.7922142,-1.8426236,-0.90879625,2.1797643,1.3412219,-1.0047505,1.5137869,-0.8562708,-1.8536098,-0.9048684,2.1208043,1.2788225,-0.9577598,-1.4192755,1.3825501,0.11239502,0.18630415,0.9706759,0.5257846,-0.37630713,2.3389874,-0.66981506,1.2005644,-3.0150712,0.11948704,2.9367557,0.2962742,-0.5477524,0.8634567,0.7617662,0.015632588,0.087597705,0.64171207,-0.9747376,0.25337404,0.841937,1.0,0.0,0.0,0.0,0.0,0.0,0.0,-2.9889874,0.26981506,-0.6505644,0.35429,1.4524221,9.830104,-21.971952,1.060164,0.2060175,-0.23862123
36.805565,64.67837,21.138893,-7.2693872,-1.7725508,0.10282013,0.854421,-0.7869893,0.7818177,0.14523187,-0.05381604,0.6841845,0.6670909,-0.47261187,1.435088,-0.77808905,-1.8390867,-0.91025,2.1892228,1.3455316,-1.005021,1.499642,-0.8423605,-1.8517997,-0.9044307,2.1305585,1.2840449,-0.96148676,-1.4132315,1.3940666,0.20438601,-0.0043257456,0.977645,0.52278364,-0.37207663,2.3088589,-0.6686249,1.2291734,-3.0120568,0.11936758,2.8356338,0.2870922,-0.54468536,0.87164414,0.76668274,0.008348761,0.08688944,0.6360644,-0.89509684,0.33353373,0.8074659,1.0,0.0,0.0,0.0,0.0,0.0,0.0,-2.958859,0.26862487,-0.6791734,0.50861835,1.2272596,9.373056,-19.244974,0.8678794,0.15656948,0.23887157
29.744465,64.37253,20.626324,-1.5513172,-1.1230345,0.20605338,0.6661675,-0.78095174,0.78405863,0.19202264,-0.059475407,0.69272363,0.6624228,-0.44970965,1.4215468,-0.76395464,-1.8325975,-0.9103782,2.1998308,1.3502872,-1.0064577,1.4855734,-0.82836056,-1.8490837,-0.9053939,2.1403928,1.2892348,-0.9651527,-1.404887,1.4023119,0.29421517,-0.12740073,0.9861535,0.51895326,-0.36522883,2.278761,-0.6674347,1.256772,-3.0090454,0.119248234,2.734613,0.27855587,-0.5409241,0.87959665,0.7709096,0.0012120405,0.0862169,0.63108116,-0.834697,0.39846873,0.78716373,1.0,0.0,0.0,0.0,0.0,0.0,0.0,-2.928761,0.2674347,-0.706772,0.7713795,0.91023445,9.034496,-12.450811,1.0912895,-0.011539459,0.53430796
28.70224,65.027664,21.031769,-0.069077015,-0.96637905,0.2389679,0.65552574,-0.77608144,0.7884118,0.26740354,-0.14114515,0.6930428,0.66062933,-0.42177984,1.4079653,-0.74951935,-1.8223433,-0.9195084,2.209697,1.3552977,-1.0073307,1.4715964,-0.81428814,-1.8453643,-0.90745,2.1502995,1.2943884,-0.9687318,-1.395269,1.4091516,0.3978379,-0.23207791,0.9931459,0.5153037,-0.35587937,2.2486935,-0.6662445,1.2833612,-3.0060368,0.11912901,2.6336932,0.27058792,-0.5365524,0.8873938,0.77450955,-0.0058652046,0.08551692,0.6267274,-0.7782744,0.46131814,0.77273345,1.0,0.0,0.0,0.0,0.0,0.0,0.0,-2.8986936,0.2662445,-0.7333612,0.9216547,0.780797,10.34047,-10.580259,0.98962784,-0.00056028366,0.8060396
19.212008,65.97502,20.93601,7.513466,-0.15825635,0.5415266,0.42979345,-0.7793672,0.78817064,0.32878143,-0.09126945,0.6863232,0.65855974,-0.36371553,1.3936596,-0.73547107,-1.8124862,-0.916577,2.218932,1.3602444,-1.0051033,1.4576803,-0.80017185,-1.8405616,-0.90995055,2.1602407,1.299502,-0.9721803,-1.3903762,1.4127498,0.5073873,-0.2564209,0.9957918,0.510828,-0.34158608,2.2186556,-0.6650543,1.3089418,-3.0030315,0.119009905,2.5328743,0.26296997,-0.53160095,0.8951984,0.77763236,-0.01306852,0.08469724,0.6228511,-0.7500859,0.5118572,0.77810925,1.0,0.0,0.0,0.0,0.0,0.0,0.0,-2.8686557,0.26505432,-0.7589418,0.4488945,0.4611969,10.861569,-2.5345564,0.61422586,-0.19065142,1.3073504
11.360738,63.810665,19.540268,12.716777,0.39486438,0.6378757,0.21825242,-0.781837,0.78848416,0.35629028,-0.06401588,0.68831575,0.66259855,-0.34390655,1.3794967,-0.72132343,-1.8049326,-0.91635215,2.2290723,1.3657619,-1.0065709,1.4437777,-0.7860365,-1.8347995,-0.9122804,2.1702008,1.3045737,-0.97548,-1.3903174,1.4140254,0.59873813,-0.225542,0.9973279,0.50648147,-0.32652003,2.1886473,-0.66386414,1.3335152,-3.000029,0.11889092,2.4321563,0.25548077,-0.5262451,0.9031219,0.7804562,-0.020527411,0.08371463,0.6192402,-0.7419312,0.5502062,0.7917907,1.0,0.0,0.0,0.0,0.0,0.0,0.0,-2.8386474,0.26386413,-0.78351516,-0.04324913,0.23052692,9.015024,2.9810488,0.5162358,-0.25547743,1.3902068
8.544685,60.902092,18.368551,14.052599,0.5484752,0.5878333,0.14965105,-0.7835804,0.78405035,0.4033813,-0.06538903,0.68498397,0.65887165,-0.33362728,1.3654196,-0.70763147,-1.7944614,-0.9188193,2.2386992,1.3704609,-1.0088427,1.4298521,-0.77192116,-1.8281868,-0.91419154,2.1801572,1.3096014,-0.9786357,-1.3934989,1.4109825,0.6816157,-0.1799832,0.9964568,0.50211746,-0.31224415,2.1586695,-0.66267395,1.357082,-2.9970295,0.11877205,2.331539,0.24802685,-0.52054596,0.9111757,0.7830646,-0.028269727,0.08256906,0.6157865,-0.73950696,0.58314043,0.804288,1.0,0.0,0.0,0.0,0.0,0.0,0.0,-2.8086696,0.26267394,-0.807082,-0.36866665,-0.20275116,8.16977,4.4474483,0.2647519,-0.2769947,1.3146818
1.0817642,59.37559,17.119816,19.601954,1.0966789,0.7130274,-0.08826815,-0.7813922,0.78617007,0.4104794,0.04806693,0.6829316,0.6644251,-0.2932262,1.351713,-0.6933042,-1.7871388,-0.90938485,2.2484503,1.3760439,-1.0079583,1.4159018,-0.7578316,-1.8209655,-0.9151605,2.1900945,1.3145891,-0.9816341,-1.3958819,1.4086208,0.73514473,-0.06960266,0.99431145,0.49800184,-0.29603454,2.1287222,-0.66148376,1.3796434,-2.994033,0.118653305,2.2310221,0.24044132,-0.51459503,0.91943413,0.7856081,-0.036390014,0.0812617,0.61228436,-0.75793946,0.60531324,0.8272641,1.0,0.0,0.0,0.0,0.0,0.0,0.0,-2.7787223,0.26148376,-0.8296434,-0.29900074,-0.13244152,5.2150726,10.918361,0.14584064,-0.34079552,1.5072703
-5.154048,56.111744,15.301859,23.023247,1.4455826,0.7465735,-0.2669033,-0.79713017,0.7849877,0.41581395,0.120116346,0.68198204,0.66976583,-0.29562432,1.3361888,-0.6793328,-1.7793841,-0.90314883,2.2582927,1.3815657,-1.0111965,1.401858,-0.7437668,-1.8134067,-0.91479903,2.2000089,1.3195425,-0.9844865,-1.4075243,1.406167,0.7624162,0.07102542,0.9917476,0.494334,-0.28202456,2.0988035,-0.6602936,1.4012004,-2.9910398,0.11853468,2.1306057,0.2325573,-0.50849915,0.9279362,0.78823197,-0.044941936,0.079813495,0.60852295,-0.79109955,0.6191895,0.85188794,1.0,0.0,0.0,0.0,0.0,0.0,0.0,-2.7488036,0.26029357,-0.8512004,-1.2472153,-0.14727116,2.6078343,13.93051,0.08949041,-0.3647983,1.2917697
-3.3412752,52.515675,13.888991,20.353638,1.137825,0.4944419,-0.23855057,-0.7996205,0.78494155,0.41252598,0.12800491,0.6808531,0.6701828,-0.3006842,1.321896,-0.66527265,-1.7721541,-0.9019985,2.268094,1.3865608,-1.014555,1.3876921,-0.7297201,-1.8057487,-0.91324073,2.2098966,1.3244654,-0.9872188,-1.4198655,1.4044706,0.76676,0.18360937,0.98879164,0.4915318,-0.2706154,2.0689154,-0.6591034,1.4217541,-2.9880493,0.11841617,2.03029,0.22441769,-0.50226593,0.93659,0.7909492,-0.053830784,0.07830776,0.6044579,-0.81409055,0.63304067,0.8637106,1.0,0.0,0.0,0.0,0.0,0.0,0.0,-2.7189155,0.2591034,-0.8717541,-1.3178587,-0.08313656,0.357306,11.127031,0.0026226044,-0.25054216,1.0393143
1.3932686,49.730583,13.009446,15.642934,0.6127388,0.17003796,-0.12068169,-0.8028188,0.7857326,0.4095053,0.12337487,0.678892,0.6666635,-0.30116138,1.3074102,-0.6511468,-1.7647982,-0.9009032,2.2777858,1.3911318,-1.0173349,1.3734118,-0.7156811,-1.798146,-0.9109271,2.21975,1.3293635,-0.98985285,-1.4309152,1.4040176,0.7579186,0.24674939,0.98518455,0.48954165,-0.26122367,2.0390577,-0.6579132,1.4413053,-2.9850616,0.11829778,1.930074,0.21618748,-0.49586487,0.94524366,0.79368484,-0.06288792,0.076850735,0.6001694,-0.8181188,0.6499392,0.8596294,1.0,0.0,0.0,0.0,0.0,0.0,0.0,-2.6890578,0.2579132,-0.89130527,-1.1865854,0.029325485,-0.9096265,6.184435,-0.113773346,-0.10000467,0.84221363
9.096365,46.556126,12.316803,8.547958,-0.117153764,-0.278552,0.099842235,-0.8023213,0.7814994,0.41076577,0.0748036,0.67687,0.66326135,-0.29384694,1.2931796,-0.63753116,-1.7570695,-0.90344673,2.287437,1.3956896,-1.0192375,1.3590571,-0.7016611,-1.7906501,-0.9085248,2.2295651,1.3342482,-0.99239916,-1.4372573,1.4014599,0.74696237,0.23765013,0.9809394,0.48879582,-0.25275403,2.0092297,-0.6567383,1.4598551,-2.9820774,0.11817951,1.8299582,0.2081337,-0.4892807,0.9537009,0.79629636,-0.07188997,0.07554359,0.5958499,-0.79352033,0.6705054,0.83473027,1.0,0.0,0.0,0.0,0.0,0.0,0.0,-2.6592298,0.25673828,-0.90985507,-0.7032633,-0.1903534,-1.0646105,-1.0384113,-0.2358675,0.14063716,0.75179935
14.46096,45.03974,12.128363,3.840508,-0.5979287,-0.586399,0.2636757,-0.803639,0.779729,0.41568965,0.03887983,0.6761244,0.66194737,-0.27964637,1.2786932,-0.6236882,-1.7490811,-0.9046368,2.2971776,1.400443,-1.0203638,1.3446623,-0.68767357,-1.7832248,-0.90658027,2.2393422,1.339131,-0.99485964,-1.4402729,1.3980304,0.7413037,0.1797564,0.9770026,0.48903576,-0.24420439,1.9794312,-0.65556335,1.4774045,-2.979096,0.118061356,1.7299426,0.20046902,-0.4824524,0.96181816,0.79866135,-0.08066761,0.07444797,0.5916843,-0.749212,0.69299656,0.7977824,1.0,0.0,0.0,0.0,0.0,0.0,0.0,-2.6294312,0.25556335,-0.92740446,-0.35619736,-0.28066635,-0.5068779,-5.90851,-0.24100542,0.31598806,0.7650256
15.236551,46.370625,12.824522,4.11958,-0.584665,-0.58298963,0.2945912,-0.80260575,0.78031826,0.43032044,0.05169503,0.67632616,0.6649753,-0.2524157,1.2644017,-0.60964173,-1.7401928,-0.90141076,2.306975,1.4056286,-1.0201012,1.3302618,-0.67371273,-1.7757595,-0.9051755,2.2490888,1.3440195,-0.99722475,-1.4399092,1.3956717,0.74835896,0.12695219,0.97430533,0.48968008,-0.23416996,1.9496632,-0.6543884,1.4939544,-2.9761174,0.117943324,1.6300269,0.1932478,-0.4754181,0.9695995,0.80073917,-0.08922127,0.07354525,0.58774763,-0.7044094,0.7168922,0.76531374,1.0,0.0,0.0,0.0,0.0,0.0,0.0,-2.5996633,0.25438842,-0.9439544,-0.0053167343,-0.16994476,0.74739456,-5.3813934,-0.10843277,0.34720898,0.9162009
18.892073,45.53181,12.732155,0.8726263,-0.9124896,-0.82598245,0.40848193,-0.80026305,0.7795729,0.43309098,-0.028115429,0.6793752,0.6641845,-0.24524982,1.2502356,-0.59575546,-1.7324504,-0.90798706,2.3170264,1.410438,-1.0217497,1.315888,-0.65977,-1.768193,-0.90455276,2.2588239,1.3489176,-0.9994926,-1.4364634,1.3940008,0.7595961,0.040476356,0.9737137,0.49077585,-0.2245323,1.9199238,-0.6532135,1.509506,-2.9731417,0.11782541,1.5302112,0.18658066,-0.46810913,0.97699803,0.80247283,-0.09748142,0.07284868,0.58414704,-0.64543563,0.7410862,0.7251323,1.0,0.0,0.0,0.0,0.0,0.0,0.0,-2.5699239,0.2532135,-0.959506,0.32434464,-0.09918213,1.1634827,-8.729994,0.08370876,0.44217706,0.8893162
14.64781,48.87501,13.746244,6.0256677,-0.47224817,-0.5558543,0.29201645,-0.79974025,0.78909373,0.44264358,0.030931428,0.67262435,0.6603015,-0.14564353,1.235914,-0.5808606,-1.7239287,-0.90145963,2.3260863,1.4149477,-1.0140569,1.3015543,-0.645792,-1.7604835,-0.9043754,2.2685437,1.3538176,-1.0016001,-1.4325802,1.3993362,0.7748728,0.00988373,0.9718847,0.49058247,-0.20629956,1.8902149,-0.6520386,1.5240601,-2.9701693,0.11770761,1.4304954,0.18036747,-0.46055603,0.9841311,0.8039033,-0.105572514,0.07232673,0.5808293,-0.60444885,0.7664929,0.7031471,1.0,0.0,0.0,0.0,0.0,0.0,0.0,-2.540215,0.25203857,-0.9740601,0.35893917,0.6136656,1.514554,-3.1334336,0.02077818,0.23030043,1.7511308
10.582525,46.774185,13.022573,9.369186,-0.07782155,-0.46638733,0.20980866,-0.798981,0.7795122,0.44707337,0.04988944,0.6615659,0.6650271,-0.03824937,1.2216562,-0.5678408,-1.7157762,-0.8993864,2.3347003,1.4203203,-1.0054251,1.287253,-0.63180065,-1.7526271,-0.90421134,2.2782178,1.3587157,-1.003456,-1.4292493,1.3994017,0.7890743,0.018347898,0.966275,0.49023065,-0.17876859,1.8605356,-0.65086365,1.5376179,-2.9671998,0.11758992,1.3308792,0.17445564,-0.45277405,0.99110115,0.80509245,-0.113623805,0.071931586,0.57770365,-0.5777394,0.7868376,0.6886395,1.0,0.0,0.0,0.0,0.0,0.0,0.0,-2.5105357,0.25086364,-0.9876179,0.2944231,0.0951767,1.3764143,0.7558029,-0.32531023,0.16445518,2.6769578
8.797639,44.318203,12.023562,10.0104065,0.0021299124,-0.5301661,0.17643848,-0.80466807,0.7799396,0.44225922,0.030951476,0.65415853,0.6645503,0.020773701,1.2067862,-0.55380666,-1.7084012,-0.9011162,2.3436337,1.4251707,-1.0013787,1.2729498,-0.617816,-1.7446887,-0.9039338,2.2878156,1.3636099,-1.0050086,-1.4310155,1.3985065,0.7953301,0.030459123,0.9581294,0.48968962,-0.1475694,1.8308859,-0.6496887,1.5501803,-2.9642332,0.11747235,1.2313626,0.16878605,-0.4448166,0.9979185,0.80607706,-0.12164884,0.07167433,0.57472074,-0.55403686,0.80325097,0.673036,1.0,0.0,0.0,0.0,0.0,0.0,0.0,-2.480886,0.24968871,-1.0001802,-0.22933483,-0.00014305115,0.5887389,1.1100769,-0.5791545,0.13410449,3.047669
7.5723457,43.315315,11.9198065,11.475138,0.20026994,-0.4975008,0.18903853,-0.7969513,0.7741892,0.45828223,0.06357096,0.65168226,0.65771127,0.17573999,1.1932547,-0.54039705,-1.6988605,-0.89757675,2.3529837,1.429381,-0.98743457,1.2586561,-0.6038704,-1.7366512,-0.90337974,2.2973332,1.3684927,-1.0061587,-1.4290551,1.3935779,0.80631065,0.063397996,0.95043355,0.48826522,-0.10449262,1.8012657,-0.6485138,1.5617483,-2.9612694,0.1173549,1.1319455,0.16330528,-0.43672943,1.0046146,0.80685216,-0.12968929,0.07152479,0.57188666,-0.5366687,0.8181815,0.6620279,1.0,0.0,0.0,0.0,0.0,0.0,0.0,-2.4512658,0.24851379,-1.0117483,0.14715195,-0.40061474,1.0460854,3.190209,-0.51869154,0.023144484,4.2285085
3.9600391,38.983356,10.3321295,13.679502,0.5083638,-0.5097618,0.0919332,-0.79880023,0.7631938,0.44141045,0.11146098,0.64108884,0.6614711,0.24717546,1.1787761,-0.527551,-1.6925101,-0.89223367,2.361442,1.4346398,-0.98144114,1.2443739,-0.59002304,-1.728606,-0.9023021,2.3067594,1.3733622,-1.0068587,-1.4283197,1.3820475,0.8037742,0.12204152,0.9407329,0.48696226,-0.05856308,1.7716751,-0.64733887,1.5723228,-2.9583087,0.11723757,1.0326277,0.15791607,-0.4285202,1.0112156,0.8074673,-0.13778889,0.071457945,0.5691261,-0.5302759,0.8256346,0.6528845,1.0,0.0,0.0,0.0,0.0,0.0,0.0,-2.4216752,0.24733886,-1.0223229,0.011062622,-1.057148,-0.31586885,5.735323,-0.70984364,0.004696846,4.5119696
2.564828,36.3556,9.261154,14.154288,0.56396496,-0.5828939,0.033158384,-0.8000712,0.760044,0.42317766,0.13440266,0.6318775,0.66364306,0.28005734,1.1643668,-0.51401865,-1.6862882,-0.88886184,2.3699472,1.4397265,-0.978853,1.2300879,-0.57629585,-1.7206962,-0.90060455,2.3160748,1.3782221,-1.0071143,-1.4287982,1.369895,0.7864496,0.1852584,0.9295089,0.48592702,-0.014958001,1.7421141,-0.64616394,1.5819049,-2.955351,0.117120355,0.9334093,0.15257263,-0.4202652,1.017715,0.80797553,-0.14594428,0.07149485,0.5663606,-0.52624553,0.82933575,0.6424999,1.0,0.0,0.0,0.0,0.0,0.0,0.0,-2.3921142,0.24616393,-1.0319049,-0.11882782,-1.1215448,-1.7869949,6.1843185,-0.8707762,0.020819902,4.2832017
-1.9437685,32.905613,7.6268573,17.592896,0.8825074,-0.5488106,-0.16725186,-0.7959073,0.75532395,0.36794215,0.2309933,0.607949,0.6611241,0.31592426,1.1504972,-0.5007635,-1.683902,-0.87750524,2.3768697,1.4443345,-0.97552186,1.2158133,-0.5626869,-1.7132232,-0.89796,2.3252301,1.3830687,-1.006956,-1.4272761,1.3582716,0.7340953,0.29024196,0.9115467,0.48429787,0.02594622,1.7125826,-0.644989,1.5904956,-2.9523964,0.11700326,0.8342901,0.14716244,-0.41203308,1.0241523,0.80849844,-0.15420581,0.071678385,0.56339407,-0.53601825,0.8270932,0.637754,1.0,0.0,0.0,0.0,0.0,0.0,0.0,-2.3625827,0.24498901,-1.0404956,0.06120205,-1.0644197,-5.3144574,10.333499,-1.5181065,-0.09115934,4.015453
-1.4493418,29.54662,6.339105,15.831283,0.75057375,-0.7492297,-0.17230155,-0.7982743,0.74619883,0.33499312,0.23124479,0.6083528,0.6594484,0.3109248,1.1359859,-0.48806703,-1.6797239,-0.87483555,2.3860655,1.4490135,-0.9758635,1.2015444,-0.5492058,-1.7063911,-0.8944276,2.3342252,1.3878981,-1.0064372,-1.4270594,1.3450743,0.6660611,0.37367967,0.896599,0.4828552,0.06021502,1.6830807,-0.6438141,1.5980958,-2.9494445,0.11688629,0.73526996,0.14170456,-0.4038391,1.0304846,0.8090861,-0.16250883,0.07205424,0.56015944,-0.5398069,0.820164,0.62542146,1.0,0.0,0.0,0.0,0.0,0.0,0.0,-2.3330808,0.24381408,-1.0480957,-0.06501675,-1.22931,-6.866038,8.178735,-1.2422204,-0.04991889,3.3591912
5.128928,29.093336,6.410222,8.851425,0.05553502,-1.1497225,0.053366225,-0.79439515,0.7388091,0.32794943,0.15792948,0.60032654,0.6545823,0.31869078,1.1221049,-0.47532487,-1.6735961,-0.87863463,2.3942578,1.4533563,-0.9745681,1.1872946,-0.53586006,-1.7001541,-0.89065105,2.343079,1.392716,-1.0056132,-1.4243977,1.3312384,0.609456,0.37852466,0.88212,0.4820841,0.08953558,1.6536083,-0.64263916,1.6047064,-2.9464955,0.116769426,0.63634884,0.13642406,-0.39572144,1.0365633,0.80964804,-0.1706429,0.07268169,0.55683774,-0.51449794,0.81318104,0.59583944,1.0,0.0,0.0,0.0,0.0,0.0,0.0,-2.3036084,0.24263915,-1.0547063,0.22175312,-1.3088465,-5.6697845,0.35728216,-1.2770414,0.11460185,2.8699784
12.197697,31.853588,7.695967,2.3309145,-0.66042435,-1.4588621,0.32102275,-0.7935696,0.7368304,0.34005883,0.084741354,0.58512294,0.6474871,0.35566357,1.1079377,-0.462177,-1.6661482,-0.88217694,2.4015913,1.4574648,-0.9700469,1.1730772,-0.52262974,-1.6942565,-0.8874,2.3517728,1.3975283,-1.004507,-1.4209987,1.3205141,0.5833981,0.30707666,0.86528146,0.48170993,0.117536336,1.6241655,-0.6414795,1.6103287,-2.9435496,0.116652675,0.5375266,0.13161755,-0.38765717,1.0422491,0.81003314,-0.17839894,0.07362248,0.55371463,-0.45999822,0.8105223,0.55364805,1.0,0.0,0.0,0.0,0.0,0.0,0.0,-2.2741656,0.24147949,-1.0603287,0.33757687,-1.0099411,-2.5610209,-7.219452,-1.59024,0.24035573,2.7423098
15.929554,28.482079,6.785803,-2.785564,-1.0523256,-1.8438512,0.48498398,-0.78508896,0.7149595,0.3243052,0.012421912,0.5615866,0.6524244,0.39770803,1.0945684,-0.4511338,-1.661826,-0.88615775,2.4079313,1.4627707,-0.96473616,1.1589304,-0.50957394,-1.6885383,-0.8852647,2.3602529,1.4023443,-1.0031203,-1.4123123,1.3008754,0.56813693,0.18220127,0.84247136,0.48269898,0.14556913,1.5947523,-0.6403198,1.6149635,-2.9406068,0.11653604,0.43880326,0.12750149,-0.37965393,1.0474093,0.8101456,-0.18558255,0.07491418,0.551009,-0.3861384,0.79947543,0.49794132,1.0,0.0,0.0,0.0,0.0,0.0,0.0,-2.2447524,0.24031982,-1.0649636,0.93152523,-1.8996716,-1.5002489,-12.530857,-2.238834,0.4463911,2.7600079
12.847101,27.888948,6.7525125,0.6761699,-0.64225227,-1.7068119,0.40086567,-0.7855718,0.7065042,0.31990567,0.03812987,0.56403905,0.6506766,0.4321039,1.0803733,-0.4389235,-1.6565478,-0.8814517,2.4166567,1.467412,-0.9599099,1.144858,-0.4967229,-1.6829059,-0.8841203,2.3685498,1.4071661,-1.0014571,-1.4051945,1.2800739,0.5616516,0.09170999,0.82551444,0.48296475,0.17303829,1.5653677,-0.63916016,1.6186118,-2.937667,0.11641953,0.3401786,0.12401199,-0.37177277,1.0520912,0.8100028,-0.19224486,0.07648703,0.5487139,-0.3274576,0.7873015,0.4529028,1.0,0.0,0.0,0.0,0.0,0.0,0.0,-2.2153678,0.23916015,-1.0686119,0.7610321,-2.007556,-0.65842867,-9.100533,-1.6153216,0.3093481,2.7049513
7.104089,23.62511,5.2949533,5.942734,-0.022021294,-1.5484558,0.1943358,-0.7796005,0.6871174,0.2862689,0.071315646,0.5415896,0.6505254,0.45824817,1.066898,-0.42801118,-1.654279,-0.8769887,2.4227087,1.4722186,-0.95563227,1.1308657,-0.48412487,-1.677449,-0.88343364,2.376656,1.4119879,-0.9995307,-1.3971555,1.2533658,0.54001856,0.06056379,0.8060922,0.4824597,0.19909355,1.5360136,-0.6380005,1.6212746,-2.9347298,0.11630314,0.24165256,0.120928764,-0.36405182,1.05641,0.80971354,-0.19854356,0.07826474,0.54664344,-0.29278573,0.769683,0.4197006,1.0,0.0,0.0,0.0,0.0,0.0,0.0,-2.1860137,0.23800048,-1.0712745,0.81870556,-2.5878906,-2.21318,-3.2114394,-1.808703,0.16056299,2.5585027
8.178551,20.640379,4.202074,3.378099,-0.20205438,-1.8037266,0.23764358,-0.7728028,0.671698,0.26842853,-0.031610068,0.52726406,0.6467689,0.47282046,1.0535854,-0.41695505,-1.6506062,-0.88659465,2.4293826,1.4766648,-0.95224863,1.1169688,-0.47181246,-1.6722724,-0.8832801,2.384564,1.416802,-0.99736106,-1.3871185,1.2241688,0.51013696,-6.97695e-05,0.78573084,0.48175025,0.22281373,1.5066881,-0.6368408,1.6229528,-2.9317956,0.116186865,0.14322503,0.11826515,-0.35655975,1.060337,0.8093146,-0.2044133,0.0802584,0.5447784,-0.24888434,0.7448021,0.37882823,1.0,0.0,0.0,0.0,0.0,0.0,0.0,-2.1566882,0.23684081,-1.0729527,1.0536432,-2.8385878,-3.0484319,-6.1442842,-1.9365788,0.16431212,2.3356795
8.767724,22.472256,4.984417,3.3666253,-0.22708356,-1.7914,0.27736235,-0.7739359,0.6642677,0.2855055,-0.07031241,0.5258514,0.64193434,0.48900524,1.0395751,-0.40538567,-1.6437219,-0.89031136,2.437149,1.4809955,-0.9484605,1.1031462,-0.4597604,-1.6672676,-0.8837941,2.3923001,1.4216028,-0.99496925,-1.3806217,1.1991807,0.49711275,-0.068705775,0.77014315,0.4804285,0.24448772,1.4773922,-0.63568115,1.6236476,-2.9288642,0.116070695,0.044895887,0.11605358,-0.34927368,1.0638726,0.8087867,-0.20982857,0.08245375,0.5431735,-0.20382798,0.72303325,0.34056243,1.0,0.0,0.0,0.0,0.0,0.0,0.0,-2.1273923,0.23568115,-1.0736475,0.69651604,-2.4177551,-1.3585925,-6.92838,-1.4596939,0.08878708,2.1363676
9.607486,23.032522,5.414306,2.7060657,-0.26705813,-1.8293346,0.33798,-0.76995945,0.64835393,0.2970442,-0.11962764,0.5190425,0.64216167,0.5180765,1.0261502,-0.394925,-1.6375631,-0.8957569,2.4442043,1.485819,-0.9431616,1.0893828,-0.44795772,-1.6622665,-0.88508445,2.3999028,1.4263922,-0.99236476,-1.3748286,1.1742404,0.5010263,-0.14931817,0.75732386,0.47918996,0.26568556,1.4481258,-0.6345215,1.6233598,-2.925936,0.115954645,-0.05333495,0.11431217,-0.34220123,1.0670238,0.8080947,-0.21478415,0.08481061,0.5419021,-0.15597802,0.70195544,0.30229476,1.0,0.0,0.0,0.0,0.0,0.0,0.0,-2.098126,0.23452148,-1.0733597,0.64065456,-2.4132013,0.32645464,-8.107732,-1.1892319,0.0911057,2.094537
6.7027445,18.258577,3.7873611,4.427227,-0.018583596,-1.848787,0.2324314,-0.7656627,0.6221838,0.26897833,-0.12603128,0.47707087,0.64204067,0.53066504,1.0128165,-0.38573936,-1.6353687,-0.89768755,2.44761,1.4905963,-0.9392983,1.0756766,-0.4364588,-1.6573131,-0.8870366,2.407288,1.4311701,-0.98956287,-1.369043,1.1420726,0.4932658,-0.21082322,0.73260903,0.4778838,0.28494376,1.4188881,-0.6333618,1.6220903,-2.9230108,0.115838714,-0.15146758,0.1129837,-0.33538818,1.0698057,0.8072894,-0.2192985,0.08733025,0.54089296,-0.11754345,0.67427725,0.26598692,1.0,0.0,0.0,0.0,0.0,0.0,0.0,-2.0688882,0.23336181,-1.0720904,0.6304741,-3.1342268,-0.8546889,-6.223044,-2.3700476,0.05865097,1.8960834
5.41245,14.184868,2.5650864,4.609682,0.124815226,-1.9259793,0.20365146,-0.75883627,0.59472615,0.26597345,-0.16723078,0.45561028,0.6409106,0.53725964,0.99979293,-0.37698618,-1.6307157,-0.9037597,2.4528491,1.4952612,-0.9358369,1.0620447,-0.42534468,-1.6524494,-0.8895944,2.4143872,1.4359347,-0.98658645,-1.3609098,1.1014547,0.48360792,-0.27097937,0.7029649,0.47651663,0.30182466,1.3896799,-0.63220215,1.6198404,-2.9200885,0.1157229,-0.2495021,0.11201477,-0.3289032,1.0722159,0.8064144,-0.22336529,0.08999804,0.5400964,-0.08291856,0.64008087,0.2287132,1.0,0.0,0.0,0.0,0.0,0.0,0.0,-2.03968,0.23220214,-1.0698404,0.87993145,-3.9809465,-1.0596275,-6.0956535,-2.871561,0.040352345,1.6554654
5.90292,10.583955,1.3515399,2.3403587,0.0024839044,-2.14484,0.24190536,-0.75008464,0.5677638,0.25534812,-0.24600619,0.42303297,0.6427057,0.54831487,0.9870363,-0.3685683,-1.6269145,-0.914195,2.4566905,1.5002053,-0.93175495,1.0485235,-0.41468355,-1.647721,-0.89294845,2.4211392,1.4406897,-0.98345363,-1.3487823,1.0545583,0.4687438,-0.35700834,0.66599935,0.4755295,0.31705678,1.3605013,-0.6310425,1.6166108,-2.917169,0.1156072,-0.3474386,0.11144447,-0.32279968,1.0741968,0.80548173,-0.2268887,0.092828326,0.53954,-0.041494608,0.59740835,0.18417938,1.0,0.0,0.0,0.0,0.0,0.0,0.0,-2.0105014,0.23104247,-1.0666108,1.331687,-4.6146154,-1.6034603,-8.663595,-3.641808,0.08093715,1.4941692
4.938668,4.532052,-0.2434597,1.571744,0.12248424,-2.2612813,0.26011875,-0.7364969,0.51540536,0.26919824,-0.29197186,0.35528,0.6467632,0.555422,0.97487384,-0.36314303,-1.6208012,-0.9221456,2.4566672,1.505366,-0.9279114,1.0351702,-0.4046366,-1.6430557,-0.89721805,2.4273763,1.4454371,-0.9801825,-1.3302659,0.9883348,0.46529827,-0.45055428,0.6097591,0.47501594,0.33041218,1.3313513,-0.6298828,1.6124026,-2.9142525,0.115491614,-0.44527715,0.11127663,-0.31721497,1.0756989,0.8044945,-0.22980909,0.095808566,0.539256,-0.0021301121,0.5453596,0.13540576,1.0,0.0,0.0,0.0,0.0,0.0,0.0,-1.9813513,0.2298828,-1.0624025,2.0200968,-6.554413,-0.49883127,-9.414166,-5.587983,0.114530325,1.2952089
1.2130256,-7.326815,-3.9128718,1.9249868,0.62688184,-2.4290972,0.19321021,-0.71827185,0.4458313,0.24075066,-0.32880285,0.33105585,0.6505583,0.56676304,0.963343,-0.36005345,-1.6189806,-0.93009835,2.460482,1.5104929,-0.9235062,1.022061,-0.39545938,-1.6385238,-0.9023889,2.4330487,1.4501806,-0.9767865,-1.3038538,0.89432037,0.44867116,-0.5395337,0.55318254,0.47466916,0.34244218,1.3022308,-0.62872314,1.6072166,-2.9113388,0.115376145,-0.5430179,0.11140537,-0.312294,1.0766764,0.8035,-0.23207319,0.09883703,0.53922254,0.023666287,0.47302145,0.082083344,1.0,0.0,0.0,0.0,0.0,0.0,0.0,-1.9522308,0.22872314,-1.0572166,2.8467655,-9.349751,-1.8305361,-8.986521,-5.6586027,0.094503164,1.1389077
-6.055332,-34.78961,-12.607088,0.6997664,1.507409,-2.8994472,0.073171936,-0.6813168,0.301802,0.18763377,-0.3868908,0.2383079,0.6450151,0.5754266,0.9539293,-0.3652792,-1.6197604,-0.94107795,2.4568796,1.5146822,-0.9192438,1.0093504,-0.38773844,-1.6343906,-0.9084838,2.4379811,1.4549166,-0.9732808,-1.2591205,0.73134845,0.40083906,-0.6332148,0.47286418,0.4732914,0.35277736,1.273139,-0.6275635,1.6010541,-2.908428,0.115260795,-0.640661,0.11163521,-0.3084488,1.0769919,0.8026208,-0.23351523,0.101750605,0.53936744,0.027343096,0.35295662,0.012079358,1.0,0.0,0.0,0.0,0.0,0.0,0.0,-1.923139,0.22756347,-1.051054,4.788208,-16.289066,-4.971373,-9.501255,-8.139032,-0.06924868,0.9091377
-22.980637,-100.31721,-33.740944,-3.8434072,3.473973,-4.0679445,-0.19771935,-0.6285722,-0.010386787,0.07083664,-0.4911941,0.06766745,0.621446,0.54096603,0.9464932,-0.3887771,-1.6273069,-0.9576032,2.444748,1.5170612,-0.9191842,0.99728215,-0.38288853,-1.6312473,-0.9157699,2.4417005,1.4596106,-0.9697188,-1.1876787,0.40244982,0.28511864,-0.7610627,0.33719677,0.46764085,0.35639116,1.2440767,-0.62641907,1.5939158,-2.90552,0.11514556,-0.73820645,0.11154556,-0.30667114,1.0762588,0.802156,-0.23364964,0.10421974,0.53952926,-0.017459065,0.11703919,-0.1036843,1.0,0.0,0.0,0.0,0.0,0.0,0.0,-1.8940767,0.22641906,-1.0439157,7.6871634,-33.006935,-11.715662,-12.970507,-13.963771,-0.69660544,0.08491278
-43.078606,-176.0,-60.368217,-10.539682,5.3084884,-5.625122,-0.66059244,-0.5064319,-0.38919368,-0.2126295,-0.59463936,-0.2892266,0.5840353,0.4646915,0.94663894,-0.4218079,-1.6525103,-0.9752338,2.412778,1.5180141,-0.92324966,0.98641026,-0.38256714,-1.6308258,-0.92458564,2.44344,1.4643065,-0.9660672,-1.0510509,-0.09231001,-0.038386248,-0.92191845,0.11692839,0.4679169,0.36642653,1.2150431,-0.62527466,1.5858028,-2.9026148,0.11503043,-0.8356544,0.110672,-0.30830383,1.0739057,0.80261505,-0.23174453,0.10610675,0.5393004,-0.10927725,-0.2579959,-0.2799974,1.0,0.0,0.0,0.0,0.0,0.0,0.0,-1.865043,0.22527465,-1.0358028,14.436007,-49.788086,-32.261013,-16.138184,-22.864275,-0.61342716,0.51018
-21.885921,-147.4978,-45.000298,-16.106945,4.248604,-5.0051675,0.31101203,-0.2020916,-0.59776115,0.051016632,-0.648218,-0.509529,0.60232043,0.4949997,0.9662011,-0.44234326,-1.6257241,-0.9894074,2.392487,1.5245385,-0.9165672,0.97814,-0.3875806,-1.6317909,-0.93492156,2.4422765,1.4689013,-0.96242416,-0.7510901,-0.6386715,-0.11546918,-1.0702424,-0.19514391,0.4536393,0.36241874,1.186039,-0.62413025,1.5767161,-2.8997128,0.11491542,-0.9330049,0.10923004,-0.31321716,1.0698812,0.8034426,-0.22801174,0.10701945,0.5394789,-0.15718193,-0.5681483,-0.44376743,1.0,0.0,0.0,0.0,0.0,0.0,0.0,-1.836039,0.22413024,-1.026716,30.376934,-54.934605,-7.607922,-14.657009,-31.6249,-2.3138165,-0.759238
11.786272,-84.058754,-20.37502,-24.151564,1.7312242,-4.413183,1.2865133,0.22838289,-0.7197024,0.0091050295,-0.68508476,-0.5619465,0.6415408,0.45987847,1.0009782,-0.45955086,-1.6308804,-1.00343,2.386082,1.5330553,-0.9164363,0.97450936,-0.39743492,-1.6329753,-0.94652396,2.4382787,1.4733797,-0.958846,-0.23663191,-1.1016952,-0.116855316,-1.1904069,-0.46744275,0.4430197,0.35600376,1.1570635,-0.62298584,1.5666566,-2.8968139,0.114800535,-1.030258,0.108034134,-0.32047272,1.0644108,0.80370915,-0.22303437,0.106657386,0.5412313,-0.11026377,-0.7751496,-0.58287126,1.0,0.0,0.0,0.0,0.0,0.0,0.0,-1.8070635,0.22298583,-1.0166566,50.5589,-46.496964,0.6284639,-12.075853,-27.114464,-1.9784927,-0.7623911
23.85181,-31.708836,-4.8246775,-18.468515,0.18157673,-3.5193377,1.1597812,0.37185618,-0.7580642,-0.18982649,-0.6483332,-0.56222737,0.65816414,0.35470468,1.011695,-0.47324133,-1.651958,-1.0113573,2.382056,1.5391961,-0.9233755,0.975979,-0.41069624,-1.6347187,-0.9587653,2.4321713,1.4777857,-0.9554032,0.2695339,-1.4014366,-0.18928516,-1.2362475,-0.6574879,0.43701997,0.34039134,1.1281176,-0.62184143,1.5556253,-2.8939178,0.11468576,-1.1274141,0.107580185,-0.3291397,1.0578506,0.80316484,-0.21731494,0.1052798,0.5446252,-0.025351403,-0.8938315,-0.68340945,1.0,0.0,0.0,0.0,0.0,0.0,0.0,-1.7781175,0.22184142,-1.0056252,49.039944,-30.117035,-5.994782,-4.8292875,-18.775475,-1.3667941,-1.5494943
29.854284,6.1370335,4.755455,-14.528076,-0.96588767,-3.0066793,0.90366083,0.50112325,-0.78654194,-0.33491126,-0.6955747,-0.48561445,0.65218765,0.28616023,1.0260913,-0.48935044,-1.6682098,-1.0283228,2.38361,1.5430045,-0.9267872,0.9818975,-0.4258153,-1.6378105,-0.9713567,2.4249883,1.4821459,-0.95215976,0.69404745,-1.5490534,-0.34507245,-1.2678542,-0.73793876,0.43389964,0.31936032,1.0992002,-0.620697,1.5436232,-2.8910246,0.114571095,-1.2244729,0.10813522,-0.33857727,1.0504712,0.80193156,-0.21103933,0.103303604,0.549269,0.084563866,-0.95622104,-0.76083875,1.0,0.0,0.0,0.0,0.0,0.0,0.0,-1.7492002,0.22069702,-0.9936232,40.870304,-14.856815,-14.362537,-3.4628868,-7.8529954,-0.89647174,-2.0264328
27.04591,26.431301,8.808877,-7.5600333,-1.0014845,-2.4752889,0.51512647,0.5845718,-0.80492836,-0.4432457,-0.7070983,-0.32567367,0.64726985,0.20129998,1.0403546,-0.50630814,-1.682135,-1.0420666,2.392421,1.5468729,-0.9320298,0.9911376,-0.441601,-1.6428401,-0.9841464,2.4179158,1.4864908,-0.9491738,0.9969659,-1.5885859,-0.55285895,-1.2834579,-0.69640845,0.43338814,0.291995,1.0703115,-0.6195526,1.5306512,-2.8881342,0.11445655,-1.3214346,0.109674454,-0.3484192,1.0424811,0.8002568,-0.20427698,0.10093794,0.5546815,0.18252471,-0.9877158,-0.8177844,1.0,0.0,0.0,0.0,0.0,0.0,0.0,-1.7203115,0.2195526,-0.9806512,29.187881,-4.0160656,-19.94614,-1.7785072,4.2420506,-0.42853355,-2.6240528
24.926405,44.029808,14.0779915,-1.1541967,-0.7939812,-1.7803643,0.35849333,0.6370525,-0.80094504,-0.4286745,-0.7314812,-0.15015103,0.63792235,0.10239834,1.0548428,-0.5216955,-1.6857076,-1.0572945,2.4029007,1.5502831,-0.93893397,1.0025125,-0.45727322,-1.6495521,-0.9971116,2.4120145,1.4908396,-0.9465121,1.1823721,-1.560119,-0.70962363,-1.3014405,-0.55479777,0.43482324,0.25816244,1.0414515,-0.6184082,1.5167103,-2.8852468,0.114342116,-1.4182994,0.11204338,-0.35832977,1.0340877,0.7982614,-0.19715723,0.09812417,0.56060624,0.26266882,-0.986186,-0.85359514,1.0,0.0,0.0,0.0,0.0,0.0,0.0,-1.6914514,0.2184082,-0.96671027,17.977406,2.8325558,-15.372456,-1.9555092,14.227879,-0.010854006,-3.2013953
23.917757,55.242928,18.343306,3.3111887,-0.48666203,-1.2439508,0.3072795,0.7059426,-0.7892415,-0.4254922,-0.7462252,0.035428837,0.62048113,-0.039369248,1.0731068,-0.53619736,-1.6921014,-1.0717342,2.4155574,1.5528877,-0.95044905,1.0152078,-0.47242853,-1.6573246,-1.0102724,2.4080625,1.4951998,-0.94426525,1.2978504,-1.5006521,-0.79994553,-1.321474,-0.34187365,0.43629426,0.21430989,1.0126209,-0.6172638,1.5018014,-2.8823621,0.114227794,-1.5150675,0.11508274,-0.36805725,1.0254675,0.7959517,-0.18983781,0.094652854,0.5669773,0.32680586,-0.96231204,-0.8724429,1.0,0.0,0.0,0.0,0.0,0.0,0.0,-1.6626209,0.21726379,-0.95180136,11.312437,5.968094,-9.065795,-2.1386623,21.380497,0.14891624,-4.1440544
16.623947,47.241524,14.774541,6.3194685,0.38333327,-1.2124314,0.1517665,0.73283106,-0.7862818,-0.5345076,-0.772549,0.29842106,0.5515456,0.013857483,1.0884908,-0.55105674,-1.7107753,-1.0875273,2.4379046,1.5503544,-0.9428795,1.0286355,-0.48700687,-1.6660736,-1.0237058,2.406777,1.4995219,-0.94238365,1.3576455,-1.4435536,-0.90027404,-1.3507556,-0.057449955,0.43062386,0.18032493,0.983819,-0.6161194,1.4859257,-2.8794804,0.11411359,-1.6117387,0.11855316,-0.3777008,1.0166461,0.793424,-0.18224138,0.09026246,0.5736889,0.36315694,-0.95660406,-0.8930086,1.0,0.0,0.0,0.0,0.0,0.0,0.0,-1.633819,0.21611938,-0.93592566,5.9670925,5.706811,-10.141886,-2.9577255,28.444359,-0.58467984,-3.153613
7.336699,36.857594,10.435287,10.4468975,0.9451917,-1.0206448,-0.04946331,0.71686953,-0.79004514,-0.57937324,-0.764921,0.32919264,0.53415805,0.10474021,1.1003225,-0.56601137,-1.724011,-1.1001979,2.439696,1.5529376,-0.9319096,1.0422482,-0.5011689,-1.6757591,-1.0373396,2.4080129,1.5037695,-0.94073284,1.3628755,-1.4072334,-0.99171746,-1.3673778,0.18376496,0.42269123,0.16067499,0.9550457,-0.614975,1.4690839,-2.8766015,0.1139995,-1.7083132,0.12218952,-0.387352,1.0075967,0.7908287,-0.17430262,0.084994815,0.58050346,0.3736389,-0.96267337,-0.9166328,1.0,0.0,0.0,0.0,0.0,0.0,0.0,-1.6050457,0.21497497,-0.9190839,0.67338943,3.5957336,-9.272718,-1.5877485,24.035418,-0.8477986,-1.7751247
-2.2471714,28.222004,6.028858,14.056839,0.5619587,-0.7542657,-0.29161125,0.659112,-0.78982085,-0.6207147,-0.7552489,0.0026181082,0.53119504,0.28150976,1.1081594,-0.58015096,-1.7378305,-1.1128645,2.4082747,1.556889,-0.91258186,1.0554566,-0.51511925,-1.6862972,-1.0510191,2.4101186,1.5079371,-0.9391154,1.3078237,-1.3912392,-1.0751456,-1.3675402,0.21876231,0.41424367,0.16219254,0.926301,-0.61383057,1.4512771,-2.8737254,0.11388552,-1.8047912,0.12586975,-0.39707184,0.9982607,0.7883667,-0.16601701,0.07959009,0.5870108,0.3753461,-0.9655102,-0.94712305,1.0,0.0,0.0,0.0,0.0,0.0,0.0,-1.576301,0.21383056,-0.9012771,-5.2096367,1.5362501,-8.504415,0.14476776,3.325361,-0.9753883,0.17821193
-3.2289028,29.36655,6.1937017,14.355814,-0.62067556,-0.49963173,-0.36572087,0.6529283,-0.78778446,-0.6341371,-0.7431674,-0.42188174,0.58380944,0.2833428,1.1207495,-0.5938977,-1.7497109,-1.1253358,2.3679304,1.566318,-0.91078115,1.0680375,-0.5290095,-1.6974895,-1.0645899,2.410771,1.5120665,-0.93746364,1.2423793,-1.3884771,-1.1345994,-1.3531939,0.013586949,0.4118728,0.16569208,0.8975849,-0.61268616,1.4325063,-2.8708522,0.11377166,-1.9011729,0.1296978,-0.40663147,0.9885968,0.7861489,-0.15748909,0.07508093,0.59289944,0.39397213,-0.9453588,-0.9807518,1.0,0.0,0.0,0.0,0.0,0.0,0.0,-1.5475849,0.21268615,-0.8825063,-6.2542677,0.22010803,-6.1496735,1.5904427,-20.669563,-0.39129853,0.230214
0.72419024,33.194515,8.77842,13.347069,-1.1120216,-0.35268307,-0.23502637,0.67501307,-0.7981731,-0.62603414,-0.7262615,-0.5408176,0.617569,0.23702703,1.1355388,-0.6088268,-1.760093,-1.137216,2.3566892,1.5738233,-0.91376096,1.0801682,-0.5429751,-1.7090156,-1.0779299,2.408833,1.5162073,-0.935809,1.2038946,-1.3994951,-1.159109,-1.3270175,-0.2628728,0.41426793,0.1649705,0.8688984,-0.6115494,1.4127724,-2.867982,0.113657914,-1.997458,0.13380337,-0.41587067,0.9786195,0.78410846,-0.1488746,0.071882606,0.59819984,0.42391148,-0.9104711,-1.0111157,1.0,0.0,0.0,0.0,0.0,0.0,0.0,-1.5188984,0.21154937,-0.8627724,-3.6579847,-1.1453152,-2.6530266,2.740121,-27.73962,0.11147261,-0.20042658
2.788196,32.450752,9.27361,12.432137,-0.8806126,-0.38599244,-0.13390717,0.68227464,-0.81276506,-0.66055924,-0.7117741,-0.5330473,0.6324636,0.21382165,1.1483957,-0.6242516,-1.7750715,-1.1491072,2.3555284,1.5794537,-0.91442686,1.0921102,-0.55713624,-1.7207725,-1.0909666,2.4044652,1.5203844,-0.93418014,1.1911738,-1.4218054,-1.1817827,-1.2955581,-0.4954675,0.41860837,0.16196771,0.8402405,-0.6104202,1.3920764,-2.8651145,0.11354428,-2.0936468,0.1381998,-0.4248047,0.96833724,0.78214824,-0.14023754,0.06982715,0.6030768,0.45231327,-0.8804073,-1.0416571,1.0,0.0,0.0,0.0,0.0,0.0,0.0,-1.4902405,0.21042022,-0.84207636,-1.1552811,-2.2812605,-2.4192572,3.2724857,-23.353708,0.29796958,-0.37780106
4.8884373,35.398,11.168492,12.361621,-0.54839665,-0.3050018,-0.008709431,0.67499995,-0.81494635,-0.6562949,-0.69876784,-0.5165301,0.643024,0.23530523,1.1596102,-0.63863087,-1.786402,-1.1608434,2.3528123,1.5846869,-0.9106496,1.1040063,-0.571511,-1.7326496,-1.1036905,2.3983617,1.5246149,-0.93256176,1.1893874,-1.4428177,-1.1900408,-1.2641705,-0.6488876,0.42407918,0.16178042,0.8116112,-0.6092911,1.3704191,-2.8622499,0.11343076,-2.1897392,0.14284801,-0.43346405,0.95778334,0.780158,-0.13161948,0.068548985,0.607726,0.47589943,-0.85073686,-1.067486,1.0,0.0,0.0,0.0,0.0,0.0,0.0,-1.4616112,0.20929107,-0.82041913,-0.08914471,-2.1488667,-0.9718895,3.253603,-15.437328,0.43435097,-0.025945902
6.736702,39.69613,13.543934,12.402279,-0.29445457,-0.16242588,0.11168958,0.66117424,-0.8173085,-0.627926,-0.6969858,-0.50411403,0.65479255,0.24676919,1.1701237,-0.6532418,-1.7954421,-1.1733891,2.3479502,1.5900942,-0.90788484,1.11587,-0.5860545,-1.744416,-1.1161722,2.3912702,1.5289065,-0.93093,1.1856383,-1.458371,-1.1728197,-1.2424328,-0.7292489,0.43050542,0.16376506,0.7830105,-0.6081619,1.3478017,-2.859388,0.11331735,-2.2857358,0.14769936,-0.44177246,0.947012,0.77802044,-0.12306466,0.06767377,0.6123393,0.49507087,-0.8178698,-1.0877703,1.0,0.0,0.0,0.0,0.0,0.0,0.0,-1.4330105,0.20816192,-0.7978017,-0.2783537,-1.5936613,1.5425205,2.2740602,-8.129334,0.5586028,0.25841296
8.17195,44.40315,15.916536,12.841589,-0.17595285,0.004628688,0.1837721,0.6535153,-0.8180468,-0.59970015,-0.6862477,-0.51616204,0.66829884,0.24413188,1.1812215,-0.6678592,-1.804386,-1.1847969,2.339654,1.5957364,-0.90651685,1.1276727,-0.6007001,-1.7558486,-1.1284689,2.3837056,1.5332686,-0.9292773,1.17881,-1.4668027,-1.1340634,-1.2250965,-0.7658014,0.43788964,0.1660551,0.7544384,-0.6070328,1.3242251,-2.8565292,0.113204055,-2.3816364,0.15272045,-0.44974518,0.93608916,0.7756532,-0.11462997,0.06694835,0.61704135,0.5113351,-0.77928835,-1.1010497,1.0,0.0,0.0,0.0,0.0,0.0,0.0,-1.4044384,0.20703277,-0.77422506,-0.57559013,-0.87087154,3.6647558,1.8176556,-3.747058,0.6901741,0.33289194
7.6196604,47.380707,16.966343,13.698319,-0.08382636,0.13444367,0.1755051,0.6370674,-0.8115248,-0.5907729,-0.6774719,-0.52872956,0.6744123,0.2566948,1.1913794,-0.6818526,-1.8149259,-1.1962161,2.3308327,1.6007098,-0.90360785,1.1393399,-0.6153552,-1.7668808,-1.1406149,2.3759465,1.5377032,-0.9275931,1.1631364,-1.4652016,-1.0937659,-1.2107505,-0.7798513,0.44528154,0.16947198,0.7258949,-0.6059036,1.2996901,-2.8536732,0.11309087,-2.477441,0.1578741,-0.4573059,0.9250672,0.7730409,-0.106342494,0.066272855,0.6218576,0.52346843,-0.73802924,-1.1095467,1.0,0.0,0.0,0.0,0.0,0.0,0.0,-1.3758949,0.20590362,-0.7496901,-1.4301062,0.13716221,3.802371,1.5190363,-1.5106082,0.7165134,0.4536271
7.040888,46.372658,16.368223,13.099896,0.017503321,0.094656646,0.17619921,0.6286095,-0.8152619,-0.5899963,-0.6886243,-0.5075969,0.6707416,0.27552193,1.2022009,-0.6968814,-1.8258804,-1.2094773,2.3251867,1.6047773,-0.9000409,1.1508279,-0.6299855,-1.7775943,-1.152717,2.3682103,1.5422007,-0.92586315,1.1444658,-1.4623935,-1.0646874,-1.2096312,-0.772303,0.4511088,0.1745235,0.6973791,-0.6047745,1.2741978,-2.85082,0.1129778,-2.57315,0.16313934,-0.46448517,0.9139306,0.77019274,-0.098144025,0.06557591,0.626794,0.53396285,-0.70162207,-1.1216116,1.0,0.0,0.0,0.0,0.0,0.0,0.0,-1.3473791,0.20477447,-0.7241978,-1.7143965,0.2548933,2.6784182,0.21827221,0.6393075,0.5396664,0.6238431
5.4097214,45.679787,15.610848,13.435459,0.079135,0.10872224,0.11903214,0.6153824,-0.8107175,-0.59568745,-0.68163085,-0.5236139,0.6766379,0.28093123,1.2123661,-0.71105725,-1.8371631,-1.22088,2.3158488,1.6098645,-0.89777005,1.1621022,-0.64456433,-1.7881477,-1.1648134,2.360539,1.5467535,-0.9240836,1.1223865,-1.4564605,-1.0530269,-1.2092324,-0.76587147,0.45643726,0.17949404,0.6688919,-0.6036453,1.2477492,-2.8479698,0.11286485,-2.668763,0.16849232,-0.47132874,0.90265936,0.7671506,-0.08998192,0.064874604,0.6318026,0.54148483,-0.6682818,-1.1351492,1.0,0.0,0.0,0.0,0.0,0.0,0.0,-1.3188919,0.20364532,-0.6977492,-2.0433903,0.56245327,0.9524822,0.16434193,0.5122304,0.48272014,0.5997777
6.6924696,45.176685,15.536764,12.194124,0.01854664,0.030659378,0.14069408,0.621739,-0.812591,-0.5943079,-0.69051605,-0.50816333,0.6727004,0.27484262,1.2242761,-0.7258234,-1.8475785,-1.233865,2.3097227,1.6140236,-0.89659935,1.1732335,-0.6590993,-1.7986629,-1.1769575,2.3529744,1.5513464,-0.922263,1.110375,-1.4525738,-1.051536,-1.215847,-0.75379527,0.4602088,0.18326034,0.6404333,-0.6025162,1.2203451,-2.8451223,0.112752005,-2.7642806,0.17394829,-0.47785187,0.8912215,0.763917,-0.08179781,0.06416108,0.63688546,0.552829,-0.63714296,-1.1525607,1.0,0.0,0.0,0.0,0.0,0.0,0.0,-1.2904333,0.20251617,-0.6703451,-1.0545254,0.3570795,-0.052928925,-0.5294323,1.0872841,0.29901266,0.485456
4.3983593,44.860447,14.962816,12.946831,0.0764246,0.12167689,0.09012306,0.5943934,-0.8068891,-0.59637445,-0.6894959,-0.5309211,0.6804476,0.29686305,1.2326728,-0.7397882,-1.8583003,-1.2459071,2.2998824,1.6193912,-0.8925767,1.1841741,-0.6735818,-1.8092144,-1.1891645,2.345448,1.5559775,-0.9203948,1.0889279,-1.4469678,-1.0568796,-1.221867,-0.7527914,0.46397984,0.18832381,0.6120033,-0.601387,1.1919866,-2.8422778,0.11263928,-2.8597026,0.17949009,-0.48406982,0.879606,0.76052034,-0.073568694,0.06348404,0.64200175,0.55948544,-0.6067067,-1.1701941,1.0,0.0,0.0,0.0,0.0,0.0,0.0,-1.2620033,0.20138702,-0.64198655,-1.9802332,0.5248785,-0.73013306,-0.4543543,-0.03503561,0.29888153,0.5959481
2.1412225,45.04702,14.7016945,13.832495,0.12435126,0.24778974,0.052275456,0.56997555,-0.80287945,-0.59447086,-0.68978375,-0.5596481,0.6875402,0.31903225,1.2411716,-0.7538697,-1.8686614,-1.258143,2.2894833,1.6247315,-0.8884916,1.1948228,-0.68800133,-1.8198192,-1.2014211,2.3378186,1.5606486,-0.9184636,1.0573703,-1.440418,-1.0623351,-1.2262887,-0.7664042,0.4679507,0.19484198,0.58360195,-0.6002579,1.1626745,-2.839436,0.11252666,-2.955029,0.18506241,-0.48999023,0.8678214,0.7569936,-0.06530209,0.06291855,0.6470993,0.5610987,-0.5756757,-1.1866229,1.0,0.0,0.0,0.0,0.0,0.0,0.0,-1.2336019,0.20025787,-0.61267453,-2.9768467,0.6166935,-0.73826313,-0.28362274,-1.5103459,0.32394528,0.7238835
-1.3496914,45.224068,14.265979,15.165495,0.23299104,0.42102367,0.008493036,0.53077894,-0.79710656,-0.59031343,-0.6940286,-0.5934437,0.68392944,0.3566392,1.2479007,-0.767712,-1.8788506,-1.270824,2.2784743,1.6290416,-0.8827997,1.2050233,-0.70234174,-1.8304489,-1.2137235,2.329945,1.565354,-0.9164456,1.0082366,-1.4321269,-1.063951,-1.2310236,-0.79481375,0.47114232,0.2042453,0.5552292,-0.5991287,1.1324099,-2.8365972,0.11241416,-3.0502605,0.19059372,-0.4955902,0.85588574,0.7533712,-0.057011344,0.06253611,0.6521279,0.55475235,-0.5443106,-1.20108,1.0,0.0,0.0,0.0,0.0,0.0,0.0,-1.2052292,0.19912872,-0.5824099,-4.70984,0.7878542,-0.35734177,-0.30128956,-3.01162,0.2575755,0.9925008
-13.738474,37.04899,8.427551,18.028349,0.9028628,0.5380597,-0.2463946,0.44031137,-0.7990906,-0.64564174,-0.7076916,-0.6061596,0.66784084,0.3002001,1.2490544,-0.7822508,-1.8950131,-1.2844927,2.269329,1.632138,-0.8864256,1.2143884,-0.7166278,-1.8413398,-1.2261194,2.3217664,1.5700728,-0.9143857,0.91347975,-1.4276553,-1.097909,-1.2417648,-0.8261947,0.471939,0.20657721,0.5268841,-0.5979996,1.1011937,-2.8337612,0.11230177,-3.1453967,0.19587326,-0.50102997,0.84372735,0.7498395,-0.048586637,0.062399622,0.6568761,0.52286667,-0.5318358,-1.2257134,1.0,0.0,0.0,0.0,0.0,0.0,0.0,-1.176884,0.19799957,-0.55119365,-9.201611,0.3684044,-3.555107,-0.82206726,-3.3865452,-0.0044822693,0.23113489
-30.553326,29.496925,2.316372,22.669058,1.8141696,0.8927411,-0.5200527,0.29908344,-0.79892087,-0.6640435,-0.7276192,-0.6247889,0.65578616,0.27445886,1.2442967,-0.7965199,-1.9077442,-1.2988813,2.2592876,1.6356514,-0.88693976,1.2222676,-0.7308909,-1.8526485,-1.2387003,2.3132672,1.5747877,-0.91233337,0.74719167,-1.4263091,-1.1423488,-1.2624177,-0.85921514,0.47101662,0.2046061,0.49856758,-0.5968704,1.0690268,-2.830928,0.11218949,-3.2404377,0.20055866,-0.5064621,0.8312715,0.7466453,-0.039913777,0.06253163,0.661073,0.45367637,-0.5375058,-1.2569543,1.0,0.0,0.0,0.0,0.0,0.0,0.0,-1.1485676,0.19687042,-0.5190268,-16.249931,0.010037422,-4.589033,-1.7190933,-3.6543727,-0.18031597,-0.25323033
-74.34489,13.539549,-11.863914,36.283157,4.258857,1.9511237,-1.1977394,-0.06251743,-0.8002591,-0.67741674,-0.7640195,-0.6250239,0.6175271,0.24547063,1.2160159,-0.81091684,-1.9203901,-1.3151022,2.2507648,1.6365404,-0.8877863,1.2270226,-0.74516743,-1.8643959,-1.2516207,2.3044858,1.5794626,-0.9103316,0.38701954,-1.4289875,-1.1858382,-1.300106,-0.88657963,0.46614948,0.19808413,0.4702797,-0.59575653,1.0359104,-2.8280978,0.112077326,-3.3353837,0.20381165,-0.5122833,0.8184539,0.7443165,-0.030854248,0.06290864,0.6641411,0.28462702,-0.5848242,-1.2946044,1.0,0.0,0.0,0.0,0.0,0.0,0.0,-1.1202797,0.19575652,-0.48591036,-35.35084,-0.5205631,-4.4788837,-3.1781435,-3.369999,-0.56908727,-0.8208245
-113.11147,5.295713,-21.68025,49.55771,6.5586214,3.1342099,-1.6847875,-0.41754082,-0.79623663,-0.6484504,-0.7854173,-0.5790332,0.5616894,0.34994295,1.1852685,-0.8247911,-1.929241,-1.3301624,2.2465825,1.6356316,-0.8753373,1.2269139,-0.7594659,-1.876332,-1.2649568,2.2956204,1.5840441,-0.90831554,-0.14049548,-1.4315314,-1.1966563,-1.3419034,-0.8894955,0.45500502,0.20214903,0.44201946,-0.59464264,1.0018451,-2.8252704,0.11196527,-3.4302347,0.20467949,-0.5187912,0.8053166,0.74334294,-0.021369267,0.063358955,0.66556007,0.021910474,-0.66258234,-1.3245475,1.0,0.0,0.0,0.0,0.0,0.0,0.0,-1.0920194,0.19464263,-0.4518451,-51.831245,-0.6643772,-1.2185335,-3.309989,-1.2193918,-1.2735963,0.22659004
-100.81094,18.953564,-12.649753,47.258892,6.0869694,3.404966,-1.3078152,-0.5019821,-0.7969753,-0.5596526,-0.7844313,-0.53423196,0.5879659,0.4448733,1.1767157,-0.8391634,-1.9322973,-1.3434,2.2421973,1.6428407,-0.8638282,1.2219491,-0.77379006,-1.8878486,-1.2786173,2.286923,1.588534,-0.9061707,-0.6123441,-1.4340792,-1.1373718,-1.3711487,-0.86587876,0.4463745,0.21849136,0.41378784,-0.59352875,0.96683204,-2.8224459,0.11185333,-3.524991,0.20306396,-0.5258789,0.79205203,0.74357855,-0.01168301,0.063572295,0.665517,-0.22402677,-0.7139793,-1.33123,1.0,0.0,0.0,0.0,0.0,0.0,0.0,-1.0637878,0.19352874,-0.41683203,-46.35595,-0.66497326,5.7151318,-2.049303,1.5027881,-1.0921836,1.6411543
-74.939835,28.345964,-4.663064,37.820213,4.626487,2.7723036,-0.89138746,-0.5532545,-0.7953634,-0.6158166,-0.7890992,-0.5434042,0.56355834,0.480046,1.1666236,-0.8533264,-1.9494302,-1.3575271,2.2325826,1.6448898,-0.8581661,1.2132936,-0.78812283,-1.8989856,-1.2924875,2.278462,1.5929266,-0.90383327,-0.94802594,-1.4341924,-1.106508,-1.3897629,-0.8417995,0.4359406,0.23927516,0.38558483,-0.59241486,0.93087214,-2.8196242,0.1117415,-3.6196525,0.19945145,-0.53330994,0.77870834,0.74465585,-0.0018700244,0.063447826,0.66442335,-0.41043252,-0.7416342,-1.3391756,1.0,0.0,0.0,0.0,0.0,0.0,0.0,-1.0355848,0.19241485,-0.38087213,-32.94171,-0.35533905,2.8797388,-1.0866165,1.7270088,-1.3411462,2.1811187
-54.54219,30.000235,-1.5490708,29.099752,3.4487984,1.978308,-0.66604453,-0.62525755,-0.8025593,-0.7127311,-0.78121006,-0.5525544,0.5638112,0.4607919,1.1507678,-0.86837876,-1.9702587,-1.3706086,2.2232065,1.6493077,-0.8577541,1.202208,-0.80248135,-1.9103744,-1.3064264,2.270184,1.597222,-0.90131366,-1.1604397,-1.4373641,-1.1501446,-1.392953,-0.82481116,0.42615628,0.25652215,0.35740948,-0.59130096,0.8939663,-2.8168051,0.111629784,-3.7142193,0.1943636,-0.5409622,0.7651634,0.7463257,0.008181562,0.063051544,0.66253716,-0.5462483,-0.76085526,-1.3629704,1.0,0.0,0.0,0.0,0.0,0.0,0.0,-1.0074095,0.19130096,-0.3439663,-20.78476,-0.6071806,-4.49481,0.37033558,1.145184,-1.3431609,1.8351763
-40.628277,33.71407,1.996654,23.58736,2.7266574,1.6013696,-0.50636643,-0.7106128,-0.8007532,-0.7396773,-0.781835,-0.49635202,0.5409716,0.4002737,1.1311468,-0.8825567,-1.9843421,-1.3846099,2.2205489,1.6513191,-0.8612863,1.1895623,-0.81685895,-1.9224231,-1.32035,2.2621999,1.6014124,-0.89868534,-1.2981623,-1.4386464,-1.2234287,-1.3900615,-0.79105765,0.4153484,0.26525557,0.32926273,-0.5901871,0.8561155,-2.8139887,0.111518174,-3.8086915,0.18815613,-0.5487366,0.75133866,0.7484237,0.018551769,0.06235845,0.6600221,-0.65122336,-0.77024704,-1.3921471,1.0,0.0,0.0,0.0,0.0,0.0,0.0,-0.9792627,0.19018707,-0.3061155,-13.429546,-0.37198067,-7.4123144,0.89144707,2.9126644,-1.4570534,0.9989977
-29.925932,38.913227,6.2628136,19.977276,2.3205867,1.4852266,-0.37746197,-0.7687021,-0.79814506,-0.74754035,-0.78295153,-0.38097546,0.517093,0.28436068,1.1126921,-0.89667344,-1.9971771,-1.3986452,2.2241023,1.6531217,-0.8702493,1.1759,-0.83122796,-1.9351737,-1.3342355,2.2548642,1.6054865,-0.8960742,-1.3880289,-1.4369551,-1.2925754,-1.3864176,-0.71540684,0.40375003,0.2603174,0.30114365,-0.5890732,0.8173207,-2.811175,0.111406684,-3.9030693,0.18104935,-0.55651855,0.7372447,0.75083,0.02923276,0.061184008,0.65700555,-0.73681307,-0.7693486,-1.4182509,1.0,0.0,0.0,0.0,0.0,0.0,0.0,-0.9511436,0.18907318,-0.2673207,-8.7326765,-0.030136108,-6.9751263,0.8713007,7.1906447,-1.5139341,-0.3275156
-21.113455,42.77455,10.149442,17.79882,2.194066,1.4363291,-0.3423072,-0.79036105,-0.8092272,-0.7550244,-0.761547,-0.22839987,0.4867423,-0.0065108864,1.0968639,-0.9121507,-2.0106761,-1.4103903,2.2320242,1.6541607,-0.89672524,1.1616426,-0.8456246,-1.9484775,-1.3479933,2.2486882,1.6094366,-0.8937386,-1.4376452,-1.4410855,-1.3431138,-1.3708789,-0.5858256,0.39101464,0.22539254,0.27305317,-0.5879593,0.7775828,-2.8083644,0.1112953,-3.9973526,0.17318344,-0.56427765,0.7229415,0.7535017,0.04013503,0.0592253,0.6535417,-0.809743,-0.76322335,-1.4374043,1.0,0.0,0.0,0.0,0.0,0.0,0.0,-0.92305315,0.18795928,-0.22758281,-4.789686,-0.5684376,-5.095792,1.965785,12.698245,-1.5858591,-3.2688737
-15.6556015,48.266155,13.835515,17.41232,2.052321,1.5462998,-0.35605532,-0.80921924,-0.8050274,-0.7686775,-0.73277795,-0.1302854,0.50392425,-0.20852028,1.0807207,-0.9261274,-2.0253453,-1.4212711,2.2356596,1.659829,-0.91459066,1.1470647,-0.8600432,-1.9621665,-1.3614744,2.2439733,1.6132876,-0.8919009,-1.4640464,-1.4425725,-1.3773576,-1.3395053,-0.43433997,0.38216722,0.17071989,0.24499035,-0.5868454,0.73689485,-2.8055565,0.11118402,-4.0926065,0.16464615,-0.57192993,0.7085276,0.7564432,0.051111743,0.056317214,0.64962256,-0.87465984,-0.7497024,-1.4457805,0.0,1.0,0.0,0.0,0.0,0.0,0.0,-0.8949903,0.18684539,-0.18689483,-2.526164,-0.27217865,-3.4400463,3.4679174,14.974135,-1.1437356,-5.2272053
-12.654103,55.25746,17.864372,18.673477,1.9644094,1.8259877,-0.3724523,-0.8264077,-0.7936828,-0.75703263,-0.6857594,-0.036817607,0.5319055,-0.30046418,1.0644239,-0.9394115,-2.03787,-1.4300504,2.2402916,1.6664782,-0.9219473,1.1322509,-0.8743505,-1.9764636,-1.3747544,2.2404103,1.6170794,-0.8904372,-1.4921304,-1.418651,-1.5099353,-1.3624395,-0.39180315,0.34574434,0.15818469,0.22215843,-0.5875473,0.71158683,-1.5802684,-0.27061695,0.20837244,0.15553188,-0.5793915,0.6939683,0.75959814,0.062203877,0.05270467,0.64526224,-0.91828144,-0.73117757,-1.48984,0.0,1.0,0.0,0.0,0.0,0.0,0.0,-0.8721584,0.1875473,-0.16158682,-3.8712025,4.003644,-25.770235,-9.885359,-7.3029757,-7.1124134,3.7287025
55.05984,176.0,110.0,110.0,-1.5901489,13.26087,-1.0473247,-0.7359387,0.54291517,0.71858716,0.72631866,-0.3462497,0.664666,-0.39422962,1.058657,-0.82005894,-1.9046048,-1.3021226,2.2057853,1.683546,-0.9298602,1.1217124,-0.89032567,-1.9866158,-1.3741425,2.2248755,1.630379,-0.88818604,-0.91125834,-1.6564428,-0.83976114,0.5349382,-1.9296074,1.6749762,0.24470322,0.2066021,-0.59026337,0.71453345,-1.5786885,-0.27034643,0.10891341,0.14605331,-0.58483124,0.6837631,0.76314056,0.062604174,0.054062318,0.64091694,-0.9638092,-0.46653515,-0.86209565,0.0,1.0,0.0,0.0,0.0,0.0,0.0,-0.8566021,0.19026336,-0.16453344,56.901,-23.376106,68.42742,188.41801,-152.35295,136.33363,7.997212
-9.252961,176.0,86.87801,92.288246,4.293156,7.109079,-1.2996789,-0.80517334,-0.6306807,0.2892835,0.7490991,-0.57017934,0.5490438,-0.29200906,1.0411952,-0.95339376,-1.9576874,-1.2992326,2.1678574,1.6852833,-0.91738695,1.1126239,-0.90658677,-1.9891583,-1.3616456,2.2039976,1.6470015,-0.8863712,-0.9071057,-1.6169685,-0.056480847,1.4886174,-2.1462803,1.6644536,0.16314839,0.19082642,-0.5929642,0.7148773,-1.5771102,-0.27007613,0.009553358,0.13569355,-0.5890045,0.67887586,0.7676542,0.054791518,0.05753769,0.6359201,-1.0598742,-0.38778248,-0.3687793,0.0,1.0,0.0,0.0,0.0,0.0,0.0,-0.8408264,0.19296417,-0.1648773,0.72158575,3.627634,79.142,95.554855,-23.314762,0.8331537,-7.3646727
-40.040154,135.5547,47.071865,64.58132,4.737176,4.0879216,-1.5291984,-0.7805129,-0.55410105,-0.16559328,0.6722741,-0.58355916,0.635779,-0.3186745,1.0345726,-0.96199685,-2.0057175,-1.2944182,2.1456418,1.7105794,-0.91823864,1.1026905,-0.9211761,-1.9878422,-1.3437451,2.184001,1.6627791,-0.88518864,-1.019971,-1.4071807,0.19369091,1.8921384,-1.9536583,1.5524206,0.1046987,0.1750679,-0.595665,0.71422833,-1.5755334,-0.26980612,-0.08970735,0.12414837,-0.5927353,0.6771888,0.7733217,0.044110257,0.06125593,0.6295041,-1.1864356,-0.36238226,-0.10986198,0.0,1.0,0.0,0.0,0.0,0.0,0.0,-0.8250679,0.19566497,-0.16422832,-10.675467,20.671463,24.852423,40.838337,18.340063,-10.115194,-5.4255753
-33.35165,124.57465,40.366623,41.057846,3.1544874,3.0200179,-0.80255663,-0.7886144,-0.5011693,0.15774891,0.7373253,-0.61737216,0.5909636,-0.16014725,1.023829,-0.97129303,-1.9720674,-1.2700126,2.1222637,1.7218754,-0.9012034,1.0911987,-0.9333421,-1.9845158,-1.3246373,2.1669645,1.6770365,-0.8844381,-1.1909609,-1.153959,0.3776863,1.9176891,-1.6226285,1.3858764,0.065604396,0.15932465,-0.5983658,0.71258754,-1.5739582,-0.26953635,-0.1888688,0.11166954,-0.59601593,0.6773739,0.7796866,0.032793056,0.0645699,0.6219678,-1.2710134,-0.30724627,0.052595764,0.0,1.0,0.0,0.0,0.0,0.0,0.0,-0.8093246,0.19836578,-0.16258752,-16.719078,25.048828,18.043655,2.778101,32.413437,-15.912032,-3.7711427
-33.608093,80.72385,16.946846,21.367462,2.089969,1.146131,-0.578426,-0.7929877,-0.4936168,-0.03560577,0.7397984,-0.60777056,0.60210025,-0.13244866,1.0119,-0.9827038,-1.9880763,-1.2506574,2.1061876,1.7372465,-0.89768296,1.0781868,-0.9433719,-1.9812752,-1.3066872,2.1531134,1.6897109,-0.8839994,-1.3375548,-0.9530398,0.304698,1.7545176,-1.306391,1.2293934,0.036382753,0.14359665,-0.60105896,0.7099559,-1.5723845,-0.26926687,-0.28793114,0.09854412,-0.598938,0.6780882,0.786443,0.022418372,0.06740143,0.61356485,-1.3296528,-0.28149348,0.070175014,0.0,1.0,0.0,0.0,0.0,0.0,0.0,-0.7935966,0.20105895,-0.15995586,-14.524174,19.96771,-7.7626286,-16.20853,31.54111,-15.194321,-2.969648
-23.195448,61.646683,10.141991,11.866013,1.0913062,0.24008411,-0.37310278,-0.7910083,-0.44587895,-0.05860511,0.76418555,-0.5841629,0.60045516,-0.22179666,0.9990859,-0.9879598,-1.9871358,-1.2302687,2.094697,1.7497563,-0.9061791,1.06412,-0.9518024,-1.9793907,-1.290574,2.1418753,1.700968,-0.88387734,-1.4296942,-0.8067037,0.1486089,1.5636127,-1.0630609,1.0923188,0.0037488192,0.12788391,-0.6037445,0.7063343,-1.5708125,-0.26899764,-0.38689443,0.08507919,-0.6017151,0.6785728,0.7934251,0.013650527,0.069931544,0.6044831,-1.355399,-0.26498106,0.035206366,0.0,1.0,0.0,0.0,0.0,0.0,0.0,-0.7778839,0.2037445,-0.15633428,-9.21123,14.549828,-15.910077,-19.05439,24.306751,-13.429308,-3.370614
-12.626208,47.2991,7.831951,7.079669,0.66332555,-0.24536663,-0.1811363,-0.79182667,-0.4535855,-0.04494776,0.7592153,-0.5247529,0.5887823,-0.26761582,0.98493737,-0.9971609,-1.9838855,-1.2146524,2.0894,1.7598462,-0.9106389,1.0495353,-0.9593599,-1.9790757,-1.2761381,2.1323957,1.7106788,-0.884163,-1.468161,-0.7389174,-0.008375397,1.4035616,-0.91032696,0.93144304,-0.039518066,0.11069965,-0.6050949,0.70548093,-1.7640382,-0.0900421,0.029544502,0.071559906,-0.60443115,0.67849267,0.80051,0.0066908766,0.07226938,0.5949084,-1.3533596,-0.26435858,-0.026890881,0.0,1.0,0.0,0.0,0.0,0.0,0.0,-0.7606996,0.2050949,-0.15548092,-4.0113688,6.640935,-14.509905,-15.393376,17.391872,-11.743355,-3.428597
0.14390945,78.11468,23.765108,12.242254,-0.034047127,0.39314255,-0.09823391,-0.80113673,-0.27257368,0.015129654,0.7741065,-0.5182626,0.58537287,-0.30087352,0.9694216,-0.98661727,-1.9775627,-1.1987274,2.0805695,1.7692161,-0.9142504,1.0347896,-0.96581817,-1.9796028,-1.2627157,2.1240833,1.71925,-0.8847983,-1.4772253,-0.6153125,-0.067223705,1.3216039,-0.80598295,0.8329595,-0.072057754,0.09318638,-0.6058426,0.7058371,-1.7470948,-0.06970012,0.036557,0.058197975,-0.60684204,0.6783745,0.8075698,0.0007874037,0.07471982,0.58501893,-1.3328184,-0.22354463,-0.010235171,0.0,1.0,0.0,0.0,0.0,0.0,0.0,-0.74318635,0.20584258,-0.15583706,-0.9906769,12.223434,-5.784598,-8.239698,10.117745,-9.643745,-3.4085855
5.5451593,89.95441,30.944603,15.657555,-0.074305,0.74719286,-0.050405465,-0.8049779,-0.2238778,0.039212935,0.7727606,-0.49811065,0.5878355,-0.3139406,0.95429176,-0.98820597,-1.9756815,-1.1854396,2.0742722,1.7780335,-0.91619235,1.0200706,-0.9710432,-1.9801979,-1.2496828,2.1165032,1.7270032,-0.8857252,-1.4706004,-0.49201804,-0.056151573,1.2969216,-0.7434335,0.7567331,-0.100131035,0.07588673,-0.6063385,0.70656925,-1.7242361,-0.042398684,0.08511625,0.045084953,-0.6087494,0.67869,0.8145223,-0.004741764,0.077464454,0.57491755,-1.3057078,-0.17031196,0.042851068,0.0,1.0,0.0,0.0,0.0,0.0,0.0,-0.7258867,0.2063385,-0.15656924,0.5644798,12.165844,1.3355397,-2.5235176,5.8525443,-7.436633,-2.964768
2.3061786,84.17077,28.411283,16.994646,0.2757663,0.7245802,-0.096401274,-0.81539094,-0.21089323,-0.0018932166,0.76160324,-0.46600682,0.59006625,-0.31451637,0.93853146,-0.99213254,-1.9803872,-1.1735225,2.0699027,1.7860098,-0.91717684,1.0054126,-0.9752623,-1.9806538,-1.2366805,2.1094003,1.7341173,-0.88689435,-1.4645213,-0.39900142,-0.04120228,1.301226,-0.70024455,0.69676584,-0.12291807,0.058790207,-0.6065674,0.7077537,-1.7048916,-0.01658445,0.1291471,0.032159805,-0.61019135,0.6794897,0.8213713,-0.010125565,0.08050861,0.5645927,-1.2891799,-0.1252261,0.090267114,0.0,1.0,0.0,0.0,0.0,0.0,0.0,-0.7087902,0.20656738,-0.1577537,0.5398512,9.149379,1.716666,0.41849613,3.9692998,-5.8617115,-2.400212
-0.2902646,85.22939,27.793528,18.614477,0.40477818,0.7491243,-0.15829138,-0.81772214,-0.13352449,-0.03293587,0.76457006,-0.44623002,0.58080673,-0.32033005,0.9236404,-0.98861474,-1.9839474,-1.1602235,2.0647774,1.792198,-0.9189274,0.9907982,-0.97851235,-1.9810886,-1.2235198,2.1026406,1.7407136,-0.8882647,-1.4607081,-0.30085328,-0.043403257,1.3211652,-0.6691387,0.6475438,-0.14215519,0.041877747,-0.60652924,0.70939636,-1.68664,0.010344921,0.17600322,0.01936531,-0.6111908,0.6807772,0.8281472,-0.01541949,0.08392962,0.5539767,-1.2772564,-0.08077293,0.13977465,0.0,1.0,0.0,0.0,0.0,0.0,0.0,-0.6918777,0.20652923,-0.15939635,0.32172203,9.658104,-0.0031083822,1.9993782,2.7874231,-4.8123717,-2.047211
-1.7357528,79.89493,25.19847,18.005783,0.44826663,0.65316695,-0.1617821,-0.81472105,-0.105077125,-0.045311928,0.765788,-0.4536292,0.59125715,-0.3416307,0.9093261,-0.98902005,-1.9856198,-1.146941,2.0572777,1.7998393,-0.9224278,0.9762203,-0.9809118,-1.981638,-1.2101436,2.0960717,1.7468936,-0.8898173,-1.4570979,-0.22007498,-0.057944227,1.3431151,-0.65363884,0.6084711,-0.15999258,0.025136948,-0.6062317,0.7114322,-1.6698626,0.036405828,0.2127707,0.0066690445,-0.611763,0.682473,0.8348529,-0.020603564,0.08777229,0.5430396,-1.2677629,-0.040672705,0.17799701,0.0,1.0,0.0,0.0,0.0,0.0,0.0,-0.6751369,0.20623168,-0.1614322,0.30651093,7.9310775,-1.2421594,2.2061348,1.2603045,-3.8226008,-1.9019544
-3.2870402,67.2718,20.113716,15.735298,0.56161624,0.43431497,-0.13555247,-0.8111636,-0.1168798,-0.062491108,0.76411355,-0.4474907,0.6025954,-0.35738754,0.89510393,-0.9925998,-1.987887,-1.1337322,2.0513227,1.8071532,-0.92555606,0.96168345,-0.98281246,-1.9824142,-1.1965957,2.0896096,1.7527468,-0.8915376,-1.4526757,-0.18036991,-0.083443806,1.3587978,-0.6446301,0.57774484,-0.17633854,0.008538246,-0.60570526,0.7136548,-1.6565677,0.058267713,0.2254763,-0.0059776306,-0.6120148,0.6843629,0.8414769,-0.025590096,0.091928,0.5317998,-1.2636173,-0.011676192,0.19130889,0.0,1.0,0.0,0.0,0.0,0.0,0.0,-0.6585382,0.20570526,-0.1636548,0.4028082,3.8514495,-2.3640738,1.5849113,0.6653547,-3.0125618,-1.7329872
-5.3723955,60.008087,16.806665,14.778937,0.6849309,0.31683275,-0.13391355,-0.81307447,-0.10271989,-0.090169914,0.76955134,-0.43299,0.6027183,-0.35518909,0.880376,-0.99308443,-1.9914312,-1.1196406,2.0463107,1.8130187,-0.9270565,0.94717324,-0.98447186,-1.9835418,-1.18292,2.083243,1.7583356,-0.89339936,-1.4506279,-0.16147959,-0.12198527,1.3705431,-0.63469803,0.55278885,-0.18979773,-0.007946968,-0.60498047,0.7159,-1.6459008,0.07770746,0.22400442,-0.01862526,-0.6120453,0.6862745,0.8480177,-0.030292476,0.096299514,0.52026397,-1.2651502,0.01065895,0.1898936,0.0,1.0,0.0,0.0,0.0,0.0,0.0,-0.642053,0.20498046,-0.16589999,0.17724037,1.7843276,-3.6895096,1.1969328,0.7982373,-2.4552822,-1.4346689
-4.6075525,57.242905,15.868925,13.692826,0.65145755,0.25737208,-0.0879816,-0.8076369,-0.092336066,-0.10107926,0.76972646,-0.4296009,0.60471773,-0.34789526,0.86640954,-0.99370545,-1.9936497,-1.1059474,2.0402827,1.8188074,-0.92818886,0.9326974,-0.98602444,-1.9850448,-1.1691718,2.0769641,1.7637122,-0.8953725,-1.446662,-0.15352617,-0.15912952,1.376357,-0.62604064,0.53273,-0.20012799,-0.024324417,-0.6040573,0.71809036,-1.6350142,0.09701407,0.21746796,-0.031280518,-0.61185455,0.6881241,0.8544516,-0.034684062,0.100825496,0.5084719,-1.2654985,0.031575195,0.18223631,0.0,1.0,0.0,0.0,0.0,0.0,0.0,-0.62567556,0.2040573,-0.16809034,0.36461353,0.69557726,-3.5380392,0.5952358,0.6714225,-1.9730449,-1.1233896
-9.236476,44.769547,9.880697,12.50312,0.8279873,0.03496033,-0.12702532,-0.81266457,-0.12417892,-0.18159285,0.77160114,-0.42502186,0.59457606,-0.34031382,0.85143095,-0.99844235,-2.003204,-1.0920117,2.034462,1.8231698,-0.9294039,0.9182321,-0.9877096,-1.987202,-1.1553855,2.0707655,1.768906,-0.8974286,-1.4465002,-0.17370382,-0.23417462,1.3794212,-0.61788785,0.5150319,-0.20763019,-0.0406332,-0.6029892,0.7200198,-1.629522,0.11020465,0.18474042,-0.04402542,-0.61154175,0.6897062,0.86080384,-0.03860381,0.10544302,0.49639526,-1.2769147,0.039700683,0.1492102,0.0,1.0,0.0,0.0,0.0,0.0,0.0,-0.6093668,0.20298919,-0.1700198,0.018024445,-2.0912766,-7.4031262,0.34673214,0.70911646,-1.7484784,-0.82265735
-7.436759,51.54878,12.2979355,13.093288,0.6537745,0.104683936,-0.10081704,-0.8053383,-0.08470187,-0.2048049,0.77773345,-0.4396099,0.5945603,-0.3358744,0.8376982,-0.99617976,-2.0076826,-1.0776122,2.0268044,1.828362,-0.931016,0.90379345,-0.9894405,-1.9901203,-1.141561,2.0645895,1.7739474,-0.8995447,-1.4431251,-0.17315336,-0.31054932,1.3834674,-0.61763966,0.5005968,-0.21324073,-0.056859016,-0.60175323,0.7217154,-1.6202507,0.1274716,0.16457775,-0.056830406,-0.6110916,0.6910373,0.8670581,-0.042032354,0.11023689,0.48403633,-1.2812546,0.054822024,0.12690885,0.0,1.0,0.0,0.0,0.0,0.0,0.0,-0.59314096,0.20175323,-0.17171538,0.3184557,-0.039941072,-7.489747,0.4285097,-0.12331009,-1.432395,-0.659585
-10.297538,42.780663,8.734292,12.245391,0.88526404,0.006817937,-0.10715075,-0.8123994,-0.13544495,-0.2501691,0.77455527,-0.40144607,0.5897199,-0.32641855,0.8225535,-1.002985,-2.0151372,-1.0641055,2.0244448,1.8329194,-0.93218654,0.8893538,-0.9913679,-1.9938415,-1.1277179,2.0585165,1.7788588,-0.90170085,-1.4443332,-0.19955222,-0.3921836,1.3846025,-0.6044284,0.48778513,-0.21662378,-0.07302284,-0.60037994,0.72309196,-1.6150949,0.14085996,0.1286129,-0.06975651,-0.61058044,0.6920316,0.87322074,-0.0449307,0.11510445,0.47139972,-1.2956253,0.062222205,0.089467324,0.0,1.0,0.0,0.0,0.0,0.0,0.0,-0.57697713,0.20037994,-0.17309195,-0.11575222,-2.719438,-8.050233,0.16195774,1.2147069,-1.2967646,-0.41416585
-10.239325,43.89311,8.547276,12.127239,0.7278644,-0.0123695135,-0.09356054,-0.80629385,-0.12022266,-0.32621983,0.77707344,-0.4251265,0.5925679,-0.29767606,0.8087244,-1.0033902,-2.0264635,-1.0500106,2.0160038,1.8381156,-0.9314685,0.8749228,-0.99347645,-1.9985355,-1.1138629,2.052501,1.7836597,-0.90386367,-1.442692,-0.21493383,-0.4946912,1.3859398,-0.6009542,0.47746345,-0.21639773,-0.08912468,-0.5988617,0.7241172,-1.6084365,0.15506272,0.09401682,-0.08280277,-0.6099701,0.6926511,0.8792824,-0.047229987,0.12010327,0.4584832,-1.3066659,0.07123933,0.05209355,0.0,1.0,0.0,0.0,0.0,0.0,0.0,-0.5608753,0.19886169,-0.17411721,0.16520023,-1.6268075,-10.133881,0.17895699,0.23957491,-1.0543823,-0.07272065
-10.888635,42.722435,8.200072,12.223382,0.8493848,0.003919661,-0.08558893,-0.80857736,-0.144618,-0.3576086,0.7821041,-0.39751786,0.58523154,-0.28587255,0.79406506,-1.0079383,-2.0342963,-1.0356525,2.0127492,1.8421829,-0.93245095,0.8604985,-0.99580246,-2.0041888,-1.0999755,2.0465834,1.788365,-0.9060104,-1.4424013,-0.23874566,-0.58851314,1.3898662,-0.5893528,0.46800956,-0.21437806,-0.10516453,-0.5972061,0.72478986,-1.6023343,0.16932237,0.058795083,-0.095986366,-0.6092682,0.69289184,0.88523334,-0.048940264,0.12519747,0.44530037,-1.3213536,0.08008549,0.014183559,0.0,1.0,0.0,0.0,0.0,0.0,0.0,-0.54483545,0.19720611,-0.17478985,0.03399849,-2.4747996,-9.24921,0.4487753,1.04146,-0.9971857,0.11319816
-5.602825,58.93735,14.938753,13.752029,0.60315955,0.25938666,-0.0069584064,-0.8004768,-0.09865511,-0.34834936,0.7897161,-0.43557522,0.59567064,-0.26444706,0.7804508,-1.0056679,-2.0390236,-1.0210038,2.003026,1.8479321,-0.9324551,0.8461104,-0.9981056,-2.010483,-1.0860215,2.0406594,1.7930017,-0.90811896,-1.4378544,-0.22791332,-0.64205736,1.39714,-0.5939959,0.46191564,-0.21022716,-0.12107086,-0.5953293,0.72535753,-1.5864868,0.19326787,0.05623548,-0.109194756,-0.60834503,0.69297475,0.8910021,-0.050247505,0.13049702,0.43192688,-1.3193389,0.105430946,0.0059865927,0.0,1.0,0.0,0.0,0.0,0.0,0.0,-0.5289291,0.19532928,-0.17535752,0.39696693,0.94507635,-5.0657153,0.72426796,-0.7295728,-0.6767154,0.27753413
-1.7718537,64.24173,17.521912,13.535591,0.47696903,0.30098242,0.06581532,-0.7918877,-0.10755651,-0.3582868,0.78793156,-0.45582572,0.59414095,-0.2567107,0.76692164,-1.0088612,-2.0463116,-1.0072284,1.9950769,1.8524158,-0.93379,0.8318052,-1.0002856,-2.017105,-1.0720159,2.0346167,1.797589,-0.91018265,-1.4284672,-0.21514176,-0.6677843,1.4016688,-0.60908645,0.45752385,-0.20552805,-0.13677979,-0.5932007,0.72596586,-1.5654905,0.22025241,0.062930025,-0.122312546,-0.6071472,0.69303447,0.89652216,-0.051292483,0.13604355,0.4184606,-1.30773,0.13490361,0.0056329346,0.0,1.0,0.0,0.0,0.0,0.0,0.0,-0.5132202,0.19320068,-0.17596585,0.8471012,1.1282623,-2.199173,0.41565895,-1.8476009,-0.5081594,0.31241775
-8.846878,47.982773,10.338703,12.424365,0.7172991,0.08830124,0.02493875,-0.80875874,-0.16786377,-0.4502993,0.78536683,-0.45495707,0.5710342,-0.20016882,0.75092936,-1.017072,-2.062135,-0.9934792,1.989121,1.8546923,-0.93019956,0.8175068,-1.002626,-2.0242462,-1.0579873,2.0284176,1.8021166,-0.91216147,-1.4303498,-0.24056411,-0.7287997,1.4033849,-0.6241004,0.45093435,-0.19565332,-0.15234756,-0.5908661,0.7263982,-1.553612,0.23848651,0.037416153,-0.13545322,-0.60575104,0.6928631,0.90182257,-0.05190997,0.14175361,0.4048792,-1.314486,0.15043369,-0.024869163,0.0,1.0,0.0,0.0,0.0,0.0,0.0,-0.4976524,0.19086608,-0.17639822,-0.21407604,-2.6579201,-5.860126,0.20856857,-1.7142296,-0.7310629,0.87167025
-9.958191,53.840843,11.474726,13.754587,0.6941403,0.15068841,0.028943779,-0.80982584,-0.124776304,-0.49367404,0.78713036,-0.4628191,0.56476945,-0.13404925,0.7365242,-1.0151036,-2.0736136,-0.9792743,1.9821357,1.8585936,-0.9255664,0.8031626,-1.0050521,-2.0321157,-1.0439473,2.0220735,1.8065798,-0.9139972,-1.4358994,-0.24360539,-0.805381,1.4041357,-0.63861036,0.44446293,-0.17996311,-0.16777515,-0.5883255,0.7266443,-1.5388013,0.25960132,0.020906607,-0.14864635,-0.60417175,0.6924455,0.90690655,-0.052007187,0.14768928,0.3911566,-1.3191507,0.17093644,-0.047533523,0.0,1.0,0.0,0.0,0.0,0.0,0.0,-0.48222482,0.1883255,-0.17664427,-0.59428215,-0.4435718,-7.379675,0.09958744,-1.7068505,-0.741148,1.4247537
-11.053824,51.60181,10.329666,13.68573,0.7612841,0.11334574,0.023256108,-0.809762,-0.14478458,-0.5336362,0.7921066,-0.46478197,0.55813795,-0.11918727,0.7221864,-1.0195305,-2.0854793,-0.9647367,1.9755954,1.8623936,-0.9259159,0.7887621,-1.0075603,-2.0408015,-1.0298824,2.0156105,1.8109779,-0.91567373,-1.4415894,-0.25355902,-0.8886415,1.4073447,-0.6495526,0.43791822,-0.16401812,-0.18306065,-0.5855789,0.72668624,-1.5247626,0.2793903,-0.00023454592,-0.16191387,-0.60240173,0.6917685,0.9117731,-0.05154239,0.15385334,0.37728262,-1.3270698,0.18957038,-0.074421,0.0,1.0,0.0,0.0,0.0,0.0,0.0,-0.46693933,0.18557891,-0.17668623,-0.60112476,-1.1353791,-8.050632,0.35672188,-1.3455391,-0.7681191,1.4505297
-15.162696,32.94565,3.4000826,10.892308,0.80491805,-0.12803352,0.04187704,-0.81710416,-0.22939335,-0.61318785,0.78509176,-0.4872131,0.5393588,-0.059587885,0.7070517,-1.0304996,-2.1021204,-0.9513733,1.9668891,1.8649138,-0.9216325,0.77428436,-1.0105377,-2.0504982,-1.0158137,2.0089922,1.8152964,-0.9171616,-1.4497129,-0.31299388,-0.9963641,1.4070793,-0.66616106,0.42964587,-0.14405602,-0.19827747,-0.5827179,0.7262491,-1.5204681,0.28874463,-0.057106875,-0.17536736,-0.6005554,0.6905689,0.9164458,-0.0503276,0.1601124,0.36326036,-1.3493004,0.1942211,-0.13527659,0.0,1.0,0.0,0.0,0.0,0.0,0.0,-0.4517225,0.18271789,-0.17624909,-0.77536106,-6.0416756,-10.642886,0.09434223,-1.771605,-0.9208143,1.8981159
-9.351589,49.37138,9.583107,12.174919,0.59288013,0.086521864,0.14356337,-0.80738515,-0.1724709,-0.6147087,0.7864324,-0.514857,0.5538421,0.04667287,0.6935458,-1.0277848,-2.1119692,-0.93717045,1.9575065,1.8706806,-0.9124943,0.75978184,-1.013826,-2.0610645,-1.0017563,2.0021596,1.819557,-0.9183863,-1.4504633,-0.3344037,-1.075685,1.4055191,-0.6897397,0.42436928,-0.11584997,-0.21336555,-0.57969666,0.7254668,-1.5045732,0.30660835,-0.08396339,-0.18890572,-0.5985718,0.6889638,0.92086047,-0.04843789,0.16653585,0.34919256,-1.3529485,0.21229112,-0.16874607,0.0,1.0,0.0,0.0,0.0,0.0,0.0,-0.43663442,0.17969665,-0.17546678,-0.117087364,-2.2816598,-7.619238,-0.121212006,-2.6438594,-0.63945055,2.659175
-7.764872,44.779324,8.718067,10.797628,0.59769315,0.0511083,0.18181431,-0.80449665,-0.23537485,-0.6376284,0.7903745,-0.53363526,0.5621856,0.058231845,0.6793322,-1.0373635,-2.1248274,-0.9227189,1.948796,1.8757755,-0.9125631,0.745306,-1.0174977,-2.072264,-0.98769516,1.9950656,1.8237759,-0.91934,-1.446701,-0.37856993,-1.1336842,1.40656,-0.7166158,0.42085084,-0.08898069,-0.22830105,-0.5765152,0.7243526,-1.4893094,0.32227844,-0.11868167,-0.20248508,-0.596405,0.6869756,0.9249872,-0.04595722,0.17306717,0.3351632,-1.35708,0.22727051,-0.20877238,0.0,1.0,0.0,0.0,0.0,0.0,0.0,-0.42169893,0.17651519,-0.17435259,0.33769608,-4.543167,-5.4854155,0.15637875,-2.967453,-0.46935678,2.546735
-8.924976,38.87198,6.8357205,9.829473,0.66711926,0.011152089,0.21654853,-0.8112535,-0.28623676,-0.67003906,0.78700185,-0.5459335,0.53800195,0.14372881,0.66418064,-1.0461214,-2.139268,-0.908995,1.9404722,1.8775761,-0.9049671,0.73084354,-1.0217682,-2.0839667,-0.97363204,1.9877077,1.8279469,-0.9199887,-1.4461263,-0.44353613,-1.1814355,1.4064665,-0.74286646,0.41541952,-0.057141997,-0.2431097,-0.57320404,0.72280556,-1.4774276,0.33436647,-0.16456643,-0.21615028,-0.59413147,0.6845153,0.9288295,-0.042880937,0.17957811,0.32122985,-1.3667291,0.23939966,-0.2583205,0.0,1.0,0.0,0.0,0.0,0.0,0.0,-0.40689027,0.17320403,-0.17280555,0.040388107,-6.6113653,-4.4929743,0.08685589,-2.873838,-0.6701529,3.07585
-8.992983,31.078545,4.6485767,8.013079,0.67267835,-0.06170696,0.2657032,-0.8089892,-0.34979618,-0.688553,0.78340423,-0.5584447,0.52231485,0.22409956,0.6499446,-1.0567478,-2.152822,-0.8952916,1.9318633,1.8801783,-0.8975787,0.7163915,-1.0268837,-2.0960631,-0.9595842,1.9801002,1.8320531,-0.9202864,-1.444868,-0.53461003,-1.2186422,1.4047115,-0.76727605,0.40861464,-0.020852126,-0.25783253,-0.56980133,0.72068965,-1.4699014,0.34244162,-0.2253123,-0.22994328,-0.5917587,0.6814642,0.93239707,-0.039184537,0.18591803,0.30746478,-1.3809596,0.24722585,-0.320848,0.0,1.0,0.0,0.0,0.0,0.0,0.0,-0.39216745,0.16980132,-0.17068964,0.13494492,-9.201795,-3.494668,-0.027751923,-2.6358128,-0.8048594,3.5619192
-7.981577,39.617393,7.3573055,9.499432,0.7657775,0.08904034,0.26842508,-0.8091746,-0.3518409,-0.69193125,0.7889594,-0.55781204,0.53354585,0.27980542,0.635474,-1.0620679,-2.1652563,-0.88068825,1.9243189,1.8854077,-0.89230585,0.70194614,-1.0327641,-2.1084146,-0.9455306,1.9723091,1.8361056,-0.9202112,-1.4444848,-0.6062645,-1.2398664,1.4058769,-0.7838718,0.4036607,0.016750386,-0.27244186,-0.5662918,0.71807045,-1.4571179,0.35404617,-0.2718636,-0.24384594,-0.5892563,0.67790145,0.9356869,-0.034954663,0.19206582,0.293903,-1.3904463,0.26295003,-0.36839196,0.0,1.0,0.0,0.0,0.0,0.0,0.0,-0.3775581,0.1662918,-0.16807044,0.012803078,-7.285881,-1.7989874,0.23679733,-1.9515157,-0.6531894,3.6790562
-7.5094047,35.43983,6.3011928,8.262604,0.7945627,0.07218772,0.27929312,-0.80679536,-0.4227686,-0.69931716,0.78421414,-0.55102843,0.5439273,0.29606804,0.6212666,-1.0750409,-2.1783464,-0.8671092,1.9172063,1.8904983,-0.8906044,0.68751323,-1.039472,-2.120911,-0.9314818,1.9644212,1.8401201,-0.9197834,-1.4428921,-0.69255847,-1.2519256,1.4050436,-0.79107463,0.40023875,0.051296104,-0.28694153,-0.5626831,0.71491915,-1.4468606,0.3636869,-0.3274609,-0.2578621,-0.5866089,0.67381126,0.93871623,-0.03024436,0.19792524,0.28057548,-1.402063,0.27723548,-0.42286113,0.0,1.0,0.0,0.0,0.0,0.0,0.0,-0.36305845,0.1626831,-0.16491914,0.1459837,-8.737934,-0.9125471,0.06752014,-0.983727,-0.51309466,3.4083612
-3.6603413,45.156403,10.001079,9.226674,0.9367679,0.22516572,0.27293324,-0.7987053,-0.43689117,-0.6627778,0.78688335,-0.5119981,0.55779344,0.30013347,0.6076427,-1.0831611,-2.1871886,-0.85279346,1.9132214,1.8958994,-0.8897701,0.6731299,-1.0469087,-2.1332853,-0.91743475,1.9566208,1.8441203,-0.91904575,-1.4369621,-0.7610842,-1.231519,1.404824,-0.77725446,0.39923304,0.08114935,-0.3012886,-0.55895996,0.7113278,-1.4294984,0.37623626,-0.36671746,-0.27193642,-0.58374023,0.66931707,0.9414982,-0.02524335,0.20340893,0.2675232,-1.4053357,0.2988459,-0.45885986,0.0,1.0,0.0,0.0,0.0,0.0,0.0,-0.34871137,0.15895995,-0.16132778,0.5253792,-6.9781184,2.4635792,0.06754398,0.99898577,-0.30040145,2.9332042
-5.8747826,36.451294,6.8346825,7.4833984,0.87677956,0.10369736,0.3000231,-0.80630016,-0.51221883,-0.6940658,0.7705183,-0.5090606,0.4800253,0.37992585,0.5924999,-1.0981306,-2.2026918,-0.84038293,1.9057148,1.8921227,-0.88105315,0.6587694,-1.0551656,-2.1455677,-0.90346026,1.9489821,1.8480525,-0.9179865,-1.4358442,-0.8475357,-1.2260509,1.3954599,-0.76013786,0.39050832,0.114161685,-0.31551075,-0.55514526,0.7072102,-1.4187398,0.384058,-0.4241156,-0.286088,-0.5807419,0.66433823,0.94406366,-0.01989605,0.2084214,0.25477123,-1.4150506,0.31540188,-0.5116164,0.0,1.0,0.0,0.0,0.0,0.0,0.0,-0.33448923,0.15514526,-0.15721017,0.08816719,-8.751988,0.86061954,-0.7820368,1.418531,-1.0614395,3.2877207
-4.1801343,47.758934,9.970763,9.448017,0.9092314,0.24675477,0.29040742,-0.80002856,-0.50652415,-0.67746776,0.7795189,-0.51446134,0.4771187,0.42843622,0.5787666,-1.105818,-2.2133145,-0.82550836,1.897536,1.8957644,-0.8751429,0.6444344,-1.064071,-2.1577475,-0.88954204,1.9414862,1.8518972,-0.9165928,-1.4329407,-0.90520144,-1.2139112,1.3909276,-0.74716204,0.38191327,0.14760545,-0.32956314,-0.5512161,0.7026556,-1.3994843,0.3962115,-0.46311027,-0.30027008,-0.57749176,0.6589707,0.9464102,-0.014234809,0.21303879,0.24232103,-1.4151455,0.3390474,-0.54599833,0.0,1.0,0.0,0.0,0.0,0.0,0.0,-0.32043684,0.15121612,-0.1526556,0.21986961,-5.900657,1.6531229,-0.35820007,0.8824229,-1.0607421,3.2896101
-6.428127,38.867607,7.044664,7.8243484,0.8804166,0.17330962,0.2937377,-0.8079066,-0.58880836,-0.6769822,0.76728535,-0.50613517,0.4377233,0.44926122,0.56364375,-1.1229519,-2.2254457,-0.8128135,1.8908727,1.8956696,-0.87166667,0.6300872,-1.0737222,-2.1698315,-0.87570184,1.9341047,1.855631,-0.9148831,-1.4353783,-0.9854048,-1.205099,1.3822862,-0.7360087,0.3698589,0.17880893,-0.3434763,-0.54720306,0.69757754,-1.3872792,0.40406206,-0.5195114,-0.3145094,-0.57403564,0.65314114,0.9485636,-0.008222024,0.21721414,0.23016827,-1.422245,0.35928553,-0.59621984,0.0,1.0,0.0,0.0,0.0,0.0,0.0,-0.30652368,0.14720306,-0.14757752,-0.26931763,-8.13657,1.2167454,-0.6948948,0.7883072,-1.4119506,3.116697
-2.9462242,41.75874,8.358276,7.2284474,0.8299794,0.20488048,0.3259722,-0.7949053,-0.61781114,-0.65328425,0.7630665,-0.48138,0.42574847,0.51079947,0.55059665,-1.1355034,-2.2351599,-0.7993952,1.8859667,1.8982059,-0.86380315,0.6157687,-1.0841402,-2.18174,-0.86195517,1.9268811,1.8592445,-0.91284937,-1.4308271,-1.0610281,-1.1847636,1.372605,-0.71880454,0.35788447,0.21158169,-0.35724354,-0.54309845,0.6919644,-1.3717186,0.4120081,-0.57197,-0.32876778,-0.57038116,0.64684635,0.9505372,-0.001902902,0.22089337,0.2183609,-1.4222461,0.3801248,-0.641868,0.0,1.0,0.0,0.0,0.0,0.0,0.0,-0.29275644,0.14309844,-0.14196438,0.40359497,-7.677126,2.4168968,-0.831604,1.3527155,-1.4031827,3.270671
1.4089231,45.33174,10.005598,6.525229,0.7330781,0.23633331,0.3558491,-0.7839759,-0.6511327,-0.6189986,0.754901,-0.48311752,0.39545366,0.52645,0.5373711,-1.1492535,-2.24364,-0.78646505,1.8785694,1.8987899,-0.86020434,0.6015492,-1.0952753,-2.1933055,-0.84832585,1.9198029,1.86273,-0.9105092,-1.419326,-1.1313499,-1.1459643,1.3600271,-0.7052443,0.3447121,0.24155015,-0.37081718,-0.53891754,0.68587387,-1.3512723,0.41960433,-0.6185039,-0.34295464,-0.5665207,0.64013976,0.95233506,0.004629286,0.22406183,0.20696068,-1.4126389,0.4004518,-0.681729,0.0,1.0,0.0,0.0,0.0,0.0,0.0,-0.2791828,0.13891754,-0.13587385,1.0660172,-7.144022,4.3300867,-1.1660337,0.9259224,-1.5190363,2.98208
-0.040991783,48.92208,10.164962,7.5279126,0.7352194,0.2564441,0.33477363,-0.78937757,-0.6703044,-0.6320152,0.7456759,-0.48502168,0.3194263,0.552479,0.52261144,-1.1623057,-2.256507,-0.77375823,1.8713007,1.8946726,-0.8552613,0.58741176,-1.1070017,-2.2045925,-0.83484143,1.912822,1.8660387,-0.9078842,-1.4122134,-1.1869363,-1.1214471,1.344868,-0.69681245,0.32560804,0.26942658,-0.3841715,-0.53466034,0.67934674,-1.3286496,0.42716426,-0.66100484,-0.35703945,-0.56243134,0.63306475,0.9539621,0.01140644,0.2267842,0.19594644,-1.4013418,0.42219213,-0.7178189,0.0,1.0,0.0,0.0,0.0,0.0,0.0,-0.2658285,0.13466033,-0.12934673,0.6252527,-5.681944,2.918458,-1.4279127,0.38141012,-2.1214902,2.7565062
1.028204,49.690475,10.012835,6.6794777,0.66430336,0.18185878,0.36338252,-0.78459585,-0.6927496,-0.64219475,0.70584756,-0.42145932,0.17975053,0.57830405,0.5089522,-1.1762767,-2.268812,-0.76425666,1.870676,1.8840138,-0.8500538,0.57334113,-1.1192011,-2.2157726,-0.8216651,1.9060855,1.8690634,-0.90499395,-1.4056526,-1.2313955,-1.1154177,1.3087208,-0.66711843,0.29423803,0.29547453,-0.39729595,-0.5303421,0.6723824,-1.3056461,0.433043,-0.70525956,-0.37099266,-0.5581665,0.62561744,0.95543987,0.018513465,0.22901532,0.18532073,-1.387401,0.4412903,-0.7555786,0.0,1.0,0.0,0.0,0.0,0.0,0.0,-0.25270402,0.1303421,-0.1223824,0.56374073,-4.563689,1.0552883,-3.5504818,2.4980426,-3.3592343,2.5664628
-1.7489276,56.607494,10.693734,8.862813,0.81556296,0.17236984,0.31734025,-0.7937364,-0.68596005,-0.6558215,0.68811303,-0.39879325,-0.04352866,0.59195626,0.49396747,-1.1877971,-2.2813547,-0.7528538,1.8662062,1.8647106,-0.8457983,0.55927145,-1.1316599,-2.227029,-0.808897,1.8996942,1.8716265,-0.901865,-1.4077406,-1.2511005,-1.1275367,1.2662381,-0.6311613,0.24299571,0.31861436,-0.4101677,-0.5259628,0.6650414,-1.2794628,0.4393259,-0.7406803,-0.38480854,-0.5536728,0.61786747,0.9567842,0.026052997,0.23076576,0.17502093,-1.3738883,0.46276858,-0.7832897,0.0,1.0,0.0,0.0,0.0,0.0,0.0,-0.23983228,0.12596282,-0.115041375,-0.3098488,-2.105832,-0.7149458,-4.2038918,3.057158,-5.369258,2.2500217
2.7185657,64.63568,12.988862,9.441189,0.8001058,0.14608514,0.32238907,-0.7724582,-0.6788325,-0.65613735,0.6707875,-0.3651802,-0.18402733,0.61218226,0.48202562,-1.1995431,-2.2926428,-0.74181825,1.8631762,1.8532238,-0.8406468,0.5452609,-1.1441568,-2.238434,-0.79655993,1.8937182,1.8736056,-0.898518,-1.3993188,-1.2498263,-1.1431088,1.2226578,-0.5881058,0.1820965,0.33974814,-0.42272186,-0.52153015,0.65744144,-1.2457242,0.44411027,-0.7632899,-0.3984232,-0.54901123,0.6099379,0.95799243,0.03402671,0.23207141,0.16503187,-1.3508898,0.48151174,-0.798186,0.0,1.0,0.0,0.0,0.0,0.0,0.0,-0.22727811,0.121530145,-0.107441425,0.6927967,-0.009727478,-0.95694065,-4.4015408,3.6731243,-6.344509,2.0034194
2.561936,64.38351,12.78403,9.092894,1.0453849,0.087515354,0.30185413,-0.78008777,-0.6877931,-0.6643929,0.61459464,-0.21141952,-0.37893018,0.6165743,0.46725214,-1.2129362,-2.3048735,-0.73510045,1.8725762,1.8357126,-0.8368606,0.53129894,-1.1566156,-2.2500145,-0.78481513,1.8885572,1.8748755,-0.8949822,-1.395693,-1.2449683,-1.161188,1.1581919,-0.49383697,0.107720114,0.35800302,-0.43496323,-0.51706696,0.64958614,-1.215309,0.44752178,-0.78987914,-0.41184425,-0.5441437,0.6018627,0.95911825,0.042385675,0.23273242,0.15534241,-1.3331282,0.49981198,-0.81241024,0.0,1.0,0.0,0.0,0.0,0.0,0.0,-0.21503675,0.11706695,-0.09958613,0.21600723,0.3591299,-1.2264252,-6.501651,8.800286,-7.729541,1.7451286
2.572733,75.87726,15.729064,12.717281,1.46771,0.2926271,0.191537,-0.7787735,-0.6647835,-0.61372954,0.6292686,-0.21042565,-0.40504572,0.6088398,0.4534216,-1.223094,-2.3113875,-0.7218883,1.8675146,1.834371,-0.8340982,0.5173619,-1.1689085,-2.2614958,-0.7735376,1.8842595,1.8754438,-0.8912929,-1.393624,-1.2245471,-1.1417135,1.1171991,-0.41052362,0.03906526,0.37235352,-0.44684315,-0.512558,0.641611,-1.17717,0.45181814,-0.79687494,-0.42507076,-0.53902435,0.59382576,0.96018136,0.050911292,0.23276316,0.1458802,-1.3125495,0.52516407,-0.80256146,0.0,1.0,0.0,0.0,0.0,0.0,0.0,-0.20315683,0.11255798,-0.09161097,0.024294853,1.9023895,2.6729822,-4.205847,7.595354,-7.168696,1.3333023
5.0746937,76.195656,16.474142,12.327354,1.7885929,0.3410566,0.15398355,-0.77073807,-0.67030764,-0.5876479,0.58816916,-0.029376896,-0.43646473,0.6312832,0.44028807,-1.2359393,-2.3202605,-0.71472067,1.8813218,1.8317974,-0.8281646,0.5034697,-1.1810335,-2.2726147,-0.7627082,1.8811637,1.8753766,-0.88746256,-1.388317,-1.2087581,-1.0996984,1.0710577,-0.2779272,-0.023055993,0.38639888,-0.4583578,-0.5080185,0.6335568,-1.1410447,0.45465717,-0.80475426,-0.43811035,-0.5336609,0.5859212,0.96124154,0.05932407,0.2320074,0.13662994,-1.294537,0.551589,-0.78783387,0.0,1.0,0.0,0.0,0.0,0.0,0.0,-0.19164217,0.10801849,-0.08355677,0.34093857,1.4549971,4.9316406,-4.742861,12.538868,-6.5267673,1.327002
14.3527355,71.22131,16.811152,7.4324856,1.5429084,0.28006804,0.274037,-0.7532762,-0.66992766,-0.5617999,0.47981828,0.15599145,-0.49815625,0.6008384,0.42814207,-1.2480263,-2.3287947,-0.7147263,1.8967628,1.8255609,-0.8273787,0.4897055,-1.1930403,-2.2832186,-0.7527268,1.8797706,1.874716,-0.88353,-1.3731382,-1.1980895,-1.0452288,0.9730693,-0.095085025,-0.08142635,0.3953825,-0.46951485,-0.503479,0.6253586,-1.1055542,0.45418832,-0.8214457,-0.45089817,-0.52809143,0.57809246,0.9623757,0.06741952,0.23015484,0.12773496,-1.2669756,0.5691357,-0.7826061,0.0,1.0,0.0,0.0,0.0,0.0,0.0,-0.18048513,0.103479,-0.07535857,1.3138533,0.9876728,6.1300755,-9.992385,17.619764,-6.1164856,0.8261204
23.987495,78.2719,20.63686,6.460468,1.6919872,0.43349493,0.30828792,-0.7393263,-0.651128,-0.420158,0.42412028,0.26860154,-0.51574206,0.5943339,0.41577286,-1.2581531,-2.3252344,-0.71031475,1.9066308,1.8231418,-0.8240966,0.47614512,-1.2048944,-2.2927122,-0.74387544,1.8803006,1.8735306,-0.87952673,-1.3511531,-1.1812602,-0.9148921,0.854831,0.10037,-0.13172643,0.40177915,-0.4802494,-0.4989624,0.61711276,-1.0611472,0.4505697,-0.8223396,-0.46330738,-0.5223694,0.5704465,0.963651,0.07481165,0.2270149,0.11934923,-1.2256645,0.5838631,-0.7599015,0.0,1.0,0.0,0.0,0.0,0.0,0.0,-0.16975057,0.0989624,-0.067112744,1.9567013,1.634264,13.790107,-12.111807,18.850965,-5.2506475,0.5532384
25.823994,78.55697,20.98196,5.6797886,1.558872,0.51554984,0.35466552,-0.74562556,-0.6433542,-0.33791247,0.34077883,0.30311587,-0.55587214,0.5782929,0.40158257,-1.2692299,-2.3265035,-0.70979756,1.9106122,1.8179435,-0.8216975,0.4627426,-1.2165731,-2.3006573,-0.73637277,1.882538,1.8718767,-0.8754807,-1.3373154,-1.1635603,-0.75213295,0.7144007,0.26303107,-0.17713012,0.40524742,-0.49051857,-0.4944992,0.6088815,-1.0142407,0.4448416,-0.82056946,-0.47525597,-0.51652527,0.5630268,0.965087,0.08132023,0.22259252,0.11156454,-1.1783893,0.5959592,-0.7374459,0.0,1.0,0.0,0.0,0.0,0.0,0.0,-0.1594814,0.0944992,-0.05888146,1.1684895,1.7370939,16.955067,-14.310562,15.651989,-4.6883492,0.26293993
