Afshin1997/kuka_rl_ros2/src/catch_and_throw/input_files/idealpd/recorded_trajectories/env_354_data.csv
torque0,torque1,torque2,torque3,torque4,torque5,torque6,action0,action1,action2,action3,action4,action5,action6,set_target_0,set_target_1,set_target_2,set_target_3,set_target_4,set_target_5,set_target_6,joint_pos_0,joint_pos_1,joint_pos_2,joint_pos_3,joint_pos_4,joint_pos_5,joint_pos_6,joint_vel_0,joint_vel_1,joint_vel_2,joint_vel_3,joint_vel_4,joint_vel_5,joint_vel_6,tennisball_pos_0,tennisball_pos_1,tennisball_pos_2,tennisball_lin_vel_0,tennisball_lin_vel_1,tennisball_lin_vel_2,end_effector_pos_0,end_effector_pos_1,end_effector_pos_2,end_effector_rot_0,end_effector_rot_1,end_effector_rot_2,end_effector_rot_3,end_effector_lin_vel_0,end_effector_lin_vel_1,end_effector_lin_vel_2,obs_task_0,obs_task_1,obs_task_2,obs_task_3,obs_task_4,obs_task_5,obs_task_6,to_final_target_0,to_final_target_1,to_final_target_2,joint_acc_0,joint_acc_1,joint_acc_2,joint_acc_3,joint_acc_4,joint_acc_5,joint_acc_6
0.0,0.0,0.0,0.0,0.0,0.0,0.0,0.0,0.0,0.0,0.0,0.0,0.0,0.0,1.7802359,-1.0646509,-1.8151424,-1.1170107,1.9373155,1.1170107,-0.91629785,1.7802359,-1.0646509,-1.8151424,-1.1170107,1.9373155,1.1170107,-0.91629785,0.0,0.0,0.0,0.0,0.0,0.0,0.0,2.7310753,-0.23531723,0.36709878,-2.513399,-0.3455604,5.352413,0.5304184,-0.45449448,0.693097,0.5745483,0.17512383,0.15255436,0.7848268,0.0,0.0,0.0,1.0,0.0,0.0,0.0,0.0,0.0,0.0,-3.3810754,-0.16468278,0.18290123,0.0,0.0,0.0,0.0,0.0,0.0,0.0
0.0,0.0,0.0,0.0,0.0,0.0,0.0,0.0,0.0,0.0,0.0,0.0,0.0,0.0,1.7802359,-1.0646509,-1.8151424,-1.1170107,1.9373155,1.1170107,-0.91629785,1.7802359,-1.0646509,-1.8151424,-1.1170107,1.9373155,1.1170107,-0.91629785,0.0,0.0,0.0,0.0,0.0,0.0,0.0,2.7310753,-0.23531723,0.36709878,-2.513399,-0.3455604,5.352413,0.5304184,-0.45449448,0.693097,0.5745483,0.17512383,0.15255436,0.7848268,0.0,0.0,0.0,1.0,0.0,0.0,0.0,0.0,0.0,0.0,-3.3810754,-0.16468278,0.18290123,0.0,0.0,0.0,0.0,0.0,0.0,0.0
0.0,0.0,0.0,0.0,0.0,0.0,0.0,0.0,0.0,0.0,0.0,0.0,0.0,0.0,1.7802359,-1.0646509,-1.8151424,-1.1170107,1.9373155,1.1170107,-0.91629785,1.7802359,-1.0646509,-1.8151424,-1.1170107,1.9373155,1.1170107,-0.91629785,0.0,0.0,0.0,0.0,0.0,0.0,0.0,2.7310753,-0.23531723,0.36709878,-2.513399,-0.3455604,5.352413,0.5304184,-0.45449448,0.693097,0.5745483,0.17512383,0.15255436,0.7848268,0.0,0.0,0.0,1.0,0.0,0.0,0.0,0.0,0.0,0.0,-3.3810754,-0.16468278,0.18290123,0.0,0.0,0.0,0.0,0.0,0.0,0.0
-176.0,80.295654,-0.9114418,110.0,11.010942,5.2666883,-3.7820444,-0.8144789,0.39980245,-0.5201921,0.7322359,0.3582961,0.6592031,-0.5874024,1.698788,-1.0246706,-1.8671616,-1.0437871,1.9731451,1.1829311,-0.9750381,1.7785555,-1.0618871,-1.8210227,-1.1126238,1.9430833,1.1221281,-0.91823477,-0.22383486,0.36760768,-0.7830114,0.5850439,0.7680655,0.6802348,-0.25781223,2.7059593,-0.23876953,0.4198463,-2.510886,-0.3452149,5.2488756,0.52815247,-0.45767975,0.69407105,0.5784779,0.17370978,0.15102214,0.7825474,-0.3013971,-0.42446113,0.12962241,1.0,0.0,0.0,0.0,0.0,0.0,0.0,-3.3559594,-0.16123047,0.13015372,-22.339067,36.534203,-78.048225,58.559025,76.501015,67.36927,-25.652561
-176.0,-3.4954555,-33.246666,110.0,11.897555,2.3867311,-3.1615741,-0.80003345,-0.028531002,-0.5377983,0.71309745,0.4595338,0.6478466,-0.6169104,1.6985521,-1.0647403,-1.8748026,-1.0413141,1.9890367,1.1869128,-0.9799258,1.7760397,-1.0577501,-1.835572,-1.099732,1.9542794,1.1346956,-0.91985697,-0.25873694,0.42705542,-1.680095,1.5266312,1.236492,1.4425515,-0.12739626,2.68087,-0.24221802,0.47155923,-2.5083756,-0.34486976,5.1454415,0.5231323,-0.46582794,0.6954807,0.5870309,0.1703542,0.14736885,0.7775966,-0.57011443,-0.94378823,0.14524563,1.0,0.0,0.0,0.0,0.0,0.0,0.0,-3.3308702,-0.15778199,0.078440785,-2.8542967,5.3993225,-90.06221,94.977234,46.699524,74.346924,13.926938
-150.86894,97.752655,25.483032,89.16938,8.260288,7.0564866,-1.8014853,-0.76251143,0.27421334,0.017470853,0.635362,0.49037623,0.67088807,-0.5707848,1.6997886,-1.0303288,-1.8338249,-1.0361959,2.003317,1.2017845,-0.97693545,1.7703158,-1.0529684,-1.8506515,-1.0826174,1.9668317,1.1489779,-0.92136663,-0.67701864,0.49198627,-1.4441035,1.7744454,1.2564148,1.4163014,-0.16004987,2.6558075,-0.2456665,0.5222386,-2.5058677,-0.34452498,5.042111,0.5152321,-0.47688675,0.6984212,0.59844506,0.16550978,0.14237997,0.7708423,-0.8716216,-1.1532489,0.3479948,1.0,0.0,0.0,0.0,0.0,0.0,0.0,-3.3058076,-0.1543335,0.0277614,-41.87732,5.525875,25.508118,25.21267,0.5337477,-4.766917,-3.6350846
-92.70659,109.50958,41.763123,56.729946,5.133803,7.593487,-0.3639963,-0.7846274,0.19551528,0.17021014,0.64103967,0.51278365,0.63928664,-0.5935101,1.691853,-1.0334169,-1.8336304,-1.0185134,2.01811,1.2129066,-0.98071766,1.7605101,-1.0482553,-1.860358,-1.0652453,1.9785028,1.1622359,-0.9232654,-1.0829909,0.4621027,-0.80503684,1.7255515,1.1322914,1.2910966,-0.20190151,2.6307678,-0.24910736,0.57188547,-2.5033624,-0.34418052,4.9388833,0.50478363,-0.48872375,0.70333135,0.61083245,0.15926675,0.13620842,0.76352143,-1.1147689,-1.1828171,0.54384875,1.0,0.0,0.0,0.0,0.0,0.0,0.0,-3.280768,-0.15089265,-0.021885455,-40.957333,-3.7125826,66.23713,-4.7155857,-13.97109,-13.809156,-4.834366
-34.38252,129.9656,54.246246,30.671265,2.0458314,7.153242,0.39143753,-0.7970952,0.30896008,0.22292794,0.63232666,0.54879516,0.6299949,-0.58744305,1.6808006,-1.0173593,-1.8380651,-1.0020126,2.0333822,1.2252353,-0.9820097,1.7474257,-1.0434679,-1.863301,-1.0495249,1.9887757,1.17409,-0.9255962,-1.3852943,0.48237273,-0.11728692,1.5205306,0.98839206,1.1481091,-0.24602297,2.605751,-0.25254822,0.6205008,-2.5008595,-0.3438364,4.835759,0.49253082,-0.49983978,0.7101346,0.6229568,0.15163748,0.12913701,0.7564751,-1.274431,-1.0748059,0.7284096,1.0,0.0,0.0,0.0,0.0,0.0,0.0,-3.2557511,-0.14745179,-0.07050079,-30.673717,1.4822006,70.82839,-20.616508,-15.567434,-14.87093,-5.2003174
4.6842885,129.48882,52.14984,13.11415,-0.2535718,5.340247,0.4904525,-0.80617535,0.41189876,0.16928594,0.6111233,0.55720955,0.6332936,-0.60057145,1.6668081,-1.002278,-1.8463725,-0.98841256,2.0444968,1.2374194,-0.98565334,1.73235,-1.037969,-1.8610637,-1.0360247,1.997849,1.1846491,-0.9283313,-1.5496265,0.5709709,0.34196544,1.2925153,0.8780049,1.0248196,-0.28502733,2.580761,-0.25598145,0.6680857,-2.4983592,-0.34349263,4.7327385,0.4793167,-0.5094795,0.7184111,0.6343508,0.14296457,0.12186663,0.74987245,-1.3477861,-0.9128494,0.86041075,1.0,0.0,0.0,0.0,0.0,0.0,0.0,-3.230761,-0.14401856,-0.11808568,-16.798878,8.471907,47.292946,-22.989632,-11.668038,-12.39717,-4.587823
24.625967,125.2738,47.066284,5.257862,-1.4383259,3.73298,0.3144645,-0.8172149,0.50741696,0.15585409,0.59238887,0.58012503,0.62218714,-0.6016439,1.6506284,-0.9872273,-1.8454783,-0.9767858,2.0558615,1.2468678,-0.9884957,1.7164427,-1.0311521,-1.856097,-1.0244585,2.0061965,1.1941248,-0.93140596,-1.605422,0.7176758,0.55118334,1.1109738,0.81932557,0.9223076,-0.31680152,2.5557976,-0.25941467,0.7146411,-2.4958613,-0.34314921,4.629821,0.46580505,-0.51745605,0.7277214,0.6450262,0.13366587,0.11506475,0.7435286,-1.3624587,-0.74455315,0.9526368,1.0,0.0,0.0,0.0,0.0,0.0,0.0,-3.2057977,-0.14058533,-0.16464108,-5.877733,14.38272,21.801239,-18.305756,-6.1588764,-10.095346,-3.7298083
31.84892,120.242615,42.588802,3.676877,-1.7303159,2.7191167,0.12390691,-0.82105273,0.5882657,0.18432726,0.5811939,0.60626847,0.62146527,-0.5857313,1.6343374,-0.97232556,-1.8376642,-0.9663391,2.0668232,1.2562714,-0.9899791,1.7004839,-1.022672,-1.8502777,-1.0141741,2.014295,1.2027117,-0.93473905,-1.5933523,0.8906794,0.59418625,1.0006945,0.8063196,0.838174,-0.34026295,2.530857,-0.2628441,0.76016814,-2.493366,-0.34280616,4.5270057,0.45235062,-0.52386093,0.7378074,0.6551603,0.12401249,0.10907874,0.7372161,-1.3478537,-0.5914257,1.0245192,1.0,0.0,0.0,0.0,0.0,0.0,0.0,-3.1808572,-0.13715592,-0.21016812,0.96547604,17.079247,4.911196,-11.124468,-1.4319897,-8.225417,-2.7870178
31.065636,111.88486,37.88897,4.862506,-1.5332501,2.0827932,-0.021426536,-0.8148819,0.6501198,0.19847085,0.57996947,0.61566675,0.6272485,-0.5693994,1.6189957,-0.9576601,-1.8304306,-0.9561772,2.0758617,1.2654365,-0.991679,1.6848971,-1.0125154,-1.8446872,-1.0044886,2.022447,1.2105719,-0.9382543,-1.5477957,1.0567085,0.54890305,0.95760196,0.81818056,0.7692151,-0.35653648,2.5059433,-0.26626968,0.80466783,-2.490873,-0.3424634,4.424293,0.43910217,-0.52892303,0.74850714,0.6649408,0.11414497,0.10397899,0.73076195,-1.3239368,-0.4628447,1.0820988,1.0,0.0,0.0,0.0,0.0,0.0,0.0,-3.1559434,-0.13373032,-0.25466782,4.36666,16.43169,-4.077375,-4.3797016,1.1299372,-6.764817,-1.98434
26.823746,99.842995,32.75964,6.0627384,-1.1569688,1.6394101,-0.07341909,-0.8052464,0.69053006,0.2011228,0.5732613,0.624628,0.636649,-0.5628139,1.6043724,-0.94346243,-1.824575,-0.94716245,2.08491,1.2742368,-0.9945357,1.6698252,-1.0009435,-1.8397644,-0.9949299,2.0307975,1.2178408,-0.9418983,-1.4940425,1.1901503,0.4745719,0.95501494,0.8409761,0.7130209,-0.3680533,2.4810524,-0.26969147,0.84814113,-2.4883828,-0.342121,4.3216834,0.42606354,-0.53289413,0.7596595,0.6744874,0.10415088,0.09965331,0.72407764,-1.300777,-0.35939717,1.1230854,1.0,0.0,0.0,0.0,0.0,0.0,0.0,-3.1310525,-0.13030854,-0.29814112,5.2236557,13.210368,-7.0698795,-0.3451705,2.2581577,-5.5499434,-1.4587522
18.657595,83.02921,25.930868,7.389616,-0.6620718,1.1914062,-0.107140034,-0.8016612,0.7084258,0.16947408,0.5731597,0.63369715,0.6399727,-0.55129725,1.5896591,-0.930101,-1.822817,-0.93761396,2.0941672,1.281838,-0.997028,1.655213,-0.9883914,-1.8356788,-0.9852425,2.0393958,1.2246252,-0.94562715,-1.4508004,1.276497,0.38764438,0.9728908,0.86629397,0.6670204,-0.37543523,2.4561882,-0.27310944,0.8905891,-2.485895,-0.34177896,4.2191763,0.4132042,-0.5360527,0.7710368,0.6838782,0.094150215,0.09592199,0.717109,-1.284521,-0.28606325,1.1394345,1.0,0.0,0.0,0.0,0.0,0.0,0.0,-3.1061883,-0.12689057,-0.3405891,4.199362,8.541346,-8.413494,1.657927,2.5467396,-4.561591,-1.0010779
13.257727,72.355125,22.21733,8.083476,-0.29900813,1.0490323,-0.060816918,-0.7995857,0.72421646,0.17667861,0.5650029,0.63543177,0.64754856,-0.5482949,1.5752544,-0.9159697,-1.8180109,-0.9287422,2.102939,1.2893801,-1.0004567,1.640906,-0.9752736,-1.8322532,-0.9753834,2.0482116,1.2310168,-0.9494142,-1.4242321,1.3233651,0.3285989,0.9897641,0.88681716,0.629886,-0.380633,2.431347,-0.2765274,0.9320128,-2.4834094,-0.34143725,4.1167717,0.40044022,-0.53860855,0.78247774,0.6931186,0.08419528,0.09258067,0.70987785,-1.2761848,-0.22846685,1.1425709,1.0,0.0,0.0,0.0,0.0,0.0,0.0,-3.081347,-0.1234726,-0.38201278,2.5375366,4.6125174,-5.6251645,1.5235782,2.0720124,-3.6919594,-0.77450275
9.652508,64.058556,19.376276,8.326202,-0.06130272,0.92491424,-0.019119233,-0.79359186,0.73053455,0.1661521,0.56571573,0.63734007,0.6504727,-0.5478318,1.5615468,-0.90222013,-1.8156381,-0.9188118,2.1119456,1.296064,-1.0041974,1.6267744,-0.9619136,-1.8292472,-0.965387,2.0571876,1.2370917,-0.9532432,-1.409982,1.3400294,0.29231668,1.0023222,0.9012207,0.5998805,-0.38456792,2.4065323,-0.27993774,0.9724132,-2.4809265,-0.34109586,4.0144696,0.38772583,-0.54065704,0.7938679,0.7021838,0.07430619,0.0894664,0.70243305,-1.2726971,-0.18175156,1.1347939,1.0,0.0,0.0,0.0,0.0,0.0,0.0,-3.0565324,-0.12006226,-0.42241317,1.3082743,1.6080856,-3.346026,1.0668159,1.4648318,-2.9738307,-0.6452918
8.201755,60.092163,18.213137,8.1405115,0.050512254,0.89911675,0.046827238,-0.7940906,0.73417723,0.17119636,0.5550142,0.6445574,0.65137017,-0.5399225,1.5473654,-0.88849586,-1.8121276,-0.9098856,2.1216433,1.3022287,-1.0072354,1.612702,-0.9485183,-1.8264053,-0.95536005,2.0662818,1.2429072,-0.9571008,-1.4067912,1.3392273,0.28260404,1.0020527,0.912331,0.5755509,-0.38694763,2.3817406,-0.28334808,1.0117912,-2.478446,-0.34075484,3.9122703,0.37501144,-0.5422745,0.80514187,0.71102756,0.06448355,0.08646076,0.6948426,-1.2718092,-0.13806726,1.1218948,1.0,0.0,0.0,0.0,0.0,0.0,0.0,-3.0317407,-0.11665192,-0.46179122,0.1957655,-0.13291836,-0.65778494,-0.22888184,1.1257768,-2.3979664,-0.49447417
8.76296,58.8683,17.901527,7.4081993,0.01774019,0.8709801,0.10854794,-0.79372156,0.73838747,0.17271566,0.5373671,0.6541868,0.6552141,-0.5358229,1.5333298,-0.8746795,-1.8091338,-0.90162337,2.1317005,1.3084285,-1.0106831,1.5986162,-0.93517447,-1.8235424,-0.9454552,2.0754828,1.2485167,-0.96097463,-1.4095997,1.332607,0.28881478,0.98587507,0.9227304,0.5562466,-0.3883856,2.3569756,-0.2867508,1.0501481,-2.4759681,-0.34041417,3.810173,0.36231232,-0.54343796,0.81626475,0.71959096,0.05472143,0.0835013,0.6871841,-1.2692919,-0.092507996,1.1059968,1.0,0.0,0.0,0.0,0.0,0.0,0.0,-3.0069757,-0.11324921,-0.5001481,-0.4128933,-0.71184635,0.9630859,-1.8268704,1.0468125,-1.874888,-0.40492415
11.168876,59.513153,18.120766,6.068119,-0.16081476,0.81096387,0.16394608,-0.7912675,0.74485594,0.17123398,0.5109173,0.6590431,0.6561551,-0.5338573,1.5194895,-0.86068887,-1.806419,-0.89436346,2.1413872,1.3141322,-1.0143603,1.584498,-0.9218755,-1.8205783,-0.93584406,2.0847754,1.2539622,-0.96485895,-1.4130313,1.3288032,0.3000792,0.95205855,0.9316557,0.54098576,-0.38926885,2.3322334,-0.2901535,1.0874848,-2.4734926,-0.34007382,3.7081778,0.3496971,-0.5440979,0.82721555,0.72781783,0.04502163,0.08059676,0.6795281,-1.2604941,-0.04147943,1.0880753,1.0,0.0,0.0,0.0,0.0,0.0,0.0,-2.9822335,-0.1098465,-0.5374848,-0.48396587,-0.4292965,1.492244,-3.5948038,0.88891983,-1.4389992,-0.35201907
16.247517,63.794384,20.058277,4.152006,-0.40836942,0.8513284,0.2795825,-0.7878661,0.75318676,0.21052404,0.46790224,0.6733885,0.65320516,-0.5297858,1.5057114,-0.8465568,-1.799526,-0.8890538,2.1521144,1.3192827,-1.0178375,1.5703646,-0.90856314,-1.8173206,-0.92674124,2.0941787,1.259276,-0.96874803,-1.4139817,1.3319415,0.3357692,0.89569825,0.9430905,0.52858955,-0.38973907,2.307518,-0.2935524,1.1238024,-2.4710195,-0.3397338,3.6062846,0.33722305,-0.5441551,0.8380172,0.7356104,0.035355274,0.077733874,0.6720006,-1.2429137,0.021815272,1.0741472,1.0,0.0,0.0,0.0,0.0,0.0,0.0,-2.957518,-0.10644761,-0.5738024,-0.24700165,0.25818348,3.9951384,-5.842519,1.1160731,-1.1252403,-0.33035278
19.340418,64.6038,20.178595,2.564505,-0.63613003,0.72100455,0.32613826,-0.7836264,0.7604051,0.20864323,0.4285959,0.67956895,0.65531015,-0.51557034,1.492002,-0.83252263,-1.7964562,-0.8838816,2.1621356,1.324807,-1.020305,1.5562502,-0.8951726,-1.8137424,-0.91830885,2.1036963,1.2644869,-0.9726295,-1.4111284,1.341234,0.36664647,0.8250927,0.95452434,0.51915145,-0.38860473,2.2828255,-0.29694748,1.1591017,-2.468549,-0.33939415,3.5044935,0.32499313,-0.54354477,0.8486617,0.7429106,0.025730036,0.07494945,0.6646835,-1.2158706,0.08934118,1.0575254,1.0,0.0,0.0,0.0,0.0,0.0,0.0,-2.9328256,-0.10305253,-0.6091017,0.13518333,0.88100433,3.5041094,-7.263255,1.1252999,-0.7844448,-0.16233921
20.970776,65.071175,20.112808,1.8271952,-0.7763012,0.61157274,0.34434894,-0.78120935,0.76855826,0.21862966,0.3902386,0.68022585,0.6581425,-0.50066394,1.4781293,-0.81831676,-1.7918794,-0.879285,2.1717188,1.3303012,-1.0226959,1.5421797,-0.88165426,-1.8098857,-0.91062796,2.1133094,1.2696196,-0.97648805,-1.4061632,1.3552397,0.39325878,0.7484126,0.96327186,0.51212287,-0.38583565,2.2581596,-0.30033875,1.1933839,-2.466081,-0.33905482,3.402804,0.31306076,-0.54224396,0.85913366,0.7497019,0.016160818,0.07229447,0.65761644,-1.1824464,0.15817717,1.0397557,1.0,0.0,0.0,0.0,0.0,0.0,0.0,-2.9081597,-0.09966126,-0.6433839,0.35305023,1.3608217,3.055185,-7.8602076,0.8716941,-0.5152941,0.013583899
18.276031,61.6782,18.254473,2.98486,-0.6768303,0.43022776,0.26206225,-0.779541,0.7716825,0.1965457,0.3780029,0.68300164,0.66539586,-0.48402342,1.4642256,-0.80448604,-1.7902312,-0.87282765,2.1816096,1.3361592,-1.0248904,1.5281626,-0.8680005,-1.8059547,-0.90359557,2.122995,1.2747008,-0.98030657,-1.4006548,1.36864,0.39405262,0.6876166,0.9703288,0.50730544,-0.38122687,2.2335167,-0.3037262,1.22665,-2.4636154,-0.33871582,3.3012161,0.30146408,-0.540329,0.86940306,0.75605303,0.0066747023,0.06982295,0.650741,-1.1500189,0.2166264,1.0183977,1.0,0.0,0.0,0.0,0.0,0.0,0.0,-2.8835168,-0.09627381,-0.67665,0.42407513,1.3182163,0.39336085,-6.265521,0.7429123,-0.28994083,0.23087263
18.09956,62.00562,18.310604,3.481773,-0.64421064,0.40289596,0.2629642,-0.77815276,0.7789957,0.2237331,0.34312668,0.6844956,0.6625194,-0.47389814,1.4503473,-0.79010093,-1.7835814,-0.8692829,2.1914444,1.3409528,-1.0276964,1.5141951,-0.85421133,-1.8019626,-0.89713633,2.1327376,1.2797381,-0.9840736,-1.3957444,1.3822027,0.40191898,0.6314586,0.9754317,0.5032595,-0.3758762,2.2089005,-0.30711365,1.2589009,-2.4611523,-0.33837718,3.19973,0.29018402,-0.53783035,0.87947917,0.7619954,-0.0027374786,0.067535765,0.64404523,-1.1174766,0.27386332,0.99956965,1.0,0.0,0.0,0.0,0.0,0.0,0.0,-2.8589005,-0.09288636,-0.70890087,0.3712654,1.3410091,1.0830164,-5.7886124,0.559175,-0.21656752,0.31414032
19.726723,60.739838,17.962458,2.291998,-0.7458845,0.27254057,0.3115004,-0.7749813,0.78104365,0.24161823,0.28779727,0.6856321,0.6565572,-0.47038504,1.436697,-0.77610695,-1.7778008,-0.8683566,2.2013009,1.3453938,-1.0311121,1.5002772,-0.8403125,-1.7978294,-0.8913275,2.1425185,1.2847391,-0.9877891,-1.3906591,1.3924013,0.4182486,0.56345165,0.97901607,0.49968004,-0.3706977,2.184307,-0.31049347,1.2901378,-2.4586916,-0.3380389,3.098345,0.27926254,-0.5347595,0.8893425,0.7675058,-0.012061689,0.06542469,0.6375804,-1.0789311,0.33089808,0.9773399,1.0,0.0,0.0,0.0,0.0,0.0,0.0,-2.8343072,-0.08950654,-0.74013776,0.3948927,1.0142565,1.9180417,-6.9702983,0.41270256,-0.13587475,0.30471683
16.584227,58.955215,17.156937,4.147241,-0.5239976,0.2503183,0.26240495,-0.7805762,0.7818842,0.25149977,0.28072646,0.6874756,0.6546398,-0.46190247,1.4222195,-0.76212406,-1.7726794,-0.86325485,2.211266,1.3502032,-1.0339793,1.4863726,-0.82634306,-1.7935035,-0.88608134,2.15233,1.2897059,-0.99145025,-1.39073,1.3984852,0.43819574,0.5111992,0.9819806,0.49630097,-0.3652608,2.1597404,-0.3138733,1.3203615,-2.4562335,-0.3377009,2.9970615,0.2686882,-0.53118134,0.89900047,0.77261865,-0.021310287,0.06345459,0.6313317,-1.0468587,0.3804182,0.9572002,1.0,0.0,0.0,0.0,0.0,0.0,0.0,-2.8097405,-0.086126715,-0.7703615,-0.113129616,0.6128073,2.2375643,-5.3838253,0.37509203,-0.13831854,0.3483355
19.603092,58.09669,17.152401,2.0551958,-0.7005781,0.116800815,0.3525654,-0.7770132,0.78178626,0.28567356,0.20913039,0.6900551,0.656797,-0.46215945,1.4086713,-0.7481644,-1.7649362,-0.8651683,2.2213354,1.3553855,-1.0376662,1.4724718,-0.8123412,-1.7888553,-0.8815218,2.1621718,1.2946459,-0.99506277,-1.3902348,1.400746,0.4745576,0.43703613,0.9848848,0.49413547,-0.36055195,2.1351967,-0.31724548,1.3495731,-2.4537778,-0.33736327,2.8958793,0.2584877,-0.5270729,0.9084254,0.77729446,-0.03046178,0.061598457,0.6253726,-1.0059354,0.43228447,0.93266416,1.0,0.0,0.0,0.0,0.0,0.0,0.0,-2.7851968,-0.08275452,-0.7995731,-0.049066544,0.238204,3.8786352,-7.5678587,0.36656857,0.03193021,0.28133392
24.909527,56.376907,16.789825,-2.4180326,-1.1097438,-0.16237748,0.5101735,-0.7803659,0.78388995,0.31419185,0.09335461,0.70291233,0.653329,-0.44639924,1.3944353,-0.7339522,-1.7574362,-0.87218636,2.2324631,1.3599788,-1.0397027,1.4585558,-0.79832506,-1.7837589,-0.87809813,2.172071,1.2995707,-0.9986219,-1.3922496,1.4019514,0.52204543,0.31025612,0.99198604,0.49306118,-0.35491505,2.1106758,-0.32061768,1.3777738,-2.4513245,-0.337026,2.7947984,0.2488327,-0.52240753,0.9175167,0.7814193,-0.039402075,0.059874542,0.619876,-0.9464788,0.48786446,0.89615494,1.0,0.0,0.0,0.0,0.0,0.0,0.0,-2.760676,-0.07938233,-0.82777375,-0.29497147,0.14269352,4.9959064,-12.824976,0.77724457,0.23645163,0.39047003
30.00141,58.59824,17.848156,-5.3263865,-1.4476742,-0.29226786,0.6402123,-0.776074,0.792754,0.36504,0.005452847,0.6996393,0.651193,-0.42036027,1.3809484,-0.7190497,-1.7472548,-0.87755287,2.242035,1.36469,-1.0406579,1.4446398,-0.7842641,-1.7780368,-0.87617266,2.1820273,1.3044897,-1.0021093,-1.3914664,1.4076643,0.589709,0.15296072,0.99707305,0.49273932,-0.34720275,2.0861816,-0.32398605,1.4049643,-2.4488738,-0.33668903,2.6938186,0.2398758,-0.51714325,0.9262297,0.7848833,-0.048068784,0.058307685,0.6150184,-0.8725321,0.5502701,0.85774976,1.0,0.0,0.0,0.0,0.0,0.0,0.0,-2.7361817,-0.07601395,-0.8549643,0.009536743,0.60367584,6.9815516,-15.838101,0.5911827,0.3701508,0.62045455
36.796303,55.74351,16.938175,-11.278267,-2.0326197,-0.7373847,0.80685616,-0.77166593,0.7944557,0.38307184,-0.15526758,0.70470816,0.65009576,-0.38305116,1.3674732,-0.7048185,-1.7397296,-0.89169943,2.2524981,1.3694993,-1.0404145,1.43076,-0.7701402,-1.7716739,-0.87627375,2.192037,1.3094107,-1.0054948,-1.3869846,1.4140934,0.65241826,-0.06469501,1.0026052,0.49364355,-0.33614063,2.0617104,-0.32735062,1.4311459,-2.4464254,-0.3363524,2.5929394,0.23185349,-0.51123047,0.9344339,0.78757,-0.05629244,0.05698879,0.6109966,-0.7720441,0.61387,0.8024976,1.0,0.0,0.0,0.0,0.0,0.0,0.0,-2.7117105,-0.07264939,-0.8811459,0.4200697,0.6905794,6.4331174,-21.841352,0.63815117,0.60405135,1.0010362
36.69072,56.245197,17.2088,-10.521722,-1.9534767,-0.7995597,0.81596345,-0.76255137,0.7971495,0.43265614,-0.21459147,0.70370305,0.6387582,-0.3104075,1.354505,-0.6904252,-1.7284083,-0.8977329,2.2624073,1.3732865,-1.0365356,1.4169699,-0.75595045,-1.7646224,-0.87843287,2.2020926,1.3143317,-1.0087221,-1.3763016,1.4208597,0.7229575,-0.26647976,1.0067924,0.49341422,-0.31852734,2.0372658,-0.33071136,1.4563195,-2.4439795,-0.33601615,2.4921613,0.22482681,-0.5046997,0.9421235,0.7894605,-0.06404732,0.05592311,0.6078837,-0.67203724,0.67367536,0.75214106,1.0,0.0,0.0,0.0,0.0,0.0,0.0,-2.6872659,-0.06928864,-0.90631944,1.0901928,0.7466078,7.0902944,-20.204302,0.5701065,0.48118234,1.6966105
27.914692,56.05478,17.002333,-3.236816,-1.2058825,-0.5575467,0.6274474,-0.7604906,0.79496497,0.47509494,-0.19589682,0.6960259,0.63163745,-0.2231096,1.3409208,-0.67645395,-1.7171129,-0.89802253,2.2716951,1.3774954,-1.031033,1.4032866,-0.7417178,-1.7568405,-0.881991,2.2121558,1.3192412,-1.0117204,-1.3654948,1.424326,0.7962299,-0.38558817,1.007436,0.49146527,-0.29354474,2.012844,-0.3340683,1.4804859,-2.441536,-0.3356802,2.3914838,0.21858215,-0.49765396,0.9494524,0.7906893,-0.07150603,0.05501967,0.6055329,-0.60070634,0.7213029,0.7204471,1.0,0.0,0.0,0.0,0.0,0.0,0.0,-2.6628442,-0.06593171,-0.9304859,1.1126518,0.44345856,7.22816,-11.931485,0.3185749,0.20968914,2.4515927
18.238693,54.71909,16.19666,4.1874437,-0.46311864,-0.32379565,0.40855914,-0.76182294,0.79689664,0.49512696,-0.18361333,0.69589126,0.62937593,-0.1346346,1.3271043,-0.66202813,-1.7073277,-0.90035236,2.281745,1.3821788,-1.0251839,1.3896815,-0.7274585,-1.7484176,-0.8861433,2.222219,1.324124,-1.0144193,-1.3589076,1.4269058,0.8571838,-0.42526954,1.0074439,0.4883526,-0.26199332,1.9884453,-0.33742523,1.5036464,-2.4390948,-0.33534458,2.290907,0.21282578,-0.4902153,0.95658624,0.79144555,-0.07885789,0.054188415,0.6037043,-0.55924803,0.75647455,0.70485055,1.0,0.0,0.0,0.0,0.0,0.0,0.0,-2.6384454,-0.062574774,-0.95364636,0.66547394,0.37567616,5.923152,-4.017562,0.32539368,-0.0012516975,3.1110108
12.821041,51.401398,14.762129,7.525979,-0.12574607,-0.30875492,0.28218773,-0.7626821,0.79621524,0.50637823,-0.20617066,0.6902904,0.6282343,-0.06515796,1.3134133,-0.6478369,-1.6977798,-0.9067604,2.291248,1.3869474,-1.020935,1.3761088,-0.71318674,-1.7395236,-0.890432,2.232267,1.3289744,-1.016773,-1.356832,1.4276326,0.89950866,-0.4303692,1.0051208,0.48484445,-0.22675547,1.9640732,-0.34077454,1.5258018,-2.4366562,-0.3350093,2.1904306,0.20737839,-0.48249435,0.9635918,0.791865,-0.08618058,0.053414717,0.6022205,-0.53125983,0.78219837,0.6926647,1.0,0.0,0.0,0.0,0.0,0.0,0.0,-2.6140733,-0.05922547,-0.97580177,0.19056797,0.19776821,4.051435,-0.58829784,0.10485649,-0.085145235,3.4797578
10.745788,47.737526,13.284842,7.9507265,-0.08284819,-0.4252783,0.23594058,-0.76558477,0.795321,0.5147525,-0.23629092,0.6816626,0.6277731,0.0010228294,1.2995503,-0.63365465,-1.6880484,-0.91406107,2.3004332,1.3917516,-1.0166707,1.3625208,-0.6989188,-1.730336,-0.8947588,2.2422652,1.3337904,-1.0187585,-1.359454,1.4268521,0.924839,-0.43366164,0.99913764,0.48154765,-0.18908863,1.939724,-0.34412384,1.5469532,-2.43422,-0.33467436,2.0900548,0.20220566,-0.4745636,0.970446,0.79201674,-0.09344582,0.0527474,0.600995,-0.5047773,0.80171776,0.6764753,1.0,0.0,0.0,0.0,0.0,0.0,0.0,-2.589724,-0.055876166,-0.9969532,-0.2938509,0.045657158,2.3724556,-0.42393208,-0.28202534,-0.07567406,3.7271352
7.4275546,44.85123,12.195556,9.966696,0.1400739,-0.43033272,0.1778396,-0.7686916,0.79235274,0.5223166,-0.21070614,0.6774645,0.63555884,0.1320158,1.2856517,-0.61968356,-1.6781043,-0.9158294,2.3100116,1.3973463,-1.005557,1.3488833,-0.6846757,-1.7209823,-0.8989626,2.252195,1.3385817,-1.0203035,-1.365363,1.4238124,0.9384823,-0.41643474,0.99194235,0.47920048,-0.14323476,1.9154015,-0.34746552,1.5671016,-2.4317863,-0.33433977,1.9897794,0.19722748,-0.4664917,0.97715217,0.7919519,-0.10066332,0.052202675,0.5999615,-0.4867687,0.8147298,0.6619582,1.0,0.0,0.0,0.0,0.0,0.0,0.0,-2.5654016,-0.05253449,-1.0171015,-0.6436348,-0.17726421,1.2112379,1.603514,-0.3995061,-0.009196997,4.541585
-0.63210106,42.653484,11.317624,16.575096,0.7950822,-0.18206692,-0.014267825,-0.7767602,0.78849083,0.5193141,-0.10027171,0.66639334,0.64432216,0.25101927,1.2712072,-0.6058266,-1.6690509,-0.9089898,2.3188343,1.403014,-0.9952016,1.3351504,-0.6704793,-1.7115829,-0.90247023,2.2620292,1.3433558,-1.0213411,-1.3763053,1.4186183,0.9398487,-0.32937914,0.98217815,0.47740433,-0.09083288,1.8911018,-0.3508072,1.586248,-2.429355,-0.33400548,1.889604,0.19221878,-0.45833588,0.9838196,0.7918012,-0.10798146,0.05173381,0.59892774,-0.49627498,0.8190018,0.661591,1.0,0.0,0.0,0.0,0.0,0.0,0.0,-2.541102,-0.049192816,-1.036248,-1.1993885,-0.3800869,-0.028526783,8.53365,-0.6097317,-0.034749508,5.1794887
-5.4662123,38.439404,9.906175,19.971397,1.1960169,-0.10974316,-0.1373823,-0.7854134,0.77508307,0.51363605,-0.036044896,0.65985215,0.65055263,0.29277766,1.256609,-0.59297097,-1.6602193,-0.9060747,2.3280144,1.408411,-0.99206334,1.3212782,-0.6563916,-1.7022407,-0.90483916,2.2717643,1.3481165,-1.0218694,-1.3912054,1.4059062,0.93196416,-0.20683992,0.97179043,0.4760845,-0.04055177,1.8668251,-0.35414505,1.6043934,-2.4269261,-0.33367154,1.7895287,0.18699646,-0.45020676,0.9905154,0.7916791,-0.115504906,0.05127848,0.59772336,-0.52138156,0.81512845,0.6654771,1.0,0.0,0.0,0.0,0.0,0.0,0.0,-2.5168252,-0.045854956,-1.0543933,-1.6235352,-1.1324644,-0.94338655,12.047159,-0.665617,-0.03594756,4.954905
-13.202812,38.794277,10.270287,28.247616,1.9751854,0.3138746,-0.3640524,-0.78507215,0.77092594,0.51058507,0.15557039,0.65346324,0.6544531,0.35150442,1.242771,-0.57929903,-1.6511822,-0.8892821,2.3371105,1.4135618,-0.98671895,1.307284,-0.64243746,-1.6930053,-0.90526927,2.2814002,1.3528639,-1.0219057,-1.4028494,1.392368,0.9200516,0.010849524,0.96228653,0.47427592,0.008345409,1.8425751,-0.3574791,1.6215388,-2.4244998,-0.33333793,1.6895536,0.1812706,-0.4421425,0.99742115,0.7917288,-0.123490475,0.050713003,0.59610724,-0.58064437,0.8084825,0.6921758,1.0,0.0,0.0,0.0,0.0,0.0,0.0,-2.4925752,-0.04252091,-1.0715387,-1.3273001,-1.2013674,-1.3985634,21.538458,-0.5009532,-0.19593835,4.7997184
-15.869484,38.32039,10.289623,31.428774,2.2760863,0.4735505,-0.4701257,-0.78714716,0.76552707,0.49296618,0.28000328,0.66604006,0.6584569,0.34757408,1.2285693,-0.56588477,-1.6437087,-0.8772689,2.348004,1.4187096,-0.9871482,1.2932001,-0.62861586,-1.6839569,-0.903237,2.290998,1.3575941,-1.0215108,-1.4108125,1.379195,0.8989793,0.26666525,0.9607127,0.47227865,0.049756918,1.8183479,-0.36080933,1.6376852,-2.4220757,-0.33300465,1.5896784,0.17484665,-0.43413925,1.0046527,0.79203886,-0.13211024,0.04994151,0.59390825,-0.6537393,0.8025793,0.72670823,1.0,0.0,0.0,0.0,0.0,0.0,0.0,-2.468348,-0.03919068,-1.0876851,-0.94828606,-1.1713982,-2.3301244,25.373009,0.3036499,-0.29056668,4.050133
-10.742073,39.184074,10.685253,27.180178,1.7913771,0.2910927,-0.36620697,-0.7883649,0.7652373,0.48214528,0.315766,0.66805106,0.65613794,0.3272781,1.2143637,-0.55209213,-1.6357423,-0.8716604,2.357803,1.4232079,-0.988783,1.2790648,-0.6148944,-1.6751392,-0.89898455,2.3006072,1.3623053,-1.020767,-1.4148597,1.370213,0.87546384,0.4775609,0.96197385,0.47035912,0.08235629,1.7941475,-0.36413574,1.6528336,-2.4196541,-0.33267173,1.489903,0.16783142,-0.42614746,1.0121506,0.7925537,-0.14130363,0.048995487,0.5911778,-0.70865184,0.8050897,0.75061345,1.0,0.0,0.0,0.0,0.0,0.0,0.0,-2.4441476,-0.035864264,-1.1028335,-0.5157471,-0.78241825,-2.5169492,20.940882,0.5119324,-0.26826262,3.173317
-3.7609377,38.427082,10.302511,20.119015,1.0723542,-0.09316498,-0.2006525,-0.78926295,0.7621069,0.45865163,0.33083376,0.6715114,0.6483502,0.314285,1.2001384,-0.5386837,-1.629274,-0.8659012,2.3677583,1.4271404,-0.98933846,1.2649103,-0.60124445,-1.6666133,-0.89319766,2.3102393,1.3669974,-1.0197523,-1.4160416,1.3635862,0.8447477,0.6120345,0.9646873,0.4686582,0.10766477,1.7699699,-0.36746216,1.6669849,-2.417235,-0.3323391,1.3902274,0.16048813,-0.41809082,1.0197405,0.7931571,-0.1508528,0.04799739,0.58808273,-0.73372835,0.8124712,0.75486857,1.0,0.0,0.0,0.0,0.0,0.0,0.0,-2.41997,-0.032537848,-1.1169848,-0.19977093,-0.5797148,-3.1436205,13.334012,0.5567789,-0.16878843,2.4437575
4.707309,40.049557,10.687756,11.989348,0.19899917,-0.49675065,0.016380742,-0.7901918,0.766984,0.4501809,0.30988982,0.6714892,0.6486818,0.30547902,1.1858912,-0.524546,-1.6215953,-0.86220866,2.3773882,1.4318656,-0.98920435,1.2507521,-0.5876126,-1.6583679,-0.88674605,2.3198905,1.3716799,-1.0185277,-1.4158288,1.3631805,0.8180268,0.6560225,0.96593887,0.468333,0.12716877,1.7458153,-0.37078094,1.6801404,-2.414818,-0.33200684,1.2906516,0.15316391,-0.4099083,1.0272291,0.7937015,-0.1604962,0.04709987,0.58485925,-0.72285265,0.82749224,0.73983586,1.0,0.0,0.0,0.0,0.0,0.0,0.0,-2.3958154,-0.029219061,-1.1301403,-0.04272461,0.009274483,-2.6235461,4.3170214,0.29691458,0.07742047,1.8571407
10.475247,39.543648,10.413919,6.0251074,-0.3672865,-0.8576472,0.18358545,-0.78489655,0.7624991,0.43855774,0.2953254,0.671731,0.63971,0.34053364,1.1722624,-0.51136273,-1.6145121,-0.8572135,2.3870635,1.435651,-0.98447436,1.2366282,-0.57398844,-1.6503627,-0.880324,2.3295455,1.3763586,-1.0171087,-1.4113961,1.3623126,0.79491544,0.6373687,0.9658629,0.4682788,0.14636184,1.7216835,-0.37409973,1.6923008,-2.4124038,-0.3316749,1.1911751,0.14614487,-0.40156555,1.0344605,0.7940622,-0.17001356,0.046410285,0.58172727,-0.68608373,0.8429537,0.7105523,1.0,0.0,0.0,0.0,0.0,0.0,0.0,-2.3716836,-0.025900275,-1.1423008,0.40364265,-0.053071976,-2.1970987,-1.9302607,0.08546114,0.19487739,1.8242598
12.63524,39.30375,10.399273,3.9287453,-0.56040883,-1.001304,0.2585283,-0.7807327,0.75818676,0.43977672,0.2988349,0.66314954,0.6456726,0.37269372,1.1585549,-0.49816975,-1.6063851,-0.8504405,2.3958604,1.4409258,-0.9798393,1.2225691,-0.5603881,-1.6425102,-0.87424624,2.33917,1.3810431,-1.015497,-1.4040215,1.3593496,0.78253317,0.5977995,0.9615149,0.4692321,0.16580415,1.6975784,-0.3774147,1.7034671,-2.409992,-0.3313433,1.0917982,0.1395607,-0.39307404,1.0413717,0.79417455,-0.17931539,0.04596316,0.57880914,-0.64003587,0.85822356,0.67770875,1.0,0.0,0.0,0.0,0.0,0.0,0.0,-2.3475785,-0.022585303,-1.1534672,0.71840286,-0.26581287,-1.1091948,-4.0063143,-0.3725648,0.32299757,1.8492609
11.862699,36.55923,9.302488,3.6543999,-0.5573071,-1.1271096,0.23629509,-0.78227097,0.75379676,0.41650683,0.29075855,0.6521528,0.63980806,0.38781217,1.1443421,-0.48500842,-1.6008595,-0.8451704,2.4043853,1.4450239,-0.97671574,1.2085692,-0.5468354,-1.6348293,-0.86859477,2.3487182,1.3857332,-1.0136983,-1.3987834,1.3539716,0.7638222,0.5541776,0.95271516,0.46974245,0.18411995,1.6734962,-0.38072586,1.7136405,-2.4075825,-0.33101204,0.9925207,0.13344193,-0.38446426,1.0479382,0.79405314,-0.18835686,0.045786005,0.5761118,-0.59290427,0.8679265,0.6428681,1.0,0.0,0.0,0.0,0.0,0.0,0.0,-2.3234963,-0.019274145,-1.1636405,0.5072355,-0.5010605,-1.7619252,-4.4157863,-0.81260204,0.28709173,1.7491281
10.736982,33.044506,8.056604,3.7029824,-0.46702352,-1.244102,0.21079704,-0.77899545,0.7444314,0.3984978,0.2725333,0.6501218,0.63812166,0.40770835,1.1306696,-0.4723923,-1.5949795,-0.84134144,2.4137304,1.4495454,-0.9729275,1.1946207,-0.5333743,-1.6273792,-0.86337435,2.3581786,1.3904272,-1.0117223,-1.3936949,1.3436589,0.73889154,0.5111464,0.94404626,0.47003713,0.20180619,1.649437,-0.3840332,1.7228217,-2.4051754,-0.3306811,0.8933424,0.12778854,-0.37580872,1.0541459,0.79373586,-0.19710502,0.045876786,0.5736097,-0.5471931,0.87044716,0.6067274,1.0,0.0,0.0,0.0,0.0,0.0,0.0,-2.299437,-0.015966803,-1.1728218,0.49948692,-0.9859562,-2.4146676,-4.3637633,-0.7909417,0.2680838,1.6976863
8.935316,29.450836,6.801647,4.5314817,-0.31222904,-1.3186623,0.1572096,-0.7746868,0.734637,0.37370837,0.26415065,0.64341617,0.6420774,0.42215303,1.1171521,-0.4599106,-1.5900084,-0.8369593,2.4225202,1.454635,-0.96950704,1.1807276,-0.5200486,-1.6202514,-0.8585125,2.3675513,1.3951269,-1.0095785,-1.3879497,1.3289849,0.7041144,0.47768483,0.9350198,0.4705693,0.21838468,1.6254044,-0.38733673,1.731012,-2.4027708,-0.3303505,0.79426324,0.122550964,-0.36716843,1.0599953,0.7932749,-0.20555012,0.046220917,0.571251,-0.5062091,0.86600804,0.57121366,1.0,0.0,0.0,0.0,0.0,0.0,0.0,-2.2754045,-0.012663275,-1.1810119,0.56824684,-1.4128447,-3.4357667,-3.4182072,-0.8081198,0.2831757,1.5967578
9.844852,29.256382,6.6984835,3.295329,-0.41338873,-1.4321347,0.19435693,-0.7759687,0.7312574,0.37091544,0.21089229,0.6436155,0.6362658,0.4273519,1.1031307,-0.44692287,-1.5831599,-0.83742326,2.431913,1.4587535,-0.96684325,1.1668726,-0.50686216,-1.613425,-0.85412085,2.3768516,1.3998266,-1.0072839,-1.3847324,1.3153838,0.67576647,0.4261591,0.9283419,0.47058046,0.23303336,1.6013947,-0.39064026,1.7382122,-2.4003685,-0.3300202,0.6952831,0.117759705,-0.35857773,1.0654752,0.7926748,-0.2136492,0.04681876,0.5690595,-0.45977575,0.8604267,0.53408074,1.0,0.0,0.0,0.0,0.0,0.0,0.0,-2.2513947,-0.009359747,-1.1882122,0.32293797,-1.3072968,-2.7835727,-5.2113175,-0.5924225,0.2415955,1.4097661
10.276909,29.900227,7.1372995,3.3397393,-0.39500988,-1.4408242,0.22859073,-0.7697023,0.7221398,0.37952173,0.19048889,0.63642675,0.6353201,0.451367,1.0899024,-0.4346482,-1.5754728,-0.835072,2.4404943,1.4633586,-0.96214724,1.1530653,-0.49381876,-1.6067569,-0.8502451,2.3860793,1.4045244,-1.0048425,-1.3793836,1.3008423,0.6639812,0.37459132,0.92121,0.47032008,0.24770881,1.5774078,-0.39393616,1.7444234,-2.3979685,-0.32969025,0.59640193,0.11344528,-0.35004044,1.0706029,0.7919059,-0.22141258,0.047638256,0.5670908,-0.41338933,0.8561333,0.49975535,1.0,0.0,0.0,0.0,0.0,0.0,0.0,-2.227408,-0.0060638487,-1.1944234,0.5509138,-1.3993502,-1.137507,-5.199832,-0.64162016,0.20371675,1.4130712
11.265832,30.282692,7.109107,2.0460014,-0.53828645,-1.5589235,0.25966358,-0.77013403,0.7207578,0.36452132,0.136586,0.633734,0.6337214,0.46130273,1.076052,-0.42174298,-1.5703048,-0.83658653,2.4494526,1.4678966,-0.9587122,1.1393,-0.48089075,-1.6001976,-0.8470131,2.3952422,1.4092184,-1.0022619,-1.3755069,1.2903017,0.65336245,0.30598193,0.9148742,0.46999553,0.26133054,1.5534477,-0.39723206,1.7496465,-2.395571,-0.3293606,0.4976197,0.1096344,-0.3415413,1.0753738,0.7909564,-0.22880448,0.048690915,0.5653898,-0.36041674,0.8511863,0.46382728,1.0,0.0,0.0,0.0,0.0,0.0,0.0,-2.2034478,-0.0027679503,-1.1996465,0.416708,-1.0000229,-1.0215759,-6.8851233,-0.57759285,0.2059102,1.3173819
11.763327,27.923676,6.3517113,0.671258,-0.57888967,-1.714699,0.29147723,-0.7632483,0.7049685,0.36009958,0.084447935,0.6256748,0.63117725,0.47917137,1.0629752,-0.4103939,-1.5641876,-0.83856833,2.4578097,1.4723362,-0.95434475,1.1255938,-0.46810436,-1.5937259,-0.8445755,2.4043326,1.4139086,-0.9995477,-1.3686514,1.2749336,0.6452401,0.22297515,0.9071953,0.46959385,0.27474937,1.5295105,-0.40052032,1.7538826,-2.3931758,-0.32903132,0.3989362,0.10639572,-0.33312225,1.07976,0.7898208,-0.23576155,0.04997822,0.564005,-0.30284238,0.8404593,0.42469892,1.0,0.0,0.0,0.0,0.0,0.0,0.0,-2.1795106,0.00052031875,-1.2038827,0.74870586,-1.4792681,-0.80001354,-8.312193,-0.7268667,0.21208525,1.3076127
13.580416,27.184746,5.909918,-2.1900835,-0.7983662,-1.9423525,0.35782164,-0.7605316,0.69983536,0.35562402,-0.0060123173,0.6282546,0.6301316,0.4854463,1.0495406,-0.39812082,-1.5581635,-0.84517676,2.467158,1.4769218,-0.9510031,1.111962,-0.4554658,-1.5873287,-0.8432213,2.4133658,1.418595,-0.9967077,-1.361093,1.2603825,0.6379444,0.106297724,0.9019986,0.46937487,0.28696924,1.5055962,-0.4038086,1.7571326,-2.390783,-0.32870236,0.3003514,0.103824615,-0.3248558,1.083709,0.78848237,-0.24216938,0.051520806,0.5630231,-0.23323637,0.8249156,0.37972113,1.0,0.0,0.0,0.0,0.0,0.0,0.0,-2.1555963,0.0038085878,-1.2071326,0.8659601,-1.3988495,-0.7354498,-11.646109,-0.51517487,0.25234818,1.2043118
16.82744,27.177738,6.0391817,-6.251491,-1.058841,-2.190701,0.509627,-0.7507926,0.68331593,0.39260828,-0.12505886,0.62794703,0.62320924,0.50568604,1.0368826,-0.3871342,-1.5480678,-0.8557272,2.4761605,1.4809159,-0.9461391,1.0984408,-0.4430127,-1.5808094,-0.8433806,2.422357,1.4232775,-0.9937446,-1.3485729,1.2404406,0.6563794,-0.05637054,0.89819956,0.46880186,0.2994779,1.4817047,-0.40709305,1.7593975,-2.3883927,-0.32837373,0.20186518,0.102062225,-0.31674957,1.0871507,0.7868636,-0.24788918,0.053302377,0.5626325,-0.14773291,0.8050029,0.3273404,1.0,0.0,0.0,0.0,0.0,0.0,0.0,-2.1317048,0.007093042,-1.2093976,1.45607,-1.9401073,1.7922759,-16.184996,-0.4261613,0.24361014,1.2517989
17.223228,22.941246,4.554383,-8.5243435,-1.1129982,-2.4408479,0.5373214,-0.7334135,0.66250056,0.3771935,-0.2206013,0.61612743,0.62607074,0.5168748,1.0250994,-0.37676266,-1.54309,-0.8654407,2.48397,1.4858845,-0.94205713,1.0851103,-0.43081808,-1.5741642,-0.845328,2.4312873,1.4279562,-0.9906604,-1.326875,1.2126793,0.66695595,-0.24052417,0.8909969,0.46857014,0.31145212,1.45784,-0.4103737,1.7606782,-2.3860047,-0.32804543,0.10347742,0.10121536,-0.3089409,1.0900196,0.78495246,-0.25278997,0.05531716,0.56292695,-0.055267613,0.7736144,0.26859644,1.0,0.0,0.0,0.0,0.0,0.0,0.0,-2.10784,0.010373682,-1.2106781,2.4650097,-2.7203798,0.9243369,-18.303398,-0.79381466,0.27559996,1.2163997
16.197014,16.24581,2.402008,-9.961291,-1.003311,-2.6633863,0.53836906,-0.71799576,0.62974215,0.37469178,-0.33111373,0.60309607,0.62069905,0.533097,1.0133107,-0.36784387,-1.536695,-0.87843937,2.491597,1.4900261,-0.93735075,1.072045,-0.41900587,-1.5674598,-0.8492371,2.4401145,1.4326292,-0.987458,-1.2985827,1.1709027,0.6709649,-0.44064373,0.8794666,0.46764633,0.32334146,1.4339981,-0.41365433,1.7609757,-2.383619,-0.32771745,0.0051880116,0.101306915,-0.30154037,1.0922525,0.7827771,-0.25675425,0.057544656,0.5639377,0.038262572,0.72745353,0.20365942,1.0,0.0,0.0,0.0,0.0,0.0,0.0,-2.0839982,0.013654321,-1.2109756,3.2066822,-4.1252375,0.19526482,-19.887798,-1.2549639,0.18282533,1.2169361
12.219715,9.681352,0.6527975,-6.972666,-0.53402835,-2.597914,0.4427206,-0.7006583,0.59304,0.37818322,-0.38183016,0.5786314,0.62078243,0.558879,1.0019791,-0.35970187,-1.5296415,-0.8874201,2.4979777,1.4947075,-0.9315701,1.0592924,-0.4077158,-1.5607326,-0.8549181,2.4487662,1.4372889,-0.9841306,-1.2662132,1.1152303,0.6724049,-0.61033916,0.86014146,0.4661874,0.33585343,1.4101791,-0.41692734,1.7602911,-2.3812358,-0.3273898,-0.093003124,0.10220337,-0.29466248,1.0938663,0.7803957,-0.2598075,0.059916217,0.5655904,0.1142932,0.6728587,0.14291799,1.0,0.0,0.0,0.0,0.0,0.0,0.0,-2.0601792,0.016927332,-1.2102911,3.6051989,-5.5150747,-0.0952363,-16.892803,-2.0056248,0.06645322,1.26068
6.4861507,-0.74549556,-2.4922166,-3.273755,0.06933895,-2.5469327,0.27843285,-0.6862865,0.54205483,0.35019028,-0.43535316,0.547232,0.6176615,0.56875366,0.99066377,-0.35351032,-1.5257136,-0.8984534,2.5034895,1.499055,-0.9272553,1.0468584,-0.39712143,-1.554137,-0.8620354,2.457151,1.4419295,-0.98068595,-1.2346582,1.040949,0.65466344,-0.7456521,0.83111936,0.46385252,0.34725294,1.386383,-0.42020035,1.7586253,-2.378855,-0.3270625,-0.19109608,0.103694916,-0.28842926,1.094893,0.777927,-0.26201054,0.06236288,0.5677066,0.16786449,0.60420233,0.08505455,1.0,0.0,0.0,0.0,0.0,0.0,0.0,-2.0363832,0.020200342,-1.2086253,3.4711123,-7.3888063,-1.9740701,-13.5380745,-2.9768229,-0.08850694,1.1110723
3.2333078,-10.8656,-5.3197775,-2.3846312,0.48660925,-2.6020713,0.23373769,-0.65688384,0.46828893,0.35643244,-0.5268414,0.4921479,0.61229044,0.57991576,0.98117006,-0.35029253,-1.5184938,-0.9147195,2.5063658,1.5031585,-0.9226944,1.0347964,-0.38747978,-1.547694,-0.8704716,2.465116,1.4465433,-0.97713447,-1.1954089,0.9385904,0.64003456,-0.8765149,0.78462875,0.46064892,0.35759032,1.3626137,-0.42346573,1.7559793,-2.3764765,-0.3267355,-0.28909096,0.10564804,-0.28299332,1.0953162,0.7754342,-0.26336098,0.064802945,0.5702134,0.20963992,0.5203564,0.024293702,1.0,0.0,0.0,0.0,0.0,0.0,0.0,-2.0126138,0.023465723,-1.2059793,4.2663574,-10.221397,-1.6608119,-13.132548,-4.7580957,-0.23002625,0.9657264
-1.4936626,-25.337543,-9.314387,-0.9533124,1.112291,-2.6300526,0.17663667,-0.63199544,0.3612183,0.36934143,-0.5989753,0.41443664,0.6145429,0.58260536,0.97159684,-0.35135794,-1.5107598,-0.93036914,2.5065596,1.5079976,-0.9188739,1.0231615,-0.3791833,-1.5413005,-0.88018095,2.4724364,1.4511248,-0.97349334,-1.1516461,0.7932364,0.6384332,-1.0027729,0.7140235,0.45720002,0.36591294,1.3388672,-0.4267311,1.7523541,-2.3741004,-0.32640883,-0.38698786,0.10788345,-0.278553,1.095096,0.7729601,-0.26384145,0.0671104,0.5730764,0.23296568,0.41571164,-0.040849578,1.0,0.0,0.0,0.0,0.0,0.0,0.0,-1.9888672,0.026731104,-1.2023542,4.727626,-14.563692,-0.3217697,-12.73073,-7.2197914,-0.33132434,0.70312023
-8.780778,-51.80567,-16.784153,0.56142354,2.1766975,-2.7715895,0.08549608,-0.5619775,0.1778394,0.36460385,-0.64532083,0.27362704,0.5874076,0.5794262,0.96696377,-0.36139935,-1.5048401,-0.94471306,2.4997993,1.5098655,-0.9155507,1.0121981,-0.3729539,-1.5349033,-0.891029,2.4787116,1.4556471,-0.9697883,-1.076559,0.565804,0.6396661,-1.112766,0.59783274,0.4502317,0.37122872,1.3151436,-0.42999268,1.7477508,-2.3717268,-0.3260825,-0.4847869,0.11013794,-0.27547836,1.0941528,0.7705689,-0.26341525,0.0690637,0.5762518,0.22743759,0.27052295,-0.11497327,1.0,0.0,0.0,0.0,0.0,0.0,0.0,-1.9651436,0.02999267,-1.1977508,7.9173803,-22.852957,0.008487701,-11.198163,-11.878896,-0.8044362,0.28503537
-29.124844,-131.2661,-40.658627,1.9868281,5.2393894,-3.4898446,-0.22852132,-0.37568966,-0.2606625,0.24919088,-0.65167826,0.040261734,0.5626535,0.5699812,0.9746291,-0.39902014,-1.5099843,-0.95619684,2.4827378,1.5119125,-0.9127902,1.0027529,-0.37071323,-1.5290077,-0.9026829,2.4832397,1.4600664,-0.9660623,-0.8987528,0.10897112,0.57344836,-1.1842602,0.40244675,0.43770736,0.3711767,1.2914429,-0.43325043,1.7421701,-2.3693554,-0.3257565,-0.5824882,0.111782074,-0.27485275,1.092203,0.7684983,-0.26185715,0.07003295,0.5796002,0.14584844,-0.009516823,-0.2236169,1.0,0.0,0.0,0.0,0.0,0.0,0.0,-1.9414428,0.03325042,-1.1921701,18.312859,-46.035324,-6.439793,-7.5578213,-20.187462,-1.7170668,-0.5684376
-34.35107,-153.22498,-47.41023,3.8605468,5.705431,-3.541615,-0.37379813,-0.15635578,-0.5068649,0.1388143,-0.61017114,-0.41883528,0.5703875,0.5634899,0.98711735,-0.4213997,-1.5151262,-0.9637,2.4413562,1.5171052,-0.9097133,0.99592364,-0.37365675,-1.5242774,-0.91455424,2.4846587,1.4643561,-0.96235156,-0.61021984,-0.43025422,0.4415062,-1.1892796,0.05246056,0.42342305,0.36882758,1.2677689,-0.43650818,1.7356131,-2.3669865,-0.32543078,-0.6800918,0.11251068,-0.27723312,1.0891181,0.76691055,-0.25920594,0.06997756,0.5828924,0.048190027,-0.31403893,-0.3377306,1.0,0.0,0.0,0.0,0.0,0.0,0.0,-1.9177688,0.036508173,-1.1856132,29.099487,-54.362083,-12.670124,-0.84302425,-35.6678,-2.234149,-0.87879896
-10.286295,-109.24612,-29.934023,-2.496924,4.354316,-3.187008,0.38298663,0.2959628,-0.68753093,0.22818118,-0.58767533,-0.49930668,0.6304106,0.4697287,1.02552,-0.44240984,-1.5014594,-0.9733218,2.4347281,1.5273972,-0.9153787,0.9936577,-0.3817873,-1.5202968,-0.92615664,2.4827247,1.4685599,-0.95872283,-0.100683495,-0.9417339,0.38630202,-1.151396,-0.2758809,0.41639152,0.35982037,1.2441177,-0.4397583,1.7280809,-2.36462,-0.32510543,-0.77759784,0.11269379,-0.28211594,1.0850313,0.7651418,-0.25589958,0.06859703,0.58682853,0.0070208167,-0.544966,-0.43294716,1.0,0.0,0.0,0.0,0.0,0.0,0.0,-1.8941177,0.039758295,-1.1780808,50.34454,-51.48324,-4.661173,3.5110712,-33.01135,-1.5327394,-1.2506247
-1.2127705,-58.878433,-14.146379,5.522873,3.2583485,-2.231747,0.26020297,0.40693396,-0.7326097,0.118414015,-0.43580875,-0.46291646,0.65933037,0.23397572,1.0343511,-0.45504826,-1.5084554,-0.9697375,2.436433,1.5344929,-0.93532526,0.99629176,-0.3938775,-1.5170562,-0.936607,2.4782767,1.4727389,-0.9553449,0.3806727,-1.2989001,0.30736688,-1.0103326,-0.5014874,0.4165698,0.33010045,1.2204895,-0.44300842,1.7195743,-2.3622558,-0.32478037,-0.87500644,0.1125679,-0.28863144,1.0803323,0.7629309,-0.2525426,0.06589369,0.591453,-0.019744847,-0.68372846,-0.483506,1.0,0.0,0.0,0.0,0.0,0.0,0.0,-1.8704895,0.043008417,-1.1695743,46.930496,-35.949944,-6.6213427,13.894534,-22.62134,-0.5643904,-3.05503
5.4549212,-29.293356,-9.741283,1.2887537,1.5813702,-2.6501822,-0.062060542,0.5708032,-0.7679194,-0.24815883,-0.47197518,-0.4200971,0.6633186,0.07361917,1.053372,-0.47066945,-1.5418721,-0.9838045,2.436267,1.5390707,-0.947983,1.0032964,-0.40834188,-1.5161102,-0.9458853,2.4723983,1.476935,-0.9523752,0.8021147,-1.4963439,0.028985249,-0.9008517,-0.61735225,0.41885903,0.28580588,1.1968842,-0.44625092,1.7100943,-2.359894,-0.32445568,-0.9723176,0.11254501,-0.2963524,1.0751226,0.7606161,-0.24903436,0.062428698,0.59627813,0.006227327,-0.7974093,-0.5358807,1.0,0.0,0.0,0.0,0.0,0.0,0.0,-1.8468841,0.04625091,-1.1600943,40.679886,-19.95499,-26.220373,10.780418,-11.77088,-0.30255914,-4.480338
13.755772,1.3658175,-3.9735174,-5.5869393,-0.44324088,-3.0003433,-0.18402515,0.66310716,-0.76846945,-0.41336486,-0.5599037,-0.46385127,0.64951426,-0.1100437,1.0696071,-0.48518884,-1.5574467,-1.0018756,2.4260132,1.5418864,-0.96337956,1.0136724,-0.42374134,-1.518544,-0.9547821,2.4657607,1.4811503,-0.9499595,1.1118896,-1.5549748,-0.33012232,-0.8865501,-0.6795798,0.42083317,0.22659075,1.1733017,-0.4494934,1.6996421,-2.3575346,-0.32413128,-1.0695316,0.113227844,-0.30493164,1.0693271,0.7585404,-0.24495938,0.058969904,0.60094404,0.09309671,-0.87460315,-0.59812737,1.0,0.0,0.0,0.0,0.0,0.0,0.0,-1.8233017,0.049493402,-1.149642,29.729008,-6.0174227,-34.630398,1.2729049,-6.330657,-0.26302934,-5.980653
19.147774,19.389132,-0.23336327,-10.8821,-1.49979,-3.2032497,-0.15195324,0.74085486,-0.778457,-0.53903526,-0.64584506,-0.3818071,0.6026236,-0.23872648,1.0877578,-0.50158703,-1.5724475,-1.0193666,2.4275799,1.5414126,-0.9738322,1.026381,-0.439147,-1.5245845,-0.96424735,2.4590545,1.4853483,-0.94818854,1.3209862,-1.536064,-0.6927735,-0.96700233,-0.6676821,0.41800556,0.1603987,1.1497421,-0.4527321,1.6882182,-2.3551776,-0.3238072,-1.1666483,0.114997864,-0.31412888,1.0628405,0.7568458,-0.23991576,0.055918876,0.60539067,0.21349978,-0.93062925,-0.67092764,1.0,0.0,0.0,0.0,0.0,0.0,0.0,-1.7997421,0.05273208,-1.1382182,20.031881,1.8058062,-35.517525,-8.2038765,1.2063861,-0.7322848,-6.6623983
20.862087,30.62524,4.1137366,-10.379797,-1.2919456,-2.9194474,-0.010428175,0.786784,-0.78161865,-0.5891366,-0.70025617,-0.109110914,0.5434986,-0.3187813,1.1050594,-0.51730883,-1.5834982,-1.0342729,2.4481435,1.5396982,-0.98006666,1.0405316,-0.4541297,-1.5336235,-0.9748703,2.4534469,1.4894758,-0.9470756,1.4449711,-1.4857527,-0.9736167,-1.0944862,-0.5247665,0.40963513,0.09508313,1.1262093,-0.45596695,1.675824,-2.352823,-0.32348347,-1.2636678,0.11791229,-0.32375717,1.055661,0.75541794,-0.23374403,0.053014323,0.60983354,0.32582667,-0.96976453,-0.7402926,1.0,0.0,0.0,0.0,0.0,0.0,0.0,-1.7762092,0.055966944,-1.125824,11.938715,5.0115347,-27.856552,-12.874579,14.375412,-1.2257874,-6.4629407
20.976559,43.71309,11.136783,-4.7192597,-0.575243,-2.140956,0.1739505,0.80450153,-0.7589701,-0.5604727,-0.7209543,0.20472296,0.52927285,-0.35791498,1.1209818,-0.5300267,-1.5896708,-1.0469657,2.4739192,1.5424031,-0.9828671,1.0554109,-0.46849918,-1.5444095,-0.98671496,2.4502273,1.4935194,-0.94657016,1.5017741,-1.4205742,-1.114202,-1.2148744,-0.2541305,0.40193033,0.03643197,1.1026993,-0.4592018,1.6624604,-2.3504708,-0.32316005,-1.3605903,0.12169266,-0.33356857,1.0479518,0.7539583,-0.22663485,0.049613558,0.614591,0.40625852,-0.9801104,-0.7886739,1.0,0.0,0.0,0.0,0.0,0.0,0.0,-1.7526993,0.059201807,-1.1124604,5.5589914,6.548524,-14.222169,-12.15179,27.175362,-0.97752213,-5.6405945
21.368624,57.26161,18.658295,0.95763683,-0.30309606,-1.3181199,0.34551656,0.798384,-0.72992766,-0.47878638,-0.76129276,0.3468519,0.48495212,-0.399533,1.1352493,-0.5414919,-1.5922881,-1.0628443,2.4849124,1.5420146,-0.98652345,1.0704618,-0.48218918,-1.5554454,-0.99964964,2.4499145,1.4974715,-0.9466083,1.5062983,-1.3515908,-1.1016024,-1.3201075,0.043347307,0.39291394,-0.016242709,1.0792122,-0.46242905,1.6481284,-2.3481207,-0.32283697,-1.457416,0.12609863,-0.34321213,1.0399374,0.7521509,-0.21893662,0.04528003,0.6199075,0.46293065,-0.9533398,-0.81371397,1.0,0.0,0.0,0.0,0.0,0.0,0.0,-1.7292122,0.06242904,-1.0981283,0.53207874,6.9752216,0.8145571,-10.652733,29.939592,-0.89758635,-4.9482703
18.924417,64.8259,23.028004,7.220442,-0.31517565,-0.6291262,0.33400932,0.78524256,-0.69589037,-0.44010875,-0.7641914,0.34780604,0.500326,-0.40505913,1.148986,-0.5517782,-1.5994563,-1.0760688,2.484695,1.5475041,-0.9871142,1.0853086,-0.49519014,-1.5657222,-1.0133291,2.4520774,1.5013624,-0.94711566,1.4781955,-1.2825834,-1.0048176,-1.3843479,0.27480674,0.38832986,-0.061270665,1.055748,-0.46565628,1.6328286,-2.345773,-0.32251418,-1.554145,0.13093185,-0.35237503,1.0318274,0.7498672,-0.21102637,0.04003832,0.6257508,0.5001202,-0.8969742,-0.81799495,1.0,0.0,0.0,0.0,0.0,0.0,0.0,-1.705748,0.065656275,-1.0828285,-2.6221514,6.999016,9.120059,-6.550002,23.390505,-0.2835095,-4.2104745
12.071699,57.36309,20.711773,12.268379,-0.031167388,-0.3504937,0.17900434,0.7669509,-0.69253576,-0.45137674,-0.7609139,0.34635022,0.4936461,-0.33532545,1.1620036,-0.5644437,-1.6108599,-1.0894206,2.4867125,1.550727,-0.9806482,1.0997472,-0.50766516,-1.5750148,-1.0273463,2.4559379,1.5052115,-0.9479692,1.4330345,-1.2355418,-0.90559226,-1.4076854,0.4236868,0.38446605,-0.092614226,1.0323067,-0.4688797,1.6165622,-2.3434277,-0.32219175,-1.6507771,0.13599014,-0.36099625,1.0237151,0.7471928,-0.20310949,0.03412396,0.63189,0.5166193,-0.8443905,-0.81635743,1.0,0.0,0.0,0.0,0.0,0.0,0.0,-1.6823066,0.068879694,-1.0665622,-4.289937,4.7742844,9.439028,-2.3902178,15.077013,-0.20084977,-2.928473
3.7880282,40.31784,14.04261,15.006338,0.26713252,-0.38584825,-0.02076799,0.75305855,-0.7198188,-0.47843817,-0.75291556,0.24011306,0.49058554,-0.22555941,1.175053,-0.57964706,-1.6228586,-1.1026378,2.4799492,1.55427,-0.97052515,1.1137185,-0.5199809,-1.5836322,-1.0413576,2.4604392,1.5090204,-0.94900966,1.3860489,-1.2302759,-0.8480702,-1.3990182,0.45946562,0.37994912,-0.107510805,1.0088882,-0.4720993,1.5993303,-2.3410847,-0.3218696,-1.7473127,0.14111328,-0.36928177,1.0155506,0.74434453,-0.1952155,0.027911847,0.6380148,0.5189538,-0.8151546,-0.8234242,1.0,0.0,0.0,0.0,0.0,0.0,0.0,-1.6588882,0.0720993,-1.0493302,-4.5009375,0.53584576,5.4475546,0.9034872,3.641677,-0.38601756,-1.3919606
-0.41179895,29.281044,9.332348,15.5674925,-0.104178905,-0.4589815,-0.17640805,0.75487846,-0.7417264,-0.49082327,-0.72603536,-0.06761515,0.5270849,-0.18520258,1.1892064,-0.5941535,-1.6327145,-1.1139612,2.4536777,1.561729,-0.9675299,1.1273332,-0.5324874,-1.5919845,-1.0550677,2.4640136,1.5128103,-0.95013785,1.3538225,-1.2575009,-0.8314564,-1.3612816,0.3238636,0.37853488,-0.11464335,0.9854965,-0.4753151,1.5811337,-2.3387442,-0.3215478,-1.8437518,0.14628601,-0.37731552,1.0072426,0.741552,-0.18737695,0.022036998,0.6438205,0.52505434,-0.7934066,-0.8396841,1.0,0.0,0.0,0.0,0.0,0.0,0.0,-1.6354965,0.07531509,-1.0311337,-3.091526,-2.7523994,1.4848471,3.8556814,-13.571268,-0.18906593,-0.72790384
1.3332705,27.460638,8.224767,13.5684595,-0.82127213,-0.59343064,-0.21629575,0.7777447,-0.75145066,-0.5033682,-0.70759565,-0.34466866,0.5640106,-0.24520202,1.2051077,-0.60763246,-1.6423213,-1.1258272,2.4295466,1.5692114,-0.9746581,1.1408525,-0.5453534,-1.6004035,-1.0683142,2.4652686,1.5166155,-0.95136523,1.3514577,-1.2964543,-0.8457686,-1.3121847,0.059428114,0.38070503,-0.12570016,0.9621277,-0.47852707,1.5619736,-2.336406,-0.32122633,-1.9400944,0.15166473,-0.38510513,0.9987241,0.73895425,-0.17964412,0.017116537,0.6491391,0.5487137,-0.76575273,-0.8621594,1.0,0.0,0.0,0.0,0.0,0.0,0.0,-1.6121277,0.07852706,-1.0119736,-0.18391609,-3.9328575,-1.5534401,4.995632,-26.464188,0.10254383,-1.1763304
0.09537029,20.719465,4.5830383,12.029022,-0.8932977,-0.839986,-0.30621785,0.7821818,-0.7717292,-0.59312207,-0.68890977,-0.4838931,0.57289666,-0.2403504,1.2190707,-0.62252635,-1.6597158,-1.1372051,2.4168794,1.5739052,-0.97540027,1.1544614,-0.55865526,-1.6094501,-1.0810591,2.4636512,1.5204455,-0.95269275,1.3640496,-1.3416908,-0.9244301,-1.2614647,-0.2354976,0.3830815,-0.13538896,0.93878174,-0.48173904,1.5418508,-2.33407,-0.32090515,-2.0363405,0.15732193,-0.39271545,0.98989165,0.73669374,-0.17193355,0.013477775,0.6538649,0.578185,-0.75166,-0.89634115,1.0,0.0,0.0,0.0,0.0,0.0,0.0,-1.5887817,0.08173904,-0.9918508,1.2818336,-4.5896053,-7.8866243,5.207777,-29.594528,0.028264523,-1.0759503
-0.7647972,16.532751,2.274592,11.118425,-0.6443838,-0.9940976,-0.34881434,0.79014915,-0.79189837,-0.6691033,-0.6647203,-0.54555184,0.58203197,-0.25509492,1.2334763,-0.6378451,-1.6763605,-1.1475312,2.409096,1.5786487,-0.9782022,1.1682572,-0.57241106,-1.6196182,-1.0933043,2.4593863,1.5243021,-0.95411754,1.3848972,-1.3871725,-1.0475606,-1.2114105,-0.49062738,0.3857166,-0.14515814,0.9154587,-0.4849434,1.5207663,-2.3317363,-0.32058433,-2.1324902,0.16324997,-0.40029526,0.98065424,0.7348526,-0.16412212,0.011101444,0.65797585,0.6064328,-0.7517092,-0.9390328,1.0,0.0,0.0,0.0,0.0,0.0,0.0,-1.5654587,0.084943384,-0.97076625,2.1013737,-4.6361923,-12.266755,5.185747,-25.669788,0.009649992,-1.0861695
1.5979896,21.565462,4.683117,10.609065,-0.5137212,-0.90131986,-0.22669372,0.79350466,-0.8018312,-0.67113465,-0.6485791,-0.5765631,0.58712405,-0.22262447,1.2476077,-0.6525942,-1.6867317,-1.1581622,2.40173,1.5830145,-0.97638,1.1822553,-0.5865531,-1.6308658,-1.1051031,2.4530807,1.5281874,-0.9556024,1.4048461,-1.4235286,-1.1503739,-1.1689048,-0.6775636,0.38882685,-0.14977163,0.8921585,-0.48814774,1.4987209,-2.329405,-0.3202638,-2.228544,0.16946411,-0.40785217,0.9710124,0.73333234,-0.15618408,0.009739716,0.6616156,0.6328516,-0.7477347,-0.9790777,1.0,0.0,0.0,0.0,0.0,0.0,0.0,-1.5421585,0.08814773,-0.9487209,2.0256996,-3.7153006,-10.274482,4.423642,-18.839668,0.087833405,-0.5232513
2.932673,27.14344,7.353474,11.010144,-0.35644132,-0.72402406,-0.121268585,0.7889751,-0.81005013,-0.6904604,-0.6281269,-0.6049722,0.5994086,-0.17110015,1.2611527,-0.66755813,-1.6999118,-1.1679158,2.3925834,1.5881282,-0.9727124,1.196383,-0.6009774,-1.6429393,-1.1165148,2.4453788,1.5321127,-0.9570825,1.415712,-1.4490535,-1.226432,-1.1312567,-0.80172724,0.393205,-0.14742114,0.8688812,-0.49134827,1.4757156,-2.3270762,-0.3199436,-2.3245018,0.17589188,-0.41531754,0.9610153,0.7319872,-0.14814833,0.009109795,0.6649539,0.65373325,-0.7378926,-1.0134732,1.0,0.0,0.0,0.0,0.0,0.0,0.0,-1.5188812,0.09134826,-0.9257156,1.1465311,-2.6239157,-7.6423407,3.9233446,-12.565958,0.2553761,0.21612942
5.867777,33.776314,10.7263775,10.263052,-0.31213772,-0.5820377,0.028357036,0.7877484,-0.81639147,-0.6881621,-0.6340519,-0.5863356,0.59691113,-0.14384137,1.2751578,-0.6826166,-1.7117555,-1.17992,2.3867452,1.5918038,-0.97146666,1.2105622,-0.61558485,-1.655482,-1.1276957,2.4369178,1.5360781,-0.9585092,1.4189577,-1.4648451,-1.263969,-1.1132028,-0.861076,0.39720154,-0.14088711,0.84562683,-0.49454498,1.4517516,-2.3247497,-0.31962374,-2.4203634,0.18252563,-0.42263794,0.9507103,0.73064286,-0.1400272,0.008914851,0.6681871,0.67369366,-0.71950066,-1.0433525,1.0,0.0,0.0,0.0,0.0,0.0,0.0,-1.4956268,0.09454498,-0.9017516,0.4068613,-1.6324759,-3.861332,1.9372463,-6.065941,0.24375916,0.69532394
8.537119,41.229214,14.445263,10.062202,-0.39838552,-0.38100457,0.14472927,0.781993,-0.8148441,-0.6710917,-0.6335003,-0.5946731,0.61264175,-0.13511015,1.2887615,-0.6970693,-1.7225912,-1.1910458,2.3774505,1.5973423,-0.9720202,1.2247128,-0.6302686,-1.6681068,-1.1387964,2.4281363,1.5400931,-0.9598625,1.4142662,-1.4695886,-1.262575,-1.1087002,-0.88449967,0.40255973,-0.1331267,0.8223953,-0.4977417,1.4268297,-2.3224254,-0.31930417,-2.5161293,0.18935013,-0.4296646,0.9401625,0.7291448,-0.13186482,0.008942228,0.67147565,0.6929357,-0.6881461,-1.0657909,1.0,0.0,0.0,0.0,0.0,0.0,0.0,-1.4723953,0.09774169,-0.8768297,-0.3668785,-0.50742626,-0.03325939,0.54786205,-2.4581075,0.414598,0.86087286
9.999179,46.396687,17.002373,10.569515,-0.4661095,-0.21775605,0.1883313,0.7845646,-0.8131406,-0.66647166,-0.61622524,-0.62053883,0.62417424,-0.13509367,1.3031693,-0.71158266,-1.734754,-1.200419,2.3660824,1.6025105,-0.97337186,1.2388177,-0.64494276,-1.6805732,-1.1498324,2.4191985,1.5441691,-0.9611423,1.40939,-1.4667448,-1.2420794,-1.1017164,-0.89696443,0.40884098,-0.12594558,0.7991867,-0.5009308,1.4009508,-2.3201034,-0.31898493,-2.6117995,0.19636917,-0.43633652,0.92944825,0.7274097,-0.123738796,0.009105249,0.67489326,0.710571,-0.64779335,-1.0804448,1.0,0.0,0.0,0.0,0.0,0.0,0.0,-1.4491867,0.10093078,-0.8509508,-0.38425922,0.26276112,1.8559694,0.7720947,-1.3576984,0.53991675,0.82190335
8.776017,47.46469,17.451563,12.03469,-0.34267318,-0.099199146,0.1554924,0.7828683,-0.8137898,-0.6767303,-0.5875432,-0.6365938,0.6342978,-0.10066031,1.3171046,-0.72632176,-1.7482462,-1.2085867,2.355539,1.6075989,-0.97120833,1.252873,-0.6595712,-1.6928604,-1.1606852,2.4101577,1.5483118,-0.9623325,1.4044435,-1.4616886,-1.2248466,-1.0795972,-0.9070791,0.41570398,-0.11643379,0.7760048,-0.5041199,1.374116,-2.3177838,-0.318666,-2.7073739,0.20350647,-0.4425888,0.91862625,0.72544384,-0.11571359,0.009376045,0.67842,0.72215515,-0.60785466,-1.0897117,1.0,0.0,0.0,0.0,0.0,0.0,0.0,-1.4260048,0.10411987,-0.82411593,-0.39243698,0.4787922,1.5573978,2.2869349,-1.1428237,0.62470436,1.049304
5.025387,45.835644,16.39339,14.044781,-0.08984667,0.020285934,0.08679581,0.7632497,-0.81403893,-0.6855946,-0.56269383,-0.6525539,0.64707124,-0.020781567,1.3291979,-0.7409751,-1.7614198,-1.2169546,2.3449023,1.613019,-0.96441066,1.2667985,-0.6741538,-1.7050579,-1.1712176,2.4009986,1.5525252,-0.96337676,1.3890121,-1.4572585,-1.2183317,-1.0440009,-0.91956913,0.42317078,-0.1002179,0.75284576,-0.50730133,1.3463261,-2.3154664,-0.3183474,-2.8028529,0.21068573,-0.44849396,0.9077259,0.7233087,-0.10782294,0.009770508,0.6819847,0.7236813,-0.5740521,-1.0966958,1.0,0.0,0.0,0.0,0.0,0.0,0.0,-1.4028457,0.107301325,-0.7963261,-1.4233589,0.40256977,0.52182674,3.6563158,-1.417613,0.7036269,1.6964734
2.2677302,43.038765,14.937409,14.729779,0.11714488,0.050868496,0.05276329,0.7481349,-0.82024646,-0.68934107,-0.55113673,-0.6578758,0.6485457,0.047433082,1.341612,-0.75617844,-1.773992,-1.2263312,2.335211,1.6173798,-0.9586334,1.2805123,-0.6887336,-1.7172534,-1.1813856,2.3917174,1.5568091,-0.9642179,1.3659716,-1.4584329,-1.220202,-1.0073088,-0.9315054,0.42976356,-0.07857726,0.7297096,-0.5104828,1.3175821,-2.3131514,-0.3180291,-2.8982365,0.21784973,-0.45412827,0.89673275,0.721051,-0.100051455,0.010288271,0.68554306,0.71943235,-0.54790956,-1.1064073,1.0,0.0,0.0,0.0,0.0,0.0,0.0,-1.3797096,0.11048278,-0.7675821,-2.173996,-0.17015934,-0.29377937,3.7941217,-1.3828397,0.6081164,2.226223
0.24190617,42.661972,14.584194,15.738539,0.2571615,0.13164593,0.0308837,0.73215514,-0.818769,-0.6885645,-0.5228804,-0.66847867,0.6546039,0.12491221,1.3537278,-0.77061045,-1.7861099,-1.2336737,2.3248696,1.6222695,-0.9517267,1.2939553,-0.7033315,-1.7294853,-1.1911379,2.3823104,1.561154,-0.9648006,1.3375274,-1.4603645,-1.2245154,-0.96406853,-0.94455194,0.4360721,-0.051343348,0.7065964,-0.51366043,1.287885,-2.3108387,-0.31771114,-2.9935248,0.22493362,-0.45951843,0.885653,0.7186979,-0.092399135,0.010927337,0.68906915,0.7098109,-0.5251009,-1.1145755,1.0,0.0,0.0,0.0,0.0,0.0,0.0,-1.3565964,0.113660425,-0.73788494,-2.7098417,-0.25360584,-0.51751137,4.459429,-1.5124083,0.58991313,2.7753613
2.9435863,43.19109,14.964898,13.629532,0.10415685,0.018979698,0.08510205,0.7368329,-0.81911546,-0.69461966,-0.5284732,-0.6592604,0.6432597,0.13924982,1.3676386,-0.78524303,-1.7989472,-1.2439852,2.3163843,1.6254799,-0.95087564,1.3071904,-0.71795034,-1.7417915,-1.2005793,2.3728232,1.5655447,-0.96512103,1.3192858,-1.4625756,-1.2327771,-0.9370339,-0.950264,0.43988642,-0.025412567,0.683506,-0.51683426,1.2572358,-2.3085284,-0.31739348,-3.0887177,0.23197937,-0.46466827,0.8744538,0.716217,-0.08480654,0.011675743,0.6926072,0.70832646,-0.5012699,-1.1276187,1.0,0.0,0.0,0.0,0.0,0.0,0.0,-1.333506,0.11683425,-0.70723575,-1.7026424,-0.27770996,-0.92248917,2.8430462,-0.7565379,0.30380487,2.656471
6.4687996,43.37783,15.328625,10.540994,-0.14834744,-0.112721935,0.17175356,0.7347386,-0.82329255,-0.6966101,-0.5510411,-0.6578933,0.6375777,0.16713862,1.3806642,-0.8002796,-1.8114525,-1.2556834,2.307034,1.6293025,-0.9484072,1.3203053,-0.7326064,-1.7541797,-1.2099634,2.363317,1.5699602,-0.9651878,1.309171,-1.4666861,-1.2413288,-0.9385551,-0.9516258,0.4417323,-0.00018302262,0.66043854,-0.5200081,1.2256353,-2.3062203,-0.31707615,-3.1838152,0.23909378,-0.46957016,0.8630611,0.7135283,-0.077162825,0.012514553,0.69625175,0.7175429,-0.47382587,-1.1489604,1.0,0.0,0.0,0.0,0.0,0.0,0.0,-1.3104385,0.12000808,-0.6756353,-0.89423656,-0.45986176,-0.9832382,-0.002193451,-0.2940297,0.05259514,2.60062
9.713395,46.414787,17.092701,8.985909,-0.37878603,-0.094958544,0.23551013,0.7352657,-0.81955427,-0.68551046,-0.5527567,-0.6604311,0.65108174,0.17069317,1.393832,-0.81456184,-1.8227308,-1.2652391,2.2972739,1.6350684,-0.94811845,1.3333745,-0.7472787,-1.7665832,-1.2194544,2.353807,1.5743986,-0.9650266,1.3065958,-1.4676089,-1.2405897,-0.9521338,-0.9515724,0.4441492,0.021854764,0.63739395,-0.5231743,1.1930845,-2.3039145,-0.31675914,-3.278818,0.24635696,-0.47411728,0.85145736,0.71055686,-0.06943538,0.013437311,0.7000764,0.73275554,-0.4380812,-1.1698333,1.0,0.0,0.0,0.0,0.0,0.0,0.0,-1.2873939,0.12317428,-0.64308447,-0.14696121,-0.1292944,-0.07941723,-1.2183785,-0.13378859,0.095665455,2.2965446
6.720742,49.20907,18.254135,12.101621,-0.15580928,0.17940724,0.15561774,0.71751124,-0.81628,-0.6733886,-0.50282806,-0.67086464,0.66858435,0.16374995,1.4051256,-0.8289067,-1.833922,-1.2697372,2.2867205,1.641257,-0.9486516,1.3463655,-0.7619357,-1.778899,-1.2288615,2.3442664,1.5788752,-0.9646776,1.2970937,-1.4652197,-1.229073,-0.93667114,-0.955397,0.44859207,0.039533988,0.61437225,-0.5263405,1.1595845,-2.3016112,-0.31644243,-3.3737254,0.25366974,-0.47831345,0.8397387,0.7073391,-0.061744493,0.0144266095,0.7040248,0.73578316,-0.40188703,-1.1780658,1.0,0.0,0.0,0.0,0.0,0.0,0.0,-1.2643722,0.12634048,-0.6095845,-0.84319115,0.1983881,1.031208,1.6695142,-0.5454421,0.36036372,1.8529527
7.0254993,47.3721,17.242392,10.528154,-0.22679073,0.09410024,0.14623985,0.7153498,-0.8205339,-0.69466347,-0.5370364,-0.67278296,0.65494335,0.13187228,1.4179004,-0.8439891,-1.8483653,-1.2825651,2.276988,1.6443695,-0.95149034,1.3592649,-0.77658415,-1.7911956,-1.2382456,2.334684,1.5833822,-0.9641998,1.2879277,-1.4649378,-1.2304072,-0.93860453,-0.9598041,0.45095378,0.05076537,0.59137344,-0.52950287,1.1251361,-2.29931,-0.31612605,-3.468538,0.26104736,-0.4821701,0.82787627,0.7039031,-0.0540485,0.015498961,0.7080671,0.7426104,-0.36766186,-1.19432,1.0,0.0,0.0,0.0,0.0,0.0,0.0,-1.2413734,0.12950286,-0.5751361,-0.8010626,-0.013947487,-0.26278496,-0.045490265,-0.5959749,0.11292696,1.2036018
7.789789,45.934875,16.624735,8.751905,-0.33199275,0.042341173,0.14003941,0.71022433,-0.8258904,-0.6963354,-0.5646681,-0.67863303,0.6495745,0.028185433,1.4302872,-0.8591732,-1.8608291,-1.2947124,2.2668207,1.6483397,-0.96138126,1.3720689,-0.7912593,-1.8035381,-1.2477995,2.3250442,1.5879027,-0.9637077,1.2783889,-1.4685271,-1.2360563,-0.96051484,-0.9655743,0.45186085,0.049003325,0.5683975,-0.53266144,1.0897403,-2.2970111,-0.31581,-3.563256,0.26852417,-0.48566818,0.8157908,0.7002591,-0.046249077,0.016669225,0.71219397,0.7530531,-0.33264083,-1.2182832,1.0,0.0,0.0,0.0,0.0,0.0,0.0,-1.2183975,0.13266143,-0.53974026,-0.8289337,-0.39987564,-0.7144451,-2.020216,-0.72027445,-0.07094741,-0.0929378
8.178885,45.612057,16.600174,7.6814404,-0.34963208,0.063509524,0.11947001,0.70192397,-0.8291008,-0.69127405,-0.586928,-0.65695024,0.64355403,-0.122808635,1.4422612,-0.87416935,-1.8726655,-1.3064923,2.259349,1.652258,-0.97598857,1.3847623,-0.80598783,-1.8159187,-1.2576834,2.3154235,1.5924231,-0.96335864,1.2669622,-1.4743999,-1.2394011,-0.996992,-0.9613824,0.45154977,0.030446025,0.5454445,-0.53582,1.0533979,-2.2947147,-0.31549424,-3.6578794,0.27611542,-0.4888153,0.80343586,0.69642264,-0.038279593,0.017893448,0.71638674,0.76369685,-0.29644483,-1.2460805,1.0,0.0,0.0,0.0,0.0,0.0,0.0,-1.1954445,0.13582,-0.5033979,-1.0081291,-0.6258249,-0.5033493,-3.4623504,0.28728247,-0.21198392,-1.7596778
3.0129218,48.3339,17.301819,11.234562,-0.08574355,0.41170427,0.029671684,0.6687847,-0.8215197,-0.6780438,-0.55675066,-0.685023,0.67456174,-0.11278391,1.4516407,-0.8881398,-1.883723,-1.3133584,2.2469213,1.6598792,-0.97463703,1.3972135,-0.8207326,-1.8282573,-1.2677466,2.3057685,1.5969645,-0.9631908,1.2382392,-1.4746292,-1.2326025,-1.0088093,-0.96715325,0.45480335,0.012477468,0.52251434,-0.53897095,1.0161102,-2.2924204,-0.3151788,-3.7524078,0.28370285,-0.49160767,0.7908944,0.6924656,-0.030245407,0.019180577,0.7205614,0.7586477,-0.26118872,-1.261422,1.0,0.0,0.0,0.0,0.0,0.0,0.0,-1.1725143,0.13897094,-0.46611017,-2.729988,-0.06430149,0.53801537,-1.0108471,-0.7424116,0.20903349,-1.7204168
-1.1539574,46.12133,15.47251,11.526812,0.09185374,0.47231686,-0.031099916,0.6346895,-0.8266697,-0.697609,-0.599707,-0.67437583,0.6581931,-0.18652648,1.4606824,-0.9033996,-1.8980182,-1.3277173,2.2383308,1.6627837,-0.9818435,1.4092488,-0.83548975,-1.8406112,-1.2780405,2.296083,1.6015269,-0.9632442,1.1923474,-1.4763064,-1.2367182,-1.0355916,-0.969347,0.45624602,-0.010997581,0.4996071,-0.5421219,0.9778698,-2.2901285,-0.3148637,-3.8479073,0.29118347,-0.49410248,0.7781471,0.6884625,-0.022117518,0.020541862,0.7246434,0.74675035,-0.23233812,-1.2835163,1.0,0.0,0.0,0.0,0.0,0.0,0.0,-1.1496071,0.14212188,-0.4278698,-4.4199705,-0.21882057,-0.55572987,-2.4739742,-0.39954185,0.010508299,-2.2841065
-3.515273,47.014637,15.613463,12.327078,0.1723069,0.6262064,-0.044818148,0.6057937,-0.82534546,-0.6866985,-0.6096802,-0.68829536,0.65115976,-0.19614275,1.4698282,-0.9180243,-1.909281,-1.3390086,2.2272534,1.6666428,-0.9828585,1.420752,-0.85025454,-1.8529651,-1.2886015,2.2863402,1.6060969,-0.96352077,1.1369365,-1.4765991,-1.2354642,-1.0623049,-0.97626126,0.45681545,-0.032950822,0.47672272,-0.5452652,0.93867517,-2.2878387,-0.3145489,-3.9433115,0.2985077,-0.49630737,0.7651978,0.68444073,-0.013890225,0.021986732,0.72860444,0.7286502,-0.20365085,-1.3028034,1.0,0.0,0.0,0.0,0.0,0.0,0.0,-1.1267227,0.14526519,-0.38867515,-5.3656816,-0.08127689,-0.01718998,-2.4644852,-0.8831501,-0.06482005,-2.1376636
-9.491276,47.158817,14.912394,14.555363,0.48180115,0.88530076,-0.08056229,0.54663295,-0.8239633,-0.67814946,-0.61661303,-0.6874663,0.65947074,-0.122995846,1.4754153,-0.93265086,-1.9207801,-1.3502629,2.2175937,1.6720439,-0.97582036,1.4315343,-0.86501265,-1.8652618,-1.2994028,2.2765365,1.6106783,-0.9639394,1.0592414,-1.4756641,-1.2282176,-1.0852004,-0.9822881,0.45823437,-0.04458955,0.45386124,-0.5484085,0.8985272,-2.2855513,-0.3142344,-4.03862,0.30554962,-0.49827194,0.7520848,0.680432,-0.005599217,0.023499792,0.73241293,0.6963623,-0.18088472,-1.3178514,1.0,0.0,0.0,0.0,0.0,0.0,0.0,-1.1038612,0.1484085,-0.3485272,-7.580304,0.034570694,0.5933523,-2.0754337,-0.8245826,0.050997734,-1.1165887
-20.197668,43.24917,11.379652,17.24573,1.0352738,1.1200247,-0.20803222,0.45592773,-0.8296697,-0.691679,-0.6399704,-0.6771473,0.63077664,-0.14991856,1.4771271,-0.9479796,-1.9344296,-1.3633999,2.2088218,1.673756,-0.9789313,1.441256,-0.879786,-1.8775489,-1.3104674,2.2667174,1.6152502,-0.9644716,0.9437777,-1.4782728,-1.2291977,-1.1129357,-0.9830372,0.45676056,-0.056007504,0.43102264,-0.551548,0.8574268,-2.2832663,-0.31392023,-4.133833,0.3121109,-0.50011826,0.7387886,0.676556,0.002798797,0.025049863,0.7359597,0.6438717,-0.17427783,-1.3371055,1.0,0.0,0.0,0.0,0.0,0.0,0.0,-1.0810226,0.151548,-0.3074268,-11.327505,-0.3440857,-0.20670891,-2.5182247,-0.34223795,-0.23015738,-1.1167526
-44.032257,37.641266,4.84861,23.585463,2.1351373,1.7538037,-0.45812452,0.26011312,-0.82775337,-0.68813044,-0.6878614,-0.6682274,0.6148685,-0.13038215,1.4672674,-0.96256137,-1.946362,-1.3792535,2.1998947,1.6767371,-0.9775098,1.4490991,-0.8945823,-1.8898437,-1.3219687,2.2569213,1.6197954,-0.9650905,0.73200697,-1.4804252,-1.2297299,-1.1613969,-0.9796705,0.4537431,-0.06398096,0.40820694,-0.5546837,0.81537503,-2.2809834,-0.31360638,-4.2289505,0.3178215,-0.502121,0.7252636,0.6730616,0.011387599,0.026607493,0.7390198,0.54515576,-0.19571726,-1.3606645,1.0,0.0,0.0,0.0,0.0,0.0,0.0,-1.0582069,0.15468368,-0.26537502,-20.874,-0.34909248,-0.13895035,-4.511404,-0.046885014,-0.36429763,-0.8251071
-119.95552,20.792892,-15.9207115,46.84509,5.8107853,3.6803696,-1.3358424,-0.2631216,-0.824269,-0.7079332,-0.7205517,-0.6534123,0.5880374,0.053422265,1.422787,-0.9770092,-1.960637,-1.3940239,2.19158,1.6785991,-0.95974827,1.4526601,-0.909389,-1.90223,-1.334025,2.2471862,1.6242949,-0.9656465,0.23266837,-1.4818623,-1.2414774,-1.2182758,-0.9741178,0.44845882,-0.053477835,0.38541412,-0.55781937,0.7723728,-2.278703,-0.31329283,-4.323973,0.32144547,-0.505043,0.7114701,0.6707715,0.020276094,0.028127816,0.7408531,0.29970562,-0.31333494,-1.3883735,1.0,0.0,0.0,0.0,0.0,0.0,0.0,-1.0354141,0.15781936,-0.22237277,-49.397373,-0.47695637,-1.1115313,-5.0730944,-0.24516582,-0.5637109,0.8667238
-166.14148,12.07659,-28.819077,59.541447,8.15134,4.759649,-1.8424779,-0.6338018,-0.8097211,-0.7464717,-0.7791974,-0.5390212,0.48012152,0.13833934,1.3892798,-0.99036115,-1.9768772,-1.4119447,2.193284,1.672307,-0.95181257,1.4499936,-0.9241471,-1.9149082,-1.346789,2.2378287,1.6286494,-0.9660213,-0.43079838,-1.4757273,-1.2760398,-1.2924472,-0.9271991,0.42975894,-0.032657977,0.3626442,-0.5609474,0.72842103,-2.2764246,-0.3129796,-4.418901,0.32195282,-0.5096092,0.6973454,0.6703768,0.029679636,0.02944322,0.7408422,-0.034257017,-0.49292675,-1.4228576,0.0,1.0,0.0,0.0,0.0,0.0,0.0,-1.0126442,0.16094741,-0.17842102,-65.63158,0.048589706,-3.2935858,-6.3948393,3.515792,-2.207005,1.9402697
-143.83908,21.152502,-20.607729,53.072437,7.4831657,4.405195,-1.4912215,-0.70435804,-0.81700706,-0.7218568,-0.770738,-0.3867427,0.4738622,0.26488125,1.3795578,-1.0058478,-1.9870938,-1.4238628,2.1991544,1.6760355,-0.9395332,1.4413823,-0.9387577,-1.9286329,-1.3610549,2.2313802,1.632169,-0.96645844,-1.0006086,-1.4596182,-1.3971806,-1.4582424,-0.5773623,0.3088607,-0.034726854,0.34750748,-0.5647087,0.7202297,-1.4338064,-0.3745101,0.08977812,0.31943512,-0.5160866,0.682509,0.67188865,0.040694054,0.029539173,0.7389432,-0.3262167,-0.68667495,-1.502833,0.0,1.0,0.0,0.0,0.0,0.0,0.0,-0.99750745,0.1647087,-0.17022967,-54.88788,-0.62201023,-1.5925646,-3.0294418,8.98993,-3.8302124,4.2106256
-28.379322,176.0,110.0,110.0,1.9506929,13.099005,-1.5378774,-0.54343456,0.614668,0.73524576,0.6446655,-0.4567518,0.6658136,-0.33754724,1.3870388,-0.8772909,-1.8551083,-1.2965883,2.185705,1.6987504,-1.0002131,1.430663,-0.95528775,-1.9319515,-1.3663554,2.2166097,1.6398785,-0.96956074,-1.0886967,-1.6762146,-0.036434893,-0.23317787,-1.7288911,0.9577271,-0.37460014,0.3331833,-0.5684509,0.72038233,-1.4323729,-0.37413567,-0.009562797,0.31417084,-0.5217285,0.6723196,0.67513084,0.042900734,0.029739738,0.7358487,-0.59913033,-0.5111412,-0.8596197,1.0,0.0,0.0,0.0,0.0,0.0,0.0,-0.98318326,0.16845092,-0.17038232,-6.730461,-9.287429,118.157875,118.80179,-100.64797,74.70152,-25.758419
-79.90918,169.2478,70.69864,110.0,7.5157814,7.6893535,-2.0628593,-0.7875201,-0.60719734,0.18690912,0.7092741,-0.66328144,0.5837037,-0.48149994,1.351911,-1.0160075,-1.9132606,-1.295428,2.1502817,1.6982489,-1.0177107,1.4183224,-0.9710358,-1.9278107,-1.361774,2.1988103,1.6495907,-0.9736577,-1.2799315,-1.5405328,0.5633334,0.68987334,-1.7986407,0.9820236,-0.418088,0.31886673,-0.57218933,0.7195423,-1.4309409,-0.37376162,-0.10880439,0.30620956,-0.5274582,0.6673663,0.6806135,0.037923954,0.029601676,0.7310614,-0.8641596,-0.5845195,-0.3749371,1.0,0.0,0.0,0.0,0.0,0.0,0.0,-0.9688667,0.17218933,-0.16954231,-18.36586,13.688278,59.68989,92.68279,-7.565689,4.3320894,-3.3408046
-90.71925,107.95372,24.02585,82.416306,7.2983522,3.6178741,-2.3959017,-0.82079405,-0.55306304,-0.35969132,0.66196734,-0.5534938,0.5974678,-0.39691722,1.336243,-1.026342,-1.9637798,-1.2955773,2.143461,1.7093375,-1.0133494,1.4045266,-0.98469335,-1.9230194,-1.3503375,2.1822698,1.659097,-0.9777795,-1.4103214,-1.3075205,0.44929823,1.2977302,-1.6057941,0.9435594,-0.40858454,0.30456543,-0.5759239,0.7177106,-1.4295102,-0.37338793,-0.20794676,0.29600525,-0.5344467,0.66524553,0.6886184,0.030337742,0.029502897,0.72388804,-1.0769097,-0.7307082,-0.16088045,1.0,0.0,0.0,0.0,0.0,0.0,0.0,-0.9545654,0.17592391,-0.1677106,-12.2977495,23.308372,-11.934513,61.651802,19.336151,-2.857995,1.4446855
-72.72706,84.72613,9.568827,55.083813,5.0834527,1.5554113,-1.9422109,-0.8305071,-0.43566936,-0.36735165,0.75605065,-0.54942364,0.62651354,-0.37188396,1.3214759,-1.0282602,-1.9597546,-1.2747325,2.1273274,1.7217484,-1.0149679,1.3897942,-0.9956816,-1.9213638,-1.3349853,2.1683195,1.6680024,-0.98170197,-1.4926418,-1.0296258,0.06902397,1.6167884,-1.3236766,0.8744514,-0.38661954,0.2902794,-0.5796547,0.7148853,-1.428081,-0.3730146,-0.30738378,0.2842102,-0.54261017,0.66424406,0.69871634,0.02261882,0.03008233,0.71440804,-1.2190399,-0.8395413,-0.08472409,1.0,0.0,0.0,0.0,0.0,0.0,0.0,-0.94027936,0.17965469,-0.16488528,-7.750535,27.6855,-38.59731,32.601593,28.543043,-6.468165,2.2600293
-45.838478,47.67947,-2.403923,26.127169,2.9598317,0.00378412,-1.1353893,-0.82336813,-0.49712744,-0.4119424,0.7524392,-0.44837108,0.6335368,-0.40779927,1.3074574,-1.0453943,-1.962558,-1.2597413,2.1234825,1.731356,-1.0224819,1.3746423,-1.0047281,-1.9238834,-1.3182731,2.1572301,1.676223,-0.98543465,-1.52206,-0.8632762,-0.3605632,1.6905214,-1.0360773,0.80461144,-0.36909285,0.2760086,-0.58338165,0.71106637,-1.4266533,-0.37264168,-0.40672138,0.27152634,-0.55161667,0.6630686,0.71005577,0.016194688,0.031262167,0.70326465,-1.2919558,-0.9118904,-0.13353202,1.0,0.0,0.0,0.0,0.0,0.0,0.0,-0.9260086,0.18338165,-0.16106635,-2.7092695,16.53595,-43.40078,7.7564,29.119015,-6.973982,1.6702116
-21.110605,40.984283,2.2207398,10.003809,1.4538466,-0.20692265,-0.4125671,-0.8339147,-0.46649897,-0.38377172,0.7486055,-0.25913662,0.6130095,-0.4380254,1.2912508,-1.051378,-1.9622606,-1.2434125,2.1313164,1.737524,-1.0292372,1.3593835,-1.0126684,-1.9297314,-1.3018851,2.1490285,1.6837857,-0.9890357,-1.5270779,-0.77123314,-0.6602083,1.6221417,-0.7480238,0.73961663,-0.35739255,0.26175308,-0.5871048,0.7062548,-1.4252269,-0.37226912,-0.50595963,0.25841904,-0.5610008,0.6612168,0.7218219,0.011459469,0.032528117,0.69121903,-1.3246051,-0.93660384,-0.20636368,0.0,1.0,0.0,0.0,0.0,0.0,0.0,-0.91175306,0.18710479,-0.15625477,-0.44748783,9.104824,-30.15188,-6.720996,28.89284,-6.645417,1.0711253
-5.0794697,36.68906,8.201055,2.2778559,1.5857975,-0.038820922,0.07373764,-0.83892894,-0.49691674,-0.32763934,0.71794915,0.2550038,0.5644323,-0.48608807,1.2754905,-1.06236,-1.9624953,-1.2300903,2.1745288,1.7402289,-1.0376445,1.3441552,-1.0203397,-1.9372044,-1.2866855,2.1446378,1.6907284,-0.99256814,-1.5216506,-0.7659032,-0.77639526,1.4857639,-0.33674383,0.67808104,-0.35169134,0.24751282,-0.5908241,0.7004516,-1.423802,-0.37189692,-0.6050986,0.24503326,-0.57056046,0.6586551,0.733471,0.008297755,0.032671608,0.6788843,-1.3510735,-0.94933754,-0.27572834,0.0,1.0,0.0,0.0,0.0,0.0,0.0,-0.8975128,0.19082412,-0.1504516,0.4864931,0.46055317,-11.584175,-13.645363,40.986156,-6.4313293,0.6123662
13.1805935,56.145992,24.533321,-1.4430256,1.2008154,0.6945832,0.5453754,-0.853159,-0.46075028,-0.13416702,0.6045416,0.6197852,0.4812495,-0.53369635,1.2588392,-1.0664147,-1.950621,-1.2262313,2.2066164,1.7388533,-1.0459378,1.3289346,-1.0280797,-1.944046,-1.2733073,2.1448324,1.6970665,-0.99609196,-1.522984,-0.77689034,-0.6521574,1.2878664,0.13676368,0.6182401,-0.35249323,0.23328781,-0.59453964,0.6936578,-1.4223785,-0.37152508,-0.7041385,0.23145294,-0.5799103,0.6557995,0.74454546,0.006150136,0.03059242,0.6668421,-1.3683728,-0.9183556,-0.2910477,0.0,1.0,0.0,0.0,0.0,0.0,0.0,-0.8832878,0.19453964,-0.1436578,-0.35026073,-1.1912465,12.759328,-19.997787,46.93483,-6.185806,-0.026857853
27.458817,76.55299,38.190487,-1.900801,0.30346274,1.2753837,0.8246843,-0.84399104,-0.43322068,0.03382014,0.53500116,0.6550607,0.48909834,-0.5296819,1.2445354,-1.0714018,-1.940664,-1.2198071,2.2103384,1.7459763,-1.0490601,1.3137311,-1.0358713,-1.9484215,-1.2619281,2.1490667,1.7028878,-0.99963486,-1.5203573,-0.7802702,-0.36440188,1.0869083,0.51711947,0.5704115,-0.35508677,0.21907806,-0.59825134,0.68587434,-1.4209565,-0.37115365,-0.8030794,0.21783829,-0.5886383,0.65318227,0.7547209,0.0042310692,0.026058044,0.65551454,-1.3664743,-0.8434447,-0.25419426,0.0,1.0,0.0,0.0,0.0,0.0,0.0,-0.86907804,0.19825134,-0.13587433,-0.02477169,-0.449574,29.27811,-20.424725,37.576622,-4.731512,-0.32187104
28.928562,85.64454,42.2194,1.6707866,-0.1751231,1.4871287,0.77464736,-0.8360433,-0.42082718,0.12125194,0.51908493,0.6282229,0.5521434,-0.5295875,1.2301267,-1.0779539,-1.9362962,-1.2100196,2.211889,1.758102,-1.0525936,1.2986132,-1.043609,-1.9498581,-1.2522854,2.1558747,1.7080877,-1.0032037,-1.5098027,-0.77209,-0.06798287,0.923312,0.73781586,0.5082627,-0.35820812,0.20166016,-0.60235214,0.6845501,-1.808051,-0.41700482,0.052590523,0.20440292,-0.596508,0.65104127,0.7639323,0.002153653,0.019674307,0.6449928,-1.3453089,-0.7561954,-0.20278405,0.0,1.0,0.0,0.0,0.0,0.0,0.0,-0.85166013,0.20235214,-0.1345501,0.56393147,0.5616784,32.401917,-14.960241,23.86427,-2.7834058,-0.5714834
30.181812,176.0,84.21611,29.084393,-2.1326783,3.3650613,0.28713945,-0.8264153,0.2300302,0.18871854,0.6996036,0.3717159,0.64487016,-0.5057294,1.2159717,-1.020606,-1.9309862,-1.182325,2.1930463,1.7725747,-1.0537767,1.2832476,-1.0502638,-1.9452118,-1.2421631,2.160666,1.7118661,-1.0079187,-1.5458697,-0.630888,0.64424896,1.0408783,0.39109355,0.3368489,-0.5112977,0.18359375,-0.6065178,0.6843282,-1.8062433,-0.4165879,-0.04710696,0.19123459,-0.6027336,0.6513581,0.7725267,-0.0020716083,0.013414084,0.63483715,-1.3139564,-0.56747264,0.10722113,0.0,1.0,0.0,0.0,0.0,0.0,0.0,-0.8335937,0.20651779,-0.13432819,-3.660369,13.829684,71.87073,11.524618,-35.111916,-16.417187,-15.932298
0.45618486,95.00918,32.276726,20.636917,-1.4772655,1.2433277,-0.13906285,-0.80276424,-0.2389069,-0.100558415,0.719933,-0.2736231,0.73524463,-0.5256175,1.2029712,-1.0741545,-1.9552677,-1.1701697,2.1333036,1.7853906,-1.0604805,1.2680019,-1.0556655,-1.9389107,-1.2309239,2.162479,1.7153051,-1.0130124,-1.5172795,-0.5098931,0.62202865,1.1505375,0.1218391,0.35087565,-0.5067838,0.16606522,-0.61014557,0.6846298,-1.7003869,-0.30886737,0.16920783,0.17823029,-0.6078911,0.6530093,0.78093785,-0.0076260376,0.008821798,0.62449974,-1.3038669,-0.48986098,0.18080053,0.0,1.0,0.0,0.0,0.0,0.0,0.0,-0.8160652,0.21014556,-0.13462979,2.9390097,12.013662,-2.6655912,10.887575,-25.392813,2.2174299,0.71012974
-8.087281,129.2376,35.56223,27.4825,-2.8017366,1.1924295,-0.5178267,-0.80805874,0.20379487,-0.2625683,0.7649136,-0.5701182,0.7204657,-0.45196423,1.187196,-1.035286,-1.9651675,-1.1544325,2.105467,1.7873516,-1.0582088,1.2530769,-1.0580688,-1.9351908,-1.218505,2.1610703,1.7190074,-1.017904,-1.4843721,-0.15103468,0.28856203,1.272858,-0.2278741,0.37818894,-0.4835233,0.14915085,-0.6129494,0.6871248,-1.6882463,-0.2710393,0.2788244,0.16547394,-0.6120453,0.65565187,0.78954875,-0.013744499,0.007755668,0.61348486,-1.2708884,-0.3820349,0.28999043,0.0,1.0,0.0,0.0,0.0,0.0,0.0,-0.7991508,0.21294937,-0.13712478,3.2447815,35.70578,-33.404575,12.390852,-34.844185,3.1549037,2.218932
-18.480124,80.046486,12.849012,20.439175,-1.807609,0.18289673,-0.625755,-0.80837893,0.0788876,-0.38629124,0.7701277,-0.57555777,0.72369015,-0.4493943,1.1722391,-1.05018,-1.97382,-1.1414922,2.1035147,1.7913764,-1.0628434,1.2384475,-1.057796,-1.9358009,-1.2051249,2.1567407,1.7230011,-1.0225275,-1.4557718,0.08622822,-0.17810494,1.3600534,-0.5006017,0.40730414,-0.45571285,0.13232422,-0.6155052,0.6899586,-1.6807878,-0.25028595,0.28661898,0.15295792,-0.6155815,0.65857357,0.7985259,-0.019582134,0.0103898,0.601552,-1.249547,-0.3339482,0.2914619,0.0,1.0,0.0,0.0,0.0,0.0,0.0,-0.7823242,0.21550521,-0.13995856,2.8514385,23.598274,-46.82496,8.802271,-27.07504,3.17114,2.6572645
-18.047289,74.989845,12.471718,18.432152,-1.2926307,0.18949312,-0.50707424,-0.81564724,0.1889429,-0.44655266,0.7746326,-0.5563127,0.7024192,-0.42654958,1.1568828,-1.0389017,-1.9804562,-1.1276616,2.1011095,1.793243,-1.0651824,1.223986,-1.0554252,-1.9406742,-1.1911669,2.1504116,1.7272357,-1.0268822,-1.4429868,0.2868123,-0.59068435,1.4077151,-0.6769689,0.4293008,-0.42968878,0.11555481,-0.6178589,0.6928688,-1.675656,-0.23038736,0.2934177,0.14058685,-0.6186905,0.661446,0.80778205,-0.024772702,0.01603936,0.58874196,-1.2359307,-0.29409462,0.28529465,0.0,1.0,0.0,0.0,0.0,0.0,0.0,-0.7655548,0.21785888,-0.14286882,1.2640953,19.882198,-41.286324,4.7456503,-17.594528,2.3042858,2.355492
-15.673254,62.871822,11.543787,15.435604,-0.46088204,0.23403108,-0.3146051,-0.819207,0.19056596,-0.4869284,0.77594864,-0.51404715,0.6995469,-0.44119522,1.1420653,-1.0363686,-1.989367,-1.113572,2.099007,1.7971903,-1.0710016,1.2095572,-1.0517421,-1.9487175,-1.17698,2.1430454,1.7316512,-1.0310194,-1.4429132,0.39472193,-0.87504965,1.422076,-0.75671744,0.44548202,-0.40947485,0.0988121,-0.6200371,0.69576246,-1.6738725,-0.21352176,0.28813118,0.1282425,-0.6215172,0.66413915,0.8171143,-0.029287761,0.023647686,0.57524526,-1.235608,-0.26804462,0.2642579,0.0,1.0,0.0,0.0,0.0,0.0,0.0,-0.7488121,0.22003707,-0.14576244,-0.019049644,10.616356,-28.312183,1.3590336,-8.071672,1.5854836,1.7382503
-12.289121,60.192455,13.8421335,13.964161,0.04213196,0.420973,-0.14005974,-0.8255436,0.22166713,-0.53394717,0.7729041,-0.49788082,0.6982976,-0.43444818,1.1270028,-1.0295753,-2.0021122,-1.0996896,2.0932574,1.801481,-1.0744643,1.1950537,-1.0473857,-1.9586967,-1.1628181,2.1353474,1.7361985,-1.0349787,-1.4531049,0.44857106,-1.0380161,1.4138622,-0.7750444,0.45746905,-0.39235651,0.08207321,-0.622036,0.69864035,-1.6736292,-0.1956776,0.2877463,0.11583328,-0.62408066,0.6666494,0.826325,-0.033253264,0.03230037,0.56128234,-1.2433767,-0.24293363,0.24748349,0.0,1.0,0.0,0.0,0.0,0.0,0.0,-0.7320732,0.22203597,-0.14864033,-1.0919333,5.205548,-16.0048,-0.93147755,-2.0712018,1.0643303,1.4265239
-7.048929,63.315094,17.800552,13.346611,0.25389224,0.59404397,0.0010791868,-0.8222947,0.2501574,-0.55450416,0.77727926,-0.4989655,0.6985804,-0.42749038,1.1128242,-1.02237,-2.014147,-1.0850902,2.085451,1.8060566,-1.0777278,1.180453,-1.0427032,-1.969565,-1.1487803,2.1276834,1.7408496,-1.0387822,-1.4629424,0.47423083,-1.1017362,1.3998057,-0.76473784,0.4670789,-0.37731272,0.065345764,-0.6238365,0.70161575,-1.6722752,-0.17448016,0.30076894,0.10335159,-0.6263695,0.66909117,0.8352592,-0.036890097,0.041409705,0.5470525,-1.2510197,-0.21215735,0.24449459,0.0,1.0,0.0,0.0,0.0,0.0,0.0,-0.71534574,0.22383651,-0.15161574,-1.116085,2.3804545,-5.928111,-1.5485287,0.66862106,0.7628441,1.2262464
-4.1972637,64.75374,19.665676,13.157779,0.3950155,0.67618364,0.06893539,-0.82541525,0.26096442,-0.5766039,0.7752273,-0.4948628,0.70838445,-0.4234037,1.0979114,-1.0166067,-2.0272255,-1.0712576,2.078197,1.8116881,-1.0811226,1.1657568,-1.0378909,-1.9806639,-1.1348891,2.1202102,1.7455932,-1.0424488,-1.4724135,0.4830847,-1.1108724,1.3850701,-0.74316543,0.47607958,-0.3641011,0.04864502,-0.6254082,0.7047672,-1.6695164,-0.15092978,0.32014826,0.09078598,-0.62831116,0.67155266,0.8438335,-0.040363833,0.05065,0.53268206,-1.2580631,-0.1784424,0.24843822,0.0,1.0,0.0,0.0,0.0,0.0,0.0,-0.698645,0.22540817,-0.15476722,-1.1127472,0.7013798,-0.3880024,-1.630044,1.7359734,0.6765723,1.053983
-3.0307324,64.38846,19.723766,13.059104,0.43973118,0.6500371,0.09720492,-0.82818854,0.26517466,-0.6009899,0.77241224,-0.50389767,0.69328165,-0.38770068,1.082938,-1.0113734,-2.040763,-1.057648,2.0698204,1.8149214,-1.0812188,1.1509786,-1.0330539,-1.9917341,-1.1211257,2.1129203,1.7504072,-1.0459733,-1.4802821,0.48320284,-1.1039282,1.3728503,-0.7256411,0.48246196,-0.34935665,0.031982422,-0.6267319,0.7081165,-1.66499,-0.12616105,0.3401151,0.07817078,-0.6299248,0.6740571,0.85201645,-0.04373273,0.05991483,0.5182331,-1.2632263,-0.144775,0.2526986,0.0,1.0,0.0,0.0,0.0,0.0,0.0,-0.6819824,0.22673187,-0.15811646,-0.96066,-0.16605258,1.2425423,-1.3805628,1.3200164,0.41850805,1.2136638
-3.480171,60.6793,18.163317,12.986703,0.5715041,0.57019526,0.08787125,-0.83126235,0.24802083,-0.60909265,0.77521664,-0.4951745,0.6888602,-0.3723086,1.0678524,-1.0082518,-2.0526433,-1.043604,2.063403,1.8192933,-1.0832042,1.1361318,-1.0283313,-2.0027127,-1.1074328,2.1057944,1.7552727,-1.0493529,-1.4866059,0.46818238,-1.0940037,1.3677415,-0.70972395,0.48720175,-0.3349082,0.015369415,-0.62781525,0.7116206,-1.6599001,-0.10210509,0.3538012,0.06549072,-0.6312485,0.6765585,0.85981387,-0.046986002,0.06914005,0.50371826,-1.2699707,-0.115838796,0.2510275,0.0,1.0,0.0,0.0,0.0,0.0,0.0,-0.6653694,0.22781524,-0.16162062,-0.7918358,-1.6660154,1.5193462,-0.65135956,1.1845589,0.26783943,1.199913
-1.3431784,59.915985,18.148678,12.531715,0.53829926,0.5089699,0.10640623,-0.8248209,0.23545684,-0.5905523,0.77782273,-0.50814015,0.68969774,-0.37553895,1.0536497,-1.0047855,-2.061768,-1.0296506,2.0549805,1.8242425,-1.0869068,1.1212735,-1.0238242,-2.0135121,-1.0937438,2.0987554,1.7601805,-1.0526047,-1.4860572,0.44453004,-1.0734195,1.3686821,-0.70350325,0.49142367,-0.32264343,-0.0011749268,-0.62865067,0.71525323,-1.6523471,-0.077215895,0.36664733,0.052772522,-0.632267,0.6790376,0.86722213,-0.050140858,0.07830142,0.48916316,-1.2724665,-0.08717042,0.24857254,0.0,1.0,0.0,0.0,0.0,0.0,0.0,-0.64882505,0.22865066,-0.16525322,-0.107479095,-2.519405,2.5917768,-0.048208237,0.21418333,0.23368001,0.98642707
-3.5235817,46.806545,13.121742,10.9144745,0.756357,0.2935207,0.080935866,-0.82815784,0.1650257,-0.5971616,0.7769574,-0.48405442,0.68774885,-0.39149427,1.0384578,-1.0073216,-2.0732284,-1.0160481,2.05035,1.8289554,-1.0917541,1.1064266,-1.0198512,-2.024159,-1.0800261,2.091805,1.7651192,-1.0557613,-1.4847597,0.3812727,-1.0604851,1.3724478,-0.6931547,0.49419305,-0.3140513,-0.017662048,-0.6292839,0.7188198,-1.6470896,-0.0584094,0.3535085,0.039970398,-0.63311386,0.6813185,0.8742714,-0.053101487,0.08727244,0.47456637,-1.2815984,-0.0725926,0.22273971,0.0,1.0,0.0,0.0,0.0,0.0,0.0,-0.6323379,0.2292839,-0.16881979,0.021457672,-6.4368906,1.7183065,0.2857685,0.7328272,0.13470054,0.6612599
-2.7019417,46.42522,13.0389595,10.810799,0.7340892,0.268519,0.09125845,-0.8247699,0.1448113,-0.57245344,0.7836906,-0.5075874,0.68673927,-0.3927405,1.0239496,-1.00537,-2.0814042,-1.0016571,2.0410461,1.8337932,-1.0950354,1.0916103,-1.0165496,-2.0346074,-1.0662379,2.0848734,1.7700803,-1.0588456,-1.4809338,0.31294912,-1.038302,1.3806394,-0.6942925,0.49643472,-0.30722028,-0.03408432,-0.6297226,0.72224796,-1.6402584,-0.039031126,0.33951804,0.027095795,-0.63380814,0.68334085,0.88097453,-0.055850174,0.09602061,0.45993987,-1.2888582,-0.057631366,0.19687109,0.0,1.0,0.0,0.0,0.0,0.0,0.0,-0.61591566,0.22972259,-0.17224795,0.27563572,-6.9405613,2.6496172,0.7395506,-0.42339563,0.09263754,0.49491525
-0.3144933,44.891415,13.230999,9.987235,0.8082317,0.22782236,0.11895904,-0.815979,0.093433045,-0.5235522,0.786912,-0.4759311,0.68162304,-0.40775794,1.0100124,-1.0072063,-2.0869627,-0.98754674,2.0372803,1.8382427,-1.0996214,1.0768703,-1.01403,-2.0446472,-1.0523599,2.0780065,1.7750578,-1.0618823,-1.4720521,0.23132682,-0.9907005,1.3899311,-0.6852575,0.4977047,-0.30302835,-0.050430298,-0.62997437,0.7255036,-1.6324062,-0.02033236,0.32148013,0.014163971,-0.6343651,0.68510044,0.88732904,-0.05843926,0.104423314,0.44533995,-1.2947829,-0.043928403,0.17038812,0.0,1.0,0.0,0.0,0.0,0.0,0.0,-0.5995697,0.22997436,-0.17550361,0.7787943,-8.257866,5.2004814,0.85577965,0.58584213,-0.0009357929,0.2558887
0.7991152,44.698727,13.478337,9.733495,0.8981656,0.21798241,0.13537493,-0.81310415,0.047213834,-0.4829994,0.7889402,-0.4482169,0.6740101,-0.40178636,0.99555993,-1.0093086,-2.0929472,-0.9734659,2.0331848,1.8424588,-1.1020609,1.0622238,-1.0123668,-2.0540693,-1.0383979,2.071308,1.7800392,-1.0648788,-1.4624637,0.14435859,-0.9245262,1.3981152,-0.66567844,0.49780878,-0.2990451,-0.06669235,-0.630043,0.7285607,-1.6239355,-0.001830106,0.30109578,0.0011558533,-0.6347847,0.6866056,0.8933415,-0.060923006,0.1123429,0.43082285,-1.3008772,-0.030269925,0.14503607,0.0,1.0,0.0,0.0,0.0,0.0,0.0,-0.5833076,0.23004302,-0.17856067,0.84877014,-8.788008,7.0689797,0.7546902,1.6252279,-0.11880994,0.25894642
-1.1445738,44.91145,12.877649,10.415659,1.0117127,0.21441966,0.11385443,-0.8181934,0.010522412,-0.46666923,0.79091775,-0.42654058,0.65160197,-0.3849164,0.98040444,-1.0113145,-2.1007361,-0.9593061,2.0286539,1.8451993,-1.1033704,1.0476305,-1.0115409,-2.0628583,-1.0243673,2.0648565,1.7850001,-1.0678277,-1.458618,0.0617802,-0.86250126,1.4046131,-0.6392726,0.49521014,-0.293889,-0.08287048,-0.62992096,0.73139775,-1.6158725,0.016640937,0.2786539,-0.011932373,-0.6350632,0.68786144,0.8990405,-0.06330099,0.119743034,0.41639015,-1.3106452,-0.016832829,0.11993531,0.0,1.0,0.0,0.0,0.0,0.0,0.0,-0.5671295,0.22992095,-0.18139774,0.28645992,-8.353721,6.6423297,0.608325,2.306819,-0.3930688,0.39514303
0.27361298,49.823494,14.480373,10.999197,0.9931562,0.26326558,0.12873383,-0.8113151,-0.015921222,-0.41844612,0.79381657,-0.41319934,0.65109736,-0.3621201,0.96649903,-1.013133,-2.104703,-0.9449857,2.0235367,1.8501098,-1.1040397,1.0330832,-1.0114398,-2.0709643,-1.0102832,2.0586836,1.7899377,-1.0707114,-1.4538693,-0.0074741947,-0.7917603,1.4097189,-0.61141306,0.4927429,-0.28678572,-0.09894943,-0.6296005,0.7340641,-1.6050577,0.03780293,0.26341,-0.02508545,-0.63517,0.6889305,0.9044337,-0.065623336,0.12663823,0.40206447,-1.3167193,0.0018289604,0.103336066,0.0,1.0,0.0,0.0,0.0,0.0,0.0,-0.55105054,0.22960052,-0.18406409,0.36160946,-7.0336432,7.5577855,0.46122074,2.4045706,-0.38434863,0.5900204
1.9014974,53.389286,15.466881,11.077002,0.8772569,0.2654273,0.15096198,-0.80421185,-0.0432115,-0.38441378,0.79223925,-0.4183521,0.6445563,-0.33919692,0.952662,-1.0157609,-2.1094058,-0.9310593,2.0168483,1.8543934,-1.1046311,1.0186026,-1.0119395,-2.0783684,-0.9961738,2.0527275,1.7948488,-1.0735108,-1.4466416,-0.06454136,-0.7218255,1.4111874,-0.5916227,0.4902463,-0.27792615,-0.11489868,-0.629055,0.73661226,-1.590985,0.060920082,0.25308096,-0.038261414,-0.6350708,0.68987006,0.9095147,-0.06792555,0.13310038,0.38788304,-1.316751,0.024122048,0.09124702,0.0,1.0,0.0,0.0,0.0,0.0,0.0,-0.5351013,0.22905502,-0.18661225,0.5985737,-5.821413,7.50345,0.08664131,1.5686274,-0.3749609,0.75886846
-0.60153043,57.095963,15.37445,12.453944,0.8647448,0.28722787,0.116091296,-0.812889,-0.05083591,-0.38289037,0.78828883,-0.41697317,0.6320203,-0.33953354,0.93731374,-1.0170231,-2.1166575,-0.9173449,2.0110302,1.8580508,-1.1074641,1.0041411,-1.012855,-2.0852497,-0.98208314,2.046921,1.7997278,-1.0762252,-1.4463916,-0.10115002,-0.67506397,1.4082408,-0.5781309,0.48688546,-0.26988044,-0.13069153,-0.62825775,0.7390988,-1.5751812,0.08641102,0.2479708,-0.051441193,-0.63471985,0.69071645,0.9143,-0.07017583,0.13927773,0.37380788,-1.3169374,0.049349107,0.08267726,0.0,1.0,0.0,0.0,0.0,0.0,0.0,-0.51930845,0.22825775,-0.18909878,-0.09543896,-3.7899837,5.1815867,-0.3462553,0.9301424,-0.4579544,0.6694317
-1.5840786,63.37661,16.357748,14.083575,0.8189331,0.32708228,0.09292321,-0.8123589,-0.044950396,-0.37461388,0.7917643,-0.42632717,0.63135785,-0.32234508,0.9229052,-1.0173501,-2.122711,-0.9029067,2.0042882,1.8628635,-1.1084597,0.98966676,-1.0139537,-2.0918071,-0.96801436,2.0411904,1.8045781,-1.0788552,-1.448214,-0.11325095,-0.6477834,1.4062304,-0.5728045,0.48408607,-0.26113337,-0.14629745,-0.6271744,0.74161583,-1.555668,0.11585142,0.25390524,-0.06459808,-0.63407516,0.6915416,0.91879815,-0.072360866,0.14534977,0.35978782,-1.3140645,0.07948875,0.08250042,0.0,1.0,0.0,0.0,0.0,0.0,0.0,-0.5037025,0.22717437,-0.19161582,-0.31273365,-1.3591781,3.2607675,-0.25792122,0.082969666,-0.4046917,0.71979165
0.33029175,74.999275,19.563852,16.02336,0.76967824,0.40816736,0.09492506,-0.8067682,-0.012172718,-0.3544688,0.7918262,-0.41879857,0.6160234,-0.29375738,0.90898997,-1.0151709,-2.127254,-0.88883173,1.9993105,1.8661804,-1.108231,0.97519374,-1.0149131,-2.0981355,-0.9539665,2.0355241,1.8093958,-1.0813824,-1.4475554,-0.09062059,-0.6258806,1.4040117,-0.56607735,0.48068914,-0.25048247,-0.16165543,-0.6257477,0.74434316,-1.5290406,0.15198773,0.28060147,-0.07767105,-0.6330681,0.6925009,0.92299265,-0.074533604,0.15147382,0.3458107,-1.3026516,0.11841379,0.1005585,0.0,1.0,0.0,0.0,0.0,0.0,0.0,-0.48834455,0.22574767,-0.19434315,-0.10552406,2.0830765,2.8235078,-0.31621456,0.12794733,-0.4821539,0.8728564
-5.097762,61.467552,13.644563,14.529686,0.7096138,0.17281723,0.062187318,-0.81508285,-0.060351472,-0.4220829,0.78628063,-0.43982428,0.6118332,-0.27769697,0.89368546,-1.0209482,-2.1403437,-0.87533844,1.9915417,1.8705791,-1.1091521,0.9606941,-1.015821,-2.1046507,-0.9399539,2.0298312,1.8141733,-1.083803,-1.4511414,-0.0913481,-0.6585206,1.4001054,-0.5716117,0.47652906,-0.23981588,-0.17679214,-0.6240196,0.7471439,-1.5078905,0.18032824,0.28137556,-0.0906868,-0.63176346,0.6934353,0.9269104,-0.07649215,0.15776356,0.33180806,-1.2999091,0.14374776,0.09108619,0.0,1.0,0.0,0.0,0.0,0.0,0.0,-0.47320783,0.22401962,-0.19714391,-0.46856403,-0.2183795,-2.804494,-0.4346609,-0.9460449,-0.5221069,0.8969724
-5.2355933,62.026375,13.406291,14.692408,0.70443255,0.14041424,0.068695396,-0.8137145,-0.048154462,-0.42286083,0.78556347,-0.43535155,0.605392,-0.24383026,0.87932265,-1.0206364,-2.146937,-0.86139756,1.986296,1.8747126,-1.1081861,0.9461639,-1.0167155,-2.111555,-0.92597944,2.0240848,1.818907,-1.0861036,-1.4539791,-0.08935979,-0.6995527,1.3963593,-0.57679236,0.47195846,-0.22724788,-0.1917038,-0.62200546,0.74995327,-1.4852087,0.20879339,0.28233024,-0.10368347,-0.6302223,0.6942741,0.93055916,-0.07813824,0.164266,0.3177589,-1.2964015,0.16872086,0.081506275,0.0,1.0,0.0,0.0,0.0,0.0,0.0,-0.45829618,0.22200546,-0.19995326,-0.3983736,0.049757957,-3.629613,-0.42357445,-0.9251237,-0.57116747,1.0774225
-5.6513624,59.263477,12.230665,14.291043,0.73953533,0.054708302,0.07321522,-0.8115113,-0.05605734,-0.4507908,0.7866806,-0.41617486,0.5844671,-0.19883329,0.86501276,-1.0223212,-2.156634,-0.8473114,1.9824673,1.8773538,-1.1059868,0.93162227,-1.0176425,-2.1189513,-0.9120268,2.0183456,1.8235797,-1.0882553,-1.4544703,-0.094049625,-0.7515065,1.3946813,-0.5740062,0.46545222,-0.2118451,-0.2063942,-0.6197281,0.75272006,-1.4631844,0.23489912,0.27657142,-0.11665344,-0.6284485,0.69497675,0.9339443,-0.07941441,0.17095883,0.30366814,-1.2948668,0.18981804,0.06680016,0.0,1.0,0.0,0.0,0.0,0.0,0.0,-0.44360578,0.21972808,-0.20272005,-0.15592575,-0.61189234,-4.742384,-0.21269321,-0.10945797,-0.77160597,1.3645917
-6.671567,60.10373,11.983741,14.888907,0.835955,0.035474956,0.06449961,-0.8151346,-0.04999702,-0.486086,0.7865062,-0.39149487,0.5640536,-0.15957874,0.8501088,-1.0226423,-2.1675599,-0.8333762,1.9791961,1.879985,-1.1042131,0.9170672,-1.0185885,-2.126931,-0.8980827,2.0127196,1.828174,-1.0902373,-1.4562073,-0.09548677,-0.81174064,1.3941592,-0.5598096,0.45707178,-0.19423331,-0.22086334,-0.6171913,0.7554234,-1.4406946,0.26089597,0.27042046,-0.1296196,-0.62646484,0.69554275,0.937075,-0.08028948,0.17781742,0.2895252,-1.2956655,0.21083383,0.05338603,0.0,1.0,0.0,0.0,0.0,0.0,0.0,-0.42913663,0.21719131,-0.20542341,-0.28362274,-0.29345453,-5.554676,-0.09803772,1.0156631,-0.9815872,1.5820175
-9.083582,50.82514,8.92881,13.6104765,0.92131686,-0.06977373,0.05325782,-0.82120824,-0.0939224,-0.5201152,0.7851141,-0.37226486,0.54647577,-0.15514074,0.8349464,-1.0279808,-2.1789424,-0.81957126,1.9754932,1.8828216,-1.1057513,0.9024711,-1.0197482,-2.1355436,-0.8841394,2.007273,1.8326728,-1.0920591,-1.4610481,-0.12303192,-0.8762467,1.3943458,-0.5403195,0.4470871,-0.1784972,-0.23514938,-0.6144371,0.7579183,-1.423908,0.28082466,0.24508175,-0.14266968,-0.6243324,0.69585955,0.93997914,-0.08068616,0.18474302,0.2753161,-1.304996,0.22471428,0.024951324,0.0,1.0,0.0,0.0,0.0,0.0,0.0,-0.4148506,0.2144371,-0.20791829,-0.5573988,-2.8832629,-6.065023,0.011372566,1.6173959,-1.1393607,1.4242738
-10.128029,40.286972,5.8630958,11.523245,0.870718,-0.18345332,0.076340735,-0.8207006,-0.14445353,-0.55444103,0.7865319,-0.3776694,0.54305404,-0.11634642,0.8204011,-1.0341935,-2.1909876,-0.8054862,1.969506,1.8869783,-1.1036937,0.8878332,-1.0214114,-2.1448085,-0.8701797,2.00196,1.8370744,-1.0937151,-1.4647712,-0.18122837,-0.9421029,1.3966537,-0.5284525,0.43747202,-0.16157311,-0.24931335,-0.61153793,0.76000464,-1.4127631,0.29389894,0.19911368,-0.15585327,-0.6221123,0.69575983,0.9426764,-0.080510005,0.19164468,0.26105842,-1.3198494,0.23102002,-0.021112425,0.0,1.0,0.0,0.0,0.0,0.0,0.0,-0.40068662,0.21153793,-0.21000463,-0.40531158,-5.9221654,-6.2976956,0.26741028,0.9436488,-1.0828614,1.574266
-7.6775646,43.321243,7.214226,11.350959,0.8626021,-0.13665676,0.12212525,-0.81952876,-0.15340863,-0.5536249,0.78161675,-0.36807543,0.52334267,-0.059827063,0.8058803,-1.0367522,-2.200171,-0.79201806,1.9651525,1.8894087,-1.0996978,0.8731733,-1.0236449,-2.1545577,-0.8562209,1.9967602,1.8413746,-1.0951749,-1.4665712,-0.23761205,-0.98463416,1.3956454,-0.5175979,0.42707667,-0.14118755,-0.26334763,-0.60850525,0.7616476,-1.3988624,0.30766958,0.15654832,-0.16914749,-0.6198044,0.6952408,0.94515824,-0.07979563,0.1984568,0.24682668,-1.3300883,0.24082936,-0.061533544,0.0,1.0,0.0,0.0,0.0,0.0,0.0,-0.38665235,0.20850524,-0.21164757,-0.2374649,-5.747798,-3.8856983,-0.07927418,0.7708311,-1.1781394,1.915893
-6.3933578,42.357994,7.1978974,10.742566,0.8016909,-0.13544357,0.1620219,-0.817865,-0.19409755,-0.5671464,0.7869599,-0.39067325,0.5171723,0.0068509523,0.7913868,-1.0430547,-2.2112722,-0.7775249,1.957693,1.8930919,-1.0944898,0.8585134,-1.0265002,-2.1646202,-0.8422506,1.9915705,1.8455758,-1.0963987,-1.4659032,-0.30177617,-1.0125254,1.3975316,-0.51983964,0.41735566,-0.11651273,-0.27723694,-0.60534286,0.7628448,-1.3842741,0.32008168,0.111432336,-0.18253326,-0.6174011,0.69430745,0.9474116,-0.078582086,0.2051601,0.23269148,-1.3379723,0.2506146,-0.10336466,0.0,1.0,0.0,0.0,0.0,0.0,0.0,-0.37276304,0.20534286,-0.21284479,0.007581711,-6.5233946,-2.401805,0.21913052,-0.55509806,-1.1086404,2.3504763
-6.7687836,27.713577,3.3803704,7.2543592,0.60044277,-0.2807982,0.21445304,-0.81531954,-0.29117706,-0.5925698,0.7853495,-0.4210363,0.52155346,0.058730867,0.7769815,-1.0556179,-2.2238772,-0.7637156,1.9494668,1.8977312,-1.0905256,0.8438812,-1.0302997,-2.1749542,-0.8282563,1.9862012,1.8496889,-1.0973629,-1.4623697,-0.4062641,-1.039559,1.4004487,-0.54320806,0.40896976,-0.09001869,-0.29107285,-0.60214615,0.7632751,-1.3831058,0.31980494,0.020443456,-0.19602966,-0.6149788,0.6927687,0.94944733,-0.076773725,0.21170244,0.21871819,-1.3505383,0.2499568,-0.17022821,0.0,1.0,0.0,0.0,0.0,0.0,0.0,-0.35892713,0.20214614,-0.21327507,0.35443306,-10.51662,-2.4610996,0.42059422,-2.5971532,-0.9848416,2.6315122
-6.828023,26.285952,2.9220188,6.7570224,0.5271131,-0.28479093,0.25710735,-0.8153923,-0.3326973,-0.6060228,0.7864747,-0.44360527,0.50038064,0.16268463,0.762342,-1.0635694,-2.2355564,-0.7496088,1.9418406,1.899727,-1.0810944,0.82928425,-1.0351768,-2.18554,-0.8142269,1.9805216,1.8537098,-1.0980061,-1.4587877,-0.5149491,-1.0642674,1.4038242,-0.5756782,0.400254,-0.05686273,-0.3048935,-0.59894943,0.7627332,-1.3830987,0.31849155,-0.06525142,-0.20965195,-0.6125679,0.6905377,0.95126617,-0.07430945,0.2180827,0.20496497,-1.3628914,0.24921326,-0.24044898,1.0,0.0,0.0,0.0,0.0,0.0,0.0,-0.34510648,0.19894943,-0.21273321,0.3704548,-10.935873,-2.2984982,0.4290104,-3.3214211,-0.87299347,3.163921
