Afshin1997/kuka_rl_ros2/src/catch_and_throw/input_files/idealpd/recorded_trajectories/env_256_data.csv
torque0,torque1,torque2,torque3,torque4,torque5,torque6,action0,action1,action2,action3,action4,action5,action6,set_target_0,set_target_1,set_target_2,set_target_3,set_target_4,set_target_5,set_target_6,joint_pos_0,joint_pos_1,joint_pos_2,joint_pos_3,joint_pos_4,joint_pos_5,joint_pos_6,joint_vel_0,joint_vel_1,joint_vel_2,joint_vel_3,joint_vel_4,joint_vel_5,joint_vel_6,tennisball_pos_0,tennisball_pos_1,tennisball_pos_2,tennisball_lin_vel_0,tennisball_lin_vel_1,tennisball_lin_vel_2,end_effector_pos_0,end_effector_pos_1,end_effector_pos_2,end_effector_rot_0,end_effector_rot_1,end_effector_rot_2,end_effector_rot_3,end_effector_lin_vel_0,end_effector_lin_vel_1,end_effector_lin_vel_2,obs_task_0,obs_task_1,obs_task_2,obs_task_3,obs_task_4,obs_task_5,obs_task_6,to_final_target_0,to_final_target_1,to_final_target_2,joint_acc_0,joint_acc_1,joint_acc_2,joint_acc_3,joint_acc_4,joint_acc_5,joint_acc_6
0.0,0.0,0.0,0.0,0.0,0.0,0.0,0.0,0.0,0.0,0.0,0.0,0.0,0.0,1.7802359,-1.0646509,-1.8151424,-1.1170107,1.9373155,1.1170107,-0.91629785,1.7802359,-1.0646509,-1.8151424,-1.1170107,1.9373155,1.1170107,-0.91629785,0.0,0.0,0.0,0.0,0.0,0.0,0.0,2.7835584,-0.6400757,0.39182788,-3.6696239,0.15092982,4.6135907,0.5304168,-0.45449638,0.693097,0.5745483,0.17512383,0.15255436,0.7848268,0.0,0.0,0.0,1.0,0.0,0.0,0.0,0.0,0.0,0.0,-3.4335585,0.24007568,0.15817213,0.0,0.0,0.0,0.0,0.0,0.0,0.0
0.0,0.0,0.0,0.0,0.0,0.0,0.0,0.0,0.0,0.0,0.0,0.0,0.0,0.0,1.7802359,-1.0646509,-1.8151424,-1.1170107,1.9373155,1.1170107,-0.91629785,1.7802359,-1.0646509,-1.8151424,-1.1170107,1.9373155,1.1170107,-0.91629785,0.0,0.0,0.0,0.0,0.0,0.0,0.0,2.7835584,-0.6400757,0.39182788,-3.6696239,0.15092982,4.6135907,0.5304168,-0.45449638,0.693097,0.5745483,0.17512383,0.15255436,0.7848268,0.0,0.0,0.0,1.0,0.0,0.0,0.0,0.0,0.0,0.0,-3.4335585,0.24007568,0.15817213,0.0,0.0,0.0,0.0,0.0,0.0,0.0
0.0,0.0,0.0,0.0,0.0,0.0,0.0,0.0,0.0,0.0,0.0,0.0,0.0,0.0,1.7802359,-1.0646509,-1.8151424,-1.1170107,1.9373155,1.1170107,-0.91629785,1.7802359,-1.0646509,-1.8151424,-1.1170107,1.9373155,1.1170107,-0.91629785,0.0,0.0,0.0,0.0,0.0,0.0,0.0,2.7835584,-0.6400757,0.39182788,-3.6696239,0.15092982,4.6135907,0.5304168,-0.45449638,0.693097,0.5745483,0.17512383,0.15255436,0.7848268,0.0,0.0,0.0,1.0,0.0,0.0,0.0,0.0,0.0,0.0,-3.4335585,0.24007568,0.15817213,0.0,0.0,0.0,0.0,0.0,0.0,0.0
-176.0,75.82153,-3.5609894,110.0,10.959812,5.0510745,-3.861889,-0.8202246,0.39127377,-0.55631787,0.7380798,0.30006853,0.6641951,-0.57055664,1.6982135,-1.0255235,-1.8707741,-1.0432028,1.9673223,1.1834302,-0.9733535,1.7786986,-1.0620722,-1.8209903,-1.112847,1.9420056,1.1216933,-0.9172353,-0.20472947,0.34314165,-0.77900857,0.5553404,0.6246069,0.62257284,-0.124652095,2.7468896,-0.6385689,0.43719274,-3.665955,0.15077892,4.5107923,0.528381,-0.45745468,0.6938633,0.57798547,0.17390805,0.15146889,0.7827808,-0.27108118,-0.39440465,0.10196666,1.0,0.0,0.0,0.0,0.0,0.0,0.0,-3.3968897,0.23856887,0.112807274,-20.425709,34.106236,-77.68315,55.58486,62.20719,61.71271,-12.380939
-176.0,7.9679804,-31.257463,110.0,13.052106,3.0372329,-3.7205853,-0.8125028,0.050174676,-0.56949615,0.70584625,0.46146035,0.6376576,-0.5570595,1.6974483,-1.0570546,-1.8779399,-1.0422623,1.9881517,1.185459,-0.9729413,1.7763277,-1.0576204,-1.835881,-1.1013819,1.9541516,1.1343504,-0.91923994,-0.24888231,0.47179645,-1.7104232,1.3442234,1.4019226,1.4593725,-0.22797307,2.7102575,-0.6370621,0.48153037,-3.6622899,0.15062816,4.408096,0.5236466,-0.46510696,0.6949955,0.58611095,0.17087786,0.14783847,0.7780865,-0.54179156,-0.88753194,0.1188667,1.0,0.0,0.0,0.0,0.0,0.0,0.0,-3.3602576,0.23706207,0.06846964,-4.7186165,10.678077,-88.54809,79.07098,74.947525,77.48623,-10.982143
-166.44557,120.98766,31.066584,101.56671,8.949708,8.255011,-2.5088043,-0.77307934,0.41512933,-0.13202836,0.6509753,0.44615224,0.6859543,-0.5145121,1.6990198,-1.0161074,-1.8490838,-1.0362843,1.9987669,1.2029458,-0.97069114,1.7706133,-1.0516905,-1.8519638,-1.0859667,1.968451,1.1488405,-0.9218282,-0.67954236,0.6299395,-1.5673898,1.6081469,1.434338,1.4373305,-0.27101174,2.6736622,-0.6355572,0.52484185,-3.6586282,0.15047757,4.3055024,0.51596385,-0.47562218,0.6978561,0.59746754,0.16634311,0.1430093,0.77130455,-0.851058,-1.100185,0.3462177,1.0,0.0,0.0,0.0,0.0,0.0,0.0,-3.3236623,0.23555717,0.025158167,-43.191975,14.7137165,16.373873,26.676273,1.7880678,-4.6854734,-4.873571
-106.71659,136.51266,48.64644,69.078735,5.2359643,8.922646,-1.0375564,-0.7920525,0.3778363,-0.035043787,0.6357655,0.43657792,0.64628893,-0.5495849,1.691408,-1.0139068,-1.8554682,-1.0223901,2.0121088,1.2134694,-0.97678673,1.7607027,-1.0448335,-1.8637664,-1.0699126,1.9814782,1.1622854,-0.924777,-1.0962828,0.70132285,-1.0429534,1.604951,1.2539324,1.307909,-0.30591273,2.6371033,-0.6340542,0.5671281,-3.6549704,0.15032713,4.2030115,0.5056519,-0.48692322,0.70298094,0.6102599,0.16026165,0.13771325,0.7635012,-1.1027207,-1.1297085,0.5736892,1.0,0.0,0.0,0.0,0.0,0.0,0.0,-3.2871032,0.23405418,-0.01712811,-42.139565,6.2479377,54.94354,-0.24104118,-19.517326,-14.597344,-4.421097
-47.731678,139.17259,53.537186,39.17919,1.7850872,7.581146,-0.18155035,-0.80076486,0.46536088,-0.09522867,0.62879276,0.47692752,0.6390462,-0.5435423,1.6806263,-0.99829745,-1.8732893,-1.0070332,2.029171,1.2261901,-0.9791312,1.74746,-1.0372251,-1.8703163,-1.0549704,1.9923921,1.1742789,-0.9280061,-1.4020377,0.7784835,-0.5187779,1.4569552,1.0336641,1.1603591,-0.33154306,2.600581,-0.6325512,0.6083903,-3.6513162,0.15017684,4.100623,0.4935209,-0.4976406,0.71002793,0.6232601,0.1528216,0.132397,0.7554226,-1.2622974,-1.0385902,0.752509,1.0,0.0,0.0,0.0,0.0,0.0,0.0,-3.2505808,0.23255119,-0.05839026,-31.101154,7.1053624,54.48432,-14.939427,-23.076153,-15.582824,-3.4585834
-5.396894,124.94263,47.966644,18.046246,-0.3790344,5.3014584,0.17499831,-0.8126681,0.52444065,-0.12511845,0.6273051,0.5109944,0.6309332,-0.5533422,1.6661932,-0.9847811,-1.8828281,-0.9922399,2.0434916,1.2373722,-0.9833403,1.7322108,-1.0288004,-1.8729217,-1.0416857,2.0014946,1.1849276,-0.9314508,-1.5675151,0.86244595,-0.16978784,1.2846242,0.8672628,1.0321507,-0.35109514,2.5640953,-0.631052,0.6486293,-3.6476655,0.1500267,3.9983373,0.48043907,-0.5071316,0.7183664,0.6358686,0.144509,0.1274681,0.74735534,-1.3346689,-0.9039519,0.86271924,1.0,0.0,0.0,0.0,0.0,0.0,0.0,-3.214095,0.23105201,-0.098629296,-16.98904,8.016396,36.29938,-17.477108,-17.230856,-13.095975,-2.6521504
19.189917,113.24525,42.048626,7.292254,-1.4655054,3.5004725,0.208302,-0.81844705,0.58695817,-0.12091176,0.6287756,0.5171743,0.6346358,-0.54360104,1.6503661,-0.9701046,-1.8850129,-0.97880816,2.0532122,1.2483912,-0.9858109,1.7161585,-1.0194334,-1.8734214,-1.0298296,2.0094101,1.1944624,-0.93504804,-1.6190829,0.9604982,-0.006715618,1.1517473,0.7654276,0.9271968,-0.36444664,2.5276458,-0.62955284,0.68784624,-3.6440187,0.1498767,3.8961542,0.46706617,-0.5152416,0.7274794,0.6479214,0.13575824,0.123210825,0.73931503,-1.3475441,-0.764202,0.9277065,1.0,0.0,0.0,0.0,0.0,0.0,0.0,-3.1776457,0.22955284,-0.13784623,-5.508876,9.556568,17.240131,-13.570285,-10.485649,-10.514271,-1.8991411
27.775312,102.03349,35.89531,4.0177097,-1.6841007,2.26154,0.09454546,-0.82137334,0.63722545,-0.12624875,0.6287278,0.5220637,0.6381428,-0.53509784,1.6340212,-0.9557108,-1.8860463,-0.96695685,2.0616164,1.2582767,-0.9885578,1.7001063,-1.0090631,-1.8733642,-1.0188662,2.0167115,1.2030951,-0.9387445,-1.6014334,1.0621859,0.011882344,1.0768646,0.7179099,0.8421575,-0.3729455,2.491233,-0.6280556,0.7260421,-3.6403754,0.14972685,3.794073,0.45377547,-0.52209854,0.73703015,0.65949124,0.1268691,0.11975499,0.73118687,-1.3301848,-0.6428322,0.96365297,1.0,0.0,0.0,0.0,0.0,0.0,0.0,-3.141233,0.22805557,-0.17604208,1.4944315,9.998989,2.4850118,-7.769704,-4.8927784,-8.4494,-1.3113558
28.091106,93.68526,31.839983,4.5050874,-1.3971488,1.6909122,0.030184511,-0.8206106,0.66923296,-0.10101409,0.6224865,0.5292617,0.65063864,-0.5285347,1.6180452,-0.9421398,-1.8834656,-0.95661753,2.0696375,1.2681589,-0.99159795,1.6844488,-0.9977697,-1.8735645,-1.0083052,2.0238106,1.211003,-0.94250196,-1.5546448,1.1512926,-0.028904574,1.0482067,0.70718855,0.77373356,-0.37803712,2.4548566,-0.6265602,0.7632179,-3.6367357,0.14957716,3.692094,0.44070524,-0.5278969,0.7468524,0.67068285,0.117976844,0.117033444,0.7228895,-1.3051512,-0.54260486,0.9874758,1.0,0.0,0.0,0.0,0.0,0.0,0.0,-3.1048565,0.2265602,-0.21321791,4.4641256,8.78036,-3.5995786,-3.134632,-1.1485934,-6.811321,-0.90608597
24.085571,84.746704,27.883684,5.7201357,-0.9779668,1.3587483,0.010427297,-0.81749505,0.6904037,-0.10025864,0.60590917,0.54384774,0.65127164,-0.52802896,1.6026993,-0.92872936,-1.8835903,-0.94771427,2.0781953,1.2761301,-0.9953049,1.669274,-0.9857477,-1.8743179,-0.9978743,2.0309823,1.2183195,-0.9462976,-1.5055792,1.2187723,-0.08945663,1.0404701,0.7198475,0.7176975,-0.38126302,2.4185164,-0.62506485,0.7993747,-3.6330998,0.14942761,3.590217,0.42785776,-0.53284645,0.75682944,0.6815669,0.10915492,0.11487599,0.7143915,-1.2823834,-0.46247783,1.0000938,1.0,0.0,0.0,0.0,0.0,0.0,0.0,-3.0685163,0.22506484,-0.24937469,4.7250032,6.643605,-5.651456,-1.0382652,1.2217641,-5.603564,-0.6747484
18.389349,79.06464,25.437962,7.7836504,-0.54084194,1.3180585,0.007932497,-0.81668603,0.7110536,-0.097182974,0.59633094,0.55023175,0.662939,-0.52255034,1.5876054,-0.91464233,-1.8840362,-0.93824124,2.0860054,1.2846135,-0.9985526,1.6544901,-0.9731964,-1.8755958,-0.9874602,2.038337,1.2251593,-0.9501142,-1.4697196,1.2669264,-0.13913605,1.0409199,0.7407644,0.67252684,-0.38285446,2.3822126,-0.6235714,0.8345135,-3.6294672,0.14927821,3.4884417,0.41516578,-0.53709793,0.76690143,0.6921855,0.10040972,0.11311264,0.705693,-1.2684342,-0.39645705,1.008658,1.0,0.0,0.0,0.0,0.0,0.0,0.0,-3.0322127,0.22357139,-0.28451347,3.4152508,4.7192335,-4.5713367,-0.21071434,2.0501375,-4.562342,-0.48664212
13.908319,74.027954,23.585833,9.103851,-0.20145565,1.328757,0.040411036,-0.8150003,0.7182044,-0.08642738,0.5859859,0.5560102,0.6628419,-0.5291403,1.5729901,-0.90137595,-1.8842386,-0.9288616,2.093938,1.2914435,-1.0030283,1.6399485,-0.96032083,-1.8771732,-0.9770556,2.0459054,1.231608,-0.953947,-1.4496968,1.2941082,-0.16250825,1.0395045,0.76189727,0.6354009,-0.3844753,2.3459454,-0.62207985,0.8686353,-3.6258385,0.14912896,3.3867683,0.40255052,-0.5407543,0.7770304,0.7025443,0.09171944,0.11157407,0.69682866,-1.2623311,-0.33939934,1.0134219,1.0,0.0,0.0,0.0,0.0,0.0,0.0,-2.9959455,0.22207984,-0.31863528,1.8316746,2.6282072,-1.9188255,-0.39243698,2.0640492,-3.7805676,-0.4790008
12.282391,71.76959,22.98407,9.471437,-0.032339692,1.3847246,0.10764281,-0.81185436,0.726199,-0.06932343,0.57037073,0.568926,0.6674058,-0.5271733,1.558763,-0.8877009,-1.8841056,-0.92001855,2.102798,1.2983487,-1.0066643,1.6255175,-0.94727457,-1.8787639,-0.96673304,2.0536835,1.2377383,-0.9577922,-1.4414824,1.3077915,-0.15641722,1.0289317,0.782925,0.6053609,-0.3856323,2.3097143,-0.6205883,0.9017411,-3.6222136,0.14897986,3.2851965,0.38996145,-0.54385567,0.7871975,0.71261185,0.08304797,0.11012346,0.68786633,-1.260203,-0.2840733,1.0168236,1.0,0.0,0.0,0.0,0.0,0.0,0.0,-2.9597144,0.2205883,-0.35174108,0.641942,1.281476,1.0685444,-1.30651,2.03861,-3.0768633,-0.43427944
12.0564995,70.95628,22.777695,9.474745,0.012401104,1.4143696,0.15733744,-0.8092551,0.7341038,-0.0552615,0.55671906,0.577309,0.6720713,-0.52519464,1.544592,-0.8738642,-1.8842901,-0.9110611,2.1114144,1.3049453,-1.0103117,1.611117,-0.9341396,-1.8801486,-0.9565783,2.0616524,1.2436129,-0.961646,-1.4401937,1.3150988,-0.1307694,1.0101862,0.8012456,0.5813388,-0.38639998,2.2735195,-0.6191006,0.93383193,-3.618592,0.1488309,3.1837263,0.3773839,-0.54639244,0.7973932,0.7223507,0.074357316,0.10868229,0.678873,-1.258834,-0.22766495,1.0194246,1.0,0.0,0.0,0.0,0.0,0.0,0.0,-2.9235196,0.21910056,-0.38383192,-0.057792664,0.6471157,3.0527978,-2.1212578,1.7600298,-2.4675012,-0.39739013
10.682194,69.218925,21.864145,9.925786,0.08019197,1.3707747,0.15693793,-0.812378,0.73680985,-0.048780352,0.54945385,0.5843609,0.6750806,-0.52292496,1.5298792,-0.8604586,-1.8850267,-0.9016329,2.1200886,1.311121,-1.0139385,1.596686,-0.92096364,-1.8812435,-0.9466229,2.0697815,1.2492853,-0.96550363,-1.4447142,1.318184,-0.10065252,0.9898361,0.8165757,0.5621729,-0.3866952,2.237361,-0.61761284,0.9649089,-3.6149743,0.1486821,3.0823574,0.3648069,-0.5483856,0.8075977,0.7317573,0.06562853,0.10722302,0.66987115,-1.2586092,-0.17359456,1.0194921,1.0,0.0,0.0,0.0,0.0,0.0,0.0,-2.887361,0.21761283,-0.4149089,-0.6372452,0.2310276,3.4948559,-2.2752285,1.4674902,-1.9723535,-0.34098625
13.227398,69.702736,22.037592,8.695278,-0.09741557,1.3089418,0.21080643,-0.80908453,0.7451268,-0.030460391,0.5195445,0.5907641,0.6737617,-0.51628417,1.5157776,-0.846451,-1.8842895,-0.89466846,2.1288579,1.3166615,-1.017132,1.5822169,-0.90774,-1.8820026,-0.9369679,2.0780442,1.2547919,-0.96935934,-1.4483014,1.3234278,-0.06618355,0.95662874,0.8291274,0.54680884,-0.3862491,2.2012382,-0.616127,0.9949729,-3.6113598,0.14853345,2.98109,0.35227376,-0.5498009,0.81778926,0.74079716,0.056858882,0.10575836,0.66090983,-1.2522546,-0.114443004,1.0173523,1.0,0.0,0.0,0.0,0.0,0.0,0.0,-2.8512383,0.21612701,-0.44497287,-0.5496502,0.4532814,3.9413705,-3.5648584,1.1900425,-1.5565872,-0.2692461
15.67604,67.45792,20.954372,6.347437,-0.35646194,1.0751475,0.27334422,-0.8128552,0.751523,-0.033485636,0.4659589,0.6108255,0.6765268,-0.5057592,1.5009314,-0.8325877,-1.8853512,-0.89037204,2.1391268,1.3224446,-1.0199353,1.5677,-0.8944448,-1.88251,-0.92784506,2.0864594,1.2601725,-0.97320265,-1.4532309,1.3314133,-0.043938454,0.8967344,0.8453882,0.5352625,-0.38462478,2.1651516,-0.6146431,1.024025,-3.6077492,0.14838494,2.8799238,0.339871,-0.55060196,0.8278847,0.749421,0.048117027,0.10434079,0.65204746,-1.2361977,-0.05328798,1.005105,1.0,0.0,0.0,0.0,0.0,0.0,0.0,-2.8151517,0.21464309,-0.47402495,-0.6892443,0.7453203,2.70053,-6.250894,1.5781641,-1.1037111,-0.14158487
17.221233,67.68358,21.072212,5.8497763,-0.4243759,1.0160644,0.31206557,-0.8141624,0.7539338,-0.00069834467,0.44102365,0.61546564,0.67262536,-0.49853855,1.4862838,-0.81905144,-1.8825798,-0.8837427,2.148006,1.327435,-1.0230565,1.5531393,-0.8810705,-1.8827293,-0.9193583,2.0950234,1.2654539,-0.977024,-1.4576099,1.3393251,-0.0130348215,0.8318413,0.8598633,0.5258976,-0.38228267,2.1291013,-0.6131592,1.0520662,-3.6041422,0.14823659,2.7788587,0.32765535,-0.55078125,0.83785903,0.7575973,0.039414637,0.102978066,0.64334154,-1.2158947,0.009145553,0.9926829,1.0,0.0,0.0,0.0,0.0,0.0,0.0,-2.7791014,0.21315917,-0.5020662,-0.63097477,0.74682236,3.5579562,-6.743872,1.4094234,-0.8609295,-0.064086914
17.237621,66.00154,20.119946,5.7537994,-0.46601504,0.85994196,0.2893101,-0.81388676,0.7582363,-0.0032571163,0.41451725,0.6183277,0.6776922,-0.49624172,1.4717506,-0.8052469,-1.883055,-0.87790656,2.156856,1.3332231,-1.0266482,1.53855,-0.8676151,-1.8827198,-0.9115048,2.1037095,1.2706591,-0.9808206,-1.4600207,1.3475555,0.006986003,0.7690753,0.8714665,0.51906055,-0.37973687,2.0930867,-0.6116791,1.0790975,-3.6005387,0.14808838,2.6778946,0.31566352,-0.5503597,0.84768736,0.7653412,0.03076503,0.10169931,0.634794,-1.1921861,0.06816176,0.9770661,1.0,0.0,0.0,0.0,0.0,0.0,0.0,-2.7430868,0.21167907,-0.5290975,-0.42145252,0.79197884,2.422546,-6.5246105,1.148057,-0.582397,-0.02503395
19.962902,65.25275,20.06194,4.0243716,-0.61950225,0.7268479,0.37369758,-0.81706583,0.7608254,0.029598605,0.3486157,0.6370176,0.67051286,-0.4948411,1.4568434,-0.7915326,-1.8797599,-0.87664324,2.1674113,1.3377104,-1.0303047,1.5239321,-0.8540853,-1.8824317,-0.90441996,2.1125367,1.2758032,-0.9845924,-1.4628689,1.3547744,0.037371825,0.6873886,0.8864738,0.5133941,-0.3773182,2.0571084,-0.610199,1.10512,-3.596939,0.14794032,2.5770316,0.30396032,-0.54932785,0.8573318,0.7726181,0.022200348,0.10049924,0.62647283,-1.1607984,0.12898752,0.9574796,1.0,0.0,0.0,0.0,0.0,0.0,0.0,-2.7071085,0.21019897,-0.55511993,-0.46384335,0.7049084,3.4500985,-8.416486,1.4977694,-0.4155159,-0.03002286
24.85292,64.3517,20.07516,0.9849968,-0.9562737,0.5136198,0.48233905,-0.81089085,0.7652895,0.05216061,0.2723515,0.6396393,0.6708756,-0.48874462,1.442843,-0.77755636,-1.8772157,-0.8771848,2.1765006,1.3428907,-1.0334668,1.5093237,-0.8404821,-1.8817966,-0.8983441,2.1214974,1.2809035,-0.9883384,-1.4607586,1.362144,0.07357848,0.5802079,0.899285,0.5096363,-0.3745711,2.0211658,-0.6087208,1.1301345,-3.5933428,0.14779241,2.4762692,0.29266995,-0.5476589,0.86673206,0.77935714,0.013773478,0.09939615,0.61849266,-1.1155646,0.19336583,0.9312044,1.0,0.0,0.0,0.0,0.0,0.0,0.0,-2.671166,0.20872077,-0.58013445,0.04172325,0.73976517,4.005333,-10.9654665,1.295793,-0.14449358,0.0140964985
27.840117,64.59389,20.422731,-0.5221214,-1.1212735,0.39326757,0.5600293,-0.80998397,0.77047616,0.08916052,0.2058737,0.64754444,0.6634731,-0.48585108,1.4283253,-0.7634345,-1.8728806,-0.8777567,2.1862519,1.3472508,-1.0369235,1.4947497,-0.8268007,-1.8806999,-0.8934489,2.1305802,1.2859694,-0.9920568,-1.4569304,1.3703129,0.122783504,0.45855975,0.911542,0.50647485,-0.37176,1.9852594,-0.6072445,1.1541421,-3.5897503,0.14764465,2.3756077,0.2818893,-0.54533005,0.8758593,0.78550595,0.0055109137,0.09839102,0.6109575,-1.061985,0.2592685,0.9033043,1.0,0.0,0.0,0.0,0.0,0.0,0.0,-2.6352594,0.20724449,-0.6041421,0.22833347,0.8358717,5.267292,-12.394917,1.2642026,-0.037062168,0.038701296
30.373268,62.625263,19.967222,-2.771061,-1.3142734,0.1872114,0.65560305,-0.81469756,0.77162987,0.1268484,0.10691281,0.65913785,0.66348064,-0.48091337,1.4132799,-0.7496377,-1.868015,-0.8827576,2.1964939,1.3523175,-1.0401481,1.480189,-0.8130497,-1.879029,-0.889968,2.1397927,1.2910124,-0.99574465,-1.456213,1.3768373,0.18287961,0.31054303,0.9249729,0.50459087,-0.36859292,1.9493887,-0.6057682,1.1771439,-3.5861611,0.14749704,2.2750468,0.2717098,-0.5423355,0.88465863,0.7910154,-0.0025305192,0.09747985,0.60397506,-0.9989062,0.3243332,0.86854625,1.0,0.0,0.0,0.0,0.0,0.0,0.0,-2.5993886,0.2057682,-0.6271439,-0.066018105,0.6918669,6.305319,-15.015596,1.4095545,0.15642643,0.10346174
27.02169,60.7385,18.81026,-0.56931734,-1.0948055,0.07947591,0.55791146,-0.81145483,0.77485615,0.13381594,0.08198861,0.657001,0.66126955,-0.45439208,1.3990434,-0.73556405,-1.8656474,-0.8817691,2.2054927,1.3571393,-1.0411838,1.4656416,-0.7992376,-1.8768508,-0.8877736,2.149112,1.2960364,-0.99938387,-1.4543725,1.3827853,0.23018059,0.18853964,0.9346276,0.50279015,-0.36287922,1.9135541,-0.60429573,1.1991409,-3.5825758,0.14734958,2.1745865,0.26211682,-0.5387573,0.8931327,0.7959461,-0.010347493,0.09667326,0.59750885,-0.9409298,0.37944263,0.83643126,1.0,0.0,0.0,0.0,0.0,0.0,0.0,-2.563554,0.20429572,-0.6491409,0.07586479,0.6486654,4.9268064,-12.388143,1.0820627,0.14643669,0.39428473
22.57257,57.851208,17.315882,1.9089665,-0.7972992,-0.013428599,0.45249662,-0.81575865,0.77360684,0.14982072,0.04184423,0.6646744,0.6590507,-0.44415334,1.3840657,-0.7218769,-1.8618687,-0.88358915,2.2155795,1.3619415,-1.0437992,1.4510905,-0.7853893,-1.8742778,-0.8866139,2.1585228,1.3010432,-1.0029601,-1.4555206,1.3856252,0.2666625,0.09108473,0.94407463,0.50080734,-0.35635766,1.8777552,-0.60282326,1.220134,-3.5789938,0.14720227,2.0742266,0.25303775,-0.5347023,0.9013025,0.8003987,-0.017957222,0.095967725,0.5914639,-0.8911087,0.42361823,0.80623394,1.0,0.0,0.0,0.0,0.0,0.0,0.0,-2.5277553,0.20282325,-0.670134,-0.20637512,0.34880638,3.772384,-9.920078,1.0970712,0.099527836,0.50306916
16.05016,56.879562,16.403587,6.7304025,-0.29577935,0.06430718,0.2868545,-0.8184778,0.7724163,0.16847202,0.049125303,0.65849125,0.65680283,-0.41009498,1.3692427,-0.70814764,-1.8574306,-0.88170135,2.224372,1.3667234,-1.0439696,1.4365126,-0.7715343,-1.8713901,-0.88605696,2.167991,1.3060251,-1.0064505,-1.4587646,1.3856258,0.29645902,0.04330242,0.94842803,0.49815217,-0.3470352,1.841992,-0.6013527,1.2401242,-3.5754156,0.14705509,1.973967,0.24433173,-0.53028107,0.9092473,0.8045018,-0.025440557,0.09533514,0.5856968,-0.85766846,0.45767337,0.78615266,1.0,0.0,0.0,0.0,0.0,0.0,0.0,-2.491992,0.20135269,-0.6901242,-0.40900707,0.06902218,3.0454874,-4.9438977,0.6250739,-0.039732456,0.79642534
11.015782,57.217968,16.232527,11.204092,0.16494244,0.20690575,0.15106241,-0.8173796,0.76942015,0.19436914,0.068772405,0.65584743,0.65997124,-0.3937801,1.3547746,-0.6945923,-1.8519531,-0.8791797,2.2335756,1.3720223,-1.0458286,1.4219099,-0.7577032,-1.8681877,-0.88561445,2.1774743,1.3109823,-1.0098418,-1.4611589,1.3824892,0.3282564,0.044085864,0.94944715,0.49537483,-0.3369918,1.8062646,-0.59988403,1.2591126,-3.5718408,0.14690806,1.8738073,0.23584245,-0.52555275,0.917081,0.80836934,-0.032930765,0.09472108,0.5800711,-0.8396112,0.48604643,0.777886,1.0,0.0,0.0,0.0,0.0,0.0,0.0,-2.4562645,0.19988403,-0.7091126,-0.32114983,-0.24433136,3.209108,-0.08050725,0.3203988,-0.120162964,0.8693099
6.4899483,57.27103,15.703144,14.675298,0.46562272,0.29145306,0.021801919,-0.8235956,0.774109,0.19289729,0.08690061,0.65331614,0.66427547,-0.3691967,1.3395504,-0.6802923,-1.8488979,-0.8769244,2.242806,1.3774099,-1.0467615,1.4072596,-0.7438835,-1.8647583,-0.88492113,2.1869538,1.3159148,-1.0131243,-1.4665939,1.3820198,0.34802407,0.07729762,0.94796914,0.49281022,-0.32568324,1.770573,-0.5984154,1.2771001,-3.5682697,0.14676118,1.7737478,0.22744381,-0.52056694,0.92488694,0.81209946,-0.04051926,0.094116114,0.5744516,-0.8331151,0.5105397,0.77684194,1.0,0.0,0.0,0.0,0.0,0.0,0.0,-2.420573,0.19841537,-0.7271001,-0.63426495,0.019431114,1.996839,3.1625748,0.08239746,-0.15524626,0.99850297
7.5435195,57.466026,15.90958,14.308943,0.3846529,0.26163638,0.04281933,-0.82241833,0.774287,0.21473557,0.076666676,0.65032697,0.66594315,-0.35697302,1.3250177,-0.6664548,-1.8432847,-0.8772545,2.2519865,1.3825091,-1.0488217,1.3925673,-0.7300619,-1.8611114,-0.8839131,2.1964028,1.3208262,-1.0162944,-1.4704049,1.3824817,0.37049982,0.10819768,0.944818,0.4908113,-0.31454086,1.7349172,-0.5969486,1.2940879,-3.564702,0.14661445,1.6737884,0.21912904,-0.5153179,0.932682,0.8157002,-0.04823158,0.093534425,0.56882167,-0.82395935,0.53744584,0.7756864,1.0,0.0,0.0,0.0,0.0,0.0,0.0,-2.3849173,0.19694862,-0.7440879,-0.46973228,0.111079216,2.2750318,2.9394522,-0.0901103,-0.093090534,0.9823322
11.879459,53.852573,14.985844,9.716458,-0.073520124,-0.05647236,0.16885307,-0.82716924,0.7714136,0.2214129,0.014302286,0.650658,0.6643339,-0.35982168,1.3098503,-0.65292054,-1.8389701,-0.8824829,2.2614686,1.3872596,-1.0522765,1.3778273,-0.716246,-1.8572662,-0.8829537,2.2058213,1.3257223,-1.0193671,-1.475456,1.3815832,0.38940662,0.09135095,0.9416071,0.4897755,-0.30508867,1.6992968,-0.5954838,1.3100767,-3.5611382,0.14646786,1.573929,0.21103026,-0.50979996,0.9403537,0.8191047,-0.055944376,0.093028806,0.5632791,-0.79789644,0.56462663,0.75949705,1.0,0.0,0.0,0.0,0.0,0.0,0.0,-2.3492968,0.19548377,-0.7600767,-0.58767796,-0.021481514,1.9382298,-1.8341615,-0.12618303,0.08136034,0.8256912
17.626286,52.185074,14.78223,4.6279106,-0.63527393,-0.37028983,0.32301337,-0.8276788,0.7769265,0.23110944,-0.05212776,0.6470831,0.66519773,-0.34614912,1.2950594,-0.6385534,-1.8341552,-0.8881665,2.2705295,1.3922421,-1.053982,1.3630453,-0.70241296,-1.8532436,-0.882556,2.2152016,1.3306147,-1.0223445,-1.4792216,1.3841364,0.4068189,0.022088837,0.9376105,0.4899964,-0.2956822,1.6637121,-0.59401894,1.3250678,-3.5575776,0.14632143,1.4741694,0.20334406,-0.5039921,0.94776297,0.8222184,-0.063493624,0.09268712,0.55797344,-0.7511958,0.59410757,0.72976947,1.0,0.0,0.0,0.0,0.0,0.0,0.0,-2.3137121,0.19401893,-0.77506775,-0.44567585,0.33102036,1.7942905,-7.0639687,-0.22592545,0.29460788,0.8396745
20.905396,49.564434,14.279845,1.4820361,-0.90219694,-0.63103354,0.43293077,-0.82626605,0.77186733,0.24885432,-0.101176664,0.64996463,0.65986484,-0.31572402,1.2804188,-0.62522626,-1.8283582,-0.8926737,2.280198,1.3966012,-1.0539169,1.3482481,-0.6885761,-1.8490169,-0.8830672,2.224559,1.3355108,-1.025215,-1.4801958,1.3838327,0.42810535,-0.07599228,0.935604,0.49044904,-0.28445342,1.6281631,-0.5925579,1.339062,-3.554021,0.14617513,1.3745096,0.19621389,-0.4978981,0.9548103,0.8249718,-0.070759416,0.09253742,0.55303836,-0.6924732,0.6208968,0.6913501,1.0,0.0,0.0,0.0,0.0,0.0,0.0,-2.278163,0.1925579,-0.78906196,-0.14269352,0.055909157,2.1543562,-9.932778,-0.028932095,0.37235618,1.0403514
18.594131,50.639587,14.582624,4.310144,-0.62650776,-0.54624397,0.37243742,-0.822721,0.77381366,0.26451606,-0.0806371,0.6462243,0.6630755,-0.2593365,1.2659761,-0.61119473,-1.8225653,-0.8911309,2.2891815,1.4018184,-1.0511487,1.3334681,-0.67473733,-1.8445518,-0.88431555,2.2338974,1.3404108,-1.0279406,-1.4773916,1.3842288,0.45245898,-0.14148505,0.9335546,0.490873,-0.26891312,1.5926496,-0.5910969,1.3520603,-3.5504675,0.14602898,1.2749494,0.18960206,-0.49155426,0.9615465,0.82738614,-0.07779393,0.09254704,0.5484662,-0.64260733,0.6456772,0.6625404,1.0,0.0,0.0,0.0,0.0,0.0,0.0,-2.2426496,0.19109687,-0.8020603,0.24433136,0.13437271,2.4098039,-6.6652775,0.0052452087,0.32830238,1.4778852
9.928438,50.891945,13.960496,12.010572,0.14301205,-0.27241182,0.11548881,-0.823406,0.77283007,0.25577807,-0.0016514915,0.63822204,0.6672482,-0.22129002,1.2511275,-0.5974543,-1.818974,-0.8844807,2.2977197,1.4071356,-1.0500697,1.3187147,-0.6608995,-1.8399398,-0.8856116,2.2431939,1.3453127,-1.0304965,-1.4747264,1.3839096,0.46384588,-0.1260436,0.929423,0.49052003,-0.25121886,1.5571715,-0.58963776,1.3640639,-3.546918,0.14588298,1.1754887,0.18327628,-0.48499298,0.9681385,0.829604,-0.08479426,0.09265821,0.5440419,-0.6208866,0.6643565,0.652895,1.0,0.0,0.0,0.0,0.0,0.0,0.0,-2.2071714,0.18963775,-0.81406385,0.20580292,0.066161156,1.0770082,1.4036506,-0.1553297,0.1359582,1.6825557
0.2955656,51.353283,13.282501,20.66649,0.9788426,0.07006189,-0.17640576,-0.82499886,0.77324146,0.2413811,0.1002507,0.6272753,0.66229534,-0.17429946,1.2362149,-0.58357537,-1.8158017,-0.8755865,2.3059213,1.4115423,-1.0479264,1.3039747,-0.6470636,-1.835345,-0.8860827,2.2524216,1.3501993,-1.0328559,-1.47407,1.3837347,0.4578309,-0.021445734,0.9218313,0.4882812,-0.23108748,1.5217289,-0.58818054,1.3750734,-3.5433717,0.14573713,1.0761274,0.1769287,-0.47828293,0.97479355,0.83180493,-0.09200419,0.092812054,0.5394642,-0.6309458,0.67892534,0.66437757,1.0,0.0,0.0,0.0,0.0,0.0,0.0,-2.1717288,0.18818054,-0.8250734,-0.036263466,0.07605553,-0.6692171,10.285897,-0.4630685,-0.18618703,1.9046962
-4.6592865,45.37561,10.544438,22.560621,1.2119358,-0.04561001,-0.34099478,-0.8324186,0.7673459,0.19155256,0.12613495,0.62017614,0.66352457,-0.19384237,1.2207329,-0.570329,-1.8161898,-0.87346923,2.3144393,1.4165518,-1.0522401,1.2891985,-0.6332582,-1.8310802,-0.88537604,2.2615616,1.3550631,-1.0350455,-1.4792001,1.3798071,0.4158061,0.100724585,0.91233593,0.4856947,-0.21528906,1.4863218,-0.5867233,1.3850902,-3.539829,0.14559142,0.9768655,0.17040755,-0.47149658,0.98153937,0.8341201,-0.099458374,0.09303728,0.534505,-0.65052646,0.68397766,0.6726469,1.0,0.0,0.0,0.0,0.0,0.0,0.0,-2.1363218,0.18672332,-0.8350902,-0.6361723,-0.3093481,-4.2432604,12.016226,-0.677979,-0.26441813,1.4693856
-1.2847528,41.028137,9.083543,17.81702,0.7233414,-0.40005678,-0.23889808,-0.83417875,0.7687627,0.15643422,0.09153446,0.6107044,0.67169887,-0.14110176,1.2057806,-0.55638194,-1.8154367,-0.8762226,2.322632,1.422233,-1.0491557,1.2743593,-0.61948526,-1.8273952,-0.8838263,2.270591,1.3599116,-1.0370578,-1.4858043,1.3767533,0.35280633,0.1724365,0.9005055,0.48474362,-0.19682117,1.45095,-0.5852699,1.3941152,-3.53629,0.14544587,0.8777028,0.16381964,-0.46468544,0.98824185,0.8365359,-0.10698854,0.09344779,0.5291773,-0.65281117,0.6858728,0.66420645,1.0,0.0,0.0,0.0,0.0,0.0,0.0,-2.10095,0.18526992,-0.8441152,-0.77393055,-0.2297163,-6.3043356,6.9749327,-0.95933676,-0.039613247,1.7473072
4.6700273,37.647614,8.4612465,11.4628315,0.13508397,-0.79195225,-0.03518665,-0.8331343,0.7639863,0.13652831,0.05320357,0.61283654,0.67164737,-0.086694635,1.1910459,-0.54308665,-1.8137424,-0.87850595,2.3318746,1.4270763,-1.0457273,1.2594687,-0.6057571,-1.8243454,-0.8820477,2.279525,1.3647581,-1.0388602,-1.4902363,1.3717791,0.2891801,0.17909943,0.8915353,0.48505247,-0.17516246,1.4156137,-0.5838165,1.4021491,-3.5327544,0.14530045,0.77863926,0.15738113,-0.4578743,0.9947261,0.83894926,-0.11437363,0.094124064,0.52366346,-0.63192075,0.68530977,0.63806057,1.0,0.0,0.0,0.0,0.0,0.0,0.0,-2.0656137,0.18381652,-0.85214907,-0.5314112,-0.42185783,-6.3414693,0.4834354,-0.7194042,0.18107295,2.0768971
9.511386,37.059143,8.915785,7.3067803,-0.24038047,-1.0051917,0.16379307,-0.8327728,0.75972956,0.13080814,0.030869927,0.6128491,0.67328835,0.019566283,1.1761914,-0.52978414,-1.8112645,-0.8789607,2.34081,1.432087,-1.0369036,1.2445551,-0.59209,-1.8218067,-0.88052756,2.2883942,1.3696123,-1.0403861,-1.492013,1.365313,0.24239944,0.14248812,0.88544345,0.48636803,-0.14530951,1.3803127,-0.5823631,1.4091933,-3.5292225,0.14515518,0.67967474,0.15127183,-0.45106697,1.0008835,0.8412407,-0.12147142,0.095079005,0.51818794,-0.5951372,0.6852078,0.60333294,1.0,0.0,0.0,0.0,0.0,0.0,0.0,-2.0303125,0.18236312,-0.85919327,-0.24325848,-0.5674124,-4.645303,-3.8247972,-0.45508146,0.3441751,2.9018223
8.989713,38.702614,9.822348,9.141302,-0.05306673,-0.8795707,0.20399903,-0.83280635,0.75321305,0.13120095,0.07413389,0.59769315,0.67415345,0.16057414,1.1612744,-0.5167687,-1.8086866,-0.87311417,2.3481636,1.4370277,-1.0243287,1.2296377,-0.5785059,-1.8195655,-0.87923056,2.2971718,1.3744799,-1.0415305,-1.492028,1.3563379,0.2180551,0.12497335,0.8761485,0.48749158,-0.10441275,1.345047,-0.58091354,1.4152485,-3.525694,0.14501005,0.5808092,0.1454881,-0.44422913,1.0067552,0.8433532,-0.12833779,0.09626761,0.512852,-0.5641223,0.6882723,0.5769859,1.0,0.0,0.0,0.0,0.0,0.0,0.0,-1.995047,0.18091354,-0.8652485,-0.06904602,-0.81858635,-2.4063528,-1.9085393,-0.75718164,0.29364228,3.996931
0.44098282,37.218422,8.54702,17.01522,0.70503193,-0.60031754,-0.0607569,-0.83326036,0.7457747,0.06586863,0.19533114,0.5652676,0.6774176,0.28365478,1.1463118,-0.5039284,-1.8129786,-0.85969746,2.3536985,1.4422216,-1.013165,1.2147204,-0.5650314,-1.8177421,-0.8774739,2.3057778,1.3793532,-1.0422038,-1.4919097,1.3447617,0.1706263,0.19186634,0.85615623,0.48760667,-0.055324547,1.3098166,-0.57946396,1.4203157,-3.5221689,0.14486507,0.48204252,0.13979118,-0.43737984,1.0125005,0.845392,-0.13517389,0.09766458,0.5074466,-0.5626701,0.68873465,0.56899375,1.0,0.0,0.0,0.0,0.0,0.0,0.0,-1.9598166,0.17946395,-0.87031573,-0.09422302,-1.0873795,-4.7295628,6.4935355,-1.781702,0.069487095,4.794627
-2.108098,29.679285,5.6542015,16.60627,0.76597863,-0.8432144,-0.12885778,-0.83353806,0.72707796,-0.0021161444,0.18242295,0.5400919,0.6760343,0.37091535,1.1313666,-0.4923236,-1.8179537,-0.8592316,2.359787,1.4469566,-1.0051123,1.1998068,-0.55173814,-1.8166339,-0.87505156,2.3141282,1.3842264,-1.0423602,-1.4917126,1.3243864,0.09096563,0.2583303,0.8285426,0.48747692,-0.0027952665,1.2746212,-0.5780163,1.4243962,-3.5186474,0.14472023,0.38337466,0.13409336,-0.43061256,1.018108,0.84743786,-0.14196193,0.09932848,0.5018263,-0.56345415,0.67767525,0.5534859,1.0,0.0,0.0,0.0,0.0,0.0,0.0,-1.9246212,0.17801628,-0.87439615,-0.07426739,-1.9689083,-7.969174,6.433755,-2.556336,0.05326867,5.1442733
-4.8661327,20.23284,1.830533,15.169993,0.7537871,-1.22134,-0.23457287,-0.836427,0.71130556,-0.108362734,0.18537675,0.526226,0.6628642,0.40170774,1.1161641,-0.48060757,-1.8274702,-0.85651386,2.3667507,1.4505129,-1.0021894,1.1848818,-0.5386938,-1.8167121,-0.8720723,2.3221962,1.3890902,-1.0420169,-1.4931202,1.2980027,-0.04079039,0.3103577,0.8000382,0.4861976,0.046388112,1.2394612,-0.5765705,1.4274906,-3.5151296,0.14457554,0.28480542,0.12838863,-0.424078,1.0234696,0.84958553,-0.14852968,0.101363696,0.49585137,-0.56415915,0.649727,0.52605194,1.0,0.0,0.0,0.0,0.0,0.0,0.0,-1.8894612,0.1765705,-0.8774906,-0.21443367,-2.5684595,-13.211052,4.9710393,-2.661872,-0.036996603,4.8260593
-1.8261137,12.830204,-0.063577175,9.567337,0.38644207,-1.6442212,-0.08928106,-0.83538705,0.6776534,-0.14260225,0.13050458,0.49422625,0.6669443,0.45571718,1.1013432,-0.47092843,-1.8309723,-0.85902184,2.371619,1.4557846,-0.9964451,1.1699492,-0.52602327,-1.8180816,-0.86900336,2.3299325,1.3939482,-1.0411948,-1.4934304,1.2570343,-0.16919914,0.30500114,0.7655494,0.4862729,0.09392623,1.2043362,-0.57512474,1.4296,-3.5116153,0.144431,0.18633473,0.122795105,-0.41791725,1.0284207,0.85181797,-0.1546515,0.103818566,0.48960266,-0.5493727,0.609615,0.48093718,1.0,0.0,0.0,0.0,0.0,0.0,0.0,-1.8543361,0.17512473,-0.8796,-0.04644394,-4.0159464,-12.906897,-0.74604154,-3.2962918,0.19251108,4.6788826
7.021443,11.841938,0.8996916,0.7285795,-0.382663,-2.0705967,0.25113332,-0.8315627,0.6554508,-0.14395842,0.005734153,0.48680565,0.6607451,0.47446594,1.086793,-0.4604782,-1.8324775,-0.86842996,2.378613,1.4600227,-0.9937482,1.1550375,-0.5138,-1.8204315,-0.86671644,2.3373597,1.39881,-1.039934,-1.490274,1.2111162,-0.25698075,0.20272134,0.735414,0.48716238,0.13658677,1.1692463,-0.5736828,1.4307255,-3.5081043,0.14428659,0.08796249,0.11759071,-0.4121933,1.0327729,0.85399306,-0.16006306,0.10667351,0.48342142,-0.5028469,0.56518435,0.41663957,1.0,0.0,0.0,0.0,0.0,0.0,0.0,-1.8192463,0.17368278,-0.88072544,0.36783218,-4.4890165,-8.850646,-10.383168,-2.9208302,0.40258765,4.215519
13.845299,15.302669,3.2208607,-4.2088976,-0.9344713,-2.2065878,0.50687516,-0.82681316,0.63370883,-0.12712882,-0.080521524,0.43307588,0.66648644,0.49490786,1.0723562,-0.45042914,-1.8331443,-0.8747686,2.3806672,1.4654586,-0.9904432,1.1401831,-0.5020393,-1.823241,-0.86587816,2.344394,1.403689,-1.0382823,-1.4834445,1.164845,-0.2891227,0.04395317,0.69279075,0.489271,0.17469509,1.1341916,-0.5722408,1.430868,-3.504597,0.14414233,-0.0103114,0.11301914,-0.4068718,1.0364308,0.8559652,-0.16463463,0.109903134,0.4776404,-0.43457574,0.5247321,0.3460842,1.0,0.0,0.0,0.0,0.0,0.0,0.0,-1.7841916,0.17224082,-0.880868,0.77865124,-4.5089006,-3.2950282,-15.9765835,-4.1994452,0.5786896,3.774765
10.388675,18.240301,3.6346083,0.18037343,-0.57027644,-2.0201898,0.3647001,-0.8323334,0.6290872,-0.19445111,-0.07106036,0.43624595,0.6691436,0.50511974,1.0569497,-0.4391306,-1.842686,-0.8729842,2.3880186,1.4706033,-0.9877703,1.125363,-0.49064577,-1.8264282,-0.8663779,2.3510735,1.4085852,-1.0362872,-1.4811742,1.1312042,-0.32880002,-0.081628054,0.6601408,0.49059537,0.2075346,1.099172,-0.5708008,1.4300286,-3.5010931,0.14399822,-0.10848704,0.10902773,-0.40192223,1.0394812,0.8577629,-0.16844256,0.113477215,0.4722211,-0.38070506,0.48785,0.28881338,1.0,0.0,0.0,0.0,0.0,0.0,0.0,-1.749172,0.17080078,-0.88002855,0.284791,-3.2592058,-4.025942,-12.668373,-3.1974316,0.3979981,3.2397537
11.553028,13.981066,2.109978,-3.5551858,-0.8321456,-2.3831172,0.40554464,-0.83403957,0.6095166,-0.25021183,-0.22693346,0.43482623,0.6655088,0.4960019,1.041959,-0.42969412,-1.8514494,-0.8890712,2.394556,1.475136,-0.986687,1.1105467,-0.47955835,-1.8301551,-0.86848265,2.357505,1.4134909,-1.0340117,-1.4814162,1.1016434,-0.38768712,-0.2536543,0.63755244,0.49144426,0.23421192,1.0641873,-0.56936264,1.428208,-3.4975927,0.14385425,-0.20656452,0.105655126,-0.3974247,1.0418655,0.85943156,-0.17134678,0.11740677,0.4671545,-0.31686234,0.4383974,0.21934263,1.0,0.0,0.0,0.0,0.0,0.0,0.0,-1.7141873,0.16936263,-0.878208,0.08883476,-2.8386831,-5.991989,-17.28613,-2.2291303,0.36107898,2.650866
14.963591,16.884928,3.4086742,-6.1427546,-1.2052097,-2.4872956,0.5066952,-0.83042765,0.60406774,-0.24268436,-0.35800564,0.39257613,0.66176075,0.48381284,1.027504,-0.41915157,-1.8544235,-0.9042832,2.3967626,1.479667,-0.98563045,1.095738,-0.46869504,-1.8343399,-0.87256914,2.3636582,1.4184004,-1.0315131,-1.4801428,1.0816886,-0.42917576,-0.46035182,0.60796595,0.49165916,0.2550577,1.0292376,-0.5679245,1.4254075,-3.4940958,0.14371042,-0.30454394,0.10302405,-0.39340973,1.0435251,0.8609513,-0.17322648,0.12172727,0.46253407,-0.24009018,0.39023894,0.14605916,1.0,0.0,0.0,0.0,0.0,0.0,0.0,-1.6792376,0.1679245,-0.8754075,0.2858162,-1.8617153,-4.3051124,-20.712185,-2.932775,0.29290318,2.0926566
15.513191,21.675283,4.860319,-5.038252,-1.3398029,-2.3682377,0.4794865,-0.8320314,0.6095479,-0.25734073,-0.4445231,0.33317414,0.67264223,0.46139547,1.0125349,-0.40774027,-1.8600739,-0.91702145,2.3969755,1.4856646,-0.98537356,1.0809332,-0.45792472,-1.8388679,-0.8787051,2.3693879,1.4233176,-1.0288523,-1.4799756,1.0759467,-0.46119922,-0.6647978,0.5617417,0.49236655,0.26973808,0.99432284,-0.56648827,1.4216279,-3.4906025,0.14356674,-0.4024254,0.10118407,-0.38980675,1.0444888,0.862323,-0.17410028,0.1265062,0.45834938,-0.16112168,0.3494777,0.07771331,1.0,0.0,0.0,0.0,0.0,0.0,0.0,-1.6443229,0.16648826,-0.87162787,0.177598,-0.43275356,-3.3854723,-20.473146,-4.579246,0.29277802,1.4830232
13.081537,25.007944,5.3827543,-1.2011597,-1.1987655,-2.1682317,0.33697185,-0.8286047,0.61738956,-0.3016783,-0.49813712,0.26431245,0.6688377,0.46497658,0.99807274,-0.39618576,-1.8690357,-0.9285188,2.3958192,1.4902014,-0.9823547,1.0661436,-0.44711673,-1.8438022,-0.8866187,2.374511,1.4282347,-1.0260676,-1.4782372,1.0829221,-0.5047933,-0.83361536,0.49592915,0.49195933,0.28139675,0.959443,-0.56505394,1.4168702,-3.4871125,0.1434232,-0.50020903,0.10007845,-0.3865528,1.0448462,0.86359656,-0.17406945,0.13183257,0.4544458,-0.09052908,0.31582785,0.01948751,1.0,0.0,0.0,0.0,0.0,0.0,0.0,-1.609443,0.16505393,-0.8668702,0.30374527,0.83653927,-4.530883,-16.93356,-6.523448,0.11027455,1.1617899
5.587306,16.697777,1.4565787,2.7825541,-0.7364549,-2.2090054,0.049901504,-0.83063525,0.60270816,-0.40364826,-0.54006475,0.17249179,0.66893405,0.4503628,0.9830801,-0.38684592,-1.8841671,-0.94062513,2.39176,1.4951282,-0.98103136,1.0513598,-0.4362849,-1.8495567,-0.8958798,2.3787835,1.4331423,-1.023199,-1.4781086,1.0836362,-0.5991657,-0.9573588,0.40446815,0.49054107,0.2885776,0.924598,-0.5636196,1.4111354,-3.4836261,0.1432798,-0.59789497,0.099526204,-0.38371468,1.0446401,0.8649153,-0.17317463,0.13782506,0.45048442,-0.041182432,0.27083635,-0.036465213,1.0,0.0,0.0,0.0,0.0,0.0,0.0,-1.574598,0.16361961,-0.8611354,0.121593475,0.1767397,-9.515512,-12.471926,-9.16782,-0.08479953,0.6442785
1.4239316,10.843466,-1.088679,4.7567735,-0.9579596,-2.1957695,-0.14770275,-0.82491684,0.58046615,-0.44667962,-0.5825574,-0.17382805,0.6733791,0.4474639,0.9688681,-0.3782383,-1.8942246,-0.95413554,2.3614006,1.5004802,-0.97845256,1.0366007,-0.4255613,-1.8563488,-0.90611273,2.3812325,1.4380385,-1.0202788,-1.4748245,1.068904,-0.70596576,-1.0455477,0.19122083,0.48933598,0.29272553,0.8897878,-0.5621891,1.4044244,-3.4801433,0.14313656,-0.6954832,0.09945405,-0.38133812,1.0438612,0.86637926,-0.17143853,0.1448605,0.4461067,0.005403798,0.22363907,-0.094389744,1.0,0.0,0.0,0.0,0.0,0.0,0.0,-1.5397878,0.1621891,-0.8544244,0.4484415,-1.390028,-10.734773,-8.927321,-21.373627,-0.089138746,0.24203658
-5.8181114,-4.246875,-6.4857035,6.477556,-0.67979276,-2.3405626,-0.34135574,-0.82335806,0.517857,-0.5077424,-0.5963394,-0.47248772,0.67449856,0.42897066,0.9542649,-0.3737756,-1.907123,-0.96574664,2.3339837,1.5054883,-0.97738177,1.0218817,-0.41528738,-1.8642757,-0.9169379,2.3808281,1.4429213,-1.0173453,-1.4703798,1.0136725,-0.8217171,-1.0951067,-0.11824759,0.488036,0.29250336,0.8550124,-0.5607586,1.3967383,-3.4766638,0.14299345,-0.7929738,0.099727,-0.37955666,1.0424542,0.86806464,-0.16885138,0.15323552,0.4409896,0.03480475,0.15898098,-0.15903252,1.0,0.0,0.0,0.0,0.0,0.0,0.0,-1.5050124,0.16075858,-0.8467383,0.6030798,-5.492902,-11.580825,-5.056238,-31.059147,-0.13507605,-0.329566
-13.101398,-21.731012,-12.030308,7.8240523,0.18718871,-2.5214012,-0.3894925,-0.8221958,0.42984352,-0.54324275,-0.6042855,-0.62891805,0.6630328,0.44546545,0.9396621,-0.372303,-1.9186,-0.97736645,2.3179364,1.5092245,-0.97279876,1.0072085,-0.4059533,-1.8732536,-0.92803866,2.3772385,1.4477812,-1.0144118,-1.4655261,0.90657556,-0.9230323,-1.1152222,-0.4395692,0.48535135,0.29222018,0.82027185,-0.55933,1.388078,-3.473188,0.14285049,-0.89036703,0.10008064,-0.37859726,1.0403616,0.8699886,-0.16539161,0.16283402,0.43502933,0.034409426,0.07064384,-0.22899982,1.0,0.0,0.0,0.0,0.0,0.0,0.0,-1.4702718,0.15932998,-0.83807796,0.69892406,-10.743582,-10.108137,-2.0717382,-32.285816,-0.31593442,-0.436759
-17.2927,-28.609257,-13.355345,11.702576,1.3556591,-2.317606,-0.3066441,-0.8128429,0.34205785,-0.5190346,-0.56530523,-0.7040621,0.68009144,0.48734048,0.9259242,-0.3717475,-1.9251571,-0.9845692,2.3068323,1.5157903,-0.96567774,0.9926172,-0.39798582,-1.8828323,-0.93900114,2.3708146,1.4526297,-1.0114516,-1.4564917,0.7599002,-0.96941835,-1.0899758,-0.7105003,0.4843098,0.29590854,0.78556603,-0.5579033,1.3784444,-3.4697154,0.14270768,-0.98766285,0.100194074,-0.37854958,1.0376507,0.87207013,-0.16121787,0.17318363,0.4283803,0.0011169403,-0.021618234,-0.28812546,1.0,0.0,0.0,0.0,0.0,0.0,0.0,-1.435566,0.15790328,-0.8284444,1.0905981,-14.746237,-4.6085477,2.4919987,-27.198494,-0.1794219,-0.04566908
-22.586578,-41.70012,-17.245018,12.5575,2.5008535,-2.4414034,-0.23844506,-0.81535774,0.22429854,-0.54220724,-0.5649717,-0.7200113,0.6842352,0.47026864,0.91108143,-0.37555596,-1.937053,-0.9954983,2.2988133,1.5210532,-0.9644247,0.97809464,-0.39179265,-1.8927085,-0.94963366,2.3623002,1.4574686,-1.0084666,-1.4499829,0.5720093,-0.99377525,-1.0541192,-0.8986188,0.48338285,0.2980911,0.7508949,-0.5564766,1.3678389,-3.4662464,0.142565,-1.0848613,0.099732965,-0.3795662,1.0343453,0.8742713,-0.15638979,0.18368627,0.42124972,-0.06549924,-0.13218716,-0.34757617,1.0,0.0,0.0,0.0,0.0,0.0,0.0,-1.4008949,0.15647659,-0.81783885,0.9027481,-18.918943,-2.432859,3.6289454,-18.921555,-0.23229718,-0.17918348
-27.18333,-63.321674,-23.18225,8.6837225,3.5140731,-2.8859286,-0.038936086,-0.81140685,0.040439676,-0.5142187,-0.5995112,-0.7121389,0.6878657,0.44768718,0.89695394,-0.3877487,-1.9441304,-1.0095848,2.2910862,1.5262552,-0.9636979,0.9636436,-0.38798368,-1.9025505,-0.9600974,2.352527,1.4622961,-1.0054759,-1.4419336,0.31658316,-0.9813795,-1.0431005,-1.0038555,0.481939,0.29814148,0.71625847,-0.5550518,1.356262,-3.4627807,0.14242245,-1.1819626,0.09838136,-0.38194084,1.0303296,0.8765743,-0.15080519,0.1936376,0.41398048,-0.16294907,-0.27555558,-0.42209905,1.0,0.0,0.0,0.0,0.0,0.0,0.0,-1.3662584,0.1550518,-0.80626196,1.2504339,-25.718243,1.0664821,1.3041735,-10.598337,-0.39060712,-0.3456235
-32.444122,-94.243706,-31.746096,0.76902795,4.3950224,-3.6102102,0.24800473,-0.8074291,-0.2092694,-0.45519805,-0.6675679,-0.68454397,0.69408315,0.42724484,0.8829007,-0.40891063,-1.9480703,-1.0268542,2.2840724,1.5317044,-0.9627514,0.94928795,-0.38743722,-1.9119232,-0.9708443,2.3422234,1.4671065,-1.0025004,-1.4311491,-0.0334532,-0.9240052,-1.083819,-1.0392569,0.4790727,0.29639643,0.6816566,-0.5536289,1.3437147,-3.4593186,0.14228006,-1.2789669,0.09582576,-0.38610458,1.0253401,0.878979,-0.14422622,0.20226215,0.4070439,-0.29222164,-0.46529064,-0.5268588,1.0,0.0,0.0,0.0,0.0,0.0,0.0,-1.3316566,0.15362892,-0.7937147,1.7887831,-35.24406,5.3340793,-3.6352396,-3.5871744,-0.75398684,-0.46734214
-24.257061,-86.913765,-25.989985,-2.938561,4.2915816,-3.2437167,0.75085855,-0.7954486,-0.3793908,-0.24330364,-0.7239168,-0.6582616,0.6862419,0.46872804,0.8697431,-0.4253763,-1.9362535,-1.043236,2.2763972,1.5357306,-0.9556276,0.93507344,-0.39056194,-1.9197452,-0.9823027,2.3319123,1.4718748,-0.99950016,-1.4159306,-0.4062508,-0.7366643,-1.1648362,-1.0280694,0.47410157,0.30097267,0.6470893,-0.55220604,1.3301982,-3.4558601,0.14213781,-1.3758742,0.09206855,-0.3920269,1.0192896,0.8813249,-0.13671099,0.20897338,0.4011318,-0.41028696,-0.6337381,-0.6334079,1.0,0.0,0.0,0.0,0.0,0.0,0.0,-1.2970893,0.15220603,-0.78019816,2.175951,-37.50927,18.208075,-7.5834036,1.1590719,-1.1173964,0.3906846
-16.698174,-67.26554,-17.999878,-1.5776643,3.9886434,-2.518434,0.96839494,-0.7837894,-0.5185371,-0.11951458,-0.7450905,-0.6156225,0.69567,0.4901859,0.8566945,-0.44241565,-1.9316967,-1.0568118,2.27035,1.5414418,-0.9504816,0.92103535,-0.39721,-1.9252365,-0.99459845,2.321952,1.4766012,-0.9964274,-1.3981671,-0.75169796,-0.48844305,-1.2495345,-0.9849039,0.46986878,0.30969572,0.6125566,-0.550787,1.3157133,-3.452405,0.1419957,-1.4726846,0.08726573,-0.3993435,1.0122705,0.8834683,-0.1285348,0.21353896,0.39669102,-0.51088953,-0.76155853,-0.727445,1.0,0.0,0.0,0.0,0.0,0.0,0.0,-1.2625566,0.15078697,-0.7657133,2.2883892,-34.76267,24.295443,-7.989192,4.371965,-1.0926247,0.9898603
-7.772648,-37.76022,-8.044621,1.8040901,3.1936746,-1.6890908,0.988924,-0.7484672,-0.60938656,-0.05493344,-0.76640546,-0.6088167,0.6769952,0.51280695,0.8461886,-0.45814866,-1.9307299,-1.071239,2.2610705,1.5443008,-0.94514674,0.9072948,-0.40677202,-1.9283493,-1.0076592,2.3124497,1.48128,-0.9932488,-1.3648298,-1.0249243,-0.25398085,-1.3237126,-0.9387628,0.46555656,0.32141152,0.5780584,-0.5493679,1.300261,-3.4489532,0.14185373,-1.5693983,0.08169976,-0.40758705,1.0044557,0.8853288,-0.119981006,0.21614265,0.3938016,-0.5786969,-0.8394285,-0.8027538,1.0,0.0,0.0,0.0,0.0,0.0,0.0,-1.2280583,0.1493679,-0.750261,3.6880255,-27.49102,22.94109,-7.0446253,4.682052,-0.9840846,1.405108
9.42577,13.46361,11.556363,9.295609,2.169652,-0.08300215,1.1406306,-0.7282174,-0.6524142,0.22820868,-0.7601653,-0.626326,0.67843115,0.52255917,0.8344731,-0.47201344,-1.9055284,-1.0836757,2.2498171,1.549123,-0.9409929,0.89392906,-0.41833484,-1.928416,-1.0212243,2.3032906,1.4859473,-0.9899434,-1.3264245,-1.2001052,0.073272705,-1.3667521,-0.9071343,0.46683353,0.33512607,0.5435947,-0.54795074,1.2838423,-3.445505,0.1417119,-1.6660151,0.075875714,-0.41596222,0.9962381,0.8866998,-0.11164896,0.21712384,0.39262593,-0.5897864,-0.8288093,-0.83161294,1.0,0.0,0.0,0.0,0.0,0.0,0.0,-1.1935947,0.14795074,-0.7338423,4.0524006,-17.525791,31.966125,-4.138851,3.4704685,0.058311224,1.8177748
9.199122,26.869118,14.189903,13.939716,2.0587947,0.21214712,0.82847935,-0.70065284,-0.7257483,0.21506286,-0.75749826,-0.53291994,0.6497786,0.42824125,0.8238638,-0.49090967,-1.9069097,-1.0969741,2.2499986,1.5509251,-0.94711924,0.8810001,-0.4312266,-1.9258964,-1.0350068,2.2946312,1.4906183,-0.9865836,-1.2808801,-1.3187876,0.30884445,-1.3815427,-0.85126686,0.46751204,0.33781826,0.5091655,-0.5465355,1.2664583,-3.4420602,0.14157023,-1.7625355,0.06997363,-0.42412186,0.9878569,0.8876217,-0.10379695,0.21676356,0.39289603,-0.5952271,-0.80204487,-0.84350365,1.0,0.0,0.0,0.0,0.0,0.0,0.0,-1.1591655,0.14653549,-0.71645826,4.79815,-11.843085,22.781525,-1.3342142,5.8709383,0.15866756,0.715667
8.187994,41.546818,16.830751,18.969376,1.8457538,0.5308711,0.50504506,-0.68907917,-0.73204124,0.2399885,-0.7503013,-0.49070048,0.65363324,0.39787456,0.8120922,-0.5044307,-1.9018975,-1.1100368,2.2455611,1.5559816,-0.9467961,0.86848503,-0.44480693,-1.921706,-1.0487702,2.286586,1.4953104,-0.98323333,-1.24072,-1.3709033,0.4530575,-1.374078,-0.78833157,0.47064096,0.33541355,0.47477072,-0.54512024,1.2481097,-3.438619,0.14142868,-1.8589593,0.064055406,-0.4318905,0.97947437,0.8882186,-0.096489236,0.21542302,0.39414507,-0.5943234,-0.75810146,-0.8391582,1.0,0.0,0.0,0.0,0.0,0.0,0.0,-1.1247706,0.14512023,-0.6981097,4.3094635,-5.1404953,13.617015,0.9012699,6.563151,0.59499145,0.18531084
-0.44104266,35.31611,10.565359,20.54504,1.8002107,0.13356191,0.06830594,-0.66571707,-0.75355995,0.12539929,-0.74506086,-0.48876303,0.65530604,0.36487383,0.8019133,-0.52016294,-1.909166,-1.1232762,2.2377098,1.5608411,-0.94674593,0.8563667,-0.4586624,-1.9172771,-1.0623734,2.2790635,1.5000292,-0.979946,-1.2012899,-1.3902848,0.43736112,-1.3549408,-0.7402995,0.47311926,0.32754987,0.44041032,-0.5437069,1.2287976,-3.435181,0.14128728,-1.9552867,0.058036998,-0.4393711,0.9710649,0.8886979,-0.089496635,0.2135295,0.39574167,-0.6071778,-0.73390484,-0.84369844,1.0,0.0,0.0,0.0,0.0,0.0,0.0,-1.0904102,0.14370689,-0.67879754,4.2322397,-1.900816,-2.1486223,2.1469831,4.908633,0.45476556,-0.4957199
-13.560942,17.077682,-1.1890082,19.551178,1.8591098,-0.67992365,-0.381288,-0.64787805,-0.76407915,-0.10335901,-0.75387657,-0.47948682,0.648494,0.38274312,0.7915789,-0.5350703,-1.927613,-1.1377611,2.2311149,1.5648786,-0.9416717,0.8446165,-0.4725846,-1.9145,-1.0758259,2.2719033,1.5047537,-0.97673213,-1.1654738,-1.393076,0.22385821,-1.340791,-0.7084704,0.47199565,0.3197047,0.40608424,-0.54229546,1.2085229,-3.4317465,0.14114602,-2.0515175,0.051687583,-0.44691086,0.96239716,0.8893334,-0.08228523,0.21150023,0.39696693,-0.6465995,-0.749986,-0.87640786,1.0,0.0,0.0,0.0,0.0,0.0,0.0,-1.0560842,0.14229545,-0.6585229,3.8435936,-0.3354311,-21.564543,1.7673492,3.0187607,-0.16757846,-0.68371296
-22.884552,2.8823843,-10.141491,17.908947,1.6884371,-1.2652433,-0.6646621,-0.62660605,-0.76887226,-0.3112403,-0.7505444,-0.56304145,0.65301543,0.4268048,0.78195584,-0.54947186,-1.945624,-1.1508803,2.215599,1.5700552,-0.93405163,0.83322006,-0.48648965,-1.9148815,-1.0891564,2.2646897,1.5094553,-0.973565,-1.1301782,-1.3901274,-0.12539494,-1.3291487,-0.7267821,0.4685879,0.31551474,0.3717925,-0.540884,1.1872867,-3.4283154,0.1410049,-2.1476521,0.04482165,-0.45482826,0.95320064,0.890317,-0.07433347,0.20974776,0.39726067,-0.7021204,-0.7942862,-0.9365611,1.0,0.0,0.0,0.0,0.0,0.0,0.0,-1.0217924,0.14088401,-0.6372867,3.7992477,0.14960766,-34.889812,1.6185284,-2.2041082,-0.6333828,-0.48550367
-25.350971,-1.6906452,-12.715069,16.22231,1.5843176,-1.3693515,-0.65097624,-0.61793196,-0.77953076,-0.43019882,-0.7601497,-0.58768004,0.6434146,0.47273767,0.77142686,-0.56444275,-1.9579014,-1.1651714,2.2059216,1.5737967,-0.9262912,0.8221231,-0.5004004,-1.9188793,-1.1024544,2.2571404,1.5141073,-0.97039974,-1.1017442,-1.3920592,-0.49085096,-1.3281853,-0.7658542,0.46289814,0.31640756,0.33753505,-0.5394764,1.1650898,-3.424888,0.14086393,-2.2436907,0.037364133,-0.46322823,0.9432991,0.8916792,-0.06536718,0.20842578,0.396477,-0.7627448,-0.84443176,-1.0114075,1.0,0.0,0.0,0.0,0.0,0.0,0.0,-0.987535,0.13947639,-0.61508983,3.1740189,-0.39298534,-36.480434,0.6108999,-4.3586135,-0.98819137,-0.03772378
-23.857502,5.8867416,-8.955976,17.161047,1.7035234,-0.84745383,-0.49088183,-0.6480139,-0.776958,-0.46600124,-0.770314,-0.56010306,0.64575195,0.48135903,0.7573217,-0.5780962,-1.9654794,-1.1794858,2.2011302,1.5786825,-0.92226386,0.81108147,-0.51432407,-1.9258754,-1.1158211,2.2492974,1.5187098,-0.9672116,-1.1035901,-1.3930807,-0.7695289,-1.3377525,-0.79210204,0.45815608,0.31937832,0.30331188,-0.5380688,1.1419333,-3.4214637,0.1407231,-2.3396332,0.029307306,-0.47197914,0.9327073,0.8933332,-0.055458732,0.20740882,0.3947932,-0.8228453,-0.8738293,-1.0797104,1.0,0.0,0.0,0.0,0.0,0.0,0.0,-0.95331186,0.13806877,-0.5919333,0.2371788,-0.31058788,-27.946007,-0.43230057,-3.049612,-0.85709095,0.2198577
-17.502514,22.092968,-0.08010721,19.337742,1.8138847,0.019834995,-0.2223773,-0.669832,-0.7754775,-0.43401265,-0.7670339,-0.53074956,0.6420782,0.48772815,0.74409825,-0.5918718,-1.9692767,-1.1925246,2.1962223,1.5829176,-0.9184388,0.79983956,-0.52824676,-1.9345672,-1.1292813,2.2413552,1.523276,-0.96398246,-1.1296363,-1.3925548,-0.9031986,-1.3472216,-0.79602385,0.4554613,0.32425675,0.26912293,-0.53666115,1.1178181,-3.418043,0.1405824,-2.4354799,0.020744663,-0.48076057,0.9216158,0.8951143,-0.044966254,0.20643242,0.3925992,-0.870796,-0.8672917,-1.1245184,1.0,0.0,0.0,0.0,0.0,0.0,0.0,-0.91912293,0.13666114,-0.5678181,-2.1906137,-0.11284351,-13.603663,-0.50394535,-0.70068836,-0.48300624,0.5301535
-16.39842,30.132452,4.0241594,21.414831,2.1463985,0.5441198,-0.12875268,-0.7038072,-0.7759074,-0.4754296,-0.7699262,-0.46501124,0.6254315,0.45080507,0.7294588,-0.6058375,-1.9821101,-1.2062739,2.194854,1.5858191,-0.918902,0.7881647,-0.5421628,-1.9440067,-1.142833,2.2336342,1.5278116,-0.96073043,-1.1787883,-1.39172,-0.9585737,-1.3563623,-0.7649657,0.45260876,0.32600385,0.23496813,-0.53525734,1.0927451,-3.4146256,0.14044185,-2.5312307,0.011694523,-0.48933983,0.9101946,0.89694077,-0.03418782,0.20521903,0.39014554,-0.9200941,-0.8418202,-1.1538036,1.0,0.0,0.0,0.0,0.0,0.0,0.0,-0.8849681,0.13525733,-0.54274505,-4.4944525,-0.068855286,-5.8517694,-0.49774647,2.8426409,-0.41906238,0.30284524
-18.285994,32.556572,4.746599,22.840143,2.4933772,0.78695345,-0.14630394,-0.7386804,-0.7747348,-0.53463566,-0.7738623,-0.39144275,0.6090325,0.40883785,0.71429664,-0.61963624,-1.9974703,-1.2202193,2.19449,1.5887148,-0.91984665,0.7758871,-0.55606544,-1.9538333,-1.1564686,2.2264664,1.5323111,-0.95749366,-1.2425939,-1.3902768,-0.9917405,-1.3645629,-0.7017354,0.44867104,0.32344127,0.20084748,-0.53385353,1.0667152,-3.4112117,0.14030144,-2.6268857,0.0020909198,-0.4976158,0.89853245,0.8988209,-0.023261404,0.20355697,0.3874848,-0.9773499,-0.8094275,-1.1763241,1.0,0.0,0.0,0.0,0.0,0.0,0.0,-0.8508475,0.13385352,-0.5167152,-5.9463263,-0.01692772,-3.644979,-0.39083958,6.0573816,-0.5238414,-0.08367896
-17.788982,36.620216,6.31266,23.568493,2.347112,1.0015911,-0.18311083,-0.7559033,-0.7699287,-0.56609976,-0.75942236,-0.448595,0.6262064,0.3642685,0.70029676,-0.6330583,-2.0104432,-1.2324109,2.181607,1.5949317,-0.9210668,0.76300293,-0.5699328,-1.9639404,-1.1700947,2.2197106,1.5367895,-0.9543189,-1.3024058,-1.3859812,-1.0181563,-1.3607426,-0.6673307,0.44720045,0.31595784,0.16676095,-0.5324516,1.0397296,-3.4078012,0.14016116,-2.722445,-0.008042097,-0.50551605,0.8866798,0.90074664,-0.012269114,0.20150079,0.38458067,-1.0289458,-0.7690414,-1.1941729,1.0,0.0,0.0,0.0,0.0,0.0,0.0,-0.8167609,0.13245162,-0.48972958,-5.5864573,0.27663708,-2.945447,0.7902384,3.1994581,-0.2458036,-0.5922675
-18.005478,35.62793,5.5223403,22.521608,2.1425164,0.94334733,-0.21764478,-0.7681523,-0.7724347,-0.6290703,-0.75860465,-0.47223788,0.62238884,0.33691567,0.6861877,-0.64717627,-2.0268474,-1.2459552,2.1724868,1.5990285,-0.9206273,0.74962,-0.58377254,-1.9745014,-1.1836579,2.213115,1.5412527,-0.9512404,-1.349133,-1.3837907,-1.069809,-1.3533885,-0.65797126,0.44546062,0.30562347,0.1327085,-0.53105164,1.0117891,-3.4043941,0.14002103,-2.8179088,-0.018668588,-0.5130329,0.87460333,0.90271205,-0.0011705401,0.19917384,0.3813651,-1.0774237,-0.73118144,-1.2178347,1.0,0.0,0.0,0.0,0.0,0.0,0.0,-0.78270847,0.13105163,-0.46178907,-4.313302,0.0590086,-5.412531,1.1521101,0.6859422,-0.31285882,-0.9128213
-14.9968815,36.830463,6.5815105,20.574005,1.8170846,0.9259043,-0.17955543,-0.7694858,-0.77459264,-0.657571,-0.76070356,-0.48539114,0.6178146,0.2701565,0.67267144,-0.6612318,-2.0402584,-1.2597282,2.1645758,1.6030341,-0.9242248,0.7359186,-0.5976094,-1.9856384,-1.1971619,2.206485,1.5456969,-0.9483088,-1.3761014,-1.38407,-1.1290002,-1.3479486,-0.6651886,0.4434599,0.2893398,0.09869009,-0.52965164,0.9828947,-3.4009905,0.13988103,-2.9132771,-0.02970243,-0.52017593,0.8622564,0.90468717,0.010077293,0.19665606,0.37784386,-1.1153399,-0.69322777,-1.2458097,1.0,0.0,0.0,0.0,0.0,0.0,0.0,-0.74869007,0.12965164,-0.4328947,-2.400899,-0.1764059,-6.120777,0.9338856,-0.9493232,-0.34942627,-1.5246332
-13.2197895,38.44338,7.815693,19.795542,1.7559602,1.0077045,-0.15552157,-0.7837643,-0.77995443,-0.6672866,-0.75499874,-0.46226016,0.6054101,0.17474388,0.65754217,-0.6756048,-2.052367,-1.2726618,2.160259,1.6062379,-0.9308344,0.72200924,-0.6114806,-1.9972942,-1.2106011,2.1998208,1.5501143,-0.94560134,-1.394942,-1.3885894,-1.1781749,-1.3413324,-0.66739595,0.4404827,0.26502213,0.0647057,-0.52825356,0.9530474,-3.3975902,0.13974117,-3.0085502,-0.041084047,-0.52693176,0.84963715,0.9066535,0.02144301,0.1939169,0.37405306,-1.1486745,-0.6529046,-1.2727836,1.0,0.0,0.0,0.0,0.0,0.0,0.0,-0.7147057,0.12825355,-0.40304738,-1.6284227,-0.59239864,-5.099535,1.0329485,-0.4238367,-0.4428327,-2.3144007
-11.599181,40.305134,9.173056,19.24864,1.7225839,1.1203569,-0.13917622,-0.7933873,-0.7864114,-0.6769256,-0.74924356,-0.44840193,0.6016328,0.062212944,0.6426705,-0.6901217,-2.0649867,-1.2855254,2.1549807,1.6102775,-0.93938005,0.7079492,-0.6254271,-2.0093334,-1.2239621,2.1931832,1.5545012,-0.9432038,-1.4089798,-1.3971542,-1.2131162,-1.3333694,-0.6628331,0.43753058,0.23171224,0.03075528,-0.5268574,0.92224795,-3.3941932,0.13960145,-3.1037278,-0.0527691,-0.53325653,0.83676606,0.9086023,0.032861628,0.19089384,0.37002906,-1.1778042,-0.609464,-1.2974318,1.0,0.0,0.0,0.0,0.0,0.0,0.0,-0.68075526,0.12685737,-0.37224793,-1.1810303,-0.98786354,-3.6667824,1.1496305,0.2801776,-0.42741895,-3.1951933
-12.283313,42.776043,9.841104,20.129887,1.7478578,1.2729284,-0.2121415,-0.8071295,-0.7836658,-0.70424867,-0.7280273,-0.46613765,0.6032255,-0.07172672,0.62723625,-0.7037937,-2.0797582,-1.2967649,2.1465695,1.6148237,-0.95037645,0.6937385,-0.63943756,-2.021712,-1.2371628,2.1865456,1.5588633,-0.9412173,-1.4244853,-1.4028211,-1.2467277,-1.3144861,-0.66436094,0.43523496,0.18808211,-0.003161203,-0.5254612,0.89049745,-3.3907998,0.13946189,-3.1988106,-0.064745024,-0.53912544,0.8236836,0.91054744,0.044273973,0.18760884,0.36571318,-1.2063617,-0.56193286,-1.3172249,1.0,0.0,0.0,0.0,0.0,0.0,0.0,-0.6468388,0.12546119,-0.34049743,-1.3431787,-0.7000208,-3.508997,2.2346497,-0.32379627,-0.3499806,-4.2356014
-12.186957,48.030502,11.767274,21.967596,1.7026114,1.5283833,-0.2852161,-0.8140906,-0.7764077,-0.7144221,-0.6874806,-0.52273476,0.6238121,-0.16581799,0.6123295,-0.7170783,-2.0931542,-1.305911,2.134272,1.6212444,-0.9577991,0.67937714,-0.65345085,-2.034373,-1.2500069,2.179721,1.5632235,-0.9397057,-1.4394075,-1.4012358,-1.2729033,-1.2733587,-0.6891156,0.43592417,0.13914582,-0.037043773,-0.52406883,0.85779685,-3.3874097,0.13932246,-3.2937982,-0.07697579,-0.54446983,0.8104837,0.91249245,0.05558636,0.18420109,0.3610229,-1.2300783,-0.5071863,-1.3261129,1.0,0.0,0.0,0.0,0.0,0.0,0.0,-0.6129562,0.12406883,-0.30779684,-1.3186216,0.033068657,-2.7279139,4.423094,-2.6297808,-0.0019669533,-4.792735
-12.368797,51.2557,12.910905,23.138845,1.7746491,1.6802932,-0.33205438,-0.82133657,-0.7740218,-0.72645855,-0.6551972,-0.5205956,0.61951494,-0.26412067,0.5972435,-0.730853,-2.107019,-1.3155266,2.1276615,1.625175,-0.9661178,0.66487175,-0.66742027,-2.047263,-1.2623322,2.1726563,1.5675894,-0.9387139,-1.4538472,-1.3959025,-1.2943598,-1.2178869,-0.71296376,0.43673244,0.086121194,-0.07089247,-0.52267647,0.8241471,-3.384023,0.13918316,-3.388691,-0.08943999,-0.5492401,0.7972537,0.9144468,0.06671894,0.1807422,0.35590437,-1.2527751,-0.44939873,-1.3268759,0.0,1.0,0.0,0.0,0.0,0.0,0.0,-0.5791075,0.12267646,-0.2741471,-1.2964249,0.40988922,-2.22013,5.8351755,-2.5340319,0.03015995,-5.2065477
-12.431567,51.044724,12.921708,22.846277,1.8861215,1.6909952,-0.32547158,-0.826692,-0.78194034,-0.73791003,-0.6313903,-0.48659685,0.6037656,-0.3458873,0.58220255,-0.7456143,-2.121054,-1.3254713,2.1239965,1.6279659,-0.97330266,0.6503202,-0.6813316,-2.061139,-1.2744305,2.165989,1.5736159,-0.9380772,-1.4552482,-1.3906041,-1.4115227,-1.2025255,-0.6639135,0.63557833,0.051902942,-0.088119015,-0.52259254,0.82172674,-1.3967278,0.014813362,0.5305689,-0.10231678,-0.5533085,0.7837826,0.9164075,0.07719272,0.1771753,0.35049587,-1.2964772,-0.3761036,-1.3566735,0.0,1.0,0.0,0.0,0.0,0.0,0.0,-0.56188095,0.12259254,-0.27172673,-0.8477688,-0.18589497,-2.1660805,6.454611,-0.74476004,-0.7247448,-5.145313
71.95143,176.0,110.0,110.0,4.3468366,14.735495,-1.6373562,-0.8080078,0.40259567,0.71667707,0.7029276,-0.23113672,0.63776565,-0.42963707,0.5695194,-0.64107203,-1.9894714,-1.2041378,2.1428752,1.6373925,-0.9810409,0.64019597,-0.6975431,-2.0699205,-1.2741368,2.153862,1.5903529,-0.9384253,-0.8633297,-1.6762146,-0.7299084,0.42870608,-1.3654144,2.041034,-0.05208185,-0.102075815,-0.5224438,0.826292,-1.3953313,0.014798552,0.4318525,-0.114307985,-0.55470467,0.7743493,0.91822547,0.07709729,0.17761372,0.3455014,-1.1651418,-0.042637855,-0.8085523,1.0,0.0,0.0,0.0,0.0,0.0,0.0,-0.54792416,0.122443765,-0.27629197,59.6614,-22.005726,59.197437,159.72226,-61.14347,146.92647,-6.89881
8.839865,176.0,84.79446,103.33679,6.97185,7.4612684,-1.6153734,-0.7920708,-0.6116247,0.27840006,0.7605015,-0.58588094,0.6764129,-0.30978414,0.5609889,-0.75870556,-2.0420806,-1.1980866,2.095274,1.6579942,-0.96940374,0.6314422,-0.71430486,-2.0709467,-1.2627938,2.138813,1.6103915,-0.9396002,-0.8775437,-1.6762143,0.10681287,1.3703038,-1.5542673,2.0001745,-0.13597365,-0.11601867,-0.522295,0.8298708,-1.3939362,0.014783757,0.3332348,-0.12576301,-0.55389786,0.7698957,0.9203524,0.06927752,0.18055066,0.33993173,-1.1349789,0.1318819,-0.32974145,1.0,0.0,0.0,0.0,0.0,0.0,0.0,-0.5339813,0.12229499,-0.2798708,-0.8628249,0.00019073486,83.72037,94.37906,-19.753742,-1.5379429,-7.407048
-7.8770247,161.17128,58.984627,72.74586,5.065623,4.5546546,-0.9377612,-0.7463612,-0.6031983,0.2140725,0.66447884,-0.6872875,0.6584297,0.24396546,0.5568061,-0.7746247,-2.0495393,-1.1963459,2.0700843,1.6762345,-0.9152037,0.62186635,-0.72965235,-2.0665903,-1.2460301,2.1237144,1.6292094,-0.9407122,-0.9814834,-1.4884849,0.5442228,1.7800578,-1.4978352,1.8477374,-0.10138306,-0.12994757,-0.5221462,0.8324642,-1.3925425,0.014768977,0.23471567,-0.13704763,-0.55163765,0.7688881,0.92270344,0.05828929,0.1843855,0.33350044,-1.1247225,0.26399833,-0.032145012,1.0,0.0,0.0,0.0,0.0,0.0,0.0,-0.52005243,0.12214622,-0.2824642,-9.575474,18.500637,43.371094,41.456295,4.8066854,-13.610411,3.9137661
-5.6320214,127.26656,44.012825,44.400326,3.1911712,2.6392665,-0.18273932,-0.7209236,-0.64317197,0.47777736,0.71374786,-0.6629046,0.615021,0.24652514,0.549774,-0.7939695,-2.0188127,-1.1746553,2.057424,1.6907115,-0.9160597,0.6109973,-0.74316305,-2.0586596,-1.2278473,2.1098785,1.6460952,-0.9413979,-1.1201458,-1.3059475,0.8740394,1.8319095,-1.347552,1.6393422,-0.05683343,-0.14386256,-0.52199745,0.8340731,-1.3911502,0.0147542115,0.13629505,-0.14809586,-0.5483303,0.7698478,0.92503667,0.04627489,0.18820167,0.32671985,-1.0994377,0.35945594,0.13021994,1.0,0.0,0.0,0.0,0.0,0.0,0.0,-0.50613743,0.121997446,-0.2840731,-13.31346,18.033527,32.517387,5.4709435,14.418197,-19.739628,4.7094984
-3.0898843,80.24778,24.826029,19.87083,1.4874085,0.6750966,0.30270284,-0.70072055,-0.6768433,0.49158525,0.69055384,-0.6627978,0.5945554,0.2570237,0.54092526,-0.8108474,-2.009501,-1.1587919,2.0435987,1.7055507,-0.91569555,0.5990344,-0.755372,-2.0487757,-1.2106888,2.0975723,1.6609896,-0.9416449,-1.221092,-1.19291,1.0252674,1.6774867,-1.1925608,1.4417459,-0.013814058,-0.15776363,-0.5218487,0.83469856,-1.3897594,0.01473946,0.037972838,-0.1588854,-0.5444851,0.7714275,0.92721784,0.03463346,0.19141832,0.32004145,-1.0746831,0.40023974,0.15967256,1.0,0.0,0.0,0.0,0.0,0.0,0.0,-0.49223635,0.12184867,-0.28469855,-9.910536,11.187673,14.777708,-15.361762,15.217972,-19.083904,4.383576
3.1052494,54.293247,15.647458,7.9799275,0.4492547,-0.4582253,0.47936362,-0.66940016,-0.6648011,0.50545067,0.70227605,-0.6751241,0.5869762,0.22930124,0.5320944,-0.8218521,-1.9982306,-1.1404612,2.0300598,1.7196872,-0.91871476,0.5865365,-0.76687425,-2.0382433,-1.1953976,2.0865173,1.6740931,-0.9415333,-1.259327,-1.136229,1.062054,1.4798765,-1.0770211,1.2681844,0.019541897,-0.17165081,-0.5216999,0.8343416,-1.38837,0.014724723,-0.060251076,-0.16938631,-0.5405121,0.77282125,0.92920655,0.02405187,0.19390805,0.31368196,-1.0445954,0.40314224,0.12639433,1.0,0.0,0.0,0.0,0.0,0.0,0.0,-0.47834915,0.1216999,-0.28434157,-3.8523912,5.5924416,3.5343409,-19.765854,11.3585,-16.909838,3.328545
2.7640352,35.810314,8.193761,4.459807,0.24903339,-1.1402247,0.4040586,-0.65677255,-0.6706848,0.47372872,0.7016427,-0.6697811,0.5756092,0.20279431,0.52085924,-0.8339427,-1.9908705,-1.1252333,2.019539,1.731654,-0.9212539,0.57400143,-0.7781772,-2.0280008,-1.1818135,2.0763168,1.6856555,-0.94115376,-1.2518617,-1.1284726,1.0113615,1.3179328,-1.0013671,1.1198817,0.04398526,-0.1855241,-0.52155113,0.83300304,-1.3869818,0.014710001,-0.15837678,-0.1796864,-0.53670883,0.7736453,0.9310468,0.014767993,0.19574493,0.30759993,-1.027555,0.3804148,0.062662974,1.0,0.0,0.0,0.0,0.0,0.0,0.0,-0.46447587,0.121551126,-0.28300303,0.6696224,0.73165894,-5.1424503,-16.178917,7.4528933,-14.537001,2.4313986
2.8874545,28.322548,5.596695,4.977423,0.33383232,-1.3741462,0.28066286,-0.6349862,-0.68242425,0.45558754,0.6924337,-0.66635513,0.57664025,0.1589817,0.5105028,-0.84641963,-1.982442,-1.11257,2.0096812,1.7433195,-0.9252556,0.5617839,-0.7896432,-2.0185175,-1.1693985,2.0666237,1.6959208,-0.94060063,-1.2119534,-1.1527096,0.9271918,1.2160866,-0.9592939,0.9958757,0.059182566,-0.19938353,-0.52140236,0.830684,-1.3855951,0.014695293,-0.2564044,-0.18988882,-0.5332012,0.7737936,0.9328011,0.0067267967,0.19705369,0.30167294,-1.019646,0.34718716,-0.0052886037,1.0,0.0,0.0,0.0,0.0,0.0,0.0,-0.45061645,0.12140235,-0.280684,3.9237976,-2.4595976,-8.4345455,-10.120344,4.1045547,-12.200403,1.5276529
5.844332,26.252527,5.8312974,5.4586196,0.35759217,-1.4562545,0.21983546,-0.58903927,-0.70408756,0.42752305,0.67786336,-0.6601382,0.58450395,0.13955373,0.50288,-0.860052,-1.9757652,-1.1016122,2.0006099,1.7543712,-0.9266453,0.5501901,-0.801506,-2.0099306,-1.1576207,2.0571861,1.7051104,-0.9399369,-1.1420646,-1.1975313,0.8364743,1.165204,-0.9390371,0.89360654,0.068797156,-0.21322909,-0.5212555,0.8273854,-1.3842098,0.014680601,-0.354334,-0.20002177,-0.53006554,0.77328444,0.93450224,-0.00025461116,0.19794293,0.2958444,-1.0125948,0.3090511,-0.069646396,0.0,1.0,0.0,0.0,0.0,0.0,0.0,-0.4367709,0.12125549,-0.2773854,6.9179535,-4.524684,-9.005094,-4.9923897,1.886034,-10.093665,0.98436177
2.7971268,25.09617,4.9849396,7.6895304,0.63834965,-1.3650379,0.10104927,-0.5738894,-0.7288269,0.3851069,0.6683001,-0.655577,0.584474,0.11127547,0.49280116,-0.8743887,-1.9714199,-1.0907906,1.9916284,1.7635578,-0.92880934,0.5392848,-0.81388944,-2.0022478,-1.1460888,2.0478592,1.7134112,-0.9392159,-1.0734191,-1.2520981,0.7456087,1.1497899,-0.93088436,0.80923736,0.073451355,-0.2270608,-0.52111053,0.8231083,-1.3828259,0.014665923,-0.4521657,-0.21016216,-0.5272865,0.77216697,0.93619,-0.0063476213,0.19848849,0.29001758,-1.0158775,0.27367502,-0.12918562,0.0,1.0,0.0,0.0,0.0,0.0,0.0,-0.42293918,0.12111053,-0.2731083,6.833935,-5.498004,-9.041012,-1.3937235,0.7040143,-8.332777,0.5210608
-2.8016498,23.284054,2.866236,9.614576,0.8774647,-1.289204,-0.010974161,-0.5612579,-0.7522072,0.3064182,0.65427655,-0.65481293,0.58863133,0.10151714,0.48315904,-0.88911015,-1.971606,-1.0806612,1.9823779,1.7722744,-0.92906415,0.5289632,-0.8268232,-1.9956102,-1.1346047,2.0385628,1.7209834,-0.9384663,-1.0182877,-1.3073521,0.63627756,1.1484553,-0.9289141,0.7402375,0.07578775,-0.24087867,-0.5209656,0.81784564,-1.3814434,0.01465126,-0.5509648,-0.22043127,-0.5248356,0.7704383,0.9379079,-0.011595142,0.19876663,0.28405285,-1.031749,0.24183013,-0.19095486,0.0,1.0,0.0,0.0,0.0,0.0,0.0,-0.4091213,0.12096557,-0.26784563,5.524683,-5.5626154,-10.95401,0.06868839,0.15296936,-6.809604,0.3114432
2.3041983,22.245617,2.619872,6.4882174,0.3929519,-1.4827889,0.051037163,-0.48417252,-0.7695866,0.1885329,0.63008296,-0.6549921,0.5998229,0.10389747,0.48054597,-0.90378183,-1.9767569,-1.0715964,1.9730636,1.7809657,-0.92807657,0.51937115,-0.8402557,-1.9903784,-1.1231835,2.0292664,1.7279662,-0.9376986,-0.9397057,-1.3553747,0.48568204,1.1404747,-0.9302612,0.68439263,0.0771662,-0.25468275,-0.5208206,0.8115957,-1.3800622,0.0146366125,-0.64966506,-0.23078193,-0.5227604,0.7680152,0.9396489,-0.015915086,0.19885983,0.27795935,-1.0368816,0.20219432,-0.26302642,0.0,1.0,0.0,0.0,0.0,0.0,0.0,-0.39531723,0.12082061,-0.26159567,7.806933,-4.852414,-15.003962,-0.6097555,-0.19364357,-5.5378675,0.17623901
-0.5126481,19.564276,-0.109255075,6.182534,0.27418506,-1.6021323,-0.011952847,-0.45282003,-0.78034407,0.035006028,0.62767416,-0.64866006,0.6051252,0.09476615,0.47408915,-0.9182901,-1.9868778,-1.0604161,1.9644003,1.7884787,-0.928222,0.510572,-0.85406834,-1.9872304,-1.1119263,2.0200946,1.734408,-0.9369002,-0.8604435,-1.3901124,0.25864452,1.1225743,-0.907323,0.63674587,0.07969545,-0.26772365,-0.518404,0.8107558,-1.2256777,0.24618694,0.030413374,-0.24123797,-0.52113724,0.7647511,0.9414356,-0.01904253,0.19881804,0.2716757,-1.0499302,0.1554993,-0.3507023,0.0,1.0,0.0,0.0,0.0,0.0,0.0,-0.38227633,0.118404,-0.26075578,7.7257633,-3.5993814,-21.06961,-0.5036354,0.14387369,-4.5413017,0.011175871
-39.14342,31.379383,-3.0501146,25.500101,2.3391833,-0.48586366,-0.6884498,-0.6310484,-0.7301653,-0.023780819,0.72164655,-0.6549622,0.5836122,-0.013765196,0.44746718,-0.92708486,-1.9896085,-1.0397617,1.9545984,1.7927692,-0.9382767,0.5015426,-0.867868,-1.9861509,-1.1002934,2.0110233,1.7404886,-0.936184,-0.91615623,-1.3768193,0.056364506,1.1784714,-0.906486,0.5987673,0.06924515,-0.27997124,-0.5159435,0.81031525,-1.2244523,0.2459408,-0.06886819,-0.25228402,-0.51955986,0.76096106,0.9434062,-0.021138119,0.198949,0.26449388,-1.1225154,0.16422695,-0.3925535,0.0,1.0,0.0,0.0,0.0,0.0,0.0,-0.37002873,0.11594352,-0.26031524,-5.2757144,1.2762547,-20.652332,6.0554504,0.32652617,-3.6543489,-0.94602406
-49.316692,42.619785,-0.5992023,31.540253,2.8825717,0.09767786,-0.84937453,-0.6565323,-0.70218706,-0.1063119,0.72596335,-0.61731404,0.60117227,-0.07693815,0.4358894,-0.9380867,-1.9967821,-1.0276971,1.9492918,1.8006059,-0.9438778,0.49163237,-0.8813072,-1.9869348,-1.0880349,2.0020435,1.7462584,-0.9356223,-1.0147253,-1.3331938,-0.124911845,1.243315,-0.8944205,0.5701502,0.05202618,-0.2922066,-0.51348686,0.80888265,-1.2232281,0.2456949,-0.1680505,-0.26412424,-0.5176945,0.75691676,0.94560075,-0.022328716,0.19945703,0.25604206,-1.2033668,0.20003276,-0.41264445,0.0,1.0,0.0,0.0,0.0,0.0,0.0,-0.3577934,0.113486856,-0.25888264,-9.478867,4.2642117,-18.589195,7.0013046,1.412499,-2.7181149,-1.633557
-39.225857,46.62059,3.1942024,27.051126,2.3564723,0.15747535,-0.6143205,-0.63260895,-0.7078465,-0.1731986,0.70749784,-0.5897348,0.6214955,-0.045958553,0.4283715,-0.9520918,-2.0042546,-1.0172851,1.94307,1.8084079,-0.94021815,0.4809045,-0.89434105,-1.9892942,-1.0753186,1.99324,1.7517916,-0.93520266,-1.0911963,-1.2939172,-0.27374932,1.2826334,-0.8755933,0.547895,0.038773574,-0.30442968,-0.5110321,0.80645895,-1.2220051,0.24544926,-0.26713365,-0.27660137,-0.5154762,0.7526708,0.9479426,-0.022731476,0.2002935,0.24651676,-1.2606192,0.23631977,-0.43286598,0.0,1.0,0.0,0.0,0.0,0.0,0.0,-0.3455703,0.1110321,-0.25645894,-7.360244,3.7943125,-15.162605,4.3661118,1.9392967,-2.157259,-1.2758121
-18.851675,50.190628,8.689375,19.254398,1.4082763,-0.016872764,-0.23629366,-0.5851691,-0.71333236,-0.21693665,0.7210162,-0.59842354,0.6347052,0.08081687,0.42238757,-0.9656743,-2.0109878,-1.003217,1.9333977,1.8152621,-0.927121,0.46985713,-0.9071031,-1.9928418,-1.0623162,1.9845711,1.7571417,-0.9348069,-1.1088401,-1.2708261,-0.38195655,1.3069901,-0.86456585,0.53076077,0.039926894,-0.31664056,-0.50857925,0.80304515,-1.2207834,0.24520387,-0.36611775,-0.2893664,-0.51299477,0.74821186,0.9502968,-0.02249262,0.20136163,0.23639697,-1.2793751,0.2598026,-0.4546064,0.0,1.0,0.0,0.0,0.0,0.0,0.0,-0.33335942,0.10857925,-0.25304514,-1.6427279,2.1623611,-10.826838,2.7189732,0.9806156,-1.7026663,0.113562495
-9.090921,42.806427,7.7178555,12.981112,0.77974874,-0.32507408,-0.013387546,-0.57542425,-0.7339335,-0.31709164,0.72391224,-0.60686845,0.6238941,0.15330261,0.4123147,-0.98049647,-2.024551,-0.98992497,1.9238843,1.8195311,-0.9194766,0.45888987,-0.9198366,-1.9975244,-1.0491803,1.975948,1.7623354,-0.93433005,-1.0925121,-1.2746361,-0.4968024,1.3165781,-0.86200905,0.5153823,0.050191563,-0.32883924,-0.5061302,0.7986423,-1.2195628,0.24495871,-0.46500286,-0.3022251,-0.5104084,0.74339074,0.9525835,-0.021583008,0.20255883,0.22602814,-1.2851465,0.2669489,-0.49541205,0.0,1.0,0.0,0.0,0.0,0.0,0.0,-0.32116073,0.10613021,-0.24864227,1.6810179,-0.5113363,-11.410225,1.186657,0.116193295,-1.5760541,1.0090858
-8.825835,38.07656,5.7060027,11.270603,0.5785342,-0.45011055,0.048802305,-0.5840916,-0.73477554,-0.41845995,0.7380659,-0.6211507,0.6058769,0.23089361,0.40048072,-0.99331415,-2.0393703,-0.9753737,1.9138329,1.8229231,-0.9112407,0.4481291,-0.9326835,-2.0035174,-1.0359566,1.967281,1.7673784,-0.93369013,-1.0704257,-1.2884555,-0.6334951,1.3251125,-0.8686503,0.50045377,0.06844984,-0.3410257,-0.5036812,0.7932513,-1.2183435,0.2447138,-0.56378907,-0.31515262,-0.5077934,0.7380748,0.9547745,-0.019875566,0.20386565,0.215521,-1.2919463,0.26853645,-0.547827,0.0,1.0,0.0,0.0,0.0,0.0,0.0,-0.30897427,0.10368118,-0.24325126,2.256322,-1.5089273,-13.604153,1.0928154,-0.7765174,-1.5639782,1.7984145
-5.680402,35.614243,5.51628,9.105946,0.42277092,-0.4972722,0.14178064,-0.56642026,-0.753806,-0.4701974,0.73852867,-0.6104522,0.596835,0.29476887,0.39148706,-1.0080642,-2.050537,-0.9621037,1.9062358,1.8270619,-0.90421325,0.4376501,-0.9457651,-2.0108187,-1.0226815,1.9585701,1.7722803,-0.93282896,-1.0402938,-1.3151531,-0.7624628,1.3291551,-0.8724277,0.4864844,0.09197963,-0.35320002,-0.50123596,0.78687316,-1.2171254,0.24446912,-0.6624766,-0.32812703,-0.5051842,0.73219115,0.956852,-0.017344171,0.2052162,0.20498659,-1.2955301,0.26666266,-0.6060998,0.0,1.0,0.0,0.0,0.0,0.0,0.0,-0.29679996,0.101235956,-0.23687315,3.0415058,-2.794671,-12.798905,0.6329775,-0.50497055,-1.5027463,2.3281574
0.9924178,39.37541,7.7957983,7.02672,0.120597005,-0.51105523,0.24932067,-0.5286665,-0.7528538,-0.5324418,0.7377071,-0.6084636,0.5931741,0.35290614,0.38478348,-1.0210505,-2.0640628,-0.9489108,1.8977238,1.8315978,-0.89753836,0.42759266,-0.9590803,-2.019356,-1.0093949,1.9498326,1.7770563,-0.93170744,-0.994327,-1.3373445,-0.8836125,1.3289901,-0.8747595,0.4740643,0.118711144,-0.36536217,-0.49879265,0.7795089,-1.2159085,0.24422471,-0.7610654,-0.34104118,-0.5026264,0.72574604,0.958784,-0.014022061,0.20658916,0.19457002,-1.2857244,0.2612097,-0.66149145,0.0,1.0,0.0,0.0,0.0,0.0,0.0,-0.2846378,0.09879264,-0.22950888,4.5716405,-2.3498058,-11.932934,0.14994144,-0.4192114,-1.3693213,2.6173205
14.161366,43.635998,11.773695,2.6604962,-0.29115266,-0.55913,0.43218687,-0.4681705,-0.7720463,-0.548059,0.7157917,-0.5719416,0.5988388,0.37554523,0.38077563,-1.0362849,-2.074162,-0.9378157,1.8926384,1.8369402,-0.89415294,0.41819993,-0.9726444,-2.028828,-0.9962323,1.9411865,1.7817236,-0.93032557,-0.9213743,-1.3632331,-0.9674018,1.3121785,-0.8621713,0.4639917,0.14441441,-0.37751216,-0.49635124,0.77115655,-1.2146928,0.24398054,-0.85994935,-0.3536993,-0.5001869,0.71877885,0.9605396,-0.010066418,0.2078735,0.18452914,-1.254529,0.24733602,-0.7126942,0.0,1.0,0.0,0.0,0.0,0.0,0.0,-0.27248782,0.096351236,-0.22115654,7.174289,-2.7104855,-8.064961,-1.6294241,0.980258,-1.1558414,2.4982839
20.603865,45.61942,13.590315,0.04010439,-0.50815874,-0.57322615,0.5446796,-0.43624777,-0.7855855,-0.5791309,0.680762,-0.5459358,0.55406076,0.40014952,0.37457514,-1.0512029,-2.086741,-0.9281561,1.886593,1.8371297,-0.89031065,0.40957347,-0.9864698,-2.038956,-0.9834082,1.9327484,1.7862707,-0.9286967,-0.8436455,-1.3893317,-1.0268079,1.272471,-0.8389616,0.45104268,0.1688367,-0.38965,-0.49391365,0.76181614,-1.2134784,0.24373661,-0.95873445,-0.36596754,-0.49791336,0.7113082,0.96211296,-0.0055919937,0.20894787,0.17506616,-1.2125225,0.22871795,-0.7627318,0.0,1.0,0.0,0.0,0.0,0.0,0.0,-0.26035,0.093913645,-0.21181613,7.609844,-2.7239323,-5.5729985,-3.979373,1.9898057,-1.4608741,2.3661375
15.7265415,47.180984,13.213724,1.6970515,-0.2886295,-0.42867863,0.51191264,-0.43870574,-0.7910195,-0.6136562,0.6559085,-0.5395191,0.5156527,0.43064615,0.3657029,-1.0655718,-2.1003215,-0.91781735,1.8787966,1.837836,-0.8856321,0.4015397,-1.0005174,-2.049595,-0.97106385,1.9245392,1.790671,-0.92682844,-0.79038477,-1.4102238,-1.0752453,1.2218555,-0.81595826,0.4356292,0.19268435,-0.40177566,-0.49147797,0.75148857,-1.2122653,0.24349292,-1.0574207,-0.37785885,-0.49577713,0.7033594,0.96352124,-0.00062376703,0.20977543,0.16619416,-1.1760373,0.2168981,-0.809738,0.0,1.0,0.0,0.0,0.0,0.0,0.0,-0.24822432,0.09147796,-0.20148855,5.19644,-2.2140026,-4.4930696,-5.0418854,1.9491911,-1.7230213,2.3177772
10.400991,48.524414,12.947375,3.1537688,0.050628096,-0.24220002,0.48706973,-0.44370085,-0.80057687,-0.61371034,0.60093266,-0.4818549,0.45672712,0.44808367,0.35716963,-1.0805751,-2.1109662,-0.91097057,1.8763537,1.8363436,-0.88202006,0.39381543,-1.0147481,-2.060547,-0.9593928,1.9166886,1.7948843,-0.9247332,-0.76640326,-1.4277798,-1.106551,1.1455597,-0.77374977,0.4190825,0.21409054,-0.41388923,-0.4890442,0.7401749,-1.2060353,0.2807936,-0.883103,-0.38943923,-0.49368286,0.6949683,0.9648011,0.0047835754,0.21025363,0.15789066,-1.1465015,0.21409446,-0.8553585,0.0,1.0,0.0,0.0,0.0,0.0,0.0,-0.23611075,0.08904418,-0.19017488,2.3348212,-1.8638372,-3.3602476,-7.9273224,4.066694,-1.5298665,2.0074904
-3.3090782,54.708187,12.706274,10.160381,0.81124794,0.097901225,0.27235365,-0.4695021,-0.7934108,-0.6251212,0.6209963,-0.49319527,0.44536784,0.4776822,0.3468652,-1.0940892,-2.1230593,-0.89729315,1.867369,1.8394212,-0.876965,0.38605964,-1.0290647,-2.0717583,-0.94827473,1.9091963,1.7989494,-0.9224293,-0.77877593,-1.4335911,-1.12446,1.1012292,-0.7422441,0.40139136,0.23587933,-0.425823,-0.4860859,0.7317722,-1.1864986,0.29745844,-0.84706265,-0.40085694,-0.49146843,0.6862316,0.96598005,0.010570703,0.21044265,0.14994897,-1.1345253,0.23183315,-0.883594,0.0,1.0,0.0,0.0,0.0,0.0,0.0,-0.22417697,0.086085886,-0.18177217,-1.2745619,-0.7565737,-1.3251543,-4.2170286,2.763784,-2.0741343,2.2095263
-17.12436,62.17582,12.868255,17.79868,1.6231847,0.45690843,0.031168804,-0.50174975,-0.7857115,-0.6229969,0.6523182,-0.5068025,0.45727435,0.5028024,0.33588466,-1.1076359,-2.134058,-0.88304293,1.858516,1.8446769,-0.8721491,0.3779496,-1.0433583,-2.0830421,-0.9372655,1.9019026,1.8028541,-0.9199069,-0.8216746,-1.4286658,-1.128664,1.1014972,-0.7266253,0.38612106,0.25772744,-0.43750295,-0.48301506,0.723167,-1.1620204,0.31053558,-0.8656349,-0.41228503,-0.48890877,0.67736083,0.9670719,0.016621212,0.2105069,0.14206533,-1.1395986,0.2710507,-0.8921604,0.0,1.0,0.0,0.0,0.0,0.0,0.0,-0.21249703,0.083015054,-0.17316699,-4.26929,0.27968884,-0.046277046,0.22931099,1.0985374,-1.74281,2.1731882
-18.363234,70.65469,15.505504,21.108793,2.0360532,0.6424794,-0.08168046,-0.49918735,-0.77907276,-0.5977723,0.6755319,-0.47349906,0.46568543,0.50450724,0.32803085,-1.1212656,-2.1428194,-0.86971235,1.8545526,1.8494226,-0.8694562,0.36942947,-1.0575509,-2.0941849,-0.92600167,1.8947903,1.8066286,-0.9171852,-0.8620775,-1.4167848,-1.1074383,1.1352432,-0.70783716,0.3736472,0.2769448,-0.44890544,-0.47980118,0.71449083,-1.1329831,0.32550743,-0.8685494,-0.42377034,-0.48589897,0.6685463,0.9680803,0.022749558,0.21053444,0.13408305,-1.1451663,0.31846568,-0.8814765,0.0,1.0,0.0,0.0,0.0,0.0,0.0,-0.20109454,0.07980117,-0.16449082,-4.0433407,0.9549856,2.5957584,3.5552025,1.3452172,-1.4686704,1.9084513
-22.698269,69.818146,14.237078,21.948837,2.227862,0.672729,-0.12601396,-0.5370363,-0.7793212,-0.61045563,0.66053873,-0.4332802,0.38264742,0.50791156,0.31572583,-1.135483,-2.1552305,-0.8599478,1.8514622,1.8448933,-0.86639404,0.3604223,-1.071631,-2.1051521,-0.9144402,1.8879409,1.8102304,-0.9142909,-0.9135702,-1.4059005,-1.0915947,1.163798,-0.6790157,0.35479802,0.29358426,-0.4600486,-0.47643852,0.705742,-1.1078715,0.3404542,-0.87675864,-0.43535897,-0.48238373,0.6598245,0.9690207,0.028930029,0.21048634,0.12592565,-1.157079,0.36995012,-0.8726055,0.0,1.0,0.0,0.0,0.0,0.0,0.0,-0.18995139,0.07643852,-0.15574199,-5.1347733,0.85208416,2.0421267,3.0665398,2.352655,-2.1253347,1.6664028
-18.200647,71.36392,15.055725,20.101479,1.9882817,0.6541636,-0.05867599,-0.544246,-0.7692304,-0.60197014,0.656209,-0.42697236,0.3539637,0.5274473,0.3059977,-1.148554,-2.1653492,-0.8488193,1.8452437,1.8456267,-0.86154616,0.35097188,-1.0855794,-2.1159554,-0.90268236,1.881362,1.8136357,-0.91123736,-0.9555541,-1.3921567,-1.0750744,1.1802688,-0.6526997,0.3349362,0.30920804,-0.47092178,-0.47294807,0.6969115,-1.0800956,0.3525769,-0.8845643,-0.4469983,-0.47839546,0.6511873,0.96988636,0.03518096,0.21034132,0.11764057,-1.1596557,0.41671363,-0.8643221,0.0,1.0,0.0,0.0,0.0,0.0,0.0,-0.17907819,0.07294807,-0.1469115,-4.2176723,1.147294,2.1476269,1.8097639,2.0751595,-2.2288084,1.5436649
-13.985407,71.20152,15.532835,17.773104,1.8134179,0.6330672,0.018370785,-0.5648126,-0.7622967,-0.5769293,0.63658035,-0.3834765,0.267408,0.5376276,0.2944906,-1.1618091,-2.1736484,-0.8390243,1.8430144,1.8403765,-0.8574746,0.34113187,-1.0993886,-2.1265218,-0.8909321,1.8751208,1.8167963,-0.9080388,-0.99362856,-1.3778551,-1.0488226,1.1736388,-0.6164796,0.30883965,0.3233894,-0.4815099,-0.46935272,0.68798965,-1.0511287,0.36212155,-0.8936213,-0.45861098,-0.47397232,0.6426213,0.9706798,0.04148885,0.21001436,0.10933071,-1.154964,0.4589816,-0.85721123,0.0,1.0,0.0,0.0,0.0,0.0,0.0,-0.16849008,0.069352716,-0.13798964,-3.854525,1.2197495,3.1418324,-0.5471945,3.0424118,-2.8519452,1.3954401
-10.427646,69.5907,15.137416,15.084587,1.538035,0.5152158,0.113827,-0.5862053,-0.7524281,-0.5788578,0.5981117,-0.34833914,0.09900435,0.5507976,0.28251132,-1.1746314,-2.1844077,-0.8311209,1.8402869,1.8266968,-0.85295904,0.33092624,-1.1130414,-2.136875,-0.8794812,1.8692893,1.8195901,-0.9047058,-1.0297294,-1.3617947,-1.0295548,1.135832,-0.57387346,0.26871696,0.33649576,-0.49181217,-0.4656868,0.6789291,-1.0225261,0.36838242,-0.9086879,-0.4701325,-0.46918106,0.63407564,0.9714095,0.047924764,0.20939308,0.101100214,-1.1443146,0.4939099,-0.85685474,0.0,1.0,0.0,0.0,0.0,0.0,0.0,-0.1581878,0.06568679,-0.12892908,-3.6730766,1.4157534,2.4288654,-3.699851,3.680861,-4.2542877,1.278758
-4.7164836,71.944016,16.362041,13.678852,1.3490179,0.41234833,0.15693712,-0.583342,-0.73851436,-0.5678042,0.59741837,-0.3274032,-0.02287947,0.56869084,0.27259204,-1.1868929,-2.1936553,-0.81973934,1.8365489,1.8173021,-0.84783673,0.3204735,-1.1265035,-2.1470482,-0.86841273,1.8638775,1.8219188,-0.901245,-1.0507282,-1.3417834,-1.0114824,1.0973045,-0.532144,0.21998496,0.3491057,-0.5018042,-0.46198273,0.6697427,-0.9905857,0.37106752,-0.9201119,-0.4814914,-0.4641037,0.62555194,0.9720735,0.054520506,0.20844375,0.093015105,-1.1260526,0.5206339,-0.85382205,0.0,1.0,0.0,0.0,0.0,0.0,0.0,-0.1481958,0.06198272,-0.11974269,-2.195406,1.8235922,2.3430824,-3.826642,3.5764694,-5.112806,1.2080789
-0.47714257,71.4144,16.842236,11.636961,1.4314048,0.28506505,0.20878094,-0.59753734,-0.7364082,-0.539929,0.5402799,-0.18420678,-0.22766435,0.57620865,0.26071975,-1.2001443,-2.2010412,-0.81438476,1.8454568,1.7991524,-0.8436241,0.30983996,-1.1397958,-2.156966,-0.85792017,1.8592249,1.8236436,-0.8976668,-1.0679517,-1.3257283,-0.98348045,1.0333039,-0.4448141,0.15580079,0.36073387,-0.5114883,-0.45826912,0.6604061,-0.96002686,0.37141103,-0.9360699,-0.49266762,-0.45879555,0.61704236,0.97271895,0.061202504,0.20693444,0.08514788,-1.1078385,0.5420675,-0.85268307,0.0,1.0,0.0,0.0,0.0,0.0,0.0,-0.13851166,0.058269113,-0.1104061,-1.8318892,1.448369,3.3281565,-6.4032793,8.140159,-6.678328,1.136905
1.9224553,67.51959,16.276134,9.275787,1.5664171,0.22964448,0.24441499,-0.61537117,-0.7387712,-0.5124582,0.46817228,-0.019594412,-0.36371544,0.56370455,0.24830285,-1.2136729,-2.208212,-0.8111029,1.8572655,1.787272,-0.8412964,0.29901528,-1.1529889,-2.1665251,-0.84830415,1.8558482,1.8246717,-0.8939934,-1.0876294,-1.3175689,-0.94494313,0.93768525,-0.30351454,0.08441141,0.36960644,-0.5208984,-0.45455933,0.65085036,-0.93368244,0.37058327,-0.9599112,-0.50368565,-0.4532833,0.60850155,0.973422,0.06783009,0.20453037,0.077562846,-1.0927087,0.5620019,-0.8569402,0.0,1.0,0.0,0.0,0.0,0.0,0.0,-0.12910157,0.05455932,-0.10085034,-2.0715714,0.6849766,4.3259263,-9.568918,13.586825,-7.4109344,0.90444684
20.335865,73.3984,21.56576,5.210869,1.3215747,0.22848296,0.35571513,-0.56612337,-0.73823637,-0.39256716,0.43654826,0.056391023,-0.39141324,0.5730929,0.24240294,-1.2268126,-2.205782,-0.80464935,1.8614873,1.7855304,-0.8366841,0.28826877,-1.1661401,-2.175203,-0.8396494,1.8539644,1.8250339,-0.89023703,-1.0709136,-1.3146309,-0.84023625,0.84098226,-0.15179105,0.019359132,0.37761268,-0.5299503,-0.45090675,0.6411979,-0.8947703,0.36289188,-0.96471965,-0.5143925,-0.44769096,0.60002667,0.97423065,0.07402651,0.20107584,0.0704493,-1.0563947,0.56604373,-0.8466909,0.0,1.0,0.0,0.0,0.0,0.0,0.0,-0.120049655,0.050906748,-0.09119791,1.4935732,0.20081997,11.026931,-9.813547,14.613745,-6.7282586,0.7955134
25.663574,78.499664,24.216654,5.532778,1.5274148,0.32293603,0.3143417,-0.5595189,-0.733454,-0.31001064,0.4096586,0.16945036,-0.3911579,0.5722506,0.23231688,-1.2394855,-2.2062042,-0.7986835,1.8709095,1.7859181,-0.833012,0.27777025,-1.1792645,-2.1825423,-0.83185875,1.853674,1.8248203,-0.88641185,-1.0434225,-1.3120538,-0.69687515,0.7578175,0.010221762,-0.035578348,0.38412634,-0.5385726,-0.44735527,0.63161063,-0.85071206,0.35219476,-0.95504767,-0.52470636,-0.44207382,0.59175605,0.9751824,0.07943789,0.1965452,0.06386589,-1.0162984,0.56792086,-0.8229506,0.0,1.0,0.0,0.0,0.0,0.0,0.0,-0.11142737,0.047355264,-0.08161062,2.564907,0.17619133,14.897669,-8.48502,15.681744,-5.684971,0.643456
35.46715,95.177246,31.11513,8.062883,1.8125808,0.5487919,0.24031042,-0.5230799,-0.712531,-0.121674895,0.42219394,0.19753867,-0.39721638,0.5696141,0.22546226,-1.2505176,-2.1947098,-0.78963935,1.8734279,1.7850987,-0.8294504,0.26769608,-1.1922765,-2.1878028,-0.82459456,1.8547854,1.824126,-0.88253325,-0.9961561,-1.2978436,-0.4668012,0.71508974,0.14289278,-0.08110683,0.38885412,-0.54663223,-0.44395828,0.6224258,-0.7907903,0.33513942,-0.905354,-0.53451097,-0.4364643,0.5840002,0.9762898,0.08362188,0.19110964,0.05781652,-0.96214443,0.56555575,-0.7620673,0.0,1.0,0.0,0.0,0.0,0.0,0.0,-0.103367746,0.043958277,-0.07242578,4.5104265,1.3403893,23.67503,-4.517734,12.71601,-4.66913,0.41168928
63.096333,109.41434,40.551758,4.063974,1.5499552,0.57344174,0.3697054,-0.4246252,-0.71076214,0.14982203,0.3971048,0.28478155,-0.4013804,0.57395566,0.22523355,-1.2633526,-2.1728206,-0.7848841,1.8832636,1.783988,-0.8251377,0.25848883,-1.2051435,-2.1898437,-0.8176556,1.857164,1.8230425,-0.87861365,-0.89647955,-1.2834066,-0.113783695,0.68564105,0.26750547,-0.11767814,0.3924984,-0.5539299,-0.44083786,0.61407286,-0.7096343,0.3040469,-0.81185204,-0.54354435,-0.4310646,0.57711077,0.9775918,0.08593842,0.18484993,0.052528005,-0.8780989,0.5368659,-0.6668686,0.0,1.0,0.0,0.0,0.0,0.0,0.0,-0.09607005,0.040837854,-0.06407285,9.7013,1.3663292,36.126335,-3.29206,11.842621,-3.6657526,0.23792386
68.336266,108.55276,41.115337,2.7944446,1.638911,0.4311962,0.35935473,-0.38133937,-0.7118987,0.28560975,0.3653824,0.4735084,-0.4322107,0.5612351,0.2203549,-1.2763333,-2.1612828,-0.7811174,1.9045149,1.7798214,-0.82249016,0.25037307,-1.2179055,-2.188265,-0.81101525,1.8610609,1.8216214,-0.87467384,-0.78390133,-1.2739282,0.2508102,0.6560861,0.42832533,-0.15024775,0.39414793,-0.5604239,-0.43805695,0.6067016,-0.63000387,0.26942763,-0.71327555,-0.55176455,-0.42600822,0.5711837,0.97914,0.08605964,0.17767225,0.04807469,-0.7987411,0.50087315,-0.57027656,0.0,1.0,0.0,0.0,0.0,0.0,0.0,-0.089576066,0.03805694,-0.0567016,11.061705,0.8382082,37.25167,-3.175807,15.4969635,-3.23506,0.05584359
64.42885,98.46628,35.464638,0.22668481,0.8612723,0.08844331,0.45459917,-0.33457267,-0.6793471,0.2633893,0.2869338,0.5437774,-0.44282812,0.57716346,0.2169158,-1.2858403,-2.1619263,-0.7823219,1.9154387,1.7773386,-0.8169575,0.24337816,-1.2304578,-2.183997,-0.8049433,1.8665092,1.8199093,-0.8707094,-0.67175126,-1.2493889,0.48769355,0.5907345,0.5821318,-0.1779586,0.3969257,-0.5661921,-0.4356289,0.6001401,-0.5602437,0.23433068,-0.6395207,-0.55922264,-0.42137718,0.56597483,0.980875,0.084412776,0.1696522,0.044461437,-0.72487193,0.45476,-0.50688607,0.0,1.0,0.0,0.0,0.0,0.0,0.0,-0.083807886,0.035628885,-0.050140083,11.091244,2.3228884,24.30545,-6.5965295,14.941525,-2.70752,0.19836426
90.60787,100.3071,38.70302,-7.055233,-0.40878442,-0.33436468,0.6623744,-0.15554506,-0.66174823,0.4078514,0.2948206,0.5953351,-0.34267068,0.57321954,0.22782366,-1.2966326,-2.1432118,-0.77546126,1.9260427,1.7856423,-0.81338745,0.23805693,-1.2427125,-2.1776307,-0.7994056,1.873339,1.8180364,-0.86672306,-0.48603827,-1.2179706,0.6889705,0.54147947,0.71491575,-0.1899844,0.398832,-0.57118917,-0.43365097,0.5944103,-0.48113278,0.18613246,-0.5543673,-0.5657426,-0.417511,0.5613765,0.9827124,0.081220485,0.16101077,0.041894767,-0.62554806,0.36789545,-0.44669184,0.0,1.0,0.0,0.0,0.0,0.0,0.0,-0.07881081,0.033650964,-0.04441029,18.434322,2.9643297,20.881199,-4.917109,12.790739,-1.0894299,0.094252825
85.84361,86.77421,33.518314,-11.746519,-1.0463805,-0.32338023,0.87266135,-0.15053792,-0.66077054,0.5167454,0.11380016,0.6556877,-0.21755551,0.5397267,0.22300313,-1.3087895,-2.125956,-0.78802556,1.9389079,1.7962809,-0.8127504,0.23432474,-1.254704,-2.1694522,-0.79505223,1.881351,1.8161675,-0.8627431,-0.33589125,-1.1934438,0.86313117,0.40042493,0.828601,-0.1852933,0.39770234,-0.57546556,-0.4321289,0.58931136,-0.41148952,0.14183435,-0.49923915,-0.57125956,-0.41451454,0.55712736,0.9846043,0.07671047,0.1517275,0.040603403,-0.5259695,0.28027073,-0.42040458,0.0,1.0,0.0,0.0,0.0,0.0,0.0,-0.074534416,0.0321289,-0.03931135,14.935261,2.2600174,17.984056,-13.9808,11.006678,0.61826706,-0.12761354
58.748653,78.12572,26.531956,-8.33268,-0.7527546,0.011681691,0.871522,-0.1984426,-0.6340218,0.5817567,-0.051409174,0.69324017,-0.12690187,0.540283,0.21448047,-1.3181062,-2.1112766,-0.80019313,1.950675,1.8034773,-0.80871475,0.23143469,-1.2664018,-2.1597903,-0.7927378,1.8903235,1.8144289,-0.8587722,-0.27330384,-1.1622171,1.0011194,0.1759044,0.91991854,-0.1692544,0.39718363,-0.57916206,-0.43095016,0.5845386,-0.3568738,0.110812195,-0.4739799,-0.575914,-0.41216278,0.55296093,0.9865039,0.07122179,0.1417391,0.04058803,-0.4449675,0.22306834,-0.4181728,0.0,1.0,0.0,0.0,0.0,0.0,0.0,-0.070837915,0.030950159,-0.034538567,6.2791467,2.970624,13.934255,-22.241074,9.071398,1.7782807,0.03401041
44.797173,71.74826,21.972553,-8.960026,-1.0369492,0.22216617,1.0115314,-0.20692344,-0.59712195,0.6199679,-0.27838165,0.721272,-0.02895236,0.5439729,0.21074234,-1.3261139,-2.0977936,-0.82057595,1.9624507,1.8115337,-0.80437493,0.22871695,-1.2776818,-2.14906,-0.79341686,1.9000533,1.8129258,-0.85479903,-0.2710063,-1.1168387,1.0964726,-0.14820243,0.9914334,-0.14315312,0.39795518,-0.5823689,-0.430027,0.5798376,-0.30958357,0.08675207,-0.47233135,-0.57976156,-0.41028786,0.5486486,0.9883507,0.06512224,0.13101253,0.041923407,-0.36477217,0.17809467,-0.43812183,0.0,1.0,0.0,0.0,0.0,0.0,0.0,-0.067631066,0.030027002,-0.029837608,0.3139913,4.417753,9.291363,-32.14075,7.388425,2.9187024,0.25755763
33.324417,65.04305,18.14108,-6.9804792,-0.9575186,0.18629217,0.9142452,-0.19106415,-0.6001112,0.6294913,-0.37119323,0.74564344,0.020307265,0.5452257,0.20961054,-1.337693,-2.0861108,-0.8305362,1.9746176,1.8149565,-0.80027646,0.22587772,-1.2885976,-2.137724,-0.79723185,1.910369,1.8117052,-0.8508133,-0.28776318,-1.0832275,1.144264,-0.45818752,1.0465409,-0.11410731,0.3996784,-0.5851752,-0.42930222,0.5750066,-0.27185506,0.068220034,-0.489314,-0.5829047,-0.4087906,0.54402775,0.99008477,0.058702078,0.11960159,0.04451495,-0.29750437,0.14198245,-0.47213486,0.0,1.0,0.0,0.0,0.0,0.0,0.0,-0.06482476,0.02930221,-0.025006592,-1.5383184,3.2796621,4.3145895,-30.661934,5.957079,3.186822,0.44663548
24.069424,63.621346,16.109653,-2.315178,-0.6630311,0.06584325,0.6593697,-0.16518357,-0.5967568,0.60124373,-0.39515758,0.752785,0.07202643,0.55866605,0.20935936,-1.3482733,-2.0775995,-0.8367476,1.9856476,1.8189079,-0.79494673,0.22294827,-1.2992673,-2.1263256,-0.80347174,1.9210963,1.8107878,-0.8467993,-0.29409292,-1.0616205,1.1365625,-0.67805636,1.0831655,-0.0833582,0.40302867,-0.58766973,-0.42873192,0.5699454,-0.2423255,0.053450353,-0.51267,-0.5855053,-0.4075985,0.5390551,0.99164635,0.052189924,0.10772476,0.048052847,-0.24723576,0.11289726,-0.50702214,0.0,1.0,0.0,0.0,0.0,0.0,0.0,-0.062330246,0.028731912,-0.019945383,-0.46654344,2.1312237,-1.3068676,-21.62137,4.181695,3.338346,0.65951943
31.336304,70.88001,19.253141,0.1749514,-0.62492555,-0.08849721,0.44671854,-0.084052734,-0.59117484,0.62489843,-0.3705835,0.74616635,0.20254543,0.5504323,0.214543,-1.3583847,-2.0638359,-0.8405301,1.995713,1.8310423,-0.7917561,0.22036906,-1.3097863,-2.1150532,-0.8109725,1.9320505,1.8102516,-0.8427602,-0.24525085,-1.0487667,1.1221951,-0.77295077,1.1014212,-0.04285677,0.40524727,-0.58986855,-0.42832756,0.5647764,-0.21257566,0.03601033,-0.5180907,-0.58762425,-0.40676117,0.53387564,0.9929922,0.045553274,0.09571179,0.052254125,-0.19945224,0.074958675,-0.52261555,0.0,1.0,0.0,0.0,0.0,0.0,0.0,-0.06013143,0.028327554,-0.014776409,5.0708175,1.3052702,-1.9506216,-9.125626,2.3811579,4.340733,0.54057837
17.851688,81.42283,20.648325,9.459213,0.24735942,0.06755592,0.07360176,-0.08583817,-0.5655662,0.6116914,-0.3282205,0.7448548,0.27662188,0.5412987,0.21178524,-1.3663429,-2.053884,-0.8437946,2.006536,1.8379138,-0.78863037,0.21829434,-1.3201184,-2.1040094,-0.81859046,1.9430957,1.8101445,-0.8387109,-0.19421646,-1.0277857,1.0965575,-0.7571092,1.1078053,0.0010769819,0.4058572,-0.59181595,-0.4280548,0.5596883,-0.18880256,0.024387939,-0.5043324,-0.5894264,-0.40615463,0.528722,0.99410546,0.038734466,0.08390469,0.05669067,-0.172868,0.057067983,-0.513455,0.0,1.0,0.0,0.0,0.0,0.0,0.0,-0.058184028,0.028054804,-0.009688318,5.3038597,2.189827,-3.1237602,1.9057155,1.2851,4.709516,0.36253333
18.48633,98.88189,25.45055,14.277262,0.36813873,0.122428514,-0.075405955,-0.031449117,-0.5007191,0.5907231,-0.2931727,0.7296138,0.31231686,0.544905,0.21514943,-1.3701904,-2.0449371,-0.8479077,2.016057,1.8413762,-0.7842204,0.21689387,-1.3299756,-2.0932934,-0.8255579,1.9541199,1.8104683,-0.8346559,-0.121249974,-0.9710622,1.0610799,-0.675563,1.103224,0.04413233,0.40619972,-0.5935128,-0.4279003,0.5549809,-0.16334233,0.01247293,-0.45772356,-0.59096074,-0.40572548,0.5239072,0.9949781,0.0317134,0.07266196,0.06109929,-0.14605534,0.039264712,-0.47115973,0.0,1.0,0.0,0.0,0.0,0.0,0.0,-0.056487203,0.027900308,-0.004980862,7.514021,5.8103085,-4.1367292,8.467793,0.28793812,4.7123265,0.30798316
13.107065,99.74979,25.15489,16.18177,0.5015362,0.11871061,-0.14886917,-0.015753238,-0.48460248,0.56981295,-0.2776424,0.7232604,0.30247915,0.53173035,0.21531855,-1.3784359,-2.036312,-0.85332215,2.0264459,1.8407162,-0.7814828,0.21616335,-1.3392377,-2.0829704,-0.83160704,1.9650564,1.8111669,-0.83060974,-0.056290958,-0.9108444,1.0211191,-0.58044094,1.0927641,0.07986256,0.40486956,-0.59498966,-0.4278431,0.5507516,-0.14254391,0.0035682856,-0.4096983,-0.59228134,-0.40542984,0.519537,0.995625,0.024544105,0.062109638,0.06535001,-0.12672472,0.026938448,-0.42618045,0.0,1.0,0.0,0.0,0.0,0.0,0.0,-0.05501032,0.027843088,-0.00075161457,6.697737,6.1554313,-4.5304775,9.8068,-0.3497362,3.9499447,0.12022257
13.219287,116.419,29.5984,19.40654,0.4244611,0.20264381,-0.18622994,0.031551123,-0.3854264,0.53424966,-0.21407191,0.7076683,0.32058075,0.5369804,0.21931846,-1.3777803,-2.0295453,-0.85301423,2.0358233,1.843225,-0.7769117,0.21612783,-1.3475575,-2.073132,-0.83657944,1.9758519,1.8121932,-0.82657474,0.01474501,-0.80510944,0.9695419,-0.46852383,1.0778235,0.111799836,0.40375906,-0.5962467,-0.4278698,0.54722786,-0.12024821,-0.004677193,-0.33184394,-0.5933713,-0.40525818,0.515839,0.99606025,0.017279705,0.052461285,0.06937714,-0.10273883,0.014474011,-0.35175967,0.0,1.0,0.0,0.0,0.0,0.0,0.0,-0.053753257,0.02786979,0.0027721524,7.3133082,10.720706,-5.7014823,11.490804,-0.745368,3.6642208,0.11779666
11.834209,126.73529,31.966413,20.893929,0.22666433,0.24080613,-0.16543284,0.059564445,-0.29238254,0.48156133,-0.18439266,0.6927478,0.30768472,0.5285833,0.22208427,-1.3767958,-2.024976,-0.85501873,2.0451267,1.8429617,-0.7737164,0.21675797,-1.3545403,-2.0639539,-0.8405361,1.9864756,1.8134885,-0.82255787,0.07977388,-0.66212755,0.89859724,-0.37032834,1.0597275,0.13707724,0.4017602,-0.5972818,-0.42796898,0.5446081,-0.09809882,-0.011495528,-0.23783875,-0.59418553,-0.4052143,0.51301074,0.99630153,0.010035781,0.043899093,0.073180184,-0.07430891,0.0017488978,-0.26081246,0.0,1.0,0.0,0.0,0.0,0.0,0.0,-0.052718163,0.027968973,0.005391896,6.705612,14.435804,-7.61708,10.121674,-1.0576487,2.9582992,0.0065863132
-8.385852,165.40712,39.766605,35.48551,0.96429276,0.756988,-0.4592785,0.049849294,-0.06823073,0.3870968,-0.04397365,0.66419834,0.30274224,0.51822126,0.2217429,-1.3613634,-2.0252442,-0.8449335,2.0528953,1.8437628,-0.77073574,0.21781152,-1.3592877,-2.055821,-0.84313965,1.9968742,1.8149973,-0.8185696,0.11460448,-0.41153863,0.78292865,-0.2227398,1.0363053,0.15725994,0.39844713,-0.59810543,-0.42806625,0.543436,-0.07737254,-0.008706437,-0.07626813,-0.5947821,-0.4050789,0.5116075,0.99638236,0.0029581287,0.036965515,0.0764656,-0.055091396,0.017934686,-0.101139046,0.0,1.0,0.0,0.0,0.0,0.0,0.0,-0.051894546,0.028066248,0.006564021,3.6985443,25.241358,-12.186527,15.047667,-1.4163017,2.5483518,-0.16364455
-4.927406,132.68974,29.492153,27.695702,0.1596431,0.05545724,-0.39246082,0.119159706,-0.0797633,0.18172243,0.0074646915,0.6293738,0.27375242,0.504046,0.22972749,-1.367264,-2.0376487,-0.84239316,2.0598116,1.8423725,-0.768165,0.21935791,-1.361939,-2.049603,-0.84429264,2.006946,1.8166509,-0.8146233,0.16835098,-0.215877,0.56679434,-0.07884249,0.99921113,0.16890635,0.39385465,-0.5987779,-0.42816162,0.5433874,-0.06403142,-0.009380676,0.019033154,-0.59522235,-0.40493774,0.5113249,0.9963507,-0.0034624175,0.03168712,0.079178095,-0.04077672,0.013393021,-0.005076531,0.0,0.0,1.0,0.0,0.0,0.0,0.0,-0.051222086,0.028161615,0.006612599,5.486864,19.661163,-21.933996,14.604425,-3.1363368,1.5021145,-0.30753613
-14.822363,84.9523,12.840941,20.775269,-0.26740533,-0.5609638,-0.41342303,0.11491522,-0.07961445,-0.107029945,0.032709595,0.5868247,0.2764709,0.47719163,0.23084943,-1.3699003,-2.060306,-0.84102166,2.0656285,1.844298,-0.7669041,0.22130531,-1.3632226,-2.046597,-0.8442459,2.0165396,1.8183957,-0.8107409,0.2035961,-0.098999456,0.21127221,0.032791954,0.9466259,0.17649205,0.38680133,-0.59939754,-0.42827034,0.543554,-0.061364472,-0.011351409,0.015464424,-0.5956469,-0.40488815,0.51130015,0.9962675,-0.008443907,0.027778892,0.08129058,-0.043310367,0.0021108403,-0.0026010105,0.0,0.0,1.0,0.0,0.0,0.0,0.0,-0.050602436,0.028270334,0.006446004,3.5458088,11.725748,-35.68732,11.242381,-5.0023317,0.84208846,-0.57995915
-27.297571,91.71407,13.17409,24.16628,-0.05723764,-0.24073082,-0.3984214,0.062822305,0.08424346,-0.21724184,0.025433978,0.5403312,0.23332627,0.49845967,0.22758754,-1.3547982,-2.0683212,-0.8417025,2.0705726,1.8417283,-0.7608949,0.2232303,-1.3631215,-2.0471616,-0.84350395,2.0255272,1.8201618,-0.80691284,0.18879917,0.046532672,-0.14543882,0.08801546,0.8836954,0.17650187,0.38160703,-0.59999233,-0.42835808,0.54376274,-0.058915887,-0.007894559,0.02240342,-0.59610045,-0.4048252,0.5113802,0.9961787,-0.011685797,0.025197221,0.08280469,-0.04617815,0.0076317904,0.011006451,0.0,0.0,1.0,0.0,0.0,0.0,0.0,-0.05000764,0.028358072,0.0062372684,-1.4829189,14.552903,-35.719234,5.502911,-6.122875,0.012674928,-0.48071742
-24.850887,73.688255,9.501931,19.639698,-0.045367084,-0.27317014,-0.29643926,0.0725876,0.061791584,-0.29378647,0.056224994,0.46635056,0.27070644,0.5147014,0.23048906,-1.3569423,-2.0765402,-0.83788145,2.0721624,1.8472325,-0.7554427,0.2249467,-1.3620305,-2.0507932,-0.8423805,2.0337555,1.8219433,-0.8031201,0.16586563,0.12982893,-0.43570876,0.12009364,0.80271995,0.1783818,0.37837377,-0.6005755,-0.4284134,0.5438447,-0.058162116,-0.00475622,0.0030808826,-0.5966008,-0.40471268,0.51139474,0.9961084,-0.013324359,0.023707772,0.08383502,-0.05126107,0.012669384,-0.002088497,0.0,0.0,1.0,0.0,0.0,0.0,0.0,-0.04942447,0.028413385,0.006155312,-2.3140311,8.298617,-28.96248,3.130558,-8.074498,0.13255179,-0.34507513
-22.66867,80.30154,13.126828,19.87085,0.19811538,-0.019746823,-0.21437736,0.05332206,0.12746747,-0.3352081,0.06403389,0.4226345,0.24898085,0.52414197,0.2302789,-1.3492838,-2.0843139,-0.83597714,2.076019,1.8468413,-0.7507059,0.22634812,-1.3601632,-2.056584,-0.8410873,2.0411677,1.823719,-0.79935116,0.1314395,0.20549738,-0.6262065,0.1320777,0.72055554,0.17699872,0.37619653,-0.6011397,-0.4284191,0.5438828,-0.055839885,0.0007872422,0.0041167564,-0.5971284,-0.40450096,0.5114119,0.99605966,-0.013737708,0.023114203,0.08451092,-0.05316522,0.024266591,0.0030908978,0.0,0.0,1.0,0.0,0.0,0.0,0.0,-0.048860252,0.028419107,0.0061172247,-3.4887404,7.5146704,-18.86742,1.0749847,-8.296919,-0.24351478,-0.30733943
-8.7428255,71.66093,13.5194645,14.520136,-0.0079671,-0.20789854,-0.09182523,0.089882426,0.10737865,-0.3836587,0.10322489,0.36723164,0.22968926,0.53191316,0.23533636,-1.3494253,-2.0949497,-0.8307648,2.0778909,1.8466879,-0.74615985,0.22763105,-1.3578935,-2.0636983,-0.83958995,2.0477557,1.8254662,-0.79559374,0.12705612,0.23402214,-0.7393899,0.155165,0.6376775,0.17373344,0.37518296,-0.6016711,-0.42840004,0.54386944,-0.052218523,0.0021916921,-0.002953519,-0.5976383,-0.4042797,0.51141006,0.9960229,-0.0133019695,0.023176052,0.08499516,-0.050138116,0.021750856,-0.0009537762,0.0,0.0,1.0,0.0,0.0,0.0,0.0,-0.048328876,0.028400034,0.006130576,-0.49348772,2.8070183,-11.131323,2.175486,-8.392692,-0.45805573,-0.21160245
