Afshin1997/kuka_rl_ros2/src/catch_and_throw/input_files/idealpd/recorded_trajectories/env_311_data.csv
torque0,torque1,torque2,torque3,torque4,torque5,torque6,action0,action1,action2,action3,action4,action5,action6,set_target_0,set_target_1,set_target_2,set_target_3,set_target_4,set_target_5,set_target_6,joint_pos_0,joint_pos_1,joint_pos_2,joint_pos_3,joint_pos_4,joint_pos_5,joint_pos_6,joint_vel_0,joint_vel_1,joint_vel_2,joint_vel_3,joint_vel_4,joint_vel_5,joint_vel_6,tennisball_pos_0,tennisball_pos_1,tennisball_pos_2,tennisball_lin_vel_0,tennisball_lin_vel_1,tennisball_lin_vel_2,end_effector_pos_0,end_effector_pos_1,end_effector_pos_2,end_effector_rot_0,end_effector_rot_1,end_effector_rot_2,end_effector_rot_3,end_effector_lin_vel_0,end_effector_lin_vel_1,end_effector_lin_vel_2,obs_task_0,obs_task_1,obs_task_2,obs_task_3,obs_task_4,obs_task_5,obs_task_6,to_final_target_0,to_final_target_1,to_final_target_2,joint_acc_0,joint_acc_1,joint_acc_2,joint_acc_3,joint_acc_4,joint_acc_5,joint_acc_6
0.0,0.0,0.0,0.0,0.0,0.0,0.0,0.0,0.0,0.0,0.0,0.0,0.0,0.0,1.7802359,-1.0646509,-1.8151424,-1.1170107,1.9373155,1.1170107,-0.91629785,1.7802359,-1.0646509,-1.8151424,-1.1170107,1.9373155,1.1170107,-0.91629785,0.0,0.0,0.0,0.0,0.0,0.0,0.0,3.1979828,-0.67520905,0.41923058,-3.6234276,0.12795413,5.132439,0.5304146,-0.45449448,0.693097,0.5745483,0.17512383,0.15255436,0.7848268,0.0,0.0,0.0,1.0,0.0,0.0,0.0,0.0,0.0,0.0,-3.847983,0.27520904,0.13076943,0.0,0.0,0.0,0.0,0.0,0.0,0.0
0.0,0.0,0.0,0.0,0.0,0.0,0.0,0.0,0.0,0.0,0.0,0.0,0.0,0.0,1.7802359,-1.0646509,-1.8151424,-1.1170107,1.9373155,1.1170107,-0.91629785,1.7802359,-1.0646509,-1.8151424,-1.1170107,1.9373155,1.1170107,-0.91629785,0.0,0.0,0.0,0.0,0.0,0.0,0.0,3.1979828,-0.67520905,0.41923058,-3.6234276,0.12795413,5.132439,0.5304146,-0.45449448,0.693097,0.5745483,0.17512383,0.15255436,0.7848268,0.0,0.0,0.0,1.0,0.0,0.0,0.0,0.0,0.0,0.0,-3.847983,0.27520904,0.13076943,0.0,0.0,0.0,0.0,0.0,0.0,0.0
0.0,0.0,0.0,0.0,0.0,0.0,0.0,0.0,0.0,0.0,0.0,0.0,0.0,0.0,1.7802359,-1.0646509,-1.8151424,-1.1170107,1.9373155,1.1170107,-0.91629785,1.7802359,-1.0646509,-1.8151424,-1.1170107,1.9373155,1.1170107,-0.91629785,0.0,0.0,0.0,0.0,0.0,0.0,0.0,3.1979828,-0.67520905,0.41923058,-3.6234276,0.12795413,5.132439,0.5304146,-0.45449448,0.693097,0.5745483,0.17512383,0.15255436,0.7848268,0.0,0.0,0.0,1.0,0.0,0.0,0.0,0.0,0.0,0.0,-3.847983,0.27520904,0.13076943,0.0,0.0,0.0,0.0,0.0,0.0,0.0
-176.0,69.39403,-5.1403637,110.0,10.982616,4.8669386,-3.769172,-0.8044472,0.34150878,-0.5211231,0.7420825,0.2910557,0.6689636,-0.59678406,1.6997912,-1.0305,-1.8672547,-1.0428025,1.966421,1.183907,-0.9759762,1.7787043,-1.0624174,-1.8206298,-1.1123701,1.9413495,1.1215082,-0.91699404,-0.20404084,0.297176,-0.7312268,0.61898005,0.53721297,0.59806055,-0.09254031,3.1617756,-0.6739273,0.46978003,-3.619805,0.1278262,5.029122,0.5283489,-0.457592,0.6938921,0.57802624,0.17383623,0.15148471,0.78276366,-0.27514485,-0.41290244,0.10577213,1.0,0.0,0.0,0.0,0.0,0.0,0.0,-3.8117757,0.2739273,0.080219984,-20.340954,29.530966,-72.96571,61.97756,53.51674,59.325832,-9.163619
-176.0,24.227558,-23.415485,110.0,12.404035,3.4848285,-3.596009,-0.8049648,0.12119662,-0.5570751,0.7021427,0.4900359,0.64989597,-0.5653683,1.6982079,-1.0502977,-1.8763373,-1.0421559,1.9903531,1.1864978,-0.9735309,1.7759844,-1.0582365,-1.834441,-1.1003329,1.9516683,1.1331431,-0.91825765,-0.29309765,0.4567669,-1.5983882,1.4009085,1.1960058,1.3459486,-0.13522886,3.1256046,-0.6726532,0.51929706,-3.616186,0.1276984,4.9259076,0.5235195,-0.46531677,0.6952872,0.5861257,0.17074479,0.14826271,0.7780237,-0.5538306,-0.89165854,0.15139505,1.0,0.0,0.0,0.0,0.0,0.0,0.0,-3.7756047,0.2726532,0.030702949,-8.398694,15.419012,-86.87253,78.80588,65.65125,72.998985,-3.5336165
-162.56644,113.392395,27.011639,96.175835,8.578628,7.5469923,-2.4135816,-0.7716974,0.40002316,-0.18393578,0.65343,0.45945227,0.6824458,-0.5376104,1.6988146,-1.0182341,-1.8528346,-1.0349898,1.9976134,1.2013876,-0.9720187,1.7698351,-1.0524286,-1.8497589,-1.0844637,1.9640927,1.1465269,-0.9199533,-0.72233444,0.6187229,-1.5035758,1.6499395,1.253622,1.3281184,-0.18240817,3.08947,-0.6713791,0.5677827,-3.6125705,0.12757073,4.8227963,0.5157547,-0.4759102,0.69833565,0.59742814,0.1662853,0.14401443,0.77116054,-0.85772294,-1.1088668,0.36001176,1.0,0.0,0.0,0.0,0.0,0.0,0.0,-3.73947,0.27137908,-0.017782688,-42.973923,15.211701,11.236763,25.213741,4.4545174,-4.0686846,-5.1318645
-100.26245,129.90942,45.087376,63.22628,4.964679,8.181913,-0.93253756,-0.7837001,0.38276342,-0.07311754,0.6342929,0.4893389,0.6574926,-0.5634068,1.6914651,-1.0141523,-1.8570706,-1.0210345,2.0130267,1.2122762,-0.976294,1.7596308,-1.045585,-1.8613994,-1.0681483,1.9758592,1.1589991,-0.92209524,-1.1211021,0.703518,-1.043263,1.625613,1.1464465,1.215132,-0.22736652,3.0533714,-0.670105,0.6152381,-3.6089587,0.12744318,4.719788,0.5054436,-0.4873047,0.703472,0.61012936,0.16049223,0.13925295,0.7632777,-1.1000628,-1.1388086,0.57048076,1.0,0.0,0.0,0.0,0.0,0.0,0.0,-3.7033715,0.27010497,-0.06523806,-40.289043,7.6741576,48.277473,-2.3719788,-12.10227,-12.855792,-5.255967
-40.879604,134.96834,52.014927,34.445305,1.7290887,7.1677265,-0.036469303,-0.79497415,0.46239677,-0.081535816,0.6224659,0.53356683,0.64935404,-0.57377326,1.6801333,-0.99934536,-1.869553,-1.0059017,2.0292158,1.2239345,-0.9794726,1.7462813,-1.0379347,-1.8680942,-1.0531489,1.9862638,1.1701914,-0.92465013,-1.4079554,0.78361124,-0.53823584,1.4574511,1.0016758,1.0846001,-0.26763013,3.0173092,-0.6688309,0.66166407,-3.6053505,0.12731577,4.616883,0.49339485,-0.49808502,0.7104417,0.6229594,0.15346465,0.13426186,0.7552111,-1.2525159,-1.0439346,0.7434115,1.0,0.0,0.0,0.0,0.0,0.0,0.0,-3.6673093,0.26883087,-0.11166406,-29.205084,7.449937,52.475834,-16.98816,-15.49511,-13.833499,-4.8317046
-1.6208484,123.71001,47.545303,15.69108,-0.30915517,5.180049,0.25822026,-0.8126521,0.52933234,-0.11606952,0.62136006,0.5499015,0.64024603,-0.5705385,1.665016,-0.98500144,-1.8797011,-0.9910129,2.0412538,1.234216,-0.981704,1.7310492,-1.0294317,-1.8708961,-1.0399576,1.9954305,1.1801935,-0.92755216,-1.5631596,0.87134755,-0.18956256,1.2720673,0.88642794,0.9711502,-0.29995424,2.9812832,-0.66755676,0.70706177,-3.6017458,0.12718849,4.5140805,0.4804268,-0.5076027,0.71870023,0.6353403,0.14558287,0.12943824,0.74725765,-1.3224766,-0.9054501,0.8554898,1.0,0.0,0.0,0.0,0.0,0.0,0.0,-3.6312833,0.26755676,-0.15706176,-15.963674,8.41881,36.237865,-18.801594,-12.08787,-11.601507,-3.902495
20.693237,114.4131,42.552303,6.8914905,-1.2997638,3.610914,0.24388056,-0.8168302,0.5942706,-0.10359006,0.62966925,0.5510985,0.64622146,-0.5543763,1.6493661,-0.9700046,-1.8812551,-0.9769907,2.0505402,1.2448157,-0.9829898,1.715077,-1.0199522,-1.871474,-1.028237,2.0037484,1.1892115,-0.93071645,-1.6099408,0.97260875,-0.010661448,1.1377902,0.81268024,0.87856793,-0.32380638,2.9452934,-0.66628265,0.75143224,-3.5981448,0.12706132,4.4113812,0.4671631,-0.5156975,0.7278056,0.6471498,0.13718882,0.12510654,0.7394083,-1.3372064,-0.76218253,0.92927337,1.0,0.0,0.0,0.0,0.0,0.0,0.0,-3.5952935,0.26628265,-0.20143223,-5.0266504,9.888256,18.816061,-13.706183,-7.6510906,-9.279323,-2.9444873
29.109556,105.34463,37.59101,4.221402,-1.5198605,2.5638194,0.1458552,-0.81984717,0.64251894,-0.075240105,0.6238864,0.55319697,0.6457431,-0.5454421,1.6330923,-0.9557003,-1.878998,-0.9658483,2.0590682,1.2537858,-0.98526067,1.6991202,-1.0094541,-1.871165,-1.017409,2.0116029,1.1974322,-0.93407243,-1.5919116,1.0748693,0.046955176,1.0633507,0.7758955,0.80326176,-0.3410442,2.909338,-0.6650162,0.7947765,-3.5945475,0.12693428,4.3087845,0.45394707,-0.5224762,0.7374782,0.65845925,0.12850742,0.121410124,0.73155785,-1.3239608,-0.6338234,0.97927547,1.0,0.0,0.0,0.0,0.0,0.0,0.0,-3.559338,0.26501617,-0.24477649,1.5348673,10.056472,6.4133115,-7.7059507,-3.8112283,-7.485521,-2.1928072
29.596977,97.71648,33.839405,4.780514,-1.26032,2.0217614,0.085594036,-0.8159716,0.67773426,-0.03907066,0.6178781,0.57376534,0.65005183,-0.5354971,1.617523,-0.9416807,-1.8750721,-0.9556212,2.0689795,1.2624373,-0.98762214,1.6835581,-0.9980234,-1.8706996,-1.0069681,2.0193353,1.2050043,-0.9375629,-1.5449822,1.1653247,0.047894847,1.0368547,0.7717658,0.74193907,-0.35301852,2.8734207,-0.6637497,0.83709556,-3.5909536,0.12680738,4.2062902,0.44090462,-0.52812576,0.7475679,0.66936433,0.119654864,0.118288554,0.723631,-1.3030468,-0.52557176,1.0177598,1.0,0.0,0.0,0.0,0.0,0.0,0.0,-3.5234208,0.2637497,-0.28709555,4.4825077,8.912587,0.60118437,-2.8885603,-0.48222542,-6.10981,-1.6034007
24.295189,88.37321,29.473658,6.689152,-0.82805645,1.6725695,0.02262223,-0.8123272,0.70007163,-0.03181267,0.6172166,0.5760853,0.65694183,-0.51858103,1.6023254,-0.92801625,-1.8738809,-0.94524646,2.0769439,1.2706985,-0.989421,1.6684805,-0.9858507,-1.8704307,-0.99655974,2.0271287,1.2120501,-0.94113725,-1.4959004,1.2343327,0.021414476,1.0413638,0.781908,0.6920843,-0.3601217,2.8375378,-0.6624832,0.87839043,-3.5873635,0.1266806,4.1038985,0.42803764,-0.5328598,0.75795287,0.6799618,0.11070031,0.115621276,0.71556205,-1.2857996,-0.43999586,1.0442742,1.0,0.0,0.0,0.0,0.0,0.0,0.0,-3.4875379,0.2624832,-0.32839042,4.7387123,6.7920923,-2.2328491,0.22969246,0.97961426,-5.0011516,-1.0642529
18.497698,80.27437,26.054,8.147882,-0.43459308,1.5085363,0.023306346,-0.8111806,0.714204,-0.016509539,0.6055208,0.58399236,0.6601318,-0.51177025,1.5873624,-0.91443026,-1.8720816,-0.9360077,2.085528,1.2780633,-0.9923143,1.6537958,-0.9731649,-1.8703964,-0.9860598,2.0350747,1.2186667,-0.9447622,-1.4597739,1.279673,-0.0012177789,1.0521548,0.7987478,0.6513607,-0.36438718,2.801691,-0.66121674,0.9186622,-3.5837767,0.12655394,4.0016093,0.4152813,-0.53686523,0.7685301,0.6902963,0.101685375,0.11325691,0.7073359,-1.2758962,-0.3704235,1.0608245,1.0,0.0,0.0,0.0,0.0,0.0,0.0,-3.4516912,0.26121673,-0.36866218,3.4580946,4.4399023,-1.8728974,0.8621216,1.6596079,-4.114604,-0.75168014
11.450174,69.93652,21.424026,9.128403,-0.11112338,1.2376467,-0.005627895,-0.81420386,0.7192768,-0.04267039,0.5949553,0.5955145,0.66575146,-0.52076,1.5723754,-0.90123725,-1.8746635,-0.9265643,2.0946262,1.2852418,-0.99683815,1.6393324,-0.9601959,-1.8706596,-0.9754931,2.0432115,1.2249361,-0.9484262,-1.4424021,1.3024244,-0.033753727,1.0573835,0.81870246,0.6186636,-0.36803734,2.7658806,-0.65995026,0.9579118,-3.5801938,0.1264274,3.899423,0.402565,-0.54029846,0.77914685,0.700408,0.09269659,0.11109988,0.6989226,-1.2728567,-0.31827822,1.0604836,1.0,0.0,0.0,0.0,0.0,0.0,0.0,-3.4158807,0.25995025,-0.40791178,1.5918493,2.2021055,-2.906632,0.29671192,1.991713,-3.302431,-0.6551802
7.25014,64.77811,18.981976,10.085005,0.07465589,1.115946,-0.031558227,-0.81032556,0.7302044,-0.06354775,0.5984174,0.600606,0.6706431,-0.51019603,1.5582999,-0.88717544,-1.8770144,-0.9156513,2.103272,1.2920004,-0.9994458,1.6249586,-0.9470819,-1.8712871,-0.9648825,2.0515313,1.2309271,-0.9521131,-1.4363389,1.3141326,-0.07127172,1.0615221,0.83656126,0.592434,-0.3697799,2.7301044,-0.6586838,0.99614036,-3.5766141,0.126301,3.7973385,0.3898468,-0.54327774,0.7897031,0.7103319,0.083785035,0.10911254,0.690292,-1.2744077,-0.27527747,1.0526016,1.0,0.0,0.0,0.0,0.0,0.0,0.0,-3.3801045,0.25868377,-0.44614035,0.46303272,1.1063814,-3.4198732,0.18281937,1.7956495,-2.6589036,-0.44956803
7.5628977,62.306686,18.112148,8.968643,0.011206865,1.0378853,0.032172464,-0.81105095,0.7352196,-0.06377651,0.56696075,0.6137821,0.6703548,-0.5252772,1.5438535,-0.87355995,-1.8776648,-0.90818644,2.1129096,1.2979625,-1.0046408,1.610583,-0.93390214,-1.8722103,-0.9543959,2.0600305,1.236693,-0.9558248,-1.4386208,1.3191313,-0.0982098,1.0434839,0.8542563,0.5713412,-0.3725179,2.6943645,-0.6574249,1.0333488,-3.5730383,0.12617473,3.6953561,0.37712288,-0.54582596,0.80013347,0.7200331,0.074979,0.10726475,0.6814871,-1.2735704,-0.23078077,1.0383964,1.0,0.0,0.0,0.0,0.0,0.0,0.0,-3.3443646,0.25742492,-0.4833488,-0.38616657,0.44252872,-2.3315623,-2.0527363,1.7693877,-2.1149755,-0.55246353
8.880341,62.722008,18.342964,8.375827,-0.07856727,1.0403521,0.08234687,-0.8106103,0.74214137,-0.065373644,0.55083066,0.61451954,0.6765562,-0.51293975,1.529522,-0.859688,-1.8787476,-0.89931285,2.1214824,1.3043487,-1.0071188,1.5961615,-0.92067754,-1.8733127,-0.94417727,2.068667,1.2422835,-0.9595527,-1.4438745,1.3234043,-0.113092296,1.0137664,0.86704355,0.5549338,-0.37378362,2.658661,-0.6561661,1.0695381,-3.5694659,0.12604858,3.5934758,0.36443138,-0.54789734,0.8104201,0.7294645,0.06626675,0.105550796,0.6725691,-1.269687,-0.18230201,1.0239208,1.0,0.0,0.0,0.0,0.0,0.0,0.0,-3.308661,0.25616607,-0.5195381,-0.6942749,0.37224293,-1.096189,-3.2269,1.270783,-1.6302228,-0.4126072
12.383574,63.998962,19.085001,6.9326816,-0.27372146,1.0135771,0.15912525,-0.806985,0.74697816,-0.059448462,0.52046984,0.6169121,0.6691563,-0.5143405,1.515463,-0.84597975,-1.8792576,-0.89213026,2.1303582,1.3091991,-1.0109868,1.5817038,-0.9074043,-1.874459,-0.9343668,2.0774026,1.247729,-0.96329206,-1.446895,1.3284417,-0.113605335,0.9693349,0.87569267,0.5412678,-0.37497774,2.6229935,-0.6549072,1.1047094,-3.5658972,0.12592255,3.4916973,0.3518219,-0.5494232,0.820562,0.73856384,0.057630606,0.103969246,0.6636208,-1.2584622,-0.12693602,1.0093836,1.0,0.0,0.0,0.0,0.0,0.0,0.0,-3.2729936,0.25490722,-0.5547094,-0.48089027,0.45323372,0.37229657,-4.706192,0.8491516,-1.3233423,-0.41757822
13.24076,63.923492,18.796741,6.6039553,-0.3444724,0.92507875,0.17025027,-0.808667,0.75474066,-0.07836096,0.49727324,0.6299131,0.6772449,-0.5032776,1.5008371,-0.8319302,-1.8822951,-0.8846395,2.140394,1.3154534,-1.0136198,1.5672213,-0.8940557,-1.8756511,-0.92503893,2.0862336,1.2530638,-0.9670333,-1.4493684,1.336834,-0.119770244,0.9197743,0.8857864,0.531045,-0.3747921,2.5873623,-0.6536484,1.1388638,-3.562332,0.12579666,3.3900206,0.33935547,-0.55039597,0.8305481,0.7473099,0.04907192,0.10253978,0.65467966,-1.2432647,-0.07142055,0.993284,1.0,0.0,0.0,0.0,0.0,0.0,0.0,-3.2373624,0.25364837,-0.5888638,-0.42653084,0.7959604,-0.20379275,-5.22027,1.0023594,-0.96155405,-0.2726078
16.05286,63.576385,18.77741,5.141174,-0.5150728,0.80496395,0.23266813,-0.8060324,0.75728035,-0.074127,0.45348322,0.634033,0.67492265,-0.4915274,1.486618,-0.81832767,-1.8830638,-0.8796906,2.149637,1.320556,-1.0161861,1.552735,-0.8806232,-1.8768737,-0.91630423,2.09516,1.2583109,-0.9707622,-1.4489337,1.3452299,-0.12177398,0.8570693,0.8948303,0.5230468,-0.37329474,2.5517654,-0.6523895,1.1720021,-3.5587704,0.1256709,3.2884455,0.3270893,-0.5507889,0.8403518,0.7556656,0.040609915,0.10127493,0.6458047,-1.2201002,-0.0132178245,0.974126,1.0,0.0,0.0,0.0,0.0,0.0,0.0,-3.2017655,0.25238952,-0.62200207,-0.13642311,0.8083105,0.20991862,-6.5410256,0.905025,-0.6966233,-0.14121532
16.963219,66.50279,20.130121,6.2061844,-0.415496,0.9271545,0.25985783,-0.80449677,0.76002437,-0.032178134,0.44443008,0.63550645,0.67583925,-0.49609515,1.4722853,-0.8046208,-1.8800915,-0.8718612,2.1587107,1.3258948,-1.0203717,1.5382677,-0.8671144,-1.8779075,-0.9081112,2.1041589,1.2634894,-0.97448057,-1.4466372,1.3526863,-0.09578775,0.8058252,0.90174603,0.5164551,-0.3723037,2.5162048,-0.6511307,1.2041254,-3.5552123,0.12554525,3.186972,0.3150463,-0.5505791,0.85003346,0.76361173,0.03216909,0.1001146,0.6370552,-1.1980759,0.0473716,0.964041,1.0,0.0,0.0,0.0,0.0,0.0,0.0,-3.166205,0.25113067,-0.6541254,0.053167343,0.7126808,3.0256524,-5.3721905,0.6872654,-0.5796552,-0.196141
18.590643,67.74629,20.8486,5.9838,-0.41202998,0.94428897,0.32689393,-0.8053846,0.762804,0.0015705182,0.40404913,0.65082383,0.6756338,-0.48613566,1.4577292,-0.790834,-1.8777505,-0.8677063,2.1692412,1.3310528,-1.0230942,1.5238196,-0.8535398,-1.878516,-0.90046465,2.113257,1.2686125,-0.9781837,-1.4447489,1.3589936,-0.047556147,0.7502439,0.91213405,0.5111923,-0.37051857,2.4806805,-0.64987946,1.2352347,-3.551658,0.12541972,3.0855997,0.3032341,-0.54974365,0.85963506,0.77111304,0.023694236,0.0989789,0.6285112,-1.1736656,0.110569246,0.9566266,1.0,0.0,0.0,0.0,0.0,0.0,0.0,-3.1306806,0.24987945,-0.6852347,0.013661385,0.6028414,5.25869,-5.792153,1.0361314,-0.4346609,-0.116086006
21.799347,67.408264,21.107313,3.9765787,-0.5970969,0.849457,0.43554968,-0.8077964,0.76305825,0.04697159,0.33535925,0.6551367,0.6749955,-0.4943059,1.4430399,-0.777234,-1.8738188,-0.86692876,2.1787705,1.336112,-1.0276142,1.5093752,-0.83991945,-1.8784778,-0.8935524,2.1224542,1.2736918,-0.98187536,-1.4450232,1.3629199,0.022453714,0.67076313,0.9222377,0.5074364,-0.3696637,2.4451904,-0.64862823,1.2653311,-3.548107,0.12529433,2.984329,0.29172707,-0.54823685,0.869136,0.7780975,0.015190814,0.09782799,0.62029284,-1.1406285,0.17781,0.94512725,1.0,0.0,0.0,0.0,0.0,0.0,0.0,-3.0951905,0.24862823,-0.71533114,-0.20141602,0.37772655,7.43789,-8.175087,1.0100365,-0.22290945,-0.20164251
24.008041,68.5017,21.569027,3.1559515,-0.71350217,0.78563905,0.49410456,-0.80485076,0.7719091,0.08718076,0.29087278,0.6628363,0.67526346,-0.4737599,1.4288901,-0.7627285,-1.8697597,-0.8644651,2.1887379,1.3412181,-1.0292513,1.4949366,-0.8262352,-1.8776653,-0.8874985,2.1317582,1.2787405,-0.98554415,-1.4440098,1.3701767,0.10242322,0.5828094,0.93282855,0.5048277,-0.3668755,2.4097366,-0.647377,1.2944156,-3.5445595,0.12516907,2.8831594,0.28058624,-0.5460396,0.87852556,0.7845197,0.006662943,0.0966495,0.61248934,-1.1015234,0.24741913,0.93369967,1.0,0.0,0.0,0.0,0.0,0.0,0.0,-3.0597367,0.24737701,-0.7444156,-0.06132126,0.7208109,8.405956,-9.002304,1.0777473,-0.07354021,0.0062704086
28.023138,66.100815,20.873714,-0.19435406,-1.058314,0.497114,0.5983216,-0.8028895,0.77495724,0.1221953,0.19647273,0.67176676,0.6697337,-0.46972176,1.4146476,-0.7487395,-1.8654457,-0.8678512,2.1989348,1.3457139,-1.0325164,1.4805189,-0.81247556,-1.8760593,-0.8825747,2.141173,1.2837702,-0.98918337,-1.4417382,1.3779528,0.18114354,0.46163654,0.94444907,0.5032437,-0.36363658,2.3743172,-0.6461258,1.322489,-3.5410156,0.12504393,2.782091,0.26994705,-0.5431328,0.88772094,0.79031616,-0.0018060509,0.09548029,0.60521126,-1.0476191,0.31770903,0.91132104,1.0,0.0,0.0,0.0,0.0,0.0,0.0,-3.0243173,0.24612579,-0.772489,0.08094311,0.79431534,8.231458,-12.316728,1.2049079,0.12536049,0.07812381
29.242916,62.973248,19.808884,-1.7365489,-1.1778369,0.25378066,0.64639914,-0.80273515,0.773494,0.16447644,0.12630087,0.67811257,0.671461,-0.44607225,1.4002454,-0.73512614,-1.8596116,-0.8699446,2.2089841,1.3509163,-1.0337906,1.4661223,-0.79866064,-1.873677,-0.87896407,2.150702,1.2887903,-0.99277204,-1.4393082,1.3827732,0.2584312,0.32683653,0.9559534,0.5028278,-0.35808367,2.338934,-0.6448746,1.3495525,-3.5374753,0.12491891,2.6811235,0.25989532,-0.5395546,0.896642,0.7954596,-0.010132345,0.09434513,0.5985317,-0.9863118,0.3831555,0.8817761,1.0,0.0,0.0,0.0,0.0,0.0,0.0,-2.988934,0.24487457,-0.7995525,0.12280941,0.5181074,8.013352,-13.6610985,1.2275577,0.29871464,0.34390092
30.697283,63.188953,20.029667,-2.4161992,-1.261596,0.1596018,0.6966421,-0.8020331,0.77924633,0.22975203,0.050888993,0.6797517,0.67092013,-0.42806447,1.385919,-0.720736,-1.8507018,-0.87387514,2.2186773,1.3558824,-1.0355785,1.4517485,-0.78478944,-1.8704269,-0.87675726,2.1603265,1.2938086,-0.9962949,-1.4369156,1.3886913,0.3480612,0.18479513,0.9653951,0.5029563,-0.3509213,2.303585,-0.64362335,1.3756073,-3.5339386,0.124794014,2.5802572,0.25048828,-0.535305,0.9052694,0.79992944,-0.018295242,0.093246035,0.59252274,-0.91993284,0.4483028,0.8520831,1.0,0.0,0.0,0.0,0.0,0.0,0.0,-2.9535851,0.24362335,-0.82560724,0.14462471,0.6418228,9.179867,-14.352194,1.0598779,0.38582087,0.53516626
25.203915,61.925503,19.10369,1.4220982,-0.85395277,0.18175596,0.569961,-0.80625576,0.77811325,0.26863727,0.042145394,0.6748733,0.6712945,-0.38747427,1.371123,-0.70697814,-1.8435632,-0.87254274,2.2278137,1.3609381,-1.0350423,1.4373747,-0.77087915,-1.866307,-0.8756653,2.170012,1.2988287,-0.9997205,-1.437677,1.3920684,0.43387213,0.0835171,0.97023326,0.5027412,-0.3401911,2.2682724,-0.64237976,1.400654,-3.5304053,0.12466925,2.4794917,0.2416439,-0.53048325,0.9136591,0.80380964,-0.026356177,0.0921588,0.58711326,-0.8667579,0.5033791,0.82991534,1.0,0.0,0.0,0.0,0.0,0.0,0.0,-2.9182725,0.24237975,-0.85065395,-0.14908314,0.3979206,8.703608,-10.249986,0.65557957,0.29953718,0.92223287
20.014507,61.539257,18.589846,5.6666036,-0.40104708,0.25809053,0.43282712,-0.8031728,0.77727497,0.3121772,0.042431578,0.6802301,0.66792595,-0.3641296,1.3570575,-0.69315165,-1.8350893,-0.8714222,2.238035,1.3656213,-1.0361335,1.4230047,-0.75695264,-1.8613555,-0.8752161,2.1797433,1.3038412,-1.0030278,-1.4371445,1.3930333,0.51574713,0.031728562,0.9750061,0.50160867,-0.32795346,2.232996,-0.64113617,1.4246938,-3.5268757,0.1245446,2.378827,0.23320961,-0.52516556,0.92190707,0.80721843,-0.034420338,0.091035694,0.58217347,-0.8286975,0.55027264,0.81812537,1.0,0.0,0.0,0.0,0.0,0.0,0.0,-2.882996,0.24113616,-0.8746938,-0.0030755997,0.16469955,8.233368,-5.2838554,0.6958842,0.14681816,1.0894835
14.316112,62.05968,18.264692,10.407029,0.04830718,0.39828587,0.27333435,-0.8045168,0.78040564,0.35065645,0.062430702,0.6764053,0.6672841,-0.3404342,1.342553,-0.6789121,-1.8262899,-0.8689731,2.2473838,1.3705696,-1.0370712,1.4086329,-0.74301183,-1.8556354,-0.87489855,2.1895013,1.3088385,-1.0062054,-1.4374248,1.3946362,0.59071946,0.031554744,0.9769125,0.499677,-0.31467924,2.197754,-0.6398926,1.4477278,-3.5233495,0.124420084,2.278263,0.22502899,-0.519413,0.93012846,0.8102806,-0.04261588,0.08983848,0.577545,-0.807505,0.59148324,0.8181183,1.0,0.0,0.0,0.0,0.0,0.0,0.0,-2.847754,0.23989257,-0.8977278,-0.081682205,0.2333641,7.492721,-0.11314154,0.44705868,-0.0038087368,1.2013316
8.800315,63.096268,18.179688,15.431318,0.50075155,0.58750826,0.111196265,-0.8014153,0.7819702,0.3864639,0.11924979,0.66431165,0.6697501,-0.29609194,1.3284913,-0.66481483,-1.8169891,-0.8629736,2.2559323,1.3758135,-1.0358146,1.3942724,-0.72905195,-1.8492191,-0.8741461,2.1992326,1.3138148,-1.0092286,-1.4358852,1.3966744,0.6585907,0.08946821,0.97299534,0.49728978,-0.29866573,2.1625462,-0.638649,1.469757,-3.519827,0.12429569,2.1777995,0.21692276,-0.51327133,0.93845123,0.8131144,-0.05109703,0.088541895,0.57305694,-0.8041754,0.62921596,0.83139,1.0,0.0,0.0,0.0,0.0,0.0,0.0,-2.8125463,0.23864898,-0.91975695,0.101709366,0.27923584,6.745839,5.70329,-0.105285645,-0.12976527,1.4747083
2.1708183,59.31915,16.124874,19.368225,0.9008252,0.5849395,-0.09078843,-0.8049319,0.7787423,0.37769794,0.18340634,0.66052467,0.6713127,-0.2948601,1.3137792,-0.6511777,-1.8114493,-0.85580546,2.265285,1.380946,-1.0387146,1.3799101,-0.7150911,-1.842366,-0.872481,2.2089067,1.3187662,-1.0121049,-1.436577,1.396196,0.6939363,0.191934,0.9668164,0.49456587,-0.2843114,2.1273746,-0.6374054,1.4907821,-3.5163078,0.12417141,2.0774364,0.20872688,-0.50683594,0.9469324,0.8158612,-0.059940286,0.087159194,0.56848985,-0.81696504,0.6569877,0.84781957,1.0,0.0,0.0,0.0,0.0,0.0,0.0,-2.7773747,0.23740539,-0.9407821,-0.13132095,0.027513504,3.4793854,10.143539,-0.33124685,-0.23308992,1.3133705
0.80424404,57.054657,15.088476,19.574276,0.8981442,0.50681096,-0.13690162,-0.8092614,0.7811442,0.39055768,0.20873015,0.66034114,0.6720634,-0.2961361,1.2989839,-0.6369767,-1.8033102,-0.851608,2.2749407,1.3859726,-1.0417185,1.3655173,-0.70112836,-1.8352802,-0.8697859,2.2185273,1.3236929,-1.0148553,-1.4404551,1.3964838,0.7131843,0.2950024,0.9610901,0.492058,-0.27219483,2.0922375,-0.6361618,1.5108045,-3.512792,0.12404727,1.9771736,0.20039177,-0.5001297,0.9555531,0.8185794,-0.06913387,0.085727744,0.5637366,-0.8310775,0.68289185,0.8606262,1.0,0.0,0.0,0.0,0.0,0.0,0.0,-2.7422376,0.2361618,-0.9608045,-0.45776367,0.09729862,1.8928766,10.2038145,-0.30834675,-0.22557974,1.0937929
1.8027792,54.393013,14.032444,17.765533,0.667562,0.32029814,-0.12820032,-0.8109121,0.78353745,0.38629416,0.23037809,0.6493587,0.6667816,-0.29405138,1.2844261,-0.6227746,-1.7966508,-0.8467481,2.2834632,1.3903711,-1.0442604,1.3510786,-0.6871532,-1.8281353,-0.86619914,2.228064,1.3285929,-1.017497,-1.4453452,1.3981626,0.7147773,0.37963563,0.9522869,0.4895801,-0.26186,2.0571365,-0.634922,1.5298251,-3.50928,0.12392325,1.8770108,0.19196701,-0.4931755,0.9642377,0.82126904,-0.07859474,0.08432938,0.55877405,-0.8378627,0.70797837,0.8647759,1.0,0.0,0.0,0.0,0.0,0.0,0.0,-2.7071366,0.23492202,-0.9798251,-0.5635023,0.22916794,0.15699863,8.35858,-0.6450057,-0.20035505,0.9206593
2.7261267,49.778694,12.321395,15.202509,0.41808474,0.04933928,-0.10653055,-0.8186546,0.78087604,0.3685876,0.24281652,0.6419021,0.66371506,-0.29705453,1.2692132,-0.6090656,-1.7912765,-0.84191746,2.2922542,1.3949645,-1.0472023,1.3365618,-0.6731733,-1.8211181,-0.8619782,2.2375016,1.3334719,-1.0200509,-1.4541082,1.398071,0.6974464,0.43584427,0.9417189,0.48756137,-0.25349298,2.02207,-0.63368607,1.5478448,-3.5057714,0.12379935,1.7769482,0.18354797,-0.48600388,0.9728724,0.82392174,-0.08819334,0.08305157,0.55360395,-0.83557,0.72875184,0.85645604,1.0,0.0,0.0,0.0,0.0,0.0,0.0,-2.67207,0.23368606,-0.99784476,-0.96080303,0.04811287,-1.7070413,5.501527,-0.84979534,-0.111716986,0.732106
6.7186956,48.52413,12.065745,11.493187,0.017568171,-0.18809232,-0.0003925711,-0.819236,0.7856562,0.3647756,0.2307044,0.6425973,0.6629842,-0.28754014,1.2546382,-0.5946077,-1.7846406,-0.8389077,2.3017614,1.3997703,-1.0488049,1.3219649,-0.65917623,-1.814307,-0.8574854,2.2468514,1.3383356,-1.0225247,-1.4616251,1.400463,0.6760688,0.4533122,0.9334251,0.48642755,-0.24567172,1.9870377,-0.6324501,1.5648645,-3.5022664,0.12367558,1.6769856,0.17526245,-0.47862244,0.98134905,0.82648337,-0.09779619,0.08196202,0.5483096,-0.8177724,0.75084376,0.8381936,1.0,0.0,0.0,0.0,0.0,0.0,0.0,-2.6370378,0.2324501,-1.0148644,-0.8352995,0.28955936,-2.0716786,1.6315877,-0.6586075,0.035631657,0.6791711
9.1608715,45.527107,11.240222,8.849269,-0.20369029,-0.43484026,0.06524724,-0.81499296,0.7801988,0.3467937,0.23294659,0.6399387,0.6628346,-0.2707359,1.2404655,-0.5811564,-1.7796276,-0.8341907,2.3108454,1.4046191,-1.0495983,1.3073355,-0.645182,-1.8077571,-0.85297453,2.2561326,1.3431917,-1.0249165,-1.4636152,1.3992877,0.6479719,0.44996232,0.9266356,0.48602644,-0.23737127,1.9520416,-0.63121414,1.5808853,-3.498765,0.12355193,1.5771229,0.16722488,-0.47103882,0.98958385,0.8289072,-0.10730107,0.08109114,0.54297644,-0.78970647,0.76919174,0.8119769,1.0,0.0,0.0,0.0,0.0,0.0,0.0,-2.6020417,0.23121414,-1.0308852,-0.26872158,-0.06597042,-2.7395844,-0.45230985,-0.5298734,0.15436411,0.7303864
9.844798,46.089104,11.528082,8.622519,-0.2480501,-0.4651822,0.09355452,-0.8206285,0.78346676,0.34843227,0.24169804,0.6341071,0.6596074,-0.25579238,1.2252727,-0.56683534,-1.7729139,-0.82880473,2.3195434,1.4091525,-1.0504957,1.2926813,-0.6311878,-1.8014266,-0.8485266,2.265345,1.348044,-1.0272244,-1.4663253,1.3995384,0.6282196,0.44265765,0.9199251,0.48548895,-0.22872116,1.9170799,-0.6299782,1.5959083,-3.495267,0.1234284,1.4773601,0.15948296,-0.46326065,0.9975673,0.83117247,-0.116692506,0.08044002,0.5376472,-0.7596625,0.78884226,0.7871222,1.0,0.0,0.0,0.0,0.0,0.0,0.0,-2.56708,0.22997817,-1.0459082,-0.34091473,0.07522106,-1.8946171,-0.83892345,-0.52717924,0.13778806,0.7644266
11.017658,47.513954,12.302916,8.760569,-0.23830616,-0.44749382,0.1553618,-0.812584,0.7827189,0.3559274,0.2540862,0.63047206,0.6644961,-0.1652157,1.2114229,-0.55291593,-1.7658339,-0.823118,2.3283923,1.4144937,-1.043746,1.2780482,-0.61719453,-1.7951915,-0.84409773,2.2744966,1.3528944,-1.0293854,-1.4627092,1.3994141,0.6222677,0.442642,0.91367567,0.4854317,-0.21224032,1.8821545,-0.6287422,1.6099343,-3.4917724,0.12330499,1.377697,0.15205002,-0.45526123,1.0053318,0.83323646,-0.12601264,0.079969145,0.53239346,-0.7288709,0.8113774,0.7663694,1.0,0.0,0.0,0.0,0.0,0.0,0.0,-2.5321546,0.22874221,-1.0599344,0.3080845,0.03709793,-0.51813126,-0.09197593,-0.4823804,0.17408133,1.5413523
7.8866167,44.402378,11.095383,10.527395,-0.009057343,-0.47399548,0.08168697,-0.8204527,0.7754439,0.33334482,0.27917412,0.6197556,0.6628622,-0.14050724,1.1960028,-0.53965014,-1.761857,-0.81618035,2.336472,1.4191806,-1.0434362,1.2634188,-0.60323656,-1.7890651,-0.83953536,2.283568,1.357741,-1.0313729,-1.4632471,1.3947887,0.60970455,0.46036604,0.90524673,0.4849862,-0.19444735,1.8472633,-0.6275101,1.6229645,-3.4882815,0.123181716,1.2781335,0.14485359,-0.4470787,1.0129013,0.835129,-0.13529542,0.0796606,0.52717054,-0.7065999,0.82846284,0.74727106,1.0,0.0,0.0,0.0,0.0,0.0,0.0,-2.4972634,0.22751006,-1.0729644,-0.11765957,-0.4083395,-1.1969686,1.6676784,-0.6823063,0.10740161,1.6765833
5.3678923,45.67955,11.304868,13.370295,0.19347084,-0.34515172,0.01954247,-0.8216238,0.7815645,0.3243647,0.32486883,0.6021785,0.66024625,-0.044986617,1.1812564,-0.5250801,-1.7566286,-0.8070485,2.3437858,1.4237657,-1.0358716,1.2487723,-0.58929574,-1.7830818,-0.8345772,2.2925134,1.362578,-1.0331258,-1.4653983,1.3939962,0.59484875,0.50733095,0.89169544,0.483737,-0.16921197,1.8124065,-0.62628174,1.6349998,-3.484794,0.12305856,1.1786697,0.13781548,-0.438694,1.0203428,0.8368863,-0.14462455,0.07952111,0.52190167,-0.6938285,0.84840536,0.73655766,1.0,0.0,0.0,0.0,0.0,0.0,0.0,-2.4624066,0.22628173,-1.0849998,-0.293684,-0.02758503,-1.4284372,4.593259,-1.1751056,-0.029820204,2.4169536
3.9089713,40.926853,9.542259,12.963051,0.22687584,-0.51903737,-0.013483688,-0.8268173,0.7730285,0.28848252,0.32532343,0.6012784,0.6550853,-0.0073016426,1.1660905,-0.5119929,-1.7542335,-0.80204487,2.352641,1.4280865,-1.0338559,1.234078,-0.57539403,-1.7773864,-0.8291832,2.3013368,1.3674017,-1.0346154,-1.4710106,1.3891236,0.5613291,0.5497277,0.8800394,0.4821242,-0.14256771,1.7775841,-0.6250534,1.6460412,-3.48131,0.12293552,1.0793053,0.13089752,-0.43017578,1.0276362,0.83854294,-0.15396819,0.079575494,0.51653373,-0.6815911,0.8607737,0.72036177,1.0,0.0,0.0,0.0,0.0,0.0,0.0,-2.4275842,0.2250534,-1.0960412,-0.6477833,-0.43354034,-3.299582,4.1187525,-0.9850383,-0.055909157,2.5656314
6.475964,41.12275,9.821058,10.89154,0.018384337,-0.63860637,0.075995505,-0.82332087,0.7735089,0.29154792,0.31424025,0.60082513,0.65245235,0.038556017,1.1517459,-0.49804315,-1.7482316,-0.7977592,2.3614192,1.432647,-1.0307598,1.2193495,-0.5615343,-1.7719734,-0.8235203,2.3100686,1.3722082,-1.0358304,-1.4737134,1.3850968,0.5349843,0.57150584,0.87145114,0.4806513,-0.11464596,1.7427979,-0.6238251,1.6560897,-3.4778292,0.122812614,0.9800402,0.124162674,-0.42152023,1.0347418,0.84006745,-0.1632669,0.07983175,0.5111335,-0.6603184,0.87424016,0.70076597,1.0,0.0,0.0,0.0,0.0,0.0,0.0,-2.392798,0.22382507,-1.1060896,-0.34439564,-0.35431385,-2.5576115,2.073145,-0.7066488,-0.014799833,2.6914449
6.9205585,35.28991,7.7520185,8.317298,-0.15422702,-0.9629279,0.09753949,-0.8236109,0.7642142,0.23327228,0.30167186,0.5916785,0.6555632,0.120237276,1.1369884,-0.48511285,-1.7486461,-0.79335314,2.3692365,1.4377645,-1.0238067,1.2046057,-0.54774797,-1.7670219,-0.81781256,2.3187127,1.3770071,-1.0367306,-1.4747792,1.3766959,0.48205525,0.57005036,0.8625854,0.48022878,-0.08209785,1.708046,-0.62259674,1.6651464,-3.4743521,0.12268983,0.8808744,0.11770439,-0.41280365,1.0415727,0.8414579,-0.17239286,0.08035157,0.50574005,-0.63093543,0.8766557,0.6707037,1.0,0.0,0.0,0.0,0.0,0.0,0.0,-2.358046,0.22259673,-1.1151464,-0.16570091,-0.78496933,-5.2408814,-0.2625227,-0.7387161,0.14548302,3.1699314
5.262231,30.307077,5.825607,8.120446,-0.12873018,-1.1622945,0.04139942,-0.8229973,0.7575806,0.16817056,0.3194537,0.57878476,0.65713924,0.20631261,1.122306,-0.4719899,-1.7502048,-0.7858672,2.3765912,1.442721,-1.0160993,1.1898619,-0.5340656,-1.7628334,-0.81210864,2.32725,1.3818041,-1.0372685,-1.4741993,1.3656936,0.39790606,0.57010794,0.85132563,0.4803153,-0.044678163,1.6733284,-0.6213684,1.6732119,-3.4708784,0.12256716,0.78180766,0.111530304,-0.4041481,1.0480751,0.84276754,-0.18125147,0.08121198,0.5002951,-0.60236245,0.86954045,0.6371225,1.0,0.0,0.0,0.0,0.0,0.0,0.0,-2.3233285,0.2213684,-1.1232119,0.0049114227,-1.0372877,-8.404964,-0.12998581,-0.95893145,0.20704865,3.669972
5.982027,23.368961,3.6407094,4.950113,-0.30652702,-1.5201771,0.07894097,-0.82164544,0.7380972,0.115316585,0.27279234,0.562513,0.66320294,0.2619673,1.1076974,-0.4602559,-1.7513016,-0.7848294,2.3835013,1.4481244,-1.0110718,1.1751372,-0.52056444,-1.7596138,-0.80663455,2.3356462,1.3866125,-1.0374249,-1.4719188,1.3451809,0.29652295,0.5393641,0.8359097,0.48178464,-0.0059430855,1.6386452,-0.6201439,1.6802876,-3.4674082,0.122444615,0.68284005,0.10571098,-0.39564896,1.0541563,0.8440248,-0.18969853,0.08247475,0.49480757,-0.56478745,0.8489946,0.59243554,1.0,0.0,0.0,0.0,0.0,0.0,0.0,-2.2886453,0.22014388,-1.1302876,0.20713806,-1.9783497,-10.16522,-3.2170534,-1.3859868,0.41168928,3.818573
7.817327,22.63459,3.6320953,2.9881258,-0.5027343,-1.6684933,0.1614237,-0.8191642,0.72925395,0.08959321,0.23671192,0.53519297,0.6640793,0.3422158,1.0932207,-0.44763905,-1.7506545,-0.78296334,2.3891654,1.4530205,-1.0032034,1.1604487,-0.5072826,-1.7573287,-0.8016354,2.3438249,1.3914381,-1.0371693,-1.4678323,1.3227963,0.20576851,0.4863822,0.8123401,0.48364598,0.035754114,1.6039963,-0.6189232,1.6863744,-3.4639416,0.122322194,0.5839714,0.10033226,-0.38737106,1.0597677,0.8452078,-0.19764552,0.08418352,0.48935992,-0.51887774,0.8261825,0.54523015,1.0,0.0,0.0,0.0,0.0,0.0,0.0,-2.2539964,0.21892318,-1.1363745,0.41320324,-2.1635056,-9.103462,-5.423069,-2.2241592,0.47751665,4.117907
5.909477,17.937769,2.1711004,3.4393883,-0.3778247,-1.7918181,0.11913735,-0.8177676,0.7060774,0.024163343,0.23297489,0.49896574,0.6599337,0.4209972,1.0786719,-0.43667486,-1.7549124,-0.7783379,2.3937213,1.4574316,-0.9950696,1.145804,-0.49428543,-1.756005,-0.79712355,2.3516908,1.3962771,-1.0364789,-1.4633812,1.2923359,0.10764558,0.43903187,0.77834684,0.48489237,0.080013216,1.5693836,-0.6177025,1.6914734,-3.4604783,0.1221999,0.48520154,0.0953846,-0.37937546,1.0649031,0.8463442,-0.20506097,0.086360686,0.48393512,-0.4773613,0.7952239,0.49785262,1.0,0.0,0.0,0.0,0.0,0.0,0.0,-2.2193837,0.21770248,-1.1414733,0.4654169,-2.9640198,-9.8803835,-4.867798,-3.2561302,0.4106462,4.3795705
3.550127,13.896773,0.85493755,4.6303053,-0.19572216,-1.8681184,0.041921806,-0.8136853,0.684504,-0.047028754,0.22714466,0.4669677,0.6579941,0.4674505,1.0644355,-0.42583504,-1.760708,-0.77440906,2.3983874,1.4620764,-0.9897338,1.1312128,-0.4816359,-1.7557533,-0.7929884,2.3591676,1.4011236,-1.0353535,-1.457537,1.2561041,-0.002622771,0.4045699,0.7377835,0.48551312,0.123141326,1.5348053,-0.6164818,1.6955853,-3.4570186,0.122077726,0.38653052,0.090789795,-0.37173462,1.0695764,0.8474941,-0.21194007,0.08902084,0.47844568,-0.44302127,0.7577704,0.4525098,1.0,0.0,0.0,0.0,0.0,0.0,0.0,-2.1848054,0.21648178,-1.1455853,0.6155729,-3.5372972,-11.132399,-3.5881758,-3.9004445,0.32753348,4.268184
-0.11287832,8.606075,-1.0244913,6.5118732,0.08421624,-1.9416591,-0.08644112,-0.8158272,0.6606184,-0.13872588,0.22629473,0.4441665,0.6549026,0.49606004,1.0496302,-0.41557404,-1.7696259,-0.7703589,2.4035842,1.4666139,-0.9857475,1.1166598,-0.46938595,-1.7567832,-0.78907454,2.3662362,1.4059702,-1.033822,-1.4545918,1.2149103,-0.13685505,0.3864384,0.69703287,0.48535255,0.16303205,1.5002613,-0.6152611,1.6987113,-3.4535623,0.12195567,0.28795812,0.08646965,-0.3645363,1.0738082,0.848747,-0.218278,0.09217111,0.47274476,-0.42004496,0.7120475,0.40926203,1.0,0.0,0.0,0.0,0.0,0.0,0.0,-2.1502614,0.21526107,-1.1487112,0.32305717,-4.0327787,-13.560195,-1.97469,-3.9033413,0.21944642,3.9450526
-1.1749701,7.1912007,-1.3741841,7.2838845,0.27249599,-1.968094,-0.11441332,-0.8145887,0.64007777,-0.20069988,0.2063517,0.45809308,0.65440345,0.4987644,1.0352008,-0.40537816,-1.7768532,-0.76843935,2.4120455,1.4714105,-0.9839455,1.1021277,-0.45755324,-1.7591636,-0.78533614,2.3730226,1.4108149,-1.0319337,-1.4527164,1.173007,-0.27228457,0.3690498,0.67267317,0.4847904,0.19708076,1.4657516,-0.6140404,1.7008523,-3.4501095,0.121833734,0.18948427,0.08233261,-0.35779953,1.0776246,0.8501402,-0.22407655,0.09574505,0.46678075,-0.4030242,0.6637509,0.36883312,1.0,0.0,0.0,0.0,0.0,0.0,0.0,-2.1157517,0.21404037,-1.1508522,0.21855831,-4.107213,-13.679939,-1.8981278,-2.2734404,0.15336871,3.358498
1.2196698,10.608296,0.3164811,6.552828,0.14232254,-1.8990129,0.0001495555,-0.8104794,0.61371636,-0.19546674,0.17159477,0.39299294,0.6554945,0.5211964,1.0210798,-0.3961816,-1.7787102,-0.7681767,2.4123218,1.4763644,-0.97981405,1.0876223,-0.44615826,-1.7625358,-0.78187525,2.3794503,1.4156557,-1.0297326,-1.4495316,1.1285671,-0.3591763,0.33799708,0.63338137,0.48432016,0.22760372,1.4312763,-0.6128197,1.7020092,-3.44666,0.121711925,0.09110887,0.0784111,-0.35149002,1.0810547,0.85161316,-0.22937223,0.099689215,0.4606576,-0.38050854,0.62290055,0.3313331,1.0,0.0,0.0,0.0,0.0,0.0,0.0,-2.0812764,0.21281967,-1.1520092,0.35700798,-4.3651104,-8.787423,-3.2330215,-3.8001537,0.15938878,2.9973836
1.5435758,14.444458,1.7239943,8.06196,0.20334649,-1.7516528,0.013947811,-0.80849296,0.59693795,-0.23062447,0.17717901,0.36438826,0.6523959,0.5284269,1.006773,-0.38646448,-1.7855983,-0.76415735,2.4158893,1.4808953,-0.9768899,1.0731512,-0.43517765,-1.7665851,-0.7786528,2.3854585,1.420487,-1.0272588,-1.4461005,1.088142,-0.42028576,0.31663755,0.59041685,0.48320392,0.25371686,1.3968353,-0.6116066,1.7021831,-3.443214,0.12159024,-0.0071681677,0.0746994,-0.34552765,1.0841618,0.8531169,-0.23425214,0.10395331,0.4544349,-0.36068773,0.59079087,0.3011936,1.0,0.0,0.0,0.0,0.0,0.0,0.0,-2.0468354,0.21160659,-1.152183,0.35538673,-3.9735556,-6.161112,-2.2577286,-4.1822314,0.057131052,2.5431724
1.4807892,16.15651,2.4111786,9.109642,0.15907985,-1.6548395,0.012394868,-0.80824375,0.5709348,-0.2502757,0.17533395,0.26934114,0.6503568,0.55170584,0.99232686,-0.37808418,-1.7916126,-0.76111937,2.4123926,1.4855227,-0.97208816,1.0587088,-0.42460808,-1.771075,-0.7755791,2.3908296,1.425305,-1.0245389,-1.4436208,1.0467097,-0.4586248,0.30390534,0.5193742,0.48179385,0.2776607,1.3624287,-0.6103935,1.701375,-3.4397714,0.12146868,-0.10534695,0.07118416,-0.3398323,1.0869972,0.8546302,-0.23879467,0.10856818,0.44810396,-0.34114423,0.5650965,0.2752602,1.0,0.0,0.0,0.0,0.0,0.0,0.0,-2.0124288,0.21039352,-1.151375,0.24290085,-4.08175,-3.8511038,-1.388377,-7.001078,0.012308359,2.3151636
-0.4704547,14.94108,2.09066,11.319235,0.40359104,-1.5739987,-0.057557497,-0.80476207,0.5417306,-0.28422546,0.19904186,0.2295862,0.6523029,0.55080706,0.97823256,-0.37043503,-1.7994976,-0.7556749,2.413788,1.4905353,-0.96945816,1.0442969,-0.41448197,-1.7759292,-0.7724587,2.3954568,1.4301096,-1.0216111,-1.4403139,1.0014317,-0.49437526,0.31427878,0.44419986,0.4804015,0.29761335,1.3280563,-0.60918045,1.6995859,-3.4363325,0.12134723,-0.20342755,0.067798615,-0.33437347,1.0896103,0.85616696,-0.24307744,0.113522254,0.44159278,-0.33123675,0.5410608,0.25450507,1.0,0.0,0.0,0.0,0.0,0.0,0.0,-1.9780563,0.20918044,-1.149586,0.31080246,-4.475856,-3.581953,0.9165287,-7.413644,-0.017887354,1.9084394
-0.85423326,13.292633,2.1310816,12.172913,0.5554795,-1.5197994,-0.04292098,-0.7921319,0.49745923,-0.26391158,0.21459165,0.13806278,0.649424,0.55992204,0.96508366,-0.36473605,-1.8023204,-0.7509995,2.4092631,1.495052,-0.9656189,1.0299727,-0.4049085,-1.7809303,-0.7691227,2.3991914,1.434899,-1.0185021,-1.4299221,0.9428269,-0.5021359,0.33977675,0.3502154,0.47886005,0.31503457,1.2937183,-0.6079674,1.6968167,-3.4328969,0.12122591,-0.3014101,0.06447601,-0.32915115,1.092035,0.8577035,-0.2471788,0.118762985,0.4349054,-0.32614943,0.5185387,0.23655125,1.0,0.0,0.0,0.0,0.0,0.0,0.0,-1.9437183,0.20796737,-1.1468167,1.0385036,-5.812824,-0.796324,2.4489522,-9.300142,-0.038272142,1.6551852
0.82581544,11.334933,2.1320071,9.822659,0.43558484,-1.6401231,0.06829777,-0.7898919,0.4560146,-0.23234476,0.17518102,0.062296174,0.6494251,0.5619049,0.95098346,-0.35930705,-1.8041648,-0.7516046,2.405421,1.4998415,-0.9623116,1.0157572,-0.39599833,-1.7857673,-0.7657267,2.401915,1.4396769,-1.0152386,-1.4188193,0.87390375,-0.47756526,0.33936572,0.24647716,0.47780257,0.32988334,1.2594147,-0.6067543,1.6930684,-3.4294646,0.1211047,-0.3992947,0.06125641,-0.32418823,1.0942414,0.8591889,-0.25106928,0.12423977,0.4281625,-0.31460634,0.49147877,0.21352759,1.0,0.0,0.0,0.0,0.0,0.0,0.0,-1.9094146,0.2067543,-1.1430683,1.1475086,-6.838429,2.4218202,-0.1059711,-10.304636,0.03928542,1.411587
1.3662398,6.4066067,1.325441,7.692877,0.44916415,-1.7932037,0.15787782,-0.7857443,0.39774808,-0.1894639,0.15282224,-0.025063977,0.65409493,0.567119,0.9371828,-0.35622352,-1.8047137,-0.7504445,2.3994086,1.5050864,-0.95852673,1.0016505,-0.38790497,-1.7901199,-0.7624947,2.4035249,1.4444491,-1.0118397,-1.4077084,0.78797483,-0.42144,0.31776136,0.13260895,0.47765338,0.34285012,1.2251453,-0.6055412,1.688342,-3.426036,0.120983616,-0.49708143,0.058164597,-0.31956482,1.0961728,0.8605818,-0.25467995,0.12988292,0.4215063,-0.30168125,0.4552893,0.1847553,1.0,0.0,0.0,0.0,0.0,0.0,0.0,-1.8751453,0.20554122,-1.1383419,1.1967897,-8.532405,5.539113,-2.1928787,-11.336875,0.15209913,1.2375772
1.6811278,4.6768947,1.0440786,6.7513385,0.5181259,-1.8960292,0.1981808,-0.77474374,0.35676768,-0.17289998,0.13759793,-0.055425264,0.65184104,0.5618421,0.9241761,-0.3522282,-1.8074099,-0.7487349,2.3979824,1.5096332,-0.9556555,0.9876782,-0.38068947,-1.7938774,-0.759565,2.4041162,1.4492193,-1.0083321,-1.3933144,0.69964486,-0.36088756,0.28465414,0.034759954,0.47735023,0.3532027,1.1909103,-0.6043358,1.6826385,-3.4226105,0.12086266,-0.59477043,0.055194855,-0.3153267,1.0978049,0.86186826,-0.25796437,0.13559929,0.41503042,-0.28963104,0.41407946,0.15460722,1.0,0.0,0.0,0.0,0.0,0.0,0.0,-1.8409103,0.20433578,-1.1326385,1.546073,-8.773136,5.964488,-3.331828,-9.750199,0.12674332,0.9855151
3.415661,2.1568966,0.43279922,3.202265,0.22989109,-2.1584609,0.27784282,-0.76105875,0.31010655,-0.15450257,0.06787792,-0.13703224,0.64891756,0.5538262,0.9115723,-0.3496788,-1.8093276,-0.7527772,2.390413,1.514111,-0.9529495,0.97388804,-0.3743609,-1.7970741,-0.7572495,2.4037156,1.4539858,-1.0047406,-1.3737365,0.61079454,-0.306133,0.21389137,-0.06474657,0.47696304,0.36087626,1.1567097,-0.60313034,1.6759588,-3.4191887,0.12074183,-0.6923618,0.052433014,-0.31158066,1.0990746,0.86305267,-0.26078653,0.14138871,0.40882725,-0.2672049,0.36209962,0.11650265,1.0,0.0,0.0,0.0,0.0,0.0,0.0,-1.8067096,0.20313033,-1.1259587,2.107644,-8.820093,5.3520203,-7.079825,-9.936957,0.12990832,0.72152615
5.49708,-3.2243187,-0.9979143,-2.5723705,-0.23184514,-2.5751474,0.39451268,-0.7573376,0.25519025,-0.12975457,-0.05362456,-0.22824533,0.6524945,0.5376628,0.89815426,-0.34884188,-1.8100495,-0.7626119,2.380891,1.5192353,-0.95097435,0.9602791,-0.36894736,-1.7997634,-0.75612986,2.4022622,1.4587523,-1.0010957,-1.3560232,0.51840854,-0.2570584,0.07796409,-0.17252086,0.47706205,0.36529878,1.1225433,-0.6019249,1.6683038,-3.4157703,0.120621115,-0.7898556,0.050016403,-0.30850983,1.0998507,0.864157,-0.26288852,0.14730668,0.40301734,-0.22938506,0.29045516,0.0636415,1.0,0.0,0.0,0.0,0.0,0.0,0.0,-1.7725433,0.20192489,-1.1183038,1.9722939,-9.167707,4.753441,-13.577368,-10.794358,0.18697381,0.3882885
2.549618,-28.549473,-7.785363,-10.086308,-0.15443197,-3.3717384,0.43406135,-0.75460917,0.1306818,-0.13462476,-0.19993629,-0.3074878,0.6608962,0.5137892,0.8848182,-0.3558792,-1.8132259,-0.77612346,2.3715134,1.5248419,-0.94971675,0.946818,-0.3648089,-1.8021362,-0.7568928,2.3996987,1.4635245,-0.99743694,-1.3416176,0.37921718,-0.23170121,-0.12765913,-0.28450277,0.47767505,0.36576384,1.0884113,-0.60071945,1.6596748,-3.4123552,0.12050052,-0.8872519,0.047937393,-0.3065338,1.0998975,0.8652881,-0.26386148,0.15330073,0.39768374,-0.19781949,0.16672641,-0.015767284,1.0,0.0,0.0,0.0,0.0,0.0,0.0,-1.7384113,0.20071945,-1.1096747,1.776886,-13.851404,2.278453,-20.522434,-11.243937,0.19783378,-0.042271614
-7.7881856,-72.58671,-19.361904,-14.8888035,1.1414747,-4.275022,0.33075315,-0.7534342,-0.07097464,-0.14573604,-0.31413108,-0.27972633,0.65346533,0.46449488,0.87147456,-0.37190634,-1.8167098,-0.7883059,2.371726,1.5288709,-0.95098746,0.9334675,-0.3627704,-1.8044441,-0.75993216,2.396315,1.4682871,-0.9938206,-1.3311715,0.14543432,-0.23138006,-0.36245027,-0.35689837,0.47558522,0.3597554,1.0543137,-0.599514,1.6500725,-3.4089434,0.120380044,-0.98455083,0.045804977,-0.30633163,1.0989499,0.8666407,-0.26331082,0.15894328,0.39285922,-0.21629512,-0.029610414,-0.121585526,1.0,0.0,0.0,0.0,0.0,0.0,0.0,-1.7043136,0.199514,-1.1000724,1.5444756,-23.36899,-0.25694072,-23.40571,-7.385564,-0.2725482,-0.76410174
-15.269591,-124.75202,-31.227972,-24.4416,2.5190861,-5.291774,0.5287601,-0.72617567,-0.37270558,-0.0028599068,-0.51824135,-0.32282773,0.65464795,0.45743805,0.8608499,-0.40004095,-1.80473,-0.8117563,2.3640323,1.533752,-0.9480768,0.9203173,-0.3641561,-1.806153,-0.76577723,2.3922982,1.4730078,-0.99027675,-1.307458,-0.23365594,-0.1512092,-0.6580084,-0.41788396,0.4691562,0.35170376,1.0202503,-0.59830856,1.6394979,-3.4055352,0.12025969,-1.0817524,0.04313469,-0.30872726,1.0966562,0.86830914,-0.2608592,0.16346468,0.38893548,-0.28451747,-0.3092288,-0.26557797,1.0,0.0,0.0,0.0,0.0,0.0,0.0,-1.6702503,0.19830856,-1.0894978,3.0100584,-38.035126,7.8933983,-29.392756,-6.486434,-1.150006,-1.0795414
-11.573593,-119.66521,-27.601307,-24.362696,2.807677,-4.817075,0.8636524,-0.6979007,-0.5413244,0.24993362,-0.6455017,-0.43931454,0.6684273,0.47708,0.8505272,-0.41828853,-1.7811596,-0.8303274,2.3483667,1.5398505,-0.9425688,0.90749705,-0.3695782,-1.8058784,-0.7745768,2.387488,1.4776541,-0.98679394,-1.2721819,-0.6459684,0.08779688,-0.9534222,-0.5036115,0.4599645,0.34609082,0.9862213,-0.59710693,1.627952,-3.4021304,0.12013945,-1.178857,0.03976059,-0.31375885,1.0929338,0.87011164,-0.2566477,0.16634202,0.38648143,-0.35756773,-0.5666564,-0.40839696,1.0,0.0,0.0,0.0,0.0,0.0,0.0,-1.6362213,0.19710693,-1.0779519,3.9403439,-41.491486,24.092455,-29.379963,-9.067851,-1.8616259,-0.8430362
-7.9750814,-97.786766,-21.58693,-19.00027,2.7302923,-4.0477567,0.89014256,-0.6306114,-0.6758068,0.28892717,-0.7134961,-0.4596672,0.63776064,0.47490403,0.84443593,-0.43715888,-1.7769856,-0.8459264,2.3415213,1.5414301,-0.9393035,0.8952776,-0.3788589,-1.8031757,-0.785916,2.3818917,1.4821802,-0.9833607,-1.2047879,-1.023242,0.33255914,-1.1938305,-0.5797414,0.44619095,0.3415842,0.95222473,-0.5959091,1.6154357,-3.3987288,0.12001933,-1.2758644,0.03571129,-0.32102203,1.0879083,0.87188274,-0.25105825,0.16744941,0.3856822,-0.4244418,-0.77633286,-0.53539586,1.0,0.0,0.0,0.0,0.0,0.0,0.0,-1.6022247,0.19590911,-1.0654356,6.8568945,-38.064407,24.910038,-23.951769,-8.101845,-2.537614,-0.6937325
2.3766646,-41.19113,-6.5314445,-7.616453,1.8207598,-2.5234234,0.83459824,-0.5213904,-0.713163,0.35238534,-0.69830894,-0.53375125,0.6351421,0.43083456,0.8431386,-0.4501752,-1.7679372,-0.85574687,2.3285165,1.5456945,-0.9402773,0.8841444,-0.39102158,-1.7982605,-0.7988173,2.3754983,1.4865938,-0.97998947,-1.0833156,-1.2813919,0.54522896,-1.3221202,-0.65956545,0.43715227,0.33556652,0.9182625,-0.5947113,1.6019503,-3.395331,0.11989933,-1.3727747,0.031303406,-0.32962418,1.0819517,0.8734116,-0.24477449,0.16710128,0.38641277,-0.45096657,-0.8825705,-0.61827534,1.0,0.0,0.0,0.0,0.0,0.0,0.0,-1.5682625,0.1947113,-1.0519502,11.99944,-26.03371,21.475094,-12.820101,-8.092952,-1.674819,-0.63256025
7.9516134,7.9783826,5.4737535,4.2756834,1.0450549,-1.2511013,0.59168744,-0.47146454,-0.7266687,0.36310536,-0.6849052,-0.5552117,0.6411032,0.38616002,0.836998,-0.46368846,-1.7619499,-0.8673078,2.319977,1.5507041,-0.94137347,0.8743025,-0.4048079,-1.791825,-0.8122698,2.368422,1.4909617,-0.9766974,-0.9516125,-1.4112844,0.6755195,-1.3529686,-0.72297424,0.43607584,0.32768974,0.88433456,-0.5935135,1.5874964,-3.3919363,0.11977945,-1.4695883,0.026849747,-0.338665,1.075496,0.8745827,-0.23843305,0.1658371,0.3882689,-0.4466302,-0.9028184,-0.6580163,1.0,0.0,0.0,0.0,0.0,0.0,0.0,-1.5343345,0.19351348,-1.0374963,13.027596,-13.0444765,12.832975,-3.059435,-6.1470866,-0.31341314,-0.6190479
11.929141,42.410862,14.148829,12.404375,0.4820366,-0.42777854,0.41286993,-0.41126612,-0.74198496,0.4037369,-0.6682083,-0.578864,0.6423811,0.34987888,0.8331759,-0.4790064,-1.7514514,-0.87909067,2.3105357,1.5551997,-0.9417095,0.86577857,-0.41920218,-1.7844951,-0.82554114,2.3608193,1.4953562,-0.9734978,-0.8195257,-1.4485502,0.7504659,-1.3183385,-0.7716883,0.4412521,0.31836393,0.850441,-0.5923157,1.572075,-3.388545,0.11965969,-1.566305,0.022603989,-0.3474846,1.0688924,0.8753526,-0.23247397,0.1641197,0.3908685,-0.4198256,-0.8663639,-0.66458184,1.0,0.0,0.0,0.0,0.0,0.0,0.0,-1.500441,0.19231567,-1.0220749,13.144171,-3.6498547,6.971693,3.5250425,-4.4914126,0.76622367,-0.62689185
11.4509115,54.12907,16.361929,16.243645,0.2935213,-0.24114734,0.2112488,-0.35319522,-0.75754917,0.3759664,-0.6512132,-0.57234985,0.6348567,0.31139237,0.83045906,-0.4949571,-1.7468985,-0.89066243,2.3035843,1.5588418,-0.94235855,0.85851157,-0.4336141,-1.7769458,-0.8382393,2.3528886,1.499808,-0.9704127,-0.6957672,-1.4383184,0.7546184,-1.2533542,-0.7991333,0.4478547,0.3063669,0.8165817,-0.59111786,1.5556873,-3.385157,0.11954005,-1.662925,0.018655777,-0.35583496,1.0623293,0.87578106,-0.22704531,0.1622492,0.39386943,-0.38828295,-0.81485623,-0.65664256,1.0,0.0,0.0,0.0,0.0,0.0,0.0,-1.4665817,0.19111785,-1.0056872,12.369478,1.1389971,-0.1292944,6.604719,-2.4083734,1.0638416,-0.8827269
10.9228945,52.85041,15.055084,14.987842,0.06614338,-0.50903016,0.11064431,-0.28653347,-0.76278806,0.31344926,-0.6622688,-0.56313765,0.6301201,0.29774812,0.82985824,-0.50989294,-1.7456009,-0.9044662,2.2965748,1.56282,-0.9406379,0.85244715,-0.44778952,-1.7698734,-0.8503872,2.3448129,1.504315,-0.9674515,-0.57681066,-1.410304,0.6902545,-1.2015802,-0.8095657,0.45291713,0.29357317,0.7827549,-0.58992004,1.538334,-3.3817725,0.11942053,-1.7594484,0.015048981,-0.36375046,1.0558149,0.8759757,-0.2220143,0.16040738,0.39704618,-0.35257566,-0.77546716,-0.65242976,1.0,0.0,0.0,0.0,0.0,0.0,0.0,-1.4327549,0.18992004,-0.988334,11.856758,2.8946877,-6.7941427,5.2884817,-0.84751844,0.8423269,-1.0327637
8.734709,40.367474,10.324275,11.579731,0.0048690736,-1.0567893,0.0061624814,-0.20838861,-0.7756976,0.18786901,-0.6644678,-0.547773,0.623457,0.28473532,0.8316083,-0.5253593,-1.7510865,-0.916834,2.2900355,1.5666608,-0.93897796,0.84760344,-0.46174368,-1.764075,-0.86217844,2.336741,1.5088526,-0.96462196,-0.45390618,-1.3903416,0.542922,-1.1713624,-0.80655915,0.45451355,0.27988318,0.7489624,-0.58872986,1.5200163,-3.3783915,0.119301125,-1.8558754,0.011766434,-0.3714981,1.0492238,0.8760823,-0.21707645,0.15868211,0.4002218,-0.3205309,-0.7671193,-0.66393393,1.0,0.0,0.0,0.0,0.0,0.0,0.0,-1.3989624,0.18872985,-0.9700163,12.16259,2.0291805,-14.77207,3.121233,0.30741692,0.29720664,-1.2406051
6.816153,24.342844,4.180319,6.320716,-0.16709474,-1.7479453,-0.06359181,-0.12812243,-0.7818842,-0.00017893,-0.6912584,-0.52988726,0.61469364,0.31485367,0.8347912,-0.53993213,-1.7640929,-0.9313043,2.2837522,1.5703219,-0.9331366,0.8440453,-0.47559294,-1.7604911,-0.8739382,2.328772,1.5133826,-0.9619002,-0.32393953,-1.3832287,0.29810756,-1.1772763,-0.7942302,0.4519162,0.26958773,0.71520424,-0.5875397,1.500735,-3.3750138,0.11918184,-1.9522058,0.0087890625,-0.37945557,1.0423329,0.87626153,-0.21179417,0.15715985,0.4032489,-0.28975037,-0.79786664,-0.70013076,1.0,0.0,0.0,0.0,0.0,0.0,0.0,-1.3652042,0.18753967,-0.95073503,12.768328,0.67396164,-24.185986,-0.5042553,1.0504603,-0.37605762,-1.0358691
7.5298057,11.369662,-0.6724136,0.3735286,-0.45343077,-2.3686433,-0.049800128,-0.024405936,-0.79115355,-0.20314567,-0.7232329,-0.51475173,0.60470766,0.35544977,0.8416047,-0.5547083,-1.7808057,-0.9462615,2.2772968,1.5738534,-0.9263552,0.8419472,-0.4894751,-1.7599571,-0.8860012,2.3209634,1.5178629,-0.9592423,-0.17289607,-1.3901736,-0.026411997,-1.2158302,-0.777128,0.44557166,0.26417986,0.6814785,-0.5863495,1.4804912,-3.3716395,0.11906268,-2.04844,0.0061531067,-0.38796997,1.0348972,0.8766222,-0.20574011,0.15589869,0.4060788,-0.25387785,-0.8625119,-0.76134056,1.0,0.0,0.0,0.0,0.0,0.0,0.0,-1.3314785,0.18634948,-0.93049115,14.774558,-0.7834196,-31.903467,-3.785181,1.4098525,-0.9837985,-0.6484091
7.5480776,5.984234,-2.8467479,-2.0250514,-0.58407974,-2.5661924,-0.027959622,0.043776505,-0.7947694,-0.3660843,-0.7435076,-0.5196504,0.596837,0.40470278,0.84632486,-0.568952,-1.7965655,-0.960352,2.2689984,1.5775466,-0.918772,0.84134257,-0.50347215,-1.7628505,-0.89855254,2.3132882,1.5222689,-0.95659107,-0.0239441,-1.4032307,-0.3751394,-1.2679422,-0.76510596,0.43740585,0.26487598,0.6477871,-0.5851593,1.4592857,-3.3682685,0.11894363,-2.1445777,0.0038852692,-0.3972168,1.0267526,0.87720144,-0.19866069,0.15494213,0.40871057,-0.21661194,-0.93952644,-0.8364307,1.0,0.0,0.0,0.0,0.0,0.0,0.0,-1.2977871,0.1851593,-0.9092857,14.594863,-1.412034,-34.31496,-5.1193714,0.8772969,-1.28209,-0.070381165
6.478649,11.947073,-0.596346,0.525156,-0.4535793,-2.1303685,0.02546461,0.05655383,-0.7912429,-0.41602153,-0.75703555,-0.54366416,0.6018716,0.4336121,0.846998,-0.5825964,-1.8044527,-0.9742561,2.2589219,1.5824561,-0.9132299,0.84191287,-0.51757413,-1.7686775,-0.9116074,2.305632,1.5266062,-0.95390266,0.08348475,-1.4127668,-0.65078276,-1.31756,-0.766489,0.43100235,0.26983532,0.61413,-0.5839691,1.4371196,-3.3649008,0.118824705,-2.2406194,0.001947403,-0.40709686,1.0179007,0.87793857,-0.19061154,0.15428682,0.41120127,-0.18364626,-0.99749583,-0.9068783,1.0,0.0,0.0,0.0,0.0,0.0,0.0,-1.26413,0.18396911,-0.8871196,10.602401,-1.0426044,-27.25489,-4.8364162,-0.39561987,-1.0519981,0.40479898
6.369027,21.578217,3.4421062,3.9651504,-0.25403792,-1.5459769,0.114040464,0.08005064,-0.79252243,-0.4479982,-0.7677367,-0.559466,0.60413677,0.45992455,0.84991795,-0.5968264,-1.8134773,-0.988381,2.2496855,1.5870199,-0.9079102,0.84328043,-0.53174573,-1.7765224,-0.92507994,2.297896,1.5308939,-0.9511408,0.15445481,-1.4188209,-0.82879734,-1.3567735,-0.7770084,0.4269981,0.27820104,0.5805073,-0.58277893,1.4139937,-3.3615365,0.1187059,-2.336565,0.00030899048,-0.41735077,1.0084438,0.87871224,-0.18182847,0.15386136,0.41367847,-0.15453424,-1.0286179,-0.9652152,1.0,0.0,0.0,0.0,0.0,0.0,0.0,-1.2305073,0.18277892,-0.8639937,7.0695357,-0.6676197,-17.729473,-3.795743,-1.2180209,-0.7011771,0.81510544
0.9614804,30.274004,6.8313794,10.887831,0.3318404,-0.760829,0.08433437,0.034723084,-0.79289097,-0.43094236,-0.7648415,-0.5820267,0.616741,0.46367902,0.84675276,-0.6110348,-1.8196167,-1.0015641,2.2396932,1.592568,-0.90477294,0.8448454,-0.54595166,-1.7853076,-0.9387976,2.2899804,1.5351664,-0.94829315,0.1578048,-1.4213414,-0.895871,-1.3761717,-0.79680365,0.42678714,0.28704488,0.54691696,-0.58159256,1.3899091,-3.3581758,0.11858721,-2.4324148,-0.0011787415,-0.42767715,0.99855155,0.8794342,-0.17263907,0.15358512,0.41617635,-0.14443046,-1.0277078,-1.0044479,1.0,0.0,0.0,0.0,0.0,0.0,0.0,-1.1969169,0.18159255,-0.83990914,0.49101114,-0.30474663,-6.8761826,-1.7760038,-2.1180868,-0.16627312,0.9275079
-7.452146,35.709408,8.417569,18.190046,1.0238386,-0.080574036,-0.024058208,-0.041282088,-0.7866786,-0.41556635,-0.765359,-0.5944412,0.61651826,0.47951436,0.8407172,-0.62461954,-1.8268642,-1.0153335,2.2305362,1.5968182,-0.9003417,0.84588873,-0.56013566,-1.7941711,-0.9525982,2.2818475,1.5394465,-0.945352,0.0876566,-1.4176297,-0.8843761,-1.3806336,-0.8197376,0.42851806,0.29678816,0.513361,-0.58041,1.3648669,-3.3548183,0.11846864,-2.5281687,-0.0027561188,-0.43780518,0.98839885,0.8800926,-0.16331892,0.15340512,0.41860557,-0.15950924,-1.001983,-1.0264107,1.0,0.0,0.0,0.0,0.0,0.0,0.0,-1.163361,0.18041,-0.81486684,-6.6676736,0.30999184,0.8128047,-0.21836758,-2.4741888,0.1541555,1.0532916
-14.199894,35.568115,7.9237127,22.246365,1.5833033,0.23383552,-0.12129742,-0.09772029,-0.7891775,-0.423372,-0.773163,-0.5758087,0.61282426,0.47687235,0.83611673,-0.6390534,-1.8365083,-1.0299145,2.2242665,1.6007289,-0.8976648,0.84591925,-0.5742863,-1.8027122,-0.9664122,2.2735734,1.5437456,-0.9423222,-0.023641687,-1.4144648,-0.84540296,-1.3807732,-0.8306908,0.4304525,0.3052715,0.47983742,-0.57922745,1.3388677,-3.3514643,0.11835019,-2.6238267,-0.004640579,-0.44763565,0.9780775,0.88072425,-0.15399742,0.15324979,0.4208611,-0.19539191,-0.9688038,-1.0414045,1.0,0.0,0.0,0.0,0.0,0.0,0.0,-1.1298374,0.17922744,-0.78886765,-10.679344,0.2367258,3.504908,0.27604103,-1.326096,0.21023154,0.94770193
-10.99556,36.817722,8.990906,20.515135,1.5089778,0.18116999,-0.04202588,-0.081287384,-0.796662,-0.43028125,-0.77949405,-0.5614549,0.6040121,0.475999,0.8377905,-0.6539525,-1.8457403,-1.0443616,2.217428,1.6041468,-0.8947223,0.84504664,-0.5884455,-1.8108757,-0.9802376,2.2652802,1.5480562,-0.93921703,-0.10726026,-1.4166214,-0.8077824,-1.382241,-0.82926476,0.43132183,0.31266874,0.4463482,-0.5780449,1.3119127,-3.3481135,0.11823186,-2.7193892,-0.006828308,-0.4571457,0.96759987,0.8813094,-0.14470994,0.15300828,0.42301437,-0.2251841,-0.9381533,-1.0567863,1.0,0.0,0.0,0.0,0.0,0.0,0.0,-1.0963482,0.17804489,-0.76191264,-7.996276,-0.282979,3.3923984,0.11572838,-0.033807755,0.095909834,0.86845756
-4.928282,39.374138,10.689532,17.482136,1.1408544,0.05659139,0.06179671,-0.06797871,-0.79922915,-0.43339664,-0.77900654,-0.5816591,0.6127882,0.4766486,0.8382488,-0.6683684,-1.8542153,-1.0581383,2.2071142,1.6093351,-0.89155215,0.84366095,-0.6026457,-1.8187606,-0.99407446,2.2569718,1.5523802,-0.93604606,-0.14828534,-1.421316,-0.78298277,-1.3834802,-0.8312465,0.43272197,0.31900662,0.4128933,-0.57686234,1.2840027,-3.3447661,0.11811365,-2.8148563,-0.00919342,-0.46637726,0.95695084,0.8817912,-0.13546208,0.15264215,0.42519966,-0.23859216,-0.9105379,-1.074185,1.0,0.0,0.0,0.0,0.0,0.0,0.0,-1.0628933,0.17686233,-0.73400265,-3.854218,-0.5133152,2.1511912,0.084233284,-0.3022194,0.14093518,0.7735491
-0.35298562,39.312622,10.827571,14.52164,0.768036,-0.18615198,0.098611586,-0.05341372,-0.7978976,-0.48427626,-0.77570105,-0.59399605,0.60272396,0.48529088,0.8383196,-0.68243545,-1.8671882,-1.0716445,2.1975722,1.6126525,-0.887517,0.84216464,-0.61688405,-1.8267295,-1.0079066,2.2486138,1.556708,-0.932815,-0.1495363,-1.4247817,-0.80233836,-1.3825935,-0.83744854,0.43254405,0.32491356,0.37947083,-0.5756798,1.2551388,-3.341422,0.11799556,-2.9102278,-0.011587143,-0.47539902,0.946081,0.88214886,-0.12617534,0.15219271,0.42746982,-0.23819064,-0.8916521,-1.097638,1.0,0.0,0.0,0.0,0.0,0.0,0.0,-1.0294708,0.17567977,-0.70513874,0.029432774,-0.38084984,-2.177906,0.26276112,-0.7059097,-0.058031082,0.7070601
-10.182994,31.847864,6.429445,17.467941,1.2624543,-0.1580686,-0.110751584,-0.14291553,-0.8035431,-0.5257184,-0.77151847,-0.5916853,0.59715104,0.4757454,0.8278731,-0.6972384,-1.8793014,-1.0850585,2.1894453,1.6164231,-0.8852405,0.8403765,-0.6311758,-1.8351562,-1.0217024,2.2401986,1.5610243,-0.92954105,-0.1877435,-1.4308549,-0.8567866,-1.3776575,-0.8436096,0.43095714,0.32848972,0.34608078,-0.5744972,1.2253219,-3.3380814,0.11787759,-3.005504,-0.014160156,-0.4842949,0.93492836,0.8824907,-0.11671791,0.15171938,0.42961395,-0.26212665,-0.8802932,-1.1273059,1.0,0.0,0.0,0.0,0.0,0.0,0.0,-0.99608076,0.17449722,-0.6753219,-3.563559,-0.6930351,-5.631721,0.77126026,-0.8326888,-0.26559234,0.42977333
-21.336723,24.509506,1.8952882,20.483555,1.8640366,-0.07286781,-0.29610962,-0.22858769,-0.8085996,-0.56540924,-0.78655267,-0.56162566,0.56322086,0.4639969,0.81751776,-0.7120358,-1.8916972,-1.1003577,2.184036,1.6173464,-0.88314134,0.8378407,-0.6455439,-1.8442905,-1.0355135,2.231814,1.5652949,-0.926248,-0.2743693,-1.4393507,-0.9327862,-1.3810681,-0.83775264,0.42512217,0.32978657,0.31272507,-0.5733223,1.1945529,-3.334744,0.117759734,-3.100685,-0.017181396,-0.49311447,0.9234244,0.88295704,-0.10694008,0.15121663,0.43137473,-0.314391,-0.87463224,-1.1642877,1.0,0.0,0.0,0.0,0.0,0.0,0.0,-0.96272504,0.17332229,-0.6445529,-8.279851,-0.9948492,-7.755697,0.058317184,0.22923946,-0.7712066,0.1742363
-26.313799,23.215748,0.6698557,21.928045,2.1050608,0.09120393,-0.35126674,-0.2791808,-0.81430733,-0.5845373,-0.79016083,-0.57556844,0.5519665,0.46158576,0.8099226,-0.7269746,-1.9027442,-1.1145296,2.174257,1.6204915,-0.88008946,0.83427966,-0.6600111,-1.8541534,-1.0493838,2.2234597,1.5694987,-0.9229483,-0.38192546,-1.4498379,-1.0046676,-1.3874279,-0.8364045,0.41797912,0.33023995,0.2794037,-0.57214737,1.1628329,-3.33141,0.117642,-3.1957705,-0.020812988,-0.5018692,0.9115367,0.88360614,-0.09678085,0.15066816,0.43263462,-0.37843475,-0.86650026,-1.2032876,1.0,0.0,0.0,0.0,0.0,0.0,0.0,-0.92940366,0.17214736,-0.61283284,-10.325205,-1.2230158,-7.3397875,-0.17914772,-0.27565956,-0.9375751,0.08614063
-31.072897,23.18497,-0.11500692,23.598883,2.340981,0.28372604,-0.4087444,-0.34955326,-0.81822664,-0.61759734,-0.78903085,-0.58458483,0.52588445,0.45200655,0.79932433,-0.7418338,-1.9159131,-1.1282868,2.1650012,1.6220871,-0.87774765,0.8295113,-0.6745842,-1.8647048,-1.0633055,2.2150788,1.5736147,-0.9196524,-0.5069312,-1.4603876,-1.072341,-1.3920357,-0.83999425,0.40861204,0.32949746,0.24611473,-0.57097244,1.1301626,-3.3280792,0.117524385,-3.2907612,-0.025161743,-0.5105095,0.8992605,0.8844668,-0.086223036,0.1500718,0.43331552,-0.45335698,-0.854144,-1.2420717,1.0,0.0,0.0,0.0,0.0,0.0,0.0,-0.8961147,0.17097244,-0.5801626,-12.033754,-1.2572289,-6.909585,0.047254562,-0.8178592,-1.18711,-0.034874678
-41.879215,21.472916,-2.727325,27.502056,2.89503,0.57969314,-0.58306843,-0.47561583,-0.8153833,-0.6697821,-0.7902765,-0.5746019,0.51206195,0.4097342,0.7819497,-0.7561225,-1.9316831,-1.1423331,2.1576185,1.624821,-0.878679,0.823176,-0.689226,-1.875983,-1.0772578,2.2066827,1.5776316,-0.91639656,-0.67387885,-1.4662887,-1.146852,-1.394275,-0.84166706,0.3982569,0.32436192,0.2128582,-0.5697975,1.0965432,-3.3247519,0.11740689,-3.3856568,-0.030447006,-0.519001,0.8866005,0.88562137,-0.07523599,0.1494257,0.4332277,-0.5535137,-0.8366567,-1.2804854,1.0,0.0,0.0,0.0,0.0,0.0,0.0,-0.8628582,0.16979751,-0.5465432,-16.131474,-0.8520603,-7.5666904,0.39196014,-0.7491708,-1.3415217,-0.4865229
-50.15777,22.200289,-3.8681788,30.623198,3.4262314,0.9111182,-0.6853231,-0.59463906,-0.81390566,-0.696054,-0.794873,-0.528638,0.48837635,0.37513793,0.7637121,-0.77061653,-1.9455884,-1.1567451,2.1538188,1.6264693,-0.87888277,0.81493247,-0.70389444,-1.8879478,-1.0912348,2.1984086,1.581534,-0.91321605,-0.8723291,-1.4680865,-1.2135009,-1.3967171,-0.82510287,0.38625345,0.31610593,0.179636,-0.5686226,1.0619756,-3.3214278,0.11728951,-3.4804575,-0.0368824,-0.5272598,0.8735824,0.88713807,-0.0638254,0.14864898,0.4322219,-0.67477405,-0.81103075,-1.3155735,1.0,0.0,0.0,0.0,0.0,0.0,0.0,-0.829636,0.16862258,-0.5119756,-19.218863,-0.4938364,-6.763339,0.45850277,0.983727,-1.5590191,-0.7773578
-51.971523,26.980354,-2.4802985,31.869051,3.5653534,1.2153895,-0.7117921,-0.6822192,-0.8085313,-0.7200674,-0.78455967,-0.5184759,0.50843596,0.3064918,0.74671054,-0.78474754,-1.9599545,-1.1696907,2.146561,1.6323776,-0.88256687,0.80470526,-0.7185381,-1.900502,-1.1051813,2.190333,1.5853411,-0.91016334,-1.0708565,-1.4643033,-1.2695245,-1.391484,-0.80413884,0.37750673,0.30187076,0.14644623,-0.56744766,1.0264606,-3.3181071,0.11717224,-3.5751636,-0.04455757,-0.53518677,0.8602621,0.88902426,-0.052069936,0.1476779,0.4302507,-0.8000786,-0.77435124,-1.3441073,1.0,0.0,0.0,0.0,0.0,0.0,0.0,-0.7964462,0.16744766,-0.47646064,-19.244743,0.046515465,-5.6820154,1.2421846,1.4137268,-1.2490809,-1.3516247
-44.216507,35.23028,1.7754741,29.52612,3.0899918,1.3638763,-0.58340174,-0.7256018,-0.8006479,-0.7408069,-0.7763478,-0.5423833,0.5377637,0.27405554,0.7321451,-0.7986029,-1.9745827,-1.1828161,2.1360946,1.6391175,-0.8827578,0.79278433,-0.7330988,-1.913533,-1.1190325,2.1823754,1.5890967,-0.907268,-1.2308302,-1.4542766,-1.3143879,-1.3811032,-0.79518926,0.3737013,0.28570503,0.11328888,-0.56627655,0.98999935,-3.3147898,0.11705509,-3.669775,-0.05331993,-0.54268265,0.84670156,0.8911959,-0.04008205,0.14652236,0.42742783,-0.90406215,-0.72759664,-1.3665822,1.0,0.0,0.0,0.0,0.0,0.0,0.0,-0.76328886,0.16627654,-0.43999934,-15.501785,0.70939064,-4.557872,1.6718388,0.30829906,-0.7160902,-1.528132
-31.437,42.35174,6.7813187,24.951803,2.4198048,1.3428106,-0.3839074,-0.74287856,-0.80340445,-0.7495156,-0.770546,-0.5426684,0.542769,0.19692127,0.7184965,-0.81343925,-1.9884845,-1.1960871,2.1281085,1.6433736,-0.88757586,0.7796961,-0.7475746,-1.9268997,-1.1327692,2.1744714,1.5928293,-0.9045767,-1.3336747,-1.4461308,-1.3441482,-1.3694892,-0.79029983,0.3724257,0.26394907,0.08016586,-0.56510925,0.9525927,-3.3114758,0.116938055,-3.7642918,-0.062885284,-0.54969406,0.8329389,0.89351857,-0.02797295,0.1451605,0.42399353,-0.97681576,-0.6765507,-1.3857734,1.0,0.0,0.0,0.0,0.0,0.0,0.0,-0.73016584,0.16510925,-0.40259266,-9.938931,0.59256554,-3.0564308,1.6627789,0.062692165,-0.3949523,-2.061379
-20.11546,46.96596,10.588907,20.441553,1.8507204,1.2379757,-0.2371364,-0.7597211,-0.8035893,-0.7644819,-0.7726893,-0.517138,0.51314235,0.041158833,0.703724,-0.82793355,-2.0033479,-1.2100382,2.1227577,1.6441436,-0.90046084,0.76593935,-0.7619894,-1.9405086,-1.1464316,2.1666741,1.5965353,-0.90220207,-1.388935,-1.4403651,-1.3666695,-1.3636822,-0.7771773,0.3694262,0.22909562,0.04707718,-0.56394196,0.91424155,-3.3081648,0.11682114,-3.8587139,-0.072971344,-0.5561943,0.8189835,0.8958899,-0.015814573,0.1435159,0.42015982,-1.0226517,-0.6258563,-1.4048865,1.0,0.0,0.0,0.0,0.0,0.0,0.0,-0.69707716,0.16394195,-0.36424154,-5.2973986,0.4185915,-2.3425102,0.9692669,1.0192156,-0.51635504,-3.3486784
-15.635717,50.206543,12.780572,19.236452,1.701172,1.2900436,-0.20329686,-0.7909729,-0.80160826,-0.7711179,-0.7532802,-0.49577895,0.5169026,-0.06759384,0.6868421,-0.8421502,-2.0176203,-1.2217596,2.1170962,1.6482255,-0.9089615,0.7517868,-0.7763575,-1.9542854,-1.1599776,2.1590638,1.6002184,-0.9002356,-1.4234699,-1.4360421,-1.3815337,-1.3503275,-0.75632703,0.3674985,0.1864065,0.01402092,-0.56277466,0.8749469,-3.3048573,0.116704345,-3.9530416,-0.0834465,-0.5621834,0.8048691,0.89826965,-0.0036903857,0.14152893,0.4160137,-1.0584681,-0.5733723,-1.4194591,1.0,0.0,0.0,0.0,0.0,0.0,0.0,-0.6640209,0.16277465,-0.32494688,-3.2845736,0.30331612,-1.5712976,1.6662359,1.860702,-0.37222505,-4.1173697
-12.078504,51.39793,13.9558525,17.993874,1.6286916,1.2412564,-0.21386899,-0.7986801,-0.80715847,-0.7838697,-0.741205,-0.45389608,0.47674903,-0.27776426,0.6719188,-0.8570733,-2.0326724,-1.2340981,2.1136742,1.6478933,-0.928012,0.7374264,-0.7907236,-1.9682052,-1.1733538,2.15177,1.6038557,-0.89881843,-1.4398347,-1.4371345,-1.395822,-1.3323526,-0.72118706,0.36202115,0.12733787,-0.019002914,-0.56160736,0.8347017,-3.301553,0.11658767,-4.0483403,-0.09423447,-0.5676689,0.79061157,0.9006619,0.008344825,0.13911702,0.411564,-1.0876985,-0.52337694,-1.433415,1.0,0.0,0.0,0.0,0.0,0.0,0.0,-0.63099706,0.16160735,-0.2847017,-1.508522,-0.21927357,-1.5067339,2.0959616,3.3435106,-0.7183194,-5.7378173
-12.558756,54.047188,15.109846,19.155598,1.8240829,1.4079705,-0.24016748,-0.8199915,-0.80396897,-0.77769005,-0.71056664,-0.39806384,0.49100623,-0.32208353,0.6554272,-0.8711205,-2.0459743,-1.2444105,2.1119637,1.6529564,-0.9310268,0.7229048,-0.8050974,-1.9821956,-1.1864382,2.1449533,1.607453,-0.8979811,-1.4558668,-1.4378424,-1.4001883,-1.2994858,-0.66877097,0.35851604,0.069761,-0.051992416,-0.56044006,0.79350424,-3.298252,0.116471104,-4.1435437,-0.105335236,-0.57263947,0.77627707,0.9030831,0.020189509,0.1362125,0.4067916,-1.1197824,-0.4700011,-1.4387044,0.0,1.0,0.0,0.0,0.0,0.0,0.0,-0.59800756,0.16044006,-0.24350423,-1.4950991,-0.17821789,-0.4957676,3.5666466,5.0904512,-0.49877763,-5.5709453
-9.953112,56.081657,16.389448,18.128368,1.5898812,1.4613658,-0.20995177,-0.8201347,-0.8032065,-0.7778629,-0.7010309,-0.41116077,0.4935082,-0.39618447,0.6408913,-0.88541806,-2.0599818,-1.2565413,2.1038373,1.6568038,-0.93759954,0.7083285,-0.81939363,-1.9974054,-1.1995386,2.1378384,1.6125394,-0.89726835,-1.4576876,-1.4286638,-1.5454353,-1.3072503,-0.7260425,0.5279014,0.0600825,-0.07082939,-0.5586319,0.78843546,-1.6732465,0.240517,0.23367693,-0.11670685,-0.57696915,0.7614818,0.90538347,0.031759433,0.13350345,0.40180704,-1.1421994,-0.40567648,-1.4930176,0.0,1.0,0.0,0.0,0.0,0.0,0.0,-0.5791706,0.15863189,-0.23843545,-0.43399334,-0.23906231,-0.18575191,4.0959835,3.3620954,-1.0721087,-5.981494
45.484955,176.0,110.0,110.0,3.8124743,13.5356045,-1.5638314,-0.8087134,0.56392777,0.6630882,0.6856849,-0.28524366,0.64522415,-0.38421234,0.62745714,-0.76300085,-1.9310966,-1.1309701,2.109314,1.6770618,-0.93568957,0.69734883,-0.8361554,-2.0051339,-1.1993116,2.1219006,1.6266614,-0.8969231,-0.96352243,-1.6762153,-0.6508131,0.4325059,-1.7644377,1.763795,0.06640826,-0.08754921,-0.55622864,0.79002607,-1.6715736,0.24027653,0.13419215,-0.12774849,-0.57855225,0.75091654,0.90738344,0.033173677,0.13549753,0.39647835,-1.0915442,-0.05663853,-0.9163199,1.0,0.0,0.0,0.0,0.0,0.0,0.0,-0.56245077,0.15622863,-0.24002606,53.781746,-0.0002861023,48.812008,163.97737,-68.343285,140.6889,12.759055
-45.28607,164.97981,57.353645,99.39333,8.108439,5.2557507,-2.2627647,-0.8176101,-0.62014896,-0.30574504,0.74342775,-0.56295556,0.5817338,-0.16032884,0.61558783,-0.8981703,-2.0357084,-1.1249689,2.065605,1.6848348,-0.912956,0.6877291,-0.8520875,-2.0090554,-1.1880354,2.104025,1.6442872,-0.8964167,-0.959914,-1.5664757,-0.3046502,1.3610935,-1.7977087,1.7681518,0.047680095,-0.10425377,-0.5538254,0.79062253,-1.6699024,0.2400363,0.034806833,-0.13968277,-0.5782051,0.74472934,0.90997905,0.028278984,0.14013872,0.38922945,-1.2233518,0.07537587,-0.5244314,1.0,0.0,0.0,0.0,0.0,0.0,0.0,-0.5457462,0.15382537,-0.24062252,0.80447197,10.66854,35.104053,93.40681,-4.0824413,2.1829128,-1.1999481
-62.176353,149.5765,36.052372,77.37714,6.3345933,3.03582,-1.9187331,-0.8069683,-0.4424156,-0.5131474,0.72157913,-0.6171504,0.55166537,0.2910113,0.6070323,-0.89632905,-2.0603702,-1.1158775,2.0423098,1.6994537,-0.8673156,0.67726064,-0.8654475,-2.0124848,-1.1710714,2.0875263,1.6609479,-0.89574724,-1.0738596,-1.2605171,-0.3565054,1.8102332,-1.602121,1.6354567,0.07352942,-0.120939255,-0.55142975,0.79022586,-1.6682329,0.2397963,-0.06447913,-0.15285683,-0.5767441,0.7413816,0.9133381,0.02176608,0.14593856,0.37952802,-1.3452333,0.17780001,-0.27883792,1.0,0.0,0.0,0.0,0.0,0.0,0.0,-0.5290607,0.15142974,-0.24022585,-10.782146,30.173325,-5.349791,45.532845,19.148659,-12.264395,2.6566246
-49.144745,109.24149,22.613567,47.27077,4.150915,1.4890597,-0.9710063,-0.7777847,-0.5149584,-0.33284262,0.7763405,-0.61725914,0.56405836,0.25781593,0.5994822,-0.9169434,-2.045769,-1.0934373,2.0258005,1.7173537,-0.8699657,0.66541886,-0.87630224,-2.0165932,-1.1522745,2.073389,1.675892,-0.89486605,-1.219836,-1.0283042,-0.4291942,1.9040855,-1.3518454,1.4486609,0.092914,-0.13760948,-0.5490341,0.78883713,-1.6665651,0.23955654,-0.16366582,-0.16690254,-0.57450104,0.7394891,0.91712815,0.015557321,0.15202752,0.36813238,-1.4212348,0.24810924,-0.16667534,1.0,0.0,0.0,0.0,0.0,0.0,0.0,-0.5123905,0.14903411,-0.23883712,-14.251924,22.862625,-7.4631033,9.727669,24.660015,-18.300701,1.896225
-34.6041,77.06379,12.328173,25.108992,2.0519547,0.40644145,-0.32307544,-0.78794336,-0.47617298,-0.4138913,0.7743223,-0.61678976,0.55955666,0.25525528,0.5866245,-0.92391956,-2.0579824,-1.0748422,2.0117102,1.7318476,-0.86934054,0.6522801,-0.88532305,-2.02193,-1.1340536,2.061472,1.6890546,-0.8938151,-1.3447881,-0.8607436,-0.56916183,1.7952131,-1.1390487,1.2724508,0.10856313,-0.15426254,-0.5466385,0.7864573,-1.6648989,0.23931701,-0.26275334,-0.18139458,-0.571785,0.73795485,0.9210445,0.010682178,0.15792827,0.35583913,-1.4549633,0.28857622,-0.15518127,1.0,0.0,0.0,0.0,0.0,0.0,0.0,-0.49573743,0.14663848,-0.23645729,-12.382793,16.51107,-14.132386,-10.783601,21.000671,-17.492558,1.3902082
-15.189765,64.221565,11.488068,12.464496,0.4906994,-0.1364252,0.124303035,-0.76924276,-0.41777006,-0.46413538,0.787829,-0.6317815,0.55887455,0.3018149,0.5753558,-0.92710006,-2.0683434,-1.0552707,1.9982938,1.7449421,-0.86363363,0.6383326,-0.8930478,-2.0287163,-1.1173471,2.051138,1.7006303,-0.8925982,-1.4116933,-0.74373627,-0.7145906,1.6289818,-0.99922734,1.1194773,0.12524416,-0.17089844,-0.5442467,0.7830873,-1.6632344,0.23907773,-0.3617418,-0.19589996,-0.5688362,0.7362278,0.9248584,0.007494863,0.16360271,0.34324172,-1.4447423,0.30934772,-0.18322378,1.0,0.0,0.0,0.0,0.0,0.0,0.0,-0.47910154,0.14424667,-0.2330873,-6.7489147,11.519707,-14.462889,-16.684628,13.617075,-15.247226,1.4231219
-8.051812,54.707905,9.622476,8.5513115,-0.020869017,-0.4112358,0.23349589,-0.77871555,-0.38457346,-0.55354464,0.79247814,-0.6339923,0.56883854,0.32039994,0.56046104,-0.93150514,-2.0840707,-1.0380993,1.9877387,1.7575141,-0.8605582,0.6240103,-0.8999276,-2.0370476,-1.1021303,2.0417309,1.7108709,-0.8912192,-1.439328,-0.66979843,-0.872248,1.4857655,-0.92223513,0.9920539,0.14136563,-0.18751907,-0.5418587,0.7787281,-1.6615715,0.23883872,-0.4606313,-0.21023178,-0.5657768,0.7340797,0.9284727,0.0060058264,0.16915682,0.33058795,-1.4247048,0.31653753,-0.22867608,1.0,0.0,0.0,0.0,0.0,0.0,0.0,-0.4624809,0.14185867,-0.22872812,-2.8423548,7.2505713,-15.621435,-14.389014,7.355964,-12.7365,1.3646066
-12.428842,40.490623,4.1971893,8.719903,0.17394143,-0.5774963,0.16247556,-0.8078583,-0.39850897,-0.65717345,0.7841624,-0.65287656,0.5645168,0.33529276,0.5432245,-0.9397785,-2.102765,-1.0237141,1.9764432,1.7673225,-0.8576899,0.6094916,-0.9064717,-2.047065,-1.0879797,2.032713,1.7199956,-0.8896819,-1.4560431,-0.6497233,-1.0445828,1.3915691,-0.896013,0.8858694,0.15715489,-0.20412254,-0.5394707,0.7733808,-1.6599103,0.23859994,-0.55942196,-0.22450447,-0.562706,0.73133725,0.9318965,0.006183607,0.17466316,0.31784165,-1.4239246,0.31456855,-0.2919551,1.0,0.0,0.0,0.0,0.0,0.0,0.0,-0.44587743,0.13947067,-0.2233808,-1.6676426,1.8859386,-17.155325,-9.366393,2.3893118,-10.67239,1.3845712
-14.181992,31.923904,1.9391907,9.442925,0.47228482,-0.5608924,0.12918419,-0.8103371,-0.42986798,-0.7059561,0.78203577,-0.6629752,0.5945585,0.36952776,0.5284579,-0.94945854,-2.1176605,-1.0097761,1.9664154,1.7794515,-0.8527291,0.5948956,-0.91318464,-2.0586274,-1.074386,2.0237331,1.7282201,-0.88797575,-1.460681,-0.67878264,-1.1933888,1.3492099,-0.8992586,0.80092955,0.17472182,-0.22070885,-0.5370865,0.76704335,-1.6582508,0.2383614,-0.6585075,-0.23887825,-0.55968475,0.72791624,0.9351447,0.007849649,0.1800971,0.30497146,-1.4375519,0.31079888,-0.36073905,0.0,1.0,0.0,0.0,0.0,0.0,0.0,-0.42929113,0.13708648,-0.21704334,-0.4090309,-3.0230165,-14.809895,-4.0801764,-0.50611496,-8.598065,1.6268045
-14.493631,25.437775,0.8019252,9.251602,0.70506984,-0.4759202,0.1466113,-0.81067485,-0.47693098,-0.7408155,0.7717362,-0.6663417,0.6210468,0.41134578,0.5138281,-0.9608777,-2.132709,-0.9972124,1.957099,1.7903248,-0.84684116,0.5803044,-0.92049646,-2.071399,-1.0609792,2.0146275,1.7357312,-0.8860751,-1.4583843,-0.7489585,-1.3049382,1.3385463,-0.91439706,0.73396426,0.19491164,-0.23727989,-0.5347061,0.75971586,-1.6565928,0.2381231,-0.75749403,-0.25345612,-0.5566788,0.72377634,0.9382178,0.010765874,0.18534835,0.2920228,-1.4605677,0.3084368,-0.43343124,0.0,1.0,0.0,0.0,0.0,0.0,0.0,-0.41272008,0.13470611,-0.20971584,0.3113985,-7.129538,-11.082482,-0.829339,-1.6617417,-6.8345666,1.9563913
-8.817608,25.031197,2.7982028,7.856083,0.674225,-0.35714722,0.2259593,-0.78668624,-0.5262216,-0.74960613,0.7716635,-0.6759606,0.6497143,0.4286661,0.5016358,-0.9731186,-2.1463597,-0.9838129,1.9470314,1.8007027,-0.8432085,0.5658667,-0.92869616,-2.0849183,-1.0475343,2.0053349,1.7426873,-0.8839751,-1.4387256,-0.84393156,-1.3672731,1.347354,-0.9345921,0.6824207,0.21487992,-0.25383186,-0.53232574,0.7513992,-1.6549366,0.23788504,-0.85638154,-0.2682209,-0.5536957,0.7189358,0.94109356,0.014645909,0.19029684,0.2791334,-1.4772223,0.30801204,-0.5025978,0.0,1.0,0.0,0.0,0.0,0.0,0.0,-0.3961681,0.13232574,-0.2013992,2.0140648,-9.5988865,-6.0983896,1.1199713,-2.1821141,-5.301118,1.976952
-8.31202,20.694744,2.2786016,6.725214,0.78458524,-0.27240574,0.25653476,-0.7885475,-0.60159475,-0.7581191,0.7689473,-0.6783756,0.6381927,0.42071572,0.48701197,-0.9888556,-2.1607301,-0.9706396,1.9374973,1.8065066,-0.8419035,0.55161595,-0.93804026,-2.0987847,-1.0339617,1.995863,1.7491952,-0.8816996,-1.4203199,-0.96495897,-1.392637,1.3615587,-0.952051,0.63955444,0.23196742,-0.27036858,-0.5299492,0.74209446,-1.6532819,0.23764722,-0.9551702,-0.28317642,-0.5506973,0.7133729,0.94377685,0.01927606,0.19479142,0.2664016,-1.4975199,0.30978587,-0.57617545,0.0,1.0,0.0,0.0,0.0,0.0,0.0,-0.3796314,0.12994918,-0.19209445,1.8964767,-12.195134,-2.404952,1.7146349,-1.8906713,-4.452145,1.7554373
-0.2796769,27.8576,6.606788,5.4927683,0.60329914,-0.093880296,0.3524892,-0.7546648,-0.6413193,-0.7353465,0.7732215,-0.6761587,0.6542923,0.45903698,0.47614947,-1.0021722,-2.1723194,-0.9566395,1.9282471,1.8146244,-0.83579594,0.53767705,-0.9485484,-2.1126912,-1.020277,1.9861616,1.7553755,-0.87932456,-1.3850557,-1.0796839,-1.3897437,1.3712445,-0.97673416,0.6109816,0.23943283,-0.28681946,-0.52651596,0.73530704,-1.6355234,0.38175082,-0.5635325,-0.2981949,-0.5476723,0.7071268,0.94624496,0.024465727,0.198822,0.25395218,-1.4981418,0.3133922,-0.64327276,0.0,1.0,0.0,0.0,0.0,0.0,0.0,-0.36318052,0.12651595,-0.18530703,3.3419847,-11.570668,1.7448425,1.6592264,-1.5464783,-3.4471393,1.7145932
2.7163744,51.897003,14.280743,9.716456,0.6231593,0.39324832,0.33927792,-0.7553422,-0.5999759,-0.718935,0.7775869,-0.69218594,0.63764083,0.51229256,0.46214283,-1.008546,-2.1845846,-0.94251835,1.916943,1.8191396,-0.8280953,0.52402234,-0.9597121,-2.1263103,-1.0064869,1.9762701,1.7612807,-0.87679356,-1.3593022,-1.1291435,-1.3511285,1.3818047,-0.99480426,0.5831708,0.25748765,-0.3031292,-0.5225067,0.7296051,-1.6291894,0.4069504,-0.5731525,-0.31306076,-0.54447556,0.7005362,0.94845665,0.029978864,0.20257495,0.24185656,-1.4776404,0.33474666,-0.66708124,0.0,1.0,0.0,0.0,0.0,0.0,0.0,-0.34687078,0.12250671,-0.17960507,2.4493456,-5.09634,4.3522596,1.1187077,-2.2750735,-2.9403806,1.7463952
-2.8321981,59.569347,14.860819,12.748933,0.8604628,0.608616,0.26879662,-0.7752005,-0.6166121,-0.7371027,0.7661943,-0.6948599,0.60976833,0.52640355,0.4465023,-1.0213733,-2.2000206,-0.92986745,1.906784,1.8222575,-0.8241532,0.51045156,-0.97114474,-2.13962,-0.99267405,1.9662354,1.7669207,-0.8740852,-1.3567353,-1.1486093,-1.322395,1.381227,-1.0081404,0.55702055,0.27507484,-0.319355,-0.5182228,0.7238823,-1.6201527,0.43515772,-0.5731983,-0.32774544,-0.5409889,0.6937892,0.9504136,0.03577652,0.20618254,0.23004937,-1.4595348,0.3656779,-0.6801651,0.0,1.0,0.0,0.0,0.0,0.0,0.0,-0.33064497,0.1182228,-0.1738823,0.14066696,-2.1310568,3.3997536,0.0042915344,-1.8727422,-2.7954817,1.6693652
-6.881255,68.833664,15.998886,15.720474,1.0192566,0.8005603,0.20776142,-0.78456986,-0.5981699,-0.7490066,0.7587295,-0.7051411,0.58975667,0.5473601,0.43199456,-1.0309618,-2.2145207,-0.9168011,1.8957213,1.8258964,-0.81934917,0.49678755,-0.9825154,-2.1527734,-0.97893256,1.9560751,1.7723129,-0.8712042,-1.3699899,-1.1339288,-1.310981,1.3719109,-1.0207773,0.5323561,0.29197243,-0.33545494,-0.5136223,0.7182463,-1.6064796,0.46857226,-0.5615704,-0.34223747,-0.5371361,0.68700355,0.9521153,0.04190638,0.2097785,0.21843341,-1.4398614,0.40493792,-0.6809759,0.0,1.0,0.0,0.0,0.0,0.0,0.0,-0.31454504,0.11362228,-0.16824627,-1.4486313,1.252532,1.7218828,-0.8965969,-1.8765211,-2.6692271,1.5525818
-8.264891,74.44907,16.737307,17.321243,1.1113824,0.8940451,0.17229159,-0.7861087,-0.583843,-0.7517097,0.7581711,-0.7130699,0.59388745,0.55763227,0.41817668,-1.0408998,-2.2279444,-0.90311545,1.8847681,1.8317016,-0.81544095,0.48296118,-0.99360275,-2.1659074,-0.96529406,1.9458115,1.7774917,-0.86815983,-1.387277,-1.101021,-1.3120112,1.3612626,-1.0299493,0.5127745,0.30830553,-0.35128975,-0.5087395,0.7127315,-1.573059,0.49165758,-0.5502675,-0.3565216,-0.532856,0.68026453,0.95355517,0.048390657,0.21345466,0.20694883,-1.4185022,0.44783822,-0.67425436,0.0,1.0,0.0,0.0,0.0,0.0,0.0,-0.29871023,0.108739465,-0.16273147,-1.8685579,3.0629873,0.5142212,-1.0493994,-1.4151573,-2.0507216,1.5284896
-7.813676,71.29162,15.5487795,16.322083,1.0844691,0.8235155,0.18023075,-0.7849362,-0.5924486,-0.7556156,0.752822,-0.7140198,0.5854236,0.56200147,0.40446755,-1.0528476,-2.241469,-0.89001185,1.8744096,1.836034,-0.8119597,0.4689922,-1.0044156,-2.1791122,-0.95176697,1.935497,1.7825058,-0.8649601,-1.4005824,-1.0755191,-1.3210427,1.3499635,-1.033771,0.4962385,0.3235934,-0.366724,-0.50374985,0.7072414,-1.5308917,0.5041517,-0.5503176,-0.37060547,-0.5281639,0.6735526,0.9547363,0.05523291,0.21718755,0.19559518,-1.3986137,0.48762733,-0.6727254,0.0,1.0,0.0,0.0,0.0,0.0,0.0,-0.28327596,0.10374984,-0.1572414,-1.4646053,2.335143,-0.29976368,-1.1146069,-0.99897385,-1.9034207,1.3778329
-6.858829,69.22923,14.90744,15.536316,1.1043172,0.76937866,0.19327074,-0.7873443,-0.5902707,-0.7550743,0.747593,-0.70519686,0.57637644,0.5755463,0.39025778,-1.0634427,-2.2546196,-0.87700766,1.8649774,1.8401434,-0.8074055,0.45492074,-1.0150377,-2.192407,-0.93834996,1.9251918,1.7873714,-0.86161536,-1.4097644,-1.058455,-1.3302777,1.3390177,-1.0312154,0.48179597,0.33790505,-0.38176727,-0.4986725,0.7017148,-1.4924821,0.5130183,-0.55490696,-0.38449478,-0.523098,0.66682696,0.9556694,0.06242116,0.22090596,0.18439105,-1.3794794,0.52471805,-0.6748915,0.0,1.0,0.0,0.0,0.0,0.0,0.0,-0.2682327,0.09867248,-0.1517148,-1.0536909,1.5028,-0.32570362,-1.0763407,-0.3367424,-1.7439544,1.3044894
-6.5604153,64.33719,13.235459,14.033266,1.0093945,0.6610002,0.21916585,-0.791652,-0.5956499,-0.7705766,0.734604,-0.7166773,0.54467046,0.57764393,0.37575555,-1.0746026,-2.2694645,-0.86488956,1.853524,1.8418385,-0.80385095,0.4407749,-1.0255853,-2.205846,-0.9250728,1.9148903,1.7920822,-0.85814106,-1.4165685,-1.0541885,-1.3467906,1.3241099,-1.0317287,0.4665592,0.35019323,-0.39645195,-0.49352264,0.69605255,-1.4598395,0.5169294,-0.56954956,-0.39820862,-0.51768494,0.66000384,0.9563619,0.06999577,0.22454159,0.17335962,-1.3621473,0.5574874,-0.6870711,0.0,1.0,0.0,0.0,0.0,0.0,0.0,-0.25354803,0.09352264,-0.14605254,-0.80325603,0.24027824,-1.094842,-1.4565945,-0.6271839,-1.7882168,1.0927856
-4.5547037,64.35212,13.375858,13.3986435,1.0008755,0.6148782,0.2421734,-0.7887763,-0.59446746,-0.77057594,0.727283,-0.7084002,0.5228145,0.5828182,0.36189726,-1.085032,-2.2829037,-0.8523445,1.8440503,1.8443637,-0.7998592,0.42660087,-1.0361348,-2.2194297,-0.9119501,1.9046093,1.7966346,-0.8545525,-1.418111,-1.0557874,-1.3599445,1.3084008,-1.0289251,0.45065537,0.36120766,-0.4107895,-0.48832703,0.6902002,-1.4251282,0.52064496,-0.5889861,-0.41173935,-0.51197815,0.65304005,0.9568206,0.07795255,0.22803622,0.16253342,-1.3429806,0.58714217,-0.7014891,0.0,1.0,0.0,0.0,0.0,0.0,0.0,-0.23921049,0.08832702,-0.1402002,-0.28951168,-0.33710003,-0.74071884,-1.5518904,-0.32446384,-1.8181086,0.9489715
-2.4696329,67.12467,14.402058,13.656301,1.0755405,0.6418015,0.24321017,-0.7849855,-0.58722997,-0.7631091,0.72801137,-0.69726145,0.5015835,0.60215676,0.34810233,-1.0948578,-2.2957406,-0.839149,1.8348832,1.8467929,-0.79433686,0.4124478,-1.0466863,-2.2330704,-0.8989457,1.8943884,1.8010275,-0.8508532,-1.4149067,-1.0554491,-1.3630006,1.297706,-1.0218168,0.43468738,0.37236115,-0.42476654,-0.4831047,0.68417215,-1.3879508,0.5230626,-0.60534614,-0.42505455,-0.5059738,0.64597315,0.9570538,0.08621953,0.23136353,0.15193783,-1.3204302,0.61576337,-0.7102888,0.0,1.0,0.0,0.0,0.0,0.0,0.0,-0.22523344,0.0831047,-0.13417214,0.16195774,-0.14088154,0.319767,-1.0805607,0.067448616,-1.8302262,0.9607732
-1.3250825,71.96983,15.758036,14.725522,1.2292852,0.72233844,0.22453249,-0.7849304,-0.5746006,-0.7533622,0.72584254,-0.6829043,0.4934503,0.61371964,0.33395475,-1.1041464,-2.3084066,-0.8263614,1.826098,1.8503726,-0.7894812,0.3983329,-1.0571748,-2.2466502,-0.88602036,1.884277,1.8052719,-0.8470462,-1.4109275,-1.047189,-1.3544587,1.290652,-1.0097345,0.42008936,0.38301474,-0.43834877,-0.47787094,0.6780216,-1.3475122,0.5239213,-0.61578697,-0.43811798,-0.49967575,0.6388894,0.9570711,0.0946974,0.2345269,0.14157765,-1.2944955,0.6454524,-0.7097763,0.0,1.0,0.0,0.0,0.0,0.0,0.0,-0.2116512,0.077870935,-0.1280216,0.21381378,0.6481409,1.5476465,-0.75080395,0.5051613,-1.7077863,0.90559125
11.872606,77.13046,19.860273,12.852794,1.1111709,0.6770196,0.28763133,-0.7300963,-0.5783872,-0.70111144,0.74198765,-0.6528259,0.4963164,0.636267,0.32532325,-1.1150135,-2.3167613,-0.8118216,1.8189944,1.8549035,-0.7834195,0.3845055,-1.0675966,-2.2598863,-0.87306637,1.8743722,1.8093928,-0.8431254,-1.3742232,-1.0409465,-1.3105651,1.2963995,-0.98660475,0.40893885,0.3944516,-0.45144844,-0.4726677,0.67185336,-1.2971131,0.51734585,-0.61403584,-0.45079613,-0.4931717,0.6319016,0.9568904,0.10315867,0.23750436,0.13157032,-1.2514471,0.6626973,-0.69687545,0.0,1.0,0.0,0.0,0.0,0.0,0.0,-0.19855154,0.07266769,-0.12185335,3.4018993,0.47535896,5.2099943,0.3984928,1.5341759,-1.3388038,0.9710312
17.499523,84.40945,22.82488,13.619116,1.2880232,0.7351345,0.27761278,-0.7122573,-0.55879074,-0.653849,0.7463435,-0.61410767,0.49122876,0.65635055,0.31327978,-1.1234757,-2.3252711,-0.798432,1.8129615,1.8585157,-0.7774904,0.37111634,-1.0778791,-2.272474,-0.86001784,1.8647933,1.8134148,-0.8390867,-1.3281649,-1.0246532,-1.2385807,1.3067999,-0.95117146,0.39930478,0.4064624,-0.46399117,-0.46754837,0.6657963,-1.2384017,0.5088681,-0.5997371,-0.46298218,-0.48651886,0.6251614,0.95654327,0.11136759,0.24029334,0.12198832,-1.2000891,0.6759001,-0.668183,0.0,1.0,0.0,0.0,0.0,0.0,0.0,-0.18600881,0.067548364,-0.11579627,4.287958,1.4822483,8.139324,0.79283714,2.668047,-1.1983216,1.0308504
22.6745,79.09023,22.76506,11.24861,1.3312558,0.573203,0.29786706,-0.68432605,-0.592613,-0.57791466,0.7451924,-0.5576871,0.39879096,0.63847184,0.30268374,-1.1371404,-2.3302655,-0.7854986,1.8090246,1.8532939,-0.7752395,0.35824355,-1.0881748,-2.2840774,-0.846877,1.855693,1.8172864,-0.8349519,-1.2746923,-1.0315629,-1.1311709,1.315611,-0.8989272,0.38236058,0.41552532,-0.47597313,-0.46255493,0.6598386,-1.1828891,0.49555418,-0.5911805,-0.47466087,-0.47979736,0.6186774,0.9561066,0.11913277,0.24274147,0.11288946,-1.1497036,0.68019426,-0.6432881,0.0,1.0,0.0,0.0,0.0,0.0,0.0,-0.17402685,0.062554926,-0.109838605,5.035734,-0.8121252,11.667585,0.6444216,4.3667555,-1.9443631,0.8033037
27.356112,79.11359,23.443949,9.900446,1.2746781,0.45938846,0.3297129,-0.6517557,-0.5850089,-0.51797754,0.72976923,-0.52024066,0.2849228,0.6466712,0.293068,-1.1466757,-2.3358753,-0.77390003,1.803669,1.8457787,-0.7702848,0.34594253,-1.0985394,-2.2944944,-0.83374655,1.84716,1.8209136,-0.83073187,-1.216284,-1.0384799,-1.0088677,1.3112794,-0.84080863,0.35558167,0.4238437,-0.4873867,-0.45772552,0.65397245,-1.1254073,0.47804368,-0.58181006,-0.4858017,-0.47309494,0.61244893,0.95563936,0.12636444,0.24474591,0.10433064,-1.0952089,0.67601067,-0.6175902,0.0,1.0,0.0,0.0,0.0,0.0,0.0,-0.16261327,0.05772552,-0.103972435,5.522084,-0.8018732,13.182783,-0.68860054,4.9168587,-2.912569,0.73722005
37.066376,80.741646,26.519743,7.7391424,1.5351028,0.41138697,0.37311697,-0.61383134,-0.6003674,-0.3380962,0.7008502,-0.3803391,0.12105147,0.6517789,0.2845594,-1.1585761,-2.328304,-0.7636615,1.809126,1.8330187,-0.76555395,0.33426663,-1.1090412,-2.3031032,-0.8208222,1.8395284,1.824169,-0.82643235,-1.1525085,-1.0543466,-0.8080079,1.285135,-0.7404785,0.3148008,0.43191782,-0.4981842,-0.45310593,0.64826494,-1.0627052,0.45533398,-0.56397533,-0.49634743,-0.46648407,0.6065656,0.95527256,0.1327219,0.24604884,0.096432626,-1.0341514,0.66322803,-0.57997835,0.0,1.0,0.0,0.0,0.0,0.0,0.0,-0.15181577,0.05310592,-0.09826493,6.031704,-1.6781092,21.139431,-2.9122353,9.029448,-4.3047247,0.77406764
37.992485,77.93497,26.008492,6.2611117,1.7392972,0.21537858,0.38669136,-0.6004212,-0.6065089,-0.23427165,0.6400856,-0.2336001,-0.21641959,0.6499367,0.27422452,-1.1696922,-2.3265305,-0.75681365,1.8161684,1.8025271,-0.76143867,0.32314292,-1.1197109,-2.30953,-0.80843854,1.8332181,1.8267889,-0.8220618,-1.1000015,-1.0715629,-0.5842747,1.2218035,-0.5975788,0.2436837,0.43885761,-0.5083828,-0.44873047,0.64270496,-1.0037912,0.43082225,-0.5504835,-0.50632477,-0.4600296,0.6010492,0.95514953,0.13802409,0.24632433,0.089235276,-0.9792563,0.6458855,-0.54370576,0.0,1.0,0.0,0.0,0.0,0.0,0.0,-0.14161718,0.048730463,-0.09270495,4.943919,-1.8062115,23.365915,-6.592512,13.305866,-7.3224964,0.7059097
58.968204,97.50775,36.65988,5.880076,2.5153,0.5482147,0.41013494,-0.54474247,-0.5871785,0.1568154,0.5784876,-0.013658176,-0.30609468,0.64591676,0.26866868,-1.1784288,-2.2938485,-0.7505898,1.8318523,1.7961794,-0.75747013,0.3126382,-1.1304264,-2.312356,-0.7969323,1.8288146,1.8286752,-0.8176303,-1.0351772,-1.0720454,-0.17809156,1.1256946,-0.39199975,0.16990425,0.44471687,-0.51779747,-0.4446869,0.6376193,-0.91912335,0.39473742,-0.49168077,-0.5155449,-0.45380402,0.59628737,0.9554948,0.14142977,0.24524806,0.08294948,-0.897139,0.6205445,-0.45531508,0.0,1.0,0.0,0.0,0.0,0.0,0.0,-0.1322025,0.044686884,-0.087619305,6.104398,-0.14579296,41.93451,-9.976864,19.26303,-7.54703,0.61694384
56.77353,97.60605,37.978123,7.472868,3.8818026,0.67757714,0.2248678,-0.5505813,-0.62802154,0.4510147,0.5288277,0.39325473,-0.38592765,0.6340799,0.25758007,-1.1932286,-2.2672546,-0.7440495,1.8681401,1.7900823,-0.7542223,0.302616,-1.1412964,-2.3103228,-0.78647053,1.8274068,1.8298275,-0.8131558,-0.9920797,-1.0924653,0.3342611,1.0189418,-0.06088673,0.09666561,0.44876516,-0.52640533,-0.440979,0.63317573,-0.84060246,0.3625097,-0.42746714,-0.5240898,-0.44771194,0.5925679,0.95661926,0.14198485,0.24228925,0.077561304,-0.8352799,0.6111507,-0.34579393,0.0,1.0,0.0,0.0,0.0,0.0,0.0,-0.12359464,0.040978998,-0.08317572,4.0576816,-2.1695852,52.424843,-10.88829,31.93335,-7.4743614,0.5180836
53.122917,88.696594,33.720695,6.566197,3.6411624,0.3440187,0.1515503,-0.49224105,-0.63882023,0.50693434,0.50222576,0.5656943,-0.43333977,0.6257195,0.2533919,-1.2051784,-2.2596292,-0.73624796,1.8839762,1.7864935,-0.7505838,0.29314125,-1.1524105,-2.3038576,-0.7769614,1.8294313,1.830291,-0.80865777,-0.93307734,-1.1182537,0.75346255,0.92809904,0.2873437,0.029230079,0.4503907,-0.53430367,-0.4375801,0.6292641,-0.7729642,0.3318864,-0.37884733,-0.53211975,-0.4417305,0.5897787,0.95856327,0.13965753,0.23735212,0.07291119,-0.7892809,0.59891915,-0.25862786,0.0,1.0,0.0,0.0,0.0,0.0,0.0,-0.11569631,0.037580103,-0.079264104,5.7643175,-2.7319431,42.84805,-9.132612,33.93504,-6.826885,0.22402406
48.763683,92.886665,30.858307,8.704535,2.8198142,0.14278051,0.12059082,-0.42956287,-0.57990545,0.52021194,0.4800132,0.5919242,-0.37515992,0.61365414,0.25018495,-1.210401,-2.2518363,-0.72896004,1.8886237,1.792775,-0.74729234,0.2844266,-1.1634674,-2.2944286,-0.7681832,1.8344055,1.8302056,-0.8041589,-0.8511957,-1.1019335,1.0084038,0.861334,0.56525123,-0.02102194,0.44969982,-0.5415058,-0.4345169,0.62585807,-0.7040831,0.29835585,-0.3300269,-0.53967285,-0.43592834,0.5877466,0.96107465,0.13511175,0.23096208,0.06882448,-0.7423033,0.5793811,-0.18699029,0.0,1.0,0.0,0.0,0.0,0.0,0.0,-0.10849416,0.0345169,-0.07585806,8.11268,1.4650106,26.192522,-6.589854,27.186335,-4.981408,-0.06719828
45.34762,88.93652,27.153378,7.96564,1.8993558,-0.04393196,0.18375418,-0.38243774,-0.5711177,0.5909586,0.43496886,0.6351497,-0.31586534,0.60817707,0.24618283,-1.2205791,-2.2353327,-0.72468626,1.8979205,1.798619,-0.7433412,0.27660936,-1.1742554,-2.2832878,-0.760028,1.8415756,1.8297366,-0.7996726,-0.7587424,-1.0715239,1.1509708,0.8008191,0.76612455,-0.05516604,0.44825727,-0.5480385,-0.43179703,0.6228772,-0.63861287,0.26405004,-0.29096153,-0.5467472,-0.43039322,0.58624494,0.96388465,0.12904742,0.22364485,0.065237515,-0.694712,0.5515608,-0.14052385,0.0,1.0,0.0,0.0,0.0,0.0,0.0,-0.10196149,0.03179702,-0.07287717,9.201145,2.8771162,14.785624,-5.8734536,19.685818,-3.289575,-0.1351893
49.733795,68.889984,21.499447,-1.844536,0.23307262,-0.34850854,0.56812644,-0.34442493,-0.5845259,0.63335866,0.24133047,0.686737,-0.31876534,0.5922282,0.24216686,-1.232708,-2.2199519,-0.735895,1.9102494,1.79786,-0.7404498,0.2696929,-1.1848164,-2.2713,-0.7531914,1.850293,1.8289824,-0.79521096,-0.6695496,-1.0514835,1.2163031,0.64527303,0.90557545,-0.08147511,0.44558942,-0.5539799,-0.4294281,0.6200418,-0.582321,0.22910617,-0.28641424,-0.5532551,-0.42528534,0.5847923,0.966818,0.1221305,0.21552154,0.06243024,-0.6370423,0.50173026,-0.14980274,0.0,1.0,0.0,0.0,0.0,0.0,0.0,-0.0960201,0.029428095,-0.070041776,8.841276,1.839447,6.954646,-15.3762455,13.63858,-2.4300323,-0.23296475
47.23745,45.527634,14.667837,-11.76826,-1.1105512,-0.46893972,0.99216396,-0.36513516,-0.59410477,0.67565876,-0.03293897,0.7368399,-0.31288794,0.5815804,0.23317938,-1.2442268,-2.2037342,-0.7564853,1.923977,1.7976936,-0.7370529,0.2633344,-1.1952915,-2.258911,-0.7490299,1.8600931,1.8280083,-0.79077923,-0.6249011,-1.0467526,1.2474084,0.34036145,1.0039928,-0.101833105,0.44261956,-0.5594673,-0.4273758,0.61691606,-0.5401688,0.19876726,-0.32667717,-0.5591526,-0.42076492,0.58281106,0.9697922,0.11491166,0.20639074,0.06083775,-0.57440704,0.4415484,-0.21740812,0.0,1.0,0.0,0.0,0.0,0.0,0.0,-0.09053266,0.027375787,-0.06691605,4.376018,0.3162384,3.2984018,-30.337477,9.697247,-1.77138,-0.20267367
37.453262,38.781586,10.823982,-12.555075,-1.4684854,-0.42680913,1.0780371,-0.37739074,-0.57933414,0.67017066,-0.18990694,0.7471207,-0.26835883,0.5729355,0.22559533,-1.253225,-2.1918938,-0.7680206,1.9348052,1.8011724,-0.7334857,0.25713125,-1.2057095,-2.2464652,-0.7483028,1.8705856,1.826891,-0.7863787,-0.6189224,-1.0405576,1.2434165,-0.015754798,1.0643215,-0.11423158,0.43982458,-0.5645981,-0.4255829,0.613234,-0.50659907,0.17386311,-0.38705033,-0.5644531,-0.41679764,0.5799967,0.97273207,0.107783504,0.1962177,0.06061063,-0.51580286,0.38622242,-0.3055954,0.0,1.0,0.0,0.0,0.0,0.0,0.0,-0.08540189,0.02558288,-0.06323397,0.5641222,0.48015118,-0.49455166,-35.40543,6.1109543,-0.97195953,-0.09585023
27.233461,43.506954,10.516755,-6.130292,-0.8666666,-0.3340294,0.79328626,-0.3516446,-0.59468997,0.6846515,-0.18839914,0.7462045,-0.14740583,0.56721365,0.22196679,-1.2651784,-2.178,-0.7671427,1.945206,1.8121504,-0.7296573,0.25096586,-1.2161579,-2.2341063,-0.75042486,1.881451,1.8257583,-0.78200513,-0.6155577,-1.0465745,1.2327658,-0.2767104,1.0945162,-0.11226305,0.43729275,-0.5694313,-0.4239998,0.6089802,-0.4771717,0.15368128,-0.44184127,-0.5692787,-0.41326904,0.57640463,0.97557044,0.1008099,0.18525283,0.061489694,-0.47201893,0.34524038,-0.37931398,0.0,1.0,0.0,0.0,0.0,0.0,0.0,-0.08056867,0.02399978,-0.058980167,0.38460493,-0.7019758,-1.3225555,-25.824564,3.249073,0.405775,0.0027775764
26.142723,44.760094,10.731101,-3.8427737,-0.71151805,-0.39378366,0.6377825,-0.3174064,-0.6157879,0.6728589,-0.26485255,0.74973863,-0.10670188,0.5742135,0.21922523,-1.2777367,-2.1668205,-0.7769101,1.9564248,1.8150882,-0.7245838,0.24495573,-1.2267786,-2.2219262,-0.7546116,1.8924829,1.8246897,-0.77764916,-0.59588325,-1.0675391,1.2123377,-0.4649637,1.1067953,-0.104401164,0.4358991,-0.5739918,-0.42261124,0.6041904,-0.45099008,0.13367826,-0.49357346,-0.5737171,-0.41013336,0.572118,0.97825927,0.09397469,0.17372108,0.06323309,-0.43448308,0.30501318,-0.44682175,0.0,1.0,0.0,0.0,0.0,0.0,0.0,-0.0760082,0.02261123,-0.054190397,2.050531,-2.172947,-2.3406029,-18.524378,1.4993429,0.97290725,0.14528632
24.062157,55.761784,13.42134,2.3225377,-0.10834239,-0.3018829,0.3435334,-0.27576053,-0.62196577,0.67618626,-0.23813775,0.7518365,0.032653406,0.5708933,0.21737967,-1.2889752,-2.1543076,-0.7784254,1.9676665,1.8279551,-0.72055984,0.23932989,-1.2376276,-2.2099214,-0.75980836,1.9035689,1.8238039,-0.773309,-0.55105734,-1.0907958,1.1958314,-0.5369564,1.1104306,-0.08257707,0.43436557,-0.57826996,-0.4214058,0.59903604,-0.42103308,0.11584153,-0.52390957,-0.5778427,-0.40734482,0.5673606,0.980762,0.08712644,0.16192845,0.0655285,-0.40467122,0.27271754,-0.48668095,0.0,1.0,0.0,0.0,0.0,0.0,0.0,-0.07173002,0.021405786,-0.049036026,4.6070457,-2.3520947,-1.9987106,-6.8941355,0.7302761,2.3856997,0.13427734
34.798695,58.54444,15.785175,0.1737192,-0.44438046,-0.37121463,0.36429557,-0.21627697,-0.6358269,0.67811185,-0.31356427,0.7546478,0.12806545,0.5472411,0.2177022,-1.3012103,-2.14211,-0.7911648,1.9790336,1.8366104,-0.7185849,0.23439057,-1.2487284,-2.1980264,-0.7655371,1.91467,1.8232054,-0.7689985,-0.47443843,-1.1166642,1.1867117,-0.58376795,1.111329,-0.051527057,0.43079475,-0.5822296,-0.4204178,0.5936431,-0.38812137,0.09318954,-0.5449122,-0.5815983,-0.4049759,0.5622482,0.9830568,0.080133066,0.15003046,0.06832923,-0.3648477,0.22702292,-0.5205014,0.0,1.0,0.0,0.0,0.0,0.0,0.0,-0.06777036,0.02041778,-0.043643117,7.7911854,-2.6122808,-1.228714,-4.362166,0.46463013,3.3158786,-0.07286072
20.521765,59.158848,13.980481,4.418622,0.049383406,-0.22880323,0.22250563,-0.2473826,-0.64443326,0.6537777,-0.35726312,0.7563133,0.12279103,0.5440942,0.2096523,-1.3131717,-2.1326487,-0.8012634,1.9903014,1.8354845,-0.71458906,0.22997153,-1.2600676,-2.1862886,-0.7716739,1.9257672,1.8228897,-0.764726,-0.4305607,-1.1396935,1.168079,-0.6225639,1.1106055,-0.02422636,0.42714122,-0.5859184,-0.41960144,0.5880052,-0.3625644,0.07752244,-0.57000333,-0.585062,-0.40291214,0.5568105,0.9851374,0.07302917,0.13806047,0.07148621,-0.33956885,0.20030732,-0.55260736,0.0,1.0,0.0,0.0,0.0,0.0,0.0,-0.06408155,0.019601434,-0.038005173,4.532963,-2.3059607,-2.2571802,-3.563702,0.3499031,2.9134007,-0.06411672
23.931463,60.69303,14.894415,3.2400062,-0.15696758,-0.26231724,0.25592273,-0.2000049,-0.65270656,0.6514002,-0.39524877,0.7515467,0.11886332,0.539953,0.20997104,-1.3253382,-2.1211486,-0.8111988,2.000922,1.834776,-0.7107307,0.22603357,-1.271609,-2.1747222,-0.77823615,1.9368429,1.8228151,-0.76048887,-0.38104308,-1.1590663,1.1515782,-0.6663848,1.1079967,-0.001239658,0.42353916,-0.58934784,-0.41894913,0.582138,-0.33640796,0.060850054,-0.59182566,-0.58823967,-0.40116882,0.5510679,0.9869956,0.06585192,0.12602149,0.07497785,-0.30943394,0.16811076,-0.5825365,0.0,1.0,0.0,0.0,0.0,0.0,0.0,-0.060652137,0.018949121,-0.03213799,5.1025987,-1.9393444,-2.054882,-4.0544033,0.17716885,2.4941719,-0.056624413
12.92271,65.087616,14.871223,8.427471,0.447958,-0.08279972,0.061631117,-0.19663966,-0.66499186,0.6528833,-0.34873453,0.7461458,0.18880709,0.53844184,0.20636961,-1.3381082,-2.109434,-0.8131096,2.0114574,1.8416958,-0.70664465,0.22247086,-1.2833391,-2.1632776,-0.78491366,1.9478742,1.822991,-0.756286,-0.3474709,-1.1774341,1.1408637,-0.66713935,1.103061,0.024484824,0.42016956,-0.5925503,-0.4184265,0.5761054,-0.31457332,0.049788255,-0.606189,-0.5912132,-0.3996048,0.5451122,0.98863286,0.05855827,0.113995105,0.07862009,-0.29252458,0.15382753,-0.60060644,0.0,1.0,0.0,0.0,0.0,0.0,0.0,-0.0574497,0.018426508,-0.026105404,3.5234153,-1.8055439,-1.5286922,0.2341032,0.00047683716,2.7697153,-0.036782026
7.887502,85.22596,19.54453,16.572277,1.0852684,0.15324724,-0.20380527,-0.14979063,-0.6253742,0.65123034,-0.2269318,0.7297851,0.29253814,0.5310029,0.2074918,-1.3458766,-2.0981545,-0.8076068,2.0208528,1.8522449,-0.70318574,0.2193392,-1.2950102,-2.1519134,-0.7909197,1.9588199,1.82348,-0.7521204,-0.301077,-1.1633099,1.1330432,-0.5774497,1.0940636,0.057803083,0.41625595,-0.5955124,-0.41799927,0.5702268,-0.2881395,0.04175078,-0.58113587,-0.5940666,-0.39808655,0.53928715,0.99004394,0.051020645,0.10232139,0.08209802,-0.281418,0.15246919,-0.57734144,0.0,1.0,0.0,0.0,0.0,0.0,0.0,-0.054487586,0.017999262,-0.020226777,4.8389435,1.5068293,-1.315093,9.263266,-0.24228096,3.612817,-0.12347102
11.021024,94.72202,22.05374,17.659164,0.878987,0.11180476,-0.21681073,-0.10490607,-0.5908899,0.6084534,-0.20810258,0.71938133,0.28180867,0.5262943,0.2088486,-1.3540992,-2.091068,-0.81172997,2.030758,1.8516608,-0.69949096,0.21678336,-1.3063269,-2.140801,-0.79591125,1.9696575,1.8242731,-0.7479948,-0.2397503,-1.1209548,1.1025017,-0.47200805,1.082818,0.08697598,0.41223875,-0.5982151,-0.41767502,0.5647358,-0.2599738,0.03211891,-0.5385299,-0.59676933,-0.39662933,0.53381115,0.9912233,0.043283116,0.091244325,0.08530756,-0.2653755,0.14509223,-0.53876513,0.0,1.0,0.0,0.0,0.0,0.0,0.0,-0.051784873,0.017675012,-0.014735758,6.3331723,4.334235,-3.5509825,10.854757,-0.43890476,3.1848402,-0.15507936
6.981576,100.4111,22.578266,17.69915,0.6536687,0.1831929,-0.108143866,-0.12596267,-0.5307428,0.57479274,-0.27711025,0.7153072,0.1912857,0.5425658,0.2041871,-1.3594011,-2.0833216,-0.8236223,2.0411882,1.8434017,-0.6937382,0.21462901,-1.3169565,-2.130135,-0.80034775,1.9803916,1.8252577,-0.7438923,-0.20668255,-1.0431446,1.0530692,-0.43322915,1.0724076,0.10345073,0.41035563,-0.6006527,-0.41744232,0.5597172,-0.23811756,0.021596082,-0.48955435,-0.59926605,-0.39522934,0.52875483,0.992173,0.035536088,0.08078634,0.08833694,-0.24360332,0.13948129,-0.49566677,0.0,1.0,0.0,0.0,0.0,0.0,0.0,-0.04934728,0.017442316,-0.009717166,3.506699,7.87158,-5.4908752,4.19423,-0.34036636,1.9688606,0.053805113
