Afshin1997/kuka_rl_ros2/src/catch_and_throw/input_files/idealpd/recorded_trajectories/env_461_data.csv
torque0,torque1,torque2,torque3,torque4,torque5,torque6,action0,action1,action2,action3,action4,action5,action6,set_target_0,set_target_1,set_target_2,set_target_3,set_target_4,set_target_5,set_target_6,joint_pos_0,joint_pos_1,joint_pos_2,joint_pos_3,joint_pos_4,joint_pos_5,joint_pos_6,joint_vel_0,joint_vel_1,joint_vel_2,joint_vel_3,joint_vel_4,joint_vel_5,joint_vel_6,tennisball_pos_0,tennisball_pos_1,tennisball_pos_2,tennisball_lin_vel_0,tennisball_lin_vel_1,tennisball_lin_vel_2,end_effector_pos_0,end_effector_pos_1,end_effector_pos_2,end_effector_rot_0,end_effector_rot_1,end_effector_rot_2,end_effector_rot_3,end_effector_lin_vel_0,end_effector_lin_vel_1,end_effector_lin_vel_2,obs_task_0,obs_task_1,obs_task_2,obs_task_3,obs_task_4,obs_task_5,obs_task_6,to_final_target_0,to_final_target_1,to_final_target_2,joint_acc_0,joint_acc_1,joint_acc_2,joint_acc_3,joint_acc_4,joint_acc_5,joint_acc_6
0.0,0.0,0.0,0.0,0.0,0.0,0.0,0.0,0.0,0.0,0.0,0.0,0.0,0.0,1.7802359,-1.0646509,-1.8151424,-1.1170107,1.9373155,1.1170107,-0.91629785,1.7802359,-1.0646509,-1.8151424,-1.1170107,1.9373155,1.1170107,-0.91629785,0.0,0.0,0.0,0.0,0.0,0.0,0.0,3.2752457,-0.33020782,0.054707304,-3.2136428,-0.06906553,5.654973,0.5304184,-0.45448303,0.693097,0.5745483,0.17512383,0.15255436,0.7848268,0.0,0.0,0.0,1.0,0.0,0.0,0.0,0.0,0.0,0.0,-3.9252458,-0.06979218,0.49529272,0.0,0.0,0.0,0.0,0.0,0.0,0.0
0.0,0.0,0.0,0.0,0.0,0.0,0.0,0.0,0.0,0.0,0.0,0.0,0.0,0.0,1.7802359,-1.0646509,-1.8151424,-1.1170107,1.9373155,1.1170107,-0.91629785,1.7802359,-1.0646509,-1.8151424,-1.1170107,1.9373155,1.1170107,-0.91629785,0.0,0.0,0.0,0.0,0.0,0.0,0.0,3.2752457,-0.33020782,0.054707304,-3.2136428,-0.06906553,5.654973,0.5304184,-0.45448303,0.693097,0.5745483,0.17512383,0.15255436,0.7848268,0.0,0.0,0.0,1.0,0.0,0.0,0.0,0.0,0.0,0.0,-3.9252458,-0.06979218,0.49529272,0.0,0.0,0.0,0.0,0.0,0.0,0.0
0.0,0.0,0.0,0.0,0.0,0.0,0.0,0.0,0.0,0.0,0.0,0.0,0.0,0.0,1.7802359,-1.0646509,-1.8151424,-1.1170107,1.9373155,1.1170107,-0.91629785,1.7802359,-1.0646509,-1.8151424,-1.1170107,1.9373155,1.1170107,-0.91629785,0.0,0.0,0.0,0.0,0.0,0.0,0.0,3.2752457,-0.33020782,0.054707304,-3.2136428,-0.06906553,5.654973,0.5304184,-0.45448303,0.693097,0.5745483,0.17512383,0.15255436,0.7848268,0.0,0.0,0.0,1.0,0.0,0.0,0.0,0.0,0.0,0.0,-3.9252458,-0.06979218,0.49529272,0.0,0.0,0.0,0.0,0.0,0.0,0.0
-176.0,61.57833,-9.092663,110.0,11.240659,4.5148335,-3.7196147,-0.8201105,0.32159427,-0.5576176,0.7206,0.3878244,0.6289331,-0.5936452,1.6982248,-1.0324914,-1.8709042,-1.0449507,1.976098,1.179904,-0.97566235,1.7789427,-1.0625623,-1.8210475,-1.1120116,1.9430547,1.1224352,-0.9181642,-0.17222318,0.277697,-0.7869191,0.6669058,0.7643922,0.7213103,-0.24817942,3.2431335,-0.33089447,0.11047817,-3.21043,-0.06899648,5.551133,0.5282326,-0.45790863,0.6938596,0.57847756,0.17368181,0.15070854,0.78261435,-0.29124993,-0.4558258,0.10132235,1.0,0.0,0.0,0.0,0.0,0.0,0.0,-3.8931336,-0.069105536,0.43952185,-17.139465,27.577295,-78.54856,66.79853,76.18633,71.54624,-24.615452
-176.0,-38.29631,-47.72107,110.0,12.161188,1.1475332,-2.9552464,-0.8098328,-0.2108364,-0.5315696,0.6870175,0.5032799,0.6144891,-0.6231914,1.6979594,-1.0836459,-1.8742045,-1.0433098,1.9933827,1.1838841,-0.98048335,1.7775179,-1.0602831,-1.8359287,-1.0972639,1.953589,1.1357867,-0.9188346,-0.1322835,0.20517062,-1.7104225,1.7465403,1.1433903,1.5213081,-0.0074764616,3.211052,-0.33158112,0.16521141,-3.20722,-0.068927504,5.4473968,0.5234566,-0.46670532,0.6946019,0.5868645,0.17028835,0.14647257,0.77790594,-0.54107076,-1.0196779,0.06696116,1.0,0.0,0.0,0.0,0.0,0.0,0.0,-3.861052,-0.06841889,0.3847886,4.0480404,-9.056011,-88.91294,108.66611,35.95053,74.47834,23.826775
-154.19757,94.97553,23.822386,85.75842,7.9032555,6.8520336,-1.596458,-0.7777343,0.20347859,0.06863712,0.5640091,0.5446483,0.6486006,-0.58484757,1.6997445,-1.0399352,-1.829065,-1.040863,2.0080538,1.2006468,-0.97731936,1.7728888,-1.0578684,-1.8510711,-1.078446,1.9653783,1.1508204,-0.9191589,-0.5728004,0.25054112,-1.4429345,1.928402,1.1859291,1.4912674,-0.041826595,3.1790009,-0.33226776,0.21890807,-3.2040136,-0.068858586,5.3437643,0.5158348,-0.4784546,0.69661874,0.5978847,0.16554184,0.14075927,0.7715676,-0.8436219,-1.2202424,0.2503694,1.0,0.0,0.0,0.0,0.0,0.0,0.0,-3.829001,-0.067732245,0.33109194,-44.017555,3.6708565,28.523445,18.62526,2.8072834,-4.871011,-3.731285
-102.193535,73.58544,27.48048,49.570972,5.1497707,6.2608757,-0.047243953,-0.7779671,-0.085905015,0.19317165,0.6019199,0.5323245,0.63687193,-0.60408837,1.6950921,-1.0664588,-1.831754,-1.018254,2.0186107,1.2145076,-0.9795677,1.7638785,-1.0563883,-1.8605888,-1.0601965,1.976542,1.1647631,-0.91996473,-1.0110484,0.11202406,-0.78171587,1.7913296,1.0879598,1.3591522,-0.09446699,3.146988,-0.3329544,0.2715692,-3.2008102,-0.06878974,5.2402353,0.5057068,-0.49118042,0.69995564,0.60960674,0.15988101,0.13354252,0.7648425,-1.0805974,-1.2782301,0.36536902,1.0,0.0,0.0,0.0,0.0,0.0,0.0,-3.796988,-0.0670456,0.27843082,-44.010223,-14.353485,68.07201,-13.410473,-11.372995,-14.068961,-5.5476875
-49.70625,77.36853,33.545177,23.715397,2.622329,5.347531,0.72986794,-0.8005777,-0.07716193,0.2624487,0.5997261,0.60528785,0.6410909,-0.58540887,1.6838207,-1.0641044,-1.8343439,-1.0002239,2.0370708,1.2288722,-0.9785056,1.7512194,-1.0562776,-1.8631237,-1.0444113,1.9867005,1.1772467,-0.92132086,-1.3515141,-0.023774566,-0.07248678,1.5075636,0.98810816,1.2106655,-0.1504307,3.1150055,-0.33364105,0.3231958,-3.19761,-0.06872097,5.13681,0.4938202,-0.5037079,0.7041896,0.62081224,0.15356617,0.12482833,0.75856936,-1.2381566,-1.2302964,0.4436872,1.0,0.0,0.0,0.0,0.0,0.0,0.0,-3.7650056,-0.06635895,0.22680423,-34.25689,-13.884406,72.43577,-28.366875,-11.149311,-15.030861,-5.920221
-9.7213745,78.98033,33.8924,8.948967,0.8170831,3.8710012,0.8247029,-0.80313665,-0.054237887,0.3122843,0.6134206,0.6173072,0.63123935,-0.59442735,1.6709057,-1.0617014,-1.8318952,-0.98306924,2.0484312,1.2403706,-0.9807636,1.7362963,-1.0571684,-1.8598411,-1.0312563,1.9960561,1.1883684,-0.9231939,-1.539495,-0.111562744,0.46508184,1.2510555,0.9158181,1.0799742,-0.20062223,3.0830536,-0.3343277,0.3737889,-3.194413,-0.06865226,5.033488,0.48093033,-0.5154114,0.70899147,0.63108873,0.14682221,0.115031525,0.75295275,-1.3179121,-1.1385579,0.49052057,1.0,0.0,0.0,0.0,0.0,0.0,0.0,-3.7330537,-0.06567231,0.17621112,-18.935276,-8.988365,54.682495,-25.762033,-7.864666,-12.901926,-5.34471
17.99683,134.09035,49.555367,8.4609165,-1.0112236,4.111505,0.32829517,-0.8228233,0.24799775,0.28205612,0.5811948,0.6156759,0.615095,-0.5887796,1.654014,-1.0323685,-1.8316355,-0.97313684,2.0576236,1.2498779,-0.9820718,1.7203585,-1.0571626,-1.8531711,-1.0201708,2.0049138,1.1983343,-0.925517,-1.6123937,0.03683707,0.7367431,1.0609219,0.87521034,0.97004515,-0.24479768,3.0511322,-0.33501434,0.42334956,-3.1912193,-0.06858362,4.930269,0.46758652,-0.5256882,0.71476126,0.6406416,0.13948348,0.10525713,0.74769217,-1.3514048,-0.9815891,0.60248166,1.0,0.0,0.0,0.0,0.0,0.0,0.0,-3.7011323,-0.06498566,0.12665045,-7.459998,14.564699,27.835417,-19.099379,-4.2741656,-10.631884,-4.9603314
29.194336,156.32562,52.40664,9.1646,-2.0839272,3.5756888,-0.1605762,-0.8262914,0.40908256,0.19420177,0.55268896,0.6020137,0.61747473,-0.5972281,1.6377294,-1.0162544,-1.833751,-0.9649019,2.0651152,1.2600818,-0.98523986,1.70427,-1.0546545,-1.8457325,-1.0104243,2.0135045,1.2073485,-0.92823404,-1.6084561,0.32112613,0.7477974,0.9461327,0.8540389,0.8798755,-0.28242415,3.0192413,-0.335701,0.47187883,-3.1880288,-0.068515055,4.8271537,0.45417023,-0.53430176,0.7217654,0.64986706,0.13151968,0.09659024,0.74232453,-1.3493592,-0.80799794,0.729472,1.0,0.0,0.0,0.0,0.0,0.0,0.0,-3.6692414,-0.06429902,0.078121185,0.19965172,28.169668,1.5678763,-11.455118,-2.0907283,-8.609867,-4.284734
34.44556,161.07912,51.47346,8.534264,-2.5141857,3.0562992,-0.32900962,-0.8254224,0.5359524,0.16925524,0.4971138,0.64215904,0.61467963,-0.5945089,1.6217277,-1.0010593,-1.8288069,-0.96071285,2.0777204,1.2688165,-0.9876849,1.6884886,-1.0489439,-1.8391922,-1.0015398,2.0221143,1.2155768,-0.93127435,-1.5686854,0.6536088,0.62402654,0.8692986,0.86348623,0.8047565,-0.31272188,2.9873848,-0.33638763,0.5193777,-3.1848414,-0.068446554,4.7241416,0.44091034,-0.5411453,0.7300153,0.6589903,0.123045966,0.08955205,0.73659474,-1.3262218,-0.633712,0.8536587,1.0,0.0,0.0,0.0,0.0,0.0,0.0,-3.637385,-0.06361237,0.030622303,3.7606716,33.017223,-11.982977,-7.6335073,1.0275483,-7.1888924,-3.4753501
34.712204,149.54205,47.045414,7.384594,-2.3865302,2.5590882,-0.28891957,-0.8181602,0.6208705,0.17950042,0.46125412,0.6536564,0.621214,-0.5976547,1.6066725,-0.9868568,-1.8212421,-0.9554144,2.0874798,1.2776982,-0.9910398,1.6731802,-1.0401644,-1.8340442,-0.99324316,2.0309072,1.2231508,-0.934575,-1.5190364,0.9519614,0.47962964,0.8165042,0.88483316,0.7422301,-0.33700603,2.9555626,-0.33707428,0.5658472,-3.1816573,-0.06837812,4.6212325,0.4279251,-0.5463867,0.7393668,0.6680492,0.11418027,0.08412518,0.73047656,-1.29507,-0.47441906,0.9594345,1.0,0.0,0.0,0.0,0.0,0.0,0.0,-3.6055627,-0.062925726,-0.015847206,4.755378,29.64344,-14.060736,-5.270076,2.193141,-6.06699,-2.7928948
30.99008,128.05467,40.09882,6.130445,-1.9109769,2.0447817,-0.15367119,-0.81252074,0.67671,0.18390451,0.43056288,0.6691299,0.6219016,-0.59770995,1.5919281,-0.97249335,-1.8156538,-0.95018685,2.09782,1.285341,-0.994346,1.6583143,-1.0289778,-1.8300846,-0.9853954,2.0399556,1.2301794,-0.9380817,-1.4764036,1.1736034,0.36927262,0.77400404,0.91176015,0.6898948,-0.3562364,2.923771,-0.33776093,0.6112884,-3.1784763,-0.068309754,4.518426,0.4152298,-0.55023193,0.7495459,0.6769839,0.105052724,0.07996359,0.7240598,-1.264855,-0.34119081,1.0346506,1.0,0.0,0.0,0.0,0.0,0.0,0.0,-3.573771,-0.06223908,-0.061288416,4.074788,22.02096,-10.674864,-4.309833,2.7376175,-5.1347613,-2.2343338
24.459278,100.9056,31.070642,5.212268,-1.3054487,1.4266912,-0.047266725,-0.80374163,0.7034421,0.15894006,0.41584095,0.6749194,0.62914485,-0.58591604,1.5779402,-0.95863354,-1.8141905,-0.9438113,2.1074476,1.2930939,-0.9966733,1.6437937,-1.0162538,-1.8269832,-0.9778909,2.0492558,1.2367579,-0.9417419,-1.4445246,1.3050946,0.29147902,0.7421337,0.935991,0.6473322,-0.3702221,2.8920097,-0.33844757,0.65570235,-3.1752985,-0.06824146,4.415722,0.4027977,-0.5530014,0.7601785,0.685732,0.09583244,0.0766507,0.71743464,-1.238818,-0.24268281,1.0702047,1.0,0.0,0.0,0.0,0.0,0.0,0.0,-3.5420098,-0.061552435,-0.10570234,3.031087,13.062096,-7.4773073,-3.3205152,2.475226,-4.167819,-1.667136
20.224152,78.926285,23.992687,3.6746874,-0.90318394,0.9324384,0.06664923,-0.79582894,0.72070223,0.14809948,0.38400823,0.67241055,0.6326565,-0.58135235,1.5642108,-0.9441836,-1.8121732,-0.9394901,2.1164968,1.3000236,-0.9998771,1.6295134,-1.002765,-1.8244007,-0.9707393,2.0587354,1.2429701,-0.9455165,-1.4229796,1.3635576,0.24813133,0.7054362,0.95221925,0.6132037,-0.38074452,2.860279,-0.33913422,0.69909,-3.172124,-0.06817323,4.313121,0.3905983,-0.5549927,0.7709192,0.6942219,0.08667032,0.07384716,0.7106973,-1.2143995,-0.16924366,1.072795,1.0,0.0,0.0,0.0,0.0,0.0,0.0,-3.5102792,-0.06086579,-0.14908999,2.0187378,5.802989,-4.0709076,-3.8672924,1.6882181,-3.279686,-1.3073862
17.182688,65.429115,19.658293,3.0031443,-0.6109746,0.6341561,0.14120232,-0.78977746,0.7356542,0.13884635,0.35739207,0.6848684,0.635796,-0.5777975,1.5505357,-0.92919964,-1.810516,-0.9350001,2.1272223,1.3065497,-1.0032963,1.6153876,-0.989022,-1.8220699,-0.96399206,2.0683637,1.2488943,-0.94937795,-1.4095916,1.3778397,0.22876176,0.66379625,0.9664955,0.58605725,-0.38867554,2.828579,-0.33982086,0.74145246,-3.1689525,-0.06810507,4.2106223,0.3786354,-0.5563736,0.78154117,0.70239687,0.07765736,0.07131114,0.70393366,-1.1917542,-0.112740755,1.0559149,1.0,0.0,0.0,0.0,0.0,0.0,0.0,-3.478579,-0.060179144,-0.19145244,1.2174606,1.4132738,-1.7018318,-4.3939233,1.5031457,-2.545178,-1.037705
15.768533,58.245216,17.363308,2.3293462,-0.4914942,0.46191776,0.20396394,-0.7894411,0.74211556,0.13818325,0.3168286,0.6926582,0.6355662,-0.5757195,1.5364435,-0.9148105,-1.8082515,-0.9323092,2.1376295,1.312451,-1.0069499,1.6013342,-0.9753063,-1.819802,-0.95775884,2.0781178,1.2545859,-0.95330423,-1.4043659,1.3695433,0.22705989,0.60900605,0.97893614,0.564352,-0.39474532,2.7969131,-0.3405075,0.78279066,-3.1657841,-0.06803698,4.1082263,0.36688232,-0.55724335,0.7919121,0.71021175,0.0688495,0.06890828,0.69721633,-1.168911,-0.0641924,1.0280216,1.0,0.0,0.0,0.0,0.0,0.0,0.0,-3.4469132,-0.0594925,-0.23279065,0.405097,-0.82912445,0.056952238,-5.7239175,1.3260841,-1.9679427,-0.8440137
16.836777,58.156803,17.396217,1.764286,-0.5674673,0.41883257,0.24694166,-0.7844493,0.75580764,0.13802895,0.27603695,0.6923564,0.64423984,-0.56289846,1.5228893,-0.8997255,-1.8059992,-0.93015516,2.1473534,1.3190099,-1.0095941,1.5873152,-0.9616754,-1.8174846,-0.95215887,2.0879674,1.2601,-0.95727247,-1.4014295,1.3609606,0.23407105,0.54292285,0.987144,0.54775846,-0.39828363,2.7652817,-0.34119415,0.82310563,-3.162619,-0.06796896,4.005933,0.35538483,-0.55760956,0.8019997,0.7176278,0.060246877,0.06660924,0.69061124,-1.1426246,-0.013942244,0.9994217,1.0,0.0,0.0,0.0,0.0,0.0,0.0,-3.4152818,-0.058805853,-0.27310562,0.17597675,-0.8521557,0.92793405,-6.848538,0.90829134,-1.436305,-0.58439374
19.772545,58.92595,17.753191,0.1235795,-0.7763003,0.33453396,0.3177461,-0.7818598,0.7602949,0.1451031,0.21139497,0.6959132,0.6455193,-0.55414796,1.5091292,-0.8856459,-1.8029743,-0.93101937,2.1575587,1.324652,-1.0126872,1.5733172,-0.94810176,-1.815047,-0.9473867,2.0978818,1.2654749,-0.96126264,-1.3994333,1.3562132,0.24771598,0.4544623,0.9932989,0.5349672,-0.39999586,2.7336807,-0.34187317,0.8623985,-3.1594572,-0.067901,3.903742,0.34420776,-0.5574188,0.8117873,0.72458893,0.051859286,0.06444077,0.6841994,-1.1082458,0.041764148,0.96881586,1.0,0.0,0.0,0.0,0.0,0.0,0.0,-3.3836808,-0.058126837,-0.3123985,0.079751015,-0.46103,1.5922099,-9.083337,0.7079959,-1.0151267,-0.3938794
25.81422,60.709656,18.698023,-3.5047126,-1.2035584,0.20531899,0.46043795,-0.7823338,0.76574343,0.17105311,0.10285676,0.696058,0.63944,-0.5466457,1.4950838,-0.87152743,-1.7979417,-0.937101,2.1674876,1.3294189,-1.0159272,1.5593306,-0.93452716,-1.8123653,-0.9438419,2.107842,1.2707411,-0.9652595,-1.3989888,1.3579466,0.27595824,0.32035676,0.9968778,0.52484375,-0.40034136,2.7021103,-0.34254456,0.90067023,-3.1562984,-0.06783311,3.8016534,0.33348083,-0.5565872,0.82123595,0.7309734,0.043731622,0.062452134,0.6781334,-1.0583302,0.10955472,0.9336784,1.0,0.0,0.0,0.0,0.0,0.0,0.0,-3.3521104,-0.05745545,-0.35067022,-0.08099079,0.19762516,3.0632973,-13.64544,0.45406818,-0.66986084,-0.24966598
34.9376,60.628975,18.844582,-9.792128,-1.8955884,-0.1397354,0.6514063,-0.7788548,0.7763508,0.17505729,-0.056294534,0.7031317,0.6441219,-0.5347831,1.4814451,-0.8568921,-1.7948595,-0.94947135,2.1781552,1.3351533,-1.0187378,1.5453593,-0.9208696,-1.8094127,-0.9421672,2.117844,1.2759291,-0.96924776,-1.3970629,1.3685192,0.3023702,0.115776114,1.0015143,0.518431,-0.39898407,2.6705704,-0.34321594,0.9379218,-3.1531427,-0.067765296,3.6996667,0.3234558,-0.5549774,0.8302267,0.73661107,0.036002267,0.0607573,0.6726191,-0.9816481,0.19129644,0.8841103,1.0,0.0,0.0,0.0,0.0,0.0,0.0,-3.3205705,-0.056784064,-0.3879218,0.071167946,1.1023045,2.8676152,-20.69136,0.5642891,-0.1704216,-0.051796436
42.937767,60.55153,19.198704,-14.874382,-2.4420257,-0.44400662,0.8140036,-0.7709503,0.78245825,0.20271207,-0.20799392,0.6983822,0.6450906,-0.52943116,1.4682642,-0.8426238,-1.7891415,-0.9629666,2.1876824,1.3404381,-1.0221909,1.5314413,-0.9070766,-1.806134,-0.9429254,2.1278691,1.2810713,-0.97321695,-1.3902766,1.3831385,0.33691835,-0.14032821,1.0032413,0.51462495,-0.39667213,2.639061,-0.34388733,0.9741543,-3.14999,-0.06769754,3.5977821,0.31436157,-0.5524597,0.8386478,0.7413511,0.028798997,0.05945074,0.6678583,-0.88184434,0.2824433,0.8243589,1.0,0.0,0.0,0.0,0.0,0.0,0.0,-3.289061,-0.056112677,-0.42415428,0.5889654,1.5334368,3.6209702,-25.811646,0.30052662,0.18759966,0.08572936
53.26175,62.74946,21.188503,-20.13664,-2.9357984,-0.6507061,1.0433449,-0.7506688,0.7844357,0.2830257,-0.38485196,0.7061815,0.63516873,-0.53752154,1.4563744,-0.828633,-1.7778314,-0.98141056,2.1984873,1.3445882,-1.0269691,1.5176855,-0.8931482,-1.8022087,-0.9465789,2.1379323,1.2861811,-0.977169,-1.3707007,1.3963937,0.41108727,-0.4407938,1.007542,0.5118316,-0.3949442,2.607582,-0.34455872,1.0093687,-3.1468408,-0.06762986,3.4959993,0.306427,-0.5489044,0.84644794,0.74500775,0.022182152,0.058509562,0.6641145,-0.75913864,0.38626435,0.76103437,1.0,0.0,0.0,0.0,0.0,0.0,0.0,-3.2575822,-0.05544129,-0.45936865,1.9323826,1.4275551,7.473606,-30.176985,0.62077045,0.3780365,0.073587894
53.413902,68.04532,23.643084,-17.015846,-2.6885715,-0.5020395,1.0040942,-0.7200934,0.7972519,0.34339994,-0.43673807,0.700406,0.6243248,-0.5155066,1.4456762,-0.813423,-1.7678686,-0.99025273,2.207973,1.3486136,-1.0287197,1.5042578,-0.8790605,-1.7973545,-0.95283693,2.1480184,1.2912565,-0.9810876,-1.3331398,1.413255,0.50957745,-0.6876849,1.010207,0.5082973,-0.39095283,2.5761337,-0.3452301,1.043566,-3.1436946,-0.06756224,3.3943183,0.299675,-0.5443344,0.853764,0.7475834,0.016018115,0.057842124,0.66145045,-0.6424677,0.48721692,0.716956,1.0,0.0,0.0,0.0,0.0,0.0,0.0,-3.2261338,-0.054769903,-0.49356598,3.8048983,1.8218279,9.706563,-24.73544,0.58915615,0.2722144,0.3475368
49.43834,69.66559,24.584097,-12.231295,-2.1947932,-0.3533543,0.89888,-0.6897569,0.79856265,0.40263668,-0.48957023,0.70822763,0.6180411,-0.49688372,1.4352821,-0.79920423,-1.7570908,-1.001794,2.218841,1.3530606,-1.030776,1.4913088,-0.86483264,-1.7914169,-0.961049,2.158154,1.296292,-0.9849538,-1.2817693,1.4264551,0.62081546,-0.86580557,1.015996,0.504112,-0.3852077,2.5447235,-0.3459015,1.0767472,-3.1405516,-0.06749469,3.292739,0.2939644,-0.5388336,0.8607676,0.74918824,0.010124504,0.057306014,0.6597958,-0.54073876,0.5774119,0.6894238,1.0,0.0,0.0,0.0,0.0,0.0,0.0,-3.1947236,-0.054098517,-0.52674717,5.2378893,1.4816046,10.817838,-17.814278,1.008606,0.15803576,0.55004954
47.73979,71.7553,25.826363,-8.754012,-1.8779645,-0.24337676,0.8281339,-0.6418245,0.80446506,0.4691748,-0.54041225,0.7096456,0.60300326,-0.4693534,1.4271264,-0.78438616,-1.7444994,-1.0150902,2.2291186,1.3565923,-1.0318892,1.479014,-0.8504865,-1.7843063,-0.97059625,2.1683507,1.3012778,-0.9887447,-1.2114313,1.4380087,0.73974335,-0.9842082,1.0225815,0.4987141,-0.37714916,2.5133438,-0.34657288,1.1089134,-3.1374116,-0.06742721,3.191261,0.289196,-0.5324631,0.86760765,0.74991363,0.00433652,0.056790195,0.6590794,-0.4486816,0.66196746,0.6763679,1.0,0.0,0.0,0.0,0.0,0.0,0.0,-3.163344,-0.05342713,-0.5589134,7.183528,1.3406754,11.449373,-11.809731,1.1761665,0.017011166,0.7964611
35.09235,69.15297,24.054792,-1.1752677,-1.1664894,-0.045738533,0.5723102,-0.63683414,0.81323504,0.49635834,-0.5424753,0.70054644,0.60292745,-0.44020027,1.4153306,-0.769163,-1.7346704,-1.0248438,2.2384052,1.3615705,-1.0327647,1.4673201,-0.83602023,-1.7761638,-0.9808244,2.178574,1.3062102,-0.99244016,-1.1550391,1.4502122,0.83758146,-1.0357451,1.024224,0.49290055,-0.36695564,2.4819946,-0.34724426,1.1400657,-3.1342747,-0.0673598,3.0898845,0.285141,-0.525383,0.87440085,0.7499713,-0.0014724112,0.056265756,0.65907127,-0.38512084,0.72705066,0.67388064,1.0,0.0,0.0,0.0,0.0,0.0,0.0,-3.1319947,-0.052755743,-0.59006566,5.7579517,1.4129639,9.325468,-5.1475525,0.69146156,-0.121730566,1.0165453
22.849766,61.07205,19.997587,3.8448744,-0.60649663,-0.07443361,0.3496102,-0.6383531,0.81191313,0.503731,-0.56942797,0.7004536,0.6003409,-0.4278823,1.4034848,-0.75482893,-1.7257907,-1.0377672,2.2486196,1.3662442,-1.0352284,1.4560076,-0.82146907,-1.7673118,-0.99134725,2.1887975,1.3110834,-0.99603266,-1.123076,1.4573473,0.89976484,-1.0579352,1.0234392,0.48661792,-0.3566809,2.450676,-0.34791565,1.1702049,-3.1311412,-0.06729245,2.9886096,0.281559,-0.5178299,0.88113415,0.7495931,-0.007288335,0.05576773,0.65950507,-0.34281212,0.7697165,0.66634923,1.0,0.0,0.0,0.0,0.0,0.0,0.0,-3.100676,-0.052084357,-0.62020487,3.256774,0.895524,5.8403015,-2.267027,0.38106441,-0.25901198,1.0228753
14.829107,56.94948,17.948317,8.152954,-0.17566115,-0.021629184,0.18628651,-0.6216918,0.81504595,0.52831304,-0.54942256,0.6919076,0.5996,-0.39489794,1.3938384,-0.7399645,-1.7144805,-1.0462896,2.2579882,1.3710434,-1.0355225,1.4449335,-0.80686355,-1.7579925,-1.0018212,2.1989827,1.3158938,-0.9995088,-1.1021603,1.4622324,0.9415987,-1.0442245,1.0182164,0.48042268,-0.34457397,2.4193878,-0.34858704,1.1993321,-3.1280105,-0.06722517,2.8874357,0.27827835,-0.5099411,0.88781196,0.7489571,-0.013120491,0.055320065,0.66017485,-0.31705007,0.7981672,0.66129357,1.0,0.0,0.0,0.0,0.0,0.0,0.0,-3.069388,-0.05141297,-0.6493321,2.1088362,0.67021847,3.846085,1.2794733,-0.08971691,-0.30894876,1.1979163
8.289693,50.23896,14.939582,10.243206,0.124834895,-0.10372875,0.082156695,-0.62674206,0.810299,0.5334387,-0.5565181,0.69561654,0.6030244,-0.3728539,1.3822594,-0.72583365,-1.7046486,-1.057473,2.2685444,1.3761963,-1.0367942,1.4339415,-0.7922542,-1.7484138,-1.0121151,2.2091222,1.3206507,-1.0028584,-1.0982106,1.4610595,0.9625781,-1.0250732,1.0139143,0.4749052,-0.33180532,2.3881302,-0.34925842,1.2274485,-3.1248832,-0.06715796,2.786363,0.2751732,-0.50188446,0.89438885,0.7481849,-0.018928282,0.054942094,0.66094047,-0.30135015,0.81259674,0.649299,1.0,0.0,0.0,0.0,0.0,0.0,0.0,-3.0381303,-0.050741583,-0.67744845,0.3664255,0.052285194,1.8384695,1.7796516,-0.0541687,-0.29038787,1.2567759
1.5134649,45.757095,12.788311,13.207464,0.46714914,-0.0724393,-0.029533606,-0.644063,0.8104497,0.53754395,-0.53532493,0.6955451,0.608045,-0.34053925,1.3695352,-0.71120924,-1.6946594,-1.0656476,2.2786767,1.3814552,-1.0369123,1.4228445,-0.7776706,-1.7387245,-1.0221344,2.2192235,1.32536,-1.0060685,-1.1139798,1.4580154,0.9704151,-0.99478966,1.010351,0.4702705,-0.31748334,2.356903,-0.3499298,1.2545546,-3.121759,-0.06709082,2.6853912,0.27213287,-0.49376678,0.90083754,0.74738747,-0.02468199,0.054642837,0.6616773,-0.29864275,0.81545544,0.6361453,1.0,0.0,0.0,0.0,0.0,0.0,0.0,-3.0069032,-0.050070196,-0.7045546,-1.6603231,-0.14107227,0.58888197,2.8529048,-0.010752678,-0.25226474,1.4086246
-1.3153257,42.00264,11.155973,13.876237,0.5745758,-0.13996847,-0.07343897,-0.6582825,0.80799717,0.5352391,-0.53340435,0.69396305,0.61014545,-0.32041407,1.3570163,-0.6968709,-1.6852006,-1.0754749,2.2886198,1.3863745,-1.0381099,1.4114996,-0.76312995,-1.7290332,-1.0318886,2.2292943,1.3300272,-1.0091336,-1.1418052,1.4532102,0.9682754,-0.96979827,1.0071045,0.46633038,-0.30292708,2.3257065,-0.3506012,1.280652,-3.1186378,-0.06702374,2.5845206,0.26908493,-0.485672,0.9071214,0.7466315,-0.030340396,0.05444132,0.6623118,-0.29918662,0.812112,0.6184483,1.0,0.0,0.0,0.0,0.0,0.0,0.0,-2.9757066,-0.04939881,-0.73065203,-2.8957605,-0.32658577,-0.35467148,2.304387,-0.012755394,-0.20931363,1.43134
-0.9525566,41.684204,11.20002,13.770583,0.54761624,-0.16878125,-0.064234495,-0.6683331,0.80992186,0.54329515,-0.526011,0.69624037,0.60667545,-0.2985246,1.3446664,-0.6821378,-1.6747037,-1.0844897,2.2989182,1.3906947,-1.0389861,1.3998553,-0.7486217,-1.7193534,-1.041433,2.239346,1.3346583,-1.0120499,-1.1723015,1.4504846,0.9674624,-0.949745,1.0057702,0.46265277,-0.28809226,2.2945404,-0.35127258,1.3057414,-3.1155198,-0.06695673,2.4837508,0.26604462,-0.47759247,0.91322774,0.745922,-0.035885982,0.054347917,0.6628414,-0.29854164,0.80969745,0.6007722,1.0,0.0,0.0,0.0,0.0,0.0,0.0,-2.9445405,-0.048727423,-0.7557414,-3.1689882,-0.120949745,-0.2060175,1.8161416,0.17113686,-0.1892209,1.4629066
-0.26180553,40.994495,11.148694,13.434292,0.51355684,-0.21761987,-0.046284594,-0.6834293,0.8083675,0.54542744,-0.519182,0.6988197,0.6064775,-0.26824054,1.3315123,-0.6677849,-1.6648107,-1.0933511,2.309228,1.395306,-1.0388739,1.3879,-0.7341373,-1.7096717,-1.0508133,2.2494016,1.3392569,-1.0148118,-1.2035754,1.4482627,0.9680506,-0.9346614,1.006267,0.4595116,-0.2722444,2.2634087,-0.35194397,1.3298239,-3.1124048,-0.066889785,2.383082,0.263031,-0.46953583,0.9191516,0.7452472,-0.04130978,0.05436069,0.66328347,-0.29585817,0.8079046,0.58230114,1.0,0.0,0.0,0.0,0.0,0.0,0.0,-2.9134088,-0.048056036,-0.77982384,-3.2488108,-0.073194504,-0.05276203,1.32339,0.34811497,-0.13903975,1.5651584
0.042491913,39.36128,10.76065,13.292818,0.51496476,-0.27508807,-0.037097573,-0.69908124,0.8020735,0.5461903,-0.508173,0.69285715,0.6089695,-0.2322786,1.3179919,-0.65392995,-1.6550527,-1.1016306,2.3186872,1.4001539,-1.0380396,1.3756377,-0.7196958,-1.6999767,-1.0600468,2.2594457,1.3438288,-1.0174038,-1.2341546,1.4432092,0.96962047,-0.92006326,1.0048236,0.45708874,-0.2549117,2.2323112,-0.35261536,1.3529004,-3.1092932,-0.06682291,2.2825136,0.26004028,-0.46150208,0.9248825,0.74459785,-0.046606105,0.054479457,0.6636519,-0.29197812,0.8049338,0.5626912,1.0,0.0,0.0,0.0,0.0,0.0,0.0,-2.8823113,-0.04738465,-0.8029004,-3.1797886,-0.3594637,0.055491924,1.2726545,0.14460087,-0.07144809,1.7105579
3.1227002,39.712543,11.204319,11.575996,0.32119966,-0.3916,0.019725218,-0.70583206,0.80403763,0.5476876,-0.52030736,0.6971467,0.60725766,-0.2138507,1.3050544,-0.63929206,-1.6452079,-1.1120775,2.3291605,1.4045546,-1.0387889,1.3631216,-0.7052896,-1.6902606,-1.0692326,2.269486,1.3483797,-1.0198262,-1.2578663,1.4401888,0.9720718,-0.91858584,1.0048705,0.45507532,-0.23786046,2.2012444,-0.35328674,1.374972,-3.1061845,-0.0667561,2.1820457,0.25715637,-0.4534607,0.93039834,0.7439322,-0.051749963,0.054717347,0.66399753,-0.27975616,0.80616146,0.54055154,1.0,0.0,0.0,0.0,0.0,0.0,0.0,-2.8512444,-0.046713263,-0.824972,-2.4725676,-0.15892982,0.14458895,-0.018906593,0.2811432,-0.018250942,1.6861647
4.518505,38.338478,10.798359,10.355797,0.21887517,-0.51829517,0.0488011,-0.7196008,0.8011091,0.54300743,-0.53135127,0.6995409,0.60716593,-0.19154504,1.2911615,-0.6251787,-1.6359599,-1.1223677,2.33944,1.4090964,-1.0389807,1.3503844,-0.6909168,-1.6805446,-1.0784947,2.2795377,1.3529135,-1.0220768,-1.2793432,1.4367906,0.97127503,-0.92907804,1.0060074,0.45345172,-0.22094995,2.170208,-0.35395813,1.3960396,-3.103079,-0.06668936,2.0816784,0.2544365,-0.4454193,0.93566006,0.7432181,-0.05669397,0.055091828,0.6643624,-0.26198405,0.8074538,0.5141358,1.0,0.0,0.0,0.0,0.0,0.0,0.0,-2.820208,-0.046041876,-0.8460396,-2.2399426,-0.20151138,-0.16607046,-1.2084961,0.37083626,0.02272129,1.673311
6.8806906,38.881046,11.372155,9.494943,0.101202905,-0.5914234,0.09013459,-0.717909,0.80064994,0.547607,-0.53051835,0.6962888,0.60747033,-0.1553202,1.2785934,-0.61085176,-1.6257839,-1.1315465,2.3491666,1.4136605,-1.0376089,1.3375078,-0.67657065,-1.670821,-1.0878693,2.2895894,1.3574358,-1.0241501,-1.2906543,1.4343598,0.9724644,-0.9405677,1.0059342,0.4522492,-0.20279971,2.139202,-0.35462952,1.4161043,-3.0999765,-0.06662268,1.9814112,0.25193405,-0.43733215,0.9406613,0.74242103,-0.061432637,0.055612125,0.66478884,-0.2387267,0.811799,0.4880877,1.0,0.0,0.0,0.0,0.0,0.0,0.0,-2.7892022,-0.04537049,-0.8661043,-1.2004614,-0.102734566,0.016880035,-1.2932062,0.24774075,0.073838234,1.7977357
6.7369885,36.80851,10.677633,9.19073,0.1067549,-0.66731846,0.092200905,-0.73231244,0.7944977,0.5468401,-0.5439063,0.6953585,0.6077277,-0.14368162,1.2642766,-0.5971209,-1.6161369,-1.14226,2.3591251,1.4182086,-1.0385183,1.3245093,-0.66226935,-1.6610878,-1.0974003,2.2996335,1.3619467,-1.0260499,-1.3032198,1.4292239,0.97329164,-0.95777106,1.005065,0.45126018,-0.18591246,2.1082268,-0.3553009,1.4351671,-3.0968773,-0.06655607,1.8812442,0.24966812,-0.42921448,0.94538164,0.741533,-0.06594404,0.05628023,0.66529137,-0.2141399,0.81389123,0.45921865,1.0,0.0,0.0,0.0,0.0,0.0,0.0,-2.7582269,-0.044699103,-0.88516706,-1.325655,-0.37593842,-0.00783205,-1.8662572,0.15742779,0.08926988,1.6707331
7.0816402,36.11327,10.736619,9.483444,0.15028042,-0.6867558,0.11002696,-0.73181736,0.789991,0.5524315,-0.54021937,0.6975145,0.60946196,-0.08564617,1.2513275,-0.58327025,-1.6058446,-1.1514223,2.369385,1.4228929,-1.0346144,1.3114249,-0.6480329,-1.6513221,-1.1070553,2.3096776,1.36645,-1.0277588,-1.3105212,1.4222207,0.9772559,-0.9687203,1.0051053,0.45057136,-0.16575913,2.077282,-0.3559723,1.453229,-3.093781,-0.06648953,1.7811773,0.24764252,-0.42105865,0.94982713,0.74054176,-0.07023591,0.057072796,0.66588837,-0.18967202,0.8152918,0.4321136,1.0,0.0,0.0,0.0,0.0,0.0,0.0,-2.727282,-0.044027716,-0.90322894,-0.7912159,-0.5610466,0.2966404,-1.2398481,0.25262833,0.115174055,1.9935936
6.6174536,37.505234,11.710659,11.380582,0.26488602,-0.5707111,0.11450404,-0.73157597,0.79248554,0.56388736,-0.5125231,0.6940873,0.6140404,0.03380021,1.2382673,-0.56878436,-1.5949334,-1.1583077,2.3790863,1.427854,-1.0243788,1.2983004,-0.63384223,-1.6414669,-1.1166493,2.319714,1.3709513,-1.0291932,-1.3134854,1.4184426,0.9878633,-0.95689535,1.0043051,0.4503994,-0.13613516,2.0463676,-0.35664368,1.4702909,-3.090688,-0.06642306,1.6812105,0.24583054,-0.41290283,0.95406896,0.7394321,-0.07439157,0.057960436,0.66659325,-0.17040804,0.81854945,0.41393375,1.0,0.0,0.0,0.0,0.0,0.0,0.0,-2.6963677,-0.04335633,-0.9202909,-0.36623478,-0.22873878,0.94254017,1.0365248,0.20003319,0.15606284,2.9381037
2.0717983,34.17603,10.504143,14.7150755,0.6463547,-0.43091124,0.03588215,-0.75467324,0.7816136,0.5674225,-0.47868824,0.69440854,0.62879515,0.11077586,1.222833,-0.5556809,-1.5847247,-1.1645181,2.389155,1.4338309,-1.0181155,1.2850577,-0.61972404,-1.6314971,-1.125938,2.3297467,1.3754603,-1.0302937,-1.3283999,1.410149,0.9998231,-0.9199423,1.0037674,0.45147753,-0.101575956,2.0154839,-0.35730743,1.4863539,-3.0875978,-0.066356644,1.5813437,0.24410248,-0.40476227,0.9581729,0.7382557,-0.07849117,0.05888979,0.66734517,-0.16507839,0.8137763,0.4017595,1.0,0.0,0.0,0.0,0.0,0.0,0.0,-2.665484,-0.042692572,-0.93635386,-1.6131401,-0.67925453,1.105535,3.5135388,0.23934841,0.24748445,3.4243271
1.045011,32.463444,9.944295,15.407371,0.7194308,-0.4294496,0.0282899,-0.7639664,0.7770763,0.57191485,-0.47089624,0.68751377,0.6325442,0.19083646,1.2086611,-0.5420164,-1.5743057,-1.1730276,2.398498,1.4387147,-1.0112101,1.2716318,-0.60569835,-1.6214092,-1.1348358,2.3397565,1.3799826,-1.0310185,-1.3478805,1.4005927,1.01165,-0.8803113,1.0006266,0.4528386,-0.06287057,1.9846306,-0.35796356,1.5014191,-3.084511,-0.066290304,1.4815766,0.2424202,-0.39668274,0.96215963,0.7370368,-0.08256225,0.059850283,0.6681153,-0.16202721,0.8070598,0.39019445,1.0,0.0,0.0,0.0,0.0,0.0,0.0,-2.6346307,-0.042036444,-0.95141906,-2.0858288,-0.8084059,1.1118174,3.775823,-0.02708435,0.26382804,3.8382843
-1.0514097,31.507683,9.948571,18.286442,0.9655355,-0.28809687,-0.02213088,-0.7698717,0.77023816,0.5829565,-0.40384284,0.6775201,0.641506,0.28183252,1.1946447,-0.52867454,-1.5631136,-1.1752201,2.4075086,1.4441332,-1.0028353,1.2580115,-0.5917804,-1.611182,-1.1431023,2.3497052,1.3845221,-1.0313237,-1.3671753,1.3893585,1.0263379,-0.80963564,0.99387103,0.45480493,-0.019819213,1.9538078,-0.3586197,1.5154872,-3.081427,-0.06622402,1.3819094,0.24067688,-0.38869476,0.96610117,0.73580766,-0.086696744,0.06081278,0.66885906,-0.16865848,0.79798824,0.3879868,1.0,0.0,0.0,0.0,0.0,0.0,0.0,-2.603808,-0.041380316,-0.9654872,-2.0935535,-0.9701967,1.3943672,6.8621874,-0.36133528,0.305897,4.2655554
-1.6999912,29.29575,9.13289,18.951221,1.0541887,-0.32615307,-0.0531377,-0.77484554,0.76194143,0.5743408,-0.36764812,0.67446154,0.6466675,0.32600823,1.1805269,-0.51558626,-1.5537479,-1.1798671,2.4171515,1.4491888,-0.99872285,1.2442232,-0.57798934,-1.6008785,-1.1505963,2.3595815,1.3890845,-1.0312035,-1.3831722,1.376149,1.0315616,-0.7300786,0.98644656,0.4570232,0.022358842,1.9230156,-0.35927582,1.5285594,-3.0783463,-0.06615782,1.2823418,0.23886871,-0.3808136,0.9700258,0.7345974,-0.09093234,0.06176114,0.6695398,-0.17677617,0.7853691,0.38652197,1.0,0.0,0.0,0.0,0.0,0.0,0.0,-2.5730157,-0.040724188,-0.97855943,-1.7638922,-1.1704683,0.45375824,7.745075,-0.43720007,0.32369494,4.1751685
0.4597559,29.688093,9.441141,17.34359,0.86177266,-0.43824258,-0.005319871,-0.7795776,0.7600383,0.58103734,-0.35920203,0.67014116,0.643825,0.3646756,1.1662655,-0.5019855,-1.5427748,-1.1865165,2.4265957,1.453467,-0.99473596,1.2303053,-0.56431174,-1.5905273,-1.1574208,2.3693814,1.3936659,-1.0306771,-1.3950957,1.3654586,1.0361679,-0.6670933,0.9788339,0.45880526,0.06257241,1.8922539,-0.35993195,1.5406368,-3.0752685,-0.06609167,1.1828737,0.23702621,-0.37303162,0.9739066,0.7333818,-0.09523387,0.06272162,0.6701847,-0.17717166,0.7766203,0.38144353,1.0,0.0,0.0,0.0,0.0,0.0,0.0,-2.542254,-0.04006806,-0.99063677,-1.3344526,-0.92482567,0.39887428,6.11279,-0.47328472,0.28930306,3.9826474
4.2958946,29.401705,9.101818,12.872572,0.4565363,-0.7478491,0.087041214,-0.7817194,0.75751954,0.57228273,-0.39327493,0.67285633,0.6448507,0.3684064,1.1521333,-0.48855978,-1.533299,-1.1967483,2.436667,1.458151,-0.99383646,1.2163054,-0.55072,-1.5801895,-1.1639744,2.3791242,1.3982626,-1.0297902,-1.4019966,1.3574798,1.0328321,-0.6520572,0.9737671,0.46061882,0.09727953,1.8615227,-0.36058807,1.5517201,-3.0721939,-0.06602559,1.0835052,0.23532104,-0.36532593,0.9776282,0.73209536,-0.09945249,0.06376821,0.6708793,-0.15968329,0.7712397,0.36192217,1.0,0.0,0.0,0.0,0.0,0.0,0.0,-2.5115228,-0.039411932,-1.0017202,-0.783515,-0.66895485,-0.37550926,1.3563633,-0.2759695,0.31761527,3.4397812
7.9580383,30.230803,9.588383,9.460644,0.13223022,-0.9621375,0.19116372,-0.7760802,0.75264895,0.58161163,-0.41123706,0.67407036,0.63476783,0.39396507,1.1386974,-0.47545508,-1.5220283,-1.2050982,2.4465313,1.4617394,-0.99039364,1.2022997,-0.53720164,-1.5698535,-1.1706368,2.3888364,1.4028689,-1.028579,-1.4003077,1.3503515,1.0335932,-0.6713076,0.9710068,0.46138507,0.1288827,1.830822,-0.3612442,1.5618106,-3.0691223,-0.06595958,0.9842358,0.23389435,-0.35762024,0.981087,0.73065084,-0.10345419,0.06494678,0.67173535,-0.12803131,0.7706484,0.3334863,1.0,0.0,0.0,0.0,0.0,0.0,0.0,-2.480822,-0.038755804,-1.0118105,0.12788773,-0.591588,0.02758503,-2.035129,-0.07728338,0.23527741,3.1337366
8.435508,30.779375,10.253608,10.218796,0.16111392,-0.9249059,0.19917025,-0.7672655,0.7481869,0.5903361,-0.3770981,0.6684825,0.640348,0.43408346,1.1255732,-0.46238294,-1.5108199,-1.2083466,2.4556847,1.4669037,-0.98517066,1.1883742,-0.5237529,-1.559468,-1.1774021,2.3985143,1.4074866,-1.0270607,-1.3901111,1.3434969,1.0400299,-0.67863196,0.9677715,0.46246964,0.15940809,1.8001518,-0.36190033,1.5709091,-3.0660539,-0.065893635,0.88506573,0.23278427,-0.3498993,0.9842961,0.7290148,-0.10725658,0.06624316,0.6727891,-0.09755121,0.77211696,0.30969808,1.0,0.0,0.0,0.0,0.0,0.0,0.0,-2.450152,-0.038099676,-1.0209091,0.9912729,-0.5582571,0.5706787,-0.8357763,-0.109136105,0.26373267,3.0246675
6.0907483,28.007933,9.178722,12.358959,0.40094364,-0.8765045,0.12360324,-0.765908,0.7407279,0.5762939,-0.34756386,0.6627026,0.64041024,0.4625384,1.1117834,-0.44968015,-1.5018387,-1.2121586,2.4647846,1.4715276,-0.9808069,1.1745573,-0.51038814,-1.5490844,-1.184074,2.4081502,1.4121138,-1.0252507,-1.3790737,1.3345876,1.0377666,-0.6639055,0.96317285,0.46323067,0.18818042,1.7695122,-0.36255646,1.5790167,-3.0629885,-0.06582776,0.7859948,0.2319107,-0.34220123,0.98730266,0.7272375,-0.110914454,0.06762522,0.67398095,-0.07477596,0.7677361,0.2906722,1.0,0.0,0.0,0.0,0.0,0.0,0.0,-2.4195123,-0.03744355,-1.0290167,1.05443,-0.76003075,-0.29821396,1.3478994,-0.23616552,0.21119714,2.8464704
4.978994,26.484398,8.653881,13.321204,0.5051116,-0.858699,0.08793475,-0.7645759,0.736632,0.5762695,-0.34320962,0.66178286,0.6390661,0.47265568,1.0980997,-0.43672493,-1.4914575,-1.218395,2.4743285,1.4760203,-0.9779851,1.160834,-0.4971132,-1.5387352,-1.1905514,2.4177442,1.4167448,-1.0231774,-1.3701717,1.3255532,1.0338699,-0.642915,0.95917565,0.46356383,0.21365848,1.738903,-0.3632126,1.5861343,-3.059926,-0.06576194,0.687023,0.23124695,-0.33457184,0.99013424,0.725362,-0.11445418,0.06907526,0.67526203,-0.05535966,0.76118344,0.27369153,1.0,0.0,0.0,0.0,0.0,0.0,0.0,-2.3889031,-0.03678742,-1.0361342,0.82440376,-0.77266693,-0.44984818,1.9680381,-0.17533302,0.15470386,2.5183172
2.762458,25.042313,8.298269,16.114403,0.7429507,-0.72711444,0.010678269,-0.76253414,0.7337008,0.57267743,-0.29496992,0.65677255,0.64327514,0.49594656,1.0845805,-0.42374313,-1.4814674,-1.2200484,2.4834213,1.4810723,-0.97358274,1.1471792,-0.48392007,-1.5284393,-1.1966187,2.4272962,1.4213797,-1.0208619,-1.3642282,1.317685,1.0279167,-0.59524316,0.954583,0.46398517,0.23737264,1.7083244,-0.3638687,1.592263,-3.056867,-0.065696195,0.58815014,0.23070526,-0.327034,0.99285877,0.72344553,-0.1179552,0.070561685,0.6765605,-0.04560821,0.7523266,0.2651426,1.0,0.0,0.0,0.0,0.0,0.0,0.0,-2.3583245,-0.036131293,-1.042263,0.4854679,-0.6499052,-0.64332485,4.616487,-0.21159649,0.14327765,2.3426235
1.6357808,22.797806,7.312096,16.7276,0.83975905,-0.74935293,-0.029248275,-0.7604903,0.72815126,0.55767214,-0.27925912,0.6555016,0.6430229,0.5059488,1.0711303,-0.41110495,-1.4726721,-1.2245446,2.4928463,1.485682,-0.970267,1.1335684,-0.470808,-1.5182636,-1.2021881,2.4368062,1.4260184,-1.0183308,-1.3604226,1.309469,1.0139526,-0.5446304,0.950593,0.46422476,0.2584161,1.6777763,-0.36452484,1.5974036,-3.0538106,-0.06563051,0.48937613,0.23024368,-0.3195877,0.99549794,0.7215385,-0.12143948,0.072075434,0.6778197,-0.038056027,0.7398271,0.25675732,1.0,0.0,0.0,0.0,0.0,0.0,0.0,-2.3277764,-0.035475165,-1.0474036,0.25718212,-0.6870508,-1.4278412,4.9037933,-0.15791655,0.11481643,2.0773144
1.818527,21.480494,6.5299006,15.361043,0.7432323,-0.8632041,-0.02330419,-0.7672195,0.7259794,0.54890066,-0.29162556,0.65405166,0.6468745,0.49968973,1.0568465,-0.39821005,-1.4633735,-1.2313507,2.5022113,1.4907058,-0.96836185,1.1199461,-0.45776746,-1.5082538,-1.2074162,2.446278,1.4306608,-1.0156186,-1.3632396,1.3026681,0.99667686,-0.51599073,0.94694006,0.4647808,0.2754898,1.6472588,-0.36518097,1.6015573,-3.0507574,-0.06556489,0.39070094,0.22990036,-0.312294,0.9980045,0.71965754,-0.12484066,0.07364805,0.67903143,-0.025724325,0.7261688,0.24203353,1.0,0.0,0.0,0.0,0.0,0.0,0.0,-2.2972589,-0.034819037,-1.0515573,-0.40655136,-0.5545616,-1.7289996,2.7174354,-0.15023947,0.14492273,1.6849041
2.1552286,19.169895,5.4717207,13.814818,0.69351745,-1.0053039,0.0046573468,-0.7620811,0.71429276,0.5355939,-0.29488587,0.6508514,0.64537257,0.5160008,1.043738,-0.38633817,-1.4546944,-1.2369047,2.5113633,1.4951981,-0.96401846,1.1063086,-0.44482896,-1.4984462,-1.2125031,2.4557118,1.435309,-1.0127461,-1.3640835,1.2913146,0.97529066,-0.5067251,0.9429037,0.46517944,0.29116932,1.6167717,-0.3658371,1.6047249,-3.0477073,-0.06549934,0.29212436,0.22970963,-0.30516052,1.000312,0.7177927,-0.12807249,0.075296246,0.6802216,-0.008391665,0.7090287,0.2205071,1.0,0.0,0.0,0.0,0.0,0.0,0.0,-2.2667718,-0.03416291,-1.0547249,-0.1796484,-1.0182619,-2.1401882,0.7888198,-0.21674633,0.13349652,1.5446305
3.1911044,18.899233,5.20426,12.045478,0.55062175,-1.1419157,0.038464956,-0.7613431,0.7130307,0.5231301,-0.31135556,0.65174943,0.6384975,0.51389664,1.0301743,-0.3735259,-1.4461333,-1.2436386,2.520887,1.4991589,-0.9613564,1.092671,-0.43199107,-1.4888694,-1.2176644,2.465115,1.4399573,-1.0097363,-1.3638027,1.2816128,0.95195395,-0.51950765,0.9400413,0.46487328,0.30413535,1.5863152,-0.36649323,1.6069075,-3.04466,-0.06543385,0.19364636,0.22974014,-0.29817963,1.0023569,0.7159258,-0.13104486,0.07704654,0.68142587,0.015950523,0.6920382,0.19290611,1.0,0.0,0.0,0.0,0.0,0.0,0.0,-2.2363153,-0.03350678,-1.0569074,-0.041127205,-0.85930824,-2.332127,-1.3965249,-0.124931335,0.06600618,1.276964
3.2447822,17.268734,4.2757225,10.809451,0.50129783,-1.2624745,0.04361635,-0.7621382,0.70658034,0.5016306,-0.3305716,0.64944357,0.6444035,0.5091403,1.0164572,-0.36133304,-1.4387064,-1.2507216,2.5300593,1.5043976,-0.95882225,1.0790373,-0.41925427,-1.4795711,-1.2230793,2.4744878,1.4446055,-1.0066178,-1.3632586,1.2713882,0.9222775,-0.54914373,0.9370768,0.4650496,0.31438887,1.5558891,-0.36714935,1.608106,-3.0416162,-0.06536844,0.09526681,0.23006058,-0.2913971,1.004083,0.7140589,-0.1336782,0.07892404,0.6826573,0.04445145,0.67198014,0.15964918,1.0,0.0,0.0,0.0,0.0,0.0,0.0,-2.2058892,-0.032850653,-1.058106,0.0075101852,-0.9177208,-2.9640079,-3.0722976,-0.16005039,0.110548735,1.0071099
4.5193152,17.706999,4.562104,9.275543,0.35708728,-1.3511351,0.09948603,-0.75701463,0.70116967,0.49909928,-0.36519754,0.6456334,0.64316523,0.51951534,1.0033358,-0.3491373,-1.4296612,-1.2595991,2.539051,1.508922,-0.95466626,1.065436,-0.40661904,-1.4705226,-1.228933,2.4838262,1.4492537,-1.003402,-1.3591373,1.2612687,0.8989487,-0.5975875,0.93327683,0.46511722,0.32376888,1.5254936,-0.36780548,1.6083215,-3.0385752,-0.06530308,-0.0030143864,0.23070908,-0.28481293,1.0054414,0.712158,-0.13590728,0.08094496,0.68396485,0.07910707,0.6540526,0.121926874,1.0,0.0,0.0,0.0,0.0,0.0,0.0,-2.1754937,-0.032194525,-1.0583215,0.40233135,-0.9105444,-2.3440957,-4.9302697,-0.2604127,0.100034475,0.92179775
4.694973,16.436777,3.4993868,7.154029,0.22754636,-1.5193353,0.1091712,-0.76361686,0.6987763,0.47204682,-0.4257621,0.64164275,0.65102,0.50305355,0.98907435,-0.33674142,-1.4233179,-1.2715092,2.5479903,1.5143557,-0.9530966,1.0518461,-0.39406964,-1.4617603,-1.2354866,2.4931226,1.4539076,-1.0001175,-1.3589433,1.2531061,0.8685106,-0.6748055,0.9283483,0.46589622,0.33000088,1.4951286,-0.3684616,1.6075549,-3.0355372,-0.06523779,-0.101197325,0.23175812,-0.27840424,1.0063518,0.71022236,-0.13762325,0.083154194,0.6853681,0.12076502,0.6329515,0.07474498,1.0,0.0,0.0,0.0,0.0,0.0,0.0,-2.1451287,-0.031538397,-1.057555,0.042390823,-0.72329044,-3.0497313,-7.7879786,-0.41207075,0.16235113,0.6106198
4.545613,13.812488,2.6137705,6.29333,0.25896928,-1.5848807,0.14230917,-0.74987316,0.6766419,0.46472454,-0.4684418,0.6242317,0.651307,0.50489056,0.97685885,-0.32640547,-1.4152879,-1.2823308,2.5555458,1.5190383,-0.9496285,1.0383154,-0.3816795,-1.4532745,-1.2428967,2.5023198,1.4585692,-0.9967797,-1.3506377,1.2346342,0.84172046,-0.76324046,0.9172809,0.46663576,0.33497944,1.4647942,-0.36911774,1.6058073,-3.0325024,-0.06517257,-0.19928211,0.23323059,-0.27223969,1.0067573,0.708236,-0.13876002,0.08555096,0.68689775,0.16380358,0.60805583,0.02324829,1.0,0.0,0.0,0.0,0.0,0.0,0.0,-2.1147943,-0.03088227,-1.0558074,0.91867447,-1.7570734,-2.7368307,-8.899641,-1.0398984,0.14975071,0.4795611
4.336629,12.7663965,2.1730433,5.7783937,0.23167446,-1.620172,0.1498452,-0.74829024,0.6695848,0.4517059,-0.52358985,0.6064111,0.65198123,0.4999794,0.9634864,-0.31472102,-1.408104,-1.2952557,2.5629609,1.5237672,-0.94678175,1.0248762,-0.36948487,-1.4450424,-1.2512642,2.5113645,1.4632384,-0.9934027,-1.3414317,1.2147366,0.81659174,-0.86151874,0.9001485,0.46720248,0.33848274,1.4344902,-0.36977386,1.6030796,-3.0294704,-0.065107405,-0.2972688,0.23516083,-0.2663269,1.0066254,0.7061886,-0.13928057,0.08814076,0.68857074,0.2081377,0.5822789,-0.031213978,1.0,0.0,0.0,0.0,0.0,0.0,0.0,-2.0844903,-0.030226141,-1.0530796,1.0392904,-1.9014835,-2.5919318,-9.871901,-1.6576409,0.11446476,0.3319204
2.0020256,7.297383,-0.23310804,5.930005,0.41884023,-1.6477386,0.11678584,-0.7466894,0.6400758,0.4272782,-0.58019495,0.56686544,0.65353245,0.5056285,0.9502073,-0.3054773,-1.4023145,-1.3092837,2.568051,1.5285916,-0.94283986,1.0115229,-0.35758588,-1.4371078,-1.260656,2.5201383,1.4679133,-0.98999333,-1.3329175,1.1818842,0.78559124,-0.9652871,0.8697681,0.46754494,0.34166023,1.4042168,-0.37043,1.5993726,-3.0264416,-0.06504232,-0.39515755,0.2374878,-0.26072693,1.005918,0.70411426,-0.1391441,0.0909329,0.6903573,0.24803983,0.5471366,-0.08966848,1.0,0.0,0.0,0.0,0.0,0.0,0.0,-2.0542169,-0.029570013,-1.0493727,1.0071993,-3.2054663,-3.207171,-10.429883,-3.0034184,0.06261468,0.28731227
0.41606796,2.9260318,-1.120126,7.377196,0.68540776,-1.5138651,0.13702549,-0.73281515,0.5968587,0.44269994,-0.6205971,0.53286004,0.644872,0.5087479,0.93824136,-0.29790002,-1.3928378,-1.3227158,2.5734243,1.5324005,-0.93911856,0.9982957,-0.34616658,-1.4293468,-1.2710243,2.5285382,1.4725825,-0.9865544,-1.3186244,1.1288517,0.77251387,-1.0609185,0.8302811,0.46673033,0.34450346,1.3739738,-0.37108612,1.5946876,-3.0234158,-0.06497729,-0.4929484,0.24016571,-0.25552368,1.00465,0.7019955,-0.1383828,0.09385232,0.6922746,0.2787823,0.50830084,-0.1448614,1.0,0.0,0.0,0.0,0.0,0.0,0.0,-2.023974,-0.028913885,-1.0446875,1.6155481,-5.2246094,-1.4738798,-9.62894,-3.892088,-0.073844194,0.24582148
-0.6862613,1.4193218,-1.0869212,9.326769,0.8691415,-1.3528228,0.12684473,-0.72859824,0.572211,0.44439465,-0.6560723,0.51115465,0.63611263,0.5098832,0.9254359,-0.28894547,-1.3849074,-1.3366315,2.5796537,1.5361937,-0.93556607,0.9852075,-0.33531567,-1.4216297,-1.2822472,2.5365338,1.4772345,-0.9830897,-1.305,1.070777,0.77088934,-1.1429937,0.7899437,0.4647391,0.34700823,1.3437614,-0.37174225,1.5890254,-3.020393,-0.06491232,-0.5906416,0.24308395,-0.25068665,1.0028757,0.6998198,-0.13706659,0.09682629,0.6943267,0.30134305,0.4703836,-0.19374909,1.0,0.0,0.0,0.0,0.0,0.0,0.0,-1.9937614,-0.028257757,-1.0390253,1.5180349,-5.7273626,-0.3298998,-8.285832,-3.9523005,-0.21572709,0.21403432
-2.44458,-1.770336,-1.8527696,11.578143,1.1292843,-1.1931689,0.09560126,-0.7142287,0.53086233,0.4369115,-0.6807951,0.47273117,0.6377743,0.5137111,0.9137846,-0.28222945,-1.3779385,-1.3503267,2.583807,1.5410119,-0.9317186,0.972289,-0.32511327,-1.4139183,-1.294151,2.5440907,1.4818674,-0.9796002,-1.2870139,1.0036352,0.7705557,-1.2065579,0.7449084,0.46279076,0.34943348,1.3135796,-0.37239075,1.5823869,-3.017373,-0.064847425,-0.6882371,0.24616241,-0.2462616,1.0006597,0.69759715,-0.13527974,0.099791706,0.69649065,0.31400162,0.43012738,-0.2361714,1.0,0.0,0.0,0.0,0.0,0.0,0.0,-1.9635795,-0.027609259,-1.0323868,1.9333124,-6.6355944,-0.21077394,-6.4567327,-4.4015408,-0.23370385,0.20287037
-3.6284828,-3.1591408,-2.0447743,13.618868,1.2951201,-1.0456536,0.058836725,-0.7070322,0.49763578,0.43445218,-0.7032391,0.44115183,0.63199425,0.51164806,0.9015858,-0.27534968,-1.370473,-1.3644749,2.5882058,1.5450668,-0.9284354,0.9595451,-0.31558892,-1.4062088,-1.3065716,2.55119,1.4864794,-0.97609067,-1.2698611,0.93561536,0.7704464,-1.254386,0.6986842,0.4603254,0.35131603,1.2834282,-0.37303162,1.5747732,-3.0143564,-0.06478259,-0.78573495,0.2493248,-0.24222565,0.9980667,0.69535065,-0.1331012,0.10270961,0.6987289,0.31916136,0.3904415,-0.27203432,1.0,0.0,0.0,0.0,0.0,0.0,0.0,-1.9334282,-0.02696839,-1.0247731,1.802659,-6.7240477,-0.16492605,-4.8977137,-4.5080185,-0.30496716,0.15212297
-7.4568315,-11.682449,-5.749717,15.107759,1.7657669,-1.0109878,-0.012343323,-0.684828,0.42653257,0.3989606,-0.72853786,0.39937663,0.6097268,0.5058036,0.89106226,-0.27293566,-1.3663127,-1.3794254,2.5911276,1.5474521,-0.9255103,0.9470348,-0.30690905,-1.3986671,-1.3194119,2.5577931,1.4910494,-0.97257066,-1.2443719,0.845662,0.747969,-1.2944409,0.64778626,0.45560485,0.35211053,1.2533073,-0.3736725,1.5661854,-3.0113425,-0.064717814,-0.8831354,0.25244522,-0.2387085,0.99511737,0.69314504,-0.13053678,0.105507895,0.7009837,0.31256688,0.33489707,-0.30727658,1.0,0.0,0.0,0.0,0.0,0.0,0.0,-1.9033073,-0.02632752,-1.0161853,2.675867,-8.93675,-2.4395347,-4.14536,-4.9999237,-0.5614221,0.02822876
-18.035566,-38.08524,-16.624678,17.900139,3.1257944,-0.92187506,-0.11524211,-0.63659465,0.24607672,0.3452513,-0.7427891,0.30261663,0.5871347,0.51697725,0.8833753,-0.2823014,-1.364142,-1.3936908,2.588055,1.5497628,-0.9208729,0.93496794,-0.2997994,-1.3916118,-1.3325878,2.5636907,1.4955546,-0.96903825,-1.1929908,0.6660919,0.6900875,-1.3259277,0.5704516,0.44832087,0.3532371,1.223217,-0.37431335,1.5566242,-3.0083318,-0.06465311,-0.9804384,0.25525284,-0.2361145,0.99179035,0.6910866,-0.12754866,0.10792716,0.70319444,0.27230668,0.23166357,-0.34526363,1.0,0.0,0.0,0.0,0.0,0.0,0.0,-1.873217,-0.025686651,-1.0066242,5.450058,-17.955006,-6.169498,-3.3503294,-7.698095,-0.8789897,0.010448694
-47.09688,-109.34158,-47.442028,23.854248,6.708785,-0.8501919,-0.44858745,-0.5108785,-0.18297385,0.1412549,-0.7380674,0.06054432,0.5556457,0.5243093,0.8838801,-0.3180968,-1.3774863,-1.4063946,2.569745,1.5511191,-0.9166073,0.92396635,-0.29628274,-1.386069,-1.3459507,2.5681806,1.4999567,-0.96549726,-1.0665079,0.24632551,0.5061119,-1.3406914,0.40836275,0.43641126,0.3536481,1.1931572,-0.37495422,1.5460906,-3.0053241,-0.06458847,-1.0776441,0.25701523,-0.23555756,0.98797536,0.6894942,-0.12399613,0.10932599,0.70517415,0.14573812,-0.0059348177,-0.3966947,1.0,0.0,0.0,0.0,0.0,0.0,0.0,-1.8431572,-0.025045782,-0.9960906,13.430667,-42.134724,-19.225025,-1.7696619,-16.353071,-1.5496016,-0.19370914
-61.2641,-146.98056,-65.24682,25.469427,8.016956,-1.0990651,-0.6767288,-0.21364525,-0.48248997,-0.2237831,-0.700239,-0.41596484,0.49859592,0.54287237,0.90260184,-0.34453174,-1.4084474,-1.4159746,2.5265841,1.5498164,-0.91121,0.915512,-0.29796073,-1.3839519,-1.3591858,2.5697637,1.504193,-0.9619429,-0.76891637,-0.3067115,0.110649236,-1.3179982,0.07407202,0.41739148,0.35502276,1.1631279,-0.3755951,1.5345857,-3.0023193,-0.0645239,-1.1747527,0.2573204,-0.23788452,0.98353034,0.6886577,-0.11981733,0.10963504,0.70666426,-0.00896056,-0.3107796,-0.46185467,1.0,0.0,0.0,0.0,0.0,0.0,0.0,-1.8131279,-0.024404913,-0.9845857,30.627464,-55.56577,-40.40857,2.182293,-33.70513,-2.4943054,-0.17738342
-40.900066,-119.156845,-49.10205,18.750862,6.2981324,-1.248923,-0.028412575,0.23033841,-0.6631195,-0.382409,-0.7038949,-0.5444633,0.5234665,0.52049696,0.9385459,-0.36427268,-1.4221928,-1.4295753,2.5153174,1.5565397,-0.9098932,0.911786,-0.30507037,-1.3860939,-1.3721482,2.5679212,1.508269,-0.95838284,-0.24094343,-0.8465161,-0.32240134,-1.2881039,-0.2705222,0.40253216,0.35592055,1.1331291,-0.37623596,1.5221105,-2.9993176,-0.06445939,-1.2717642,0.25650406,-0.24282074,0.9783977,0.68808186,-0.115124315,0.10887922,0.70812076,-0.10903627,-0.55178803,-0.5308011,1.0,0.0,0.0,0.0,0.0,0.0,0.0,-1.7831291,-0.023764044,-0.97211045,52.684307,-54.206467,-43.305607,3.19705,-34.565037,-2.0577848,-0.048178434
-13.27471,-64.35284,-22.431602,12.699233,3.338119,-1.2447618,0.47750866,0.48531595,-0.7301425,-0.47405583,-0.6784994,-0.6527758,0.60448045,0.448284,0.9603176,-0.37808463,-1.4334995,-1.4399981,2.5026436,1.568717,-0.91355443,0.91380113,-0.31652638,-1.3920372,-1.3847233,2.562924,1.5122839,-0.95486,0.34426254,-1.2458664,-0.68101513,-1.2466102,-0.57565117,0.39973152,0.35122156,1.1031609,-0.37687683,1.5086658,-2.996319,-0.06439494,-1.3686787,0.25525665,-0.24931335,0.9726393,0.687122,-0.11018523,0.107349195,0.71006954,-0.1312417,-0.6802799,-0.59224623,1.0,0.0,0.0,0.0,0.0,0.0,0.0,-1.7531608,-0.023123175,-0.9586658,57.113148,-40.10968,-34.67977,4.3774366,-30.475117,-0.6900132,-0.42937398
0.59425616,-24.985031,-7.6854706,8.47107,1.4675738,-1.4311508,0.45198482,0.54204386,-0.7719845,-0.6027709,-0.69730264,-0.6544395,0.6270437,0.35598177,0.96800554,-0.39372483,-1.4523143,-1.4544536,2.49748,1.5749882,-0.9192618,0.92068094,-0.3307452,-1.4010398,-1.3970467,2.555592,1.5163065,-0.9514506,0.79708105,-1.481011,-0.9686521,-1.2272333,-0.7857768,0.4020913,0.33778858,1.0732231,-0.3775177,1.4942529,-2.9933233,-0.064330555,-1.4654963,0.25413895,-0.25663757,0.9662774,0.68565315,-0.10502955,0.10545597,0.71255,-0.104473,-0.746839,-0.65451103,1.0,0.0,0.0,0.0,0.0,0.0,0.0,-1.7232231,-0.022482306,-0.9442529,43.642662,-23.665857,-27.346516,2.084303,-20.996975,-0.10803342,-1.2404263
8.464325,5.5456104,4.183793,9.392506,0.33475763,-1.2087675,0.28714252,0.55979013,-0.79113936,-0.6256673,-0.67389214,-0.63232005,0.6421195,0.21745178,0.97665995,-0.40985912,-1.4636066,-1.4644359,2.49236,1.5805185,-0.9297054,0.9306955,-0.3462629,-1.4120548,-1.4091736,2.546883,1.5203787,-0.94827676,1.0662332,-1.5757289,-1.143006,-1.2076217,-0.8994199,0.40812212,0.31084093,1.0433159,-0.37815857,1.4788725,-2.9903305,-0.06426624,-1.5622171,0.2533989,-0.26425934,0.95943,0.68380976,-0.099712275,0.10350139,0.7153664,-0.059692893,-0.76149046,-0.70067704,1.0,0.0,0.0,0.0,0.0,0.0,0.0,-1.6933159,-0.021841437,-0.9288725,25.896585,-9.596682,-16.563774,2.0236254,-11.417377,0.3896594,-2.6048243
12.535223,24.589172,11.303337,9.4117565,-0.3378517,-1.0678174,0.16697277,0.6000884,-0.79928255,-0.6567541,-0.69311,-0.6081521,0.6287752,0.10367307,0.9907043,-0.42619115,-1.4777302,-1.4784846,2.486068,1.5832562,-0.9379094,0.9423465,-0.36203858,-1.4241855,-1.4212624,2.5375981,1.5245043,-0.94544816,1.1968851,-1.5784903,-1.2357479,-1.2093697,-0.93852514,0.41349506,0.27376604,1.0134315,-0.37879944,1.4625256,-2.987341,-0.06420199,-1.6588413,0.25315094,-0.27176666,0.95219296,0.6817386,-0.0942308,0.10165865,0.7183443,-0.0067811897,-0.7451243,-0.7386494,1.0,0.0,0.0,0.0,0.0,0.0,0.0,-1.6634315,-0.021200567,-0.9125256,12.705541,-0.36668777,-9.006548,-0.16577244,-4.0132046,0.40207505,-3.647697
13.346986,32.633232,14.909064,10.336884,-0.44742668,-0.82934874,0.12610807,0.6267983,-0.81362766,-0.6540781,-0.71074235,-0.55945104,0.62248844,0.027243676,1.0050263,-0.44340134,-1.4895933,-1.4923366,2.481653,1.5867531,-0.9427238,0.95462793,-0.37756726,-1.4367244,-1.4335037,2.5283551,1.5286757,-0.9430239,1.2388175,-1.5445722,-1.2602822,-1.2290875,-0.91990215,0.41799814,0.23220782,0.9835777,-0.3794403,1.4452131,-2.9843543,-0.064137794,-1.7553687,0.253376,-0.27902222,0.94463676,0.6795089,-0.0885664,0.099908955,0.7214165,0.040611606,-0.7144153,-0.7689701,1.0,0.0,0.0,0.0,0.0,0.0,0.0,-1.6335777,-0.020559698,-0.89521307,4.264164,3.3195019,-2.5753498,-1.9701242,1.728332,0.36007166,-4.1074486
14.569248,36.8209,17.864279,11.426502,-0.4013735,-0.6105692,0.18199788,0.67528504,-0.8162251,-0.6450375,-0.7121356,-0.4979436,0.61677754,0.0036839906,1.0221565,-0.45918977,-1.5012282,-1.5047174,2.4785607,1.5903535,-0.9426555,0.9671325,-0.39270112,-1.4491794,-1.4459606,2.5196042,1.5328833,-0.94099545,1.2550052,-1.5031568,-1.2412229,-1.2510779,-0.860596,0.42151427,0.19328848,0.9537544,-0.38008118,1.4269361,-2.9813704,-0.064073674,-1.8517997,0.2540512,-0.28590393,0.9368432,0.6770794,-0.08274809,0.09810626,0.72463185,0.08236589,-0.67472416,-0.79028744,1.0,0.0,0.0,0.0,0.0,0.0,0.0,-1.6037544,-0.01991883,-0.87693614,1.8125534,4.0785313,1.6730547,-2.2042036,5.7920456,0.29415488,-3.8255692
13.0606,36.413765,18.163614,13.2308445,-0.19418365,-0.40724713,0.1889253,0.6735273,-0.80690104,-0.6342867,-0.7121619,-0.46512514,0.6100709,0.07309344,1.0344852,-0.47339123,-1.512608,-1.5171769,2.4730916,1.5938904,-0.93368614,0.97962946,-0.4074416,-1.4612873,-1.4585949,2.5115361,1.5371176,-0.9392617,1.2488422,-1.4645829,-1.201682,-1.2675365,-0.7894507,0.42395958,0.16691579,0.92396164,-0.38072205,1.4076955,-2.9783895,-0.064009614,-1.9481343,0.25505066,-0.2924118,0.92888784,0.67441934,-0.07682417,0.09615242,0.7280187,0.114264905,-0.6353609,-0.8044838,1.0,0.0,0.0,0.0,0.0,0.0,0.0,-1.5739616,-0.01927796,-0.8576955,-0.34143925,3.791976,3.6689997,-1.630497,6.9657207,0.21096468,-2.5740356
10.541698,33.20355,16.92076,14.670387,-0.005757153,-0.25056028,0.16915447,0.66721463,-0.80695796,-0.62050545,-0.71512514,-0.47933495,0.6213294,0.11266189,1.046351,-0.4881374,-1.5233378,-1.5301074,2.4636025,1.5992506,-0.9279955,0.9919767,-0.42190072,-1.4729583,-1.4713494,2.5040326,1.5413805,-0.9377215,1.231069,-1.4399285,-1.1564428,-1.2779785,-0.7378829,0.4270477,0.14990631,0.8941994,-0.38136292,1.3874924,-2.975412,-0.063945614,-2.0443723,0.25631332,-0.2985382,0.92080784,0.6715355,-0.07084467,0.09404782,0.7315573,0.13693155,-0.6002968,-0.81584924,1.0,0.0,0.0,0.0,0.0,0.0,0.0,-1.5441993,-0.01863709,-0.8374924,-1.488018,2.393508,4.241395,-0.99663734,4.9978614,0.27765632,-1.6486943
6.9717183,27.868166,13.79763,15.743351,0.28029573,-0.23231342,0.10431589,0.6667479,-0.8076082,-0.64174944,-0.7111448,-0.48700765,0.60985416,0.17725843,1.0586514,-0.5026615,-1.5371332,-1.5424638,2.4553318,1.602366,-0.91999567,1.0041455,-0.43622014,-1.4843643,-1.484142,2.4968762,1.5456625,-0.93627286,1.2129861,-1.4295871,-1.1361496,-1.279336,-0.70863897,0.42845285,0.14329277,0.8644676,-0.38200378,1.3663275,-2.9724371,-0.06388168,-2.1405141,0.25774765,-0.30441284,0.9125979,0.66848284,-0.064811066,0.09183525,0.7351846,0.15171762,-0.5781142,-0.82882094,1.0,0.0,0.0,0.0,0.0,0.0,0.0,-1.5144676,-0.017996222,-0.8163275,-1.5475273,0.9483814,1.795125,-0.04954338,2.7530432,0.09328127,-0.6257981
5.2770615,24.952084,11.955426,15.493171,0.3369813,-0.25753197,0.08442286,0.66402066,-0.8081203,-0.64623433,-0.72116655,-0.5083131,0.6103078,0.2173715,1.0705476,-0.51703215,-1.5489877,-1.5562586,2.446045,1.6066933,-0.9145357,1.016158,-0.45051286,-1.4957016,-1.4969612,2.4898343,1.549954,-0.93484044,1.1981156,-1.4294603,-1.1336544,-1.2825027,-0.7037564,0.42924863,0.14329818,0.8347664,-0.38264465,1.344202,-2.9694653,-0.063817814,-2.2365599,0.2593155,-0.31012726,0.9042208,0.66529745,-0.05869281,0.089585274,0.73885643,0.16478376,-0.5622795,-0.8466285,1.0,0.0,0.0,0.0,0.0,0.0,0.0,-1.4847664,-0.017355353,-0.794202,-1.2588263,-0.077843666,0.04477501,-0.20573139,0.31450987,0.006890297,0.027278066
4.566071,24.554472,11.7713175,16.078781,0.34245622,-0.18835971,0.059505496,0.65801495,-0.8072402,-0.63932973,-0.7093524,-0.5295576,0.6220658,0.20660408,1.0819595,-0.5312369,-1.5596346,-1.5678965,2.4368784,1.6121607,-0.91418004,1.0280408,-0.46483704,-1.5070503,-1.5097462,2.4827008,1.5542608,-0.93340707,1.185532,-1.4337115,-1.1358687,-1.2768639,-0.7171566,0.43096396,0.14342327,0.8050957,-0.38328552,1.3211167,-2.9664962,-0.06375401,-2.3325095,0.2610054,-0.31568146,0.89567477,0.6619992,-0.052517407,0.08736637,0.74254024,0.17564385,-0.54671055,-0.8629719,1.0,0.0,0.0,0.0,0.0,0.0,0.0,-1.4550956,-0.016714483,-0.7711167,-1.0506153,-0.5194187,-0.4007578,0.6833792,-1.519978,0.09970069,0.032034516
4.3514566,24.41601,11.332887,14.973361,0.26536685,-0.22585775,0.06785704,0.645938,-0.8078087,-0.64608306,-0.7308611,-0.54195046,0.6105813,0.22648889,1.0926346,-0.54561794,-1.5716586,-1.5828323,2.428506,1.615319,-0.9107582,1.0397805,-0.4792132,-1.5184715,-1.5225693,2.4753728,1.5585734,-0.9319556,1.1708715,-1.4392209,-1.1448196,-1.2836039,-0.7386879,0.43116677,0.14574024,0.7754555,-0.3839264,1.2970726,-2.9635305,-0.06369026,-2.4283633,0.26281738,-0.32107544,0.8869223,0.6585905,-0.046245176,0.08523117,0.7462275,0.18816587,-0.531841,-0.8848614,1.0,0.0,0.0,0.0,0.0,0.0,0.0,-1.4254555,-0.016073614,-0.74707264,-1.2584686,-0.64201355,-1.0857105,-0.5415678,-2.3302674,-0.07472634,0.24986863
2.233273,24.49503,11.064018,16.495726,0.36295938,-0.06007713,0.006753877,0.61073196,-0.803798,-0.64476794,-0.7115278,-0.5713603,0.63212115,0.2607923,1.1008537,-0.559593,-1.5829483,-1.5937221,2.4182367,1.6217855,-0.90587634,1.0512456,-0.49361798,-1.5299747,-1.5353771,2.4677587,1.562903,-0.9304564,1.1391588,-1.4411732,-1.1526814,-1.2793386,-0.7696406,0.43348894,0.15128057,0.7458458,-0.38456726,1.2720708,-2.9605677,-0.06362659,-2.5241213,0.26470566,-0.32633972,0.8779838,0.6551147,-0.03990946,0.083229676,0.7498698,0.19331491,-0.51781267,-0.90218276,1.0,0.0,0.0,0.0,0.0,0.0,0.0,-1.3958458,-0.015432745,-0.72207075,-2.9226065,-0.2913475,-0.99020004,0.5712271,-3.294742,0.15474558,0.5540222
0.5116768,24.100319,10.507423,17.34023,0.49674922,0.030893318,-0.04154309,0.5895397,-0.8050789,-0.65664,-0.70402145,-0.58084416,0.63866717,0.26679072,1.1101996,-0.5741259,-1.5956388,-1.6057793,2.4096742,1.6267698,-0.9037773,1.062333,-0.50803465,-1.5415924,-1.5480953,2.459847,1.5672613,-0.92889905,1.0993341,-1.4421556,-1.1653869,-1.268929,-0.79904455,0.43646085,0.15709604,0.716259,-0.38520813,1.246112,-2.9576077,-0.063562974,-2.6197834,0.26659012,-0.3314972,0.86888534,0.6516284,-0.033538826,0.081368916,0.75341535,0.19307227,-0.5074722,-0.91766286,1.0,0.0,0.0,0.0,0.0,0.0,0.0,-1.366259,-0.014791876,-0.696112,-3.7213326,-0.1991272,-1.4708757,1.1974096,-3.1510472,0.22704005,0.57486594
0.1978879,25.034336,10.859903,17.218641,0.48888075,0.08783996,-0.041154332,0.56804067,-0.80359006,-0.6589441,-0.7077141,-0.59421885,0.64159626,0.27814785,1.119137,-0.5883936,-1.6074867,-1.6188668,2.4004252,1.631421,-0.90108424,1.0729932,-0.5224466,-1.5533264,-1.5607315,2.4516644,1.5716501,-0.92728066,1.0557252,-1.4411942,-1.1766953,-1.2613198,-0.8258256,0.43948126,0.16338897,0.6867027,-0.385849,1.2191974,-2.9546506,-0.06349942,-2.71535,0.2684784,-0.33654785,0.8596317,0.6481455,-0.027131425,0.079640865,0.75685436,0.19137348,-0.49644837,-0.9330132,1.0,0.0,0.0,0.0,0.0,0.0,0.0,-1.3367027,-0.014151007,-0.6691974,-4.095936,-0.0034332275,-1.3348341,0.921607,-2.8933883,0.23129582,0.6232828
-4.820115,21.985424,8.087252,17.766115,0.8104795,0.20230687,-0.14125933,0.48695546,-0.8030642,-0.6728345,-0.7247877,-0.58666676,0.6358558,0.2952457,1.1216887,-0.602753,-1.6206098,-1.6332103,2.3929977,1.6352358,-0.8977561,1.08294,-0.5368442,-1.565211,-1.5733944,2.443295,1.5760618,-0.92559266,0.97548616,-1.4395807,-1.1932558,-1.2671107,-0.8415404,0.44147837,0.17042921,0.657177,-0.38648987,1.1913278,-2.9516964,-0.063435934,-2.8108208,0.27025223,-0.34157562,0.85018694,0.64476,-0.020613808,0.078019835,0.76011336,0.17779765,-0.49656934,-0.95311826,1.0,0.0,0.0,0.0,0.0,0.0,0.0,-1.307177,-0.013510138,-0.6413278,-7.6761007,0.052666664,-1.9179583,-0.3775835,-1.8159986,0.12391806,0.68297386
-13.03121,19.024452,5.154647,20.72771,1.2906878,0.5594022,-0.32236576,0.36027813,-0.7942026,-0.6646874,-0.7200348,-0.598626,0.6439841,0.31198552,1.1189678,-0.61626446,-1.6316798,-1.6453979,2.3834324,1.6404603,-0.8943941,1.0916089,-0.55118555,-1.5771949,-1.5861107,2.4347844,1.5804964,-0.9238303,0.8323904,-1.4327627,-1.2014347,-1.2723347,-0.8549691,0.44412932,0.17795989,0.62768173,-0.38713074,1.1625042,-2.9487455,-0.063372515,-2.9061964,0.27172852,-0.34668732,0.8405667,0.64166206,-0.013972579,0.07649745,0.7630352,0.14166868,-0.5083894,-0.9698225,1.0,0.0,0.0,0.0,0.0,0.0,0.0,-1.2776817,-0.012869269,-0.6125042,-13.825679,0.5565405,-1.158452,-0.2742052,-1.6393542,0.21557212,0.6975144
-32.727406,7.0787435,-4.8438177,25.889835,2.5191689,1.1116967,-0.75037634,0.10556069,-0.796487,-0.6814402,-0.7452453,-0.59959,0.6307605,0.28869697,1.102165,-0.6308342,-1.6453389,-1.6606352,2.3748255,1.6435724,-0.8949606,1.0978535,-0.56547636,-1.5893104,-1.5989834,2.4261746,1.5849463,-0.9220202,0.5578811,-1.4283948,-1.2165412,-1.2909752,-0.8647553,0.4451342,0.1815763,0.598217,-0.38776398,1.1327276,-2.9457974,-0.063309155,-3.0014765,0.27249146,-0.35220337,0.83073455,0.63928926,-0.0071129785,0.07505115,0.765262,0.057645112,-0.5583669,-0.9921765,1.0,0.0,0.0,0.0,0.0,0.0,0.0,-1.248217,-0.012236029,-0.5827276,-26.685738,0.2597332,-2.024889,-1.4753103,-1.396513,0.049978495,0.2409488
-59.72231,-7.4948416,-17.344309,33.70804,4.1607733,1.9758775,-1.3120008,-0.25358355,-0.7959889,-0.6832301,-0.7646066,-0.60758,0.61678874,0.27823827,1.0724952,-0.64507526,-1.6576334,-1.6754441,2.3654165,1.6466252,-0.8941964,1.100026,-0.57974046,-1.6015708,-1.6121079,2.417458,1.5893923,-0.92019296,0.10751047,-1.4266564,-1.2316482,-1.3176885,-0.8756909,0.44393092,0.18244217,0.5687828,-0.3883896,1.1019989,-2.9428523,-0.063245855,-3.0966613,0.27192307,-0.35858917,0.8206577,0.63827044,6.760865e-05,0.07365447,0.76628053,-0.09391373,-0.65558475,-1.017195,1.0,0.0,0.0,0.0,0.0,0.0,0.0,-1.2187828,-0.011610419,-0.5519989,-43.884964,-0.09973049,-2.2611618,-2.0666122,-1.7029881,-0.22129416,-0.11039078
-61.681465,-5.3994975,-16.390232,33.257362,4.2284985,2.1853645,-1.2513685,-0.39434218,-0.7906231,-0.6759911,-0.7897865,-0.56557304,0.5646819,0.36229834,1.0605918,-0.65880275,-1.6691699,-1.6910865,2.3609006,1.6458604,-0.8839631,1.0976723,-0.59397787,-1.6139152,-1.6255738,2.4087796,1.5937773,-0.91829515,-0.34575203,-1.4238279,-1.237904,-1.3538892,-0.8676428,0.43611583,0.19168362,0.5393791,-0.3890152,1.070319,-2.93991,-0.06318262,-3.191751,0.26976776,-0.3659134,0.8103291,0.63872397,0.007635106,0.07219403,0.76600343,-0.25425497,-0.7492947,-1.0421317,1.0,0.0,0.0,0.0,0.0,0.0,0.0,-1.1893791,-0.010984808,-0.52031904,-44.15194,-0.039219856,-1.4054298,-2.9376745,0.1343131,-1.0033488,0.7732153
-51.297,4.2319536,-8.568855,29.866365,3.5187187,2.1756666,-0.9262576,-0.49530336,-0.7932519,-0.64887923,-0.7973111,-0.5449266,0.5468403,0.42957926,1.048142,-0.67330307,-1.6788031,-1.7053049,2.354287,1.6484613,-0.87533724,1.0913724,-0.60820574,-1.6261508,-1.6393715,2.400269,1.5980707,-0.91625047,-0.7214387,-1.4235216,-1.2210915,-1.3863902,-0.84785855,0.42608985,0.20843406,0.51000214,-0.3896408,1.0376891,-2.9369705,-0.063119456,-3.2867455,0.26618576,-0.3739395,0.79980385,0.6403439,0.015523249,0.07053466,0.7646853,-0.39596823,-0.8131407,-1.0598217,1.0,0.0,0.0,0.0,0.0,0.0,0.0,-1.1600021,-0.010359198,-0.48768908,-36.580444,-0.28500557,1.0051489,-2.6085615,1.3558626,-1.2747824,1.6093075
-40.025146,13.256555,-1.7466626,26.193262,2.707903,2.0132241,-0.66726315,-0.598535,-0.7874737,-0.6690331,-0.79522383,-0.5694404,0.5696359,0.459368,1.0315188,-0.6869531,-1.6930542,-1.7188939,2.343325,1.6550343,-0.87031364,1.0820073,-0.6224088,-1.6382835,-1.6534001,2.3918767,1.6022879,-0.9140208,-1.0054278,-1.4202219,-1.2124839,-1.4063792,-0.83811975,0.41920567,0.22780974,0.48065186,-0.39026642,1.0041099,-2.934034,-0.06305635,-3.3816452,0.26136398,-0.38241577,0.78912795,0.64279467,0.023630222,0.068653874,0.7625898,-0.5127345,-0.8494795,-1.073633,1.0,0.0,0.0,0.0,0.0,0.0,0.0,-1.1306518,-0.0097335875,-0.45410985,-27.63126,0.046610832,0.32930374,-1.4315605,0.4343152,-0.9615481,1.9226342
-28.94956,20.294308,3.800088,22.377594,2.0302057,1.739738,-0.45897806,-0.669417,-0.78773254,-0.6935379,-0.7940695,-0.5539151,0.5613161,0.40822086,1.0150656,-0.70118207,-1.7076373,-1.732807,2.3364851,1.6584195,-0.8731987,1.0704964,-0.6365804,-1.6504657,-1.6675392,2.3835988,1.6064402,-0.91164804,-1.197764,-1.4169527,-1.2215079,-1.4149244,-0.8258817,0.41300854,0.24051842,0.4513321,-0.39089203,0.9695823,-2.9311008,-0.0629933,-3.47645,0.25559616,-0.39112854,0.77831554,0.6458067,0.031900503,0.066526584,0.7599278,-0.6033253,-0.865519,-1.0869181,1.0,0.0,0.0,0.0,0.0,0.0,0.0,-1.1013321,-0.009107977,-0.4195823,-18.68317,0.09047985,-1.2855291,-0.37641525,0.78336,-0.8703053,1.2972355
-20.783548,24.086502,7.040458,19.484097,1.6787393,1.452798,-0.32741806,-0.71987814,-0.79672265,-0.7260592,-0.7899364,-0.5058823,0.52666545,0.32929265,0.99850863,-0.7162527,-1.7230717,-1.7465329,2.3330107,1.6591067,-0.8787188,1.0576218,-0.6507663,-1.6629112,-1.681688,2.375565,1.6105124,-0.90922475,-1.3159983,-1.4197754,-1.2533103,-1.4134314,-0.7969176,0.40453655,0.24316917,0.42204285,-0.39151764,0.93409944,-2.9281704,-0.06293032,-3.5722253,0.24908066,-0.39993286,0.7673462,0.6492035,0.04034553,0.064058244,0.7568379,-0.6741049,-0.8730025,-1.1031189,1.0,0.0,0.0,0.0,0.0,0.0,0.0,-1.0720428,-0.008482367,-0.38409942,-11.4372015,-0.47893524,-3.448534,0.56517124,2.5389671,-1.0864377,0.3276646
-13.585523,28.11912,10.859034,17.166206,1.3736403,1.3161082,-0.20972128,-0.7554094,-0.80397075,-0.7229854,-0.7848968,-0.4320128,0.49522293,0.20814349,0.9820809,-0.7311634,-1.7352097,-1.7601776,2.3323638,1.6600347,-0.8884104,1.0439557,-0.6650209,-1.6756446,-1.6957737,2.3680234,1.6144854,-0.9068787,-1.3825985,-1.4278575,-1.280583,-1.405636,-0.7407918,0.3942106,0.23209968,0.39278412,-0.39214325,0.89765954,-2.925243,-0.06286741,-3.667905,0.24195862,-0.40872192,0.756231,0.65284926,0.048950244,0.061094835,0.75343156,-0.72963864,-0.87009376,-1.1169282,1.0,0.0,0.0,0.0,0.0,0.0,0.0,-1.0427841,-0.007856756,-0.34765953,-6.3999653,-0.9675503,-2.9085636,1.1234283,5.338371,-1.2342811,-1.009199
-8.790896,32.035667,13.879499,15.85462,1.1609321,1.2668482,-0.22381973,-0.7808525,-0.8006495,-0.7309952,-0.7751281,-0.35472557,0.486575,-0.10904377,0.96587044,-0.74508584,-1.7487441,-1.7732866,2.3325508,1.6631429,-0.9177831,1.0298585,-0.67933553,-1.6886165,-1.7097355,2.3612256,1.6183592,-0.90488553,-1.4181703,-1.4331045,-1.3029977,-1.3920082,-0.6599172,0.38450158,0.18882126,0.3635559,-0.39276886,0.8602636,-2.9223182,-0.06280456,-3.763489,0.234375,-0.41745758,0.7450075,0.6567238,0.05766574,0.057518452,0.7497201,-0.7751278,-0.8592304,-1.1266965,1.0,0.0,0.0,0.0,0.0,0.0,0.0,-1.0135559,-0.007231146,-0.31026357,-3.3772469,-0.6581545,-2.3575783,1.6459227,7.8826427,-1.1370122,-4.211503
-6.4704814,34.971504,16.03711,16.089937,1.162549,1.3240067,-0.2683324,-0.7977671,-0.7997568,-0.7362575,-0.74679524,-0.2501677,0.50021166,-0.33193892,0.95008177,-0.7593112,-1.7622423,-1.784415,2.3362088,1.6683804,-0.9380794,1.0155324,-0.69367975,-1.7017581,-1.7234474,2.3554502,1.6221567,-0.9034827,-1.437123,-1.4352541,-1.3180307,-1.3633106,-0.5504819,0.3778175,0.124500796,0.3343544,-0.39339447,0.8219125,-2.9193964,-0.062741764,-3.8589776,0.22634888,-0.42607117,0.7337441,0.660872,0.0664085,0.05321244,0.7456584,-0.8176522,-0.84600073,-1.128654,1.0,0.0,0.0,0.0,0.0,0.0,0.0,-0.9843544,-0.0066055357,-0.27191252,-1.7666101,-0.33488274,-1.5601873,3.1091928,10.793281,-0.80739856,-6.3026576
-4.6848927,36.786594,17.457684,15.93109,1.0179547,1.3529818,-0.26972952,-0.80215025,-0.80442727,-0.74266213,-0.7215138,-0.2162145,0.4988144,-0.43432403,0.93531734,-0.7741225,-1.7760243,-1.7955989,2.3338287,1.6720382,-0.9469151,1.0011052,-0.70805067,-1.7150142,-1.7367855,2.350716,1.625899,-0.9027636,-1.4440842,-1.4381036,-1.3283418,-1.3234278,-0.4478867,0.37266073,0.05483598,0.3051796,-0.39402008,0.7826072,-2.9164774,-0.06267903,-3.9543707,0.21792984,-0.43450165,0.7224932,0.66530275,0.0750874,0.048180502,0.74122375,-0.8557698,-0.8287366,-1.1264312,1.0,0.0,0.0,0.0,0.0,0.0,0.0,-0.9551796,-0.0059799254,-0.23260719,-0.6029606,-0.39334297,-1.049757,4.19991,10.15358,-0.62657,-6.846028
-3.3011513,38.507698,18.274813,14.597549,0.7457947,1.3292394,-0.24346046,-0.8086796,-0.79833704,-0.75468594,-0.71792334,-0.1852562,0.49064583,-0.48425806,0.92023724,-0.78788435,-1.7904828,-1.8085779,2.3321905,1.6749636,-0.9511894,0.98663795,-0.72241396,-1.7283866,-1.7497746,2.3468862,1.6295916,-0.9027169,-1.4472454,-1.4360362,-1.3401496,-1.2901925,-0.36142296,0.3678619,-0.011683158,0.2760353,-0.3946457,0.7423487,-2.9135613,-0.06261636,-4.049668,0.20917511,-0.4427185,0.7112508,0.6699769,0.08368479,0.042522434,0.7364236,-0.88795954,-0.80521655,-1.125998,0.0,1.0,0.0,0.0,0.0,0.0,0.0,-0.9260353,-0.005354315,-0.19234866,-0.23581982,0.10573864,-1.1914492,3.5203934,8.554917,-0.5795896,-6.5483904
-2.892318,38.519688,17.998398,13.079456,0.43753564,1.2880831,-0.21650949,-0.81343454,-0.80244297,-0.7721103,-0.7101808,-0.21566844,0.47980985,-0.5191568,0.9052945,-0.80265826,-1.8055977,-1.8207927,2.3253193,1.6775726,-0.9546326,0.9721399,-0.7367029,-1.7425072,-1.7627512,2.34213,1.6339973,-0.9027389,-1.4494939,-1.4171218,-1.524897,-1.3382863,-0.74795514,0.5328781,0.04920623,0.25356293,-0.39759064,0.71994126,-1.2672102,-0.6234882,1.2835988,0.20014572,-0.45049286,0.6997608,0.6746308,0.09202465,0.037100166,0.7314562,-0.9032959,-0.72760767,-1.1933258,0.0,1.0,0.0,0.0,0.0,0.0,0.0,-0.9035629,-0.0024093688,-0.16994125,-0.109767914,3.6382198,-35.09059,-11.921024,-81.90888,33.41481,18.321106
72.0781,176.0,110.0,88.84764,-6.4986434,8.188612,-0.34550157,-0.7107538,0.39301664,0.72529995,0.763749,-0.35951325,0.60844326,-0.40244293,0.9010645,-0.6974013,-1.6699772,-1.6863763,2.3061786,1.6948416,-0.9429832,0.9620374,-0.74751616,-1.7575347,-1.7664284,2.3267176,1.6467983,-0.90071243,-0.867219,-0.9693859,-1.4782594,-0.0442245,-1.7730913,1.5328267,0.24949718,0.24141312,-0.40396118,0.73489076,-1.2659434,-0.62286484,1.1830641,0.19169998,-0.4557953,0.69186413,0.67913485,0.092104726,0.03795155,0.72722226,-0.82987916,-0.45194274,-0.6518836,1.0,0.0,0.0,0.0,0.0,0.0,0.0,-0.8914131,0.0039611757,-0.18489075,57.33471,45.15115,6.3474894,127.91441,-101.77698,102.50502,19.150642
25.999544,150.82988,106.60742,91.71554,-0.46654153,6.8146048,-0.41154006,-0.78008705,-0.48135155,0.5615608,0.80110365,-0.6119906,0.53709334,-0.4008272,0.8840287,-0.7956513,-1.7013787,-1.686318,2.2655187,1.7005076,-0.9407951,0.9535087,-0.7557311,-1.7659328,-1.7597336,2.3080943,1.6621505,-0.8985066,-0.8483209,-0.77321064,-0.6241386,0.90558535,-1.8956637,1.5415361,0.21127322,0.22876358,-0.41018677,0.7459681,-1.2646778,-0.6222421,1.0826302,0.18343735,-0.4593506,0.6895934,0.68404794,0.08461052,0.041615903,0.7233171,-0.8263061,-0.3138001,-0.08860804,1.0,0.0,0.0,0.0,0.0,0.0,0.0,-0.87876356,0.010186762,-0.19596809,1.7912269,19.310225,86.295654,94.47806,-13.374376,2.5488138,-3.7225575
0.581434,121.3773,77.112724,72.77189,1.5797833,5.0208387,-0.69507205,-0.7655237,-0.30364066,0.2319524,0.7586739,-0.6487033,0.61091244,-0.30095512,0.8769563,-0.78609514,-1.7427375,-1.6838661,2.243224,1.7232418,-0.9286021,0.9441131,-0.76206446,-1.7671497,-1.7461513,2.2903636,1.6767284,-0.89681,-0.9683471,-0.5877559,0.045351956,1.5093508,-1.7366376,1.4329989,0.15697521,0.21612549,-0.41640472,0.7560418,-1.2634133,-0.62162,0.9822965,0.17486954,-0.46195984,0.6917418,0.6896218,0.07262307,0.046002153,0.7190489,-0.8690742,-0.23857917,0.31087124,1.0,0.0,0.0,0.0,0.0,0.0,0.0,-0.86612546,0.016404718,-0.20604181,-11.518633,18.222284,66.798874,60.473297,14.566016,-9.865427,-5.0767126
0.45370483,128.32507,69.52574,48.920006,0.04911767,3.6561198,-0.6030725,-0.76869303,0.07044526,0.31815422,0.7818151,-0.6656184,0.6121543,-0.23313089,0.86724377,-0.7550199,-1.7353343,-1.6679698,2.2238016,1.7379438,-0.9201231,0.9330848,-0.76547,-1.763026,-1.7291435,2.2748568,1.6899425,-0.895637,-1.146381,-0.25922194,0.5329024,1.7650021,-1.4926296,1.2868601,0.104327515,0.20350266,-0.42261505,0.765113,-1.2621502,-0.6209985,0.88206327,0.16610718,-0.46351624,0.6970357,0.69570696,0.05830841,0.050973434,0.7141384,-0.87935233,-0.12203138,0.59633505,1.0,0.0,0.0,0.0,0.0,0.0,0.0,-0.85350263,0.022615045,-0.21511298,-17.413664,32.550526,48.229164,25.708221,23.245335,-13.814998,-5.186036
-27.601229,47.23244,13.380223,25.805996,2.422905,1.1270161,-0.81070375,-0.7848535,-0.20311098,-0.014493341,0.764858,-0.66237736,0.6235783,-0.32103086,0.8545994,-0.78578115,-1.7644753,-1.6526577,2.208619,1.7523003,-0.92774004,0.92041713,-0.7673545,-1.7574623,-1.71147,2.2616656,1.7017642,-0.8950018,-1.3063395,-0.16492286,0.56296283,1.7684414,-1.2621573,1.1486834,0.05013783,0.19089127,-0.42882538,0.7731796,-1.2608883,-0.6203776,0.7815365,0.15685272,-0.46486664,0.7032031,0.70242,0.044114184,0.05580225,0.70819926,-0.9439055,-0.13410863,0.61829376,1.0,0.0,0.0,0.0,0.0,0.0,0.0,-0.84089124,0.028825372,-0.22317958,-15.822721,9.386367,2.6567578,0.43303967,22.905111,-13.415933,-5.3379545
-22.174961,32.5753,2.995741,12.444729,1.6056468,0.03007093,-0.56752825,-0.7831441,-0.086716846,0.041604925,0.7697152,-0.65469617,0.61381805,-0.26516894,0.8421027,-0.7760262,-1.7533017,-1.6344985,2.196196,1.763146,-0.92151874,0.9065774,-0.76851606,-1.7527282,-1.6946453,2.2503397,1.7123367,-0.8948168,-1.4099553,-0.09992443,0.4430075,1.6537989,-1.0891693,1.0277872,0.007776872,0.17829132,-0.43502045,0.7802417,-1.2596277,-0.61975735,0.68111026,0.14715576,-0.4664154,0.70897806,0.7096338,0.03131632,0.060325008,0.7012845,-0.98024005,-0.15211284,0.5594989,1.0,0.0,0.0,0.0,0.0,0.0,0.0,-0.8282913,0.03502044,-0.23024172,-10.375786,6.4992666,-12.160677,-11.497426,17.330742,-11.774611,-4.2756515
-19.450144,12.024876,-5.934541,6.8406706,1.6568336,-0.5347525,-0.3594072,-0.78606796,-0.16785444,0.03745142,0.77689683,-0.6457833,0.62401384,-0.28751567,0.8279706,-0.7853015,-1.748983,-1.6169556,2.1857615,1.7747381,-0.92356837,0.8921178,-0.76980543,-1.7495849,-1.679108,2.2402842,1.7218486,-0.8950152,-1.45805,-0.13849653,0.27124733,1.5201598,-0.9769902,0.92610925,-0.029116916,0.16570663,-0.44121552,0.78630036,-1.2583683,-0.6191377,0.5807844,0.13713455,-0.4683075,0.7138155,0.717155,0.020247437,0.06440861,0.6936356,-1.0118393,-0.19266611,0.4549937,1.0,0.0,0.0,0.0,0.0,0.0,0.0,-0.8157066,0.04121551,-0.23630035,-4.8269987,-3.8191452,-17.22278,-13.416243,11.298156,-9.987843,-3.7197046
-11.411356,15.587549,-0.68037325,6.938526,1.1511012,-0.49955922,-0.1723247,-0.78867584,-0.1529089,0.059471335,0.779879,-0.6342069,0.6236974,-0.29648882,0.8132502,-0.78509635,-1.7436378,-1.6011201,2.1768634,1.7842183,-0.9246641,0.8774732,-0.7716012,-1.7478359,-1.6646694,2.2309916,1.7304717,-0.8955416,-1.4666553,-0.19325307,0.14272504,1.4183631,-0.9134498,0.8416517,-0.060576856,0.15312958,-0.44740295,0.79135644,-1.2571101,-0.6185187,0.4805588,0.1269226,-0.4704895,0.7177378,0.7247997,0.01066568,0.068092376,0.68550354,-1.0271633,-0.21944083,0.36847708,1.0,0.0,0.0,0.0,0.0,0.0,0.0,-0.80312955,0.04740295,-0.24135643,-0.8686304,-5.459553,-12.85597,-10.20565,6.3335896,-8.295738,-3.1784356
-6.754525,17.617464,4.3660727,9.079093,1.0381408,-0.24156761,-0.038400248,-0.79165953,-0.21136662,0.09100504,0.77743393,-0.6235099,0.6260024,-0.33579692,0.79830724,-0.79273784,-1.7387353,-1.586926,2.1686406,1.793072,-0.9291213,0.86289245,-0.77418566,-1.746804,-1.6509212,2.2220957,1.7383624,-0.8963694,-1.4551352,-0.28025925,0.08990536,1.3604679,-0.88203216,0.7721035,-0.09029485,0.14056778,-0.45358276,0.79541105,-1.2558533,-0.6179003,0.38043344,0.116573334,-0.47286987,0.72097754,0.73241615,0.0020930872,0.07138085,0.6771018,-1.039133,-0.23574089,0.3066775,1.0,0.0,0.0,0.0,0.0,0.0,0.0,-0.79056776,0.053582758,-0.24541104,1.1730433,-8.702954,-5.254203,-5.7792425,3.040254,-6.8264127,-2.976194
-3.8168252,17.78405,7.2955785,10.876119,1.0419763,-0.070619285,0.051102538,-0.77272063,-0.2865344,0.09459195,0.77737,-0.6388432,0.6369337,-0.3362308,0.7856204,-0.8028391,-1.7373449,-1.5731843,2.1582115,1.8020558,-0.9299925,0.8485654,-0.77786016,-1.7459171,-1.6374611,2.2133067,1.74566,-0.89745945,-1.4250921,-0.3966105,0.088381454,1.3412952,-0.87852,0.71603554,-0.11518842,0.12802124,-0.45976257,0.79846513,-1.2545977,-0.6172825,0.28040817,0.10610962,-0.4753723,0.72371835,0.7399001,-0.005891618,0.07423668,0.6685821,-1.0510035,-0.24713978,0.26088876,1.0,0.0,0.0,0.0,0.0,0.0,0.0,-0.7780212,0.059762567,-0.24846512,3.046298,-11.646521,-0.09880811,-1.8764019,0.21094084,-5.4872155,-2.4670825
-1.8596137,24.40406,11.704369,12.93782,0.9056127,0.12256521,0.072374776,-0.76531297,-0.3051825,0.11032213,0.7811241,-0.64226836,0.63756895,-0.32408658,0.7720341,-0.8083784,-1.7348849,-1.5593487,2.1490798,1.8094169,-0.9298681,0.8345569,-0.7825799,-1.7447841,-1.6239933,2.2044566,1.7524768,-0.89875835,-1.3925996,-0.49721393,0.12182307,1.3487878,-0.88791615,0.67048025,-0.13463382,0.11548233,-0.46592712,0.8005197,-1.2533433,-0.61666536,0.18048294,0.09555054,-0.47790527,0.7261554,0.74720067,-0.0136010675,0.07674027,0.6600129,-1.0600662,-0.24691807,0.23560423,1.0,0.0,0.0,0.0,0.0,0.0,0.0,-0.7654823,0.06592712,-0.2505197,3.2967567,-10.092295,3.401798,0.805068,-1.1206388,-4.4183493,-1.9204706
-1.4261968,23.810032,11.275349,12.998033,0.91927737,0.074519336,0.0788753,-0.734987,-0.36945936,0.08839815,0.779631,-0.6586184,0.64573246,-0.29656175,0.76105815,-0.81952584,-1.7359443,-1.5460302,2.1385946,1.8170501,-0.9284145,0.8209489,-0.788321,-1.7433803,-1.6103805,2.1954386,1.7589046,-0.90020317,-1.3500403,-0.5998355,0.14670238,1.365563,-0.9067792,0.6340177,-0.14760232,0.10295868,-0.47209167,0.8015758,-1.2520902,-0.6160488,0.0806576,0.08490753,-0.48044586,0.7283291,0.754304,-0.021142252,0.07894444,0.65141857,-1.069185,-0.24843366,0.20872706,1.0,0.0,0.0,0.0,0.0,0.0,0.0,-0.75295866,0.07209167,-0.25157577,4.302621,-10.294258,2.5530725,1.7466784,-2.0593882,-3.5128593,-1.2668908
-1.9525545,25.850235,11.235651,13.178327,0.87951374,0.04001549,0.047189724,-0.7179598,-0.39830709,0.07383627,0.7824187,-0.66749555,0.64496166,-0.27404192,0.7491529,-0.8281517,-1.7359967,-1.5321387,2.128689,1.8234007,-0.92760736,0.80776244,-0.79494905,-1.741862,-1.5965885,2.1862185,1.7650176,-0.9017386,-1.3080322,-0.68396443,0.15379335,1.383921,-0.92738104,0.6042625,-0.1554673,0.09045029,-0.4782486,0.8016343,-1.2508384,-0.6154329,-0.019067941,0.074165344,-0.48299408,0.730234,0.7612327,-0.028510187,0.080928445,0.6427772,-1.077983,-0.24914,0.18166354,1.0,0.0,0.0,0.0,0.0,0.0,0.0,-0.74045026,0.07824859,-0.2516343,4.24304,-8.451533,0.76753795,1.9156218,-2.2216797,-2.837348,-0.7630259
-2.551392,27.315401,10.553851,12.467666,0.79024017,-0.0371691,0.02035508,-0.7000436,-0.4196293,0.047065295,0.7760557,-0.66924864,0.6395032,-0.2462747,0.7377581,-0.836912,-1.7371556,-1.5189829,2.1192937,1.8289679,-0.92636603,0.7949746,-0.80225134,-1.7404697,-1.582682,2.1768267,1.7708713,-0.90331787,-1.268967,-0.74571484,0.13456103,1.3932685,-0.9438081,0.5794552,-0.15864587,0.077949524,-0.4843979,0.8007048,-1.2495878,-0.6148176,-0.117570564,0.06335449,-0.48554993,0.7318406,0.7680194,-0.035624553,0.08278125,0.6340538,-1.0851446,-0.24951611,0.15071034,1.0,0.0,0.0,0.0,0.0,0.0,0.0,-0.7279495,0.08439788,-0.25070477,3.9366007,-6.218374,-1.8754125,1.0184288,-1.785779,-2.3386836,-0.30728877
-4.3990617,29.173187,10.63131,12.936916,0.8652265,0.0070167184,-0.024402153,-0.69689035,-0.44573045,0.04700071,0.77911645,-0.64866406,0.6273814,-0.2517185,0.7252856,-0.8468244,-1.7357696,-1.5047704,2.1119604,1.8336095,-0.92848974,0.7824815,-0.810061,-1.7393005,-1.5687126,2.167374,1.7764999,-0.9049229,-1.2425954,-0.7928163,0.1110861,1.3983768,-0.9462661,0.5578018,-0.16111904,0.06546402,-0.49054718,0.798791,-1.2483385,-0.6142029,-0.2159747,0.052440643,-0.48807526,0.7331531,0.77470887,-0.042447597,0.084528096,0.6252033,-1.0961506,-0.248547,0.121604756,1.0,0.0,0.0,0.0,0.0,0.0,0.0,-0.715464,0.090547174,-0.24879098,2.6762009,-4.7616363,-2.319099,0.6068468,-0.38106441,-2.0283103,-0.23846328
-6.6258926,27.769855,9.343123,12.763935,0.9951357,0.030024886,-0.050221294,-0.69278413,-0.48566347,0.033234794,0.77016765,-0.6311504,0.6196006,-0.25049672,0.7132031,-0.8586273,-1.735977,-1.4916959,2.1042588,1.83846,-0.9299726,0.7701667,-0.81835127,-1.7383983,-1.5547642,2.157986,1.7819339,-0.906547,-1.227509,-0.8412954,0.083271705,1.3940549,-0.9367831,0.5388442,-0.16276659,0.05298996,-0.4966812,0.79589385,-1.2470903,-0.6135888,-0.31428045,0.04137802,-0.49062347,0.7341426,0.78133756,-0.04894394,0.086114235,0.61619824,-1.1131063,-0.24926034,0.08809185,1.0,0.0,0.0,0.0,0.0,0.0,0.0,-0.70298994,0.09668121,-0.24589384,1.5577793,-4.9013734,-2.7670293,-0.31940937,0.8264065,-1.7755747,-0.14741719
-4.928111,30.147467,10.195243,12.277423,0.853518,-0.06255025,-0.030400136,-0.66244006,-0.50099415,0.0054410747,0.77331704,-0.6493258,0.6152585,-0.24601334,0.7039227,-0.8684507,-1.7378542,-1.4774325,2.0930533,1.8434597,-0.93114835,0.7580674,-0.827065,-1.7378452,-1.5408615,2.1486514,1.7871982,-0.9081816,-1.2039272,-0.8816563,0.046036396,1.3894804,-0.93293625,0.5226437,-0.16368741,0.040527344,-0.50281525,0.79200125,-1.2458435,-0.61297536,-0.41424543,0.030189514,-0.4931717,0.73479104,0.78790045,-0.055087503,0.08757174,0.60704976,-1.1242727,-0.24837404,0.05367104,1.0,0.0,0.0,0.0,0.0,0.0,0.0,-0.6905273,0.10281524,-0.24200124,2.3917437,-4.0953755,-3.6950417,-0.34656525,0.2559662,-1.497066,-0.08370876
-3.996832,29.619017,9.719794,11.60639,0.82880217,-0.15605408,-0.0151398275,-0.6393428,-0.5296553,-0.026654791,0.7740112,-0.64022756,0.617553,-0.21626467,0.69413316,-0.8800305,-1.7405107,-1.4634603,2.0846286,1.8489535,-0.9298081,0.74626476,-0.83619165,-1.737746,-1.5269932,2.1393702,1.7923213,-0.90980095,-1.1722618,-0.9231101,-0.0017786081,1.3861153,-0.9271881,0.5092542,-0.1613487,0.028079987,-0.50894165,0.78710973,-1.2445979,-0.6123625,-0.51411045,0.01889038,-0.49571228,0.73506886,0.7943885,-0.060853794,0.08890695,0.5977785,-1.133649,-0.24995397,0.0156678,1.0,0.0,0.0,0.0,0.0,0.0,0.0,-0.67807996,0.108941644,-0.23710972,3.189063,-4.2049885,-4.7395725,-0.22161007,0.45427084,-1.2313962,0.24356246
-3.5012965,26.16375,7.0182157,10.247925,0.8240044,-0.37725568,-0.026386375,-0.60605264,-0.55860585,-0.10726559,0.7683069,-0.63336104,0.6067039,-0.20307912,0.68565947,-0.89205223,-1.7484726,-1.4501624,2.076034,1.8529917,-0.93010885,0.7348779,-0.84575605,-1.7384098,-1.5131744,2.130154,1.7973205,-0.91138595,-1.1275096,-0.96776134,-0.087673366,1.3808982,-0.91980934,0.49689767,-0.15752916,0.015640259,-0.5150604,0.7812203,-1.2433536,-0.61175025,-0.6138756,0.007511139,-0.49835205,0.7348712,0.8008193,-0.066122845,0.090113334,0.5883841,-1.1418786,-0.26069003,-0.035197116,0.0,1.0,0.0,0.0,0.0,0.0,0.0,-0.66564023,0.11506042,-0.2312203,4.480195,-4.5170903,-8.53904,-0.39582253,0.65573454,-1.1552751,0.39298832
-6.169239,22.037306,2.9865403,10.106783,0.93256056,-0.5603504,-0.1051261,-0.58599067,-0.5746592,-0.22127873,0.7746562,-0.6346919,0.6040841,-0.16984792,0.6762788,-0.90322196,-1.7605376,-1.4357088,2.0666847,1.8577288,-0.9283708,0.7239545,-0.8557334,-1.7403495,-1.4993671,2.1209986,1.8022071,-0.9129099,-1.0805069,-1.0079296,-0.22916439,1.3812172,-0.91381735,0.48595566,-0.15061286,0.0032157898,-0.5211792,0.774334,-1.2421105,-0.61113864,-0.71354103,-0.0039901733,-0.5011749,0.7340628,0.80727226,-0.07069981,0.09123739,0.5787821,-1.1555665,-0.28261352,-0.09985307,0.0,1.0,0.0,0.0,0.0,0.0,0.0,-0.65321577,0.12117919,-0.224334,4.714489,-4.0623903,-14.121551,0.1942873,0.5816221,-1.0454953,0.70112944
-11.399727,17.83277,-1.3559073,10.768585,1.146152,-0.63380104,-0.2408584,-0.5814605,-0.58836114,-0.3475493,0.7777713,-0.61932343,0.6087329,-0.21538638,0.66580844,-0.9145695,-1.7751044,-1.42159,2.0590663,1.8630804,-0.93444854,0.7134282,-0.86605537,-1.7441838,-1.4855835,2.111887,1.8066963,-0.9143696,-1.0418506,-1.038746,-0.45442662,1.3662821,-0.8918866,0.4277448,-0.14394921,-0.010650635,-0.52576447,0.7696949,-1.4100722,-0.2408952,0.30488345,-0.015670776,-0.50434875,0.73248565,0.8138803,-0.07417598,0.09235642,0.5688294,-1.1744877,-0.3258019,-0.1881795,0.0,1.0,0.0,0.0,0.0,0.0,0.0,-0.63934934,0.12576446,-0.21969491,4.217458,-2.867484,-25.654882,-3.2248974,3.3363342,-10.721702,1.15273
-12.301271,78.166245,26.594303,20.375145,0.13350713,0.4320554,-0.28871375,-0.7128883,-0.24101616,-0.21997243,0.7994092,-0.5731632,0.59843415,-0.1984675,0.6421394,-0.890157,-1.766181,-1.4056426,2.0545707,1.8665397,-0.9342163,0.70254105,-0.87496364,-1.7492516,-1.4717972,2.103159,1.8109154,-0.91580105,-1.1039472,-0.8423452,-0.5245167,1.3827554,-0.8674746,0.42027488,-0.14359784,-0.024738312,-0.52817535,0.77198935,-1.4086623,-0.24065436,0.20429942,-0.027370453,-0.50723267,0.73094267,0.8206501,-0.07694539,0.094161935,0.55834234,-1.1693972,-0.26959214,-0.14733273,0.0,1.0,0.0,0.0,0.0,0.0,0.0,-0.62526166,0.12817535,-0.22198933,-6.096792,19.422197,-7.061404,1.6641378,2.1570563,-0.6325841,-0.19625425
-14.959393,86.70691,32.62029,23.412674,0.41742224,0.92789567,-0.2927774,-0.7421852,-0.26186714,-0.18358131,0.79809064,-0.50810647,0.59397,-0.29316324,0.62832254,-0.90115035,-1.7676097,-1.3919882,2.0523484,1.8703123,-0.94511735,0.69079083,-0.88191783,-1.754348,-1.4578488,2.0948544,1.8150944,-0.917305,-1.1984068,-0.6472829,-0.5048649,1.3989815,-0.81928605,0.41741955,-0.15339398,-0.038814545,-0.53058624,0.77327865,-1.4072539,-0.24041377,0.10381595,-0.0390625,-0.50942993,0.7300284,0.82749444,-0.07967045,0.09686,0.54728746,-1.1722399,-0.19379331,-0.076460935,0.0,1.0,0.0,0.0,0.0,0.0,0.0,-0.61118543,0.13058624,-0.22327864,-9.348488,19.252312,1.9802332,1.6147375,4.427564,-0.22193193,-1.1930525
-11.07762,89.70232,37.05161,22.896935,0.34331334,1.1477426,-0.13233593,-0.7563248,-0.23512396,-0.12027515,0.7905138,-0.5207802,0.5946553,-0.26739505,0.6151583,-0.90543026,-1.7663755,-1.3787974,2.0427763,1.8745599,-0.9440445,0.67812127,-0.8871678,-1.7586224,-1.4437745,2.0869122,1.8192753,-0.9188881,-1.2897242,-0.485031,-0.40141708,1.4101952,-0.7875495,0.41834638,-0.16055237,-0.052879333,-0.5329819,0.77356386,-1.4058468,-0.24017341,0.0034329481,-0.050746918,-0.5107498,0.72991854,0.83425635,-0.082699925,0.100301534,0.5358327,-1.1676942,-0.10549941,0.008003323,0.0,1.0,0.0,0.0,0.0,0.0,0.0,-0.59712064,0.13298187,-0.22356385,-9.099221,15.967381,10.464245,1.0960817,2.7144551,0.15010834,-0.88822246
-9.462975,71.28865,29.889635,19.533386,0.68170047,0.9021497,-0.060130272,-0.7593626,-0.27231687,-0.12043108,0.78624624,-0.50522286,0.57607394,-0.2869763,0.602185,-0.9143995,-1.7706655,-1.3651499,2.0363898,1.8768827,-0.9475857,0.6647498,-0.8914784,-1.7618554,-1.4296467,2.0792484,1.8234524,-0.9205456,-1.3528954,-0.41378272,-0.296812,1.4135956,-0.7605414,0.417731,-0.16778973,-0.06692886,-0.5353775,0.77284604,-1.4044412,-0.2399333,-0.09684969,-0.06244278,-0.5113907,0.73040366,0.8408508,-0.086074196,0.104118295,0.524138,-1.1715075,-0.039468765,0.059830662,0.0,1.0,0.0,0.0,0.0,0.0,0.0,-0.5830711,0.1353775,-0.22284603,-6.300831,6.930685,10.605133,0.36816597,2.3290038,-0.026988983,-0.81201494
-8.365028,52.026543,20.947847,16.00281,0.9093115,0.51337534,-0.026024746,-0.7572936,-0.2964786,-0.14177148,0.7896836,-0.5114893,0.55895394,-0.26355565,0.58902043,-0.9211263,-1.7760326,-1.3506783,2.0280995,1.8793478,-0.94690114,0.6510007,-0.89563274,-1.7643735,-1.4155093,2.071766,1.8275567,-0.9222325,-1.3811053,-0.41595465,-0.24430777,1.4088774,-0.7422679,0.38257685,-0.16206372,-0.08117294,-0.53744507,0.77162015,-1.5216336,-0.03393861,0.1454824,-0.07423401,-0.5115738,0.73110485,0.8472685,-0.089585215,0.10797207,0.51230127,-1.179862,-0.0070265005,0.069332846,0.0,1.0,0.0,0.0,0.0,0.0,0.0,-0.56882703,0.13744506,-0.22162014,-2.6555777,-0.27856827,4.3963404,-1.0295153,1.8462896,-6.759715,1.4344364
-10.596275,50.202473,16.132711,15.19961,0.7946686,0.11874527,-0.0991281,-0.78405255,-0.1847196,-0.2639655,0.7837193,-0.4737424,0.50941527,-0.17021897,0.5725954,-0.9141047,-1.79077,-1.3371375,2.0243917,1.8784983,-0.9392544,0.63702554,-0.8995304,-1.7672238,-1.4014655,2.0645864,1.8313756,-0.9238091,-1.4028139,-0.3814149,-0.29849777,1.4030851,-0.71047115,0.38158867,-0.15646917,-0.096019745,-0.537796,0.7730662,-1.4733512,-0.0356585,0.14381368,-0.086120605,-0.511528,0.73175347,0.8536002,-0.09268007,0.111900076,0.5002554,-1.1917922,0.017517153,0.061584447,0.0,1.0,0.0,0.0,0.0,0.0,0.0,-0.55398023,0.13779601,-0.22306621,-2.139759,3.3393383,-5.3633094,-0.51550865,2.9996753,-0.11701584,0.49079955
-5.9706583,54.494595,17.448343,13.78096,0.51574934,-0.10386485,-0.050174937,-0.770891,-0.14005856,-0.2732873,0.78380513,-0.44172886,0.4886682,-0.14437322,0.5599364,-0.91353625,-1.7945526,-1.3230851,2.0204134,1.8802425,-0.9382464,0.6229941,-0.90291405,-1.770846,-1.3874847,2.0577545,1.8351178,-0.92529404,-1.4032228,-0.32450688,-0.38320634,1.3965272,-0.6744197,0.37177885,-0.14618596,-0.11069107,-0.5379486,0.7744774,-1.4646018,-0.007386627,0.13938689,-0.09801483,-0.51125336,0.7323303,0.85984576,-0.09531238,0.116040275,0.48797074,-1.1888058,0.039047822,0.05482156,0.0,1.0,0.0,0.0,0.0,0.0,0.0,-0.5393089,0.1379486,-0.22447741,-0.043463707,5.573547,-8.398342,-0.63545704,3.4482718,-0.9805441,0.9230852
-11.408527,46.302284,11.395156,14.233099,0.7303151,-0.25240082,-0.14750232,-0.7899998,-0.13735723,-0.39814103,0.78577656,-0.42806822,0.46327958,-0.10845782,0.5439941,-0.91664976,-1.8106601,-1.308907,2.0149477,1.8814458,-0.9361398,0.6089303,-0.90578365,-1.775811,-1.3735324,2.0512545,1.8387725,-0.9266623,-1.4073299,-0.27482033,-0.53413814,1.39514,-0.64215916,0.36330703,-0.13400371,-0.12530899,-0.5378647,0.7756763,-1.461166,0.013047512,0.11282978,-0.10997772,-0.5108719,0.7326947,0.866073,-0.09724475,0.12044302,0.47534668,-1.1994388,0.047758076,0.028976934,0.0,1.0,0.0,0.0,0.0,0.0,0.0,-0.524691,0.13786468,-0.2256763,-0.37548542,4.86483,-15.0729065,-0.08869171,3.1401634,-0.874573,1.1101186
-10.030743,46.522404,11.817857,13.84979,0.69087565,-0.26373327,-0.1071139,-0.78185815,-0.11873702,-0.43359402,0.7870311,-0.41092864,0.46400654,-0.07041878,0.5307445,-0.9176574,-1.8191704,-1.2948292,2.0101616,1.8851732,-0.9337042,0.5948779,-0.90820503,-1.7822462,-1.3595706,2.0450556,1.8423507,-0.9278898,-1.4044352,-0.23156963,-0.6799433,1.3965688,-0.61257225,0.3557305,-0.11934002,-0.13988495,-0.5375824,0.77661026,-1.4562804,0.034080304,0.08716132,-0.122039795,-0.51039124,0.7328043,0.8722748,-0.09843043,0.12510322,0.46238205,-1.2081097,0.05708099,0.0038285858,0.0,1.0,0.0,0.0,0.0,0.0,0.0,-0.510115,0.13758239,-0.22661024,0.319314,4.213479,-14.530479,0.17917156,2.8540015,-0.82299113,1.3512224
-10.366678,43.691643,11.068781,13.676795,0.7776791,-0.21466988,-0.09781504,-0.78216875,-0.12314013,-0.48543894,0.78793055,-0.4018734,0.4666019,-0.09217364,0.51666105,-0.92051905,-1.8307902,-1.2807776,2.0048683,1.8890109,-0.9371072,0.58086175,-0.91034895,-1.7900281,-1.3455821,2.0391083,1.8458624,-0.9289982,-1.4005619,-0.20910577,-0.8107767,1.3996748,-0.58888096,0.34931606,-0.10838238,-0.15441513,-0.5370865,0.7772597,-1.4520118,0.054483406,0.05814479,-0.13422394,-0.5098114,0.7326401,0.8784255,-0.09891674,0.12995057,0.4491069,-1.2205324,0.06637541,-0.024035843,0.0,1.0,0.0,0.0,0.0,0.0,0.0,-0.49558485,0.13708648,-0.2272597,0.42142868,2.1319718,-13.006377,0.35429,2.2524834,-0.73352456,0.9859413
-10.083258,38.446465,9.867207,12.949408,0.9162474,-0.15714735,-0.053422246,-0.7758207,-0.1551754,-0.52219164,0.78833187,-0.38768417,0.46418843,-0.053348955,0.5032797,-0.9258665,-1.8422472,-1.2667489,2.0003397,1.8922812,-0.9343331,0.56691134,-0.9125367,-1.7989008,-1.331561,2.0333743,1.8493162,-0.9299822,-1.393108,-0.22230992,-0.9125863,1.4030311,-0.5684512,0.3436212,-0.09529822,-0.1689148,-0.5364075,0.77755946,-1.4491656,0.07277497,0.021944692,-0.14656067,-0.50917816,0.73215425,0.88448757,-0.09879726,0.13482721,0.43559432,-1.2383896,0.07452171,-0.057352334,0.0,1.0,0.0,0.0,0.0,0.0,0.0,-0.48108518,0.13640746,-0.22755945,0.782156,-1.4282972,-10.073912,0.4009962,1.9203782,-0.67204237,1.2198806
-13.451508,30.146381,6.086642,12.5932455,1.1037588,-0.13585871,-0.037527084,-0.78445864,-0.1912902,-0.5968793,0.78416103,-0.3863692,0.4193665,0.055076074,0.4884655,-0.9316657,-1.8585888,-1.2531449,1.9947374,1.8912529,-0.9244746,0.5529867,-0.91509825,-1.8087863,-1.3175284,2.0277882,1.8526853,-0.9307654,-1.3920616,-0.26775143,-1.0135123,1.4036895,-0.5557139,0.334354,-0.07288769,-0.18342209,-0.5355835,0.7773749,-1.4509494,0.08584503,-0.03074243,-0.15917206,-0.5084839,0.7312345,0.8904529,-0.09805058,0.13959628,0.42189145,-1.2680521,0.07860149,-0.10406074,0.0,1.0,0.0,0.0,0.0,0.0,0.0,-0.4665779,0.13558349,-0.22737491,0.1707077,-4.643181,-9.995901,0.1866579,1.1723638,-1.044172,2.1798267
-5.739869,54.21851,17.163593,13.551553,0.5378499,-0.006786585,0.08180387,-0.76848775,-0.0779944,-0.5993538,0.7936937,-0.39219692,0.41745487,0.11564028,0.4761379,-0.9228977,-1.8687216,-1.238159,1.9885684,1.8944309,-0.9192014,0.539126,-0.9175739,-1.8194098,-1.3034672,2.022294,1.8559625,-0.93129206,-1.3841629,-0.24137503,-1.0780965,1.4069754,-0.54808754,0.32497367,-0.046403714,-0.19782639,-0.53450775,0.77701205,-1.4361565,0.11556957,-0.03641475,-0.17183685,-0.507576,0.7301431,0.8962161,-0.09680851,0.14448828,0.40810293,-1.2648504,0.10417552,-0.1113708,0.0,1.0,0.0,0.0,0.0,0.0,0.0,-0.4521736,0.13450775,-0.22701204,0.7635355,2.4755,-6.236124,0.31695366,0.51783323,-1.07584,2.5086865
-14.091104,30.429592,6.4196234,12.3086,0.97602385,-0.045935094,0.029810281,-0.79131335,-0.2329303,-0.67376107,0.7788382,-0.44319385,0.33599222,0.1289067,0.45999464,-0.94086695,-1.886786,-1.2255833,1.9779747,1.8895618,-0.91840136,0.5252338,-0.9204122,-1.8307557,-1.2894307,2.0166626,1.8590986,-0.9315657,-1.3906806,-0.29837918,-1.1529957,1.4029139,-0.56825936,0.3092367,-0.021141374,-0.2121849,-0.5332489,0.7762421,-1.4356121,0.12993619,-0.08822447,-0.18468475,-0.5065613,0.72868484,0.90180534,-0.09497629,0.14937882,0.394224,-1.2914346,0.11414598,-0.15769951,0.0,1.0,0.0,0.0,0.0,0.0,0.0,-0.43781507,0.1332489,-0.22624207,-0.59342384,-5.8146834,-7.342911,-0.26741028,-2.169776,-1.7054558,2.4630096
-8.806869,48.836216,14.09683,12.850298,0.4104709,0.046851218,0.15559798,-0.7811752,-0.13217649,-0.694018,0.7806747,-0.5067938,0.3471892,0.27215606,0.4471163,-0.9336298,-1.9001575,-1.2113633,1.9659833,1.8938174,-0.9043501,0.51130444,-0.92337245,-1.8427563,-1.2754438,2.010642,1.8620899,-0.9315068,-1.3937327,-0.29583716,-1.2148936,1.3973129,-0.61394674,0.29541552,0.014457331,-0.2264328,-0.53176117,0.7752075,-1.4206917,0.15591767,-0.10654859,-0.19759369,-0.5053024,0.7269605,0.9071462,-0.09253936,0.1544908,0.38033506,-1.2898164,0.13936508,-0.1778236,0.0,1.0,0.0,0.0,0.0,0.0,0.0,-0.42356718,0.13176116,-0.22520751,-0.31690598,0.09063482,-5.9462547,-0.5286217,-4.8360586,-1.5183151,3.416187
-12.959404,35.217728,8.329361,11.9418125,0.70093447,0.04150796,0.11268054,-0.79346555,-0.23576896,-0.72816616,0.7725185,-0.53179485,0.31521833,0.2248172,0.43195787,-0.94694936,-1.9155729,-1.1981919,1.9574625,1.8936117,-0.9090251,0.49729702,-0.9266979,-1.8553402,-1.2615367,2.004102,1.8649381,-0.9311543,-1.4029667,-0.34513587,-1.2723559,1.3889235,-0.6677884,0.2806756,0.041985277,-0.24060059,-0.5300827,0.77378124,-1.4144099,0.17321919,-0.15126097,-0.21062088,-0.5038681,0.72487295,0.91224766,-0.08947405,0.15974496,0.36644244,-1.3056759,0.15677309,-0.21947889,0.0,1.0,0.0,0.0,0.0,0.0,0.0,-0.4093994,0.1300827,-0.22378123,-0.88994503,-5.065727,-5.5396795,-0.7116318,-5.603349,-1.6084969,2.6584167
-12.144714,31.369436,6.981047,10.561612,0.62104213,0.028894365,0.17982416,-0.7885686,-0.2728836,-0.7529312,0.76341575,-0.5932223,0.3046712,0.33532423,0.41844016,-0.9539863,-1.9306333,-1.1851951,1.9447798,1.8954053,-0.89762187,0.48322982,-0.93065757,-1.8684412,-1.2477404,1.9969194,1.8676486,-0.9304785,-1.407841,-0.41325998,-1.3221052,1.3770429,-0.7357777,0.26725784,0.07586785,-0.25470734,-0.5282593,0.77184653,-1.4088587,0.18720801,-0.20541647,-0.22380447,-0.50226593,0.72230625,0.91709876,-0.08575215,0.16504379,0.35261446,-1.3210107,0.17225097,-0.26962253,0.0,1.0,0.0,0.0,0.0,0.0,0.0,-0.39529264,0.12825927,-0.22184652,-0.45201778,-6.9360614,-4.769397,-1.0327339,-7.0102215,-1.4597595,3.3038094
-8.096983,41.07861,11.3690195,10.878742,0.53478956,0.04902923,0.20578822,-0.77784055,-0.25275177,-0.7594938,0.7690614,-0.5897426,0.2728904,0.35510418,0.40544575,-0.95593274,-1.9443907,-1.1708343,1.9379451,1.8949376,-0.8949681,0.46918264,-0.9351085,-1.8819178,-1.2340204,1.989185,1.8702126,-0.9294795,-1.4037043,-0.45619678,-1.3555063,1.3705554,-0.78676414,0.25217423,0.10755916,-0.26870346,-0.52625275,0.7694948,-1.395947,0.20574561,-0.24234845,-0.23705292,-0.50048065,0.719362,0.9216683,-0.081449606,0.17038874,0.33891168,-1.3243214,0.19274229,-0.3035439,0.0,1.0,0.0,0.0,0.0,0.0,0.0,-0.38129652,0.12625274,-0.21949476,0.40287971,-4.438615,-3.072834,-0.55487156,-5.3788066,-1.6381204,3.0553012
-7.1484256,40.185356,11.326444,10.264565,0.6165545,0.05459237,0.21030906,-0.7775462,-0.3036433,-0.76654035,0.7591284,-0.60076684,0.250418,0.36091048,0.39142802,-0.9654728,-1.9585719,-1.1581075,1.9291083,1.8952544,-0.89338845,0.4551932,-0.9400609,-1.8956264,-1.2203821,1.9810396,1.8726221,-0.92819303,-1.3973801,-0.5086981,-1.3750118,1.361874,-0.82448435,0.23670015,0.13542238,-0.2825775,-0.52407837,0.7667402,-1.3832757,0.22270572,-0.28243312,-0.25033188,-0.498497,0.71607125,0.9259573,-0.07663855,0.17567757,0.325372,-1.3285017,0.21266352,-0.33853832,0.0,1.0,0.0,0.0,0.0,0.0,0.0,-0.36742246,0.12407836,-0.21674019,0.61359406,-5.3896904,-1.6719818,-0.76670647,-4.05761,-1.6912282,2.6918888
-6.7486033,35.30797,9.629149,9.143214,0.7268601,0.023482084,0.21335793,-0.77000284,-0.36433247,-0.7772916,0.75224507,-0.60370636,0.2366463,0.38943997,0.3781929,-0.97649413,-1.9733555,-1.1451576,1.920669,1.8962867,-0.889249,0.4412972,-0.9456925,-1.9094788,-1.2068379,1.9726173,1.8748841,-0.9266407,-1.3869894,-0.5817955,-1.3878953,1.3521333,-0.8486977,0.22209753,0.16176178,-0.29634857,-0.52175903,0.76351,-1.3740529,0.23561032,-0.33398682,-0.26371002,-0.49634552,0.7123716,0.9299876,-0.07136641,0.18073831,0.3120313,-1.3375913,0.22926567,-0.38166156,0.0,1.0,0.0,0.0,0.0,0.0,0.0,-0.3536514,0.12175903,-0.21350998,1.0284901,-7.433009,-1.0281563,-0.83732605,-2.6788116,-1.621297,2.5793881
-6.4290156,35.23976,9.68945,9.001199,0.76023006,0.07963371,0.21383414,-0.7646297,-0.40008014,-0.7756855,0.7548678,-0.6309283,0.28423858,0.41886345,0.36483422,-0.9857005,-1.9870473,-1.1313511,1.9095244,1.903308,-0.88475436,0.42751518,-0.95209163,-1.9233919,-1.1933582,1.9639572,1.8770517,-0.9248321,-1.3752788,-0.65968597,-1.3915854,1.3470699,-0.8723775,0.21428041,0.18715683,-0.31002426,-0.5193176,0.75974953,-1.3645962,0.2482125,-0.38652542,-0.27716827,-0.49399567,0.70823956,0.9337679,-0.065700196,0.1855033,0.29891357,-1.3467295,0.24767862,-0.4250793,0.0,1.0,0.0,0.0,0.0,0.0,0.0,-0.3399757,0.11931762,-0.20974952,1.158905,-7.912481,-0.10356903,-0.3548622,-2.62326,-0.9487957,2.4989963
-6.135093,33.904217,9.28176,8.726589,0.8311871,0.10355973,0.2016212,-0.7547367,-0.45203564,-0.7721833,0.75980407,-0.63536465,0.30671364,0.43284875,0.3520415,-0.9972952,-2.0006104,-1.1173778,1.9004207,1.9077231,-0.8815472,0.41387236,-0.9593341,-1.9372879,-1.1798788,1.9551033,1.8791717,-0.922786,-1.3606336,-0.74624985,-1.3879876,1.3486923,-0.89033914,0.21073805,0.21040778,-0.3236122,-0.51675415,0.7554412,-1.3562076,0.25961766,-0.44255573,-0.29073334,-0.4914627,0.7036622,0.93731284,-0.05971587,0.18991552,0.2860257,-1.3574917,0.2663911,-0.47035852,0.0,1.0,0.0,0.0,0.0,0.0,0.0,-0.32638776,0.116754144,-0.20544118,1.4550686,-8.776176,0.6207228,0.3368616,-2.0355701,-0.51632226,2.3032575
