Afshin1997/kuka_rl_ros2/src/catch_and_throw/input_files/idealpd/recorded_trajectories/env_394_data.csv
torque0,torque1,torque2,torque3,torque4,torque5,torque6,action0,action1,action2,action3,action4,action5,action6,set_target_0,set_target_1,set_target_2,set_target_3,set_target_4,set_target_5,set_target_6,joint_pos_0,joint_pos_1,joint_pos_2,joint_pos_3,joint_pos_4,joint_pos_5,joint_pos_6,joint_vel_0,joint_vel_1,joint_vel_2,joint_vel_3,joint_vel_4,joint_vel_5,joint_vel_6,tennisball_pos_0,tennisball_pos_1,tennisball_pos_2,tennisball_lin_vel_0,tennisball_lin_vel_1,tennisball_lin_vel_2,end_effector_pos_0,end_effector_pos_1,end_effector_pos_2,end_effector_rot_0,end_effector_rot_1,end_effector_rot_2,end_effector_rot_3,end_effector_lin_vel_0,end_effector_lin_vel_1,end_effector_lin_vel_2,obs_task_0,obs_task_1,obs_task_2,obs_task_3,obs_task_4,obs_task_5,obs_task_6,to_final_target_0,to_final_target_1,to_final_target_2,joint_acc_0,joint_acc_1,joint_acc_2,joint_acc_3,joint_acc_4,joint_acc_5,joint_acc_6
0.0,0.0,0.0,0.0,0.0,0.0,0.0,0.0,0.0,0.0,0.0,0.0,0.0,0.0,1.7802359,-1.0646509,-1.8151424,-1.1170107,1.9373155,1.1170107,-0.91629785,1.7802359,-1.0646509,-1.8151424,-1.1170107,1.9373155,1.1170107,-0.91629785,0.0,0.0,0.0,0.0,0.0,0.0,0.0,3.1341858,-0.498024,0.43527162,-3.7195706,-0.23298077,4.9116125,0.5304184,-0.45448303,0.693097,0.5745483,0.17512383,0.15255436,0.7848268,0.0,0.0,0.0,1.0,0.0,0.0,0.0,0.0,0.0,0.0,-3.784186,0.09802398,0.11472839,0.0,0.0,0.0,0.0,0.0,0.0,0.0
0.0,0.0,0.0,0.0,0.0,0.0,0.0,0.0,0.0,0.0,0.0,0.0,0.0,0.0,1.7802359,-1.0646509,-1.8151424,-1.1170107,1.9373155,1.1170107,-0.91629785,1.7802359,-1.0646509,-1.8151424,-1.1170107,1.9373155,1.1170107,-0.91629785,0.0,0.0,0.0,0.0,0.0,0.0,0.0,3.1341858,-0.498024,0.43527162,-3.7195706,-0.23298077,4.9116125,0.5304184,-0.45448303,0.693097,0.5745483,0.17512383,0.15255436,0.7848268,0.0,0.0,0.0,1.0,0.0,0.0,0.0,0.0,0.0,0.0,-3.784186,0.09802398,0.11472839,0.0,0.0,0.0,0.0,0.0,0.0,0.0
0.0,0.0,0.0,0.0,0.0,0.0,0.0,0.0,0.0,0.0,0.0,0.0,0.0,0.0,1.7802359,-1.0646509,-1.8151424,-1.1170107,1.9373155,1.1170107,-0.91629785,1.7802359,-1.0646509,-1.8151424,-1.1170107,1.9373155,1.1170107,-0.91629785,0.0,0.0,0.0,0.0,0.0,0.0,0.0,3.1341858,-0.498024,0.43527162,-3.7195706,-0.23298077,4.9116125,0.5304184,-0.45448303,0.693097,0.5745483,0.17512383,0.15255436,0.7848268,0.0,0.0,0.0,1.0,0.0,0.0,0.0,0.0,0.0,0.0,-3.784186,0.09802398,0.11472839,0.0,0.0,0.0,0.0,0.0,0.0,0.0
-176.0,60.375015,-8.915482,110.0,10.211458,4.5001817,-3.9161077,-0.79464275,0.29198062,-0.52439284,0.7437381,-0.06292012,0.6881883,-0.5797905,1.7007716,-1.0354528,-1.8675817,-1.0426369,1.9310235,1.1858295,-0.9742769,1.7788855,-1.0627435,-1.8205478,-1.1122614,1.9411416,1.1218516,-0.91761106,-0.17973886,0.25354466,-0.7202234,0.6334921,0.5095628,0.64401525,-0.17463085,3.0970192,-0.5003586,0.48361444,-3.7158518,-0.23274784,4.8085155,0.528389,-0.45758057,0.69378555,0.5782159,0.17365642,0.1514571,0.78266877,-0.26956937,-0.4116436,0.09152527,1.0,0.0,0.0,0.0,0.0,0.0,0.0,-3.7470193,0.100358576,0.06638557,-17.898186,25.177202,-71.893105,63.448776,50.765373,63.970947,-17.351189
-176.0,-26.968296,-45.787945,110.0,11.864566,1.5032156,-3.5082076,-0.79633826,-0.13434479,-0.5729749,0.72376376,0.19553204,0.65216935,-0.5768585,1.6992517,-1.0761781,-1.8778453,-1.039885,1.9606948,1.1870685,-0.9752969,1.7773367,-1.0601267,-1.835223,-1.0986239,1.949965,1.134915,-0.9187488,-0.14569429,0.2602527,-1.7104234,1.6094986,1.0028421,1.5147244,-0.09299092,3.059887,-0.5026779,0.5309271,-3.7121367,-0.23251514,4.7055216,0.5238571,-0.46567535,0.6944414,0.5865135,0.1701448,0.14830792,0.77785426,-0.51564443,-0.9403784,0.05810376,1.0,0.0,0.0,0.0,0.0,0.0,0.0,-3.709887,0.10267791,0.01907289,3.6908178,-0.61383843,-97.175835,98.303696,48.210598,83.383514,8.302814
-156.0053,116.209595,32.89971,95.62999,7.9768047,7.893615,-2.0385983,-0.73780763,0.2550272,0.1206338,0.6859267,0.17854185,0.6931628,-0.47626787,1.703556,-1.034624,-1.8231596,-1.0300312,1.9678192,1.2042313,-0.9663756,1.7727743,-1.0568784,-1.8502433,-1.0805403,1.9596467,1.1499754,-0.91991323,-0.5599315,0.3428045,-1.4259312,1.875996,0.9514886,1.497032,-0.12566334,3.0227928,-0.50499725,0.5772106,-3.7084255,-0.23228268,4.6026306,0.5164833,-0.47655487,0.6967278,0.5977368,0.1648501,0.14398682,0.7712347,-0.8183576,-1.1293496,0.28928643,1.0,0.0,0.0,0.0,0.0,0.0,0.0,-3.672793,0.10499725,-0.027210593,-41.457462,7.2514114,30.42345,27.057695,-6.6869617,-3.6647081,-3.7089899
-101.77495,125.405106,47.152523,62.201424,5.0233774,8.218771,-0.5063678,-0.76571965,0.159049,0.1839038,0.6642328,0.2731702,0.65882635,-0.55420387,1.6962024,-1.0409735,-1.8318529,-1.014117,1.9869637,1.2158581,-0.97533363,1.7639757,-1.05343,-1.8596694,-1.0622393,1.968039,1.1640078,-0.92148584,-0.98760384,0.3429982,-0.7736188,1.815373,0.7958789,1.3678243,-0.16972093,2.9857368,-0.5073166,0.6224659,-3.7047179,-0.23205045,4.4998426,0.5065155,-0.48810577,0.7011778,0.6100037,0.15798588,0.13871638,0.76399845,-1.0676703,-1.1520356,0.501339,1.0,0.0,0.0,0.0,0.0,0.0,0.0,-3.635737,0.10731658,-0.0724659,-43.094433,-0.73907375,67.59076,-5.900407,-17.33135,-14.109254,-4.9891562
-48.569828,142.68623,56.37397,36.946854,2.1896389,7.4759703,0.19086248,-0.78954273,0.29355565,0.14685939,0.66538674,0.36957926,0.65639025,-0.560632,1.6850215,-1.0240744,-1.8449835,-0.9957006,2.004997,1.2296468,-0.977549,1.751578,-1.0495046,-1.8626754,-1.0457178,1.9750047,1.1765639,-0.9235019,-1.3253696,0.40699562,-0.13622972,1.5974196,0.6589329,1.2160045,-0.21438906,2.948719,-0.5096359,0.6666941,-3.7010138,-0.23181844,4.3971577,0.49463654,-0.49899292,0.7075914,0.62218314,0.14980233,0.13279772,0.75684357,-1.2399209,-1.0569521,0.6900721,1.0,0.0,0.0,0.0,0.0,0.0,0.0,-3.5987191,0.10963592,-0.11669409,-34.172703,5.822772,65.7183,-21.877527,-15.050888,-15.809965,-5.094117
-10.666445,136.37148,50.108505,18.507822,-0.09168434,5.1736093,0.20019363,-0.80267316,0.42452657,-0.010802499,0.64404136,0.42417595,0.64400625,-0.57746977,1.6713107,-1.007052,-1.8637557,-0.9813137,2.0174222,1.2409645,-0.98124886,1.7368551,-1.04437,-1.861552,-1.0315386,1.9810681,1.1877218,-0.92592996,-1.5226045,0.5476799,0.19906802,1.3577203,0.58647513,1.0818226,-0.25398156,2.9117355,-0.51195526,0.70989627,-3.6973135,-0.23158666,4.294575,0.48168564,-0.5086441,0.7153894,0.63390523,0.14086859,0.1270072,0.7497928,-1.3236563,-0.9200191,0.8093505,1.0,0.0,0.0,0.0,0.0,0.0,0.0,-3.5617356,0.111955255,-0.15989625,-20.073532,13.673729,34.73896,-24.132204,-7.947421,-13.596916,-4.481882
13.967784,140.04689,48.570934,10.977398,-1.2880348,3.84745,0.034402262,-0.816062,0.56262815,-0.018554524,0.6401247,0.47173578,0.63742244,-0.56457245,1.655249,-0.98810726,-1.8634075,-0.96752614,2.0282416,1.2514641,-0.9823872,1.7210413,-1.0373014,-1.8588169,-1.0193049,1.9868646,1.1976973,-0.92869467,-1.6020571,0.7587721,0.3011001,1.1779482,0.5762059,0.9692249,-0.28554705,2.8747902,-0.5142746,0.75207335,-3.693617,-0.23135513,4.1920953,0.46832275,-0.5167999,0.724232,0.6451915,0.13155574,0.12198523,0.7426578,-1.349923,-0.7671223,0.9075974,1.0,0.0,0.0,0.0,0.0,0.0,0.0,-3.5247903,0.11427459,-0.20207334,-8.277941,20.792425,11.0430355,-18.130875,-1.4091492,-11.281359,-3.6235094
30.061796,138.80109,47.642273,7.505668,-1.7092967,3.0690348,-0.014561554,-0.80885243,0.644385,0.048700977,0.6390296,0.48162732,0.62759066,-0.51799506,1.640156,-0.9728629,-1.8539468,-0.9554019,2.0350273,1.2604563,-0.98049414,1.7050787,-1.0280546,-1.8558376,-1.0082594,1.992785,1.2066866,-0.9316949,-1.5952607,0.9791909,0.29915354,1.0796183,0.59646815,0.8753406,-0.3063341,2.837883,-0.5165863,0.79322636,-3.6899242,-0.23112383,4.089718,0.4549446,-0.5234299,0.7340104,0.6561012,0.1219626,0.117935605,0.7353554,-1.341764,-0.614012,0.999344,1.0,0.0,0.0,0.0,0.0,0.0,0.0,-3.487883,0.1165863,-0.24322635,0.38347244,21.780622,0.49667358,-9.971905,1.7716408,-9.397912,-2.5080264
31.509237,123.30023,41.47906,6.7659216,-1.4306288,2.3278317,-0.03373226,-0.8142822,0.6857867,0.06425824,0.6253361,0.51691437,0.6402129,-0.5084373,1.6236506,-0.95947593,-1.8494117,-0.9457258,2.0444765,1.2707078,-0.98253864,1.6894499,-1.0169138,-1.853236,-0.9977514,1.9990754,1.2148691,-0.93485826,-1.5530711,1.1584172,0.24908619,1.040808,0.63916314,0.79899865,-0.32078567,2.8010101,-0.5188904,0.83335644,-3.686235,-0.23089275,3.987443,0.44171906,-0.5287399,0.7445349,0.666697,0.11218211,0.114735305,0.72785026,-1.3223746,-0.48631507,1.0681218,1.0,0.0,0.0,0.0,0.0,0.0,0.0,-3.4510102,0.118890375,-0.28335643,3.982997,17.724276,-4.4599385,-4.0212393,4.095185,-7.670963,-1.8056452
29.262989,105.298515,35.159077,6.4768867,-1.0015116,1.7880712,0.008719911,-0.8015506,0.7111663,0.08217767,0.6227158,0.5313921,0.64983064,-0.48874795,1.6092949,-0.94579715,-1.8450181,-0.9354798,2.0522146,1.2798522,-0.98373306,1.6743418,-1.0044302,-1.8511188,-0.9873325,2.0058088,1.2223974,-0.9381246,-1.4971873,1.2777463,0.2008217,1.0417445,0.68470746,0.7372185,-0.3296679,2.7641754,-0.52119446,0.8724645,-3.6825495,-0.2306619,3.8852706,0.42868042,-0.532959,0.75557566,0.6770066,0.10229049,0.112118505,0.72015846,-1.3013623,-0.3847266,1.1138926,1.0,0.0,0.0,0.0,0.0,0.0,0.0,-3.4141755,0.12119445,-0.32246447,5.4056168,11.782837,-4.366109,-0.066804886,4.430306,-6.235063,-1.2168944
23.275263,89.88793,29.761164,7.113265,-0.5025135,1.50046,0.065689825,-0.8005911,0.73197144,0.102717385,0.6114295,0.5572058,0.6559121,-0.48853537,1.5942826,-0.93123305,-1.840847,-0.92618954,2.0615294,1.2879887,-0.9869781,1.6597105,-0.99115217,-1.8492916,-0.9768173,2.0130033,1.2293974,-0.9414615,-1.4520988,1.3441241,0.17822348,1.0542598,0.7305391,0.68726385,-0.3360457,2.7273788,-0.52349854,0.9105516,-3.6788678,-0.23043129,3.7832005,0.41579437,-0.53634644,0.7669322,0.6870254,0.092338316,0.10978886,0.71233135,-1.2876499,-0.3057743,1.1407223,1.0,0.0,0.0,0.0,0.0,0.0,0.0,-3.377379,0.12349853,-0.3605516,4.355097,6.5216303,-1.8393427,1.0734797,4.4896245,-5.0600886,-0.9450257
17.354057,75.73357,24.44286,7.3616867,-0.19070625,1.1992583,0.086434394,-0.7932119,0.7396338,0.0946641,0.6079828,0.5564108,0.6620619,-0.477586,1.5803894,-0.91718876,-1.8398252,-0.916019,2.0686445,1.2956036,-0.9892201,1.6454302,-0.97752607,-1.8476017,-0.9661705,2.0205603,1.235972,-0.9448423,-1.4204359,1.3686086,0.167122,1.0675162,0.7640018,0.6474002,-0.3397251,2.6906166,-0.5258026,0.9476188,-3.6751895,-0.23020092,3.6812325,0.4030037,-0.53907776,0.7784047,0.6967529,0.08238589,0.10757208,0.7043977,-1.2791145,-0.24524868,1.1471351,1.0,0.0,0.0,0.0,0.0,0.0,0.0,-3.3406167,0.1258026,-0.39761877,3.031373,2.3639917,-0.7328361,1.1254072,3.2874942,-4.0191174,-0.6575525
11.064801,64.83959,19.971292,8.022808,0.053394377,0.9645287,0.071111545,-0.794014,0.7406906,0.08044883,0.60421383,0.56281435,0.66565686,-0.47818187,1.5660288,-0.903457,-1.8395568,-0.9057491,2.0768416,1.3025377,-0.99266046,1.6313387,-0.9638561,-1.8460166,-0.955435,2.0283766,1.2422072,-0.94825166,-1.4058921,1.3661891,0.15690745,1.0748733,0.78737736,0.61559916,-0.34225705,2.6538925,-0.5281067,0.9836671,-3.671515,-0.22997075,3.5793662,0.39025116,-0.5413132,0.7898176,0.70621175,0.07250415,0.105392545,0.696348,-1.2762345,-0.2000478,1.1368614,1.0,0.0,0.0,0.0,0.0,0.0,0.0,-3.3038926,0.12810668,-0.43366706,1.3267279,-0.30236244,-0.6819159,0.5182743,2.3050547,-3.1823397,-0.5195141
8.075572,60.478714,17.825197,8.311705,0.091346264,0.8426899,0.05107872,-0.79078513,0.7500439,0.06015397,0.5975626,0.5692014,0.6767552,-0.474221,1.5522602,-0.8888517,-1.8400012,-0.8956787,2.0852966,1.3098826,-0.9956738,1.6173159,-0.9502586,-1.8445919,-0.94469184,2.0363722,1.2481772,-0.9516782,-1.4016483,1.3575249,0.13868228,1.0733714,0.8033394,0.5910718,-0.34367037,2.6172028,-0.53041077,1.0186974,-3.6678443,-0.22974083,3.4776018,0.37751007,-0.5431442,0.801067,0.71542317,0.0627363,0.103261344,0.6881648,-1.2748613,-0.1601702,1.1184918,1.0,0.0,0.0,0.0,0.0,0.0,0.0,-3.2672029,0.13041076,-0.46869737,0.29337406,-0.9175539,-1.496473,-0.37720203,1.5817165,-2.4344206,-0.39575696
5.279686,56.494904,15.598458,8.621426,0.071002066,0.6723827,-0.0010167994,-0.79247534,0.7500021,0.021366227,0.59298736,0.5635041,0.6743221,-0.46890056,1.5380683,-0.8752584,-1.8424553,-0.8853931,2.0927227,1.3156093,-0.9985683,1.6032778,-0.9367584,-1.8435066,-0.9340088,2.0444555,1.2539393,-0.9551105,-1.405086,1.3474056,0.09955329,1.0658005,0.8100135,0.57130915,-0.34398273,2.5805511,-0.5326996,1.0527109,-3.6641772,-0.22951114,3.3759391,0.36478043,-0.5446243,0.8120716,0.7244264,0.05313075,0.101264425,0.6798007,-1.2730398,-0.12585464,1.0918584,1.0,0.0,0.0,0.0,0.0,0.0,0.0,-3.2305512,0.13269958,-0.5027109,-0.47638416,-1.0523319,-3.6204412,-0.9946108,0.6782651,-1.9329071,-0.26792884
5.5473394,57.834858,15.642622,8.718376,-0.043860376,0.6504648,-0.023255896,-0.79112417,0.7586223,-0.003069718,0.585328,0.55866265,0.678515,-0.4693285,1.5241654,-0.86089617,-1.8438135,-0.875476,2.1003218,1.3217908,-1.0020434,1.589192,-0.9232992,-1.8428848,-0.9234392,2.0525503,1.2595354,-0.9585456,-1.410169,1.3451678,0.050897297,1.0531596,0.8096903,0.5556592,-0.3440963,2.5439377,-0.5349884,1.0857085,-3.6605136,-0.22928168,3.274378,0.35209274,-0.5457077,0.8228165,0.73324424,0.043693267,0.09949421,0.67122614,-1.2686453,-0.08876726,1.0661247,1.0,0.0,0.0,0.0,0.0,0.0,0.0,-3.1939378,0.1349884,-0.5357085,-0.64952374,-0.2683401,-4.55988,-1.5031576,-0.02592802,-1.5241504,-0.24750233
6.4903517,60.0615,16.250435,8.833397,-0.12991613,0.6748323,-0.021925934,-0.7926541,0.76329833,-0.020588633,0.5765788,0.5525213,0.68125796,-0.4663959,1.5099267,-0.84696937,-1.8449436,-0.8657813,2.1078024,1.3276613,-1.0051852,1.5750529,-0.90981615,-1.8427398,-0.91302127,2.060607,1.2649981,-0.96197885,-1.4157664,1.3491924,0.0034724441,1.0371542,0.80435544,0.54308695,-0.34391642,2.5073586,-0.5372772,1.1176913,-3.656854,-0.22905244,3.1729186,0.33945465,-0.54642487,0.8333287,0.741875,0.034396462,0.09800224,0.66244537,-1.2618864,-0.047672547,1.0437238,1.0,0.0,0.0,0.0,0.0,0.0,0.0,-3.1573586,0.13727722,-0.56769127,-0.7101774,0.35161972,-4.407713,-1.8394709,-0.53772926,-1.227653,-0.22578835
7.7367353,60.90437,16.538303,8.605159,-0.170102,0.65582037,0.0024701804,-0.79398614,0.7630207,-0.038637176,0.56384397,0.55793417,0.6803529,-0.469763,1.4956542,-0.8335141,-1.8466035,-0.8566369,2.1164005,1.3330333,-1.0089551,1.5608622,-0.8962835,-1.8430316,-0.9027931,2.0686255,1.270352,-0.96541303,-1.4205853,1.3544698,-0.038784835,1.0171349,0.80075127,0.53274757,-0.3440918,2.4708176,-0.53956604,1.1486603,-3.6531978,-0.22882344,3.0715606,0.3269043,-0.54668427,0.8436268,0.75030494,0.0252198,0.09678847,0.65348166,-1.2524079,-0.0045509,1.0227377,1.0,0.0,0.0,0.0,0.0,0.0,0.0,-3.1208177,0.13956603,-0.5986603,-0.6380081,0.47619343,-3.8691287,-2.2434235,-0.37715435,-1.0047913,-0.26672482
9.140035,63.04726,17.498892,8.72924,-0.17449588,0.7219784,0.04224329,-0.7967223,0.764344,-0.03435301,0.55365956,0.55008924,0.6843894,-0.46726036,1.48119,-0.81984913,-1.8464669,-0.8474271,2.1236343,1.3387909,-1.0121391,1.5466257,-0.8826984,-1.8435981,-0.8927738,2.0765905,1.2756182,-0.9688472,-1.4253205,1.359687,-0.061227746,0.9961087,0.79484874,0.52451897,-0.3441658,2.434311,-0.54185486,1.1786165,-3.6495452,-0.22859466,2.9703038,0.31445694,-0.54650116,0.8537524,0.7585025,0.016112464,0.095817156,0.644386,-1.2418443,0.042544056,1.0066843,1.0,0.0,0.0,0.0,0.0,0.0,0.0,-3.084311,0.14185485,-0.6286165,-0.6371498,0.46505928,-1.8436849,-2.3389697,-0.63067675,-0.8102894,-0.26807785
9.33566,64.95479,18.293116,9.554006,-0.07599336,0.8025817,0.06663004,-0.8019166,0.7660964,-0.027071008,0.5502132,0.5538963,0.6840437,-0.46647832,1.4664341,-0.8060888,-1.8463053,-0.83775246,2.1319802,1.3440225,-1.0154951,1.5323302,-0.8690666,-1.8442371,-0.88293093,2.0845137,1.2808119,-0.9722833,-1.4315429,1.364222,-0.06351062,0.97968215,0.7914187,0.51753616,-0.3442329,2.3978424,-0.5441437,1.2075609,-3.6458964,-0.2283661,2.8691485,0.3020897,-0.5458374,0.8637602,0.7664487,0.0070094806,0.095018886,0.6351997,-1.2331907,0.09138643,0.99628866,1.0,0.0,0.0,0.0,0.0,0.0,0.0,-3.0478425,0.14414367,-0.6575609,-0.790143,0.39281845,0.2039671,-1.8678665,-0.39602518,-0.71007013,-0.2747476
14.000229,68.205154,19.95428,8.073605,-0.2105537,0.846575,0.18288541,-0.7960258,0.77041495,0.002419141,0.5194558,0.5602099,0.68221897,-0.45887142,1.4527276,-0.7920251,-1.8439952,-0.83098537,2.1405346,1.3490338,-1.0181705,1.5180117,-0.8553823,-1.8446853,-0.8733408,2.092433,1.2859427,-0.9757146,-1.4325618,1.3695918,-0.037141807,0.9514017,0.7916549,0.5117124,-0.34372124,2.361412,-0.5464325,1.2354944,-3.6422513,-0.22813779,2.7680943,0.2898636,-0.54460907,0.87369376,0.77406436,-0.002143136,0.094314754,0.6260386,-1.2175996,0.14902025,0.9896334,1.0,0.0,0.0,0.0,0.0,0.0,0.0,-3.0114121,0.14643249,-0.68549436,-0.27775764,0.47342777,3.129597,-3.0472517,-0.06536245,-0.58285,-0.23384094
17.350533,70.37764,21.250265,7.092095,-0.23544347,0.8915233,0.29820234,-0.79628307,0.7685856,0.05308585,0.494407,0.5736911,0.67907315,-0.4494125,1.4383833,-0.77852374,-1.8393767,-0.8239001,2.1498022,1.35385,-1.0206559,1.503697,-0.8416656,-1.8446109,-0.8641035,2.1004019,1.291022,-0.9791345,-1.4316826,1.372195,0.023860782,0.91379774,0.7981875,0.5067129,-0.34234047,2.325016,-0.54870605,1.2624182,-3.6386096,-0.2279097,2.6671412,0.27780914,-0.5427551,0.8835866,0.7812571,-0.01139894,0.093594596,0.6170473,-1.1979074,0.21231078,0.98617196,1.0,0.0,0.0,0.0,0.0,0.0,0.0,-2.975016,0.14870605,-0.71241814,-0.089001656,0.19795895,6.635984,-3.963995,0.5370498,-0.48782825,-0.15477538
18.603317,71.3272,21.592228,6.5682917,-0.2660082,0.87472385,0.35623097,-0.8037617,0.7740728,0.08933213,0.46193132,0.5862272,0.6761233,-0.45292416,1.4233209,-0.7642583,-1.8356777,-0.8179104,2.1590247,1.3586342,-1.0244269,1.4893614,-0.8279098,-1.8438079,-0.85532683,2.1084738,1.2960554,-0.9825439,-1.4346771,1.3764392,0.100914545,0.86489874,0.80981654,0.5025004,-0.3413473,2.2886581,-0.5509796,1.288333,-3.6349719,-0.22768183,2.5662887,0.26597214,-0.5402527,0.8934481,0.78797376,-0.020777246,0.0927953,0.6083211,-1.1753216,0.2780072,0.98273295,1.0,0.0,0.0,0.0,0.0,0.0,0.0,-2.9386582,0.15097961,-0.73833305,-0.4765272,0.36666393,8.248909,-5.078006,1.0446787,-0.38871765,-0.18681884
21.292454,71.6572,21.854036,5.381983,-0.36194903,0.7962738,0.42579168,-0.79675794,0.77504593,0.1376421,0.43160576,0.59569037,0.6775232,-0.436158,1.4096856,-0.75040525,-1.8300437,-0.8121663,2.168043,1.3638078,-1.0261596,1.4750296,-0.8141159,-1.8421466,-0.84708804,2.1166792,1.3010546,-0.98593134,-1.433272,1.3802474,0.18968251,0.8096062,0.82388824,0.49950314,-0.3387864,2.2523346,-0.5532532,1.3132403,-3.6313376,-0.2274542,2.4655373,0.2544098,-0.5370712,0.90326965,0.79416734,-0.030282952,0.09187905,0.59994936,-1.1465622,0.34567448,0.9781766,1.0,0.0,0.0,0.0,0.0,0.0,0.0,-2.9023347,0.15325317,-0.7632403,-0.021004677,0.33197403,9.4021,-5.6966543,1.2943149,-0.23139715,-0.020617247
24.389845,72.791695,22.265982,3.7943459,-0.53743476,0.70688194,0.5041165,-0.79423416,0.7838011,0.19158588,0.382541,0.6097317,0.6751173,-0.4177863,1.3956062,-0.7357358,-1.822988,-0.80883396,2.1776524,1.3685663,-1.02771,1.4607302,-0.8002533,-1.8395374,-0.83951014,2.1250486,1.3060309,-0.98928064,-1.4294236,1.3882344,0.28649935,0.7400026,0.84076965,0.49733907,-0.33447304,2.2160492,-0.55552673,1.3371408,-3.627707,-0.2272268,2.3648865,0.24318314,-0.53318024,0.9130358,0.7997851,-0.039908566,0.09083707,0.5920302,-1.1094728,0.41675007,0.9718654,1.0,0.0,0.0,0.0,0.0,0.0,0.0,-2.8660493,0.15552673,-0.7871408,0.23639202,0.75719357,10.191393,-7.1048737,1.5839338,-0.104397535,0.16592741
21.091269,67.93329,20.19643,4.73854,-0.3815189,0.53695476,0.4512083,-0.8017923,0.7760343,0.22239482,0.3676321,0.6187776,0.68020636,-0.39678133,1.380551,-0.7226498,-1.8172979,-0.80274695,2.1869264,1.3740515,-1.0289588,1.4464327,-0.7863554,-1.836045,-0.8325569,2.1335897,1.3109938,-0.9925718,-1.4302224,1.3901986,0.37165746,0.6800461,0.8579923,0.49635813,-0.32809755,2.1797981,-0.5578003,1.3600354,-3.6240802,-0.22699961,2.2643363,0.23229599,-0.528656,0.9227057,0.80485797,-0.04962155,0.08967255,0.5845512,-1.0761191,0.47730026,0.9606166,1.0,0.0,0.0,0.0,0.0,0.0,0.0,-2.8297982,0.15780029,-0.8100354,-0.207448,0.17135143,8.939099,-6.1266303,1.6652703,0.033652782,0.4051149
23.572302,64.91039,19.182201,2.187901,-0.6162271,0.2938389,0.5257736,-0.7987423,0.7762583,0.27162412,0.29452178,0.62418777,0.6760615,-0.36600637,1.3665584,-0.70872957,-1.8088826,-0.8031047,2.1960084,1.3785999,-1.0291724,1.4321333,-0.77245367,-1.8317211,-0.8263714,2.1422834,1.3159491,-0.99577993,-1.4300848,1.3900422,0.453991,0.5976139,0.8729665,0.49602053,-0.3190384,2.1435852,-0.56007385,1.3819253,-3.6204567,-0.22677267,2.1638868,0.22182083,-0.52355194,0.9321998,0.80936944,-0.059342068,0.08842309,0.5775647,-1.0319635,0.53552616,0.9404015,1.0,0.0,0.0,0.0,0.0,0.0,0.0,-2.7935853,0.16007385,-0.83192533,-0.09737015,-0.026607513,8.615971,-8.365941,1.4594674,0.17200708,0.69295764
19.89177,63.596466,18.20431,4.6194935,-0.40139225,0.23739104,0.4251982,-0.79937625,0.78042674,0.298329,0.30285487,0.6345092,0.6696483,-0.34226063,1.3521957,-0.694411,-1.8018882,-0.7960859,2.2057343,1.382914,-1.030006,1.4178339,-0.7585434,-1.8266857,-0.8208067,2.151126,1.3208987,-0.99888414,-1.4302112,1.3913648,0.52125853,0.54247296,0.88772583,0.4949959,-0.30819672,2.1074066,-0.5623398,1.4028115,-3.616837,-0.22654593,2.0635376,0.21173096,-0.51789856,0.9415187,0.8133767,-0.069068916,0.08710944,0.57101643,-0.9952996,0.58632505,0.9236421,1.0,0.0,0.0,0.0,0.0,0.0,0.0,-2.7574067,0.16233978,-0.8528115,-0.10409355,0.13203621,7.0254207,-5.615294,1.4852762,0.080013275,0.89992285
18.238152,61.52255,17.114454,5.1856065,-0.3815226,0.11384821,0.37837654,-0.8014144,0.7824392,0.3215582,0.2711592,0.63700086,0.67086947,-0.31287858,1.3376925,-0.68029946,-1.7945298,-0.79369074,2.214826,1.3879856,-1.030172,1.403525,-0.74461114,-1.8210876,-0.81573886,2.1600904,1.3258387,-1.0018654,-1.4314404,1.3939139,0.5733851,0.49448374,0.8995269,0.4942909,-0.29540843,2.0712662,-0.5645981,1.4226949,-3.613221,-0.22631943,1.9632885,0.20199203,-0.5117874,0.95066106,0.8169395,-0.07879058,0.08577812,0.5648399,-0.9593482,0.6321097,0.90519094,1.0,0.0,0.0,0.0,0.0,0.0,0.0,-2.7212663,0.16459808,-0.8726949,-0.20401478,0.26481152,5.456555,-4.8913536,1.2219071,0.12116432,1.1168659
12.25846,57.629807,15.218328,8.667379,-0.0562526,0.0551928,0.21587728,-0.8033811,0.7767346,0.32269984,0.30108696,0.62953377,0.6753854,-0.2746518,1.3231869,-0.6669377,-1.7888176,-0.78563017,2.223044,1.3933772,-1.0293306,1.3891932,-0.7306818,-1.8151538,-0.8108484,2.1691236,1.330773,-1.0046997,-1.4338156,1.3927279,0.6004997,0.48689702,0.9046514,0.4937043,-0.2800797,2.03516,-0.5668564,1.4415766,-3.6096084,-0.22609316,1.8631396,0.19252014,-0.5052719,0.9596405,0.8201702,-0.088527724,0.084467806,0.55888176,-0.9363664,0.66703045,0.88945925,1.0,0.0,0.0,0.0,0.0,0.0,0.0,-2.6851602,0.16685638,-0.8915766,-0.31039715,-0.095677376,2.8733492,-0.8545935,0.60236454,0.09171367,1.3930321
4.872014,58.662918,14.966148,14.8744955,0.44737297,0.26118544,0.009728886,-0.80609316,0.7803971,0.3391651,0.37877306,0.6072737,0.6752619,-0.22333077,1.3085839,-0.6526421,-1.7812374,-0.7729711,2.229851,1.3982992,-1.0270327,1.3748289,-0.7167524,-1.8090236,-0.8055393,2.178115,1.3356978,-1.0073566,-1.4375525,1.3930805,0.61769223,0.5453656,0.8979196,0.49215147,-0.26131427,1.9990921,-0.5691147,1.4594575,-3.6059997,-0.22586711,1.7630908,0.18309784,-0.49843597,0.9685713,0.82321036,-0.098423526,0.08318965,0.5529168,-0.9356411,0.6988855,0.88811344,1.0,0.0,0.0,0.0,0.0,0.0,0.0,-2.6490922,0.16911468,-0.9094575,-0.44662952,0.059890747,1.8293142,5.761957,-0.536561,-0.11346936,1.7422199
5.3985415,55.425392,13.698164,13.381872,0.2799394,0.07330322,0.004030578,-0.80867463,0.7799643,0.32858703,0.34635484,0.61242557,0.6723615,-0.23777387,1.2939615,-0.638756,-1.7761649,-0.7709038,2.2393575,1.402934,-1.031134,1.3604227,-0.7028202,-1.8028591,-0.7997505,2.1870413,1.3406054,-1.0098515,-1.442139,1.3932494,0.6166218,0.5897027,0.8911849,0.49066225,-0.24598321,1.9630585,-0.571373,1.4763387,-3.6023943,-0.2256413,1.6631421,0.17373657,-0.49131775,0.9774335,0.82610285,-0.108452715,0.081993,0.54687214,-0.9288664,0.7278564,0.8791292,1.0,0.0,0.0,0.0,0.0,0.0,0.0,-2.6130586,0.17137298,-0.92633873,-0.53522587,0.04014969,0.0126719475,4.3412566,-0.5513191,-0.07900596,1.405859
7.4415913,54.304375,13.371498,11.771155,0.092039585,-0.056500584,0.04622128,-0.80170274,0.77957404,0.33000395,0.35527012,0.6006774,0.67370605,-0.18986419,1.2802525,-0.6248628,-1.7698587,-0.7642235,2.247109,1.407976,-1.0288379,1.3460108,-0.6888889,-1.7967479,-0.79358596,2.1958723,1.3455034,-1.0121765,-1.4411389,1.3931459,0.60969216,0.6250153,0.8807224,0.48964697,-0.2283489,1.927063,-0.5736313,1.4922212,-3.5987928,-0.22541569,1.5632932,0.16448975,-0.48388672,0.9861778,0.82882935,-0.11856424,0.08092949,0.5407725,-0.91458035,0.75701517,0.8662468,1.0,0.0,0.0,0.0,0.0,0.0,0.0,-2.577063,0.17363128,-0.9422212,0.033068657,0.010085106,-0.56039095,3.4447074,-0.94492435,-0.01052618,1.6361803
8.003109,52.97015,12.939537,10.9201145,-0.0032513142,-0.14064935,0.07297608,-0.8069434,0.7778515,0.33412528,0.367146,0.58644664,0.67829394,-0.1567698,1.2653165,-0.6111038,-1.7633353,-0.75687134,2.254517,1.4133328,-1.0278535,1.3315951,-0.6749681,-1.7906959,-0.7871391,2.204566,1.3503958,-1.0143166,-1.4419724,1.3918346,0.6043416,0.65097,0.86623985,0.4894466,-0.20968534,1.8911018,-0.5758896,1.507106,-3.5951946,-0.22519033,1.4635442,0.15541458,-0.4761734,0.9947713,0.8313689,-0.12872474,0.080032416,0.5346497,-0.8966757,0.785716,0.8503975,1.0,0.0,0.0,0.0,0.0,0.0,0.0,-2.541102,0.17588958,-0.95710593,-0.15289783,-0.11372566,-0.38244724,2.5099874,-1.3619065,0.08294582,1.7391056
7.728439,52.191452,12.587496,11.010335,-0.014937937,-0.19604367,0.07165472,-0.80652046,0.7785752,0.32440823,0.3924667,0.5763605,0.67642236,-0.10204371,1.2509431,-0.5971106,-1.7582551,-0.74789244,2.262202,1.418038,-1.0245209,1.3171736,-0.6610559,-1.7847278,-0.78041285,2.213107,1.3552843,-1.0162487,-1.4423343,1.3909979,0.5948052,0.6796319,0.85037535,0.48913318,-0.18791948,1.855175,-0.57814026,1.520994,-3.5916002,-0.22496518,1.3638949,0.1465187,-0.4681778,1.0032064,0.83371985,-0.13892592,0.079319805,0.5285065,-0.87842655,0.81357133,0.8344351,1.0,0.0,0.0,0.0,0.0,0.0,0.0,-2.505175,0.17814025,-0.97099394,-0.10495186,-0.06732941,-0.79951286,2.7841687,-1.502502,0.0659883,2.0513535
6.949275,51.31925,12.307311,11.52393,0.011557341,-0.20566201,0.07495361,-0.80899304,0.7740997,0.32948792,0.41838783,0.54344964,0.681545,-0.019531086,1.2362742,-0.58364594,-1.7517791,-0.7385741,2.267452,1.4234388,-1.0182018,1.3027388,-0.6471704,-1.778815,-0.77335185,2.2214231,1.3601748,-1.0179195,-1.4441162,1.3877044,0.5906138,0.71465254,0.8251301,0.48926637,-0.16051827,1.8192863,-0.5803833,1.5338862,-3.5880094,-0.22474027,1.2643453,0.1377945,-0.45991516,1.0114886,0.83587635,-0.14918734,0.07881039,0.5223436,-0.8617999,0.8414812,0.81925505,1.0,0.0,0.0,0.0,0.0,0.0,0.0,-2.4692864,0.1803833,-0.9838862,-0.2475977,-0.31564236,-0.25533438,3.4240484,-2.4474502,0.09636879,2.6137471
8.019573,50.07242,12.157234,10.768924,-0.037010968,-0.26636547,0.15268166,-0.8011181,0.764506,0.3413861,0.43487716,0.50937456,0.6857179,0.1435945,1.2226269,-0.57071984,-1.7446765,-0.7298641,2.2723606,1.4287466,-1.0035601,1.2883269,-0.6333612,-1.772866,-0.7659361,2.2294111,1.365069,-1.0192165,-1.4405982,1.3786952,0.5968971,0.75030714,0.7903527,0.4899333,-0.1197719,1.783432,-0.58262634,1.5457836,-3.584422,-0.22451557,1.1648952,0.12924576,-0.45135498,1.0196105,0.8377931,-0.15951851,0.07851643,0.5162282,-0.84233016,0.8692635,0.8028538,1.0,0.0,0.0,0.0,0.0,0.0,0.0,-2.433432,0.18262634,-0.9957836,0.3002882,-0.8891344,0.80183744,3.498447,-3.4189463,0.15641451,3.944081
7.4384537,44.033157,10.123352,9.306919,-0.102951944,-0.51547295,0.16178685,-0.80458945,0.75255275,0.30790526,0.43289548,0.4934717,0.6737282,0.23063545,1.2078679,-0.55810595,-1.7420754,-0.72264653,2.2787583,1.4324418,-0.996153,1.2739359,-0.61969125,-1.7669971,-0.75826186,2.237052,1.3699633,-1.0200672,-1.4387591,1.3632277,0.5839362,0.7728381,0.7556052,0.48979926,-0.07386805,1.7476158,-0.5848694,1.5566874,-3.5808384,-0.2242911,1.0655445,0.12092972,-0.44259644,1.0275048,0.8394693,-0.16983046,0.078477144,0.5101864,-0.8190237,0.88714504,0.7779497,1.0,0.0,0.0,0.0,0.0,0.0,0.0,-2.397616,0.18486938,-1.0066874,0.13484955,-1.527214,-1.1483073,2.1693945,-3.4079075,0.119161606,4.4734745
5.8716197,38.773155,8.214698,8.902126,-0.13805258,-0.7096664,0.11318175,-0.80613554,0.74131685,0.2724253,0.4488649,0.45274794,0.6735955,0.29606542,1.1933224,-0.5455596,-1.7397546,-0.7133754,2.2823267,1.4373229,-0.9904607,1.2595507,-0.60620725,-1.7614372,-0.75038165,2.244296,1.3748575,-1.0204487,-1.4386953,1.3434849,0.54715914,0.7927607,0.71399426,0.4898447,-0.02654011,1.711834,-0.5871124,1.5665983,-3.5772583,-0.22406685,0.9662932,0.11284256,-0.43373108,1.0351111,0.84095407,-0.18003102,0.07877201,0.50416255,-0.7948106,0.89634174,0.7478687,1.0,0.0,0.0,0.0,0.0,0.0,0.0,-2.361834,0.18711242,-1.0165982,-0.043463707,-1.9470215,-3.5676003,1.8914938,-4.071176,0.16171932,4.630079
7.263072,31.73307,5.8352685,5.4479733,-0.47888073,-1.0904527,0.12855098,-0.79783934,0.72320986,0.2167895,0.4195498,0.39186478,0.6700323,0.37367976,1.1797668,-0.53388625,-1.7397583,-0.70842665,2.2834826,1.4418608,-0.9830807,1.2451998,-0.5929693,-1.7564857,-0.74250907,2.25101,1.3797556,-1.0203438,-1.4339781,1.3174078,0.47795475,0.7851599,0.65785486,0.4903834,0.02245424,1.6760902,-0.58935547,1.5755175,-3.5736818,-0.22384283,0.8671411,0.10511017,-0.4248581,1.0423243,0.84228987,-0.18995768,0.07954999,0.49813205,-0.7568691,0.8933178,0.70574003,1.0,0.0,0.0,0.0,0.0,0.0,0.0,-2.3260903,0.18935546,-1.0255175,0.44226646,-2.5693655,-6.856942,-0.87629557,-5.5148244,0.295794,4.814319
9.5384,26.53199,4.2640862,1.5436592,-0.81844926,-1.426492,0.20765409,-0.80143934,0.7032379,0.1886511,0.36324042,0.33974284,0.66282624,0.44325358,1.1650559,-0.52264553,-1.7376206,-0.70618504,2.284984,1.4460382,-0.9760184,1.2308775,-0.5800365,-1.7522762,-0.73503035,2.2570906,1.3846556,-1.0197468,-1.4315817,1.285425,0.4019336,0.735106,0.5918349,0.49101004,0.0719006,1.6403809,-0.5915985,1.583446,-3.570109,-0.22361903,0.76808816,0.09786606,-0.41607666,1.0490363,0.8434846,-0.1994241,0.080926254,0.49215317,-0.70407665,0.8802384,0.6531917,1.0,0.0,0.0,0.0,0.0,0.0,0.0,-2.290381,0.1915985,-1.0334461,0.22313595,-3.1529427,-7.544303,-5.1264763,-6.51865,0.38467646,4.8686147
12.501588,20.653389,2.5984254,-3.0011783,-1.1497228,-1.8244996,0.29914838,-0.7949562,0.67744994,0.14067572,0.29059094,0.2984449,0.6573517,0.48898777,1.1513819,-0.51229155,-1.7382087,-0.70597124,2.286935,1.4503908,-0.970848,1.2166029,-0.56747854,-1.7488945,-0.7283899,2.2624998,1.3895613,-1.018673,-1.4259821,1.2460576,0.3169264,0.6399589,0.52398956,0.49183834,0.11916787,1.6047058,-0.5938263,1.5903847,-3.5665395,-0.22339545,0.66913426,0.09126663,-0.40751648,1.0551381,0.8445346,-0.20823292,0.082971,0.48632935,-0.6351578,0.8537086,0.5898919,1.0,0.0,0.0,0.0,0.0,0.0,0.0,-2.254706,0.19382629,-1.0403848,0.5786419,-3.8789272,-8.473862,-9.6313715,-6.7184687,0.48376322,4.660225
13.66111,18.660473,2.1472335,-4.6382666,-1.2305019,-2.007298,0.3454015,-0.7919141,0.65604526,0.11014816,0.23643087,0.25946757,0.65685344,0.5226109,1.1374115,-0.501874,-1.7378796,-0.70474684,2.2884467,1.4552467,-0.9664118,1.2023932,-0.55533445,-1.7463138,-0.722851,2.2672453,1.3944765,-1.0171509,-1.419221,1.204063,0.23860805,0.5249189,0.45815164,0.49267462,0.16289899,1.5690689,-0.5960541,1.5963346,-3.5629737,-0.2231721,0.5702793,0.08540344,-0.39927673,1.060592,0.8454398,-0.21628284,0.085684076,0.48074055,-0.56099695,0.8205126,0.5253444,1.0,0.0,0.0,0.0,0.0,0.0,0.0,-2.219069,0.19605407,-1.0463345,0.72066784,-4.1343927,-7.8263493,-11.603808,-6.5328417,0.49105287,4.3107452
13.61635,19.482367,2.5666428,-4.0958943,-1.0863934,-2.0406895,0.35653687,-0.78542465,0.63756317,0.084371805,0.19166027,0.24851348,0.6479363,0.5415196,1.1238507,-0.49157813,-1.7378767,-0.7036849,2.2920966,1.4592701,-0.9629989,1.1882693,-0.54359853,-1.7444179,-0.7184507,2.2714376,1.3993899,-1.0152283,-1.4099201,1.163661,0.17301032,0.41141716,0.40665993,0.49213913,0.20179644,1.5334663,-0.59828186,1.6012967,-3.5594115,-0.22294897,0.47152317,0.08024979,-0.39138794,1.0654378,0.84620184,-0.22357896,0.08897679,0.4754345,-0.4902621,0.78570414,0.4662569,1.0,0.0,0.0,0.0,0.0,0.0,0.0,-2.1834664,0.19828185,-1.0512967,0.98958015,-3.9721966,-6.5696387,-11.432493,-5.106914,0.3117144,3.8280158
11.406394,22.501118,3.4789252,-0.8540602,-0.8225509,-1.8926009,0.28381974,-0.7827368,0.62233365,0.06385107,0.17445615,0.19736193,0.64666677,0.55003196,1.1099956,-0.48136517,-1.7380328,-0.7010051,2.291174,1.4640565,-0.9602251,1.174235,-0.5322298,-1.7430656,-0.7149765,2.2751036,1.4042917,-1.0129566,-1.4013268,1.1282045,0.12257944,0.3257782,0.35340136,0.4906493,0.23519179,1.4978981,-0.60050964,1.6052719,-3.555853,-0.22272606,0.3728658,0.075733185,-0.38375854,1.0697728,0.846844,-0.23022938,0.092771225,0.47036493,-0.4309022,0.75635374,0.41840175,1.0,0.0,0.0,0.0,0.0,0.0,0.0,-2.1478982,0.20050964,-1.0552719,0.90663433,-3.4796,-5.0584555,-8.640438,-5.2739677,0.14475584,3.2754183
6.5123425,22.337791,3.315455,4.100917,-0.3784684,-1.73403,0.11786194,-0.779516,0.6007559,0.018598938,0.1890943,0.14783524,0.641349,0.56362146,1.0962834,-0.4721542,-1.7412057,-0.69606704,2.2898872,1.4684267,-0.95659447,1.160277,-0.5212101,-1.7422512,-0.71199244,2.278205,1.4091727,-1.0103836,-1.3940039,1.0935227,0.067648895,0.28893292,0.29616266,0.48795357,0.264246,1.462368,-0.6027374,1.6082613,-3.5522976,-0.22250338,0.27430704,0.07166672,-0.37643433,1.0737106,0.8474398,-0.2363813,0.09701935,0.46535668,-0.39111638,0.7293691,0.38182664,1.0,0.0,0.0,0.0,0.0,0.0,0.0,-2.112368,0.20273742,-1.0582614,0.7513523,-3.4044266,-5.527486,-3.7823975,-5.6388617,-0.047653913,2.8364062
2.2233434,20.593803,2.684793,8.081549,-0.0078392625,-1.642131,-0.035556767,-0.7722444,0.57820493,-0.034458444,0.20431784,0.102745734,0.6406849,0.5788878,1.0830525,-0.46338958,-1.745697,-0.6915607,2.2884796,1.4732411,-0.9524948,1.146401,-0.5105461,-1.7420928,-0.7090637,2.2807112,1.414025,-1.0075474,-1.3854725,1.0575657,-0.0016011321,0.29378936,0.23592697,0.48491138,0.28985903,1.4268723,-0.6049652,1.610266,-3.548746,-0.22228092,0.17584684,0.06785965,-0.36936188,1.0773393,0.84807277,-0.242151,0.10169248,0.46021086,-0.36769688,0.7024426,0.35307604,1.0,0.0,0.0,0.0,0.0,0.0,0.0,-2.0768723,0.2049652,-1.060266,0.8522272,-3.534937,-6.978708,0.36532283,-5.9101076,-0.1275897,2.486372
-2.2098312,16.512857,1.5455264,11.705004,0.31348872,-1.5651914,-0.18993829,-0.7663199,0.5424793,-0.072510384,0.24301367,-0.0027812684,0.6426423,0.58649546,1.069769,-0.45629817,-1.7493439,-0.68476236,2.280433,1.4782891,-0.94889784,1.1326185,-0.50031793,-1.742665,-0.7057764,2.2824202,1.4188505,-1.0044804,-1.3759913,1.0114484,-0.0760368,0.33982226,0.14954564,0.48208305,0.31194773,1.3914108,-0.607193,1.6112866,-3.545198,-0.22205868,0.07748509,0.064193726,-0.3625641,1.0807176,0.84882176,-0.2476397,0.106806844,0.45471802,-0.3596919,0.6742045,0.3295542,1.0,0.0,0.0,0.0,0.0,0.0,0.0,-2.041411,0.20719299,-1.0612867,0.93889236,-4.555607,-7.5212674,4.466587,-8.500552,-0.13467073,2.1275878
-2.918528,10.77311,0.29849625,11.091292,0.30479193,-1.6614628,-0.19432385,-0.75875515,0.4939636,-0.08182414,0.23639221,-0.13293912,0.64045036,0.5889492,1.056743,-0.45092157,-1.7508475,-0.6821372,2.2691262,1.4828956,-0.9455854,1.1189467,-0.49068484,-1.7438533,-0.7020456,2.2829962,1.4236475,-1.0012188,-1.3643253,0.9474645,-0.1335889,0.38382095,0.027739266,0.4796456,0.3306092,1.3559875,-0.6094055,1.6113244,-3.5416536,-0.22183667,-0.020778326,0.06059265,-0.35609436,1.0838305,0.849711,-0.252846,0.11240433,0.44880423,-0.35201406,0.63960284,0.30225927,1.0,0.0,0.0,0.0,0.0,0.0,0.0,-2.0059876,0.20940551,-1.0613244,1.1902332,-6.3415766,-5.8601484,4.2803946,-12.0478,-0.075262785,1.7844439
1.3486347,9.011203,0.40817618,6.2460556,-0.072794676,-1.8571758,-0.0049778484,-0.75600094,0.4522092,-0.05062673,0.16726437,-0.23842092,0.63424134,0.5722941,1.0433465,-0.44546393,-1.748916,-0.6853192,2.259154,1.4870716,-0.9439894,1.1053797,-0.48177227,-1.7452781,-0.69829005,2.2822065,1.4284216,-0.99780655,-1.3538022,0.87267804,-0.14585944,0.37251213,-0.11447597,0.47737223,0.34443167,1.3205986,-0.61161804,1.6103803,-3.5381126,-0.22161488,-0.11894349,0.057209015,-0.3500061,1.0865998,0.85066867,-0.25766155,0.11848876,0.4426438,-0.32710257,0.5994662,0.26585862,1.0,0.0,0.0,0.0,0.0,0.0,0.0,-1.9705986,0.21161804,-1.0603802,1.116705,-7.417786,-1.3114184,-1.2051761,-14.145443,-0.018537045,1.3045073
3.565209,6.504779,0.24083912,3.296784,-0.2313245,-1.9906094,0.123062685,-0.75232077,0.4013997,-0.024723433,0.1359219,-0.3520722,0.6450318,0.5666601,1.0301477,-0.4416323,-1.7477505,-0.68469787,2.2469993,1.4929248,-0.94114053,1.0919081,-0.47368988,-1.7465427,-0.6949102,2.2798872,1.4331862,-0.99428177,-1.344589,0.7869864,-0.12027019,0.32636464,-0.2707624,0.47669083,0.3549476,1.285244,-0.61383057,1.6084553,-3.5345752,-0.2213933,-0.21701051,0.054138184,-0.34438324,1.0889591,0.85162157,-0.2619927,0.12503071,0.43642628,-0.29407805,0.55328643,0.22365098,1.0,0.0,0.0,0.0,0.0,0.0,0.0,-1.935244,0.21383056,-1.0584552,1.0116816,-8.5060005,2.4851532,-4.6618223,-15.588498,0.15056133,0.97230077
3.0993512,-4.576601,-2.639729,-0.054292917,-0.2815772,-2.3494065,0.16202468,-0.7500756,0.33103117,-0.052360762,0.08065864,-0.44926864,0.6575862,0.5537231,1.0169005,-0.44058678,-1.7517787,-0.68684435,2.2349603,1.4989448,-0.9389095,1.0785147,-0.46660456,-1.7476223,-0.69225615,2.2760038,1.4379545,-0.99067783,-1.3371891,0.6826007,-0.10416624,0.24488837,-0.4276193,0.47775176,0.36190024,1.2499237,-0.6160431,1.6055504,-3.5310414,-0.22117196,-0.31497952,0.05141449,-0.3393631,1.0908043,0.8525812,-0.2656642,0.1320019,0.4302363,-0.25870457,0.48471516,0.16941687,1.0,0.0,0.0,0.0,0.0,0.0,0.0,-1.8999237,0.21604308,-1.0555503,0.8755684,-10.368776,1.488024,-8.186984,-15.640992,0.33978224,0.6017685
-1.5305774,-29.829329,-8.31278,-2.078278,0.48562357,-2.801321,0.17959587,-0.7393953,0.18732247,-0.012221924,0.04265415,-0.4956577,0.6650806,0.5466588,1.0045751,-0.4478723,-1.7488444,-0.6879907,2.226438,1.5044626,-0.93601197,1.0652243,-0.4610189,-1.7484004,-0.6904966,2.270732,1.4427401,-0.9870224,-1.3255787,0.5175089,-0.06969619,0.15282398,-0.5597707,0.47953004,0.3663744,1.2146378,-0.6182556,1.6016666,-3.5275111,-0.22095083,-0.41285056,0.048870087,-0.3353424,1.091995,0.8535876,-0.26851296,0.13909641,0.42419448,-0.24796934,0.37494403,0.10061152,1.0,0.0,0.0,0.0,0.0,0.0,0.0,-1.8646377,0.21825561,-1.0516665,1.3834238,-16.43393,3.2138257,-9.244808,-13.129747,0.3926158,0.33652782
-9.837817,-68.53916,-16.27593,-2.6309364,2.1028001,-3.278216,0.19648978,-0.7152235,-0.04063617,0.10818915,0.029762385,-0.5035797,0.666312,0.5312588,0.99370193,-0.4650825,-1.7375815,-0.6875204,2.2203739,1.5093713,-0.93389654,1.0521494,-0.45789084,-1.7483242,-0.6895277,2.2644491,1.4475409,-0.9833422,-1.3004099,0.24476178,0.032202955,0.07815456,-0.6507954,0.4804658,0.36816445,1.17939,-0.62046814,1.5968047,-3.5239844,-0.22072992,-0.51062375,0.046051025,-0.33283997,1.0923777,0.8546679,-0.27047905,0.14558741,0.41855457,-0.29041356,0.20981354,0.016315224,1.0,0.0,0.0,0.0,0.0,0.0,0.0,-1.8293899,0.22046813,-1.0468047,2.8573751,-27.207586,9.822758,-7.50083,-8.967627,0.21401644,0.066411495
-17.587334,-102.36494,-23.525152,-2.9183364,3.3510394,-3.6836755,0.16208543,-0.6852006,-0.27081662,0.18965991,0.009227163,-0.56487685,0.6687245,0.50326115,0.98362935,-0.4849725,-1.7293582,-0.68860495,2.2079613,1.5144134,-0.93301606,1.0394408,-0.45817742,-1.7469261,-0.68916625,2.2573614,1.4523398,-0.9796696,-1.2594507,-0.11965983,0.17418818,0.02205543,-0.7275535,0.47950688,0.36650583,1.1441765,-0.62268066,1.5909659,-3.520461,-0.22050923,-0.6082992,0.042469025,-0.3323288,1.0918077,0.8558863,-0.27152514,0.1508315,0.41350025,-0.3782671,-0.0008444126,-0.08202764,1.0,0.0,0.0,0.0,0.0,0.0,0.0,-1.7941765,0.22268066,-1.0409658,4.498744,-36.40561,13.805824,-5.635179,-7.54838,-0.16901493,-0.27036667
-18.585844,-109.13795,-24.529509,-2.445197,3.807739,-3.695742,0.16637823,-0.6177687,-0.44789034,0.24484152,0.0014475405,-0.5909201,0.6619724,0.46713924,0.9776639,-0.50296646,-1.7224419,-0.68902147,2.1982694,1.518537,-0.9329556,1.0273997,-0.46229443,-1.7440689,-0.6891939,2.2496367,1.457112,-0.97604084,-1.1844903,-0.5091124,0.32199544,-0.011006171,-0.7871948,0.4752678,0.36141294,1.1089973,-0.6248779,1.5841509,-3.5169413,-0.22028877,-0.705877,0.037891388,-0.33396912,1.0902504,0.8572642,-0.27171975,0.15446527,0.40915394,-0.48312303,-0.21691008,-0.18051521,1.0,0.0,0.0,0.0,0.0,0.0,0.0,-1.7589973,0.22487792,-1.0341508,7.837796,-38.94741,14.516771,-3.3097453,-5.9104443,-0.74111223,-0.56180954
-21.83507,-92.001724,-20.394266,6.578882,4.241847,-2.9897873,-0.04970974,-0.5895717,-0.58075136,0.30660427,0.09450269,-0.62043124,0.67443675,0.40047768,0.9684425,-0.5203696,-1.7134085,-0.67974365,2.1875935,1.5245557,-0.9359931,1.0161444,-0.4700335,-1.7397926,-0.68894976,2.241397,1.461846,-0.9725046,-1.1048784,-0.86224645,0.4619885,0.036579512,-0.83625036,0.4713375,0.35124823,1.0738564,-0.6270752,1.5763611,-3.513425,-0.22006853,-0.80335724,0.032146454,-0.33746338,1.0878814,0.8588202,-0.27140793,0.15641674,0.40533856,-0.60791224,-0.3912439,-0.25602114,1.0,0.0,0.0,0.0,0.0,0.0,0.0,-1.7238563,0.22707519,-1.026361,8.286738,-35.332237,13.724953,4.876435,-4.8619747,-0.8114934,-0.92098117
-9.146868,-67.28573,-14.812016,-0.61025524,2.706578,-2.9118876,0.18377659,-0.5047618,-0.6886114,0.31439462,-0.047791462,-0.65682214,0.6799821,0.32050052,0.9656682,-0.53889465,-1.7083532,-0.6937289,2.1757147,1.5298442,-0.94045454,1.0058943,-0.48080572,-1.7344444,-0.6887981,2.2326841,1.4665438,-0.96912766,-0.99837947,-1.1490363,0.5594168,0.008192386,-0.88359386,0.46752042,0.33345163,1.0387459,-0.62927246,1.567597,-3.5099123,-0.2198485,-0.90074,0.025562286,-0.3425064,1.0847263,0.86048484,-0.27059114,0.15696587,0.40212923,-0.6761566,-0.5404795,-0.33622763,1.0,0.0,0.0,0.0,0.0,0.0,0.0,-1.6887459,0.22927245,-1.017597,10.699701,-28.729868,9.836698,-2.7871919,-4.843664,-0.8852601,-1.7124474
14.140584,-19.075403,-2.223924,-9.782531,0.72744197,-2.4829443,0.6846808,-0.3640276,-0.7332734,0.43039417,-0.15972163,-0.6674384,0.67336,0.25904825,0.96949154,-0.55413306,-1.6914049,-0.70477027,2.1659403,1.5338798,-0.9432228,0.9971389,-0.49370655,-1.7279232,-0.6895363,2.2235632,1.4712034,-0.96596813,-0.835946,-1.3374039,0.6850716,-0.101708174,-0.922718,0.46403253,0.3101683,1.0036736,-0.6314697,1.5578599,-3.5064032,-0.21962869,-0.9980255,0.018947601,-0.34864807,1.0808554,0.86196697,-0.26932445,0.15640959,0.4000164,-0.65992284,-0.6331282,-0.40573823,1.0,0.0,0.0,0.0,0.0,0.0,0.0,-1.6536735,0.23146972,-1.00786,15.840769,-18.932175,13.202417,-11.143789,-4.213321,-0.81006885,-2.3245692
22.362116,11.428791,4.039432,-11.598371,-0.48406965,-2.1911702,0.7483047,-0.34026822,-0.75959516,0.4089283,-0.24476092,-0.6504476,0.6656008,0.17097428,0.9631121,-0.5696661,-1.6870303,-0.7140124,2.1585183,1.5377635,-0.9488707,0.98985094,-0.507819,-1.7205284,-0.6917507,2.214198,1.4758326,-0.9630928,-0.6947367,-1.4363098,0.7600754,-0.26198146,-0.94198865,0.46135455,0.2798094,0.96863556,-0.633667,1.5471506,-3.5028975,-0.21940911,-1.0952137,0.012828827,-0.35544586,1.0763656,0.8631514,-0.26760802,0.15514997,0.39910418,-0.5994998,-0.6897683,-0.46559954,1.0,0.0,0.0,0.0,0.0,0.0,0.0,-1.6186355,0.23366699,-0.9971506,13.628864,-10.011721,8.169699,-16.228195,-2.2426248,-0.623852,-3.0750215
23.711767,29.648697,6.924483,-10.421819,-1.1560811,-2.0083375,0.6568116,-0.31984255,-0.7717749,0.36187592,-0.33463275,-0.62448627,0.6559784,0.10372376,0.95786667,-0.58499646,-1.6843407,-0.725214,2.1517494,1.5414305,-0.9527204,0.9836835,-0.5224188,-1.71292,-0.6957523,2.2048101,1.4804369,-0.96054935,-0.5921066,-1.46826,0.76244545,-0.4467189,-0.93874127,0.4593476,0.2456311,0.9336319,-0.63586426,1.5354702,-3.4993954,-0.21918975,-1.1923046,0.0074539185,-0.36263275,1.0713378,0.86408234,-0.2653663,0.15359658,0.3991874,-0.5188294,-0.72452956,-0.5176995,1.0,0.0,0.0,0.0,0.0,0.0,0.0,-1.5836319,0.23586425,-0.98547024,9.867716,-3.3100367,0.691998,-18.619377,0.08281469,-0.4489839,-3.4623384
19.45746,34.822468,6.445104,-7.4334197,-1.3797234,-1.9670528,0.4556327,-0.30879015,-0.77650607,0.27088523,-0.4213467,-0.60122216,0.64620626,0.06595626,0.9528045,-0.6000694,-1.6858314,-0.73788697,2.144688,1.5450575,-0.95395374,0.97821707,-0.53704053,-1.7059581,-0.70161456,2.1955786,1.4850203,-0.9583473,-0.53227943,-1.4605297,0.6749778,-0.6329448,-0.91868764,0.45738408,0.21157928,0.8986664,-0.6380615,1.5228196,-3.4958968,-0.21897061,-1.2892985,0.0028915405,-0.37013245,1.0658092,0.86489797,-0.2624614,0.15211608,0.39990765,-0.4380054,-0.7535101,-0.5671407,1.0,0.0,0.0,0.0,0.0,0.0,0.0,-1.5486664,0.23806152,-0.9728196,5.752063,0.6810188,-8.5301285,-18.665552,1.832068,-0.387156,-3.4491568
19.311993,41.312153,7.865385,-5.687551,-1.4195414,-1.8056915,0.4341477,-0.2566582,-0.77891934,0.26313367,-0.49527985,-0.6057563,0.64619833,0.102098085,0.95255125,-0.6149325,-1.6796447,-0.75114256,2.1350029,1.54964,-0.9481375,0.9733028,-0.55146676,-1.699969,-0.70921534,2.1865416,1.4895884,-0.95642185,-0.47838572,-1.4368868,0.5736152,-0.80244905,-0.89905834,0.4563597,0.18606548,0.8637314,-0.64024353,1.5091999,-3.4924016,-0.21875168,-1.3861955,-0.000869751,-0.37784576,1.0598311,0.86562693,-0.25889704,0.15086952,0.40112433,-0.35674453,-0.77164936,-0.6107192,1.0,0.0,0.0,0.0,0.0,0.0,0.0,-1.5137314,0.24024352,-0.95919985,5.228895,2.3088932,-10.077799,-16.956425,1.8654943,-0.23583174,-2.5613933
16.961962,39.44695,6.935547,-3.8501668,-1.347736,-1.811266,0.3509432,-0.21204987,-0.77835536,0.15758067,-0.5487095,-0.618108,0.6445039,0.19174641,0.9520978,-0.6293023,-1.684211,-0.7640863,2.1247308,1.5540388,-0.9372472,0.968954,-0.5656479,-1.6953208,-0.71827143,2.1776304,1.4941489,-0.9546499,-0.42082766,-1.4119153,0.42870682,-0.93993676,-0.88868606,0.45544833,0.17418402,0.82883453,-0.64242554,1.4946119,-3.48891,-0.21853298,-1.4829956,-0.0038757324,-0.38575745,1.0534213,0.86630213,-0.25466853,0.14998035,0.4027037,-0.28180188,-0.7919726,-0.6538168,1.0,0.0,0.0,0.0,0.0,0.0,0.0,-1.4788345,0.24242553,-0.94461185,5.626929,2.4629593,-14.454031,-13.7267,0.9466529,-0.22721887,-1.2032956
19.53182,37.549976,6.5459795,-4.8580213,-1.375971,-1.9270184,0.35608035,-0.11305469,-0.7794464,0.04235867,-0.5863007,-0.60766745,0.6422379,0.25309882,0.9576486,-0.64359254,-1.691085,-0.7769015,2.1168637,1.5583726,-0.92934006,0.96549505,-0.5796345,-1.6924007,-0.72842425,2.1688147,1.4986998,-0.9529228,-0.32162088,-1.3943173,0.24687003,-1.0405092,-0.879502,0.45424718,0.17206915,0.793972,-0.64460754,1.4790566,-3.485422,-0.2183145,-1.5796989,-0.0061073303,-0.3939209,1.0465717,0.86692345,-0.24977742,0.14946957,0.4046156,-0.20487091,-0.8189111,-0.69825065,1.0,0.0,0.0,0.0,0.0,0.0,0.0,-1.443972,0.24460754,-0.9290566,9.702015,1.741147,-18.044737,-10.079646,0.8361101,-0.2853632,-0.24536848
19.695616,29.12407,3.9470055,-5.7686486,-1.3580115,-2.1787581,0.2884937,-0.02928363,-0.78762925,-0.13396242,-0.6123949,-0.60093933,0.6390515,0.30558953,0.9625667,-0.65839744,-1.705797,-0.78966373,2.1087208,1.5626049,-0.9223639,0.9632692,-0.5935486,-1.6917655,-0.73932475,2.160079,1.5032316,-0.95116425,-0.19048993,-1.3905039,0.00337446,-1.1066437,-0.8717122,0.45193493,0.17679393,0.7591438,-0.64678955,1.462535,-3.4819372,-0.21809623,-1.6763055,-0.0076026917,-0.40248108,1.0392208,0.86753327,-0.24414423,0.14935698,0.4067827,-0.13072388,-0.86290485,-0.750725,1.0,0.0,0.0,0.0,0.0,0.0,0.0,-1.4091438,0.24678954,-0.912535,12.83066,0.35395622,-24.051355,-6.6550255,0.64058304,-0.4877746,0.38817525
12.326074,23.873003,2.3678107,-1.2890526,-0.8366461,-2.013731,0.15569079,-0.03874345,-0.7902733,-0.2169238,-0.6368758,-0.60126114,0.6419362,0.34393778,0.9593948,-0.67257595,-1.713458,-0.8030123,2.099953,1.5674253,-0.91677046,0.9620828,-0.60748845,-1.693505,-0.7507097,2.1514006,1.5077425,-0.9493246,-0.09508876,-1.395255,-0.23224533,-1.1488945,-0.8670818,0.44991186,0.1860671,0.72435,-0.64897156,1.4450481,-3.478456,-0.21787818,-1.7728156,-0.008529663,-0.4114914,1.0313417,0.86819416,-0.23775753,0.14963634,0.40904647,-0.07970153,-0.9069072,-0.8043446,1.0,0.0,0.0,0.0,0.0,0.0,0.0,-1.37435,0.24897155,-0.8950481,9.3904,-0.51219463,-23.341787,-4.1869164,0.28835535,-0.4737258,0.85642636
-2.528904,22.20735,1.9095169,8.087131,0.1461311,-1.453762,-0.0217911,-0.13078082,-0.78912467,-0.23006278,-0.66916627,-0.5994039,0.6429268,0.38719273,0.9490047,-0.6864009,-1.7165114,-0.81762636,2.0914602,1.5720352,-0.9106053,0.961111,-0.6214903,-1.6970718,-0.76246375,2.1427565,1.51224,-0.947361,-0.09749929,-1.4020174,-0.39825898,-1.1835754,-0.86469364,0.4488104,0.19975467,0.68959045,-0.65115356,1.4265968,-3.4749782,-0.21766035,-1.8692292,-0.009273529,-0.42079926,1.0229801,0.86896867,-0.23072001,0.15026267,0.41119677,-0.07057504,-0.93472904,-0.8516196,1.0,0.0,0.0,0.0,0.0,0.0,0.0,-1.3395904,0.25115356,-0.87659675,-0.1035437,-0.73201656,-16.599386,-3.2716036,-0.010681152,-0.32761693,1.3538748
-6.3680377,29.92709,5.171521,12.483751,0.7206203,-0.9104543,0.017513037,-0.13450015,-0.79162335,-0.19905338,-0.6919482,-0.5881106,0.6417508,0.3974735,0.947661,-0.70065266,-1.7169771,-0.83165854,2.0839455,1.5764152,-0.90761364,0.9598283,-0.6355646,-1.7015407,-0.77454203,2.134162,1.5167319,-0.9452572,-0.13767199,-1.4092947,-0.46389657,-1.215254,-0.85852545,0.44897798,0.21420315,0.6548691,-0.6533356,1.407182,-3.471504,-0.21744274,-1.9655463,-0.010051727,-0.43024445,1.0142407,0.8697945,-0.22327027,0.15105551,0.41326767,-0.07909039,-0.93919617,-0.8867393,1.0,0.0,0.0,0.0,0.0,0.0,0.0,-1.304869,0.25333557,-0.85718197,-3.7852197,-0.76839924,-6.775701,-2.942896,0.45273304,-0.09287596,1.517275
-7.054295,40.930504,9.551732,15.691414,1.0566155,-0.3869024,0.08053634,-0.1492297,-0.7905617,-0.14870057,-0.696723,-0.6156415,0.6534252,0.41559732,0.94490534,-0.71462077,-1.7164108,-0.8442143,2.0725977,1.5820744,-0.90369743,0.95802015,-0.6496876,-1.70596,-0.7868635,2.1255445,1.5212427,-0.9430046,-0.19429512,-1.4134231,-0.43615898,-1.2371368,-0.8629308,0.45197022,0.22954735,0.6201782,-0.6555023,1.3868048,-3.468033,-0.21722533,-2.061767,-0.010967255,-0.43950653,1.0052701,0.8705501,-0.21571994,0.15184654,0.4153915,-0.09489665,-0.9179244,-0.90618885,1.0,0.0,0.0,0.0,0.0,0.0,0.0,-1.2701782,0.2555023,-0.8368048,-5.403724,-0.42169094,2.3559988,-1.9771814,-0.46491623,0.33570528,1.6892821
-3.5045521,50.405323,13.326269,16.062769,1.1072509,-0.13215381,0.1496384,-0.13948873,-0.7879668,-0.124589965,-0.6927107,-0.6146906,0.6539803,0.41195253,0.9440713,-0.7284843,-1.7184191,-0.8561346,2.0640755,1.5866407,-0.90180933,0.9557714,-0.66381913,-1.7097576,-0.79930323,2.1168852,1.5257899,-0.94061184,-0.23446205,-1.4130192,-0.36291543,-1.2456802,-0.8668831,0.45624742,0.24309732,0.5855255,-0.65766907,1.3654661,-3.4645658,-0.21700814,-2.1578915,-0.012004852,-0.4484558,0.9961973,0.8711307,-0.20831959,0.15250465,0.4177039,-0.106277406,-0.88136226,-0.9131688,1.0,0.0,0.0,0.0,0.0,0.0,0.0,-1.2355255,0.25766906,-0.8154661,-3.809464,0.06887913,6.7928734,-0.6949663,-0.27350187,0.57898164,1.5641004
-4.7918496,46.07008,11.3641205,15.757823,1.0035859,-0.33436525,0.05109061,-0.15117863,-0.7882068,-0.22395675,-0.69100946,-0.6167896,0.64658266,0.4138065,0.9406535,-0.74263984,-1.7321533,-0.86840415,2.0552063,1.5904481,-0.8992312,0.9532022,-0.6779364,-1.7132957,-0.81175536,2.1081762,1.5303694,-0.9381008,-0.26370648,-1.4112071,-0.35225108,-1.2444603,-0.8718943,0.45896405,0.254255,0.5509033,-0.6598358,1.343167,-3.461102,-0.21679118,-2.2539198,-0.013156891,-0.45713806,0.9870113,0.8715874,-0.20101182,0.15309864,0.4201076,-0.11702854,-0.8565993,-0.92552984,1.0,0.0,0.0,0.0,0.0,0.0,0.0,-1.2009033,0.2598358,-0.79316694,-2.7334154,0.19512177,0.66177845,0.30009747,-0.46479702,0.368011,1.2770176
0.22948235,44.60929,10.754086,12.1276245,0.60640323,-0.5840427,0.100866795,-0.12399069,-0.7889168,-0.25953612,-0.70415694,-0.6229363,0.6483265,0.4387643,0.9408031,-0.75682807,-1.7392493,-0.88217103,2.0458827,1.5952021,-0.8942244,0.95058054,-0.69203645,-1.7170532,-0.8242275,2.09941,1.5349718,-0.93547726,-0.2612809,-1.4095279,-0.3846258,-1.2476517,-0.87830466,0.4607439,0.2655586,0.5163193,-0.66200256,1.3199081,-3.4576416,-0.21657443,-2.349852,-0.014293671,-0.46564484,0.97764266,0.87194324,-0.19365975,0.15370867,0.42259264,-0.11290999,-0.84224904,-0.9455025,1.0,0.0,0.0,0.0,0.0,0.0,0.0,-1.1663193,0.26200256,-0.76990813,0.3593266,0.18281937,-3.5459638,-0.17426014,-0.61626434,0.21407008,1.2535036
1.9197285,41.28286,9.470655,10.199333,0.42034447,-0.7714869,0.09372766,-0.11727051,-0.79238284,-0.30445698,-0.70738906,-0.62383807,0.642261,0.4298209,0.9388535,-0.77127475,-1.7474989,-0.8949664,2.0370262,1.599198,-0.89249516,0.94809717,-0.70614034,-1.7214077,-0.83674353,2.0905828,1.53958,-0.9327612,-0.2437472,-1.4106195,-0.45328027,-1.2524529,-0.8841287,0.46081272,0.2739697,0.48176956,-0.6641693,1.2956908,-3.4541845,-0.2163579,-2.4456885,-0.015350342,-0.4740982,0.96801585,0.87222046,-0.1861315,0.15438633,0.42514852,-0.10300795,-0.8378746,-0.97319216,1.0,0.0,0.0,0.0,0.0,0.0,0.0,-1.1317695,0.2641693,-0.74569076,1.8395483,-0.10457039,-7.0867896,-0.33750534,-0.60179234,-0.02220273,0.9314358
-0.5422671,38.7085,8.318906,10.785118,0.4855035,-0.7930517,0.04341895,-0.13249494,-0.7913959,-0.35077268,-0.707537,-0.6214165,0.64593893,0.44089732,0.93484765,-0.7852799,-1.7564849,-0.9074972,2.0284412,1.6041739,-0.88867146,0.945733,-0.7202557,-1.7266071,-0.8493015,2.0817137,1.5441881,-0.929965,-0.2336924,-1.4118521,-0.5426924,-1.2563874,-0.88798046,0.46052015,0.2816983,0.44725418,-0.66633606,1.2705158,-3.450731,-0.2161416,-2.541429,-0.016345978,-0.48251343,0.9580795,0.87245977,-0.1783347,0.15516856,0.42770717,-0.097789034,-0.83781606,-1.0052869,1.0,0.0,0.0,0.0,0.0,0.0,0.0,-1.0972542,0.26633605,-0.7205158,1.111877,-0.13422966,-9.111988,-0.22497177,-0.4646182,-0.099653006,0.8431792
-5.9912543,32.495247,5.610778,11.90571,0.64036167,-0.85532486,-0.044046566,-0.15670389,-0.79583216,-0.43656483,-0.7196718,-0.6128503,0.63128805,0.43907905,0.93006265,-0.7998389,-1.7702636,-0.9212687,2.0204287,1.607317,-0.88605714,0.94332117,-0.7344044,-1.7329414,-0.8619415,2.0728369,1.5487772,-0.92710495,-0.24309394,-1.4160624,-0.6640186,-1.2657579,-0.8878395,0.45783907,0.28764406,0.41277313,-0.6685028,1.244384,-3.4472811,-0.2159255,-2.637074,-0.017368317,-0.49101257,0.94775426,0.8727353,-0.17012464,0.1560968,0.43014467,-0.103217736,-0.8465548,-1.0466303,1.0,0.0,0.0,0.0,0.0,0.0,0.0,-1.0627731,0.2685028,-0.69438404,-0.7822454,-0.46560764,-12.223172,-0.7071972,-0.18004179,-0.42346716,0.63520074
-7.659857,36.083584,6.921421,13.19927,0.75402516,-0.63418293,-0.03357535,-0.17001887,-0.78984237,-0.44686222,-0.72343653,-0.6268384,0.6467558,0.46344507,0.9263193,-0.81338865,-1.7776276,-0.93428516,2.010153,1.6134528,-0.88076043,0.94072336,-0.74856454,-1.7403171,-0.87468165,2.0639334,1.553353,-0.9241743,-0.26480302,-1.4161199,-0.7625355,-1.2759937,-0.89205146,0.45693317,0.295001,0.37832642,-0.6706543,1.2172966,-3.4438345,-0.21570961,-2.732623,-0.018478394,-0.4995346,0.9370448,0.8730444,-0.16151035,0.15717028,0.43244115,-0.112619855,-0.8466468,-1.0844158,1.0,0.0,0.0,0.0,0.0,0.0,0.0,-1.0283264,0.2706543,-0.6672966,-1.9942522,-0.049090385,-9.976387,-0.79176426,-0.6093502,-0.22426248,0.78575015
-12.481384,37.71467,7.2881775,15.738375,0.9670726,-0.41115248,-0.0842596,-0.20812544,-0.78650403,-0.48701546,-0.72397804,-0.6543835,0.64375246,0.47158098,0.9199108,-0.82721496,-1.7890186,-0.9470795,1.998495,1.6177282,-0.8770162,0.9377441,-0.76270086,-1.7485683,-0.8875038,2.054904,1.5579191,-0.9211712,-0.30828083,-1.4130533,-0.84643817,-1.2834342,-0.90746933,0.4560757,0.30225566,0.34391403,-0.6728058,1.1892544,-3.4403913,-0.21549395,-2.8280768,-0.019748688,-0.50801086,0.9259827,0.87339044,-0.1525302,0.1584165,0.4345431,-0.13177666,-0.8399837,-1.1190977,1.0,0.0,0.0,0.0,0.0,0.0,0.0,-0.993914,0.27280578,-0.6392544,-4.133129,0.25057793,-8.517086,-0.48577785,-1.7708421,-0.21223426,0.7732749
-16.385792,36.63805,6.7845516,17.094152,1.1589923,-0.28876346,-0.11762756,-0.24277727,-0.7916695,-0.5340827,-0.73416793,-0.66217476,0.63336486,0.45763198,0.91346633,-0.8418678,-1.8019766,-0.9609206,1.9886866,1.6212556,-0.875408,0.9342174,-0.7768286,-1.7576053,-0.90042037,2.0456991,1.5624682,-0.9181137,-0.36663383,-1.4130143,-0.9231058,-1.2933896,-0.92572564,0.45409197,0.30714422,0.30953598,-0.6749573,1.1602584,-3.4369516,-0.2152785,-2.9234352,-0.021278381,-0.5164108,0.91456413,0.8737907,-0.14317991,0.1598281,0.43639916,-0.15971895,-0.83198655,-1.1552691,1.0,0.0,0.0,0.0,0.0,0.0,0.0,-0.95953596,0.27495727,-0.6102584,-5.593264,-0.0718832,-7.774329,-0.70228577,-2.1027923,-0.35321116,0.53755045
-24.042192,34.885876,5.904882,20.074486,1.5785507,-0.07255888,-0.18372267,-0.3140793,-0.79664105,-0.5577764,-0.74578476,-0.66152006,0.6145763,0.453355,0.90280944,-0.8564927,-1.813383,-0.97499883,1.9795471,1.6239258,-0.8727782,0.92987627,-0.79098874,-1.7672889,-0.9134657,2.0363379,1.5669848,-0.9150171,-0.45563743,-1.4172564,-0.9837259,-1.3070741,-0.94101554,0.4500761,0.31074935,0.27519226,-0.67710876,1.1303096,-3.4335153,-0.21506327,-3.0186982,-0.023212433,-0.5247116,0.9027836,0.8742782,-0.13345735,0.16134706,0.43794283,-0.20554927,-0.82085377,-1.1915154,1.0,0.0,0.0,0.0,0.0,0.0,0.0,-0.92519224,0.27710876,-0.58030957,-8.6021185,-0.5336046,-6.1490774,-1.0089874,-1.8893361,-0.58615804,0.42383075
-26.173487,32.559875,4.825374,19.98593,1.6530976,-0.058741212,-0.18967974,-0.3493036,-0.8029443,-0.616353,-0.7588327,-0.66791123,0.58871907,0.4497158,0.8949459,-0.8712832,-1.8289242,-0.98934895,1.9695467,1.6258566,-0.87004554,0.9246244,-0.8052233,-1.7776458,-0.92668265,2.0268354,1.5714403,-0.9118929,-0.5473825,-1.4259565,-1.053081,-1.3252108,-0.95441157,0.44316,0.31326315,0.24088287,-0.67926025,1.0994087,-3.4300826,-0.21484825,-3.1138659,-0.02563858,-0.5329132,0.89060014,0.8748707,-0.12330598,0.16293266,0.4391467,-0.2559573,-0.81232876,-1.2332258,1.0,0.0,0.0,0.0,0.0,0.0,0.0,-0.89088285,0.27926025,-0.54940873,-8.86488,-1.0009766,-6.9862843,-1.414299,-1.7472863,-0.93289614,0.3157854
-29.366259,34.86355,5.411456,21.680021,1.8321499,0.13458073,-0.218064,-0.40558076,-0.80014783,-0.6419126,-0.75191087,-0.6896672,0.5869502,0.47232363,0.8840663,-0.88523805,-1.841837,-1.0018737,1.9578687,1.6301353,-0.8646605,0.9184045,-0.81952363,-1.7886436,-0.94001406,2.0171652,1.5758272,-0.90872955,-0.64574826,-1.4319183,-1.1155944,-1.3343525,-0.97237724,0.4365446,0.31756136,0.20660782,-0.68141174,1.067557,-3.4266531,-0.21463345,-3.2089384,-0.028617859,-0.54100037,0.8780286,0.87557006,-0.11273956,0.16457148,0.43998063,-0.31337082,-0.79786086,-1.2713501,1.0,0.0,0.0,0.0,0.0,0.0,0.0,-0.8566078,0.28141174,-0.51755697,-9.522259,-0.74129105,-6.284356,-0.49846172,-2.2299051,-0.90197325,0.4989624
-31.252048,35.91813,5.6389446,22.405039,1.971929,0.25972766,-0.23534502,-0.4573956,-0.80476785,-0.6761647,-0.75266844,-0.69201857,0.57978606,0.45858026,0.8726649,-0.9000004,-1.8562601,-1.015281,1.9479634,1.6338059,-0.8628715,0.9111976,-0.8338869,-1.8002498,-0.9533941,2.0073423,1.5801493,-0.9055357,-0.74465525,-1.4382994,-1.175749,-1.337783,-0.9875033,0.42992842,0.32023355,0.1723671,-0.68356323,1.0347552,-3.423227,-0.21441886,-3.3039157,-0.03220749,-0.5489197,0.8650843,0.8763776,-0.10178628,0.16622281,0.44042224,-0.3758031,-0.780461,-1.3083483,1.0,0.0,0.0,0.0,0.0,0.0,0.0,-0.8223671,0.28356323,-0.48475522,-9.579754,-0.7965088,-6.029129,0.09045601,-1.9642353,-0.91736317,0.34714937
-36.3497,35.42301,5.0913854,23.959976,2.3095565,0.4234586,-0.27069592,-0.5372298,-0.81104857,-0.7032597,-0.76597303,-0.6549576,0.5496242,0.4412394,0.8574746,-0.9149918,-1.8705758,-1.0299914,1.9418466,1.6351117,-0.86141175,0.9028825,-0.84832746,-1.8124168,-0.96683806,1.9975108,1.5843874,-0.9023304,-0.8593206,-1.4466147,-1.2301176,-1.3449674,-0.98371655,0.42084625,0.32096192,0.1381607,-0.68569946,1.0010043,-3.4198046,-0.21420449,-3.3987982,-0.036514282,-0.55664825,0.85176986,0.8773131,-0.090449914,0.16777712,0.44044456,-0.4511336,-0.7604845,-1.3453542,1.0,0.0,0.0,0.0,0.0,0.0,0.0,-0.7881607,0.28569946,-0.45100433,-11.129749,-1.020813,-5.422163,-0.22928715,-0.13504028,-1.2065053,0.18347502
-41.11556,41.013653,6.7945423,26.95176,2.6764627,0.7732371,-0.33032906,-0.6137451,-0.8001548,-0.7099836,-0.74993837,-0.63799214,0.59031385,0.44071007,0.84150803,-0.92834294,-1.8834151,-1.0418319,1.9337115,1.6434188,-0.8582594,0.893321,-0.86278516,-1.8249977,-0.98026484,1.9877967,1.588574,-0.8991194,-0.9872502,-1.4460764,-1.2672483,-1.3403466,-0.969111,0.41698122,0.32151017,0.10398865,-0.6878357,0.9663054,-3.4163854,-0.21399033,-3.4935858,-0.041664124,-0.5641022,0.83816856,0.8783932,-0.078837655,0.16915244,0.43999708,-0.5380448,-0.72869915,-1.3712628,1.0,0.0,0.0,0.0,0.0,0.0,0.0,-0.7539886,0.2878357,-0.41630536,-12.455141,-0.15103817,-3.6844969,0.9593725,0.92248917,-0.66238046,0.19181967
-42.89945,42.168537,6.782322,27.10975,2.801922,0.86509824,-0.3569616,-0.67818666,-0.79863536,-0.7541582,-0.75951827,-0.59284747,0.567819,0.37851188,0.82550234,-0.9426487,-1.9004135,-1.0562167,1.9285119,1.6453559,-0.86126816,0.8824691,-0.8772095,-1.8380096,-0.99367255,1.9783648,1.5927111,-0.8959503,-1.1166923,-1.4420463,-1.3120681,-1.3392423,-0.9364685,0.41162562,0.31591767,0.06985092,-0.6899719,0.93065923,-3.4129698,-0.21377638,-3.5882788,-0.047698975,-0.5712433,0.82430834,0.8796395,-0.066973,0.17026478,0.43904302,-0.6291442,-0.69482976,-1.3970176,1.0,0.0,0.0,0.0,0.0,0.0,0.0,-0.7198509,0.28997192,-0.38065922,-12.608671,0.1821518,-4.4243813,0.63130856,2.6995182,-0.85431933,-0.40284395
-41.990036,43.195477,7.202074,26.693361,2.9018364,0.9211218,-0.375435,-0.7247471,-0.80398005,-0.7841136,-0.74051404,-0.5429352,0.56910217,0.3189094,0.8099944,-0.9576075,-1.9164209,-1.067724,1.9240713,1.6496212,-0.8640594,0.87042993,-0.89161474,-1.8515003,-1.0069848,1.969385,1.5968004,-0.89288044,-1.2319032,-1.4407933,-1.3609316,-1.3268689,-0.8869129,0.40692317,0.3045713,0.035747528,-0.69210815,0.89406693,-3.4095576,-0.21356265,-3.6828768,-0.054660797,-0.57801056,0.81020033,0.881067,-0.054889124,0.17100185,0.43756872,-0.72152805,-0.6599828,-1.4213862,1.0,0.0,0.0,0.0,0.0,0.0,0.0,-0.6857475,0.29210815,-0.34406692,-11.215043,-0.0991106,-4.809952,1.7574549,4.414642,-0.8100331,-0.9545326
-38.431458,47.407887,8.949319,25.5933,2.7563663,1.0052142,-0.3852139,-0.76735514,-0.7959138,-0.8071971,-0.7249596,-0.53407764,0.5658188,0.20348941,0.79369444,-0.9712061,-1.93222,-1.0794808,1.9159772,1.6533823,-0.8725315,0.85737604,-0.905978,-1.8654735,-1.0201074,1.9608706,1.6008478,-0.89000607,-1.3290308,-1.4355087,-1.4091262,-1.3058589,-0.84114,0.4027293,0.2823007,0.0016746521,-0.6942444,0.8565293,-3.4061487,-0.21334913,-3.7773805,-0.062488556,-0.5844269,0.7958791,0.8826717,-0.042644314,0.17133933,0.43556255,-0.8055618,-0.6204498,-1.4414748,1.0,0.0,0.0,0.0,0.0,0.0,0.0,-0.6516746,0.29424438,-0.30652928,-9.4515085,0.32000542,-4.7424793,2.5793552,4.09497,-0.74627995,-2.049172
-31.148775,51.30095,11.274509,22.915781,2.4640098,1.041321,-0.3379572,-0.7899096,-0.7979026,-0.8152634,-0.71229374,-0.5202432,0.5558371,0.077616155,0.7783851,-0.98576826,-1.9469998,-1.0913367,1.9088463,1.6564316,-0.88224447,0.843483,-0.9202625,-1.8801258,-1.0331737,1.9531758,1.6041694,-0.8877588,-1.425749,-1.4173236,-1.5528746,-1.3523656,-0.6774486,0.10589075,0.16485836,-0.02695465,-0.6955185,0.82812685,-1.6412902,0.28015962,0.024181299,-0.071063995,-0.59056854,0.78131366,0.88456595,-0.029898472,0.17104499,0.43288872,-0.8799218,-0.6439357,-1.4837772,1.0,0.0,0.0,0.0,0.0,0.0,0.0,-0.6230453,0.2955185,-0.27812684,-12.115574,3.0912876,-25.02501,-11.381578,28.391874,-59.24333,-19.969038
2.1156645,176.0,110.0,110.0,8.219001,11.219174,-2.211146,-0.7823944,0.49164286,0.69567764,0.58875054,-0.38798746,0.66773903,-0.40711564,0.76524353,-0.8710982,-1.810558,-0.9742986,1.9143771,1.6709433,-0.9284704,0.83183575,-0.9370243,-1.8844057,-1.0341522,1.9369899,1.6103835,-0.8857742,-1.0684971,-1.676215,-0.2184798,0.29058683,-1.7766361,0.86899996,0.23625232,-0.043354034,-0.6927185,0.827632,-1.6396493,0.2798795,-0.07402883,-0.08067703,-0.59443665,0.7706759,0.88650656,-0.024699342,0.1726681,0.42858106,-0.99078315,-0.28312108,-0.9303744,0.0,1.0,0.0,0.0,0.0,0.0,0.0,-0.60664594,0.2927185,-0.277632,38.486767,-4.7683716e-05,83.82613,155.37712,-63.233257,99.05813,15.145672
-73.106575,136.47621,46.040768,92.23071,9.821117,3.4076614,-2.7483854,-0.75827247,-0.72636133,-0.38259062,0.6451654,-0.31632605,0.64339393,-0.50780934,0.7560085,-1.0096605,-1.9226648,-0.9696356,1.9053572,1.6747229,-0.93655515,0.82127,-0.9534494,-1.884524,-1.0247546,1.9198695,1.6192603,-0.88398224,-1.0507109,-1.6318235,0.05781987,1.1586357,-1.692097,0.89723414,0.16305451,-0.05973816,-0.68992615,0.82615584,-1.6380099,0.2795997,-0.17214078,-0.09233475,-0.5966034,0.76364726,0.8893817,-0.025051158,0.17501643,0.42159438,-1.2236763,-0.18821135,-0.63103706,1.0,0.0,0.0,0.0,0.0,0.0,0.0,-0.5902618,0.28992614,-0.27615583,2.3215055,4.2779922,27.889431,87.558495,7.988715,3.8522243,-6.456259
-67.42076,149.86053,41.166523,73.24877,6.982097,2.3368924,-2.0881495,-0.7639016,-0.50659996,-0.34589288,0.6773417,-0.42291465,0.55784297,-0.20797946,0.74487984,-1.0041094,-1.9191133,-0.95702046,1.877578,1.6750447,-0.9047802,0.81026554,-0.96775836,-1.8844401,-1.0097,1.9050552,1.6280227,-0.88269573,-1.1151592,-1.3651129,-0.007964923,1.6233546,-1.4130471,0.870972,0.11800763,-0.076107025,-0.6871338,0.8236993,-1.6363722,0.27932015,-0.27015463,-0.10575485,-0.5978317,0.75904936,0.8933483,-0.02727067,0.17753765,0.41190463,-1.3805557,-0.09160885,-0.40819028,1.0,0.0,0.0,0.0,0.0,0.0,0.0,-0.57389295,0.28713378,-0.27369928,-5.9120655,26.33481,-6.515083,47.192646,27.378536,-2.1327257,-4.229805
-39.327065,121.06904,35.550346,44.338993,4.6876707,1.8140116,-0.96455204,-0.73669744,-0.64895695,0.105246976,0.74399114,-0.5146622,0.6518433,-0.26721454,0.7365958,-1.032654,-1.8739153,-0.9353008,1.8535889,1.693207,-0.9094172,0.7984476,-0.9801571,-1.8839804,-0.9924251,1.8929416,1.636291,-0.8818851,-1.2030747,-1.1993445,0.0647681,1.7635349,-1.1467584,0.81231743,0.069362625,-0.09246063,-0.68434143,0.82025534,-1.6347362,0.2790409,-0.3691357,-0.12018585,-0.5981369,0.7560279,0.897892,-0.030377531,0.17974068,0.4006997,-1.4629292,-0.0013270773,-0.2727813,1.0,0.0,0.0,0.0,0.0,0.0,0.0,-0.55753934,0.28434142,-0.27025533,-8.519936,16.222286,7.5570292,14.437747,25.877905,-5.8197856,-4.6545596
-13.082842,91.555115,26.406078,19.014606,2.023543,0.96664226,-0.14105731,-0.72792596,-0.62561023,0.06376566,0.69220024,-0.49167657,0.6543566,-0.31673986,0.725655,-1.042718,-1.8776038,-0.9232051,1.843774,1.7017267,-0.9135591,0.78589344,-0.99133986,-1.8830401,-0.97549164,1.8830787,1.6439834,-0.88155323,-1.2727647,-1.0921708,0.104950726,1.6702055,-0.93489206,0.7549423,0.021190377,-0.10879898,-0.6815491,0.8158223,-1.6331018,0.27876192,-0.46801782,-0.13488388,-0.5977402,0.7536588,0.9025581,-0.033644076,0.18135975,0.38905716,-1.4719828,0.06304752,-0.23055212,1.0,0.0,0.0,0.0,0.0,0.0,0.0,-0.541201,0.28154907,-0.2658223,-6.9583416,10.450792,4.3477,-9.226537,20.532942,-5.748093,-4.785793
-0.79108953,76.65704,21.047474,7.934125,0.528812,0.45241156,0.21139447,-0.7409924,-0.5635585,0.011431188,0.69289994,-0.50719917,0.6336287,-0.26253885,0.7117942,-1.0476958,-1.881897,-0.90620166,1.8323588,1.7073462,-0.9078071,0.77278996,-1.0016587,-1.8820425,-0.9600774,1.8747264,1.6511416,-0.8816171,-1.3231593,-1.0124764,0.0991017,1.4983855,-0.8037404,0.7030157,-0.015834866,-0.12511444,-0.6787567,0.8104012,-1.631469,0.2784832,-0.5668011,-0.14938354,-0.59685516,0.7513658,0.9070967,-0.036540847,0.1825779,0.377499,-1.4429858,0.10825294,-0.23379026,0.0,1.0,0.0,0.0,0.0,0.0,0.0,-0.52488554,0.2787567,-0.2604012,-5.1299334,7.762623,-0.27228743,-17.198444,12.576222,-5.1436424,-3.7670083
3.385025,60.594032,14.678817,3.9790723,-0.1240274,-0.12557352,0.2515765,-0.725025,-0.55088633,-0.078616835,0.7182578,-0.510007,0.6334097,-0.21747443,0.70028746,-1.0567473,-1.8899043,-0.8882516,1.8237257,1.7144827,-0.9033646,0.7594509,-1.0114357,-1.8816572,-0.9461719,1.8672153,1.6578422,-0.88196903,-1.3377926,-0.9668073,0.019183319,1.3545082,-0.7348951,0.6592255,-0.041888718,-0.14141464,-0.6759796,0.803993,-1.6298379,0.2782048,-0.6654855,-0.16354752,-0.5957031,0.7487953,0.91144556,-0.038722537,0.18366471,0.36610752,-1.4066169,0.1273121,-0.26901227,0.0,1.0,0.0,0.0,0.0,0.0,0.0,-0.50858533,0.2759796,-0.25399297,-1.5526772,4.4215918,-7.7760606,-14.390612,6.5309763,-4.3223977,-2.6910622
-0.583467,49.120384,9.386306,5.2239923,-0.15595779,-0.50100785,0.13713516,-0.72494596,-0.5382096,-0.18609314,0.7276205,-0.49560508,0.63053316,-0.16251819,0.6869563,-1.0652567,-1.9002665,-0.8734098,1.8176547,1.7208955,-0.89822084,0.7461128,-1.0209229,-1.8825957,-0.9332601,1.8601238,1.6641555,-0.8824983,-1.3326205,-0.9430946,-0.13105547,1.2703885,-0.7009908,0.62229484,-0.0568823,-0.15769958,-0.6732025,0.7965987,-1.6282084,0.27792665,-0.76407135,-0.17744446,-0.5944977,0.7457366,0.91564417,-0.03994921,0.18484662,0.3547272,-1.3828084,0.12830079,-0.32156792,0.0,1.0,0.0,0.0,0.0,0.0,0.0,-0.4923004,0.2732025,-0.24659866,0.48077106,2.26233,-14.92354,-8.342099,3.1968951,-3.6717296,-1.5793555
0.17440367,50.94626,10.339162,7.3693943,-0.012132198,-0.5111667,0.06903052,-0.7025045,-0.5241338,-0.21053149,0.7457138,-0.5170315,0.6445586,-0.09063222,0.6758624,-1.0733362,-1.9036489,-0.8586887,1.8084207,1.7286114,-0.89156157,0.7329941,-1.0302498,-1.8849875,-0.92070687,1.8531295,1.6701579,-0.8830934,-1.3050131,-0.929628,-0.27448934,1.2506417,-0.69943213,0.59275,-0.060646284,-0.17396927,-0.6704254,0.7882192,-1.6265805,0.27764878,-0.8625586,-0.19112778,-0.59329224,0.74222153,0.9197074,-0.040274404,0.18627791,0.34324422,-1.3625541,0.12800668,-0.3643913,0.0,1.0,0.0,0.0,0.0,0.0,0.0,-0.4760307,0.2704254,-0.2382192,2.7407408,1.2300134,-14.1795635,-1.8791199,-0.060856342,-2.9783487,-0.45356303
1.7862473,45.624077,9.217826,7.1530647,0.056827024,-0.5943012,0.080879845,-0.6728675,-0.5545957,-0.25883862,0.7533076,-0.54389954,0.6497981,0.0063016266,0.66570735,-1.0857095,-1.9108714,-0.84537613,1.7987396,1.7351377,-0.8824633,0.72027457,-1.0396461,-1.8888587,-0.9081519,1.8458002,1.6754327,-0.8833732,-1.2609724,-0.9433845,-0.42371058,1.2578663,-0.742301,0.5076258,-0.019961255,-0.19091415,-0.66552734,0.78527665,-1.6978174,0.5494693,-0.12498304,-0.20460129,-0.5922394,0.7381973,0.9235981,-0.0394305,0.18801175,0.33175784,-1.3417403,0.108226426,-0.41753078,0.0,1.0,0.0,0.0,0.0,0.0,0.0,-0.45908582,0.26552734,-0.23527664,4.614949,-1.6792059,-12.539214,2.1227598,-2.45713,-2.3836732,0.7433105
-20.845745,79.099045,15.8977375,21.393812,0.7099235,0.066306114,-0.24459594,-0.7696159,-0.35902482,-0.43916023,0.7726894,-0.5851534,0.59875214,0.03851226,0.643313,-1.0755486,-1.9327747,-0.83088297,1.7872849,1.7353079,-0.87952197,0.70750296,-1.0483265,-1.894512,-0.8952401,1.8380716,1.6803231,-0.8834819,-1.2825003,-0.8436695,-0.6115502,1.3027097,-0.78413,0.4824241,-0.008404483,-0.20787811,-0.6600342,0.7832833,-1.69612,0.54892,-0.22410926,-0.21802521,-0.59101105,0.73407996,0.9273633,-0.03760054,0.19056064,0.31979683,-1.340449,0.13834095,-0.41227576,0.0,1.0,0.0,0.0,0.0,0.0,0.0,-0.44212186,0.26003417,-0.23328328,-2.1206856,9.736776,-18.494202,4.6200514,-4.570091,-2.6343584,0.98306763
-31.482271,73.41599,12.6164,24.387375,1.0936605,0.11594045,-0.3125307,-0.78382957,-0.3787841,-0.5638646,0.7822692,-0.57840246,0.5678719,0.13242872,0.62912,-1.0862049,-1.9508985,-0.8170132,1.7802314,1.7371104,-0.870239,0.6943461,-1.0560856,-1.9022406,-0.8818343,1.8300188,1.6850095,-0.8834371,-1.3264912,-0.75411296,-0.82569927,1.3539038,-0.8137644,0.4634584,0.008146065,-0.22482681,-0.65454865,0.7802994,-1.6944243,0.54837114,-0.3231364,-0.23159409,-0.5894623,0.72994965,0.9310244,-0.034764133,0.1940719,0.3071172,-1.3602483,0.17046037,-0.41542044,0.0,1.0,0.0,0.0,0.0,0.0,0.0,-0.42517316,0.25454864,-0.23029941,-4.3273926,8.697867,-21.142197,5.2984,-3.344524,-2.0983815,1.4811295
-35.093597,55.22348,6.5684166,21.905542,1.0756136,-0.029289484,-0.21087027,-0.79795784,-0.4197914,-0.672403,0.77740204,-0.6078944,0.5553915,0.25377443,0.6145503,-1.0980648,-1.969481,-0.80409414,1.7692293,1.7405486,-0.85805964,0.680699,-1.0633278,-1.912155,-0.8680299,1.8216684,1.6895356,-0.8831529,-1.377085,-0.7150084,-1.0460861,1.3901281,-0.84310794,0.44820336,0.034702543,-0.24176025,-0.64907074,0.77632606,-1.6927302,0.5478229,-0.42206448,-0.24546432,-0.5876694,0.72555196,0.934559,-0.03076279,0.1983614,0.29377836,-1.3939221,0.1937193,-0.44960642,0.0,1.0,0.0,0.0,0.0,0.0,0.0,-0.40823972,0.24907073,-0.22632605,-4.9470663,3.6771297,-21.84633,3.8585663,-3.2295346,-1.7711878,2.504419
-26.507467,49.870377,6.74909,17.245014,0.9713563,0.007416308,-0.020747371,-0.7909143,-0.42788345,-0.697718,0.77831554,-0.59899884,0.5761904,0.32630247,0.60160756,-1.1061162,-1.9819268,-0.7901983,1.7617685,1.7471547,-0.85052264,0.6666771,-1.0704575,-1.9238433,-0.85399085,1.8131177,1.6939454,-0.88256353,-1.4102135,-0.713029,-1.2087127,1.4092041,-0.86036456,0.4376044,0.066597074,-0.25867462,-0.64359283,0.7713641,-1.6910378,0.5472752,-0.52089363,-0.25961685,-0.5856476,0.7207527,0.9379009,-0.025698412,0.20311399,0.2800467,-1.4201187,0.21544038,-0.4913584,0.0,1.0,0.0,0.0,0.0,0.0,0.0,-0.39132535,0.24359283,-0.22136408,-3.2425642,-0.017118454,-15.977907,2.101493,-2.0801663,-1.3361931,3.0590556
-18.926197,45.476913,6.9900646,13.1696205,0.8261287,0.06223637,0.12905368,-0.7963432,-0.4516449,-0.7301671,0.776213,-0.62989414,0.6005684,0.35194728,0.5870428,-1.1156219,-1.99686,-0.7763696,1.7501283,1.7540022,-0.8473688,0.65242636,-1.0778141,-1.9367331,-0.8398765,1.8043611,1.6982846,-0.8816604,-1.4299392,-0.7437392,-1.3144183,1.4127553,-0.88200635,0.4316825,0.0979371,-0.27556992,-0.6381302,0.7654117,-1.689347,0.546728,-0.6200177,-0.27397537,-0.5834122,0.71548116,0.9409897,-0.019754086,0.20806178,0.2661925,-1.4378582,0.23586765,-0.5400189,0.0,1.0,0.0,0.0,0.0,0.0,0.0,-0.37443006,0.23813018,-0.21541166,-1.9382715,-3.2604098,-10.21781,0.5235672,-2.5571942,-0.8711517,3.0266075
-8.684816,41.08031,7.5317173,8.288211,0.63542926,0.06543136,0.29294556,-0.7828388,-0.49579775,-0.73980063,0.77023625,-0.63434863,0.61969715,0.4111822,0.57414246,-1.1273938,-2.010713,-0.76285285,1.7409263,1.7602544,-0.8405422,0.63813746,-1.0857124,-1.9502562,-0.82581836,1.7954175,1.7025914,-0.8804292,-1.428538,-0.80557877,-1.3636578,1.4040042,-0.8998615,0.4294727,0.1312613,-0.29244995,-0.63266754,0.75846875,-1.6876581,0.5461814,-0.71904266,-0.28842545,-0.58104706,0.70967793,0.9437853,-0.013133008,0.21293974,0.25249428,-1.4443243,0.25212193,-0.59468895,0.0,1.0,0.0,0.0,0.0,0.0,0.0,-0.35755002,0.23266754,-0.20846874,0.13139248,-6.3326597,-4.5321226,-0.74203014,-2.1840096,-0.4849851,3.260055
-6.087804,32.988525,5.8169413,5.5734396,0.55847055,0.041494608,0.3779756,-0.78990906,-0.55627275,-0.75973165,0.7610832,-0.6568803,0.6271381,0.47417256,0.5591465,-1.1413397,-2.0262294,-0.74971,1.7297295,1.7653053,-0.8330119,0.6238905,-1.09445,-1.964054,-0.8119071,1.7862737,1.7068906,-0.87884897,-1.4234195,-0.8969341,-1.383836,1.3873608,-0.92035604,0.42915255,0.16696513,-0.30931473,-0.6272049,0.7505363,-1.6859708,0.5456353,-0.81796867,-0.30294418,-0.5785217,0.703235,0.94628525,-0.005935486,0.21754272,0.23913191,-1.4514287,0.2649036,-0.661933,0.0,1.0,0.0,0.0,0.0,0.0,0.0,-0.34068525,0.22720489,-0.20053631,0.51567554,-9.250509,-1.6803265,-1.4848232,-2.3875833,-0.28203726,3.5492034
-3.311976,31.38696,5.999573,4.2747374,0.5926211,0.08326048,0.4056034,-0.7824451,-0.60757935,-0.74996567,0.76263636,-0.6606225,0.6320478,0.49844253,0.545646,-1.1552079,-2.0390506,-0.7356435,1.7202115,1.7700953,-0.8290047,0.60973895,-1.1042004,-1.9778384,-0.79813987,1.7769525,1.7111917,-0.8769254,-1.4123703,-1.0012889,-1.3756472,1.373824,-0.93713665,0.4297048,0.20086278,-0.32616425,-0.6217575,0.7416154,-1.6842852,0.5450898,-0.91679573,-0.3175354,-0.5758743,0.6961131,0.94850874,0.0017238695,0.22172478,0.22619975,-1.4567374,0.27831972,-0.7302273,0.0,1.0,0.0,0.0,0.0,0.0,0.0,-0.32383573,0.2217575,-0.1916154,1.1017323,-10.539782,1.1663675,-1.1577129,-2.0180225,-0.20393133,3.4095466
0.10482645,34.431755,7.1644,3.348598,0.52425224,0.13890254,0.43597114,-0.77037203,-0.6466255,-0.7476697,0.7527389,-0.67019236,0.62542033,0.53760046,0.53270173,-1.1688629,-2.0526054,-0.722866,1.7099333,1.7737337,-0.82316536,0.5957422,-1.1149559,-1.9914767,-0.78452563,1.7674687,1.7154591,-0.8746566,-1.3956326,-1.1003932,-1.3625029,1.3561687,-0.95469064,0.41724738,0.23865633,-0.3429489,-0.6160736,0.7323408,-1.6669705,0.6285651,-0.79508054,-0.332119,-0.5730896,0.6883351,0.9504658,0.009788702,0.22544189,0.21376377,-1.4543879,0.28967488,-0.7964516,0.0,1.0,0.0,0.0,0.0,0.0,0.0,-0.30705106,0.2160736,-0.1823408,1.6316891,-9.986758,1.0529995,-1.8771648,-2.349627,-2.7519882,4.2911677
-1.2378397,53.44192,11.97986,7.2136354,0.80031693,0.43767834,0.36520457,-0.7801148,-0.6273519,-0.73279935,0.7496379,-0.67980784,0.6048494,0.55425453,0.5177307,-1.1776911,-2.0647566,-0.7095618,1.6994879,1.775944,-0.81923115,0.5818386,-1.1263485,-2.0049067,-0.7710649,1.7578683,1.7196163,-0.872064,-1.3889132,-1.1527926,-1.3342977,1.3428862,-0.96398354,0.41409206,0.2660082,-0.35915375,-0.6098938,0.72410244,-1.6060429,0.6142758,-0.8356781,-0.34661484,-0.5700836,0.6801259,0.9521583,0.018188398,0.22880149,0.2017763,-1.4439381,0.31775564,-0.83107156,0.0,1.0,0.0,0.0,0.0,0.0,0.0,-0.29084623,0.2098938,-0.17410243,0.58107376,-5.4066896,3.4537315,-1.2604475,-1.556623,-0.6600559,2.711594
-0.25729084,66.493126,15.321795,9.469711,1.0253114,0.604305,0.30974352,-0.76976407,-0.63416916,-0.7185187,0.75210404,-0.66114485,0.6028286,0.56918037,0.5048622,-1.1897655,-2.0767586,-0.6958545,1.6917539,1.7798991,-0.81514597,0.56800747,-1.1380348,-2.01802,-0.75769347,1.7482333,1.7237206,-0.86921066,-1.3816253,-1.1745942,-1.301178,1.3352213,-0.9661448,0.40809017,0.29162937,-0.3748665,-0.6036682,0.71567893,-1.5615963,0.62568176,-0.8461703,-0.3609581,-0.56674194,0.6717304,0.9535896,0.026745824,0.23191705,0.19017345,-1.4256333,0.3517867,-0.8445638,0.0,1.0,0.0,0.0,0.0,0.0,0.0,-0.2751335,0.2036682,-0.16567892,0.58624744,-2.3803234,4.116893,-0.78840256,-1.0666609,-0.95772743,2.513355
-3.1793609,65.33401,14.33465,10.314489,1.2040427,0.5837446,0.26076394,-0.7749283,-0.67026234,-0.7229876,0.74320024,-0.6222647,0.5612321,0.56273174,0.49051464,-1.2050611,-2.0903187,-0.68337345,1.6860069,1.7798438,-0.8129375,0.554202,-1.1499405,-2.0308785,-0.74439836,1.7387128,1.7277473,-0.86613667,-1.380603,-1.1966716,-1.2782329,1.3277342,-0.95009375,0.39938417,0.31258467,-0.39019394,-0.5973358,0.7071254,-1.5231191,0.6383319,-0.8613425,-0.37516403,-0.5630646,0.66319,0.954793,0.035441063,0.23475738,0.17889474,-1.413484,0.38663238,-0.8594591,0.0,1.0,0.0,0.0,0.0,0.0,0.0,-0.25980604,0.19733581,-0.15712541,-0.020170212,-2.4077177,3.0659676,-0.73554516,0.8222699,-1.2498975,2.059418
-2.5850089,68.70442,14.901083,10.81984,1.2689005,0.60939765,0.23074338,-0.767766,-0.6734797,-0.71241766,0.7429039,-0.6104634,0.54616094,0.55652565,0.47742543,-1.2172885,-2.1021204,-0.67010796,1.6776664,1.7823634,-0.8104841,0.5404205,-1.1620045,-2.0435405,-0.73115665,1.7293931,1.7316839,-0.8628865,-1.3777914,-1.2105322,-1.2594523,1.3228858,-0.92875296,0.39035287,0.32908693,-0.4051361,-0.5908966,0.69844306,-1.4850522,0.647032,-0.8718216,-0.38923645,-0.559021,0.6545386,0.9557892,0.044254974,0.23731717,0.16789567,-1.3987883,0.4220969,-0.8693811,0.0,1.0,0.0,0.0,0.0,0.0,0.0,-0.24486387,0.1908966,-0.14844304,0.14352798,-1.5911818,2.6971102,-0.4986763,1.2968898,-1.2801647,1.608324
-3.069656,70.93887,14.980156,11.265515,1.2838444,0.6321934,0.22282983,-0.77115905,-0.67061853,-0.7098222,0.73232406,-0.6011474,0.4951815,0.5817335,0.46330458,-1.2290664,-2.1145227,-0.65792423,1.6692784,1.781202,-0.80471313,0.5266446,-1.1741371,-2.056069,-0.71799415,1.7202926,1.7354974,-0.85947603,-1.3780668,-1.2149628,-1.2477323,1.3139474,-0.90683174,0.37687132,0.34489632,-0.4196701,-0.58436584,0.68966097,-1.4426334,0.65681434,-0.8822666,-0.4031372,-0.55461884,0.64581287,0.9565838,0.053203717,0.23962206,0.15715574,-1.3819741,0.45776117,-0.87570953,0.0,1.0,0.0,0.0,0.0,0.0,0.0,-0.23032987,0.18436584,-0.13966095,-0.17392635,-0.6501198,2.0205498,-0.92921257,1.3170958,-1.7203927,1.522696
2.3250852,77.36089,16.891075,10.730834,1.2581201,0.6762489,0.2404212,-0.75230753,-0.6596274,-0.68648314,0.7281775,-0.5825992,0.48471782,0.5963816,0.45141384,-1.2400999,-2.1247172,-0.6451764,1.6620326,1.7839692,-0.7998379,0.51294506,-1.1862221,-2.068421,-0.7049317,1.7114241,1.7391807,-0.8559174,-1.3678881,-1.2069798,-1.2276511,1.3033313,-0.88352543,0.3639172,0.35933203,-0.43374634,-0.57777405,0.6808533,-1.3957864,0.6622228,-0.8809457,-0.41680145,-0.5498886,0.63709784,0.9571747,0.06222806,0.24170583,0.14670543,-1.3545994,0.4908172,-0.8720094,0.0,1.0,0.0,0.0,0.0,0.0,0.0,-0.21625364,0.17777404,-0.1308533,0.8229494,0.5910158,2.9684305,-1.1818409,1.3562799,-1.6783476,1.3553381
2.9710479,81.25018,17.538422,11.310287,1.3222739,0.68717265,0.23388466,-0.75403756,-0.6489888,-0.67534393,0.7180789,-0.57148093,0.4123809,0.614393,0.4375413,-1.2511209,-2.1359553,-0.63312376,1.654276,1.7804188,-0.7944781,0.49933708,-1.1981583,-2.0805514,-0.6920036,1.702776,1.7426919,-0.8522182,-1.3591588,-1.1899843,-1.2048111,1.2888565,-0.8621625,0.34549978,0.37313616,-0.44732285,-0.5711365,0.6720744,-1.3454256,0.66480523,-0.87618434,-0.43016815,-0.54483795,0.6284662,0.9575657,0.07129978,0.24359316,0.13655254,-1.3242898,0.52277637,-0.8621564,0.0,1.0,0.0,0.0,0.0,0.0,0.0,-0.20267713,0.17113647,-0.122074366,0.660038,1.4893293,3.3120155,-1.6020775,1.0786891,-2.1990836,1.2740552
8.416924,86.55715,18.973745,10.555409,1.289223,0.63220686,0.26503628,-0.7347292,-0.6317851,-0.65931433,0.7008473,-0.5444122,0.30984247,0.62410474,0.42586416,-1.2613368,-2.1464827,-0.62191886,1.6483347,1.7736762,-0.78980774,0.48588455,-1.209858,-2.0924227,-0.6792787,1.6943741,1.7459537,-0.84839094,-1.3414166,-1.1638653,-1.1775833,1.2663733,-0.83663625,0.318524,0.38556954,-0.46035004,-0.5644913,0.66338557,-1.2887726,0.6644939,-0.86609966,-0.44317627,-0.539505,0.61997825,0.9577651,0.080397815,0.24527645,0.1267342,-1.2856629,0.54820645,-0.84596276,0.0,1.0,0.0,0.0,0.0,0.0,0.0,-0.18964994,0.16449127,-0.11338556,1.5224457,2.4065018,3.8418293,-2.474594,1.4094234,-3.0499935,1.1098266
7.915844,86.89593,18.668703,10.703489,1.4286449,0.53921694,0.27017426,-0.74031866,-0.6187197,-0.64429164,0.6692613,-0.48291922,0.106384486,0.6369767,0.4118527,-1.27173,-2.1568518,-0.61235255,1.6460822,1.7565922,-0.78469324,0.47255933,-1.2212734,-2.1040115,-0.66689044,1.6863632,1.7488132,-0.8444433,-1.330339,-1.1347089,-1.1486294,1.2288536,-0.7931763,0.27388307,0.39742288,-0.47283173,-0.55786896,0.6547798,-1.2345638,0.66133535,-0.85829747,-0.45581818,-0.5339279,0.6116626,0.9578085,0.089525945,0.24665299,0.11726113,-1.2500571,0.57102245,-0.82815707,0.0,1.0,0.0,0.0,0.0,0.0,0.0,-0.17716825,0.15786895,-0.10477978,0.8592844,2.7192116,4.0157795,-3.981924,3.1850338,-4.833436,1.0691524
5.9100533,80.89184,16.714684,9.553579,1.5363061,0.30794078,0.31972817,-0.7549792,-0.61525476,-0.6409437,0.6001145,-0.35769185,-0.27809134,0.6528218,0.3970614,-1.2827989,-2.1681058,-0.606879,1.650594,1.721004,-0.77916116,0.45923746,-1.232441,-2.1153636,-0.6551458,1.6791071,1.7509688,-0.840377,-1.333528,-1.1113884,-1.1273336,1.1556954,-0.7066415,0.19481081,0.40944073,-0.48483658,-0.5512924,0.64613795,-1.1889185,0.656611,-0.8647089,-0.46817398,-0.52815247,0.60345936,0.95777196,0.09875322,0.24743444,0.1081516,-1.2237656,0.58961475,-0.81905234,0.0,1.0,0.0,0.0,0.0,0.0,0.0,-0.1651634,0.15129241,-0.09613794,-0.5340338,2.164793,3.1257868,-7.512808,7.583213,-8.284256,1.1348009
8.987065,80.22157,17.107828,8.229578,1.9055326,0.26153845,0.33928052,-0.74943984,-0.60137206,-0.59969556,0.53721786,-0.13736054,-0.447625,0.65380234,0.38429347,-1.2925781,-2.1753333,-0.60142404,1.6653711,1.7062063,-0.77499676,0.445876,-1.2433834,-2.126384,-0.6443406,1.6732947,1.7522507,-0.83620095,-1.3377355,-1.0890732,-1.0904715,1.0547926,-0.542955,0.10454591,0.42028272,-0.49641037,-0.5447693,0.63742524,-1.1462846,0.6501772,-0.87220263,-0.4802971,-0.52220154,0.59537864,0.9577777,0.10790221,0.24723898,0.09945711,-1.2015024,0.60815,-0.8056923,0.0,1.0,0.0,0.0,0.0,0.0,0.0,-0.1535896,0.14476928,-0.08742523,-0.6383896,2.0915985,4.6432495,-10.31177,15.34251,-9.421153,1.0656059
22.525024,70.57028,17.283596,1.5182676,2.0397673,0.21166712,0.4457476,-0.7204747,-0.63409936,-0.503869,0.436587,0.16642272,-0.48855507,0.60703695,0.37382853,-1.3067933,-2.176771,-0.6006819,1.6899369,1.7033951,-0.77549726,0.43260714,-1.2543182,-2.136653,-0.63484764,1.6698782,1.7526765,-0.8319618,-1.3239661,-1.0952352,-1.0031195,0.9133023,-0.2773721,0.020603865,0.42534843,-0.5075722,-0.5383301,0.6285842,-1.1053104,0.64113986,-0.88690877,-0.49217224,-0.516098,0.5873831,0.95802057,0.11648338,0.24551798,0.09137343,-1.1758075,0.6188105,-0.79867584,0.0,1.0,0.0,0.0,0.0,0.0,0.0,-0.1424278,0.13833007,-0.078584194,1.157999,-0.6893635,9.558678,-14.403355,25.701136,-8.762042,0.5605042
26.924011,66.302956,17.195738,-1.2215526,2.0011158,0.32614392,0.5016732,-0.73021436,-0.6426256,-0.40802392,0.33474767,0.26307625,-0.50785375,0.5952225,0.3595857,-1.3185807,-2.1774554,-0.6013729,1.6961858,1.7018911,-0.77243954,0.41944215,-1.2654133,-2.1456933,-0.6269979,1.6691111,1.7523448,-0.8276925,-1.3146268,-1.1142657,-0.868662,0.7413625,-0.012179445,-0.05203729,0.42774025,-0.518322,-0.5320053,0.6195823,-1.0644706,0.6291146,-0.9032821,-0.50374603,-0.5099182,0.57942474,0.95861393,0.12415267,0.2420333,0.084054455,-1.1448883,0.6278914,-0.79585713,0.0,1.0,0.0,0.0,0.0,0.0,0.0,-0.13167799,0.1320053,-0.06958228,0.74174404,-1.9416809,14.1493435,-17.422794,25.802666,-7.5432315,0.3108561
35.802475,84.40075,23.07789,0.7929702,2.486545,0.6931163,0.41113514,-0.7063396,-0.61551595,-0.18480176,0.29407677,0.3091958,-0.50428486,0.60642517,0.34880817,-1.3269649,-2.1641734,-0.5975902,1.7000307,1.7019163,-0.76704997,0.40645644,-1.2765732,-2.1525478,-0.6207198,1.6706438,1.7513773,-0.8233983,-1.2939199,-1.1165735,-0.6216243,0.5889843,0.20606352,-0.11238364,0.4300379,-0.52851105,-0.52584076,0.6107003,-1.0030172,0.6118689,-0.88160676,-0.51488113,-0.50362396,0.5717835,0.95961076,0.13043119,0.23690084,0.07754206,-1.0972449,0.6383644,-0.7546158,0.0,1.0,0.0,0.0,0.0,0.0,0.0,-0.12148893,0.12584075,-0.060700297,1.8464327,-0.26397705,25.506067,-15.540743,21.085882,-6.2121167,0.254035
47.379433,89.16772,25.548185,-2.9165454,2.1951466,0.86816436,0.559285,-0.698717,-0.60557246,-0.016712692,0.11376866,0.4198627,-0.5269437,0.6008839,0.33658475,-1.3371304,-2.1542192,-0.60934293,1.71263,1.698683,-0.7633099,0.39368814,-1.2876644,-2.1564808,-0.6163796,1.6741567,1.7498778,-0.81909156,-1.2718307,-1.1068113,-0.31505552,0.3813601,0.39773542,-0.16293538,0.430898,-0.5379944,-0.51992035,0.6021652,-0.92940944,0.58597106,-0.84460074,-0.525383,-0.49732208,0.56461275,0.96103936,0.13499571,0.23019618,0.072034866,-1.0288881,0.63782007,-0.70600677,0.0,1.0,0.0,0.0,0.0,0.0,0.0,-0.11200559,0.11992034,-0.05216521,2.0099401,0.968194,31.289804,-21.069687,18.617731,-5.09187,0.08149743
55.657486,92.9804,27.55183,-5.6530313,2.0767615,0.9960512,0.6858085,-0.69571835,-0.5935397,0.19612625,-0.058135655,0.5547036,-0.57169783,0.61438155,0.3241163,-1.3470184,-2.1368682,-0.62219316,1.729627,1.692708,-0.7576534,0.3811106,-1.2985859,-2.156946,-0.6145049,1.679528,1.747913,-0.81476957,-1.2534653,-1.0871387,0.044259343,0.1220023,0.58295095,-0.20733291,0.43261448,-0.54668427,-0.51431274,0.59409946,-0.8488912,0.55281055,-0.79414344,-0.5351105,-0.49105072,0.55798304,0.9629326,0.13759783,0.2218915,0.0677625,-0.94765824,0.6293715,-0.65015554,0.0,1.0,0.0,0.0,0.0,0.0,0.0,-0.10331571,0.11431274,-0.04409945,1.7048836,1.9714355,36.253574,-26.17231,18.28983,-4.3037624,0.17028451
59.950634,95.810394,27.941172,-7.3208246,1.6382385,0.98698163,0.79334253,-0.6849028,-0.55713296,0.31794718,-0.22750315,0.6542619,-0.57381946,0.62529314,0.31262034,-1.3542992,-2.1251512,-0.6372552,1.7449542,1.690531,-0.75224024,0.36871523,-1.3091564,-2.1540391,-0.6155025,1.6866622,1.7455667,-0.810424,-1.234964,-1.0470517,0.37256515,-0.17400064,0.7576712,-0.24280031,0.43520498,-0.5545311,-0.509079,0.586586,-0.76363105,0.5146424,-0.7382485,-0.5439377,-0.4849472,0.5518949,0.9652434,0.1382533,0.21209136,0.064872675,-0.8570398,0.6102373,-0.5967145,0.0,1.0,0.0,0.0,0.0,0.0,0.0,-0.09546888,0.10907897,-0.036585987,1.8159866,4.0193796,32.699966,-29.705566,17.696022,-3.2258987,0.27341247
48.266457,106.27429,27.736069,-1.0570563,1.6590261,1.0089161,0.6511906,-0.69525546,-0.48895434,0.37437382,-0.3254322,0.7052855,-0.5346952,0.6157287,0.2991897,-1.3580519,-2.1166017,-0.6480457,1.7571907,1.6920972,-0.7488511,0.35641235,-1.3190498,-2.1485198,-0.61926377,1.6953276,1.7429489,-0.80605996,-1.2284157,-0.97004473,0.6096094,-0.44321677,0.90511703,-0.26656997,0.4369769,-0.5615463,-0.5042267,0.57969385,-0.68158096,0.4764776,-0.6743056,-0.5519104,-0.47898865,0.5463981,0.9678251,0.13727105,0.20118731,0.06320512,-0.77439725,0.59643054,-0.5356716,0.0,1.0,0.0,0.0,0.0,0.0,0.0,-0.08845365,0.10422668,-0.029693842,0.73928833,7.73561,23.081785,-26.85514,15.471899,-1.9283593,0.2368629
44.366055,101.93245,26.010382,-0.2432614,1.3496537,0.8894413,0.59178084,-0.6799134,-0.48707527,0.5017567,-0.43347532,0.7286569,-0.4925532,0.59210056,0.288421,-1.3677573,-2.098344,-0.6626113,1.7681934,1.6936935,-0.7468499,0.3442034,-1.3282558,-2.1409316,-0.62546206,1.7051781,1.7401717,-0.8016969,-1.217855,-0.9038955,0.80538684,-0.6781309,1.0150124,-0.2798647,0.43641317,-0.5677872,-0.49975586,0.5733939,-0.60634404,0.43909842,-0.61759114,-0.5591011,-0.4731903,0.5414233,0.97055304,0.13492139,0.1894832,0.06260187,-0.69830173,0.57920814,-0.4860047,0.0,1.0,0.0,0.0,0.0,0.0,0.0,-0.082212806,0.09975585,-0.02339387,1.2195587,6.6740274,18.636429,-23.305178,12.038958,-0.8079648,0.055009127
30.483923,114.156136,26.583227,8.30064,1.6526762,0.9478567,0.31467444,-0.678234,-0.4099833,0.5382268,-0.45606762,0.7304411,-0.3949309,0.58187467,0.27638,-1.3692541,-2.0871089,-0.6710688,1.7782222,1.7006786,-0.7435094,0.33208746,-1.3366119,-2.1319175,-0.6333871,1.7158195,1.7373652,-0.797348,-1.2087061,-0.81262267,0.9292908,-0.8296249,1.0850397,-0.27905646,0.43496677,-0.57331467,-0.495636,0.5677451,-0.5355228,0.403981,-0.5481789,-0.5656395,-0.46746826,0.5370615,0.97328615,0.1314911,0.17745322,0.06272445,-0.6359954,0.5731138,-0.42052135,0.0,1.0,0.0,0.0,0.0,0.0,0.0,-0.07668531,0.09563598,-0.017745078,1.1553049,9.248983,11.157167,-14.874601,8.373785,0.67533255,0.008958578
37.83552,97.92386,24.028992,3.708446,0.9994394,0.70089364,0.32453856,-0.614511,-0.45123753,0.6299106,-0.49791536,0.7418774,-0.18226436,0.58796734,0.27063635,-1.3817356,-2.0689263,-0.6831786,1.7900072,1.7191389,-0.73855126,0.32033724,-1.344432,-2.1217678,-0.64238214,1.7269396,1.7347445,-0.7930088,-1.1630247,-0.77117366,1.0395384,-0.92179257,1.125195,-0.25438467,0.43415523,-0.57819366,-0.49186707,0.5626624,-0.4728486,0.3683695,-0.49654892,-0.5715637,-0.46192932,0.53315383,0.9759555,0.12709957,0.16531181,0.06347125,-0.5755312,0.5527319,-0.38118863,0.0,1.0,0.0,0.0,0.0,0.0,0.0,-0.07180631,0.09186706,-0.012662411,4.8077583,4.2675138,9.868443,-8.939087,5.316949,3.0464768,0.08878708
37.137447,78.04789,19.554062,0.45504007,0.46159154,0.49257684,0.32020426,-0.5856034,-0.48307312,0.6548205,-0.5305594,0.7444354,0.08732585,0.5854843,0.2617769,-1.3927393,-2.0562856,-0.6954381,1.8013831,1.7434771,-0.73446035,0.30915302,-1.3522102,-2.1107516,-0.65199625,1.7382787,1.732574,-0.7886772,-1.1028025,-0.7796447,1.1189233,-0.97378,1.1402355,-0.20291753,0.43354863,-0.58254623,-0.48841858,0.5578673,-0.42332593,0.33784676,-0.47463426,-0.57694626,-0.45659637,0.529379,0.9785169,0.12187334,0.1531385,0.06480907,-0.5235908,0.5272681,-0.37649944,0.0,1.0,0.0,0.0,0.0,0.0,0.0,-0.06745374,0.08841857,-0.007867277,6.234288,-0.75320005,7.010412,-4.926145,2.5375605,5.623555,0.1431942
51.02323,69.2831,18.808468,-5.527653,-0.36894047,0.24841252,0.40314576,-0.49772826,-0.48753503,0.6730936,-0.5526825,0.74821657,0.26850206,0.5548872,0.2593802,-1.4009637,-2.0434422,-0.7072645,1.8131005,1.7594242,-0.7331885,0.29888672,-1.3602344,-2.0991476,-0.66195273,1.7496738,1.7310386,-0.7843742,-1.0006148,-0.8098163,1.1718173,-1.0020156,1.142219,-0.13538955,0.42995626,-0.5864105,-0.4853058,0.5532303,-0.3747015,0.30319688,-0.46145427,-0.58172226,-0.45170593,0.52552176,0.980924,0.115920305,0.14102334,0.06680411,-0.46089807,0.47951737,-0.38874963,0.0,1.0,0.0,0.0,0.0,0.0,0.0,-0.06358945,0.08530578,-0.0032302737,10.415578,-2.93957,4.52044,-2.549255,1.0785341,7.24535,-0.14262795
57.498978,65.90115,18.535683,-7.554139,-0.7603318,0.020243078,0.3802067,-0.41721582,-0.50309294,0.6787052,-0.52185684,0.7443693,0.35963342,0.54950905,0.25716513,-1.4105437,-2.031277,-0.7141384,1.8241107,1.7670019,-0.7294233,0.2898702,-1.3686439,-2.0872076,-0.67188334,1.7610235,1.7302012,-0.7801103,-0.86801755,-0.8512351,1.1995432,-0.98920494,1.1350688,-0.06486626,0.425887,-0.58981705,-0.48254395,0.54868233,-0.32923442,0.26690033,-0.45278367,-0.58587265,-0.4473877,0.5214942,0.98313946,0.10934469,0.12906669,0.06944271,-0.39725617,0.4188035,-0.40718526,0.0,1.0,0.0,0.0,0.0,0.0,0.0,-0.06018293,0.08254394,0.0013176799,13.446975,-4.071009,2.1507978,1.562202,0.02822876,7.527357,-0.19690394
73.95305,65.87547,19.905815,-12.434756,-1.4420348,-0.31698802,0.4480909,-0.28682086,-0.5190241,0.67630374,-0.49438125,0.75011855,0.3662845,0.5505977,0.26118812,-1.4205463,-2.0195773,-0.72132146,1.8360354,1.7668297,-0.7250505,0.2825498,-1.3774787,-2.075149,-0.6814668,1.7723057,1.7300124,-0.7758847,-0.6861109,-0.89412886,1.2065783,-0.9469535,1.128166,-0.0018957254,0.4221267,-0.59275436,-0.4801941,0.5442396,-0.28206542,0.22397123,-0.44148418,-0.5892906,-0.44387054,0.5172759,0.9851306,0.10224677,0.11733583,0.07277075,-0.3222249,0.3318722,-0.4263841,0.0,1.0,0.0,0.0,0.0,0.0,0.0,-0.057245612,0.080194086,0.0057604313,18.372774,-4.2328715,0.23663044,4.532099,-0.06842613,6.8015656,-0.16601086
63.366375,78.510185,21.727123,-5.9026117,-0.96878743,-0.2501942,0.26047325,-0.23166813,-0.4937612,0.66188776,-0.42698172,0.73749346,0.3996999,0.56366307,0.259383,-1.4268548,-2.0089602,-0.72416496,1.846055,1.7699825,-0.71951836,0.27697986,-1.3865215,-2.063178,-0.69031686,1.7834884,1.7304035,-0.7716818,-0.5132647,-0.9074275,1.1921946,-0.86323106,1.117297,0.054432243,0.42040768,-0.595253,-0.4782486,0.54000384,-0.23931512,0.18456468,-0.41681147,-0.59205246,-0.44112396,0.5130285,0.98687446,0.0947351,0.105998576,0.07660429,-0.25916776,0.25679243,-0.42390585,0.0,1.0,0.0,0.0,0.0,0.0,0.0,-0.054746985,0.07824859,0.009996176,17.488325,-1.2429714,-1.9398451,8.716536,-0.40664673,6.1424465,0.055152178
67.33075,80.418625,22.741829,-6.9501414,-1.1044195,-0.37918472,0.27084416,-0.11807725,-0.5130443,0.6827083,-0.39400354,0.7373503,0.3806056,0.5530234,0.26517212,-1.4378259,-1.9949073,-0.7297172,1.8572234,1.7684641,-0.71637946,0.27322552,-1.3956786,-2.0512795,-0.6982648,1.7945719,1.731275,-0.76750076,-0.32881245,-0.91809785,1.1876364,-0.77080053,1.1073929,0.09958048,0.41812444,-0.59734344,-0.47669983,0.5360283,-0.19855173,0.14458539,-0.389428,-0.5941696,-0.4391861,0.5088424,0.98837024,0.08684606,0.095083706,0.08087647,-0.19538128,0.17497554,-0.41668472,0.0,1.0,0.0,0.0,0.0,0.0,0.0,-0.05265653,0.07669982,0.013971686,18.647224,-1.0018945,-0.85704327,9.614504,-0.4033327,4.9922047,0.0010311604
37.504498,88.920044,22.031887,4.423757,-0.0077670515,-0.108736366,-0.011635974,-0.11669075,-0.48435673,0.6486576,-0.32366434,0.73457,0.37158272,0.5545492,0.26155645,-1.4441143,-1.9864138,-0.73063123,1.8680289,1.7684332,-0.71204585,0.27086282,-1.4047519,-2.0395653,-0.7051522,1.8055578,1.7325233,-0.763337,-0.20470698,-0.90322757,1.1643022,-0.66022015,1.0977789,0.13475174,0.41659576,-0.59911346,-0.47545624,0.53234506,-0.16971757,0.11726843,-0.35965544,-0.59586716,-0.43777466,0.50484043,0.9896304,0.078694046,0.08465536,0.085277915,-0.16158159,0.13102911,-0.39485434,0.0,1.0,0.0,0.0,0.0,0.0,0.0,-0.05088651,0.07545623,0.017654955,12.617752,1.5847802,-2.8116465,11.427963,-0.31876564,3.9492607,0.09023547
34.260033,100.051254,24.597801,7.395279,0.1682761,-0.034463063,-0.080262914,-0.020292312,-0.4484331,0.6519142,-0.2513279,0.7200905,0.35639375,0.5470688,0.26883358,-1.4495952,-1.9743739,-0.730285,1.8775669,1.7681627,-0.70863014,0.26971698,-1.4134761,-2.028052,-0.7108322,1.8164256,1.7340615,-0.75919247,-0.083810575,-0.861859,1.1450864,-0.53594273,1.0853316,0.161569,0.41451183,-0.6006012,-0.47447968,0.5290944,-0.14168039,0.09104695,-0.31169793,-0.59724426,-0.43676758,0.50121015,0.9906667,0.07032644,0.07482835,0.08963431,-0.13009444,0.091528066,-0.3530138,0.0,1.0,0.0,0.0,0.0,0.0,0.0,-0.04939878,0.07447967,0.020905614,12.305994,4.2369127,-2.3893356,12.818134,-0.5890131,3.1326504,0.022745132
31.16312,102.41989,24.84847,7.5207906,0.07607193,0.011190996,-0.036791902,0.031839997,-0.42056227,0.63538593,-0.2399744,0.7122199,0.3772109,0.53510964,0.27290097,-1.4555323,-1.9645135,-0.7348296,1.8876475,1.7717825,-0.7056815,0.2696588,-1.4216777,-2.01676,-0.71549374,1.8271636,1.7358398,-0.7550764,0.020887535,-0.80621195,1.122362,-0.44161072,1.0720292,0.18477027,0.4114592,-0.6018181,-0.47374725,0.5263379,-0.11542185,0.067238204,-0.2622271,-0.5982971,-0.43614197,0.49802035,0.99148613,0.06180445,0.06562988,0.093957365,-0.09742008,0.054631058,-0.3086629,0.0,1.0,0.0,0.0,0.0,0.0,0.0,-0.04818189,0.07374725,0.02366209,10.679028,5.643952,-2.7033567,9.834379,-0.7209301,2.7454586,-0.07387996
18.975817,101.64241,23.697508,10.097372,0.3346941,0.14775139,-0.055972114,0.03879553,-0.3922197,0.6259035,-0.22382006,0.7023887,0.38119796,0.5250919,0.27353835,-1.4608997,-1.9541698,-0.73787576,1.8974024,1.7739596,-0.7025672,0.27036023,-1.4292823,-2.0056858,-0.71945524,1.8377588,1.7378198,-0.7509966,0.087221794,-0.74511796,1.1008487,-0.3796884,1.057403,0.20373842,0.4076749,-0.6028137,-0.47320557,0.5240415,-0.09442877,0.049979586,-0.21767627,-0.5990906,-0.43574524,0.49526098,0.9921041,0.05319416,0.05701431,0.09823,-0.07331346,0.032895003,-0.26631525,0.0,1.0,0.0,0.0,0.0,0.0,0.0,-0.047186255,0.07320556,0.025958538,6.8303914,6.183827,-2.5997877,6.5711975,-0.8574009,2.2939682,-0.15026927
16.49305,99.30771,22.909164,8.865815,0.18349755,0.1664926,0.030837014,0.067236155,-0.35856077,0.61393106,-0.23855625,0.6982404,0.369744,0.520178,0.27708384,-1.4651384,-1.9442927,-0.74331087,1.9075828,1.7747942,-0.6989788,0.27157235,-1.4362575,-1.9948231,-0.7231344,1.8482208,1.7399535,-0.7469549,0.13314798,-0.68142134,1.0798774,-0.36271816,1.0445045,0.21792953,0.40374044,-0.6036148,-0.47280884,0.52214825,-0.07512454,0.035281368,-0.1789283,-0.5996208,-0.43558502,0.492885,0.9925285,0.04455711,0.048893064,0.1025241,-0.047153685,0.012930144,-0.22931504,0.0,1.0,0.0,0.0,0.0,0.0,0.0,-0.04638517,0.07280883,0.02785176,4.778035,6.430161,-2.5402546,2.0641863,-0.7116556,1.7995358,-0.16774535
0.07911658,119.46079,26.568195,17.662699,0.7976713,0.5022132,-0.15857083,0.06280176,-0.24142264,0.57122636,-0.16383554,0.6822892,0.40046093,0.51773775,0.27785254,-1.4603997,-1.9377005,-0.7395179,1.9164498,1.7799996,-0.69518113,0.27302432,-1.4422008,-1.9843267,-0.7264789,1.8585436,1.742229,-0.7429514,0.14990132,-0.5649079,1.0374526,-0.3237997,1.0306879,0.23228359,0.39996785,-0.6042404,-0.47251892,0.52088535,-0.058920454,0.026972944,-0.10782594,-0.5999756,-0.43544006,0.49114,0.99277794,0.035954896,0.04147537,0.10667156,-0.032201923,0.015650375,-0.1576305,0.0,1.0,0.0,0.0,0.0,0.0,0.0,-0.04575956,0.072518915,0.029114664,1.8789977,11.759436,-4.8238277,4.261732,-0.6323099,1.8889427,-0.16400814
-11.813673,133.88225,29.31586,25.457014,1.3648298,0.6155634,-0.40184957,0.08894489,-0.15534936,0.524378,-0.031589996,0.6737486,0.38715163,0.52665985,0.28191882,-1.4577357,-1.9318889,-0.72963786,1.9259185,1.7809441,-0.6902854,0.27463222,-1.4467384,-1.9744256,-0.7288907,1.8687294,1.744619,-0.73897505,0.16507761,-0.4163493,0.97241133,-0.21249548,1.0171382,0.24272309,0.39745626,-0.60474396,-0.47227478,0.5205342,-0.048253346,0.02411382,-0.010308722,-0.60029984,-0.43515015,0.49031466,0.99289453,0.027446253,0.03505399,0.11035508,-0.033505954,0.03423563,-0.058877397,0.0,0.0,1.0,0.0,0.0,0.0,0.0,-0.04525602,0.072274774,0.029465795,1.7175674,14.989508,-7.079923,11.489135,-0.56869984,1.4965236,-0.06453395
