Afshin1997/kuka_rl_ros2/src/catch_and_throw/input_files/idealpd/recorded_trajectories/env_443_data.csv
torque0,torque1,torque2,torque3,torque4,torque5,torque6,action0,action1,action2,action3,action4,action5,action6,set_target_0,set_target_1,set_target_2,set_target_3,set_target_4,set_target_5,set_target_6,joint_pos_0,joint_pos_1,joint_pos_2,joint_pos_3,joint_pos_4,joint_pos_5,joint_pos_6,joint_vel_0,joint_vel_1,joint_vel_2,joint_vel_3,joint_vel_4,joint_vel_5,joint_vel_6,tennisball_pos_0,tennisball_pos_1,tennisball_pos_2,tennisball_lin_vel_0,tennisball_lin_vel_1,tennisball_lin_vel_2,end_effector_pos_0,end_effector_pos_1,end_effector_pos_2,end_effector_rot_0,end_effector_rot_1,end_effector_rot_2,end_effector_rot_3,end_effector_lin_vel_0,end_effector_lin_vel_1,end_effector_lin_vel_2,obs_task_0,obs_task_1,obs_task_2,obs_task_3,obs_task_4,obs_task_5,obs_task_6,to_final_target_0,to_final_target_1,to_final_target_2,joint_acc_0,joint_acc_1,joint_acc_2,joint_acc_3,joint_acc_4,joint_acc_5,joint_acc_6
0.0,0.0,0.0,0.0,0.0,0.0,0.0,0.0,0.0,0.0,0.0,0.0,0.0,0.0,1.7802359,-1.0646509,-1.8151424,-1.1170107,1.9373155,1.1170107,-0.91629785,1.7802359,-1.0646509,-1.8151424,-1.1170107,1.9373155,1.1170107,-0.91629785,0.0,0.0,0.0,0.0,0.0,0.0,0.0,2.952057,-0.37091446,0.28264242,-3.765457,-0.32092476,4.511222,0.5304184,-0.45449448,0.693097,0.5745483,0.17512383,0.15255436,0.7848268,0.0,0.0,0.0,1.0,0.0,0.0,0.0,0.0,0.0,0.0,-3.602057,-0.029085547,0.2673576,0.0,0.0,0.0,0.0,0.0,0.0,0.0
0.0,0.0,0.0,0.0,0.0,0.0,0.0,0.0,0.0,0.0,0.0,0.0,0.0,0.0,1.7802359,-1.0646509,-1.8151424,-1.1170107,1.9373155,1.1170107,-0.91629785,1.7802359,-1.0646509,-1.8151424,-1.1170107,1.9373155,1.1170107,-0.91629785,0.0,0.0,0.0,0.0,0.0,0.0,0.0,2.952057,-0.37091446,0.28264242,-3.765457,-0.32092476,4.511222,0.5304184,-0.45449448,0.693097,0.5745483,0.17512383,0.15255436,0.7848268,0.0,0.0,0.0,1.0,0.0,0.0,0.0,0.0,0.0,0.0,-3.602057,-0.029085547,0.2673576,0.0,0.0,0.0,0.0,0.0,0.0,0.0
0.0,0.0,0.0,0.0,0.0,0.0,0.0,0.0,0.0,0.0,0.0,0.0,0.0,0.0,1.7802359,-1.0646509,-1.8151424,-1.1170107,1.9373155,1.1170107,-0.91629785,1.7802359,-1.0646509,-1.8151424,-1.1170107,1.9373155,1.1170107,-0.91629785,0.0,0.0,0.0,0.0,0.0,0.0,0.0,2.952057,-0.37091446,0.28264242,-3.765457,-0.32092476,4.511222,0.5304184,-0.45449448,0.693097,0.5745483,0.17512383,0.15255436,0.7848268,0.0,0.0,0.0,1.0,0.0,0.0,0.0,0.0,0.0,0.0,-3.602057,-0.029085547,0.2673576,0.0,0.0,0.0,0.0,0.0,0.0,0.0
-176.0,60.31564,-9.895466,110.0,10.074634,4.386465,-3.982235,-0.80167365,0.31099114,-0.56816536,0.7326428,-0.086848006,0.6753043,-0.564182,1.7000685,-1.0335518,-1.871959,-1.0437465,1.9286307,1.1845411,-0.97271603,1.7789656,-1.0626234,-1.8210475,-1.1115977,1.939425,1.1217467,-0.91602415,-0.16916814,0.2696361,-0.7869456,0.7220537,0.2808673,0.63002306,0.03667162,2.9144287,-0.3741188,0.32698435,-3.7616923,-0.3206039,4.4085255,0.52843475,-0.45759583,0.69377756,0.57801455,0.17355257,0.15219516,0.78269744,-0.26397514,-0.41398188,0.09048126,1.0,0.0,0.0,0.0,0.0,0.0,0.0,-3.5644288,-0.025881201,0.22301567,-16.822744,26.771597,-78.593704,72.32076,27.943806,62.628746,3.7218266
-176.0,-46.45779,-52.43757,109.75707,11.770077,0.7863305,-3.6793492,-0.8076886,-0.23259005,-0.59147096,0.71234065,-0.07622842,0.65366554,-0.58334696,1.6981968,-1.0858824,-1.8801947,-1.0403636,1.9318022,1.1871132,-0.97435886,1.7777373,-1.0606016,-1.8361709,-1.0959383,1.9432683,1.1343409,-0.9137725,-0.11287277,0.16298948,-1.7104222,1.8465544,0.39711475,1.423341,0.27495039,2.8768387,-0.37732315,0.37030008,-3.7579315,-0.32028338,4.3059316,0.5240631,-0.46585846,0.69427276,0.58594275,0.16973457,0.15076372,0.77790207,-0.49531934,-0.95984644,0.04074922,1.0,0.0,0.0,0.0,0.0,0.0,0.0,-3.5268388,-0.022676855,0.17969993,3.9893851,-15.6992855,-79.26648,112.24677,5.0885797,65.53697,19.918758
-159.50906,63.72453,9.264807,83.81887,7.810475,5.7424083,-2.1377375,-0.746257,0.09136365,-0.08955529,0.64782155,-0.09373787,0.69209194,-0.46292403,1.7031115,-1.0514653,-1.8451264,-1.0311562,1.9338945,1.2035501,-0.96006495,1.7734534,-1.0591139,-1.8520763,-1.0758234,1.946446,1.1485316,-0.9113931,-0.53273094,0.14138119,-1.5460461,2.068637,0.2868768,1.4132618,0.22558098,2.8392868,-0.38052368,0.41259065,-3.7541745,-0.31996316,4.20344,0.5170822,-0.47719193,0.69551104,0.59675443,0.16471839,0.14871994,0.7711254,-0.7724279,-1.1842973,0.15535991,1.0,0.0,0.0,0.0,0.0,0.0,0.0,-3.489287,-0.019476324,0.13740936,-41.7728,-2.9311447,17.786907,22.882343,-12.3944645,-2.2798061,-4.9515934
-103.6524,69.27576,25.781498,49.793365,5.658294,6.4957848,-0.08657149,-0.7699904,-0.123512976,0.18047237,0.6480468,0.10470968,0.6614681,-0.5212829,1.6964543,-1.0714651,-1.8340291,-1.0110188,1.9569169,1.2146784,-0.9635214,1.7648302,-1.0588354,-1.8626201,-1.056193,1.9487233,1.1617953,-0.9097528,-0.9726575,-0.011819545,-0.88372695,1.9290435,0.20159218,1.2947465,0.14363325,2.801773,-0.3837204,0.45385706,-3.750421,-0.31964326,4.1010513,0.5076828,-0.48960876,0.6978492,0.6083854,0.1589239,0.14534837,0.7638614,-1.0065694,-1.2492799,0.26405254,1.0,0.0,0.0,0.0,0.0,0.0,0.0,-3.4517732,-0.016279608,0.09614295,-44.1565,-15.840593,68.236015,-13.603425,-10.488647,-12.658715,-8.142651
-47.456192,119.131584,48.97766,30.399712,3.0229383,7.283988,0.59681207,-0.79515266,0.06610951,0.23953028,0.6774238,0.17575467,0.65812856,-0.53143173,1.685315,-1.0522244,-1.838667,-0.98845065,1.9662988,1.2276081,-0.962896,1.752484,-1.0590585,-1.8660629,-1.0390116,1.9505105,1.1737181,-0.908966,-1.3229194,-0.027571183,-0.15793894,1.6476055,0.1652175,1.1561587,0.056357045,2.7642975,-0.3869171,0.49410036,-3.7466712,-0.3193237,3.9987648,0.49640274,-0.5016098,0.7016761,0.6196945,0.15220025,0.14053284,0.7570101,-1.1801157,-1.1711497,0.4236732,1.0,0.0,0.0,0.0,0.0,0.0,0.0,-3.4142976,-0.013082892,0.05589965,-35.346676,-2.07371,74.50806,-28.214836,-5.4074345,-14.406133,-8.934929
-11.059273,134.90256,51.464626,18.044643,1.0853872,5.8836,0.5168177,-0.81507236,0.20327929,0.11552806,0.6624924,0.32990915,0.64205486,-0.56739485,1.6709768,-1.0387306,-1.8545101,-0.97276235,1.9835014,1.2379236,-0.9657055,1.7376829,-1.0584749,-1.8642719,-1.024592,1.95262,1.1843554,-0.9090051,-1.5333271,0.085718475,0.29565758,1.3730762,0.22288516,1.0322162,-0.02495456,2.72686,-0.3901062,0.53332156,-3.7429252,-0.31900442,3.8965812,0.48392487,-0.5124588,0.70696765,0.6304182,0.14474133,0.13490275,0.7506157,-1.2804232,-1.0444555,0.5633695,1.0,0.0,0.0,0.0,0.0,0.0,0.0,-3.3768601,-0.009893805,0.016678452,-21.319271,10.926938,46.592106,-27.596973,4.7185364,-12.614298,-8.414844
11.87811,154.52634,51.89928,12.743806,-0.84424585,4.5253105,-0.061099507,-0.8259953,0.44268414,-0.08493094,0.62250286,0.37244788,0.63663805,-0.5538702,1.6550834,-1.0142065,-1.872765,-0.9623418,1.9898648,1.2480192,-0.9643921,1.7217032,-1.0555013,-1.8607738,-1.0124594,1.9555669,1.1939017,-0.9097633,-1.6205235,0.3667267,0.37059397,1.159496,0.31695977,0.9288829,-0.09412379,2.6894608,-0.3932953,0.5715217,-3.739183,-0.31868547,3.7944996,0.47092438,-0.52182007,0.7135637,0.6407973,0.13686211,0.12969054,0.7441961,-1.3168014,-0.8879528,0.6897006,1.0,0.0,0.0,0.0,0.0,0.0,0.0,-3.3394608,-0.006704718,-0.021521688,-9.026051,27.751177,8.246332,-21.480633,8.928472,-10.315525,-7.3129272
32.106926,164.84181,54.42421,8.594264,-1.6741138,3.8756166,-0.14303854,-0.8178984,0.57816774,-0.022133408,0.57055706,0.497177,0.61784554,-0.5215925,1.6399133,-0.9976846,-1.8629872,-0.9554037,2.0052845,1.2556862,-0.9619225,1.7055327,-1.0492929,-1.8576076,-1.0019823,1.9597688,1.2025362,-0.91110414,-1.6170555,0.7045757,0.30090314,1.0100296,0.45359093,0.8417528,-0.14878248,2.6520958,-0.39647675,0.60870177,-3.7354445,-0.31836686,3.6925201,0.45785522,-0.5294876,0.72146225,0.6509421,0.12866794,0.12549573,0.737543,-1.3112805,-0.713751,0.8213648,1.0,0.0,0.0,0.0,0.0,0.0,0.0,-3.302096,-0.0035232604,-0.058701754,0.008964539,33.475937,-6.28615,-15.078068,13.35094,-8.6865425,-5.889322
41.54205,160.82784,54.14388,7.381921,-1.7202082,3.5496998,-0.10373962,-0.80425787,0.657787,0.08148751,0.56316924,0.5032792,0.61802375,-0.50956655,1.6251069,-0.9835142,-1.8494588,-0.9456654,2.0100968,1.2643386,-0.9620608,1.6897703,-1.0399584,-1.8551013,-0.99243355,1.9651837,1.2104098,-0.9129066,-1.5634685,1.0089592,0.2361901,0.93608254,0.5698235,0.76893485,-0.19199313,2.614769,-0.3996582,0.64486283,-3.73171,-0.31804854,3.5906427,0.44496536,-0.53544235,0.7306897,0.6608547,0.120052785,0.12230287,0.7306849,-1.2885747,-0.54254764,0.954942,1.0,0.0,0.0,0.0,0.0,0.0,0.0,-3.264769,-0.00034180284,-0.09486282,5.0548315,30.172216,-5.794063,-7.516587,11.368429,-7.352519,-4.726088
41.14437,142.95752,49.137703,6.985635,-1.2836921,3.1425357,0.014259998,-0.7941088,0.7083529,0.14977333,0.5510977,0.52483135,0.6380488,-0.50068766,1.6103594,-0.96912307,-1.840124,-0.9373238,2.0176668,1.2742146,-0.9629754,1.674647,-1.02819,-1.8528354,-0.98324585,1.9715638,1.2176615,-0.9150714,-1.4962691,1.2322073,0.22537966,0.91267043,0.6600342,0.7101032,-0.22583345,2.5774803,-0.40283585,0.68000585,-3.7279792,-0.31773055,3.488867,0.4322853,-0.5398483,0.7411169,0.670493,0.11092953,0.11978962,0.7237293,-1.2649254,-0.39259103,1.070339,1.0,0.0,0.0,0.0,0.0,0.0,0.0,-3.2274804,0.00283584,-0.13000584,6.4757586,22.10772,-0.4449159,-2.4493814,8.813345,-6.0302854,-3.7556143
34.51133,116.62393,40.303635,6.58794,-0.72972745,2.5058303,0.10987549,-0.78303707,0.7343603,0.17611846,0.5416473,0.5513773,0.643255,-0.49599302,1.5963433,-0.954754,-1.8352236,-0.92908114,2.0267015,1.281987,-0.9646707,1.6601416,-1.0148824,-1.8503864,-0.97409344,1.9786744,1.2244097,-0.91752046,-1.435822,1.3628695,0.25322497,0.91576034,0.7274851,0.662515,-0.2524143,2.5402298,-0.40600967,0.7141319,-3.7242517,-0.31741288,3.3871932,0.41980362,-0.5430069,0.752426,0.6798208,0.10135641,0.117582135,0.71676004,-1.2462434,-0.27531493,1.1489052,1.0,0.0,0.0,0.0,0.0,0.0,0.0,-3.19023,0.006009668,-0.16413188,5.8621645,12.907052,3.3288896,0.19290447,6.5945625,-4.89738,-2.9953928
24.415892,90.96073,30.832577,6.722288,-0.20646203,1.8669319,0.14778474,-0.78137743,0.7488223,0.1849694,0.5308682,0.5779714,0.6505577,-0.49291858,1.5820038,-0.94000024,-1.8318894,-0.9210066,2.0364716,1.2894654,-0.9668123,1.6460844,-1.0008386,-1.8475597,-0.96486664,1.98634,1.2307554,-0.9201936,-1.396301,1.4179246,0.2940552,0.92442477,0.77917606,0.62490034,-0.27333927,2.5030136,-0.4091835,0.747242,-3.7205281,-0.31709552,3.285621,0.40743256,-0.5452614,0.76422155,0.68883115,0.09149617,0.11539984,0.70980483,-1.2361387,-0.1921478,1.1873653,1.0,0.0,0.0,0.0,0.0,0.0,0.0,-3.1530137,0.009183496,-0.19724196,3.8098097,5.400133,4.531246,0.71783066,5.080712,-3.8448453,-2.4004638
16.422092,73.44297,24.111515,7.1707335,0.12254238,1.4301498,0.14360866,-0.77547765,0.7580522,0.20077343,0.5318082,0.5813823,0.6581691,-0.4866629,1.5685366,-0.92503345,-1.8274823,-0.9116858,2.0444782,1.2965723,-0.9688599,1.6322886,-0.9866032,-1.8443019,-0.9555416,1.9943795,1.2367865,-0.9230413,-1.3745013,1.425256,0.33763796,0.93461484,0.8122352,0.59567153,-0.28944948,2.4658356,-0.4123497,0.7793371,-3.7168083,-0.31677848,3.1841502,0.39510727,-0.54686356,0.7761964,0.69754285,0.08148357,0.1131056,0.70285237,-1.232832,-0.13265672,1.1979816,1.0,0.0,0.0,0.0,0.0,0.0,0.0,-3.1158357,0.012349695,-0.2293371,2.0598888,0.66583157,4.7350464,0.8406997,3.2639265,-2.948022,-1.8961728
10.666973,61.1964,18.933647,7.1658645,0.24006248,1.040715,0.11304816,-0.77292234,0.7598113,0.19310375,0.5237239,0.58917046,0.66116726,-0.4892953,1.5549964,-0.91062206,-1.8249916,-0.9031692,2.0532966,1.3029032,-0.9719708,1.6186053,-0.9724774,-1.8407466,-0.94617367,2.0026593,1.2425715,-0.92602724,-1.3667147,1.4082081,0.36255553,0.9368515,0.8332708,0.5730205,-0.3024398,2.4286957,-0.4155159,0.81041825,-3.7130923,-0.31646177,3.0827808,0.38279724,-0.54797745,0.78811055,0.70598453,0.07145142,0.110690095,0.69586504,-1.231832,-0.08932122,1.185976,1.0,0.0,0.0,0.0,0.0,0.0,0.0,-3.0786958,0.015515894,-0.26041824,0.6663799,-1.7432928,2.80357,0.015592575,2.102518,-2.2256136,-1.5581608
7.4379716,56.45708,16.251863,7.4743323,0.18080992,0.80789554,0.044994242,-0.7697091,0.7696098,0.16847618,0.52274686,0.58021724,0.66811746,-0.47590834,1.5416343,-0.8955164,-1.823899,-0.89389896,2.060681,1.3093833,-0.9736181,1.6049467,-0.9585261,-1.8371723,-0.93681335,2.0110478,1.2481714,-0.9291133,-1.366067,1.3907013,0.35651994,0.9349331,0.84057605,0.55583525,-0.31141448,2.391594,-0.41867828,0.84048647,-3.7093801,-0.31614536,2.981513,0.37049484,-0.5487175,0.79982406,0.7142026,0.06148967,0.10826838,0.6887754,-1.2300005,-0.05284056,1.1629845,1.0,0.0,0.0,0.0,0.0,0.0,0.0,-3.041594,0.018678278,-0.29048645,-0.04761219,-1.7768621,-0.33893585,-0.41066408,0.7619858,-1.642704,-1.132065
7.542664,53.73187,14.7815275,6.278923,0.019742072,0.6093662,0.06642951,-0.77195376,0.7664325,0.15812585,0.49087393,0.5976774,0.6623853,-0.47920144,1.5277513,-0.88188285,-1.8213596,-0.88772595,2.0708156,1.31441,-0.9770335,1.591252,-0.944735,-1.8337867,-0.9276352,2.0195127,1.2536227,-0.93227667,-1.3708683,1.3751204,0.33353347,0.91141665,0.8482502,0.54197085,-0.31869975,2.3545265,-0.42183685,0.8695428,-3.7056715,-0.31582928,2.8803463,0.35824966,-0.54909515,0.81124,0.72219306,0.05168458,0.10593666,0.68157405,-1.2227153,-0.01694401,1.1309196,1.0,0.0,0.0,0.0,0.0,0.0,0.0,-3.0045266,0.021836847,-0.31954277,-0.603199,-1.5767097,-2.0409763,-2.5880098,0.8103013,-1.2660146,-0.9541631
10.983948,57.53283,16.117018,5.2612143,-0.20943731,0.6275258,0.115216196,-0.7652846,0.77426964,0.16425934,0.47033474,0.5961704,0.6641531,-0.47531912,1.5147235,-0.867308,-1.8173608,-0.8806017,2.0791297,1.320038,-0.97980857,1.5775343,-0.9310183,-1.8306053,-0.9187851,2.0280232,1.2589575,-0.93549913,-1.3724457,1.3704795,0.31404606,0.87540567,0.85214025,0.53097194,-0.32427627,2.3174973,-0.42499542,0.8975882,-3.7019665,-0.31551352,2.7792807,0.34612656,-0.54904556,0.8223656,0.72991323,0.042032193,0.103759386,0.67430985,-1.2083133,0.027718166,1.102869,1.0,0.0,0.0,0.0,0.0,0.0,0.0,-2.9674973,0.024995416,-0.34758818,-0.28851032,-0.4892826,-1.6581059,-3.8299918,0.41800737,-0.97016096,-0.79030395
12.198367,57.85591,15.852125,4.573434,-0.36186117,0.51055247,0.12400149,-0.76660895,0.7767355,0.1325752,0.44417188,0.6023331,0.66865337,-0.46833828,1.5008734,-0.85334474,-1.8173478,-0.8743679,2.0882566,1.3258228,-0.98233294,1.5638033,-0.91729397,-1.8277175,-0.9103708,2.0365758,1.2642008,-0.9387645,-1.3736211,1.3730268,0.28129557,0.82939214,0.856443,0.5227167,-0.3280245,2.2805061,-0.42814636,0.92462367,-3.6982653,-0.31519806,2.678316,0.33418655,-0.54854584,0.8331947,0.7373466,0.032550003,0.101804025,0.66700554,-1.1880746,0.07372675,1.072699,1.0,0.0,0.0,0.0,0.0,0.0,0.0,-2.9305062,0.028146356,-0.37462366,-0.25217533,0.23362637,-2.9917002,-4.832983,0.46732426,-0.6751299,-0.60077906
17.755566,59.352345,16.76637,1.3634453,-0.70118356,0.42521966,0.28589803,-0.7694564,0.77722764,0.15192987,0.36170754,0.61741203,0.65767,-0.4695941,1.4868577,-0.8395712,-1.8125246,-0.87420005,2.098317,1.3299679,-0.9857239,1.5500532,-0.9035229,-1.825011,-0.90271664,2.0452046,1.2693697,-0.9420633,-1.3759273,1.3785201,0.26829264,0.7432042,0.86531764,0.51557475,-0.33122742,2.2435493,-0.4312973,0.9506503,-3.694568,-0.31488293,2.5774527,0.3225441,-0.5474968,0.84369797,0.7443887,0.023274468,0.10008005,0.65979373,-1.1547874,0.12979783,1.0392888,1.0,0.0,0.0,0.0,0.0,0.0,0.0,-2.8935494,0.031297296,-0.40065026,-0.38042068,0.531888,-0.9667754,-8.862209,0.9062767,-0.50596,-0.5598068
27.082003,60.05995,17.619156,-4.3691754,-1.3022339,0.20642278,0.52966875,-0.7640441,0.78079724,0.16808252,0.24023245,0.6313643,0.654843,-0.47086427,1.4736488,-0.8254432,-1.8082027,-0.8786934,2.108341,1.334854,-0.9891497,1.5363089,-0.8896813,-1.8222778,-0.8963804,2.0539556,1.2744814,-0.9453916,-1.3744551,1.3861197,0.2760071,0.59621686,0.87851536,0.5106147,-0.33408466,2.2066307,-0.43444443,0.975669,-3.690874,-0.31456813,2.4766898,0.31140518,-0.5457802,0.8537978,0.7508523,0.014286218,0.09859487,0.6529133,-1.0981324,0.19922133,0.99654,1.0,0.0,0.0,0.0,0.0,0.0,0.0,-2.8566308,0.03444442,-0.425669,-0.009775162,0.75695515,1.1386812,-14.955616,1.3301015,-0.17001629,-0.5340457
34.347687,60.333553,18.24786,-8.706425,-1.7448777,0.0010044575,0.7263247,-0.7589243,0.7830036,0.19317493,0.1269163,0.637651,0.65827703,-0.4577036,1.4604164,-0.8113809,-1.8029603,-0.8836888,2.1177206,1.3403091,-0.99116194,1.5226084,-0.87576336,-1.8193042,-0.8918457,2.06284,1.2795588,-0.9487342,-1.3689605,1.3936614,0.30555606,0.4051508,0.89224565,0.50799656,-0.33511057,2.1697502,-0.43758774,0.99968094,-3.6871839,-0.31425363,2.3760278,0.30096436,-0.5433006,0.86342245,0.75657547,0.0056553655,0.09735565,0.64659363,-1.0223681,0.2764055,0.94718355,1.0,0.0,0.0,0.0,0.0,0.0,0.0,-2.8197503,0.037587732,-0.44968092,0.40774345,0.7711649,3.3029497,-19.350082,1.3989329,0.15907288,-0.33916235
40.619896,59.76642,18.54826,-13.059628,-2.1414602,-0.23459503,0.9357413,-0.76240265,0.7854819,0.23576751,-0.030977089,0.66121644,0.64598656,-0.4509264,1.4463681,-0.79721516,-1.7957275,-0.8949434,2.1289616,1.3441575,-0.99382687,1.5089461,-0.8617758,-1.8158462,-0.88961315,2.0719113,1.2846094,-0.9520778,-1.3655798,1.4005181,0.36027676,0.16185564,0.912307,0.50592643,-0.3348234,2.1329079,-0.44072723,1.022687,-3.6834974,-0.31393942,2.2754664,0.29141998,-0.54000854,0.8724911,0.7614075,-0.0025254863,0.09634056,0.64107,-0.9284603,0.35893503,0.8893322,1.0,0.0,0.0,0.0,0.0,0.0,0.0,-2.782908,0.040727228,-0.47268695,0.22213459,0.7263899,5.7688293,-24.541443,2.0647883,0.3104806,-0.1764059
48.14318,61.405045,19.565517,-17.15232,-2.6222014,-0.45852804,1.1101133,-0.74556303,0.7969093,0.27677906,-0.1888838,0.65950537,0.64490193,-0.42059848,1.4343897,-0.7820849,-1.7881683,-0.9085015,2.137862,1.3490996,-0.99413764,1.4953886,-0.8476853,-1.8117168,-0.8900776,2.0811543,1.2896467,-0.9553928,-1.3526189,1.4121166,0.43107465,-0.11641465,0.92855585,0.5050923,-0.33093038,2.0960999,-0.44386292,1.0446881,-3.6798148,-0.31362554,2.1750057,0.28295135,-0.5358124,0.88095134,0.7652178,-0.010191748,0.09557817,0.6365554,-0.81418216,0.44877177,0.8271662,1.0,0.0,0.0,0.0,0.0,0.0,0.0,-2.7461,0.04386291,-0.4946881,1.2388706,1.2277126,7.262582,-27.973831,1.7454147,0.5191684,0.23318529
50.466873,63.1305,20.44861,-17.293097,-2.6723065,-0.54870105,1.1443413,-0.72501767,0.80359405,0.3252381,-0.29887778,0.6559886,0.64395034,-0.37585053,1.4228868,-0.7673259,-1.7791929,-0.9199654,2.1467533,1.3540418,-0.99297786,1.4820505,-0.8334641,-1.8067882,-0.89323235,2.0905156,1.2946783,-0.95863336,-1.3273934,1.4257492,0.5134494,-0.3820403,0.9391067,0.5047019,-0.3221028,2.05933,-0.4469986,1.0656854,-3.6761358,-0.313312,2.0746455,0.27565765,-0.5307236,0.88883066,0.767974,-0.01736458,0.09507396,0.6331472,-0.6946514,0.53771776,0.76997674,1.0,0.0,0.0,0.0,0.0,0.0,0.0,-2.70933,0.04699859,-0.5156854,2.5407553,1.4604568,8.245439,-26.62932,1.2708783,0.5786061,0.7851958
46.42111,63.524242,20.683775,-13.636377,-2.2524798,-0.49652454,1.0574437,-0.7138343,0.80463856,0.38419157,-0.37911138,0.66235733,0.6312218,-0.33080846,1.4106671,-0.75300026,-1.7683691,-0.93114346,2.1567514,1.3578005,-0.99171424,1.4689928,-0.81912845,-1.800946,-0.8987093,2.0999684,1.2996966,-0.9617538,-1.2983118,1.4366896,0.6074639,-0.60284334,0.9484213,0.50280756,-0.30884695,2.0225945,-0.45012665,1.0856799,-3.6724603,-0.31299874,1.9743854,0.26947784,-0.5247917,0.8962227,0.76974815,-0.024135066,0.09476129,0.6308135,-0.58707124,0.61748356,0.7237237,1.0,0.0,0.0,0.0,0.0,0.0,0.0,-2.6725945,0.050126642,-0.5356799,2.9797792,1.2172937,9.239483,-22.091085,1.2504935,0.38506985,1.2748361
41.2521,63.1822,20.631464,-9.342702,-1.7754227,-0.41785145,0.9455081,-0.69519013,0.8051738,0.43966615,-0.4450454,0.65919316,0.6240168,-0.24900739,1.3994738,-0.7386111,-1.7569793,-0.9432138,2.1658878,1.3620982,-0.9866545,1.4562575,-0.8047127,-1.7941177,-0.9059944,2.1094823,1.3046881,-0.96468824,-1.2649105,1.4436064,0.7068236,-0.770411,0.9540031,0.4998134,-0.2883053,1.9858971,-0.4532547,1.1046726,-3.6687887,-0.31268582,1.8742255,0.26424408,-0.5181389,0.90323997,0.7706441,-0.030619608,0.094560064,0.62946665,-0.4945686,0.68741006,0.68854755,1.0,0.0,0.0,0.0,0.0,0.0,0.0,-2.6358972,0.053254694,-0.55467254,3.4457922,0.8363724,9.6393585,-16.740454,0.96263885,0.22813678,2.0312667
35.470726,61.66114,20.263117,-4.807783,-1.2399058,-0.33104044,0.84500015,-0.67287683,0.7991749,0.49922985,-0.48443916,0.6547546,0.61116433,-0.10413263,1.3889698,-0.7247952,-1.7441947,-0.9544383,2.1749578,1.3658046,-0.97510153,1.4438883,-0.7902855,-1.7862613,-0.91453075,2.1190267,1.3096396,-0.96732134,-1.227208,1.442931,0.8104721,-0.88132215,0.9558754,0.49525666,-0.2550116,1.9492378,-0.45637894,1.1226643,-3.6651206,-0.3123732,1.7741657,0.25981903,-0.5108528,0.9099874,0.7707559,-0.03693393,0.09438433,0.6290174,-0.41921756,0.74643844,0.6637989,1.0,0.0,0.0,0.0,0.0,0.0,0.0,-2.599238,0.05637893,-0.5726643,3.8924456,0.09329319,9.973145,-11.075676,0.6556511,0.024718046,3.3128679
26.636284,58.05511,18.487726,0.3186574,-0.707572,-0.28974992,0.6647162,-0.6685355,0.79975593,0.5223332,-0.50854594,0.6436044,0.60345083,0.026463304,1.3770348,-0.7103099,-1.734028,-0.9653853,2.183387,1.3699846,-0.964675,1.431832,-0.77588314,-1.77752,-0.9238157,2.1285405,1.3145415,-0.9695434,-1.1983566,1.4398794,0.89397657,-0.9443389,0.95160425,0.48962268,-0.21135336,1.9126129,-0.45949936,1.1396562,-3.661456,-0.3120609,1.6742059,0.25598907,-0.5030823,0.91653067,0.77022237,-0.04314289,0.09422945,0.62929887,-0.36356592,0.7909379,0.6445524,1.0,0.0,0.0,0.0,0.0,0.0,0.0,-2.562613,0.059499353,-0.5896562,2.9788733,-0.13811588,7.9528213,-6.3194275,0.044858456,-0.151366,4.350579
10.581591,51.882713,15.270714,9.671102,0.2985512,-0.110979766,0.32671112,-0.68419635,0.79352295,0.52616805,-0.449702,0.62657374,0.6165312,0.21670248,1.3634124,-0.6965308,-1.7249031,-0.96878594,2.1911979,1.3761946,-0.9478732,1.4198881,-0.7615437,-1.768193,-0.9331322,2.1379514,1.3193918,-0.97121996,-1.1930964,1.4325771,0.9445507,-0.9277687,0.9395015,0.48463866,-0.1532116,1.8760262,-0.46261978,1.1556493,-3.6577954,-0.3117489,1.5743461,0.25243378,-0.49505997,0.92296296,0.7692979,-0.049334306,0.094104454,0.6299929,-0.345574,0.8105656,0.6359654,1.0,0.0,0.0,0.0,0.0,0.0,0.0,-2.5260262,0.062619776,-0.6056493,0.52103996,-0.55880547,4.726124,1.5405536,-0.75427294,-0.20852089,5.775151
-4.2600536,44.884556,11.647761,18.045416,1.1739912,0.011098087,-0.031345133,-0.7051835,0.7875766,0.5096356,-0.38115773,0.6017575,0.63148475,0.3295882,1.3493698,-0.68278605,-1.7172295,-0.971248,2.198127,1.3825403,-0.93826115,1.4078108,-0.7472977,-1.7586639,-0.94177055,2.1471753,1.3242041,-0.9722747,-1.2129961,1.4224147,0.95480293,-0.84318113,0.9179086,0.48072377,-0.08980493,1.8394737,-0.46573257,1.1706445,-3.6541386,-0.3114372,1.474586,0.24880981,-0.48701477,0.92936623,0.76828104,-0.055592027,0.09404442,0.6307213,-0.36093524,0.8063542,0.6347994,1.0,0.0,0.0,0.0,0.0,0.0,0.0,-2.4894738,0.06573257,-0.6206445,-2.1044016,-0.84605217,0.79295635,8.239841,-1.7452359,-0.21359324,6.2791243
-10.150675,40.101612,9.3955145,20.951273,1.4616213,-0.031811014,-0.19929345,-0.7180146,0.78302413,0.49747697,-0.3495049,0.5835005,0.63832814,0.3872875,1.3360094,-0.66899526,-1.7089162,-0.97672105,2.2055254,1.3880368,-0.93354595,1.3954417,-0.7331595,-1.7492397,-0.9494076,2.1561437,1.3289858,-0.97271055,-1.2453513,1.4115103,0.9376759,-0.7381145,0.8914334,0.47769058,-0.02832766,1.8029594,-0.46884537,1.1846429,-3.650485,-0.31112581,1.3749257,0.24494553,-0.47909546,0.93575305,0.7673587,-0.061925877,0.09410996,0.6312441,-0.38732263,0.7909595,0.633079,1.0,0.0,0.0,0.0,0.0,0.0,0.0,-2.4529595,0.06884536,-0.6346429,-3.3995867,-0.9302139,-1.8738508,10.247648,-2.280748,-0.17748475,6.0801992
-15.531327,36.724457,7.928122,24.594439,1.8321627,0.018689275,-0.3712516,-0.7365525,0.7741523,0.48130992,-0.25652584,0.55626875,0.6488774,0.44675076,1.3217864,-0.65574425,-1.7011087,-0.97506016,2.2117705,1.3938736,-0.9280355,1.3826948,-0.71914715,-1.7401149,-0.95573807,2.1648068,1.3337466,-0.97255224,-1.2849915,1.3982712,0.90370935,-0.59899724,0.85916704,0.47573,0.030319933,1.7664833,-0.47195435,1.1976454,-3.6468353,-0.31081477,1.2753651,0.2407074,-0.4713974,0.9421596,0.7666746,-0.068380825,0.09432156,0.6313776,-0.42740515,0.76637816,0.6363642,1.0,0.0,0.0,0.0,0.0,0.0,0.0,-2.4164834,0.07195434,-0.6476454,-4.165125,-1.1696577,-3.5242796,13.620388,-2.8744698,-0.121605396,5.7884555
-18.996162,34.595356,7.231203,27.612804,2.1485975,0.094747886,-0.5003195,-0.75634193,0.76239145,0.46564487,-0.14948976,0.52860767,0.648819,0.4864435,1.3070606,-0.642908,-1.6935505,-0.97068703,2.2176676,1.3986285,-0.9239079,1.369536,-0.705295,-1.7313755,-0.9604397,2.173119,1.3384882,-0.9718427,-1.3269186,1.3813928,0.8636644,-0.42813864,0.8230339,0.4737657,0.08426559,1.7300415,-0.4750595,1.209653,-3.6431892,-0.31050402,1.175904,0.23599625,-0.46398544,0.9486461,0.7663419,-0.07503676,0.094658785,0.6309748,-0.4788183,0.7365332,0.64621323,1.0,0.0,0.0,0.0,0.0,0.0,0.0,-2.3800416,0.0750595,-0.659653,-4.4068575,-1.5395164,-4.128921,16.784424,-3.2586932,-0.1640439,5.3139014
-12.699924,34.209236,7.8768616,23.373741,1.7071218,-0.061830014,-0.33317792,-0.76532483,0.7449759,0.47934026,-0.13895063,0.49352604,0.65073425,0.5282406,1.2930036,-0.63079745,-1.6834414,-0.9743347,2.2224717,1.4035616,-0.9190186,1.3560168,-0.6916613,-1.7228935,-0.96372414,2.181027,1.3432165,-0.9706239,-1.3607411,1.3578525,0.8427371,-0.29595822,0.7811484,0.47262153,0.13413905,1.6936378,-0.47816467,1.2206668,-3.6395466,-0.31019357,1.0765424,0.23088074,-0.45681,0.9551683,0.766279,-0.08187288,0.09512348,0.6301308,-0.51364523,0.71579856,0.6478772,1.0,0.0,0.0,0.0,0.0,0.0,0.0,-2.343638,0.07816467,-0.67066675,-3.546095,-2.2238731,-2.2104383,12.963867,-3.862238,-0.047838688,4.9078927
-12.020234,35.328793,8.900615,25.134651,1.8437485,0.04859057,-0.38361818,-0.7618422,0.7294147,0.46924385,0.009252359,0.44848377,0.6605307,0.5547565,1.2798325,-0.6187198,-1.6759691,-0.9627989,2.2258754,1.4092696,-0.91514826,1.3422858,-0.67829365,-1.7145679,-0.96541786,2.1884542,1.347941,-0.9689445,-1.3776184,1.3301901,0.82857025,-0.12793872,0.7312203,0.47251314,0.17894584,1.6572685,-0.4812622,1.2306876,-3.635908,-0.30988345,0.9772801,0.22538757,-0.44982147,0.9617805,0.76646614,-0.08898968,0.09567634,0.62885326,-0.5533938,0.69800675,0.65947026,1.0,0.0,0.0,0.0,0.0,0.0,0.0,-2.3072686,0.0812622,-0.6806876,-1.8164635,-2.636385,-1.5764117,16.57077,-4.653287,0.035125017,4.3976574
-13.560214,35.595787,9.06609,27.67491,2.0890284,0.12626785,-0.49495712,-0.7676842,0.72269386,0.43012503,0.14313819,0.44282216,0.6611575,0.5575084,1.2655174,-0.60602427,-1.6715554,-0.95110404,2.2327363,1.4140568,-0.91319364,1.3284537,-0.6651768,-1.7065017,-0.9651747,2.1954503,1.3526636,-0.9668674,-1.3853655,1.3059396,0.7987483,0.07435586,0.6903838,0.47225717,0.21702752,1.6209373,-0.48435974,1.2397166,-3.6322727,-0.30957362,0.878117,0.21943283,-0.44301605,0.96856993,0.76696914,-0.09649427,0.09626408,0.6270409,-0.6019263,0.67917955,0.67944133,1.0,0.0,0.0,0.0,0.0,0.0,0.0,-2.2709374,0.084359735,-0.68971664,-0.8867979,-2.2983074,-3.1643152,20.018858,-3.742206,-0.018393993,3.7338912
-12.904149,33.39489,8.022085,26.45251,1.9539547,-0.027005635,-0.52026176,-0.7779915,0.71288496,0.38235295,0.20869759,0.42853424,0.66682315,0.5346522,1.2506545,-0.5938883,-1.6682664,-0.94430494,2.2383037,1.419346,-0.9134022,1.3145529,-0.6522793,-1.6989162,-0.9630184,2.2020955,1.3573881,-0.96447366,-1.3920087,1.2847217,0.7447468,0.26214477,0.6569503,0.4725897,0.24654925,1.5846405,-0.48745346,1.2477548,-3.6286411,-0.30926412,0.7790531,0.21302414,-0.43641663,0.9755081,0.7678243,-0.10434711,0.09690843,0.6246329,-0.6457273,0.65948915,0.6928412,1.0,0.0,0.0,0.0,0.0,0.0,0.0,-2.2346406,0.087453455,-0.6977548,-0.76241493,-2.009964,-5.562556,18.588823,-3.0373096,0.038582087,2.889663
-5.0794353,35.22841,8.662306,19.375805,1.1672843,-0.33528277,-0.2903959,-0.78639865,0.71489877,0.3656499,0.18129373,0.43596503,0.66159993,0.52774686,1.235913,-0.58078945,-1.6623513,-0.94488907,2.245692,1.4235481,-0.911699,1.300572,-0.6395201,-1.6918743,-0.95961857,2.2085156,1.3621165,-0.961832,-1.4002637,1.2732677,0.6902876,0.36535695,0.6378445,0.47306374,0.26986715,1.5483818,-0.49054337,1.2548031,-3.6250134,-0.30895492,0.6800882,0.20639038,-0.42992783,0.98244655,0.7689052,-0.112351246,0.097691774,0.6217863,-0.66129386,0.65150607,0.68845767,1.0,0.0,0.0,0.0,0.0,0.0,0.0,-2.198382,0.09054336,-0.70480305,-0.91285706,-1.0607958,-5.518961,10.166353,-1.6774893,0.11752248,2.2687972
2.7227664,32.951927,7.6006055,10.905642,0.25248152,-0.8385114,-0.064464636,-0.7864068,0.7036875,0.31981772,0.14162596,0.39832106,0.66663873,0.5254915,1.2219313,-0.56915134,-1.6598924,-0.94545597,2.2483478,1.4287803,-0.90928286,1.2865282,-0.6268715,-1.6854618,-0.95587444,2.214703,1.3668562,-0.95899194,-1.40598,1.2623024,0.6248129,0.37685814,0.6127269,0.47506127,0.28848192,1.5121574,-0.49363327,1.2608624,-3.621389,-0.30864602,0.5812223,0.19986343,-0.42348862,0.98914784,0.7700533,-0.12021273,0.09877532,0.61871654,-0.64245766,0.64747953,0.6584881,1.0,0.0,0.0,0.0,0.0,0.0,0.0,-2.1621575,0.093633264,-0.71086234,-0.6447077,-1.0299206,-6.540799,0.9996712,-2.357924,0.37491322,1.7909825
11.76911,26.7174,4.9615126,-0.60925674,-0.8552351,-1.6049536,0.24265161,-0.79141855,0.6839072,0.26735523,0.0074087703,0.36935803,0.66621727,0.5184168,1.2073864,-0.5584808,-1.6587262,-0.95513356,2.251639,1.433478,-0.90715027,1.2724253,-0.6143889,-1.6798046,-0.95297146,2.220593,1.3716246,-0.9559974,-1.4117788,1.2437028,0.5464302,0.26086822,0.581329,0.47847584,0.30284056,1.4759712,-0.49671555,1.2659338,-3.6177683,-0.30833745,0.4824552,0.19386292,-0.4171219,0.99526685,0.7710918,-0.12750252,0.10035908,0.61570156,-0.5787373,0.63928187,0.59117687,1.0,0.0,0.0,0.0,0.0,0.0,0.0,-2.1259713,0.09671554,-0.71593374,-0.628376,-1.8042088,-7.7470183,-11.757255,-3.0869365,0.6673753,1.357609
22.283867,28.369614,5.6987734,-10.760944,-1.9689558,-2.0874176,0.6161621,-0.796299,0.6794345,0.2782102,-0.16035302,0.32198182,0.66550225,0.55062336,1.1927954,-0.5464454,-1.6519835,-0.9690068,2.2527912,1.4381748,-0.90093505,1.2582613,-0.60208553,-1.674712,-0.9521036,2.226071,1.3764292,-0.952856,-1.4179531,1.2261102,0.49750993,0.02847089,0.53660566,0.4826245,0.31758472,1.4398193,-0.49979782,1.2700182,-3.6141512,-0.30802917,0.38378692,0.18880844,-0.41077042,1.0005317,0.7717814,-0.13386837,0.102613665,0.61310947,-0.472494,0.63963366,0.5001586,1.0,0.0,0.0,0.0,0.0,0.0,0.0,-2.0898194,0.099797815,-0.7200182,-0.61905384,-1.7100334,-4.7369423,-23.349094,-4.509747,0.83548427,1.3943076
27.124664,28.174067,6.3654404,-14.565658,-2.2515798,-2.2882533,0.81653243,-0.7813344,0.6516788,0.29848132,-0.26444843,0.28532335,0.66833496,0.56800556,1.1801279,-0.5369176,-1.6448638,-0.97854847,2.2546031,1.4432627,-0.89605546,1.244126,-0.5900435,-1.6698177,-0.9538231,2.2310529,1.3812758,-0.94957155,-1.411817,1.1970738,0.48704866,-0.23892032,0.485379,0.48659584,0.33189785,1.4037056,-0.5028763,1.2731168,-3.6105378,-0.3077212,0.28521726,0.18493271,-0.40439224,1.0048424,0.7719495,-0.13919036,0.105526,0.61121535,-0.35138062,0.64001065,0.40350744,1.0,0.0,0.0,0.0,0.0,0.0,0.0,-2.0537057,0.102876276,-0.7231168,0.7001877,-2.8445482,-0.95614195,-26.786922,-5.178338,0.8088708,1.3592064
21.580246,22.614405,4.2059445,-10.40208,-1.8278869,-2.3065572,0.61062443,-0.7719277,0.6262811,0.2395522,-0.29093444,0.17319863,0.6689026,0.5847961,1.1669332,-0.5274154,-1.6458625,-0.98291653,2.2483728,1.448166,-0.89109194,1.2301127,-0.57836384,-1.66516,-0.9578066,2.2352757,1.3861548,-0.9461469,-1.3972672,1.1585532,0.45848662,-0.45161998,0.40119725,0.4892663,0.3457327,1.3676262,-0.5059509,1.2752304,-3.606928,-0.30741355,0.18674615,0.18214798,-0.39810944,1.0082417,0.77169234,-0.14352502,0.10911524,0.6099061,-0.24559818,0.6268629,0.31432465,1.0,0.0,0.0,0.0,0.0,0.0,0.0,-2.0176263,0.10595092,-0.7252304,1.5806675,-3.7812948,-2.869171,-21.317465,-8.438617,0.59064627,1.3121009
10.286535,15.475708,0.76071674,-1.3485627,-1.1764929,-2.1621969,0.12407014,-0.76179034,0.6064306,0.13795029,-0.25801304,-0.05010535,0.6710506,0.58734185,1.1539336,-0.51772076,-1.6513649,-0.9836079,2.2302651,1.4532598,-0.8874127,1.2162844,-0.5670933,-1.6612155,-0.9630871,2.238091,1.3910509,-0.94259924,-1.3776982,1.1168197,0.372922,-0.55381185,0.24197613,0.49053594,0.35735884,1.3315849,-0.5090256,1.27636,-3.6033218,-0.3071062,0.0883735,0.18021011,-0.3920555,1.0108715,0.77134585,-0.14705837,0.113602206,0.608682,-0.17029437,0.5983664,0.2416075,1.0,0.0,0.0,0.0,0.0,0.0,0.0,-1.9815849,0.10902557,-0.72636,2.0504713,-4.0976048,-8.613944,-10.329998,-15.904275,0.34487247,1.0536253
-0.40632725,1.9452034,-5.2406387,4.154644,-0.8709903,-2.2678335,-0.3033574,-0.76228076,0.5579433,0.025989104,-0.27868932,-0.3690814,0.68532246,0.58301723,1.1400564,-0.511299,-1.6586167,-0.990956,2.2011828,1.4595832,-0.8842975,1.2026163,-0.55637306,-1.6585891,-0.96889496,2.2385182,1.3959643,-0.93895715,-1.362933,1.0572934,0.2259997,-0.59033966,-0.02379663,0.4921924,0.36573586,1.295578,-0.5120926,1.2765067,-3.5997193,-0.30679914,-0.0099008065,0.1788826,-0.38645554,1.0127636,0.7712787,-0.1498715,0.119380005,0.6069729,-0.11359127,0.5478175,0.1676354,1.0,0.0,0.0,0.0,0.0,0.0,0.0,-1.945578,0.112092584,-0.72650665,1.5471935,-5.893731,-14.716652,-3.8291216,-26.584959,0.3226459,0.64634085
-12.459751,-22.217323,-14.336992,8.311597,0.13883156,-2.605328,-0.5942094,-0.7548417,0.45653796,-0.09665123,-0.27988884,-0.5176699,0.6867919,0.5679929,1.1271322,-0.51071924,-1.6682543,-0.99688387,2.1867514,1.4646435,-0.88215786,1.1890837,-0.5466179,-1.6578166,-0.97473526,2.2361379,1.400891,-0.93526167,-1.349653,0.9483326,0.02768152,-0.58274525,-0.3099588,0.49332872,0.36982623,1.2596054,-0.5151596,1.2756712,-3.59612,-0.30649242,-0.108076856,0.17790604,-0.38170624,1.0138373,0.7717769,-0.15188497,0.12648228,0.6043951,-0.08643184,0.4505039,0.083370045,1.0,0.0,0.0,0.0,0.0,0.0,0.0,-1.9096054,0.1151596,-0.72567123,1.4325857,-10.874283,-19.82945,0.53133965,-28.667435,0.22572279,0.110024214
-21.895494,-26.22785,-14.465701,18.536669,1.6491349,-2.0556073,-0.7667457,-0.7572421,0.39048177,-0.10143651,-0.16308554,-0.5904058,0.68743575,0.5692336,1.1133595,-0.50756973,-1.6679603,-0.9910438,2.1770973,1.4696345,-0.87833834,1.1756293,-0.5381188,-1.6587055,-0.9798145,2.2311788,1.4058272,-0.9315328,-1.3438537,0.8171454,-0.12776151,-0.48369762,-0.5576209,0.4940185,0.37279433,1.223671,-0.5182228,1.2738549,-3.5925248,-0.306186,-0.20615475,0.1768341,-0.37797928,1.0142838,0.7729512,-0.15333852,0.13451344,0.60078275,-0.10949657,0.34470475,0.028365323,1.0,0.0,0.0,0.0,0.0,0.0,0.0,-1.8736709,0.1182228,-0.72385484,0.6470442,-13.116455,-15.570458,9.676641,-24.7514,0.15128851,0.000166893
-32.91255,-50.938515,-22.783915,22.308395,3.19625,-2.319502,-0.86480194,-0.7541607,0.23590185,-0.22688356,-0.12089693,-0.61435246,0.6891675,0.56369495,1.1002132,-0.5145286,-1.6813939,-0.9919042,2.1697435,1.474744,-0.8751633,1.1622168,-0.53140396,-1.6612537,-0.9836931,2.2242627,1.4107691,-0.92778486,-1.3397366,0.6227698,-0.29753283,-0.35654485,-0.7360658,0.49452415,0.37442827,1.1877747,-0.5212822,1.2710584,-3.588933,-0.30587986,-0.3041346,0.17523956,-0.37568283,1.0141301,0.7748901,-0.1542347,0.14288417,0.59610486,-0.17297776,0.18958735,-0.032699008,1.0,0.0,0.0,0.0,0.0,0.0,0.0,-1.8377746,0.12128219,-0.7210584,0.5920172,-19.470537,-17.086035,12.548351,-17.81702,0.11407733,-0.14467835
-43.792725,-96.96661,-37.261612,18.947485,4.9245286,-3.0838912,-0.65130436,-0.7533547,-0.06520257,-0.24398641,-0.16030584,-0.6044181,0.6835832,0.5252279,1.0868813,-0.53792423,-1.6856524,-0.99972373,2.163821,1.4791274,-0.8752621,1.1488425,-0.52771705,-1.6651542,-0.98667526,2.2161374,1.4157072,-0.9240512,-1.3350775,0.2838427,-0.42201808,-0.27860525,-0.8379476,0.49348375,0.37213245,1.1519127,-0.5243416,1.2672828,-3.5853448,-0.30557406,-0.4020165,0.17272186,-0.37554932,1.0130707,0.7775565,-0.1542415,0.15067841,0.5906872,-0.2747439,-0.04674976,-0.13212426,1.0,0.0,0.0,0.0,0.0,0.0,0.0,-1.8019127,0.12434158,-0.71728283,0.9237528,-33.957596,-12.775689,7.8331947,-10.125387,-0.12814999,-0.5095422
-49.507866,-153.76645,-54.071766,7.6954794,6.2831416,-4.203555,-0.098497376,-0.70466167,-0.48822173,-0.18086973,-0.27198315,-0.5988582,0.67746043,0.46464887,1.0783763,-0.5765392,-1.6832412,-1.0138736,2.1562517,1.4834533,-0.87758636,1.1357485,-0.5289349,-1.6695793,-0.98969936,2.2074208,1.4206148,-0.92038053,-1.2982634,-0.25728738,-0.45145008,-0.30892327,-0.8826286,0.48868936,0.3648335,1.116085,-0.52739334,1.2625293,-3.5817602,-0.30526856,-0.4998005,0.1690445,-0.37848282,1.0105289,0.7807078,-0.15284023,0.15672395,0.5852971,-0.39983204,-0.37540513,-0.29565838,1.0,0.0,0.0,0.0,0.0,0.0,0.0,-1.766085,0.12739334,-0.71252924,4.457879,-54.205044,-3.5171032,-2.6362777,-4.385805,-0.8137584,-0.88710785
-17.143723,-119.79041,-36.84241,-11.4689455,4.22081,-3.759346,1.2095495,-0.62576634,-0.6492523,0.12915906,-0.5529049,-0.52070785,0.6747454,0.46257535,1.0731719,-0.59386015,-1.6566634,-1.0449898,2.15535,1.4880893,-0.874123,1.1233679,-0.53552383,-1.6724823,-0.9945755,2.1987386,1.4254538,-0.91676897,-1.2165166,-0.7931121,-0.2376073,-0.54565036,-0.86335355,0.47973835,0.3602486,1.0802956,-0.5304451,1.2567986,-3.5781791,-0.30496335,-0.5974868,0.16468048,-0.38410187,1.0062325,0.7834812,-0.14992745,0.1603033,0.58136195,-0.45015123,-0.6237464,-0.4748575,1.0,0.0,0.0,0.0,0.0,0.0,0.0,-1.7302955,0.1304451,-0.7067986,8.646131,-53.678417,21.031261,-23.224354,1.9004703,-1.6296923,-0.34834146
16.768494,-47.85786,-8.967761,-20.16424,1.1675464,-2.444847,1.8955752,-0.54101974,-0.68907666,0.30709127,-0.68125427,-0.65924984,0.6908428,0.46848762,1.069266,-0.6044315,-1.6417731,-1.062701,2.1328137,1.4945381,-0.8699202,1.112105,-0.54636997,-1.6722629,-1.0024228,2.189961,1.4302183,-0.9131879,-1.0963272,-1.1821475,0.10778019,-0.8639334,-0.88291,0.47289777,0.35818186,1.0445404,-0.53349304,1.2500917,-3.5746017,-0.30465844,-0.69507545,0.16049957,-0.39113998,1.0004011,0.7850982,-0.14594539,0.16172564,0.5797979,-0.41130048,-0.7275245,-0.62053484,1.0,0.0,0.0,0.0,0.0,0.0,0.0,-1.6945404,0.13349304,-0.70009166,12.018108,-39.000164,34.390182,-31.663395,-1.9682884,-1.4177263,0.018078089
42.102634,21.16795,16.290916,-18.180626,-0.85330266,-1.1892462,1.9441706,-0.36305717,-0.71578145,0.36199877,-0.651874,-0.7109074,0.69901884,0.43567318,1.0757993,-0.6179481,-1.636063,-1.0676103,2.1188703,1.5001202,-0.8696206,1.1026732,-0.55981773,-1.6687343,-1.0128446,2.1808324,1.4349486,-0.90964407,-0.89325166,-1.3990295,0.43414477,-1.1018872,-0.92214733,0.4719407,0.35405773,1.0088196,-0.5365372,1.2424096,-3.5710278,-0.30435383,-0.79256654,0.15715408,-0.3983078,0.99361223,0.7852118,-0.1416483,0.16166863,0.58072484,-0.31277433,-0.7084127,-0.69990313,1.0,0.0,0.0,0.0,0.0,0.0,0.0,-1.6588196,0.13653716,-0.6924096,19.968487,-21.701408,32.488216,-23.918842,-3.7317157,-0.42307377,-0.12876987
39.43645,45.30297,21.292011,-8.077634,-1.0604091,-0.8854785,1.2350155,-0.27125365,-0.75585526,0.21827662,-0.6029754,-0.7020132,0.68624014,0.37644577,1.0755478,-0.6354033,-1.6469066,-1.073142,2.110631,1.5035726,-0.8719995,1.0954081,-0.5745024,-1.6634319,-1.0246358,2.1713567,1.4396807,-0.906187,-0.6721919,-1.4915147,0.56209326,-1.2052915,-0.9555039,0.47345933,0.34363383,0.9731369,-0.5395813,1.2337533,-3.5674574,-0.30404955,-0.8899601,0.1547699,-0.40512085,0.98633957,0.7841402,-0.13743357,0.16083589,0.5834105,-0.21717735,-0.6643643,-0.737708,1.0,0.0,0.0,0.0,0.0,0.0,0.0,-1.6231369,0.1395813,-0.6837533,21.739483,-9.219599,12.721843,-10.466242,-3.1705737,0.094765425,-0.8181393
30.537224,45.497326,16.572859,-2.242081,-1.0098727,-1.3077441,0.5863756,-0.17954335,-0.7780205,0.038643472,-0.6294359,-0.6818995,0.67433,0.38360664,1.0774537,-0.6523045,-1.6595676,-1.0875794,2.1031668,1.5071137,-0.86782634,1.0903021,-0.58953327,-1.6585491,-1.0369058,2.1616712,1.4444243,-0.9028329,-0.4579627,-1.5068859,0.46434218,-1.2343816,-0.97272366,0.4745387,0.33299097,0.93748856,-0.5426178,1.2241238,-3.5638907,-0.30374557,-0.98725635,0.1532669,-0.41165543,0.9787177,0.78242934,-0.13317315,0.1598504,0.58695567,-0.13015208,-0.6426262,-0.7712207,1.0,0.0,0.0,0.0,0.0,0.0,0.0,-1.5874885,0.14261779,-0.6741238,21.050596,-1.5182734,-9.605598,-2.960968,-1.7263055,0.07839203,-0.97168684
23.484953,41.51069,11.500075,0.9645008,-0.9435541,-1.7417886,0.15889443,-0.07477038,-0.77320117,-0.11830077,-0.63635814,-0.680772,0.67925346,0.4086766,1.0828251,-0.66685337,-1.6703792,-1.1005416,2.093594,1.5123496,-0.86196524,1.0872618,-0.6043715,-1.6558349,-1.0491357,2.1518826,1.4491793,-0.8995637,-0.2540323,-1.4761454,0.20826243,-1.2193365,-0.98103833,0.47571427,0.324882,0.90187454,-0.5456543,1.2135223,-3.5603275,-0.30344188,-1.0844553,0.15259552,-0.41815948,0.9707236,0.7805131,-0.12859066,0.15916397,0.5907035,-0.04940727,-0.64492196,-0.80992275,1.0,0.0,0.0,0.0,0.0,0.0,0.0,-1.5518745,0.14565429,-0.6635223,20.026726,3.0734777,-25.253925,1.5054464,-0.96116066,0.051265955,-0.82968473
15.326583,28.805153,3.6758687,1.7722682,-0.78842103,-2.2742524,-0.12072991,0.004857496,-0.7730942,-0.32895598,-0.65496504,-0.684392,0.6915024,0.4369578,1.0877476,-0.6816809,-1.6887305,-1.1146321,2.0834434,1.5183295,-0.8558679,1.0860697,-0.61881393,-1.656554,-1.0611749,2.1420407,1.4539477,-0.89634794,-0.07522189,-1.4336748,-0.1637983,-1.1984802,-0.9859303,0.47641757,0.31998807,0.8662987,-0.548687,1.2019495,-3.556768,-0.3031385,-1.1815569,0.15263748,-0.4249382,0.9621891,0.7787131,-0.12331418,0.15906535,0.59422016,0.022852672,-0.68107957,-0.8696474,1.0,0.0,0.0,0.0,0.0,0.0,0.0,-1.5162987,0.14868698,-0.65194947,17.5835,4.2016506,-36.754726,2.1553278,-0.72010756,-0.14997125,-0.61056614
5.2817564,21.130219,-0.14621067,5.6061344,-0.19737896,-2.124862,-0.27202502,0.015654135,-0.7723776,-0.43311727,-0.6555397,-0.68112236,0.6978523,0.4421411,1.0876352,-0.6960517,-1.6998657,-1.1267289,2.0739286,1.5237329,-0.8521338,1.0861841,-0.6328797,-1.6609199,-1.0730138,2.1321797,1.4587237,-0.89316934,0.039931603,-1.3977801,-0.5263158,-1.1785299,-0.98695976,0.47707143,0.31672323,0.83075714,-0.55171585,1.1894063,-3.553212,-0.3028354,-1.2785616,0.15320969,-0.43216324,0.9530208,0.77721125,-0.1171678,0.15960014,0.59727895,0.068652324,-0.7294229,-0.9352839,1.0,0.0,0.0,0.0,0.0,0.0,0.0,-1.4807571,0.15171584,-0.63940626,11.407591,3.5168886,-35.929455,2.1507978,-0.3689885,-0.20868182,-0.45509934
-1.8493893,22.726818,1.4808227,9.586184,0.33543253,-1.4448018,-0.22546285,-0.009711804,-0.7670296,-0.44901985,-0.68018836,-0.68826413,0.7039792,0.46745634,1.085213,-0.7095826,-1.7058219,-1.1410326,2.0633533,1.5291216,-0.8464237,1.0868555,-0.646666,-1.6680954,-1.0848165,2.1222997,1.4635111,-0.8899955,0.076501414,-1.3724679,-0.78082484,-1.1800944,-0.98934263,0.47848332,0.317296,0.79524994,-0.5547447,1.1758938,-3.5496595,-0.30253264,-1.3754693,0.15403748,-0.43976212,0.94326067,0.7759892,-0.11023984,0.16064067,0.59990203,0.08773798,-0.76344466,-0.99341446,1.0,0.0,0.0,0.0,0.0,0.0,0.0,-1.4452499,0.15474471,-0.6258938,3.7453308,2.4523735,-25.353384,0.056290627,-0.5059242,-0.10147095,-0.017160177
-17.435389,23.993734,3.048594,18.894028,1.4772649,-0.3562222,-0.33240736,-0.13216352,-0.7644757,-0.42997915,-0.67849386,-0.6899458,0.7040279,0.47855982,1.0736392,-0.72311354,-1.7110933,-1.1526659,2.0533051,1.5339139,-0.84213954,1.0869871,-0.6602873,-1.6767776,-1.0966744,2.112389,1.4683157,-0.88680166,-0.006771527,-1.3590703,-0.8976655,-1.186663,-0.9927605,0.4807216,0.3201448,0.7597809,-0.55776596,1.161413,-3.5461104,-0.30223018,-1.4722801,0.15465546,-0.44758224,0.9330793,0.77506155,-0.10278995,0.16198455,0.6020588,0.05446936,-0.78129184,-1.0310106,1.0,0.0,0.0,0.0,0.0,0.0,0.0,-1.4097809,0.15776595,-0.61141294,-7.9969935,1.2291193,-11.776161,-0.349164,-0.7009864,0.0723958,0.27343035
-21.10183,40.447773,12.593587,25.427904,2.099915,0.96330947,-0.20728102,-0.21165025,-0.74965733,-0.28312656,-0.6757356,-0.6968968,0.71876854,0.4892473,1.0658221,-0.73525304,-1.7050903,-1.164248,2.0426993,1.5401926,-0.8378769,1.0857722,-0.673778,-1.6852138,-1.1085973,2.102429,1.4731642,-0.88356394,-0.158454,-1.345928,-0.8264716,-1.1931213,-0.9979656,0.4865432,0.3254571,0.72434616,-0.5607872,1.1459647,-3.542565,-0.301928,-1.5689942,0.15473175,-0.4552498,0.92282337,0.7742896,-0.09533445,0.16336317,0.6039034,-0.007129311,-0.7542218,-1.0286145,1.0,0.0,0.0,0.0,0.0,0.0,0.0,-1.3743461,0.1607872,-0.5959647,-14.761773,1.2304544,6.817603,-0.3725052,-0.8352637,0.65641403,0.64908266
-23.56816,46.4301,16.426193,28.150612,2.4504423,1.5323217,-0.14841655,-0.2880383,-0.7509846,-0.23299631,-0.68668056,-0.69707394,0.70985264,0.494097,1.0569683,-0.74887645,-1.7085134,-1.1772653,2.0327215,1.5441495,-0.83415425,1.0828253,-0.68718475,-1.692313,-1.1206193,2.0924268,1.478068,-0.88026613,-0.33873853,-1.3392061,-0.6723939,-1.2044154,-1.0019261,0.4922756,0.33185956,0.6889458,-0.5638046,1.1295501,-3.5390232,-0.30162615,-1.6656115,0.15410614,-0.46251678,0.91272336,0.77356726,-0.088210374,0.16457996,0.60557914,-0.082242236,-0.7106969,-1.0083197,1.0,0.0,0.0,0.0,0.0,0.0,0.0,-1.3389457,0.16380462,-0.5795501,-17.597282,0.60682297,14.987362,-0.84912777,-0.6652117,0.75185895,0.8439243
-17.207941,46.4316,16.698593,24.3824,2.1210237,1.2185292,-0.051953338,-0.2825233,-0.75227606,-0.27184647,-0.6924581,-0.6874221,0.70304984,0.49085128,1.0545729,-0.76241237,-1.7194976,-1.1898651,2.0236845,1.548373,-0.831181,1.0784498,-0.70056385,-1.6981151,-1.1327672,2.0824246,1.4830195,-0.8769111,-0.4693701,-1.3376216,-0.550999,-1.2172856,-0.99988985,0.49653298,0.3375019,0.6535835,-0.56681824,1.1121701,-3.5354848,-0.30132458,-1.7621323,0.15286255,-0.46938705,0.9027778,0.7728284,-0.081427924,0.16557288,0.6071996,-0.13929006,-0.6717864,-0.99373025,1.0,0.0,0.0,0.0,0.0,0.0,0.0,-1.3035835,0.16681823,-0.5621701,-12.724596,0.11713505,11.740851,-1.030159,0.00936985,0.58693886,0.7833719
-8.087152,50.328766,18.932,20.169409,1.5904213,0.9804594,0.08334994,-0.2922914,-0.74565303,-0.23004013,-0.6977135,-0.70472074,0.70940006,0.50911033,1.0492207,-0.77512914,-1.7211192,-1.2025385,2.0119526,1.5539595,-0.8260001,1.0731703,-0.7139172,-1.7028587,-1.1450448,2.0724072,1.4880129,-0.8734922,-0.54650164,-1.3344772,-0.4500755,-1.2305279,-1.0027964,0.5007841,0.34417036,0.6182556,-0.56983185,1.0938255,-3.53195,-0.3010233,-1.8585565,0.1512413,-0.47584152,0.89295727,0.7719747,-0.07496286,0.16635826,0.60890096,-0.17183867,-0.62879246,-0.98118484,1.0,0.0,0.0,0.0,0.0,0.0,0.0,-1.2682556,0.16983184,-0.54382545,-7.4757576,0.30863285,9.714073,-1.123333,-0.40421486,0.60014725,0.88896155
-8.668464,34.10234,9.678376,15.601534,1.3121438,-0.01328516,-0.022251457,-0.3037127,-0.7603875,-0.39523077,-0.71429074,-0.6953757,0.690767,0.50194037,1.042799,-0.789956,-1.7423818,-1.2164738,2.0028696,1.5570896,-0.82329816,1.0674387,-0.7273173,-1.7076976,-1.1574979,2.062386,1.4930178,-0.8700227,-0.5812363,-1.3419183,-0.4959677,-1.2491463,-1.0027608,0.50027794,0.34832034,0.58296204,-0.5728378,1.0745174,-3.5284188,-0.30072233,-1.9548843,0.14938354,-0.4821701,0.8829715,0.7711022,-0.06841237,0.16705672,0.61058426,-0.19178396,-0.62653875,-1.0069405,1.0,0.0,0.0,0.0,0.0,0.0,0.0,-1.232962,0.17283782,-0.52451736,-3.2826662,-0.7909775,-4.784465,-1.6031265,-0.18892288,-0.09748936,0.5377114
-4.823676,29.981102,7.1631575,12.087012,0.96545625,-0.46312183,-9.281188e-05,-0.29333666,-0.76081663,-0.44101378,-0.72021896,-0.69904906,0.6938478,0.513508,1.038105,-0.80339897,-1.751799,-1.2295197,1.9924811,1.5624026,-0.81867194,1.0616442,-0.7408003,-1.7134845,-1.1701283,2.0523534,1.4980112,-0.8665113,-0.5783867,-1.3506057,-0.6065974,-1.2669681,-1.0039113,0.49856547,0.3522606,0.5477066,-0.5758438,1.0542468,-3.5248911,-0.30042166,-2.0511155,0.14743423,-0.48856735,0.8725987,0.7702551,-0.061479837,0.16775985,0.6121959,-0.19736578,-0.63645744,-1.0498241,1.0,0.0,0.0,0.0,0.0,0.0,0.0,-1.1977066,0.1758438,-0.5042468,0.42139292,-0.92315674,-11.165929,-1.5272617,-0.32188892,-0.31154752,0.46934485
-16.549076,17.366322,-0.6015272,13.964846,1.3966259,-0.69419014,-0.21053514,-0.37526676,-0.77333677,-0.5557869,-0.73837686,-0.6846695,0.66406107,0.49652126,1.0241175,-0.818134,-1.7690632,-1.243966,1.9838865,1.5644174,-0.8168592,1.055617,-0.7544207,-1.720887,-1.1829705,2.0423512,1.5029551,-0.86298174,-0.6100504,-1.3661484,-0.7848868,-1.2887449,-1.0005563,0.49207732,0.3533316,0.5124817,-0.578846,1.0330145,-3.5213668,-0.3001213,-2.1472504,0.14526749,-0.49525833,0.8616323,0.76960135,-0.053858,0.16851032,0.61352855,-0.22468865,-0.6727121,-1.1148714,1.0,0.0,0.0,0.0,0.0,0.0,0.0,-1.1624817,0.17884597,-0.48301452,-2.942729,-1.674962,-17.859125,-1.7976046,-0.006747246,-0.9539366,0.13642907
-18.845404,22.704643,1.9977784,15.652912,1.5600568,-0.26558077,-0.19755027,-0.41322663,-0.7671446,-0.547416,-0.74797475,-0.68013763,0.670685,0.51652265,1.0142943,-0.83113515,-1.7756286,-1.257768,1.9743375,1.5700235,-0.8113295,1.0491129,-0.768145,-1.7297847,-1.1960301,2.032395,1.5078436,-0.8594293,-0.6629307,-1.374983,-0.9250678,-1.3102223,-0.995222,0.48666912,0.3560808,0.47729492,-0.58184433,1.0108217,-3.5178463,-0.29982126,-2.2432895,0.14275742,-0.50222397,0.8500909,0.76916826,-0.045557123,0.16927868,0.61453176,-0.2616515,-0.6955539,-1.1703659,1.0,0.0,0.0,0.0,0.0,0.0,0.0,-1.1272949,0.18184432,-0.4608217,-5.0339103,-1.0102272,-14.079916,-1.758647,0.17534494,-0.8224726,0.32864213
-18.984207,28.327454,5.4686937,16.75431,1.7188731,0.16939098,-0.14242904,-0.4424634,-0.7780026,-0.5521,-0.7542078,-0.66891587,0.66019076,0.5185917,1.0048666,-0.8459453,-1.7849947,-1.2714509,1.9655033,1.5738627,-0.8075701,1.0420042,-0.78197235,-1.7396858,-1.2092767,2.0225224,1.5126768,-0.85584635,-0.72595686,-1.3857654,-1.0119916,-1.3282948,-0.9860758,0.48140162,0.3592633,0.4421425,-0.5848427,0.98766917,-3.5143292,-0.2995215,-2.3392324,0.13982773,-0.5093117,0.8380932,0.76889503,-0.036750056,0.16995119,0.6152775,-0.30500203,-0.70388234,-1.2130395,1.0,0.0,0.0,0.0,0.0,0.0,0.0,-1.0921425,0.18484268,-0.43766916,-6.0503125,-1.2013435,-8.791267,-1.4292002,0.5739212,-0.7607877,0.4178226
-26.427223,30.496483,6.3983593,20.326895,2.208364,0.6603365,-0.22419497,-0.53162575,-0.7847571,-0.57233435,-0.76039237,-0.6502264,0.64287364,0.49767664,0.98884165,-0.86044806,-1.7969192,-1.2853159,1.9574999,1.5769641,-0.8060787,1.0339762,-0.79591316,-1.7501571,-1.2226739,2.0127835,1.5174509,-0.85224813,-0.8275589,-1.3973978,-1.0593941,-1.342177,-0.9712188,0.47532406,0.3604409,0.40702438,-0.5878334,0.96355796,-3.5108156,-0.29922205,-2.4350793,0.1363182,-0.5164337,0.82575434,0.7688069,-0.027581869,0.1704178,0.6157376,-0.36969218,-0.7054674,-1.2445437,1.0,0.0,0.0,0.0,0.0,0.0,0.0,-1.0570244,0.1878334,-0.41355795,-9.861792,-1.3127089,-4.856801,-0.9656906,1.0968566,-0.8285701,0.2563417
-30.775528,35.39746,8.328857,22.95482,2.4676657,1.0678049,-0.29606318,-0.59933287,-0.7744476,-0.5940715,-0.75570154,-0.6433999,0.65333074,0.4934616,0.9740429,-0.8733579,-1.8095642,-1.298244,1.9484435,1.582784,-0.802902,1.0247732,-0.80989593,-1.7609432,-1.2361398,2.0031972,1.5221792,-0.84864324,-0.9501768,-1.3990997,-1.0852433,-1.3464924,-0.9562129,0.47134593,0.36097604,0.37194443,-0.5908241,0.938489,-3.5073056,-0.2989229,-2.5308306,0.13207245,-0.5235138,0.8131916,0.7689535,-0.018175367,0.17064427,0.6158414,-0.44655824,-0.6978223,-1.2636651,1.0,0.0,0.0,0.0,0.0,0.0,0.0,-1.0219444,0.19082412,-0.388489,-11.949563,-0.33128262,-2.6994467,0.00019073486,1.0890841,-0.5920768,0.20976663
-38.984653,33.771362,6.030652,25.67853,2.8245928,1.2157612,-0.46547067,-0.68688226,-0.77069104,-0.6664163,-0.7465149,-0.6309841,0.66488194,0.44823775,0.956085,-0.88696504,-1.8275847,-1.3107913,1.9400988,1.5886674,-0.8038195,1.0141779,-0.8238501,-1.7721717,-1.2495618,1.9937634,1.526879,-0.8450689,-1.0949653,-1.3949183,-1.1358215,-1.3391019,-0.94079316,0.46863455,0.35673657,0.3368988,-0.59381104,0.9124632,-3.503799,-0.29862404,-2.626486,0.12692642,-0.5305519,0.80042934,0.7694552,-0.008521777,0.17065428,0.61542106,-0.5412386,-0.69566405,-1.2839,1.0,0.0,0.0,0.0,0.0,0.0,0.0,-0.9868988,0.19381103,-0.36246318,-14.129686,0.21355152,-5.120039,1.2398958,1.0493636,-0.53811073,-0.2754569
-40.841488,34.046387,5.316166,25.882694,2.930123,1.2370582,-0.52917725,-0.7449466,-0.765193,-0.72103024,-0.73754215,-0.58953476,0.65793383,0.3880387,0.93968326,-0.9003694,-1.8442748,-1.323316,1.9348099,1.5926723,-0.806265,1.0021712,-0.837727,-1.7840774,-1.2628484,1.9845757,1.5315481,-0.84158224,-1.2349808,-1.3860401,-1.2090461,-1.3234391,-0.9133556,0.4652712,0.34647232,0.3018875,-0.5967941,0.88548154,-3.5002959,-0.29832548,-2.722046,0.120788574,-0.5376015,0.7874494,0.7703939,0.0014349251,0.17042433,0.61436695,-0.6407526,-0.6956325,-1.3060473,1.0,0.0,0.0,0.0,0.0,0.0,0.0,-0.9518875,0.19679412,-0.33548152,-13.6583805,0.66268444,-7.338047,2.0933151,2.2222638,-0.66444874,-0.8750856
-36.44648,38.498413,7.8404813,24.725468,2.7836583,1.3224971,-0.49594852,-0.7812652,-0.759966,-0.738468,-0.71175843,-0.5773518,0.6629565,0.34088117,0.9240446,-0.9137236,-1.8579242,-1.3340242,1.9268405,1.5978438,-0.8074941,0.98895544,-0.85149807,-1.7966812,-1.2758718,1.9756665,1.5361925,-0.8382291,-1.349517,-1.3747443,-1.2774433,-1.2936391,-0.88482696,0.46297842,0.33204758,0.26691055,-0.5997772,0.857545,-3.4967964,-0.29802722,-2.8175101,0.11372757,-0.54460144,0.77429104,0.7717517,0.011639776,0.16992815,0.6126894,-0.7325484,-0.6881849,-1.3222667,1.0,0.0,0.0,0.0,0.0,0.0,0.0,-0.9169105,0.19977722,-0.307545,-11.165977,0.9199381,-6.8321466,3.4629583,2.3806214,-0.54216385,-1.2851775
-29.70862,42.672066,10.744343,22.665188,2.571432,1.3431388,-0.43007797,-0.80671704,-0.75842524,-0.7614454,-0.6851059,-0.54375964,0.6513602,0.25993946,0.9082837,-0.92734057,-1.8728257,-1.3443823,1.9212905,1.6013286,-0.8122352,0.974842,-0.8651671,-1.8098972,-1.2885118,1.9670987,1.5408102,-0.8350715,-1.4312264,-1.364906,-1.3363727,-1.2525666,-0.8489336,0.46030992,0.3109141,0.23196793,-0.6027527,0.8286546,-3.4933002,-0.29772925,-2.912879,0.105846405,-0.55147934,0.76101255,0.77347,0.021994486,0.16910516,0.6104619,-0.811812,-0.6739523,-1.3329716,1.0,0.0,0.0,0.0,0.0,0.0,0.0,-0.8819679,0.20275268,-0.27865458,-7.949972,0.8027792,-5.872941,4.525757,3.1992197,-0.5453229,-1.9468248
-21.728527,47.884735,14.599396,20.298412,2.3011508,1.4097048,-0.33853126,-0.8241429,-0.75546867,-0.7641484,-0.66005546,-0.50890934,0.64209586,0.16834243,0.89242774,-0.94071394,-1.886312,-1.3545173,1.9162078,1.6050198,-0.81823725,0.960144,-0.8787493,-1.8235328,-1.3006959,1.9589391,1.5453993,-0.832179,-1.4822122,-1.3565245,-1.3726034,-1.2058961,-0.80594474,0.45774582,0.2826661,0.19706345,-0.60572815,0.7988112,-3.4898076,-0.2974316,-3.0081525,0.097286224,-0.55814743,0.7476877,0.77546847,0.032369196,0.16789083,0.6077939,-0.875415,-0.6501837,-1.3354836,1.0,0.0,0.0,0.0,0.0,0.0,0.0,-0.8470634,0.20572814,-0.24881119,-4.9475193,0.6973028,-3.6079884,5.001116,4.004824,-0.46740174,-2.6464403
-15.086883,54.132076,18.702478,19.32825,2.073127,1.5147536,-0.32691047,-0.83137625,-0.7438724,-0.76515186,-0.60898066,-0.50394547,0.6371326,0.032254793,0.87700635,-0.95313656,-1.900048,-1.361594,1.9085445,1.6091126,-0.8289535,0.9451341,-0.892219,-1.8373744,-1.3122792,1.951159,1.5499655,-0.8296508,-1.5069567,-1.3440963,-1.3879044,-1.1416814,-0.76961344,0.45589092,0.24343783,0.16218948,-0.6086998,0.7680158,-3.4863186,-0.29713422,-3.1033306,0.088199615,-0.56451035,0.7344321,0.77770174,0.042598188,0.16630033,0.6047391,-0.9249236,-0.6175558,-1.3252467,1.0,0.0,0.0,0.0,0.0,0.0,0.0,-0.81218946,0.2086998,-0.21801579,-2.3890257,1.1390924,-1.502347,6.659627,3.4320474,-0.3137231,-3.7600458
-10.942486,53.088184,18.937815,17.208908,1.866169,1.400805,-0.3153019,-0.8348889,-0.75706965,-0.7848176,-0.58374244,-0.48338717,0.60605633,-0.1569308,0.8616452,-0.96792597,-1.9158562,-1.3706535,1.9028202,1.6105711,-0.8453439,0.929977,-0.9056143,-1.8515911,-1.3233324,1.9438652,1.5543848,-0.82768244,-1.526674,-1.3299488,-1.4937731,-1.1216615,-0.70338655,0.37142065,0.17919749,0.132267,-0.61115265,0.7448573,-1.8720721,0.020004233,0.2527603,0.07866287,-0.5706291,0.7211652,0.780198,0.052801427,0.16429214,0.601258,-0.96385574,-0.6134916,-1.3535863,0.0,1.0,0.0,0.0,0.0,0.0,0.0,-0.782267,0.21115264,-0.1948573,-3.210044,2.6114464,-19.855331,-2.1610498,9.732973,-16.565926,-7.246399
40.58372,176.0,110.0,102.13258,5.465157,11.940679,-2.2172446,-0.80009013,0.52361935,0.70441157,0.695442,-0.25610694,0.62458557,-0.3828146,0.84996796,-0.8532524,-1.78115,-1.2537882,1.9182545,1.6168433,-0.8659639,0.9189306,-0.9197239,-1.8618145,-1.3216788,1.9294704,1.5672442,-0.8244552,-0.9671709,-1.4373822,-0.860976,0.5905703,-1.6803029,1.5997293,0.36919942,0.11355972,-0.6109543,0.7466465,-1.8702005,0.019984234,0.15432164,0.068302155,-0.5750923,0.7118639,0.7830356,0.054095645,0.16580887,0.59702283,-1.062805,-0.37596142,-0.7902579,0.0,1.0,0.0,0.0,0.0,0.0,0.0,-0.7635597,0.21095428,-0.19664651,54.96217,-10.567188,64.51463,170.09413,-96.37563,125.54928,18.593645
-40.398224,137.68318,62.516193,86.724396,8.771534,4.7396183,-2.534392,-0.82330024,-0.5811583,-0.21446672,0.75129056,-0.39665917,0.54744655,-0.2527479,0.83660054,-0.97783977,-1.8832612,-1.2465497,1.8898045,1.6219888,-0.84973,0.90939575,-0.93332523,-1.8676624,-1.3093306,1.9129738,1.5832411,-0.8211288,-0.9476711,-1.3356653,-0.4907221,1.4508855,-1.6419735,1.6034617,0.3224182,0.09487152,-0.6107559,0.74745214,-1.8683306,0.019964254,0.0559814,0.056419373,-0.578743,0.7067385,0.78730315,0.049390312,0.16893362,0.59091103,-1.2299929,-0.35130408,-0.4244593,1.0,0.0,0.0,0.0,0.0,0.0,0.0,-0.7448715,0.21075591,-0.19745213,2.3058176,9.781575,37.692253,86.426926,3.08609,1.4650583,-4.121667
-53.59977,125.89116,42.26175,63.73236,6.1859016,2.856142,-1.9183131,-0.8094843,-0.37065268,-0.47812086,0.7339954,-0.54500085,0.57854855,0.19232054,0.82844734,-0.9703905,-1.9154745,-1.235931,1.8584737,1.641096,-0.80189675,0.89904934,-0.9447369,-1.8721237,-1.2917925,1.8979152,1.5983835,-0.8180904,-1.0619202,-1.0778308,-0.43114197,1.8560773,-1.4626564,1.4860394,0.2977245,0.07620239,-0.61055756,0.74727505,-1.8664626,0.019944293,-0.04226052,0.043121338,-0.5821152,0.70418215,0.7930248,0.043181647,0.17266339,0.58260995,-1.3631327,-0.32250428,-0.20636241,1.0,0.0,0.0,0.0,0.0,0.0,0.0,-0.72620237,0.21055755,-0.19727504,-10.91938,25.346994,6.014949,40.961002,17.330742,-11.251283,-2.4264932
-55.672005,70.53457,13.968071,36.962364,4.2191777,1.0255394,-1.037686,-0.7978773,-0.5274879,-0.45970893,0.79362154,-0.5636131,0.50964475,0.18632838,0.8192616,-0.9974857,-1.9180946,-1.2124304,1.8415539,1.649348,-0.79945755,0.8872114,-0.954431,-1.8770676,-1.2727362,1.8850521,1.6119486,-0.8153133,-1.2231666,-0.9341685,-0.516236,1.9235122,-1.2282119,1.3132288,0.27111128,0.057552338,-0.6103592,0.7461163,-1.8645965,0.019924354,-0.14040422,0.028648376,-0.58540344,0.7025094,0.79969484,0.037615728,0.1763753,0.57268214,-1.4751691,-0.32145712,-0.16117911,1.0,0.0,0.0,0.0,0.0,0.0,0.0,-0.7075523,0.21035919,-0.19611627,-15.753579,14.094151,-8.756977,7.1159124,23.211718,-17.246246,-2.6366234
-43.36759,34.340813,-1.0328028,16.10042,2.245481,-0.013207197,-0.35317752,-0.8017872,-0.56679094,-0.4981759,0.78336304,-0.52154434,0.52336305,0.033880714,0.80703264,-1.0111101,-1.9268851,-1.1943998,1.8328977,1.664285,-0.81192523,0.8739477,-0.96344036,-1.8834076,-1.2544218,1.8743652,1.6238753,-0.8128862,-1.3601627,-0.8903294,-0.67404366,1.8016083,-1.015773,1.1521384,0.23334351,0.03891754,-0.6101608,0.74397683,-1.8627323,0.019904433,-0.2384498,0.013347626,-0.5887718,0.7004586,0.80684716,0.03373916,0.17954016,0.56180483,-1.5489948,-0.32993513,-0.22559978,0.0,1.0,0.0,0.0,0.0,0.0,0.0,-0.6889175,0.21016082,-0.19397682,-13.499904,4.2503476,-16.043436,-11.945891,21.155094,-16.240524,-3.7600696
-26.257397,24.709457,-1.9107331,5.5397687,0.90943325,-0.304092,0.01720564,-0.79962724,-0.55562216,-0.5081474,0.79612464,-0.53679836,0.523729,-0.087173216,0.79398495,-1.0190026,-1.9342223,-1.1748093,1.8206854,1.6762482,-0.8216035,0.8597093,-0.97240776,-1.8912373,-1.2376677,1.865292,1.634358,-0.8108997,-1.4447806,-0.89917445,-0.8197413,1.6337372,-0.8716633,1.0131017,0.18712604,0.020305634,-0.60996246,0.74085766,-1.86087,0.019884532,-0.33639735,-0.0023880005,-0.5921936,0.69752395,0.8141423,0.03171119,0.18207191,0.5504693,-1.5829307,-0.33205372,-0.32099366,0.0,1.0,0.0,0.0,0.0,0.0,0.0,-0.6703056,0.20996246,-0.19085765,-8.380032,-0.9722829,-14.68848,-16.623951,14.24905,-14.048719,-4.610324
-12.634415,25.323338,1.9326096,1.7572708,0.40542853,-0.2531526,0.1878733,-0.80021715,-0.570377,-0.51065403,0.79288113,-0.5004173,0.5291114,-0.12721436,0.7796876,-1.0294454,-1.9423027,-1.1583796,1.8152503,1.6872692,-0.8236211,0.8449932,-0.9817118,-1.9001617,-1.2224146,1.8573078,1.6436259,-0.8093671,-1.4805354,-0.9410982,-0.9166985,1.4894724,-0.77469206,0.8977344,0.14205019,0.0017089844,-0.6097641,0.7367598,-1.8590095,0.019864652,-0.434247,-0.01828003,-0.59558487,0.69366956,0.8213837,0.031232879,0.18398783,0.5389821,-1.593104,-0.3271094,-0.41102546,0.0,1.0,0.0,0.0,0.0,0.0,0.0,-0.65170896,0.2097641,-0.18675977,-3.56102,-4.268718,-9.671426,-14.297938,9.462273,-11.66898,-4.4718084
-3.5994678,36.16414,9.2743435,2.8858905,0.4220807,0.08080721,0.18724653,-0.8020235,-0.56797343,-0.4958464,0.7891778,-0.45701358,0.5430416,-0.18018444,0.76479083,-1.0385091,-1.9497464,-1.1434969,1.8116064,1.69793,-0.82738554,0.8301645,-0.9914364,-1.9095898,-1.2082163,1.8500808,1.6519037,-0.808279,-1.4838169,-0.9832165,-0.9508271,1.397057,-0.7063439,0.8042297,0.09785619,-0.016864777,-0.60956573,0.73168415,-1.8571508,0.01984479,-0.5319988,-0.034172058,-0.5988426,0.6891443,0.8284926,0.031805314,0.18536337,0.527474,-1.5899341,-0.3097943,-0.46996588,0.0,1.0,0.0,0.0,0.0,0.0,0.0,-0.6331352,0.20956573,-0.18168414,-0.36501884,-4.3106556,-3.2455087,-9.158325,6.5222263,-9.462357,-4.3805895
-0.220366,44.143616,13.748953,5.200838,0.60353905,0.3237334,0.12616564,-0.8014303,-0.57858187,-0.504044,0.7814589,-0.42984045,0.54693043,-0.1961226,0.75002146,-1.0492946,-1.9599942,-1.1300704,1.8070968,1.7065969,-0.82789123,0.8154302,-1.0015444,-1.9191055,-1.1945826,1.843388,1.6593786,-0.8075971,-1.4701865,-1.0203815,-0.95096475,1.3521985,-0.6578884,0.72823066,0.058348365,-0.03542328,-0.6093674,0.7256317,-1.855294,0.01982495,-0.6296529,-0.050022125,-0.6018715,0.6842035,0.8354582,0.03302096,0.18630685,0.51595443,-1.5836312,-0.28595224,-0.5056793,0.0,1.0,0.0,0.0,0.0,0.0,0.0,-0.6145767,0.20936736,-0.1756317,1.3078451,-3.8351774,0.23317337,-4.41916,4.508388,-7.704544,-3.9175212
1.4354587,50.853302,17.454605,7.242772,0.9098487,0.5866415,0.080632135,-0.79844695,-0.5968553,-0.47225186,0.7692876,-0.3643038,0.56425166,-0.2203104,0.7355855,-1.06123,-1.9663308,-1.1176538,1.8069576,1.7158039,-0.82962817,0.8008743,-1.0120004,-1.9283371,-1.1811796,1.8372177,1.6662108,-0.8072824,-1.450892,-1.0544087,-0.9129713,1.3365042,-0.60471654,0.6678302,0.022781111,-0.053962708,-0.609169,0.71860343,-1.8534391,0.01980513,-0.7272094,-0.06581116,-0.6046181,0.67905885,0.8422924,0.034537688,0.18682645,0.5044267,-1.5785888,-0.25559217,-0.52086174,0.0,1.0,0.0,0.0,0.0,0.0,0.0,-0.59603727,0.209169,-0.16860342,1.860261,-3.5375595,4.110217,-1.5177727,4.952109,-6.1461687,-3.5084486
3.5349503,52.753967,19.002262,7.3844132,1.0470867,0.71364737,0.08714527,-0.7847377,-0.628472,-0.43565255,0.75362915,-0.31029788,0.5964025,-0.24770005,0.72240055,-1.0748477,-1.9719024,-1.1058167,1.8061879,1.725851,-0.8320524,0.7865501,-1.0228437,-1.9369946,-1.1678606,1.8316272,1.672547,-0.80729955,-1.4264371,-1.0947661,-0.84873724,1.3307186,-0.5449556,0.62194616,-0.009635836,-0.07248306,-0.60897064,0.7106004,-1.8515861,0.019785328,-0.8246683,-0.08154678,-0.6070366,0.6738192,0.8489959,0.036101356,0.18686378,0.49293455,-1.5728542,-0.22246604,-0.528443,0.0,1.0,0.0,0.0,0.0,0.0,0.0,-0.5775169,0.20897064,-0.16060036,2.3658276,-4.1694164,6.7643642,-0.53379536,5.6068897,-4.6898603,-3.1726024
10.926095,62.818058,24.911133,6.99542,0.8166561,1.015937,0.13784173,-0.7582929,-0.6373537,-0.31837058,0.7544173,-0.38616088,0.64626193,-0.30008703,0.71072084,-1.0865791,-1.9688317,-1.0924189,1.7930112,1.7371732,-0.8373083,0.77254635,-1.0340418,-1.9445286,-1.1545378,1.8262943,1.6785342,-0.80764383,-1.3922191,-1.128598,-0.72006434,1.3327293,-0.5310232,0.5907606,-0.042526636,-0.090984344,-0.6087723,0.70162344,-1.8497349,0.019765547,-0.9220298,-0.097084045,-0.6090317,0.6686685,0.8555012,0.037387107,0.18655047,0.48157948,-1.5476152,-0.17646894,-0.5140719,0.0,1.0,0.0,0.0,0.0,0.0,0.0,-0.55901563,0.20877227,-0.15162343,3.289795,-3.5280943,13.317549,0.1680851,0.9412527,-3.149271,-3.2567818
12.367145,66.783714,25.870745,7.0603733,0.51666147,1.0222871,0.15067618,-0.74212646,-0.63604045,-0.2954919,0.7563035,-0.46615714,0.65386474,-0.26741436,0.6983337,-1.0976458,-1.9740778,-1.0789075,1.7796786,1.7439206,-0.8343853,0.75891405,-1.0454601,-1.9509892,-1.1412265,1.8205632,1.6841879,-0.808292,-1.3540112,-1.1467739,-0.6198313,1.3306442,-0.5862632,0.5586616,-0.07223773,-0.11030197,-0.6070938,0.6985725,-1.9373463,0.21111302,-0.10959974,-0.11225891,-0.610569,0.6636098,0.8617295,0.03847176,0.18625633,0.4703728,-1.5068508,-0.13279887,-0.50649834,0.0,1.0,0.0,0.0,0.0,0.0,0.0,-0.539698,0.2070938,-0.1485725,3.495264,-2.106595,12.720966,0.5848646,-3.9427161,-2.2507906,-2.6275046
2.951538,110.12265,37.348213,18.05533,0.66190475,1.6548572,-0.14727442,-0.77965355,-0.38115218,-0.34861565,0.7913699,-0.5350528,0.62534595,-0.2103406,0.6809487,-1.0835754,-1.9858508,-1.0620896,1.7670579,1.7467225,-0.82932603,0.74538904,-1.0557884,-1.9568162,-1.1277168,1.814185,1.6896181,-0.8091398,-1.3525338,-0.9957729,-0.5685642,1.357257,-0.6571625,0.5377434,-0.089820825,-0.12966156,-0.6049843,0.69674087,-1.9354094,0.21090195,-0.20767611,-0.1269722,-0.6114311,0.6591999,0.8676914,0.039371602,0.18678208,0.4589924,-1.460502,-0.057394642,-0.42277187,0.0,1.0,0.0,0.0,0.0,0.0,0.0,-0.5203384,0.20498428,-0.14674085,0.009298325,14.828121,5.670476,2.4984598,-7.723999,-2.0685554,-2.0119011
3.1196017,137.59276,45.032017,22.857431,0.5964757,1.8492633,-0.19243562,-0.7588981,-0.22673216,-0.3824914,0.7993566,-0.572194,0.631153,-0.061379716,0.6694992,-1.0784616,-1.9950653,-1.0477811,1.7569656,1.7527335,-0.81527776,0.7318745,-1.0638279,-1.962565,-1.1139057,1.807063,1.6948767,-0.8100267,-1.3516536,-0.7412782,-0.5749636,1.3882493,-0.7330946,0.5216642,-0.089567654,-0.14900208,-0.6028786,0.6939212,-1.9334744,0.2106911,-0.30671963,-0.14110947,-0.6114464,0.65591675,0.8733321,0.040198516,0.1888006,0.44724634,-1.3969078,0.028720256,-0.29997113,0.0,1.0,0.0,0.0,0.0,0.0,0.0,-0.5009979,0.20287856,-0.1439212,-0.107073784,25.104677,0.011050701,2.8356552,-8.364415,-1.6240835,-0.36151558
-1.6517754,123.37423,37.472248,21.87223,0.5752659,1.3937877,-0.13545953,-0.7523355,-0.2106655,-0.4546023,0.8055815,-0.6084553,0.6351703,0.07319065,0.656641,-1.0848944,-2.0080252,-1.0333475,1.7462175,1.7583936,-0.8027076,0.71837884,-1.069531,-1.9689459,-1.0998133,1.799347,1.7000372,-0.8107648,-1.3491081,-0.51411504,-0.6619023,1.4148967,-0.7771498,0.5173716,-0.06822817,-0.16725159,-0.6003914,0.6917464,-1.7103891,0.28883427,-0.060782123,-0.1547203,-0.61074066,0.65360415,0.8786215,0.041256264,0.19233173,0.43512127,-1.3504224,0.09515528,-0.21145569,0.0,1.0,0.0,0.0,0.0,0.0,0.0,-0.4827484,0.20039138,-0.1417464,0.19164085,22.449827,-9.372866,2.273655,-2.3573637,0.38216114,2.2282095
-6.351283,100.832054,28.88336,19.396162,0.89179134,1.0642118,-0.09078261,-0.7661859,-0.20357716,-0.45067096,0.79855186,-0.57113385,0.62745094,0.008343169,0.64176023,-1.0898887,-2.014013,-1.0199581,1.7422336,1.7627823,-0.80993044,0.7048408,-1.0735269,-1.9761809,-1.0855616,1.7913849,1.7051475,-0.81134695,-1.3558413,-0.36251146,-0.74227214,1.4281578,-0.8044977,0.50824106,-0.05578354,-0.18391418,-0.5972862,0.691596,-1.652395,0.31754366,-0.0020024618,-0.16803741,-0.60948944,0.6518945,0.8836016,0.042693548,0.19692259,0.42266634,-1.3235847,0.14610238,-0.15888156,0.0,1.0,0.0,0.0,0.0,0.0,0.0,-0.4660858,0.19728622,-0.14159596,-0.8063793,14.883953,-7.5308084,1.2115002,-3.3067822,-1.0942101,0.9926915
-12.863424,85.15663,21.98872,18.547289,1.1242785,0.8549912,-0.107330695,-0.78783673,-0.14508247,-0.5154628,0.7959785,-0.55962133,0.6283495,-0.053357318,0.6260571,-1.0880351,-2.0277271,-1.0059638,1.7354228,1.7679825,-0.8166827,0.6911298,-1.0763459,-1.9843541,-1.0712589,1.783304,1.7101699,-0.81186575,-1.3764675,-0.25588715,-0.84066296,1.4307116,-0.8111538,0.49938408,-0.051305186,-0.20009995,-0.5939331,0.6918042,-1.608451,0.34086326,0.026361391,-0.18123245,-0.6077919,0.65049404,0.8883239,0.044646446,0.20224541,0.40985847,-1.3168055,0.18745363,-0.1345162,0.0,1.0,0.0,0.0,0.0,0.0,0.0,-0.44990003,0.1939331,-0.14180416,-2.1582365,10.415858,-9.399403,0.1975298,-1.1529446,-1.1137307,0.23972988
-12.529008,70.321045,16.981684,15.685473,1.093651,0.6259763,-0.035329886,-0.7827251,-0.13354565,-0.55623,0.7955575,-0.5615182,0.64190793,-0.055643216,0.6128573,-1.0897005,-2.039977,-0.99170315,1.7271521,1.7743607,-0.8174301,0.6772481,-1.0784917,-1.9934733,-1.0569729,1.7751983,1.7151155,-0.8123569,-1.392309,-0.20144305,-0.9342377,1.4278299,-0.8118637,0.4920485,-0.04898408,-0.2159195,-0.59038925,0.6920956,-1.5735354,0.35887167,0.028875949,-0.19441986,-0.60575485,0.64914393,0.8928001,0.047174644,0.20800464,0.3967575,-1.3175722,0.21919309,-0.13539436,0.0,1.0,0.0,0.0,0.0,0.0,0.0,-0.43408048,0.19038925,-0.14209557,-1.6620159,5.238718,-8.959579,-0.3222704,-0.48481226,-0.96969604,0.057100505
-12.159412,57.026794,12.465626,13.047889,0.97631866,0.41825435,0.06553585,-0.7840611,-0.14032228,-0.6071362,0.79471755,-0.5826695,0.64471024,0.036973707,0.598842,-1.0925239,-2.0541868,-0.9775011,1.7169313,1.7795866,-0.8086595,0.66324747,-1.0804334,-2.0035186,-1.0427288,1.767043,1.7199966,-0.81276125,-1.4027617,-0.19208525,-1.0265807,1.423116,-0.8179046,0.48592466,-0.038159974,-0.23145294,-0.58670044,0.69223183,-1.5468132,0.37200925,0.007852075,-0.2076683,-0.60346603,0.6476064,0.8970101,0.05033723,0.21397847,0.38347372,-1.3239818,0.24248669,-0.15970257,0.0,1.0,0.0,0.0,0.0,0.0,0.0,-0.41854703,0.18670043,-0.14223182,-1.0990381,0.76781213,-8.890486,-0.47404766,-0.9411931,-0.83345175,0.9295471
-4.1631904,62.223427,16.203209,11.65716,1.0126461,0.5123283,0.15018088,-0.7671168,-0.10964672,-0.58435243,0.7945203,-0.5518671,0.6528892,0.063176356,0.5865358,-1.091398,-2.0619538,-0.96327674,1.7118562,1.7852855,-0.80644363,0.6492647,-1.0823139,-2.0141308,-1.0285343,1.7589295,1.7248337,-0.8130407,-1.3971587,-0.1871162,-1.0709664,1.418097,-0.8104963,0.4821173,-0.024912257,-0.24665833,-0.5828781,0.6922496,-1.5115712,0.38549027,-0.00063694175,-0.22087097,-0.60092926,0.64592654,0.90092015,0.053952415,0.22001937,0.37016666,-1.3177639,0.26814064,-0.17029712,0.0,1.0,0.0,0.0,0.0,0.0,0.0,-0.40334165,0.1828781,-0.14224958,0.45142174,0.32863915,-3.9868832,-0.5692959,0.31311512,-0.6213784,1.1811223
-4.704711,57.961987,14.950309,11.264002,1.1450987,0.50640637,0.14397848,-0.7781961,-0.13181168,-0.6048719,0.7926395,-0.54439,0.65199584,0.017844861,0.5714451,-1.0954951,-2.074618,-0.94927037,1.7044905,1.7900333,-0.8112562,0.6353172,-1.0842994,-2.025037,-1.0143856,1.750922,1.7296362,-0.81322855,-1.394273,-0.20304099,-1.095491,1.4136367,-0.79896027,0.47887945,-0.017180283,-0.26153946,-0.5789337,0.69211763,-1.4797689,0.39734218,-0.016987609,-0.23405457,-0.5981369,0.64410746,0.9045473,0.057890568,0.22599027,0.35689098,-1.3161922,0.2927574,-0.18543623,0.0,1.0,0.0,0.0,0.0,0.0,0.0,-0.38846052,0.17893371,-0.14211762,0.1863718,-1.748845,-1.9992113,-0.49090385,0.73595047,-0.5678892,0.6597079
-1.65031,63.805367,17.1972,11.441831,1.1347198,0.5789181,0.20042178,-0.76861215,-0.1093604,-0.61719126,0.7912565,-0.55315566,0.6525196,0.15114179,0.558456,-1.0952355,-2.0867562,-0.93525994,1.6956064,1.7948881,-0.79811436,0.6214374,-1.0863556,-2.0360956,-1.0002774,1.7429988,1.7344139,-0.8132524,-1.3863184,-0.2071841,-1.1075089,1.4095483,-0.79170555,0.47659627,0.0020606902,-0.27605057,-0.57487106,0.6918928,-1.4412992,0.40916875,-0.023940748,-0.24716187,-0.59508896,0.6422117,0.9078684,0.062083513,0.2318998,0.34371957,-1.3060843,0.31977123,-0.1905721,0.0,1.0,0.0,0.0,0.0,0.0,0.0,-0.3739494,0.17487106,-0.14189279,0.66051483,-0.58210194,-0.67543983,-0.49402714,0.23815632,-0.48366785,1.7955856
-4.447921,49.73834,12.499488,9.927667,1.2554929,0.42624176,0.20721886,-0.7750535,-0.19106206,-0.6120121,0.79071796,-0.51904434,0.6467984,0.13531192,0.543932,-1.1054617,-2.0972967,-0.9212056,1.6910944,1.7990937,-0.7997212,0.60759956,-1.0888084,-2.047173,-0.9861953,1.735219,1.7391654,-0.81310546,-1.3832151,-0.2583516,-1.1060901,1.4077318,-0.774664,0.47379908,0.018763361,-0.2902794,-0.5707283,0.69140375,-1.4167382,0.4165846,-0.056235567,-0.2602768,-0.5918083,0.64010936,0.9109274,0.066496246,0.23755217,0.33069378,-1.3102866,0.34097332,-0.21624576,0.0,1.0,0.0,0.0,0.0,0.0,0.0,-0.3597206,0.1707283,-0.14140373,0.2248764,-5.2453012,0.56955814,-0.18627644,1.3218522,-0.4969895,1.5996624
-10.284769,35.321133,6.524511,8.819789,1.1436516,0.24176455,0.23855655,-0.78717196,-0.2514473,-0.65439,0.7891405,-0.5426757,0.6408176,0.2318204,0.5288824,-1.1139531,-2.112612,-0.9072813,1.6809515,1.8032472,-0.7899234,0.59372073,-1.0920357,-2.0583916,-0.9721209,1.7275107,1.743879,-0.81273484,-1.3894484,-0.34452718,-1.1262281,1.4076453,-0.7702455,0.4700025,0.04306567,-0.30437088,-0.5665245,0.6903674,-1.4063118,0.42199373,-0.117727585,-0.2735443,-0.588356,0.63754845,0.91375965,0.071265996,0.24280575,0.31782022,-1.3292868,0.35725114,-0.26897258,0.0,1.0,0.0,0.0,0.0,0.0,0.0,-0.3456291,0.1665245,-0.14036739,-0.63917637,-8.716899,-1.7275572,0.090026855,0.19682646,-0.55708885,2.3933058
3.752832,55.22921,15.475954,8.552389,1.2351499,0.45243865,0.3088529,-0.7358899,-0.21113725,-0.5799038,0.79560655,-0.47373107,0.64876044,0.33243707,0.52013177,-1.1131494,-2.116382,-0.89256024,1.6801376,1.808755,-0.7794911,0.580004,-1.0958332,-2.0694575,-0.95802075,1.7200389,1.7485738,-0.8120635,-1.3661389,-0.39187455,-1.0982785,1.4106183,-0.7409379,0.4685182,0.07495801,-0.31819153,-0.5622635,0.68899405,-1.3737787,0.42744112,-0.14242445,-0.28678894,-0.584713,0.6347441,0.91634464,0.07616118,0.24766707,0.30524254,-1.3191129,0.3780912,-0.28393644,0.0,1.0,0.0,0.0,0.0,0.0,0.0,-0.33180845,0.16226348,-0.13899404,2.1996498,-4.862219,3.306961,0.24149418,2.471757,-0.36208034,3.1266668
0.23567533,36.321384,9.489157,5.91912,1.2579474,0.26423562,0.3114532,-0.7528504,-0.34820256,-0.5608446,0.7868452,-0.43866003,0.64178705,0.26911318,0.50471896,-1.1306534,-2.125542,-0.87933624,1.6761729,1.8127525,-0.7851522,0.566455,-1.1005405,-2.080115,-0.94392145,1.7129363,1.7532444,-0.8111413,-1.3513875,-0.49730867,-1.0538186,1.409874,-0.70084727,0.46603578,0.098113514,-0.33182526,-0.5579643,0.6871121,-1.3593326,0.43108502,-0.20116973,-0.30005264,-0.5808983,0.6315787,0.9187566,0.08106597,0.25189584,0.2930241,-1.3259501,0.39275154,-0.32733333,0.0,1.0,0.0,0.0,0.0,0.0,0.0,-0.31817472,0.15796432,-0.13711208,1.4153957,-10.620624,4.8024416,-0.012755394,3.7102342,-0.42262077,2.3497388
-1.2159889,36.916447,8.740874,6.1740484,1.0565706,0.25235432,0.33946848,-0.7481629,-0.3658883,-0.58147895,0.78968847,-0.4909717,0.6274142,0.40112033,0.49163872,-1.1371293,-2.138263,-0.8649526,1.6638391,1.8159858,-0.7710293,0.553033,-1.1062359,-2.090464,-0.92982125,1.7060282,1.7578825,-0.8099218,-1.3392798,-0.5939137,-1.0277218,1.4102216,-0.6882838,0.46256495,0.13002829,-0.34531784,-0.55363846,0.68463284,-1.3447124,0.4334051,-0.26125595,-0.31337357,-0.5769386,0.62795186,0.92099655,0.08608294,0.2555348,0.28117093,-1.3299665,0.40785545,-0.37465978,0.0,1.0,0.0,0.0,0.0,0.0,0.0,-0.30468214,0.15363845,-0.13463283,1.1617422,-9.745693,2.9508352,0.11706352,0.9656429,-0.5148947,3.215541
-2.3789368,34.234886,7.504833,5.911729,0.9971628,0.21586478,0.3430284,-0.74142814,-0.42644012,-0.564658,0.7948214,-0.48337057,0.6085405,0.455143,0.47889018,-1.1488799,-2.14693,-0.8503391,1.6576911,1.8187366,-0.7644075,0.53972065,-1.1129421,-2.1005836,-0.91569144,1.699189,1.7624732,-0.80836886,-1.3286779,-0.6965019,-1.0055139,1.4142421,-0.683298,0.45736727,0.1639338,-0.35868835,-0.5492897,0.6815088,-1.3332698,0.4352426,-0.32746238,-0.3267479,-0.5728302,0.6238112,0.9230653,0.09128466,0.25863093,0.26968053,-1.3358539,0.42245635,-0.42763278,0.0,1.0,0.0,0.0,0.0,0.0,0.0,-0.29131162,0.1492897,-0.13150877,1.0289669,-10.341787,2.5297403,0.5218029,0.23261309,-0.6827712,3.4327686
-3.163964,30.368732,6.3047314,5.212858,0.9752683,0.20402604,0.35378185,-0.7398265,-0.50259066,-0.52970177,0.7951688,-0.4788886,0.5830401,0.50428814,0.465738,-1.1632012,-2.1535537,-0.83617455,1.6513001,1.8207772,-0.75794005,0.5264884,-1.1207718,-2.1103942,-0.9015178,1.6923671,1.7669941,-0.8064696,-1.3213613,-0.81203794,-0.9722869,1.4189608,-0.68239987,0.4498733,0.1988631,-0.37197113,-0.5449295,0.67766434,-1.3258348,0.4366603,-0.40109327,-0.34020233,-0.5685692,0.61909825,0.92498934,0.09666938,0.26113698,0.25856766,-1.3440309,0.43730232,-0.48658246,0.0,1.0,0.0,0.0,0.0,0.0,0.0,-0.27802885,0.1449295,-0.12766433,0.7185221,-11.629629,3.6016464,0.63569546,-0.14833212,-0.9073734,3.5731287
3.6844072,42.32052,11.563501,5.4377847,1.2642816,0.43092936,0.3520665,-0.7246437,-0.5285445,-0.42641538,0.7852736,-0.42222136,0.55134976,0.53422225,0.45402405,-1.1736262,-2.1530359,-0.8229904,1.6501449,1.8221291,-0.7530474,0.51336956,-1.1296142,-2.1194496,-0.8873565,1.6857151,1.7714244,-0.8042318,-1.3089803,-0.9085864,-0.8815995,1.4154539,-0.6605835,0.44017404,0.23245648,-0.38508987,-0.54055023,0.67324394,-1.3059608,0.43851888,-0.4534468,-0.35362625,-0.5641327,0.6139905,0.92681086,0.10197832,0.26299012,0.24790737,-1.3373218,0.45704445,-0.5197226,0.0,1.0,0.0,0.0,0.0,0.0,0.0,-0.2649101,0.14055023,-0.12324393,1.1596918,-9.749222,9.524334,-0.26726723,1.7605543,-1.1471927,3.4542055
13.362995,55.44604,18.95563,5.404713,2.1439075,0.79245734,0.31730914,-0.71911186,-0.5848832,-0.2037629,0.7589509,-0.22812973,0.5156862,0.5438765,0.44145837,-1.1881026,-2.1398258,-0.81146145,1.6629021,1.822993,-0.7498442,0.5003766,-1.1393913,-2.126628,-0.8733716,1.6798615,1.7757404,-0.8016811,-1.2966253,-1.0011306,-0.6609737,1.392765,-0.56217104,0.42800894,0.2633055,-0.39792252,-0.53614426,0.66847855,-1.2739853,0.44151735,-0.4814499,-0.36689758,-0.55942535,0.60885686,0.9286886,0.1065191,0.2638503,0.23785295,-1.3189435,0.48539042,-0.5125225,0.0,1.0,0.0,0.0,0.0,0.0,0.0,-0.25207746,0.13614425,-0.11847854,1.0818958,-9.360207,22.76827,-2.281499,9.169292,-1.4218688,3.277266
12.055722,58.773468,21.123377,6.473632,3.440061,0.9238938,0.19627479,-0.7446761,-0.6422692,-0.057106353,0.70042306,0.21664587,0.3476683,0.5442759,0.42590898,-1.2036182,-2.1323385,-0.8033293,1.7015262,1.8105072,-0.74725354,0.48735794,-1.1500973,-2.1311092,-0.85988456,1.6762786,1.7798125,-0.79885244,-1.3040146,-1.0940983,-0.3748049,1.333995,-0.29251873,0.39924493,0.29060322,-0.41049957,-0.5316887,0.66343254,-1.2513276,0.448038,-0.5101666,-0.38012314,-0.55435944,0.6039758,0.93093526,0.10959133,0.262992,0.2284391,-1.3182964,0.5245659,-0.48167115,0.0,1.0,0.0,0.0,0.0,0.0,0.0,-0.2395004,0.13168868,-0.11343253,-0.8708954,-9.403539,29.334581,-5.8817863,26.25972,-3.1412423,3.070414
12.703508,66.37114,22.987217,6.3131766,3.61211,0.99296826,0.2043972,-0.7659777,-0.6431564,0.06691258,0.5983959,0.3714881,0.08861772,0.5418206,0.41076016,-1.2144129,-2.124418,-0.80004495,1.7134274,1.7886742,-0.7446704,0.47413352,-1.1614918,-2.132646,-0.8474191,1.6756943,1.7834176,-0.7957869,-1.328992,-1.1549598,-0.07746573,1.2171825,0.01730339,0.34676498,0.31295952,-0.4228096,-0.52716446,0.6581703,-1.223522,0.45436832,-0.529929,-0.39328003,-0.5488663,0.59948707,0.9336907,0.11096541,0.2600947,0.21967903,-1.310983,0.5674974,-0.44005617,0.0,1.0,0.0,0.0,0.0,0.0,0.0,-0.22719038,0.12716445,-0.10817027,-2.6191711,-6.198883,30.425974,-11.72471,30.270027,-5.4599943,2.5371313
10.885336,60.653393,17.961449,3.0258338,2.344778,0.5513873,0.3616522,-0.77288514,-0.6331273,-0.0051549384,0.4731592,0.40477225,-0.27253893,0.5342133,0.396845,-1.2248045,-2.1331615,-0.8001032,1.7161716,1.7561637,-0.7423656,0.46063474,-1.1732029,-2.1322644,-0.8365767,1.677842,1.7862588,-0.7925397,-1.3571272,-1.176831,0.077926286,1.0398141,0.27901688,0.26296473,0.3292522,-0.43484497,-0.52261734,0.65261894,-1.1962056,0.45530346,-0.56262577,-0.4062996,-0.5430603,0.5951497,0.9368295,0.11128102,0.2553639,0.21155639,-1.2934465,0.5948072,-0.4342464,0.0,1.0,0.0,0.0,0.0,0.0,0.0,-0.215155,0.122617334,-0.10261893,-2.9053926,-2.2793293,15.948672,-17.770313,25.690207,-8.463156,1.7947495
-0.097126484,59.54961,11.825457,6.1209936,1.3279607,0.047195196,0.29312506,-0.7661148,-0.5901519,-0.20128334,0.47249645,0.4251701,-0.41337,0.5659967,0.38402325,-1.232218,-2.1523926,-0.789327,1.7203591,1.7449218,-0.73594004,0.44694284,-1.1847519,-2.1320324,-0.8272367,1.6820499,1.7882085,-0.78913605,-1.3733579,-1.1476675,0.0050788186,0.89892393,0.46717244,0.17213616,0.34430495,-0.44662476,-0.51808167,0.6466736,-1.1721917,0.4532524,-0.60578775,-0.41918945,-0.53707504,0.59063697,0.9401014,0.11161803,0.24945109,0.2037763,-1.2829447,0.60981303,-0.45973435,0.0,1.0,0.0,0.0,0.0,0.0,0.0,-0.20337522,0.11808166,-0.09667361,-1.6650677,2.8315544,-7.1655846,-14.022434,18.613594,-9.114382,1.5773952
-0.22177744,72.409805,14.522703,10.767638,1.4084572,0.03161621,0.12270793,-0.74596924,-0.5649987,-0.14678217,0.50237435,0.47318992,-0.46410817,0.61851585,0.37234592,-1.2412517,-2.1467106,-0.7769993,1.7293688,1.7417977,-0.7272845,0.43325523,-1.1958069,-2.1327813,-0.81874156,1.6877227,1.789294,-0.7855635,-1.3673619,-1.09183,-0.10108022,0.8332483,0.59988874,0.08711726,0.3615696,-0.4580803,-0.5135765,0.6404708,-1.1369996,0.44915044,-0.6258525,-0.43195724,-0.53094864,0.586019,0.9433561,0.112354614,0.24293143,0.1960609,-1.2693106,0.6232673,-0.4652206,0.0,1.0,0.0,0.0,0.0,0.0,0.0,-0.19191968,0.1135765,-0.09047079,0.55561066,5.4856777,-10.429742,-6.5075755,13.068986,-8.560915,1.739639
-2.3772893,87.29313,19.128132,16.056553,2.0158033,0.37231964,-0.058563642,-0.7672982,-0.5461642,-0.02763981,0.4969166,0.46366832,-0.4977445,0.60358644,0.3565254,-1.2504233,-2.1355453,-0.7690499,1.7340895,1.7395196,-0.7252049,0.41957906,-1.2062591,-2.1339982,-0.81053746,1.694271,1.7895974,-0.78184605,-1.3678986,-1.0300698,-0.12728226,0.816252,0.67209303,0.011008855,0.375074,-0.46910095,-0.5091171,0.6342715,-1.0909809,0.44534552,-0.61881346,-0.44456863,-0.5246086,0.58158684,0.94655484,0.113278724,0.23615089,0.18824036,-1.254247,0.647787,-0.43823764,0.0,1.0,0.0,0.0,0.0,0.0,0.0,-0.18089902,0.10911712,-0.08427149,-0.09975433,6.060219,-2.3068712,-1.6631126,6.9492817,-7.7057867,1.330322
9.187918,91.673874,22.965828,12.530619,1.8771573,0.5829761,0.08012642,-0.7587446,-0.5297464,0.06570552,0.39322186,0.5175977,-0.5543669,0.6089652,0.34370458,-1.2592337,-2.1274276,-0.77121526,1.7460307,1.7341607,-0.72094953,0.40593436,-1.2161468,-2.1347802,-0.8027736,1.7014045,1.7891914,-0.77800745,-1.3636421,-0.97524214,-0.060446426,0.763004,0.7258869,-0.057998646,0.3865679,-0.47957993,-0.5047226,0.6282562,-1.0339177,0.43731636,-0.5960623,-0.45686722,-0.51804733,0.5775172,0.9496979,0.114008576,0.22912054,0.18049808,-1.2179912,0.6682803,-0.3987132,0.0,1.0,0.0,0.0,0.0,0.0,0.0,-0.17042005,0.10472259,-0.07825619,0.3362894,5.376196,7.1032467,-5.3795695,5.0442457,-6.945883,1.0875583
13.653871,98.47926,25.961723,12.48904,2.0436795,0.7656219,0.09703545,-0.75886106,-0.4885015,0.13105406,0.36045578,0.5641956,-0.5822537,0.6132448,0.33004826,-1.264997,-2.1216748,-0.76672804,1.7578241,1.730966,-0.716683,0.39232877,-1.225449,-2.1344676,-0.7956211,1.709039,1.7881578,-0.774066,-1.359882,-0.91567045,0.06320068,0.6990931,0.77483094,-0.11854837,0.39635473,-0.4894333,-0.50043106,0.6225985,-0.9699537,0.4268746,-0.5569743,-0.46876144,-0.51127625,0.57396406,0.95280004,0.11421759,0.2218205,0.17297961,-1.1735839,0.6894772,-0.34302074,0.0,1.0,0.0,0.0,0.0,0.0,0.0,-0.16056669,0.100431055,-0.07259852,0.28190613,5.8561325,12.806376,-6.4720154,4.5704722,-6.0691175,0.8978367
17.621634,106.66369,29.044043,13.741999,2.273508,0.8802892,0.04860943,-0.74181324,-0.44693807,0.22251701,0.36769897,0.5806692,-0.5826835,0.6223839,0.31814745,-1.2701428,-2.112216,-0.7588512,1.7671059,1.7298895,-0.7118276,0.37883297,-1.2341102,-2.1326103,-0.7889587,1.7170985,1.7865942,-0.7700329,-1.3464228,-0.84985054,0.2280553,0.6550363,0.8152405,-0.16893966,0.40522632,-0.49859238,-0.4962616,0.61748123,-0.8991718,0.41347823,-0.49820483,-0.48015213,-0.5042877,0.5711093,0.9558726,0.11363356,0.21432579,0.165709,-1.1244968,0.7102277,-0.26833397,0.0,1.0,0.0,0.0,0.0,0.0,0.0,-0.1514076,0.09626159,-0.06748122,1.2637138,6.4828634,16.928165,-4.4816613,3.7563086,-5.0293655,0.7906616
21.711378,106.29613,29.574062,13.091992,2.2199743,0.82901245,0.037713032,-0.7155527,-0.43037948,0.3095565,0.36698282,0.59376264,-0.572254,0.62280947,0.30727768,-1.2771481,-2.1016548,-0.75226045,1.7764747,1.7293688,-0.7077519,0.3655856,-1.2421898,-2.1289904,-0.7825779,1.7254978,1.7846013,-0.76592237,-1.3176813,-0.7941292,0.40846607,0.6323025,0.8472038,-0.20937243,0.4126727,-0.5070381,-0.49225235,0.6130013,-0.8277966,0.3971767,-0.43358392,-0.4910469,-0.49713135,0.5690122,0.95891815,0.1120974,0.20670289,0.15869467,-1.0743266,0.7256561,-0.19197571,0.0,1.0,0.0,0.0,0.0,0.0,0.0,-0.14296186,0.092252344,-0.063001275,2.8162718,5.4764986,18.454737,-2.3121238,2.9600978,-4.0145454,0.6548703
17.617523,102.5599,27.182169,13.763929,2.0486627,0.72460145,0.0072933845,-0.70834905,-0.39533025,0.31993225,0.36069778,0.6042587,-0.5429618,0.6155631,0.2947507,-1.2817228,-2.0969973,-0.7465081,1.7859237,1.7303052,-0.7043661,0.3526323,-1.2497143,-2.1239226,-0.7763211,1.7341535,1.7822803,-0.7617518,-1.287948,-0.7388829,0.5405828,0.6236191,0.8709746,-0.2396337,0.41833177,-0.51481247,-0.48840332,0.60912734,-0.7624614,0.38089928,-0.37513658,-0.50149155,-0.48983002,0.5675953,0.961909,0.10972365,0.19906142,0.15187632,-1.0314538,0.74010926,-0.1270838,0.0,1.0,0.0,0.0,0.0,0.0,0.0,-0.1351875,0.088403314,-0.05912733,2.9516459,5.433154,13.529629,-0.83459616,2.2163153,-2.9840827,0.51389337
24.107347,108.22129,28.531044,11.783818,1.5519377,0.7028443,0.1280758,-0.6769138,-0.31761804,0.3647603,0.296486,0.6215465,-0.5221524,0.6077473,0.28494093,-1.281476,-2.0874465,-0.7466725,1.7963082,1.7300651,-0.700977,0.34005818,-1.2564739,-2.1177938,-0.77037734,1.7430354,1.779721,-0.7575383,-1.2473301,-0.6554549,0.63819635,0.5847439,0.8932096,-0.26108596,0.42212063,-0.5218773,-0.48475647,0.6059349,-0.6902674,0.35967714,-0.30495992,-0.5113907,-0.48244858,0.5668427,0.96478474,0.10666275,0.1915441,0.14534189,-0.97305584,0.7445368,-0.06013993,0.0,1.0,0.0,0.0,0.0,0.0,0.0,-0.12812269,0.084756464,-0.055934906,4.032755,8.2471485,10.052419,-3.8448215,2.1027565,-2.025336,0.32269955
37.721264,85.9712,24.307737,0.5809653,0.39649072,0.38609627,0.49143776,-0.6428486,-0.35761592,0.4484381,0.15670376,0.6682736,-0.52979964,0.58768857,0.27577332,-1.2922355,-2.07295,-0.754707,1.8098629,1.7267411,-0.69876945,0.3279713,-1.2627338,-2.1106696,-0.7654442,1.7522175,1.7769789,-0.7533088,-1.1960288,-0.6163567,0.73820156,0.4628596,0.9257711,-0.27792153,0.42299888,-0.52827454,-0.48135376,0.6032132,-0.6251089,0.3344994,-0.26594818,-0.52059937,-0.47520447,0.56642604,0.9675332,0.10298258,0.18390454,0.13947469,-0.90095454,0.7248913,-0.03753121,0.0,1.0,0.0,0.0,0.0,0.0,0.0,-0.12172544,0.081353754,-0.05321318,5.0762415,3.824222,10.271942,-12.179369,3.1298757,-1.4761269,0.039350986
41.53378,69.38361,19.31796,-7.126317,-0.6989629,0.166327,0.8138992,-0.64545655,-0.33235908,0.42054743,-0.023879481,0.69072104,-0.50384563,0.5743783,0.26342565,-1.2959697,-2.068615,-0.76783216,1.8212897,1.7265943,-0.69587094,0.3162846,-1.2686847,-2.1029572,-0.76249194,1.7617413,1.7741162,-0.749084,-1.1597269,-0.5880972,0.78309005,0.23945995,0.96089345,-0.2879729,0.42228162,-0.5340767,-0.47821426,0.60065013,-0.56731105,0.30826086,-0.25847268,-0.5290184,-0.4682808,0.5659169,0.9701187,0.098959394,0.17590863,0.13465813,-0.819207,0.68912303,-0.05721454,0.0,1.0,0.0,0.0,0.0,0.0,0.0,-0.115923285,0.07821426,-0.05065012,3.5719395,2.755952,4.6025395,-22.324762,3.497219,-0.6840229,-0.07199645
63.894028,38.57269,14.384773,-21.869644,-2.1141024,-0.3657451,1.2094153,-0.55971825,-0.42983192,0.51112086,-0.17370467,0.7183336,-0.44038212,0.56460685,0.26031277,-1.3116679,-2.051845,-0.7798624,1.8335747,1.730078,-0.6926233,0.3052335,-1.2749404,-2.0946193,-0.7622089,1.7716287,1.7712246,-0.74487674,-1.0871475,-0.638348,0.8514062,-0.04212151,0.9974547,-0.2884182,0.42027092,-0.53936005,-0.47537994,0.59783816,-0.517306,0.2763055,-0.2939919,-0.53650284,-0.4619751,0.5647957,0.9725435,0.09462796,0.16716854,0.13137516,-0.72253174,0.61579126,-0.13226168,0.0,1.0,0.0,0.0,0.0,0.0,0.0,-0.11063993,0.07537994,-0.04783815,7.18112,-5.1031947,6.9741488,-28.175556,3.5865903,0.316602,-0.19056797
62.63032,31.941727,12.431413,-23.076656,-2.2510798,-0.45270443,1.2431532,-0.5490461,-0.43858996,0.53763574,-0.30026844,0.73237395,-0.3560375,0.581262,0.2503289,-1.3187994,-2.0408556,-0.79223573,1.8448662,1.7356209,-0.68675053,0.29485536,-1.2818221,-2.0856326,-0.7648098,1.7818494,1.7684016,-0.74067456,-1.0214365,-0.7049297,0.91480637,-0.33252764,1.030196,-0.27922744,0.42045566,-0.54418564,-0.4728508,0.5945661,-0.47295502,0.24597237,-0.34284896,-0.54304504,-0.4564247,0.56282747,0.9748035,0.08999002,0.15753298,0.12978178,-0.6310194,0.5395093,-0.21984431,0.0,1.0,0.0,0.0,0.0,0.0,0.0,-0.10581434,0.07285079,-0.044566095,6.5429688,-6.7398787,6.3411236,-28.976675,3.305173,1.249975,0.09832978
46.35957,46.618454,14.811926,-11.256526,-0.95088553,-0.2437649,0.7669287,-0.5154028,-0.43943092,0.5790333,-0.23091443,0.730003,-0.17817779,0.59389585,0.24331507,-1.3257651,-2.0277293,-0.7879012,1.8548497,1.7505839,-0.68128496,0.28512982,-1.2892913,-2.0759938,-0.7692856,1.7923142,1.7658,-0.73645836,-0.9560812,-0.76089233,0.9797284,-0.48550215,1.0525749,-0.25285372,0.4224344,-0.54860306,-0.47057343,0.5909794,-0.43305618,0.22209233,-0.3680298,-0.5489006,-0.45143127,0.56025016,0.9769058,0.08491416,0.14728276,0.12943073,-0.56843257,0.48862284,-0.2715327,0.0,1.0,0.0,0.0,0.0,0.0,0.0,-0.10139692,0.07057342,-0.040979385,6.5914273,-5.631745,6.3088417,-15.148199,2.4671555,2.9033601,0.3302753
60.587452,46.864388,16.77846,-14.915003,-1.3561542,-0.39231795,0.81012636,-0.4077095,-0.49532062,0.6389256,-0.33793268,0.7425438,-0.0081599,0.59188884,0.24435887,-1.3388233,-2.0121012,-0.8030789,1.8665686,1.764984,-0.67726946,0.27638656,-1.2974184,-2.0655987,-0.77503544,1.802976,1.7635869,-0.73222387,-0.84682924,-0.8298957,1.0591835,-0.604226,1.0713989,-0.2099657,0.42426875,-0.55260086,-0.4685707,0.5871775,-0.3894955,0.19339222,-0.3868626,-0.554039,-0.44708252,0.55717385,0.9788314,0.07922579,0.13657314,0.13023065,-0.49480623,0.4203931,-0.3204851,0.0,1.0,0.0,0.0,0.0,0.0,0.0,-0.097399116,0.0685707,-0.037177503,10.994983,-6.939316,7.7715874,-11.705565,2.1321535,4.583353,0.32371283
37.233536,60.662712,17.268707,-3.7084992,-0.4031407,-0.06229405,0.46111488,-0.4312028,-0.4663082,0.5985491,-0.355642,0.73914725,0.15636697,0.58213353,0.23326628,-1.3440492,-2.0057437,-0.8105996,1.8768908,1.7792236,-0.6740105,0.26845723,-1.3059423,-2.0547771,-0.7815606,1.8137611,1.7618972,-0.72797716,-0.7745673,-0.85965437,1.0885336,-0.6678369,1.0822542,-0.15431264,0.42546567,-0.55620956,-0.46678925,0.5832841,-0.3525077,0.17344306,-0.3923134,-0.55861664,-0.44317627,0.5537822,0.9805547,0.07300974,0.12570585,0.13183343,-0.4446881,0.38258174,-0.34608215,0.0,1.0,0.0,0.0,0.0,0.0,0.0,-0.09379041,0.06678924,-0.033284068,7.348323,-2.961266,2.581215,-6.1256647,1.5024185,5.8618517,0.3293693
42.249096,77.05669,21.686104,-1.9436545,-0.5560472,-0.05470614,0.40892535,-0.34145454,-0.4339703,0.60005075,-0.38253364,0.7353749,0.20959163,0.5741413,0.23431177,-1.3493394,-1.9947721,-0.81981397,1.8872986,1.7828563,-0.67056304,0.26141495,-1.3144357,-2.0438673,-0.7885129,1.824615,1.7607678,-0.72372663,-0.6802714,-0.8457719,1.0905187,-0.7034225,1.0881702,-0.09772627,0.42565745,-0.5594063,-0.46522903,0.5795384,-0.30904645,0.15009123,-0.37057313,-0.56261444,-0.43969345,0.5503354,0.9820365,0.066378295,0.11500723,0.13405822,-0.38411555,0.33744332,-0.3447797,0.0,1.0,0.0,0.0,0.0,0.0,0.0,-0.090593696,0.06522903,-0.029538393,9.581554,1.4399529,-0.24065971,-3.285861,1.1480093,6.0657473,0.23927689
57.290356,76.608536,22.967924,-6.651426,-1.2441378,-0.3986975,0.49903703,-0.22424543,-0.4603089,0.601503,-0.3936124,0.7353927,0.22871408,0.5708181,0.2389904,-1.3604666,-1.9837171,-0.8278741,1.8981543,1.7836392,-0.6666448,0.25565094,-1.3228109,-2.0330374,-0.79566836,1.8355023,1.7601675,-0.71947896,-0.5412997,-0.83454514,1.0793415,-0.7187027,1.0905373,-0.045995194,0.42515832,-0.5621567,-0.4639473,0.5760083,-0.26422435,0.12109132,-0.34805766,-0.5659065,-0.43686676,0.5468904,0.98324615,0.059406165,0.104581736,0.13696907,-0.31125852,0.26768237,-0.34478578,0.0,1.0,0.0,0.0,0.0,0.0,0.0,-0.0878433,0.06394729,-0.026008308,14.041066,1.1647582,-1.4630318,-1.2495995,0.72681904,5.5980062,0.16204119
51.7664,86.742645,24.876257,-2.2428057,-0.9871909,-0.38945138,0.3423508,-0.17262709,-0.41643983,0.5701582,-0.3482982,0.7286171,0.2558378,0.5660676,0.23838823,-1.3644549,-1.9760216,-0.83049816,1.9083639,1.7857512,-0.6628722,0.25128692,-1.3308733,-2.0224946,-0.8026522,1.8463783,1.760047,-0.71524066,-0.4009469,-0.79663897,1.0447804,-0.6906328,1.0884817,0.0006686796,0.42408177,-0.5644798,-0.46294022,0.57280415,-0.22192492,0.09403372,-0.31202424,-0.5685425,-0.43468475,0.5435873,0.9841785,0.052200425,0.09459831,0.14042394,-0.24574968,0.2032647,-0.32584623,0.0,1.0,0.0,0.0,0.0,0.0,0.0,-0.08552015,0.06294021,-0.022804141,14.195561,3.8635373,-3.835249,3.1038404,0.34284592,5.1100926,0.10647774
55.034775,85.88754,24.952417,-3.5238457,-1.2148684,-0.57112324,0.3539466,-0.08285732,-0.41257706,0.5595545,-0.34446618,0.72160894,0.23042049,0.5510748,0.2430012,-1.372131,-1.9665391,-0.8370988,1.9185392,1.783089,-0.6601332,0.24841106,-1.3385713,-2.0123208,-0.80928403,1.8572012,1.7603174,-0.71102446,-0.24930938,-0.76057047,1.0071698,-0.6530105,1.0819545,0.037196036,0.42149162,-0.56640625,-0.4622078,0.5699267,-0.18290763,0.0666134,-0.27928174,-0.5704994,-0.43319702,0.5404671,0.98483765,0.044852246,0.08509548,0.14436688,-0.17971188,0.13100512,-0.3077485,0.0,1.0,0.0,0.0,0.0,0.0,0.0,-0.083593726,0.06220779,-0.019926667,15.317503,3.668058,-4.0782213,4.062891,-0.16729832,4.062875,-0.04990697
36.87939,89.91791,23.908045,2.187633,-0.7130364,-0.3832174,0.22142689,-0.08137349,-0.35813388,0.5030069,-0.35958627,0.72405845,0.18929075,0.536985,0.24027371,-1.3743846,-1.96202,-0.8452427,1.929607,1.7792466,-0.657326,0.24669087,-1.3457334,-2.0027149,-0.81565624,1.8679643,1.760867,-0.7068437,-0.14571233,-0.70122343,0.9437376,-0.63088036,1.076248,0.062234093,0.41765165,-0.56799316,-0.4616928,0.5673602,-0.15087268,0.04631603,-0.24820545,-0.5719223,-0.4322853,0.53757054,0.9852434,0.037541777,0.07609541,0.14864592,-0.12913837,0.08011316,-0.2841808,0.0,1.0,0.0,0.0,0.0,0.0,0.0,-0.08200681,0.061692804,-0.01736021,10.517362,6.0157776,-6.7341566,2.515006,-0.03783703,2.8910406,-0.16102791
29.083382,101.03957,26.43835,7.199707,-0.31078917,-0.22187933,0.077419505,-0.013597049,-0.2973816,0.48871186,-0.28474241,0.7046871,0.21877533,0.5447182,0.24533117,-1.3754716,-1.9538437,-0.8441305,1.9384329,1.7827445,-0.6523719,0.24593413,-1.3521116,-1.9937195,-0.8215508,1.8786244,1.761647,-0.70269424,-0.05176145,-0.6163712,0.8833295,-0.57461137,1.0646895,0.08433682,0.41466188,-0.5692787,-0.4613495,0.5652512,-0.12014169,0.031617276,-0.19766463,-0.5728874,-0.43177414,0.53508335,0.9854248,0.030321555,0.06774691,0.15306515,-0.08648907,0.041429482,-0.2375156,0.0,1.0,0.0,0.0,0.0,0.0,0.0,-0.08072126,0.06134948,-0.01525116,9.559521,8.592463,-6.471765,5.9147477,-0.55327415,2.5880842,-0.10139942
31.53631,105.100235,28.082441,6.817941,-0.41791102,-0.247067,0.09704737,0.05992177,-0.25376055,0.47773907,-0.2658958,0.70142746,0.2114931,0.53371847,0.2519263,-1.3774877,-1.9459455,-0.84814036,1.9487672,1.7827963,-0.6493224,0.246158,-1.357578,-1.985231,-0.82686347,1.8891733,1.7626158,-0.6985792,0.047634367,-0.52307224,0.8359904,-0.5158518,1.0535189,0.10215623,0.4109474,-0.57027817,-0.46116638,0.56370807,-0.09274134,0.014552212,-0.13850756,-0.57341385,-0.43167114,0.5331317,0.98540014,0.023163347,0.060108505,0.15759757,-0.04103905,0.0002159521,-0.18166928,0.0,1.0,0.0,0.0,0.0,0.0,0.0,-0.07972181,0.061166376,-0.013708055,10.099493,9.429562,-5.1357865,6.1544538,-0.5334616,2.1462276,-0.19097924
-15.057478,126.58504,29.560886,27.074257,1.5395806,0.50964415,-0.47816545,-0.032057025,-0.107209615,0.37721997,-0.13008238,0.6854237,0.22196606,0.5237423,0.2429523,-1.368299,-1.947509,-0.8398717,1.9577156,1.7848125,-0.64620495,0.24669178,-1.3616254,-1.9775403,-0.83108246,1.8995762,1.7637342,-0.6945088,0.055815082,-0.3648571,0.7449023,-0.38989016,1.0384449,0.11651936,0.40633854,-0.5710869,-0.46099854,0.5630109,-0.07721662,0.0177116,-0.045510665,-0.57383347,-0.43148804,0.53205097,0.9852613,0.016205357,0.05352229,0.16165632,-0.042887308,0.024249727,-0.084387556,0.0,0.0,1.0,0.0,0.0,0.0,0.0,-0.07891309,0.06099853,-0.0130108595,0.97322536,15.99375,-9.655582,12.8165245,-0.7614851,1.8489003,-0.30694604
-3.3739684,105.36687,23.268604,19.746572,0.50345486,-0.16454485,-0.3801399,0.08898333,-0.107963234,0.20304975,-0.080310464,0.6532775,0.22628354,0.5006407,0.2555901,-1.3724217,-1.9572353,-0.83911353,1.964904,1.7863625,-0.6444447,0.24761374,-1.3643396,-1.9714195,-0.8339616,1.9097424,1.7649778,-0.6904967,0.104605295,-0.2397723,0.5667682,-0.25336844,1.0107785,0.12788889,0.39996213,-0.5717697,-0.46084595,0.5629137,-0.06550999,0.014941182,0.0028028325,-0.5742302,-0.43128967,0.5316078,0.9850526,0.0098556,0.048043776,0.1651245,-0.038717195,0.018264046,-0.0317352,0.0,0.0,1.0,0.0,0.0,0.0,0.0,-0.07823026,0.06084594,-0.012913704,4.96774,12.610618,-18.101109,13.826871,-2.3152113,1.3859286,-0.49790144
-14.016722,80.72482,13.796639,19.87241,0.41305542,-0.55349994,-0.5304395,0.0944138,-0.08912271,-0.015631832,0.02528303,0.60942405,0.23231235,0.47577903,0.25705513,-1.3732519,-1.9729826,-0.8314333,1.9706848,1.7882091,-0.64291877,0.24896415,-1.3660886,-1.9678737,-0.83527,1.9195099,1.7663218,-0.6865628,0.14527746,-0.15309873,0.28333387,-0.08972189,0.96617204,0.13678747,0.39160782,-0.5724182,-0.46071243,0.5628976,-0.06480627,0.01314499,-0.0027483588,-0.5747261,-0.43115997,0.53131914,0.98483497,0.0046690884,0.043619774,0.16785604,-0.05415996,0.011776266,-0.02878057,0.0,0.0,1.0,0.0,0.0,0.0,0.0,-0.07758176,0.060712427,-0.012897611,4.0951757,8.724412,-28.473997,16.45095,-4.2255044,0.9859592,-0.7196605
-10.643001,86.26082,15.938225,18.684402,0.18581417,-0.45243904,-0.42783234,0.10939742,0.0056594047,-0.062342275,0.057601642,0.56916845,0.25130227,0.50173753,0.25990388,-1.3655227,-1.9741079,-0.8295098,1.9764267,1.791452,-0.636389,0.25068885,-1.3668783,-1.9669696,-0.835146,1.9287624,1.7677503,-0.6826899,0.18157418,-0.054262437,0.02592428,0.046549235,0.9122344,0.14497244,0.38610026,-0.5730362,-0.46059418,0.56292903,-0.060648803,0.011431932,0.0048580803,-0.5752983,-0.43110657,0.53114814,0.98463714,0.0007371136,0.04026295,0.16990586,-0.05888939,0.003447684,-0.014003902,0.0,0.0,1.0,0.0,0.0,0.0,0.0,-0.07696378,0.06059417,-0.012929022,3.6416292,9.898625,-25.802288,13.655572,-5.2097797,0.8484423,-0.49833655
-14.672532,73.2109,12.210171,16.847483,0.20686509,-0.39379218,-0.36326346,0.09344145,0.0038682346,-0.17277175,0.07976593,0.5171243,0.2950678,0.4910128,0.26003298,-1.3664914,-1.9842467,-0.8271694,1.9804748,1.7972571,-0.6335886,0.25258857,-1.366945,-1.9684726,-0.8339692,1.9373955,1.7692786,-0.67887425,0.19269654,0.009333266,-0.20890337,0.1412857,0.84727836,0.15544689,0.3801959,-0.5736275,-0.46047974,0.56286913,-0.059013423,0.011425945,-0.009927882,-0.57595444,-0.43109894,0.5309538,0.9844762,-0.001982256,0.037825372,0.17138208,-0.06675253,0.00050369924,-0.021607896,0.0,0.0,1.0,0.0,0.0,0.0,0.0,-0.076372504,0.06047973,-0.01286912,1.1055499,6.3441315,-23.475979,9.448218,-6.4025044,1.0157734,-0.5713999
-21.763805,77.65535,13.264809,17.94812,0.3542893,-0.047888026,-0.27265877,0.045078535,0.07481381,-0.25857916,0.05391918,0.46409655,0.29339838,0.49951547,0.2570964,-1.3594637,-1.9943305,-0.8285773,1.9838051,1.7986184,-0.6289227,0.25427324,-1.3662946,-1.9720298,-0.83234507,1.9453244,1.7708963,-0.67510724,0.1603242,0.083472244,-0.40431184,0.16912322,0.7748077,0.16363871,0.37536675,-0.57419205,-0.4603386,0.56273055,-0.055966556,0.015661214,-0.01521744,-0.57665634,-0.4310074,0.53074616,0.9843536,-0.0035706114,0.03621195,0.17240646,-0.07098293,0.011283275,-0.020672282,0.0,0.0,1.0,0.0,0.0,0.0,0.0,-0.07580793,0.060338587,-0.012730539,-3.2619505,7.3765717,-19.447405,2.7057827,-7.236123,0.7501155,-0.5281031
