Afshin1997/kuka_rl_ros2/src/catch_and_throw/input_files/idealpd/recorded_trajectories/env_28_data.csv
torque0,torque1,torque2,torque3,torque4,torque5,torque6,action0,action1,action2,action3,action4,action5,action6,set_target_0,set_target_1,set_target_2,set_target_3,set_target_4,set_target_5,set_target_6,joint_pos_0,joint_pos_1,joint_pos_2,joint_pos_3,joint_pos_4,joint_pos_5,joint_pos_6,joint_vel_0,joint_vel_1,joint_vel_2,joint_vel_3,joint_vel_4,joint_vel_5,joint_vel_6,tennisball_pos_0,tennisball_pos_1,tennisball_pos_2,tennisball_lin_vel_0,tennisball_lin_vel_1,tennisball_lin_vel_2,end_effector_pos_0,end_effector_pos_1,end_effector_pos_2,end_effector_rot_0,end_effector_rot_1,end_effector_rot_2,end_effector_rot_3,end_effector_lin_vel_0,end_effector_lin_vel_1,end_effector_lin_vel_2,obs_task_0,obs_task_1,obs_task_2,obs_task_3,obs_task_4,obs_task_5,obs_task_6,to_final_target_0,to_final_target_1,to_final_target_2,joint_acc_0,joint_acc_1,joint_acc_2,joint_acc_3,joint_acc_4,joint_acc_5,joint_acc_6
0.0,0.0,0.0,0.0,0.0,0.0,0.0,0.0,0.0,0.0,0.0,0.0,0.0,0.0,1.7802359,-1.0646509,-1.8151424,-1.1170107,1.9373155,1.1170107,-0.91629785,1.7802359,-1.0646509,-1.8151424,-1.1170107,1.9373155,1.1170107,-0.91629785,0.0,0.0,0.0,0.0,0.0,0.0,0.0,2.9817123,-0.5663376,0.24681528,-3.282319,0.1554799,5.4346604,0.5304184,-0.45449638,0.693097,0.5745483,0.17512383,0.15255436,0.7848268,0.0,0.0,0.0,1.0,0.0,0.0,0.0,0.0,0.0,0.0,-3.6317124,0.16633758,0.30318475,0.0,0.0,0.0,0.0,0.0,0.0,0.0
0.0,0.0,0.0,0.0,0.0,0.0,0.0,0.0,0.0,0.0,0.0,0.0,0.0,0.0,1.7802359,-1.0646509,-1.8151424,-1.1170107,1.9373155,1.1170107,-0.91629785,1.7802359,-1.0646509,-1.8151424,-1.1170107,1.9373155,1.1170107,-0.91629785,0.0,0.0,0.0,0.0,0.0,0.0,0.0,2.9817123,-0.5663376,0.24681528,-3.282319,0.1554799,5.4346604,0.5304184,-0.45449638,0.693097,0.5745483,0.17512383,0.15255436,0.7848268,0.0,0.0,0.0,1.0,0.0,0.0,0.0,0.0,0.0,0.0,-3.6317124,0.16633758,0.30318475,0.0,0.0,0.0,0.0,0.0,0.0,0.0
0.0,0.0,0.0,0.0,0.0,0.0,0.0,0.0,0.0,0.0,0.0,0.0,0.0,0.0,1.7802359,-1.0646509,-1.8151424,-1.1170107,1.9373155,1.1170107,-0.91629785,1.7802359,-1.0646509,-1.8151424,-1.1170107,1.9373155,1.1170107,-0.91629785,0.0,0.0,0.0,0.0,0.0,0.0,0.0,2.9817123,-0.5663376,0.24681528,-3.282319,0.1554799,5.4346604,0.5304184,-0.45449638,0.693097,0.5745483,0.17512383,0.15255436,0.7848268,0.0,0.0,0.0,1.0,0.0,0.0,0.0,0.0,0.0,0.0,-3.6317124,0.16633758,0.30318475,0.0,0.0,0.0,0.0,0.0,0.0,0.0
-176.0,75.077866,-3.4880772,110.0,11.190676,5.066293,-3.7920926,-0.82135475,0.3818354,-0.53939664,0.73740315,0.38276786,0.6429449,-0.5871402,1.6981004,-1.0264673,-1.8690821,-1.0432703,1.9755923,1.1813052,-0.9750119,1.778773,-1.0621885,-1.8209503,-1.1126105,1.9437432,1.1224848,-0.9188642,-0.19509573,0.3278366,-0.77369475,0.5869405,0.85598385,0.727765,-0.3415808,2.9489136,-0.5647812,0.30038467,-3.2790375,0.15532444,5.331041,0.5281906,-0.45773125,0.6939763,0.5785668,0.1736655,0.15062504,0.78256816,-0.29719537,-0.4315689,0.11714195,1.0,0.0,0.0,0.0,0.0,0.0,0.0,-3.5989137,0.16478118,0.24961534,-19.457129,32.575035,-77.147224,58.76391,85.28947,72.13146,-33.970295
-176.0,-3.6300359,-35.392834,110.0,11.897404,2.3545735,-3.182217,-0.81083906,-0.028664688,-0.5434743,0.7068511,0.45117107,0.6294329,-0.5727969,1.697689,-1.065055,-1.8752977,-1.0419253,1.9888604,1.1854281,-0.9761439,1.7767073,-1.0583471,-1.8357837,-1.0998636,1.9567018,1.1360556,-0.9217643,-0.2101063,0.39755404,-1.7104235,1.505496,1.4364074,1.5504026,-0.27281573,2.9161453,-0.5632324,0.35291862,-3.275759,0.15516916,5.2275248,0.52321625,-0.46593857,0.69519365,0.58731055,0.17020223,0.14618036,0.777643,-0.56432706,-0.948696,0.12462126,1.0,0.0,0.0,0.0,0.0,0.0,0.0,-3.5661454,0.16323242,0.19708139,-1.4443606,5.36837,-90.82565,92.3434,56.17075,77.34041,6.881702
-161.13835,115.41577,28.932318,95.4747,8.060148,7.3919177,-2.0432796,-0.7716613,0.35731366,-0.05654535,0.64660853,0.48299015,0.67858416,-0.5469121,1.6995412,-1.0226158,-1.8414383,-1.0352027,2.0050008,1.203914,-0.9764555,1.7713686,-1.0533956,-1.851527,-1.0829169,1.9710946,1.1513735,-0.92465395,-0.64201874,0.52427983,-1.5223393,1.7588179,1.4353509,1.5177847,-0.2962669,2.8834076,-0.56168365,0.4044182,-3.2724838,0.15501402,5.124112,0.5153198,-0.477005,0.6980634,0.59907895,0.16517901,0.14061423,0.7707449,-0.8731844,-1.1526705,0.345279,1.0,0.0,0.0,0.0,0.0,0.0,0.0,-3.5334077,0.16168365,0.14558181,-43.270405,11.636472,20.805717,25.657917,-1.5133858,-5.615449,-2.9171169
-101.22756,119.342125,42.403038,60.693058,4.797028,7.583181,-0.5697287,-0.7784014,0.24280274,0.06143891,0.6368424,0.5063457,0.6451857,-0.5648773,1.6935285,-1.0291153,-1.845383,-1.0192326,2.0217292,1.2158921,-0.9811417,1.7618223,-1.0480608,-1.8624485,-1.0656859,1.9841695,1.1655394,-0.92776674,-1.0602214,0.53389627,-0.9408523,1.7117832,1.2599483,1.3781942,-0.31904006,2.8507004,-0.5601349,0.45488444,-3.269212,0.15485904,5.0208025,0.5048523,-0.4888153,0.7029601,0.6119602,0.15875143,0.1343478,0.7630553,-1.1176142,-1.1792904,0.54313165,1.0,0.0,0.0,0.0,0.0,0.0,0.0,-3.5007005,0.16013488,0.09511557,-42.216827,0.19747019,60.52363,-4.588604,-19.031763,-15.338278,-3.0985296
-44.52363,127.880905,50.10592,33.726833,1.9029248,6.696358,0.1885784,-0.7936177,0.32797465,0.06385471,0.64505213,0.5467701,0.6520657,-0.560238,1.6824605,-1.0152633,-1.856063,-1.0011806,2.0388465,1.2307459,-0.9837905,1.7488772,-1.0425104,-1.8673236,-1.0499998,1.9953294,1.1781698,-0.9311046,-1.3739953,0.56021297,-0.32975596,1.5205134,1.0644253,1.2225347,-0.34146407,2.818039,-0.5585861,0.50431836,-3.2659435,0.15470421,4.917597,0.4925766,-0.50001526,0.7096042,0.62471616,0.15108284,0.12764055,0.75538826,-1.2766393,-1.0860537,0.7080631,1.0,0.0,0.0,0.0,0.0,0.0,0.0,-3.468039,0.15858611,0.045681655,-31.836319,2.097857,63.11493,-19.248558,-20.657206,-16.174053,-3.0704975
-5.0160275,123.144165,46.719604,15.760076,-0.22347152,4.770776,0.31027016,-0.8076956,0.4312025,-0.015736938,0.6360917,0.5571623,0.6307449,-0.57384384,1.6681076,-0.9993901,-1.8688973,-0.98639065,2.0510457,1.2412443,-0.988489,1.7338377,-1.0363058,-1.8677623,-1.0363489,2.0048661,1.1893717,-0.93464655,-1.5485256,0.63941294,0.055826385,1.3127362,0.9151415,1.0857761,-0.36062005,2.785408,-0.55703735,0.55272096,-3.2626781,0.15454954,4.814494,0.4793396,-0.5099335,0.7174853,0.6368833,0.14260072,0.12109114,0.7479181,-1.3499463,-0.94652635,0.8154938,1.0,0.0,0.0,0.0,0.0,0.0,0.0,-3.435408,0.15703735,-0.002720952,-17.835331,7.5628996,39.86797,-20.995808,-15.516591,-13.793349,-2.5923252
15.691225,116.77527,41.057327,7.621395,-1.3215499,3.1242173,0.14218119,-0.82062095,0.5223717,-0.0690841,0.6291674,0.56700534,0.62338006,-0.5724319,1.6517756,-0.98406863,-1.8746707,-0.9734322,2.0615666,1.2517097,-0.9918897,1.7178885,-1.0289339,-1.8662078,-1.0244013,2.0133615,1.1993719,-0.9383487,-1.611497,0.76911706,0.1915255,1.1545974,0.826721,0.97179276,-0.37517598,2.7528076,-0.5554962,0.60009336,-3.259416,0.15439503,4.7114944,0.46581268,-0.5184479,0.72613883,0.6484778,0.1337524,0.115282394,0.7404707,-1.3647724,-0.80419886,0.8811479,1.0,0.0,0.0,0.0,0.0,0.0,0.0,-3.4028077,0.15549621,-0.050093353,-6.6123962,12.719154,14.3906355,-16.043068,-9.102273,-11.314667,-1.9971013
24.71737,108.89831,35.767994,4.7420382,-1.6602173,2.0116634,-0.01893814,-0.8240009,0.5888231,-0.08769041,0.6136152,0.5803057,0.62414116,-0.5613795,1.6354884,-0.9700516,-1.8749769,-0.96303976,2.071392,1.2617861,-0.9944867,1.7018439,-1.02012,-1.8645618,-1.0135752,2.0213609,1.2083842,-0.94216245,-1.6027633,0.9181467,0.15762194,1.057943,0.79070216,0.87828046,-0.3848662,2.7202377,-0.5539551,0.6464365,-3.2561574,0.15424067,4.6085978,0.45235443,-0.52565384,0.73525816,0.6596548,0.12484829,0.11052609,0.7328385,-1.3471766,-0.6771525,0.9207213,1.0,0.0,0.0,0.0,0.0,0.0,0.0,-3.3702378,0.15395507,-0.0964365,0.60970783,14.72081,-2.838686,-9.89728,-3.7028193,-9.228897,-1.4164805
25.716736,100.2769,31.77373,5.0919247,-1.4224669,1.4653211,-0.08475389,-0.824352,0.6299448,-0.074936114,0.6016823,0.59615254,0.62909895,-0.55962414,1.6194086,-0.95712554,-1.8720554,-0.953407,2.080976,1.271294,-0.99812484,1.6861273,-1.0099272,-1.8637226,-1.0033232,2.0292726,1.2165896,-0.94605154,-1.561937,1.0524379,0.060678948,1.0134156,0.7907905,0.80159897,-0.3915112,2.6876984,-0.55241394,0.6917515,-3.2529018,0.15408646,4.505804,0.43911743,-0.53175354,0.7446822,0.67054033,0.116027236,0.10678316,0.7249211,-1.3204235,-0.5719475,0.94803303,1.0,0.0,0.0,0.0,0.0,0.0,0.0,-3.3376985,0.15241393,-0.14175147,3.8659573,13.289046,-9.2686405,-4.6873093,-0.03540516,-7.5954437,-1.0470331
22.710703,93.319176,29.340607,6.894842,-0.96992797,1.3361802,-0.08168832,-0.8230084,0.66451985,-0.05722128,0.5928424,0.6022887,0.64181936,-0.56110567,1.6038265,-0.9434752,-1.8694447,-0.944039,2.0895014,1.2807715,-1.0021621,1.6708513,-0.99860704,-1.863795,-0.99326324,2.0373063,1.2241389,-0.949994,-1.5166274,1.1580584,-0.028723778,1.0026386,0.8073499,0.73926735,-0.39639542,2.6551895,-0.5508728,0.7360393,-3.2496495,0.1539324,4.403113,0.42612457,-0.5369377,0.7543561,0.6812015,0.10728582,0.10382768,0.7167106,-1.2984866,-0.48496652,0.9724266,1.0,0.0,0.0,0.0,0.0,0.0,0.0,-3.3051896,0.1508728,-0.18603927,4.344964,10.44147,-8.54893,-1.3097763,1.6213417,-6.236577,-0.83509684
21.300095,88.200455,28.432224,7.493787,-0.6063077,1.389085,0.025748491,-0.8151956,0.68826824,-0.021443553,0.5707785,0.6165762,0.6428245,-0.56381726,1.5893317,-0.92978024,-1.8659394,-0.9361854,2.098964,1.2884213,-1.0063758,1.6559798,-0.986482,-1.8643806,-0.9832649,2.0455651,1.2311465,-0.9539804,-1.4778652,1.2303333,-0.06707111,0.99812555,0.83194244,0.6878779,-0.4005121,2.6227112,-0.54933167,0.7793009,-3.2464006,0.1537785,4.300524,0.41329193,-0.5413132,0.7642695,0.6916022,0.09855806,0.101348855,0.7083085,-1.2825962,-0.40587053,0.99652165,1.0,0.0,0.0,0.0,0.0,0.0,0.0,-3.2727113,0.14933166,-0.22930092,3.6957026,7.1151257,-3.3992143,-0.68712234,2.4083138,-5.1881075,-0.75930953
17.192978,82.571655,26.826727,8.884502,-0.24024141,1.4493506,0.07924869,-0.8138835,0.7034414,-0.0025453237,0.5675909,0.61392164,0.6519621,-0.5631367,1.5745914,-0.9161379,-1.8646351,-0.9265058,2.1069572,1.2963426,-1.0102941,1.6413866,-0.97385824,-1.8650196,-0.9732752,2.0540376,1.2377154,-0.9580011,-1.4536433,1.2727067,-0.06140445,0.9984607,0.85194194,0.6462924,-0.40373805,2.5902786,-0.54779816,0.82153744,-3.2431548,0.15362474,4.1980386,0.40052795,-0.54496384,0.774406,0.70170957,0.08976667,0.099089354,0.69980484,-1.275838,-0.33613318,1.0181528,1.0,0.0,0.0,0.0,0.0,0.0,0.0,-3.2402787,0.14779815,-0.27153742,2.2478342,4.13208,1.0307178,-0.19030571,1.9365549,-4.2373776,-0.6614208
13.8335,76.49114,24.57515,9.120428,-0.051328897,1.3798742,0.123294555,-0.81540793,0.71563965,0.0014155859,0.54760957,0.6254026,0.65231997,-0.55984026,1.5598458,-0.9022943,-1.864878,-0.91851425,2.1165779,1.3029474,-1.0139852,1.6269232,-0.9609636,-1.8654487,-0.9633608,2.062697,1.2439276,-0.96204656,-1.4445283,1.294659,-0.035224583,0.9884571,0.87024426,0.6124517,-0.40591586,2.5578766,-0.54626465,0.8627499,-3.2399123,0.15347116,4.095655,0.38780975,-0.54797363,0.7846933,0.711497,0.080904126,0.096901834,0.6912571,-1.2736372,-0.27338445,1.0308894,1.0,0.0,0.0,0.0,0.0,0.0,0.0,-3.2078767,0.14626464,-0.31274986,0.7370949,2.1026611,3.089889,-1.2248158,1.7675757,-3.4502745,-0.5446434
12.910578,70.762924,22.281456,8.156685,-0.049925387,1.1890038,0.15954137,-0.81020325,0.7232879,-0.0027595707,0.5248304,0.64027435,0.6535516,-0.5533718,1.5459028,-0.8886348,-1.8657247,-0.91087776,2.1267245,1.3092828,-1.0173837,1.6125017,-0.947945,-1.8656223,-0.9536514,2.0715394,1.249848,-0.96610445,-1.441879,1.3041192,-0.009995935,0.9644134,0.88865775,0.5853472,-0.40683252,2.525505,-0.54473114,0.9029392,-3.2366729,0.15331772,3.9933743,0.37511444,-0.55039597,0.79501957,0.7209358,0.07202212,0.0947329,0.6827079,-1.2693315,-0.21518393,1.0317483,1.0,0.0,0.0,0.0,0.0,0.0,0.0,-3.1755052,0.14473113,-0.3529392,0.09338856,0.8719206,2.9736893,-2.6391983,1.7930746,-2.7294636,-0.40332675
13.135506,68.37783,21.160883,7.2335234,-0.1395346,1.0694592,0.18811814,-0.81136465,0.7343449,0.006085968,0.49511874,0.64780396,0.6588974,-0.5525339,1.5313653,-0.8745105,-1.8650137,-0.9041396,2.1363199,1.3157377,-1.0213579,1.5980669,-0.9348501,-1.8655574,-0.9443016,2.0805497,1.2555414,-0.97016805,-1.4445351,1.311131,0.013336546,0.9243604,0.9049405,0.5641854,-0.4072352,2.493164,-0.54319763,0.94210654,-3.2334368,0.15316443,3.891196,0.36250305,-0.552227,0.80530435,0.7299991,0.06315886,0.09259266,0.67419493,-1.2613401,-0.15695822,1.0256078,1.0,0.0,0.0,0.0,0.0,0.0,0.0,-3.1431642,0.14319763,-0.39210653,-0.44119358,0.63910484,2.7760675,-4.24788,1.5893221,-2.0938516,-0.34136176
13.532428,67.87535,20.793549,7.014896,-0.1878705,1.0113633,0.2020832,-0.8122433,0.7414979,0.022970608,0.4750848,0.6525634,0.6601564,-0.54397184,1.5168426,-0.8607003,-1.8632604,-0.8967931,2.145806,1.321557,-1.0245652,1.5835901,-0.92168367,-1.8652484,-0.9353924,2.0896974,1.2610556,-0.9742288,-1.4492066,1.3183446,0.03820502,0.8789914,0.9181217,0.54745007,-0.4065755,2.4608536,-0.5416641,0.98025286,-3.230204,0.15301129,3.7891197,0.34998322,-0.5534744,0.81551564,0.73867536,0.05431957,0.09049879,0.6657462,-1.250746,-0.09832467,1.0176756,1.0,0.0,0.0,0.0,0.0,0.0,0.0,-3.1108537,0.14166412,-0.43025285,-0.6424904,0.66628456,2.9225821,-4.776776,1.2915373,-1.6299009,-0.22917986
16.417995,68.15646,20.850018,5.839687,-0.36896664,0.90380156,0.2300395,-0.80324703,0.75019115,0.030574713,0.44545755,0.65473014,0.66241455,-0.5387773,1.5032655,-0.84666455,-1.862191,-0.8908466,2.1551704,1.3272971,-1.0281066,1.5691134,-0.9084228,-1.8647182,-0.9269819,2.0989518,1.2664305,-0.9782781,-1.4477488,1.3284124,0.059347663,0.8276879,0.92759097,0.53449047,-0.40531456,2.4285736,-0.54013824,1.0173792,-3.2269745,0.15285832,3.6871455,0.3376007,-0.5541115,0.8256359,0.7469417,0.045503225,0.08848624,0.6574022,-1.2323573,-0.03639609,1.0077524,1.0,0.0,0.0,0.0,0.0,0.0,0.0,-3.0785737,0.14013824,-0.46737915,-0.025677681,0.96080303,2.5366523,-5.370569,0.93256235,-1.2152672,-0.16596913
15.48351,65.09086,19.158173,5.7603126,-0.41281128,0.7053745,0.18911573,-0.8051012,0.75485694,0.007876828,0.42172372,0.6576233,0.6681209,-0.5315568,1.4886032,-0.8329371,-1.8639305,-0.88480955,2.164714,1.3332425,-1.0314338,1.5546538,-0.895059,-1.8641498,-0.9190788,2.1082788,1.2717005,-0.9823083,-1.4458776,1.3390412,0.05721257,0.7769598,0.9346477,0.52487934,-0.40316692,2.3963242,-0.53861237,1.0534865,-3.2237482,0.15270549,3.5852733,0.3254242,-0.5541687,0.835609,0.75482804,0.036752105,0.08662498,0.6491378,-1.2106233,0.019802125,0.9913304,1.0,0.0,0.0,0.0,0.0,0.0,0.0,-3.0463243,0.13861236,-0.50348645,0.026035309,1.0317564,0.15418008,-5.3144217,0.71891546,-0.85374117,-0.053429604
17.91372,63.02895,18.52397,3.7863073,-0.583357,0.5319504,0.25637648,-0.8065608,0.7560785,0.02504517,0.35812137,0.6697044,0.6657732,-0.52963734,1.4739977,-0.81945115,-1.8616453,-0.8832667,2.175249,1.3382778,-1.0352721,1.5402056,-0.88160646,-1.8635814,-0.9118519,2.1176934,1.2768904,-0.9863166,-1.4449338,1.3472836,0.057970002,0.70383483,0.9436264,0.5175671,-0.40093285,2.3641052,-0.5370865,1.0885758,-3.220525,0.15255281,3.483503,0.3135376,-0.5536461,0.8453672,0.76230353,0.02812814,0.08493621,0.6410054,-1.1803416,0.07681839,0.9679531,1.0,0.0,0.0,0.0,0.0,0.0,0.0,-3.0141053,0.13708648,-0.5385758,-0.06828308,0.808692,0.4338123,-7.5645328,0.9189129,-0.56563616,-0.03629923
22.8173,64.13468,19.479897,1.2715144,-0.82277256,0.4570819,0.38292345,-0.8045443,0.7613429,0.067693375,0.28426355,0.67712057,0.6631188,-0.52775246,1.4597511,-0.8054722,-1.8568121,-0.88342553,2.1854055,1.3432022,-1.0390918,1.5257708,-0.86807287,-1.8628147,-0.9055681,2.1272035,1.2820193,-0.99030393,-1.4433663,1.3553274,0.0842257,0.6023209,0.9535157,0.5120267,-0.39883617,2.3319244,-0.5355606,1.1226482,-3.2173052,0.15240029,3.3818345,0.30202484,-0.5525055,0.85487926,0.7692762,0.019655405,0.08339531,0.63314533,-1.1388872,0.14075796,0.9426534,1.0,0.0,0.0,0.0,0.0,0.0,0.0,-2.9819245,0.1355606,-0.5726482,-0.009489059,0.80053806,3.0012264,-10.40225,1.0071635,-0.33199787,-0.052022934
28.496372,62.44995,19.23038,-2.7060575,-1.2227759,0.1906887,0.50596434,-0.79950047,0.7665303,0.07565038,0.18277691,0.6799993,0.66032606,-0.52448416,1.4458207,-0.79141986,-1.8552496,-0.8872904,2.1952033,1.3480519,-1.0427524,1.5113741,-0.85445726,-1.8617485,-0.9005985,2.1368012,1.2871042,-0.9942693,-1.438965,1.3637414,0.11517722,0.4610193,0.96225387,0.5083396,-0.3965842,2.2997818,-0.5340347,1.1557047,-3.2140887,0.15224792,3.2802675,0.29105377,-0.5506859,0.8640607,0.7756433,0.011418882,0.0820302,0.625714,-1.0797096,0.20869659,0.9069122,1.0,0.0,0.0,0.0,0.0,0.0,0.0,-2.949782,0.13403472,-0.6057047,0.28197765,0.86085796,3.4431503,-14.383918,0.9076357,-0.04606247,-0.01745224
34.674076,63.840763,20.413202,-6.2293797,-1.5756754,0.06806636,0.6713526,-0.8007033,0.77330726,0.1383767,0.06300973,0.6811586,0.6569618,-0.5163606,1.4313037,-0.77712655,-1.8479108,-0.89429754,2.2049172,1.3528004,-1.0459054,1.4970137,-0.8407463,-1.8601329,-0.8973541,2.1464715,1.2921606,-0.998208,-1.4356503,1.3737653,0.17810592,0.27811193,0.9690255,0.50603956,-0.39367148,2.2676697,-0.5325165,1.1877464,-3.2108753,0.1520957,3.178802,0.28079987,-0.5481186,0.8728578,0.7812833,0.0034763135,0.080841295,0.6189094,-1.0046461,0.2845424,0.86730486,1.0,0.0,0.0,0.0,0.0,0.0,0.0,-2.9176698,0.13251647,-0.6377464,0.1863718,1.0430813,6.612545,-18.521463,0.73515177,0.17879009,0.07004738
40.820023,61.326054,20.139376,-11.066315,-2.0037985,-0.24514717,0.8455273,-0.8014798,0.7736884,0.1848221,-0.096161336,0.6862132,0.64998823,-0.4975107,1.4168657,-0.7633774,-1.8416507,-0.90697026,2.215093,1.3571595,-1.0479591,1.4826723,-0.82695234,-1.8577545,-0.8963394,2.1562104,1.2971979,-1.0021037,-1.4338177,1.3814421,0.2588029,0.04204485,0.97572637,0.50477856,-0.388806,2.235588,-0.53099823,1.2187741,-3.207665,0.15194364,3.077438,0.27142334,-0.5447655,0.8811644,0.7860666,-0.0040540565,0.0798411,0.6129503,-0.9094137,0.36298034,0.81467843,1.0,0.0,0.0,0.0,0.0,0.0,0.0,-2.8855882,0.13099822,-0.66877407,0.071668625,0.83687305,8.3119335,-23.805698,0.76498985,0.39396286,0.31217337
37.81741,62.069687,20.167566,-8.2443,-1.734789,-0.23341435,0.7787073,-0.7990156,0.7814858,0.22464675,-0.14394754,0.6878691,0.654186,-0.4675361,1.4027708,-0.74880373,-1.8352898,-0.9107342,2.2249973,1.3626165,-1.0488573,1.4683558,-0.8130697,-1.854533,-0.89745235,2.1660104,1.3022276,-1.0059298,-1.4312588,1.3908361,0.34377185,-0.16293177,0.98185056,0.50400114,-0.38092604,2.203537,-0.52948,1.248789,-3.204458,0.15179172,2.9761755,0.2629547,-0.5406761,0.8890112,0.7900284,-0.011197706,0.079003125,0.6078554,-0.8214586,0.4334581,0.7705964,1.0,0.0,0.0,0.0,0.0,0.0,0.0,-2.853537,0.12947997,-0.69878894,0.18935204,1.0267973,8.600682,-20.64039,0.787127,0.40721893,0.6643653
30.280956,62.10136,19.75121,-2.1451235,-1.1016432,-0.093347184,0.6112533,-0.7970902,0.7801693,0.27138937,-0.15912293,0.6920532,0.65240926,-0.43661442,1.3886467,-0.73505276,-1.827394,-0.91336465,2.2352157,1.3674686,-1.0495913,1.4540697,-0.7991203,-1.8504493,-0.90009975,2.1758752,1.3072459,-1.0096587,-1.4278638,1.3966422,0.4299593,-0.2990192,0.98853207,0.50248146,-0.37036505,2.1715164,-0.52796173,1.277792,-3.2012541,0.15163995,2.875014,0.25520325,-0.5359688,0.8965367,0.79332167,-0.018097945,0.07823788,0.60348314,-0.75491756,0.49049744,0.742031,1.0,0.0,0.0,0.0,0.0,0.0,0.0,-2.8215165,0.12796172,-0.72779197,0.3026247,0.681901,8.593935,-13.719079,0.9242058,0.24870634,0.96227527
22.76656,61.997387,19.186317,3.781433,-0.5289204,0.0529336,0.43105638,-0.795342,0.7823629,0.30826592,-0.17238678,0.69037586,0.6559621,-0.40797856,1.3745356,-0.720884,-1.8196228,-0.91733843,2.2449129,1.3728421,-1.0504565,1.4398199,-0.7851261,-1.8455551,-0.9036112,2.1857896,1.3122488,-1.0132655,-1.4241542,1.4008145,0.50884944,-0.3688405,0.99341035,0.5006568,-0.35786256,2.1395264,-0.5264435,1.3057841,-3.1980536,0.15148835,2.7739537,0.24794006,-0.53077316,0.9038859,0.79611796,-0.02491413,0.07747456,0.59964406,-0.70942545,0.53625476,0.72764426,1.0,0.0,0.0,0.0,0.0,0.0,0.0,-2.7895265,0.12644348,-0.7557841,0.3427744,0.5284071,7.7812552,-7.0844173,0.80218315,0.14080405,1.1698902
19.51192,60.323467,18.4647,5.873644,-0.31848386,0.049368195,0.363056,-0.79732275,0.78127193,0.35343325,-0.22285382,0.6890165,0.65507627,-0.39527744,1.3600876,-0.7069989,-1.8102118,-0.9258966,2.2546911,1.3777565,-1.0527933,1.4255892,-0.77111185,-1.8398883,-0.9076538,2.1957383,1.3172327,-1.0167483,-1.4227068,1.4020331,0.58541757,-0.41645616,0.99611616,0.49869725,-0.34539154,2.1075668,-0.52493286,1.3327664,-3.1948562,0.1513369,2.6729944,0.24106598,-0.5251503,0.9111159,0.79851246,-0.03171341,0.076683715,0.5962313,-0.671526,0.57621163,0.71621484,1.0,0.0,0.0,0.0,0.0,0.0,0.0,-2.757567,0.124932855,-0.7827664,0.12078285,0.23937225,7.512057,-4.8601446,0.60425997,0.10649562,1.1786222
16.356108,58.807693,17.80849,7.9066277,-0.12657404,0.061314743,0.3058314,-0.8002459,0.77980614,0.39572835,-0.23821554,0.6820137,0.659185,-0.3485088,1.3455646,-0.6931312,-1.8003155,-0.93147534,2.2639396,1.3831512,-1.0515991,1.4113508,-0.7571043,-1.833472,-0.9120188,2.2056794,1.3222014,-1.0200843,-1.4243674,1.4008106,0.65982,-0.44343057,0.9947772,0.497125,-0.32993656,2.0756378,-0.52342224,1.3587399,-3.191662,0.15118559,2.5721362,0.23452759,-0.51917267,0.9182547,0.8005613,-0.03853722,0.07586127,0.59317905,-0.6410736,0.6113564,0.7077169,1.0,0.0,0.0,0.0,0.0,0.0,0.0,-2.725638,0.123422235,-0.80873984,-0.19142628,-0.000500679,7.2733283,-2.7962446,0.21471977,0.12143254,1.4835179
13.768582,57.368767,17.07048,9.640446,0.013466179,0.03835652,0.23318687,-0.7983317,0.7817676,0.41746274,-0.234967,0.6814008,0.6638335,-0.32364777,1.3315177,-0.67892754,-1.7917258,-0.93551546,2.2738194,1.3885847,-1.052449,1.3970991,-0.74310434,-1.8264129,-0.9164982,2.2156014,1.3271567,-1.02326,-1.425514,1.4001513,0.72063714,-0.44981414,0.9922656,0.49607107,-0.31371963,2.0437393,-0.5219116,1.3837055,-3.188471,0.15103443,2.4713788,0.2282486,-0.5128708,0.92532676,0.80232817,-0.045414835,0.07501933,0.5904059,-0.6162496,0.6418256,0.7013444,1.0,0.0,0.0,0.0,0.0,0.0,0.0,-2.6937394,0.121911615,-0.8337055,-0.14162064,0.05955696,5.902171,-0.74052215,0.101184845,0.15198588,1.5650332
10.633888,55.096622,15.906297,11.494694,0.17631096,-0.012282163,0.14367399,-0.7978737,0.78278285,0.4244514,-0.21772912,0.6826678,0.66295254,-0.29069716,1.3173118,-0.66482604,-1.7839677,-0.9382711,2.2838683,1.3934519,-1.0523297,1.3828398,-0.7291044,-1.8189094,-0.92087746,2.2255006,1.3321024,-1.026266,-1.4261882,1.4003853,0.7595857,-0.43426257,0.9903822,0.49486864,-0.29626223,2.0118713,-0.520401,1.4076643,-3.1852832,0.15088342,2.3707223,0.2221756,-0.5063133,0.9323449,0.8038898,-0.052360386,0.07418823,0.5878056,-0.5978056,0.6657665,0.6961337,1.0,0.0,0.0,0.0,0.0,0.0,0.0,-2.6618714,0.120400995,-0.8576643,-0.10254383,0.15127659,3.71567,1.4408469,0.15486479,0.109899044,1.692462
7.4057407,51.67551,14.41931,12.956131,0.32914448,-0.07856866,0.06211899,-0.80381435,0.77833164,0.4343179,-0.20078312,0.6764847,0.6593634,-0.28010857,1.3024584,-0.6512712,-1.7754776,-0.94095576,2.293149,1.3980387,-1.0542768,1.36855,-0.7151207,-1.8111389,-0.92499256,2.2353654,1.3370329,-1.029106,-1.4302601,1.3980753,0.78241616,-0.4042913,0.9863608,0.49321157,-0.28003484,1.9800491,-0.5188904,1.4306173,-3.1820986,0.15073256,2.2701664,0.21621704,-0.49957085,0.93930423,0.805322,-0.059367254,0.07339327,0.5852738,-0.5853573,0.68276066,0.68989503,1.0,0.0,0.0,0.0,0.0,0.0,0.0,-2.6300492,0.118890375,-0.8806173,-0.4575014,-0.106048584,2.1253586,2.8651297,-0.07882118,0.0364244,1.56703
3.127541,50.56056,13.687414,16.234823,0.6173591,-0.006470762,-0.052523803,-0.8070688,0.77979255,0.43708104,-0.14041328,0.67097956,0.66101474,-0.24763896,1.2878431,-0.6371414,-1.7674308,-0.93903387,2.3024633,1.4031343,-1.05387,1.3542048,-0.70115316,-1.8032424,-0.9285517,2.2451806,1.3419462,-1.0317763,-1.4362983,1.3966988,0.7914479,-0.34026635,0.9808581,0.49138188,-0.262996,1.9482574,-0.5173874,1.4525654,-3.1789172,0.15058187,2.1697109,0.21030426,-0.49268723,0.9462518,0.8067136,-0.066490784,0.072638676,0.5826798,-0.5850137,0.69488966,0.69031745,1.0,0.0,0.0,0.0,0.0,0.0,0.0,-2.5982575,0.117387384,-0.9025654,-0.67408085,-0.010704994,0.7483363,6.2533197,-0.2192378,-0.027745962,1.6433895
2.605352,49.898663,13.399479,16.710579,0.6234828,-0.03792324,-0.081920035,-0.80761373,0.782999,0.43622968,-0.11677893,0.66946816,0.6597243,-0.23300937,1.2734435,-0.6228533,-1.7596195,-0.9402296,2.3121274,1.4079187,-1.0550772,1.3398043,-0.6871799,-1.7953289,-0.9314289,2.2549424,1.3468424,-1.0342826,-1.4416674,1.397858,0.7907583,-0.2707151,0.9755928,0.4895014,-0.24681352,1.9164963,-0.5158844,1.4735098,-3.1757388,0.15043132,2.069356,0.20439148,-0.48568535,0.95320845,0.8081057,-0.07375499,0.07194376,0.5799564,-0.58547866,0.7066591,0.691253,1.0,0.0,0.0,0.0,0.0,0.0,0.0,-2.5664964,0.11588439,-0.9235098,-0.6129265,0.23934841,-0.20833015,6.8063316,-0.20788908,-0.045889616,1.5577227
1.4431562,48.40228,12.917328,17.56358,0.7083034,-0.048602223,-0.120381944,-0.81130284,0.77931976,0.43734732,-0.070441425,0.66634524,0.6599343,-0.242547,1.258674,-0.6092479,-1.7515941,-0.93847305,2.3215768,1.4128358,-1.0585372,1.3253466,-0.6732086,-1.7874496,-0.9335394,2.2646508,1.3517195,-1.0366515,-1.4474782,1.3972348,0.7865308,-0.19170786,0.9703656,0.48765972,-0.2340057,1.8847656,-0.5143814,1.4934514,-3.1725638,0.15028092,1.9691011,0.19844055,-0.47858238,0.9601815,0.80952567,-0.081175074,0.0713053,0.57705647,-0.58933336,0.71671706,0.69316775,1.0,0.0,0.0,0.0,0.0,0.0,0.0,-2.5347657,0.1143814,-0.94345134,-0.66411495,0.05609989,-0.54552555,7.747707,-0.21481514,-0.06374121,1.2150705
0.68714905,46.879498,12.371735,18.046986,0.73667705,-0.084861994,-0.15417759,-0.81338996,0.77868646,0.42572632,-0.021823391,0.6572424,0.65795887,-0.24094796,1.2440076,-0.59533995,-1.744877,-0.93572176,2.330375,1.4175154,-1.0607463,1.3108355,-0.6592487,-1.7796695,-0.9348116,2.2742906,1.3565775,-1.0389117,-1.4527059,1.3959583,0.77461076,-0.10621183,0.9628802,0.48569983,-0.22336549,1.8530655,-0.5128784,1.5123911,-3.1693919,0.15013067,1.8689464,0.19245148,-0.47138977,0.967173,0.81099993,-0.08876198,0.07072988,0.5739318,-0.5946828,0.7254962,0.6949585,1.0,0.0,0.0,0.0,0.0,0.0,0.0,-2.5030656,0.11287841,-0.9623911,-0.6104946,-0.014877319,-1.2979865,8.393775,-0.4524231,-0.091058016,0.99391043
7.446307,45.205227,12.13263,11.333382,0.08211559,-0.4475938,0.022700317,-0.8199767,0.7835984,0.42354292,-0.10118053,0.661307,0.65713763,-0.25468776,1.2288378,-0.58088887,-1.7373152,-0.94492966,2.3404212,1.4222913,-1.0643805,1.2962557,-0.64527833,-1.7720077,-0.93580055,2.283877,1.3614241,-1.041088,-1.4598969,1.3976694,0.76314765,-0.09689188,0.9578729,0.48473135,-0.21587808,1.8213959,-0.5113754,1.5303301,-3.166223,0.14998057,1.7688919,0.1865921,-0.4640789,0.9740377,0.8124348,-0.09633675,0.0702997,0.5707248,-0.57335156,0.7381956,0.67745465,1.0,0.0,0.0,0.0,0.0,0.0,0.0,-2.471396,0.11137542,-0.98033005,-0.79164505,0.26905537,-1.1908293,0.8024141,-0.2696395,0.08933544,0.69126785
12.986685,42.64305,11.732776,5.9134393,-0.37937883,-0.78221625,0.18716191,-0.81600654,0.7766213,0.42675838,-0.14065008,0.65818274,0.6508095,-0.21702912,1.214655,-0.5676162,-1.7293319,-0.9498656,2.3496952,1.4265051,-1.0627909,1.2816378,-0.6313213,-1.7644203,-0.9371004,2.2934136,1.3662611,-1.0431708,-1.4624234,1.3953627,0.75737715,-0.14138702,0.9530847,0.48411027,-0.20607744,1.7897568,-0.50988007,1.5472692,-3.1630576,0.14983062,1.6689373,0.1811142,-0.45663834,0.98061454,0.81370974,-0.103698835,0.07007522,0.56763756,-0.5308419,0.750338,0.6449528,1.0,0.0,0.0,0.0,0.0,0.0,0.0,-2.4397569,0.10988006,-0.9972692,-0.29375553,-0.1383543,-0.6008148,-4.559742,-0.29375553,0.19526482,0.9302974
15.231459,41.646553,11.642975,3.7621555,-0.55210865,-0.93822247,0.26955616,-0.81775945,0.77610797,0.42951483,-0.16177621,0.6608437,0.6575297,-0.17053859,1.1998619,-0.5537105,-1.7214688,-0.953278,2.359498,1.4320141,-1.0602247,1.2670065,-0.6173929,-1.7568443,-0.93901825,2.3029237,1.3710982,-1.0451297,-1.4634587,1.392379,0.75743335,-0.2088381,0.9507311,0.4845697,-0.19273949,1.7581482,-0.5083847,1.5632097,-3.1598952,0.14968082,1.5690827,0.17610931,-0.44909096,0.9868272,0.8147531,-0.11074947,0.070066795,0.56480294,-0.479648,0.76155275,0.60726684,1.0,0.0,0.0,0.0,0.0,0.0,0.0,-2.4081483,0.1083847,-1.0132096,-0.12640953,-0.20480156,-0.021874905,-6.839475,-0.063216686,0.32741427,1.2933671
15.98546,42.192287,12.018936,3.6081934,-0.57390803,-0.977156,0.3091611,-0.8156086,0.77844,0.43484336,-0.18046995,0.6619101,0.6601008,-0.09932139,1.1854457,-0.5395489,-1.71336,-0.9570652,2.3691146,1.4371083,-1.0550618,1.2523848,-0.6034788,-1.7492244,-0.9416151,2.312426,1.3759428,-1.046913,-1.4616746,1.3913763,0.76319706,-0.27693936,0.9503094,0.48541182,-0.17355211,1.7265701,-0.50688934,1.5781523,-3.156736,0.14953117,1.469328,0.17164612,-0.44141388,0.9926758,0.81553304,-0.117478,0.07026817,0.56228733,-0.42658964,0.77321774,0.57124144,1.0,0.0,0.0,0.0,0.0,0.0,0.0,-2.3765702,0.10688934,-1.0281522,0.16932487,-0.001001358,0.5260825,-6.8896623,0.14144182,0.36392212,1.8860459
12.459906,42.47932,12.110523,7.496031,-0.22649533,-0.82011425,0.24785824,-0.8153689,0.7774794,0.43749705,-0.14683264,0.6509228,0.66079545,0.039418582,1.1708479,-0.52573085,-1.7054747,-0.95629835,2.3775184,1.4420223,-1.0429711,1.2377859,-0.58957136,-1.741534,-0.94457436,2.321898,1.3807951,-1.0484141,-1.4594439,1.3908777,0.77071613,-0.30253226,0.9466878,0.48583582,-0.14232188,1.6950226,-0.505394,1.5920981,-3.15358,0.14938167,1.369673,0.16758728,-0.43362427,0.99825245,0.8160713,-0.123994924,0.0706484,0.56005496,-0.38776067,0.78396297,0.54697835,1.0,0.0,0.0,0.0,0.0,0.0,0.0,-2.3450227,0.105393976,-1.042098,0.19674301,0.059890747,0.67118406,-2.6536226,-0.13399124,0.27243495,3.0854344
10.674315,38.90941,10.768904,7.9364133,-0.11164582,-0.90773964,0.22661886,-0.81931365,0.7706693,0.42699686,-0.17991337,0.65195346,0.66143674,0.107967,1.1558546,-0.51250446,-1.6988343,-0.9625657,2.3870933,1.4469388,-1.0376174,1.2231871,-0.5756973,-1.7338283,-0.94776726,2.3313355,1.3856493,-1.04957,-1.460088,1.3866311,0.77019083,-0.32517332,0.94363445,0.48611468,-0.10672161,1.6635056,-0.5038986,1.6050482,-3.1504269,0.14923231,1.2701176,0.16391754,-0.4257698,1.0035717,0.81640047,-0.13031048,0.0711992,0.5580681,-0.3520919,0.78841245,0.52081555,1.0,0.0,0.0,0.0,0.0,0.0,0.0,-2.3135056,0.103898615,-1.0550482,-0.09841919,-0.31404495,-0.1279831,-2.3724318,-0.08314848,0.24721622,3.52346
10.018186,37.359383,10.333304,8.359611,-0.042590022,-0.94557536,0.22483161,-0.81632113,0.76693124,0.4311635,-0.1920847,0.64853054,0.6634652,0.1765494,1.141555,-0.4990042,-1.690712,-0.96697575,2.3961885,1.4519958,-1.0319151,1.2085901,-0.5618814,-1.7261283,-0.95114803,2.3407388,1.3905073,-1.0503482,-1.4596522,1.3802924,0.76976633,-0.34276658,0.9400673,0.48640063,-0.0682588,1.632019,-0.5024071,1.6170033,-3.147277,0.14908311,1.1706618,0.16059113,-0.41788864,1.0086358,0.8165305,-0.13642493,0.07190993,0.5563227,-0.31824833,0.79046905,0.49546918,1.0,0.0,0.0,0.0,0.0,0.0,0.0,-2.2820191,0.10240707,-1.0670033,0.010561943,-0.52211285,-0.12135506,-1.8707037,-0.13468266,0.23844838,3.8089097
9.340415,34.752254,9.263647,7.8943224,-0.07335377,-1.062269,0.20215411,-0.8212206,0.7648532,0.41675273,-0.21818359,0.63842726,0.66345245,0.20208603,1.1264681,-0.4853961,-1.684453,-0.9729664,2.4045815,1.4568526,-1.0301396,1.193976,-0.54812944,-1.7185028,-0.9547663,2.350081,1.3953692,-1.0507582,-1.4623213,1.3738031,0.7599504,-0.36853078,0.93324125,0.48663953,-0.03206571,1.600563,-0.50091934,1.6279647,-3.1441305,0.14893405,1.0713054,0.15759277,-0.4100132,1.013419,0.8164873,-0.14229763,0.07281327,0.5547954,-0.2827825,0.7881724,0.46652794,1.0,0.0,0.0,0.0,0.0,0.0,0.0,-2.2505631,0.100919336,-1.0779648,-0.30431747,-0.5391121,-1.0457635,-2.6916564,-0.47876835,0.23128986,3.5864553
10.268428,31.895754,8.178189,5.6722517,-0.22683781,-1.2774038,0.2239365,-0.8229995,0.76070154,0.4025934,-0.27091897,0.6418961,0.66062474,0.21120767,1.1116761,-0.47205928,-1.6782434,-0.9818582,2.4142706,1.4614316,-1.0296375,1.1793257,-0.5344471,-1.7110393,-0.9588394,2.3593736,1.400231,-1.0508384,-1.4659892,1.3667194,0.7415815,-0.42056793,0.9284222,0.4866894,-0.00017233346,1.5691452,-0.4994316,1.6379334,-3.140987,0.14878514,0.9720482,0.15502167,-0.4022007,1.0178517,0.81628644,-0.14781944,0.073946595,0.5534958,-0.23934783,0.78037053,0.42945457,1.0,0.0,0.0,0.0,0.0,0.0,0.0,-2.2191453,0.099431604,-1.0879333,-0.38645267,-0.6019831,-1.8916488,-5.3079963,-0.31266212,0.2263844,3.1673026
7.581606,30.972801,7.806926,8.565359,0.021642625,-1.1839409,0.13823205,-0.8214373,0.75759023,0.3900526,-0.23333947,0.62511283,0.66688335,0.26775706,1.0971819,-0.45868805,-1.672034,-0.9821734,2.4218848,1.4669193,-1.0240626,1.1646506,-0.5208334,-1.703799,-0.96319485,2.3685784,1.4050967,-1.050598,-1.4683071,1.3599895,0.717901,-0.4410291,0.91884005,0.48695967,0.032113604,1.5377655,-0.49794388,1.6469102,-3.1378467,0.14863639,0.8728904,0.15280914,-0.3944702,1.0219734,0.8159765,-0.15303873,0.07531174,0.55234903,-0.20648126,0.77133113,0.40041903,1.0,0.0,0.0,0.0,0.0,0.0,0.0,-2.1877656,0.09794387,-1.0969102,-0.27434826,-0.5601883,-2.4308085,-2.172941,-0.76521635,0.21209121,3.1993084
4.8976364,29.201527,7.194201,11.322616,0.31185174,-1.1081254,0.06161261,-0.81983733,0.7509419,0.3706528,-0.20988135,0.6235235,0.66496426,0.32636976,1.0826669,-0.44573918,-1.6667337,-0.98418295,2.4309309,1.471593,-1.017961,1.1499659,-0.5072998,-1.6968448,-0.9675274,2.3776956,1.4099604,-1.0500258,-1.468598,1.3515712,0.68778396,-0.43117556,0.9102033,0.4867044,0.065507025,1.5064163,-0.49645996,1.6548961,-3.1347094,0.14848778,0.77383167,0.1508255,-0.38684845,1.0258577,0.8156129,-0.15804644,0.07687156,0.55125993,-0.18472502,0.75980645,0.3786183,1.0,0.0,0.0,0.0,0.0,0.0,0.0,-2.1564164,0.096459955,-1.1048961,-0.09598732,-0.7258415,-3.07343,0.83155036,-0.6520629,0.12537837,3.299091
5.5597982,27.03052,6.392251,9.741761,0.21552944,-1.2658001,0.07145333,-0.82037073,0.7468517,0.3460072,-0.25654805,0.62672824,0.6646837,0.3167275,1.0679288,-0.43261462,-1.6622441,-0.9931822,2.4403684,1.4764287,-1.0183531,1.1352831,-0.49385107,-1.6902492,-0.9719057,2.3867517,1.4148203,-1.0491599,-1.4681796,1.3429539,0.65016365,-0.44050324,0.90501314,0.48643884,0.093500845,1.4750977,-0.49497604,1.6618922,-3.1315753,0.14833932,0.674872,0.14912415,-0.37936783,1.0294819,0.8152169,-0.16279858,0.07862667,0.5502144,-0.15742598,0.7441032,0.3512612,1.0,0.0,0.0,0.0,0.0,0.0,0.0,-2.1250978,0.09497604,-1.1118922,-0.0076293945,-0.7501602,-3.8152695,-1.0760009,-0.3371954,0.1309514,2.7655811
7.588191,26.028408,6.0087147,6.6016593,-0.05596137,-1.475336,0.13259722,-0.8282293,0.74658376,0.33130863,-0.3212123,0.627321,0.66134644,0.31067595,1.0524602,-0.41919267,-1.6571183,-1.0040269,2.4494839,1.480955,-1.0180923,1.1205717,-0.4804691,-1.6840217,-0.9766846,2.3957734,1.4196764,-1.0480536,-1.4720681,1.336912,0.61351866,-0.49073535,0.90209997,0.48605356,0.11637558,1.4438095,-0.49349403,1.6678994,-3.1284444,0.148191,0.57601124,0.14778137,-0.37206268,1.0327604,0.81477535,-0.1671613,0.08061291,0.549272,-0.11794292,0.72567886,0.3144451,1.0,0.0,0.0,0.0,0.0,0.0,0.0,-2.0938096,0.09349403,-1.1178994,-0.41143894,-0.49853325,-3.7033796,-5.1353874,-0.15177727,0.13689399,2.2684038
9.566563,25.941332,6.2953854,4.675467,-0.20848939,-1.5897444,0.20389947,-0.820782,0.73979837,0.32837993,-0.35701007,0.6238171,0.6633634,0.33627424,1.0384935,-0.40648925,-1.6511837,-1.0123856,2.4581552,1.4860128,-1.0144262,1.1058584,-0.46715724,-1.6780803,-0.9821205,2.4047723,1.4245325,-1.0467299,-1.470913,1.3296115,0.5873,-0.5614401,0.89937013,0.48605576,0.13776702,1.4125519,-0.49201393,1.6729187,-3.1253166,0.14804284,0.47724938,0.1468811,-0.36494255,1.0356395,0.81424814,-0.17105335,0.08282963,0.5485252,-0.07058808,0.7067085,0.2735575,1.0,0.0,0.0,0.0,0.0,0.0,0.0,-2.062552,0.092013925,-1.1229186,0.13823509,-0.62298775,-2.690506,-7.1529865,-0.14634132,0.1875937,2.129358
9.840515,24.83054,6.12196,4.1434917,-0.19506371,-1.649138,0.23312831,-0.8198885,0.73242486,0.31983352,-0.39195874,0.62863034,0.66050696,0.3655529,1.0238696,-0.39391476,-1.646097,-1.0213164,2.4676354,1.4905832,-1.0101746,1.09117,-0.4539355,-1.6723468,-0.9883213,2.4137635,1.4293848,-1.0451945,-1.4679551,1.3200588,0.5684061,-0.63983846,0.8994923,0.4857874,0.15874645,1.3813248,-0.49053383,1.6769512,-3.122192,0.14789483,0.3785863,0.14647675,-0.3580284,1.038099,0.8136126,-0.17443922,0.08524931,0.548031,-0.022017144,0.68555254,0.2313494,1.0,0.0,0.0,0.0,0.0,0.0,0.0,-2.0313249,0.09053382,-1.1269512,0.3424406,-0.8460283,-1.9800544,-7.9097033,0.13508797,0.15524626,2.0938933
8.63746,23.343588,5.7433157,5.2436666,-0.032188594,-1.6264595,0.21343139,-0.8199685,0.7250761,0.31054682,-0.4144615,0.6343203,0.6581496,0.39210886,1.0091732,-0.38142788,-1.6412921,-1.0297675,2.4771955,1.4951998,-1.0059836,1.076512,-0.44082534,-1.6667717,-0.99523926,2.4227777,1.4342333,-1.0434531,-1.465032,1.3083812,0.5536749,-0.70937824,0.90261316,0.4850782,0.1792859,1.3501282,-0.48905563,1.6799977,-3.1190703,0.14774697,0.28002182,0.14653015,-0.3513279,1.0401567,0.8128749,-0.1773357,0.08782329,0.5477896,0.02120778,0.66246164,0.19189884,1.0,0.0,0.0,0.0,0.0,0.0,0.0,-2.0001283,0.08905563,-1.1299977,0.33340454,-1.0568857,-1.5685081,-7.0317626,0.4430294,0.08904934,2.0483227
7.4760237,24.379246,6.3843603,7.773546,0.13624251,-1.473501,0.1733999,-0.8167133,0.7229269,0.3152297,-0.4170786,0.6225696,0.65800124,0.4081314,0.9948406,-0.36853266,-1.6352487,-1.0369471,2.4850347,1.5000334,-1.00264,1.0618883,-0.4278177,-1.6612651,-1.0026648,2.4317918,1.4390742,-1.0415171,-1.4612787,1.2985743,0.5491458,-0.75394666,0.90160525,0.48416406,0.19837928,1.3189621,-0.48757935,1.6820593,-3.115952,0.14759925,0.18155591,0.14694214,-0.34482193,1.041885,0.8120478,-0.1798413,0.090513825,0.54776156,0.05667236,0.6441381,0.16107479,1.0,0.0,0.0,0.0,0.0,0.0,0.0,-1.9689621,0.08757934,-1.1320593,0.38239956,-0.86369514,-0.5482912,-4.5513153,0.06586313,0.042688847,1.8985063
6.3380833,21.846498,5.170418,7.6611466,0.1630457,-1.5617586,0.12566286,-0.8180083,0.7206472,0.27964512,-0.4649189,0.62655616,0.65809566,0.40456483,0.9800875,-0.35575297,-1.6333007,-1.0491567,2.4944475,1.5048838,-1.0010606,1.0472895,-0.41489017,-1.6559303,-1.0105727,2.440802,1.4439055,-1.0394133,-1.4594064,1.2912127,0.528107,-0.8033458,0.9012961,0.48314482,0.2142169,1.2878265,-0.48610306,1.683137,-3.1128366,0.14745168,0.083188444,0.14772797,-0.33853722,1.0432843,0.81117576,-0.18194368,0.09333676,0.5478856,0.09169349,0.6206827,0.12762715,1.0,0.0,0.0,0.0,0.0,0.0,0.0,-1.9378265,0.08610305,-1.133137,0.19359589,-0.6226301,-2.1801114,-5.0378084,0.11018515,0.014233589,1.5740156
3.8640933,18.631805,3.5455892,8.900066,0.30467108,-1.5915983,0.025372468,-0.8219483,0.7199113,0.238395,-0.47844693,0.62128556,0.65955645,0.40105924,0.9650947,-0.34289902,-1.6320908,-1.0584173,2.5029306,1.5098611,-0.9993074,1.0326811,-0.40201318,-1.6509788,-1.0189059,2.4497933,1.4487273,-1.037176,-1.4615294,1.286923,0.4841771,-0.84368527,0.8986385,0.48206,0.22685353,1.2567215,-0.48463058,1.6832318,-3.1097245,0.14730427,-0.015080675,0.14879608,-0.33252525,1.0443532,0.8103425,-0.18362266,0.09633286,0.54803985,0.120780274,0.5917252,0.09478498,1.0,0.0,0.0,0.0,0.0,0.0,0.0,-1.9067215,0.08463058,-1.1332319,-0.23944378,-0.32088757,-4.4205666,-4.157269,-0.14886856,-0.025480986,1.2432963
1.8116553,16.019444,2.1934433,10.237635,0.45325458,-1.6122332,-0.06972839,-0.81744087,0.72152275,0.18830843,-0.48403218,0.62121755,0.6577948,0.395428,0.95093703,-0.3298609,-1.6321479,-1.0673091,2.5119152,1.5145067,-0.9976332,1.0180651,-0.3891505,-1.6466529,-1.0275424,2.458754,1.4535357,-1.0348338,-1.4619162,1.286411,0.41527715,-0.87087435,0.8958878,0.48064688,0.2364647,1.225647,-0.4831581,1.6823447,-3.1066153,0.147157,-0.11325155,0.15013123,-0.3268299,1.0451084,0.80963314,-0.18488124,0.09953469,0.548093,0.14409569,0.5581927,0.06389367,1.0,0.0,0.0,0.0,0.0,0.0,0.0,-1.875647,0.083158106,-1.1323447,-0.0875473,0.05378723,-6.8853197,-2.8663754,-0.17608404,-0.088220835,0.93028843
0.3171625,13.297822,1.3805647,11.59014,0.6387131,-1.5654699,-0.09671749,-0.8145801,0.70876193,0.1697283,-0.4869506,0.6018421,0.66143113,0.4291499,0.93660706,-0.31827432,-1.6296802,-1.0762374,2.5189383,1.5196788,-0.9919188,1.0034605,-0.3763398,-1.6430023,-1.0363543,2.4676347,1.4583327,-1.0323848,-1.4602932,1.2796499,0.3482693,-0.8851919,0.8859737,0.47955066,0.2474322,1.194603,-0.48168755,1.6804765,-3.1035094,0.14700986,-0.21132426,0.15164948,-0.32148552,1.0455756,0.8090784,-0.18575777,0.10292716,0.5479892,0.16070712,0.52261853,0.03592798,1.0,0.0,0.0,0.0,0.0,0.0,0.0,-1.844603,0.08168754,-1.1304765,0.10192394,-0.5750656,-6.6879807,-1.5985012,-0.88799,-0.075888634,1.0508478
0.25673485,12.288056,1.3329368,11.719099,0.6771229,-1.5425014,-0.074803956,-0.81528276,0.70095354,0.1554753,-0.5090426,0.58616036,0.6655955,0.43523356,0.9219322,-0.30624443,-1.6274548,-1.0872586,2.5262506,1.5248922,-0.9888614,0.9888707,-0.3636297,-1.6399257,-1.0453322,2.476378,1.4631239,-1.0298346,-1.4587721,1.2684864,0.294189,-0.9026482,0.87068164,0.47899848,0.25751942,1.1635895,-0.4802189,1.6776284,-3.1004064,0.14686288,-0.30929893,0.15333557,-0.31649208,1.0457639,0.8086657,-0.18627726,0.10648456,0.54774225,0.17634784,0.48749027,0.00818402,1.0,0.0,0.0,0.0,0.0,0.0,0.0,-1.8135895,0.08021888,-1.1276283,0.09844303,-1.0172844,-5.4018855,-1.9070148,-1.4225721,-0.028586388,0.9599924
0.281667,9.211861,0.04254508,9.785854,0.61779404,-1.7121192,-0.05804442,-0.8076454,0.69403565,0.09759098,-0.5558574,0.5836813,0.6657595,0.43393534,0.90810615,-0.29422614,-1.6301666,-1.1009179,2.5347462,1.5296999,-0.9864411,0.97433287,-0.35105026,-1.6374843,-1.0546572,2.4849725,1.4679114,-1.0271949,-1.45211,1.2547584,0.22717254,-0.94295204,0.8562396,0.47859082,0.26602703,1.1326065,-0.47875023,1.6738013,-3.0973067,0.14671604,-0.40717563,0.15520477,-0.3119049,1.0456159,0.80839664,-0.18635307,0.110211015,0.54737645,0.1963398,0.44463858,-0.027198862,1.0,0.0,0.0,0.0,0.0,0.0,0.0,-1.7826065,0.07875022,-1.1238012,0.6889343,-1.2794733,-6.734851,-4.1648626,-1.3786197,-0.018537045,0.80596805
-2.2140837,5.8358307,-1.5648806,11.327558,0.8195615,-1.6915267,-0.14220189,-0.812811,0.6888955,0.03933367,-0.54799145,0.5655699,0.66413194,0.43937182,0.89305174,-0.2821607,-1.633551,-1.1094564,2.5415294,1.5343245,-0.98325765,0.9598313,-0.33860624,-1.6358325,-1.0643065,2.4933991,1.4726912,-1.0244769,-1.449558,1.2412325,0.14439341,-0.9727936,0.8381796,0.47773695,0.27348095,1.101654,-0.4772854,1.6689962,-3.09421,0.14656936,-0.5049545,0.15721893,-0.3077755,1.0451287,0.808327,-0.18596442,0.11411911,0.54681015,0.20804365,0.39736798,-0.060513332,1.0,0.0,0.0,0.0,0.0,0.0,0.0,-1.751654,0.07728538,-1.1189961,0.24087429,-1.2696743,-8.255991,-3.1449437,-1.7630339,-0.101047754,0.6820142
-4.839842,-0.33503914,-4.742613,10.514046,0.93623173,-1.8808117,-0.23313895,-0.81028914,0.68171483,-0.061804816,-0.58875686,0.55968976,0.6600425,0.42392376,0.87880236,-0.27043474,-1.6420131,-1.1231822,2.5493681,1.5386955,-0.9820845,0.9453564,-0.32629764,-1.6353176,-1.0743544,2.5016541,1.4774576,-1.0217055,-1.4466789,1.2276256,0.020698104,-1.0159385,0.8211842,0.4761769,0.2779993,1.0707321,-0.47582054,1.6632141,-3.0911164,0.14642282,-0.6026357,0.1593399,-0.30422783,1.0442547,0.80855674,-0.18501233,0.11824955,0.5459153,0.21641284,0.33598584,-0.10074073,1.0,0.0,0.0,0.0,0.0,0.0,0.0,-1.7207321,0.075820535,-1.113214,0.33035278,-1.2940407,-12.341617,-4.472935,-1.7325401,-0.20828843,0.37344098
-7.6148634,-6.683263,-7.836927,9.936253,1.040947,-2.016635,-0.30788207,-0.8112058,0.666854,-0.15261383,-0.6260447,0.51383805,0.66354394,0.43033952,0.8642359,-0.25961223,-1.650579,-1.1369588,2.553038,1.543812,-0.97867155,0.9308997,-0.31416023,-1.636256,-1.084923,2.5096307,1.4822108,-1.0188941,-1.4449916,1.2092786,-0.13215466,-1.0709902,0.78986496,0.47468144,0.2818288,1.0398407,-0.4743576,1.6564559,-3.0880258,0.14627643,-0.70021915,0.16149902,-0.30138016,1.0429281,0.8091762,-0.18338454,0.122668974,0.54456973,0.22020198,0.2624464,-0.14741991,1.0,0.0,0.0,0.0,0.0,0.0,0.0,-1.6898407,0.0743576,-1.1064558,0.27554035,-1.7867327,-15.262163,-5.6588173,-3.2345653,-0.2430439,0.2784431
-8.520268,-8.131102,-8.236483,10.785521,1.1316397,-1.9378296,-0.31062004,-0.8105763,0.65174377,-0.19988824,-0.64574546,0.46543464,0.66211975,0.43283442,0.8498421,-0.24898586,-1.6562448,-1.1494976,2.556174,1.5484227,-0.9756106,0.9164563,-0.30224168,-1.6386478,-1.0960295,2.5171876,1.4869486,-1.0160483,-1.4437152,1.1861328,-0.2748032,-1.1243602,0.7439602,0.47297582,0.28499416,1.0089798,-0.47289658,1.6487225,-3.0849385,0.14613019,-0.7977051,0.16368103,-0.2992611,1.0411435,0.81019765,-0.18107672,0.12739708,0.5427347,0.21904126,0.1898516,-0.19263645,1.0,0.0,0.0,0.0,0.0,0.0,0.0,-1.6589798,0.07289657,-1.0987225,0.24688244,-2.2755146,-14.246559,-5.4864883,-4.698026,-0.29188395,0.1920104
-8.914501,-8.3830595,-8.026787,11.868767,1.2069117,-1.8158808,-0.30032557,-0.8090483,0.63564765,-0.2545098,-0.66819644,0.41260967,0.66153204,0.41939506,0.83555144,-0.2386769,-1.6640987,-1.1628492,2.5584486,1.5531018,-0.9741088,0.90202814,-0.29058588,-1.6423404,-1.1076376,2.5241876,1.4916674,-1.0131873,-1.442192,1.1588395,-0.40066516,-1.1735113,0.6848231,0.47119617,0.2861231,0.9781494,-0.47143555,1.640015,-3.081854,0.14598408,-0.89509356,0.16582489,-0.2978363,1.0389255,0.81159437,-0.17813697,0.13242538,0.54041207,0.21354914,0.12114525,-0.23508687,1.0,0.0,0.0,0.0,0.0,0.0,0.0,-1.6281494,0.07143554,-1.0900149,0.26359558,-2.6976347,-12.563258,-5.062127,-6.013274,-0.32183528,-0.028306246
-11.65584,-13.8559265,-10.246824,13.002498,1.4676595,-1.7774554,-0.34456348,-0.8065684,0.6029808,-0.34401116,-0.68702954,0.34192044,0.65640247,0.42769676,0.8213713,-0.23028779,-1.6767415,-1.1763406,2.5583797,1.5573076,-0.9704176,0.8876248,-0.27929962,-1.64733,-1.1196864,2.5304704,1.4963652,-1.0103129,-1.4392778,1.1185532,-0.5316118,-1.2156193,0.6088933,0.46878493,0.2872509,0.94734955,-0.46997833,1.6303343,-3.078773,0.14583813,-0.9923847,0.16784668,-0.29714203,1.0362837,0.81337553,-0.1745853,0.13774729,0.5375555,0.19732916,0.0466332,-0.27713555,1.0,0.0,0.0,0.0,0.0,0.0,0.0,-1.5973495,0.06997833,-1.0803342,0.4328966,-4.0201187,-13.074011,-4.35915,-7.721269,-0.42039752,-0.06697178
-11.18456,-11.783432,-8.753611,15.154558,1.4595006,-1.5218308,-0.3023407,-0.80294955,0.5792227,-0.3638522,-0.68723977,0.22154234,0.66218865,0.4413414,0.80732983,-0.22137734,-1.6837152,-1.1884103,2.5526247,1.562584,-0.9661788,0.8732596,-0.2684592,-1.6533782,-1.132025,2.53575,1.5010458,-1.0074214,-1.4353791,1.0725437,-0.6290118,-1.2403609,0.50086427,0.46722317,0.28932074,0.9165802,-0.46852112,1.6196815,-3.0756948,0.14569232,-1.0895784,0.16968536,-0.29710007,1.0332732,0.81548357,-0.17053415,0.1433981,0.5341737,0.17798023,-0.015240072,-0.3119376,1.0,0.0,0.0,0.0,0.0,0.0,0.0,-1.5665802,0.06852111,-1.0696814,0.45645237,-4.598999,-9.678173,-2.6285172,-10.887694,-0.33729076,0.0022292137
-10.515743,-9.874142,-7.3711367,16.550602,1.2808391,-1.3021121,-0.25752872,-0.8101167,0.5467992,-0.37487707,-0.69715446,0.03632565,0.66277283,0.43097678,0.79224795,-0.21377929,-1.690866,-1.2017405,2.5393825,1.5673231,-0.9643237,0.85888964,-0.25813377,-1.6601093,-1.144541,2.5395494,1.505715,-1.0045184,-1.4376236,1.0191469,-0.6874041,-1.2558197,0.33919376,0.46616694,0.28990924,0.88584137,-0.4670639,1.6080574,-3.0726197,0.14554666,-1.1866751,0.1713562,-0.29758072,1.0299401,0.81783205,-0.1661028,0.14950562,0.5302911,0.16051736,-0.06421056,-0.34314427,1.0,0.0,0.0,0.0,0.0,0.0,0.0,-1.5358413,0.0670639,-1.0580573,-0.2379179,-5.3431273,-5.72747,-1.6942978,-16.217964,-0.27321577,-0.17531514
-12.785957,-16.084732,-9.673221,16.628927,1.1660333,-1.2809011,-0.27206805,-0.8056833,0.48028627,-0.42029703,-0.7072974,-0.2521567,0.6614892,0.41351375,0.7783213,-0.21010514,-1.702139,-1.2152708,2.5143337,1.5718639,-0.963167,0.8445111,-0.24853837,-1.6673629,-1.157181,2.5410752,1.5103747,-1.0016268,-1.4377147,0.93956864,-0.73776686,-1.2671407,0.09012479,0.46539038,0.2878551,0.85513306,-0.4656105,1.5954632,-3.0695477,0.14540114,-1.2836746,0.17284393,-0.29857063,1.0262572,0.8203855,-0.16131783,0.15631539,0.5258417,0.1414333,-0.11540056,-0.37918493,1.0,0.0,0.0,0.0,0.0,0.0,0.0,-1.505133,0.0656105,-1.0454631,0.048661232,-7.9826474,-4.987967,-1.2474537,-24.970936,-0.22997856,-0.5082071
-18.025084,-30.810991,-14.882842,16.979008,1.6898861,-1.3041705,-0.25679737,-0.7979253,0.3608989,-0.43145618,-0.70481914,-0.4745154,0.6665932,0.41658872,0.76471853,-0.21244848,-1.7105086,-1.2276629,2.4936237,1.577034,-0.959968,0.83017737,-0.24016559,-1.674998,-1.1698744,2.5397515,1.5150324,-0.9987582,-1.4312419,0.80295897,-0.7725972,-1.2701348,-0.20652924,0.46532,0.2853578,0.82445526,-0.4641571,1.5818995,-3.0664787,0.14525576,-1.3805772,0.17401123,-0.30020523,1.0221792,0.8231114,-0.15616901,0.16383927,0.5208219,0.10260993,-0.18351822,-0.41959155,1.0,0.0,0.0,0.0,0.0,0.0,0.0,-1.4744552,0.0641571,-1.0318995,0.8594036,-13.729572,-3.5740376,-0.35755634,-29.742783,-0.15739799,-0.61463714
-28.25636,-57.907623,-25.21883,16.755339,3.0748544,-1.502226,-0.25953314,-0.79195684,0.17753547,-0.45587325,-0.71204257,-0.57957333,0.66932833,0.42574516,0.7509817,-0.22241205,-1.7205853,-1.2410787,2.481794,1.5819652,-0.9561837,0.81595427,-0.23383081,-1.6829746,-1.1825926,2.535624,1.5196882,-0.9959086,-1.4175307,0.57650775,-0.80703235,-1.2722229,-0.48191446,0.4650879,0.28350848,0.793808,-0.4627056,1.5673677,-3.063413,0.14511053,-1.4773829,0.17443848,-0.30282974,1.0176426,0.82602894,-0.15056111,0.17165394,0.515308,0.018522516,-0.2931016,-0.46712306,1.0,0.0,0.0,0.0,0.0,0.0,0.0,-1.443808,0.062705606,-1.0173676,1.9034147,-22.792923,-3.7976742,-0.15850067,-27.657497,-0.23217797,-0.5957842
-26.213043,-52.6761,-22.307323,18.218102,3.3562922,-1.2481067,-0.12526591,-0.79770726,0.113550395,-0.413364,-0.7118372,-0.60625356,0.6746423,0.4249036,0.7361835,-0.22247577,-1.724311,-1.2537763,2.4749987,1.5871525,-0.95341825,0.8018275,-0.22973979,-1.690995,-1.1953146,2.529261,1.5243441,-0.9930705,-1.4095151,0.35278457,-0.80140156,-1.271776,-0.68793786,0.46505868,0.28284428,0.7631912,-0.46125603,1.5518684,-3.06035,0.14496545,-1.5740918,0.17399597,-0.30646896,1.0126941,0.8290581,-0.14452714,0.17935096,0.50951725,-0.072057515,-0.3898455,-0.505935,1.0,0.0,0.0,0.0,0.0,0.0,0.0,-1.4131912,0.06125602,-1.0018685,1.2797117,-22.527802,0.22491217,0.14870167,-20.699478,-0.2497673,-0.38629174
-33.49964,-75.55336,-29.756794,17.06053,4.852122,-1.3350749,0.032256514,-0.79692864,-0.1554346,-0.33580506,-0.7368361,-0.5891578,0.6721963,0.4174546,0.72213465,-0.24528325,-1.7245755,-1.2689983,2.4703453,1.5915637,-0.951325,0.7877713,-0.22861493,-1.6985214,-1.2081339,2.5214791,1.5289942,-0.9902381,-1.40176,0.031639107,-0.7386655,-1.2844573,-0.80838543,0.4636933,0.28259137,0.732605,-0.45980644,1.5354029,-3.0572903,0.14482053,-1.670704,0.17230225,-0.31132507,1.0073217,0.8321426,-0.1380469,0.18614478,0.5038172,-0.20803796,-0.51896715,-0.54929215,1.0,0.0,0.0,0.0,0.0,0.0,0.0,-1.382605,0.059806436,-0.9854029,1.5652895,-32.334293,5.6055665,-1.0014057,-12.119532,-0.49729347,-0.25880337
-32.561726,-81.210754,-28.73873,16.563005,5.5832844,-1.0753697,0.36121035,-0.7794973,-0.39164948,-0.16179849,-0.7451369,-0.56932044,0.67535263,0.46023014,0.7098216,-0.2677799,-1.7147012,-1.2826476,2.4645472,1.5965295,-0.94421506,0.77385527,-0.2312206,-1.7046077,-1.2211115,2.5130258,1.5336291,-0.98736465,-1.385152,-0.3587572,-0.56829923,-1.3008511,-0.8574515,0.4619511,0.28878048,0.70204926,-0.45836067,1.5179719,-3.0542336,0.14467573,-1.7672197,0.16910553,-0.3174553,1.0015438,0.8351234,-0.13122706,0.19122483,0.49877995,-0.3622931,-0.6441804,-0.5888665,1.0,0.0,0.0,0.0,0.0,0.0,0.0,-1.3520492,0.058360666,-0.96797186,2.5822878,-39.27525,16.106297,-1.2390137,-4.8924804,-0.606817,0.58428645
-26.321728,-73.17817,-23.065691,14.363464,5.3691397,-0.8584304,0.6536506,-0.73814636,-0.57809657,-0.040157378,-0.78207445,-0.53776765,0.6440544,0.49522784,0.70004064,-0.28903025,-1.7086234,-1.299319,2.459249,1.5980345,-0.9378419,0.7602816,-0.23782456,-1.7085559,-1.2343981,2.504477,1.53822,-0.984393,-1.3450944,-0.7616646,-0.3406019,-1.33636,-0.8536945,0.45671722,0.30044731,0.67152405,-0.4569149,1.4995764,-3.0511801,0.14453109,-1.8636388,0.16446686,-0.32471848,0.99535936,0.83782,-0.12418015,0.19412231,0.49492773,-0.5042302,-0.75013214,-0.6300772,1.0,0.0,0.0,0.0,0.0,0.0,0.0,-1.321524,0.056914896,-0.94957644,4.9335957,-40.507805,21.704185,-3.0947208,0.44403076,-1.0023832,1.3237953
-5.674986,-31.95664,-2.5032957,14.248084,3.6899168,-0.14665198,1.0501018,-0.66312087,-0.6634347,0.17908229,-0.79032475,-0.5071362,0.60696536,0.4924151,0.69396955,-0.30416805,-1.6906477,-1.3134305,2.4537635,1.5989165,-0.9351515,0.7474051,-0.24787223,-1.7095726,-1.2480433,2.496203,1.5427462,-0.9813012,-1.2666326,-1.0861555,-0.025147693,-1.3728708,-0.81766826,0.45049605,0.31345922,0.64102936,-0.45546913,1.4802176,-3.0481296,0.14438659,-1.9599615,0.15891266,-0.33250046,0.98887986,0.8399124,-0.117224745,0.19484346,0.4927895,-0.5777929,-0.7818387,-0.6561844,1.0,0.0,0.0,0.0,0.0,0.0,0.0,-1.2910293,0.055469126,-0.93021756,8.415127,-32.54975,30.599192,-3.334713,3.802371,-0.85219145,1.683867
6.664618,-2.8157794,9.448326,13.9879875,2.3150718,0.07391894,1.0648681,-0.5599237,-0.73524064,0.19399157,-0.7982921,-0.47401536,0.5631215,0.47034186,0.69141275,-0.3213963,-1.6901734,-1.3278725,2.4488015,1.5990584,-0.934267,0.7356921,-0.26044825,-1.7079132,-1.2620165,2.4884095,1.5471922,-0.9781045,-1.138722,-1.3148239,0.22722064,-1.4048237,-0.76565546,0.4425266,0.323134,0.6105652,-0.45402718,1.4598962,-3.045082,0.14424223,-2.0561879,0.15301514,-0.3403244,0.9821974,0.84126425,-0.11055638,0.19373359,0.492462,-0.59929174,-0.7742077,-0.674679,1.0,0.0,0.0,0.0,0.0,0.0,0.0,-1.2605652,0.05402717,-0.9098962,13.053298,-22.893642,24.53948,-3.0075312,5.4178834,-0.82501173,1.3856888
7.065419,9.817753,10.395146,15.490411,1.7070246,-0.06138754,0.66331166,-0.4854984,-0.7680183,0.06939219,-0.7868728,-0.42749333,0.5694957,0.4327453,0.68714225,-0.33725008,-1.700974,-1.3407038,2.44566,1.6041418,-0.93482995,0.72541434,-0.27455977,-1.7050693,-1.2761614,2.4812112,1.5515753,-0.97485816,-0.99039406,-1.4432999,0.30209213,-1.4172227,-0.70395684,0.4370637,0.32624814,0.58013153,-0.45258522,1.4386133,-3.0420377,0.14409801,-2.152318,0.14700317,-0.34804916,0.97534937,0.8420704,-0.10413815,0.19132827,0.49342284,-0.6046301,-0.76278776,-0.6906503,1.0,0.0,0.0,0.0,0.0,0.0,0.0,-1.2301315,0.052585214,-0.8886133,14.926016,-12.861514,7.0922556,-1.0661125,6.271982,-0.47750473,0.6297052
5.693956,14.585105,7.826033,14.169973,1.1291171,-0.541968,0.29244763,-0.33309978,-0.7836328,-0.12825903,-0.7927311,-0.42440256,0.5596005,0.42691642,0.69210434,-0.35292304,-1.7178952,-1.3554345,2.438771,1.6075354,-0.9321665,0.71701056,-0.28936604,-1.703078,-1.2903712,2.4745317,1.5559031,-0.9716033,-0.791391,-1.4931749,0.16531402,-1.4218465,-0.6558966,0.4314043,0.3257558,0.5497284,-0.45114517,1.4163698,-3.0389962,0.14395395,-2.2483518,0.14102173,-0.35578346,0.9682603,0.84260875,-0.09772136,0.18820798,0.4950138,-0.5967727,-0.76696455,-0.71755,1.0,0.0,0.0,0.0,0.0,0.0,0.0,-1.1997284,0.051145166,-0.8663698,19.609726,-5.015731,-13.517007,-0.29337406,4.772377,-0.52928925,0.121188164
6.9794493,18.512583,6.7481995,11.428342,0.41720033,-1.0143442,0.109673604,-0.147796,-0.7891579,-0.31917694,-0.7927439,-0.48137164,0.55940807,0.45205373,0.70223093,-0.36828184,-1.7349957,-1.3696456,2.4263945,1.6118438,-0.9263979,0.7110682,-0.30429438,-1.703635,-1.3045866,2.4680314,1.5601755,-0.9683465,-0.53083694,-1.4928867,-0.12714173,-1.4208912,-0.64812636,0.42584744,0.3258039,0.5193558,-0.44970703,1.3931667,-3.0359578,0.14381002,-2.3442898,0.1352768,-0.36365318,0.9607991,0.84304446,-0.09102427,0.18490966,0.49678877,-0.5689548,-0.78416735,-0.75862825,1.0,0.0,0.0,0.0,0.0,0.0,0.0,-1.1693558,0.049707025,-0.84316665,25.363827,-0.012302399,-28.575594,0.22256374,0.66245794,-0.5948067,0.05105734
12.988418,25.314945,10.056918,8.430824,-0.27776703,-1.2441336,0.18210354,0.042457066,-0.79798794,-0.4352314,-0.7924512,-0.5047832,0.56477475,0.44213852,0.7153139,-0.38409317,-1.7471582,-1.3838317,2.4175532,1.616653,-0.92413265,0.70811754,-0.3190787,-1.707423,-1.3187773,2.4614358,1.5644003,-0.9650992,-0.21966565,-1.4737308,-0.45969486,-1.4183627,-0.66404754,0.42113075,0.32437247,0.48901367,-0.4482689,1.3690048,-3.0329225,0.14366624,-2.4401317,0.12999725,-0.3716812,0.95287555,0.84335274,-0.08391624,0.18171959,0.4986905,-0.5149651,-0.80067486,-0.8075414,1.0,0.0,0.0,0.0,0.0,0.0,0.0,-1.1390136,0.048268884,-0.81900483,30.15746,1.8817186,-32.32834,0.29230118,-1.6863108,-0.55820346,-0.13154149
9.15354,24.048346,8.409462,10.807735,-0.11664328,-1.0452877,0.059102263,0.03246439,-0.79696566,-0.48367757,-0.7823805,-0.5522164,0.5654767,0.43338022,0.711364,-0.39877528,-1.7557907,-1.3970153,2.4062142,1.620948,-0.9217612,0.7076073,-0.33363608,-1.7141159,-1.3328917,2.4544969,1.568585,-0.96187484,0.0033378801,-1.4499214,-0.7372231,-1.4088943,-0.7042585,0.41718352,0.32175127,0.4587021,-0.44683456,1.3438854,-3.02989,0.1435226,-2.5358777,0.12515259,-0.37984085,0.94449615,0.84356785,-0.07639048,0.17880265,0.500587,-0.47240764,-0.81341016,-0.85297054,1.0,0.0,0.0,0.0,0.0,0.0,0.0,-1.1087021,0.04683456,-0.7938854,21.765617,2.3216486,-27.217125,1.0313511,-4.145336,-0.4890561,-0.2758324
-0.9334619,16.868683,3.3503478,15.360634,0.7212779,-0.6456226,-0.14481753,-0.04958825,-0.80175406,-0.5040884,-0.7866307,-0.52837723,0.55302334,0.41864556,0.7026485,-0.41381148,-1.7645247,-1.4115548,2.4016593,1.6238874,-0.92001027,0.7081891,-0.34801796,-1.7228591,-1.3469336,2.4472413,1.5727259,-0.95868766,0.07685814,-1.4346315,-0.9201443,-1.4017113,-0.7330377,0.41266707,0.31763926,0.42842102,-0.44540024,1.3178092,-3.026861,0.1433791,-2.6315281,0.12044525,-0.38812065,0.9357216,0.8438278,-0.068481036,0.17611843,0.50224227,-0.46798372,-0.82531685,-0.89129,1.0,0.0,0.0,0.0,0.0,0.0,0.0,-1.078421,0.045400232,-0.7678092,7.4696245,1.4214516,-18.331182,0.9271383,-3.0809164,-0.54561496,-0.4382789
-10.144304,14.012867,0.9024482,21.166063,1.5400947,0.035442084,-0.28899544,-0.17639166,-0.8000271,-0.4438912,-0.78671205,-0.5128399,0.5669658,0.41378292,0.6905499,-0.42802066,-1.7672483,-1.4256048,2.3959572,1.6294224,-0.91730934,0.7083016,-0.3622997,-1.732415,-1.3609164,2.439814,1.57684,-0.95554245,-0.0081451805,-1.4265496,-0.96932715,-1.3961283,-0.74665296,0.41082108,0.31345913,0.39817047,-0.44396782,1.2907772,-3.0238347,0.14323576,-2.727083,0.115493774,-0.39640617,0.9266803,0.8442488,-0.06033373,0.17353216,0.5034783,-0.50042963,-0.82315284,-0.9146475,1.0,0.0,0.0,0.0,0.0,0.0,0.0,-1.0481704,0.043967813,-0.7407772,-7.7676067,0.66678524,-5.514717,0.8794546,-1.6321182,-0.207901,-0.4366517
-10.7154255,16.999153,3.069394,22.65864,1.6915798,0.4235278,-0.21600199,-0.19275638,-0.8030964,-0.4257106,-0.79488117,-0.5047366,0.5543333,0.41793564,0.68902594,-0.44260937,-1.774986,-1.4404045,2.3893404,1.6322734,-0.91374886,0.7072068,-0.37656143,-1.7418468,-1.374901,2.432345,1.5809332,-0.9524287,-0.14038114,-1.4264885,-0.9369229,-1.3980714,-0.74801844,0.4088199,0.3106749,0.36795044,-0.4425373,1.2627903,-3.0208113,0.14309256,-2.8225422,0.110183716,-0.40456963,0.91746795,0.8448093,-0.05209374,0.1708968,0.50435877,-0.5389827,-0.80699235,-0.9296599,1.0,0.0,0.0,0.0,0.0,0.0,0.0,-1.0179504,0.0425373,-0.7127903,-12.369431,-0.13103485,2.4890423,0.13854504,-0.39379597,-0.17489791,-0.2547443
-7.232151,22.04504,6.5768538,22.06467,1.4190168,0.5615245,-0.10064567,-0.18103746,-0.8014281,-0.44247523,-0.7900264,-0.5407737,0.5636548,0.42879477,0.68910307,-0.45670426,-1.7860943,-1.4539037,2.3782675,1.6372987,-0.90954924,0.7049609,-0.39083984,-1.7508152,-1.388901,2.4247918,1.5850168,-0.94932926,-0.2502073,-1.4286773,-0.8857617,-1.3994347,-0.7585863,0.40843487,0.30987132,0.33776093,-0.4411068,1.2338496,-3.0177913,0.14294949,-2.9179058,0.10456848,-0.41250038,0.908128,0.845416,-0.043859094,0.1681822,0.5050374,-0.56606275,-0.7810211,-0.9412925,1.0,0.0,0.0,0.0,0.0,0.0,0.0,-0.9877609,0.04110679,-0.68384963,-10.262341,-0.33462048,4.4440746,0.15795231,-1.2736082,0.017124414,-0.028926134
-9.615564,18.984615,4.260456,21.53363,1.5151727,0.46393633,-0.15956011,-0.22315001,-0.80696136,-0.50243306,-0.789014,-0.5634154,0.55085343,0.4213136,0.68264586,-0.47153598,-1.8010584,-1.4678024,2.3684502,1.6401021,-0.9071979,0.70173365,-0.40517166,-1.7595813,-1.4029067,2.4170709,1.5890871,-0.94624126,-0.34473252,-1.4351336,-0.8756508,-1.3998129,-0.7771713,0.4066235,0.3086543,0.30760193,-0.4396782,1.203956,-3.014774,0.14280657,-3.013174,0.0986557,-0.4202404,0.89862806,0.8460838,-0.03558581,0.1654119,0.50548464,-0.5988916,-0.76338774,-0.9585416,1.0,0.0,0.0,0.0,0.0,0.0,0.0,-0.9576019,0.039678186,-0.653956,-8.795905,-0.7721901,0.4152298,0.28500557,-2.0888925,-0.16975403,-0.082319975
-18.293356,10.23011,-2.771939,22.206034,2.1196237,0.32235435,-0.39700574,-0.31529665,-0.8105598,-0.58222705,-0.79182136,-0.52816236,0.5123819,0.34110427,0.670204,-0.48622763,-1.817804,-1.4820888,2.3642547,1.6403253,-0.91213083,0.69743544,-0.4195831,-1.7687423,-1.41692,2.409285,1.5931078,-0.9432248,-0.4557558,-1.4437294,-0.9316506,-1.400399,-0.7800481,0.40014732,0.2993356,0.27747345,-0.4382515,1.1731104,-3.0117598,0.14266379,-3.1083474,0.09220123,-0.427948,0.8888818,0.8469876,-0.027103504,0.16253643,0.50542986,-0.6592947,-0.7644757,-0.9853571,1.0,0.0,0.0,0.0,0.0,0.0,0.0,-0.9274734,0.03825149,-0.62311035,-10.365164,-1.0335207,-6.1979175,0.36551952,-0.59269667,-0.73186755,-0.9227574
-24.446184,5.009741,-7.126878,22.44278,2.6183903,0.31180853,-0.5119326,-0.40312472,-0.8187595,-0.61509854,-0.8048735,-0.4635361,0.4618317,0.33275855,0.65712297,-0.50145906,-1.8302522,-1.4974073,2.3629315,1.639291,-0.90994895,0.6918765,-0.4341071,-1.778672,-1.4309943,2.4016976,1.5970217,-0.94030654,-0.5865235,-1.4559834,-1.0155835,-1.408102,-0.7529149,0.3879775,0.28940955,0.24737549,-0.4368248,1.1413138,-3.0087488,0.14252116,-3.2034254,0.084991455,-0.43574524,0.8788141,0.8482712,-0.018258885,0.15940458,0.504671,-0.7417172,-0.77518183,-1.0193181,1.0,0.0,0.0,0.0,0.0,0.0,0.0,-0.89737546,0.036824793,-0.5913138,-12.259495,-1.4392376,-9.023285,-0.26216507,2.3540497,-1.3850927,-0.9821415
-27.050987,5.6733866,-7.5266747,23.205267,2.7671943,0.52299696,-0.543032,-0.48807126,-0.8234164,-0.6251188,-0.8018229,-0.46263456,0.45334437,0.33119982,0.6430693,-0.51644874,-1.8411839,-1.5111766,2.3554342,1.6423562,-0.90718657,0.6848956,-0.44875553,-1.7893856,-1.4451277,2.3943963,1.6008116,-0.9374808,-0.7324717,-1.4685855,-1.0921971,-1.4132015,-0.7238594,0.37540573,0.2804505,0.21730804,-0.43540192,1.1085671,-3.0057406,0.14237867,-3.2984085,0.07687378,-0.44361305,0.86841315,0.849973,-0.009033753,0.15594086,0.50313675,-0.83300453,-0.7803369,-1.0525221,1.0,0.0,0.0,0.0,0.0,0.0,0.0,-0.867308,0.03540191,-0.5585671,-13.734961,-1.4960527,-8.316016,0.041127205,2.5212765,-1.4519513,-0.8802712
-29.793726,6.9924316,-7.9067354,24.1781,2.8569267,0.74126524,-0.63027513,-0.57704765,-0.8239914,-0.6706709,-0.7942065,-0.47064924,0.43838575,0.21478634,0.6271908,-0.5311547,-1.8564527,-1.5245484,2.3473313,1.6446502,-0.91600215,0.6763707,-0.4635041,-1.8008773,-1.4592574,2.3873162,1.6044756,-0.93482006,-0.8896062,-1.4778385,-1.1704211,-1.4109898,-0.70382106,0.36260477,0.26122794,0.18727112,-0.43397903,1.0748713,-3.0027354,0.14223632,-3.3932965,0.06782532,-0.4514904,0.8576933,0.85212964,0.00054477475,0.15216115,0.5007213,-0.9317708,-0.77889854,-1.0842433,1.0,0.0,0.0,0.0,0.0,0.0,0.0,-0.8372711,0.03397903,-0.5248713,-14.823985,-1.1837006,-8.482385,0.8136034,1.5944481,-1.4996707,-1.9138217
-30.205484,11.591102,-5.7155824,25.228657,2.9758258,1.0832765,-0.63966614,-0.67367816,-0.82372415,-0.6696246,-0.7899452,-0.38684374,0.43894783,0.11109721,0.6090029,-0.5458765,-1.8678398,-1.5382519,2.3486319,1.6483704,-0.92371035,0.666194,-0.47831228,-1.8129394,-1.4733279,2.380629,1.6080252,-0.9324187,-1.0573889,-1.482678,-1.2205076,-1.4039901,-0.65823543,0.35167125,0.2333402,0.15726471,-0.43255806,1.0402273,-2.9997334,0.14209412,-3.4880896,0.057724,-0.45927048,0.8467187,0.85475016,0.010370209,0.14796758,0.4973933,-1.0344853,-0.764777,-1.1078343,1.0,0.0,0.0,0.0,0.0,0.0,0.0,-0.8072647,0.032558054,-0.49022728,-15.891064,-0.7528782,-5.66504,1.2978792,4.153037,-1.307267,-2.7481735
-24.32073,20.555468,0.417444,24.551765,2.6235876,1.3734164,-0.55183154,-0.71939224,-0.82269,-0.6529808,-0.7833545,-0.33732036,0.45298064,-0.11216498,0.5942548,-0.56058127,-1.8782375,-1.5516633,2.3468971,1.6533233,-0.9436352,0.65452296,-0.4931362,-1.825217,-1.4873049,2.3745065,1.6114928,-0.9304427,-1.2011724,-1.4830613,-1.2320114,-1.3938141,-0.59834844,0.3445429,0.1859497,0.12728882,-0.431139,1.004636,-2.9967344,0.14195205,-3.582788,0.04675293,-0.46679115,0.8355807,0.85776573,0.020258965,0.14326909,0.49325597,-1.1198536,-0.7329872,-1.1215549,1.0,0.0,0.0,0.0,0.0,0.0,0.0,-0.7772888,0.031138986,-0.45463604,-13.638139,-0.27635098,-1.7132759,1.5345335,5.6529045,-0.8643389,-4.656103
-18.152409,28.68341,6.175437,23.811195,2.4690368,1.5800942,-0.44816005,-0.75694066,-0.8164511,-0.6468866,-0.77279013,-0.17672765,0.49748218,-0.25203565,0.5788289,-0.5747813,-1.8899057,-1.5645839,2.3568337,1.6612409,-0.9556463,0.6416636,-0.50791675,-1.837424,-1.5011504,2.3693833,1.6149374,-0.9290141,-1.3122989,-1.477085,-1.2185186,-1.3800802,-0.48437852,0.344017,0.1289045,0.097343445,-0.42971992,0.9680986,-2.9937382,0.14181013,-3.6773918,0.03503418,-0.4739132,0.8243865,0.8610995,0.030000607,0.1378724,0.4884657,-1.1911466,-0.6898445,-1.1244798,1.0,0.0,0.0,0.0,0.0,0.0,0.0,-0.7473434,0.029719919,-0.41809857,-10.541201,0.39720535,0.9087801,1.792717,11.147678,-0.14995933,-5.5595636
-9.978835,38.138058,12.98924,22.693363,2.060233,1.7151033,-0.3078037,-0.77253854,-0.8036772,-0.6241449,-0.7610569,-0.06529034,0.53193235,-0.35456178,0.56440973,-0.5882845,-1.8998386,-1.5772561,2.3628542,1.6681306,-0.96447027,0.6280022,-0.5225709,-1.8493259,-1.5148337,2.3656182,1.6184145,-0.92818725,-1.3827715,-1.4620575,-1.1818949,-1.3635455,-0.34068725,0.34890363,0.0679634,0.06742859,-0.42830276,0.9306078,-2.990745,0.14166835,-3.7729661,0.022766113,-0.48052788,0.8132381,0.86465126,0.039405096,0.13165262,0.4832112,-1.2387596,-0.6358224,-1.1171695,1.0,0.0,0.0,0.0,0.0,0.0,0.0,-0.71742857,0.028302759,-0.38060778,-6.6658974,1.3540268,3.359294,1.9465446,14.218479,0.47303438,-5.9158506
-5.1671224,41.28299,15.7082615,20.747982,1.596791,1.6550362,-0.21035436,-0.78163683,-0.8032764,-0.6330914,-0.7519023,-0.052422006,0.5535748,-0.36995164,0.54983854,-0.60289854,-1.9126351,-1.5900239,2.3603761,1.673772,-0.9651824,0.61390024,-0.537082,-1.8609188,-1.5283473,2.3631272,1.6219603,-0.9279231,-1.4185855,-1.4479508,-1.1524483,-1.3465054,-0.21926384,0.35661677,0.013078242,0.03754425,-0.4268875,0.89216197,-2.987755,0.14152671,-3.8684452,0.010169983,-0.48659897,0.8021497,0.8683192,0.048411675,0.12467873,0.47763288,-1.2681105,-0.5801424,-1.1111883,1.0,0.0,0.0,0.0,0.0,0.0,0.0,-0.6875442,0.026887506,-0.34216195,-3.3243656,1.2964249,2.7303934,1.9358873,12.052568,0.7903993,-5.3221874
-3.3763943,41.4008,15.820785,19.213064,0.80751014,1.5512165,-0.20293996,-0.7886639,-0.80490667,-0.6590675,-0.7257563,-0.27784488,0.5794822,-0.42083937,0.5350338,-0.61757267,-1.9268255,-1.6009228,2.3353426,1.6799085,-0.970007,0.5996142,-0.551493,-1.8724163,-1.541611,2.360888,1.6255995,-0.92818725,-1.4313568,-1.439124,-1.1494508,-1.3189166,-0.22584972,0.36674306,-0.039373077,0.0076904297,-0.42547226,0.8527621,-2.984768,0.14138521,-3.9638288,-0.0025787354,-0.49209976,0.7910607,0.8720105,0.057091508,0.11745998,0.4717428,-1.2772079,-0.5229828,-1.1129458,1.0,0.0,0.0,0.0,0.0,0.0,0.0,-0.6576904,0.025472254,-0.3027621,-1.0835409,0.784564,0.13253689,2.9788017,-0.72625875,1.0601223,-5.172601
-3.290616,39.491447,14.353573,17.187887,0.29883683,1.3736007,-0.1927701,-0.79184294,-0.80385286,-0.6947605,-0.7214567,-0.39832118,0.5774526,-0.43806738,0.5204299,-0.63187826,-1.9418923,-1.6137567,2.321056,1.6833447,-0.971994,0.58529955,-0.56584865,-1.8841331,-1.554621,2.3579507,1.6293322,-0.928933,-1.4309183,-1.4346479,-1.1794039,-1.2943767,-0.31655106,0.37543437,-0.086247385,-0.022132874,-0.42406082,0.8124091,-2.9817836,0.14124386,-4.0591164,-0.015335083,-0.49705696,0.77986306,0.8756585,0.06561088,0.11045507,0.46552876,-1.2754605,-0.46914122,-1.1265184,0.0,1.0,0.0,0.0,0.0,0.0,0.0,-0.6278671,0.024060816,-0.2624091,0.2152443,0.34911633,-3.1453848,2.6946068,-9.162373,0.8903444,-4.6757417
-3.414407,38.214954,13.6575165,16.138796,0.15843976,1.3050138,-0.15926577,-0.7939732,-0.8094793,-0.7050981,-0.708002,-0.44117343,0.5746526,-0.44925094,0.50590223,-0.6467966,-1.9546429,-1.6254212,2.3138332,1.6867975,-0.9738581,0.57145596,-0.5801661,-1.8976341,-1.5680438,2.354294,1.6387142,-0.92956483,-1.3742261,-1.4320675,-1.3857073,-1.3458985,-0.3935325,1.0264386,-0.06932923,-0.03769684,-0.42465973,0.8133794,-1.3616915,-0.06607291,0.8124594,-0.028434753,-0.50086594,0.76808316,0.8791399,0.07201279,0.10403023,0.45946133,-1.3132907,-0.34491995,-1.192202,0.0,1.0,0.0,0.0,0.0,0.0,0.0,-0.61230314,0.024659723,-0.2633794,1.0650396,-0.40791035,-4.793644,3.1894922,-11.215001,0.08506775,-3.034959
80.1223,176.0,110.0,110.0,-3.4298255,10.341644,-0.70822,-0.80880755,0.3982207,0.64377123,0.75755143,-0.3846275,0.61274,-0.44109842,0.4905752,-0.54034406,-1.8332571,-1.4922887,2.3158314,1.6999882,-0.97367465,0.5636444,-0.59349656,-1.9114739,-1.5698081,2.3424304,1.6575321,-0.92992914,-0.59050876,-1.2991855,-1.3734357,0.20866604,-1.4468766,2.177032,-0.030098183,-0.05130768,-0.42531967,0.82075346,-1.36033,-0.066006854,0.71239597,-0.039886475,-0.50234985,0.7602799,0.8822439,0.069826685,0.10418844,0.4537783,-1.0860419,-0.06605209,-0.64515483,1.0,0.0,0.0,0.0,0.0,0.0,0.0,-0.5986923,0.025319666,-0.27075344,76.26593,13.564897,4.222131,154.0009,-104.20931,118.11581,2.5265229
5.817429,143.21042,72.02432,101.55451,3.2860866,5.6613865,-1.1314466,-0.808672,-0.5374194,0.02856618,0.77804136,-0.6139492,0.5668134,-0.11291317,0.4827772,-0.6472385,-1.9086173,-1.492004,2.2810354,1.7142135,-0.94122046,0.5575962,-0.6052687,-1.9214951,-1.5605518,2.3268511,1.6788448,-0.93025243,-0.608711,-1.1378913,-0.8764125,1.1645086,-1.597913,2.1228673,-0.033530068,-0.06490326,-0.4259796,0.82712764,-1.3589699,-0.06594086,0.61243254,-0.050598145,-0.5021515,0.75728464,0.88555187,0.061408263,0.10854626,0.44748688,-1.0609119,0.057874117,-0.18995821,1.0,0.0,0.0,0.0,0.0,0.0,0.0,-0.5850967,0.025979608,-0.27712762,-1.5497208,15.737247,50.35677,95.56412,-15.902972,-3.346014,-0.5046949
-27.7506,110.00145,38.322453,77.23073,4.1887927,3.514061,-1.2790041,-0.7853168,-0.37835717,-0.33684933,0.72964585,-0.6342134,0.57481974,0.2924757,0.47906452,-0.64310443,-1.95518,-1.4875872,2.2634299,1.7363268,-0.90100485,0.54992485,-0.6149428,-1.9282261,-1.5450069,2.3114321,1.6985897,-0.9303268,-0.8169219,-0.91199285,-0.60704875,1.6856296,-1.5248017,1.929087,0.0010941577,-0.07848358,-0.42663956,0.8325029,-1.3576113,-0.065874934,0.51256907,-0.061645508,-0.5009804,0.7575508,0.8893586,0.050594993,0.11461789,0.43970922,-1.1171149,0.14259833,0.090908855,1.0,0.0,0.0,0.0,0.0,0.0,0.0,-0.5715164,0.02663955,-0.2825029,-19.898283,22.169817,26.479733,52.45371,6.748247,-18.123268,3.4091294
-38.70899,79.95172,17.770323,51.485992,3.6979764,1.96683,-1.0360962,-0.77865225,-0.32531458,-0.34892306,0.7900365,-0.6379064,0.5365592,0.24207701,0.4720596,-0.6474742,-1.9631184,-1.4660032,2.2476416,1.7522457,-0.9061191,0.539732,-0.62251306,-1.933334,-1.5268642,2.2975314,1.7160782,-0.9300951,-1.0841995,-0.70650214,-0.48106068,1.858158,-1.3461069,1.6909524,0.030330552,-0.092048645,-0.4272995,0.8368803,-1.3562539,-0.06580907,0.4128054,-0.073387146,-0.49915123,0.75952196,0.8936113,0.039575092,0.12127467,0.4303313,-1.191034,0.20298672,0.22451323,1.0,0.0,0.0,0.0,0.0,0.0,0.0,-0.55795133,0.027299494,-0.2868803,-25.956451,20.227169,11.923981,17.535496,17.604208,-23.114086,2.873891
-40.70435,43.437824,-0.772444,28.49586,2.8448637,0.52663046,-0.70596844,-0.7909563,-0.34745243,-0.4393385,0.7886395,-0.6591351,0.5745395,0.22177826,0.46063635,-0.6572583,-1.9772679,-1.4480002,2.231618,1.7735322,-0.90791726,0.5272198,-0.62867665,-1.9384629,-1.5086566,2.285332,1.7313579,-0.92961156,-1.3054788,-0.58687294,-0.5253827,1.808795,-1.1778266,1.4746829,0.0540769,-0.10559845,-0.42795563,0.8402608,-1.3548979,-0.065743275,0.3131415,-0.08590698,-0.49700356,0.7618256,0.89817613,0.029787479,0.127807,0.41959226,-1.2700218,0.22725579,0.22532065,1.0,0.0,0.0,0.0,0.0,0.0,0.0,-0.5444015,0.027955621,-0.2902608,-21.669174,11.782336,-4.9720645,-4.7446966,16.817331,-21.318054,2.312252
-31.75888,25.553185,-6.281926,14.630251,1.800005,-0.33477867,-0.36139837,-0.7899625,-0.33235475,-0.49533087,0.7927709,-0.65765476,0.5611236,0.22421892,0.44822353,-0.66191214,-1.987996,-1.4293796,2.2195666,1.7874703,-0.90718967,0.5131483,-0.6341212,-1.9447132,-1.4916087,2.274502,1.7446941,-0.92892206,-1.4401952,-0.5306882,-0.65934867,1.6703054,-1.0514917,1.2869068,0.07361173,-0.119140625,-0.42861176,0.8426454,-1.3535433,-0.065677546,0.21357724,-0.09905243,-0.49479866,0.76363367,0.90289176,0.021918686,0.13392115,0.4078862,-1.3276587,0.2281423,0.16034211,1.0,0.0,0.0,0.0,0.0,0.0,0.0,-0.53085935,0.02861175,-0.2926454,-13.244486,5.5140495,-13.721502,-13.736033,12.620115,-18.65058,1.8641293
-20.068628,20.118704,-4.2146378,8.770112,1.0499761,-0.6595396,-0.09837243,-0.78683805,-0.33357817,-0.5177716,0.797117,-0.65315956,0.58371216,0.17525743,0.4344645,-0.667479,-1.9964904,-1.4118971,2.209186,1.8030653,-0.9113963,0.49834728,-0.6393769,-1.9523941,-1.4759456,2.2645876,1.7563976,-0.9281,-1.4930555,-0.5241999,-0.8047304,1.531941,-0.97187173,1.1317183,0.08472362,-0.13266754,-0.42926788,0.84403217,-1.35219,-0.06561188,0.11371881,-0.112594604,-0.49267197,0.76465595,0.9076101,0.016003303,0.13956213,0.39561346,-1.3600523,0.21889837,0.07851176,1.0,0.0,0.0,0.0,0.0,0.0,0.0,-0.51733243,0.029267877,-0.29403216,-5.186558,0.57543516,-14.677048,-13.756251,7.861662,-15.458846,1.0167003
-16.88134,10.67641,-5.649105,7.6061263,1.0963581,-0.79406947,-0.018810801,-0.7986552,-0.3950491,-0.57554483,0.7974633,-0.6460733,0.580756,0.13384105,0.41848177,-0.67888176,-2.0099487,-1.3961992,2.1999803,1.8144732,-0.9147159,0.4833722,-0.6450436,-1.9615017,-1.4613563,2.2552035,1.7667488,-0.9272169,-1.498616,-0.5810473,-0.9464841,1.4350868,-0.9275901,1.0029681,0.08939951,-0.1461792,-0.429924,0.8444211,-1.3508381,-0.06554628,0.013960213,-0.12648773,-0.4907093,0.76480305,0.9122793,0.011812821,0.14466079,0.3829885,-1.3968995,0.2003108,-0.01013087,1.0,0.0,0.0,0.0,0.0,0.0,0.0,-0.5038208,0.029924005,-0.29442108,-0.44567585,-5.7323694,-14.266992,-9.535456,4.345715,-12.869668,0.43076277
-14.315382,7.7893314,-4.584277,8.55127,1.2042218,-0.6999469,0.021029072,-0.79623413,-0.44714877,-0.6102628,0.7940981,-0.6360388,0.58716536,0.10421949,0.4037488,-0.6897585,-2.022528,-1.3819464,2.1915996,1.8254653,-0.91679496,0.46854496,-0.6515734,-1.9718128,-1.447385,2.2461016,1.775988,-0.9263214,-1.4770768,-0.6770635,-1.0594155,1.3852252,-0.9048952,0.8975538,0.08972284,-0.1596756,-0.43058014,0.8438132,-1.3494875,-0.06548075,-0.08569865,-0.14077759,-0.48893547,0.76411223,0.9168801,0.00901224,0.14916837,0.37013295,-1.435747,0.18251245,-0.0918979,1.0,0.0,0.0,0.0,0.0,0.0,0.0,-0.49032438,0.030580133,-0.29381317,2.2692919,-9.648645,-11.340284,-4.773879,2.191496,-10.558498,0.041764975
-8.76064,19.733156,2.6398022,11.330358,0.9751757,-0.3142221,0.059775863,-0.7913188,-0.44215867,-0.60358113,0.79315436,-0.6430731,0.6025903,0.060236305,0.3894131,-0.6957893,-2.032171,-1.3680695,2.1817944,1.836247,-0.92029774,0.45399857,-0.6589329,-1.9828411,-1.4336349,2.2370875,1.7843288,-0.9254631,-1.4470109,-0.7559436,-1.1171062,1.3720356,-0.9007031,0.8129972,0.084516525,-0.17316437,-0.43123436,0.8422094,-1.3481383,-0.06541528,-0.18525785,-0.15529633,-0.48721886,0.7628133,0.9213606,0.0071991244,0.1532423,0.35715467,-1.4549743,0.18029267,-0.14587756,1.0,0.0,0.0,0.0,0.0,0.0,0.0,-0.4768356,0.031234354,-0.2922094,3.0581236,-7.9718113,-5.7034254,-1.1394262,0.25833845,-8.439422,-0.53869486
-1.7790701,30.55123,9.951984,12.642113,0.73472553,0.0013141632,0.14697418,-0.7688502,-0.47420314,-0.56534165,0.7904265,-0.6294656,0.62664205,0.005604159,0.37711355,-0.70635325,-2.0393753,-1.3545922,2.174141,1.846993,-0.9249027,0.43981457,-0.66700673,-1.9939438,-1.4198714,2.2280962,1.791962,-0.9246992,-1.4089681,-0.82484007,-1.1074946,1.3781209,-0.89986557,0.7468286,0.07355305,-0.18663788,-0.43188667,0.8396108,-1.3467904,-0.06534988,-0.28471753,-0.16985321,-0.4854374,0.7611515,0.92565167,0.005963425,0.15699501,0.34421775,-1.4523442,0.19003357,-0.1764757,1.0,0.0,0.0,0.0,0.0,0.0,0.0,-0.4633621,0.031886667,-0.2896108,3.766489,-6.993115,1.1546612,0.7227659,-0.16564131,-6.562495,-1.125829
-0.76330185,29.060085,10.34964,12.028641,0.79451114,0.067768276,0.2024545,-0.7562341,-0.55050904,-0.5557578,0.78019935,-0.618354,0.62639636,0.027974768,0.36419114,-0.72205764,-2.0495195,-1.3418515,2.166261,1.8546016,-0.9219017,0.4259963,-0.6759083,-2.0047166,-1.4060355,2.219124,1.7990268,-0.92402303,-1.3729464,-0.91231465,-1.0666358,1.3857238,-0.89708936,0.69320077,0.06570603,-0.20009613,-0.432539,0.8360184,-1.345444,-0.065284535,-0.3840778,-0.18437958,-0.48355103,0.7591823,0.9297268,0.0050722053,0.160374,0.33145517,-1.4503361,0.20080073,-0.20744435,1.0,0.0,0.0,0.0,0.0,0.0,0.0,-0.44990385,0.03253898,-0.28601837,3.5567045,-8.843827,4.295516,0.89087486,0.02411604,-5.3115487,-0.77655166
3.741222,31.628176,12.809678,10.891448,0.5606826,0.07916021,0.2803988,-0.7148265,-0.59278774,-0.5292797,0.782011,-0.63816994,0.6388215,0.024165833,0.35451365,-0.7351871,-2.0576446,-1.3278345,2.155307,1.862909,-0.9216064,0.41263437,-0.6856959,-2.0149362,-1.3921214,2.2101138,1.8056396,-0.9234184,-1.324229,-1.0011555,-1.006113,1.3936701,-0.9031369,0.65090746,0.058788463,-0.21353912,-0.4331913,0.8314331,-1.3440988,-0.06521927,-0.48333868,-0.19879913,-0.48155403,0.7569187,0.933557,0.0043834425,0.1633747,0.31899983,-1.4364407,0.2112575,-0.23644732,1.0,0.0,0.0,0.0,0.0,0.0,0.0,-0.43646085,0.033191293,-0.2814331,4.7760963,-8.975148,6.314087,0.8928776,-0.882411,-4.16106,-0.68217885
9.441063,31.636105,14.328455,8.259961,0.23668092,-0.05772376,0.3880049,-0.6561663,-0.6477853,-0.5080153,0.77474374,-0.6530555,0.6569156,0.05285701,0.34701774,-0.7504744,-2.0657377,-1.3146471,2.1448083,1.8713312,-0.9181327,0.39993572,-0.6964114,-2.024534,-1.3781825,2.2009966,1.8119034,-0.9228529,-1.2522839,-1.0952357,-0.9433487,1.39417,-0.915785,0.61842936,0.055964194,-0.22696686,-0.4338436,0.8258559,-1.342755,-0.06515406,-0.58250034,-0.21299744,-0.47950363,0.7543252,0.9371075,0.0038289963,0.1659992,0.3070164,-1.4105438,0.21489282,-0.27119708,1.0,0.0,0.0,0.0,0.0,0.0,0.0,-0.42303312,0.033843607,-0.2758559,7.035303,-9.483433,6.588948,0.11124611,-1.552248,-3.1756759,-0.2695486
6.7192087,22.287188,8.816886,5.534586,0.2759189,-0.37330955,0.35739714,-0.61656356,-0.71335566,-0.5760338,0.75405836,-0.6352527,0.6341663,0.099337906,0.33827937,-0.7677469,-2.0821373,-1.3027767,2.1374714,1.87532,-0.9129191,0.38802338,-0.70814157,-2.0339715,-1.3643523,2.1918185,1.8178695,-0.9222721,-1.1712562,-1.1991146,-0.9432556,1.3796054,-0.9193286,0.5894362,0.059006955,-0.24038696,-0.43449593,0.81928784,-1.3414125,-0.06508892,-0.68156284,-0.22704315,-0.47750473,0.75120604,0.9404197,0.003583207,0.1681667,0.29549608,-1.3990294,0.20648599,-0.33004057,1.0,0.0,0.0,0.0,0.0,0.0,0.0,-0.409613,0.03449592,-0.26928782,7.973695,-10.446429,0.24344921,-1.3354063,-0.5486727,-2.8847694,0.34423396
11.071379,22.85161,9.269761,3.196055,-0.07669181,-0.56709105,0.42334154,-0.53941137,-0.7432604,-0.59938514,0.7472629,-0.6453572,0.6295424,0.19991718,0.33408225,-0.7824676,-2.09391,-1.289626,2.1272829,1.8808237,-0.9022804,0.3771062,-0.72080636,-2.04368,-1.3507091,2.1825945,1.8235782,-0.9215826,-1.0657982,-1.2891809,-0.9792034,1.3596275,-0.9238067,0.56467503,0.07236813,-0.2537918,-0.43514633,0.8117384,-1.3400713,-0.06502385,-0.7794031,-0.2408905,-0.47563744,0.74745035,0.9434973,0.0037950978,0.16990133,0.28448543,-1.3781885,0.18999793,-0.3956207,1.0,0.0,0.0,0.0,0.0,0.0,0.0,-0.39620817,0.035146326,-0.26173836,10.359144,-9.062934,-3.3282757,-1.906991,-0.62874556,-2.4823546,1.3524681
12.6402,25.922318,9.896496,3.00464,-0.2767763,-0.626726,0.42715323,-0.48351055,-0.76810694,-0.6332533,0.7455549,-0.6712172,0.6329022,0.26090816,0.32875514,-0.7976171,-2.1070054,-1.2761536,2.1154728,1.8868685,-0.8954918,0.3672986,-0.73422265,-2.053949,-1.3372451,2.1732638,1.8290733,-0.9207176,-0.95311135,-1.3594028,-1.0418088,1.3422908,-0.9368884,0.54428506,0.09123723,-0.2671814,-0.43579483,0.8032112,-1.3387315,-0.06495883,-0.8771455,-0.25450897,-0.47395897,0.7430426,0.946336,0.004555379,0.17132686,0.27399725,-1.3514935,0.17074803,-0.46103835,1.0,0.0,0.0,0.0,0.0,0.0,0.0,-0.38281858,0.035794824,-0.2532112,11.063206,-7.0928335,-5.9818506,-1.6528845,-1.4845133,-2.0599365,1.8716738
21.326113,32.687843,14.0054865,0.73698735,-0.80864793,-0.74892163,0.53627795,-0.38631597,-0.7803302,-0.665319,0.71560425,-0.67380315,0.6237313,0.29128197,0.328667,-0.8122557,-2.120481,-1.2656847,2.1058834,1.8914465,-0.8915894,0.3588071,-0.7481539,-2.0649164,-1.3240501,2.1638033,1.8343834,-0.9196552,-0.8154656,-1.4046079,-1.1141044,1.3118548,-0.9502344,0.5264924,0.11102057,-0.28055573,-0.43644333,0.7937074,-1.337393,-0.06489389,-0.9747902,-0.26766205,-0.47252464,0.73800385,0.94890255,0.0059130685,0.17255287,0.26414874,-1.3021201,0.14392662,-0.5238325,1.0,0.0,0.0,0.0,0.0,0.0,0.0,-0.36944425,0.036443323,-0.24370736,13.463497,-4.5966625,-6.8638086,-3.0552864,-1.5613914,-1.8108845,1.9092605
40.679375,40.487812,21.779627,-4.801201,-1.7240729,-1.089663,0.7819379,-0.22467732,-0.80213696,-0.6840208,0.6697781,-0.66190696,0.60915935,0.24560894,0.33633935,-0.8283676,-2.1333184,-1.2570722,2.0976126,1.8952993,-0.89509434,0.352149,-0.7624409,-2.0765398,-1.3113357,2.154259,1.8395256,-0.9184507,-0.61759895,-1.4369909,-1.1766522,1.2573638,-0.9567959,0.5099701,0.12322223,-0.29392242,-0.43709183,0.78321457,-1.3360559,-0.06482901,-1.0740948,-0.28005219,-0.4715023,0.7323399,0.9511282,0.007841099,0.1735905,0.2552643,-1.2121983,0.096025616,-0.58638537,0.0,1.0,0.0,0.0,0.0,0.0,0.0,-0.35607755,0.03709182,-0.23321456,19.289112,-3.2995462,-5.708337,-5.630064,-0.97910166,-1.7115712,1.1031896
37.071064,43.027603,21.176561,-3.5279565,-1.6047759,-0.9892927,0.71818817,-0.20764567,-0.80398464,-0.71231556,0.6287495,-0.6756768,0.561294,0.21389417,0.33138445,-0.84283936,-2.1477714,-1.2484608,2.0866914,1.895655,-0.8970613,0.34720802,-0.7769263,-2.0887392,-1.299285,2.1446345,1.8444847,-0.9171699,-0.4543377,-1.4527179,-1.2332156,1.1869938,-0.9653099,0.490955,0.12927485,-0.30727386,-0.43774033,0.77172947,-1.3347201,-0.06476419,-1.1733,-0.29156494,-0.47092438,0.7260802,0.9530291,0.010357526,0.17446546,0.24736609,-1.1266605,0.05200895,-0.6452444,0.0,1.0,0.0,0.0,0.0,0.0,0.0,-0.3427261,0.03774032,-0.22172946,15.910059,-1.6553402,-5.186391,-7.183218,-1.1812449,-1.9914627,0.478369
31.750624,46.320076,21.058718,-0.18732023,-1.1831638,-0.7658212,0.6176416,-0.16690412,-0.8131718,-0.7029162,0.6147032,-0.6669272,0.550636,0.2123019,0.33051762,-0.85824347,-2.1590307,-1.2378148,2.0779417,1.8995483,-0.89593977,0.34361362,-0.79152036,-2.1012933,-1.2878753,2.134968,1.8492626,-0.9158453,-0.32889184,-1.4619572,-1.2615064,1.1251627,-0.96810585,0.4730781,0.1332262,-0.32061005,-0.43838882,0.75925314,-1.3333857,-0.06469944,-1.2724061,-0.30229187,-0.47070122,0.71932507,0.95465523,0.013375576,0.1751952,0.24033509,-1.0514343,0.017903691,-0.69144434,0.0,1.0,0.0,0.0,0.0,0.0,0.0,-0.32938993,0.03838882,-0.20925313,12.217915,-1.0285139,-2.4161577,-6.280303,-0.62201023,-1.8933356,0.28348565
11.238003,44.064102,14.503546,6.11704,-0.154235,-0.3568505,0.30375296,-0.21441372,-0.8165039,-0.72229624,0.5772787,-0.6454416,0.4899558,0.08283541,0.32217225,-0.87317073,-2.173523,-1.2301475,2.0704238,1.8982582,-0.9075617,0.34066653,-0.8061753,-2.1142983,-1.2772114,2.1255498,1.8540685,-0.91464835,-0.28380543,-1.4670384,-1.3130523,1.0476251,-0.92772025,0.485733,0.11825891,-0.33286285,-0.43732452,0.75400853,-1.1552953,0.13595657,-0.2978011,-0.31259918,-0.4706211,0.71205807,0.9561375,0.016838603,0.17569146,0.2337734,-1.0196944,0.010150869,-0.743814,0.0,1.0,0.0,0.0,0.0,0.0,0.0,-0.31713712,0.037324518,-0.20400852,3.6805868,-0.6191015,-2.0402193,-5.9155464,0.65311193,-2.3546815,-1.016748
-37.54923,53.396572,5.3607955,29.169094,2.6527236,0.96048516,-0.41435176,-0.43015748,-0.7834106,-0.6612987,0.716487,-0.63698804,0.49765554,0.30373904,0.29765078,-0.88451636,-2.1804283,-1.2055627,2.061851,1.9038341,-0.8842744,0.3367703,-0.82069975,-2.127234,-1.2663529,2.116383,1.8587968,-0.91337425,-0.42394608,-1.4483659,-1.2868179,1.0996867,-0.9143686,0.46863014,0.13026373,-0.34440613,-0.4359665,0.7502806,-1.1541402,0.13582064,-0.3977826,-0.32322693,-0.4700699,0.70476794,0.95764905,0.020471308,0.17619629,0.22681257,-1.0710384,0.0743621,-0.7296793,0.0,1.0,0.0,0.0,0.0,0.0,0.0,-0.30559385,0.035966486,-0.2002806,-13.722891,1.6191959,2.62959,5.5696487,1.069653,-1.7208517,1.1613085
-38.68377,66.29798,10.44593,34.47719,3.103706,1.3752062,-0.46567845,-0.4061565,-0.7684526,-0.59104407,0.74628586,-0.59661245,0.5941607,0.38160235,0.29615465,-0.897545,-2.1863384,-1.1917243,2.056722,1.9182129,-0.875214,0.3314135,-0.8349524,-2.1394525,-1.2546399,2.107411,1.863426,-0.9119075,-0.5720013,-1.4184762,-1.1999239,1.1961608,-0.8926642,0.46110135,0.15196513,-0.35594177,-0.43460846,0.7455536,-1.1529863,0.13568485,-0.4976641,-0.33432007,-0.46876144,0.69787294,0.9592117,0.023903035,0.17691557,0.21918583,-1.1186442,0.155041,-0.681629,0.0,1.0,0.0,0.0,0.0,0.0,0.0,-0.2940582,0.034608454,-0.1955536,-14.540392,2.7148008,8.792353,9.979463,1.8189907,-0.7325947,2.1368952
-19.976694,65.18211,14.630272,26.076006,2.0005345,0.9413381,-0.16626355,-0.34571302,-0.777676,-0.6042715,0.70176697,-0.625376,0.5494167,0.37281007,0.29684222,-0.91272,-2.1998796,-1.1844631,2.0448732,1.9183676,-0.8746265,0.32510066,-0.84898096,-2.1508775,-1.2422307,2.098515,1.8679521,-0.91023856,-0.65070033,-1.3984704,-1.1226283,1.2567475,-0.88970107,0.44994065,0.1715689,-0.36746216,-0.43325233,0.7398286,-1.1518335,0.13554919,-0.5974457,-0.34562683,-0.46684647,0.69132733,0.96074194,0.027129825,0.17784113,0.21121402,-1.1298043,0.20901744,-0.65062416,0.0,1.0,0.0,0.0,0.0,0.0,0.0,-0.28253782,0.03325233,-0.18982857,-7.76906,1.770997,7.942581,6.2663794,-0.07542372,-1.1195838,1.9062817
-5.1251726,61.89175,16.624132,18.657417,1.074408,0.51334155,0.075067446,-0.33126003,-0.7737509,-0.61686116,0.69869775,-0.6379259,0.54238063,0.4211733,0.29197466,-0.9263561,-2.2125635,-1.1723609,2.0347223,1.9221902,-0.8681212,0.31844592,-0.86286074,-2.1617723,-1.229459,2.0895696,1.8723714,-0.9083598,-0.67047995,-1.3851396,-1.077588,1.2845486,-0.89720494,0.4392373,0.19304669,-0.3789673,-0.43189812,0.7331065,-1.150682,0.13541368,-0.6971276,-0.35684967,-0.46458435,0.6849383,0.9621613,0.03032522,0.17892574,0.20325251,-1.1150134,0.23796096,-0.6398757,0.0,1.0,0.0,0.0,0.0,0.0,0.0,-0.2710327,0.03189811,-0.18310648,-2.0005107,1.1418104,4.78878,2.8922796,-1.1228919,-1.0961294,2.0644724
-14.299812,52.99895,10.176496,17.986397,1.2529204,0.42468575,0.0048375726,-0.41468453,-0.77610916,-0.6532512,0.70898074,-0.6195591,0.5072644,0.45573187,0.27697748,-0.94047165,-2.2270973,-1.158561,2.0276136,1.9230978,-0.86278665,0.31145692,-0.8766776,-2.1726022,-1.2165368,2.0805936,1.8766668,-0.9062608,-0.70819193,-1.3810712,-1.0842682,1.2953576,-0.8984218,0.42615095,0.21542223,-0.39046478,-0.4305439,0.7253883,-1.1495315,0.13527828,-0.7967098,-0.36808777,-0.46201706,0.678496,0.96348536,0.03374735,0.18007557,0.19526884,-1.1203979,0.26957268,-0.65038645,0.0,1.0,0.0,0.0,0.0,0.0,0.0,-0.2595352,0.030543894,-0.17538828,-3.719163,0.22096634,-0.50365925,1.2880325,-0.38727522,-1.3655484,2.1823912
-9.416344,53.307583,11.117992,16.015259,0.99729246,0.31324077,0.06553822,-0.39825928,-0.7675125,-0.6475219,0.72432,-0.6187223,0.5188259,0.4820966,0.271631,-0.9534288,-2.2373543,-1.1441047,2.0187213,1.9285494,-0.8580511,0.30425525,-0.8904515,-2.1836076,-1.2035325,2.0716176,1.8808496,-0.9039405,-0.7241323,-1.3767617,-1.1055132,1.3027068,-0.8979974,0.41554713,0.237334,-0.40195465,-0.4291935,0.71667504,-1.1483822,0.13514304,-0.8961924,-0.37929535,-0.45918274,0.67191666,0.9647084,0.037495155,0.18125762,0.18728967,-1.1173717,0.29420552,-0.665032,0.0,1.0,0.0,0.0,0.0,0.0,0.0,-0.24804533,0.02919349,-0.16667503,-1.5880346,0.25265217,-1.9191265,0.9058714,-0.23206472,-1.1350453,2.1196485
-11.383797,50.109985,9.2643,14.821983,1.0002067,0.2953968,0.06364448,-0.42762107,-0.77473474,-0.6568314,0.70801514,-0.60609967,0.48569772,0.46052337,0.26149315,-0.96792495,-2.2492907,-1.132731,2.0110075,1.9294194,-0.85788816,0.2968532,-0.9042338,-2.194929,-1.190592,2.0627418,1.8849354,-0.90143365,-0.7446178,-1.3793529,-1.1444563,1.2895402,-0.8773756,0.40975487,0.25621182,-0.4131775,-0.42757988,0.70837796,-1.0753763,0.18649246,-0.6613543,-0.39052582,-0.45610237,0.66510844,0.9658412,0.041630253,0.18237333,0.17932545,-1.1200335,0.31983012,-0.69185174,0.0,1.0,0.0,0.0,0.0,0.0,0.0,-0.23682249,0.027579874,-0.15837795,-1.8318057,-0.4557371,-4.650259,-1.6507387,3.216362,-0.015860796,2.037826
-10.203642,55.03394,11.297686,15.768686,1.0630126,0.41172963,0.06967138,-0.44039187,-0.7644846,-0.6339248,0.72454196,-0.6040317,0.48922086,0.5040972,0.25281402,-0.98068225,-2.2583213,-1.1181378,2.0023386,1.9338574,-0.8510239,0.2892362,-0.9180049,-2.2064607,-1.1777155,2.054056,1.8889729,-0.8987313,-0.7674163,-1.3769355,-1.155231,1.287645,-0.86651295,0.40112406,0.27477804,-0.42377472,-0.4256649,0.70159346,-1.0540881,0.19393386,-0.6845651,-0.40174103,-0.4527359,0.65811557,0.96688455,0.046061628,0.18339694,0.17140011,-1.1161987,0.34818944,-0.70604986,0.0,1.0,0.0,0.0,0.0,0.0,0.0,-0.22622526,0.025664896,-0.15159345,-2.2853136,0.0603199,-0.8403301,-0.020575523,0.8027673,-0.98505616,1.8108368
-10.53957,57.65425,11.996555,16.178814,1.1206963,0.48135126,0.066784054,-0.46000916,-0.76021373,-0.632251,0.716739,-0.59403753,0.4488421,0.51159376,0.24323528,-0.99402624,-2.2696857,-1.1060417,1.9946522,1.9338571,-0.8475719,0.28135118,-0.9317292,-2.2180078,-1.164879,2.0454886,1.8929026,-0.89585644,-0.79554254,-1.3715725,-1.1537718,1.28296,-0.8544399,0.38977516,0.29154,-0.43414307,-0.42368317,0.6945934,-1.0309383,0.20003062,-0.7050957,-0.41291046,-0.4490738,0.6510137,0.9678331,0.05073751,0.1843537,0.16351888,-1.1105559,0.3786889,-0.71578497,0.0,1.0,0.0,0.0,0.0,0.0,0.0,-0.21585691,0.02368316,-0.14459342,-2.8266668,0.35333633,0.40864944,-0.3132105,0.8754492,-1.2554646,1.613611
-1.900539,61.1026,15.661761,14.570943,0.9648253,0.43867308,0.1389088,-0.43827087,-0.7660906,-0.5953207,0.71568394,-0.557063,0.4418587,0.5143247,0.23752409,-1.0083382,-2.27754,-1.0933106,1.9897823,1.9370885,-0.84442395,0.2733403,-0.9454297,-2.2293108,-1.1520807,2.037119,1.8967211,-0.8928303,-0.8031835,-1.3701229,-1.1213368,1.2790276,-0.83240634,0.3787696,0.30609286,-0.44423676,-0.42166328,0.6874411,-1.0021338,0.20263603,-0.7184746,-0.4239273,-0.44516945,0.6438668,0.9686862,0.055503804,0.18519081,0.15579043,-1.0918876,0.40094984,-0.7183778,0.0,1.0,0.0,0.0,0.0,0.0,0.0,-0.20576322,0.021663278,-0.1374411,-0.84460974,-0.021982193,3.5902262,-0.3137827,1.8063545,-1.1780858,1.3670087
-2.1717298,62.95776,16.173252,15.1408825,1.0503166,0.49319923,0.1215396,-0.46068928,-0.7650273,-0.5719675,0.71783453,-0.5586081,0.42222926,0.51106346,0.22727138,-1.0219324,-2.2865076,-1.0802972,1.9812582,1.9389441,-0.841724,0.2652183,-0.9591235,-2.2401748,-1.1393013,2.028937,1.9004239,-0.88967896,-0.8154604,-1.3696247,-1.0737504,1.2777961,-0.8144584,0.3671643,0.31797367,-0.4540329,-0.4196205,0.6801675,-0.9723686,0.20470487,-0.7290464,-0.43473816,-0.44103432,0.63672507,0.9694504,0.06026047,0.18589915,0.14824283,-1.0727077,0.42426974,-0.71664315,0.0,1.0,0.0,0.0,0.0,0.0,0.0,-0.19596708,0.019620508,-0.13016748,-1.308322,-0.115561485,5.118537,-0.043821335,1.3855815,-1.2781501,1.1293411
3.2400095,65.74236,18.306597,14.017422,0.92975765,0.45645007,0.16380838,-0.4482021,-0.758331,-0.53973514,0.7057073,-0.52857655,0.40431395,0.51141346,0.22039807,-1.0349566,-2.2941482,-1.0687306,1.9760795,1.9408553,-0.83853763,0.2570634,-0.97278583,-2.250478,-1.1265831,2.0209901,1.9040117,-0.8864234,-0.8158714,-1.3656719,-1.014364,1.2697839,-0.7897394,0.35546014,0.3278303,-0.46351624,-0.41757965,0.6728245,-0.9387574,0.2038738,-0.7350471,-0.44530487,-0.43671036,0.62962925,0.97013193,0.06492734,0.18645889,0.14093088,-1.0449423,0.4413681,-0.710987,0.0,1.0,0.0,0.0,0.0,0.0,0.0,-0.18648374,0.017579645,-0.12282449,-0.15761852,0.24011135,6.3412666,-0.7719517,2.0296574,-1.2854218,0.9175539
6.9615517,65.96323,19.327341,12.844637,0.8834517,0.40644544,0.19229686,-0.44401315,-0.76497424,-0.4926481,0.69481575,-0.4972697,0.37302834,0.51293945,0.21266207,-1.0492833,-2.299743,-1.0571015,1.9712632,1.9413146,-0.83512944,0.24895239,-0.9864415,-2.2600796,-1.1139927,2.013345,1.9074701,-0.8830811,-0.8099371,-1.36597,-0.94085807,1.2554307,-0.75776625,0.34219778,0.33618745,-0.472641,-0.4155655,0.66543114,-0.90391856,0.20071961,-0.7405601,-0.45555878,-0.4322548,0.6225932,0.9707466,0.069419816,0.18680812,0.13392003,-1.0134611,0.45327684,-0.70472777,0.0,1.0,0.0,0.0,0.0,0.0,0.0,-0.17735898,0.015565485,-0.11543113,0.46149492,-0.1718998,7.766676,-1.4280558,2.7429104,-1.4366865,0.7762611
4.2950826,66.71191,18.60285,13.8575535,1.0616723,0.39231724,0.14638358,-0.45895007,-0.7608011,-0.46177816,0.69451654,-0.46953416,0.26822144,0.53038615,0.20305738,-1.0625216,-2.3062575,-1.044541,1.9663916,1.9342922,-0.8300425,0.2408402,-1.0000886,-2.2689521,-1.1015298,2.0060472,1.9107258,-0.8796537,-0.8119846,-1.3647592,-0.867935,1.2432704,-0.7216428,0.31978387,0.34479302,-0.48143768,-0.41357994,0.6579729,-0.87062615,0.19743486,-0.7459885,-0.46553802,-0.42766,0.6156338,0.9713169,0.07373265,0.1869096,0.12716806,-0.98744094,0.46692213,-0.69639033,0.0,1.0,0.0,0.0,0.0,0.0,0.0,-0.1685623,0.013579935,-0.10797286,-0.31508207,-0.02117157,7.6844335,-1.1870623,3.1701565,-2.3520112,0.8160889
10.258776,69.967804,21.352734,12.952603,1.1468174,0.36260724,0.1639597,-0.44269943,-0.7585466,-0.3750137,0.6729692,-0.3647778,0.20507085,0.5263606,0.19657025,-1.0759432,-2.3064535,-1.0342329,1.9695694,1.9312329,-0.82701766,0.23277113,-1.0137147,-2.2768712,-1.0892597,1.9993649,1.9137249,-0.8761518,-0.8056734,-1.362252,-0.76525706,1.221556,-0.651948,0.29292932,0.3519749,-0.4898758,-0.4116497,0.6505206,-0.8337402,0.19137272,-0.7440755,-0.47522736,-0.42297173,0.60882014,0.9718859,0.07769775,0.18663266,0.12070233,-0.95606405,0.47530165,-0.6796457,0.0,1.0,0.0,0.0,0.0,0.0,0.0,-0.16012418,0.011649698,-0.10052061,0.49198866,0.12032986,10.700094,-2.1917343,6.491244,-2.792567,0.68373084
14.579936,72.11442,23.690905,12.178484,1.5113924,0.32762003,0.13312869,-0.44434074,-0.7624515,-0.2650946,0.6362889,-0.1635297,0.044610262,0.49599653,0.18833706,-1.0899599,-2.3033807,-1.0256308,1.9830118,1.918186,-0.82655215,0.22475736,-1.027335,-2.2834399,-1.0773463,1.9939076,1.9163557,-0.8726079,-0.8004141,-1.3623378,-0.6195213,1.1810248,-0.5118044,0.2527234,0.355236,-0.49793243,-0.40979195,0.64312845,-0.7960641,0.18379216,-0.73634744,-0.48461914,-0.41820908,0.60224557,0.9725476,0.081006564,0.18566342,0.1145349,-0.9264805,0.4818336,-0.65323836,0.0,1.0,0.0,0.0,0.0,0.0,0.0,-0.15206754,0.00979194,-0.09312844,0.37869215,-0.124788284,15.015936,-4.104471,13.514972,-4.134178,0.3337562
32.90061,76.07549,30.72929,7.697942,1.5080038,0.21660754,0.24793182,-0.40260494,-0.77341557,-0.06962163,0.5671259,0.07329126,-0.094237134,0.4805005,0.18449686,-1.1046766,-2.290402,-1.0206337,2.0012367,1.906932,-0.82455784,0.216978,-1.0410126,-2.287888,-1.0661178,1.990442,1.918511,-0.8690478,-0.7711475,-1.36976,-0.38476554,1.1027799,-0.2934865,0.20285016,0.35628355,-0.50553894,-0.4080639,0.6359433,-0.74897695,0.16903895,-0.71255213,-0.49357605,-0.41350555,0.5960401,0.97341764,0.083126575,0.18356863,0.1088602,-0.8799219,0.47125655,-0.6126344,0.0,1.0,0.0,0.0,0.0,0.0,0.0,-0.14446104,0.008063883,-0.08594328,2.7159452,-0.83413124,24.011618,-7.9839706,21.24368,-5.085716,0.12398958
55.295795,83.96907,39.81319,3.9113803,1.1802714,0.12783322,0.40913042,-0.34388122,-0.7809314,0.17294611,0.52496326,0.1698132,-0.17095873,0.47256488,0.18258987,-1.1191058,-2.2705934,-1.0136214,2.0074234,1.9014151,-0.82179135,0.20975058,-1.0548009,-2.289208,-1.0557836,1.989208,1.9201572,-0.8654859,-0.70747507,-1.3820744,-0.04572842,1.0095409,-0.06900596,0.15185134,0.35603178,-0.51255035,-0.4065628,0.62921315,-0.68512905,0.14348847,-0.6594901,-0.5018616,-0.40909004,0.5903955,0.97455215,0.08348989,0.18016937,0.10400183,-0.8057945,0.4362246,-0.5512909,0.0,1.0,0.0,0.0,0.0,0.0,0.0,-0.13744962,0.006562799,-0.07921314,6.1072946,-1.3237715,34.56239,-9.566689,21.76392,-5.128026,-0.050359964
86.43414,90.453026,49.001663,-1.384198,0.2675217,-0.317653,0.5968341,-0.18681557,-0.7827643,0.32642883,0.5292868,0.24686857,-0.13247578,0.44518468,0.19106902,-1.1330773,-2.256565,-1.002855,2.0138948,1.9069096,-0.82096744,0.20383257,-1.0687073,-2.2869775,-1.0461841,1.9900535,1.9213852,-0.86194956,-0.55432856,-1.3939396,0.31549275,0.9425822,0.13312551,0.11311475,0.35246128,-0.51878357,-0.40544128,0.6232266,-0.6033492,0.101748005,-0.57908297,-0.50914764,-0.40535355,0.585449,0.9759165,0.081765145,0.17561592,0.10030162,-0.69881505,0.35666072,-0.47854593,0.0,1.0,0.0,0.0,0.0,0.0,0.0,-0.1312164,0.005441278,-0.07322657,14.994442,-1.322341,36.964016,-6.952858,19.450514,-3.8458421,-0.4697919
75.21373,87.229324,43.668415,2.1863203,0.4486872,-0.4135122,0.42158258,-0.16130523,-0.78371507,0.37321374,0.54491115,0.3289541,-0.048025273,0.4174198,0.18770204,-1.1470789,-2.2496562,-0.99169296,2.022949,1.9165826,-0.8202076,0.19942597,-1.0827093,-2.281744,-1.036934,1.9926908,1.9223386,-0.8584722,-0.40346265,-1.4028528,0.5954214,0.9188669,0.3051082,0.089489914,0.34585994,-0.5242691,-0.40471077,0.61798793,-0.531399,0.06390508,-0.5079324,-0.5155029,-0.40235138,0.5811523,0.9774481,0.07812626,0.17018935,0.097607,-0.61384445,0.2848764,-0.4160748,0.0,1.0,0.0,0.0,0.0,0.0,0.0,-0.12573087,0.0047107637,-0.06798792,14.882172,-1.0622025,28.695726,-2.426362,16.585499,-2.3181572,-0.7403314
49.261272,86.600945,35.61004,9.617452,1.0740656,-0.18387617,0.16748372,-0.16260906,-0.7630883,0.4350169,0.5520054,0.40510368,0.08863141,0.45149815,0.18316506,-1.1590182,-2.2382424,-0.9817335,2.0332012,1.9312017,-0.8133224,0.19618459,-1.096673,-2.2743604,-1.0276874,1.9968295,1.9231949,-0.8550339,-0.29792953,-1.3945692,0.78766537,0.9269945,0.4486694,0.08456051,0.34306085,-0.5291443,-0.404274,0.6133855,-0.47370026,0.037549496,-0.44852522,-0.52124786,-0.39982986,0.5774279,0.9790792,0.07295039,0.1641999,0.095500946,-0.56125087,0.2448216,-0.3606327,0.0,1.0,0.0,0.0,0.0,0.0,0.0,-0.12085569,0.004273981,-0.06338549,10.487276,0.672698,19.662142,0.91199875,13.987768,-0.39858222,-0.29244423
27.846834,80.84191,27.54881,13.29444,1.3886163,-0.029594094,0.020799786,-0.14509612,-0.757704,0.47874108,0.5299141,0.47998506,0.19376072,0.4615248,0.18167497,-1.1724434,-2.2264862,-0.97469604,2.044828,1.9425709,-0.8088814,0.19368722,-1.1104994,-2.265642,-1.0183649,2.0022423,1.9241031,-0.8516107,-0.2336272,-1.3792001,0.9006783,0.93455905,0.57137936,0.093288645,0.34224445,-0.5335388,-0.40402412,0.6092196,-0.43034497,0.021421324,-0.41007423,-0.5266495,-0.39752007,0.5741212,0.9807532,0.06664688,0.15783362,0.093647614,-0.5335979,0.2298217,-0.32397786,0.0,1.0,0.0,0.0,0.0,0.0,0.0,-0.11646116,0.004024118,-0.0592196,6.4470587,1.4179468,11.506057,0.9305239,12.121761,1.0063066,-0.025677681
20.339567,76.52027,23.296757,13.009331,1.1385903,-0.04890968,0.026541859,-0.09754386,-0.7417861,0.49771026,0.5028958,0.51426965,0.25832182,0.4575002,0.18393283,-1.184678,-2.2158709,-0.96807534,2.0536692,1.9499353,-0.8058607,0.19175006,-1.1241064,-2.2562704,-1.0090898,2.0086677,1.9251546,-0.8481935,-0.18031861,-1.3550136,0.9497604,0.9258017,0.66582316,0.10964401,0.34174493,-0.5375519,-0.40390968,0.6053344,-0.39334568,0.008811404,-0.38625753,-0.5318222,-0.3953209,0.57104874,0.98240894,0.05960888,0.15121984,0.091934144,-0.5110138,0.21955736,-0.3051513,0.0,1.0,0.0,0.0,0.0,0.0,0.0,-0.1124481,0.0039096773,-0.05533439,5.36181,2.319336,5.0086856,-0.677526,9.412849,1.7966211,0.042188168
