Afshin1997/kuka_rl_ros2/src/catch_and_throw/input_files/idealpd/recorded_trajectories/env_434_data.csv
torque0,torque1,torque2,torque3,torque4,torque5,torque6,action0,action1,action2,action3,action4,action5,action6,set_target_0,set_target_1,set_target_2,set_target_3,set_target_4,set_target_5,set_target_6,joint_pos_0,joint_pos_1,joint_pos_2,joint_pos_3,joint_pos_4,joint_pos_5,joint_pos_6,joint_vel_0,joint_vel_1,joint_vel_2,joint_vel_3,joint_vel_4,joint_vel_5,joint_vel_6,tennisball_pos_0,tennisball_pos_1,tennisball_pos_2,tennisball_lin_vel_0,tennisball_lin_vel_1,tennisball_lin_vel_2,end_effector_pos_0,end_effector_pos_1,end_effector_pos_2,end_effector_rot_0,end_effector_rot_1,end_effector_rot_2,end_effector_rot_3,end_effector_lin_vel_0,end_effector_lin_vel_1,end_effector_lin_vel_2,obs_task_0,obs_task_1,obs_task_2,obs_task_3,obs_task_4,obs_task_5,obs_task_6,to_final_target_0,to_final_target_1,to_final_target_2,joint_acc_0,joint_acc_1,joint_acc_2,joint_acc_3,joint_acc_4,joint_acc_5,joint_acc_6
0.0,0.0,0.0,0.0,0.0,0.0,0.0,0.0,0.0,0.0,0.0,0.0,0.0,0.0,1.7802359,-1.0646509,-1.8151424,-1.1170107,1.9373155,1.1170107,-0.91629785,1.7802359,-1.0646509,-1.8151424,-1.1170107,1.9373155,1.1170107,-0.91629785,0.0,0.0,0.0,0.0,0.0,0.0,0.0,3.289772,-0.43727875,0.1883724,-3.0971005,-0.19349614,5.5932593,0.5304184,-0.45449448,0.693097,0.5745483,0.17512383,0.15255436,0.7848268,0.0,0.0,0.0,1.0,0.0,0.0,0.0,0.0,0.0,0.0,-3.9397721,0.03727874,0.3616276,0.0,0.0,0.0,0.0,0.0,0.0,0.0
0.0,0.0,0.0,0.0,0.0,0.0,0.0,0.0,0.0,0.0,0.0,0.0,0.0,0.0,1.7802359,-1.0646509,-1.8151424,-1.1170107,1.9373155,1.1170107,-0.91629785,1.7802359,-1.0646509,-1.8151424,-1.1170107,1.9373155,1.1170107,-0.91629785,0.0,0.0,0.0,0.0,0.0,0.0,0.0,3.289772,-0.43727875,0.1883724,-3.0971005,-0.19349614,5.5932593,0.5304184,-0.45449448,0.693097,0.5745483,0.17512383,0.15255436,0.7848268,0.0,0.0,0.0,1.0,0.0,0.0,0.0,0.0,0.0,0.0,-3.9397721,0.03727874,0.3616276,0.0,0.0,0.0,0.0,0.0,0.0,0.0
0.0,0.0,0.0,0.0,0.0,0.0,0.0,0.0,0.0,0.0,0.0,0.0,0.0,0.0,1.7802359,-1.0646509,-1.8151424,-1.1170107,1.9373155,1.1170107,-0.91629785,1.7802359,-1.0646509,-1.8151424,-1.1170107,1.9373155,1.1170107,-0.91629785,0.0,0.0,0.0,0.0,0.0,0.0,0.0,3.289772,-0.43727875,0.1883724,-3.0971005,-0.19349614,5.5932593,0.5304184,-0.45449448,0.693097,0.5745483,0.17512383,0.15255436,0.7848268,0.0,0.0,0.0,1.0,0.0,0.0,0.0,0.0,0.0,0.0,-3.9397721,0.03727874,0.3616276,0.0,0.0,0.0,0.0,0.0,0.0,0.0
-176.0,48.53619,-13.694254,110.0,11.008085,4.085769,-3.7104259,-0.803173,0.24160586,-0.5368476,0.73078626,0.22804806,0.6776988,-0.6139398,1.6999186,-1.0404903,-1.8688271,-1.0439321,1.9601203,1.1847806,-0.9776918,1.7790705,-1.0628408,-1.8212993,-1.1110445,1.9414678,1.1224047,-0.9163837,-0.15498446,0.24054146,-0.8207038,0.79596305,0.55311733,0.71741194,-0.010949014,3.2588272,-0.43920898,0.24352658,-3.0940042,-0.19330268,5.489481,0.5282364,-0.45812225,0.69380593,0.57821566,0.1735854,0.15111764,0.7827504,-0.29086635,-0.4832266,0.09416636,1.0,0.0,0.0,0.0,0.0,0.0,0.0,-3.9088273,0.03920898,0.30647343,-15.377612,23.857756,-81.99867,79.75784,55.129475,71.237404,-0.9173183
-176.0,-49.112537,-50.14733,102.026855,11.609744,0.60275793,-3.0702207,-0.79590267,-0.282698,-0.54291916,0.69473153,0.4032421,0.6469573,-0.60771185,1.6994802,-1.0911106,-1.8755913,-1.0415714,1.981792,1.1871004,-0.97715485,1.7773501,-1.0612768,-1.8361671,-1.0955912,1.9494424,1.1351305,-0.9148597,-0.17491244,0.12672028,-1.7104238,1.7988657,0.8793598,1.4520613,0.21015759,3.227913,-0.44113922,0.29764375,-3.0909107,-0.19310942,5.385806,0.52345276,-0.46723938,0.694215,0.586205,0.1704119,0.14759837,0.7781633,-0.54259026,-1.0533813,0.023846552,1.0,0.0,0.0,0.0,0.0,0.0,0.0,-3.877913,0.041139215,0.25235626,-1.2199134,-11.873174,-89.44731,101.46287,32.71636,71.74918,23.104996
-143.40201,97.13233,28.045897,82.68495,7.9939785,7.336811,-1.543169,-0.7641006,0.15422381,0.22921056,0.6572109,0.48783246,0.6885916,-0.55566305,1.70094,-1.0458544,-1.813246,-1.0298702,1.9982257,1.2039897,-0.970426,1.7723261,-1.0598081,-1.8504837,-1.0760638,1.9587426,1.1495081,-0.91316885,-0.61142474,0.1508589,-1.3323846,2.005718,0.9415565,1.4271502,0.15471213,3.197029,-0.44306946,0.35072497,-3.0878205,-0.19291635,5.282235,0.5157318,-0.47929382,0.69605106,0.596784,0.16575538,0.14230888,0.7720894,-0.8562729,-1.2489231,0.24073264,1.0,0.0,0.0,0.0,0.0,0.0,0.0,-3.8470292,0.043069452,0.19927505,-43.621593,1.5281647,39.716316,21.18392,4.563272,-4.289484,-5.74362
-93.06795,70.96291,28.23956,46.516148,5.2925463,6.3258014,0.062594935,-0.7723814,-0.15566844,0.28487858,0.66245556,0.4914824,0.66835743,-0.59063625,1.6950879,-1.075375,-1.8219959,-1.0098182,2.007891,1.2163439,-0.97223246,1.7630354,-1.0594648,-1.8584716,-1.0569407,1.9678731,1.1628996,-0.9122228,-1.0353601,-0.0060072537,-0.6145073,1.8820975,0.89794856,1.3070843,0.07415757,3.1661758,-0.4449997,0.40277123,-3.0847332,-0.19272347,5.1787677,0.5054512,-0.49230957,0.6993893,0.60804385,0.1600116,0.13505548,0.76579297,-1.0971855,-1.3071135,0.36821297,1.0,0.0,0.0,0.0,0.0,0.0,0.0,-3.816176,0.04499969,0.14722878,-42.53163,-16.166979,73.71979,-12.032914,-6.0372353,-12.850738,-8.186814
-36.69114,112.7389,47.283222,24.8415,2.3053856,6.5738134,0.7023437,-0.79627585,0.054578353,0.3556746,0.63637686,0.61323607,0.6533782,-0.60168874,1.6834078,-1.0540069,-1.8229042,-0.993303,2.0291967,1.2282374,-0.97239166,1.7502543,-1.0596765,-1.8591049,-1.0402685,1.9766736,1.1749331,-0.9121265,-1.3598589,-0.027688885,0.12636036,1.5953075,0.86981326,1.1677234,-0.013557556,3.135353,-0.4469223,0.4537836,-3.0816493,-0.19253078,5.0754037,0.4933281,-0.504776,0.7042361,0.61884063,0.153207,0.12617038,0.76002944,-1.2637322,-1.2142076,0.52382326,1.0,0.0,0.0,0.0,0.0,0.0,0.0,-3.7853532,0.046922296,0.09621641,-32.71444,-2.6068087,75.82952,-28.778576,-4.094517,-14.24768,-9.280571
-4.810788,98.51526,39.08436,9.726276,0.42522123,4.3030057,0.6584712,-0.80165464,0.039185252,0.29500327,0.6454381,0.6067713,0.642193,-0.6189578,1.6700888,-1.055758,-1.8296045,-0.97572476,2.0373507,1.2391524,-0.97402227,1.7353293,-1.059873,-1.8543136,-1.0263182,1.9852433,1.1856905,-0.9128379,-1.5374799,-0.017972313,0.5999971,1.3279742,0.85051024,1.0454513,-0.09173514,3.1045609,-0.4488449,0.50376314,-3.0785682,-0.19233829,4.9721427,0.48018646,-0.51612854,0.7100982,0.62885815,0.14572717,0.11640954,0.7548178,-1.3441014,-1.0969927,0.6045158,1.0,0.0,0.0,0.0,0.0,0.0,0.0,-3.754561,0.048844904,0.046236873,-17.937447,0.6941628,48.332127,-26.870323,-2.539754,-12.098098,-8.238995
20.608402,141.86266,50.01985,7.949113,-1.503388,4.164689,0.10698118,-0.8078291,0.34867465,0.24870683,0.6236657,0.5698677,0.6688367,-0.60813916,1.6545464,-1.0250056,-1.829443,-0.96395165,2.0422301,1.2525742,-0.9736518,1.7195116,-1.0583795,-1.8469474,-1.0144945,1.9935975,1.195397,-0.91424173,-1.5971589,0.20420396,0.78444535,1.133684,0.82977855,0.9469833,-0.15850575,3.0737991,-0.45076752,0.55271083,-3.0754902,-0.19214599,4.8689857,0.4666252,-0.52586365,0.7171162,0.6383356,0.13757119,0.107061304,0.7497598,-1.3714938,-0.92056966,0.73068446,1.0,0.0,0.0,0.0,0.0,0.0,0.0,-3.7237992,0.05076751,-0.0027108192,-6.180525,21.899195,19.134068,-19.480492,-2.2708774,-9.505379,-7.2494507
26.724154,142.75505,45.81838,7.302383,-2.212155,3.1047745,-0.309431,-0.8191495,0.4523297,0.17469157,0.59655774,0.56728333,0.64962584,-0.61854744,1.6375967,-1.0131465,-1.8294783,-0.95483875,2.0503259,1.2603596,-0.97609645,1.7036082,-1.0541776,-1.8395202,-1.0040213,2.0017953,1.2042395,-0.9162311,-1.5888745,0.491241,0.73029315,1.018567,0.81645584,0.8645492,-0.21391861,3.043068,-0.45269012,0.6006277,-3.0724154,-0.19195388,4.7659316,0.4530487,-0.53388596,0.72525686,0.6476254,0.12888922,0.099064946,0.74441594,-1.3632689,-0.75166166,0.8381622,1.0,0.0,0.0,0.0,0.0,0.0,0.0,-3.693068,0.05269012,-0.05062771,0.6160259,28.446287,-4.973519,-11.478138,-1.3353348,-7.891965,-6.001809
27.306093,139.5528,42.824905,8.223608,-2.2219696,2.5816755,-0.46304998,-0.8228257,0.56192195,0.16396938,0.57367635,0.59602165,0.6539046,-0.6014523,1.6213256,-0.9979854,-1.8231233,-0.94665366,2.0613976,1.26963,-0.9763763,1.6880041,-1.0470327,-1.8333633,-0.9942483,2.009993,1.2123648,-0.9186849,-1.5515652,0.7879901,0.5786006,0.96367675,0.8210821,0.79590255,-0.25705475,3.0123672,-0.4546051,0.6475148,-3.0693436,-0.19176197,4.6629806,0.4396248,-0.54034424,0.73441017,0.6569441,0.11983341,0.09272214,0.7385573,-1.3428342,-0.5977219,0.93767864,1.0,0.0,0.0,0.0,0.0,0.0,0.0,-3.6623673,0.054605097,-0.09751481,3.5267115,29.45478,-14.801037,-5.445707,0.49521923,-6.6477895,-4.6871214
25.277143,125.88429,37.959366,8.57868,-1.8320823,2.1153753,-0.4365242,-0.8086133,0.63496834,0.15310268,0.5731295,0.6103614,0.64968866,-0.58372545,1.6071428,-0.9835359,-1.818053,-0.9369353,2.0710292,1.2773336,-0.97705746,1.6728636,-1.0372881,-1.8287933,-0.9846753,2.018313,1.2198836,-0.9214925,-1.5021366,1.0359458,0.41779897,0.9551907,0.83571094,0.73738796,-0.28963566,2.981697,-0.45652008,0.6933732,-3.066275,-0.19157024,4.5601325,0.42640686,-0.5454483,0.744422,0.6663529,0.11050093,0.087875284,0.7321484,-1.3203378,-0.46811667,1.0194734,1.0,0.0,0.0,0.0,0.0,0.0,0.0,-3.6316972,0.056520075,-0.14337319,4.762268,24.611341,-15.732813,-0.85639954,1.4775515,-5.7880044,-3.5750687
20.78752,104.87355,30.82416,7.8945146,-1.3554466,1.5699066,-0.34699294,-0.79818803,0.6828904,0.10363079,0.5622922,0.6220343,0.6617678,-0.5829185,1.5930448,-0.968999,-1.8184302,-0.92844605,2.0805163,1.2860603,-0.97978437,1.6581885,-1.0256113,-1.8257301,-0.97505844,2.026816,1.2268969,-0.92457384,-1.4564602,1.211274,0.2702047,0.9635923,0.8550781,0.68943095,-0.31525946,2.9510574,-0.45843506,0.7382039,-3.063209,-0.19137871,4.4573874,0.41339493,-0.54948425,0.7550069,0.67582667,0.101031914,0.084198534,0.72523195,-1.2995193,-0.3674088,1.0690049,1.0,0.0,0.0,0.0,0.0,0.0,0.0,-3.6010575,0.058435053,-0.18820387,4.408717,17.392445,-14.448177,0.74836016,1.9528389,-4.800451,-2.8441012
14.289135,83.45538,23.664173,7.595074,-0.82224953,1.1109968,-0.25343373,-0.7963828,0.709287,0.058185138,0.5568334,0.6268958,0.6640191,-0.5737711,1.5785502,-0.9546826,-1.8199116,-0.9193751,2.0895054,1.2932988,-0.98195094,1.6438586,-1.0127367,-1.823941,-0.9653338,2.0354981,1.2334963,-0.9278659,-1.4256845,1.3125474,0.14935878,0.97482973,0.87316513,0.650128,-0.3347567,2.9204483,-0.46035004,0.7820078,-3.0601466,-0.19118737,4.3547444,0.4005394,-0.5527458,0.76584274,0.6853171,0.091577664,0.08134695,0.7178695,-1.2848828,-0.29609254,1.0860387,1.0,0.0,0.0,0.0,0.0,0.0,0.0,-3.5704484,0.06035003,-0.2320078,2.9382467,10.031509,-11.814645,0.9572387,1.8401027,-3.9408803,-2.207464
10.7227125,66.437515,18.281885,6.495595,-0.4800959,0.74581754,-0.1431588,-0.78754246,0.72055304,0.022534788,0.54675454,0.628937,0.666035,-0.57697135,1.5651042,-0.9406814,-1.8216875,-0.91065836,2.0983918,1.3000998,-0.98556304,1.6297556,-0.9993031,-1.8231323,-0.95555866,2.044333,1.2397581,-0.9313268,-1.405546,1.3535994,0.058780093,0.97764206,0.8871097,0.6185231,-0.35068455,2.8898697,-0.4622574,0.8247861,-3.057087,-0.19099623,4.2522044,0.38779068,-0.5554352,0.77664816,0.69474965,0.08226326,0.07902097,0.71014875,-1.2726445,-0.24484736,1.0767145,1.0,0.0,0.0,0.0,0.0,0.0,0.0,-3.5398698,0.06225738,-0.2747861,1.8874407,4.0462017,-8.808685,0.05608797,1.4400601,-3.1291485,-1.8462896
8.644249,57.29943,15.769481,6.014275,-0.23780337,0.6238769,-0.03577986,-0.78535515,0.72623795,0.014297361,0.53561735,0.62827224,0.66966075,-0.5717453,1.55122,-0.9266793,-1.8217026,-0.9019969,2.10716,1.3067242,-0.9885013,1.6157728,-0.9857447,-1.822932,-0.9458369,2.053267,1.2457529,-0.9349212,-1.396093,1.356463,0.007835626,0.9694795,0.89574474,0.593346,-0.3631782,2.8593216,-0.46416473,0.86653984,-3.0540307,-0.19080527,4.149767,0.37514877,-0.5576973,0.78727067,0.7040417,0.073125325,0.076989524,0.7021756,-1.2636954,-0.2035766,1.0554601,1.0,0.0,0.0,0.0,0.0,0.0,0.0,-3.5093217,0.06416473,-0.31653982,0.8220434,0.24592876,-4.827572,-1.065433,0.90533495,-2.4597764,-1.5075326
7.518434,52.38152,14.156539,5.6270323,-0.16019976,0.51390743,0.012823638,-0.78400636,0.73157144,-0.020824606,0.51982385,0.63159364,0.6788707,-0.57507,1.5373722,-0.9125876,-1.8250145,-0.8938545,2.1164265,1.31364,-0.9924282,1.601832,-0.97227883,-1.8231494,-0.93628585,2.0622697,1.2515398,-0.9386253,-1.3937484,1.3432107,-0.03070103,0.94955707,0.9014564,0.57408094,-0.37360036,2.828804,-0.46607208,0.9072699,-3.0509772,-0.1906145,4.047432,0.36258698,-0.55958176,0.7976195,0.713142,0.06418877,0.07514254,0.69401854,-1.2548032,-0.16743405,1.0262418,1.0,0.0,0.0,0.0,0.0,0.0,0.0,-3.478804,0.06607208,-0.35726988,0.11050701,-1.3539553,-3.5829213,-2.2533655,0.61432123,-1.8427372,-1.2962043
9.7432995,56.313282,16.14165,5.277834,-0.18283728,0.6889963,0.12785378,-0.7855429,0.74023175,0.011658137,0.48975846,0.64408475,0.67460436,-0.5781581,1.5232778,-0.89825565,-1.8219836,-0.88731,2.1266782,1.3190002,-0.99644107,1.587876,-0.9589379,-1.8234355,-0.92705905,2.071341,1.2571589,-0.94242185,-1.3967489,1.3309155,-0.02683862,0.91278934,0.909051,0.5580248,-0.3826808,2.798317,-0.46797943,0.9469774,-3.047927,-0.19042394,3.9451997,0.35011673,-0.56103516,0.8077417,0.72196394,0.05538632,0.073382206,0.68579537,-1.2454118,-0.12240872,1.0056801,1.0,0.0,0.0,0.0,0.0,0.0,0.0,-3.448317,0.067979425,-0.39697737,-0.441885,-1.2668848,0.7366359,-3.9302707,0.76863766,-1.5328646,-1.1833489
13.355639,61.191948,18.209587,4.692561,-0.30155092,0.8017143,0.21469367,-0.77732676,0.74702495,0.0283604,0.4672667,0.65148264,0.6760473,-0.57179105,1.5101433,-0.8842354,-1.8205996,-0.8803324,2.1364894,1.3247637,-0.99960095,1.5739161,-0.94566464,-1.8234928,-0.91826046,2.0804963,1.2626406,-0.9462947,-1.3961647,1.3260474,0.0025536346,0.86805904,0.917519,0.54503405,-0.3897678,2.7678604,-0.46987915,0.98566335,-3.0448797,-0.19023354,3.8430696,0.33776474,-0.5619621,0.81772304,0.7304247,0.046628837,0.07164648,0.6776225,-1.2315205,-0.067449264,0.99374986,1.0,0.0,0.0,0.0,0.0,0.0,0.0,-3.4178605,0.069879144,-0.43566334,-0.091576576,-0.5297661,3.3366787,-4.7147036,0.8397937,-1.2257457,-1.0000825
15.273432,64.360016,19.202877,4.4050665,-0.42230982,0.82783765,0.25290582,-0.77737635,0.7548207,0.034617905,0.43787283,0.6516331,0.6779831,-0.5556148,1.4961784,-0.8701826,-1.8200309,-0.87447315,2.1456597,1.3304389,-1.0018562,1.5599657,-0.9323704,-1.8232086,-0.9099616,2.0897202,1.2680117,-0.9502172,-1.3951188,1.3304203,0.038389165,0.8164178,0.92411727,0.5346853,-0.39397007,2.7374344,-0.47177887,1.0233288,-3.0418353,-0.19004336,3.7410414,0.3255806,-0.5622864,0.8276174,0.73847914,0.03786537,0.069948345,0.66956854,-1.213301,-0.0064833607,0.9859082,1.0,0.0,0.0,0.0,0.0,0.0,0.0,-3.3874345,0.07177886,-0.47332877,-0.049567223,0.3938675,3.9940386,-5.394876,0.6523371,-0.95186234,-0.71157813
18.822588,65.81964,19.646189,2.8473372,-0.64599234,0.7320281,0.31548798,-0.7698866,0.7614293,0.04657492,0.3908237,0.65825087,0.6784426,-0.5465368,1.482977,-0.8562275,-1.8185511,-0.87087923,2.1555452,1.335856,-1.0048709,1.5460612,-0.91898274,-1.8225696,-0.90228736,2.0990129,1.273297,-0.95416635,-1.3892499,1.3413762,0.07362574,0.7503843,0.93109787,0.5267393,-0.39619374,2.7070389,-0.4736786,1.0599748,-3.0387943,-0.18985336,3.6391153,0.31365204,-0.5619583,0.8374272,0.7460777,0.029096851,0.068324104,0.6617048,-1.1853046,0.06013379,0.9768153,1.0,0.0,0.0,0.0,0.0,0.0,0.0,-3.357039,0.07367858,-0.5099748,0.43354034,1.0604382,3.928213,-6.8317056,0.6993532,-0.66821575,-0.51006675
24.1997,67.52685,20.377468,-0.34622574,-1.0073237,0.60643256,0.46371043,-0.7715304,0.7740309,0.08481434,0.29494062,0.67426574,0.66645044,-0.53632945,1.4689081,-0.8415797,-1.8140882,-0.8727933,2.1664395,1.339942,-1.0077993,1.5322062,-0.905432,-1.8214881,-0.8955916,2.1084085,1.2785078,-0.95812505,-1.3848381,1.359594,0.12098175,0.6418821,0.94257367,0.51995236,-0.39671183,2.676674,-0.4755783,1.0956023,-3.035756,-0.18966353,3.5372913,0.30210876,-0.5608864,0.8471113,0.7531093,0.020378357,0.06680655,0.65417725,-1.1420224,0.13676584,0.96294254,1.0,0.0,0.0,0.0,0.0,0.0,0.0,-3.326674,0.0755783,-0.54560226,0.2781868,1.7986059,5.157292,-11.082077,1.1501193,-0.4714012,-0.33618212
25.242455,64.400024,19.053272,-1.5718565,-1.111957,0.36660528,0.4858618,-0.76751685,0.7762054,0.08632839,0.24207975,0.6824361,0.66834426,-0.52321434,1.4554545,-0.8278114,-1.8128552,-0.87138367,2.176652,1.3453423,-1.0104465,1.5184027,-0.8917115,-1.8200233,-0.8900641,2.1179338,1.2836634,-0.9620761,-1.3793519,1.376121,0.15619424,0.52226675,0.95574415,0.5151168,-0.39529976,2.6463394,-0.4774704,1.1302122,-3.0327208,-0.18947391,3.4355688,0.29105377,-0.5590782,0.8565985,0.75953996,0.011786225,0.06542788,0.6470543,-1.0908204,0.20849156,0.9408229,1.0,0.0,0.0,0.0,0.0,0.0,0.0,-3.2963395,0.07747039,-0.5802122,0.4023075,1.6516447,3.8758337,-12.187731,1.3548851,-0.22045374,-0.11245012
27.949636,64.93979,19.6351,-2.9019442,-1.2123156,0.31006163,0.58958566,-0.7675479,0.7811487,0.1569014,0.15809855,0.68919116,0.6644872,-0.5191994,1.4416479,-0.8135966,-1.8043332,-0.8742543,2.186853,1.3501121,-1.0139961,1.5046412,-0.87784505,-1.8179939,-0.88586795,2.1275887,1.2887789,-0.9660081,-1.3754898,1.3901842,0.21973607,0.38465297,0.9689523,0.5113904,-0.3932482,2.6160355,-0.4793625,1.1638057,-3.0296888,-0.18928447,3.3339481,0.2805519,-0.55653,0.8658653,0.76531255,0.0033366452,0.06415386,0.640445,-1.032851,0.28310284,0.91851366,1.0,0.0,0.0,0.0,0.0,0.0,0.0,-3.2660356,0.07936248,-0.6138057,0.25279522,1.4207602,6.6799016,-13.963837,1.3807893,-0.06467104,-0.031465292
37.20512,63.47831,19.73028,-9.3306055,-1.8418369,-0.03706792,0.83917844,-0.7595177,0.7883575,0.20903802,-0.020019606,0.69488436,0.65857285,-0.5051887,1.4286894,-0.7990093,-1.79709,-0.8878699,2.1970773,1.3546362,-1.0165269,1.4909426,-0.863848,-1.8151863,-0.8835753,2.1373658,1.2938658,-0.96990865,-1.3681918,1.4030694,0.30208766,0.17676677,0.98099405,0.5093674,-0.38969937,2.585762,-0.48125458,1.1963837,-3.0266597,-0.18909523,3.232429,0.27084732,-0.55314255,0.87479424,0.7702533,-0.0048482474,0.06300731,0.6345993,-0.94612306,0.36756098,0.8805902,1.0,0.0,0.0,0.0,0.0,0.0,0.0,-3.2357621,0.08125457,-0.6463837,0.61819553,1.3287544,8.525533,-20.975552,1.2835622,0.2572775,0.14632344
41.04956,61.69129,19.234558,-12.1077585,-2.1239839,-0.31455797,0.9324709,-0.7512642,0.79634273,0.24407442,-0.13701843,0.69576555,0.6492751,-0.4782657,1.4158162,-0.7842137,-1.7907789,-0.8972772,2.2069423,1.3587933,-1.0177352,1.477347,-0.8497212,-1.8115451,-0.8835591,2.147242,1.2989336,-0.97375387,-1.3567394,1.4161005,0.38544,-0.057193615,0.99028367,0.50772756,-0.38328972,2.555519,-0.48314667,1.2279472,-3.0236337,-0.18890618,3.1310115,0.26210403,-0.54891586,0.8832855,0.7742695,-0.012652424,0.062040444,0.6296805,-0.8442436,0.45085508,0.83443356,1.0,0.0,0.0,0.0,0.0,0.0,0.0,-3.2055192,0.08314666,-0.6779472,1.0797262,1.3695478,8.512658,-23.5387,1.061964,0.36979914,0.48698187
41.781326,61.521896,19.40604,-12.223349,-2.1166394,-0.40680957,0.97002995,-0.74508363,0.80065536,0.31493285,-0.24154665,0.69761,0.64012057,-0.44971544,1.4028387,-0.76965564,-1.7800518,-0.9077138,2.217003,1.3629457,-1.0187254,1.4638811,-0.8354771,-1.8069484,-0.88586986,2.1571946,1.3039824,-0.97751516,-1.343117,1.427475,0.4845224,-0.2892507,0.99761105,0.50572354,-0.37406713,2.5253067,-0.48503113,1.2584975,-3.0206108,-0.1887173,3.0296955,0.2544098,-0.54387283,0.8913294,0.7773428,-0.02005777,0.061241366,0.6257678,-0.73953605,0.5310787,0.78966814,1.0,0.0,0.0,0.0,0.0,0.0,0.0,-3.1753068,0.08503112,-0.70849746,1.3473272,1.2259722,9.954429,-23.288643,0.93830824,0.3471136,0.8204222
35.41954,61.77588,19.413507,-6.454727,-1.5225437,-0.26611474,0.7949432,-0.7241765,0.80051416,0.36651063,-0.23896956,0.69354755,0.6377873,-0.38933557,1.3914635,-0.7554257,-1.7702974,-0.9097668,2.2265494,1.3677611,-1.0164487,1.450627,-0.8211529,-1.8013465,-0.8898896,2.167193,1.3090082,-0.9811439,-1.3195969,1.434441,0.5850223,-0.43965054,1.0015355,0.5029836,-0.3594181,2.4951248,-0.4869156,1.2880352,-3.0175908,-0.18852863,2.9284806,0.2475853,-0.53811264,0.8990552,0.7796005,-0.027212597,0.060520913,0.6227517,-0.6563238,0.5977334,0.76174766,1.0,0.0,0.0,0.0,0.0,0.0,0.0,-3.145125,0.08691558,-0.73803514,2.380252,0.80702305,9.93259,-15.087008,0.6989002,0.19524097,1.3920605
28.798851,63.233284,19.893822,-0.9451661,-0.97235054,-0.034711633,0.6591704,-0.7212104,0.8047284,0.44396204,-0.27138686,0.69423604,0.62489283,-0.3397386,1.378506,-0.7406801,-1.7569504,-0.9170283,2.2366166,1.3714975,-1.0151178,1.4375883,-0.8067696,-1.7946327,-0.8949536,2.177218,1.313994,-0.98459715,-1.2986629,1.4400885,0.69947606,-0.52866316,1.0043832,0.4985423,-0.34093106,2.4649734,-0.48880005,1.3165615,-3.0145738,-0.18834014,2.8273668,0.24142838,-0.53173447,0.9066289,0.78118193,-0.03430255,0.05977124,0.62048805,-0.59556335,0.65679187,0.750378,1.0,0.0,0.0,0.0,0.0,0.0,0.0,-3.1149735,0.08880004,-0.76656145,2.131343,0.6904125,11.22818,-8.928704,0.6705284,-0.043475628,1.7915308
17.933659,62.757698,19.31903,7.25356,-0.16472036,0.2513551,0.39425886,-0.71358514,0.80463225,0.48686972,-0.21463099,0.68695027,0.6199348,-0.26106203,1.3662298,-0.7263064,-1.7459457,-0.9164167,2.245913,1.3759875,-1.0107033,1.4247366,-0.79235005,-1.7868392,-0.90019405,2.187243,1.3189303,-0.9878225,-1.2805578,1.4430151,0.80490434,-0.52260673,1.0036224,0.49289715,-0.31657496,2.4348526,-0.4906845,1.3440775,-3.01156,-0.18815184,2.7263541,0.23562622,-0.52487564,0.9142375,0.7822918,-0.041548274,0.058896314,0.6187281,-0.5687362,0.7011774,0.7583867,1.0,0.0,0.0,0.0,0.0,0.0,0.0,-3.0848527,0.0906845,-0.79407746,1.8298388,0.43234825,10.260666,0.55582523,0.36933422,-0.26690364,2.372551
7.3762536,58.56407,17.210371,13.688528,0.49310076,0.3776993,0.13577545,-0.7170592,0.8015376,0.50345856,-0.16449258,0.68413144,0.62161535,-0.20732373,1.3530307,-0.7121963,-1.7364933,-0.9166433,2.2556562,1.3810918,-1.0085548,1.4119917,-0.77793145,-1.7782066,-0.90486705,2.197249,1.3238112,-0.9907827,-1.2725646,1.4419814,0.8818576,-0.4491055,1.0009574,0.4870683,-0.2894397,2.4047623,-0.49256134,1.3705841,-3.008549,-0.18796372,2.6254425,0.22986603,-0.51769257,0.9219881,0.7831544,-0.049083535,0.057860784,0.61718076,-0.56997013,0.7287618,0.7743483,1.0,0.0,0.0,0.0,0.0,0.0,0.0,-3.0547624,0.092561334,-0.8205841,0.77888966,0.040388107,7.4218035,7.256073,0.17666817,-0.37593246,2.6416123
-5.917471,53.370483,14.354851,21.65391,1.2841787,0.5448771,-0.215191,-0.73189616,0.8020818,0.49057037,-0.048123255,0.6829197,0.6291468,-0.17441261,1.3388021,-0.69772327,-1.7291496,-0.90967935,2.2655408,1.3867259,-1.0082239,1.3992049,-0.76353,-1.7691467,-0.90821636,2.2072244,1.3286368,-0.9934711,-1.2810407,1.4400496,0.91328615,-0.29731965,0.99769855,0.48146647,-0.26230592,2.3747025,-0.49443817,1.3960824,-3.0055408,-0.1877758,2.524632,0.2238388,-0.51039886,0.9299673,0.78405124,-0.057017285,0.056670386,0.6154682,-0.6060798,0.73608196,0.79936284,1.0,0.0,0.0,0.0,0.0,0.0,0.0,-3.0247025,0.094438165,-0.8460824,-0.93331337,-0.046634674,2.901578,15.022641,0.10672808,-0.47431588,2.6329637
-15.264848,47.027615,11.455717,26.2736,1.7783314,0.59970903,-0.45181552,-0.75779086,0.7943341,0.48600423,0.041023098,0.6768762,0.64103806,-0.18374853,1.3234258,-0.6840966,-1.7205462,-0.90411407,2.2749119,1.3927406,-1.011846,1.3861815,-0.74918485,-1.7600124,-0.9097804,2.217154,1.3334166,-0.995923,-1.3099647,1.4332384,0.9129367,-0.110111386,0.99234295,0.47694293,-0.23979141,2.3446732,-0.496315,1.4205734,-3.002536,-0.18758807,2.423922,0.21728516,-0.5031357,0.9381952,0.7852077,-0.06539389,0.05534613,0.61327744,-0.6645369,0.72880495,0.82401586,1.0,0.0,0.0,0.0,0.0,0.0,0.0,-2.9946733,0.096315,-0.87057334,-3.0304193,-0.54175854,-0.2313137,18.522198,-0.12458563,-0.45362115,2.1709232
-16.583267,45.3044,10.793913,27.29706,1.8451805,0.59586906,-0.5264143,-0.7584864,0.7935101,0.48307106,0.13907984,0.67319846,0.6412575,-0.18691665,1.3103328,-0.66983384,-1.7117053,-0.8958724,2.284474,1.3975424,-1.0146147,1.3728758,-0.7349074,-1.7510059,-0.9093598,2.2270226,1.3381544,-0.9981803,-1.3378168,1.426399,0.89593977,0.09215526,0.98621064,0.47277525,-0.22133267,2.3146667,-0.49819183,1.444058,-2.9995341,-0.1874005,2.3233128,0.21010971,-0.49596405,0.94667125,0.78671193,-0.07423543,0.053911496,0.61046445,-0.7272684,0.7204782,0.84881055,1.0,0.0,0.0,0.0,0.0,0.0,0.0,-2.9646668,0.09819183,-0.8940579,-2.9191017,-0.5559921,-1.8824697,20.03918,-0.21907091,-0.4605949,1.7662942
-17.046783,43.484474,10.08417,27.256088,1.8161931,0.5589235,-0.5602332,-0.7767276,0.7919807,0.46342343,0.2346023,0.67526734,0.6482047,-0.19130827,1.2952031,-0.6557093,-1.7046635,-0.8858996,2.2945495,1.4029748,-1.0173112,1.3592688,-0.72069097,-1.7422798,-0.9069365,2.2368417,1.3428599,-1.000281,-1.3687835,1.4204174,0.86431193,0.29177406,0.98199266,0.46963197,-0.20651442,2.2846909,-0.50006485,1.4665371,-2.996535,-0.18721315,2.222804,0.20230103,-0.4888687,0.9553696,0.7885889,-0.08353155,0.052396107,0.6069635,-0.7905408,0.7128724,0.87005615,1.0,0.0,0.0,0.0,0.0,0.0,0.0,-2.934691,0.100064844,-0.9165371,-3.2294035,-0.48573017,-3.3210397,19.788906,-0.048041344,-0.38763285,1.4066607
-11.991845,41.67537,9.591951,22.94522,1.3653862,0.3142991,-0.45338053,-0.7847024,0.7886908,0.4365458,0.27529308,0.6722133,0.65608513,-0.19679067,1.2807986,-0.64182186,-1.6986252,-0.8794072,2.304063,1.4084684,-1.01996,1.345389,-0.7065337,-1.7339599,-0.9028472,2.2466226,1.3475462,-1.002257,-1.3946847,1.414528,0.82089233,0.44753355,0.97772527,0.46824795,-0.19489826,2.2547455,-0.50193405,1.4880121,-2.9935393,-0.18702598,2.122396,0.19400406,-0.48181534,0.96417785,0.790769,-0.093167886,0.050870363,0.60284024,-0.83521104,0.7107546,0.87768406,1.0,0.0,0.0,0.0,0.0,0.0,0.0,-2.9047456,0.101934046,-0.93801206,-2.7055264,-0.49865246,-4.4475794,15.420956,-0.10769367,-0.17175674,1.0864675
-4.2140923,41.964973,10.024166,16.963047,0.7343296,0.040951982,-0.26402855,-0.79050285,0.7881078,0.42693782,0.28603387,0.6711526,0.6596193,-0.22482832,1.2663387,-0.62772286,-1.6912662,-0.8742438,2.3137379,1.4135082,-1.0247399,1.3313051,-0.6924231,-1.7260425,-0.8976735,2.2563615,1.3522288,-1.0041548,-1.4135029,1.4101654,0.7821173,0.540103,0.9737017,0.46842486,-0.18832886,2.2248306,-0.50380325,1.5084838,-2.9905465,-0.18683898,2.0220883,0.18545914,-0.4747162,0.97295564,0.79310817,-0.10298785,0.0494186,0.5982731,-0.85317194,0.7185025,0.87101775,1.0,0.0,0.0,0.0,0.0,0.0,0.0,-2.8748307,0.10380325,-0.95848376,-1.9808769,-0.37033558,-3.9004087,9.121931,-0.15637875,0.06083846,0.57140887
7.6373715,39.545963,9.303724,6.0619516,-0.31751537,-0.5871909,0.04570522,-0.7965579,0.7862231,0.3925591,0.18394566,0.6790853,0.6560729,-0.26463315,1.2516494,-0.61380076,-1.6867867,-0.8792789,2.32427,1.4178361,-1.0306181,1.3170763,-0.6783507,-1.71856,-0.8924912,2.266089,1.3569208,-1.0060278,-1.4264733,1.4064863,0.73727095,0.5105005,0.9728296,0.4703917,-0.18747829,2.1949463,-0.50567245,1.527953,-2.9875565,-0.18665218,1.9218806,0.1770935,-0.4675026,0.9814361,0.79539675,-0.11265138,0.04818912,0.593575,-0.822672,0.73210984,0.8336485,1.0,0.0,0.0,0.0,0.0,0.0,0.0,-2.8449464,0.10567245,-0.977953,-1.3872862,-0.32265186,-4.3887496,-3.1002402,0.04891157,0.42819977,-0.0027775764
16.29134,42.1159,10.55218,-0.20183134,-0.9716988,-0.8869349,0.302191,-0.7945899,0.7898908,0.4033239,0.13716625,0.6770159,0.64411306,-0.21793692,1.2376174,-0.5993616,-1.6782275,-0.8787746,2.3337905,1.4213321,-1.0278215,1.3027807,-0.6642859,-1.7113674,-0.8881072,2.2758088,1.3616301,-1.0078684,-1.4308133,1.4066294,0.71390235,0.41400352,0.9716525,0.4721751,-0.18312874,2.1650925,-0.50753784,1.546421,-2.9845693,-0.18646558,1.8217732,0.1692543,-0.46007538,0.98946697,0.7974366,-0.12194208,0.047271546,0.58905894,-0.7619123,0.75414985,0.7863292,1.0,0.0,0.0,0.0,0.0,0.0,0.0,-2.8150926,0.107537836,-0.99642104,-0.49862862,0.049304962,-2.1754384,-9.7603855,-0.04746914,0.5051613,0.34077764
19.8367,44.11151,11.58367,-2.1977344,-1.1750181,-0.98413134,0.42487025,-0.79466057,0.78830653,0.41941538,0.10575438,0.6737745,0.644872,-0.19182198,1.2233146,-0.58545524,-1.6694258,-0.87753177,2.3431864,1.4261173,-1.0270506,1.2884814,-0.65021634,-1.7042186,-0.8848361,2.2855096,1.3663584,-1.009648,-1.4298291,1.4071472,0.71577287,0.29791564,0.9693626,0.47413513,-0.17652023,2.1352692,-0.5093994,1.5638887,-2.9815855,-0.18627915,1.7217658,0.16210556,-0.4524002,0.9970267,0.7991101,-0.13081464,0.046659857,0.5849216,-0.6905994,0.7798251,0.73942816,1.0,0.0,0.0,0.0,0.0,0.0,0.0,-2.7852693,0.10939941,-1.0138886,0.06313324,0.08993149,0.34415722,-11.685735,-0.17285347,0.54507256,0.5706698
18.203096,45.259262,12.215555,0.10935497,-0.9441975,-0.8847651,0.41567117,-0.79582083,0.7865685,0.43335,0.10618814,0.67041665,0.6457758,-0.11565682,1.2088993,-0.5715595,-1.6608837,-0.8742173,2.3525512,1.430936,-1.0212137,1.2742049,-0.6361468,-1.6969135,-0.8825129,2.2951798,1.371102,-1.0113093,-1.4270821,1.4069588,0.73596394,0.21024933,0.9663194,0.4754963,-0.16274704,2.1054764,-0.511261,1.580357,-2.9786046,-0.1860929,1.6218584,0.15559387,-0.44446945,1.0041915,0.8003987,-0.13935697,0.04628917,0.58120453,-0.6286421,0.80522877,0.7024941,1.0,0.0,0.0,0.0,0.0,0.0,0.0,-2.7554765,0.11126098,-1.0303569,0.2542734,0.030827522,2.1225333,-8.822929,-0.21060705,0.439018,1.2933671
15.112452,45.53414,12.508071,3.6628675,-0.5813153,-0.7422099,0.37245733,-0.78907984,0.7845465,0.444123,0.11845251,0.66803235,0.6462181,0.03129846,1.1952969,-0.5576921,-1.6525012,-0.8706677,2.361983,1.4357238,-1.0081794,1.2599894,-0.6220896,-1.689347,-0.88071716,2.3048196,1.3758551,-1.0127264,-1.4199,1.4054673,0.763786,0.16926917,0.96337837,0.47605768,-0.13518699,2.075714,-0.51312256,1.5958269,-2.9756265,-0.18590684,1.5220509,0.14959335,-0.43627167,1.011076,0.8013172,-0.14771642,0.0460751,0.5778819,-0.5819949,0.8289835,0.67742693,1.0,0.0,0.0,0.0,0.0,0.0,0.0,-2.7257142,0.11312255,-1.0458269,0.70638657,-0.086688995,2.8220057,-4.1480093,-0.14812946,0.30044317,2.6723862
10.633933,42.47315,11.357166,6.957708,-0.21999496,-0.68563795,0.27186263,-0.79170746,0.78012353,0.43260732,0.12669443,0.6625639,0.6500967,0.14795296,1.1808187,-0.5440773,-1.6460863,-0.8680477,2.3710759,1.4408648,-0.9979311,1.2458254,-0.60806775,-1.6815975,-0.8790444,2.3144212,1.3806139,-1.0137945,-1.4153185,1.4013151,0.7785365,0.16640608,0.9595191,0.47634217,-0.09763085,2.0459824,-0.5149803,1.6102995,-2.9726512,-0.18572098,1.4223431,0.14392853,-0.4278984,1.0177537,0.80193216,-0.15599158,0.04598124,0.5748539,-0.55071133,0.8458318,0.6581319,1.0,0.0,0.0,0.0,0.0,0.0,0.0,-2.6959825,0.11498031,-1.0602994,0.4304409,-0.34239292,1.4750361,-0.35785735,-0.1983285,0.22721887,3.6757514
7.614078,40.36484,10.60607,9.334628,0.013663232,-0.642874,0.19326654,-0.7897597,0.77657014,0.43412867,0.14260176,0.649807,0.6479422,0.22923547,1.1668495,-0.53041077,-1.6381845,-0.86478424,2.379402,1.4454081,-0.990871,1.2316996,-0.5941012,-1.6737659,-0.8771876,2.3239503,1.3853709,-1.0144526,-1.4117787,1.3954383,0.7848617,0.19180076,0.9516667,0.47594193,-0.055391055,2.0162811,-0.51683426,1.6237758,-2.9696794,-0.1855353,1.3227351,0.13850403,-0.4193802,1.0242733,0.8023098,-0.16424909,0.046003155,0.5720182,-0.53005373,0.8590126,0.6434938,1.0,0.0,0.0,0.0,0.0,0.0,0.0,-2.6662812,0.11683425,-1.0737758,0.31394958,-0.5085707,0.60943365,2.4535627,-0.5722165,0.12504458,4.145359
5.707328,37.455353,9.619056,10.5460415,0.18672794,-0.67826974,0.1402026,-0.7840604,0.7693137,0.42601505,0.16228624,0.6533222,0.63942343,0.29637375,1.1532935,-0.51716983,-1.6311644,-0.860959,2.3892825,1.4493132,-0.9848152,1.2176234,-0.5802176,-1.6659553,-0.87495315,2.3334184,1.3901163,-1.0146738,-1.4065084,1.3862901,0.7795684,0.23367947,0.9463639,0.47443646,-0.011347571,1.9866066,-0.5186882,1.6362568,-2.9667103,-0.18534979,1.2232267,0.13323975,-0.4107628,1.0306553,0.80249506,-0.17251673,0.04612403,0.5693086,-0.51573557,0.8669773,0.62997234,1.0,0.0,0.0,0.0,0.0,0.0,0.0,-2.6366067,0.118688196,-1.0862567,0.4841566,-0.83281994,-0.56631565,4.089567,-0.3099203,-0.0027179718,4.3262796
2.5939035,33.758408,8.30954,12.583154,0.43128252,-0.6736179,0.035108887,-0.7843143,0.7601421,0.40569264,0.20976758,0.64850366,0.641838,0.3295483,1.1391919,-0.5042034,-1.625386,-0.85397637,2.3982687,1.4543002,-0.981719,1.2035853,-0.5664542,-1.6583145,-0.8721274,2.3428407,1.3948466,-1.0144736,-1.4028901,1.3733842,0.7585597,0.29856846,0.94135165,0.47291604,0.03026247,1.9569588,-0.52054214,1.6477435,-2.9637442,-0.18516448,1.1238177,0.1280365,-0.40211105,1.0369172,0.80256224,-0.1808236,0.046324596,0.56661326,-0.51182765,0.86891854,0.6184844,1.0,0.0,0.0,0.0,0.0,0.0,0.0,-2.6069589,0.12054214,-1.0977435,0.30322075,-1.2047052,-2.1524668,6.3683567,-0.26222467,-0.032371283,4.0842
2.2103853,30.832165,7.163989,12.062946,0.37846452,-0.7958177,-0.004625052,-0.7794498,0.75302,0.3764614,0.22355522,0.6289204,0.6424706,0.35028458,1.1256403,-0.49115217,-1.6206683,-0.8497719,2.4057326,1.4590936,-0.9794451,1.1895949,-0.55283093,-1.651015,-0.86868656,2.3521638,1.3995615,-1.0138861,-1.3979272,1.3589001,0.7200388,0.35881057,0.93009084,0.4716768,0.06787793,1.9273415,-0.5223923,1.6582367,-2.9607809,-0.18497936,1.0245081,0.12289429,-0.39346695,1.0430359,0.8025671,-0.18913996,0.04665388,0.56385756,-0.5055209,0.866669,0.60324675,1.0,0.0,0.0,0.0,0.0,0.0,0.0,-2.5773416,0.12239227,-1.1082368,0.44178963,-1.3655424,-3.9018154,5.899346,-0.89981556,0.0018119812,3.6902964
4.4211845,31.102703,7.397519,10.25802,0.16168118,-0.8976599,0.060299493,-0.7681561,0.7446537,0.37887898,0.22836764,0.6013496,0.6390957,0.39064345,1.1127793,-0.47836557,-1.6131271,-0.8458498,2.4122987,1.463471,-0.97482175,1.1756979,-0.5393603,-1.6440475,-0.86477554,2.3613,1.404265,-1.0129362,-1.3869733,1.3433186,0.6891086,0.4015872,0.9087648,0.4705039,0.103615515,1.8977547,-0.5242386,1.6677377,-2.957821,-0.18479443,0.92529786,0.117889404,-0.3848343,1.0489793,0.8024888,-0.19742528,0.047160663,0.56108,-0.489865,0.86667114,0.58513397,1.0,0.0,0.0,0.0,0.0,0.0,0.0,-2.5477548,0.12423858,-1.1177378,1.0677338,-1.4825583,-3.1295538,4.175222,-1.9388318,0.027614832,3.5017476
7.914047,30.48927,7.0009937,5.8239574,-0.25023282,-1.1801498,0.17348948,-0.7728692,0.74028635,0.3618382,0.16845474,0.60052735,0.6356199,0.39020437,1.098411,-0.46533164,-1.6078637,-0.8479301,2.4213526,1.4678271,-0.9739158,1.1618773,-0.5260298,-1.6373756,-0.8608769,2.3702378,1.4089609,-1.0116717,-1.3804725,1.3298019,0.6599641,0.3856262,0.8892692,0.46980554,0.13398437,1.8681984,-0.5260849,1.6762474,-2.9548638,-0.18460967,0.8261868,0.11317825,-0.37622452,1.0546526,0.8022793,-0.20552403,0.04791243,0.55840147,-0.45404112,0.864337,0.55527925,1.0,0.0,0.0,0.0,0.0,0.0,0.0,-2.5181985,0.1260849,-1.1262474,0.63865185,-1.2872219,-2.9028058,-1.6746461,-1.8182158,0.13591051,2.9757545
10.653519,29.679188,6.882998,2.7226691,-0.4855284,-1.3800244,0.28855917,-0.76382846,0.72502184,0.36689126,0.13572899,0.5829233,0.6320342,0.4326144,1.0854944,-0.45352763,-1.6006864,-0.84730405,2.4285302,1.4721644,-0.96841025,1.1481405,-0.51286626,-1.630883,-0.8574141,2.3789659,1.4136492,-1.0101076,-1.3712316,1.3120469,0.64570117,0.33300567,0.8675239,0.46932045,0.1635417,1.8386726,-0.5279312,1.6837666,-2.9519095,-0.18442509,0.72717476,0.10893631,-0.36764526,1.0599753,0.80187494,-0.21330081,0.048933268,0.55597204,-0.40486404,0.8593201,0.51869816,1.0,0.0,0.0,0.0,0.0,0.0,0.0,-2.4886727,0.1279312,-1.1337667,0.9486437,-1.7148018,-1.4043331,-5.315721,-2.0879865,0.19773841,2.8995128
13.883543,29.792833,6.9052896,-1.0918751,-0.79703957,-1.6213522,0.41756156,-0.76179814,0.7175739,0.37275895,0.055649523,0.5796405,0.630262,0.44853082,1.0719607,-0.44110888,-1.5936071,-0.8518492,2.43693,1.4766754,-0.96525455,1.1344877,-0.49987912,-1.6244285,-0.8548478,2.3875031,1.4183336,-1.0082709,-1.3630133,1.2944986,0.6455706,0.23113364,0.84951717,0.46919715,0.1903686,1.8091774,-0.5297737,1.6902964,-2.9489582,-0.1842407,0.62826174,0.10532379,-0.35913086,1.0648694,0.8012125,-0.22061309,0.050238885,0.5539535,-0.3387538,0.85148865,0.4740399,1.0,0.0,0.0,0.0,0.0,0.0,0.0,-2.4591775,0.1297737,-1.1402965,0.88403225,-1.6985178,0.020515919,-10.204774,-1.764679,0.2760768,2.63907
13.17692,26.670868,6.0212555,-1.0470548,-0.6801747,-1.7160935,0.4081043,-0.7474885,0.69727314,0.36276075,0.03750376,0.5627082,0.6282048,0.4868187,1.0597389,-0.43015182,-1.5881524,-0.8510974,2.443774,1.4811541,-0.959589,1.1209646,-0.487118,-1.617976,-0.85327137,2.3958573,1.4230162,-1.006169,-1.3484663,1.2701741,0.6449618,0.13320948,0.8306596,0.46891248,0.21685284,1.7797127,-0.5316124,1.6958379,-2.9460096,-0.1840565,0.5294476,0.1023407,-0.35074234,1.069316,0.8002863,-0.22741574,0.05179882,0.55239546,-0.27486137,0.8366987,0.42939332,1.0,0.0,0.0,0.0,0.0,0.0,0.0,-2.4297128,0.13161239,-1.1458378,1.5486956,-2.3689747,-0.07761717,-9.807116,-1.8450499,0.25210977,2.612722
12.662215,25.106827,5.672169,-0.85420704,-0.5867603,-1.761756,0.41157183,-0.73906726,0.681824,0.37178022,-0.01116906,0.55227816,0.6313609,0.5158584,1.0470579,-0.4189356,-1.5807979,-0.8543883,2.451085,1.4861523,-0.9545831,1.1076056,-0.47462583,-1.6114795,-0.8526658,2.4040322,1.4276987,-1.0038077,-1.3314017,1.2424101,0.65099204,0.036306214,0.8130157,0.4688607,0.24242826,1.7502747,-0.5334511,1.7003919,-2.9430642,-0.18387249,0.43073234,0.09998703,-0.34252167,1.0733231,0.7991028,-0.23370944,0.05356918,0.5513119,-0.21324034,0.8185745,0.38597304,1.0,0.0,0.0,0.0,0.0,0.0,0.0,-2.4002748,0.13345107,-1.1503918,1.819253,-2.7088165,0.5531907,-9.699039,-1.7190814,0.2601266,2.5280328
13.048609,21.697208,4.455311,-2.8137393,-0.6507926,-1.9831083,0.43324155,-0.72953594,0.6619877,0.36181107,-0.10673608,0.54335916,0.6169563,0.5196042,1.034652,-0.40842706,-1.5752984,-0.86333936,2.458368,1.4893943,-0.95184726,1.0944296,-0.4624455,-1.6049716,-0.85321605,2.4120393,1.4323698,-1.0012156,-1.3125012,1.2101507,0.650569,-0.08552645,0.7966507,0.46749038,0.26474026,1.7208633,-0.53528976,1.7039596,-2.940122,-0.18368866,0.33211574,0.09830475,-0.33454514,1.0768487,0.7976802,-0.23939614,0.055544883,0.55073625,-0.14494595,0.79103976,0.33648977,1.0,0.0,0.0,0.0,0.0,0.0,0.0,-2.3708634,0.13528976,-1.1539595,2.044201,-3.1591654,-0.1206398,-12.177327,-1.6189933,0.13615489,2.2146285
10.758652,14.335394,2.0847218,-2.5756283,-0.42504212,-2.1314354,0.35841653,-0.7085489,0.62563616,0.3326197,-0.15152319,0.5170378,0.6256623,0.5329638,1.0235747,-0.39988187,-1.5717096,-0.8683684,2.463743,1.4949361,-0.9479192,1.0814997,-0.45068717,-1.5986183,-0.85494125,2.4198403,1.4370333,-0.99841833,-1.2858967,1.1646023,0.62990016,-0.2015766,0.7746974,0.46684074,0.28469965,1.6914825,-0.53712845,1.7065418,-2.9371824,-0.183505,0.23359774,0.09725952,-0.3269539,1.0798551,0.79608566,-0.24440661,0.057714004,0.5506197,-0.08254396,0.74909717,0.28403166,1.0,0.0,0.0,0.0,0.0,0.0,0.0,-2.3414826,0.13712844,-1.1565418,2.8469086,-4.4862747,-2.1914363,-11.620277,-2.1854877,0.19112825,1.9795179
9.156516,11.912887,0.9899325,-2.4610314,-0.3831364,-2.215979,0.30443144,-0.71559274,0.61329687,0.31267077,-0.23473312,0.5112022,0.6281559,0.5367118,1.0099404,-0.38935748,-1.5673512,-0.8784146,2.4709606,1.4998488,-0.94474715,1.0687529,-0.43936086,-1.5925663,-0.85791385,2.427443,1.441691,-0.99544287,-1.270284,1.122217,0.5965581,-0.32922015,0.7549575,0.46630654,0.30181533,1.6621323,-0.5389595,1.7081395,-2.9342458,-0.18332152,0.13517825,0.096839905,-0.31981277,1.0823237,0.79439557,-0.24867712,0.060099237,0.5508931,-0.021557868,0.701563,0.23015921,1.0,0.0,0.0,0.0,0.0,0.0,0.0,-2.3121324,0.1389595,-1.1581395,1.7291069,-4.173851,-3.4388661,-12.784517,-1.979208,0.17100573,1.7012775
8.809343,7.3433275,-0.16811913,-3.3093371,-0.34635365,-2.3262272,0.32733628,-0.68699175,0.5645273,0.32065466,-0.31303027,0.4351942,0.62413883,0.56618416,1.0000538,-0.38290814,-1.5605007,-0.8892169,2.4709625,1.504105,-0.9388245,1.056235,-0.42857623,-1.5867736,-0.8622216,2.4346566,1.4463412,-0.99229574,-1.2448026,1.064075,0.5731239,-0.4646045,0.7104012,0.46530017,0.31887195,1.6328125,-0.54079056,1.7087538,-2.931312,-0.18313824,0.036857154,0.097034454,-0.3131981,1.084225,0.7926283,-0.25216153,0.062723555,0.5515619,0.040494416,0.64650035,0.17285402,1.0,0.0,0.0,0.0,0.0,0.0,0.0,-2.2828126,0.14079055,-1.1587539,2.7757645,-5.753994,-2.496934,-13.552099,-4.4789433,0.10356307,1.6862333
3.652111,-6.1472096,-4.254091,-1.3702674,0.16443646,-2.41221,0.17364575,-0.66512567,0.4904523,0.27113748,-0.34460172,0.35092288,0.62326455,0.56646425,0.9897224,-0.379531,-1.5596598,-0.8966818,2.469749,1.5086676,-0.93564934,1.0440279,-0.41860795,-1.5813682,-0.8677062,2.441214,1.4509798,-0.98899984,-1.2119486,0.97460186,0.5292819,-0.57667094,0.6374301,0.46383435,0.33299595,1.6035233,-0.5426216,1.7083857,-2.9283812,-0.18295515,-0.061365645,0.097724915,-0.30729294,1.0855293,0.790886,-0.2548441,0.06556589,0.55249864,0.084606454,0.5704696,0.11268356,1.0,0.0,0.0,0.0,0.0,0.0,0.0,-2.2535233,0.1426216,-1.1583858,3.5238743,-8.902526,-4.538059,-11.281956,-7.34663,0.009721518,1.3509333
-0.86210155,-25.779596,-9.659221,-1.8129783,0.8523526,-2.6297684,0.14590125,-0.63266325,0.36547887,0.27442503,-0.4318472,0.2701279,0.62686497,0.5791491,0.9807616,-0.38206005,-1.5539258,-0.9108909,2.468227,1.5136663,-0.93108493,1.0322443,-0.40997958,-1.5763175,-0.87437236,2.446879,1.4556051,-0.98557425,-1.1660637,0.825605,0.49646276,-0.6969482,0.5423471,0.46233338,0.34538296,1.5742645,-0.54445267,1.707036,-2.9254534,-0.18277223,-0.15949023,0.098731995,-0.30239868,1.0861418,0.7892314,-0.25664103,0.06846485,0.5536801,0.11167548,0.46084726,0.040936448,1.0,0.0,0.0,0.0,0.0,0.0,0.0,-2.2242646,0.14445266,-1.1570361,4.9016476,-14.892328,-3.4465551,-12.144876,-9.627271,-0.046783686,1.1195004
-9.742788,-60.25097,-19.649508,-1.4289694,2.0440388,-2.982451,-0.0073332647,-0.56808615,0.16138048,0.22621857,-0.4802024,0.10241552,0.6085386,0.56980765,0.97543573,-0.39384153,-1.5536957,-0.9223926,2.4571204,1.516459,-0.92859346,1.0211455,-0.4035871,-1.571717,-0.882162,2.45122,1.460198,-0.9820533,-1.0897901,0.57686394,0.44742763,-0.80704665,0.39729428,0.4580299,0.353577,1.5450287,-0.5462761,1.7047058,-2.9225287,-0.1825895,-0.2575167,0.09978104,-0.2990265,1.0859003,0.7877894,-0.2574082,0.071175896,0.55503404,0.10608648,0.29306087,-0.048374247,1.0,0.0,0.0,0.0,0.0,0.0,0.0,-2.1950288,0.14627609,-1.1547058,8.030701,-24.942398,-5.0311446,-11.206532,-14.749968,-0.44341087,0.58426857
-24.106134,-125.954926,-38.87808,-3.936061,3.9674935,-3.7758968,-0.20941207,-0.43251202,-0.2322388,0.16117643,-0.5512578,-0.27094918,0.59239817,0.53793794,0.97789425,-0.42681098,-1.5555993,-0.93728775,2.4241252,1.5194379,-0.9282595,1.0113417,-0.40118384,-1.5678127,-0.8910798,2.4531655,1.4647204,-0.97849894,-0.94211245,0.12739733,0.3714961,-0.92090696,0.12541658,0.449372,0.35456085,1.5158234,-0.5480995,1.7013962,-2.919607,-0.18240695,-0.35544518,0.10041809,-0.29818726,1.0844407,0.78678167,-0.25682324,0.073352255,0.5564492,0.053001758,0.013241491,-0.18004707,1.0,0.0,0.0,0.0,0.0,0.0,0.0,-2.1658235,0.14809951,-1.1513963,15.319467,-45.17643,-7.5856028,-11.654245,-27.679651,-1.1757672,-0.35828352
-19.283821,-140.98543,-40.593235,-8.145566,4.4807587,-3.948132,0.15733525,-0.1255791,-0.5316148,0.21868424,-0.57039636,-0.54436487,0.6036453,0.5288479,0.99878377,-0.45434532,-1.5459442,-0.9481194,2.398729,1.5250849,-0.9256141,1.0042616,-0.4040954,-1.5642707,-0.9009284,2.451857,1.4691511,-0.9749522,-0.62885857,-0.4316987,0.34907773,-1.0068105,-0.21768352,0.4387281,0.35303742,1.4866486,-0.54992294,1.6971079,-2.916688,-0.18222457,-0.45327574,0.100543976,-0.30031586,1.0815852,0.7859629,-0.25490245,0.074496426,0.5583344,-0.0010368648,-0.2882433,-0.3213396,1.0,0.0,0.0,0.0,0.0,0.0,0.0,-2.1366487,0.14992294,-1.1471078,31.6473,-56.217854,-2.0503163,-8.799494,-34.693565,-1.7368019,-0.63955784
0.43942678,-104.9785,-26.010933,-9.54034,3.9028203,-3.4714599,0.69476014,0.32882825,-0.7118512,0.21370484,-0.45005125,-0.5537407,0.6598,0.3988087,1.0371444,-0.47528052,-1.5429002,-0.9459335,2.396483,1.5351311,-0.93507135,1.0020567,-0.41239333,-1.5607631,-0.9107789,2.4476075,1.473519,-0.97151136,-0.08662792,-0.9634326,0.3540073,-0.9786846,-0.49420115,0.43329626,0.34036198,1.4575043,-0.55174637,1.6918421,-2.9137719,-0.18204238,-0.5510085,0.100372314,-0.30498886,1.0775601,0.78468627,-0.25222018,0.07395464,0.56141174,-0.023997158,-0.52681607,-0.42999727,1.0,0.0,0.0,0.0,0.0,0.0,0.0,-2.1075044,0.15174636,-1.1418421,53.575188,-53.444683,1.2982905,2.535534,-27.707321,-1.3605833,-1.5235126
1.433687,-69.64852,-17.85386,0.31545216,3.2910724,-2.8115513,0.16809487,0.45212758,-0.7614322,-0.08364222,-0.294166,-0.5204854,0.6794415,0.18760702,1.0472695,-0.48853654,-1.5691273,-0.9401955,2.395559,1.5414631,-0.9527507,1.0051028,-0.4248445,-1.5584705,-0.9193686,2.4413705,1.477862,-0.96834517,0.43066272,-1.3398216,0.19273771,-0.8198731,-0.6672674,0.4322756,0.30838224,1.4283905,-0.55356216,1.6855997,-2.9108586,-0.18186036,-0.6486436,0.09996033,-0.3116188,1.0727568,0.7830461,-0.24928997,0.07184725,0.56527096,-0.046544135,-0.7050369,-0.49824068,1.0,0.0,0.0,0.0,0.0,0.0,0.0,-2.0783906,0.15356216,-1.1355996,50.41561,-37.881207,-14.619914,15.671968,-17.452097,-0.8062005,-3.277856
8.586409,-33.84341,-12.1371765,-4.2032866,1.1478088,-3.0927079,-0.11163921,0.56547815,-0.77522916,-0.3720295,-0.4074663,-0.5445607,0.6756712,0.09451225,1.0616505,-0.50236744,-1.5956734,-0.96011525,2.3869145,1.5454291,-0.95889395,1.0125662,-0.43970847,-1.5591266,-0.9268979,2.433947,1.4822031,-0.9655566,0.84679216,-1.5360029,-0.14628266,-0.73106956,-0.76808566,0.43242663,0.26868293,1.3993034,-0.55537796,1.6783817,-2.9079483,-0.18167853,-0.7461811,0.099803925,-0.31973267,1.0672532,0.78146183,-0.24590355,0.06904383,0.56928176,-0.0035140845,-0.8430816,-0.5703562,1.0,0.0,0.0,0.0,0.0,0.0,0.0,-2.0493035,0.15537795,-1.1283817,40.164246,-19.831158,-32.263287,8.745659,-10.27013,-0.62341094,-4.0394125
15.685598,-2.2745109,-5.910215,-9.920979,-0.7260233,-3.2246444,-0.14662075,0.62613016,-0.7868506,-0.49802518,-0.53406644,-0.52738833,0.6553251,-0.04102991,1.0751792,-0.5183935,-1.6089292,-0.98030454,2.3812082,1.5477357,-0.9696596,1.0231138,-0.4554956,-1.5634716,-0.9344624,2.4259896,1.4865366,-0.9632392,1.1205617,-1.5934654,-0.52674663,-0.76531506,-0.8052205,0.4316528,0.21907096,1.3702431,-0.55719376,1.670189,-2.9050407,-0.1814969,-0.843621,0.10047531,-0.328907,1.0609745,0.7801956,-0.24161382,0.066359505,0.5731614,0.096099645,-0.9385155,-0.65155715,1.0,0.0,0.0,0.0,0.0,0.0,0.0,-2.0202432,0.15719375,-1.120189,26.281118,-5.897832,-36.93036,-3.5383344,-3.7840247,-0.6414652,-5.052784
20.512653,21.70099,0.9540379,-11.046339,-1.5674782,-2.9361904,-0.048665218,0.70313,-0.79810625,-0.56587976,-0.57782894,-0.4444485,0.63466805,-0.17498234,1.0934268,-0.5353062,-1.6200595,-0.9922453,2.3815448,1.5500034,-0.98073745,1.0356222,-0.47127318,-1.5711925,-0.9428538,2.4181619,1.490851,-0.9614768,1.2921034,-1.5727589,-0.85223013,-0.8641603,-0.7749019,0.42989132,0.16169626,1.3412132,-0.55900955,1.6610227,-2.902136,-0.18131545,-0.94096357,0.102264404,-0.3387146,1.0539339,0.7792503,-0.23624386,0.06409029,0.57693166,0.21517308,-0.99148005,-0.7277417,1.0,0.0,0.0,0.0,0.0,0.0,0.0,-1.9912132,0.15900955,-1.1110227,16.484474,1.9952536,-32.01653,-10.011328,3.0663729,-0.63797235,-5.795246
22.273052,37.823467,7.1659503,-8.613979,-1.7276123,-2.3749034,0.08693631,0.75207853,-0.79882383,-0.59638596,-0.61163664,-0.38057154,0.624008,-0.26016122,1.1108301,-0.55115557,-1.6308311,-1.0040175,2.3801048,1.5532519,-0.9874929,1.0492827,-0.4866016,-1.5813663,-0.9523839,2.4109483,1.4951464,-0.960299,1.3897612,-1.5195657,-1.0721216,-0.9829866,-0.7035558,0.4283396,0.103120446,1.3122139,-0.56082153,1.6508836,-2.8992345,-0.18113418,-1.0382087,0.10519409,-0.34877014,1.0462369,0.7784731,-0.22989857,0.062177386,0.5807411,0.3279304,-1.0065938,-0.7909341,1.0,0.0,0.0,0.0,0.0,0.0,0.0,-1.9622139,0.16082153,-1.1008835,9.442997,5.3071976,-21.904898,-12.018358,7.220769,-0.50308704,-5.842474
22.269356,46.752457,11.653255,-5.535466,-1.5538083,-1.8358008,0.22173658,0.77804637,-0.79124105,-0.6102335,-0.6673404,-0.30793557,0.59302866,-0.31270927,1.1270874,-0.5657257,-1.6423897,-1.019118,2.3801546,1.5544493,-0.99156994,1.0635401,-0.50136304,-1.5929306,-0.96314514,2.4046388,1.4994112,-0.95968485,1.4371933,-1.4615593,-1.1853139,-1.1076272,-0.6064986,0.42490825,0.047839124,1.2832451,-0.5626297,1.6397729,-2.896336,-0.18095309,-1.1353567,0.10912323,-0.35879898,1.0380038,0.77766603,-0.22277024,0.060420003,0.584772,0.42535004,-0.9956418,-0.8420333,1.0,0.0,0.0,0.0,0.0,0.0,0.0,-1.9332451,0.1626297,-1.0897729,4.6372175,5.829978,-11.517525,-12.594199,9.820938,-0.5984247,-5.433028
21.683048,54.047314,15.759277,-1.5224981,-1.4817457,-1.2582091,0.29108235,0.7994942,-0.77364236,-0.5963907,-0.69425535,-0.3472518,0.5993691,-0.37606585,1.1434895,-0.57872725,-1.6525697,-1.0325707,2.3699136,1.5593481,-0.99729145,1.0780741,-0.5155785,-1.6049259,-0.97498024,2.3990502,1.5036532,-0.9596076,1.4587345,-1.4080157,-1.2055496,-1.2092352,-0.5420936,0.4235377,-0.0051720673,1.2543068,-0.56443787,1.6276914,-2.8934405,-0.18077217,-1.2324076,0.113918304,-0.36851883,1.0293764,0.776669,-0.21514018,0.058734026,0.5891096,0.50769424,-0.95749897,-0.87789303,1.0,0.0,0.0,0.0,0.0,0.0,0.0,-1.9043068,0.16443786,-1.0776913,2.150464,5.410123,-2.3772955,-10.291672,6.584072,-0.278306,-5.1605186
16.021996,50.235126,15.413551,4.016303,-1.0195932,-0.8279438,0.17922379,0.8024464,-0.777485,-0.6149045,-0.68518555,-0.4046818,0.6106513,-0.4017179,1.1583188,-0.593327,-1.6664163,-1.0434988,2.358582,1.5647182,-0.9997794,1.0926825,-0.52942586,-1.6168468,-0.9874629,2.393744,1.5078951,-0.9600215,1.4618508,-1.37692,-1.1885445,-1.2614449,-0.5265554,0.4243847,-0.05305762,1.2253914,-0.56624603,1.6146401,-2.8905478,-0.18059143,-1.3293614,0.11933136,-0.37782288,1.0204684,0.77547616,-0.2072764,0.05713275,0.5936404,0.5630695,-0.9146629,-0.90318626,1.0,0.0,0.0,0.0,0.0,0.0,0.0,-1.8753914,0.16624603,-1.06464,0.37019253,3.1453133,1.3611555,-5.288744,1.6404867,0.008559227,-4.664021
11.282793,46.216835,14.606916,8.208886,-0.60564387,-0.5506658,0.08925443,0.8028144,-0.7757355,-0.61520857,-0.6802287,-0.43183613,0.6091956,-0.38723782,1.172964,-0.6069994,-1.6783676,-1.0554857,2.3505604,1.5688146,-0.99874526,1.1072527,-0.54309964,-1.6284816,-1.0001601,2.3883576,1.5121504,-0.96084833,1.4557354,-1.364069,-1.1561288,-1.2724966,-0.5426469,0.42583525,-0.09219863,1.1965065,-0.5680504,1.60062,-2.8876579,-0.18041088,-1.4262184,0.12515259,-0.38671112,1.0113618,0.77412975,-0.19937232,0.05563743,0.59822935,0.5974485,-0.87300044,-0.9209681,1.0,0.0,0.0,0.0,0.0,0.0,0.0,-1.8465065,0.16805038,-1.0506201,-0.5312443,1.2980223,2.953577,-1.1257172,-1.5801549,0.11137128,-3.8092494
6.8412595,41.239426,12.98782,11.425056,-0.24284357,-0.40424252,-0.01844886,0.802468,-0.7787867,-0.6261128,-0.6586269,-0.4734102,0.61656415,-0.3719839,1.1874995,-0.6209783,-1.691093,-1.0660228,2.3410165,1.5738068,-0.9980467,1.1217409,-0.55675626,-1.639859,-1.0126952,2.3826241,1.5164267,-0.96200514,1.4468191,-1.3662853,-1.1322815,-1.2469416,-0.5839435,0.42818102,-0.12325315,1.1676521,-0.5698509,1.5856321,-2.8847709,-0.1802305,-1.5229785,0.1312027,-0.39524078,1.0021051,0.77270323,-0.19154519,0.054290723,0.6027376,0.6153472,-0.83807373,-0.9347792,1.0,0.0,0.0,0.0,0.0,0.0,0.0,-1.8176521,0.16985092,-1.0356321,-0.8094311,-0.2363205,2.1818876,2.5789738,-4.1678667,0.21681786,-3.030923
2.9851947,35.734188,10.824517,13.314505,0.07140213,-0.3720446,-0.101478085,0.7950935,-0.7879016,-0.64383054,-0.6374105,-0.5042109,0.6264856,-0.32498,1.2012503,-0.63554645,-1.704242,-1.0764363,2.3322031,1.5790752,-0.99450314,1.1361166,-0.5705254,-1.6511524,-1.0248145,2.3763947,1.5207316,-0.96339464,1.4346856,-1.380544,-1.1287283,-1.2001398,-0.6359679,0.43119994,-0.14408702,1.1388283,-0.57165146,1.5696772,-2.8818867,-0.1800503,-1.6196419,0.13734055,-0.40351105,0.9927019,0.7712779,-0.18382746,0.05313164,0.6070542,0.6215459,-0.8141066,-0.94948983,1.0,0.0,0.0,0.0,0.0,0.0,0.0,-1.7888283,0.17165145,-1.0196772,-1.1254311,-1.4676094,0.23171902,4.751444,-5.306518,0.2712667,-2.035132
1.1051626,32.24448,9.356764,13.7717285,0.27031082,-0.40194172,-0.12658033,0.79047835,-0.7976656,-0.6581001,-0.61907864,-0.51256835,0.63194,-0.28082803,1.2151644,-0.650292,-1.7169623,-1.0867224,2.3251379,1.5839256,-0.99147743,1.1503702,-0.58448815,-1.6625412,-1.0364207,2.3696923,1.525067,-0.96492624,1.4225492,-1.4016771,-1.1426325,-1.147214,-0.68198365,0.43424645,-0.15594776,1.1100311,-0.573452,1.5527565,-2.8790054,-0.17987028,-1.7162086,0.14349365,-0.41160965,0.9831277,0.7698991,-0.1761905,0.052154087,0.61114013,0.6225325,-0.79940796,-0.96720266,1.0,0.0,0.0,0.0,0.0,0.0,0.0,-1.7600311,0.17345199,-1.0027566,-1.1244535,-2.172184,-1.4670134,5.3981304,-4.7434807,0.25200844,-1.1451572
1.6684847,32.126873,9.180185,12.800795,0.24795544,-0.45762515,-0.08817911,0.7855222,-0.80289906,-0.666291,-0.61367387,-0.51972634,0.6247714,-0.25174218,1.2289225,-0.66477805,-1.7291702,-1.0977881,2.3177197,1.5875441,-0.99010044,1.1645094,-0.5986569,-1.6741302,-1.0475825,2.3626122,1.5294253,-0.96652937,1.4112942,-1.4221636,-1.1646023,-1.1053207,-0.7170169,0.43588704,-0.16157605,1.0812607,-0.57525253,1.5348709,-2.876127,-0.17969044,-1.8126787,0.14969254,-0.41957474,0.97334665,0.76855814,-0.1685705,0.05134508,0.61503327,0.626454,-0.7876088,-0.98876,1.0,0.0,0.0,0.0,0.0,0.0,0.0,-1.7312607,0.17525253,-0.98487085,-1.0322571,-2.1095753,-2.2749186,4.309416,-3.650248,0.08286238,-0.51673055
2.3599339,34.306923,10.156067,12.863864,0.27557307,-0.39437395,-0.047778666,0.7814793,-0.80983144,-0.661441,-0.5830084,-0.51836133,0.63506293,-0.22376126,1.2426573,-0.67964005,-1.7402743,-1.1058834,2.3107762,1.5929315,-0.9889055,1.1785494,-0.61301255,-1.6858909,-1.0583171,2.3552842,1.5338045,-0.9681525,1.4017532,-1.4402031,-1.1802143,-1.0622598,-0.7382394,0.43822607,-0.16227385,1.0525208,-0.57704544,1.5160213,-2.8732514,-0.17951077,-1.9090524,0.15591812,-0.42741013,0.9633665,0.7672168,-0.16096593,0.050653167,0.6187912,0.629564,-0.77359384,-1.0080674,1.0,0.0,0.0,0.0,0.0,0.0,0.0,-1.7025207,0.17704543,-0.96602124,-0.8638859,-1.8643856,-1.6407251,4.422283,-2.2680402,0.16242266,-0.010293722
3.2221498,38.63157,11.825045,13.175352,0.18824393,-0.28751123,-0.014295787,0.7714646,-0.80628234,-0.6599739,-0.5569531,-0.5373488,0.64455104,-0.18682808,1.2556958,-0.69364077,-1.7518883,-1.1140124,2.3015494,1.5982597,-0.98683536,1.1924769,-0.6274779,-1.6977489,-1.0686148,2.3477654,1.5382124,-0.96974707,1.3900411,-1.4487554,-1.1880304,-1.0186248,-0.75649476,0.44139028,-0.15826444,1.0238113,-0.57883835,1.4962085,-2.8703787,-0.17933129,-2.0053296,0.16218948,-0.43506622,0.9532298,0.7658384,-0.15341647,0.050076064,0.62245256,0.6332837,-0.7524967,-1.0225571,1.0,0.0,0.0,0.0,0.0,0.0,0.0,-1.6738113,0.17883834,-0.94620854,-1.0726452,-0.9096861,-0.8745432,4.464197,-1.9730091,0.26476383,0.46123862
1.6551781,39.1416,11.784706,14.290957,0.25349325,-0.21032517,-0.045760944,0.75899386,-0.8128436,-0.67989296,-0.5167385,-0.57279706,0.6519503,-0.12818676,1.2683762,-0.7087622,-1.7657382,-1.1202887,2.2904859,1.6034075,-0.98256576,1.2062556,-0.64201,-1.7097328,-1.0783995,2.340014,1.5426546,-0.9712558,1.3740959,-1.4549361,-1.2020545,-0.9647219,-0.78221464,0.44510162,-0.14827871,0.99512863,-0.58063126,1.4754338,-2.867509,-0.17915198,-2.1015103,0.16845322,-0.4425087,0.9429672,0.7644364,-0.1459538,0.049659997,0.62599385,0.6325013,-0.7319297,-1.0344269,1.0,0.0,0.0,0.0,0.0,0.0,0.0,-1.6451286,0.18063125,-0.9254338,-1.4869452,-0.67944527,-1.4723539,5.4999113,-2.7427673,0.32990575,1.0420799
1.6180334,39.83676,12.057123,14.160116,0.23263586,-0.17319308,-0.01719214,0.74915975,-0.81943077,-0.67964435,-0.4983554,-0.5952257,0.66217536,-0.06652487,1.2811716,-0.72395307,-1.7776972,-1.1282351,2.2804914,1.6088722,-0.97790825,1.2198588,-0.65660596,-1.7218311,-1.0876731,2.3319764,1.5471388,-0.97262144,1.3559712,-1.461414,-1.2125111,-0.91455567,-0.8116224,0.44935238,-0.13254957,0.9664726,-0.58242416,1.453698,-2.864642,-0.17897286,-2.1975951,0.1747284,-0.44973755,0.9325833,0.7630007,-0.13858616,0.049437933,0.6294279,0.6317644,-0.7107465,-1.0465065,1.0,0.0,0.0,0.0,0.0,0.0,0.0,-1.6164726,0.18242416,-0.903698,-1.7019987,-0.7108927,-1.1153698,5.1326036,-3.1180143,0.37602186,1.6138881
-1.7533207,41.437294,12.589127,17.400043,0.53672796,0.0432083,-0.089510486,0.72915506,-0.82058406,-0.6760228,-0.41853467,-0.6079396,0.67335665,-0.008500324,1.2927743,-0.7386644,-1.7894334,-1.1295265,2.2711825,1.6144745,-0.97347146,1.2332255,-0.67125535,-1.7339809,-1.0962046,2.3236527,1.5516726,-0.97379637,1.3305994,-1.4663967,-1.2158633,-0.8324668,-0.83995813,0.45483458,-0.11230441,0.93784714,-0.58420944,1.4310021,-2.8617778,-0.1787939,-2.2935836,0.18087769,-0.45676422,0.9221593,0.76156336,-0.13141672,0.049388707,0.63270175,0.6170949,-0.6902112,-1.0477318,1.0,0.0,0.0,0.0,0.0,0.0,0.0,-1.5878471,0.18420944,-0.8810021,-2.4217367,-0.573349,-0.3619194,8.324313,-3.0475974,0.55896044,2.0571113
-3.387494,42.956406,13.148811,19.138592,0.7147805,0.15825957,-0.11221585,0.71569216,-0.82249296,-0.672731,-0.36142948,-0.61996174,0.6747021,0.066478014,1.3047947,-0.75350463,-1.801254,-1.1323476,2.2616565,1.6191428,-0.96714854,1.2463213,-0.68594766,-1.7461154,-1.1037825,2.3150697,1.5562598,-0.97472715,1.3029318,-1.4704217,-1.2128533,-0.73258144,-0.86529475,0.46016955,-0.08657054,0.90925217,-0.5859947,1.4073471,-2.8589165,-0.17861514,-2.3894763,0.18683243,-0.46359634,0.9117757,0.76014656,-0.12453931,0.049477488,0.6357823,0.5953117,-0.6709233,-1.0417964,1.0,0.0,0.0,0.0,0.0,0.0,0.0,-1.5592521,0.18599471,-0.8573471,-2.6534557,-0.4860878,0.30384064,10.104025,-2.7689457,0.5756676,2.604416
0.8254452,41.64219,12.459413,14.397322,0.33412695,-0.12832485,0.0062138587,0.7144396,-0.8231742,-0.7033583,-0.40367663,-0.6187236,0.66530573,0.09774527,1.3177652,-0.76826507,-1.8164513,-1.1441503,2.2531974,1.6227903,-0.96495265,1.2591978,-0.7006686,-1.758353,-1.1107539,2.3062959,1.5608832,-0.97539663,1.2827549,-1.4729369,-1.2275652,-0.6848985,-0.881777,0.4628634,-0.060348056,0.8806877,-0.58778,1.3827338,-2.8560581,-0.17843655,-2.4852731,0.19270706,-0.47024155,0.90132713,0.75869924,-0.11778849,0.04973185,0.63877064,0.59224343,-0.6535324,-1.0522342,1.0,0.0,0.0,0.0,0.0,0.0,0.0,-1.5306877,0.18778,-0.8327338,-1.9046307,-0.3284216,-1.5069962,4.9013495,-1.8497229,0.21195412,2.655253
4.861743,44.182404,13.734959,11.733387,-0.004059255,-0.1958081,0.10867511,0.7119218,-0.81988937,-0.69270843,-0.3925317,-0.64601177,0.66797,0.11844689,1.33039,-0.7826575,-1.8276238,-1.150007,2.2416947,1.6276802,-0.96355194,1.2719294,-0.7153876,-1.7706935,-1.1174468,2.2973313,1.5655276,-0.97581434,1.2703593,-1.4717981,-1.2364118,-0.66375893,-0.90167767,0.46466628,-0.03543822,0.85214615,-0.5895653,1.3571633,-2.8532026,-0.17825814,-2.580974,0.19865036,-0.47666168,0.8907407,0.7571368,-0.11105226,0.050186716,0.6417884,0.60145,-0.6289256,-1.0670322,1.0,0.0,0.0,0.0,0.0,0.0,0.0,-1.5021461,0.18956527,-0.8071633,-1.1389017,0.046992302,-0.9466648,2.2341013,-2.1689415,0.082194805,2.5279105
8.049336,44.291225,14.02029,8.9143715,-0.21822077,-0.29656652,0.19836554,0.70859224,-0.82321954,-0.69781333,-0.40766862,-0.6339471,0.665181,0.12913807,1.3427886,-0.7977095,-1.8404748,-1.1582136,2.2339365,1.6320456,-0.9629005,1.2845789,-0.73010373,-1.7831199,-1.1241587,2.2882485,1.5701815,-0.97600126,1.2635108,-1.4716668,-1.2451214,-0.67326176,-0.911189,0.46516877,-0.013005536,0.8236351,-0.59134674,1.3306365,-2.85035,-0.1780799,-2.6765795,0.20476532,-0.4828186,0.87994444,0.75538,-0.10422706,0.05082029,0.6449458,0.6204105,-0.60205287,-1.0899222,1.0,0.0,0.0,0.0,0.0,0.0,0.0,-1.4736351,0.19134673,-0.7806365,-0.58903694,-0.046396255,-0.961113,-0.8253217,-1.1084318,-0.09915233,2.2932
8.074819,46.89877,15.294285,9.827786,-0.15483993,-0.15783446,0.19508767,0.7025716,-0.8214775,-0.68420964,-0.3742624,-0.64027506,0.6723844,0.14778969,1.3548361,-0.81225145,-1.8515409,-1.161585,2.224221,1.6374199,-0.9612223,1.2971693,-0.74481034,-1.7955425,-1.1308821,2.2790895,1.5748469,-0.97597647,1.2578946,-1.470497,-1.2416433,-0.6717438,-0.9179465,0.4663556,0.0078244945,0.7951546,-0.5931244,1.3031543,-2.8475,-0.17790185,-2.7720892,0.21102905,-0.48868942,0.86896765,0.7534009,-0.097347505,0.05158861,0.64826614,0.6354057,-0.57140976,-1.1062865,1.0,0.0,0.0,0.0,0.0,0.0,0.0,-1.4451545,0.19312438,-0.75315434,-0.47369003,0.059199333,0.26540756,0.26552677,-0.8389592,-0.0052273273,2.1415877
9.484867,48.82904,16.273775,9.415533,-0.20122284,-0.116504595,0.21282132,0.70591176,-0.8182085,-0.6826945,-0.3786844,-0.6324161,0.67447174,0.14362054,1.3677605,-0.8266312,-1.863812,-1.1687505,2.2158477,1.642294,-0.96161443,1.3097407,-0.75949025,-1.8079021,-1.1376075,2.2699113,1.5795237,-0.9757714,1.257161,-1.4673436,-1.2342455,-0.6723876,-0.918203,0.4676125,0.02507232,0.76670074,-0.59490204,1.2747178,-2.8446531,-0.17772397,-2.8675034,0.21746445,-0.49422073,0.8578394,0.7511812,-0.09044257,0.052449167,0.65176374,0.6519844,-0.53769296,-1.1208097,1.0,0.0,0.0,0.0,0.0,0.0,0.0,-1.4167007,0.19490203,-0.7247178,0.007081032,0.26175976,0.65402985,0.04272461,-0.18439293,0.0013113022,1.7927871
7.3139963,48.116493,15.537512,10.003965,-0.11744124,-0.06846896,0.16841963,0.6914409,-0.81611127,-0.6994787,-0.37854737,-0.6456873,0.6726273,0.18062465,1.3788848,-0.8411014,-1.8778499,-1.1754622,2.2053425,1.6467865,-0.95770895,1.3222529,-0.774132,-1.8202674,-1.1443347,2.2607064,1.58421,-0.97538805,1.2495897,-1.4632496,-1.2373992,-0.67238784,-0.92171067,0.46851054,0.042892277,0.7382736,-0.5966797,1.2453278,-2.841809,-0.17754628,-2.9628222,0.22404099,-0.49943542,0.8465544,0.7487459,-0.08349703,0.05342417,0.6554033,0.6642452,-0.506694,-1.136636,1.0,0.0,0.0,0.0,0.0,0.0,0.0,-1.3882736,0.19667968,-0.6953278,-0.66297054,0.3522396,-0.3941059,0.12282133,-0.5174279,-0.03594756,1.8365934
8.204335,46.99572,15.084485,8.318684,-0.23678046,-0.1110124,0.21304414,0.6884462,-0.8181973,-0.7026312,-0.41324276,-0.6482146,0.6702355,0.207796,1.3910975,-0.8559517,-1.8905306,-1.1856589,2.195885,1.6512336,-0.95460844,1.3346812,-0.788749,-1.8326938,-1.151224,2.2514634,1.5888983,-0.9748254,1.2408991,-1.4613733,-1.2449108,-0.6938296,-0.92559874,0.46861604,0.060887683,0.709877,-0.5984535,1.2149854,-2.8389678,-0.17736876,-3.0580456,0.23077011,-0.50434494,0.8350552,0.74607676,-0.076437086,0.054533154,0.65920633,0.68062025,-0.47506943,-1.1598376,1.0,0.0,0.0,0.0,0.0,0.0,0.0,-1.359877,0.19845352,-0.66498536,-0.7663965,0.13260841,-0.84860325,-2.003777,-0.5460739,-0.15451908,1.8547878
6.032892,48.630043,15.70739,10.380972,-0.039872646,0.06586322,0.14942233,0.68142605,-0.81782174,-0.6896833,-0.37626293,-0.6583019,0.67675793,0.19956826,1.4028238,-0.87053114,-1.9016621,-1.1888503,2.1856332,1.6565741,-0.95486856,1.3470045,-0.80335546,-1.8451335,-1.1581515,2.2421556,1.5935942,-0.9741082,1.2298158,-1.4606225,-1.2438947,-0.6921505,-0.9329106,0.4696443,0.07554459,0.6815109,-0.60022354,1.1836914,-2.8361294,-0.17719142,-3.153174,0.23759842,-0.50894165,0.82338494,0.7432006,-0.06932351,0.05575956,0.6631274,0.68803185,-0.44368538,-1.1748002,1.0,0.0,0.0,0.0,0.0,0.0,0.0,-1.3315109,0.20022354,-0.6336914,-1.0130882,0.017666817,0.027370453,0.3023386,-0.9022951,-0.022172928,1.5221312
8.491787,47.126293,15.249474,7.600713,-0.26053047,-0.040351093,0.20579082,0.6821363,-0.8203529,-0.7041777,-0.43429765,-0.6545742,0.6679682,0.15767868,1.4152181,-0.88539076,-1.9155513,-1.2015812,2.1766982,1.660391,-0.95834035,1.359244,-0.8179734,-1.8576171,-1.1652926,2.2327943,1.598292,-0.97329473,1.2221886,-1.4622794,-1.2500906,-0.7208622,-0.93745154,0.46918917,0.08354315,0.6531677,-0.60199356,1.1514468,-2.833294,-0.17701426,-3.248207,0.24457169,-0.5132141,0.81148356,0.740092,-0.062085383,0.057098888,0.6671948,0.7039425,-0.4104032,-1.2003263,1.0,0.0,0.0,0.0,0.0,0.0,0.0,-1.3031677,0.20199355,-0.6014468,-0.65989494,-0.21877289,-0.72300434,-2.7161121,-0.60435534,-0.22825003,0.8625567
4.880706,47.1674,14.590145,8.9119,-0.14379585,0.091137916,0.1020482,0.6564052,-0.8152983,-0.71572864,-0.4305124,-0.6827436,0.67264515,0.057119388,1.4248846,-0.89950323,-1.92919,-1.2083439,2.16452,1.6655566,-0.9675828,1.3713137,-0.8325865,-1.8702133,-1.1726931,2.2233186,1.6029879,-0.97249365,1.2023195,-1.4611871,-1.2629393,-0.74575984,-0.95161253,0.469184,0.07909113,0.62485504,-0.6037636,1.1182526,-2.8304613,-0.17683728,-3.3431454,0.25164413,-0.5171547,0.79933137,0.73681056,-0.054698262,0.058599792,0.6713302,0.71194226,-0.37835833,-1.2250882,1.0,0.0,0.0,0.0,0.0,0.0,0.0,-1.274855,0.20376357,-0.5682526,-1.8672943,0.051999092,-1.3786316,-2.323532,-1.5832663,-0.1747489,-0.40272325
1.5774817,46.936745,14.012257,10.229401,0.011937916,0.21693394,0.014830992,0.6374081,-0.8172742,-0.72167367,-0.43004066,-0.70299643,0.67445683,-0.031290248,1.4350545,-0.914314,-1.9423807,-1.2156972,2.153019,1.6704335,-0.97562265,1.3831164,-0.84719586,-1.8829525,-1.1802844,2.2136483,1.6076857,-0.97181463,1.1735765,-1.4609833,-1.2778106,-0.7627911,-0.9725128,0.46945578,0.06432165,0.5965729,-0.6055336,1.0841098,-2.8276315,-0.17666048,-3.4379888,0.25873947,-0.52080536,0.7869412,0.7334394,-0.047187697,0.060299657,0.6754287,0.7119589,-0.34892434,-1.2483996,1.0,0.0,0.0,0.0,0.0,0.0,0.0,-1.2465729,0.2055336,-0.5341098,-2.7484894,-0.04210472,-1.5655041,-1.5275359,-2.2709846,-0.13521314,-1.4457359
-7.6866455,45.938522,12.229601,13.896772,0.50351256,0.48378605,-0.1648372,0.5780084,-0.81624687,-0.729241,-0.42430022,-0.71047133,0.6732614,-0.15114565,1.4409173,-0.92882055,-1.9558766,-1.2227144,2.1426013,1.6750119,-0.9869292,1.3944002,-0.8617995,-1.8958442,-1.18795,2.203772,1.6123873,-0.9713721,1.1139055,-1.460451,-1.2931615,-0.76698065,-0.99361515,0.47005403,0.03749807,0.5683174,-0.607296,1.0490192,-2.8248045,-0.17648385,-3.5327373,0.2656746,-0.5242386,0.7743462,0.730127,-0.039591033,0.062199313,0.6793219,0.69061756,-0.32920292,-1.2678299,1.0,0.0,0.0,0.0,0.0,0.0,0.0,-1.2183174,0.20729598,-0.4990192,-5.8157206,-0.023794174,-1.5828133,-0.22587776,-2.3335934,-0.060993433,-2.6750207
-16.96216,41.11938,8.521969,14.142204,0.78501177,0.6041673,-0.23614874,0.4862416,-0.81997514,-0.7465739,-0.5141959,-0.706555,0.64069647,-0.27277106,1.4430244,-0.943797,-1.9705017,-1.2393696,2.1331165,1.6764569,-0.99864924,1.4047323,-0.8764174,-1.9089344,-1.1960257,2.1937356,1.6170679,-0.9712777,1.0069151,-1.4625657,-1.3146019,-0.81999683,-1.0080819,0.46687803,2.6983149e-05,0.54008865,-0.6090584,1.0129739,-2.8219805,-0.17630741,-3.6284564,0.27228928,-0.52753067,0.76143897,0.7269808,-0.031757966,0.064293064,0.6829032,0.6541577,-0.31870157,-1.3028028,1.0,0.0,0.0,0.0,0.0,0.0,0.0,-1.1900886,0.20905837,-0.4629739,-10.478759,-0.30663013,-2.218604,-5.0402403,-1.7087102,-0.48784614,-3.7613325
-54.21348,31.393929,-1.2787907,22.97387,2.342752,1.4657711,-0.5586895,0.19126345,-0.821471,-0.72760653,-0.62428623,-0.6912851,0.63151664,-0.23639466,1.4238586,-0.9585645,-1.981695,-1.2584543,2.124607,1.6802197,-0.99491715,1.4127566,-0.8910687,-1.9221103,-1.2051181,2.1836343,1.6217104,-0.9715085,0.7355613,-1.4665151,-1.3188536,-0.9376539,-1.0125884,0.46286848,-0.03116817,0.5118904,-0.6108208,0.9759721,-2.8191593,-0.17613114,-3.7240798,0.277977,-0.530983,0.74808437,0.7242751,-0.023472456,0.06652443,0.6858929,0.54217833,-0.34133425,-1.3506333,1.0,0.0,0.0,0.0,0.0,0.0,0.0,-1.1618904,0.21082076,-0.4259721,-26.731146,-0.559783,-0.50103664,-11.348284,-0.9050131,-0.55856705,-3.2042081
-150.22719,12.323055,-24.539394,51.65452,6.791383,3.644297,-1.592806,-0.47010815,-0.81832516,-0.7040054,-0.7243911,-0.63352525,0.59700394,-0.03960011,1.3657458,-0.9729012,-1.9925109,-1.2775571,2.1202817,1.6814108,-0.9754685,1.4152361,-0.9057534,-1.9351566,-1.2157267,2.1736627,1.62629,-0.9718728,0.08794375,-1.4705408,-1.2998073,-1.099091,-0.9953738,0.45572737,-0.038902428,0.4837227,-0.61258316,0.9380148,-2.8163407,-0.17595506,-3.8196077,0.28107834,-0.53538513,0.7342219,0.72288615,-0.014510141,0.06874561,0.6873856,0.23175296,-0.46214974,-1.4021146,1.0,0.0,0.0,0.0,0.0,0.0,0.0,-1.1337227,0.21258315,-0.3880148,-63.97985,-0.82137585,1.9885302,-15.283394,0.67960024,-0.8714497,-0.97500455
-162.46631,18.429,-24.180414,55.946083,7.5833225,4.1879053,-1.5507071,-0.65646034,-0.7953831,-0.670774,-0.7855841,-0.5126508,0.5623293,0.27370396,1.3495901,-0.98529166,-2.002234,-1.2942852,2.1223977,1.6825229,-0.9445024,1.4109751,-0.92037034,-1.9478328,-1.2279567,2.164229,1.6307608,-0.972033,-0.59484524,-1.4605772,-1.2567298,-1.2602105,-0.9303621,0.44268206,-0.008430526,0.45557785,-0.61434174,0.8991029,-2.8135247,-0.17577915,-3.91504,0.28082657,-0.54104996,0.71996564,0.7230531,-0.0048412685,0.07064698,0.68715334,-0.112626605,-0.5906153,-1.4368247,1.0,0.0,0.0,0.0,0.0,0.0,0.0,-1.1055778,0.21434173,-0.3491029,-67.44571,0.42624474,4.4163704,-14.953637,5.221355,-1.7631352,3.0559058
-122.59755,33.457035,-10.69388,45.87659,6.180544,3.6842518,-1.0068017,-0.6799216,-0.80771136,-0.6134624,-0.7754316,-0.43106133,0.5598128,0.4196178,1.3429829,-1.0011414,-2.009179,-1.3054998,2.1211228,1.6867421,-0.93007123,1.4012209,-0.93493295,-1.9598491,-1.2413539,2.1556764,1.6351019,-0.9717517,-1.1002816,-1.4564743,-1.1833205,-1.362576,-0.8339866,0.42937413,0.04128556,0.42746353,-0.6160965,0.85923743,-2.8107116,-0.17560342,-4.010377,0.27766418,-0.54766464,0.7055447,0.72435576,0.0052974382,0.07184961,0.6856517,-0.3888376,-0.6753189,-1.4466428,1.0,0.0,0.0,0.0,0.0,0.0,0.0,-1.0774635,0.21609649,-0.30923742,-49.91616,-0.091814995,7.354164,-9.144902,8.594143,-1.8826663,5.2371445
-74.196144,39.81292,-0.74438214,30.898506,4.1159205,2.4698637,-0.5467992,-0.69632554,-0.81645226,-0.7017566,-0.7723645,-0.37983465,0.52040714,0.41189447,1.3315884,-1.0165782,-2.0300248,-1.3185903,2.117693,1.6871426,-0.93056226,1.3880926,-0.94950604,-1.9716442,-1.2553462,2.1481423,1.6392924,-0.9709964,-1.3823663,-1.4586536,-1.17841,-1.4087268,-0.72862977,0.41401497,0.08801361,0.39937973,-0.61785126,0.81841934,-2.8079014,-0.17542784,-4.1056185,0.27249908,-0.5548477,0.69097584,0.72630286,0.015830534,0.072265744,0.6833822,-0.56599516,-0.7205082,-1.4625638,1.0,0.0,0.0,0.0,0.0,0.0,0.0,-1.0493797,0.21785125,-0.26841933,-27.813435,-0.56488514,0.4682064,-3.7683964,9.849775,-2.0535946,4.9882083
-39.439816,44.21531,6.386838,20.389215,2.8763075,1.578727,-0.28227058,-0.7464741,-0.81389797,-0.7558683,-0.77432424,-0.169959,0.4743073,0.3306862,1.3134452,-1.0308958,-2.047231,-1.3327786,2.1311464,1.6867231,-0.9379278,1.3733412,-0.96409535,-1.9838169,-1.2695178,2.142119,1.643313,-0.9698806,-1.5052447,-1.4597769,-1.2303147,-1.4178423,-0.5613162,0.39677107,0.12059305,0.37131882,-0.619606,0.7766495,-2.805094,-0.17525244,-4.2007647,0.26607513,-0.56233215,0.676208,0.7285849,0.026803711,0.071742296,0.6806604,-0.6753347,-0.7440273,-1.4834017,1.0,0.0,0.0,0.0,0.0,0.0,0.0,-1.0213188,0.21960601,-0.22664946,-12.064338,-0.32308102,-5.2028418,-0.32465458,16.31645,-2.1529913,3.5809546
-19.287209,48.097206,11.576856,15.728015,2.7298374,1.1284178,-0.28521752,-0.779521,-0.81341016,-0.7785598,-0.75017947,0.22899453,0.44412336,-0.030569317,1.295389,-1.0454364,-2.061673,-1.3445357,2.1650183,1.6877254,-0.9729375,1.3580862,-0.9786866,-1.9966724,-1.2835196,2.1387658,1.6471583,-0.9687562,-1.5318358,-1.459339,-1.3037612,-1.3931037,-0.26086596,0.3793422,0.1110497,0.34328842,-0.62135696,0.7339289,-2.8022895,-0.17507721,-4.2958155,0.25878525,-0.5700455,0.6612703,0.73116803,0.03823358,0.069774695,0.67754185,-0.7546809,-0.7662633,-1.4989525,1.0,0.0,0.0,0.0,0.0,0.0,0.0,-0.9932884,0.22135696,-0.1839289,-2.550888,-0.07798672,-7.318449,2.8537989,29.842068,-2.100557,-0.571619
-7.8723884,55.548363,17.139362,14.377166,2.39524,1.1452929,-0.30963284,-0.79989266,-0.80346036,-0.7622257,-0.7144714,0.37740573,0.43350783,-0.2538683,1.2780969,-1.0590326,-2.072895,-1.3549668,2.1765063,1.6905091,-0.994143,1.3428923,-0.9932196,-2.0100849,-1.2970694,2.1385484,1.6508452,-0.9679322,-1.5150967,-1.4514867,-1.3535728,-1.3414425,0.05827961,0.36436358,0.073950775,0.31528854,-0.6231041,0.6902585,-2.7994878,-0.17490217,-4.390771,0.25083923,-0.5778847,0.6463055,0.73407334,0.049945693,0.06614519,0.67399293,-0.8163944,-0.775584,-1.4975626,1.0,0.0,0.0,0.0,0.0,0.0,0.0,-0.9652885,0.22310409,-0.14025849,1.707387,0.72631836,-4.9339533,5.3783894,31.882174,-1.7429054,-3.3494978
-6.743079,61.38654,19.660858,15.714126,1.7097496,1.402846,-0.38392416,-0.82502973,-0.7923397,-0.7720374,-0.64965594,0.20833543,0.47676125,-0.28952378,1.2603893,-1.0724536,-2.0872886,-1.362035,2.1593819,1.6985213,-0.9968846,1.3278507,-1.0075716,-2.0242205,-1.3101219,2.1407855,1.6541345,-0.96754634,-1.5065069,-1.4181939,-1.52382,-1.361137,0.34989113,0.19309565,0.025879988,0.29095078,-0.62550354,0.65830386,-1.6606007,-0.29988766,0.40605637,0.24236679,-0.58576965,0.6312998,0.7373232,0.062000982,0.061312884,0.6698888,-0.85012937,-0.8006285,-1.5450193,0.0,1.0,0.0,0.0,0.0,0.0,0.0,-0.94095075,0.22550353,-0.108303845,-0.113749504,5.112672,-30.797338,-12.350273,40.623077,-33.67902,-5.1801705
52.41012,176.0,110.0,106.851616,-0.32146126,11.094954,-1.2509371,-0.67941725,0.57243097,0.7223335,0.69919497,-0.41756734,0.6718815,-0.31873867,1.2599089,-0.95032847,-1.9519871,-1.2402024,2.0990288,1.7213227,-0.9994202,1.3167995,-1.0239862,-2.0325441,-1.3082145,2.1311686,1.6647565,-0.96598995,-0.96605176,-1.6762156,-0.6568918,0.6898417,-1.345125,1.3822774,0.21539813,0.27436066,-0.6285019,0.661617,-1.6589404,-0.29958782,0.30639923,0.23334885,-0.5924988,0.62079716,0.74125355,0.06357889,0.059999105,0.6655081,-0.92733073,-0.61390406,-0.8866852,1.0,0.0,0.0,0.0,0.0,0.0,0.0,-0.92436063,0.22850189,-0.11161697,55.672203,-13.886356,70.24288,199.63586,-153.35164,128.09483,23.905058
-13.502882,176.0,87.79643,86.258446,3.957251,6.300535,-1.5156925,-0.8159796,-0.5796857,0.35813522,0.76282114,-0.564148,0.5831537,-0.3574096,1.2352016,-1.0819548,-1.9967306,-1.2319324,2.0747538,1.7230719,-1.0017309,1.3070453,-1.040748,-2.0320902,-1.2939419,2.1141818,1.6782148,-0.96465003,-0.9772178,-1.6762143,0.28150594,1.6731936,-1.8207198,1.3395659,0.10893684,0.2577858,-0.6314926,0.66393125,-1.6572819,-0.2992883,0.20644799,0.2233162,-0.5984192,0.61582834,0.7464632,0.056578565,0.060598146,0.66024196,-1.0301329,-0.5728568,-0.3705344,1.0,0.0,0.0,0.0,0.0,0.0,0.0,-0.9077858,0.23149261,-0.11393124,-0.7158637,7.1525574e-05,94.38754,98.375725,-48.733234,-2.5032282,-10.035525
-49.182888,151.37534,46.198433,61.214043,3.7338862,3.79249,-1.6478728,-0.80040395,-0.47587025,-0.19350736,0.7086547,-0.6099542,0.66026837,-0.37849924,1.227005,-1.088335,-2.051441,-1.2230763,2.0531864,1.7442416,-1.0024999,1.29645,-1.0554479,-2.0280008,-1.2743648,2.0961306,1.6910379,-0.96399677,-1.0853109,-1.402125,0.451009,2.054324,-1.8022872,1.2666433,0.051134147,0.2412262,-0.63448334,0.6652468,-1.655625,-0.2989891,0.1065967,0.21206665,-0.6041374,0.6141454,0.7530572,0.046562638,0.062198095,0.6533514,-1.1600034,-0.5638122,-0.107964255,1.0,0.0,0.0,0.0,0.0,0.0,0.0,-0.8912262,0.23448333,-0.11524677,-10.273528,27.102661,16.868513,38.620495,1.1358738,-6.2909126,-5.677885
-49.381107,142.56145,35.347942,40.917095,2.3645005,2.7627053,-1.1515377,-0.8107408,-0.30741847,-0.08041658,0.76502246,-0.6044827,0.64051265,-0.29513648,1.2153759,-1.0861897,-2.0360425,-1.1978626,2.0356824,1.7550892,-0.9935104,1.2843689,-1.066522,-2.0240107,-1.2539715,2.0798495,1.7028081,-0.9638518,-1.2480386,-1.0102443,0.3800757,2.0352802,-1.5708715,1.1498489,0.0015744042,0.22468185,-0.63747025,0.66556454,-1.6539696,-0.29869017,0.0068452274,0.19976044,-0.6095047,0.61431855,0.76062614,0.03620522,0.06474575,0.64493805,-1.2584927,-0.5200956,0.050916307,1.0,0.0,0.0,0.0,0.0,0.0,0.0,-0.87468183,0.23747024,-0.115564525,-16.014553,38.917564,-7.564914,-1.6558647,22.87097,-10.891819,-5.1890492
-45.686436,103.222984,15.772037,23.096756,1.2363218,1.2261136,-0.8031541,-0.82136357,-0.25844195,-0.2773802,0.7713123,-0.5780142,0.61436445,-0.2607347,1.2022325,-1.0923662,-2.0517488,-1.1768402,2.022048,1.7642446,-0.98992527,1.270821,-1.0739855,-2.0226107,-1.2351383,2.0662081,1.7134416,-0.9641093,-1.3903046,-0.6588429,0.0580038,1.8328199,-1.2947296,1.0361787,-0.036107156,0.20815277,-0.64045334,0.6648855,-1.652316,-0.29839155,-0.09280651,0.18674088,-0.6145096,0.6150704,0.7687784,0.027181841,0.06827653,0.6352788,-1.3212736,-0.4864614,0.07651792,1.0,0.0,0.0,0.0,0.0,0.0,0.0,-0.85815275,0.24045333,-0.11488551,-14.20207,34.97825,-32.760315,-20.166374,27.774143,-10.895824,-4.1342125
-30.70154,63.459015,5.220569,9.719135,0.6881944,0.2212491,-0.3872581,-0.8235351,-0.31224465,-0.2775968,0.77103937,-0.50072896,0.6155935,-0.34606978,1.1884675,-1.10521,-2.0503705,-1.1580343,2.0161352,1.7750009,-0.9987163,1.256226,-1.0791353,-2.0243921,-1.2185501,2.0551836,1.7230356,-0.96474826,-1.482667,-0.46727046,-0.25822908,1.6006007,-1.0379823,0.9340409,-0.07402891,0.19163895,-0.64343643,0.66321075,-1.650664,-0.29809323,-0.19235863,0.17332458,-0.61932373,0.6154558,0.7771884,0.020157348,0.07235184,0.62476945,-1.3531469,-0.47031355,0.021272141,1.0,0.0,0.0,0.0,0.0,0.0,0.0,-0.8416389,0.24343643,-0.11321074,-9.285879,19.06759,-31.930096,-23.244118,25.757742,-10.081339,-4.0508084
-10.339298,63.18013,13.013425,6.416863,0.30128324,0.25573176,-0.06380075,-0.8213468,-0.23959804,-0.17261992,0.77916723,-0.44906914,0.61064726,-0.37708837,1.1740912,-1.103095,-2.041654,-1.1406333,2.0102768,1.7841003,-1.0024571,1.2411007,-1.0829767,-2.0281458,-1.2038406,2.0463107,1.7317159,-0.96574295,-1.5228643,-0.35686356,-0.41461462,1.427319,-0.8376721,0.8460258,-0.10860181,0.17514801,-0.6464157,0.6605412,-1.6490136,-0.2977952,-0.29181123,0.15977097,-0.6239052,0.61546224,0.78557605,0.014705338,0.076486975,0.6138434,-1.3580825,-0.4422656,-0.009034977,0.0,1.0,0.0,0.0,0.0,0.0,0.0,-0.825148,0.2464157,-0.110541165,-4.1231155,10.9327135,-15.590734,-17.4263,19.796001,-8.805656,-3.6391945
11.61104,70.452446,26.572697,5.632866,0.54852915,0.7176069,0.2594673,-0.81578815,-0.26524806,0.10871622,0.77369595,-0.28193066,0.62118244,-0.4355901,1.1595218,-1.1095015,-2.0172741,-1.126471,2.0181177,1.7938342,-1.0093019,1.2258705,-1.0864443,-2.031293,-1.1903042,2.0393794,1.7396314,-0.96708095,-1.5236067,-0.34352648,-0.28033426,1.3285253,-0.6467138,0.7732341,-0.14229822,0.15867233,-0.6493912,0.6568779,-1.647365,-0.29749748,-0.3911644,0.14628601,-0.6280861,0.615588,0.79369646,0.009758026,0.07978986,0.6029794,-1.3479837,-0.39940986,0.018274916,0.0,1.0,0.0,0.0,0.0,0.0,0.0,-0.8086723,0.24939117,-0.10687786,-0.24454594,1.2203455,13.82224,-10.044956,18.569302,-7.326257,-3.4138112
24.975452,72.65258,33.768093,5.0663977,0.700063,0.9391977,0.4331801,-0.8032477,-0.2987528,0.28216857,0.7533442,-0.19928575,0.6353181,-0.44330627,1.1455457,-1.1163195,-2.003076,-1.1149697,2.0194507,1.8031632,-1.0114115,1.210831,-1.0902761,-2.0317621,-1.1773571,2.0341494,1.746927,-0.9687213,-1.4979662,-0.39690155,0.03288491,1.282726,-0.48394746,0.7150197,-0.1712689,0.14221191,-0.65236664,0.6522218,-1.645718,-0.29720005,-0.49041823,0.13298035,-0.63178253,0.61621016,0.8013956,0.0044238963,0.08157992,0.59252864,-1.3280779,-0.34961805,0.075550355,0.0,1.0,0.0,0.0,0.0,0.0,0.0,-0.7922119,0.25236663,-0.10222179,2.3921013,-5.448842,31.868109,-4.750681,15.654731,-5.8321595,-2.8863282
24.736948,61.307842,29.959751,4.098508,0.6870967,0.77989197,0.42809027,-0.8001729,-0.35744718,0.34619266,0.72848123,-0.23222078,0.6452216,-0.44883874,1.1308137,-1.1260208,-1.9971429,-1.104509,2.0109274,1.8114492,-1.0136051,1.1961081,-1.0950019,-2.029196,-1.16479,2.0302417,1.7535583,-0.97058487,-1.4643688,-0.4976549,0.32953092,1.2463679,-0.3482236,0.66951025,-0.19358656,0.1257515,-0.65415955,0.654213,-1.4959865,-0.19769739,0.500335,0.119880676,-0.63510895,0.6171748,0.80864877,-0.0013754958,0.08172163,0.5825864,-1.3105958,-0.31387898,0.10139227,0.0,1.0,0.0,0.0,0.0,0.0,0.0,-0.7757515,0.25415954,-0.104213,3.0864954,-10.391235,33.593,-2.0589828,9.057921,-4.632008,-2.448362
27.196955,114.22904,46.898804,13.698458,0.014519215,1.5060914,0.2963093,-0.7886772,-0.07232647,0.45747107,0.7339291,-0.30681807,0.64933443,-0.4531519,1.1172404,-1.1022346,-1.9834489,-1.0913972,1.9995599,1.8184917,-1.0159,1.1817095,-1.0993221,-2.0236075,-1.1522893,2.0269077,1.7599841,-0.97268486,-1.4318533,-0.41070268,0.6371065,1.2512608,-0.3306363,0.6343182,-0.21598397,0.1108017,-0.65613556,0.6584737,-1.4944907,-0.19749972,0.40131304,0.10708618,-0.6376457,0.6192241,0.81547225,-0.00833099,0.0811203,0.5730228,-1.2720915,-0.22434707,0.23762618,0.0,1.0,0.0,0.0,0.0,0.0,0.0,-0.7608017,0.25613555,-0.10847366,3.156042,8.496147,31.28562,0.43087006,1.1349678,-3.3039093,-2.366063
13.29569,78.56648,29.423105,10.675463,0.22623792,0.8489872,0.16272771,-0.79066813,-0.24560182,0.4195403,0.7069619,-0.30612585,0.6666378,-0.4416724,1.1026428,-1.1238823,-1.9816535,-1.081593,1.9962951,1.8266479,-1.0168521,1.1675475,-1.1033447,-2.0159285,-1.1397599,2.023486,1.7661372,-0.9749737,-1.410868,-0.39995167,0.8124064,1.2534807,-0.34730077,0.60974854,-0.23331682,0.09586716,-0.6581116,0.6617448,-1.4929965,-0.19730227,0.30239013,0.09453201,-0.6395607,0.6220065,0.82195055,-0.01604414,0.08027118,0.56364566,-1.2528946,-0.1717398,0.28941855,0.0,1.0,0.0,0.0,0.0,0.0,0.0,-0.74586713,0.25811157,-0.11174476,2.0820856,0.95594525,17.827583,0.25174618,-2.0399094,-2.278638,-1.7767459
2.5178876,74.23939,22.957302,12.515657,0.062552094,0.6086332,0.015646502,-0.7908356,-0.17380594,0.37772226,0.70834005,-0.39142147,0.6597161,-0.39810833,1.0884639,-1.1207253,-1.9781563,-1.0689259,1.9843438,1.8321089,-1.0147845,1.1535113,-1.1070297,-2.007498,-1.1271809,2.01953,1.7720653,-0.9773779,-1.4011344,-0.3582088,0.85403967,1.2594746,-0.4123289,0.58793527,-0.24285813,0.080947876,-0.66007996,0.6640274,-1.4915038,-0.197105,0.20356613,0.0821228,-0.64100647,0.6251254,0.82819235,-0.024016935,0.07972518,0.55422425,-1.2399017,-0.12768848,0.31700993,0.0,1.0,0.0,0.0,0.0,0.0,0.0,-0.73094785,0.26007995,-0.11402738,0.9775162,4.0863457,4.2881966,0.68855286,-6.6943407,-1.9440293,-0.9829551
-3.738525,51.107834,12.667006,9.985301,0.23499456,0.15487182,-0.046828754,-0.7782713,-0.2496186,0.3786257,0.7109382,-0.3969448,0.66206974,-0.41393805,1.0756842,-1.1319915,-1.9696355,-1.0560871,1.9798356,1.8382722,-1.0187716,1.1395705,-1.110728,-1.9991977,-1.114539,2.0149295,1.7778045,-0.97986794,-1.39173,-0.37373906,0.82215625,1.2659166,-0.47587755,0.56979585,-0.25103197,0.066043854,-0.66204834,0.66530937,-1.4900126,-0.19690794,0.1030834,0.06976318,-0.6422081,0.6281206,0.83428526,-0.031815805,0.07959898,0.5446282,-1.2371625,-0.109036975,0.29125687,0.0,1.0,0.0,0.0,0.0,0.0,0.0,-0.71604383,0.26204833,-0.11530936,0.9542465,-1.5886366,-3.1547904,0.7163286,-6.4257145,-1.6141415,-0.8154303
-7.290413,39.110497,7.5096755,8.589485,0.33306512,-0.036659002,-0.060220167,-0.7784307,-0.27745605,0.37282515,0.7055412,-0.4260048,0.6616726,-0.39512688,1.0617274,-1.1384736,-1.9619153,-1.0439849,1.972329,1.8439717,-1.0193806,1.1256928,-1.114799,-1.9914671,-1.1018841,2.0097322,1.7833105,-0.98239905,-1.3857865,-0.41798198,0.7511855,1.26304,-0.5306889,0.5314094,-0.25118476,0.05083847,-0.6636238,0.6663932,-1.5872082,-0.06664421,0.28896648,0.05739975,-0.6433296,0.6306559,0.8402747,-0.039123215,0.07981868,0.5348239,-1.2381314,-0.10658421,0.23667324,0.0,1.0,0.0,0.0,0.0,0.0,0.0,-0.70083845,0.2636238,-0.11639321,0.7127285,-4.409629,-7.9797745,-0.63626766,-5.013287,-5.975592,0.43840408
-7.923391,79.53869,20.396984,16.160831,0.32677996,0.4393475,-0.14933392,-0.7881324,-0.056104872,0.34517077,0.7241558,-0.38814202,0.6387172,-0.3715508,1.0468796,-1.1204095,-1.9569501,-1.0294685,1.970918,1.8471823,-1.0195541,1.1118035,-1.1182742,-1.9845452,-1.089185,2.004243,1.7884356,-0.9849034,-1.3899113,-0.32433245,0.6726934,1.2727312,-0.5553673,0.5068623,-0.25021058,0.03466034,-0.66384506,0.6694591,-1.6278193,-0.0065201647,0.31259745,0.045043945,-0.64419174,0.6332204,0.8461871,-0.046023868,0.080703534,0.5247248,-1.2364562,-0.07162232,0.26065645,0.0,1.0,0.0,0.0,0.0,0.0,0.0,-0.6846603,0.26384506,-0.11945909,-0.40447712,9.276205,-7.829392,1.1143684,-2.5480032,-2.2346497,0.07742643
-12.948303,84.719315,20.66917,18.394028,0.562911,0.48661608,-0.23317735,-0.8060293,-0.030983044,0.25729227,0.72050446,-0.33740905,0.62860763,-0.38771853,1.0312006,-1.1213725,-1.958816,-1.0171345,1.970502,1.8512963,-1.0236752,1.0977712,-1.1205993,-1.9786725,-1.0764112,1.9987996,1.7933501,-0.98740685,-1.4075406,-0.20202072,0.5586719,1.279611,-0.5402071,0.4884141,-0.25075942,0.018188477,-0.66350174,0.67280793,-1.6460942,0.042838708,0.343032,0.03264618,-0.6446953,0.63607615,0.85207623,-0.05265354,0.08238808,0.51420397,-1.2439125,-0.035398923,0.2917926,0.0,1.0,0.0,0.0,0.0,0.0,0.0,-0.66818845,0.26350173,-0.12280792,-1.7693281,12.134901,-11.413813,0.8341551,1.6236305,-1.1894882,-0.17563999
-12.05463,98.32004,24.779324,20.461145,0.41363573,0.5772852,-0.2497645,-0.8033325,0.07600837,0.18314031,0.73867315,-0.3687148,0.62619483,-0.39095852,1.0174379,-1.1129985,-1.9603585,-1.0025439,1.9619281,1.8559695,-1.0265027,1.0835786,-1.1213565,-1.9740814,-1.0634966,1.9935104,1.7981695,-0.9899292,-1.4233838,-0.03403429,0.42623597,1.2957076,-0.525592,0.48016146,-0.25295222,0.0018119812,-0.6627884,0.676683,-1.6348668,0.080931276,0.4029562,0.020202637,-0.6447487,0.63941795,0.8579475,-0.05909766,0.08506402,0.5031874,-1.2450736,0.012901555,0.34637645,0.0,1.0,0.0,0.0,0.0,0.0,0.0,-0.65181196,0.2627884,-0.126683,-1.6098976,16.656641,-13.1728945,1.752162,1.3330579,-0.67358017,-0.287807
-13.130611,96.726204,23.867222,20.459211,0.52313185,0.5250318,-0.266246,-0.8148977,0.13231145,0.10536697,0.74605834,-0.32033733,0.61865276,-0.39812633,1.0020888,-1.1081253,-1.9635447,-0.98889077,1.9614767,1.8600348,-1.0297419,1.0692086,-1.1204718,-1.9709016,-1.0504102,1.9885035,1.8029201,-0.99247915,-1.4416227,0.1287473,0.2824085,1.3134328,-0.49276945,0.47359937,-0.2559077,-0.014457703,-0.66168976,0.68114257,-1.6243218,0.11995066,0.46101564,0.0077285767,-0.6443405,0.6432753,0.86379707,-0.06534061,0.08873925,0.49164075,-1.2485808,0.059074312,0.39727774,0.0,1.0,0.0,0.0,0.0,0.0,0.0,-0.6355423,0.26168975,-0.13114256,-1.8672705,16.124126,-14.268362,1.8793106,3.1257808,-0.5833626,-0.37992
-11.624643,97.4627,24.360016,20.043898,0.52562463,0.49432725,-0.24011724,-0.8209739,0.21325447,0.04462458,0.75546306,-0.29238054,0.60038924,-0.3964447,0.9871112,-1.0991464,-1.9664391,-0.9748638,1.9592654,1.862959,-1.0321236,1.0546689,-1.1179942,-1.9691048,-1.0371407,1.9838818,1.8076004,-0.9950549,-1.4583085,0.28703132,0.14615929,1.3315232,-0.45268148,0.4660958,-0.2584776,-0.03060913,-0.66017914,0.6862151,-1.6121786,0.16180536,0.523117,-0.0047683716,-0.64346695,0.6476507,0.86959803,-0.071382076,0.09333833,0.47957456,-1.2491422,0.106715076,0.44988346,0.0,1.0,0.0,0.0,0.0,0.0,0.0,-0.61939085,0.26017913,-0.13621509,-1.7391682,15.65414,-13.426435,1.8685102,3.786409,-0.7526696,-0.36581755
-8.87517,92.03052,22.767033,18.046158,0.39044747,0.35979933,-0.18808672,-0.81831384,0.271266,-0.04001736,0.7628909,-0.29050088,0.59614486,-0.39586186,0.9728375,-1.0908676,-1.9731065,-0.96085167,1.9548317,1.8672149,-1.034641,1.0400186,-1.1140918,-1.9686908,-1.0237035,1.979609,1.8122088,-0.9976538,-1.4673655,0.42408413,0.0072113853,1.3477341,-0.4197591,0.4590186,-0.2608179,-0.046627045,-0.6582527,0.6918342,-1.5980815,0.20304427,0.57566977,-0.017227173,-0.6421356,0.652464,0.8753054,-0.077173494,0.098807245,0.4670349,-1.2433603,0.15100452,0.4909142,0.0,1.0,0.0,0.0,0.0,0.0,0.0,-0.60337293,0.2582527,-0.1418342,-0.9984255,13.531483,-13.644235,1.6194344,3.041017,-0.75086355,-0.3704548
-9.586167,77.80397,17.679256,15.599641,0.41115767,0.15337005,-0.1710401,-0.8257961,0.29371327,-0.15081985,0.76294386,-0.24942262,0.5764157,-0.39648154,0.95743895,-1.0847204,-1.9837728,-0.9474091,1.9546667,1.8698504,-1.0373019,1.0252881,-1.1091307,-1.9698179,-1.0101534,1.9756967,1.8167388,-1.0002764,-1.4752011,0.51964563,-0.15188737,1.3574045,-0.382331,0.4508645,-0.26323572,-0.06251907,-0.6559677,0.6977638,-1.5859704,0.23759198,0.5994649,-0.029651642,-0.6404686,0.65747124,0.88090754,-0.08254212,0.1050176,0.45404842,-1.2402949,0.18289278,0.5036227,0.0,1.0,0.0,0.0,0.0,0.0,0.0,-0.5874809,0.2559677,-0.14776379,-0.8736372,9.410709,-15.686369,0.90858936,3.541094,-0.8728266,-0.39508343
-9.416016,60.01826,12.205021,12.415564,0.5304237,-0.041497648,-0.1428292,-0.82788455,0.27759653,-0.22232907,0.75946224,-0.18880758,0.55974495,-0.4062878,0.94249964,-1.0813711,-1.9920508,-0.9342072,1.956816,1.8727133,-1.0409052,1.0104985,-1.1036605,-1.9724995,-0.996564,1.9722514,1.821183,-1.0029314,-1.4803824,0.55563724,-0.30649084,1.3590748,-0.33231026,0.44207093,-0.2667307,-0.078315735,-0.65340805,0.70366883,-1.5774398,0.2627697,0.58866835,-0.042099,-0.63858795,0.66236717,0.886408,-0.087330066,0.111680314,0.44066063,-1.2432692,0.19982454,0.4847367,0.0,1.0,0.0,0.0,0.0,0.0,0.0,-0.57168424,0.25340804,-0.15366882,-0.59096813,3.4962416,-15.276498,0.063085556,4.8583565,-0.9299576,-0.5098641
-8.140256,50.018066,9.501818,10.444656,0.5191597,-0.13846558,-0.09538442,-0.8248056,0.27370125,-0.28361052,0.76658183,-0.19302827,0.55956745,-0.38547927,0.928018,-1.0762904,-2.0008605,-0.9199058,1.9529486,1.8771397,-1.0414792,0.99569416,-1.0981272,-1.9766058,-0.98295295,1.9692103,1.825547,-1.0056055,-1.4807616,0.5523382,-0.4448958,1.361309,-0.29499874,0.43448126,-0.26804042,-0.0940361,-0.65063095,0.7093324,-1.5698669,0.28320432,0.56033736,-0.05458069,-0.6365967,0.6669481,0.89178854,-0.09147592,0.11860125,0.42694145,-1.2473948,0.20944369,0.44955057,0.0,1.0,0.0,0.0,0.0,0.0,0.0,-0.5559639,0.25063094,-0.1593324,-0.09877682,-0.41041374,-13.66064,0.100302696,3.6063135,-0.80075264,-0.29744506
-8.767926,35.495457,5.3872676,8.440224,0.63033473,-0.24023318,-0.06899661,-0.826667,0.21537678,-0.3353258,0.7726651,-0.1835492,0.5478729,-0.3660784,0.91302747,-1.0765896,-2.0101383,-0.90568644,1.9508554,1.8803343,-1.0422133,0.9808931,-1.0930327,-1.9819267,-0.96929705,1.9664582,1.8298366,-1.0082757,-1.4799664,0.49508637,-0.56078273,1.3665351,-0.26868486,0.42709032,-0.26713786,-0.10971069,-0.6477089,0.7145113,-1.5663162,0.29556122,0.50594956,-0.06716919,-0.6345978,0.67100346,0.8970442,-0.09493881,0.12557463,0.41295186,-1.2591629,0.20800501,0.39158967,0.0,1.0,0.0,0.0,0.0,0.0,0.0,-0.5402893,0.24770889,-0.16451126,0.05221367,-5.76967,-11.457956,0.4152298,2.5665462,-0.7548392,-0.059235096
-10.175944,27.582836,2.8169377,7.5762634,0.5867189,-0.2864914,-0.042157255,-0.8309442,0.17602433,-0.40676367,0.7748303,-0.22102442,0.5437955,-0.3500414,0.89779866,-1.0754303,-2.022603,-0.891814,1.9443557,1.8842162,-1.0432799,0.9660854,-1.0887107,-1.9883653,-0.95558184,1.9637636,1.8340575,-1.0109234,-1.481109,0.41116327,-0.6713045,1.3729236,-0.2695307,0.42056534,-0.26440603,-0.1253624,-0.6446991,0.719039,-1.5645982,0.30371633,0.43756488,-0.079891205,-0.63264084,0.6743766,0.9021687,-0.09765991,0.132551,0.3987284,-1.2743118,0.20163277,0.32017264,0.0,1.0,0.0,0.0,0.0,0.0,0.0,-0.5246376,0.24469909,-0.16903901,-0.116205215,-8.42216,-10.956502,0.56476593,-0.11218786,-0.6478727,0.13679266
-10.494714,20.294233,0.5078237,6.3057003,0.4624545,-0.36056024,0.00086870417,-0.82866436,0.11506017,-0.47472724,0.7750653,-0.26448438,0.5264091,-0.3306381,0.88321894,-1.0772047,-2.0358381,-0.8780753,1.9373151,1.8866984,-1.0439872,0.9512767,-1.0853976,-1.9959067,-0.9418094,1.9608632,1.8382097,-1.0135309,-1.4807222,0.3046217,-0.78176594,1.3785119,-0.29657298,0.413607,-0.25985944,-0.14101028,-0.6416397,0.7227825,-1.5639944,0.30749613,0.35596722,-0.09277344,-0.63079834,0.6769346,0.9071489,-0.09955642,0.1395541,0.3843098,-1.2899894,0.19010752,0.23546395,0.0,1.0,0.0,0.0,0.0,0.0,0.0,-0.5089897,0.2416397,-0.17278248,0.06213188,-10.669338,-10.994446,0.5238056,-2.6920855,-0.66750646,0.3307879
-9.300714,22.103895,1.3885148,6.285866,0.4055872,-0.33530223,0.051248837,-0.82528067,0.07180959,-0.5108849,0.7798501,-0.29133528,0.51897174,-0.27852562,0.86874866,-1.0782167,-2.0469952,-0.8638244,1.9317297,1.8901069,-1.0413834,0.93648905,-1.0831507,-2.0044267,-0.9279739,1.9576032,1.8422934,-1.0160545,-1.4780141,0.19796337,-0.8754672,1.385177,-0.33569694,0.40678355,-0.25032708,-0.15663528,-0.63853073,0.72574675,-1.561654,0.31276107,0.27921486,-0.105793,-0.62903976,0.67867666,0.9119527,-0.10064061,0.14660402,0.36975795,-1.303303,0.1811092,0.15499438,0.0,1.0,0.0,0.0,0.0,0.0,0.0,-0.4933647,0.23853073,-0.17574674,0.29079914,-10.693494,-9.2779875,0.65727234,-3.9375544,-0.676322,0.8324444
-6.729022,29.446186,4.1994295,6.811493,0.4118244,-0.25479364,0.10509102,-0.82060355,0.037479218,-0.52856284,0.78052217,-0.2975419,0.514988,-0.21855484,0.8544287,-1.0794028,-2.057283,-0.8499217,1.927849,1.8937922,-1.03791,0.92174906,-1.0818671,-2.0136802,-0.91408604,1.9539846,1.8463123,-1.0184413,-1.4726105,0.10491657,-0.9411054,1.3899386,-0.37069055,0.40025404,-0.23516989,-0.17220688,-0.635334,0.72805154,-1.5551603,0.32295054,0.21720289,-0.11890793,-0.62732697,0.6797219,0.91653734,-0.101023905,0.15367964,0.35515624,-1.3118347,0.1792611,0.0890722,0.0,1.0,0.0,0.0,0.0,0.0,0.0,-0.4777931,0.23533401,-0.17805153,0.5308628,-9.358141,-6.3670874,0.4636526,-3.6228359,-0.69242716,1.3888448
-8.769192,30.438887,4.1291075,7.620166,0.5166049,-0.23522824,0.112140365,-0.82950664,-0.016138347,-0.582105,0.7806204,-0.30367452,0.46931896,-0.15523976,0.8387984,-1.083481,-2.0718908,-0.836024,1.9236171,1.8932441,-1.0339653,0.9070167,-1.0814856,-2.0235786,-0.90016574,1.950072,1.8502373,-1.0206372,-1.4734573,0.0155451195,-1.0058362,1.3928087,-0.3982474,0.38979617,-0.21475822,-0.18771744,-0.6320343,0.72974396,-1.5490239,0.3335573,0.15628673,-0.13212967,-0.62561417,0.6801258,0.9208946,-0.10072707,0.16075003,0.3405384,-1.3246741,0.17870256,0.025293719,0.0,1.0,0.0,0.0,0.0,0.0,0.0,-0.46228254,0.2320343,-0.17974395,-0.08952618,-9.003494,-6.2619925,0.30386448,-2.903366,-1.1165977,1.9266516
-3.7433522,57.937138,12.756097,11.224748,0.5638917,0.011490345,0.14817947,-0.8212479,0.042683043,-0.56605476,0.78375125,-0.30406117,0.4708076,-0.10480369,0.8248919,-1.0772173,-2.0801842,-0.82179064,1.9196659,1.897318,-1.0311176,0.89229673,-1.0814742,-2.0338583,-0.8862284,1.9459918,1.8540635,-1.0226005,-1.4718229,-0.004133477,-1.0335339,1.39362,-0.4123612,0.37967473,-0.19086517,-0.20305634,-0.62849045,0.7312195,-1.527941,0.36245194,0.14772381,-0.14537048,-0.62374115,0.68025964,0.92496556,-0.09999046,0.1679063,0.32595697,-1.3208908,0.2012163,0.010746382,0.0,1.0,0.0,0.0,0.0,0.0,0.0,-0.44694364,0.22849044,-0.18121946,0.045132637,-2.116162,-2.2313356,-0.014019012,-1.8630385,-1.1904478,2.2027998
-5.267375,49.306667,10.121319,10.156895,0.6881008,-0.0475747,0.1328201,-0.8257888,-0.050727222,-0.5938896,0.78102076,-0.2958631,0.45392936,-0.10659044,0.80971783,-1.0865469,-2.0932472,-0.80812633,1.9164054,1.8994565,-1.0332596,0.87757194,-1.0818595,-2.0443747,-0.8722995,1.9418443,1.8577862,-1.0243481,-1.4730271,-0.050387923,-1.0561274,1.3923618,-0.41640618,0.36917603,-0.16983965,-0.21821976,-0.62470245,0.7324738,-1.5113082,0.3849869,0.12120869,-0.15863419,-0.62169266,0.68014276,0.92876005,-0.09886311,0.1750446,0.31143233,-1.3247674,0.21724793,-0.017890178,0.0,1.0,0.0,0.0,0.0,0.0,0.0,-0.43178022,0.22470245,-0.18247378,-0.207448,-4.7490544,-1.7939091,-0.17633438,-0.7934272,-1.216948,1.9525975
-7.6401987,46.093964,8.426673,10.139798,0.63257694,-0.09640151,0.16361511,-0.83370674,-0.07841594,-0.64105237,0.7779516,-0.33815193,0.3921265,0.006956343,0.79420125,-1.089701,-2.10848,-0.79450434,1.9080292,1.8969989,-1.0236526,0.8627949,-1.0827407,-2.055238,-0.8584001,1.9375608,1.8613678,-1.0258251,-1.4794396,-0.100972995,-1.0950056,1.3890033,-0.43311128,0.35398003,-0.14081986,-0.23322296,-0.6207123,0.7334072,-1.4956715,0.40470946,0.08754164,-0.17193985,-0.6194992,0.67968285,0.93228936,-0.09722809,0.1821766,0.29697633,-1.331137,0.23076946,-0.054045647,0.0,1.0,0.0,0.0,0.0,0.0,0.0,-0.416777,0.22071227,-0.18340719,-0.7087946,-5.178927,-3.4628153,-0.3569603,-2.0326197,-1.6759276,2.7566104
-9.361375,29.974417,3.8032398,7.464387,0.5839112,-0.22787684,0.19623011,-0.83536154,-0.17485818,-0.6559332,0.77495927,-0.35908642,0.35245866,0.07556655,0.7792587,-1.1002265,-2.1208313,-0.7809042,1.9016521,1.8966137,-1.0182685,0.84795,-1.0844725,-2.0664947,-0.844536,1.9330401,1.8647803,-1.026986,-1.486137,-0.19752209,-1.1354578,1.3856081,-0.4586721,0.33664355,-0.10813578,-0.24813843,-0.61660767,0.7337704,-1.4888325,0.4132066,0.02277578,-0.18539047,-0.6172638,0.6786536,0.93558073,-0.09493227,0.18920477,0.28262722,-1.3467569,0.23261794,-0.11807985,0.0,1.0,0.0,0.0,0.0,0.0,0.0,-0.40186155,0.21660766,-0.18377036,-0.6716728,-9.730572,-3.792882,-0.27048588,-2.763325,-1.8434823,3.1789734
-9.883457,17.573132,0.35027528,4.9838076,0.48200125,-0.38481122,0.23482704,-0.83443886,-0.25658616,-0.6842943,0.7703062,-0.37455416,0.22645648,0.14084883,0.7645061,-1.1101311,-2.1349242,-0.7675054,1.8955847,1.8874259,-1.0129011,0.83305836,-1.0874213,-2.0781982,-0.8307123,1.9282314,1.8679397,-1.0278001,-1.489946,-0.32748315,-1.1820642,1.3816857,-0.4883634,0.3089132,-0.072779074,-0.26302338,-0.61248016,0.73329705,-1.4883316,0.4130453,-0.06663681,-0.19903946,-0.61507416,0.6768219,0.9386715,-0.09180109,0.19599351,0.2684304,-1.3681948,0.22429746,-0.20391284,0.0,1.0,0.0,0.0,0.0,0.0,0.0,-0.3869766,0.21248016,-0.18329704,-0.3289461,-13.039369,-4.5572042,-0.24108887,-3.049475,-2.8586566,3.4982383
-8.700054,17.868443,0.4765165,4.5410275,0.32175016,-0.37909383,0.28919044,-0.8303747,-0.3053001,-0.7024684,0.7778086,-0.44749796,0.2017288,0.24555051,0.75002086,-1.1179513,-2.1484451,-0.7529315,1.8834815,1.8881125,-1.003245,0.8181658,-1.0916747,-2.0903518,-0.8168821,1.9229573,1.8708215,-1.0282167,-1.4888232,-0.4581749,-1.2262518,1.3839246,-0.54049397,0.28124863,-0.031524118,-0.27789688,-0.6083565,0.73194057,-1.4872179,0.4121553,-0.15418236,-0.21286774,-0.61296844,0.67412645,0.9415509,-0.08777109,0.20258032,0.25443897,-1.3855212,0.21693511,-0.29068443,0.0,1.0,0.0,0.0,0.0,0.0,0.0,-0.3721031,0.20835647,-0.18194056,0.16605854,-13.118542,-4.3094873,0.40233135,-5.302286,-2.8584778,4.0883636
-8.627754,26.006369,2.5428815,5.963694,0.3855639,-0.28151256,0.29945803,-0.8379081,-0.3394358,-0.71078515,0.7738929,-0.46663195,0.14415324,0.30712494,0.734375,-1.1256182,-2.1614304,-0.7394928,1.8762941,1.8852367,-0.99750423,0.8032608,-1.0970782,-2.102867,-0.8030408,1.9171723,1.8734103,-1.0282111,-1.4910432,-0.56790125,-1.2594275,1.3846862,-0.591405,0.25093222,0.011215475,-0.29273605,-0.6042137,0.72982275,-1.480998,0.415921,-0.22765411,-0.22684479,-0.6108856,0.6706652,0.9442011,-0.08288772,0.20901172,0.24068223,-1.3993734,0.21735613,-0.36399078,0.0,1.0,0.0,0.0,0.0,0.0,0.0,-0.35726392,0.20421371,-0.17982274,-0.19812584,-11.051655,-3.0969858,0.24166107,-5.294466,-3.178674,4.228942
-6.064393,29.94829,4.0961456,5.889369,0.52880514,-0.21813023,0.2912492,-0.8296489,-0.40204108,-0.707381,0.77139235,-0.4219705,0.13838819,0.32705176,0.7202959,-1.1372824,-2.173605,-0.72590154,1.8749752,1.8872491,-0.9955059,0.7883711,-1.1035289,-2.1155767,-0.7892071,1.9111116,1.8757178,-1.0278023,-1.4883201,-0.6711707,-1.274214,1.3833531,-0.61134475,0.22345454,0.050599586,-0.30749512,-0.60002136,0.72700363,-1.47269,0.4212915,-0.29668573,-0.24095535,-0.60876465,0.6665332,0.946634,-0.077281475,0.21516198,0.22719344,-1.4115249,0.22202414,-0.42938024,0.0,1.0,0.0,0.0,0.0,0.0,0.0,-0.34250486,0.20002136,-0.17700362,0.26991367,-10.413492,-1.1888504,0.011754036,-2.2649288,-2.9338865,3.8994186
-4.2380533,40.27256,6.82609,7.203024,0.6109898,-0.09806538,0.29608738,-0.83096236,-0.4233919,-0.706579,0.76218563,-0.43542692,0.110797666,0.36668482,0.7052748,-1.1458681,-2.1862347,-0.71298856,1.8675689,1.8867975,-0.99113387,0.77350324,-1.1108111,-2.128336,-0.77543926,1.9049306,1.8777587,-1.027013,-1.4864676,-0.74777347,-1.2749977,1.3748668,-0.6213234,0.19693595,0.08819386,-0.32211685,-0.59573746,0.72362304,-1.4569786,0.43172312,-0.34882632,-0.25511932,-0.60653687,0.6618767,0.9488478,-0.0710887,0.2209914,0.21400242,-1.4163613,0.23523583,-0.47775385,0.0,1.0,0.0,0.0,0.0,0.0,0.0,-0.32788312,0.19573745,-0.17362303,0.1311779,-7.77148,0.36525726,-0.76651573,-1.4198542,-2.8761685,3.6896572
-5.4697266,43.812458,7.329511,8.140066,0.70808995,-0.047287524,0.28171548,-0.83980256,-0.46489674,-0.7138764,0.7545378,-0.4422405,0.032332215,0.40144667,0.689523,-1.1573008,-2.1997235,-0.6999855,1.8607066,1.8809919,-0.98686826,0.7586078,-1.11878,-2.141084,-0.76179075,1.8986888,1.8795035,-1.025863,-1.4907562,-0.81378853,-1.2732253,1.3617297,-0.6263187,0.16621584,0.12371784,-0.33656693,-0.5913391,0.71975595,-1.4395996,0.4432572,-0.3966662,-0.26934433,-0.60414505,0.6567794,0.95085037,-0.06435527,0.22649139,0.2011058,-1.4213972,0.25226077,-0.52062917,0.0,1.0,0.0,0.0,0.0,0.0,0.0,-0.31343305,0.1913391,-0.16975594,-0.49176216,-6.7246795,0.668478,-1.2346983,-0.9804964,-3.320661,3.4823253
