Afshin1997/kuka_rl_ros2/src/catch_and_throw/input_files/idealpd/recorded_trajectories/env_278_data.csv
torque0,torque1,torque2,torque3,torque4,torque5,torque6,action0,action1,action2,action3,action4,action5,action6,set_target_0,set_target_1,set_target_2,set_target_3,set_target_4,set_target_5,set_target_6,joint_pos_0,joint_pos_1,joint_pos_2,joint_pos_3,joint_pos_4,joint_pos_5,joint_pos_6,joint_vel_0,joint_vel_1,joint_vel_2,joint_vel_3,joint_vel_4,joint_vel_5,joint_vel_6,tennisball_pos_0,tennisball_pos_1,tennisball_pos_2,tennisball_lin_vel_0,tennisball_lin_vel_1,tennisball_lin_vel_2,end_effector_pos_0,end_effector_pos_1,end_effector_pos_2,end_effector_rot_0,end_effector_rot_1,end_effector_rot_2,end_effector_rot_3,end_effector_lin_vel_0,end_effector_lin_vel_1,end_effector_lin_vel_2,obs_task_0,obs_task_1,obs_task_2,obs_task_3,obs_task_4,obs_task_5,obs_task_6,to_final_target_0,to_final_target_1,to_final_target_2,joint_acc_0,joint_acc_1,joint_acc_2,joint_acc_3,joint_acc_4,joint_acc_5,joint_acc_6
0.0,0.0,0.0,0.0,0.0,0.0,0.0,0.0,0.0,0.0,0.0,0.0,0.0,0.0,1.7802359,-1.0646509,-1.8151424,-1.1170107,1.9373155,1.1170107,-0.91629785,1.7802359,-1.0646509,-1.8151424,-1.1170107,1.9373155,1.1170107,-0.91629785,0.0,0.0,0.0,0.0,0.0,0.0,0.0,2.9484377,-0.40411758,0.05315171,-3.2178888,-0.324082,5.4077044,0.530416,-0.45449638,0.693097,0.5745483,0.17512383,0.15255436,0.7848268,0.0,0.0,0.0,1.0,0.0,0.0,0.0,0.0,0.0,0.0,-3.5984378,0.0041175783,0.4968483,0.0,0.0,0.0,0.0,0.0,0.0,0.0
0.0,0.0,0.0,0.0,0.0,0.0,0.0,0.0,0.0,0.0,0.0,0.0,0.0,0.0,1.7802359,-1.0646509,-1.8151424,-1.1170107,1.9373155,1.1170107,-0.91629785,1.7802359,-1.0646509,-1.8151424,-1.1170107,1.9373155,1.1170107,-0.91629785,0.0,0.0,0.0,0.0,0.0,0.0,0.0,2.9484377,-0.40411758,0.05315171,-3.2178888,-0.324082,5.4077044,0.530416,-0.45449638,0.693097,0.5745483,0.17512383,0.15255436,0.7848268,0.0,0.0,0.0,1.0,0.0,0.0,0.0,0.0,0.0,0.0,-3.5984378,0.0041175783,0.4968483,0.0,0.0,0.0,0.0,0.0,0.0,0.0
0.0,0.0,0.0,0.0,0.0,0.0,0.0,0.0,0.0,0.0,0.0,0.0,0.0,0.0,1.7802359,-1.0646509,-1.8151424,-1.1170107,1.9373155,1.1170107,-0.91629785,1.7802359,-1.0646509,-1.8151424,-1.1170107,1.9373155,1.1170107,-0.91629785,0.0,0.0,0.0,0.0,0.0,0.0,0.0,2.9484377,-0.40411758,0.05315171,-3.2178888,-0.324082,5.4077044,0.530416,-0.45449638,0.693097,0.5745483,0.17512383,0.15255436,0.7848268,0.0,0.0,0.0,1.0,0.0,0.0,0.0,0.0,0.0,0.0,-3.5984378,0.0041175783,0.4968483,0.0,0.0,0.0,0.0,0.0,0.0,0.0
-176.0,59.700737,-9.623701,110.0,10.235427,4.3650312,-3.914455,-0.788905,0.30091873,-0.55659306,0.7428606,-0.014937584,0.6731993,-0.5733281,1.7013454,-1.034559,-1.8708017,-1.0427246,1.9358217,1.1843307,-0.97363067,1.7788435,-1.0625318,-1.8209884,-1.111983,1.9402375,1.1216112,-0.91679186,-0.1854562,0.2819181,-0.7789171,0.67080307,0.3891285,0.61194706,-0.065632544,2.9162831,-0.40735626,0.106451735,-3.2146716,-0.32375798,5.3041115,0.52841854,-0.45760345,0.6937682,0.578158,0.17370825,0.15197347,0.7826,-0.26618862,-0.41459724,0.08934135,1.0,0.0,0.0,0.0,0.0,0.0,0.0,-3.5662832,0.0073562562,0.44354826,-18.4603,27.995619,-77.76243,67.183136,38.736446,60.7773,-6.494583
-176.0,-63.772186,-58.6467,108.92532,12.223296,0.1919878,-3.3323927,-0.792066,-0.32507944,-0.574594,0.71457696,0.036233608,0.6612093,-0.5973525,1.6996369,-1.0950397,-1.8784478,-1.0405252,1.9438609,1.1877322,-0.9765271,1.7775809,-1.0608038,-1.8359878,-1.0967928,1.9455819,1.1340587,-0.9156007,-0.10954787,0.12381685,-1.7104229,1.802922,0.56760406,1.4226907,0.17282683,2.8841605,-0.41059113,0.15871662,-3.2114575,-0.3234343,5.200622,0.52407455,-0.46601105,0.6940591,0.58619124,0.17025939,0.14989606,0.7777678,-0.49113032,-0.9810267,0.012492568,1.0,0.0,0.0,0.0,0.0,0.0,0.0,-3.5341606,0.0105911195,0.3912834,6.737852,-19.53596,-84.22406,113.53107,13.285124,71.15338,21.479181
-155.69107,67.747986,16.241966,86.912895,8.980249,6.573986,-1.5875505,-0.7469366,0.027078973,0.15252922,0.66115594,0.26249507,0.6806956,-0.4895859,1.7028872,-1.0580959,-1.8207349,-1.0306772,1.9718314,1.2021283,-0.9645593,1.773358,-1.060037,-1.8507602,-1.0769488,1.9513516,1.1482399,-0.9141759,-0.5258823,0.058400035,-1.3942788,2.047537,0.57474303,1.411729,0.13274287,2.8520699,-0.41382217,0.20994738,-3.2082467,-0.3231109,5.097236,0.5170088,-0.4776287,0.6952979,0.59687394,0.16549776,0.14620975,0.77134603,-0.78552496,-1.2151234,0.16476396,1.0,0.0,0.0,0.0,0.0,0.0,0.0,-3.50207,0.013822168,0.34005263,-41.453224,-7.354923,33.21886,25.205208,-0.8872628,-2.5334597,-3.9060295
-104.19896,57.56502,24.478153,51.306545,6.468759,6.4725604,0.15197611,-0.7588795,-0.2509867,0.31670982,0.6848769,0.3125443,0.6670668,-0.5544905,1.6974701,-1.0851357,-1.8190893,-1.0084611,1.982606,1.2149465,-0.969625,1.7648722,-1.061107,-1.859185,-1.0572249,1.95682,1.1615093,-0.913372,-0.956469,-0.16367725,-0.652344,1.9488323,0.5312161,1.29611,0.06344245,2.8200116,-0.41705132,0.26014504,-3.2050393,-0.32278788,4.9939537,0.507411,-0.49053955,0.69770956,0.6082279,0.15986691,0.14034712,0.7647248,-1.0287509,-1.3054123,0.2698395,1.0,0.0,0.0,0.0,0.0,0.0,0.0,-3.4700117,0.01705131,0.28985497,-43.103683,-22.677704,76.08156,-9.372401,-6.2358856,-12.340999,-6.7663445
-52.191353,89.54199,39.853928,28.80092,3.6536524,6.4717193,0.79319394,-0.78949726,-0.13499482,0.36075708,0.6883276,0.42973164,0.6733841,-0.566803,1.6859225,-1.0746065,-1.8231093,-0.9883921,1.9997932,1.2288477,-0.9700523,1.752709,-1.063598,-1.8600605,-1.0397173,1.9621339,1.1734645,-0.9133081,-1.3033398,-0.27877393,0.106128186,1.6851225,0.526254,1.1609135,-0.012959628,2.7879853,-0.42027664,0.30931067,-3.201835,-0.32246515,4.8907747,0.4958763,-0.5034008,0.70126134,0.6191396,0.15346599,0.13238855,0.75867486,-1.2071959,-1.2674724,0.38364115,1.0,0.0,0.0,0.0,0.0,0.0,0.0,-3.4379854,0.020276636,0.24068934,-34.808826,-11.898324,77.43771,-26.301527,-2.0113945,-13.892937,-7.742004
-15.135623,97.02495,39.536106,13.935938,1.3050767,4.8162417,0.6905727,-0.7998692,-0.07215651,0.30438536,0.68318516,0.45427287,0.65266126,-0.5856912,1.6727221,-1.0708137,-1.8296219,-0.97139883,2.0075612,1.2387307,-0.9718772,1.7381483,-1.0664591,-1.855315,-1.0248457,1.9675698,1.1841686,-0.91396326,-1.5072562,-0.2893692,0.60047716,1.4210906,0.54648566,1.0402647,-0.08382509,2.755991,-0.42349815,0.3574453,-3.1986337,-0.32214275,4.7876987,0.4831519,-0.51548195,0.7057022,0.6293218,0.14654554,0.123163946,0.75319916,-1.3066723,-1.1772468,0.46128854,1.0,0.0,0.0,0.0,0.0,0.0,0.0,-3.405991,0.023498148,0.19255471,-20.49105,-1.3565063,50.36019,-26.466799,1.2091517,-12.052608,-7.311016
7.2063956,132.67741,46.06251,11.647203,-0.82338846,4.1590347,-0.010129817,-0.81761986,0.18916933,0.15634742,0.6712878,0.42491567,0.6523408,-0.583045,1.6563864,-1.0475421,-1.8396802,-0.95771694,2.0100615,1.2494026,-0.97226775,1.722428,-1.0678266,-1.8483207,-1.0120856,1.9731774,1.193816,-0.9152574,-1.5941501,-0.087083496,0.7342971,1.2276679,0.5644139,0.9405063,-0.14597079,2.7240286,-0.42671776,0.40454993,-3.1954358,-0.32182068,4.6847258,0.46985292,-0.52630424,0.71108675,0.6390958,0.13920566,0.114164546,0.7477599,-1.3499025,-1.0403926,0.56007713,1.0,0.0,0.0,0.0,0.0,0.0,0.0,-3.3740287,0.026717752,0.14545009,-8.8487625,19.912039,13.933886,-19.359922,1.4940143,-9.711706,-6.6240745
18.88178,144.16759,45.145775,10.302303,-2.077016,3.1880777,-0.5156327,-0.81863683,0.34043434,0.034792516,0.64865685,0.41567928,0.657224,-0.57598674,1.6405643,-1.0337832,-1.8448415,-0.94721985,2.0147455,1.2595383,-0.97285604,1.7064596,-1.0663637,-1.8420417,-1.000672,1.9789224,1.2026031,-0.9170932,-1.5983459,0.22299233,0.59367394,1.1126868,0.5776384,0.85925937,-0.19754437,2.6920981,-0.42993355,0.4506256,-3.192241,-0.3214989,4.581856,0.4564371,-0.53567696,0.7174245,0.64885986,0.13158196,0.10661755,0.7418218,-1.34963,-0.89211756,0.654607,1.0,0.0,0.0,0.0,0.0,0.0,0.0,-3.3420982,0.029933542,0.09937441,-0.6371498,30.721151,-13.683867,-11.483359,1.2621045,-7.8097463,-5.585861
21.543331,145.49391,42.714714,10.993141,-2.4856186,2.5592594,-0.7988329,-0.8226677,0.48395666,-0.07133694,0.6309906,0.4202205,0.6530923,-0.5788036,1.6241928,-1.017968,-1.8491755,-0.9375729,2.0209444,1.2679124,-0.97497356,1.6907336,-1.061519,-1.8382595,-0.98993844,1.9847817,1.2106807,-0.9193782,-1.5647047,0.57072145,0.30755034,1.0601054,0.58852416,0.7910295,-0.24013405,2.6601996,-0.43314552,0.49567333,-3.1890492,-0.32117748,4.479089,0.44316053,-0.54361916,0.72466344,0.65889466,0.123809695,0.10115599,0.73504853,-1.3289257,-0.7501927,0.7441261,1.0,0.0,0.0,0.0,0.0,0.0,0.0,-3.3101997,0.033145517,0.054326683,3.1236172,34.509926,-28.282732,-5.28872,1.0867596,-6.644225,-4.6580315
22.833012,134.89436,39.497124,10.403146,-2.153893,2.17734,-0.6893185,-0.8128909,0.56646353,-0.093719214,0.6127487,0.47349116,0.63885736,-0.57107663,1.6094445,-1.0048727,-1.8476313,-0.92866355,2.032131,1.2745664,-0.9764859,1.6754557,-1.053552,-1.8372524,-0.97946805,1.9908776,1.2181442,-0.92202467,-1.51624,0.8711751,0.033059742,1.042184,0.6164419,0.7314349,-0.27405268,2.628333,-0.4363556,0.5396942,-3.1858609,-0.32085636,4.3764243,0.43011713,-0.550272,0.73271406,0.6692196,0.11596337,0.09766119,0.7274338,-1.3029741,-0.62439936,0.82358086,1.0,0.0,0.0,0.0,0.0,0.0,0.0,-3.2783332,0.036355585,0.010305822,4.6097994,29.806614,-27.064991,-1.9287109,2.7385354,-5.9788465,-3.7644863
20.13036,118.60802,34.963795,10.32785,-1.5863961,1.9132781,-0.53156686,-0.80418634,0.63284045,-0.13477613,0.6103953,0.47116563,0.6445156,-0.574864,1.5950371,-0.990268,-1.85073,-0.91842854,2.0379941,1.2825958,-0.9795111,1.6606413,-1.0431551,-1.8385246,-0.96901387,1.9972215,1.2250831,-0.9249639,-1.470649,1.0950419,-0.17925635,1.045818,0.63992107,0.68100655,-0.30180582,2.5964985,-0.43956184,0.58268917,-3.1826756,-0.32053557,4.2738624,0.4172864,-0.5558338,0.7414315,0.67974675,0.1080589,0.09570284,0.7191026,-1.281651,-0.5197911,0.8867961,1.0,0.0,0.0,0.0,0.0,0.0,0.0,-3.2464986,0.039561838,-0.032689154,4.339266,22.178232,-20.806541,0.15032291,2.2574663,-5.195236,-3.126794
17.294853,99.42012,29.728737,9.164795,-0.971917,1.6244199,-0.29754665,-0.795226,0.6713027,-0.1664325,0.59409493,0.50537705,0.65441006,-0.575819,1.5811187,-0.9760248,-1.8551679,-0.9096044,2.047759,1.2905241,-0.9825458,1.6462065,-1.0311579,-1.8413379,-0.958533,2.003853,1.2315891,-0.92814344,-1.4350028,1.2340711,-0.3139374,1.0479542,0.67038286,0.639834,-0.32443494,2.5646958,-0.44276428,0.6246593,-3.1794934,-0.3202151,4.1714034,0.40461445,-0.5605202,0.7506023,0.69032514,0.100130975,0.09474157,0.71024567,-1.2663667,-0.4364415,0.92689735,1.0,0.0,0.0,0.0,0.0,0.0,0.0,-3.214696,0.042764276,-0.07465929,3.3594847,13.736129,-13.017276,-0.050759315,2.942717,-4.3025374,-2.602023
14.131466,82.07555,24.994356,8.026891,-0.46965498,1.3946853,-0.08947042,-0.7926955,0.68630576,-0.1714822,0.5768,0.509441,0.65837497,-0.57333195,1.566937,-0.9625273,-1.8584862,-0.900853,2.0547972,1.2974266,-0.9854766,1.6320196,-1.0183367,-1.8449237,-0.9481084,2.01075,1.2377441,-0.93151563,-1.4138694,1.2978427,-0.37180254,1.0396512,0.6955478,0.6067499,-0.34261587,2.5329247,-0.4459648,0.66560555,-3.1763146,-0.31989494,4.0690465,0.3920436,-0.5645008,0.7600063,0.7007939,0.0922121,0.094292015,0.70106614,-1.257251,-0.37049675,0.9450667,1.0,0.0,0.0,0.0,0.0,0.0,0.0,-3.1829247,0.045964807,-0.11560553,1.9212246,6.252432,-5.3179445,-1.1139631,2.4120927,-3.4587264,-2.1490455
11.424541,71.81099,22.15632,7.929768,-0.096867085,1.2857835,0.030564519,-0.7886884,0.7035536,-0.17733015,0.5721879,0.5225562,0.6675315,-0.5723936,1.5531508,-0.9479813,-1.8626567,-0.8908896,2.0630057,1.3044972,-0.988755,1.6179644,-1.005216,-1.8487098,-0.9377963,2.017876,1.2436206,-0.9350433,-1.4034187,1.3166356,-0.3792699,1.027565,0.7179236,0.58092064,-0.35726342,2.5011854,-0.44916153,0.70552903,-3.1731389,-0.3195751,3.9667923,0.37951756,-0.5679188,0.7695009,0.71104985,0.084302396,0.09401895,0.69170916,-1.2538389,-0.31626403,0.951284,1.0,0.0,0.0,0.0,0.0,0.0,0.0,-3.1511855,0.049161524,-0.15552902,0.8628607,1.7799377,-0.26792884,-1.4886856,2.1342874,-2.705562,-1.7884791
11.190593,67.34554,21.099972,7.4685655,0.04573089,1.2516403,0.12779076,-0.7848485,0.71355224,-0.16360226,0.5550081,0.5339204,0.669494,-0.5744591,1.5394795,-0.9338608,-1.8650701,-0.8822955,2.0712678,1.31057,-0.99248916,1.6039664,-0.9920744,-1.8523033,-0.9276702,2.0252001,1.2492778,-0.9386987,-1.3992437,1.3129802,-0.35089692,1.0067518,0.7373629,0.5604956,-0.36943126,2.4694777,-0.45235443,0.7444308,-3.1699662,-0.3192556,3.8646407,0.36701202,-0.5708103,0.77901965,0.7210165,0.07637852,0.09372729,0.68228775,-1.2517227,-0.26477456,0.9522252,1.0,0.0,0.0,0.0,0.0,0.0,0.0,-3.1194777,0.052354425,-0.19443077,0.23562908,-0.45068264,3.3382356,-2.3572922,1.8354297,-2.1358013,-1.5409887
11.760698,66.969246,21.138947,7.285677,0.08763391,1.2713132,0.19275673,-0.7840155,0.72137576,-0.14118086,0.5355522,0.55146646,0.6691699,-0.5719849,1.5255648,-0.9199368,-1.8664213,-0.874115,2.0803468,1.3161948,-0.9958972,1.5899779,-0.97901094,-1.8554542,-0.91781396,2.0327265,1.2547615,-0.9424581,-1.3991905,1.3037847,-0.30127403,0.9777894,0.7573348,0.54409397,-0.3791958,2.4378018,-0.45554352,0.78231174,-3.166797,-0.3189364,3.7625911,0.3545246,-0.57317543,0.78854823,0.7306353,0.06840763,0.09331198,0.6728932,-1.2492466,-0.21182314,0.95299035,1.0,0.0,0.0,0.0,0.0,0.0,0.0,-3.087802,0.055543512,-0.23231173,-0.18017292,-0.9996891,5.486071,-3.165102,1.8813968,-1.7178416,-1.301223
13.152814,69.05345,21.73966,7.199951,0.017373562,1.3004484,0.21944754,-0.7808982,0.7313568,-0.12028431,0.5180256,0.5598157,0.67597705,-0.5716546,1.511888,-0.90587527,-1.8674827,-0.8660114,2.0887082,1.3223592,-0.99962354,1.5759913,-0.965999,-1.8580596,-0.9082791,2.040436,1.2601097,-0.9463014,-1.3992203,1.3001004,-0.24521482,0.94446725,0.7750692,0.5315656,-0.38716283,2.4061575,-0.4587307,0.819173,-3.1636307,-0.31861755,3.6606436,0.3420787,-0.5749798,0.79810584,0.7398755,0.0603491,0.09276343,0.663579,-1.2440295,-0.15448658,0.9562284,1.0,0.0,0.0,0.0,0.0,0.0,0.0,-3.0561576,0.05873069,-0.26917297,-0.19135475,-0.44796467,6.141937,-3.5927534,1.6561627,-1.3183355,-1.1217594
12.748539,70.6214,21.905405,8.090469,0.03916639,1.3171494,0.19844562,-0.7814432,0.73630977,-0.09822969,0.51261085,0.56769323,0.68077487,-0.56845146,1.497847,-0.892368,-1.8678826,-0.85701805,2.0972054,1.3281871,-1.0031465,1.561999,-0.95297945,-1.8601196,-0.89903134,2.0483057,1.2653549,-0.95021147,-1.3998808,1.302246,-0.19095182,0.91737497,0.7903583,0.52191114,-0.39329892,2.374545,-0.46191406,0.8550155,-3.1604676,-0.318299,3.558798,0.329679,-0.5762005,0.8077205,0.74874896,0.052164093,0.09210373,0.6543476,-1.2390438,-0.096484944,0.96238256,1.0,0.0,0.0,0.0,0.0,0.0,0.0,-3.0245452,0.061914057,-0.3050155,-0.2500534,0.13456345,5.953464,-2.953148,1.4189005,-1.0343552,-0.93058944
15.564017,75.36588,23.703293,7.8287506,-0.05400145,1.4438617,0.26485974,-0.7809253,0.7466094,-0.033554997,0.4825755,0.5820008,0.68309873,-0.564165,1.4839064,-0.8783185,-1.8634751,-0.8507738,2.1065059,1.3336648,-1.0066279,1.5480009,-0.9398769,-1.8614719,-0.8901107,2.0563319,1.2705181,-0.9541711,-1.4003751,1.3125848,-0.114933826,0.88289607,0.8060852,0.51440185,-0.39795145,2.3429642,-0.46509552,0.88984036,-3.1573079,-0.31798077,3.4570541,0.31734943,-0.5767746,0.81745344,0.75721675,0.043784317,0.09131765,0.6452648,-1.230618,-0.029303564,0.9756316,1.0,0.0,0.0,0.0,0.0,0.0,0.0,-2.9929643,0.065095514,-0.33984035,-0.24251938,0.9490967,8.17195,-3.6782622,1.4474273,-0.81784725,-0.7918775
18.23811,76.9989,24.400183,7.1737285,-0.1455012,1.4395943,0.32235196,-0.7750832,0.7486837,0.020424161,0.4624712,0.58834964,0.6818073,-0.5525311,1.4704926,-0.86500853,-1.8594295,-0.84386355,2.115167,1.3386987,-1.0094242,1.5340277,-0.9266628,-1.8619564,-0.8815524,2.0644991,1.2756183,-0.95816225,-1.3969481,1.3240032,-0.024265291,0.84607357,0.81987894,0.5084559,-0.40052482,2.3114147,-0.46827316,0.9236485,-3.1541512,-0.31766286,3.355412,0.30513763,-0.5766411,0.82733506,0.76523036,0.035159618,0.090381786,0.63640976,-1.2171952,0.04261325,0.9905811,1.0,0.0,0.0,0.0,0.0,0.0,0.0,-2.9614148,0.06827316,-0.37364846,0.15654564,1.0618925,9.638214,-3.8953662,1.256156,-0.63591003,-0.58268905
16.537971,74.48052,22.743797,7.8384356,-0.1463936,1.2545837,0.24668477,-0.77244604,0.7571794,0.014789344,0.4632421,0.5899453,0.68581605,-0.54583937,1.456783,-0.8509449,-1.8604774,-0.8352282,2.1234937,1.3441999,-1.0127462,1.5201021,-0.91331613,-1.8617485,-0.8732726,2.072777,1.2806728,-0.9621677,-1.3914651,1.337946,0.037361942,0.8213386,0.8303129,0.5042662,-0.40149772,2.2798967,-0.471447,0.9564409,-3.1509976,-0.31734526,3.2538714,0.29306173,-0.57582664,0.8373311,0.7728291,0.026311422,0.08935751,0.6277405,-1.2027645,0.10841622,1.0003512,1.0,0.0,0.0,0.0,0.0,0.0,0.0,-2.9298968,0.071446985,-0.4064409,0.3828764,1.3259888,6.6595554,-2.6711464,0.959146,-0.43885708,-0.39506555
15.586759,70.973885,20.938581,7.398761,-0.21469295,1.0382403,0.22428131,-0.7758779,0.7636453,0.028553108,0.4330175,0.5994795,0.68428,-0.5356176,1.4425143,-0.8369516,-1.8588932,-0.82997084,2.132725,1.3491008,-1.0157294,1.5062109,-0.89982927,-1.8610904,-0.8652865,2.0811617,1.2856929,-0.96617025,-1.3889227,1.3521659,0.07671723,0.79038966,0.8408877,0.50120884,-0.40081874,2.2484102,-0.474617,0.9882188,-3.1478474,-0.317028,3.1524324,0.28115034,-0.5743923,0.8473633,0.78004587,0.017314916,0.08832171,0.61921555,-1.1850095,0.16940632,1.0015138,1.0,0.0,0.0,0.0,0.0,0.0,0.0,-2.8984103,0.074617,-0.43821877,0.096058846,1.3676882,4.3827987,-3.2934427,1.0016084,-0.28452873,-0.2078712
20.031607,66.82833,19.651768,3.5277605,-0.5772873,0.72913766,0.34242985,-0.7717946,0.7631085,0.06336927,0.3572236,0.6104776,0.67992115,-0.53178334,1.4290315,-0.8235184,-1.8547535,-0.82956415,2.1422095,1.353685,-1.0193486,1.4923521,-0.8862356,-1.8600585,-0.85789365,2.089661,1.2906883,-0.97016233,-1.3854904,1.3616328,0.11341327,0.72162783,0.8528895,0.49941778,-0.39950138,2.2169552,-0.4777851,1.018983,-3.1447,-0.31671104,3.051095,0.26952744,-0.57234,0.8573031,0.786815,0.008291209,0.08732209,0.610924,-1.1518221,0.23144045,0.98844016,1.0,0.0,0.0,0.0,0.0,0.0,0.0,-2.8669553,0.077785105,-0.468983,0.18565655,0.914526,4.0984077,-7.093692,1.1570096,-0.051355362,-0.13557673
20.84903,64.261375,18.449818,2.4911313,-0.71691495,0.5083435,0.34738335,-0.76744425,0.77191806,0.0636709,0.32827225,0.6122437,0.6844707,-0.5119854,1.4156077,-0.80904377,-1.8536915,-0.82506645,2.1508853,1.3591354,-1.0213609,1.4785391,-0.8725418,-1.8587806,-0.85124654,2.0982668,1.2956741,-0.9741258,-1.3804231,1.3718693,0.13398685,0.6450663,0.8629243,0.49904248,-0.39607507,2.1855316,-0.4809494,1.0487347,-3.141556,-0.3163944,2.9498587,0.25828266,-0.5696888,0.86706513,0.7931187,-0.0006745507,0.08641633,0.6029049,-1.1119152,0.28950748,0.9687844,1.0,0.0,0.0,0.0,0.0,0.0,0.0,-2.8355317,0.080949396,-0.49873465,0.3608942,1.0084867,2.4306967,-7.87251,0.9923339,0.13827682,0.096809864
23.794333,60.472095,17.09937,-0.43453884,-0.99857205,0.19935566,0.4214299,-0.76512384,0.7756456,0.067222975,0.24710993,0.6285913,0.6864049,-0.50420517,1.4020268,-0.79497725,-1.8520583,-0.8265355,2.161126,1.3643146,-1.0245463,1.4647795,-0.85875547,-1.8573787,-0.8455903,2.1069987,1.3006656,-0.9780492,-1.3749592,1.3809229,0.14324526,0.5384503,0.8765442,0.50005203,-0.39186016,2.1541395,-0.4841118,1.0774747,-3.138415,-0.31607807,2.8487236,0.24752808,-0.5664787,0.87654483,0.798924,-0.009469527,0.08565996,0.5952253,-1.0592016,0.3446869,0.93742126,1.0,0.0,0.0,0.0,0.0,0.0,0.0,-2.8041396,0.08411178,-0.5274747,0.40855408,0.91285706,1.2540668,-10.887278,1.3760567,0.36105514,0.19619465
30.824074,61.15641,18.057598,-4.7339835,-1.3973718,0.04417026,0.6319461,-0.7630797,0.78036696,0.13545138,0.1263952,0.64418626,0.6780839,-0.49121454,1.3884715,-0.7807188,-1.8438336,-0.8329508,2.1714172,1.368474,-1.0271707,1.4510714,-0.8448814,-1.8556297,-0.84136933,2.1158907,1.3056667,-0.98192304,-1.3697404,1.3896096,0.18651253,0.38261935,0.89348346,0.50130254,-0.38670757,2.122779,-0.48727036,1.1052041,-3.1352773,-0.31576204,2.74769,0.23743057,-0.5626526,0.8856694,0.80410457,-0.018011851,0.08503134,0.5880994,-0.9883975,0.40678534,0.9003754,1.0,0.0,0.0,0.0,0.0,0.0,0.0,-2.772779,0.08727035,-0.5552041,0.391984,0.89497566,4.6525955,-15.796262,1.7153382,0.4786253,0.29972196
46.936806,60.180614,18.969582,-15.670031,-2.5191946,-0.4354229,1.0353422,-0.74720544,0.787724,0.19288273,-0.1058453,0.65399367,0.67536247,-0.48192528,1.3763509,-0.766109,-1.8363414,-0.85195386,2.1812901,1.3732029,-1.0301156,1.4374777,-0.83090913,-1.8532131,-0.8395335,2.1249545,1.3106887,-0.9857425,-1.3560898,1.4000177,0.260892,0.11659298,0.9110132,0.5044541,-0.38093415,2.0914497,-0.4904251,1.1319239,-3.1321428,-0.31544635,2.646757,0.22838068,-0.55810165,0.8942621,0.8083966,-0.026105637,0.08456412,0.5819471,-0.87178236,0.48221332,0.8415458,1.0,0.0,0.0,0.0,0.0,0.0,0.0,-2.7414498,0.090425104,-0.5819239,1.2727976,1.1032581,7.7197404,-26.789104,1.7941594,0.8933544,0.39547682
53.994705,61.944714,20.288712,-19.934605,-2.936506,-0.62062436,1.2580228,-0.74600667,0.7976671,0.2761174,-0.26746362,0.6668393,0.65604484,-0.44179744,1.362877,-0.75114244,-1.8256013,-0.86627984,2.1916385,1.3762932,-1.0299222,1.4240175,-0.81680715,-1.8497627,-0.8407342,2.134205,1.3157318,-0.9894771,-1.3428068,1.4138635,0.37364614,-0.1992985,0.9300644,0.506413,-0.37127295,2.060152,-0.49357796,1.1576352,-3.1290112,-0.31513095,2.545925,0.22063875,-0.5527363,0.9022369,0.8116178,-0.033637013,0.08424944,0.57710224,-0.73557657,0.5627084,0.77842873,1.0,0.0,0.0,0.0,0.0,0.0,0.0,-2.7101521,0.09357795,-0.6076352,1.304245,1.4765263,11.4081745,-31.685802,2.0342112,0.85992813,0.85478425
55.183685,65.24097,21.930113,-18.75698,-2.7958126,-0.5846031,1.3027333,-0.72359717,0.8014885,0.37009212,-0.36223072,0.6684133,0.64138263,-0.3724203,1.3516579,-0.7366583,-1.8127534,-0.87695724,2.2010465,1.37987,-1.0267191,1.4107691,-0.80257356,-1.8449314,-0.8449065,2.1436236,1.3207805,-0.9930667,-1.3185614,1.4269558,0.51929235,-0.4898453,0.9464573,0.5065821,-0.35486433,2.0288854,-0.496727,1.182339,-3.1258829,-0.31481588,2.4451938,0.21424484,-0.5465603,0.9096663,0.81372726,-0.040675562,0.08400233,0.5737046,-0.6006286,0.6429324,0.7263007,1.0,0.0,0.0,0.0,0.0,0.0,0.0,-2.6788855,0.096726984,-0.63233894,2.4960756,1.4307737,14.450759,-29.0435,1.9216895,0.67623854,1.6029358
44.71669,69.25073,23.001003,-9.1388,-1.812517,-0.20589298,1.0673327,-0.70708364,0.8053995,0.45412076,-0.35235298,0.6622239,0.6300503,-0.24025287,1.3400607,-0.7220336,-1.7995193,-0.8801418,2.209846,1.3837855,-1.017092,1.3978087,-0.7882236,-1.8385322,-0.8511378,2.1531527,1.3258159,-0.9963998,-1.2882147,1.438231,0.6789133,-0.66746724,0.95690024,0.50418437,-0.32623637,1.9976501,-0.4998722,1.2060361,-3.1227577,-0.31450114,2.3445632,0.20893049,-0.5396328,0.91679555,0.8148696,-0.04749564,0.083691776,0.57160056,-0.5012312,0.7144215,0.70305204,1.0,0.0,0.0,0.0,0.0,0.0,0.0,-2.6476502,0.0998722,-0.6560361,3.1510592,1.2767315,15.6137705,-17.705154,1.5042782,0.30415058,2.8606951
30.54096,66.851074,21.420277,0.7442045,-0.76734954,0.021627605,0.7707003,-0.69951475,0.80083966,0.49987504,-0.34165093,0.6522866,0.6182627,-0.030649997,1.3278573,-0.70813966,-1.7885447,-0.8853029,2.2183814,1.3876421,-0.9994648,1.3851305,-0.7738155,-1.8306892,-0.8583171,2.1627276,1.3308113,-0.9993066,-1.2607102,1.4422227,0.8178433,-0.7347532,0.9594406,0.49935636,-0.27886006,1.9664459,-0.5030155,1.2287277,-3.1196356,-0.3141867,2.2440333,0.2043109,-0.532114,0.92383623,0.8152718,-0.054335937,0.08323982,0.57048285,-0.44140416,0.76870894,0.6983951,1.0,0.0,0.0,0.0,0.0,0.0,0.0,-2.616446,0.10301551,-0.6787277,2.8501272,0.5653858,13.450872,-6.708622,0.79284906,-0.05645752,4.7308087
9.735394,60.04196,17.354546,13.066305,0.4754408,0.23931149,0.29645342,-0.71801424,0.79988486,0.493901,-0.26978225,0.6273747,0.6305459,0.13694282,1.3133291,-0.69382703,-1.7812991,-0.8852953,2.225465,1.3938658,-0.98561233,1.3725611,-0.75940263,-1.8218944,-0.865298,2.17223,1.3357608,-1.0016426,-1.2559034,1.4416258,0.89875484,-0.68622136,0.94878256,0.49427742,-0.2187261,1.9352732,-0.506155,1.2504147,-3.1165166,-0.31387258,2.143604,0.19990587,-0.5242424,0.93093926,0.8152731,-0.061367676,0.08268844,0.5698476,-0.43257168,0.79749566,0.7080019,1.0,0.0,0.0,0.0,0.0,0.0,0.0,-2.5852733,0.10615501,-0.7004147,0.47473907,0.11425018,7.709515,4.756212,-0.5393982,-0.24798512,5.975351
-9.868246,51.004154,12.689261,24.277328,1.6658003,0.40363497,-0.1694817,-0.739372,0.7890408,0.4801671,-0.15562488,0.60699433,0.64689076,0.25320715,1.2986239,-0.68049854,-1.7738777,-0.88086045,2.2329295,1.4004499,-0.9763219,1.3598582,-0.7450613,-1.8127277,-0.8710162,2.1815531,1.3406684,-1.0033382,-1.2755295,1.432229,0.9215811,-0.5344802,0.9282708,0.4897977,-0.15336181,1.9041314,-0.5092907,1.2710983,-3.1134007,-0.31355876,2.043275,0.19522381,-0.5162811,0.93821526,0.8152432,-0.068727784,0.0820929,0.56913584,-0.4719925,0.800071,0.7276168,1.0,0.0,0.0,0.0,0.0,0.0,0.0,-2.5541315,0.10929069,-0.72109824,-2.0889282,-0.76458454,2.0050406,14.945591,-1.5666485,-0.34692883,6.4595847
-35.280178,47.26891,9.677212,42.882908,3.5386488,1.0387021,-0.8551866,-0.7607663,0.7814365,0.44871402,0.15890484,0.57372874,0.6623535,0.34261522,1.2837815,-0.6669176,-1.7678562,-0.8551257,2.238926,1.4069037,-0.9690767,1.3468252,-0.7308496,-1.8037307,-0.87380093,2.1905901,1.3455341,-1.0043739,-1.313534,1.4180951,0.8914859,-0.19433776,0.89708984,0.4850233,-0.08741118,1.8730206,-0.51242447,1.2907792,-3.110288,-0.31324527,1.9430463,0.18958282,-0.50847054,0.9459576,0.81565654,-0.0767805,0.081412904,0.5676099,-0.5869407,0.7794531,0.78306985,1.0,0.0,0.0,0.0,0.0,0.0,0.0,-2.5230207,0.11242446,-0.7407792,-4.0467024,-1.2201548,-3.282404,33.662735,-2.5735617,-0.62347054,6.480138
-49.378574,44.026978,7.6440167,53.559036,4.570602,1.4133519,-1.2777086,-0.7807444,0.7732017,0.40021926,0.40950474,0.5417583,0.6737988,0.40692076,1.2687508,-0.65352947,-1.7637088,-0.83285046,2.244766,1.4129139,-0.9636818,1.3333536,-0.7168001,-1.7953632,-0.8723399,2.1992571,1.350354,-1.0047668,-1.3593594,1.4011877,0.8174784,0.2584235,0.85856026,0.4798637,-0.023695776,1.8419414,-0.5155544,1.3094587,-3.1071782,-0.31293207,1.8429177,0.18246174,-0.50094414,0.9543956,0.8168623,-0.08583262,0.08062218,0.56468457,-0.74562305,0.74924,0.85742825,1.0,0.0,0.0,0.0,0.0,0.0,0.0,-2.4919415,0.11555442,-0.7594587,-4.82893,-1.5105486,-7.733059,44.94497,-3.2681823,-0.8711517,6.275925
-43.98318,40.181305,6.6814456,48.62202,4.0360813,1.17668,-1.1972497,-0.7937534,0.7614598,0.360337,0.4973542,0.5259473,0.6689702,0.3714475,1.2539783,-0.6406541,-1.7593294,-0.8226045,2.2518518,1.417251,-0.96762204,1.3194529,-0.7029432,-1.7878788,-0.86670464,2.2075465,1.3551223,-1.0046161,-1.4008646,1.3809829,0.7244439,0.66452754,0.82118535,0.47448406,0.027806364,1.8108926,-0.5186825,1.3271376,-3.1040716,-0.3126192,1.7428892,0.17388725,-0.49368286,0.963444,0.81886905,-0.095825635,0.07978357,0.56027263,-0.88656676,0.7258398,0.9140273,1.0,0.0,0.0,0.0,0.0,0.0,0.0,-2.4608927,0.118682474,-0.7771376,-4.305935,-1.8901348,-9.641457,40.392345,-3.2082915,-0.9223044,5.095924
-24.521147,40.920425,8.226673,33.24894,2.49016,0.6415138,-0.6999303,-0.8053523,0.75977814,0.3581771,0.47188953,0.56982523,0.65438944,0.29286113,1.2389177,-0.6269654,-1.752061,-0.8195157,2.264529,1.4205613,-0.97533005,1.3052012,-0.689257,-1.7811592,-0.8582379,2.215668,1.3598392,-1.0040764,-1.4337492,1.3647636,0.65389836,0.9069068,0.8100497,0.46984455,0.06249309,1.7798753,-0.5218067,1.343817,-3.1009681,-0.31230664,1.6429607,0.16435385,-0.48651886,0.9727912,0.82136,-0.10640608,0.07894955,0.55480856,-0.967556,0.7228891,0.9347808,1.0,0.0,0.0,0.0,0.0,0.0,0.0,-2.4298754,0.12180671,-0.793817,-3.3915281,-1.5552759,-7.213354,24.101126,-0.7540345,-0.68963766,3.4037664
-1.8939438,42.835247,10.10173,15.408516,0.61422884,-0.03036204,-0.11506537,-0.80504924,0.75926465,0.34768277,0.4126321,0.5750276,0.66279334,0.27199292,1.2246963,-0.61333054,-1.7463909,-0.8169747,2.2731707,1.4261185,-0.9768771,1.2907339,-0.6756872,-1.7749488,-0.84872025,2.223759,1.3645351,-1.0032638,-1.4514083,1.3544813,0.6103681,0.96623117,0.80946386,0.46943986,0.08706833,1.748889,-0.52492714,1.3594979,-3.0978677,-0.3119944,1.5431321,0.15456343,-0.47925568,0.982055,0.8239144,-0.11712322,0.07824279,0.54893094,-0.9748105,0.7387415,0.916732,1.0,0.0,0.0,0.0,0.0,0.0,0.0,-2.398889,0.12492713,-0.8094979,-1.866889,-1.009965,-4.2464733,5.8047414,0.08896589,0.0028192997,2.3426385
14.754053,42.8985,10.883284,1.6826487,-0.7774808,-0.65793777,0.320687,-0.8052606,0.7540678,0.33279002,0.34754327,0.58732206,0.6666436,0.24530537,1.2102078,-0.6002804,-1.7416699,-0.8139659,2.2824912,1.4311994,-0.9787333,1.2761809,-0.66220033,-1.769036,-0.8396594,2.231911,1.3692462,-1.0022682,-1.45694,1.3467392,0.5861235,0.8856561,0.81696373,0.47256604,0.103216626,1.7179337,-0.52804375,1.3741813,-3.0947704,-0.31168246,1.4434032,0.14512873,-0.4717846,0.9909164,0.82620674,-0.12757893,0.077770896,0.54319215,-0.9246578,0.7608501,0.8691335,1.0,0.0,0.0,0.0,0.0,0.0,0.0,-2.3679338,0.12804374,-0.82418126,-0.6563425,-0.7744312,-2.13629,-8.196664,0.74363947,0.59865713,1.4678941
24.550081,46.154808,12.662138,-5.1243057,-1.490124,-0.9213213,0.6203845,-0.8046732,0.7496255,0.37118,0.2963675,0.57608044,0.6614081,0.31302515,1.1957135,-0.5872378,-1.7319181,-0.81002265,2.289519,1.435387,-0.9709657,1.2616335,-0.6487812,-1.7630451,-0.83191746,2.240105,1.3739917,-1.0010914,-1.4542948,1.3402054,0.60459954,0.73666966,0.81990635,0.47651407,0.12214285,1.6870089,-0.53115845,1.387868,-3.0916762,-0.31137085,1.3437742,0.13642454,-0.46404266,0.99924034,0.828013,-0.13759385,0.07756518,0.53800195,-0.84371334,0.7891741,0.81353694,1.0,0.0,0.0,0.0,0.0,0.0,0.0,-2.337009,0.13115844,-0.83786803,0.18782616,-0.6621599,2.225542,-15.002501,0.1962781,0.78513026,1.7328143
24.135311,45.877804,12.461281,-4.2335415,-1.4433423,-1.0080001,0.5828968,-0.79394144,0.74366117,0.35285208,0.3051467,0.5473896,0.66532314,0.35601828,1.1822394,-0.5744151,-1.7277598,-0.8014028,2.294844,1.4405241,-0.9654895,1.2471873,-0.63543355,-1.7568824,-0.8255021,2.248234,1.3787754,-0.99971044,-1.4414583,1.3329906,0.6211025,0.6095113,0.8099934,0.4804505,0.14298214,1.6561155,-0.53426933,1.4005592,-3.0885851,-0.31105953,1.2442447,0.12851954,-0.45603943,1.0070466,0.8293159,-0.1471788,0.07764679,0.5334271,-0.76365304,0.8133521,0.76318246,1.0,0.0,0.0,0.0,0.0,0.0,0.0,-2.3061156,0.13426933,-0.8505592,1.2546062,-0.7158518,1.9351244,-12.785149,-1.0559678,0.76370835,1.950255
20.241264,45.01083,11.991671,-0.87030697,-1.0986916,-0.96926427,0.48570433,-0.79350346,0.7375603,0.35790026,0.2919252,0.5332816,0.6584625,0.42239338,1.1678369,-0.5616775,-1.7210925,-0.7963096,2.3015623,1.4446216,-0.95747113,1.2328726,-0.62216794,-1.7505558,-0.82007474,2.2562106,1.3835876,-0.99809015,-1.4283621,1.3244771,0.6371439,0.5204103,0.79381007,0.48263052,0.16804697,1.6252527,-0.5373783,1.4122559,-3.0854971,-0.31074855,1.1448147,0.12131786,-0.44781685,1.0144165,0.8301843,-0.15642244,0.07800823,0.52937764,-0.6966386,0.83329767,0.72198933,1.0,0.0,0.0,0.0,0.0,0.0,0.0,-2.2752528,0.1373783,-0.8622559,1.2989521,-0.8312464,1.8012047,-8.964241,-1.6281843,0.52796006,2.3932636
14.77612,41.86181,10.616677,3.0372334,-0.68836004,-0.9505353,0.32091397,-0.7915409,0.72876734,0.3438584,0.2859705,0.51181865,0.6549853,0.44036046,1.1537185,-0.5492912,-1.71617,-0.7914777,2.3073924,1.4490862,-0.9540541,1.2186705,-0.60900915,-1.7441852,-0.8152177,2.2639773,1.3884132,-0.9962257,-1.4175799,1.3131292,0.63756055,0.47392213,0.7714578,0.4833698,0.19217347,1.5944209,-0.5404835,1.422959,-3.0824122,-0.31043786,1.0454842,0.11466122,-0.43943787,1.0214264,0.830734,-0.16540788,0.07864141,0.52567726,-0.6461044,0.8462226,0.68788064,1.0,0.0,0.0,0.0,0.0,0.0,0.0,-2.244421,0.14048347,-0.87295896,1.0671377,-1.0988474,0.15479326,-4.7129335,-2.1850348,0.3271401,2.3183525
12.965079,34.629395,7.985689,2.2521324,-0.683287,-1.2347175,0.2652452,-0.78451496,0.710601,0.31106836,0.22332,0.47959712,0.64867204,0.473326,1.140219,-0.537949,-1.7130784,-0.79288566,2.311937,1.4532804,-0.94889313,1.2045752,-0.5960268,-1.7380092,-0.81086034,2.2714617,1.3932388,-0.99412096,-1.4069145,1.2934258,0.6112237,0.42264348,0.7406529,0.4833677,0.21638153,1.5636201,-0.5435848,1.4326695,-3.0793304,-0.31012747,0.94625294,0.10851526,-0.43102646,1.0280383,0.8310553,-0.17406309,0.07959867,0.5222195,-0.5947207,0.84550864,0.64626324,1.0,0.0,0.0,0.0,0.0,0.0,0.0,-2.2136202,0.14358482,-0.8826695,1.0651827,-1.9215584,-2.5725603,-5.213624,-3.0143976,0.2814591,2.3447454
12.439791,31.22185,6.7209005,1.3617234,-0.73600805,-1.4193999,0.2523552,-0.78420985,0.70144004,0.29859272,0.16951196,0.45856905,0.64860743,0.48200357,1.1261542,-0.5258828,-1.7081499,-0.79390913,2.3173187,1.4580995,-0.9459206,1.1905581,-0.5832561,-1.732167,-0.8071191,2.278618,1.3980644,-0.99179304,-1.3999795,1.271785,0.575402,0.3576484,0.7073104,0.48332253,0.23811233,1.5328498,-0.54668427,1.4413885,-3.0762517,-0.3098174,0.8471209,0.10290384,-0.42267036,1.0342035,0.8311965,-0.18229496,0.08093141,0.51897115,-0.54064,0.83753604,0.60080093,1.0,0.0,0.0,0.0,0.0,0.0,0.0,-2.18285,0.14668426,-0.8913885,0.6937504,-2.1101475,-3.5367012,-6.5901875,-3.268981,0.29125214,2.1083415
13.56464,30.291542,6.51917,-0.03267479,-0.84149593,-1.5514215,0.30347046,-0.78031975,0.6897603,0.30269662,0.111408696,0.43640232,0.64780104,0.50381655,1.112526,-0.5142801,-1.7018974,-0.7959782,2.3222582,1.4628445,-0.9414114,1.1766001,-0.5707096,-1.7266128,-0.8041684,2.2854311,1.40289,-0.98925626,-1.3942165,1.2490381,0.5489128,0.2739634,0.6728792,0.48330617,0.2586831,1.50211,-0.5497799,1.4491168,-3.0731761,-0.30950764,0.74808794,0.09787607,-0.41441154,1.0398971,0.831155,-0.1900432,0.08264648,0.5159792,-0.48106954,0.8266546,0.55342793,1.0,0.0,0.0,0.0,0.0,0.0,0.0,-2.15211,0.14977989,-0.8991168,0.5898714,-2.2187233,-2.6081204,-8.446032,-3.391242,0.30385852,1.9985944
15.05349,29.070818,6.3312645,-1.7141953,-0.9329867,-1.7006043,0.37118393,-0.7734263,0.67284787,0.30409214,0.04583603,0.4169963,0.6448158,0.5244526,1.0992575,-0.5034248,-1.6962036,-0.7995848,2.3271308,1.4673716,-0.936811,1.1627146,-0.5584148,-1.7212303,-0.80219907,2.2919123,1.4077137,-0.9865211,-1.3866228,1.2231628,0.53480804,0.17104328,0.63974184,0.48309672,0.27822202,1.4714017,-0.5528736,1.4558556,-3.0701036,-0.3091982,0.649154,0.09348869,-0.40628624,1.045097,0.8309036,-0.19725338,0.08471497,0.51333576,-0.41564655,0.8118393,0.5037293,1.0,0.0,0.0,0.0,0.0,0.0,0.0,-2.1214018,0.1528736,-0.9058556,0.7986069,-2.5281906,-1.3871193,-10.351398,-3.2756448,0.2937138,1.9028306
13.950129,28.020758,6.0555167,-0.7406273,-0.75591516,-1.7424043,0.34060165,-0.76472235,0.6594507,0.28724054,0.0184332,0.41531506,0.6410436,0.5272474,1.0862423,-0.49246973,-1.6925062,-0.80035573,2.3334439,1.471818,-0.9337964,1.1489302,-0.5463823,-1.7159927,-0.8011796,2.2981265,1.4125316,-0.98361146,-1.375537,1.1968236,0.5198655,0.078709,0.61570317,0.4822497,0.29512835,1.4407239,-0.5559635,1.4616058,-3.067034,-0.30888906,0.55031896,0.08971739,-0.39832687,1.049826,0.8304567,-0.20393348,0.08707803,0.51104814,-0.3554576,0.7935661,0.45774445,1.0,0.0,0.0,0.0,0.0,0.0,0.0,-2.090724,0.15596351,-0.9116058,1.1596203,-2.567935,-1.5096307,-9.289167,-2.3504853,0.20232797,1.6460598
11.027275,27.097755,5.7309017,1.9664717,-0.46342814,-1.6836071,0.25285578,-0.7616937,0.6461695,0.2723412,0.0058546453,0.3956897,0.6424166,0.5426483,1.0727608,-0.48176536,-1.6887586,-0.80059415,2.3376954,1.4767733,-0.9293466,1.1352507,-0.5346092,-1.7109325,-0.8008849,2.3041155,1.41734,-0.98054254,-1.3652275,1.171056,0.5013445,0.012733946,0.5934094,0.48115298,0.3107698,1.4100766,-0.5590496,1.4663684,-3.0639677,-0.30858022,0.45158282,0.086464405,-0.3905506,1.0541446,0.8298651,-0.21014948,0.089686975,0.50903577,-0.30683556,0.7742596,0.41863364,1.0,0.0,0.0,0.0,0.0,0.0,0.0,-2.0600767,0.1590496,-0.9163684,1.0684252,-2.504611,-1.8949986,-6.666283,-2.1459818,0.13448,1.5215933
8.068655,22.190948,4.2523413,3.7859697,-0.23168054,-1.7250617,0.16002189,-0.74741554,0.6147389,0.25019005,-0.005265547,0.3286613,0.64152956,0.5698796,1.0605091,-0.47313532,-1.6859134,-0.80141145,2.3369818,1.481493,-0.9235546,1.1217142,-0.5231718,-1.7061241,-0.8010537,2.3097346,1.422137,-0.9773153,-1.3494717,1.134874,0.4736923,-0.027168471,0.55196834,0.47984868,0.32659754,1.3794599,-0.5621338,1.4701445,-3.0609043,-0.3082717,0.3529454,0.0836277,-0.38301277,1.0580859,0.8291953,-0.21595241,0.092550464,0.5071824,-0.2676085,0.7485285,0.38157707,1.0,0.0,0.0,0.0,0.0,0.0,0.0,-2.02946,0.16213378,-0.9201445,1.6188622,-3.5408735,-2.8443575,-4.0816426,-4.042399,0.09255409,1.5344977
1.4679284,17.107925,2.409003,8.922255,0.31499332,-1.6286137,-0.06024625,-0.7478918,0.59316593,0.19642995,0.03856984,0.29576516,0.63905096,0.57843953,1.0469251,-0.46385518,-1.6864811,-0.79719675,2.3393111,1.4860421,-0.9194714,1.1083037,-0.5121292,-1.7017982,-0.8012292,2.314892,1.4269168,-0.9739412,-1.338179,1.0943192,0.41859472,-0.014842477,0.50404966,0.47791228,0.34091866,1.3488736,-0.56521416,1.472935,-3.0578442,-0.3079635,0.25440657,0.08101225,-0.37576675,1.0617155,0.8285774,-0.22143093,0.09567699,0.5052463,-0.2516482,0.71778196,0.35271373,1.0,0.0,0.0,0.0,0.0,0.0,0.0,-1.9988736,0.16521415,-0.92293495,1.1229277,-3.9749384,-5.59445,1.0873705,-4.6529293,-0.02360344,1.372999
-3.1209016,8.37432,-0.36883277,11.171083,0.74288756,-1.7271761,-0.20487544,-0.73484755,0.55184555,0.1346386,0.056620836,0.2703342,0.6369259,0.5801195,1.0348189,-0.45694464,-1.6883343,-0.7955671,2.3419254,1.4906094,-0.91592926,1.0950304,-0.50159776,-1.6982486,-0.80107754,2.3195689,1.4316757,-0.9704393,-1.3237699,1.0396852,0.33349583,0.02463217,0.45640787,0.47575116,0.3531102,1.3183179,-0.5682926,1.4747407,-3.054787,-0.3076556,0.15596628,0.07844353,-0.36892128,1.0650537,0.8281334,-0.22661024,0.09904242,0.5030243,-0.2512418,0.6740345,0.323801,1.0,0.0,0.0,0.0,0.0,0.0,0.0,-1.9683179,0.16829261,-0.92474073,1.4315605,-5.3830385,-8.614624,3.7667942,-4.617548,-0.06414652,1.1515915
-1.9353828,1.7954984,-2.455638,7.2024755,0.45682484,-2.0532455,-0.13321242,-0.73631305,0.51223534,0.09858603,-0.023900995,0.20289324,0.640055,0.5865395,1.0213991,-0.45037422,-1.68839,-0.80346763,2.3398583,1.4956812,-0.91178536,1.081864,-0.4916948,-1.6955898,-0.8009049,2.3236659,1.4364192,-0.96682584,-1.3142866,0.974042,0.24282904,0.014244462,0.3942312,0.4744909,0.36394104,1.2877927,-0.57136726,1.4755628,-3.0517328,-0.307348,0.057624403,0.07597256,-0.3626175,1.0680009,0.8278958,-0.23132701,0.1026962,0.50052947,-0.23880874,0.6169785,0.28167537,1.0,0.0,0.0,0.0,0.0,0.0,0.0,-1.9377927,0.17136726,-0.9255628,0.97858906,-6.4909816,-9.164825,-1.1962125,-6.1207175,0.059854984,1.0186672
-3.3398318,-10.963278,-5.97885,4.6633024,0.6394652,-2.3818946,-0.09709597,-0.7289258,0.43424684,0.061065435,-0.05236637,0.1601591,0.6445146,0.5891681,1.0089715,-0.4482701,-1.6894833,-0.80614156,2.3396819,1.5008707,-0.90790904,1.0687929,-0.4826802,-1.6938121,-0.8010556,2.3271105,1.4411571,-0.9631151,-1.3044305,0.87750137,0.15563402,-0.025299342,0.328051,0.47412038,0.37319723,1.257298,-0.5744381,1.4754021,-3.0486817,-0.30704072,-0.040619157,0.07361126,-0.35705185,1.0704284,0.82787967,-0.23540111,0.10658718,0.49783587,-0.229065,0.536937,0.22696848,1.0,0.0,0.0,0.0,0.0,0.0,0.0,-1.907298,0.17443809,-0.9254021,1.0719061,-9.585047,-8.843425,-4.103452,-6.5594077,0.16229153,0.8552015
-5.8844843,-24.26641,-9.288181,3.9615526,1.0064857,-2.5844917,-0.09042406,-0.70873684,0.33393794,0.043796778,-0.053074542,0.056043126,0.64584833,0.5971422,0.99791926,-0.4492864,-1.6894325,-0.80636305,2.3327148,1.505742,-0.9034009,1.0558897,-0.47493684,-1.6927555,-0.80160874,2.3297045,1.4458911,-0.95931756,-1.2850217,0.7401906,0.08834782,-0.06585612,0.23625363,0.47396165,0.3815769,1.2268338,-0.5775051,1.4742599,-3.0456336,-0.30673373,-0.1387645,0.07127094,-0.35243607,1.0722499,0.82809776,-0.23875485,0.11059586,0.49499378,-0.23013811,0.43698335,0.16489874,1.0,0.0,0.0,0.0,0.0,0.0,0.0,-1.8768338,0.1775051,-0.92425984,2.0941496,-13.669252,-6.900622,-4.1885414,-9.142891,0.16778111,0.7554829
-9.855034,-64.48073,-20.839537,-4.90722,1.2613101,-3.626149,-0.03743645,-0.6802865,0.12506805,-0.031352803,-0.19031394,-0.12706533,0.65055084,0.5834975,0.9878611,-0.46243003,-1.6958908,-0.82064015,2.316998,1.5109463,-0.90096784,1.0432993,-0.46931303,-1.6924961,-0.8031241,2.3309596,1.450629,-0.955459,-1.2493119,0.50322855,0.0041541513,-0.18044288,0.08837146,0.47430637,0.38685942,1.1964002,-0.5805702,1.4721367,-3.0425887,-0.30642706,-0.23681171,0.06891155,-0.3493576,1.073118,0.82863694,-0.240967,0.11462651,0.4920939,-0.2334637,0.26459038,0.05920642,1.0,0.0,0.0,0.0,0.0,0.0,0.0,-1.8464001,0.18057021,-0.9221367,3.909564,-23.654366,-8.669557,-11.548869,-14.863088,0.21089911,0.40758252
-21.275328,-134.84944,-40.586082,-15.125903,2.523781,-5.0944986,-0.0369923,-0.64923024,-0.23533365,-0.0715717,-0.34548065,-0.32359287,0.6493359,0.52194333,0.97837627,-0.4928464,-1.6996533,-0.8376722,2.2986002,1.5155625,-0.90326464,1.0311781,-0.4674195,-1.6930778,-0.8064019,2.3303149,1.4553573,-0.95160806,-1.1977854,0.08463703,-0.079715796,-0.3769589,-0.11648908,0.47210437,0.38372746,1.165997,-0.5836315,1.469034,-3.0395467,-0.3061207,-0.3347609,0.06627607,-0.3489151,1.0724381,0.8296777,-0.24135202,0.11829085,0.4892763,-0.2708431,-0.02887989,-0.111108504,1.0,0.0,0.0,0.0,0.0,0.0,0.0,-1.815997,0.18363151,-0.91903394,5.7186365,-41.904633,-8.614184,-19.646084,-20.780628,-0.29617548,-0.53889155
-16.657568,-148.26816,-40.76997,-19.948645,3.227238,-5.0988307,0.4317157,-0.53995836,-0.5138351,0.18417187,-0.4359287,-0.478567,0.6472363,0.4928412,0.97718227,-0.518803,-1.6746606,-0.8499948,2.282458,1.5200809,-0.90232396,1.0199972,-0.47046602,-1.6930797,-0.81181115,2.3274348,1.460036,-0.94781816,-1.0896766,-0.43499374,0.026309527,-0.5950884,-0.34674808,0.46473348,0.37659955,1.1356244,-0.5866909,1.4649525,-3.0365076,-0.30581462,-0.43261215,0.06319332,-0.3515129,1.0699664,0.8309603,-0.2398647,0.1208575,0.48719937,-0.3206895,-0.3363249,-0.2927219,1.0,0.0,0.0,0.0,0.0,0.0,0.0,-1.7856244,0.1866909,-0.91495246,11.299062,-52.124977,10.592094,-21.685051,-23.410543,-1.3112128,-0.9629786
-4.129491,-125.464134,-31.928055,-22.296633,2.856623,-4.6049957,0.81456363,-0.38507023,-0.70227414,0.27505028,-0.51560813,-0.5446119,0.65660435,0.41155976,0.9814902,-0.5406934,-1.6655747,-0.86337197,2.2729735,1.5256965,-0.90666217,1.0104796,-0.47861755,-1.6913555,-0.8193156,2.3224528,1.4646308,-0.94415796,-0.90552515,-0.9427084,0.22250915,-0.8020791,-0.55002713,0.45419386,0.36176765,1.1052823,-0.5897465,1.4598931,-3.0334718,-0.30550888,-0.5303656,0.059780598,-0.3568859,1.0657753,0.8320832,-0.23684983,0.121813,0.48651952,-0.34993616,-0.6026752,-0.4616338,1.0,0.0,0.0,0.0,0.0,0.0,0.0,-1.7552823,0.18974647,-0.9098931,18.467962,-51.02167,20.008177,-20.647573,-20.688904,-2.059847,-1.6985714
24.384418,-48.15982,-7.4932837,-21.95963,0.8242411,-3.3373704,1.2320815,-0.09833812,-0.74020183,0.34533688,-0.50055414,-0.6108567,0.66188943,0.2984654,1.0006458,-0.55263776,-1.6568217,-0.86937106,2.261367,1.5308198,-0.9143114,1.0038649,-0.490723,-1.6874778,-0.8282744,2.3157237,1.4691379,-0.9407171,-0.5823638,-1.3004338,0.44515556,-0.9279963,-0.7139966,0.44664136,0.33800206,1.0749707,-0.59279823,1.453857,-3.030439,-0.30520344,-0.62802136,0.056656837,-0.3639965,1.060332,0.83252907,-0.23307016,0.12115459,0.4877449,-0.30274206,-0.7439121,-0.5731853,1.0,0.0,0.0,0.0,0.0,0.0,0.0,-1.7249707,0.19279823,-0.90385693,31.639313,-35.945248,22.94082,-12.8357525,-16.4312,-1.5915394,-2.4325132
43.60808,13.965553,10.420292,-18.972801,-0.8714577,-2.4594595,1.2386886,0.14647485,-0.7758834,0.2898597,-0.4658426,-0.62144,0.66791046,0.14756949,1.0185124,-0.56831133,-1.6584918,-0.8748587,2.2535796,1.535929,-0.9259601,1.0011698,-0.5052289,-1.6820781,-0.8377902,2.3077738,1.4735992,-0.9376091,-0.16916867,-1.5008625,0.5746446,-0.9609517,-0.8217832,0.44458455,0.3019437,1.0446887,-0.5958481,1.4468449,-3.027409,-0.3048983,-0.72557944,0.054438114,-0.3718338,1.0541697,0.8320258,-0.22920841,0.1192279,0.49089837,-0.19670337,-0.79155743,-0.63272417,1.0,0.0,0.0,0.0,0.0,0.0,0.0,-1.6946887,0.19584808,-0.8968449,40.166534,-20.125437,13.825142,-3.7474632,-10.650576,-0.67355037,-3.5508513
40.70763,42.232693,15.397976,-10.482546,-1.4254287,-1.999612,0.7360753,0.20976761,-0.7856011,0.14428127,-0.46416432,-0.5754526,0.6503686,0.027227938,1.0221466,-0.583789,-1.66765,-0.88420665,2.2502286,1.5386361,-0.9348863,1.0021483,-0.5207442,-1.6766346,-0.84724015,2.2992442,1.478051,-0.93492925,0.18361206,-1.5686021,0.5366176,-0.94077355,-0.8632517,0.4447494,0.25700852,1.0144372,-0.5988941,1.4388582,-3.0243824,-0.30459344,-0.82304,0.053302765,-0.37984657,1.0476404,0.830796,-0.22546767,0.11662123,0.49531996,-0.08570922,-0.79852366,-0.6622667,1.0,0.0,0.0,0.0,0.0,0.0,0.0,-1.6644372,0.19889411,-0.88885814,34.289253,-6.8206787,-3.0375242,1.6837239,-4.1129827,-0.17729998,-4.4160247
30.77146,37.80317,9.410067,-6.9067483,-1.5760314,-2.3889732,0.15152861,0.3144835,-0.804129,-0.14090414,-0.4917806,-0.5130946,0.64678186,-0.07628661,1.0335966,-0.6011571,-1.690725,-0.8964182,2.2479348,1.5427291,-0.94255793,1.006127,-0.53639495,-1.6733062,-0.85646313,2.2907336,1.4825046,-0.93274724,0.46657428,-1.5641588,0.26763582,-0.9167199,-0.84753394,0.44493786,0.20518309,0.9842162,-0.60193825,1.4298974,-3.0213585,-0.30428892,-0.9204031,0.05319929,-0.3880787,1.0407642,0.82935643,-0.22149764,0.11395129,0.50012183,0.01710924,-0.8256434,-0.699047,1.0,0.0,0.0,0.0,0.0,0.0,0.0,-1.6342162,0.20193824,-0.8798974,27.500486,0.3717661,-26.075357,2.2355795,1.4151216,-0.2004385,-5.2161546
23.979588,32.421207,5.037177,-3.9728806,-1.5286074,-2.6287067,-0.2014873,0.46634075,-0.8072237,-0.35969245,-0.4426092,-0.50790435,0.6543127,-0.060750533,1.0527611,-0.61711735,-1.7092755,-0.90072405,2.239943,1.5479358,-0.93882227,1.0126883,-0.551752,-1.6737049,-0.8652274,2.282513,1.4869678,-0.93103063,0.7172046,-1.5264069,-0.13967486,-0.86332875,-0.81409395,0.4457863,0.16019137,0.95402527,-0.60497856,1.4199638,-3.0183377,-0.3039847,-1.0176688,0.054038048,-0.39669228,1.0334866,0.82810616,-0.2169775,0.1116606,0.504671,0.110217325,-0.8678659,-0.7408878,1.0,0.0,0.0,0.0,0.0,0.0,0.0,-1.6040252,0.20497856,-0.8699638,24.401342,3.6940336,-39.915043,5.260527,3.1291485,-0.15758276,-4.6016006
12.423737,25.095943,1.4488883,2.8692584,-0.95257384,-2.413578,-0.52159333,0.51965547,-0.8113732,-0.5086587,-0.36917335,-0.5690425,0.66573995,-0.099765204,1.0646539,-0.6328893,-1.7245708,-0.90214473,2.2256086,1.5535418,-0.94100714,1.0212313,-0.5667151,-1.6783302,-0.8731677,2.274441,1.4914463,-0.92974126,0.8989191,-1.4865987,-0.56804675,-0.77079135,-0.80575126,0.4479968,0.11801718,0.92386436,-0.60801506,1.4090583,-3.01532,-0.30368078,-1.1148373,0.055562973,-0.4057579,1.0258052,0.82732403,-0.21182172,0.11002872,0.50848794,0.17243707,-0.91418046,-0.781796,1.0,0.0,0.0,0.0,0.0,0.0,0.0,-1.5738643,0.20801505,-0.8590583,17.787683,3.891492,-42.224007,9.295046,0.6075382,0.0023663044,-4.345927
8.797559,25.366905,1.7424486,4.826042,-0.72973907,-2.14219,-0.48170185,0.56809264,-0.80291945,-0.6048398,-0.3742139,-0.5701431,0.6506607,-0.11013991,1.0780406,-0.64700705,-1.7388141,-0.9105891,2.2174268,1.5565124,-0.94075525,1.0311514,-0.5813168,-1.6867225,-0.880325,2.2663882,1.4959362,-0.9288324,1.0224823,-1.45177,-0.92851555,-0.69712335,-0.8053951,0.44854996,0.081491865,0.893734,-0.61104965,1.3971819,-3.0123053,-0.30337715,-1.2119087,0.057614326,-0.4152279,1.0177158,0.8270492,-0.20603457,0.1091103,0.51150185,0.22303146,-0.95335853,-0.8235937,1.0,0.0,0.0,0.0,0.0,0.0,0.0,-1.543734,0.21104965,-0.84718186,12.169695,3.3964157,-35.680996,7.4426293,-0.13678074,-0.16581416,-3.768821
7.7993417,25.989948,3.0407708,4.76678,-0.50450754,-1.8375324,-0.2827851,0.59316015,-0.8103501,-0.66056347,-0.39991605,-0.5501368,0.63949955,-0.10120528,1.0904675,-0.66235185,-1.7527789,-0.92031664,2.2113745,1.5598861,-0.9389529,1.0419108,-0.5957087,-1.6978824,-0.8870818,2.2583697,1.5004203,-0.92823446,1.0936549,-1.4352974,-1.1779261,-0.6682056,-0.8007063,0.44755384,0.05235078,0.86363316,-0.6140804,1.3843354,-3.0092936,-0.30307382,-1.3088831,0.06010723,-0.42502403,1.0091894,0.8271444,-0.19964576,0.10874582,0.5139534,0.2656759,-0.98386353,-0.8687561,1.0,0.0,0.0,0.0,0.0,0.0,0.0,-1.5136331,0.21408042,-0.8343354,7.061386,1.569128,-24.783897,2.98357,0.34332275,-0.3436625,-2.984026
5.0804787,29.970558,5.760944,8.011608,-0.058190227,-1.2850529,-0.15943998,0.6005105,-0.81708604,-0.67954206,-0.3609261,-0.5701213,0.6543072,-0.08138705,1.1019619,-0.67741734,-1.7658366,-0.9231744,2.2013576,1.5658511,-0.9363732,1.0530592,-0.6100625,-1.7106426,-0.89357156,2.250336,1.5049083,-0.92787015,1.1220759,-1.4356873,-1.3084593,-0.6422082,-0.80460626,0.44845992,0.031062556,0.83356285,-0.6171093,1.3705199,-3.006285,-0.30277082,-1.4057605,0.06289101,-0.43499184,1.0002816,0.827443,-0.19285183,0.10872406,0.51606715,0.29076847,-0.99651784,-0.90517205,1.0,0.0,0.0,0.0,0.0,0.0,0.0,-1.4835628,0.2171093,-0.82051986,2.8717518,-0.11656284,-13.009644,2.703333,-0.52347183,-0.09641647,-2.146856
3.7008624,36.96544,9.148441,10.686201,0.17063737,-0.772148,-0.049646825,0.59070534,-0.8130077,-0.6764184,-0.3470768,-0.5981521,0.66574204,-0.066082835,1.1121298,-0.6913633,-1.7782844,-0.9282792,2.1905208,1.5714825,-0.93447846,1.0642287,-0.6244563,-1.7239692,-0.8998429,2.2421725,1.5094173,-0.92767274,1.1155219,-1.440823,-1.3409308,-0.6217046,-0.82084453,0.4512701,0.016006991,0.8035226,-0.62013435,1.3557364,-3.0032792,-0.30246812,-1.502541,0.06584644,-0.44493675,0.9910937,0.8277977,-0.18588583,0.10890687,0.5180123,0.30547976,-0.9890648,-0.9307409,1.0,0.0,0.0,0.0,0.0,0.0,0.0,-1.4535226,0.22013435,-0.80573636,-0.5729914,-0.58584213,-3.2805681,2.1410704,-1.7748117,0.16140938,-1.4900793
3.7298675,41.84179,11.286841,11.554482,0.19226289,-0.5049129,0.03889077,0.5847016,-0.810813,-0.6859744,-0.3472665,-0.6245689,0.6657596,-0.026918415,1.1226988,-0.70553756,-1.7925667,-0.9345696,2.1797156,1.5759933,-0.9303646,1.0752035,-0.63890064,-1.7372482,-0.9059798,2.2337687,1.5139549,-0.92757165,1.0918001,-1.4458523,-1.3237804,-0.61079127,-0.84729034,0.4543364,0.008285608,0.77351236,-0.6231575,1.3399858,-3.0002766,-0.30216572,-1.5992248,0.06893492,-0.45472717,0.98169243,0.82810414,-0.17887913,0.10924917,0.51991373,0.31808668,-0.970034,-0.95074344,1.0,0.0,0.0,0.0,0.0,0.0,0.0,-1.4235123,0.2231575,-0.78998584,-2.2693634,-0.5681038,1.6395092,1.1695743,-2.8030634,0.21763444,-0.74239355
1.8902421,44.647808,12.602983,13.9355955,0.48269433,-0.2643984,0.031542182,0.5737861,-0.81665397,-0.67221355,-0.31017712,-0.6223662,0.67257905,-0.026413715,1.1325822,-0.72056603,-1.8044696,-0.93699753,2.1715322,1.5812128,-0.93021303,1.0858847,-0.6534127,-1.7501419,-0.9118907,2.2251322,1.5185287,-0.9275278,1.0606258,-1.4531789,-1.2781818,-0.58428305,-0.8694512,0.4582818,0.0031602136,0.7435322,-0.62617683,1.3232691,-2.997277,-0.3018636,-1.6958119,0.072072506,-0.46428108,0.97215366,0.82832164,-0.17195958,0.10967474,0.5218089,0.32039523,-0.9448104,-0.9623301,1.0,0.0,0.0,0.0,0.0,0.0,0.0,-1.3935322,0.22617683,-0.7732691,-3.0042171,-0.80263615,4.4863224,2.7348518,-2.3979425,0.35469532,-0.46128508
1.800313,44.324608,12.19149,13.218391,0.419559,-0.3124768,0.045511536,0.55833226,-0.8146944,-0.69249505,-0.32410577,-0.62878066,0.66753393,-0.0036728745,1.1417179,-0.7348821,-1.8193914,-0.94430125,2.162254,1.5852821,-0.92789507,1.096234,-0.66797435,-1.7626884,-0.9176366,2.2163088,1.523135,-0.92750967,1.0267307,-1.457499,-1.2469985,-0.5710422,-0.88748956,0.46109045,0.0015815549,0.71358204,-0.62919426,1.3055872,-2.9942803,-0.3015618,-1.7923024,0.07525301,-0.4736042,0.96247244,0.82845,-0.16510102,0.110185064,0.5237093,0.32488292,-0.9224535,-0.9773617,1.0,0.0,0.0,0.0,0.0,0.0,0.0,-1.363582,0.22919425,-0.75558716,-3.2633781,-0.5007744,3.0378103,1.4226317,-1.9899726,0.21829605,-0.11382711
2.9990015,43.846714,11.952445,12.188286,0.3687582,-0.39456934,0.03759016,0.5591297,-0.81933045,-0.6965872,-0.3169766,-0.6241933,0.65972686,-0.07612826,1.1521469,-0.7499074,-1.8323472,-0.94933426,2.1538894,1.5891076,-0.9351225,1.1063238,-0.6825837,-1.7750423,-0.92327565,2.2073672,1.5277584,-0.92755544,1.0034231,-1.4623405,-1.2317404,-0.56121606,-0.89704853,0.46238425,-0.0064153555,0.68366146,-0.6322079,1.286941,-2.9912865,-0.3012603,-1.8886964,0.078504086,-0.48272896,0.9526168,0.8285037,-0.15824315,0.11077251,0.52561384,0.33273345,-0.9038079,-0.9953318,1.0,0.0,0.0,0.0,0.0,0.0,0.0,-1.3336614,0.23220786,-0.73694104,-2.2237778,-0.5522728,1.4570713,1.0852218,-1.1294842,0.044304132,-0.75241655
1.7522964,42.896503,11.078209,11.752587,0.27178186,-0.4235553,0.03379698,0.5260226,-0.81490064,-0.7086993,-0.33162174,-0.65317494,0.6623553,-0.028605524,1.1589261,-0.7640737,-1.8459122,-0.9564378,2.1420498,1.5939939,-0.930416,1.1161143,-0.6972083,-1.7873924,-0.9289271,2.1982806,1.5323913,-0.9276432,0.97131187,-1.4626933,-1.2362676,-0.566104,-0.9130921,0.46319503,-0.009543009,0.6537709,-0.63521767,1.2673317,-2.988296,-0.30095908,-1.9849942,0.08184528,-0.4916935,0.94254017,0.82850313,-0.1512927,0.11151448,0.52750117,0.34194252,-0.88751876,-1.018654,1.0,0.0,0.0,0.0,0.0,0.0,0.0,-1.3037709,0.23521766,-0.7173317,-3.076899,-0.10495186,-0.528121,-0.36484003,-1.7907739,-0.033140182,-0.28933528
-1.5474792,43.322563,10.865059,13.510229,0.45348006,-0.29463163,-0.025822729,0.49141508,-0.8136663,-0.7008338,-0.31880918,-0.6636078,0.666187,-0.05544824,1.1652558,-0.77857494,-1.8574758,-0.96080804,2.1319199,1.59901,-0.933188,1.1254908,-0.7118176,-1.7997997,-0.9345948,2.189026,1.5370338,-0.9277767,0.926921,-1.4606777,-1.2425534,-0.56652904,-0.93027353,0.46428785,-0.014552755,0.6239104,-0.63822556,1.2467601,-2.9853084,-0.3006582,-2.0811954,0.08521986,-0.5004883,0.93224436,0.8284836,-0.14423329,0.11245367,0.52930695,0.34277576,-0.8704139,-1.0401348,1.0,0.0,0.0,0.0,0.0,0.0,0.0,-1.2739104,0.23822555,-0.6967601,-4.2777658,0.12485981,-0.69761276,0.10076761,-1.932776,0.008755922,-0.4861446
3.0196056,42.66209,10.8598385,9.572738,0.056330323,-0.44106477,0.091251396,0.49122217,-0.8180382,-0.70698184,-0.37648103,-0.6808294,0.65650904,-0.09007492,1.174613,-0.7936214,-1.8704978,-0.9722429,2.120943,1.6026847,-0.9367842,1.1344992,-0.72642314,-1.8123024,-0.94053334,2.179581,1.5416744,-0.92798173,0.8926698,-1.4607279,-1.2531068,-0.60262334,-0.94989806,0.46359393,-0.022414427,0.5940795,-0.6412296,1.2252272,-2.9823236,-0.3003576,-2.1773002,0.08871794,-0.50912476,0.92165416,0.828403,-0.13696712,0.11360748,0.53111374,0.35869145,-0.8547106,-1.0721023,1.0,0.0,0.0,0.0,0.0,0.0,0.0,-1.2440795,0.24122962,-0.6752272,-3.285861,-0.06835461,-1.1540174,-3.4719706,-2.139163,-0.23866296,-0.7691704
0.99200153,43.019352,10.804135,10.47911,0.18328226,-0.33036333,0.072394334,0.45583835,-0.8161863,-0.70908934,-0.37805715,-0.68705297,0.6603841,-0.09802487,1.180083,-0.80804175,-1.8832113,-0.9783391,2.1108756,1.6077127,-0.9377842,1.143109,-0.74102485,-1.8249061,-0.9468362,2.1699564,1.5463111,-0.9282669,0.8509493,-1.4601834,-1.26299,-0.63898706,-0.9674542,0.4631855,-0.03043748,0.5642786,-0.6442318,1.202734,-2.9793417,-0.30005732,-2.2733092,0.09233618,-0.5176029,0.9107455,0.8282483,-0.12946543,0.11497104,0.53293985,0.36903417,-0.8378462,-1.1038072,1.0,0.0,0.0,0.0,0.0,0.0,0.0,-1.2142786,0.24423179,-0.652734,-4.016936,-0.011539459,-1.0889769,-3.4842014,-1.9471884,-0.2075553,-0.78462845
1.02736,40.17007,9.736857,8.61623,0.10914916,-0.3819159,0.12485269,0.4244139,-0.823209,-0.72036093,-0.4407958,-0.68231153,0.6419338,-0.12831368,1.1855503,-0.8233458,-1.8969423,-0.9909158,2.1017253,1.6105045,-0.9410983,1.1512514,-0.7556542,-1.8376358,-0.9537236,2.160206,1.5509269,-0.92864645,0.8026723,-1.4641484,-1.2768557,-0.70476454,-0.97772914,0.46041203,-0.04043047,0.53450775,-0.64723015,1.1792816,-2.9763632,-0.29975733,-2.3692222,0.096078396,-0.5259342,0.8994451,0.8280023,-0.121636584,0.11651454,0.5348281,0.38157383,-0.8245162,-1.14552,1.0,0.0,0.0,0.0,0.0,0.0,0.0,-1.1845077,0.24723014,-0.6292816,-4.652643,-0.46098232,-1.5151978,-6.3938856,-1.2153268,-0.499326,-0.97472966
-3.5916805,38.912575,8.779583,9.361635,0.25111437,-0.21973392,0.13856016,0.3553284,-0.8212315,-0.71513444,-0.50233287,-0.6938793,0.63988984,-0.08408641,1.1867843,-0.8377774,-1.9091492,-1.0039569,2.0908182,1.6149158,-0.9370551,1.1586958,-0.770316,-1.850455,-0.9614598,2.1503565,1.5555141,-0.92908514,0.72576636,-1.4670777,-1.2842083,-0.7957818,-0.987994,0.4572702,-0.044926982,0.50476646,-0.6502247,1.1548707,-2.9733875,-0.29945764,-2.4650393,0.09988356,-0.5341301,0.88768977,0.8276521,-0.11339516,0.11822684,0.5368016,0.38516188,-0.8099496,-1.192238,1.0,0.0,0.0,0.0,0.0,0.0,0.0,-1.1547664,0.25022468,-0.60487074,-7.455969,-0.36389828,-0.89349747,-8.87115,-1.2530327,-0.5589187,-0.4280731
-15.595886,38.598797,7.8750353,14.413148,0.949298,0.25600946,0.09929193,0.23755643,-0.8258866,-0.66082716,-0.54955304,-0.69787127,0.64925784,0.068260565,1.1824515,-0.8529047,-1.9165378,-1.0164151,2.0805695,1.6204399,-0.9222591,1.1649462,-0.7850226,-1.8630626,-0.9701707,2.1404154,1.5600803,-0.9294447,0.59253615,-1.4721831,-1.253426,-0.89511514,-0.9972427,0.45577642,-0.032740183,0.47505474,-0.6532173,1.1295024,-2.9704146,-0.29915825,-2.5607605,0.10349798,-0.5421524,0.8755037,0.8272071,-0.10477276,0.1200475,0.5388318,0.35813358,-0.79140705,-1.2340274,1.0,0.0,0.0,0.0,0.0,0.0,0.0,-1.1250547,0.2532173,-0.5795024,-12.995827,-0.6047249,2.898264,-9.6296425,-1.243043,-0.35368204,1.2549057
-63.626453,30.622776,-0.059598804,33.440548,3.4329598,1.4336212,-0.41403127,-0.13231117,-0.8169593,-0.5911905,-0.6286758,-0.6710767,0.6472044,0.16385964,1.151715,-0.86671853,-1.9221817,-1.0330383,2.0733078,1.6248007,-0.9130587,1.1683298,-0.79973686,-1.8750083,-0.9800078,2.130463,1.564637,-0.9296049,0.25598007,-1.4718535,-1.1754766,-1.011317,-0.99689907,0.4552331,-0.010474488,0.44537306,-0.65620613,1.1031775,-2.9674447,-0.29885915,-2.656386,0.106025696,-0.5500488,0.8629705,0.8269728,-0.095794186,0.12190827,0.5404421,0.2212482,-0.7803805,-1.2661635,1.0,0.0,0.0,0.0,0.0,0.0,0.0,-1.095373,0.25620613,-0.55317754,-32.987816,-0.18904209,7.665491,-11.029267,-0.6743789,-0.18437505,2.2332366
-82.316986,44.56944,4.372654,44.221413,4.806813,2.68723,-0.4068082,-0.35892507,-0.7998659,-0.34439212,-0.70491093,-0.6406721,0.67938983,0.4004524,1.1324373,-0.8797234,-1.9094476,-1.050499,2.0663958,1.632576,-0.8895596,1.167605,-0.8143567,-1.885083,-0.99110574,2.120621,1.5692222,-0.9293655,-0.17931056,-1.4594498,-0.9525699,-1.1403142,-0.9823034,0.45981205,0.035945807,0.41572094,-0.65919304,1.0758971,-2.964478,-0.29856035,-2.751916,0.10678959,-0.55763626,0.8503983,0.8270092,-0.08680562,0.123520866,0.54153776,0.02987293,-0.7423741,-1.2602252,1.0,0.0,0.0,0.0,0.0,0.0,0.0,-1.0657209,0.25919303,-0.5258971,-42.751,1.0007858,21.972763,-12.235332,0.7024646,0.48695207,4.8032665
-53.728134,81.33036,24.035656,41.14979,4.2980914,3.5178192,0.12532404,-0.3833903,-0.7822682,0.034609474,-0.72986835,-0.6006079,0.68510246,0.4858547,1.129266,-0.8925835,-1.881622,-1.0640925,2.0605602,1.6377325,-0.88078004,1.1631571,-0.82875717,-1.8913543,-1.0033281,2.1110804,1.57388,-0.9286026,-0.5315267,-1.4337322,-0.5213775,-1.2482587,-0.9454792,0.4691963,0.09138312,0.38609838,-0.66217613,1.047662,-2.9615142,-0.29826185,-2.8473504,0.105956554,-0.5643959,0.8383837,0.82692426,-0.07862646,0.12431721,0.5427331,-0.12122943,-0.6450289,-1.1868165,1.0,0.0,0.0,0.0,0.0,0.0,0.0,-1.0360984,0.26217613,-0.497662,-34.641438,2.5368214,42.25999,-10.407567,3.5135627,1.3764918,6.0254307
-16.488148,87.72624,31.137808,27.561495,2.620943,2.6469147,0.4697497,-0.33028436,-0.79647464,0.0645334,-0.7431307,-0.5955082,0.6723042,0.47726128,1.1301286,-0.90840465,-1.8849009,-1.0776411,2.0515296,1.6411104,-0.8808764,1.1565024,-0.8429841,-1.8936737,-1.0163705,2.1019213,1.5786235,-0.9273304,-0.70891213,-1.4187098,-0.13885114,-1.3222115,-0.9051806,0.47795433,0.1410122,0.3565054,-0.6651554,1.0184735,-2.9585533,-0.29796365,-2.9426892,0.104233265,-0.57016945,0.82710403,0.8263998,-0.07155932,0.12410108,0.5445562,-0.19058454,-0.5459536,-1.111651,1.0,0.0,0.0,0.0,0.0,0.0,0.0,-1.0065054,0.2651554,-0.4684735,-17.374575,1.6151905,37.20904,-7.1935415,4.3171883,1.4211118,5.5092425
11.711704,61.331013,21.042841,9.595318,0.47107726,0.33562052,0.46143577,-0.21865514,-0.8030972,-0.27013078,-0.7479896,-0.577709,0.6502196,0.48606476,1.1346369,-0.9232938,-1.9206867,-1.0911695,2.0441504,1.6436455,-0.8787239,1.1495634,-0.85715187,-1.8947074,-1.0298822,2.0931475,1.5834129,-0.92562425,-0.688646,-1.4157951,-0.09322395,-1.3603351,-0.86760515,0.47979796,0.1814383,0.32694197,-0.6681328,0.9883323,-2.9555953,-0.29766575,-3.0379329,0.10245848,-0.5753975,0.81601596,0.82544464,-0.064903185,0.12333648,0.547007,-0.17466867,-0.5062391,-1.1094002,1.0,0.0,0.0,0.0,0.0,0.0,0.0,-0.97694194,0.26813278,-0.43833226,2.1474004,0.37417412,4.0608125,-3.6601067,3.9082885,0.3630817,4.318494
4.6499195,23.811447,1.3474336,2.987882,-0.346714,-1.4353442,0.054878283,-0.2523869,-0.803251,-0.61236185,-0.7675932,-0.6380325,0.6022745,0.48614615,1.1243248,-0.937477,-1.9559436,-1.1066415,2.0293443,1.6436403,-0.87700963,1.1432425,-0.87134445,-1.8978965,-1.0436437,2.084469,1.5881488,-0.92358243,-0.6129184,-1.4205326,-0.39348844,-1.3804128,-0.8691926,0.47039977,0.21164554,0.2974081,-0.67110825,0.9572393,-2.95264,-0.29736814,-3.1330814,0.10095596,-0.58075714,0.80428326,0.8243889,-0.057488605,0.12284751,0.5495328,-0.14336982,-0.536603,-1.195389,1.0,0.0,0.0,0.0,0.0,0.0,0.0,-0.9474081,0.27110824,-0.40723926,7.6241612,-0.53937435,-29.895283,-1.6963005,-0.44124126,-1.2851357,2.9928863
-14.247783,9.106808,-8.3226795,7.0443835,0.16196828,-1.5943985,-0.28143966,-0.33450064,-0.800543,-0.7103997,-0.7680315,-0.66569763,0.6004052,0.48086056,1.1097925,-0.95139873,-1.9689364,-1.1204469,2.0178993,1.6481893,-0.8754964,1.1373755,-0.8855914,-1.9048736,-1.0574777,2.075596,1.5927722,-0.9212936,-0.57767797,-1.4266894,-0.79801095,-1.3826836,-0.8948883,0.45789057,0.23419155,0.2679038,-0.6740799,0.92519546,-2.9496882,-0.29707083,-3.2281346,0.09952593,-0.58660126,0.79147035,0.82353514,-0.048692953,0.12309541,0.5516035,-0.14439797,-0.59039176,-1.3114355,1.0,0.0,0.0,0.0,0.0,0.0,0.0,-0.9179038,0.2740799,-0.37519544,3.664422,-0.78470707,-40.122807,0.2503395,-3.0789375,-1.8271804,2.1227927
-48.237713,7.3978205,-12.682427,20.243828,1.9696764,-0.5561508,-0.65097153,-0.5073575,-0.8055047,-0.7301521,-0.7669249,-0.6539509,0.5828263,0.4327716,1.0866398,-0.9661419,-1.9778888,-1.1341702,2.010201,1.6510549,-0.8780165,1.1308962,-0.89992416,-1.9154212,-1.0712507,2.0664713,1.5972602,-0.9188484,-0.6702535,-1.4364191,-1.1389656,-1.3733073,-0.9208703,0.44359314,0.24751225,0.23842907,-0.6770477,0.8922019,-2.9467392,-0.29677382,-3.323093,0.09748888,-0.5929699,0.77759016,0.823151,-0.03850363,0.124032214,0.55277103,-0.2252196,-0.6418682,-1.4162427,1.0,0.0,0.0,0.0,0.0,0.0,0.0,-0.88842905,0.27704772,-0.3422019,-8.931982,-1.2747526,-33.722008,1.6362667,-3.3422709,-2.087742,1.2261868
-63.270184,20.717903,-7.7127247,28.971087,3.206591,0.67121345,-0.7048996,-0.60237485,-0.8034643,-0.71500677,-0.7582092,-0.6127279,0.60917974,0.4516872,1.0706587,-0.98027056,-1.9869219,-1.1470716,2.0051985,1.6581782,-0.8736797,1.1229311,-0.9143323,-1.928313,-1.0848672,2.0572474,1.6016395,-0.9162773,-0.8374883,-1.4435393,-1.3383573,-1.3553615,-0.92559123,0.43427968,0.26041165,0.2089839,-0.68001366,0.85825944,-2.943793,-0.2964771,-3.4179564,0.09429598,-0.5996609,0.76295465,0.82329965,-0.027328458,0.12529416,0.5529305,-0.35346672,-0.6672165,-1.4832326,1.0,0.0,0.0,0.0,0.0,0.0,0.0,-0.8589839,0.28001365,-0.30825943,-16.336262,-1.0695696,-19.617294,2.5521278,-1.2869477,-1.5161514,1.290822
-66.076706,37.661346,-0.026821375,33.207256,3.7757363,1.6399971,-0.64523226,-0.68689346,-0.7920305,-0.712402,-0.7509352,-0.5837942,0.61857456,0.42928234,1.0542418,-0.99353534,-1.9995532,-1.1599607,1.998868,1.663497,-0.8733491,1.1130549,-0.9287356,-1.9422538,-1.0982893,2.0481188,1.6059558,-0.9136032,-1.0363536,-1.4404761,-1.411919,-1.3354328,-0.9113001,0.42897874,0.27008435,0.17956829,-0.68297577,0.823369,-2.9408498,-0.2961807,-3.5127249,0.08969498,-0.6063938,0.7479484,0.823921,-0.015664684,0.12650673,0.55218184,-0.49928537,-0.6629156,-1.5107553,1.0,0.0,0.0,0.0,0.0,0.0,0.0,-0.82956827,0.28297576,-0.273369,-19.52287,-0.04723072,-7.1130037,2.7079582,0.65129995,-1.0002017,1.0793984
-60.391045,46.89445,5.084873,32.6402,3.8503199,1.9863575,-0.5688148,-0.74372643,-0.7950447,-0.7531434,-0.7296274,-0.52310824,0.61400384,0.35472986,1.0386822,-1.0082401,-2.017568,-1.171252,1.995808,1.6673563,-0.8781302,1.1013113,-0.94310176,-1.9565094,-1.1114576,2.0393412,1.6102283,-0.91089666,-1.2193424,-1.43633,-1.4295089,-1.3083087,-0.8688777,0.42541397,0.2714644,0.15018177,-0.685936,0.7875316,-2.9379094,-0.29588458,-3.6073987,0.083673954,-0.6129856,0.732816,0.8249475,-0.003835841,0.1273672,0.55065817,-0.6407438,-0.64436615,-1.5183573,1.0,0.0,0.0,0.0,0.0,0.0,0.0,-0.80018175,0.28593597,-0.2375316,-17.996025,0.09431839,-1.5774727,3.362894,3.5719275,-0.7613182,0.33383965
-48.3471,53.622646,9.668338,28.945234,3.463595,2.0122433,-0.45647132,-0.7838236,-0.79221004,-0.7775725,-0.71308154,-0.4670281,0.6057612,0.25888807,1.022929,-1.0223228,-2.0342667,-1.1827657,1.9926383,1.6708044,-0.88500786,1.0880495,-0.9574107,-1.970784,-1.1243322,2.0311434,1.6144702,-0.9082569,-1.3612535,-1.4299339,-1.4263372,-1.2787185,-0.805149,0.42258117,0.26233152,0.120824814,-0.68889236,0.7507483,-2.934972,-0.29558876,-3.7019777,0.07640791,-0.6193199,0.7176799,0.82629997,0.007981275,0.12768494,0.54850805,-0.76032996,-0.6157388,-1.5161124,0.0,1.0,0.0,0.0,0.0,0.0,0.0,-0.7708248,0.28889236,-0.20074826,-13.963628,0.3838539,0.43008327,3.502965,5.857873,-0.62176585,-0.6741822
-34.051407,59.283367,14.204044,24.694912,3.040502,1.9003651,-0.36099082,-0.8057412,-0.7917299,-0.7775678,-0.6870561,-0.36776853,0.5921201,0.09982506,1.0074754,-1.0365837,-2.0485408,-1.1930377,1.9943665,1.6736822,-0.89827436,1.0736356,-0.9715539,-1.985726,-1.1374065,2.024908,1.6175652,-0.90619284,-1.4658445,-1.4109067,-1.510145,-1.3108952,-0.5824525,0.26467657,0.20015737,0.102211,-0.68974495,0.74175876,-1.6870319,0.012312899,-0.16259661,0.068107605,-0.6256523,0.702343,0.82810724,0.02057745,0.12686677,0.545637,-0.8559288,-0.6223022,-1.5422505,0.0,1.0,0.0,0.0,0.0,0.0,0.0,-0.752211,0.28974494,-0.19175875,-8.683276,0.30333996,1.5096664,4.4846296,8.564401,-1.4890492,-1.9088656
10.7774515,176.0,110.0,110.0,7.1328983,12.421783,-2.0554507,-0.76773185,0.45527238,0.7144181,0.65031004,-0.3814083,0.66402453,-0.39415562,0.9968624,-0.9260267,-1.9142842,-1.0723754,1.9867673,1.6839676,-0.9456084,1.0612664,-0.9883157,-1.9906602,-1.1377612,2.0107403,1.6268234,-0.90428644,-1.1462997,-1.676215,-0.3068458,0.35336265,-1.5561143,1.2111478,0.22035734,0.085353374,-0.6896229,0.73938954,-1.6853452,0.012300589,-0.2616852,0.05840063,-0.63005066,0.6915018,0.8304342,0.023511184,0.12764053,0.54178786,-1.0140402,-0.36197466,-0.936052,1.0,0.0,0.0,0.0,0.0,0.0,0.0,-0.73535335,0.28962287,-0.18938953,36.24594,-9.536743e-05,74.6264,155.5134,-55.8506,114.130844,11.8707
-43.953102,173.88512,68.27958,91.51418,9.265208,5.4051623,-2.223515,-0.7844151,-0.7214818,0.07305919,0.68429095,-0.30517268,0.6204916,-0.43624616,0.9828249,-1.0604639,-1.9833543,-1.0693321,1.9802231,1.6888726,-0.9479111,1.049933,-1.0047561,-1.9894376,-1.1275645,1.9955387,1.6391449,-0.90257746,-1.1277894,-1.6338283,0.26695785,1.243093,-1.5106274,1.2434816,0.15762189,0.06851292,-0.6895008,0.73603016,-1.6836601,0.012288291,-0.36067474,0.046792984,-0.6333332,0.6852263,0.8340964,0.019623976,0.12867029,0.53604287,-1.2098747,-0.3060158,-0.5278158,1.0,0.0,0.0,0.0,0.0,0.0,0.0,-0.7185129,0.2895008,-0.18603015,2.277279,4.0660143,57.89845,89.42117,3.8275003,4.5922756,-5.340305
-56.729324,141.50151,39.109566,66.55517,6.224874,2.756122,-1.8819201,-0.78427124,-0.5642563,-0.27405053,0.6549498,-0.48280942,0.61790293,-0.19041643,0.9715058,-1.0611818,-2.0168426,-1.0620695,1.9472578,1.7009352,-0.9216191,1.0382504,-1.0193511,-1.9867597,-1.1119376,1.981945,1.6511059,-0.9013253,-1.1800903,-1.4022423,0.26774442,1.6714585,-1.3099462,1.1825538,0.11518805,0.05168867,-0.68937874,0.7316817,-1.6819768,0.012276005,-0.4595653,0.033575535,-0.63623047,0.6816184,0.83908916,0.013553596,0.1298769,0.52808875,-1.3599279,-0.27554092,-0.3105707,0.0,1.0,0.0,0.0,0.0,0.0,0.0,-0.70168865,0.28937873,-0.1816817,-4.736519,22.912098,0.022172928,43.503998,19.761395,-5.3919315,-3.9911776
-32.099323,125.85302,38.29799,41.629787,4.0019197,2.2455437,-0.870595,-0.7750228,-0.6177867,0.25299686,0.7440639,-0.49422646,0.5846594,-0.23571299,0.9607482,-1.0811298,-1.96146,-1.0375313,1.9325224,1.7095718,-0.9248966,1.025805,-1.0319682,-1.983212,-1.0943958,1.9705257,1.6620922,-0.90051466,-1.2653016,-1.2158195,0.38419133,1.7830907,-1.0878693,1.0718385,0.070120595,0.03488159,-0.68925667,0.72634506,-1.6802951,0.012263731,-0.558357,0.01940918,-0.6386051,0.6796986,0.84479904,0.0067419196,0.1309371,0.5187722,-1.4374117,-0.21571915,-0.15868211,0.0,1.0,0.0,0.0,0.0,0.0,0.0,-0.68488157,0.28925666,-0.17634505,-8.2711935,18.350052,11.762136,11.520004,21.600365,-10.725069,-4.3669624
-14.195132,93.134514,27.28872,18.85248,1.736516,1.2744676,-0.17260198,-0.78324854,-0.60729504,0.24055907,0.6855695,-0.45270666,0.6231536,-0.2959127,0.94748014,-1.0926977,-1.959156,-1.0258389,1.9252551,1.7244076,-0.9301059,1.012547,-1.043151,-1.9789414,-1.077449,1.9611206,1.6720333,-0.900158,-1.3456782,-1.0865787,0.4416664,1.6655623,-0.89292306,0.96883315,0.024150126,0.018091202,-0.6891346,0.72002125,-1.6786152,0.01225147,-0.6570499,0.0049095154,-0.64040756,0.67853767,0.85068196,1.8256069e-05,0.1315435,0.50895613,-1.4563761,-0.15866594,-0.1080174,0.0,1.0,0.0,0.0,0.0,0.0,0.0,-0.6680912,0.2891346,-0.17002124,-8.011746,12.716603,5.8394074,-11.649919,19.01691,-10.071909,-4.5973887
4.687501,77.54169,23.906433,6.0724955,0.17314693,0.64732254,0.23197977,-0.75690216,-0.57146895,0.26518852,0.6876627,-0.49001053,0.62102014,-0.2937808,0.9368568,-1.1002979,-1.9524226,-1.0086827,1.9121195,1.7341353,-0.92953604,0.9988025,-1.0533866,-1.9742757,-1.0622283,1.9530488,1.6808367,-0.9001228,-1.3852564,-1.0010806,0.4543581,1.4623885,-0.7482055,0.83503115,-0.0050142277,0.00042438507,-0.68823814,0.71582043,-1.6100043,0.21479212,0.385913,-0.00937891,-0.641716,0.6775145,0.85637176,-0.006065226,0.1317677,0.49922726,-1.4240459,-0.117394574,-0.11212454,0.0,1.0,0.0,0.0,0.0,0.0,0.0,-0.65042436,0.28823814,-0.16582042,-4.169202,8.651805,-1.6120255,-22.208023,16.553997,-17.576145,-1.8783163
7.2658815,119.68546,38.49389,14.84622,0.29315162,1.3434993,0.06662983,-0.79729664,-0.3025334,0.31536457,0.725416,-0.37060022,0.62109196,-0.36462495,0.9190728,-1.0836399,-1.9427392,-0.9896867,1.9159888,1.7429459,-0.9365853,0.98468715,-1.0618914,-1.9693605,-1.0486537,1.9464017,1.6886244,-0.9004833,-1.4206156,-0.8011471,0.5051411,1.3224723,-0.6388707,0.7611661,-0.04684581,-0.015663624,-0.68609047,0.7189323,-1.6083946,0.21457736,0.28627598,-0.023284912,-0.6423359,0.6770764,0.8618662,-0.011768866,0.1319246,0.4895345,-1.3814235,-0.033253375,-0.025351893,0.0,1.0,0.0,0.0,0.0,0.0,0.0,-0.63433635,0.28609046,-0.16893226,-3.6448479,19.750834,5.4003835,-14.000058,10.343027,-7.056284,-4.3351097
8.329353,116.91587,37.92847,15.61717,0.6823725,1.1937563,0.028694622,-0.7978495,-0.28514057,0.3425003,0.6890202,-0.21444973,0.61268955,-0.36052105,0.9049022,-1.0904055,-1.9351104,-0.9797517,1.9249568,1.7498933,-0.9365354,0.97034484,-1.0685633,-1.9639112,-1.036193,1.9410402,1.6957827,-0.90122145,-1.4390868,-0.6232287,0.55905783,1.2206923,-0.5036825,0.7016853,-0.08315866,-0.03173542,-0.6839466,0.7210485,-1.6067866,0.21436283,0.1867386,-0.036821365,-0.6421795,0.67751133,0.8671794,-0.017582003,0.1321189,0.47982842,-1.3458799,0.04131559,0.0629595,0.0,1.0,0.0,0.0,0.0,0.0,0.0,-0.61826456,0.2839466,-0.17104846,-1.9356966,17.576408,5.714214,-10.139918,13.000881,-5.688226,-3.721626
7.011369,113.94843,36.575394,17.331936,0.82407176,1.0672929,-0.051785022,-0.79648316,-0.22025722,0.34470356,0.68260217,-0.20759542,0.6114832,-0.3501139,0.8906965,-1.090589,-1.9294409,-0.9679328,1.9202806,1.756931,-0.93623286,0.9559224,-1.0736045,-1.9579812,-1.0243465,1.9367563,1.7024508,-0.9022724,-1.4434069,-0.46512884,0.60549474,1.1730688,-0.404863,0.65590423,-0.112610266,-0.04779148,-0.68180466,0.72217,-1.6051801,0.2141485,0.08730074,-0.05004263,-0.6413307,0.67881745,0.8723427,-0.023631165,0.13241112,0.4700287,-1.3153908,0.10899543,0.15038334,0.0,1.0,0.0,0.0,0.0,0.0,0.0,-0.6022085,0.28180465,-0.17216998,-0.48863888,15.615141,4.9538136,-4.6689034,9.442907,-4.3575525,-3.0069933
0.03672886,86.14223,25.879221,15.979306,1.0989302,0.5729907,-0.13792096,-0.8002031,-0.25139588,0.3245165,0.6866776,-0.18900345,0.61495787,-0.37018648,0.8759021,-1.098744,-1.9255296,-0.9556787,1.9178559,1.7639465,-0.93929106,0.9415019,-1.0776881,-1.9518262,-1.012662,1.9332544,1.7087259,-0.9035904,-1.4415985,-0.38999406,0.61950505,1.1672819,-0.33297116,0.6184176,-0.13820237,-0.06383133,-0.6796646,0.7222979,-1.6035752,0.2139344,-0.0120377,-0.06312847,-0.640007,0.68064755,0.8774259,-0.029799577,0.13273367,0.46001884,-1.3067946,0.14922583,0.19134825,0.0,1.0,0.0,0.0,0.0,0.0,0.0,-0.58616865,0.2796646,-0.1722979,0.17523766,7.3837996,1.5994787,-0.4549265,6.9131794,-3.613615,-2.5637805
-0.7282114,77.83435,22.51548,15.169881,0.9587838,0.36949775,-0.14787538,-0.7900997,-0.20098127,0.32111898,0.68826085,-0.21092537,0.62263274,-0.36249027,0.86249197,-1.0977862,-1.9197143,-0.943836,1.9121618,1.7709892,-0.9398394,0.9271692,-1.0812087,-1.9457352,-1.0009023,1.9302084,1.7145503,-0.9050848,-1.4305427,-0.33954135,0.60319513,1.1777053,-0.29367676,0.56548464,-0.15170571,-0.08014536,-0.67668915,0.72363496,-1.6463045,0.36162886,0.29117548,-0.076125145,-0.6383686,0.6827458,0.882442,-0.035878133,0.1331349,0.44975984,-1.297463,0.17637777,0.21282366,0.0,1.0,0.0,0.0,0.0,0.0,0.0,-0.5698546,0.27668914,-0.17363495,1.0763407,4.89341,-0.7306576,1.6144037,4.204321,-2.3540497,-2.3810477
-7.2689323,106.822716,28.982578,22.46745,0.7760941,0.6407521,-0.30392003,-0.81270677,0.039166193,0.18332498,0.7096764,-0.21104789,0.5951687,-0.31891832,0.8458985,-1.0772921,-1.9274027,-0.9299347,1.9091036,1.7740672,-0.9369766,0.91283834,-1.0833545,-1.9404898,-0.98887545,1.9274254,1.719974,-0.90669453,-1.4339579,-0.17347658,0.49893385,1.2116026,-0.27379096,0.5348296,-0.16413836,-0.09634447,-0.672802,0.72702396,-1.612226,0.3995858,0.35605025,-0.08898735,-0.6362896,0.6853813,0.8874114,-0.041749846,0.1342439,0.43901765,-1.2821923,0.22770417,0.2783297,0.0,1.0,0.0,0.0,0.0,0.0,0.0,-0.5536555,0.27280197,-0.17702395,-0.35357475,16.435211,-10.2592945,3.572607,1.7496765,-2.9548526,-1.2761414
-12.412057,101.689476,25.392931,23.071934,0.932133,0.44716308,-0.37433803,-0.8165081,0.07811357,0.06998186,0.7163863,-0.08035608,0.57819426,-0.34039623,0.83118755,-1.0755432,-1.9334916,-0.9172368,1.9193897,1.7777934,-0.94073415,0.89843214,-1.0838046,-1.9367989,-0.9764979,1.9251337,1.7251213,-0.90842384,-1.4429452,-0.0028218422,0.32616705,1.2469347,-0.21487822,0.5081533,-0.17603928,-0.11227512,-0.66853905,0.7309596,-1.586665,0.43651268,0.40706134,-0.10176945,-0.633749,0.6885737,0.89237994,-0.047277603,0.1362553,0.4276181,-1.2760793,0.27137586,0.33091277,0.0,1.0,0.0,0.0,0.0,0.0,0.0,-0.53772485,0.26853904,-0.18095958,-0.9262562,16.894848,-17.148327,3.687811,5.7371287,-2.6023626,-1.2474597
-18.40611,89.011635,18.872889,22.25752,0.8291192,0.14868557,-0.41679993,-0.8283043,0.13640657,-0.11664329,0.7230799,-0.044377185,0.55968094,-0.3437189,0.8156017,-1.070164,-1.9484632,-0.9041899,1.920696,1.7810893,-0.94279575,0.88388,-1.0826373,-1.9354846,-0.96380544,1.9234761,1.7300335,-0.91026366,-1.4594438,0.15618871,0.06657032,1.2769171,-0.14948446,0.48549357,-0.18687256,-0.12799978,-0.6639595,0.7351821,-1.5675846,0.4663809,0.42833802,-0.11455488,-0.63087654,0.692071,0.8973877,-0.052116476,0.13923691,0.4154423,-1.2777513,0.30280995,0.3545628,0.0,1.0,0.0,0.0,0.0,0.0,0.0,-0.5220002,0.2639595,-0.1851821,-1.6860962,15.74205,-25.902254,3.0921698,6.468621,-2.2634506,-1.1649162
-15.0092125,89.9936,19.738873,21.24541,0.5199634,0.17703271,-0.36026448,-0.8224173,0.21310297,-0.17053021,0.75623447,-0.13488707,0.5630279,-0.36990258,0.8016383,-1.061327,-1.9525377,-0.888182,1.9099874,1.7863363,-0.94725394,0.8692087,-1.079967,-1.9366076,-0.95075524,1.9221016,1.7347468,-0.912221,-1.4699455,0.3034413,-0.17111507,1.3144336,-0.13402908,0.46629813,-0.19914238,-0.14349556,-0.6590557,0.73967123,-1.5431604,0.49985102,0.45716056,-0.12728167,-0.627655,0.69581634,0.90238374,-0.056202892,0.14332698,0.4024949,-1.2682471,0.33780107,0.38044676,0.0,1.0,0.0,0.0,0.0,0.0,0.0,-0.5065044,0.2590557,-0.18967122,-1.1187077,14.531917,-23.564753,3.7669897,1.3577104,-1.9928932,-1.3609439
-16.453812,54.84684,7.68442,14.971012,0.19531089,-0.35579425,-0.27471632,-0.82172745,0.1514612,-0.36371976,0.75446975,-0.17192988,0.54783064,-0.3661582,0.78703594,-1.0648209,-1.9729795,-0.8753083,1.9049087,1.7895299,-0.9488368,0.85447633,-1.0765338,-1.9403799,-0.93741596,1.9206187,1.739298,-0.91428953,-1.4744244,0.356265,-0.44598788,1.3402237,-0.15306483,0.45120335,-0.20990424,-0.15884018,-0.65395546,0.74394214,-1.5310792,0.51403415,0.41929102,-0.13998604,-0.62431145,0.6993359,0.907339,-0.05924143,0.14842328,0.38884038,-1.2676162,0.34390184,0.34227756,0.0,1.0,0.0,0.0,0.0,0.0,0.0,-0.4911598,0.25395545,-0.19394213,-0.46861172,5.1730213,-27.455515,2.5346994,-1.9275576,-1.515305,-1.223126
-16.007633,33.14698,1.2320447,10.81758,-0.05114633,-0.5845797,-0.15759708,-0.82239497,0.11826134,-0.46990258,0.76789886,-0.28028488,0.5425528,-0.30006832,0.7722368,-1.0647076,-1.9873701,-0.8606261,1.8925902,1.7935532,-0.94429636,0.8397287,-1.0731215,-1.9467552,-0.9238458,1.9185498,1.7437227,-0.91640574,-1.4746813,0.33615568,-0.70152766,1.3624341,-0.22447687,0.43966833,-0.21267878,-0.17411232,-0.64878273,0.7475586,-1.5252951,0.5187311,0.3452725,-0.1527195,-0.62101746,0.70219755,0.91220456,-0.06101415,0.15439281,0.374597,-1.271404,0.3347641,0.26803243,0.0,1.0,0.0,0.0,0.0,0.0,0.0,-0.47588766,0.24878272,-0.19755858,-0.00011920929,-2.0707667,-25.597143,2.1764994,-7.0876837,-1.099056,-0.43913722
-17.21,8.133982,-5.993581,6.641123,-0.09917772,-0.8079326,-0.05319714,-0.82677406,0.027907338,-0.57042515,0.7707348,-0.36324728,0.53011507,-0.25435147,0.7570513,-1.0703309,-2.0037978,-0.8467724,1.882225,1.7967342,-0.9418409,0.8249792,-1.0705295,-1.9554622,-0.9101091,1.91554,1.7480447,-0.9185019,-1.4747716,0.23348111,-0.92779434,1.3774635,-0.325931,0.43014073,-0.20909959,-0.18935394,-0.64360046,0.75026137,-1.5237701,0.5182125,0.24528241,-0.16558456,-0.6179466,0.70401436,0.9169403,-0.061390273,0.16098766,0.35990918,-1.2880734,0.30847496,0.15384038,0.0,1.0,0.0,0.0,0.0,0.0,0.0,-0.46064603,0.24360046,-0.20026135,0.09286404,-10.261226,-22.813725,1.5343189,-9.950787,-0.83023906,0.22110939
-10.317701,24.17429,1.0901139,7.09565,-0.048448145,-0.47972995,0.07772997,-0.81871593,0.056071896,-0.5815362,0.77337885,-0.40374985,0.5503213,-0.17795454,0.7431076,-1.0649222,-2.0136158,-0.83277124,1.875165,1.8030769,-0.93629736,0.81026685,-1.0688319,-1.9657886,-0.8962713,1.911504,1.7522962,-0.9205027,-1.4699994,0.14857706,-1.0671719,1.3858161,-0.42950314,0.4234325,-0.19753301,-0.2045803,-0.638422,0.7519649,-1.5222467,0.5176944,0.14539228,-0.17851925,-0.61501503,0.7049224,0.9214496,-0.060618028,0.1680614,0.34498033,-1.2917383,0.29870617,0.07137046,0.0,1.0,0.0,0.0,0.0,0.0,0.0,-0.44541967,0.238422,-0.20196491,0.5084038,-8.540403,-13.854527,0.84199905,-10.398274,-0.6492317,0.98697245
-7.672017,22.704548,2.028896,5.985075,0.12530313,-0.3798257,0.16251062,-0.8159096,-0.023149045,-0.6161365,0.77554005,-0.44089985,0.55826616,-0.11546418,0.7286759,-1.0711468,-2.0274022,-0.8187173,1.867414,1.8081229,-0.93204916,0.7956146,-1.0681376,-1.9770553,-0.8823829,1.9065163,1.7564962,-0.92234045,-1.4635074,0.04289306,-1.1458793,1.3899643,-0.52209026,0.41868627,-0.17976505,-0.21979141,-0.6332493,0.7526788,-1.5207248,0.5171768,0.046725236,-0.19150305,-0.61216736,0.7050288,0.9256723,-0.05894437,0.17538257,0.32999578,-1.2973355,0.29112828,-0.008060627,0.0,1.0,0.0,0.0,0.0,0.0,0.0,-0.43020856,0.23324928,-0.2026788,0.6703615,-10.615335,-7.7205896,0.44939518,-9.352654,-0.48264265,1.6312778
-8.394598,21.754713,1.8859036,5.8622727,0.21477382,-0.3555044,0.23867044,-0.82186043,-0.083226636,-0.6780499,0.7707677,-0.4980289,0.51924616,0.038725324,0.71342856,-1.0764604,-2.0448604,-0.80530614,1.8567134,1.8084208,-0.91846794,0.78099,-1.0685467,-1.9889815,-0.86850584,1.9006628,1.7606337,-0.9238994,-1.4620095,-0.06900108,-1.2077885,1.3871865,-0.606535,0.4116874,-0.14824627,-0.23493338,-0.6280861,0.7527417,-1.51056,0.5185889,-0.0066142273,-0.20456886,-0.60938454,0.7043327,0.9295827,-0.056425847,0.18279576,0.31508386,-1.3066844,0.28431746,-0.088713795,0.0,1.0,0.0,0.0,0.0,0.0,0.0,-0.4150666,0.22808608,-0.20274168,0.17793179,-11.245054,-5.950117,-0.16260147,-8.680714,-0.819999,3.0736864
-6.0198107,24.832972,3.6535301,5.63933,0.44786078,-0.26638043,0.27501628,-0.8139662,-0.14087324,-0.6749058,0.7665928,-0.47680706,0.53587025,0.072345175,0.69959337,-1.082634,-2.056472,-0.7918466,1.852982,1.8142208,-0.9166649,0.76640165,-1.0700821,-2.0012584,-0.8546868,1.89422,1.764708,-0.9251304,-1.457869,-0.18193169,-1.2335727,1.3804063,-0.6573756,0.4057288,-0.114967704,-0.24998951,-0.6228733,0.7521147,-1.5030953,0.5227002,-0.07889357,-0.21773577,-0.6066437,0.70289314,0.93317944,-0.0532008,0.1900846,0.30035552,-1.3171313,0.28172448,-0.16116987,0.0,1.0,0.0,0.0,0.0,0.0,0.0,-0.40001047,0.2228733,-0.2021147,0.41909218,-11.352957,-2.3398876,-0.6025076,-5.269861,-0.67914724,3.234291
-13.340288,-0.6808219,-4.6100388,3.2195468,0.557134,-0.5539795,0.28417775,-0.8303614,-0.3104369,-0.7318092,0.7648167,-0.53841877,0.47538325,0.16015121,0.6833655,-1.1011257,-2.0744393,-0.77820516,1.8403782,1.8122463,-0.9091153,0.7517761,-1.0732483,-2.0138965,-0.8409272,1.8872696,1.7686868,-0.9259859,-1.4636213,-0.36164233,-1.2741944,1.3753854,-0.70737445,0.3950604,-0.07568419,-0.26500893,-0.6176491,0.75057423,-1.5015924,0.5221776,-0.1790939,-0.23119879,-0.60404587,0.70040727,0.93652624,-0.049126383,0.19697864,0.28584024,-1.3533381,0.26317403,-0.2768677,0.0,1.0,0.0,0.0,0.0,0.0,0.0,-0.38499105,0.21764907,-0.20057422,-0.4380703,-17.969173,-4.1421175,-0.22296906,-4.899895,-1.1036932,3.9391174
-9.661084,15.016221,0.2598076,4.811937,0.5208859,-0.34561443,0.3402723,-0.8155304,-0.31017748,-0.73591536,0.7722154,-0.57313806,0.49995077,0.32352358,0.67022306,-1.104266,-2.087488,-0.7637056,1.8299558,1.8186818,-0.8936335,0.73715055,-1.0779194,-2.0268588,-0.82717043,1.879829,1.7725797,-0.9263616,-1.4620106,-0.5022971,-1.3032149,1.3765074,-0.75663817,0.38699603,-0.025011819,-0.28001356,-0.6124325,0.7480325,-1.5000912,0.5216555,-0.27919403,-0.24492502,-0.6015396,0.696952,0.93960404,-0.044243358,0.203515,0.2716033,-1.37627,0.25737527,-0.367711,0.0,1.0,0.0,0.0,0.0,0.0,0.0,-0.36998641,0.21243247,-0.1980325,0.23424625,-14.116758,-2.7929306,0.33955574,-5.0133467,-0.92039704,5.0461054
-12.109964,6.204747,-2.5611157,3.424434,0.473685,-0.40786743,0.35467798,-0.82667375,-0.43351582,-0.76408863,0.7585066,-0.6058586,0.4560634,0.34147337,0.6544832,-1.1212709,-2.1032677,-0.75131977,1.8192432,1.818186,-0.8922143,0.7225002,-1.084145,-2.040153,-0.8134461,1.8719097,1.7763677,-0.9262548,-1.465559,-0.6628024,-1.338412,1.3721237,-0.80378324,0.37580395,0.022681128,-0.2950034,-0.6072197,0.7444905,-1.4985914,0.52113396,-0.3791941,-0.2589364,-0.5991173,0.6924728,0.9424271,-0.038507562,0.20964839,0.25767398,-1.4066015,0.24839391,-0.474626,0.0,1.0,0.0,0.0,0.0,0.0,0.0,-0.35499656,0.20721969,-0.19449049,-0.23136139,-16.086174,-3.531623,-0.11296272,-4.701853,-1.2435734,4.801138
-10.918569,21.678604,1.7005858,5.603615,0.5358417,-0.16083777,0.36067432,-0.83095104,-0.45138124,-0.77064955,0.7519062,-0.6262349,0.4505621,0.40125158,0.63940513,-1.1292831,-2.117218,-0.7382555,1.8092862,1.8214239,-0.8861297,0.7077917,-1.0916675,-2.0537372,-0.7998,1.8635479,1.7800469,-0.9256788,-1.4724075,-0.78232586,-1.3643531,1.3630797,-0.8474479,0.3645948,0.06918133,-0.309978,-0.60201263,0.7399493,-1.4970931,0.5206129,-0.4790942,-0.27317095,-0.5966873,0.6871017,0.94498277,-0.03197425,0.21544397,0.24406795,-1.4260896,0.25308284,-0.5580263,0.0,1.0,0.0,0.0,0.0,0.0,0.0,-0.34002197,0.20201263,-0.18994927,-0.62417984,-12.040461,-2.4053335,-0.642848,-4.5627117,-1.315248,4.6412177
-7.7718406,30.909546,4.8808675,6.486201,0.75006026,0.027427733,0.34745663,-0.8207349,-0.51245475,-0.7495958,0.7619423,-0.5948918,0.50944436,0.44081095,0.6257182,-1.142913,-2.1286967,-0.72360575,1.8040588,1.8309914,-0.8815977,0.69306695,-1.100264,-2.0673862,-0.78619105,1.85494,1.7836652,-0.9246593,-1.4725007,-0.88585204,-1.3641167,1.3609567,-0.8664306,0.36022234,0.11286036,-0.32493734,-0.5968113,0.7344098,-1.4955963,0.5200924,-0.5788944,-0.28756046,-0.5941467,0.6810291,0.94727254,-0.024859006,0.22086467,0.23081483,-1.4399318,0.26665547,-0.6243489,0.0,1.0,0.0,0.0,0.0,0.0,0.0,-0.32506263,0.19681129,-0.1844098,0.0015497208,-10.464716,0.35247803,0.00038146973,-2.2203684,-0.6861329,4.361859
-4.569611,36.52639,7.0208545,6.6118617,0.9061754,0.15634513,0.3387025,-0.8129611,-0.5738087,-0.7262593,0.76571065,-0.575314,0.5417196,0.47109127,0.61177087,-1.1576449,-2.140012,-0.70962,1.7974087,1.8378371,-0.8775502,0.67839086,-1.1098427,-2.0808444,-0.7725659,1.8462902,1.7872739,-0.9232288,-1.4660707,-0.98242635,-1.3381671,1.3635576,-0.866047,0.3602938,0.15309392,-0.33988237,-0.59161377,0.727873,-1.494101,0.51957244,-0.67859477,-0.30205393,-0.5914326,0.6743789,0.949317,-0.017378898,0.22581348,0.2179528,-1.4487774,0.28575742,-0.6795619,0.0,1.0,0.0,0.0,0.0,0.0,0.0,-0.3101176,0.19161376,-0.17787302,0.6165981,-9.779358,3.0220747,0.4356861,-0.36851168,-0.27418733,4.0316076
-4.1240077,41.42067,8.1558895,7.179699,0.9389806,0.25934982,0.32812852,-0.8173906,-0.61308247,-0.72267467,0.75793725,-0.5888407,0.53568095,0.48952731,0.5966518,-1.1711509,-2.153112,-0.69677216,1.7874062,1.840842,-0.87427604,0.6637615,-1.1202898,-2.0940177,-0.7589503,1.8376604,1.7908931,-0.92143494,-1.4620143,-1.0659981,-1.310374,1.3604631,-0.8605879,0.3619725,0.18785658,-0.3548107,-0.5863743,0.72076607,-1.4827622,0.5323054,-0.66600996,-0.31660223,-0.58849525,0.6672269,0.9511307,-0.009625828,0.23028731,0.20548859,-1.4530946,0.3092633,-0.72876424,0.0,1.0,0.0,0.0,0.0,0.0,0.0,-0.29518926,0.18637428,-0.17076606,0.3619194,-8.482933,2.9402971,-0.34799576,0.5000949,0.020813942,3.3786118
-3.259675,52.22541,10.69641,9.045997,1.040067,0.3933559,0.30172855,-0.8149218,-0.6233595,-0.7101168,0.76211697,-0.5897305,0.5116681,0.52681863,0.5822693,-1.1826258,-2.1650295,-0.6827386,1.7786874,1.8420599,-0.8687531,0.6491693,-1.1313658,-2.1069,-0.7453538,1.8291152,1.7945019,-0.9193016,-1.4585578,-1.1219485,-1.2788963,1.3596543,-0.85464644,0.35930938,0.22181913,-0.36942387,-0.5809727,0.71382695,-1.4540966,0.5441598,-0.70217127,-0.33114243,-0.58527565,0.6597123,0.95271903,-0.0016638198,0.2343492,0.19340158,-1.4496177,0.33908322,-0.7604116,0.0,1.0,0.0,0.0,0.0,0.0,0.0,-0.2805761,0.18097267,-0.16382694,0.25336742,-5.758333,3.7951946,0.004339218,-0.058162212,-0.6310046,3.3786922
-0.8083403,58.946804,12.377426,9.419853,1.0535182,0.46906602,0.30406207,-0.8083447,-0.64369893,-0.6900034,0.7519847,-0.57546294,0.50654274,0.54499316,0.5683349,-1.1957357,-2.1759002,-0.67015535,1.7715689,1.8451562,-0.8648023,0.63462865,-1.142869,-2.1194463,-0.7318144,1.8206671,1.7980797,-0.9168544,-1.4530022,-1.160301,-1.2441792,1.3520507,-0.8438426,0.35606617,0.2522328,-0.38372898,-0.575449,0.7066091,-1.4218223,0.5562554,-0.7274252,-0.34558964,-0.58174133,0.6519569,0.95408255,0.0064445045,0.238057,0.18169713,-1.4378713,0.3710495,-0.7821294,0.0,1.0,0.0,0.0,0.0,0.0,0.0,-0.266271,0.17544898,-0.15660906,0.4245758,-4.007292,4.221511,-0.73673725,0.34971237,-0.68641305,2.9952497
-1.8916142,64.50876,13.104767,10.691216,1.1241581,0.52395004,0.2838478,-0.81585664,-0.64888823,-0.69030887,0.73789847,-0.56176144,0.4652078,0.5582307,0.553043,-1.2077578,-2.1884773,-0.65802455,1.764491,1.8446006,-0.8610313,0.6200975,-1.1546144,-2.1317217,-0.71841425,1.8123518,1.8015952,-0.91412985,-1.4535943,-1.1800143,-1.2194834,1.3359216,-0.8300862,0.34877113,0.27903333,-0.39768696,-0.56980705,0.6991846,-1.3860116,0.56820536,-0.74627745,-0.35989857,-0.5778675,0.6440414,0.95522726,0.014700683,0.24146292,0.17035395,-1.4231257,0.40558952,-0.7964619,0.0,1.0,0.0,0.0,0.0,0.0,0.0,-0.25231302,0.16980705,-0.14918458,-0.20594597,-2.1554232,3.2825232,-1.6197681,0.57064295,-1.0981679,2.6102245
1.3924584,67.491394,14.069287,10.258641,1.2218051,0.50986683,0.28553995,-0.8031593,-0.66280735,-0.66269815,0.7263235,-0.49116004,0.41447288,0.58117616,0.5397816,-1.2208952,-2.1979916,-0.6457819,1.7632358,1.8430425,-0.8560122,0.6056055,-1.1665106,-2.143707,-0.7052181,1.8043662,1.8050038,-0.91115344,-1.4483123,-1.193418,-1.1889049,1.3140447,-0.79093695,0.33687776,0.30372238,-0.41126966,-0.5640564,0.69159454,-1.3479083,0.57842666,-0.7620457,-0.3740325,-0.5736618,0.6360269,0.9561842,0.023040453,0.24449405,0.1593849,-1.4044423,0.43872702,-0.8047432,0.0,1.0,0.0,0.0,0.0,0.0,0.0,-0.23873031,0.16405639,-0.14159453,0.35521984,-1.5183449,3.924799,-2.2427082,3.0575752,-1.5627265,2.3993075
3.4639595,71.104195,14.780994,10.248122,1.2486012,0.4640864,0.29074925,-0.7991233,-0.6578299,-0.6552864,0.7042961,-0.45015985,0.29301554,0.6038856,0.5256932,-1.2322936,-2.2092357,-0.63478845,1.7593503,1.8343053,-0.8507649,0.5911821,-1.1784544,-2.1554215,-0.6923099,1.7968669,1.8082099,-0.90794337,-1.4410526,-1.1952084,-1.1628822,1.28278,-0.739169,0.31385612,0.3266147,-0.4244504,-0.558218,0.6838732,-1.30692,0.5865773,-0.7738949,-0.38794994,-0.56913185,0.62797076,0.95698154,0.0314441,0.24709451,0.14880136,-1.3814456,0.4693833,-0.80744016,0.0,1.0,0.0,0.0,0.0,0.0,0.0,-0.22554958,0.158218,-0.13387316,0.5316973,-0.35419464,3.5183907,-3.2271385,4.2604566,-2.6812732,2.2080302
3.3410907,63.290855,12.320264,7.6095524,1.079253,0.18221843,0.3632484,-0.81060135,-0.673314,-0.6875014,0.6257619,-0.3345942,-0.06278736,0.61103934,0.510122,-1.2457858,-2.2241716,-0.62973374,1.7634075,1.8019311,-0.8468394,0.5767683,-1.1904478,-2.167109,-0.6800254,1.7901566,1.8109316,-0.9045257,-1.4420291,-1.2010831,-1.1680571,1.2100282,-0.65092,0.25702724,0.3465968,-0.43728256,-0.5523281,0.675899,-1.2740988,0.59010077,-0.8032695,-0.40167093,-0.5643749,0.61976945,0.9576759,0.040097233,0.24905607,0.13863665,-1.3626378,0.49045607,-0.8257047,0.0,1.0,0.0,0.0,0.0,0.0,0.0,-0.21271741,0.1523281,-0.12589902,-0.2597332,-0.72972775,0.24311543,-7.3590994,8.01146,-6.0370326,1.9274175
4.2365246,67.15828,13.31268,8.440235,1.4505653,0.13254392,0.31146455,-0.80453485,-0.6628866,-0.66442925,0.6052588,-0.17823167,-0.25490856,0.62353045,0.4963148,-1.2567365,-2.233552,-0.6194995,1.7723334,1.7854407,-0.8421726,0.56235445,-1.2024374,-2.1788082,-0.6684914,1.7846925,1.812961,-0.900923,-1.4417481,-1.1987357,-1.1680604,1.1341827,-0.51408476,0.18362932,0.3646896,-0.44978905,-0.5464096,0.66765857,-1.241575,0.5929089,-0.8288713,-0.41523123,-0.5593929,0.6114628,0.95834494,0.04895508,0.25014418,0.1288651,-1.347426,0.5123737,-0.83376426,0.0,1.0,0.0,0.0,0.0,0.0,0.0,-0.20021093,0.1464096,-0.117658556,-0.14717579,0.096678734,0.79495907,-7.7003956,12.841045,-7.723016,1.7628491
9.445679,70.198044,15.036107,7.9414907,1.8548903,0.15001917,0.26370114,-0.78667927,-0.66666454,-0.615293,0.56919575,0.029693093,-0.34466687,0.61936116,0.4836865,-1.2691039,-2.2403376,-0.61157185,1.7876618,1.7784942,-0.8389869,0.5480236,-1.214406,-2.190286,-0.6577233,1.7810558,1.8142402,-0.897163,-1.4309034,-1.1968423,-1.1379762,1.0570244,-0.31620157,0.10793652,0.37970164,-0.4619646,-0.5404701,0.6591953,-1.2083664,0.5948187,-0.8501875,-0.4286399,-0.5541878,0.60316145,0.9590911,0.057719808,0.25007468,0.119478956,-1.3322147,0.5347438,-0.83029014,0.0,1.0,0.0,0.0,0.0,0.0,0.0,-0.18803537,0.14047012,-0.10919529,0.8827448,0.06914139,3.851056,-7.8878164,18.935425,-7.9700737,1.4862478
12.045628,69.90538,15.111237,6.699153,1.7938253,0.17490482,0.29095134,-0.78985673,-0.66251665,-0.6023196,0.4901004,0.13078593,-0.45047534,0.61044514,0.4690379,-1.2806576,-2.2505178,-0.60871327,1.7941344,1.7691927,-0.83611846,0.5337852,-1.2263365,-2.2013977,-0.6479021,1.7794411,1.8147571,-0.89327973,-1.4220314,-1.1922776,-1.0996875,0.95652837,-0.11237833,0.03166494,0.3911323,-0.47380304,-0.534523,0.65051174,-1.1744437,0.59484434,-0.87244487,-0.4418645,-0.5487747,0.5948854,0.9599662,0.066243194,0.2487223,0.11051676,-1.3125619,0.5549173,-0.82795507,0.0,1.0,0.0,0.0,0.0,0.0,0.0,-0.17619693,0.134523,-0.10051173,0.6868124,0.35817623,4.64108,-10.243427,19.56968,-7.9996576,1.1205018
15.63731,73.87969,16.351461,6.63181,1.8277023,0.25102633,0.28007445,-0.7791381,-0.6506049,-0.55610484,0.43962044,0.23865737,-0.5228764,0.6022388,0.4558714,-1.291397,-2.257008,-0.60394,1.8033068,1.7624695,-0.83305585,0.51966417,-1.2381716,-2.2119715,-0.6391233,1.7798117,1.8145379,-0.88930595,-1.4094725,-1.180852,-1.0404735,0.8508135,0.08436312,-0.040947042,0.39937195,-0.48526573,-0.52859116,0.641666,-1.1357429,0.59291893,-0.88692755,-0.45484304,-0.543169,0.5866879,0.96098894,0.074389584,0.24609388,0.10200088,-1.2863647,0.5737213,-0.8181895,0.0,1.0,0.0,0.0,0.0,0.0,0.0,-0.16473424,0.12859115,-0.09166598,1.0440826,1.0602236,6.748438,-10.805154,18.879612,-7.601814,0.7810414
19.373701,72.63293,15.96817,4.6010695,1.305286,0.28498822,0.37339634,-0.7752266,-0.6424727,-0.5339815,0.34701616,0.23636669,-0.56966597,0.59382147,0.4421415,-1.3024188,-2.2653697,-0.60442173,1.8034484,1.7575713,-0.8299238,0.5056642,-1.2498636,-2.2219503,-0.63158816,1.7817274,1.8136412,-0.88527,-1.3975893,-1.1654309,-0.98121536,0.7202908,0.2251058,-0.1066915,0.40472317,-0.49630737,-0.5227032,0.6326782,-1.0927199,0.5869768,-0.9010358,-0.46746683,-0.5374298,0.57852715,0.96211696,0.08220386,0.24235097,0.09401758,-1.2477416,0.58479506,-0.8164537,0.0,1.0,0.0,0.0,0.0,0.0,0.0,-0.1536926,0.122703165,-0.0826782,0.9880543,1.4857769,6.6698074,-13.297653,13.367576,-6.825145,0.44668913
26.98383,69.417534,15.701118,0.63997746,0.581378,0.2972721,0.5332683,-0.76200545,-0.6359488,-0.49238545,0.2278143,0.22761886,-0.5832307,0.5794671,0.42946368,-1.3134584,-2.2711887,-0.6088067,1.8044894,1.7553182,-0.8273233,0.4918145,-1.2613935,-2.231292,-0.6256438,1.784622,1.8121595,-0.88120157,-1.3814303,-1.1488982,-0.9161744,0.55161,0.3088768,-0.16234958,0.40713662,-0.5068774,-0.5169163,0.6235446,-1.0445993,0.57545686,-0.9164985,-0.4795704,-0.5316696,0.5702936,0.9632888,0.08979317,0.23766823,0.08674976,-1.1916628,0.5831448,-0.8268648,0.0,1.0,0.0,0.0,0.0,0.0,0.0,-0.14312255,0.11691627,-0.07354456,1.427412,1.6349792,7.121682,-17.134989,7.795149,-5.7208776,0.12199879
25.524542,64.59073,14.116552,-0.5239003,0.34044576,0.29360324,0.58603656,-0.7706831,-0.6308163,-0.482486,0.11979324,0.30033895,-0.6052085,0.57795155,0.41474617,-1.3244752,-2.2795405,-0.61366445,1.8146559,1.7516387,-0.8234064,0.47805628,-1.2727709,-2.2401,-0.621562,1.7882489,1.8101777,-0.87711596,-1.374421,-1.134009,-0.8673545,0.35977918,0.37932578,-0.21044496,0.40874818,-0.5169935,-0.51125526,0.6141939,-1.0003593,0.56272644,-0.94062954,-0.4911151,-0.5259514,0.56186515,0.96447957,0.09725761,0.23210819,0.08028663,-1.1362486,0.5786084,-0.849448,0.0,1.0,0.0,0.0,0.0,0.0,0.0,-0.13300645,0.11125526,-0.064193904,0.5640745,1.4864445,5.309546,-19.381702,6.6271186,-4.9337444,0.07451773
20.979908,70.702194,15.101384,3.4147518,0.9063733,0.41338515,0.43096754,-0.7683717,-0.61598986,-0.41287562,0.08694567,0.38138017,-0.6153165,0.567761,0.4012191,-1.3343699,-2.2813876,-0.6128674,1.8263869,1.748646,-0.82033986,0.464341,-1.2839708,-2.2482672,-0.61913395,1.7926242,1.8077705,-0.8730248,-1.370938,-1.115528,-0.79849714,0.2033878,0.4557666,-0.25152493,0.409108,-0.52667236,-0.50572014,0.604675,-0.95661104,0.55113333,-0.9556105,-0.5021734,-0.5202007,0.55332744,0.96570903,0.10446049,0.22570612,0.074503295,-1.0899698,0.5823146,-0.8567406,0.0,1.0,0.0,0.0,0.0,0.0,0.0,-0.12332761,0.10572013,-0.054674983,0.23972988,1.8461466,7.2219133,-15.7974,7.343292,-4.269025,-0.0023186207
32.4561,77.91912,19.157463,1.7340323,1.2102628,0.6297498,0.48315364,-0.7504822,-0.60563654,-0.20652054,-0.052809373,0.4667954,-0.60482645,0.57319033,0.38929278,-1.3445345,-2.2689192,-0.62441486,1.8393037,1.7472879,-0.8157058,0.45072055,-1.2949781,-2.2549314,-0.6184397,1.7978867,1.8050187,-0.8689271,-1.3595041,-1.095468,-0.62150913,0.023999974,0.54929256,-0.28337327,0.40993488,-0.53585196,-0.5003357,0.59514225,-0.904379,0.5352682,-0.9529754,-0.51266956,-0.51444054,0.5448757,0.96706927,0.1109079,0.21828243,0.06949278,-1.0308713,0.58297074,-0.84277064,0.0,1.0,0.0,0.0,0.0,0.0,0.0,-0.11414802,0.10033569,-0.045142233,1.0291815,2.0516872,17.892254,-18.16686,9.233403,-3.1330884,-0.009286404
37.172726,96.94198,25.6218,6.165952,2.4275985,1.0434573,0.34144497,-0.75431925,-0.5805823,0.098571934,-0.114164144,0.5613869,-0.59998393,0.59008986,0.3752886,-1.3530364,-2.2450743,-0.6298561,1.8540254,1.7450203,-0.80991817,0.437186,-1.3057127,-2.258586,-0.61939764,1.8042401,1.8020031,-0.86480784,-1.3517103,-1.0656604,-0.27984336,-0.13657494,0.66453546,-0.3074202,0.4126045,-0.5444293,-0.49512672,0.5859127,-0.84176564,0.51721233,-0.9136005,-0.52256584,-0.50858116,0.5369439,0.9687124,0.11576005,0.20960703,0.06527511,-0.97069013,0.5947756,-0.7781386,0.0,1.0,0.0,0.0,0.0,0.0,0.0,-0.105570674,0.09512672,-0.035912693,0.68933964,3.0573368,34.136246,-16.311043,11.706579,-2.2846282,0.22643805
45.1327,98.68537,27.014862,3.2459886,2.0964458,1.0913486,0.4891018,-0.748144,-0.549125,0.21366069,-0.2947309,0.62726825,-0.58599174,0.59975183,0.3623716,-1.3606251,-2.2372198,-0.6488707,1.866967,1.7434039,-0.80483264,0.42373776,-1.3160505,-2.258697,-0.62234855,1.8117825,1.7988036,-0.8606529,-1.3425723,-1.0228101,0.07704117,-0.3485134,0.7858599,-0.32341442,0.41651928,-0.5523443,-0.49014473,0.57713556,-0.774691,0.49322662,-0.86706346,-0.53176117,-0.5026722,0.52966803,0.97068465,0.118701026,0.19959238,0.062001396,-0.89806926,0.59606457,-0.7124816,0.0,1.0,0.0,0.0,0.0,0.0,0.0,-0.097655654,0.09014472,-0.027135551,0.90272427,4.3740034,35.288136,-21.36427,12.679791,-1.3186693,0.3860414
38.379112,126.8942,30.929373,13.046696,2.5745277,1.2804098,0.27877334,-0.73895144,-0.41788948,0.25889355,-0.31532827,0.6838846,-0.551651,0.60447246,0.3498426,-1.3578395,-2.2328076,-0.6538814,1.880171,1.7436385,-0.8002057,0.41040635,-1.3254137,-2.2558515,-0.62708175,1.8205206,1.7955073,-0.85645664,-1.3296821,-0.9071602,0.35113207,-0.51519114,0.90631616,-0.33029956,0.4207566,-0.5594964,-0.48544312,0.5691557,-0.6958485,0.46354535,-0.7768613,-0.54023457,-0.496706,0.5233704,0.9728827,0.119814076,0.18868841,0.059501596,-0.8263254,0.60307854,-0.60379255,0.0,1.0,0.0,0.0,0.0,0.0,0.0,-0.09050357,0.08544311,-0.019155681,1.3754845,11.687779,26.601318,-16.759092,13.062155,-0.23063421,0.4309833
29.133568,125.50478,28.778305,16.204687,2.4344895,1.1485379,0.16188937,-0.7371223,-0.39391586,0.33044785,-0.35746244,0.7027369,-0.5391272,0.5889926,0.33669412,-1.3648053,-2.2228067,-0.66282797,1.8907943,1.7415946,-0.79755735,0.39719415,-1.3336134,-2.2508698,-0.6331491,1.8302711,1.7921715,-0.85223174,-1.3179039,-0.7903121,0.5440045,-0.63701934,1.0019182,-0.33311325,0.4232917,-0.5659075,-0.48103142,0.5620599,-0.62405956,0.4341343,-0.6891625,-0.54808235,-0.4906597,0.51809675,0.9751869,0.119415194,0.17731535,0.05753041,-0.7675654,0.61079997,-0.5030133,0.0,1.0,0.0,0.0,0.0,0.0,0.0,-0.0840925,0.08103141,-0.012059867,1.3402462,11.81612,18.269962,-12.139726,10.777879,0.19110441,0.3259778
23.000061,133.58516,28.968843,19.905735,2.2758663,1.1710007,0.101462334,-0.73866934,-0.29287392,0.3908373,-0.43502608,0.7095633,-0.5160196,0.5663103,0.3233272,-1.3629007,-2.211786,-0.6766517,1.9012275,1.7405695,-0.7956007,0.38406458,-1.3404245,-2.2444654,-0.6403266,1.8407608,1.788839,-0.848001,-1.3105878,-0.6441422,0.6686552,-0.7441838,1.069127,-0.33162194,0.42338693,-0.5715966,-0.47693253,0.55594325,-0.55188984,0.40242624,-0.5882472,-0.5553522,-0.48452187,0.513882,0.9774819,0.117843926,0.1658693,0.055939406,-0.7103852,0.61876374,-0.39530402,0.0,1.0,0.0,0.0,0.0,0.0,0.0,-0.07840335,0.07693252,-0.0059432387,0.9517193,14.775872,11.245262,-10.588169,8.155155,0.68376064,0.12859702
