Afshin1997/kuka_rl_ros2/src/catch_and_throw/input_files/idealpd/recorded_trajectories/env_188_data.csv
torque0,torque1,torque2,torque3,torque4,torque5,torque6,action0,action1,action2,action3,action4,action5,action6,set_target_0,set_target_1,set_target_2,set_target_3,set_target_4,set_target_5,set_target_6,joint_pos_0,joint_pos_1,joint_pos_2,joint_pos_3,joint_pos_4,joint_pos_5,joint_pos_6,joint_vel_0,joint_vel_1,joint_vel_2,joint_vel_3,joint_vel_4,joint_vel_5,joint_vel_6,tennisball_pos_0,tennisball_pos_1,tennisball_pos_2,tennisball_lin_vel_0,tennisball_lin_vel_1,tennisball_lin_vel_2,end_effector_pos_0,end_effector_pos_1,end_effector_pos_2,end_effector_rot_0,end_effector_rot_1,end_effector_rot_2,end_effector_rot_3,end_effector_lin_vel_0,end_effector_lin_vel_1,end_effector_lin_vel_2,obs_task_0,obs_task_1,obs_task_2,obs_task_3,obs_task_4,obs_task_5,obs_task_6,to_final_target_0,to_final_target_1,to_final_target_2,joint_acc_0,joint_acc_1,joint_acc_2,joint_acc_3,joint_acc_4,joint_acc_5,joint_acc_6
0.0,0.0,0.0,0.0,0.0,0.0,0.0,0.0,0.0,0.0,0.0,0.0,0.0,0.0,1.7802359,-1.0646509,-1.8151424,-1.1170107,1.9373155,1.1170107,-0.91629785,1.7802359,-1.0646509,-1.8151424,-1.1170107,1.9373155,1.1170107,-0.91629785,0.0,0.0,0.0,0.0,0.0,0.0,0.0,2.7088394,-0.2782631,0.15991184,-3.1394916,-0.32120466,4.8914485,0.5304146,-0.45449448,0.693097,0.5745483,0.17512383,0.15255436,0.7848268,0.0,0.0,0.0,1.0,0.0,0.0,0.0,0.0,0.0,0.0,-3.3588395,-0.121736914,0.39008817,0.0,0.0,0.0,0.0,0.0,0.0,0.0
0.0,0.0,0.0,0.0,0.0,0.0,0.0,0.0,0.0,0.0,0.0,0.0,0.0,0.0,1.7802359,-1.0646509,-1.8151424,-1.1170107,1.9373155,1.1170107,-0.91629785,1.7802359,-1.0646509,-1.8151424,-1.1170107,1.9373155,1.1170107,-0.91629785,0.0,0.0,0.0,0.0,0.0,0.0,0.0,2.7088394,-0.2782631,0.15991184,-3.1394916,-0.32120466,4.8914485,0.5304146,-0.45449448,0.693097,0.5745483,0.17512383,0.15255436,0.7848268,0.0,0.0,0.0,1.0,0.0,0.0,0.0,0.0,0.0,0.0,-3.3588395,-0.121736914,0.39008817,0.0,0.0,0.0,0.0,0.0,0.0,0.0
0.0,0.0,0.0,0.0,0.0,0.0,0.0,0.0,0.0,0.0,0.0,0.0,0.0,0.0,1.7802359,-1.0646509,-1.8151424,-1.1170107,1.9373155,1.1170107,-0.91629785,1.7802359,-1.0646509,-1.8151424,-1.1170107,1.9373155,1.1170107,-0.91629785,0.0,0.0,0.0,0.0,0.0,0.0,0.0,2.7088394,-0.2782631,0.15991184,-3.1394916,-0.32120466,4.8914485,0.5304146,-0.45449448,0.693097,0.5745483,0.17512383,0.15255436,0.7848268,0.0,0.0,0.0,1.0,0.0,0.0,0.0,0.0,0.0,0.0,-3.3588395,-0.121736914,0.39008817,0.0,0.0,0.0,0.0,0.0,0.0,0.0
-176.0,72.8365,-4.798004,110.0,10.573823,4.875153,-3.8963797,-0.8140515,0.37728685,-0.5618211,0.7252126,0.17531438,0.65397817,-0.57687145,1.6988307,-1.0269222,-1.8713245,-1.0444895,1.9548469,1.1824086,-0.973985,1.77871,-1.0620855,-1.8211315,-1.1126658,1.9425473,1.1221377,-0.9181194,-0.2031709,0.34149736,-0.79783845,0.5795721,0.69667184,0.6817819,-0.24238808,2.6774673,-0.2814722,0.20805319,-3.1363528,-0.32088354,4.7883716,0.52827835,-0.45759583,0.69389504,0.5783881,0.17373382,0.15124278,0.7825658,-0.28480455,-0.4132622,0.10630267,1.0,0.0,0.0,0.0,0.0,0.0,0.0,-3.3274674,-0.1185278,0.34194684,-20.260984,33.932915,-79.56368,58.021343,69.38532,67.59478,-24.114956
-176.0,-35.252495,-47.585728,110.0,12.06873,1.2628957,-3.1991248,-0.8003957,-0.18100104,-0.5507579,0.69294006,0.3339406,0.6361903,-0.6238712,1.6986704,-1.0801857,-1.8762072,-1.0433718,1.9759414,1.1857567,-0.9805065,1.7769152,-1.0589746,-1.8361309,-1.0992934,1.9527192,1.1351401,-0.9194583,-0.17361754,0.29074073,-1.710424,1.5905554,1.1104758,1.4780732,-0.10257558,2.6461258,-0.2846794,0.25516453,-3.133217,-0.32056272,4.6853976,0.52360535,-0.4658079,0.6946846,0.58677125,0.17041993,0.14776242,0.7777035,-0.52879167,-0.9552646,0.072595656,1.0,0.0,0.0,0.0,0.0,0.0,0.0,-3.296126,-0.11532059,0.29483548,2.3509412,-8.167637,-84.207794,101.39075,37.347076,71.195724,12.52105
-154.51627,86.77874,22.233696,88.99095,8.465265,6.812625,-1.6342447,-0.7603443,0.17080057,0.08328393,0.58870906,0.4655472,0.6567018,-0.5385749,1.7008808,-1.0418946,-1.8278024,-1.0404224,1.9992739,1.2008102,-0.97331583,1.7720171,-1.0559858,-1.8511798,-1.0817438,1.964045,1.149779,-0.92070097,-0.5952458,0.298593,-1.430279,1.8116148,1.1347694,1.453191,-0.13212591,2.6148186,-0.2878828,0.3012469,-3.1300845,-0.32024223,4.5825267,0.51615524,-0.47702122,0.69670886,0.59783345,0.16576824,0.14270902,0.7712004,-0.8244622,-1.1702198,0.24983047,1.0,0.0,0.0,0.0,0.0,0.0,0.0,-3.2648187,-0.1121172,0.2487531,-42.141407,-0.121080875,29.845572,22.630596,0.9003401,-4.338455,-3.1736465
-102.08484,85.9271,33.711002,56.268456,5.745965,7.007002,-0.14605507,-0.77637863,-0.016514711,0.23018292,0.6311632,0.46589163,0.63879126,-0.58113116,1.6943792,-1.0576373,-1.8281616,-1.0186275,2.0106342,1.2136581,-0.97881407,1.7628866,-1.0539259,-1.8603618,-1.0641619,1.9745698,1.1633707,-0.9223251,-1.0197942,0.17325507,-0.7402786,1.7413317,1.0196402,1.3245876,-0.17365097,2.5835419,-0.29108238,0.34630135,-3.126955,-0.31992206,4.4797587,0.5061722,-0.48926735,0.7003025,0.60969937,0.1599844,0.13605869,0.7643034,-1.0676451,-1.2319483,0.40024146,1.0,0.0,0.0,0.0,0.0,0.0,0.0,-3.233542,-0.108917624,0.20369866,-42.664875,-13.143623,71.101616,-6.694603,-13.162971,-13.87589,-4.4928846
-48.70138,102.73873,43.54748,30.825361,2.8377934,6.357566,0.5359229,-0.8008955,0.06752211,0.24231781,0.6202543,0.5329721,0.6263035,-0.5568857,1.6827971,-1.0471736,-1.83613,-1.0021365,2.027867,1.226001,-0.97801363,1.7502066,-1.0526842,-1.8625953,-1.0484473,1.9839234,1.1755263,-0.92436117,-1.351434,0.106539294,-0.045279924,1.5148151,0.90350056,1.1781222,-0.21522471,2.5522957,-0.2942791,0.39032885,-3.1238286,-0.3196022,4.377094,0.494339,-0.5012369,0.70526177,0.62123334,0.153219,0.12807482,0.7577531,-1.2341079,-1.172966,0.52930737,1.0,0.0,0.0,0.0,0.0,0.0,0.0,-3.2022958,-0.10572091,0.15967116,-33.413315,-7.1011395,71.1755,-22.640324,-12.812853,-15.031719,-4.617405
-10.030191,103.33597,42.15102,14.422922,0.67643607,4.6560693,0.5807111,-0.8104824,0.11967981,0.23179844,0.62262744,0.5302652,0.62772965,-0.57178086,1.6691583,-1.0407162,-1.8394154,-0.9861845,2.0369499,1.2382993,-0.98153925,1.7352797,-1.0516123,-1.8594997,-1.0350024,1.9923062,1.1863505,-0.9267835,-1.5403368,0.10625511,0.43133223,1.2875518,0.81431925,1.0506136,-0.25271532,2.52108,-0.29747295,0.4333305,-3.1207056,-0.31928265,4.2745314,0.4814434,-0.5122471,0.7112102,0.632048,0.14577371,0.11943377,0.7516654,-1.3201971,-1.064972,0.61523235,1.0,0.0,0.0,0.0,0.0,0.0,0.0,-3.17108,-0.10252705,0.116669506,-19.081234,-0.32784045,48.69639,-22.8256,-9.552646,-12.7204895,-4.1828213
18.275614,135.0062,49.709892,8.858168,-1.3397639,4.0351286,0.17018826,-0.8173971,0.3569069,0.16978604,0.590714,0.49372342,0.6240385,-0.57135653,1.65354,-1.0159216,-1.8425211,-0.9759309,2.0416787,1.2487543,-0.98391914,1.719361,-1.0492185,-1.8537681,-1.0234877,1.9999509,1.196057,-0.9295425,-1.6097081,0.2828209,0.6228964,1.1057596,0.74696934,0.9450151,-0.28540808,2.4898949,-0.300663,0.4753073,-3.1175854,-0.31896344,4.1720715,0.46812057,-0.5217829,0.71816385,0.6422724,0.13774885,0.11126451,0.7457423,-1.3467629,-0.9042977,0.7194098,1.0,0.0,0.0,0.0,0.0,0.0,0.0,-3.139895,-0.09933701,0.074692726,-7.1670294,17.350357,19.88641,-18.273186,-7.0029616,-10.312533,-3.7984133
26.543486,140.98668,47.49964,8.488068,-2.035636,3.0947142,-0.22645773,-0.8246881,0.47852588,0.09227517,0.58578336,0.5183556,0.62099993,-0.5751405,1.6368921,-1.0013659,-1.8445406,-0.9649094,2.0517864,1.258157,-0.98705655,1.7033049,-1.0444425,-1.8478954,-1.0132147,2.0072103,1.2048479,-0.9325866,-1.6050034,0.54181796,0.5771413,1.0009729,0.7185824,0.85780835,-0.312288,2.458744,-0.30385017,0.51626027,-3.1144686,-0.31864452,4.069714,0.45478058,-0.52973366,0.7260996,0.6522253,0.12930427,0.10438899,0.7395846,-1.3390605,-0.7468975,0.8154938,1.0,0.0,0.0,0.0,0.0,0.0,0.0,-3.1087441,-0.09614983,0.033739746,0.23970604,25.641197,-4.0801764,-10.50818,-2.9177547,-8.467269,-3.1347692
30.521408,139.48782,45.38068,8.089493,-2.1309805,2.5613902,-0.32026204,-0.82395244,0.5775494,0.09026936,0.55079293,0.56370145,0.6210882,-0.5663583,1.6209097,-0.9866876,-1.8388685,-0.9581354,2.0635805,1.2669568,-0.98922247,1.6875597,-1.0369562,-1.8431842,-1.0036474,2.0144773,1.2128798,-0.93585485,-1.5651352,0.81676143,0.4372919,0.9417671,0.7294168,0.785281,-0.33295965,2.4276237,-0.3070345,0.55619043,-3.1113546,-0.31832594,3.9674592,0.4416237,-0.5361843,0.7349474,0.66207767,0.12057913,0.099038035,0.7330111,-1.3154291,-0.5984147,0.90521,1.0,0.0,0.0,0.0,0.0,0.0,0.0,-3.0776238,-0.09296551,-0.006190419,3.7551165,27.268648,-13.549453,-5.960524,1.0398269,-7.096684,-2.451682
32.986618,132.61226,43.760586,7.470075,-1.8553538,2.354105,-0.20528485,-0.80829406,0.64927286,0.13860108,0.53091705,0.5812258,0.6258804,-0.5678914,1.6067303,-0.9720289,-1.8293241,-0.95055574,2.0726,1.2754679,-0.992644,1.6723238,-1.0270094,-1.8396804,-0.99444234,2.0219846,1.2202784,-0.9393005,-1.5105295,1.053371,0.32303503,0.91323066,0.75784385,0.72481817,-0.34953865,2.396534,-0.310215,0.5950988,-3.108244,-0.31800768,3.8653066,0.42871666,-0.54123306,0.74465895,0.6718128,0.11158189,0.09497893,0.7260826,-1.287946,-0.46010768,0.9908704,1.0,0.0,0.0,0.0,0.0,0.0,0.0,-3.046534,-0.08978501,-0.04509878,5.243683,23.458254,-10.960436,-2.9297352,2.7727604,-6.012857,-2.0173728
28.901031,115.14502,37.987526,7.417564,-1.3437788,1.9826016,-0.10951439,-0.7971327,0.6923044,0.13082387,0.52687716,0.5815448,0.6418642,-0.5633886,1.5926106,-0.95777893,-1.826598,-0.94175464,2.0801392,1.2844648,-0.9956393,1.6576067,-1.0152048,-1.8370521,-0.98535764,2.029778,1.2271601,-0.9428825,-1.4595218,1.2224116,0.24430649,0.90649194,0.7862807,0.67591846,-0.36217603,2.3654747,-0.31339264,0.6329864,-3.1051362,-0.31768972,3.7632565,0.41604042,-0.5450859,0.7550621,0.68138576,0.10234139,0.0918436,0.718891,-1.2644019,-0.3459411,1.0547153,1.0,0.0,0.0,0.0,0.0,0.0,0.0,-3.0154748,-0.08660737,-0.082986414,4.9149513,16.742111,-7.436392,-0.7871866,2.7787924,-4.9220085,-1.5874982
24.17001,95.47352,31.529648,6.427966,-0.8402796,1.5817564,0.03345641,-0.78979,0.7154211,0.13379009,0.5033728,0.60974365,0.6448193,-0.56213343,1.5786277,-0.9436627,-1.8236731,-0.9350204,2.0907524,1.2916421,-0.9990958,1.6433016,-1.0022444,-1.8348815,-0.9763578,2.0378919,1.2336222,-0.94657034,-1.4215331,1.3202184,0.20943706,0.8972708,0.81943184,0.63623744,-0.37201092,2.334446,-0.31656742,0.66985434,-3.1020317,-0.31737208,3.6613083,0.40355873,-0.5479803,0.7658949,0.6907173,0.0929509,0.08923648,0.7115522,-1.2457439,-0.25557473,1.0906019,1.0,0.0,0.0,0.0,0.0,0.0,0.0,-2.984446,-0.083432585,-0.11985433,3.6349297,9.66289,-3.0773191,-1.0818005,3.263688,-3.9935708,-1.28721
18.309317,79.13156,25.839443,6.462954,-0.41000122,1.2639551,0.09888674,-0.7848517,0.7308225,0.13273312,0.49708882,0.6136411,0.6488207,-0.55911446,1.5648165,-0.9291621,-1.8216082,-0.9266489,2.099256,1.2985042,-1.0024818,1.6292635,-0.98871934,-1.8328369,-0.96744955,2.046288,1.2397467,-0.95033926,-1.3984213,1.3629959,0.20417255,0.8880385,0.8463921,0.60447323,-0.37947145,2.3034477,-0.3197384,0.7057035,-3.0989304,-0.31705478,3.5594618,0.39120483,-0.55013657,0.7769141,0.69976103,0.08349797,0.08686325,0.704143,-1.2334757,-0.1868639,1.1034096,1.0,0.0,0.0,0.0,0.0,0.0,0.0,-2.9534478,-0.08026162,-0.15570349,2.1668434,4.1968822,-0.15534759,-1.1125445,2.6693583,-3.1734586,-1.0318756
15.012699,66.62922,21.181267,5.4870076,-0.25926438,0.9287619,0.14143923,-0.77881515,0.74037707,0.116946265,0.47315913,0.6188826,0.6592738,-0.56170213,1.5513821,-0.9146816,-1.8211422,-0.92013365,2.1081762,1.3056741,-1.0065094,1.6153761,-0.9750236,-1.8307979,-0.95872533,2.0549054,1.245608,-0.9541721,-1.3858659,1.371601,0.20466872,0.86650497,0.86674094,0.58023006,-0.38556275,2.27248,-0.3229065,0.74053496,-3.095832,-0.31673777,3.4577174,0.3789711,-0.5517092,0.7879034,0.70848876,0.07408085,0.084584974,0.69670725,-1.2214164,-0.13195501,1.0948302,1.0,0.0,0.0,0.0,0.0,0.0,0.0,-2.92248,-0.07709351,-0.19053495,1.1203051,0.8108616,0.3809601,-2.374208,2.0342946,-2.3611426,-0.8785546
12.617547,61.191628,19.258495,5.728001,-0.100079715,0.8269466,0.17194371,-0.7780788,0.7430565,0.13577083,0.46073502,0.6275293,0.65796024,-0.5589267,1.5375682,-0.900718,-1.8172208,-0.91265184,2.1176584,1.311404,-1.0100647,1.6015497,-0.96137655,-1.828635,-0.950251,2.0636907,1.2512614,-0.9580564,-1.3821491,1.362252,0.22124246,0.8403679,0.88273543,0.560774,-0.3901712,2.2415466,-0.32607174,0.77434975,-3.092737,-0.3164211,3.3560746,0.36682892,-0.5527878,0.7987545,0.7168827,0.06473587,0.08231468,0.68928415,-1.2119759,-0.0845303,1.0791667,1.0,0.0,0.0,0.0,0.0,0.0,0.0,-2.8915467,-0.07392827,-0.22434974,0.24125576,-0.97134113,1.9792229,-2.8389215,1.6079783,-1.8634796,-0.72112083
10.855046,59.69097,18.348345,6.3955355,-0.051299274,0.77114314,0.15428616,-0.7784417,0.7510362,0.13094638,0.44930908,0.6325384,0.6621835,-0.55003566,1.5237056,-0.8862729,-1.8155403,-0.90532005,2.1269445,1.3174797,-1.01306,1.5877177,-0.94783056,-1.8263271,-0.94204175,2.0726094,1.2567526,-0.9619722,-1.3839154,1.3519698,0.23484993,0.81359005,0.894646,0.5454781,-0.3928848,2.2106438,-0.32923317,0.8071489,-3.089645,-0.31610474,3.2545335,0.35477066,-0.5534153,0.80943507,0.7249561,0.05546398,0.08003949,0.6818769,-1.2037401,-0.0404738,1.0614303,1.0,0.0,0.0,0.0,0.0,0.0,0.0,-2.8606439,-0.07076684,-0.25714886,-0.30536652,-1.0592461,1.6675144,-2.897334,1.2106657,-1.442492,-0.51817894
11.728124,60.043495,18.205456,6.117053,-0.15712923,0.69937336,0.15377063,-0.7732885,0.7555059,0.12761663,0.42954293,0.63223547,0.66149026,-0.5437786,1.5103889,-0.87227994,-1.8135654,-0.8990875,2.135833,1.3229016,-1.01635,1.573876,-0.93435323,-1.8239334,-0.93412817,2.0816083,1.2621123,-0.96590513,-1.3845897,1.3462174,0.2419537,0.7832451,0.90180826,0.53318787,-0.3942036,2.1797714,-0.33239174,0.83893335,-3.0865557,-0.3157887,3.1530938,0.34282112,-0.5535879,0.81993383,0.73271495,0.046266202,0.077813886,0.67448735,-1.1917212,0.005131344,1.0430123,1.0,0.0,0.0,0.0,0.0,0.0,0.0,-2.8297715,-0.06760827,-0.28893334,-0.19543171,-0.6029129,1.0088354,-3.249991,0.7433176,-1.1257887,-0.371778
16.652294,61.18056,18.655216,3.0631952,-0.5231606,0.56495076,0.25931028,-0.77374214,0.76154333,0.13786623,0.35678726,0.6473661,0.6583534,-0.5426808,1.4965018,-0.8581989,-1.8101467,-0.8984494,2.146345,1.3279476,-1.0201732,1.5600268,-0.92087877,-1.8214576,-0.92678964,2.090695,1.267367,-0.9698476,-1.3854923,1.3478246,0.25066534,0.7165863,0.91121244,0.5234835,-0.3950246,2.1489296,-0.33554745,0.8697042,-3.0834699,-0.31547296,3.0517557,0.3310814,-0.55323124,0.8302112,0.74008346,0.03718588,0.07569624,0.66720587,-1.1668406,0.060156096,1.0195107,1.0,0.0,0.0,0.0,0.0,0.0,0.0,-2.7989297,-0.06445256,-0.31970417,-0.23276806,0.1379013,1.1970848,-6.893599,0.9603143,-0.8044839,-0.32499433
21.169224,62.80665,19.150219,0.85376453,-0.8525459,0.42434466,0.3170002,-0.76463896,0.7718025,0.13258661,0.31016865,0.6458032,0.6651848,-0.5334411,1.4835628,-0.8436985,-1.8081989,-0.89577276,2.1552753,1.3338854,-1.0231917,1.5462137,-0.90732133,-1.8189418,-0.9202589,2.099854,1.2725474,-0.97378916,-1.3803662,1.358332,0.25300393,0.63114583,0.91782993,0.51680064,-0.394663,2.1181183,-0.33869934,0.8994624,-3.0803869,-0.31515756,2.9505188,0.31967735,-0.552269,0.8402383,0.7469983,0.028258486,0.07376679,0.6601162,-1.1295457,0.12174675,0.9937937,1.0,0.0,0.0,0.0,0.0,0.0,0.0,-2.7681184,-0.061300665,-0.3494624,0.37062168,1.0364771,0.55277944,-8.771288,0.6897092,-0.45319796,-0.20115972
27.034641,61.717102,18.979603,-3.200983,-1.25438,0.17350155,0.4531806,-0.762087,0.77309895,0.14443153,0.21113509,0.65798926,0.66628367,-0.5288506,1.470005,-0.8300114,-1.8044987,-0.89914536,2.165653,1.3391757,-1.0266743,1.5324656,-0.89365137,-1.8163688,-0.9148954,2.1091008,1.2776762,-0.97772306,-1.3733792,1.3699268,0.259825,0.50384814,0.92693573,0.5125908,-0.39366564,2.0873375,-0.34184933,0.928209,-3.0773072,-0.31484246,2.849383,0.30877304,-0.55064297,0.8499382,0.75336045,0.01956746,0.0720756,0.6533531,-1.0752268,0.18940957,0.95861727,1.0,0.0,0.0,0.0,0.0,0.0,0.0,-2.7373376,-0.05815068,-0.378209,0.55651665,1.1630297,0.99577904,-12.966167,0.9454012,-0.11690855,-0.12853742
34.811874,60.79624,19.169132,-8.562821,-1.7572067,-0.11378187,0.65042996,-0.75848156,0.7765127,0.17483275,0.07493073,0.6691349,0.6537032,-0.5283858,1.4566175,-0.8160001,-1.7988856,-0.90740234,2.1760144,1.3430465,-1.0305617,1.5187956,-0.8798698,-1.8135955,-0.91123235,2.1184545,1.2827669,-0.9816455,-1.3653241,1.3809725,0.2841297,0.3197248,0.9385625,0.509276,-0.3925426,2.0565872,-0.3449955,0.955945,-3.0742304,-0.3145277,2.7483485,0.29856682,-0.5482693,0.85920495,0.7590175,0.011229402,0.07065203,0.647128,-0.9992063,0.26521584,0.91233015,1.0,0.0,0.0,0.0,0.0,0.0,0.0,-2.7065873,-0.055004507,-0.405945,0.6714821,1.130414,2.7325273,-18.646198,1.2064934,0.0829339,-0.10017753
44.187927,59.954826,19.399826,-14.887443,-2.3861399,-0.4753795,0.86181533,-0.7460295,0.78488356,0.19855466,-0.08893668,0.67458284,0.65377086,-0.5236502,1.4441926,-0.80138147,-1.79374,-0.920126,2.1859128,1.348144,-1.0340105,1.5052477,-0.86596715,-1.8104846,-0.9098705,2.1279225,1.2878367,-0.9855537,-1.3514309,1.3935984,0.32069933,0.07430846,0.95018226,0.5079343,-0.39079177,2.0258675,-0.34813786,0.98267144,-3.071157,-0.31421322,2.647415,0.28931427,-0.54506207,0.8679131,0.76380175,0.0033846984,0.069545776,0.64168423,-0.8963813,0.34969246,0.85308146,1.0,0.0,0.0,0.0,0.0,0.0,0.0,-2.6758676,-0.05186215,-0.43267143,1.2876034,1.3172626,3.9031863,-24.74943,1.2328982,0.40357113,-0.0022113323
50.485344,59.96299,19.946281,-19.078249,-2.774094,-0.717504,1.0347105,-0.7409247,0.79149073,0.24900462,-0.25737882,0.68327117,0.6479439,-0.5131817,1.4311552,-0.7868181,-1.7855842,-0.9356084,2.1962497,1.3526311,-1.0368719,1.4918448,-0.8519348,-1.8068302,-0.9113029,2.1375165,1.2928969,-0.9894361,-1.3365488,1.4067408,0.38075528,-0.21623228,0.96282494,0.5073145,-0.38771522,1.9951782,-0.3512783,1.0083892,-3.0680864,-0.31389907,2.5465825,0.2812214,-0.5409651,0.8759776,0.76757604,-0.0038622885,0.0687733,0.6372458,-0.7754319,0.43907326,0.78670686,1.0,0.0,0.0,0.0,0.0,0.0,0.0,-2.6451783,-0.0487217,-0.45838922,1.4397144,1.3983011,6.1484756,-29.19914,1.389277,0.55116415,0.18624067
53.50067,61.56426,20.951262,-19.539654,-2.823573,-0.827071,1.0819198,-0.71172726,0.7989507,0.29260713,-0.36893097,0.68704194,0.637512,-0.48232904,1.420672,-0.7720397,-1.7775694,-0.948196,2.2062206,1.3566481,-1.037669,1.4787012,-0.83776605,-1.80247,-0.91555536,2.1472287,1.2979456,-0.9932632,-1.3068674,1.4206321,0.45444417,-0.49512246,0.9747389,0.50610036,-0.3813014,1.9645195,-0.35441494,1.0330994,-3.065019,-0.31358522,2.4458506,0.27437782,-0.5359659,0.8834163,0.77029836,-0.010514684,0.068305895,0.6339276,-0.64823365,0.52725327,0.7249147,1.0,0.0,0.0,0.0,0.0,0.0,0.0,-2.6145196,-0.045585066,-0.4830994,3.0015469,1.5058517,7.3319316,-27.952576,1.4136434,0.50524473,0.5793512
48.928734,64.39544,22.212255,-14.818159,-2.3363192,-0.62382007,1.0081341,-0.70143235,0.80468696,0.3671993,-0.4459357,0.6955803,0.6280893,-0.44573689,1.408558,-0.75729734,-1.76575,-0.96014893,2.2167869,1.3607545,-1.0378369,1.4658667,-0.8234638,-1.7971733,-0.9222206,2.1570668,1.3029734,-0.9969997,-1.2753118,1.4338553,0.553939,-0.7236907,0.9877742,0.5035561,-0.37125644,1.9338913,-0.35754776,1.0568031,-3.0619545,-0.3132717,2.3452194,0.2686844,-0.53012466,0.8903656,0.7720323,-0.016710795,0.06802706,0.6317112,-0.53695595,0.6088392,0.67971843,1.0,0.0,0.0,0.0,0.0,0.0,0.0,-2.5838914,-0.042452246,-0.5068031,3.23987,1.4677048,9.734368,-22.85657,1.6494036,0.31824112,0.9904444
47.71194,68.246925,24.12358,-11.030457,-2.005919,-0.4629991,0.9369501,-0.6535444,0.8110372,0.43476075,-0.50187117,0.693898,0.60978603,-0.42206335,1.4005122,-0.74236006,-1.7536972,-0.9724077,2.2264566,1.363952,-1.039206,1.4535071,-0.8090347,-1.7907608,-0.9306911,2.167008,1.307963,-1.0006243,-1.2222703,1.4466013,0.66905123,-0.88803285,0.9980937,0.4991858,-0.35948676,1.9032936,-0.36067867,1.0795013,-3.0588932,-0.3129585,2.244689,0.26402092,-0.5234766,0.8970003,0.772856,-0.022639904,0.067819916,0.6305405,-0.43584892,0.6880511,0.65236163,1.0,0.0,0.0,0.0,0.0,0.0,0.0,-2.5532937,-0.039321333,-0.52950126,5.4516554,1.4526129,11.106253,-16.386509,1.5055418,0.11865497,1.1895776
40.37985,68.27729,24.194122,-4.879807,-1.3841486,-0.25927678,0.78347284,-0.6291435,0.81123537,0.49492195,-0.5238634,0.69920725,0.59422976,-0.36679247,1.3905927,-0.7279112,-1.7412685,-0.98307747,2.2369287,1.367386,-1.0373036,1.441712,-0.7945112,-1.7831657,-0.94027555,2.1770482,1.3128954,-1.0041014,-1.1646684,1.4549947,0.78793424,-0.98167366,1.0077612,0.49301264,-0.3435186,1.8727264,-0.36380577,1.1011949,-3.055835,-0.3126456,2.144259,0.2602024,-0.5161152,0.9034798,0.77289313,-0.028480826,0.067570634,0.6302851,-0.35698083,0.756362,0.64028025,1.0,0.0,0.0,0.0,0.0,0.0,0.0,-2.5227265,-0.036194235,-0.55119485,5.919862,1.0368347,11.379313,-9.317339,1.5162706,-0.116443634,1.6157627
24.481426,64.82766,22.028664,5.0841265,-0.40943038,0.051306307,0.46285623,-0.63580966,0.8152748,0.5267507,-0.4917337,0.6951676,0.59623516,-0.31164476,1.378131,-0.7129837,-1.7304907,-0.9894489,2.2465649,1.3725189,-1.0352659,1.4303328,-0.7799171,-1.7745254,-0.9501747,2.1871533,1.3177668,-1.0073897,-1.1286116,1.461561,0.88785195,-0.9927295,1.0130483,0.48641336,-0.3238447,1.8421898,-0.36693,1.121885,-3.0527797,-0.31233302,2.0439293,0.25688362,-0.5082245,0.909954,0.7723951,-0.03440198,0.067220114,0.63063765,-0.31692722,0.8037914,0.64310914,1.0,0.0,0.0,0.0,0.0,0.0,0.0,-2.49219,-0.033069998,-0.57188493,3.6896706,0.8625984,9.503555,-1.1275411,1.0913372,-0.27526617,1.9722939
10.990187,56.5374,17.747267,11.108753,0.20959204,0.06663224,0.19539164,-0.65133435,0.8171475,0.5254158,-0.49921513,0.6934394,0.59774435,-0.27290115,1.3651993,-0.6982024,-1.7219838,-1.0000962,2.2564974,1.3775412,-1.0346798,1.419089,-0.7652744,-1.7651966,-0.9599308,2.1972775,1.3225752,-1.0104681,-1.1229699,1.4658839,0.9467742,-0.9702759,1.014115,0.47976705,-0.3025475,1.8116837,-0.37005138,1.1415725,-3.0497277,-0.31202075,1.9436998,0.25377464,-0.500021,0.9164391,0.7716189,-0.040416423,0.06681821,0.63127345,-0.30190754,0.82936513,0.6433459,1.0,0.0,0.0,0.0,0.0,0.0,0.0,-2.4616838,-0.029948622,-0.59157246,0.5529165,0.6270647,5.5277586,2.1431923,0.59468746,-0.37950873,2.1220148
2.2743034,49.411335,14.443844,14.872831,0.6439256,0.031389207,0.03152793,-0.6589284,0.8129673,0.53970414,-0.48114404,0.6940372,0.58961546,-0.20868185,1.3531961,-0.68397766,-1.7112261,-1.0080452,2.2666812,1.3815367,-1.0313363,1.4077536,-0.7506269,-1.7554805,-0.9692987,2.2074018,1.3273131,-1.0133063,-1.1373327,1.465027,0.97898716,-0.9261565,1.0130494,0.47251147,-0.27763963,1.781208,-0.37316895,1.1602584,-3.0466785,-0.3117088,1.8435705,0.25069427,-0.49168587,0.9229039,0.77074045,-0.046485133,0.06640838,0.6319716,-0.30290788,0.83845085,0.64043856,1.0,0.0,0.0,0.0,0.0,0.0,0.0,-2.4312081,-0.02683106,-0.6102584,-1.5180349,0.0992775,2.9515266,4.245472,0.3260851,-0.5052388,2.469021
-5.2383327,43.75048,11.876671,18.934586,1.1046419,0.055567518,-0.12809785,-0.67124116,0.8082093,0.54136044,-0.42100322,0.69564295,0.6005872,-0.1448359,1.3406295,-0.669806,-1.7013445,-1.011399,2.276966,1.3873718,-1.0277898,1.3961779,-0.73602235,-1.7456119,-0.97798383,2.2175107,1.3319899,-1.0158697,-1.1647549,1.4594444,0.9888145,-0.850066,1.0117651,0.46665347,-0.2494573,1.7507629,-0.37628365,1.1779438,-3.0436325,-0.31139717,1.7435412,0.24747849,-0.48336983,0.9293516,0.76990896,-0.052617963,0.06599966,0.6325469,-0.32036608,0.8329917,0.63893455,1.0,0.0,0.0,0.0,0.0,0.0,0.0,-2.400763,-0.02371636,-0.6279438,-2.8863668,-0.37825108,0.7809043,7.381761,0.2711773,-0.42344332,2.7798355
-10.035353,38.45271,9.2861395,20.51812,1.2685206,-0.03312643,-0.23248076,-0.7018968,0.80993825,0.51725847,-0.39602134,0.68958676,0.6094428,-0.07593915,1.3259882,-0.6550285,-1.693886,-1.017586,2.2864695,1.3929342,-1.0234636,1.3842074,-0.7214674,-1.7358558,-0.98589456,2.2275891,1.3366209,-1.0181261,-1.2086605,1.454641,0.97087824,-0.77230275,1.0075551,0.4622331,-0.21775016,1.7203484,-0.37939548,1.1946297,-3.0405896,-0.31108582,1.643612,0.24404144,-0.47518063,0.9357464,0.76923674,-0.058774464,0.06565085,0.63285875,-0.34421733,0.81768405,0.63237965,1.0,0.0,0.0,0.0,0.0,0.0,0.0,-2.3703485,-0.020604521,-0.64462966,-4.587412,-0.31375885,-1.9105434,7.5137734,-0.07221699,-0.32302737,3.1309037
-8.991129,34.38438,7.735823,18.654646,1.125484,-0.24816383,-0.21249315,-0.7190193,0.8029253,0.5033369,-0.3903001,0.6863068,0.61128545,-0.032016423,1.3123055,-0.64117485,-1.6855221,-1.0249245,2.2962198,1.3977494,-1.0213277,1.3717791,-0.7069839,-1.7263801,-0.99318063,2.2376142,1.3412157,-1.0200602,-1.2548565,1.4467813,0.93939704,-0.7148686,1.0019636,0.4588281,-0.18547203,1.6899643,-0.3825035,1.210317,-3.0375495,-0.3107748,1.5437827,0.24041748,-0.46716976,0.94200546,0.7687429,-0.064863,0.065427795,0.63288724,-0.3608497,0.7991474,0.6166377,1.0,0.0,0.0,0.0,0.0,0.0,0.0,-2.3399644,-0.017496496,-0.660317,-4.8164606,-0.6367445,-3.2160163,5.4805994,-0.2609253,-0.2237618,3.1878562
-5.5075293,34.18686,7.97113,16.316097,0.8759969,-0.38464808,-0.13331386,-0.7358653,0.80186933,0.5003039,-0.3819987,0.6826087,0.61363596,0.029876115,1.2981925,-0.62679696,-1.6763498,-1.0313805,2.305875,1.4025793,-1.0170726,1.3589159,-0.69257104,-1.7172039,-1.0000547,2.2475781,1.3457838,-1.0216566,-1.2975656,1.4398962,0.91010696,-0.6791108,0.9955426,0.4564405,-0.15124772,1.6596107,-0.38560963,1.2250068,-3.0345125,-0.31046408,1.4440533,0.23670006,-0.45931244,0.94807357,0.7683743,-0.07082248,0.06537027,0.6327019,-0.36735258,0.7847735,0.59650284,1.0,0.0,0.0,0.0,0.0,0.0,0.0,-2.3096108,-0.014390379,-0.6750068,-4.448056,-0.5491972,-2.9827833,3.3371687,-0.36537647,-0.10814071,3.3858867
-5.859254,34.987457,8.714796,18.576553,1.0727022,-0.2803752,-0.15022884,-0.74247825,0.7956675,0.48939335,-0.2894698,0.67311436,0.63150007,0.16964339,1.2846681,-0.61300427,-1.6682645,-1.0290017,2.3148897,1.4089339,-1.0046923,1.3457133,-0.6782373,-1.7083004,-1.0063013,2.257462,1.3503443,-1.0228411,-1.3283238,1.4316989,0.8834999,-0.6074443,0.9871284,0.45617378,-0.10768667,1.6292877,-0.38871193,1.2387,-3.0314786,-0.3101537,1.3444235,0.23286629,-0.45159912,0.954017,0.76811844,-0.07674227,0.06544102,0.6323148,-0.3803364,0.7702104,0.5865999,1.0,0.0,0.0,0.0,0.0,0.0,0.0,-2.2792878,-0.011288077,-0.6887,-3.246808,-0.67412853,-2.746284,6.9223285,-0.53480864,0.08620024,4.3057294
-13.623755,31.62597,7.3028097,25.368818,1.7560906,-0.045338094,-0.35916325,-0.7699849,0.78442985,0.44730455,-0.15159775,0.657145,0.6508424,0.27154812,1.2687148,-0.5997943,-1.6635699,-1.021461,2.3231766,1.4154285,-0.9956863,1.3321863,-0.664019,-1.6997802,-1.0112966,2.2672276,1.3549143,-1.0235487,-1.361544,1.4190029,0.8410184,-0.46457183,0.9743846,0.45748168,-0.058848113,1.5989952,-0.39181042,1.2513977,-3.0284476,-0.3098436,1.2448934,0.22871017,-0.44412327,0.959973,0.7681066,-0.082801975,0.06557033,0.6315509,-0.4186994,0.7434602,0.5917636,1.0,0.0,0.0,0.0,0.0,0.0,0.0,-2.2489953,-0.008189589,-0.7013977,-3.5420895,-1.11835,-4.3393254,13.988745,-0.93376637,0.17037392,4.8134403
-21.44265,31.04409,7.217239,34.11758,2.5544786,0.35593855,-0.60967976,-0.78058493,0.7772228,0.41520467,0.040816247,0.6398784,0.6598029,0.3414646,1.2541279,-0.5862967,-1.6582597,-1.007215,2.3312154,1.4208946,-0.98940223,1.3183657,-0.64994085,-1.6917694,-1.0141271,2.2768369,1.3595015,-1.0237604,-1.389801,1.4046655,0.7874942,-0.22371477,0.9577065,0.45882255,-0.008910091,1.5687332,-0.394907,1.2631009,-3.02542,-0.3095338,1.1454628,0.22393608,-0.43697453,0.9661664,0.7685293,-0.08928594,0.065647215,0.63014376,-0.48845622,0.7089821,0.62200034,1.0,0.0,0.0,0.0,0.0,0.0,0.0,-2.2187333,-0.0050930083,-0.71310085,-3.0750751,-1.2730598,-5.497086,23.756754,-1.2552738,0.07735491,4.9067574
-24.92618,29.788286,6.9640727,38.371887,2.9390247,0.5488599,-0.7453244,-0.7920809,0.7662501,0.37928712,0.18851079,0.62744284,0.6650155,0.36073852,1.2391576,-0.57331586,-1.6538407,-0.99527603,2.3395813,1.426003,-0.9876866,1.3042933,-0.6360277,-1.6843631,-1.0141844,2.2862706,1.3641001,-1.0235087,-1.4137038,1.3874327,0.7245037,0.065853834,0.93969864,0.4598141,0.036363434,1.5385017,-0.39799976,1.2738105,-3.0223951,-0.30922434,1.0461315,0.21834755,-0.43019104,0.97274804,0.7695065,-0.096393004,0.065591,0.6279059,-0.5740243,0.67244625,0.6639048,1.0,0.0,0.0,0.0,0.0,0.0,0.0,-2.1885018,-0.0020002425,-0.7238105,-2.6202202,-1.570034,-6.488323,28.648388,-1.3561726,-0.029474497,4.4410863
-19.274933,29.617607,7.363767,33.590454,2.4654236,0.35430312,-0.5960544,-0.80275935,0.7542287,0.36089593,0.22953188,0.61980265,0.6661645,0.37916112,1.2240174,-0.5606048,-1.6482736,-0.99123114,2.3482509,1.4307165,-0.98559254,1.290011,-0.6223072,-1.6775386,-1.0117201,2.295529,1.3687083,-1.0228411,-1.4333864,1.3673227,0.66805136,0.30593833,0.92256486,0.4608881,0.07671504,1.5083008,-0.40108967,1.2835275,-3.0193732,-0.30891517,0.94689953,0.2120285,-0.42370605,0.97965455,0.7709553,-0.10407152,0.06542227,0.6249136,-0.6424266,0.64572114,0.69358355,1.0,0.0,0.0,0.0,0.0,0.0,0.0,-2.1583009,0.0010896623,-0.7335275,-2.1364212,-1.8846989,-5.8147907,23.765894,-1.3148308,0.0018835068,3.9572737
-8.407129,32.641495,9.103643,24.575941,1.5141623,0.006712936,-0.30287313,-0.80260783,0.7481012,0.35608757,0.23790662,0.6064701,0.6658836,0.39079985,1.2097503,-0.54749703,-1.6419299,-0.9879294,2.356176,1.4352967,-0.98376113,1.2756048,-0.60877454,-1.6711376,-1.0075411,2.3046079,1.3733317,-1.0218092,-1.4435961,1.348845,0.6305509,0.45482272,0.9041181,0.4626664,0.11177222,1.4781303,-0.4041767,1.2922529,-3.0163546,-0.30860633,0.8477669,0.20529366,-0.4173622,0.9867054,0.7726457,-0.1121255,0.06523286,0.6214428,-0.67584014,0.63688904,0.70313436,1.0,0.0,0.0,0.0,0.0,0.0,0.0,-2.1281304,0.004176706,-0.7422529,-1.1321068,-1.7525911,-3.841126,14.7099495,-1.5364647,0.16349554,3.4233584
1.8492651,34.483727,10.151045,15.124729,0.5705317,-0.42210534,-0.008198023,-0.8037374,0.7391271,0.34742284,0.22191839,0.5962946,0.6643227,0.41300392,1.1952311,-0.5348618,-1.6363953,-0.98534924,2.3642373,1.4397639,-0.9805088,1.2611452,-0.5954193,-1.6649921,-1.0026067,2.3135037,1.3779761,-1.020455,-1.4468548,1.3312497,0.60901684,0.505796,0.8855033,0.46531332,0.14317377,1.4479904,-0.40725994,1.2999878,-3.0133388,-0.30829778,0.7487333,0.19849777,-0.41101265,0.9936797,0.7743349,-0.12029382,0.06514072,0.6178119,-0.67246974,0.6408154,0.68974316,1.0,0.0,0.0,0.0,0.0,0.0,0.0,-2.0979905,0.007259935,-0.7499878,-0.40535927,-1.6894102,-2.1430373,4.9529133,-1.6551971,0.36732554,3.0486612
10.170316,33.425797,9.854522,6.3235726,-0.24334002,-0.92445266,0.23676163,-0.79836696,0.72217727,0.3337497,0.17573385,0.57015425,0.65927017,0.43696722,1.1813085,-0.5232016,-1.6316171,-0.9850334,2.3705192,1.4439031,-0.9767583,1.2467142,-0.582271,-1.6590145,-0.99782884,2.3221707,1.3826472,-1.018807,-1.4420768,1.3095065,0.59445965,0.46804848,0.86054486,0.46848246,0.1718412,1.417881,-0.41034126,1.3067331,-3.010326,-0.30798954,0.6497987,0.19199753,-0.40459728,1.0003412,0.77582616,-0.1282887,0.0652716,0.6143089,-0.6346946,0.64862645,0.65274066,1.0,0.0,0.0,0.0,0.0,0.0,0.0,-2.067881,0.010341257,-0.7567331,0.43246746,-2.1170855,-1.375556,-3.9030492,-2.3809075,0.54386854,2.772534
16.758316,33.841938,9.653917,-1.1005387,-0.96591604,-1.3858969,0.41726327,-0.8009915,0.72360885,0.31290835,0.086126216,0.5676512,0.6627685,0.4423858,1.1666151,-0.5099101,-1.6277236,-0.9892162,2.3789358,1.4489241,-0.9745685,1.2323328,-0.56928766,-1.6532085,-0.9940456,2.3306165,1.3873545,-1.0169016,-1.4368907,1.2947795,0.5763821,0.34806964,0.8389795,0.47264832,0.19660717,1.3878021,-0.41341877,1.3124897,-3.0073164,-0.30768162,0.55096304,0.1860981,-0.39808464,1.0064863,0.77699286,-0.13582614,0.0657627,0.6111534,-0.5664833,0.65841717,0.59641415,1.0,0.0,0.0,0.0,0.0,0.0,0.0,-2.0378022,0.013418764,-0.76248974,0.49102306,-1.4240742,-1.6717553,-12.105441,-2.1153808,0.73681474,2.3929298
20.148623,30.860626,8.182787,-6.4268413,-1.3826616,-1.8107284,0.52797985,-0.8014835,0.70962286,0.29445386,-0.018563312,0.55188185,0.66850466,0.46288806,1.1521845,-0.49832538,-1.6237631,-0.99590194,2.3858047,1.4542049,-0.9706128,1.2179953,-0.55646265,-1.6476257,-0.99191034,2.338841,1.3921095,-1.0147635,-1.4326426,1.2785766,0.5526448,0.16834098,0.8170329,0.477598,0.21944419,1.3577499,-0.41649342,1.3172588,-3.0043097,-0.307374,0.45222622,0.18103981,-0.3915167,1.0119448,0.77777344,-0.14265575,0.06671739,0.60849524,-0.4775729,0.66163707,0.523829,1.0,0.0,0.0,0.0,0.0,0.0,0.0,-2.00775,0.01649341,-0.7672588,0.43401718,-1.5693188,-2.2378922,-18.060196,-2.2022963,0.8719027,2.219501
23.290344,29.8112,7.609852,-10.556786,-1.7617791,-2.1360576,0.6277632,-0.79594064,0.70025975,0.29035684,-0.14604746,0.5142538,0.6651822,0.4928312,1.1384013,-0.48643667,-1.61859,-1.006515,2.3902664,1.4586277,-0.9654803,1.2037169,-0.5438007,-1.6422565,-0.9919075,2.3467793,1.3969065,-1.0124003,-1.4260724,1.262343,0.532032,-0.055820778,0.78588456,0.48194447,0.24179362,1.3277283,-0.4195652,1.3210413,-3.0013058,-0.30706668,0.35358816,0.17700005,-0.3849306,1.0165966,0.77812403,-0.14858721,0.06822408,0.606457,-0.3711224,0.6614802,0.4407949,1.0,0.0,0.0,0.0,0.0,0.0,0.0,-1.9777282,0.019565195,-0.77104133,0.72505474,-1.5675306,-1.9577861,-22.461226,-3.1576633,0.8326769,2.190727
23.537085,29.0728,7.56012,-10.924126,-1.7017648,-2.22307,0.6675979,-0.79039055,0.6863613,0.30319682,-0.24852869,0.5095974,0.6642155,0.52095014,1.1246778,-0.4751646,-1.6119368,-1.0167603,2.3977392,1.463328,-0.9603053,1.1895205,-0.5313238,-1.6369789,-0.9941915,2.3544393,1.4017416,-1.0098177,-1.4170299,1.2430674,0.5265567,-0.28595692,0.7591407,0.48519257,0.26378047,1.2977371,-0.42263317,1.3238382,-2.9983053,-0.3067597,0.25504872,0.17403221,-0.37836647,1.020422,0.778021,-0.15356497,0.07025333,0.6051162,-0.26368022,0.65724736,0.35841772,1.0,0.0,0.0,0.0,0.0,0.0,0.0,-1.9477371,0.022633165,-0.7738382,1.0256052,-1.8611908,-0.51380396,-23.019722,-2.7107954,0.6862998,2.171898
21.649214,28.495699,7.6703634,-8.439653,-1.4379603,-2.1406193,0.6221437,-0.7772253,0.67185855,0.31062904,-0.32274148,0.47673833,0.66844815,0.5403344,1.1117979,-0.46413794,-1.6059159,-1.0264657,2.4021132,1.4685864,-0.95578426,1.1754633,-0.5190643,-1.6316688,-0.9985641,2.361794,1.4066054,-1.0070235,-1.4014637,1.2205689,0.532317,-0.48765033,0.72767544,0.48771405,0.28456125,1.2677765,-0.42569828,1.3256505,-2.9953077,-0.306453,0.15660778,0.17207527,-0.37185192,1.0234855,0.7774835,-0.1576594,0.07273114,0.60446084,-0.16552721,0.65054595,0.28440362,1.0,0.0,0.0,0.0,0.0,0.0,0.0,-1.9177765,0.025698274,-0.77565044,1.7137527,-2.1699429,0.52138567,-20.1573,-3.1422496,0.5541742,2.0614028
17.71783,24.68111,6.337116,-5.264914,-1.0749373,-2.0736792,0.5145652,-0.76991427,0.6503525,0.30244714,-0.3977278,0.42771423,0.66602343,0.5568256,1.0984719,-0.45402905,-1.6014241,-1.0383369,2.4045653,1.4732077,-0.9513409,1.1615759,-0.5070814,-1.6263187,-1.0047044,2.3687444,1.4114863,-1.0040346,-1.3841046,1.1911737,0.53559834,-0.6562847,0.68470013,0.48889217,0.30381343,1.2378464,-0.42876053,1.326479,-2.992313,-0.3061466,0.058265254,0.17099953,-0.36545086,1.025856,0.7765889,-0.16095787,0.075613245,0.60438794,-0.08069057,0.6365811,0.21660393,1.0,0.0,0.0,0.0,0.0,0.0,0.0,-1.8878464,0.028760523,-0.77647895,1.901865,-2.8526545,0.21703243,-16.863907,-4.2633057,0.36025643,1.9065917
11.325602,21.641325,4.7069397,0.52797127,-0.5961523,-1.8974876,0.27508903,-0.7674875,0.648563,0.2542433,-0.4221145,0.37915564,0.6716743,0.56481117,1.0848272,-0.4422251,-1.6008943,-1.0469158,2.4066598,1.4786537,-0.9475535,1.1478335,-0.49534318,-1.6211689,-1.012101,2.3751874,1.4163748,-1.0008684,-1.3707069,1.1683244,0.50770307,-0.7675668,0.6311229,0.48951444,0.3207055,1.2079468,-0.43181896,1.3263247,-2.9893212,-0.3058405,-0.039978947,0.17061615,-0.3592291,1.0276412,0.77550733,-0.1635859,0.07891972,0.60464835,-0.01702618,0.6163326,0.16113335,1.0,0.0,0.0,0.0,0.0,0.0,0.0,-1.8579468,0.031818956,-0.7763247,1.4446259,-2.1926165,-2.8916597,-11.1799,-5.2963734,0.23002028,1.6583741
5.53073,13.389329,1.3616002,4.163986,-0.22543949,-1.8732538,0.08007182,-0.7521789,0.610704,0.21501069,-0.45352176,0.24929434,0.67525554,0.56950074,1.0726156,-0.43427277,-1.5996678,-1.0574533,2.400117,1.4839003,-0.94391835,1.1342512,-0.48393866,-1.616492,-1.020295,2.3807912,1.421269,-0.99755347,-1.353838,1.1314162,0.45393476,-0.8371348,0.53685695,0.48980358,0.3349059,1.1780777,-0.4348755,1.3251888,-2.9863327,-0.30553472,-0.13812493,0.17076111,-0.35329723,1.0288944,0.7744177,-0.16563837,0.08273495,0.604976,0.03150897,0.58368117,0.10873688,1.0,0.0,0.0,0.0,0.0,0.0,0.0,-1.8280777,0.034875482,-0.77518874,1.7757893,-3.6060333,-5.474037,-7.0611835,-9.373199,0.14945865,1.349783
1.9955194,7.224575,-1.1331363,5.576104,-0.19801414,-1.8819542,-0.030952951,-0.74876887,0.575567,0.1909547,-0.5037159,0.06156454,0.6799245,0.5733439,1.0593743,-0.42638198,-1.5973966,-1.0706666,2.3869476,1.4892615,-0.9402191,1.120814,-0.4730043,-1.6124141,-1.0290917,2.384995,1.4261671,-0.9941145,-1.3399134,1.0809876,0.39226037,-0.89429796,0.38153446,0.49014655,0.3465698,1.1482353,-0.4379282,1.3230721,-2.983347,-0.30522925,-0.23617277,0.17135811,-0.34773445,1.0296063,0.77344066,-0.1671534,0.08724145,0.6051762,0.07515007,0.5452093,0.054155372,1.0,0.0,0.0,0.0,0.0,0.0,0.0,-1.7982353,0.037928194,-0.77307206,1.4808416,-4.9703836,-6.2529984,-5.8409095,-15.498066,0.122231245,1.0542393
-2.497597,-4.3917694,-5.677868,5.883969,-0.19683108,-2.0011325,-0.14158477,-0.74190617,0.50633734,0.15221708,-0.542574,-0.22751151,0.6831195,0.5661835,1.0466233,-0.42237058,-1.5971924,-1.0833491,2.362244,1.4944791,-0.9374962,1.1075102,-0.46281287,-1.6090076,-1.0384339,2.386952,1.4310709,-0.990584,-1.326903,0.9986952,0.32295483,-0.9479869,0.13368776,0.49042538,0.3546712,1.1184235,-0.44097805,1.3199757,-2.980364,-0.30492407,-0.33412257,0.17237473,-0.34265327,1.0296974,0.77268255,-0.16811986,0.09270516,0.6050645,0.11551789,0.49336553,-0.010234761,1.0,0.0,0.0,0.0,0.0,0.0,0.0,-1.7684234,0.040978044,-0.7699757,1.4294624,-8.18404,-7.014203,-5.507827,-24.793255,0.08345842,0.62223077
-20.101336,-60.77529,-25.788134,5.413389,1.8445694,-2.6659493,-0.24814898,-0.71489906,0.2092632,0.12083717,-0.5822228,-0.4300748,0.6921157,0.5453018,1.0360203,-0.44188654,-1.5969238,-1.0966562,2.3439445,1.5002825,-0.9360538,1.0944353,-0.45472,-1.6062877,-1.0483426,2.3861089,1.4359766,-0.9870106,-1.299828,0.74591637,0.25451946,-1.0060338,-0.15736234,0.49062127,0.3569515,1.0886421,-0.44402504,1.3159006,-2.9773843,-0.30461922,-0.43197447,0.17344856,-0.33882332,1.0288492,0.7722764,-0.16827951,0.098759525,0.60458046,0.109425075,0.34339932,-0.11370033,1.0,0.0,0.0,0.0,0.0,0.0,0.0,-1.7386421,0.044025034,-0.76590055,3.06139,-25.35962,-6.975669,-6.0106635,-29.256687,-0.020074844,-0.16017556
-48.130066,-140.1595,-55.054695,7.4092464,5.289544,-3.531406,-0.47135958,-0.69376427,-0.1922879,0.02978017,-0.6018451,-0.53003865,0.6792517,0.5376598,1.0250589,-0.47394878,-1.6033098,-1.1085271,2.333105,1.5039018,-0.9332446,1.0817095,-0.45085236,-1.6045024,-1.0587834,2.3825192,1.4408613,-0.983441,-1.2616227,0.26610416,0.1528327,-1.0572441,-0.42744333,0.4866111,0.35497856,1.0588913,-0.4470682,1.3108476,-2.9744077,-0.30431467,-0.52972853,0.17385101,-0.3375864,1.0266153,0.7724622,-0.1671773,0.104424015,0.6036965,0.01962872,0.048019398,-0.2627817,1.0,0.0,0.0,0.0,0.0,0.0,0.0,-1.7088913,0.04706821,-0.7608476,4.4332266,-48.26988,-10.283977,-5.3263426,-27.358997,-0.7284343,-0.8093834
-70.19884,-176.0,-81.29439,6.048476,7.799819,-4.716761,-0.79933155,-0.61226535,-0.53070664,-0.29141727,-0.65096277,-0.5309551,0.6399708,0.48033664,1.020483,-0.50392306,-1.6336442,-1.1238797,2.3294237,1.5048584,-0.93540734,1.0697333,-0.4507279,-1.608876,-1.0698899,2.3800588,1.4472109,-0.97826254,-1.1732378,-0.073668905,-0.63294876,-1.1278906,-0.18952677,0.681351,0.5698358,1.029171,-0.45010948,1.3048179,-2.9714339,-0.30401042,-0.6273849,0.17292786,-0.3403225,1.0224692,0.7736497,-0.16412343,0.10893172,0.6022154,-0.12906778,-0.3820232,-0.46661225,1.0,0.0,0.0,0.0,0.0,0.0,0.0,-1.679171,0.050109476,-0.7548179,9.706354,-34.430878,-78.222565,-6.9093227,22.720575,18.575085,20.799738
-52.955093,-169.79909,-67.6499,0.5958189,6.531395,-4.3655124,-0.31795815,-0.46797565,-0.6727569,-0.2916668,-0.7269504,-0.6301399,0.6682733,0.55071175,1.0229357,-0.5180036,-1.6380427,-1.1425849,2.3170447,1.5140382,-0.92319137,1.0591971,-0.45565507,-1.6170566,-1.0817956,2.3769956,1.4539591,-0.97253954,-1.0103934,-0.63379014,-0.88095105,-1.2087182,-0.34717542,0.6689796,0.5721853,0.9994774,-0.45314693,1.2978123,-2.968463,-0.30370647,-0.72494364,0.17082596,-0.3468666,1.0163887,0.7755898,-0.1590428,0.11196923,0.60052353,-0.2410714,-0.7457271,-0.6562143,1.0,0.0,0.0,0.0,0.0,0.0,0.0,-1.6494774,0.05314693,-0.74781233,17.270542,-56.43516,-25.13324,-7.277155,-16.39344,-2.3292065,-0.038397312
-13.872195,-96.32939,-33.832584,-7.343996,3.2943344,-3.3079762,0.54747456,-0.21908936,-0.72957927,-0.3238601,-0.76338977,-0.7092394,0.6782522,0.5210215,1.0372882,-0.528613,-1.6494427,-1.1581346,2.3060715,1.5217843,-0.9204374,1.0512148,-0.46545693,-1.6262424,-1.0945119,2.3719106,1.4604498,-0.9669672,-0.7269725,-1.0963014,-0.9315644,-1.2904074,-0.5623294,0.63958097,0.5523413,0.9698143,-0.45618248,1.2898319,-2.965495,-0.3034028,-0.8224048,0.1683178,-0.35591412,1.0087004,0.7774579,-0.15250677,0.113683924,0.59948045,-0.260174,-0.955151,-0.80866134,1.0,0.0,0.0,0.0,0.0,0.0,0.0,-1.6198143,0.056182474,-0.73983186,28.453518,-46.46387,-5.1971436,-7.5027943,-21.56433,-3.7912965,-1.9343734
45.17675,13.785121,17.470697,-15.581968,-1.012905,-1.7802285,1.7623405,0.1728061,-0.740852,-0.14702779,-0.7311267,-0.7561343,0.70772636,0.5134995,1.0684954,-0.53954214,-1.6409452,-1.1676246,2.296297,1.5312225,-0.9156173,1.0474592,-0.47859237,-1.6340873,-1.1077241,2.3647008,1.466664,-0.96163905,-0.26257917,-1.3855073,-0.7347358,-1.3319958,-0.7712782,0.61499244,0.52779496,0.94018173,-0.4592142,1.2808775,-2.9625304,-0.30309948,-0.9197686,0.16662407,-0.36545753,1.0000936,0.7780075,-0.14563942,0.11429769,0.60035765,-0.14464106,-0.9495741,-0.8824522,1.0,0.0,0.0,0.0,0.0,0.0,0.0,-1.5901817,0.059214205,-0.73087746,45.1949,-28.780508,19.918192,-4.297042,-20.130444,-2.5710225,-2.0324707
54.50786,56.114754,32.249794,-9.842346,-2.242018,-1.1360447,1.5223534,0.23337139,-0.75695556,-0.28529125,-0.69427955,-0.75535417,0.7003336,0.4864703,1.0707964,-0.5542879,-1.6626165,-1.177152,2.2891655,1.5366973,-0.912992,1.0479609,-0.49341437,-1.6403434,-1.1209782,2.3558202,1.4726626,-0.95656264,0.15010956,-1.513896,-0.5883393,-1.32463,-0.92472446,0.59504265,0.5021229,0.9105797,-0.46224308,1.2709502,-2.9595685,-0.30279645,-1.017035,0.16625595,-0.37444115,0.9910972,0.7770185,-0.13903986,0.11429731,0.60319674,-0.0032479265,-0.8752841,-0.9108336,1.0,0.0,0.0,0.0,0.0,0.0,0.0,-1.5605797,0.062243074,-0.7209502,40.00872,-12.674522,14.960575,0.35321712,-14.716541,-1.9300103,-2.1776438
54.050106,65.79622,32.292534,-8.8010235,-2.574677,-1.4089526,1.1616402,0.3986435,-0.78932685,-0.4369062,-0.7265916,-0.6930116,0.67740166,0.42729616,1.0878252,-0.57234704,-1.684034,-1.1936374,2.286519,1.5404028,-0.913833,1.0522639,-0.5087991,-1.6461971,-1.134179,2.3460279,1.4784685,-0.9517685,0.520226,-1.5462179,-0.5834101,-1.31997,-0.996132,0.57570463,0.47279942,0.88100624,-0.4652691,1.260051,-2.9566095,-0.30249372,-1.1142042,0.1673336,-0.38270092,0.98184836,0.77480257,-0.13262638,0.11407325,0.60751826,0.14641793,-0.8025534,-0.9351865,1.0,0.0,0.0,0.0,0.0,0.0,0.0,-1.5310062,0.06526908,-0.710051,35.95954,-3.1071901,0.83960295,0.09584427,-6.7484856,-1.9640326,-2.6392877
43.63631,63.984562,28.414654,-2.271175,-1.9803238,-1.2869377,0.70851415,0.49258223,-0.8007512,-0.47053397,-0.6967178,-0.6683397,0.68331534,0.3805023,1.1015221,-0.5888742,-1.6932504,-1.2038507,2.2791939,1.5468,-0.9137183,1.059609,-0.5241208,-1.6525829,-1.1471776,2.3359342,1.4841086,-0.9472815,0.8037278,-1.527178,-0.6562955,-1.2938429,-1.0129805,0.5598924,0.44140083,0.8514614,-0.46829128,1.2481809,-2.9536533,-0.3021913,-1.2112762,0.16968918,-0.39032936,0.97241616,0.7717626,-0.12627551,0.11382751,0.6127644,0.2678278,-0.74207777,-0.95135725,1.0,0.0,0.0,0.0,0.0,0.0,0.0,-1.5014614,0.06829128,-0.69818085,27.66676,1.9752979,-7.059109,2.3753166,-1.4996767,-1.6186953,-2.9239237
28.961662,50.810196,19.767872,3.1242003,-1.128592,-1.3185055,0.2589899,0.5616259,-0.8078863,-0.5668323,-0.68514305,-0.6632303,0.6803188,0.32583815,1.1157717,-0.6049094,-1.7092661,-1.2156919,2.2696111,1.5521405,-0.91469765,1.0691324,-0.5391412,-1.660258,-1.1598653,2.325871,1.4896055,-0.94312537,1.0004668,-1.4935654,-0.8041024,-1.2607006,-1.0040225,0.54590774,0.40740815,0.8219471,-0.47131157,1.2353407,-2.9507003,-0.30188915,-1.3082511,0.17297554,-0.39758587,0.9627723,0.7683342,-0.1198042,0.11369201,0.6183718,0.3539796,-0.71223104,-0.97430354,1.0,0.0,0.0,0.0,0.0,0.0,0.0,-1.4719471,0.07131156,-0.6853407,19.304573,3.3659697,-14.615893,3.2421112,0.90556145,-1.492095,-3.2818735
17.248106,43.42639,15.660038,9.697979,-0.27332944,-0.96466994,-0.018411651,0.60950595,-0.8119772,-0.5788304,-0.63679177,-0.66585565,0.6900539,0.26064593,1.1300831,-0.6203389,-1.7181411,-1.2235445,2.2592854,1.5586109,-0.9170608,1.0800577,-0.5538621,-1.6693313,-1.1720437,2.315949,1.4949881,-0.93932784,1.1228198,-1.4651065,-0.9415269,-1.2034652,-0.9886675,0.53560776,0.37080085,0.7924633,-0.47432804,1.2215316,-2.9477503,-0.3015873,-1.4051291,0.17684555,-0.4046402,0.95294696,0.76481146,-0.11320437,0.113677055,0.6239597,0.4035642,-0.69471747,-0.9910352,1.0,0.0,0.0,0.0,0.0,0.0,0.0,-1.4424633,0.074328035,-0.6715316,12.083197,2.8115034,-13.65279,5.7465553,1.446259,-1.0847926,-3.5789073
7.623099,37.60045,12.719821,14.956126,0.4303959,-0.6166135,-0.19908379,0.63050073,-0.81325,-0.6054691,-0.5942023,-0.6679717,0.69156694,0.21425739,1.1431078,-0.6351871,-1.7298782,-1.2314639,2.2491517,1.5641447,-0.9179021,1.0917422,-0.5683856,-1.679568,-1.1835278,2.3061643,1.5002867,-0.93589747,1.183539,-1.448311,-1.0509355,-1.1298211,-0.9757225,0.5278143,0.33393213,0.7630081,-0.47734165,1.2067543,-2.9448032,-0.30128577,-1.5019102,0.18098068,-0.4115839,0.9429975,0.7613748,-0.10655187,0.113741666,0.62929964,0.42297888,-0.68599015,-1.0022016,1.0,0.0,0.0,0.0,0.0,0.0,0.0,-1.4130081,0.077341646,-0.6567543,6.0684443,1.6134024,-10.898542,7.454872,1.134193,-0.79876184,-3.6304653
3.4956336,34.983135,11.632494,16.182531,0.7026785,-0.42844614,-0.20866711,0.64353627,-0.813369,-0.6265227,-0.58971936,-0.6531745,0.6843558,0.18993925,1.1560957,-0.6497225,-1.7422203,-1.2424997,2.2408469,1.5687222,-0.91690356,1.1037318,-0.5828204,-1.6906345,-1.1943864,2.2965207,1.5055128,-0.9328171,1.2041942,-1.4421965,-1.1251564,-1.0708228,-0.9610484,0.5208053,0.29965192,0.73358154,-0.4803524,1.19101,-2.941859,-0.30098456,-1.5985945,0.1852169,-0.4184637,0.9329264,0.7580765,-0.09986041,0.11382974,0.6343426,0.42980915,-0.6800644,-1.0148528,1.0,0.0,0.0,0.0,0.0,0.0,0.0,-1.3835815,0.080352396,-0.64101,2.1478176,0.5330324,-7.4394226,6.0281277,1.2829185,-0.72983503,-3.3740044
1.7905416,33.68196,11.102079,15.600841,0.72833353,-0.34013957,-0.16532247,0.6430924,-0.81384295,-0.6502171,-0.5911345,-0.6519445,0.675353,0.17838249,1.168041,-0.6642047,-1.7556562,-1.2534999,2.2313263,1.5730481,-0.91497886,1.115729,-0.59724855,-1.7022521,-1.2048424,2.2869992,1.5106703,-0.93004954,1.1985427,-1.4433179,-1.1740026,-1.036746,-0.94977564,0.51378125,0.26936752,0.7041855,-0.48335934,1.1742996,-2.9389176,-0.30068365,-1.6951823,0.18948746,-0.42528534,0.9226896,0.7548995,-0.09308578,0.11391603,0.63912827,0.4330369,-0.6742282,-1.0327998,1.0,0.0,0.0,0.0,0.0,0.0,0.0,-1.3541855,0.08335933,-0.6242996,-0.42870045,-0.19340515,-4.956436,3.562498,0.93779564,-0.7602811,-2.9759884
-0.11399174,34.470863,11.703488,16.401821,0.8292443,-0.11916979,-0.14038481,0.6204982,-0.8166244,-0.6426897,-0.5722253,-0.64910334,0.6821319,0.1557855,1.1777788,-0.678911,-1.7665211,-1.2620649,2.2220888,1.5788835,-0.914471,1.127484,-0.6117244,-1.7141044,-1.2150334,2.2775693,1.5157706,-0.92756426,1.1685199,-1.4492857,-1.189516,-1.0126216,-0.94142395,0.5085527,0.24179846,0.67481995,-0.48636436,1.1566241,-2.9359791,-0.30038303,-1.7916734,0.19373703,-0.43201828,0.9122881,0.75181454,-0.08624794,0.11397262,0.6436973,0.4290503,-0.66441643,-1.0488482,1.0,0.0,0.0,0.0,0.0,0.0,0.0,-1.3248199,0.08636436,-0.60662407,-2.822709,-0.6782532,-1.6648769,2.579832,0.6351352,-0.57069063,-2.699089
-2.2034712,35.240295,11.706091,16.81395,0.80975056,0.020510092,-0.15912627,0.5871017,-0.81172407,-0.6560371,-0.568678,-0.6716354,0.6832357,0.11088196,1.1861942,-0.6928968,-1.7797081,-1.2719012,2.2104058,1.5840942,-0.9164761,1.1387831,-0.6262393,-1.726033,-1.2250718,2.2681317,1.520825,-0.92535555,1.1177926,-1.452428,-1.1943898,-1.0002211,-0.9456337,0.5043838,0.21397546,0.6454811,-0.48936558,1.1379844,-2.933044,-0.3000827,-1.8880682,0.19792938,-0.43863297,0.9017194,0.7488297,-0.079350665,0.114046894,0.64803606,0.4210404,-0.6517914,-1.0656501,1.0,0.0,0.0,0.0,0.0,0.0,0.0,-1.2954811,0.08936557,-0.5879844,-4.849601,-0.3958702,-0.6323576,1.4219761,-0.63409805,-0.46607256,-2.740672
-3.3866138,34.923378,11.217104,16.470615,0.7616686,0.054688513,-0.1684712,0.5622458,-0.8137106,-0.67444193,-0.569099,-0.6918677,0.68139863,0.06765364,1.1950077,-0.70761037,-1.7934772,-1.2819817,2.198945,1.5889649,-0.9185902,1.1495234,-0.6407819,-1.7380359,-1.2350568,2.2585683,1.5258414,-0.92342913,1.0601429,-1.4551667,-1.2026289,-0.99721164,-0.9605367,0.500659,0.18567961,0.6161728,-0.49236488,1.1183815,-2.9301116,-0.2997827,-1.9843664,0.20202637,-0.44512463,0.89095557,0.7459603,-0.07236622,0.11420977,0.6521215,0.4121196,-0.6393841,-1.0859648,1.0,0.0,0.0,0.0,0.0,0.0,0.0,-1.2661728,0.09236488,-0.5683815,-5.5284977,-0.35774708,-0.97653866,0.4979849,-1.7074108,-0.4392624,-2.800268
-6.6171436,31.623789,8.720669,15.177137,0.746612,0.0054432303,-0.1954215,0.50248575,-0.813545,-0.70437133,-0.6122579,-0.6948627,0.6666048,0.002755663,1.199772,-0.7221364,-1.8084731,-1.2962825,2.189082,1.5925019,-0.9231536,1.1595274,-0.6553407,-1.750241,-1.2452515,2.2488484,1.5308119,-0.921806,0.98163307,-1.4565165,-1.2272233,-1.0260643,-0.9765876,0.49556068,0.15456192,0.586895,-0.49536037,1.0978163,-2.9271822,-0.29948297,-2.080568,0.20602036,-0.45153618,0.8798937,0.7432438,-0.06515367,0.114519864,0.65591824,0.40054727,-0.63268965,-1.1189263,1.0,0.0,0.0,0.0,0.0,0.0,0.0,-1.236895,0.09536037,-0.54781634,-7.5611115,-0.22702217,-2.6444435,-2.6429653,-1.8391013,-0.63052773,-3.1050234
-14.085305,27.868416,5.605719,15.805649,0.9709673,0.14715241,-0.2713806,0.3955969,-0.81119007,-0.7121802,-0.66291416,-0.6980485,0.6447184,-0.06414019,1.1990871,-0.7364597,-1.821459,-1.311543,2.1790435,1.5952837,-0.92822,1.1683985,-0.6698966,-1.7627132,-1.2559842,2.2389798,1.5357176,-0.9205166,0.85687804,-1.4556065,-1.2545718,-1.0878096,-0.9908682,0.4884491,0.1204396,0.5576439,-0.498353,1.0762899,-2.9242556,-0.29918355,-2.1766737,0.2097969,-0.4579258,0.8684275,0.7407595,-0.057553854,0.115015835,0.6593438,0.3744322,-0.6320536,-1.161623,1.0,0.0,0.0,0.0,0.0,0.0,0.0,-1.2076439,0.098353,-0.5262899,-12.085724,-0.018787384,-2.968192,-5.868602,-1.7109275,-0.86873174,-3.4346328
-46.607327,16.169611,-4.178167,28.112043,2.6919668,1.0409877,-0.72139704,0.0904757,-0.8128374,-0.68967116,-0.6782737,-0.7061745,0.63628346,0.0055782255,1.1774461,-0.75118035,-1.8316803,-1.3238115,2.1683624,1.5993459,-0.9199588,1.1747996,-0.6844516,-1.7753017,-1.2673424,2.2289662,1.5405546,-0.9194876,0.5701372,-1.4560798,-1.2611785,-1.1499908,-1.006237,0.48162574,0.096691445,0.5284233,-0.5013428,1.0538031,-2.921332,-0.29888442,-2.2726831,0.2127285,-0.46452236,0.8565657,0.7388624,-0.0495069,0.1156946,0.66200167,0.26982805,-0.65929323,-1.1999139,1.0,0.0,0.0,0.0,0.0,0.0,0.0,-1.1784233,0.10134277,-0.5038031,-27.989923,-0.24888515,-0.93495846,-5.7303905,-2.0424366,-0.79249144,-2.485001
-100.19835,-0.55188465,-19.779469,47.788986,5.482787,2.4851336,-1.4102364,-0.4034742,-0.79815143,-0.6527766,-0.7320513,-0.6794738,0.6145286,0.22164154,1.1344521,-0.7642667,-1.8405794,-1.3405476,2.1610188,1.6020075,-0.8973234,1.1763388,-0.6989522,-1.7877166,-1.279414,2.2188916,1.5453116,-0.9185034,0.019231195,-1.4493922,-1.2361294,-1.2234644,-1.01086,0.47337535,0.09829482,0.49923325,-0.5043287,1.0303569,-2.918411,-0.2985856,-2.3685968,0.21367073,-0.47172546,0.8443797,0.73818535,-0.040936366,0.11651584,0.6631972,0.038010024,-0.73134464,-1.2302697,1.0,0.0,0.0,0.0,0.0,0.0,0.0,-1.1492332,0.10432872,-0.48035687,-53.916977,0.27594566,2.1547794,-6.5104485,-1.3794184,-0.95344186,-0.05224645
-94.787605,19.308548,-7.8776712,49.19359,5.5001044,3.3997624,-1.0442393,-0.545937,-0.77889526,-0.44271117,-0.7815213,-0.5784499,0.6272983,0.42092153,1.1217451,-0.7768417,-1.8319877,-1.3575662,2.1610467,1.6080414,-0.87641126,1.1723486,-0.7132964,-1.7988727,-1.2922887,2.209103,1.5500056,-0.9173142,-0.53471434,-1.4307201,-1.0770358,-1.3060544,-0.97088057,0.46764734,0.12590016,0.4700699,-0.5073128,1.0059522,-2.915493,-0.29828706,-2.4644144,0.2122612,-0.47934818,0.8321754,0.73861235,-0.03214854,0.117133446,0.6630972,-0.20079581,-0.7632165,-1.2221118,1.0,0.0,0.0,0.0,0.0,0.0,0.0,-1.1200699,0.10731277,-0.45595223,-54.267044,1.4734745,15.425944,-7.431531,3.0919552,-0.67616105,2.771908
-55.585896,62.78006,23.504623,44.106712,4.144134,4.4245596,-0.16051593,-0.6190867,-0.78253484,0.003926099,-0.78072643,-0.49203035,0.61848056,0.47338125,1.1104399,-0.7915499,-1.7984802,-1.3703613,2.1599002,1.6118536,-0.86997604,1.163735,-0.72747374,-1.8064048,-1.3058156,2.2000127,1.5546652,-0.9157835,-0.9678984,-1.4138404,-0.64758885,-1.3668827,-0.889681,0.46657076,0.16353427,0.44093704,-0.510293,0.9805901,-2.912578,-0.29798883,-2.560136,0.20890045,-0.48656082,0.8206581,0.73935306,-0.024079671,0.11689914,0.66265506,-0.38334537,-0.6976494,-1.132279,1.0,0.0,0.0,0.0,0.0,0.0,0.0,-1.090937,0.110293,-0.4305901,-42.560196,1.5330553,42.18912,-5.62582,7.708204,0.22825003,4.175678
-38.596508,47.61917,15.445876,32.13534,3.1914458,2.5541008,-0.16575599,-0.62207663,-0.79321665,-0.33864254,-0.7783483,-0.47256383,0.604212,0.46874684,1.1015273,-0.8067954,-1.8402691,-1.3836504,2.1527562,1.6150864,-0.8689088,1.1522127,-0.74157,-1.8115661,-1.3197297,2.1917424,1.5593001,-0.91390383,-1.211912,-1.4086721,-0.47419912,-1.3982022,-0.80722255,0.46271425,0.19722767,0.4118328,-0.51327133,0.9542715,-2.9096663,-0.2976909,-2.6557622,0.20419312,-0.49341965,0.8096285,0.74022275,-0.016535321,0.11583236,0.66210246,-0.5034083,-0.6721911,-1.0956703,1.0,0.0,0.0,0.0,0.0,0.0,0.0,-1.0618328,0.113271326,-0.40427148,-23.892927,0.40495396,16.79672,-2.683568,7.98589,-0.27120113,3.7171543
-28.98909,24.481125,1.2136309,20.883766,2.2942815,0.5498204,-0.3374261,-0.6228625,-0.8029189,-0.62007457,-0.77330095,-0.5262761,0.60330784,0.4336352,1.0899265,-0.82186186,-1.8735735,-1.3970598,2.1391149,1.6196308,-0.8705403,1.1394507,-0.7557063,-1.8172481,-1.3337601,2.1839833,1.5638815,-0.911759,-1.2965621,-1.4157517,-0.59989977,-1.4031146,-0.7665978,0.45570534,0.22068192,0.3827572,-0.51624584,0.92699736,-2.9067574,-0.29739326,-2.7512927,0.19866753,-0.5004215,0.79838854,0.74138856,-0.008709191,0.11440276,0.6611952,-0.57301384,-0.6985734,-1.1347358,1.0,0.0,0.0,0.0,0.0,0.0,0.0,-1.0327572,0.116245836,-0.37699735,-8.153415,-0.85446835,-12.74693,-0.0009536743,3.725028,-0.94020367,2.4953394
-32.4628,11.325699,-8.399293,18.026274,2.2743273,-0.20817292,-0.5842259,-0.71918756,-0.7995785,-0.7300704,-0.77118456,-0.49859408,0.58661026,0.30885547,1.067532,-0.83566415,-1.8902551,-1.4108787,2.1341238,1.6225425,-0.88087344,1.1261545,-0.7699218,-1.8253143,-1.3477238,2.1765332,1.5683695,-0.909515,-1.3397338,-1.4242449,-0.87557405,-1.392099,-0.7391047,0.44492292,0.22582904,0.35371208,-0.5192175,0.8987686,-2.9038513,-0.29709592,-2.8467278,0.19248009,-0.5079174,0.78645927,0.74308497,-2.7068885e-05,0.11291403,0.6596023,-0.6392054,-0.75544345,-1.2137408,1.0,0.0,0.0,0.0,0.0,0.0,0.0,-1.003712,0.119217485,-0.3487686,-4.017997,-1.0618687,-27.569902,1.6971827,2.2887468,-1.564455,0.56595504
-31.783669,15.88657,-6.153208,18.548748,2.3450696,0.03491944,-0.6181134,-0.77892965,-0.79064053,-0.7413409,-0.7521985,-0.4174275,0.59263486,0.2071181,1.0482615,-0.84898585,-1.8994484,-1.4229437,2.1347904,1.627633,-0.88880324,1.1124712,-0.7841716,-1.8360527,-1.3614587,2.169495,1.5727583,-0.9073225,-1.3768569,-1.4259174,-1.1397349,-1.3651428,-0.69345075,0.43522292,0.21724832,0.3246956,-0.5221863,0.86958617,-2.900948,-0.29679888,-2.9420676,0.18558884,-0.5159321,0.7737931,0.745382,0.009569998,0.11133171,0.65720564,-0.7108579,-0.80410665,-1.2862091,1.0,0.0,0.0,0.0,0.0,0.0,0.0,-0.97469556,0.12218627,-0.31958616,-3.4135103,-0.395751,-26.387142,3.2914639,4.1053653,-1.4862895,-0.7984191
-27.435238,28.463024,2.0622935,20.180866,2.382584,0.67381376,-0.56056714,-0.8091188,-0.7850618,-0.73481405,-0.7169757,-0.32585904,0.589417,0.035903085,1.0315593,-0.86267775,-1.9095341,-1.4331563,2.1369092,1.6317,-0.90373224,1.0984141,-0.7983899,-1.8487766,-1.3747796,2.1631284,1.5770632,-0.9053513,-1.4146379,-1.4211297,-1.3163514,-1.3194581,-0.6189771,0.42752331,0.19075994,0.2957077,-0.5251522,0.83945113,-2.8980477,-0.29650214,-3.037312,0.17796516,-0.5242567,0.76063424,0.748221,0.019774795,0.1094322,0.6540634,-0.7859166,-0.8278809,-1.3285031,1.0,0.0,0.0,0.0,0.0,0.0,0.0,-0.9457077,0.1251522,-0.28945112,-3.5274267,0.2712965,-17.632627,5.069399,7.0720553,-1.1878669,-2.5369377
-22.282272,41.583187,10.845172,21.890182,2.3542933,1.3056991,-0.5248677,-0.82851917,-0.7776548,-0.7367024,-0.67069197,-0.24620786,0.587662,-0.21227477,1.0155622,-0.8761554,-1.9224468,-1.4418488,2.1385076,1.6358294,-0.92657876,1.083985,-0.8125148,-1.8625724,-1.387494,2.157662,1.581307,-0.9038235,-1.4517479,-1.410177,-1.400482,-1.2541465,-0.5231014,0.42239508,0.14066237,0.26675034,-0.5281153,0.80836433,-2.8951502,-0.2962057,-3.132461,0.16959572,-0.5326338,0.74730885,0.75154114,0.030172631,0.10700235,0.6502506,-0.86022687,-0.8266118,-1.337099,1.0,0.0,0.0,0.0,0.0,0.0,0.0,-0.9167503,0.12811527,-0.25836432,-3.5357714,0.9216547,-8.371186,6.903124,9.321547,-0.7966876,-4.8567743
-18.995247,54.206024,18.790222,25.362091,2.455138,1.8798404,-0.5496315,-0.84508556,-0.7603825,-0.72750586,-0.58220994,-0.1695141,0.56904715,-0.3738573,0.99947643,-0.888553,-1.935323,-1.445715,2.1407106,1.6382117,-0.9412092,1.0692011,-0.82645655,-1.876641,-1.3992547,2.1532521,1.5855013,-0.90289366,-1.4869289,-1.3892334,-1.4088613,-1.1493791,-0.41433007,0.41792676,0.0776344,0.23781967,-0.5310745,0.7763267,-2.8922555,-0.29590955,-3.227515,0.16047668,-0.5408726,0.7341813,0.7553344,0.040327907,0.10392054,0.64578944,-0.93532413,-0.807596,-1.3080815,1.0,0.0,0.0,0.0,0.0,0.0,0.0,-0.88781965,0.13107452,-0.2263267,-3.422904,1.9506216,-0.7454872,10.712743,10.715151,-0.5965233,-6.1443925
-16.870056,57.738766,21.108873,26.012194,2.3985703,1.9808755,-0.567901,-0.8489957,-0.7563183,-0.7590561,-0.5152935,-0.12348662,0.53390634,-0.469991,0.98430157,-0.9020884,-1.9525466,-1.450784,2.1409035,1.6388919,-0.94989276,1.0541445,-0.8401933,-1.89066,-1.4098176,2.14988,1.5896326,-0.90261996,-1.5119141,-1.3689017,-1.3990864,-1.0245166,-0.31183642,0.41111612,0.011055742,0.20891953,-0.53403187,0.74333936,-2.8893638,-0.2956137,-3.3224738,0.15064049,-0.5488968,0.7214245,0.7596051,0.05003258,0.10020231,0.6406686,-1.0060698,-0.7852308,-1.2681525,0.0,1.0,0.0,0.0,0.0,0.0,0.0,-0.8589195,0.13403186,-0.19333935,-2.440977,1.9012928,1.105547,12.672472,10.142141,-0.79808235,-6.5222316
-14.998787,58.536285,21.95108,26.039095,2.303462,1.9826273,-0.55819726,-0.84805274,-0.7568767,-0.7641628,-0.43225375,-0.08934145,0.5355333,-0.49608967,0.96933925,-0.9158809,-1.9670763,-1.453043,2.1409457,1.643186,-0.9522289,1.038914,-0.85370004,-1.9052153,-1.4192705,2.1466742,1.594151,-0.9026526,-1.5257514,-1.3455843,-1.4711088,-0.91630286,-0.3252638,0.44968525,-0.0148843415,0.18992424,-0.5369806,0.7386384,-1.7071964,-0.24854581,0.3648974,0.14016151,-0.5566559,0.708827,0.7642365,0.059310455,0.09637398,0.6349306,-1.0661933,-0.758197,-1.2593693,0.0,1.0,0.0,0.0,0.0,0.0,0.0,-0.8399242,0.13698062,-0.18863839,-0.95038414,1.1656046,1.5990973,14.8785,8.352775,-1.0232627,-6.1921453
55.75245,176.0,110.0,107.01519,0.574613,11.61422,-1.1872,-0.8027413,0.5081972,0.68190026,0.7355114,0.053201184,0.64042836,-0.46996632,0.95863986,-0.80288035,-1.8370253,-1.3457193,2.1519942,1.6581938,-0.9496493,1.0284121,-0.8675388,-1.9170218,-1.4155321,2.1350317,1.6084714,-0.9012412,-0.89512813,-1.3963212,-1.0778685,0.7999295,-1.4393822,1.7677736,0.19029486,0.17286491,-0.539464,0.7415482,-1.7054895,-0.24829732,0.26634663,0.12916756,-0.56254864,0.70050746,0.7691395,0.058393884,0.0965698,0.629038,-1.1148922,-0.51781285,-0.6911513,1.0,0.0,0.0,0.0,0.0,0.0,0.0,-0.8228649,0.13946399,-0.19154817,62.00392,-4.9693346,41.07027,170.47095,-110.05567,134.25179,19.663473
-4.087613,167.79778,87.05754,84.984,4.2464795,6.1529946,-1.2404194,-0.82001936,-0.5569108,0.1635546,0.76801026,-0.48764798,0.5291702,-0.28400367,0.9464102,-0.9232299,-1.9006662,-1.338731,2.086267,1.6613884,-0.92964154,1.019623,-0.8805927,-1.9231653,-1.4014482,2.1197882,1.6261392,-0.89953506,-0.8728248,-1.2767528,-0.45666805,1.6112702,-1.5566595,1.7710168,0.16453014,0.15582275,-0.5419445,0.7434732,-1.7037843,-0.24804907,0.1678944,0.11748886,-0.5670738,0.69692516,0.7747721,0.050376847,0.09886836,0.6224269,-1.1864077,-0.41916263,-0.2523549,1.0,0.0,0.0,0.0,0.0,0.0,0.0,-0.80582273,0.1419445,-0.19347316,2.4050117,11.44619,63.069767,81.187294,-12.942767,1.6970634,-2.4337232
-36.29837,120.68042,44.317585,57.32959,3.5295048,3.2343926,-1.1959436,-0.79251,-0.42562208,-0.37155178,0.71571326,-0.6288753,0.629209,0.066533014,0.94037205,-0.9231549,-1.9603205,-1.3298769,2.0569007,1.6890601,-0.89288175,1.0099585,-0.89174306,-1.9263735,-1.3829451,2.1047468,1.6428514,-0.8979844,-0.99591684,-1.0626453,-0.27536523,1.9310013,-1.4890262,1.6403359,0.15169987,0.13879776,-0.5444231,0.7444144,-1.7020808,-0.24780107,0.06954058,0.10495949,-0.5709791,0.6960275,0.7812404,0.040281456,0.10206892,0.6145101,-1.2745738,-0.3719364,-0.043240957,1.0,0.0,0.0,0.0,0.0,0.0,0.0,-0.78879774,0.1444231,-0.19441438,-11.842465,20.984554,18.158424,32.307243,6.060028,-12.3499155,-1.3494343
-46.398247,77.67957,18.138973,34.09923,2.8301702,1.5208862,-0.7845037,-0.7949311,-0.46355185,-0.33192512,0.78569853,-0.6333423,0.5413163,0.10529214,0.9304654,-0.93809825,-1.959566,-1.3043752,2.0414126,1.696983,-0.88745517,0.99859643,-0.9011282,-1.9290857,-1.3636389,2.0911436,1.6578202,-0.89656246,-1.1817448,-0.89803946,-0.27070525,1.9314929,-1.3181726,1.4502715,0.13877165,0.12178993,-0.5468998,0.7443728,-1.7003791,-0.24755332,-0.028714893,0.0915966,-0.5746193,0.6960631,0.7883139,0.030618522,0.10560571,0.6053685,-1.3584243,-0.351858,0.01159351,1.0,0.0,0.0,0.0,0.0,0.0,0.0,-0.7717899,0.14689979,-0.19437277,-18.243456,16.201937,0.17359853,0.29604435,16.795826,-18.658615,-1.3610154
-46.611145,39.480644,-2.067573,17.047289,2.0105557,0.1833364,-0.5340668,-0.8121508,-0.4732855,-0.4379124,0.78552604,-0.59847224,0.5617606,-0.024296464,0.91738135,-0.9484567,-1.972877,-1.2850863,2.0312965,1.7139963,-0.8989921,0.9855187,-0.90940607,-1.9330225,-1.3454905,2.0793295,1.6709924,-0.8953513,-1.3490007,-0.8047184,-0.43596503,1.7766167,-1.1359009,1.2732279,0.115077704,0.10479927,-0.5493736,0.7433494,-1.6986791,-0.24730581,-0.12687214,0.07749748,-0.5782757,0.69576323,0.7958081,0.022759212,0.10908845,0.5952069,-1.4293314,-0.3598127,-0.05030623,1.0,0.0,0.0,0.0,0.0,0.0,0.0,-0.75479925,0.14937362,-0.19334936,-16.517258,9.216297,-16.91283,-15.298963,18.250252,-17.60094,-2.4469404
-29.752382,33.13672,-0.7479732,8.365094,1.0367353,-0.19722527,-0.23133154,-0.8040643,-0.44776404,-0.40360105,0.7966139,-0.5819924,0.5625528,-0.14956158,0.90511227,-0.95418245,-1.9733826,-1.2658291,2.0211303,1.7272477,-0.91030747,0.971246,-0.91709363,-1.938571,-1.3290529,2.0690756,1.6825719,-0.89445674,-1.4530567,-0.757049,-0.59514105,1.5997789,-0.98865724,1.119643,0.08070202,0.08782387,-0.5518446,0.7413451,-1.6969807,-0.24705856,-0.22493123,0.06295586,-0.58197594,0.6946883,0.80350065,0.016943773,0.112381354,0.5843544,-1.4641875,-0.36126372,-0.13154885,1.0,0.0,0.0,0.0,0.0,0.0,0.0,-0.73782384,0.15184459,-0.1913451,-10.324478,4.670191,-16.106403,-17.574501,14.613175,-15.365624,-3.518188
-15.879719,29.42311,2.333677,4.754489,0.6935401,-0.3352062,-0.037533518,-0.8032241,-0.47484294,-0.40067208,0.7925637,-0.52306265,0.55997294,-0.21182139,0.8909236,-0.9645779,-1.9786382,-1.2497965,2.0167694,1.7385691,-0.91563886,0.9563849,-0.9247211,-1.9453688,-1.3141012,2.060092,1.692801,-0.8939265,-1.4971384,-0.7648863,-0.7080411,1.4607443,-0.8687666,0.99046695,0.043612156,0.07086754,-0.55431366,0.73836106,-1.6952841,-0.24681155,-0.3228923,0.048217773,-0.58569145,0.69280577,0.8112142,0.012868188,0.115314186,0.5731218,-1.4790994,-0.36246923,-0.2110527,1.0,0.0,0.0,0.0,0.0,0.0,0.0,-0.7208675,0.15431365,-0.18836105,-4.387307,-0.86266994,-11.321318,-13.813806,11.796141,-12.980819,-3.7367277
-5.8815374,36.05411,8.700624,5.500436,0.56480426,-0.16853744,0.03219562,-0.80411434,-0.46818092,-0.40384525,0.78762805,-0.47932586,0.5567055,-0.2588515,0.87597346,-0.9715392,-1.9857533,-1.2353384,2.0121593,1.7484715,-0.91981167,0.9413903,-0.9325508,-1.9528799,-1.3001146,2.0521078,1.7019048,-0.8937701,-1.5003929,-0.78934246,-0.7651915,1.3782393,-0.77575153,0.8833292,0.00637525,0.053926468,-0.55677986,0.73439807,-1.6935892,-0.24656479,-0.42075542,0.033426285,-0.5893631,0.6903067,0.8188549,0.010053015,0.11783042,0.56168634,-1.4809428,-0.35560244,-0.26605636,1.0,0.0,0.0,0.0,0.0,0.0,0.0,-0.70392644,0.15677986,-0.18439806,-0.34883022,-2.5362372,-5.614698,-8.188367,9.042299,-10.776162,-3.7397797
1.0208087,46.620087,15.575341,7.8224926,0.53721535,0.100099266,0.05663839,-0.7967328,-0.46066418,-0.3924454,0.7848683,-0.44630417,0.56728333,-0.27887005,0.861717,-0.9786172,-1.9921244,-1.2216278,2.0074773,1.7586331,-0.9216571,0.92655015,-0.9406065,-1.9605742,-1.2865763,2.0448828,1.7100873,-0.89396274,-1.4788377,-0.8114285,-0.77036154,1.3456385,-0.7056688,0.79639953,-0.027892357,0.03700447,-0.5592432,0.7294492,-1.691896,-0.24631827,-0.5195859,0.018688202,-0.5928879,0.687476,0.82636654,0.008010564,0.119981624,0.55014414,-1.4735862,-0.33804685,-0.29179385,1.0,0.0,0.0,0.0,0.0,0.0,0.0,-0.68700445,0.1592432,-0.1794492,2.0921469,-2.321601,-0.30385256,-3.236103,6.693828,-8.735144,-3.4555507
-0.22744036,45.69786,15.483338,9.667822,0.8486254,0.20804036,0.006004922,-0.7985197,-0.49753946,-0.40731496,0.7815532,-0.3818692,0.5782288,-0.30414256,0.84669816,-0.99036044,-2.0013056,-1.208421,2.0066957,1.7679101,-0.924377,0.91195226,-0.9490036,-1.9682035,-1.2731256,2.0383444,1.717526,-0.8944758,-1.4535266,-0.84951675,-0.7597381,1.34515,-0.6375106,0.7261287,-0.05914266,0.020097733,-0.56170464,0.7235128,-1.6902044,-0.24607201,-0.6183176,0.0039539337,-0.59625435,0.68442696,0.8337665,0.0064513274,0.121729806,0.538492,-1.4751886,-0.32304043,-0.31200418,0.0,1.0,0.0,0.0,0.0,0.0,0.0,-0.6700977,0.16170463,-0.17351282,2.487588,-3.9249897,1.287663,0.015234947,6.531656,-7.090807,-3.1222186
1.3136587,49.566784,17.525606,10.272793,0.7733732,0.36649972,0.017898967,-0.78618985,-0.50500566,-0.38766608,0.77353686,-0.38056123,0.59988976,-0.32796964,0.83333325,-0.99950415,-2.0069702,-1.1957719,2.0002882,1.7775149,-0.9272728,0.89762425,-0.95775735,-1.975585,-1.2595987,2.0323286,1.7243752,-0.89528453,-1.4260406,-0.8844556,-0.7300468,1.3552325,-0.590249,0.67108643,-0.088025026,0.0032081604,-0.5641632,0.71658987,-1.6885145,-0.24582599,-0.71695054,-0.010770798,-0.5994177,0.6812409,0.84104127,0.0051752604,0.123129755,0.52674633,-1.4734113,-0.30121532,-0.32357755,0.0,1.0,0.0,0.0,0.0,0.0,0.0,-0.65320814,0.1641632,-0.16658986,2.692604,-3.6197305,3.232777,1.0612965,4.427421,-5.553293,-2.8991938
3.1261501,55.512756,20.26821,10.719349,0.608959,0.5432162,0.052275315,-0.7757264,-0.5046854,-0.35179472,0.7697387,-0.39181358,0.61048055,-0.32969376,0.8200516,-1.0082259,-2.0107644,-1.1826248,1.9931473,1.7854233,-0.9282539,0.88355565,-0.9667705,-1.9825163,-1.2459688,2.0266104,1.730763,-0.89635074,-1.4006816,-0.9073759,-0.6797792,1.3657415,-0.56707805,0.6277846,-0.11286769,-0.013664246,-0.5666199,0.7086813,-1.6868263,-0.24558021,-0.8154849,-0.02543068,-0.602293,0.67801917,0.8481453,0.004018073,0.12430651,0.5149575,-1.4647654,-0.27029055,-0.32450894,0.0,1.0,0.0,0.0,0.0,0.0,0.0,-0.63633573,0.16661987,-0.15868127,2.461028,-2.4311543,5.333507,1.0766983,1.9834518,-4.3536425,-2.5226026
3.6326075,54.265797,19.982744,9.9648075,0.51502013,0.5916785,0.09757189,-0.766064,-0.54182523,-0.31224713,0.76612103,-0.4120679,0.63272905,-0.33487406,0.80694926,-1.020953,-2.013741,-1.1693567,1.9854035,1.7940359,-0.9298381,0.8697255,-0.9760924,-1.9888753,-1.2322832,2.020874,1.7367827,-0.89769745,-1.374262,-0.9406212,-0.6360026,1.3655525,-0.6003066,0.58923024,-0.1605506,-0.030984879,-0.5683241,0.7021218,-1.8911612,0.08852583,0.12212971,-0.039974213,-0.6048517,0.67474544,0.8550442,0.0029199605,0.12536393,0.50316465,-1.4468864,-0.23963532,-0.33763295,0.0,1.0,0.0,0.0,0.0,0.0,0.0,-0.6190151,0.16832408,-0.15212178,3.0138016,-3.4235358,2.432084,-0.5698204,-7.0221186,-4.452288,-7.452227
4.1304717,124.7707,44.53395,23.865986,0.018626332,1.7655306,-0.09465372,-0.8035537,-0.15107822,-0.30993596,0.7889616,-0.45876175,0.5883836,-0.28783265,0.7893702,-0.9912002,-2.0198689,-1.1533871,1.9749979,1.795621,-0.9264807,0.8559001,-0.9838572,-1.9948395,-1.2185198,2.0146637,1.7424513,-0.89941597,-1.3859653,-0.72279966,-0.5815367,1.3791959,-0.63032097,0.5594393,-0.17676026,-0.04988289,-0.5674391,0.70259774,-1.8892704,0.088437326,0.02275645,-0.054084778,-0.60662365,0.67227185,0.8617281,0.0016799177,0.12741216,0.49110895,-1.40024,-0.14424902,-0.22012404,0.0,1.0,0.0,0.0,0.0,0.0,0.0,-0.6001171,0.16743907,-0.15259773,-1.3598204,21.459997,6.0014725,1.1295795,-3.6787748,-2.9030442,-1.9883156
-0.57688665,127.86337,42.979057,26.188524,0.03671515,1.6859727,-0.1597788,-0.80041337,-0.12798743,-0.3653008,0.7983277,-0.5145345,0.5907241,-0.2555294,0.77585876,-0.99665594,-2.0313697,-1.138687,1.9632102,1.8015237,-0.9249689,0.8419097,-0.989255,-2.0006707,-1.2045885,2.007988,1.7478586,-0.9012432,-1.404045,-0.47991017,-0.5817701,1.3971008,-0.68199617,0.5344319,-0.18593374,-0.068761826,-0.566556,0.70208067,-1.8873814,0.08834891,-0.076517455,-0.0677433,-0.607461,0.6709729,0.8681655,0.00024366098,0.13086702,0.4787091,-1.3550214,-0.052444972,-0.10204543,0.0,1.0,0.0,0.0,0.0,0.0,0.0,-0.58123815,0.16655597,-0.15208066,-1.996398,23.950285,0.52449703,1.5921831,-5.835521,-2.4829626,-1.2983024
-11.501418,97.50465,27.341587,23.311697,0.27547455,1.0378582,-0.18506005,-0.80469376,-0.15174584,-0.5137901,0.7977992,-0.5707548,0.6111572,-0.13272719,0.76144034,-1.0044296,-2.0520496,-1.1248085,1.9509125,1.8089744,-0.9145159,0.8277219,-0.9927407,-2.007312,-1.1904951,2.00074,1.7530638,-0.9030266,-1.4240925,-0.30574536,-0.6904215,1.4133241,-0.7406349,0.5156034,-0.17682606,-0.08762169,-0.5656729,0.70057166,-1.8854944,0.08826058,-0.17569211,-0.08115196,-0.60762405,0.6703684,0.87439203,-0.00090273365,0.13569212,0.46585965,-1.3363422,0.0065079434,-0.048007194,0.0,1.0,0.0,0.0,0.0,0.0,0.0,-0.5623783,0.16567287,-0.15057164,-2.105689,17.140484,-10.498333,1.5623808,-6.312704,-1.9413352,0.606972
-16.168247,68.43688,15.066063,18.703121,0.43018782,0.50038683,-0.1380246,-0.8042699,-0.15942612,-0.5783044,0.80096316,-0.6046378,0.6182451,-0.08854028,0.7472949,-1.0086833,-2.0651424,-1.1103988,1.9402763,1.8148884,-0.9118806,0.81338835,-0.99513817,-2.0154312,-1.1762704,1.9930148,1.7582521,-0.90461755,-1.4361826,-0.21834983,-0.8545543,1.4250938,-0.77791685,0.52780294,-0.15086071,-0.105371475,-0.56472015,0.6996678,-1.6731248,0.10211578,0.034320213,-0.09454727,-0.6073885,0.66986847,0.8804157,-0.0014030217,0.14155634,0.45257935,-1.3412945,0.040591784,-0.052220054,0.0,1.0,0.0,0.0,0.0,0.0,0.0,-0.5446285,0.16472015,-0.1496678,-1.3196945,8.515623,-15.564096,1.2939453,-5.268836,-0.74453354,1.6685873
-14.625884,47.25646,8.594471,13.847189,0.64465606,0.2074768,-0.054739833,-0.7991204,-0.18860012,-0.5822411,0.79885924,-0.5743238,0.6330935,-0.16129352,0.7334763,-1.0139982,-2.0736554,-1.0963844,1.9355824,1.8215615,-0.9207469,0.79900706,-0.99729824,-2.0249653,-1.1619748,1.985064,1.7634964,-0.90604013,-1.4387935,-0.2156863,-0.9860018,1.4313174,-0.80135924,0.52277166,-0.140009,-0.12173462,-0.5636616,0.6997694,-1.624739,0.107094616,0.00075746,-0.108068466,-0.6069441,0.6690725,0.8862322,-0.0011801941,0.14792925,0.43898505,-1.3545362,0.056317687,-0.089128956,0.0,1.0,0.0,0.0,0.0,0.0,0.0,-0.52826536,0.16366157,-0.14976937,-0.2619028,0.11845231,-12.95451,0.68178177,-2.5190115,-0.6218672,0.9141892
-9.4599905,49.803017,11.933945,12.837776,0.8081895,0.3579788,0.015151624,-0.80230516,-0.15855594,-0.55318785,0.79794776,-0.540931,0.6462743,-0.22227535,0.7187765,-1.0131538,-2.080284,-1.08218,1.9309709,1.8281238,-0.92826766,0.7846209,-0.99957657,-2.0352879,-1.1476563,1.9770826,1.768702,-0.90741503,-1.438719,-0.23235892,-1.0467329,1.4320192,-0.7979097,0.51922834,-0.13721539,-0.1375618,-0.5625324,0.69957906,-1.5697238,0.11522513,-0.026264546,-0.12168884,-0.6063061,0.6679874,0.8918237,-0.0004090034,0.15444608,0.42520192,-1.3637906,0.07726847,-0.11508779,0.0,1.0,0.0,0.0,0.0,0.0,0.0,-0.5124382,0.16253242,-0.14957905,-0.04017353,-1.8166661,-5.7758093,0.09689331,0.08094311,-0.521636,0.13879538
-6.827262,46.321312,12.0017605,11.375422,0.9124141,0.35876018,0.0671628,-0.8009665,-0.19136475,-0.56535846,0.79840785,-0.53328586,0.6496578,-0.23995273,0.7045242,-1.018713,-2.0918238,-1.0678155,1.923754,1.8336678,-0.9314103,0.7702538,-1.0022373,-2.0459003,-1.1333474,1.969196,1.7738575,-0.9087985,-1.436242,-0.27769604,-1.0650021,1.4305307,-0.7871993,0.51345736,-0.13954861,-0.15295029,-0.5612812,0.69908947,-1.53503,0.12877853,-0.05484141,-0.13540268,-0.6054716,0.6666221,0.8971753,0.00073372264,0.16084665,0.41134435,-1.3726163,0.09684622,-0.14376941,0.0,1.0,0.0,0.0,0.0,0.0,0.0,-0.4970497,0.1612812,-0.14908946,0.18968582,-4.666215,-1.488471,-0.1283884,0.57008266,-0.8055568,-0.49765408
5.6838713,64.11595,22.267221,11.475642,0.88644814,0.68129075,0.18907157,-0.7783421,-0.1675383,-0.44795686,0.79894656,-0.49686804,0.66521853,-0.2380872,0.6924196,-1.0189911,-2.090696,-1.0534527,1.9195092,1.8403794,-0.93260723,0.7560144,-1.0052109,-2.0559328,-1.1190652,1.961515,1.7789768,-0.9102214,-1.4204699,-0.3042516,-0.9808846,1.4270048,-0.76341957,0.51091754,-0.14355513,-0.16807365,-0.55983067,0.6986311,-1.5043694,0.15055723,-0.042355716,-0.14901924,-0.6043272,0.6652597,0.9022245,0.0018272118,0.1669859,0.3976219,-1.3561953,0.13147356,-0.13374697,0.0,1.0,0.0,0.0,0.0,0.0,0.0,-0.48192632,0.15983066,-0.1486311,1.3982058,-2.8105378,8.965242,-0.44603348,1.8885136,-0.41966438,-0.5136937
4.7924833,61.463154,21.27703,11.482267,1.0621104,0.6659309,0.17565806,-0.7860646,-0.21137257,-0.43557248,0.79968965,-0.47845322,0.65413713,-0.24518508,0.6774079,-1.0263481,-2.09949,-1.0390962,1.9136696,1.8443905,-0.9347399,0.74189144,-1.0085545,-2.0649889,-1.1048132,1.9541065,1.7840654,-0.9116881,-1.4100357,-0.34471586,-0.8788906,1.424584,-0.73485315,0.50777864,-0.147929,-0.18290329,-0.55817413,0.6982528,-1.4753495,0.17081076,-0.035514228,-0.16250801,-0.60285187,0.6639797,0.90697914,0.0026886498,0.17274818,0.38410887,-1.3440355,0.16395575,-0.12610914,0.0,1.0,0.0,0.0,0.0,0.0,0.0,-0.4670967,0.15817413,-0.14825279,0.8826971,-4.190737,10.737538,-0.30593872,2.3807526,-0.47124624,-0.5146384
4.4239187,61.716873,21.087252,11.608341,1.1586415,0.665582,0.18280065,-0.7860027,-0.22853453,-0.39189038,0.79101485,-0.44564894,0.64670527,-0.19864348,0.66329116,-1.031408,-2.104178,-1.0257118,1.9095416,1.8487359,-0.9315524,0.72784,-1.0123004,-2.072973,-1.0906167,1.9470396,1.7891212,-0.9131593,-1.4039451,-0.38492852,-0.7699508,1.4177781,-0.6988074,0.50438166,-0.1469818,-0.19744301,-0.5563183,0.69792885,-1.4463098,0.19054204,-0.030459201,-0.17587852,-0.60104656,0.66278225,0.91146475,0.00327297,0.1780675,0.3708277,-1.3328402,0.19662851,-0.117907986,0.0,1.0,0.0,0.0,0.0,0.0,0.0,-0.45255697,0.15631828,-0.14792883,0.45814514,-4.1623354,11.423707,-0.7336855,3.127551,-0.48635006,0.034332275
2.5284228,59.773106,19.570894,11.693989,1.2370639,0.60978854,0.16525736,-0.78722405,-0.250975,-0.35246572,0.783555,-0.4138385,0.6308297,-0.17845076,0.6491176,-1.0373979,-2.1082196,-1.0122612,1.9056557,1.8522041,-0.9310044,0.7138143,-1.0164546,-2.0799387,-1.0765138,1.9403716,1.7941327,-0.914601,-1.4024786,-0.4261448,-0.67081964,1.4076385,-0.6574832,0.49957454,-0.14334406,-0.21170616,-0.5542774,0.697607,-1.4192389,0.20882386,-0.03185832,-0.18916702,-0.5989275,0.66163534,0.9157116,0.0036043539,0.18291269,0.35777384,-1.3254659,0.22751942,-0.114290446,0.0,1.0,0.0,0.0,0.0,0.0,0.0,-0.4382938,0.15427741,-0.14760697,0.02026558,-4.255748,10.399401,-1.0423422,3.688383,-0.6146908,0.32010376
1.5675244,66.26706,20.597132,13.332005,1.1434276,0.6437144,0.13913777,-0.7854316,-0.22958572,-0.32749215,0.78499407,-0.44061175,0.63533473,-0.14893198,0.63527113,-1.0394131,-2.1126878,-0.99801433,1.8963104,1.8576661,-0.9294942,0.69979423,-1.0208167,-2.0860803,-1.0624909,1.9339702,1.7991066,-0.91598415,-1.4023618,-0.44008377,-0.5937945,1.4002262,-0.63588625,0.49622294,-0.13685803,-0.22566414,-0.552042,0.6973313,-1.3876036,0.22864623,-0.025065681,-0.20234299,-0.59647083,0.6605804,0.9197204,0.0037429691,0.18746623,0.34490108,-1.3126501,0.26184168,-0.103315085,0.0,1.0,0.0,0.0,0.0,0.0,0.0,-0.42433584,0.152042,-0.1473313,-0.11498928,-1.5449524,8.193684,-0.77450275,1.700902,-0.44924617,0.5714327
-3.9212346,48.01631,12.963788,10.869844,1.1898353,0.35519654,0.122797266,-0.7926157,-0.32268623,-0.32316118,0.7729112,-0.39655054,0.61920273,-0.1371187,0.62053263,-1.0530853,-2.1183965,-0.9851998,1.8943151,1.8610269,-0.929696,0.685737,-1.0256442,-2.0916994,-1.0485692,1.9278264,1.8040255,-0.9172972,-1.4070597,-0.49744022,-0.5504538,1.3895677,-0.6080247,0.49024358,-0.12945792,-0.2394104,-0.54966164,0.6968599,-1.3698232,0.24134311,-0.0534505,-0.21552467,-0.5937643,0.65938395,0.923539,0.0038754647,0.19164601,0.3321633,-1.3176048,0.28367493,-0.12594543,0.0,1.0,0.0,0.0,0.0,0.0,0.0,-0.41058958,0.14966163,-0.14685988,-0.5222082,-5.8401346,4.657507,-1.0169029,2.4882078,-0.6984532,0.7245302
2.931745,61.88765,19.044098,11.8805485,1.1860775,0.5184797,0.14705071,-0.7760468,-0.28921652,-0.21612857,0.7720968,-0.36928838,0.62514573,-0.13958894,0.60813236,-1.0545658,-2.1133122,-0.9713595,1.8908975,1.8665401,-0.93125606,0.67170656,-1.030836,-2.0966008,-1.0347409,1.9219933,1.8089033,-0.91854256,-1.4020473,-0.52687216,-0.4684308,1.3804077,-0.5763271,0.48659262,-0.12301207,-0.25289154,-0.5471239,0.6962854,-1.3402742,0.2580743,-0.05747294,-0.22863197,-0.59078026,0.6581546,0.9271642,0.0038664686,0.19544989,0.3196104,-1.3055018,0.3133887,-0.12284672,0.0,1.0,0.0,0.0,0.0,0.0,0.0,-0.39710844,0.1471239,-0.14628541,0.3932476,-3.073728,8.657557,-0.929904,2.7441978,-0.46266317,0.6027922
-1.3491809,57.523273,15.845096,11.9943285,1.1353014,0.40389264,0.12156177,-0.7866802,-0.31413254,-0.24997458,0.7628126,-0.37079242,0.6097154,-0.09939976,0.59303856,-1.0622492,-2.1215982,-0.9584597,1.884914,1.8698748,-0.92848253,0.65768754,-1.0363158,-2.1009798,-1.0210195,1.9164177,1.8137343,-0.9197015,-1.402087,-0.5554877,-0.42644095,1.3694276,-0.5522316,0.48168942,-0.11362092,-0.26610947,-0.5444355,0.6955875,-1.314962,0.2725901,-0.07267025,-0.24166489,-0.58752346,0.65686774,0.93060327,0.0037994208,0.1989589,0.3072108,-1.2996722,0.3395439,-0.13162313,0.0,1.0,0.0,0.0,0.0,0.0,0.0,-0.3838905,0.1444355,-0.1455875,-0.07696152,-2.9828072,4.56661,-1.0737896,2.0602226,-0.5728662,0.9041041
-0.5107405,60.42929,16.336329,12.339404,0.98667663,0.38073197,0.142865,-0.776838,-0.31307366,-0.23318039,0.7670121,-0.39380902,0.60572404,-0.009226361,0.58000374,-1.0676231,-2.1242979,-0.94431823,1.8770368,1.8743067,-0.92062414,0.6437075,-1.0419824,-2.1050496,-1.0073646,1.910954,1.818519,-0.9207066,-1.3969531,-0.57075065,-0.39913976,1.364241,-0.54561627,0.4772812,-0.09625276,-0.27904892,-0.54160213,0.69477224,-1.2863019,0.28711137,-0.082833886,-0.2545948,-0.5840044,0.65551907,0.9338378,0.0037685162,0.20231944,0.294957,-1.2879578,0.3656562,-0.13696675,0.0,1.0,0.0,0.0,0.0,0.0,0.0,-0.37095106,0.14160213,-0.14477223,0.4351139,-1.6534567,3.105092,-0.5012989,0.30480623,-0.507617,1.6805217
-2.7582526,48.280582,11.782751,10.270927,0.96914834,0.1781798,0.1311027,-0.77515423,-0.3778574,-0.23444316,0.7597365,-0.35590276,0.5892683,-0.03330856,0.5661921,-1.0797682,-2.128494,-0.931391,1.8753637,1.8774458,-0.92403746,0.6297847,-1.0480268,-2.1089897,-0.9937651,1.9056108,1.8232445,-0.92156506,-1.3908918,-0.61611986,-0.39127424,1.3588308,-0.5314141,0.4708014,-0.08241389,-0.29177284,-0.53865814,0.69368494,-1.2669917,0.29699194,-0.11585462,-0.26748466,-0.580287,0.653955,0.93689746,0.0038816903,0.20546184,0.282831,-1.2866061,0.38345826,-0.16406755,0.0,1.0,0.0,0.0,0.0,0.0,0.0,-0.35822713,0.13865814,-0.14368492,0.56602955,-4.635048,1.0638118,-0.4800558,1.1584282,-0.71778893,1.3673633
-8.546494,35.732708,5.9215984,8.87941,0.8463726,-0.019739509,0.13246942,-0.78138834,-0.41996646,-0.29965475,0.7507979,-0.35592103,0.57631046,0.04550378,0.5516459,-1.0900234,-2.138955,-0.9186853,1.8700187,1.8808755,-0.91701466,0.61588484,-1.054672,-2.1132388,-0.98023903,1.9003797,1.8278912,-0.92224324,-1.3896801,-0.68101895,-0.43573618,1.3509995,-0.5205861,0.46250704,-0.062904306,-0.30438423,-0.5356493,0.69207615,-1.2586243,0.3025352,-0.17416361,-0.28046227,-0.57643986,0.6519239,0.9398142,0.0043908665,0.20833825,0.27078584,-1.2982868,0.3944823,-0.21738242,0.0,1.0,0.0,0.0,0.0,0.0,0.0,-0.34561574,0.1356493,-0.14207613,0.13387203,-6.564796,-4.3123245,-0.6570816,0.9331107,-0.92806816,1.957731
-3.419067,38.591656,8.708445,8.27343,1.0661767,0.043193996,0.16709544,-0.76686877,-0.46498066,-0.19959705,0.7571224,-0.29185942,0.5664967,0.10942125,0.539198,-1.1011701,-2.1331985,-0.90452677,1.8711938,1.8845409,-0.91130114,0.6020489,-1.0620801,-2.1174922,-0.96674734,1.8954232,1.8324546,-0.9226922,-1.3816,-0.76089036,-0.42142847,1.3488957,-0.48796868,0.4540284,-0.03871243,-0.31689644,-0.5325794,0.6899172,-1.2479051,0.30859742,-0.22804494,-0.29353333,-0.57247066,0.6494314,0.94261473,0.0051442627,0.21076335,0.25890082,-1.3064988,0.4075619,-0.26120335,0.0,1.0,0.0,0.0,0.0,0.0,0.0,-0.33310354,0.13257942,-0.1399172,0.79774857,-8.067476,1.657784,-0.095009804,3.0526638,-0.94668865,2.4634347
-8.8336315,31.11545,4.220143,7.747587,0.71428597,-0.092066646,0.17303817,-0.7725077,-0.502564,-0.31364542,0.75420445,-0.38389638,0.54593235,0.16443874,0.5247981,-1.1123365,-2.1488566,-0.8913269,1.8570335,1.8870478,-0.90624833,0.58826256,-1.0703027,-2.1220615,-0.95326704,1.890492,1.8369216,-0.92287743,-1.3774929,-0.84313256,-0.46838003,1.3482971,-0.4950997,0.44407913,-0.011697812,-0.3293419,-0.52947235,0.6870971,-1.2428495,0.31203288,-0.29802936,-0.30672073,-0.56840134,0.64634705,0.9452856,0.0063445834,0.2128643,0.24715085,-1.3192875,0.41641927,-0.32572606,0.0,1.0,0.0,0.0,0.0,0.0,0.0,-0.3206581,0.12947235,-0.13709706,0.44264793,-8.296585,-4.5901594,0.11847019,-0.8198261,-1.0834992,2.7390041
-7.737768,28.678236,3.837428,6.7077055,0.724923,-0.12138224,0.20619592,-0.7642805,-0.5616764,-0.30005655,0.7539316,-0.336571,0.5023994,0.26371124,0.5118345,-1.1264703,-2.1520672,-0.8778739,1.8568349,1.8871615,-0.8965063,0.5745392,-1.0794256,-2.1270354,-0.93978304,1.8855724,1.8412638,-0.92274094,-1.3704709,-0.93560135,-0.50654733,1.3489739,-0.49126637,0.4305376,0.022222962,-0.34174538,-0.52633953,0.68353695,-1.2395136,0.31442684,-0.3728965,-0.32004356,-0.56425095,0.64259344,0.94783306,0.008063267,0.21461213,0.23556092,-1.3329685,0.4244326,-0.39348826,0.0,1.0,0.0,0.0,0.0,0.0,0.0,-0.3082546,0.12633952,-0.13353693,0.7371664,-9.317934,-3.710395,0.2662897,0.2718866,-1.4667928,3.4517488
-4.5544243,29.695126,5.0878205,5.598401,0.7706412,-0.0777902,0.23763324,-0.7570508,-0.61353767,-0.27589458,0.7430337,-0.28969756,0.47329816,0.3134249,0.4988341,-1.1407794,-2.154625,-0.86547965,1.8566027,1.8885936,-0.89139843,0.5609063,-1.0895021,-2.1321921,-0.9263417,1.8808242,1.8454573,-0.92225546,-1.3608271,-1.032005,-0.5181474,1.343167,-0.46972376,0.41528788,0.05764198,-0.35411453,-0.52318096,0.6792416,-1.235213,0.3166572,-0.4462865,-0.3334751,-0.5600138,0.6381887,0.9502783,0.010189879,0.21586521,0.22420882,-1.342933,0.43385285,-0.4579581,0.0,1.0,0.0,0.0,0.0,0.0,0.0,-0.29588544,0.123180956,-0.12924159,0.9829998,-9.713984,-1.0089993,-0.38776398,2.0149767,-1.6496956,3.6316237
-1.7529011,33.6532,7.2200193,5.209697,0.84564537,0.043595433,0.24919261,-0.75772166,-0.6608427,-0.23550929,0.7290125,-0.2748649,0.4449531,0.32018688,0.48513412,-1.1555864,-2.1557431,-0.85344046,1.8533378,1.8899527,-0.8902368,0.54734886,-1.1005285,-2.1371658,-0.9130263,1.8763329,1.8494905,-0.9214431,-1.3539882,-1.1265513,-0.4898314,1.3282635,-0.44289643,0.3989413,0.08947934,-0.36641693,-0.5199871,0.67426366,-1.227492,0.32059592,-0.51267874,-0.3469696,-0.55564976,0.63320535,0.9526413,0.0125504,0.21651629,0.21316084,-1.346819,0.44740018,-0.51387596,0.0,1.0,0.0,0.0,0.0,0.0,0.0,-0.28358305,0.1199871,-0.124263644,0.6815672,-9.536433,3.0548573,-1.3137817,2.4660587,-1.7683506,3.2873497
9.382878,50.345028,14.975562,5.327259,0.87904894,0.31577557,0.2980803,-0.7370866,-0.6806854,-0.09855107,0.7195342,-0.3038298,0.47166473,0.32691196,0.4736402,-1.168597,-2.1470208,-0.84107286,1.8459499,1.896657,-0.8887519,0.5339297,-1.1123464,-2.1411593,-0.89989984,1.8719943,1.8534056,-0.92034173,-1.3381312,-1.2003957,-0.368015,1.3075887,-0.4323671,0.38866448,0.11729919,-0.3785076,-0.5167284,0.6688631,-1.2020103,0.32754076,-0.5469755,-0.36031342,-0.5511093,0.62791026,0.9549085,0.014745686,0.21656652,0.20256169,-1.3253155,0.46692583,-0.5370196,0.0,1.0,0.0,0.0,0.0,0.0,0.0,-0.27149236,0.116728395,-0.118863106,1.5004396,-7.492113,12.6543045,-2.0038128,0.59669614,-1.1384547,2.8502555
19.305212,66.019646,22.46747,5.658534,1.2286391,0.5780771,0.30523258,-0.7295778,-0.7080425,0.08738119,0.6891842,-0.23608068,0.46191013,0.3102283,0.46097192,-1.1831506,-2.1324213,-0.83098143,1.8483862,1.8995966,-0.8893189,0.52068305,-1.1247823,-2.1431084,-0.88709575,1.8679135,1.8572353,-0.9190059,-1.320693,-1.2583393,-0.13512151,1.2712057,-0.40221748,0.3807801,0.13923258,-0.390234,-0.51338196,0.6633506,-1.1619931,0.33703402,-0.5509022,-0.37330627,-0.5463228,0.6226453,0.9571043,0.016215788,0.21588647,0.19256482,-1.2863363,0.49284208,-0.5254718,0.0,1.0,0.0,0.0,0.0,0.0,0.0,-0.25976598,0.11338195,-0.11335057,1.6013145,-5.9253216,23.982546,-3.668785,2.3329914,-0.87485313,2.2656858
7.4892607,57.337437,15.38307,6.173959,0.8142091,0.32082587,0.2554555,-0.74564385,-0.71550846,-0.08574969,0.64336693,-0.25682637,0.38853425,0.281974,0.44611865,-1.1963332,-2.1516833,-0.82275903,1.8422308,1.8960887,-0.89080846,0.5075023,-1.1376245,-2.1438098,-0.8748143,1.8640407,1.8609374,-0.917505,-1.3174477,-1.2930765,-0.047132447,1.2139941,-0.38361898,0.36664551,0.15385121,-0.40163422,-0.5099611,0.65763265,-1.1321057,0.34378746,-0.577496,-0.38600922,-0.5413189,0.6172715,0.9592298,0.017345365,0.2146539,0.18303227,-1.2600619,0.51297975,-0.54395986,0.0,1.0,0.0,0.0,0.0,0.0,0.0,-0.24836576,0.10996112,-0.10763264,0.25908947,-3.5898685,9.190698,-5.650544,1.4319539,-1.470238,1.5178084
-2.3453698,56.484383,11.218691,8.991211,0.49682036,0.14449781,0.18662278,-0.7394208,-0.70304424,-0.1757458,0.65586376,-0.32220507,0.36483213,0.33103645,0.43356025,-1.2079289,-2.1613843,-0.8092279,1.8318202,1.8974205,-0.8844014,0.49433935,-1.1505926,-2.1445956,-0.86295813,1.8601093,1.8644884,-0.9158495,-1.3159302,-1.2983774,-0.08858153,1.1767061,-0.397192,0.35119534,0.16953415,-0.41275978,-0.5064812,0.65159863,-1.1058174,0.34937862,-0.61119497,-0.39850044,-0.53612995,0.6116169,0.96123385,0.018759469,0.21329899,0.17372671,-1.2411097,0.53017515,-0.57550913,0.0,1.0,0.0,0.0,0.0,0.0,0.0,-0.2372402,0.106481165,-0.10159862,0.13115406,-0.6452799,-3.9347126,-3.5812616,-1.611942,-1.5851438,1.5810251
3.1555948,62.904266,14.062112,9.240577,0.6102304,0.1395722,0.1828224,-0.70949715,-0.7158453,-0.077142775,0.65715224,-0.26722366,0.36652845,0.4044917,0.4233896,-1.2221771,-2.15231,-0.7972429,1.833387,1.9011412,-0.87540036,0.481314,-1.1635681,-2.14566,-0.85133284,1.856164,1.867902,-0.9139994,-1.2982762,-1.2975719,-0.111400045,1.1580576,-0.39467877,0.33791927,0.1901809,-0.42358208,-0.5029497,0.6453203,-1.0740714,0.3543609,-0.63251644,-0.41075897,-0.53078365,0.6057517,0.96310604,0.020469313,0.21191749,0.16461691,-1.2159212,0.5453956,-0.5928501,0.0,1.0,0.0,0.0,0.0,0.0,0.0,-0.2264179,0.10294971,-0.095320284,1.7158508,-0.04518032,-1.965791,-1.7555714,-0.08661747,-1.3824165,2.0624042
1.4304485,54.70943,10.679501,6.8469224,0.5678481,-0.07569271,0.2054424,-0.71330655,-0.72265875,-0.18158309,0.57859266,-0.09131721,0.23091479,0.4130936,0.40998334,-1.235834,-2.1638181,-0.7934736,1.8470323,1.8909935,-0.87269,0.46844232,-1.1765343,-2.147422,-0.84015,1.8527799,1.8710902,-0.9119538,-1.2835994,-1.2964351,-0.19714028,1.1054379,-0.3204497,0.31224155,0.20943111,-0.43415642,-0.4993868,0.6386826,-1.0514818,0.35685942,-0.67293,-0.4228344,-0.5253277,0.599574,0.9648995,0.022587102,0.2102715,0.15570699,-1.2000059,0.5551517,-0.62862164,0.0,1.0,0.0,0.0,0.0,0.0,0.0,-0.21584356,0.09938678,-0.08868259,1.4275074,0.0051498413,-8.374992,-5.1422596,7.183099,-2.666384,1.9412249
5.8855276,53.359993,10.941512,4.593251,0.6476432,-0.18915933,0.23603158,-0.69341725,-0.7214521,-0.21398874,0.53108096,0.08163147,0.12972358,0.45352137,0.3991006,-1.2486795,-2.1688209,-0.7870419,1.860943,1.8840625,-0.86660165,0.45577323,-1.1894795,-2.1501188,-0.82965666,1.8506565,1.8739581,-0.9097061,-1.2615143,-1.2942034,-0.2931964,1.0308647,-0.17695165,0.27793443,0.23003669,-0.44451904,-0.49581242,0.6316131,-1.0306042,0.35767514,-0.7169789,-0.43475533,-0.5198002,0.59302557,0.96667844,0.025101021,0.20803921,0.14704512,-1.1844101,0.56073165,-0.66612375,0.0,1.0,0.0,0.0,0.0,0.0,0.0,-0.20548093,0.09581241,-0.081613064,2.1496296,0.12242794,-9.397888,-7.375288,14.10484,-3.567654,2.0908027
2.8754108,43.03751,6.4820614,2.3897789,0.22524837,-0.43182236,0.2857092,-0.6892017,-0.7293161,-0.37419477,0.47806644,0.120399445,-0.06281887,0.470866,0.38685307,-1.2624111,-2.1875384,-0.78185004,1.8626964,1.8676763,-0.8626195,0.44330537,-1.2024399,-2.1543453,-0.82003874,1.8499656,1.876359,-0.9072609,-1.2419515,-1.2970642,-0.4656062,0.93921256,-0.03366385,0.2268338,0.24951251,-0.4547329,-0.49225044,0.6239448,-1.0177323,0.3556243,-0.7824058,-0.4465599,-0.5142784,0.5859111,0.96845126,0.028315358,0.2051368,0.13863301,-1.1736804,0.55817753,-0.7290147,0.0,1.0,0.0,0.0,0.0,0.0,0.0,-0.19526708,0.09225044,-0.07394481,1.9262791,-0.37248135,-17.160332,-9.042072,14.189872,-5.275521,1.9827724
4.864788,49.221466,8.204313,3.7737687,0.092069745,-0.45815742,0.27598664,-0.66242915,-0.7160879,-0.42105645,0.489174,0.08832211,-0.21595816,0.51573104,0.37706244,-1.2740487,-2.196451,-0.7711213,1.8587978,1.8547632,-0.8556878,0.43110543,-1.2153736,-2.160269,-0.8111056,1.8503481,1.8781687,-0.90460974,-1.2128329,-1.2925107,-0.6341395,0.8782915,0.061660074,0.16511956,0.27031156,-0.46477318,-0.48871708,0.61570966,-0.9989232,0.35245827,-0.83571494,-0.45820618,-0.5088062,0.578244,0.970171,0.03239178,0.20175064,0.13044372,-1.1560441,0.55242145,-0.7815292,0.0,1.0,0.0,0.0,0.0,0.0,0.0,-0.1852268,0.08871707,-0.06570965,2.870226,0.35824776,-16.689646,-5.9980154,9.334331,-6.348854,2.0733178
9.751987,55.453243,11.121211,3.9979253,0.11676338,-0.3879819,0.28545433,-0.6424276,-0.71970564,-0.41958058,0.46147758,0.10870637,-0.35054505,0.5291796,0.36686265,-1.2873442,-2.202227,-0.76495785,1.8612188,1.8431141,-0.8516918,0.419236,-1.228275,-2.167467,-0.80268556,1.8514459,1.8793123,-0.901762,-1.1785113,-1.2897004,-0.7475498,0.83001804,0.12500064,0.096725546,0.28952405,-0.47457695,-0.48522282,0.6070463,-0.97356886,0.34830853,-0.87489647,-0.46961975,-0.5034056,0.570158,0.97180885,0.037206743,0.19797632,0.12250902,-1.1300292,0.54504925,-0.81966937,0.0,1.0,0.0,0.0,0.0,0.0,0.0,-0.17542303,0.08522281,-0.057046294,3.3616066,0.18386841,-11.067915,-4.7950983,6.0537996,-7.0214944,1.8866837
2.240725,63.338375,12.432867,8.766942,0.5940417,-0.15822554,0.17481089,-0.6586565,-0.70825493,-0.455429,0.4638494,0.113640025,-0.42908096,0.5647663,0.35337037,-1.2991004,-2.21301,-0.7563006,1.8628099,1.8364042,-0.84528536,0.4075644,-1.2411038,-2.1755195,-0.7945573,1.8529619,1.8797717,-0.898718,-1.1636196,-1.2808827,-0.8235251,0.8072331,0.15953955,0.028300133,0.30922213,-0.48411942,-0.48174763,0.59808594,-0.94686204,0.34699953,-0.9008944,-0.48082733,-0.4979782,0.5618196,0.97335106,0.04261278,0.19392352,0.11474104,-1.1115586,0.5502126,-0.84042394,0.0,1.0,0.0,0.0,0.0,0.0,0.0,-0.16588056,0.08174762,-0.048085928,1.4245749,0.764513,-7.2486997,-2.2347689,3.1083643,-7.060509,1.930064
5.5422726,73.35747,16.55567,10.382958,1.0551181,0.08852732,0.1269428,-0.64473635,-0.7015485,-0.39311796,0.4441983,0.18279926,-0.45323128,0.5686974,0.34309077,-1.3112587,-2.2148314,-0.75013745,1.8712418,1.8344486,-0.84184825,0.39601824,-1.253822,-2.1837053,-0.78661877,1.8548819,1.8795997,-0.8954947,-1.1519439,-1.2690169,-0.81525487,0.78926975,0.20135243,-0.033128574,0.32646823,-0.49334526,-0.47828102,0.58902144,-0.91364646,0.34620386,-0.90609133,-0.4918251,-0.49244976,0.5534578,0.9748186,0.048224345,0.18954809,0.107119754,-1.0892826,0.5621273,-0.8364775,0.0,1.0,0.0,0.0,0.0,0.0,0.0,-0.15665472,0.078281015,-0.039021432,1.0632515,1.0702372,1.3061404,-1.8275976,3.7390203,-6.3664913,1.6712606
8.855794,77.73122,19.070925,9.691995,1.3677193,0.30801782,0.14826402,-0.6536541,-0.69811696,-0.3194485,0.37270918,0.2741092,-0.4924755,0.5605421,0.33065283,-1.3236337,-2.21565,-0.74934787,1.8822927,1.8303522,-0.83944046,0.38449448,-1.2664219,-2.1912389,-0.7791217,1.8574045,1.8788556,-0.89212537,-1.1529362,-1.2573956,-0.7308994,0.7363307,0.2676866,-0.08883386,0.3402244,-0.50221443,-0.47482395,0.57998425,-0.87718105,0.3453349,-0.90077394,-0.5025692,-0.4867649,0.5452301,0.9762638,0.053610243,0.18463233,0.09972793,-1.0631819,0.5789664,-0.8199579,0.0,1.0,0.0,0.0,0.0,0.0,0.0,-0.14778554,0.074823946,-0.029984236,-0.22294521,1.0614872,8.960592,-5.3724766,6.145251,-5.779115,1.3296723
17.206913,90.54241,24.371204,9.995837,1.551944,0.5379044,0.17822032,-0.64224213,-0.6694722,-0.18296835,0.34208938,0.26928017,-0.49893153,0.57085645,0.32027027,-1.3333691,-2.2095356,-0.74491274,1.8843325,1.8289624,-0.83503973,0.37298024,-1.2788006,-2.197258,-0.7722523,1.8604974,1.8776213,-0.8886303,-1.1514808,-1.2316107,-0.5566926,0.669852,0.32142377,-0.13539432,0.35229784,-0.51063347,-0.47139645,0.57121414,-0.8294364,0.34155753,-0.86722505,-0.5129452,-0.4809122,0.5373739,0.9777152,0.05832445,0.17911041,0.09268521,-1.022844,0.5950376,-0.77582115,0.0,1.0,0.0,0.0,0.0,0.0,0.0,-0.13936651,0.07139644,-0.021214128,-0.014162064,2.4929285,18.024302,-6.8201303,4.8375664,-4.8012094,1.121062
20.830772,92.32675,25.211231,8.637194,1.4156599,0.5873707,0.24296808,-0.64552003,-0.65018916,-0.12047998,0.2679351,0.30251104,-0.5222814,0.5689845,0.30842823,-1.3438195,-2.209306,-0.74545884,1.8907485,1.8253932,-0.8317318,0.36145985,-1.2908608,-2.2014194,-0.7662794,1.8641043,1.8759657,-0.8850311,-1.152661,-1.1977531,-0.36736497,0.57254106,0.3724649,-0.17569956,0.3621787,-0.5185547,-0.46802902,0.56282294,-0.7792831,0.33494058,-0.8284402,-0.5228653,-0.47493076,0.52997416,0.97918385,0.06218889,0.17296858,0.08610104,-0.9758652,0.60677725,-0.729749,0.0,1.0,0.0,0.0,0.0,0.0,0.0,-0.13144529,0.068029016,-0.012822926,-0.25880337,3.3161879,19.44856,-9.899092,4.646879,-4.1133585,0.9055555
32.049023,103.813354,30.303812,9.098089,1.6033239,0.60594034,0.21261786,-0.6022212,-0.62579775,0.065803364,0.27937704,0.35059854,-0.5420631,0.5859102,0.30123773,-1.3534405,-2.194839,-0.7383417,1.8991641,1.8217595,-0.8264401,0.35012877,-1.3025261,-2.2032197,-0.76106375,1.8682579,1.8739535,-0.8813346,-1.1270456,-1.1562974,-0.11561904,0.50389785,0.428223,-0.2098774,0.37179026,-0.5259037,-0.46476936,0.5550413,-0.7201449,0.32277325,-0.760894,-0.53224564,-0.46888924,0.5232374,0.9806919,0.06486509,0.16623087,0.080019794,-0.9201022,0.6097494,-0.6566853,0.0,1.0,0.0,0.0,0.0,0.0,0.0,-0.124096274,0.06476936,-0.0050413013,2.4215698,4.086828,25.684422,-7.0680857,5.1797333,-3.4252672,0.8557975
36.497463,102.4446,30.498686,7.619713,1.564975,0.5056908,0.2247171,-0.5856853,-0.6125865,0.1709026,0.22127523,0.44966182,-0.5722178,0.58702224,0.29156023,-1.3637848,-2.1861293,-0.73893625,1.9132241,1.8167317,-0.8226324,0.3391353,-1.3137985,-2.2025027,-0.75656825,1.8731604,1.8716228,-0.87755215,-1.0904499,-1.1176955,0.1355657,0.4309786,0.51003945,-0.24066979,0.3801943,-0.53266716,-0.46165562,0.547957,-0.66228396,0.30751204,-0.6913445,-0.54107285,-0.4628687,0.5172187,0.9822665,0.06616945,0.1588372,0.07446324,-0.8654023,0.6056896,-0.5853173,0.0,1.0,0.0,0.0,0.0,0.0,0.0,-0.117332816,0.06165561,0.0020430088,3.5631418,3.8043737,25.517555,-7.4332595,7.901293,-3.037259,0.7596731
31.416822,100.9872,28.216547,9.344835,1.5052698,0.36557013,0.15580322,-0.56560576,-0.57326204,0.17162108,0.21196869,0.5277881,-0.55803,0.59928733,0.2825747,-1.3711247,-2.1853406,-0.7353714,1.9259392,1.8158197,-0.81762344,0.32855475,-1.3246056,-2.1998942,-0.7526413,1.8790028,1.8690312,-0.873686,-1.0474191,-1.0683329,0.30335027,0.37980106,0.6083106,-0.26502478,0.38860378,-0.53889465,-0.45869923,0.54153544,-0.6102448,0.29179412,-0.62710834,-0.5494213,-0.456892,0.51185167,0.98388696,0.0662771,0.15088998,0.069324926,-0.8205938,0.6005516,-0.5222115,0.0,1.0,0.0,0.0,0.0,0.0,0.0,-0.11110532,0.05869922,0.008464575,4.259801,4.878998,17.04241,-5.159587,9.687352,-2.3744702,0.7959783
36.5423,112.79681,31.397081,11.081661,1.4518402,0.36268318,0.1370513,-0.5143993,-0.50813824,0.29603168,0.20798531,0.5694998,-0.519921,0.6107571,0.2771148,-1.3754194,-2.170291,-0.7318428,1.9359528,1.8170391,-0.8126103,0.31855738,-1.3347164,-2.195692,-0.7490547,1.885801,1.8662639,-0.8697373,-0.9839495,-0.992047,0.4597481,0.35156596,0.7033309,-0.2802462,0.3968218,-0.5445595,-0.45593262,0.53593975,-0.5528229,0.27186364,-0.53920716,-0.55726814,-0.45101547,0.507264,0.985514,0.0652169,0.1426229,0.06455681,-0.76946163,0.58858556,-0.43948343,0.0,1.0,0.0,0.0,0.0,0.0,0.0,-0.1054405,0.05593261,0.014060259,6.324637,7.568848,15.878635,-2.8379798,9.437299,-1.3981998,0.7651329
42.924725,107.86699,31.166758,7.263371,1.1133806,0.30231497,0.25363585,-0.48371434,-0.4998451,0.43369395,0.12778278,0.6360613,-0.50093514,0.6094601,0.27018595,-1.3847009,-2.1523228,-0.7362764,1.9494071,1.8161703,-0.80879134,0.30923095,-1.3441464,-2.1897807,-0.74597365,1.8935515,1.8633877,-0.8657147,-0.91554296,-0.9269233,0.6355248,0.2936848,0.79888636,-0.28963828,0.40393305,-0.5496578,-0.45338345,0.5312093,-0.49661806,0.24964514,-0.45431793,-0.5645561,-0.44532204,0.50343484,0.9871413,0.06291768,0.13401283,0.06028092,-0.7129495,0.5674956,-0.3660313,0.0,1.0,0.0,0.0,0.0,0.0,0.0,-0.100342155,0.05338344,0.018790722,6.8410516,6.445861,17.770077,-5.7524085,9.543395,-0.7729471,0.6744504
41.57877,101.36551,27.960379,3.2616346,0.28162056,0.25359958,0.4803998,-0.48645297,-0.42727083,0.40594417,-0.042989388,0.6584536,-0.47038645,0.59704334,0.26058567,-1.3868735,-2.1491864,-0.7502726,1.9593968,1.816349,-0.80601037,0.30042338,-1.3527676,-2.1826677,-0.7441789,1.9021297,1.86046,-0.86163586,-0.8690827,-0.8407369,0.7366786,0.14177293,0.87788486,-0.29312146,0.40928474,-0.55421066,-0.45105934,0.5272009,-0.4430086,0.2271439,-0.38717628,-0.5711956,-0.43989658,0.5001553,0.98872316,0.05971246,0.1250668,0.05673672,-0.6458604,0.5383242,-0.31726405,0.0,1.0,0.0,0.0,0.0,0.0,0.0,-0.09578931,0.051059335,0.022799134,4.667914,8.557665,10.113775,-15.091607,8.048069,-0.09174943,0.5600929
45.13738,101.808685,27.1929,0.10660535,-0.5527502,0.19047657,0.67353946,-0.45479602,-0.3416113,0.3917893,-0.17439076,0.6713511,-0.38869426,0.586163,0.2549438,-1.3869287,-2.143489,-0.76161796,1.9692647,1.8215907,-0.8030196,0.29205397,-1.3603035,-2.1750665,-0.74438304,1.9113483,1.8575726,-0.8575158,-0.8260811,-0.72463095,0.7672166,-0.07395141,0.9375315,-0.28613925,0.41322127,-0.558218,-0.44897938,0.52382505,-0.38787565,0.2021921,-0.3254282,-0.57704735,-0.43486118,0.49728775,0.9901959,0.05601044,0.11593409,0.05416903,-0.5631113,0.4954667,-0.27848697,0.0,1.0,0.0,0.0,0.0,0.0,0.0,-0.091781974,0.04897937,0.026174963,4.347205,11.570406,2.8527021,-21.421932,6.3152432,1.05685,0.48480034
