Afshin1997/kuka_rl_ros2/src/catch_and_throw/input_files/idealpd/recorded_trajectories/env_279_data.csv
torque0,torque1,torque2,torque3,torque4,torque5,torque6,action0,action1,action2,action3,action4,action5,action6,set_target_0,set_target_1,set_target_2,set_target_3,set_target_4,set_target_5,set_target_6,joint_pos_0,joint_pos_1,joint_pos_2,joint_pos_3,joint_pos_4,joint_pos_5,joint_pos_6,joint_vel_0,joint_vel_1,joint_vel_2,joint_vel_3,joint_vel_4,joint_vel_5,joint_vel_6,tennisball_pos_0,tennisball_pos_1,tennisball_pos_2,tennisball_lin_vel_0,tennisball_lin_vel_1,tennisball_lin_vel_2,end_effector_pos_0,end_effector_pos_1,end_effector_pos_2,end_effector_rot_0,end_effector_rot_1,end_effector_rot_2,end_effector_rot_3,end_effector_lin_vel_0,end_effector_lin_vel_1,end_effector_lin_vel_2,obs_task_0,obs_task_1,obs_task_2,obs_task_3,obs_task_4,obs_task_5,obs_task_6,to_final_target_0,to_final_target_1,to_final_target_2,joint_acc_0,joint_acc_1,joint_acc_2,joint_acc_3,joint_acc_4,joint_acc_5,joint_acc_6
0.0,0.0,0.0,0.0,0.0,0.0,0.0,0.0,0.0,0.0,0.0,0.0,0.0,0.0,1.7802359,-1.0646509,-1.8151424,-1.1170107,1.9373155,1.1170107,-0.91629785,1.7802359,-1.0646509,-1.8151424,-1.1170107,1.9373155,1.1170107,-0.91629785,0.0,0.0,0.0,0.0,0.0,0.0,0.0,3.078007,-0.5503483,0.12847677,-3.817123,0.14362517,5.237074,0.530416,-0.45449638,0.693097,0.5745483,0.17512383,0.15255436,0.7848268,0.0,0.0,0.0,1.0,0.0,0.0,0.0,0.0,0.0,0.0,-3.7280068,0.15034828,0.42152324,0.0,0.0,0.0,0.0,0.0,0.0,0.0
0.0,0.0,0.0,0.0,0.0,0.0,0.0,0.0,0.0,0.0,0.0,0.0,0.0,0.0,1.7802359,-1.0646509,-1.8151424,-1.1170107,1.9373155,1.1170107,-0.91629785,1.7802359,-1.0646509,-1.8151424,-1.1170107,1.9373155,1.1170107,-0.91629785,0.0,0.0,0.0,0.0,0.0,0.0,0.0,3.078007,-0.5503483,0.12847677,-3.817123,0.14362517,5.237074,0.530416,-0.45449638,0.693097,0.5745483,0.17512383,0.15255436,0.7848268,0.0,0.0,0.0,1.0,0.0,0.0,0.0,0.0,0.0,0.0,-3.7280068,0.15034828,0.42152324,0.0,0.0,0.0,0.0,0.0,0.0,0.0
0.0,0.0,0.0,0.0,0.0,0.0,0.0,0.0,0.0,0.0,0.0,0.0,0.0,0.0,1.7802359,-1.0646509,-1.8151424,-1.1170107,1.9373155,1.1170107,-0.91629785,1.7802359,-1.0646509,-1.8151424,-1.1170107,1.9373155,1.1170107,-0.91629785,0.0,0.0,0.0,0.0,0.0,0.0,0.0,3.078007,-0.5503483,0.12847677,-3.817123,0.14362517,5.237074,0.530416,-0.45449638,0.693097,0.5745483,0.17512383,0.15255436,0.7848268,0.0,0.0,0.0,1.0,0.0,0.0,0.0,0.0,0.0,0.0,-3.7280068,0.15034828,0.42152324,0.0,0.0,0.0,0.0,0.0,0.0,0.0
-176.0,63.788616,-8.849926,110.0,11.166238,4.563596,-3.8297637,-0.82209224,0.3408466,-0.5822443,0.7395722,0.32726678,0.62986785,-0.5695679,1.6980267,-1.0305662,-1.8733668,-1.0430535,1.9700421,1.1799974,-0.9732546,1.7789751,-1.0623621,-1.8213966,-1.1119524,1.9413686,1.1220881,-0.91687864,-0.16771157,0.30431244,-0.8333247,0.6748203,0.53980803,0.6750924,-0.07712019,3.0398643,-0.54891396,0.18007177,-3.8133068,0.14348158,5.1336517,0.5283737,-0.4576969,0.693785,0.57816064,0.17370647,0.1515715,0.7826764,-0.27197316,-0.42700464,0.09141454,1.0,0.0,0.0,0.0,0.0,0.0,0.0,-3.6898642,0.14891395,0.36992824,-16.688566,30.2234,-83.1829,67.57904,53.76604,66.98645,-7.601465
-176.0,-24.820303,-43.147327,110.0,13.291114,1.7940862,-3.321986,-0.8195209,-0.12389341,-0.56332606,0.70874757,0.450916,0.6073051,-0.56585205,1.697023,-1.0747514,-1.8777292,-1.0410776,1.9864602,1.1828185,-0.97346383,1.7774283,-1.0594076,-1.8366973,-1.0977618,1.9506783,1.1351382,-0.916913,-0.15741602,0.27309117,-1.7104229,1.6650993,1.0344445,1.4600778,0.0064850426,3.0017598,-0.5474796,0.23063335,-3.8094945,0.14333813,5.0303326,0.52373314,-0.466053,0.69456387,0.5863308,0.17031889,0.14830357,0.77795476,-0.52808374,-0.9686181,0.07885283,1.0,0.0,0.0,0.0,0.0,0.0,0.0,-3.6517596,0.14747962,0.31936666,-1.1318326,-8.938402,-72.17536,98.40062,41.404343,62.05516,3.9670463
-159.41107,110.32162,27.459087,92.103294,8.694944,7.7535825,-2.0663464,-0.77325404,0.3427019,-0.09902473,0.6132915,0.47142154,0.67269105,-0.5373474,1.7001028,-1.0251374,-1.8465998,-1.0364326,1.9978205,1.2024072,-0.9706477,1.7725607,-1.0557207,-1.8525283,-1.0795466,1.9615102,1.1496016,-0.9172029,-0.59678173,0.39714316,-1.5342307,1.8747497,1.0943266,1.4345721,-0.042230275,2.9636931,-0.5460472,0.28016248,-3.805686,0.14319482,4.9271173,0.51621914,-0.47731972,0.69685656,0.5974633,0.16559774,0.14378372,0.77132434,-0.8335744,-1.1722969,0.28369066,1.0,0.0,0.0,0.0,0.0,0.0,0.0,-3.6136932,0.1460472,0.26983753,-43.953682,11.40706,19.520426,21.310377,4.47917,-4.6922445,-5.2772117
-102.27112,115.85564,40.33845,57.941105,5.13998,7.957251,-0.57946604,-0.77611446,0.21686153,-0.020478768,0.62146246,0.45176074,0.63862956,-0.5547196,1.6949493,-1.0340345,-1.8545762,-1.0174003,2.0066862,1.2134645,-0.97267485,1.7633425,-1.0515455,-1.8638332,-1.061608,1.9717717,1.1629874,-0.9180612,-1.0314415,0.42178318,-0.9880047,1.7671379,0.99779636,1.3021613,-0.10252668,2.9256644,-0.5446167,0.32866025,-3.8018813,0.14305165,4.824005,0.5061431,-0.48934555,0.70101345,0.6097069,0.159721,0.13845728,0.7639217,-1.0772208,-1.201339,0.46490744,1.0,0.0,0.0,0.0,0.0,0.0,0.0,-3.5756645,0.1446167,0.22133976,-43.835247,1.7190397,56.955765,-10.688138,-11.297857,-14.568901,-6.683339
-48.638786,125.03493,46.7198,32.17301,2.0136409,6.932509,0.1159538,-0.797033,0.30924588,-0.06495134,0.62263185,0.50658566,0.63873774,-0.551619,1.6836392,-1.020621,-1.8703283,-0.99934477,2.0224302,1.2268611,-0.9732231,1.7505461,-1.0468725,-1.869765,-1.0458094,1.9809346,1.174935,-0.91949457,-1.3638258,0.48074093,-0.45506132,1.516848,0.8851475,1.1568841,-0.15930504,2.8876739,-0.5431862,0.3761277,-3.7980802,0.14290863,4.720996,0.49427128,-0.50081635,0.70673245,0.6219162,0.152898,0.13269544,0.7564616,-1.2364105,-1.1158055,0.6109922,1.0,0.0,0.0,0.0,0.0,0.0,0.0,-3.537674,0.14318618,0.17387232,-33.69603,5.3704796,55.227448,-25.211216,-12.452066,-15.164757,-6.3790293
-9.380051,121.556656,44.39724,15.826313,-0.113642514,5.0636683,0.23044476,-0.81185675,0.39972228,-0.11645331,0.6245989,0.5129501,0.62450284,-0.5534335,1.6693604,-1.0069003,-1.8814104,-0.9833495,2.0322297,1.2373853,-0.9748379,1.7355028,-1.041305,-1.8718288,-1.032435,1.9891381,1.185557,-0.92143244,-1.5526155,0.58088017,-0.11918728,1.276668,0.796533,1.0298462,-0.20740876,2.8497214,-0.5417595,0.4225658,-3.7942827,0.14276576,4.6180897,0.48141956,-0.5111084,0.7135801,0.6336708,0.14546403,0.12708056,0.7491008,-1.3130623,-0.98585963,0.7104908,1.0,0.0,0.0,0.0,0.0,0.0,0.0,-3.4997215,0.14175949,0.12743422,-19.278835,9.659672,34.878273,-24.280811,-9.496916,-12.883902,-5.4221153
15.235295,123.3095,42.92806,8.406544,-1.301579,3.7053027,0.100261845,-0.8229792,0.5150436,-0.14091514,0.6069101,0.54942113,0.6164817,-0.5533746,1.6532049,-0.9898006,-1.8859203,-0.97174406,2.0440803,1.2472051,-0.9767699,1.7194601,-1.0343221,-1.8720806,-1.0209852,1.9968114,1.1950613,-0.923788,-1.6226257,0.7365713,0.009242066,1.1001625,0.75658673,0.9240107,-0.24685231,2.8118072,-0.5403328,0.4679756,-3.790489,0.14262302,4.5152864,0.46821547,-0.51999474,0.721274,0.64495754,0.13768984,0.12213283,0.7417242,-1.3326269,-0.84195846,0.78891915,1.0,0.0,0.0,0.0,0.0,0.0,0.0,-3.4618073,0.14033279,0.082024425,-7.3520184,15.304148,13.726288,-17.93108,-4.3001294,-10.577499,-4.492977
26.323002,117.96773,39.550476,6.0401144,-1.6278226,2.7101688,-0.0384461,-0.8258238,0.58027667,-0.13191634,0.596002,0.5586039,0.6142159,-0.5565336,1.6368778,-0.97629446,-1.8852721,-0.9613851,2.0526717,1.256483,-0.97944134,1.7032973,-1.0257066,-1.8720329,-1.0107142,2.0043247,1.2036463,-0.926485,-1.6151702,0.90239424,0.005456248,1.001814,0.7488786,0.8368857,-0.27886972,2.773931,-0.5389061,0.5123581,-3.786699,0.14248043,4.412586,0.45503664,-0.52752876,0.7296372,0.6558948,0.1297364,0.118093655,0.7341828,-1.3208287,-0.70890665,0.8513664,1.0,0.0,0.0,0.0,0.0,0.0,0.0,-3.4239311,0.13890609,0.037641883,0.45468807,16.3844,0.25961512,-10.102963,-0.90914965,-8.6691265,-3.679812
30.118105,109.77441,36.197475,5.355635,-1.5143275,2.1202123,-0.060909946,-0.82218593,0.62884957,-0.109544344,0.5693846,0.57937676,0.62388027,-0.5560602,1.6210786,-0.9628217,-1.8829873,-0.9537757,2.0622623,1.2660344,-0.982091,1.6874892,-1.0155767,-1.8723991,-1.0010477,2.0119388,1.2114836,-0.92945474,-1.5699922,1.0494859,-0.04897839,0.95419335,0.7650712,0.76614976,-0.30450028,2.736092,-0.5374832,0.5557144,-3.782913,0.14233798,4.309988,0.44206,-0.5338497,0.73853284,0.66655827,0.12168667,0.11492175,0.7264196,-1.2961093,-0.59174055,0.9015831,1.0,0.0,0.0,0.0,0.0,0.0,0.0,-3.3860922,0.13748321,-0.0057144165,4.273844,14.556181,-4.9272523,-5.0295353,1.5520096,-7.0530415,-2.990508
27.317156,98.63846,32.148575,6.244946,-1.1197908,1.7742493,-0.054635227,-0.81808007,0.65877855,-0.09248166,0.55684215,0.575478,0.6337159,-0.5557505,1.6056812,-0.94969887,-1.8816472,-0.9453635,2.0694866,1.2748551,-0.9850298,1.6721884,-1.0042604,-1.8733108,-0.9916054,2.019736,1.2187163,-0.9326429,-1.5176334,1.1584417,-0.103898235,0.94006544,0.78452694,0.70886725,-0.324906,2.6982913,-0.53606033,0.5980455,-3.7791307,0.14219567,4.207493,0.42931318,-0.53915405,0.7478397,0.6769891,0.11356541,0.11243482,0.71843374,-1.2722735,-0.49496162,0.93948835,1.0,0.0,0.0,0.0,0.0,0.0,0.0,-3.3482914,0.13606033,-0.048045516,5.032921,10.773301,-5.0437794,-1.6724586,1.9098282,-5.747843,-2.4255514
22.747822,91.41571,29.945202,7.8852353,-0.6388144,1.7624607,0.0048796916,-0.8169375,0.6881972,-0.05461385,0.543492,0.58764195,0.6444047,-0.55897063,1.5904946,-0.9354407,-1.8787721,-0.9372562,2.0785003,1.2831568,-0.98853993,1.6573244,-0.9921144,-1.8744857,-0.98220694,2.027743,1.2254606,-0.9360084,-1.4768229,1.2328882,-0.12057229,0.9389014,0.8060029,0.6626146,-0.34161657,2.6605287,-0.53463936,0.63935244,-3.7753522,0.1420535,4.1050997,0.41673183,-0.54359436,0.7574959,0.68718654,0.10533713,0.11037028,0.71027964,-1.2574279,-0.4120548,0.97352153,1.0,0.0,0.0,0.0,0.0,0.0,0.0,-3.3105288,0.13463935,-0.08935243,3.8938046,7.3337317,-1.2110859,-0.3612399,2.1076918,-4.695463,-2.035457
17.986984,83.755875,27.400436,9.183329,-0.24387196,1.7126274,0.049060643,-0.810345,0.7030597,-0.03264697,0.5422536,0.5874767,0.6479276,-0.55682015,1.5762899,-0.9218085,-1.8777504,-0.92798156,2.0864909,1.2902534,-0.9916904,1.6427656,-0.97946584,-1.8755825,-0.9727675,2.0359256,1.2318064,-0.939516,-1.4495198,1.2752094,-0.1043776,0.94495654,0.82225335,0.62497103,-0.3548906,2.6228032,-0.5332203,0.6796362,-3.7715776,0.14191148,4.002809,0.40422916,-0.54729843,0.7674408,0.6971374,0.09696651,0.10850349,0.7020142,-1.2508441,-0.34142253,1.0007088,1.0,0.0,0.0,0.0,0.0,0.0,0.0,-3.2728033,0.13322029,-0.12963617,2.556157,4.132223,2.0799935,0.37573576,1.5807629,-3.855157,-1.6745567
15.455652,77.89903,25.429441,9.158531,-0.053798676,1.6373664,0.12025317,-0.8066998,0.7146916,-0.0074517583,0.52342206,0.6012087,0.6469509,-0.55863756,1.5620956,-0.90799665,-1.8763276,-0.9204253,2.0960464,1.2965015,-0.99537975,1.6283823,-0.9665569,-1.8763282,-0.96334326,2.0442646,1.2378279,-0.94313806,-1.4352095,1.2958797,-0.06310049,0.9408057,0.83808875,0.59421366,-0.3657768,2.585116,-0.5318012,0.7188978,-3.7678068,0.14176959,3.9006212,0.39175987,-0.55034256,0.7775971,0.7068004,0.088448815,0.10667528,0.69370764,-1.247953,-0.27658057,1.0195581,1.0,0.0,0.0,0.0,0.0,0.0,0.0,-3.235116,0.13180122,-0.16889781,1.2586117,1.9789696,4.600419,-0.64189434,1.5356183,-3.1514525,-1.4261842
15.236077,74.99171,24.384953,8.21407,-0.06353414,1.5676872,0.2038424,-0.8061583,0.72944105,0.020299211,0.4913138,0.6205394,0.6537046,-0.5513613,1.5477664,-0.8936128,-1.8742983,-0.91421187,2.1063185,1.3031983,-0.9982742,1.6140639,-0.953503,-1.8765514,-0.9541222,2.0527866,1.24359,-0.94684786,-1.4313127,1.3082817,-0.007058655,0.9151139,0.8567223,0.5700806,-0.37390995,2.5474658,-0.530386,0.7571383,-3.7640398,0.14162785,3.7985356,0.37932253,-0.55273247,0.78788984,0.7161075,0.079805985,0.10479747,0.6854477,-1.2440021,-0.21115176,1.0311763,1.0,0.0,0.0,0.0,0.0,0.0,0.0,-3.197466,0.13038597,-0.2071383,0.21026134,1.1624575,6.092886,-2.799821,1.8134832,-2.451992,-1.1457503
14.185642,71.867065,23.027328,8.15078,-0.033851683,1.4545647,0.21734628,-0.8041152,0.7323811,0.04419651,0.48479992,0.62007874,0.65519524,-0.5469227,1.5336523,-0.8802649,-1.8721317,-0.9056422,2.1147945,1.3091096,-1.0015402,1.5997492,-0.94037855,-1.8761947,-0.94518435,2.0614612,1.2491461,-0.9506244,-1.4322044,1.3135252,0.051406257,0.8859514,0.870931,0.5509245,-0.3798759,2.5098538,-0.5289707,0.79435873,-3.7602766,0.14148626,3.6965523,0.36692572,-0.55449486,0.7982576,0.7250362,0.07105185,0.10284735,0.67727137,-1.2395308,-0.14896412,1.0369241,1.0,0.0,0.0,0.0,0.0,0.0,0.0,-3.159854,0.12897071,-0.24435872,-0.26099682,0.45809746,6.3126383,-3.1404018,1.3853192,-1.9253016,-0.91445446
13.4314,68.8312,21.410257,7.6924424,-0.07828939,1.266959,0.21576944,-0.8063885,0.73934203,0.050488736,0.45991912,0.6367195,0.6551915,-0.5410382,1.5191103,-0.86644435,-1.8711458,-0.89919245,2.1251333,1.3146652,-1.0047282,1.5853983,-0.92720735,-1.875365,-0.9366013,2.0702884,1.254542,-0.9544448,-1.436735,1.3181777,0.09514021,0.84834266,0.886868,0.53578395,-0.38384858,2.472279,-0.52755547,0.8305601,-3.7565172,0.1413448,3.5946705,0.354589,-0.5556545,0.8086248,0.7335875,0.062234044,0.1008513,0.66918254,-1.232301,-0.09017578,1.0346146,1.0,0.0,0.0,0.0,0.0,0.0,0.0,-3.1222792,0.12755546,-0.28056008,-0.6197691,0.41205883,4.802823,-3.9857268,1.5784621,-1.485157,-0.69488287
15.766484,67.004974,20.423584,5.9675364,-0.3261394,1.0364046,0.23704985,-0.79915833,0.7481297,0.05332184,0.42334393,0.6418393,0.65886784,-0.53504324,1.5054824,-0.8523944,-1.8700328,-0.8942669,2.1344724,1.3204287,-1.0079491,1.5710341,-0.9139656,-1.8742359,-0.9284922,2.0792644,1.2598139,-0.95829386,-1.4368366,1.3259945,0.12001602,0.79770535,0.90078795,0.52449626,-0.38619557,2.434742,-0.526144,0.8657434,-3.7527616,0.14120348,3.4928908,0.3423872,-0.5562248,0.8189122,0.74174505,0.053416446,0.09888252,0.66119826,-1.215745,-0.030218925,1.0242648,1.0,0.0,0.0,0.0,0.0,0.0,0.0,-3.084742,0.12614402,-0.3157434,-0.17251968,0.7426262,2.883792,-5.297053,1.3979673,-1.0397077,-0.5204618
18.464071,64.77926,19.509123,3.725,-0.5852578,0.79885715,0.29686806,-0.79979753,0.75158167,0.06631228,0.3667712,0.6524486,0.6539859,-0.5289078,1.4910543,-0.8388074,-1.8676046,-0.89181507,2.1445093,1.3252125,-1.0111847,1.5566756,-0.90064085,-1.8729236,-0.92106116,2.0883777,1.2649885,-0.96215624,-1.4360678,1.3344946,0.13623908,0.7240114,0.9148272,0.51565874,-0.3872343,2.3972425,-0.5247326,0.8999097,-3.7490096,0.1410623,3.391213,0.3304243,-0.55617523,0.82902986,0.74946576,0.04467913,0.09700989,0.65337116,-1.1887844,0.031070072,1.0048856,1.0,0.0,0.0,0.0,0.0,0.0,0.0,-3.0472426,0.124732584,-0.34990966,-0.08537769,0.8270979,1.9969612,-7.6144934,1.4248848,-0.72522163,-0.37837029
19.254097,64.501564,19.035814,3.1343327,-0.7349889,0.66553235,0.29641345,-0.8021303,0.764327,0.066656634,0.3256793,0.65040284,0.6613868,-0.5199267,1.4764625,-0.82420814,-1.8662579,-0.88849324,2.153418,1.3311272,-1.014149,1.542317,-0.88718927,-1.8715274,-0.914436,2.097594,1.2700945,-0.9660186,-1.4362608,1.348601,0.14190349,0.64125705,0.924077,0.5096202,-0.38684136,2.3597803,-0.52332306,0.93305993,-3.7452612,0.14092128,3.2896366,0.31876945,-0.55550957,0.8389331,0.7567408,0.03606563,0.09530815,0.6457235,-1.1560634,0.09229274,0.9824871,1.0,0.0,0.0,0.0,0.0,0.0,0.0,-3.0097804,0.12332305,-0.38305992,-0.17871857,1.3988256,0.9117633,-8.517588,0.9654641,-0.41331053,-0.21785498
22.187977,61.56943,18.110859,0.9291296,-0.94334275,0.40209365,0.3587525,-0.7946561,0.76312053,0.070351,0.26073515,0.6631384,0.66212815,-0.5155372,1.4628514,-0.8108772,-1.8644923,-0.88836247,2.1639078,1.3363073,-1.0175723,1.5279909,-0.8736242,-1.8701065,-0.9087645,2.1069133,1.2751547,-0.9698724,-1.4318628,1.3592477,0.14308548,0.5415919,0.93476653,0.5056607,-0.3857176,2.3223557,-0.52191544,0.9651952,-3.7415166,0.14078039,3.1881618,0.30751562,-0.5542393,0.84855217,0.7635408,0.027640149,0.09380877,0.6383113,-1.1128067,0.15203707,0.95186985,1.0,0.0,0.0,0.0,0.0,0.0,0.0,-2.9723558,0.12191543,-0.41519517,0.29230118,1.0727882,0.42501092,-10.214305,1.1284947,-0.14139414,-0.13006926
26.81277,61.66883,18.684244,-1.7200046,-1.2146301,0.2701866,0.487195,-0.7937696,0.76771605,0.11163398,0.16857582,0.6691095,0.65621334,-0.5225104,1.448614,-0.7968526,-1.8589431,-0.8919069,2.1738243,1.3407761,-1.0221235,1.5137144,-0.8599628,-1.8685024,-0.90430987,2.1163394,1.2801825,-0.9737205,-1.4268456,1.3684874,0.16703446,0.41260564,0.94506454,0.5027396,-0.38525185,2.2849689,-0.5205078,0.99631643,-3.7377758,0.14063963,3.0867887,0.29677773,-0.5523262,0.857839,0.7697819,0.019447139,0.092496924,0.63127005,-1.0575926,0.21670154,0.91757435,1.0,0.0,0.0,0.0,0.0,0.0,0.0,-2.934969,0.12050781,-0.44631642,0.36063194,0.9482622,2.6917725,-13.139492,1.0996103,0.028777122,-0.18689036
30.683153,62.156986,19.249432,-4.044311,-1.4694663,0.14586815,0.6089545,-0.7957442,0.7760364,0.14710924,0.0671235,0.6737589,0.6512386,-0.50680035,1.43414,-0.7823592,-1.8537915,-0.8975975,2.1837153,1.3453064,-1.0244005,1.4994704,-0.84619844,-1.8665016,-0.90136874,2.125857,1.2851835,-0.97755235,-1.424078,1.3791307,0.21196975,0.25378942,0.95456904,0.50058734,-0.38318363,2.2476192,-0.519104,1.0264248,-3.7340388,0.14049903,2.9855165,0.28667116,-0.5497322,0.86675954,0.7753767,0.011525117,0.09136483,0.62474847,-0.9912388,0.28553763,0.87996286,1.0,0.0,0.0,0.0,0.0,0.0,0.0,-2.8976192,0.119104,-0.47642475,0.14748573,1.106286,4.7586203,-16.103245,1.04357,0.1675725,-0.0049352646
29.271008,59.946068,18.319674,-3.4744854,-1.3806529,0.0027094483,0.58816516,-0.797139,0.7771912,0.15842474,0.0063629244,0.67628235,0.6487394,-0.4980177,1.4197564,-0.76847935,-1.8506591,-0.90073246,2.1934853,1.3500575,-1.0273541,1.4852358,-0.8323482,-1.8640506,-0.89998114,2.1354587,1.2901655,-0.9813556,-1.4236648,1.3872977,0.25675124,0.09984872,0.96248734,0.49872914,-0.3800274,2.2103066,-0.5177002,1.055521,-3.7303057,0.14035855,2.884346,0.27722168,-0.54649353,0.8752952,0.78033346,0.0038976974,0.090403415,0.61878234,-0.9249229,0.3469345,0.8410167,1.0,0.0,0.0,0.0,0.0,0.0,0.0,-2.8603067,0.11770019,-0.505521,-0.06287098,0.8760452,4.6617956,-15.590501,0.9248853,0.20521283,0.14089346
27.38341,58.090446,17.532408,-2.588533,-1.2545979,-0.10074057,0.5659695,-0.80229443,0.7794675,0.18526497,-0.06949733,0.68020654,0.6449714,-0.48049223,1.4050064,-0.75440145,-1.8455241,-0.90693086,2.2034793,1.3546627,-1.0294049,1.4709727,-0.8184303,-1.8611343,-0.9000889,2.1451328,1.2951285,-0.98511595,-1.4274106,1.393427,0.30371323,-0.04829597,0.96976805,0.49685422,-0.37508944,2.1730313,-0.5162964,1.0836064,-3.7265763,0.14021821,2.7832766,0.26841545,-0.54268265,0.88344413,0.784697,-0.003423699,0.08960237,0.61335987,-0.8605747,0.40149266,0.8019754,1.0,0.0,0.0,0.0,0.0,0.0,0.0,-2.8230314,0.11629638,-0.53360635,-0.45928955,0.6867409,4.809177,-14.988028,0.8971214,0.20131469,0.35244823
24.780493,57.746216,17.345785,-0.34024668,-1.0017486,-0.09475708,0.50748694,-0.8019565,0.78066266,0.22099036,-0.11610925,0.6797531,0.6446778,-0.46455204,1.390777,-0.740364,-1.8390353,-0.91169983,2.213108,1.3595963,-1.0315711,1.4566733,-0.80446756,-1.8577011,-0.90148795,2.154864,1.3000723,-0.98881716,-1.4310786,1.3974196,0.3565026,-0.17096184,0.9749544,0.4949565,-0.3687944,2.1357937,-0.5148964,1.1106818,-3.7228503,0.14007802,2.6823082,0.26020002,-0.53837013,0.8912505,0.78852654,-0.010484352,0.088923566,0.6084476,-0.80295736,0.44976157,0.7690417,1.0,0.0,0.0,0.0,0.0,0.0,0.0,-2.7857938,0.11489639,-0.56068176,-0.43168068,0.4851818,5.3175983,-12.417171,0.7317543,0.17214417,0.5119741
24.672352,54.214775,15.994509,-1.0014482,-1.0549777,-0.33196574,0.4917168,-0.7987911,0.78095645,0.2229293,-0.2021318,0.68257594,0.6469411,-0.4519254,1.3767941,-0.7263719,-1.8354081,-0.92170113,2.2231216,1.3647665,-1.0340097,1.4423586,-0.790481,-1.8538578,-0.9041239,2.1646411,1.3050028,-0.99244875,-1.4315381,1.3993558,0.3936417,-0.29495722,0.97937536,0.49375314,-0.3616317,2.0985932,-0.5134964,1.1367482,-3.7191281,0.13993798,2.5814407,0.2525835,-0.5336132,0.8986844,0.79186386,-0.01724765,0.088389374,0.6040211,-0.74133384,0.49124283,0.7301528,1.0,0.0,0.0,0.0,0.0,0.0,0.0,-2.7485933,0.11349639,-0.5867482,-0.08819103,0.29256344,3.6956012,-12.541103,0.66906214,0.26094317,0.625968
24.755924,53.292618,15.727871,-0.9864335,-1.0613636,-0.43864134,0.49076164,-0.7973697,0.783647,0.25081086,-0.2704454,0.6829451,0.6418833,-0.43067944,1.3626217,-0.71211624,-1.8287767,-0.93116844,2.2329357,1.3691912,-1.0355167,1.4280573,-0.77647436,-1.8496501,-0.90798056,2.1744525,1.30992,-0.9959993,-1.4296455,1.4015212,0.42958528,-0.4162861,0.98257315,0.49237293,-0.35301667,2.06143,-0.5120983,1.1618068,-3.7154098,0.13979807,2.480674,0.24559498,-0.52846336,0.9057289,0.7947276,-0.023686724,0.08801701,0.6000832,-0.6779393,0.5295894,0.69105905,1.0,0.0,0.0,0.0,0.0,0.0,0.0,-2.71143,0.11209831,-0.6118068,0.16629696,0.32720566,3.5232902,-12.2583275,0.5701184,0.24858117,0.79330206
25.651703,52.227894,15.58905,-1.6352286,-1.1209562,-0.5496317,0.52275807,-0.7955939,0.7829581,0.28219077,-0.34837323,0.6836489,0.6476721,-0.40850303,1.3484979,-0.6981785,-1.821431,-0.94281787,2.2428174,1.3746872,-1.0368496,1.4137884,-0.76245534,-1.8450458,-0.9130894,2.1842906,1.3148295,-0.99945253,-1.4258885,1.402533,0.47028983,-0.5428322,0.98498046,0.4919027,-0.3430071,2.024304,-0.51070213,1.1858585,-3.7116952,0.1396583,2.380008,0.23926497,-0.52293396,0.91237056,0.797112,-0.029783294,0.08780566,0.5966704,-0.6108678,0.5662484,0.6501898,1.0,0.0,0.0,0.0,0.0,0.0,0.0,-2.674304,0.11070213,-0.6358585,0.3746271,0.22308826,3.949678,-12.76114,0.51229,0.35309792,0.95448494
18.697912,53.041656,15.575912,4.2884846,-0.4972245,-0.31922534,0.35661075,-0.79848623,0.7816716,0.30930454,-0.3174446,0.67621595,0.6504297,-0.36481035,1.3339398,-0.6842882,-1.8141154,-0.9448339,2.2519124,1.3798724,-1.0359336,1.3995405,-0.74843633,-1.8400066,-0.9189993,2.194125,1.3197333,-1.0027831,-1.4245262,1.4021254,0.5146933,-0.6074107,0.9839695,0.4910866,-0.32984814,1.987215,-0.50930595,1.2089043,-3.7079844,0.13951868,2.2794428,0.23344183,-0.51709175,0.91872793,0.7991223,-0.03566971,0.087698884,0.5936667,-0.5655511,0.59508395,0.62569946,1.0,0.0,0.0,0.0,0.0,0.0,0.0,-2.6372151,0.10930595,-0.65890425,0.12290478,0.089764595,4.270273,-6.5737963,0.2222538,0.23666024,1.2678742
13.606659,55.38748,16.208485,9.514266,0.0055304766,-0.069257155,0.21607505,-0.79487926,0.786626,0.3352299,-0.29717058,0.6771371,0.6556167,-0.33033973,1.3200526,-0.66977376,-1.8064836,-0.9487164,2.2618387,1.3852949,-1.035817,1.3853136,-0.7344011,-1.8345058,-0.92513144,2.2039478,1.3246313,-1.0059664,-1.4222018,1.404463,0.5610753,-0.61558914,0.9830447,0.49026397,-0.3147146,1.9501629,-0.5079117,1.2309451,-3.704277,0.13937919,2.178978,0.22793388,-0.5109806,0.9249679,0.800878,-0.04153056,0.087626725,0.5909239,-0.5384096,0.62099916,0.61794615,1.0,0.0,0.0,0.0,0.0,0.0,0.0,-2.600163,0.107911676,-0.6809451,0.20320415,0.37260056,4.4344664,-0.94388723,0.27759075,0.17234087,1.4590263
8.354345,54.922443,15.756039,13.6524,0.42055732,0.070608705,0.08091578,-0.80056334,0.7861539,0.35154656,-0.27612698,0.67038023,0.6501495,-0.30861866,1.3052573,-0.65578574,-1.7993511,-0.9527441,2.2709858,1.3896463,-1.0368283,1.3710772,-0.7203449,-1.8285797,-0.93103755,2.213744,1.3295141,-1.0089953,-1.4244199,1.4065093,0.60249674,-0.58276236,0.97963446,0.4883964,-0.29924354,1.9131479,-0.5065193,1.2519821,-3.7005734,0.13923983,2.0786135,0.22257996,-0.5046444,0.931203,0.8024891,-0.047490936,0.08755209,0.58829457,-0.52667695,0.64187276,0.6197983,1.0,0.0,0.0,0.0,0.0,0.0,0.0,-2.563148,0.10651931,-0.7019821,-0.27668476,0.3437519,3.9449334,3.1379938,0.040137768,0.010061264,1.4840126
9.816321,52.913048,15.244626,12.009195,0.24416655,-0.08014652,0.12582357,-0.80010366,0.7861665,0.37087902,-0.31704313,0.6709069,0.652177,-0.2855458,1.2910668,-0.6417283,-1.7914917,-0.96274185,2.2808347,1.3947319,-1.0375499,1.356814,-0.7062725,-1.8222682,-0.93674815,2.2235096,1.3343836,-1.0118678,-1.427016,1.4079628,0.6400132,-0.5676354,0.9765045,0.48697722,-0.28346267,1.8761697,-0.50512695,1.2720162,-3.6968737,0.13910063,1.9783496,0.21739101,-0.49809837,0.9374094,0.80395746,-0.053526904,0.08749457,0.58577466,-0.5082903,0.6626996,0.6151767,1.0,0.0,0.0,0.0,0.0,0.0,0.0,-2.5261698,0.10512695,-0.72201616,-0.30751228,0.28111935,3.571391,1.3776898,0.042951107,0.07181764,1.5224516
3.7959743,49.073475,13.424489,15.61882,0.6691121,-0.05262707,-0.030061956,-0.81084764,0.78048944,0.36614382,-0.24721166,0.6643868,0.65135676,-0.27062416,1.2757293,-0.62822354,-1.7856538,-0.9614693,2.2899482,1.3995193,-1.0389302,1.3424765,-0.69221723,-1.8157146,-0.94204104,2.2332256,1.3392359,-1.0145895,-1.4363215,1.4050937,0.65997726,-0.5171153,0.9713766,0.4850943,-0.2684865,1.8392286,-0.5037384,1.2910484,-3.6931777,0.13896155,1.8781856,0.21227074,-0.49142265,0.9436001,0.80537015,-0.059657164,0.08745977,0.58324146,-0.50516117,0.6734305,0.6145322,1.0,0.0,0.0,0.0,0.0,0.0,0.0,-2.4892287,0.1037384,-0.7410484,-1.0113239,-0.15523434,1.8457651,4.8829436,-0.17073154,-0.033932924,1.4303684
0.8107805,45.805748,11.997519,17.075817,0.8451728,-0.10739434,-0.11424802,-0.8181003,0.778107,0.3609988,-0.21397574,0.660181,0.64846075,-0.2561714,1.2606665,-0.6144065,-1.7796147,-0.96343863,2.2992437,1.404082,-1.0402067,1.3280169,-0.6782068,-1.8090866,-0.9467255,2.2428844,1.3440672,-1.0171664,-1.4494133,1.4001113,0.6635428,-0.45285136,0.96520287,0.48279715,-0.25430334,1.8023248,-0.50234985,1.3090798,-3.689485,0.13882262,1.7781218,0.2071333,-0.484684,0.94978154,0.80681056,-0.06588924,0.087458394,0.58057404,-0.50831425,0.6779845,0.61350524,1.0,0.0,0.0,0.0,0.0,0.0,0.0,-2.4523249,0.10234985,-0.75907975,-1.4086962,-0.37224293,0.23602247,6.238973,-0.29747486,-0.106173754,1.3460577
-6.7055645,46.50108,11.73855,24.532957,1.5522742,0.216898,-0.36474508,-0.8167861,0.7797864,0.34528005,-0.053841386,0.6431064,0.65585876,-0.2194095,1.2463382,-0.6002282,-1.7745585,-0.95210963,2.307195,1.4096531,-1.0391073,1.3134505,-0.66423357,-1.8025577,-0.9501282,2.2524402,1.3488756,-1.0195906,-1.4594388,1.396791,0.6487313,-0.30346295,0.9539574,0.4804303,-0.23877582,1.7654576,-0.5009613,1.3261112,-3.6857963,0.13868383,1.678158,0.20176029,-0.4779358,0.9561104,0.8084298,-0.072411776,0.08746469,0.57753587,-0.5385397,0.6778981,0.6334675,1.0,0.0,0.0,0.0,0.0,0.0,0.0,-2.4154577,0.1009613,-0.7761112,-1.137805,-0.20480156,-1.6094446,14.717728,-0.7681608,-0.21780133,1.457116
-13.419771,45.65921,10.925842,30.615124,2.1452127,0.45802748,-0.58493704,-0.82417154,0.7785239,0.3135194,0.08734605,0.63305354,0.65439814,-0.19751154,1.2310333,-0.5863812,-1.7712058,-0.9413936,2.3157456,1.4143155,-1.0393418,1.2987791,-0.65028894,-1.7963474,-0.9515358,2.2618701,1.3536574,-1.0218585,-1.4700781,1.394158,0.6115258,-0.08731798,0.94045764,0.4771532,-0.22319782,1.7286272,-0.49957657,1.3421437,-3.6821113,0.13854517,1.5782943,0.1959095,-0.47122002,0.9627501,0.8103871,-0.07942472,0.08744686,0.5738619,-0.59190357,0.67362463,0.6683615,1.0,0.0,0.0,0.0,0.0,0.0,0.0,-2.3786273,0.09957656,-0.79214364,-1.2259722,-0.14529228,-3.843367,21.375103,-0.97806454,-0.4135251,1.4468044
-15.810583,41.612057,9.094774,31.692734,2.2583401,0.37378258,-0.7038044,-0.8260461,0.77371895,0.25324848,0.18494633,0.62205577,0.65034187,-0.2347218,1.2161745,-0.57291704,-1.7710226,-0.9330412,2.3240757,1.4186915,-1.0453306,1.284022,-0.6363834,-1.7907646,-0.9506613,2.2711513,1.3584048,-1.0240138,-1.4780573,1.3896468,0.5402084,0.14499338,0.9252114,0.4732925,-0.2133917,1.691834,-0.49819183,1.3571783,-3.67843,0.13840665,1.4785303,0.18948746,-0.46459007,0.96972144,0.81277955,-0.08696243,0.08743916,0.5693691,-0.65027267,0.66442776,0.7009519,1.0,0.0,0.0,0.0,0.0,0.0,0.0,-2.341834,0.09819183,-0.8071783,-0.9501457,-0.3507614,-7.246864,22.99554,-1.1770606,-0.5200684,0.87108314
-10.006103,37.504208,7.6991215,24.722137,1.5275385,-0.08370674,-0.5650506,-0.83237094,0.77459806,0.19917983,0.17267823,0.61807454,0.6437993,-0.28536388,1.2007849,-0.5589236,-1.7708466,-0.9333935,2.3329587,1.4227847,-1.0525502,1.2691847,-0.6225132,-1.786063,-0.94804347,2.2802913,1.363114,-1.0261252,-1.4860663,1.3864822,0.4467699,0.3000186,0.9112032,0.46992362,-0.2106024,1.655077,-0.496809,1.371216,-3.6747522,0.13826828,1.378866,0.18267918,-0.4580536,0.97683406,0.8155531,-0.09479726,0.08756176,0.5641093,-0.6823887,0.6559782,0.70915776,1.0,0.0,0.0,0.0,0.0,0.0,0.0,-2.305077,0.096809,-0.82121605,-0.92754364,-0.23636818,-9.407944,15.289036,-1.1242032,-0.3920257,0.18461645
-2.7021046,36.469368,7.8522716,17.761368,0.78129566,-0.43313384,-0.3418006,-0.8345496,0.7738791,0.1709082,0.1765834,0.6101462,0.65027034,-0.26786387,1.1857297,-0.54512525,-1.7689722,-0.9303851,2.341306,1.428141,-1.0529115,1.2542807,-0.60866773,-1.7822597,-0.9444548,2.2892978,1.3678042,-1.0282061,-1.4922537,1.3841102,0.35822803,0.37778434,0.89763,0.46865347,-0.20755942,1.6183572,-0.4954281,1.3842579,-3.6710782,0.13813004,1.2793013,0.17575598,-0.4515686,0.9838825,0.81855595,-0.102686375,0.087916106,0.55829424,-0.6869488,0.6526295,0.69802225,1.0,0.0,0.0,0.0,0.0,0.0,0.0,-2.2683573,0.09542808,-0.8342579,-0.7270336,-0.16951561,-8.859515,7.581377,-1.1382341,-0.0841856,0.21136403
4.880279,34.639736,7.844741,10.291492,0.05804372,-0.84951705,-0.08767091,-0.83327985,0.76791763,0.13697109,0.14449808,0.6125067,0.6465137,-0.24130276,1.1709527,-0.53187597,-1.7685626,-0.93000495,2.3505485,1.4324555,-1.0523363,1.2393423,-0.5948652,-1.7792652,-0.94069636,2.2981975,1.3724886,-1.0302413,-1.4946096,1.3792326,0.27981827,0.3745955,0.88837284,0.46874204,-0.20241171,1.5816736,-0.49404716,1.3963048,-3.667408,0.13799194,1.1798363,0.16900396,-0.44511032,0.9906649,0.82161397,-0.11038241,0.08856413,0.5521978,-0.66255563,0.65053356,0.66647446,1.0,0.0,0.0,0.0,0.0,0.0,0.0,-2.2316737,0.09404716,-0.84630483,-0.32024384,-0.42119026,-7.7976823,-0.50213337,-0.76607466,0.17188191,0.42452514
11.183689,34.665768,8.419178,4.5951843,-0.51278013,-1.1557741,0.13015892,-0.8319551,0.7676992,0.110886954,0.096949354,0.61608654,0.64968884,-0.20811515,1.1561468,-0.51809525,-1.7681764,-0.9310014,2.359806,1.4374576,-1.0510528,1.2244059,-0.58110464,-1.7769401,-0.9374472,2.3070476,1.3771826,-1.032202,-1.4935828,1.3751318,0.21686985,0.3078869,0.8838701,0.4703248,-0.19431314,1.5450273,-0.49266815,1.4073579,-3.6637414,0.13785398,1.0804707,0.16267157,-0.43865776,0.99703026,0.8245747,-0.1176865,0.08953237,0.54608625,-0.61492157,0.6500374,0.6215935,1.0,0.0,0.0,0.0,0.0,0.0,0.0,-2.1950274,0.092668146,-0.8573579,0.039935112,-0.3386736,-6.2206297,-6.8362713,-0.33322573,0.41168332,0.7252097
17.701424,34.86716,9.26293,-1.3726597,-1.0697232,-1.4608179,0.39202863,-0.83432,0.7625572,0.11608181,-0.0054956176,0.6222882,0.6469291,-0.15024164,1.1409739,-0.5048489,-1.765332,-0.93799675,2.3692765,1.4418755,-1.0472262,1.2094771,-0.5673975,-1.775008,-0.9353882,2.3158863,1.3818938,-1.0340426,-1.492515,1.369427,0.18564668,0.1715364,0.8844525,0.47265384,-0.18094237,1.5084171,-0.49129105,1.4174181,-3.6600783,0.13771614,0.98120445,0.15699196,-0.43219566,1.0028442,0.8272786,-0.124416105,0.09082289,0.5402608,-0.5435004,0.6505022,0.56330067,1.0,0.0,0.0,0.0,0.0,0.0,0.0,-2.1584172,0.09129104,-0.8674181,0.07560253,-0.48799515,-3.0316532,-13.76799,0.13588667,0.57941675,1.2673974
14.929389,32.861717,8.245008,0.39471626,-0.8389312,-1.5027281,0.3410331,-0.8412518,0.76273936,0.06452634,-0.011487018,0.6221533,0.6443515,-0.057675395,1.1253519,-0.49112353,-1.7685553,-0.9365369,2.3781016,1.4463289,-1.0398102,1.1945292,-0.5537361,-1.7734554,-0.9345871,2.324744,1.386624,-1.0356886,-1.4958347,1.3653699,0.14530928,0.049266312,0.88653654,0.47418764,-0.1592737,1.4718437,-0.48991394,1.4264863,-3.656419,0.13757846,0.88203746,0.15197325,-0.42577362,1.0081013,0.8297245,-0.13053459,0.09242914,0.534766,-0.4795638,0.6441504,0.5087387,1.0,0.0,0.0,0.0,0.0,0.0,0.0,-2.1218438,0.089913934,-0.87648624,-0.36230087,-0.31642914,-3.975937,-12.36056,0.30261278,0.45782328,2.1110682
9.676633,34.033596,8.636257,6.9847965,-0.14906514,-1.1723683,0.20708847,-0.83713216,0.7581987,0.05511117,0.037484597,0.62404364,0.6553031,0.050418407,1.110816,-0.4779162,-1.7679442,-0.93083864,2.3871484,1.4521543,-1.0306468,1.1795622,-0.5401224,-1.772248,-0.93446696,2.3336322,1.3913695,-1.0370486,-1.4971064,1.3603269,0.11256065,-0.0009051574,0.8902598,0.47548354,-0.12868956,1.435307,-0.48854065,1.4345635,-3.6527634,0.1374409,0.7829696,0.14740515,-0.41939926,1.0129724,0.83198357,-0.13624567,0.09426484,0.5294853,-0.4408062,0.6391053,0.47546867,1.0,0.0,0.0,0.0,0.0,0.0,0.0,-2.0853071,0.08854064,-0.8845635,-0.18379688,-0.41644573,-3.2454922,-5.1678367,0.52250624,0.32309294,2.986467
-2.546297,26.993607,4.8018565,16.592903,0.9211338,-0.9603821,-0.20603696,-0.83989686,0.75178415,-0.07190409,0.1406179,0.6119315,0.6529691,0.13648349,1.0955725,-0.46494398,-1.7794385,-0.92040515,2.3948255,1.4566664,-1.0234002,1.1645724,-0.5265783,-1.7718647,-0.93403876,2.3425205,1.3961169,-1.0380633,-1.5000328,1.3527392,0.013584447,0.05660026,0.88905275,0.47471866,-0.09252943,1.3988066,-0.48716736,1.4416509,-3.6491113,0.13730349,0.6840008,0.14291573,-0.41316795,1.0176545,0.83429044,-0.14178132,0.09631138,0.5240053,-0.4432361,0.62040794,0.46154702,1.0,0.0,0.0,0.0,0.0,0.0,0.0,-2.0488067,0.08716735,-0.89165086,-0.40876865,-0.68445206,-9.881455,5.5187864,0.07405281,-0.03989935,3.5165563
-10.063498,21.07359,1.9535799,22.176872,1.5921285,-0.857556,-0.45473194,-0.84227085,0.7410824,-0.16157648,0.20089631,0.6103385,0.6554694,0.20672873,1.0803453,-0.45247006,-1.7880223,-0.91394913,2.4035544,1.4616638,-1.0173904,1.1495444,-0.51314867,-1.7728012,-0.9325768,2.3513858,1.4008528,-1.0386927,-1.5040532,1.3399479,-0.12937994,0.17514835,0.8865746,0.47300306,-0.053540427,1.3623428,-0.48579407,1.4477493,-3.645463,0.13716622,0.58513093,0.13821077,-0.40719604,1.022273,0.83683974,-0.14728288,0.098576225,0.51796687,-0.47143802,0.5930658,0.4579384,1.0,0.0,0.0,0.0,0.0,0.0,0.0,-2.012343,0.08579406,-0.89774925,-0.5458355,-1.2228966,-14.284417,11.577012,-0.0320673,-0.2338469,3.7786074
-9.82262,19.130905,1.411273,21.50426,1.5097579,-0.90874743,-0.430855,-0.8432666,0.7292633,-0.2096007,0.20228913,0.5827101,0.6606678,0.28103885,1.0652177,-0.44022232,-1.7937613,-0.91234785,2.4096568,1.4669195,-1.0105889,1.1344801,-0.49988404,-1.7751758,-0.93000376,2.3601444,1.4055754,-1.038912,-1.5077102,1.3220979,-0.27351663,0.28389972,0.872981,0.47181398,-0.011939309,1.3259158,-0.4844246,1.4528596,-3.6418183,0.13702908,0.48635992,0.13324165,-0.40149498,1.0268319,0.839652,-0.15275627,0.1010963,0.5113018,-0.49752808,0.5661377,0.45160973,1.0,0.0,0.0,0.0,0.0,0.0,0.0,-1.9759158,0.084424585,-0.9028596,-0.4906416,-1.739192,-14.40337,10.609388,-1.1514783,-0.17763972,4.036421
-4.2275057,19.65952,2.5166993,16.355194,0.99760664,-1.0963943,-0.20590767,-0.84324014,0.71263117,-0.22711854,0.16167201,0.57518005,0.65694684,0.3147275,1.0501561,-0.42862093,-1.7978877,-0.91383654,2.4176624,1.4712701,-1.0074393,1.1193911,-0.4868454,-1.7787273,-0.9268023,2.3687465,1.4102885,-1.0387309,-1.5096165,1.2979088,-0.38225445,0.33150834,0.8566448,0.4712615,0.027789192,1.289525,-0.4830551,1.4569832,-3.6381772,0.13689208,0.3876877,0.12816668,-0.39604187,1.0312351,0.84260726,-0.15808526,0.10387535,0.50421417,-0.5032468,0.54226714,0.4333537,1.0,0.0,0.0,0.0,0.0,0.0,0.0,-1.939525,0.08305511,-0.9069832,-0.2752781,-2.3676157,-10.850519,4.538274,-1.4646173,-0.029015541,3.8599231
3.2852094,17.862343,2.9609587,7.662857,0.19725937,-1.5277163,0.10367516,-0.84552556,0.68864673,-0.2470933,0.063044764,0.5566005,0.6629584,0.34165365,1.0348386,-0.41798073,-1.8034366,-0.9204978,2.4244065,1.4765843,-1.0045655,1.1042849,-0.4741167,-1.7830818,-0.9238764,2.3771503,1.4150091,-1.0381739,-1.5110004,1.2647798,-0.45322052,0.2791272,0.8352597,0.47304356,0.06481651,1.2531705,-0.48168755,1.4601207,-3.6345398,0.13675521,0.28911418,0.12327671,-0.39086723,1.0352757,0.8455362,-0.16300485,0.10692298,0.49705666,-0.47692147,0.51347667,0.3915404,1.0,0.0,0.0,0.0,0.0,0.0,0.0,-1.9031705,0.08168754,-0.91012067,-0.15461445,-3.2337904,-7.0828557,-5.406606,-2.0314932,0.35871267,3.6227338
12.018414,19.359901,4.6464696,-1.1635342,-0.69874483,-1.9301125,0.45155048,-0.84476805,0.6738328,-0.23579606,-0.06728071,0.5380983,0.66743016,0.38398987,1.019808,-0.40673342,-1.8066614,-0.93060446,2.4309602,1.4817522,-0.99977493,1.0891787,-0.461728,-1.7877853,-0.9222466,2.3853137,1.4197603,-1.0372546,-1.5103326,1.2306532,-0.47615406,0.12395364,0.81029844,0.47686186,0.100855574,1.2168522,-0.48032188,1.4622732,-3.6309059,0.13661848,0.19063918,0.11891937,-0.38599777,1.0387379,0.8482546,-0.16722412,0.110256866,0.49024832,-0.41507804,0.48224515,0.32872155,1.0,0.0,0.0,0.0,0.0,0.0,0.0,-1.8668522,0.08032188,-0.9122732,0.12154579,-3.2981873,-2.3023307,-15.620366,-2.4453163,0.7065773,3.5644784
22.344872,20.174278,6.3387766,-12.19619,-1.7666255,-2.4920564,0.86106455,-0.8362313,0.6539585,-0.1972956,-0.2812264,0.5204073,0.67147416,0.4113078,1.0055555,-0.39633214,-1.8075149,-0.95036924,2.4373546,1.4869077,-0.9961238,1.0741316,-0.44968978,-1.7923343,-0.92309344,2.393214,1.4245592,-1.03599,-1.5022669,1.1954672,-0.4482215,-0.15421651,0.7834144,0.4825348,0.13505834,1.1805701,-0.47895622,1.4634417,-3.6272757,0.1364819,0.09226265,0.11550903,-0.38149452,1.041368,0.8505675,-0.17038569,0.11388229,0.48428762,-0.3101254,0.44291487,0.2389039,1.0,0.0,0.0,0.0,0.0,0.0,0.0,-1.8305701,0.07895622,-0.9134417,1.0070086,-3.3525467,2.6540756,-27.813541,-2.6778698,1.0455132,3.4563377
20.793646,24.999186,7.315318,-9.187231,-1.6305436,-2.375089,0.74131,-0.8422561,0.6739949,-0.23803616,-0.3215001,0.5341579,0.6650465,0.38161585,0.989906,-0.38229027,-1.8161379,-0.95524347,2.4466298,1.4910638,-0.9978284,1.059136,-0.43782035,-1.796704,-0.9265696,2.4009387,1.429402,-1.0344431,-1.4980288,1.1846557,-0.4339023,-0.4120817,0.76899314,0.48601216,0.16129434,1.1443243,-0.47759247,1.4636272,-3.6236491,0.13634545,-0.0060155434,0.11310291,-0.3773327,1.0431811,0.85249716,-0.17245463,0.11780822,0.47919646,-0.21203527,0.40778795,0.15991622,1.0,0.0,0.0,0.0,0.0,0.0,0.0,-1.7943243,0.07759246,-0.9136272,0.61712265,-0.91979504,1.2568533,-25.773102,-1.4077187,0.7100165,2.6785703
18.65501,21.3146,5.4128456,-9.301426,-1.5983123,-2.5710058,0.6278679,-0.836574,0.6666612,-0.28706765,-0.46462587,0.51304245,0.6683937,0.35889795,0.97547865,-0.37115422,-1.8254108,-0.9730322,2.452243,1.4962413,-0.99855334,1.0441977,-0.42600098,-1.8012073,-0.9326445,2.408511,1.4342734,-1.0326884,-1.491523,1.1815729,-0.4565852,-0.67245406,0.7533424,0.48851308,0.18058273,1.1081147,-0.47623062,1.4628307,-3.620026,0.13620913,-0.104195476,0.111664295,-0.3735981,1.0441753,0.8541574,-0.17336863,0.122087196,0.4748191,-0.116714954,0.3617376,0.07697776,1.0,0.0,0.0,0.0,0.0,0.0,0.0,-1.7581147,0.076230615,-0.91283065,0.921607,-0.14212132,-2.5377333,-25.998985,-1.5457869,0.54489374,2.0094066
12.368874,18.30095,3.129005,-4.4336147,-1.0812249,-2.4892874,0.3405244,-0.8395816,0.6754531,-0.3564422,-0.53655523,0.51023304,0.6599955,0.29283285,0.9602395,-0.35845566,-1.8368515,-0.9863,2.4595342,1.5002729,-1.0034051,1.0292956,-0.41412774,-1.8063056,-0.940972,2.4159534,1.4391524,-1.0308211,-1.4889913,1.1896818,-0.5283977,-0.88616335,0.74110746,0.48819187,0.18895222,1.0719414,-0.47486877,1.461053,-3.616407,0.13607295,-0.20227724,0.111019135,-0.37034607,1.044411,0.8557236,-0.17315653,0.12675938,0.47083527,-0.04364845,0.31045312,0.0032576409,1.0,0.0,0.0,0.0,0.0,0.0,0.0,-1.7219414,0.07486877,-0.911053,0.4942417,0.9562254,-7.400113,-21.374584,-1.2417197,0.1224637,0.8901149
4.516513,13.405531,0.085984945,1.773937,-0.3279963,-2.3420868,0.0103884265,-0.8410064,0.68150353,-0.45029035,-0.581069,0.51673627,0.6518815,0.22651948,0.9451949,-0.34597737,-1.8513347,-0.99907887,2.467627,1.5043405,-1.0081692,1.0143934,-0.40213385,-1.8125198,-0.95096743,2.4233196,1.4440123,-1.0289462,-1.4901364,1.2029407,-0.6527279,-1.0375301,0.7350326,0.48520723,0.18707108,1.0358043,-0.47350883,1.4582952,-3.612791,0.1359369,-0.30026096,0.11088753,-0.36764526,1.0440016,0.85739857,-0.17192633,0.13182418,0.46683106,-0.0009332326,0.2535424,-0.05835261,1.0,0.0,0.0,0.0,0.0,0.0,0.0,-1.6858042,0.07350883,-0.9082952,0.04761219,1.4333248,-12.50602,-15.220606,-0.6979704,-0.29219985,-0.20068288
0.065021515,13.202014,-0.3152132,7.695508,0.2994386,-2.0060003,-0.15789309,-0.8370349,0.6817573,-0.48018473,-0.6094242,0.49400485,0.6469893,0.2031583,0.93068993,-0.33395812,-1.8605382,-1.0119098,2.4727201,1.5087112,-1.0086303,0.9994837,-0.3900217,-1.8199546,-0.96202147,2.4305828,1.4488322,-1.0271208,-1.4911815,1.2141805,-0.7736065,-1.1285106,0.72351307,0.48075926,0.18063429,0.9997034,-0.4721508,1.4545585,-3.609179,0.135801,-0.39814672,0.11101723,-0.36545944,1.0431002,0.8592763,-0.16988604,0.13721745,0.46255198,0.018233947,0.20346482,-0.10359876,1.0,0.0,0.0,0.0,0.0,0.0,0.0,-1.6497034,0.0721508,-0.9045585,-0.054121017,1.2028694,-12.031531,-9.255815,-1.2422442,-0.52804947,-0.7196337
-3.2559836,11.732754,-0.7472794,12.08003,0.8436962,-1.7270861,-0.2432149,-0.8398376,0.67200714,-0.50919366,-0.63204277,0.46827468,0.640554,0.19055787,0.9154999,-0.322821,-1.870874,-1.0252258,2.4774103,1.5128876,-1.008065,0.9845444,-0.37787667,-1.8284366,-0.97365534,2.4376743,1.4536024,-1.0253737,-1.4949993,1.2148104,-0.87242144,-1.1757535,0.7039507,0.47539708,0.17229803,0.9636388,-0.47079277,1.4498435,-3.6055706,0.13566522,-0.4959346,0.11120367,-0.36372948,1.0418372,0.8613786,-0.16724363,0.14283597,0.45788026,0.018440437,0.1586522,-0.13672566,1.0,0.0,0.0,0.0,0.0,0.0,0.0,-1.6136388,0.070792764,-0.8998435,-0.43361187,0.11308193,-9.712458,-4.9328566,-2.0367742,-0.67543983,-0.96410215
-4.588757,13.154472,0.008016586,15.750819,1.2502733,-1.431878,-0.28268734,-0.838394,0.6701512,-0.5345694,-0.6350953,0.46560714,0.63839537,0.13480341,0.900705,-0.31086156,-1.8818935,-1.0371649,2.484235,1.517442,-1.0118934,0.9695698,-0.36576596,-1.8377006,-0.98550093,2.4445865,1.4583193,-1.0237486,-1.4987159,1.209954,-0.9434112,-1.188259,0.68656284,0.4700602,0.15878366,0.9276104,-0.46943855,1.4441515,-3.6019657,0.1355296,-0.5936248,0.11130619,-0.36237717,1.0403348,0.8636896,-0.16419871,0.14855804,0.45277968,0.0060949777,0.12319401,-0.15748142,1.0,0.0,0.0,0.0,0.0,0.0,0.0,-1.5776104,0.06943855,-0.8941515,-0.5302906,-0.45382977,-6.835103,-1.4997721,-1.785028,-0.70657134,-1.5141964
-3.3269482,16.708862,1.8114961,17.324955,1.3177128,-1.2063643,-0.23070234,-0.8353961,0.6698455,-0.5393028,-0.6478976,0.44178644,0.6380364,0.11148563,0.8860302,-0.2987814,-1.8916309,-1.0502907,2.4887652,1.522123,-1.0126001,0.9545771,-0.35371342,-1.8474185,-0.99737895,2.4512928,1.4629885,-1.0222666,-1.5001682,1.2037761,-0.9804384,-1.1885558,0.66500735,0.46543878,0.14405592,0.8916178,-0.46808434,1.4374832,-3.5983646,0.13539408,-0.69121724,0.111289024,-0.3612995,1.0386788,0.866149,-0.16090445,0.15430497,0.4473092,-0.006497541,0.09865533,-0.1708892,1.0,0.0,0.0,0.0,0.0,0.0,0.0,-1.5416178,0.06808433,-0.8874832,-0.3681898,-0.583601,-3.412521,-0.28738976,-2.1475315,-0.6305516,-1.6365767
-3.9149716,13.909933,0.9719603,17.046165,1.4427422,-1.2404304,-0.22204067,-0.8389668,0.65700036,-0.57573617,-0.6702187,0.44606084,0.62849814,0.05981713,0.8706804,-0.2880134,-1.9049921,-1.0644008,2.4958987,1.5258383,-1.016285,0.9395634,-0.34177437,-1.8574722,-1.009308,2.4578311,1.46761,-1.0209582,-1.5025071,1.1906885,-1.0127926,-1.1952381,0.6500188,0.4604769,0.12590237,0.8556609,-0.46673012,1.4298397,-3.5947669,0.13525872,-0.78871214,0.111125946,-0.3604946,1.0368721,0.86873776,-0.1573765,0.16000669,0.44150317,-0.022346586,0.070424624,-0.18633984,1.0,0.0,0.0,0.0,0.0,0.0,0.0,-1.5056609,0.06673011,-0.8798397,-0.4456997,-1.2827158,-2.9383063,-0.9104252,-1.5079498,-0.678885,-1.9788623
-2.4665318,17.458776,2.4745755,17.74457,1.3046693,-1.0871603,-0.17483689,-0.8391962,0.6609947,-0.5726442,-0.6685753,0.38980114,0.63400674,0.07330953,0.85564375,-0.2756749,-1.9147366,-1.0761656,2.4968112,1.5310106,-1.0136273,0.9245268,-0.32993212,-1.8677146,-1.021288,2.4640949,1.4721934,-1.0198061,-1.5048449,1.1821891,-1.0270362,-1.199775,0.6185738,0.45681423,0.11111939,0.8197403,-0.46537971,1.4212221,-3.591173,0.13512349,-0.8861096,0.110842705,-0.35990715,1.0349334,0.8714125,-0.15365504,0.16569422,0.43540284,-0.0333328,0.0513929,-0.1985726,1.0,0.0,0.0,0.0,0.0,0.0,0.0,-1.4697403,0.06537971,-0.8712221,-0.49450397,-0.8182287,-1.0984421,-0.6975889,-3.1262517,-0.5418956,-1.6428874
-3.2310145,11.597522,0.6932434,16.016054,1.3780482,-1.2549074,-0.12302679,-0.83428705,0.6316844,-0.5947044,-0.6956838,0.37916204,0.62555486,0.09693783,0.8410981,-0.2667637,-1.927185,-1.0908564,2.502011,1.5347488,-1.0101124,0.9095007,-0.3182825,-1.8781192,-1.0334264,2.4700458,1.4767386,-1.0187666,-1.5024775,1.1592977,-1.0440819,-1.2190685,0.58738357,0.45301855,0.10121279,0.78385544,-0.4640293,1.4116312,-3.5875823,0.1349884,-0.98340964,0.11043739,-0.35958672,1.0328145,0.8741484,-0.14968094,0.17134038,0.42907172,-0.046733305,0.022073036,-0.21830514,1.0,0.0,0.0,0.0,0.0,0.0,0.0,-1.4338554,0.064029306,-0.8616312,0.06632805,-2.261877,-1.4551401,-2.133274,-3.1205773,-0.55155754,-1.1492059
-3.4358082,12.211175,0.8149158,16.846449,1.3244745,-1.1585207,-0.11376157,-0.8397662,0.62765706,-0.59752405,-0.6899187,0.3030527,0.6306,0.14273404,0.8255241,-0.2555168,-1.9378717,-1.1024183,2.5003512,1.5397986,-1.0044932,0.8944756,-0.30685607,-1.8886554,-1.0457155,2.475516,1.4812514,-1.0177748,-1.5031903,1.1372049,-1.0557448,-1.2330052,0.5333845,0.4501905,0.09790101,0.74800634,-0.4626789,1.4010681,-3.5839956,0.13485344,-1.0806124,0.109901905,-0.3595276,1.0305096,0.87692136,-0.1454499,0.177005,0.42251918,-0.05972745,-0.0027607495,-0.23647697,1.0,0.0,0.0,0.0,0.0,0.0,0.0,-1.3980063,0.0626789,-0.8510681,-0.28734207,-2.189207,-0.8630991,-1.6009331,-5.407679,-0.46303272,-0.50887614
-2.536478,12.718323,1.2933183,16.490532,1.1162789,-1.1198256,-0.05115289,-0.8361965,0.6125792,-0.5877292,-0.7041353,0.19977915,0.6274007,0.20610766,0.8108559,-0.24559814,-1.9474283,-1.1161289,2.495494,1.5439914,-0.9971641,0.87945807,-0.29566994,-1.8992202,-1.0581685,2.4802005,1.4857394,-1.0167563,-1.5019543,1.1124811,-1.0558641,-1.2501055,0.4469891,0.44779775,0.102454945,0.7121935,-0.46133232,1.3895336,-3.5804121,0.13471861,-1.177718,0.1092844,-0.35969543,1.0280077,0.87968016,-0.14095946,0.18281147,0.4157803,-0.0667367,-0.024534913,-0.25658765,1.0,0.0,0.0,0.0,0.0,0.0,0.0,-1.3621935,0.061332315,-0.8395336,-0.08401871,-2.4472475,0.2660513,-1.8993378,-8.63288,-0.39843917,0.271523
-3.3569784,9.277086,0.1330707,15.90832,1.0326363,-1.1676577,-0.03966359,-0.83425814,0.5833119,-0.59409755,-0.7151205,0.0804074,0.63607234,0.22721563,0.79603225,-0.23733875,-1.95863,-1.1296806,2.4882412,1.5493466,-0.9940347,0.86446345,-0.28481045,-1.9097831,-1.0708028,2.4837673,1.490214,-1.0156729,-1.4991432,1.0772076,-1.055703,-1.2685636,0.32621926,0.4468171,0.10957457,0.6764159,-0.45998573,1.3770288,-3.5768325,0.13458392,-1.2747265,0.10860062,-0.36010933,1.0252707,0.88239557,-0.13617292,0.18887188,0.408855,-0.073532425,-0.04981149,-0.28119355,1.0,0.0,0.0,0.0,0.0,0.0,0.0,-1.3264159,0.059985727,-0.8270288,0.11315346,-3.5090446,0.25966167,-2.0116806,-12.080389,-0.2491653,0.5062863
-6.063767,2.7083454,-2.8094215,14.982291,0.7082109,-1.2996709,-0.11836524,-0.83877516,0.54653144,-0.62471104,-0.72251165,-0.21505016,0.64220524,0.23233281,0.78058594,-0.23015732,-1.9722543,-1.143054,2.4622622,1.5544345,-0.9924396,0.8494774,-0.27441397,-1.9204814,-1.0836126,2.4854,1.4946848,-1.0145228,-1.4987317,1.0271542,-1.0740029,-1.2855816,0.10883727,0.44688204,0.11606379,0.6406746,-0.45864105,1.3635546,-3.5732563,0.13444936,-1.3716381,0.10786533,-0.36083603,1.0222136,0.8850681,-0.13098511,0.19552486,0.40158084,-0.07868862,-0.082530774,-0.31555372,1.0,0.0,0.0,0.0,0.0,0.0,0.0,-1.2906746,0.058641046,-0.8135546,-0.057816505,-5.007386,-1.619029,-1.835823,-21.787085,-0.13723373,0.36613643
-6.381644,4.926344,-2.4945068,16.605526,0.4287992,-1.13678,-0.14644983,-0.84403175,0.5349329,-0.6247528,-0.70504797,-0.4668287,0.6548314,0.2958554,0.76507425,-0.22092068,-1.9829568,-1.1541173,2.4387171,1.5601679,-0.98493725,0.83446085,-0.26448718,-1.931359,-1.0964643,2.4843395,1.499169,-1.0132678,-1.5032425,0.98116136,-1.0914079,-1.2853922,-0.17813523,0.44846842,0.12740518,0.60496855,-0.45729828,1.349112,-3.5696838,0.13431494,-1.4684527,0.107120514,-0.36182785,1.018826,0.8876509,-0.1253811,0.20312785,0.3938204,-0.078504235,-0.107056476,-0.34815848,1.0,0.0,0.0,0.0,0.0,0.0,0.0,-1.2549685,0.057298273,-0.799112,-0.6337166,-4.6135902,-1.4310122,-0.11987686,-28.768072,0.020694733,0.7913068
-8.504621,0.18570471,-4.230115,17.374226,0.7515647,-1.1423329,-0.12642482,-0.8479688,0.48121563,-0.6188576,-0.69365126,-0.60645735,0.65688866,0.33676955,0.74966395,-0.2163656,-1.9932448,-1.1658294,2.4236937,1.5648578,-0.9795908,0.81937754,-0.25515166,-1.9423473,-1.109213,2.480395,1.5036703,-1.0118792,-1.5106499,0.91756773,-1.100068,-1.2717489,-0.46692723,0.45024523,0.14164747,0.56929874,-0.4559555,1.3337021,-3.5661147,0.13418065,-1.5651706,0.1062994,-0.36309433,1.0151178,0.8900965,-0.11936738,0.21170248,0.38556662,-0.08916078,-0.13612907,-0.3801741,1.0,0.0,0.0,0.0,0.0,0.0,0.0,-1.2192987,0.0559555,-0.7837021,-0.93688965,-6.3968897,-0.5250454,1.2449026,-28.968208,0.03168583,1.0549575
-11.432011,-10.5909815,-7.5929623,15.911213,1.3576858,-1.3641919,-0.03813646,-0.84135145,0.3988242,-0.6157045,-0.7022935,-0.684612,0.6699338,0.36856514,0.73524237,-0.21526924,-2.0039177,-1.1794424,2.411934,1.5706637,-0.9750227,0.8042666,-0.24671613,-1.953366,-1.121853,2.4738948,1.5081984,-1.0103343,-1.5114563,0.8186992,-1.1018367,-1.2614764,-0.7114178,0.45300266,0.1576737,0.5336642,-0.45461464,1.3173256,-3.5625494,0.1340465,-1.6617918,0.10522604,-0.36478424,1.0110496,0.8923793,-0.1128975,0.22093728,0.37696156,-0.11968101,-0.18162452,-0.41756046,1.0,0.0,0.0,0.0,0.0,0.0,0.0,-1.1836642,0.054614633,-0.7673256,-0.13720989,-9.946335,0.028562546,0.9644747,-24.528503,0.11483431,1.2398511
-17.425827,-28.2625,-13.876368,13.811843,2.3592942,-1.7566658,0.006898582,-0.8356558,0.28574416,-0.6364204,-0.7053231,-0.69666386,0.67796934,0.37233904,0.720701,-0.2181417,-2.017008,-1.1923853,2.4042284,1.5759953,-0.97310036,0.78920233,-0.2396463,-1.9644802,-1.1344262,2.4655216,1.512755,-1.0086405,-1.5041667,0.6694075,-1.1145766,-1.2559547,-0.8798884,0.45575216,0.17221676,0.49806547,-0.45327568,1.2999837,-3.5589874,0.13391247,-1.7583164,0.103580475,-0.36712456,1.0065539,0.89454633,-0.10588156,0.23029152,0.36815995,-0.18608601,-0.25338468,-0.46222135,1.0,0.0,0.0,0.0,0.0,0.0,0.0,-1.1480654,0.053275675,-0.7499837,0.89199543,-15.033102,-1.2576342,0.5643606,-16.921509,0.0554204,1.092267
-30.852446,-67.91136,-28.210043,7.5895267,3.9216983,-2.7093365,0.03900154,-0.83534336,0.05453131,-0.6635934,-0.73291874,-0.68846434,0.6742566,0.34528217,0.705668,-0.23419318,-2.0308394,-1.2077181,2.396675,1.5801806,-0.97411233,0.77424586,-0.23492156,-1.9758651,-1.1470929,2.4560268,1.517327,-1.0068381,-1.4905204,0.4061885,-1.1478428,-1.2695634,-0.9731202,0.45646408,0.18149655,0.46250248,-0.45193672,1.2816772,-3.5554292,0.13377859,-1.8547444,0.100768566,-0.37062454,1.0014315,0.89675516,-0.09807889,0.23896796,0.35931188,-0.32005233,-0.3825597,-0.5306944,1.0,0.0,0.0,0.0,0.0,0.0,0.0,-1.1125025,0.051936716,-0.73167723,2.0463943,-26.517963,-3.770113,-1.1565208,-9.359717,-0.27968884,0.5289346
-43.918633,-109.57489,-42.39016,0.2640394,5.42112,-3.631565,0.18742815,-0.82625735,-0.23870108,-0.6431704,-0.76254034,-0.6649338,0.6828693,0.36594015,0.6916201,-0.25879166,-2.040182,-1.223347,2.3895335,1.5856138,-0.97024405,0.75948393,-0.2338501,-1.9874904,-1.1600381,2.4460628,1.5218989,-1.0049422,-1.4672704,0.006468577,-1.1705511,-1.3010217,-1.0036901,0.45547843,0.19114111,0.42697477,-0.45059967,1.2624073,-3.5518744,0.13364483,-1.951076,0.09610653,-0.37582588,0.99542105,0.899173,-0.08923979,0.24604407,0.35069418,-0.5231796,-0.56512445,-0.6260047,1.0,0.0,0.0,0.0,0.0,0.0,0.0,-1.0769747,0.050599664,-0.7124073,3.561592,-40.27155,-3.266406,-2.6420116,-3.0112386,-0.6688893,0.60296357
-47.833668,-125.1802,-46.687515,-3.3297749,6.10015,-3.814399,0.41924068,-0.8113541,-0.48195872,-0.5914097,-0.7829001,-0.6047505,0.67288804,0.46102515,0.67834854,-0.282046,-2.0466313,-1.2383281,2.3855877,1.5891876,-0.95883965,0.7450062,-0.23730384,-1.9990413,-1.1733533,2.4362133,1.5264403,-1.0028803,-1.4363668,-0.46387058,-1.1542641,-1.3390992,-0.9784608,0.45090598,0.2106451,0.39148283,-0.44926453,1.2421747,-3.5483234,0.13351122,-2.047311,0.08919048,-0.38295364,0.9883665,0.90186787,-0.07930586,0.25080344,0.34269887,-0.7567426,-0.75727594,-0.7338804,1.0,0.0,0.0,0.0,0.0,0.0,0.0,-1.0414828,0.04926452,-0.69217473,4.536009,-47.40039,0.35390854,-3.0216694,2.6067615,-1.270169,1.7764926
-27.905754,-83.95839,-26.771397,0.43039584,5.074981,-2.3774781,0.8841568,-0.7870525,-0.590869,-0.34381825,-0.7898727,-0.4957219,0.67231184,0.4587073,0.66630095,-0.29639074,-2.0334232,-1.2523406,2.386641,1.5936714,-0.9570096,0.7308775,-0.2450069,-2.0091999,-1.1870118,2.4270465,1.5309435,-1.0006144,-1.4017471,-0.8733232,-0.9732439,-1.3723419,-0.89557445,0.44766504,0.23256521,0.35602617,-0.44792938,1.2209805,-3.5447757,0.13337773,-2.1434498,0.08044481,-0.3914566,0.98041713,0.9046399,-0.068745054,0.25298005,0.33600852,-0.92286456,-0.87303966,-0.8183119,1.0,0.0,0.0,0.0,0.0,0.0,0.0,-1.0060261,0.047929376,-0.6709805,4.43902,-41.203808,16.990387,-2.5950432,8.471847,-1.0035813,2.4164617
-14.693594,-45.03842,-11.8990555,6.786967,4.273693,-1.1090324,0.912847,-0.78893423,-0.68441075,-0.2660086,-0.78354454,-0.36718374,0.64378464,0.40936288,0.6519841,-0.31344798,-2.0358007,-1.2653663,2.3903282,1.595322,-0.9596781,0.7170006,-0.25605118,-2.0171993,-1.2008821,2.41907,1.5354067,-0.9981749,-1.380488,-1.18207,-0.7453224,-1.3901373,-0.76474667,0.4444724,0.2491862,0.3206048,-0.44659805,1.1988257,-3.5412316,0.13324438,-2.2394927,0.07042837,-0.40065002,0.971839,0.9073534,-0.058072794,0.2526937,0.3308825,-1.0356923,-0.9243614,-0.8755512,1.0,0.0,0.0,0.0,0.0,0.0,0.0,-0.9706048,0.046598047,-0.6488257,2.8769732,-31.056,21.774614,-1.1976242,13.249672,-0.7547438,2.0905614
-9.365585,-16.034395,-4.266745,12.582443,3.671426,-0.31918192,0.6389886,-0.77591425,-0.73951805,-0.3185999,-0.78787065,-0.24530579,0.6064647,0.40150124,0.6394092,-0.330003,-2.0490592,-1.2796692,2.3945394,1.5960531,-0.9580248,0.7033068,-0.26932347,-2.0235279,-1.2148668,2.4126194,1.539826,-0.9955962,-1.3631456,-1.3760778,-0.5990668,-1.399502,-0.60514265,0.4403859,0.2623456,0.2852192,-0.44526672,1.1757112,-3.537691,0.13311116,-2.3354394,0.05950594,-0.41007805,0.9628361,0.9100182,-0.047521595,0.25033468,0.3270183,-1.1175508,-0.9355305,-0.9142085,1.0,0.0,0.0,0.0,0.0,0.0,0.0,-0.93521917,0.045266718,-0.62571114,2.4998426,-19.538212,13.60792,-0.44398308,16.052258,-0.61541796,1.7712235
-6.035037,8.56598,1.5375786,18.158104,3.1616209,0.34130436,0.32838517,-0.76609683,-0.7622023,-0.33529925,-0.77935815,-0.14239623,0.59202343,0.37376457,0.6266971,-0.3455437,-2.0570579,-1.2928026,2.3983798,1.5990283,-0.9582197,0.68976843,-0.28376257,-2.02904,-1.2288533,2.4078205,1.544211,-0.99292684,-1.3481935,-1.4668328,-0.53887457,-1.3968236,-0.43807513,0.43783733,0.26996186,0.24986887,-0.4439354,1.1516378,-3.5341542,0.13297808,-2.4312901,0.0479393,-0.41938782,0.9535815,0.912675,-0.037202455,0.24639282,0.32393026,-1.1747394,-0.9147245,-0.93536067,1.0,0.0,0.0,0.0,0.0,0.0,0.0,-0.89986885,0.04393539,-0.6016378,2.2887945,-9.165144,4.999697,0.6906986,16.769827,-0.22035837,1.1888921
-11.535937,15.97909,-1.1798248,21.554201,3.2262425,0.4312979,-0.11516585,-0.76553947,-0.76848733,-0.4740403,-0.78220695,0.008575416,0.56978714,0.3357643,0.6132145,-0.36061132,-2.0764441,-1.3070741,2.408678,1.6011897,-0.9593504,0.6763388,-0.29855502,-2.0350368,-1.2427922,2.4048145,1.5485579,-0.99022794,-1.3382401,-1.4837499,-0.62350327,-1.3913978,-0.25445792,0.43375337,0.27095217,0.21455383,-0.44260788,1.1266067,-3.5306208,0.13284513,-2.5270452,0.03571558,-0.42845726,0.94414616,0.9154524,-0.02700968,0.24125649,0.32095587,-1.2424603,-0.8891145,-0.9528461,1.0,0.0,0.0,0.0,0.0,0.0,0.0,-0.8645538,0.042607874,-0.5766067,1.8954039,-1.8033504,-9.443784,1.0172129,18.320024,-0.366652,0.4413545
-16.488205,17.546999,-4.310645,22.648964,2.9915197,0.4341848,-0.43727258,-0.76840055,-0.7788096,-0.5699909,-0.7798607,-0.012204575,0.56085885,0.2275528,0.59949875,-0.376436,-2.0920358,-1.3207784,2.403594,1.6046438,-0.9674727,0.6629559,-0.31326067,-2.0425403,-1.2566644,2.4032314,1.552857,-0.9876158,-1.3351982,-1.466669,-0.7957933,-1.383951,-0.12633954,0.4285236,0.25869456,0.17927408,-0.44128036,1.1006187,-3.5270908,0.1327123,-2.6227045,0.02276802,-0.43727112,0.9344895,0.91843563,-0.016743122,0.23535366,0.31749684,-1.3156441,-0.8628889,-0.9767257,1.0,0.0,0.0,0.0,0.0,0.0,0.0,-0.82927406,0.04128036,-0.5506187,1.237154,1.5576124,-18.123055,1.2678623,12.681114,-0.5551398,-1.0014474
-15.893994,22.28357,-3.173537,22.473543,2.0916333,0.6429506,-0.5087753,-0.7692097,-0.7818112,-0.6039303,-0.76743925,-0.23598064,0.5876476,0.20423627,0.5860349,-0.3914418,-2.1029334,-1.3334084,2.3796334,1.6116219,-0.9671922,0.64956725,-0.32771742,-2.0517948,-1.2704164,2.4018848,1.5571276,-0.9851544,-1.3372835,-1.4392123,-0.9712328,-1.3706822,-0.13816835,0.42657846,0.24225196,0.14402962,-0.43995285,1.0736749,-3.5235646,0.13257962,-2.718268,0.009243488,-0.44576263,0.9245386,0.9215407,-0.0062567326,0.22932479,0.31326303,-1.3680317,-0.8277679,-1.0083956,1.0,0.0,0.0,0.0,0.0,0.0,0.0,-0.7940296,0.039952844,-0.5236749,0.64418316,2.5841236,-18.329657,1.8227816,-1.3350278,-0.2204597,-1.569593
-12.680843,27.756454,-0.040703177,21.712708,1.3956027,0.8883972,-0.43551743,-0.7710372,-0.7776338,-0.62665725,-0.7655261,-0.34584278,0.59416956,0.13865782,0.5724635,-0.4054808,-2.1144605,-1.346969,2.3673005,1.6165446,-0.9712886,0.6361309,-0.34190238,-2.0625103,-1.2840482,2.3997905,1.5613924,-0.98290086,-1.3434125,-1.4121231,-1.1070251,-1.3591442,-0.23365453,0.4263582,0.21970965,0.10882044,-0.43862915,1.0457761,-3.5200417,0.13244706,-2.813736,-0.004635334,-0.45383644,0.91425055,0.9246354,0.0044979365,0.2236186,0.30825937,-1.3978462,-0.7832863,-1.0429628,1.0,0.0,0.0,0.0,0.0,0.0,0.0,-0.7588204,0.038629144,-0.49577612,0.114655495,2.5538206,-14.256573,1.5910625,-9.689194,-0.008320808,-2.2612333
-8.558657,33.15863,3.9357967,21.214935,1.0531528,1.1598334,-0.29988322,-0.77907926,-0.77549165,-0.6231392,-0.7620882,-0.3844145,0.6010428,0.029745901,0.558223,-0.41945153,-2.1248243,-1.360257,2.361349,1.6214967,-0.9799263,0.62259066,-0.35587084,-2.074103,-1.2975827,2.3965786,1.5656649,-0.9809382,-1.3556275,-1.3922045,-1.178519,-1.3503332,-0.35080978,0.42781574,0.18840149,0.073646545,-0.43730545,1.0169234,-3.5165224,0.13231465,-2.9091086,-0.018680573,-0.4614048,0.9036432,0.92762053,0.0154485125,0.2183469,0.30266497,-1.4095874,-0.7297918,-1.0740155,1.0,0.0,0.0,0.0,0.0,0.0,0.0,-0.7236465,0.037305444,-0.46692342,-0.61872005,1.8574238,-7.747531,1.2518644,-11.820859,0.21783113,-3.1410992
-7.237087,33.82242,5.335289,20.599033,1.1614052,1.2502642,-0.2041979,-0.78876024,-0.78155243,-0.641273,-0.7613628,-0.36520508,0.58480585,-0.066780426,0.54371464,-0.4340261,-2.1382303,-1.373719,2.360058,1.6241455,-0.98761624,0.6088911,-0.36973965,-2.0861118,-1.3110582,2.392409,1.5699393,-0.979337,-1.3728956,-1.3855276,-1.2097934,-1.3454363,-0.439174,0.42769033,0.15084867,0.03850746,-0.43598175,0.98711777,-3.5130067,0.13218236,-3.004386,-0.032832146,-0.46842575,0.89274424,0.93046874,0.026505042,0.21335147,0.29665887,-1.4195896,-0.67470866,-1.1024129,1.0,0.0,0.0,0.0,0.0,0.0,0.0,-0.68850744,0.035981745,-0.43711776,-1.1902571,0.53942204,-3.6856651,0.844717,-8.9273815,0.05531311,-3.7191808
-5.527012,35.691864,7.190218,20.861183,1.2260004,1.3894188,-0.14889699,-0.7874025,-0.7878594,-0.64201885,-0.7387005,-0.40616325,0.59730065,-0.18968935,0.5301509,-0.4485256,-2.1503136,-1.3849282,2.3517928,1.6296693,-0.9983059,0.59504855,-0.38362706,-2.0982006,-1.3244058,2.3874729,1.5742251,-0.97817063,-1.3865306,-1.3902074,-1.2102808,-1.3300714,-0.51226956,0.4290126,0.10547635,0.0034036636,-0.43466187,0.95636,-3.5094943,0.1320502,-3.099568,-0.04705286,-0.47488022,0.88160753,0.9331714,0.037538305,0.20848496,0.29037228,-1.4250013,-0.61669725,-1.1244483,1.0,0.0,0.0,0.0,0.0,0.0,0.0,-0.65340364,0.03466186,-0.40635997,-0.9116888,-0.5800009,-0.5533457,1.8627644,-7.366556,0.23037791,-4.4636817
-5.7422123,37.0694,7.707304,21.547487,1.4289259,1.4826181,-0.14947373,-0.79634404,-0.7857291,-0.6552565,-0.7215903,-0.40400067,0.5994555,-0.2611144,0.5154141,-0.4622,-2.1637263,-1.3965648,2.3470728,1.6341707,-1.0042821,0.5810677,-0.3975774,-2.1102436,-1.337536,2.3820102,1.5785242,-0.9774716,-1.4005388,-1.3970098,-1.2041448,-1.3061641,-0.5576262,0.43055922,0.05835849,-0.03166485,-0.43334198,0.9246511,-3.5059855,0.13191818,-3.1946547,-0.061347485,-0.4807377,0.870295,0.9357446,0.048450645,0.2036281,0.2838489,-1.432488,-0.5571138,-1.1402752,1.0,0.0,0.0,0.0,0.0,0.0,0.0,-0.6183351,0.033341974,-0.37465107,-0.9843826,-0.7889271,0.14312267,2.7090788,-4.587114,0.25644898,-4.6065674
-6.5538616,38.97683,8.004668,22.902075,1.5918038,1.6000154,-0.18575336,-0.80554646,-0.78592277,-0.6603679,-0.6876675,-0.43658385,0.5993724,-0.31769556,0.500513,-0.47616968,-2.1762803,-1.4063027,2.3383517,1.6384615,-1.0092411,0.56693995,-0.41159165,-2.1222255,-1.3503019,2.3761585,1.5828387,-0.97723985,-1.4155633,-1.4032627,-1.1980437,-1.2655925,-0.59451014,0.43210682,0.011778,-0.06669855,-0.432024,0.89199203,-3.5024803,0.13178629,-3.2896464,-0.07573366,-0.4859829,0.858881,0.9382076,0.0591609,0.1987447,0.27706826,-1.4415358,-0.49516252,-1.1482593,0.0,1.0,0.0,0.0,0.0,0.0,0.0,-0.5833014,0.032023996,-0.34199202,-1.112771,-0.7321358,0.17495155,4.369259,-3.7362576,0.2737522,-4.544306
-6.452291,37.776073,7.673193,21.56887,1.5445844,1.506201,-0.15906645,-0.797576,-0.79678905,-0.6782281,-0.68486935,-0.45234743,0.5885952,-0.36882174,0.48718235,-0.49127054,-2.1900482,-1.4187888,2.3309238,1.6416981,-1.014122,0.55300874,-0.42569408,-2.1352148,-1.3632987,2.371053,1.5901496,-0.977221,-1.3855928,-1.4133452,-1.327865,-1.3055474,-0.49794608,0.80342674,-0.00770433,-0.084201336,-0.43214226,0.8914208,-1.350426,-0.010555721,0.81919324,-0.09046936,-0.4903202,0.847063,0.9405695,0.06864615,0.19370465,0.2703609,-1.4805295,-0.39702117,-1.1974866,0.0,1.0,0.0,0.0,0.0,0.0,0.0,-0.56579864,0.03214225,-0.34142077,0.16825199,-1.3331413,-1.529336,4.173517,-2.7852714,-0.7282615,-3.7954059
92.109055,176.0,110.0,110.0,1.1195949,14.031427,-0.8129934,-0.82584304,0.2727234,0.6695243,0.7192511,-0.30598262,0.6501863,-0.4446708,0.4704244,-0.39842173,-2.0682623,-1.2913735,2.3404548,1.6551683,-1.0216881,0.5435445,-0.44185552,-2.1429853,-1.3654082,2.3614323,1.6067035,-0.9800391,-0.80489314,-1.6762153,-0.59658587,0.14775348,-1.1069676,1.9542992,-0.36785948,-0.09769535,-0.43224907,0.8988701,-1.3490758,-0.010545168,0.7201882,-0.1027832,-0.4918728,0.8389789,0.942373,0.06824946,0.19272356,0.2648258,-1.1456124,-0.056985438,-0.6828613,1.0,0.0,0.0,0.0,0.0,0.0,0.0,-0.5523046,0.032249063,-0.3488701,56.6098,-24.011898,72.17551,143.45023,-57.91483,119.57126,-34.445343
25.72779,176.0,69.35361,106.13103,4.9135647,7.281177,-1.1168915,-0.80171067,-0.58653754,0.17973258,0.75964016,-0.6061065,0.6827106,-0.3300639,0.4633734,-0.50050926,-2.1250122,-1.2894442,2.3008218,1.6749746,-1.0130455,0.5353963,-0.4577528,-2.1445723,-1.3569129,2.3494961,1.6261165,-0.9839988,-0.8148125,-1.5608963,-0.015048229,1.0841699,-1.2241428,1.9466541,-0.40344653,-0.111176014,-0.43235588,0.9053301,-1.347727,-0.010534625,0.6212821,-0.11326361,-0.49106407,0.83558345,0.9439798,0.060702197,0.19486399,0.259317,-1.0123217,0.13673362,-0.23063755,1.0,0.0,0.0,0.0,0.0,0.0,0.0,-0.53882396,0.032355875,-0.3553301,0.00449419,11.540723,57.462864,93.82362,-12.215734,2.1668673,-2.990204
3.5031574,135.2587,42.948116,75.39556,3.996311,4.1997185,-0.6645535,-0.75958526,-0.6219486,0.18167211,0.6413841,-0.7015173,0.654546,0.26632127,0.45943776,-0.51994765,-2.126405,-1.2927744,2.2793443,1.6915711,-0.95736665,0.52624387,-0.47204074,-2.141902,-1.3424895,2.3371518,1.644429,-0.98751307,-0.94395846,-1.3852593,0.35657695,1.5633651,-1.238732,1.7989093,-0.3327374,-0.124643326,-0.4324627,0.9108018,-1.3463795,-0.010524092,0.52247494,-0.12292433,-0.4887333,0.8353969,0.945467,0.05017421,0.19853887,0.2532921,-0.94995767,0.27033654,0.04555459,1.0,0.0,0.0,0.0,0.0,0.0,0.0,-0.52535665,0.032462686,-0.36080182,-11.48101,17.430569,35.775455,48.37408,-1.8048048,-12.891364,7.458729
-5.8320646,95.39907,25.382353,48.523537,2.972125,2.0429986,-0.22434527,-0.73494285,-0.6549668,0.33897057,0.71733063,-0.69823074,0.64875966,0.28172973,0.45274958,-0.5375374,-2.1080048,-1.2707564,2.2673287,1.7093049,-0.9593401,0.5155532,-0.48479518,-2.1363935,-1.3257067,2.3251698,1.6609256,-0.9901929,-1.1070641,-1.2392436,0.6111353,1.7177312,-1.1849978,1.603941,-0.24550624,-0.13809729,-0.4325695,0.9152862,-1.3450334,-0.01051357,0.4237666,-0.13222218,-0.48545265,0.8369165,0.94679666,0.038783252,0.2027349,0.24692206,-0.92461276,0.352125,0.18069449,1.0,0.0,0.0,0.0,0.0,0.0,0.0,-0.5119027,0.032569498,-0.36528617,-15.206933,14.493632,24.175543,15.781093,5.241418,-18.268919,9.001192
-3.9674528,54.81814,13.590565,23.322247,1.5647852,0.23335928,0.30224532,-0.6993854,-0.70438707,0.4192207,0.69719195,-0.70163596,0.6421713,0.30748275,0.44561464,-0.5552339,-2.0944715,-1.2559875,2.2550063,1.7251427,-0.95944464,0.50363225,-0.49674138,-2.129054,-1.3090422,2.313802,1.675555,-0.99203444,-1.2188578,-1.1799884,0.77281517,1.6498371,-1.1210046,1.4183538,-0.16322353,-0.1515379,-0.43267632,0.9187842,-1.3436886,-0.010503058,0.325157,-0.1413579,-0.48179817,0.8388752,0.94794595,0.0278164,0.20665662,0.24066071,-0.9120685,0.37691012,0.19499744,1.0,0.0,0.0,0.0,0.0,0.0,0.0,-0.49846208,0.03267631,-0.3687842,-10.6820345,5.8627367,15.485764,-6.6632032,6.2851906,-17.867256,8.37419
-2.9016843,31.03532,6.434903,10.926727,0.87400997,-0.78205526,0.48113608,-0.69270945,-0.71003664,0.43389833,0.6929803,-0.7058321,0.6166947,0.28104016,0.4343613,-0.56774503,-2.0856643,-1.2397442,2.243219,1.7372245,-0.9639304,0.49101207,-0.5085228,-2.120757,-1.2936995,2.3029873,1.6884887,-0.9931655,-1.2758541,-1.1776725,0.8477621,1.4958103,-1.068678,1.2529458,-0.09603829,-0.16496515,-0.43278313,0.9212889,-1.3423452,-0.010492558,0.22558074,-0.15044975,-0.47815704,0.8405091,0.9489446,0.017919933,0.20991945,0.23476933,-0.91056037,0.3661536,0.14784956,1.0,0.0,0.0,0.0,0.0,0.0,0.0,-0.48503482,0.03278312,-0.3712889,-5.524397,0.1951456,7.1566105,-15.368962,5.135131,-16.122032,6.791304
-4.567852,16.391205,1.1334233,6.754049,0.80943143,-1.2979974,0.4332675,-0.68947446,-0.7284931,0.41378295,0.6873108,-0.7012714,0.6056245,0.25446385,0.4220646,-0.58137214,-2.0793788,-1.2249684,2.23286,1.7490512,-0.9677191,0.47815463,-0.52057916,-2.112277,-1.2798922,2.2925808,1.6999462,-0.9937329,-1.2888284,-1.215039,0.84730196,1.3425355,-1.0313212,1.110996,-0.04339381,-0.1783781,-0.43288612,0.9227986,-1.3410032,-0.010482067,0.12610406,-0.15964842,-0.47476768,0.841482,0.9498627,0.009306097,0.21242458,0.2292376,-0.925403,0.33655274,0.07632613,1.0,0.0,0.0,0.0,0.0,0.0,0.0,-0.47162187,0.032886118,-0.37279856,-1.2285471,-3.7588835,-0.25793314,-15.278912,3.6800146,-13.938665,5.32899
-6.398029,13.620941,-0.660125,8.431399,1.0027736,-1.3677235,0.2613784,-0.67818075,-0.7342425,0.37590697,0.6872157,-0.7006046,0.6109666,0.21612257,0.41033655,-0.59400344,-2.0746863,-1.2111707,2.2225204,1.7610428,-0.97212064,0.46540353,-0.53307897,-2.1042318,-1.2672694,2.2824376,1.7101657,-0.993876,-1.270281,-1.2617246,0.78975785,1.2361332,-1.0087678,0.9928592,-0.0044529443,-0.1917777,-0.43298912,0.9233142,-1.3396624,-0.010471587,0.026726823,-0.16906881,-0.47169113,0.84175974,0.95076466,0.0019096602,0.21428281,0.22388782,-0.9497476,0.30460402,0.008290679,1.0,0.0,0.0,0.0,0.0,0.0,0.0,-0.45822227,0.032989115,-0.3733142,1.9221783,-4.686475,-5.955899,-10.525656,2.2429705,-11.608351,3.9723496
-5.7928514,13.816686,-0.41598463,9.854952,1.0904063,-1.3556452,0.15984023,-0.64663917,-0.7591395,0.33851284,0.66670144,-0.69202334,0.6126872,0.18703942,0.4007396,-0.60899293,-2.0703804,-1.2005992,2.2132351,1.7714344,-0.97517204,0.45304725,-0.5460909,-2.096984,-1.2554,2.2724583,1.7193592,-0.99371195,-1.2239268,-1.3144017,0.7029807,1.1710967,-0.9942759,0.8952109,0.023724543,-0.20516396,-0.43309212,0.92283684,-1.3383231,-0.010461118,-0.07255106,-0.17874765,-0.46893692,0.84140146,0.9516857,-0.0044306503,0.21562554,0.21858664,-0.9756397,0.27270022,-0.053498928,1.0,0.0,0.0,0.0,0.0,0.0,0.0,-0.44483602,0.03309211,-0.37283683,4.681635,-5.2907705,-8.824671,-6.3450575,1.4313698,-9.599018,2.9033468
-13.333731,14.639206,-3.336372,14.42555,1.595405,-1.2042971,-0.124145046,-0.66012865,-0.7609146,0.23210599,0.6712916,-0.6888242,0.6000612,0.14137283,0.3870344,-0.62218237,-2.0737734,-1.1882708,2.2035758,1.7793653,-0.9795747,0.4410691,-0.55952054,-2.0909948,-1.2438433,2.262582,1.7276981,-0.9933429,-1.1885754,-1.3525623,0.56323963,1.1513745,-0.9846527,0.81397057,0.04168305,-0.21853685,-0.4331951,0.9213674,-1.336985,-0.010450658,-0.17172968,-0.1888218,-0.46642494,0.84049803,0.952677,-0.009802035,0.21664785,0.21301177,-1.0196764,0.250291,-0.10559556,1.0,0.0,0.0,0.0,0.0,0.0,0.0,-0.43146312,0.03319511,-0.3713674,3.696394,-3.8284302,-14.289391,-1.7151833,1.067388,-7.927835,1.9127965
-9.214819,18.1496,-0.6572248,13.94642,1.3794086,-1.1163169,-0.096282735,-0.6094932,-0.78778833,0.19937474,0.64508694,-0.6780544,0.6158812,0.08872411,0.38011977,-0.63829935,-2.0710573,-1.1793346,2.1947765,1.7892863,-0.9844705,0.42957494,-0.573325,-2.086341,-1.2324088,2.2528012,1.7353427,-0.99286604,-1.1360189,-1.3897934,0.43212566,1.1415707,-0.97598344,0.74840003,0.04990032,-0.2318964,-0.4332981,0.918907,-1.3356483,-0.01044021,-0.27080914,-0.1992526,-0.4641266,0.83910036,0.9537401,-0.014330714,0.21743298,0.20711635,-1.0520276,0.22961879,-0.15430847,1.0,0.0,0.0,0.0,0.0,0.0,0.0,-0.41810358,0.033298105,-0.36890697,5.3548098,-3.7549734,-13.310009,-0.7308006,0.9048104,-6.3919663,0.9196795
-15.521706,10.67054,-6.6324544,12.862032,1.3655559,-1.3978506,-0.27011126,-0.5711461,-0.79369575,-0.05314147,0.6257401,-0.68612254,0.6106503,0.07027473,0.37246034,-0.6526946,-2.091655,-1.1698347,2.1841888,1.7964078,-0.9858386,0.41868684,-0.58741933,-2.0838537,-1.2210791,2.243066,1.7424152,-0.99234533,-1.072794,-1.4160717,0.18678641,1.1312187,-0.97216344,0.69376826,0.053082034,-0.2452426,-0.4334011,0.9154565,-1.3343129,-0.010429772,-0.36978957,-0.21014881,-0.46209145,0.83707255,0.9549031,-0.017787674,0.21811768,0.2006697,-1.1028428,0.2013884,-0.22239079,1.0,0.0,0.0,0.0,0.0,0.0,0.0,-0.40475738,0.0334011,-0.36545646,6.41551,-2.6568174,-24.779861,-0.726223,0.5458474,-5.350888,0.38316324
-30.930836,-0.53747046,-16.592773,14.9886465,1.901342,-1.5634747,-0.5841961,-0.5839076,-0.8020309,-0.329238,0.6487239,-0.68861926,0.60876596,0.107229054,0.36029607,-0.66762245,-2.1167774,-1.1562067,2.174204,1.8032918,-0.98162246,0.4082527,-0.60171777,-2.0847769,-1.2097056,2.2333539,1.7490089,-0.99177504,-1.0326897,-1.4344766,-0.18704557,1.1411271,-0.96979225,0.64820427,0.058529373,-0.25857544,-0.4335041,0.9110169,-1.3329788,-0.010419344,-0.46867102,-0.22186327,-0.46032524,0.83423495,0.9562339,-0.019774336,0.21887717,0.19317944,-1.1943667,0.17490068,-0.30806994,1.0,0.0,0.0,0.0,0.0,0.0,0.0,-0.39142454,0.0335041,-0.36101687,4.283428,-1.8723011,-37.89781,1.4621258,0.6216407,-4.493916,0.6145649
-37.123672,2.115949,-17.668024,17.881336,2.1604538,-1.251868,-0.69687986,-0.600796,-0.7978017,-0.4598453,0.66690433,-0.680728,0.6386174,0.0810971,0.34817308,-0.68149793,-2.1307614,-1.1430151,2.165281,1.8128706,-0.98366535,0.39798924,-0.6161068,-2.089488,-1.1981146,2.2236798,1.7552288,-0.9911752,-1.0228556,-1.440568,-0.5678839,1.1670123,-0.9653448,0.6133953,0.06067448,-0.27189493,-0.4336071,0.9055893,-1.3316462,-0.010408927,-0.5674536,-0.23455763,-0.4587078,0.8305827,0.95774055,-0.020191532,0.21984166,0.18437728,-1.2935765,0.16460095,-0.3887979,1.0,0.0,0.0,0.0,0.0,0.0,0.0,-0.37810504,0.033607095,-0.35558927,1.4068604,-0.68748,-38.723743,3.1541586,0.8466244,-3.446877,0.26983097
-36.339794,10.18577,-14.132578,19.530407,2.1144197,-0.83318925,-0.62471646,-0.60495126,-0.79725194,-0.5708359,0.6828096,-0.68415105,0.65298086,0.124391064,0.3374941,-0.695832,-2.1465716,-1.1298337,2.1552646,1.8205268,-0.97873604,0.38768718,-0.6305025,-2.0976286,-1.1862013,2.2140324,1.7611606,-0.99052763,-1.0310886,-1.4397545,-0.898198,1.201437,-0.96392363,0.586462,0.06620181,-0.28520107,-0.4337101,0.8991745,-1.3303148,-0.010398519,-0.66613746,-0.2481637,-0.4570732,0.8262187,0.95936024,-0.019166201,0.22107498,0.17431661,-1.3807122,0.17084429,-0.4575389,1.0,0.0,0.0,0.0,0.0,0.0,0.0,-0.3647989,0.033710092,-0.3491745,-0.35722256,-0.053954124,-33.622528,4.021883,0.4390359,-2.6898623,0.5741611
-25.182043,19.67114,-6.7605844,16.403322,1.5038772,-0.55399126,-0.33451653,-0.57605815,-0.8042401,-0.64858246,0.6519285,-0.6615497,0.64866394,0.11356982,0.33008137,-0.71092653,-2.1624868,-1.1210085,2.1478775,1.826027,-0.9791706,0.37738606,-0.6449011,-2.1084318,-1.1741507,2.204446,1.766856,-0.9898381,-1.0287641,-1.4404309,-1.14187,1.2076961,-0.956516,0.56392616,0.069817774,-0.29849386,-0.4338131,0.89177364,-1.3289847,-0.010388123,-0.76472265,-0.2623949,-0.45535278,0.8212147,0.9609991,-0.01690771,0.22249173,0.1633777,-1.4338201,0.18131092,-0.5203969,1.0,0.0,0.0,0.0,0.0,0.0,0.0,-0.3515061,0.03381309,-0.34177363,0.54659843,-0.23117065,-24.696945,1.0802507,0.8357167,-2.2942305,0.33366382
-10.556213,30.630484,2.181856,12.881376,0.81693614,-0.31730163,-0.0082522705,-0.5442826,-0.8127534,-0.67606646,0.6296194,-0.6541571,0.62449324,0.08353454,0.3229578,-0.72617644,-2.1760385,-1.1111888,2.1390305,1.8293053,-0.98148465,0.36725613,-0.6593445,-2.120883,-1.1622374,2.1949399,1.7723377,-0.989141,-1.0074344,-1.446202,-1.2794052,1.1869168,-0.9490751,0.5428816,0.0694305,-0.3117733,-0.4339161,0.88338476,-1.327656,-0.010377737,-0.86360294,-0.27685928,-0.4535427,0.81565446,0.96256435,-0.013708839,0.22394595,0.15208614,-1.4466082,0.19086052,-0.5738073,1.0,0.0,0.0,0.0,0.0,0.0,0.0,-0.33822668,0.033916086,-0.33338475,2.2270203,-0.74059963,-13.75773,-1.8047333,0.6191969,-2.1604896,-0.104007125
11.793331,43.9011,13.745901,8.004175,-0.16354537,-0.26149768,0.3878462,-0.4478998,-0.81749845,-0.6772073,0.61792946,-0.64918375,0.6105036,0.10545501,0.32246616,-0.74109435,-2.1886036,-1.1004444,2.1300216,1.8333881,-0.9785955,0.35777423,-0.6738661,-2.1339903,-1.150635,2.1854985,1.7776248,-0.9884381,-0.9293059,-1.454518,-1.320105,1.1512686,-0.9435471,0.5238129,0.070143625,-0.32504034,-0.4340191,0.8740078,-1.3263286,-0.010367361,-0.9623844,-0.2910595,-0.45173836,0.80966103,0.96396524,-0.009936743,0.22532302,0.14107394,-1.4064864,0.18643537,-0.61402917,0.0,1.0,0.0,0.0,0.0,0.0,0.0,-0.32495964,0.034019083,-0.3240078,7.566464,-0.9625912,-3.640294,-3.5673141,0.2075553,-1.9587398,-0.044375658
19.005848,50.369453,18.126045,7.5178695,-0.35460097,-0.19109619,0.48792574,-0.42256674,-0.8182872,-0.69444466,0.6134589,-0.6469229,0.5903293,0.09028256,0.31551754,-0.7556948,-2.2034347,-1.0892891,2.1208062,1.8366578,-0.9794099,0.349143,-0.6884611,-2.1471472,-1.1393778,2.176099,1.7827289,-0.98774195,-0.8422221,-1.4616877,-1.3125838,1.1167833,-0.9402106,0.5057467,0.0690972,-0.33829403,-0.4341221,0.86364377,-1.3250026,-0.010356996,-1.0610671,-0.30473328,-0.45000458,0.8033449,0.9651721,-0.0058426103,0.22658129,0.13065036,-1.3495524,0.17802846,-0.6436092,0.0,1.0,0.0,0.0,0.0,0.0,0.0,-0.31170595,0.03412208,-0.31364375,8.373523,-0.8408785,1.3131142,-3.5362482,-0.09649992,-1.8565416,-0.22867024
30.580326,56.358704,23.195675,5.4000244,-0.7954053,-0.29048938,0.6421873,-0.3303181,-0.8190468,-0.6912257,0.59963286,-0.6437489,0.5806328,0.12774123,0.31611118,-0.77036583,-2.2162697,-1.0794146,2.1117241,1.8407922,-0.97496784,0.34163758,-0.7031105,-2.160037,-1.1284564,2.1667225,1.7876651,-0.9870305,-0.72154456,-1.4664266,-1.2783889,1.0833437,-0.93821424,0.4893152,0.07140454,-0.35153437,-0.43422508,0.8522936,-1.3236778,-0.010346641,-1.1596512,-0.31767273,-0.4484501,0.79678416,0.9661712,-0.0015985107,0.22771572,0.121062264,-1.2701656,0.15637408,-0.66604185,0.0,1.0,0.0,0.0,0.0,0.0,0.0,-0.2984656,0.034225076,-0.3022936,11.594879,-0.5810499,4.1505575,-3.5512686,-0.3091693,-1.7054021,0.08201301
37.47875,56.40147,24.802011,2.4499278,-1.1018772,-0.4849385,0.7469265,-0.25935656,-0.8233806,-0.6848981,0.5445207,-0.6110148,0.5348779,0.12443236,0.31570193,-0.78544855,-2.2285268,-1.0740043,2.105621,1.8411529,-0.97458726,0.33545336,-0.71780616,-2.1725845,-1.1180938,2.1574702,1.7924004,-0.98629093,-0.58409864,-1.4704437,-1.2593384,1.0071628,-0.875341,0.47592157,0.07855415,-0.36471033,-0.43343163,0.8426369,-1.0277077,0.13659775,-0.3347713,-0.3297534,-0.44721985,0.7899423,0.9669869,0.0027853444,0.22862758,0.11250731,-1.1893823,0.12031391,-0.6998315,0.0,1.0,0.0,0.0,0.0,0.0,0.0,-0.28528965,0.03343162,-0.29263687,13.490891,-0.42307377,0.55332184,-9.863687,10.675454,-0.89641213,1.0828108
7.89177,58.80724,17.862272,16.513588,1.0694114,0.16525632,0.25118983,-0.38861126,-0.8181071,-0.61252105,0.6315419,-0.53757113,0.5285902,0.26449063,0.29659224,-0.7996169,-2.2338367,-1.0549396,2.103713,1.8452594,-0.95984185,0.3297542,-0.73250896,-2.1846466,-1.1079277,2.149055,1.7970352,-0.98537827,-0.5656529,-1.4706702,-1.1867758,1.0200102,-0.8319341,0.45942882,0.095424116,-0.37497997,-0.43206596,0.8385443,-1.0266801,0.13646118,-0.43408152,-0.3414507,-0.44595528,0.7830283,0.96774364,0.0070165084,0.22911616,0.1045406,-1.1580259,0.13489498,-0.6940461,0.0,1.0,0.0,0.0,0.0,0.0,0.0,-0.27502,0.032065958,-0.2885443,1.70964,-0.18494129,7.6675415,1.3275385,3.9113283,-1.6884923,1.6580508
4.618169,63.236168,18.624905,19.978085,1.6046572,0.37905112,0.12243006,-0.34279683,-0.82153726,-0.5396403,0.6387483,-0.49366236,0.55727935,0.19332607,0.29547453,-0.8146627,-2.2386107,-1.0440528,2.0996888,1.8527632,-0.9660457,0.3241094,-0.7472175,-2.195732,-1.0974506,2.1411777,1.8015518,-0.98435116,-0.56439877,-1.4715043,-1.0808043,1.0572233,-0.7745254,0.44888532,0.10509715,-0.38523912,-0.4307022,0.8334593,-1.0256537,0.13632475,-0.5332924,-0.3528762,-0.4444542,0.7762875,0.96844286,0.010854339,0.2293762,0.096886866,-1.1323888,0.16094886,-0.67264956,0.0,1.0,0.0,0.0,0.0,0.0,0.0,-0.26476085,0.030702204,-0.2834593,0.032019615,-0.2542019,10.993481,3.793788,5.304539,-1.0665178,0.973016
-2.2626076,57.458862,14.412512,19.11042,1.6181766,0.30991924,0.083824076,-0.3595574,-0.8244807,-0.54843414,0.5793754,-0.4750316,0.495217,0.19958958,0.28815368,-0.82966554,-2.2505755,-1.0395131,2.0936744,1.8510735,-0.9643922,0.31827578,-0.761946,-2.2059326,-1.0868229,2.133758,1.8059254,-0.9832411,-0.58967894,-1.4738814,-0.9987197,1.0649172,-0.7324314,0.43349954,0.11303976,-0.3954878,-0.42934036,0.827383,-1.0246283,0.13618845,-0.6324041,-0.36413956,-0.44267273,0.7696492,0.96910745,0.014421435,0.22940229,0.08942706,-1.1192077,0.18857361,-0.6660682,0.0,1.0,0.0,0.0,0.0,0.0,0.0,-0.2545122,0.029340357,-0.27738297,-2.5297403,-0.40426254,8.465886,0.91359615,3.842008,-1.5539587,0.808157
-3.735769,56.95369,13.430322,18.961588,1.5512159,0.29565474,0.07823926,-0.3584838,-0.82290304,-0.51744133,0.59341717,-0.4770725,0.50532734,0.24642079,0.2824274,-0.8442363,-2.2576768,-1.0274812,2.0860507,1.8564581,-0.95859903,0.31218085,-0.7766889,-2.2154236,-1.0761341,2.1266437,1.8101654,-0.98202896,-0.61604154,-1.4750386,-0.9317457,1.0706599,-0.70594186,0.42081386,0.12399238,-0.40572643,-0.42797852,0.82031626,-1.0236038,0.13605228,-0.73141664,-0.37527752,-0.44062424,0.7630479,0.96973276,0.017844353,0.2292537,0.08211338,-1.1072017,0.2158098,-0.6631928,0.0,1.0,0.0,0.0,0.0,0.0,0.0,-0.24427354,0.02797851,-0.27031624,-2.623248,-0.2791643,6.925583,0.7338047,2.3100615,-1.2804747,1.1030898
-7.304917,52.024586,10.440204,17.522556,1.5043945,0.19579262,0.052966177,-0.3792389,-0.8238442,-0.5224725,0.5699573,-0.4333177,0.4663615,0.23208192,0.27425694,-0.8590733,-2.2676709,-1.0191383,2.0833118,1.8568015,-0.95882076,0.30577645,-0.79144317,-2.2245026,-1.0655369,2.1198268,1.8142624,-0.98072624,-0.6484036,-1.4760065,-0.8997271,1.0568006,-0.6741316,0.40605295,0.13241555,-0.41595507,-0.42662048,0.8122686,-1.0225804,0.13591626,-0.82920706,-0.38635826,-0.43830872,0.75638086,0.9703285,0.021285314,0.22891627,0.074879155,-1.1036309,0.24207398,-0.6726232,0.0,1.0,0.0,0.0,0.0,0.0,0.0,-0.23404491,0.026620477,-0.2622686,-3.186953,-0.25274754,3.347087,-1.1930227,2.906549,-1.5060961,0.8577168
-4.770504,50.507103,10.289763,15.255853,1.224848,0.109622,0.11939226,-0.37766993,-0.82569134,-0.5057175,0.5455923,-0.4188204,0.45875916,0.25563958,0.26800945,-0.8740123,-2.2750742,-1.0109776,2.0779448,1.8601383,-0.9551623,0.29912314,-0.80621177,-2.2333717,-1.0552086,2.1133113,1.8182201,-0.9793329,-0.67090756,-1.4775361,-0.8819315,1.0253823,-0.6450259,0.3922175,0.14165069,-0.4261732,-0.42526245,0.8032438,-1.021558,0.13578036,-0.9268997,-0.39737272,-0.43577576,0.7495557,0.97089785,0.024854882,0.2283594,0.06776038,-1.0958005,0.26210916,-0.6904067,0.0,1.0,0.0,0.0,0.0,0.0,0.0,-0.22382677,0.025262445,-0.2532438,-2.2280812,-0.29976368,1.9388556,-2.9685497,2.640891,-1.4324784,0.92805624
-8.383577,47.71491,8.107996,15.1642475,1.3442439,0.039895356,0.07563226,-0.4008879,-0.82801616,-0.5285938,0.53531086,-0.36312813,0.40559378,0.27992275,0.25903434,-0.8890134,-2.286231,-1.0016775,2.0769985,1.8587795,-0.9513407,0.292219,-0.8210023,-2.242279,-1.0452179,2.1071963,1.8220139,-0.97783756,-0.69679785,-1.4801222,-0.89341396,0.9911165,-0.6014957,0.37483314,0.1521858,-0.43638086,-0.42390442,0.7932428,-1.0205367,0.13564461,-1.0244948,-0.40837955,-0.433033,0.74250555,0.97145426,0.02864971,0.22752967,0.060711313,-1.097325,0.28379554,-0.714441,0.0,1.0,0.0,0.0,0.0,0.0,0.0,-0.21361911,0.023904413,-0.2432428,-2.5374174,-0.40578842,-1.0450006,-3.216076,4.1320205,-1.8116057,1.0736763
-3.3858547,50.638756,10.015192,14.248709,1.226739,-0.028937459,0.12129368,-0.3840255,-0.8268491,-0.5214074,0.5204967,-0.3048569,0.3645266,0.30001512,0.25381646,-0.90368724,-2.2944198,-0.9931682,2.0767107,1.8584665,-0.94783604,0.28520194,-0.8358089,-2.251359,-1.0356055,2.1016333,1.8256147,-0.9762293,-0.70318913,-1.4812703,-0.9138071,0.95022404,-0.54083055,0.354782,0.16392227,-0.44644308,-0.42214584,0.78415376,-0.9930309,0.20430547,-0.79203796,-0.41935253,-0.4301262,0.7352068,0.9720093,0.032682206,0.22635904,0.05377164,-1.0923339,0.29825765,-0.7401413,0.0,1.0,0.0,0.0,0.0,0.0,0.0,-0.2035569,0.022145838,-0.23415375,-0.69891214,-0.2758026,-1.341188,-3.406787,5.603647,-2.0858765,1.128307
-9.910945,52.193737,8.537952,16.715885,1.5059762,0.0940178,0.033626657,-0.42799246,-0.8214444,-0.53464496,0.5195561,-0.30184028,0.32852158,0.32838213,0.24240269,-0.9179533,-2.3048234,-0.98364997,2.0714493,1.8584669,-0.9433911,0.27797976,-0.8505975,-2.2606668,-1.0262903,2.0965977,1.8290079,-0.97449553,-0.72843325,-1.4785287,-0.9362522,0.92604446,-0.49211732,0.33365867,0.17656587,-0.45632362,-0.41999817,0.77602404,-0.9863935,0.21805291,-0.820517,-0.4303336,-0.42699814,0.7276907,0.97255534,0.036963016,0.22488667,0.046859305,-1.0945227,0.32334954,-0.75975466,0.0,1.0,0.0,0.0,0.0,0.0,0.0,-0.19367635,0.019998163,-0.22602403,-2.4792552,0.11818409,-2.1134257,-2.2023678,4.639822,-2.2109568,1.2811899
-4.770811,58.62593,11.80664,17.302769,1.4824839,0.18917254,0.05984107,-0.41236916,-0.8170153,-0.501973,0.5233012,-0.26573074,0.315038,0.35483164,0.23674284,-0.932299,-2.3108642,-0.97396016,2.0700245,1.8605117,-0.93901235,0.270605,-0.8653337,-2.2700014,-1.0171045,2.0920465,1.8321989,-0.9726272,-0.740491,-1.4724178,-0.9316957,0.9166399,-0.4433731,0.3139947,0.19032027,-0.46607876,-0.4177227,0.7677112,-0.96862847,0.22810337,-0.83703804,-0.44125366,-0.42363548,0.7200701,0.97308046,0.04135435,0.22316927,0.03999446,-1.0856779,0.34644315,-0.7669381,0.0,1.0,0.0,0.0,0.0,0.0,0.0,-0.18392122,0.017722696,-0.21771121,-1.2175679,0.45847893,0.6769538,-0.7753968,4.761094,-2.0398855,1.3966054
-7.220399,60.849453,11.8774,19.026007,1.8153275,0.2695207,-0.011792906,-0.43384492,-0.817278,-0.49945158,0.52807695,-0.18454769,0.27384555,0.36365402,0.2272205,-0.9470615,-2.3199465,-0.9642968,2.0735917,1.8595834,-0.93626183,0.26306382,-0.88001454,-2.2792215,-1.0079111,2.088129,1.8351839,-0.9706248,-0.7586773,-1.4671348,-0.91776925,0.9208069,-0.37544203,0.2930631,0.20361283,-0.47555923,-0.4154129,0.75920606,-0.9413258,0.23182984,-0.8552474,-0.45212746,-0.41999054,0.71243197,0.97359973,0.04571275,0.22116894,0.03313699,-1.0820049,0.3758195,-0.76672393,0.0,1.0,0.0,0.0,0.0,0.0,0.0,-0.17444074,0.015412897,-0.20920604,-1.8196344,0.37190914,1.6261578,0.5851507,6.5110564,-2.1929681,1.3502866
-7.703741,63.90833,12.536204,19.895252,1.923595,0.3446353,-0.03623213,-0.44862598,-0.8087237,-0.48340443,0.5245871,-0.14659958,0.22039928,0.36587393,0.21820122,-0.9608869,-2.327562,-0.9554524,2.0734692,1.8572237,-0.9340374,0.2553114,-0.89461625,-2.2882166,-0.9986598,2.084902,1.8379412,-0.96850127,-0.7808017,-1.4583429,-0.8928328,0.92716026,-0.3059866,0.2695125,0.21525574,-0.48475504,-0.41306686,0.75055444,-0.91237795,0.23529124,-0.8684982,-0.46295214,-0.4160385,0.7048377,0.9741196,0.04996039,0.21887389,0.026250878,-1.0769302,0.40775934,-0.76090163,0.0,1.0,0.0,0.0,0.0,0.0,0.0,-0.16524494,0.013066858,-0.20055443,-2.2186995,0.72255135,2.7475238,0.7930279,6.6498756,-2.4531245,1.1815816
-5.0386868,65.22029,13.346049,18.917063,1.7078222,0.33467972,0.012711361,-0.45077306,-0.8034267,-0.4666815,0.5120416,-0.14379033,0.15410602,0.37933177,0.21023409,-0.9749589,-2.3348846,-0.94745564,2.070523,1.8533518,-0.9305681,0.24737032,-0.9091188,-2.2969143,-0.98940724,2.0822468,1.8404341,-0.96626675,-0.79866254,-1.448102,-0.8612686,0.92512137,-0.2531108,0.24226761,0.22617388,-0.49364328,-0.41070747,0.74178547,-0.8811034,0.23624331,-0.8798428,-0.4736786,-0.4118042,0.6972961,0.97463095,0.054109447,0.21631294,0.019375574,-1.065304,0.43475974,-0.7557788,0.0,1.0,0.0,0.0,0.0,0.0,0.0,-0.15635669,0.010707468,-0.19178545,-1.8147588,0.87468624,3.4410357,-0.07485151,4.973376,-2.8188705,1.0894805
-3.0504034,63.754192,13.180933,17.097668,1.5253448,0.25347465,0.06692008,-0.4577762,-0.80057365,-0.45925605,0.4849675,-0.088839255,0.053992487,0.39720947,0.2015927,-0.98917615,-2.34284,-0.9409105,2.0733628,1.8458333,-0.9265458,0.23927243,-0.9235259,-2.305322,-0.9803168,2.0801394,1.8426046,-0.963923,-0.81362176,-1.4387524,-0.8328757,0.90410554,-0.19785088,0.20816177,0.23706552,-0.5022292,-0.4083538,0.7328683,-0.8511239,0.23507448,-0.89570206,-0.48427534,-0.40733528,0.689759,0.97513974,0.058214884,0.21343689,0.012572627,-1.0517071,0.4564379,-0.756597,0.0,1.0,0.0,0.0,0.0,0.0,0.0,-0.14777076,0.0083538,-0.1828683,-1.5347123,0.79529285,3.1230092,-1.98735,5.212173,-3.5142155,1.0835856
5.1540613,64.62055,15.407937,14.677296,1.2010391,0.16400617,0.16271223,-0.43689197,-0.8012227,-0.41561434,0.47307777,-0.054644518,-0.020604223,0.4100233,0.19558322,-1.0036482,-2.3468833,-0.933009,2.0746748,1.8405442,-0.92292064,0.23117001,-0.93786824,-2.3133175,-0.9714961,2.078568,1.8444071,-0.961473,-0.80941504,-1.4331008,-0.78720593,0.8749958,-0.14465927,0.17049712,0.24749094,-0.5104847,-0.4060459,0.7238197,-0.8170665,0.22909626,-0.9079598,-0.49465942,-0.4027443,0.682211,0.9756591,0.062240604,0.21018992,0.0059702606,-1.0277038,0.4658572,-0.7576428,0.0,1.0,0.0,0.0,0.0,0.0,0.0,-0.13951528,0.0060459077,-0.17381966,0.33205748,0.4428625,4.913187,-2.856946,4.9773545,-3.8670838,1.0201544
7.825189,68.22603,16.830278,15.500969,1.0724912,0.16794637,0.16455334,-0.431074,-0.7959797,-0.38239998,0.5003422,-0.10808118,-0.0868658,0.43605185,0.18806261,-1.0174662,-2.3515575,-0.9214619,2.0677598,1.8357205,-0.9178678,0.22317751,-0.9521543,-2.3207753,-0.96279764,2.077256,1.8458166,-0.9589123,-0.7962311,-1.4274724,-0.73092145,0.86829656,-0.12788808,0.13091278,0.25875327,-0.5183644,-0.40382385,0.7147209,-0.7783882,0.21993014,-0.91049945,-0.5047569,-0.398098,0.6747036,0.97616553,0.0661651,0.20669493,-0.000384114,-0.99789953,0.46994117,-0.75179493,0.0,1.0,0.0,0.0,0.0,0.0,0.0,-0.13163555,0.0038238466,-0.1647209,1.2126088,0.44362545,6.0122967,-0.6353736,1.3228923,-4.0412216,1.0795653
35.712967,80.71142,27.611748,11.728733,0.37203506,0.16749325,0.41760972,-0.3393041,-0.7901886,-0.19450486,0.4920537,-0.09850931,-0.09713475,0.44344738,0.1892471,-1.0311731,-2.3402257,-0.9135923,2.067405,1.8361031,-0.9145676,0.21574076,-0.9663726,-2.3268945,-0.9541478,2.0760436,1.8468671,-0.9562468,-0.72705716,-1.420147,-0.5702451,0.86324483,-0.12087568,0.09632321,0.26876038,-0.52568007,-0.40180206,0.7058681,-0.7162509,0.19612457,-0.87722474,-0.5142555,-0.3936596,0.6674387,0.9766827,0.06958963,0.20300364,-0.0061295475,-0.9279783,0.44101578,-0.72129124,0.0,1.0,0.0,0.0,0.0,0.0,0.0,-0.12431991,0.001802057,-0.15586811,6.649649,0.645113,16.728283,-0.6820679,0.17663538,-3.487146,0.87901354
51.964687,89.56586,35.264427,10.567703,0.46698847,0.30490446,0.51858926,-0.3101592,-0.802617,0.050504945,0.48267752,-0.020328522,-0.10290535,0.38857478,0.18472484,-1.0466343,-2.321844,-0.9058801,2.0740108,1.8365766,-0.91738933,0.2091018,-0.98059,-2.3304005,-0.9455667,2.075083,1.847611,-0.9535326,-0.64386606,-1.422498,-0.27492613,0.8556063,-0.08975104,0.06703836,0.2719016,-0.5322666,-0.40007973,0.69757485,-0.6398478,0.16427144,-0.813998,-0.5229106,-0.38959885,0.6606724,0.9773093,0.07184369,0.19896014,-0.010941477,-0.83945566,0.39888528,-0.6647621,0.0,1.0,0.0,0.0,0.0,0.0,0.0,-0.11773336,7.972121e-05,-0.14757484,8.008635,-0.31867027,30.334812,-1.0046005,2.4568424,-2.9172957,0.20105243
81.229385,92.17025,43.318344,2.747482,-0.25462598,0.02163878,0.799842,-0.1844885,-0.8060033,0.24083947,0.41019717,0.13568582,-0.13111329,0.3723213,0.19065295,-1.0611904,-2.3063166,-0.904547,2.0886517,1.8344996,-0.9163004,0.20373477,-0.99486554,-2.3304098,-0.9373929,2.0748894,1.8480822,-0.9508108,-0.50226265,-1.4295382,0.093500234,0.8037397,0.0012597152,0.040522162,0.2717106,-0.5379877,-0.39878464,0.690048,-0.55026245,0.11827082,-0.7335697,-0.53047323,-0.3862419,0.6545115,0.9781782,0.07236487,0.1942252,-0.014397417,-0.7241978,0.3183314,-0.602816,0.0,1.0,0.0,0.0,0.0,0.0,0.0,-0.11201227,-0.0012153685,-0.14004797,13.777256,-0.810647,37.832333,-5.4759026,8.292961,-2.6325016,-0.15697479
64.103065,76.85313,34.194115,1.4352398,0.0527827,-0.18898544,0.6812763,-0.20755808,-0.81074524,0.2508862,0.3140642,0.26650319,-0.1733917,0.32336193,0.18297896,-1.07594,-2.3053212,-0.9059865,2.1015399,1.8307431,-0.9184746,0.1994738,-1.0092336,-2.3273826,-0.9301547,2.0759327,1.8482865,-0.9481319,-0.4014384,-1.4398513,0.3746322,0.6969831,0.13676809,0.013840864,0.26643994,-0.5429797,-0.39788055,0.6830472,-0.48322934,0.081736624,-0.6912868,-0.5371251,-0.3835659,0.64871407,0.97934103,0.071316496,0.18849376,-0.016589273,-0.64245653,0.25378796,-0.5749474,0.0,1.0,0.0,0.0,0.0,0.0,0.0,-0.10702026,-0.0021194518,-0.13304716,9.865242,-1.164031,28.766382,-10.748922,12.970604,-2.6601028,-0.57302713
68.415276,72.96376,33.02088,-2.1416223,-0.35111362,-0.3952535,0.7647759,-0.1100631,-0.79654247,0.35184,0.22912878,0.40205604,-0.103440605,0.3780185,0.18846749,-1.0888878,-2.2921987,-0.9072418,2.1161385,1.8379425,-0.91033006,0.19634579,-1.0236262,-2.321993,-0.924269,2.0785809,1.8483086,-0.94546545,-0.28387338,-1.4394822,0.59567803,0.5525167,0.30574226,-0.0016858352,0.26663366,-0.54732704,-0.3973503,0.67639536,-0.42001066,0.04388208,-0.6597283,-0.54295254,-0.38160324,0.64307624,0.98079515,0.06891497,0.18161573,-0.017530022,-0.5608777,0.1793346,-0.562693,0.0,1.0,0.0,0.0,0.0,0.0,0.0,-0.102672935,-0.0026496947,-0.12639534,11.574,-0.11911392,22.657145,-14.430868,16.42766,-1.5212725,-0.0018000603
61.756596,68.82857,29.988073,-2.4971251,-0.21970013,-0.33250853,0.7266032,-0.082064,-0.7994773,0.48253578,0.13096271,0.5347052,0.03692375,0.35115433,0.1881394,-1.1035739,-2.2737396,-0.91117275,2.1320515,1.852001,-0.91035,0.19423847,-1.0380038,-2.3145854,-0.9200359,2.0830562,1.8483084,-0.9428104,-0.186664,-1.4377626,0.7904315,0.3806988,0.4937795,0.00074097316,0.26525226,-0.55110025,-0.39716148,0.66996926,-0.36447933,0.011012389,-0.6402114,-0.5480337,-0.38031578,0.6374736,0.9825187,0.06523698,0.17350338,-0.017257586,-0.48927972,0.11455818,-0.56200343,0.0,1.0,0.0,0.0,0.0,0.0,0.0,-0.09889972,-0.0028385222,-0.11996925,9.626833,0.011181831,19.819021,-17.063475,18.510693,0.31083786,-0.097334385
59.466328,54.13418,24.886316,-10.526742,-1.0366664,-0.40555137,0.978854,-0.072636686,-0.799235,0.5590056,-0.15780576,0.6323722,0.12624523,0.34565043,0.1869748,-1.1179273,-2.2586849,-0.93581647,2.1462934,1.860933,-0.9082454,0.19285233,-1.0523566,-2.3054955,-0.91851044,2.0893705,1.8484172,-0.9401685,-0.12275396,-1.4352564,0.9491297,0.0771789,0.6767896,0.014637852,0.26423115,-0.5543971,-0.39727592,0.6634431,-0.31944206,-0.018491307,-0.6603396,-0.5523782,-0.37970543,0.6315457,0.98448753,0.060601234,0.16391672,-0.0155903185,-0.4152546,0.0450479,-0.60559416,0.0,1.0,0.0,0.0,0.0,0.0,0.0,-0.09560287,-0.0027240813,-0.11344308,6.3523383,0.06873608,15.977585,-30.142712,18.246305,1.4119036,0.03618598
30.942604,45.663403,15.867067,-7.7014565,-0.5679493,-0.119289726,0.8740505,-0.15880784,-0.78807825,0.59488744,-0.35331532,0.68718284,0.14879738,0.39204708,0.17697155,-1.1311644,-2.2460067,-0.953842,2.1580887,1.8632969,-0.9009638,0.19143975,-1.066635,-2.2951918,-0.9204952,2.0972934,1.8486806,-0.9374963,-0.14709596,-1.4260011,1.0563842,-0.28935122,0.8312688,0.030595299,0.26909044,-0.55737257,-0.3975792,0.65646815,-0.291075,-0.03377695,-0.71282095,-0.5561609,-0.37952805,0.62499624,0.98662317,0.055477075,0.15276526,-0.01263643,-0.36491486,0.010663147,-0.67377317,0.0,1.0,0.0,0.0,0.0,0.0,0.0,-0.092627406,-0.0024208128,-0.10646814,-2.3341389,0.77757835,10.394669,-36.36087,15.633213,1.6819146,0.75478554
20.276497,49.981583,14.291049,-1.6272372,-0.16032465,-0.07303819,0.63399225,-0.12179457,-0.7907044,0.61475766,-0.37109014,0.71573853,0.12381183,0.4215215,0.17926028,-1.1457055,-2.233716,-0.9576042,2.168867,1.8610618,-0.89534414,0.18977147,-1.0808371,-2.2841718,-0.92551476,2.106464,1.8490753,-0.9347507,-0.17285395,-1.418817,1.1154305,-0.5717064,0.94651365,0.042644475,0.27757248,-0.56009483,-0.39800835,0.64901054,-0.26634696,-0.045183983,-0.75861245,-0.55953693,-0.3795967,0.6178456,0.98879683,0.05012611,0.14032888,-0.008718414,-0.32701063,-0.011460075,-0.730736,0.0,1.0,0.0,0.0,0.0,0.0,0.0,-0.08990514,-0.0019916594,-0.09901053,-2.4084747,0.61433315,5.4101944,-27.886784,11.859155,1.3300158,1.1854112
15.846436,58.59868,15.127939,5.101756,0.121621475,-0.05943647,0.36216146,-0.07866011,-0.78606755,0.59715956,-0.36702785,0.7177003,0.18751569,0.4309098,0.18190546,-1.1594439,-2.2244558,-0.96221757,2.1782339,1.8678269,-0.8916597,0.18805629,-1.094963,-2.2729685,-0.93241936,2.1164582,1.849625,-0.9319154,-0.17043987,-1.4106951,1.1201552,-0.7288213,1.018188,0.059414573,0.28661615,-0.56257296,-0.3985424,0.6412242,-0.24160743,-0.055772115,-0.7858197,-0.5625944,-0.3798504,0.6102792,0.9908717,0.04466965,0.12712213,-0.0042043803,-0.2963538,-0.029042646,-0.766494,0.0,1.0,0.0,0.0,0.0,0.0,0.0,-0.08742702,-0.0014576018,-0.09122419,0.43367445,0.7709265,-0.05736351,-15.355646,7.6013803,1.8316693,1.2603104
24.284029,66.626724,18.9598,7.4688973,-0.07484777,-0.15640649,0.24969792,-0.013235761,-0.7878085,0.6139996,-0.37700388,0.7221087,0.25471586,0.405771,0.18673271,-1.1737438,-2.2115686,-0.9701198,2.188669,1.8750966,-0.8913383,0.18673924,-1.1090354,-2.2618294,-0.9401479,2.126922,1.850384,-0.92901725,-0.11816891,-1.4059118,1.1101283,-0.78633064,1.0576874,0.08198271,0.29196477,-0.5647764,-0.39921188,0.6333195,-0.21294886,-0.07038361,-0.7915247,-0.5653038,-0.3803749,0.6025027,0.99275804,0.03907877,0.11359464,0.00071106636,-0.25974795,-0.058955304,-0.7820839,0.0,1.0,0.0,0.0,0.0,0.0,0.0,-0.085223556,-0.0007881224,-0.083319485,5.4166183,0.47729015,-1.4869452,-5.4085493,4.4163704,2.4687037,0.87299347
15.345888,78.73963,20.677305,16.376747,0.63718647,0.08189683,-0.053730696,-0.006906759,-0.7746839,0.6179602,-0.29197338,0.7134949,0.35686794,0.41095105,0.18604857,-1.1865038,-2.2000334,-0.9693452,2.1982713,1.8860708,-0.88792217,0.18598798,-1.1230125,-2.2508276,-0.9475635,2.1375842,1.8514311,-0.9260733,-0.06006503,-1.3948371,1.0951942,-0.72566587,1.0710121,0.113335565,0.29616085,-0.56670284,-0.399992,0.6255685,-0.1859111,-0.08060283,-0.7683844,-0.5677438,-0.38106728,0.59481514,0.99439603,0.0332202,0.100202374,0.0056898785,-0.23586935,-0.07171116,-0.76510817,0.0,1.0,0.0,0.0,0.0,0.0,0.0,-0.08329713,-8.016825e-06,-0.0755685,6.0174556,1.1803389,-2.0032406,6.350553,1.8833399,3.4301267,0.72901845
12.487517,80.95355,20.695652,18.315037,0.67797023,0.08317512,-0.12937954,0.01985134,-0.7665454,0.5928766,-0.28664458,0.7047346,0.37067384,0.42418286,0.18797311,-1.1996671,-2.19154,-0.976228,2.2080576,1.8884985,-0.883655,0.18583822,-1.1368561,-2.2400737,-0.9541323,2.1482534,1.8527801,-0.92308545,0.0007223992,-1.3804322,1.0672259,-0.6330354,1.0672407,0.14318095,0.30058262,-0.5683837,-0.40086174,0.6180868,-0.16222042,-0.08907508,-0.7401207,-0.569983,-0.38187027,0.58733946,0.995767,0.027107222,0.08719014,0.010543557,-0.2168621,-0.081868835,-0.7424113,0.0,1.0,0.0,0.0,0.0,0.0,0.0,-0.08161628,0.00086173415,-0.0680868,6.2744474,1.5239954,-3.2591581,9.533178,0.15323162,3.2778382,0.7316232
-9.395023,82.012726,17.041986,24.636374,1.5467957,0.43952042,-0.33478498,-0.040874355,-0.7524027,0.589027,-0.25560072,0.69496757,0.38676724,0.44417116,0.18175079,-1.2120963,-2.181171,-0.9796924,2.2177503,1.8914568,-0.8786683,0.18586424,-1.1505127,-2.229583,-0.9597132,2.1588047,1.8544068,-0.92004514,0.0039349636,-1.360237,1.0410717,-0.532386,1.052941,0.17004734,0.30609614,-0.5698948,-0.4017372,0.61090213,-0.14756225,-0.08705597,-0.7102683,-0.5721946,-0.38252258,0.58012986,0.9968792,0.020794353,0.07465823,0.015016269,-0.22013861,-0.059114873,-0.71478087,0.0,1.0,0.0,0.0,0.0,0.0,0.0,-0.080105186,0.0017372072,-0.06090212,0.5346899,2.1318197,-3.151822,10.2963085,-0.8588314,2.9785485,0.83743334
-16.255676,82.08877,15.909409,25.778532,1.6828005,0.5200207,-0.359983,-0.042804275,-0.73443407,0.5745539,-0.23210232,0.68473214,0.3438058,0.46777713,0.1815838,-1.2239561,-2.1721277,-0.98292345,2.2272778,1.8887874,-0.8732674,0.18575531,-1.1639175,-2.2193558,-0.9644007,2.169177,1.856236,-0.91693807,-0.015114677,-1.3334972,1.01451,-0.44678804,1.0339248,0.18812667,0.31320873,-0.5712886,-0.402565,0.6040286,-0.13693036,-0.08139043,-0.67985,-0.5744829,-0.38288307,0.573195,0.99775356,0.014358811,0.06261509,0.018996654,-0.22942081,-0.027670037,-0.6876843,0.0,1.0,0.0,0.0,0.0,0.0,0.0,-0.07871139,0.0025649965,-0.05402857,-1.6920766,2.785349,-3.2011986,8.78278,-1.3276339,2.0875664,0.9871602
-12.891638,77.43979,15.241467,21.504366,1.2042724,0.39711243,-0.2244834,-0.041095354,-0.720446,0.5529964,-0.26831415,0.6771754,0.29075077,0.46614262,0.18164578,-1.2359622,-2.1640563,-0.9912321,2.2368946,1.885311,-0.8703238,0.18541677,-1.1770401,-2.2094262,-0.96865916,2.179359,1.8581743,-0.913766,-0.039446272,-1.3048744,0.9843378,-0.41808397,1.0148548,0.19664046,0.31949833,-0.57258415,-0.4033451,0.59737813,-0.12738395,-0.07676175,-0.6608931,-0.5768099,-0.3829975,0.5664256,0.9984143,0.007942651,0.050938044,0.022606123,-0.231712,-0.0049595176,-0.6745791,0.0,1.0,0.0,0.0,0.0,0.0,0.0,-0.077415824,0.003345102,-0.047378123,-2.2375648,2.9423475,-3.527379,3.1090677,-1.3841391,1.0889024,0.9033203
-22.643976,81.98289,14.677312,25.881832,1.6235961,0.55445695,-0.36957842,-0.07309509,-0.6852877,0.50857407,-0.17541923,0.6723447,0.30033505,0.48108304,0.17810726,-1.2455689,-2.1585689,-0.9862011,2.2465935,1.8882078,-0.86565775,0.18472059,-1.1897755,-2.199939,-0.97243196,2.189372,1.8601844,-0.910528,-0.07901861,-1.2628456,0.93528503,-0.36292973,0.99847436,0.203218,0.32608184,-0.5738182,-0.4040413,0.59100085,-0.12249996,-0.06705478,-0.63126236,-0.5792403,-0.38277245,0.55986655,0.9988792,0.0016045052,0.03969293,0.02573315,-0.24506636,0.032388564,-0.6511472,0.0,1.0,0.0,0.0,0.0,0.0,0.0,-0.07618177,0.0040412843,-0.041000843,-3.7606642,4.3067217,-5.425465,5.7339907,-1.0879993,0.90984404,0.91969967
-7.687235,97.419395,21.749958,28.71878,1.2251004,0.34366247,-0.44003338,0.032924388,-0.63858545,0.46968526,0.037658554,0.6276838,0.3451514,0.46521097,0.18801303,-1.253634,-2.1529706,-0.9686661,2.2521405,1.8946996,-0.8640069,0.18418516,-1.2019444,-2.191047,-0.9747706,2.1991303,1.8622898,-0.90724546,-0.044470426,-1.2013884,0.8727965,-0.19016886,0.970046,0.21393244,0.32962173,-0.5749874,-0.40467453,0.5852153,-0.1155141,-0.06185246,-0.56316745,-0.5817423,-0.38232613,0.5538137,0.9991605,-0.0047623958,0.029277978,0.02825304,-0.25009364,0.049520157,-0.5914971,0.0,1.0,0.0,0.0,0.0,0.0,0.0,-0.075012565,0.004674524,-0.03521526,3.6256769,6.2574863,-6.6072583,17.483532,-2.3286939,1.3741612,0.54371357
