Afshin1997/kuka_rl_ros2/src/catch_and_throw/input_files/idealpd/recorded_trajectories/env_435_data.csv
torque0,torque1,torque2,torque3,torque4,torque5,torque6,action0,action1,action2,action3,action4,action5,action6,set_target_0,set_target_1,set_target_2,set_target_3,set_target_4,set_target_5,set_target_6,joint_pos_0,joint_pos_1,joint_pos_2,joint_pos_3,joint_pos_4,joint_pos_5,joint_pos_6,joint_vel_0,joint_vel_1,joint_vel_2,joint_vel_3,joint_vel_4,joint_vel_5,joint_vel_6,tennisball_pos_0,tennisball_pos_1,tennisball_pos_2,tennisball_lin_vel_0,tennisball_lin_vel_1,tennisball_lin_vel_2,end_effector_pos_0,end_effector_pos_1,end_effector_pos_2,end_effector_rot_0,end_effector_rot_1,end_effector_rot_2,end_effector_rot_3,end_effector_lin_vel_0,end_effector_lin_vel_1,end_effector_lin_vel_2,obs_task_0,obs_task_1,obs_task_2,obs_task_3,obs_task_4,obs_task_5,obs_task_6,to_final_target_0,to_final_target_1,to_final_target_2,joint_acc_0,joint_acc_1,joint_acc_2,joint_acc_3,joint_acc_4,joint_acc_5,joint_acc_6
0.0,0.0,0.0,0.0,0.0,0.0,0.0,0.0,0.0,0.0,0.0,0.0,0.0,0.0,1.7802359,-1.0646509,-1.8151424,-1.1170107,1.9373155,1.1170107,-0.91629785,1.7802359,-1.0646509,-1.8151424,-1.1170107,1.9373155,1.1170107,-0.91629785,0.0,0.0,0.0,0.0,0.0,0.0,0.0,2.879074,-0.46468735,0.299196,-3.902117,-0.087183826,4.537312,0.5304184,-0.45449448,0.693097,0.5745483,0.17512383,0.15255436,0.7848268,0.0,0.0,0.0,1.0,0.0,0.0,0.0,0.0,0.0,0.0,-3.5290742,0.06468734,0.250804,0.0,0.0,0.0,0.0,0.0,0.0,0.0
0.0,0.0,0.0,0.0,0.0,0.0,0.0,0.0,0.0,0.0,0.0,0.0,0.0,0.0,1.7802359,-1.0646509,-1.8151424,-1.1170107,1.9373155,1.1170107,-0.91629785,1.7802359,-1.0646509,-1.8151424,-1.1170107,1.9373155,1.1170107,-0.91629785,0.0,0.0,0.0,0.0,0.0,0.0,0.0,2.879074,-0.46468735,0.299196,-3.902117,-0.087183826,4.537312,0.5304184,-0.45449448,0.693097,0.5745483,0.17512383,0.15255436,0.7848268,0.0,0.0,0.0,1.0,0.0,0.0,0.0,0.0,0.0,0.0,-3.5290742,0.06468734,0.250804,0.0,0.0,0.0,0.0,0.0,0.0,0.0
0.0,0.0,0.0,0.0,0.0,0.0,0.0,0.0,0.0,0.0,0.0,0.0,0.0,0.0,1.7802359,-1.0646509,-1.8151424,-1.1170107,1.9373155,1.1170107,-0.91629785,1.7802359,-1.0646509,-1.8151424,-1.1170107,1.9373155,1.1170107,-0.91629785,0.0,0.0,0.0,0.0,0.0,0.0,0.0,2.879074,-0.46468735,0.299196,-3.902117,-0.087183826,4.537312,0.5304184,-0.45449448,0.693097,0.5745483,0.17512383,0.15255436,0.7848268,0.0,0.0,0.0,1.0,0.0,0.0,0.0,0.0,0.0,0.0,-3.5290742,0.06468734,0.250804,0.0,0.0,0.0,0.0,0.0,0.0,0.0
-176.0,69.03552,-6.619705,110.0,10.747059,4.7555685,-3.9076416,-0.8190964,0.36176297,-0.571383,0.7364254,0.18758185,0.6472707,-0.55899054,1.6983262,-1.0284746,-1.8722807,-1.0433682,1.9560736,1.1817378,-0.97219694,1.778792,-1.0620512,-1.8214157,-1.1125304,1.9421582,1.1220671,-0.9174976,-0.19244897,0.34599027,-0.8358289,0.59763926,0.64470667,0.6722721,-0.15971269,2.840084,-0.4655571,0.34379867,-3.8982155,-0.08709666,4.4345894,0.5283394,-0.45759583,0.69382745,0.57823324,0.17380135,0.15145092,0.78262496,-0.27671432,-0.41315344,0.0971757,1.0,0.0,0.0,0.0,0.0,0.0,0.0,-3.4900842,0.06555709,0.20620134,-19.1814,34.371304,-83.3643,59.83178,64.19911,66.64869,-15.868205
-176.0,-28.705973,-45.770588,110.0,12.717479,1.5829546,-3.448427,-0.814937,-0.12926655,-0.58760846,0.71392727,0.3311309,0.6398024,-0.57851964,1.6972983,-1.0749779,-1.8801765,-1.0411376,1.9752713,1.1860473,-0.97534955,1.7770201,-1.0586942,-1.8367755,-1.0992609,1.9524922,1.1350123,-0.91868967,-0.18058361,0.30981097,-1.710423,1.56746,1.1317004,1.4422817,-0.12259947,2.8011322,-0.46642685,0.38737485,-3.894318,-0.08700959,4.3319693,0.52370834,-0.4657631,0.69460106,0.58657503,0.17058955,0.14809123,0.7777518,-0.5256076,-0.949031,0.07664087,1.0,0.0,0.0,0.0,0.0,0.0,0.0,-3.4511323,0.06642684,0.16262516,-1.3555527,-10.350836,-69.806526,96.17009,39.322758,59.111214,-1.3493359
-157.74347,109.582146,28.511347,94.78175,8.241599,7.707881,-2.163471,-0.76661336,0.34518683,-0.07283501,0.63162225,0.3516016,0.68142843,-0.5066899,1.7003587,-1.0241755,-1.844059,-1.0360987,1.9876524,1.2031552,-0.9693587,1.771998,-1.0547136,-1.852473,-1.081782,1.9637685,1.1493059,-0.92018694,-0.60957056,0.42387098,-1.5162184,1.8091286,1.1213269,1.4180439,-0.16044661,2.7622185,-0.4672966,0.4299256,-3.8904247,-0.0869226,4.229452,0.51623917,-0.47681427,0.69692427,0.5979413,0.16592976,0.14362666,0.77091163,-0.82835317,-1.1500247,0.28849375,1.0,0.0,0.0,0.0,0.0,0.0,0.0,-3.4122186,0.067296594,0.12007442,-42.93418,10.341459,21.42036,24.544216,-2.5645733,-4.556489,-4.281789
-96.75849,132.1859,48.939697,61.622555,4.685892,8.591642,-0.6595029,-0.7744802,0.28842878,0.045637656,0.62568474,0.3600622,0.63978064,-0.5483326,1.69455,-1.0258707,-1.8479092,-1.0192136,1.9997747,1.213284,-0.9750202,1.762715,-1.0500482,-1.8632591,-1.0642401,1.973805,1.1625334,-0.92210954,-1.0360112,0.47796705,-0.92434675,1.7361491,0.9586206,1.2864566,-0.20558564,2.723343,-0.46816635,0.47145194,-3.8865352,-0.08683569,4.127037,0.50618744,-0.48845673,0.70142853,0.6104514,0.15977016,0.13854708,0.7633003,-1.0748049,-1.158393,0.50962496,1.0,0.0,0.0,0.0,0.0,0.0,0.0,-3.373343,0.068166345,0.078548074,-43.081604,4.545808,61.74685,-7.251382,-17.994535,-14.562964,-5.3426
-43.83213,144.03209,55.268322,35.376026,1.51175,7.4894414,-0.006210983,-0.7977224,0.4184605,-0.05869294,0.61664575,0.42312968,0.6197931,-0.52971256,1.6829427,-1.0082022,-1.8691283,-1.0025755,2.0161178,1.2245127,-0.9750808,1.7499071,-1.0443834,-1.868552,-1.0485884,1.9822297,1.1743227,-0.92443556,-1.3640419,0.593833,-0.390536,1.50772,0.7994283,1.1405051,-0.24436687,2.6845055,-0.4690361,0.5119549,-3.8826494,-0.08674887,4.0247245,0.49433136,-0.4993286,0.7078742,0.6229742,0.15234323,0.13334206,0.7555888,-1.2353733,-1.0498445,0.6929026,1.0,0.0,0.0,0.0,0.0,0.0,0.0,-3.3345056,0.0690361,0.03804511,-33.32317,10.954189,55.478096,-23.042917,-17.176878,-15.346551,-4.695183
-7.574214,128.67506,47.562866,17.244497,-0.41072768,5.1024456,0.13780344,-0.81069595,0.48759213,-0.14705002,0.6192052,0.46836603,0.6070997,-0.55514085,1.6688375,-0.9956242,-1.8832569,-0.9866679,2.0290663,1.2350327,-0.97994965,1.734881,-1.0374044,-1.8702476,-1.0352255,1.9894872,1.1847788,-0.9271135,-1.5502062,0.7312733,-0.09147626,1.2781535,0.698885,1.0130305,-0.2776774,2.6457062,-0.46990585,0.5514355,-3.8787675,-0.086662136,3.9225147,0.48149872,-0.5088997,0.71562546,0.63508844,0.14420377,0.12856212,0.74789006,-1.3100662,-0.9113839,0.8036288,1.0,0.0,0.0,0.0,0.0,0.0,0.0,-3.2957063,0.06990585,-0.0014354587,-19.053316,13.343704,31.243914,-23.210358,-10.730278,-13.016224,-3.9429843
16.59076,121.710686,43.683273,8.153458,-1.4329517,3.592542,0.122449756,-0.82333606,0.57536197,-0.118694186,0.60247046,0.48207882,0.61730605,-0.55074567,1.6525475,-0.97986823,-1.882117,-0.97497845,2.0376952,1.2465094,-0.98218805,1.7188631,-1.0288957,-1.8702819,-1.0237433,1.9961343,1.1941286,-0.93007463,-1.6202912,0.88978463,0.028948799,1.1041056,0.65206605,0.9088188,-0.30397907,2.6069489,-0.4707718,0.5898948,-3.8748894,-0.08657549,3.8204074,0.4683342,-0.517025,0.72424275,0.6467103,0.13572536,0.124552354,0.7401562,-1.3273416,-0.76466215,0.88092846,1.0,0.0,0.0,0.0,0.0,0.0,0.0,-3.256949,0.07077178,-0.03989476,-7.3847294,15.569973,12.972652,-17.676687,-5.049932,-10.479569,-3.1473875
30.651768,113.17318,40.21078,4.0740185,-1.7222246,2.569539,0.10322941,-0.8121529,0.6300628,-0.075123906,0.5964226,0.49141267,0.62212116,-0.53408164,1.6376479,-0.96588945,-1.8777943,-0.964101,2.0452754,1.2563407,-0.9834828,1.7027823,-1.0188879,-1.8698642,-1.0134283,2.0025945,1.2025839,-0.93324655,-1.6050231,1.0372909,0.04829422,1.0064026,0.6433092,0.8244785,-0.32311198,2.5682297,-0.4716339,0.62733376,-3.871015,-0.08648894,3.7184021,0.45524597,-0.52375793,0.7334959,0.6578648,0.12707086,0.121371515,0.7323495,-1.309975,-0.6275806,0.9393706,1.0,0.0,0.0,0.0,0.0,0.0,0.0,-3.2182298,0.071633905,-0.07733375,1.2228966,14.549816,2.6242585,-10.040712,-1.0828137,-8.420504,-2.3697078
32.69195,105.05293,36.989407,4.54073,-1.4135389,2.0811536,0.074341364,-0.81112957,0.676404,-0.03761377,0.58849704,0.51429915,0.63585776,-0.5308357,1.6216693,-0.95124745,-1.8736256,-0.95457864,2.0540245,1.2661697,-0.98633015,1.687123,-1.0075849,-1.8695209,-1.0036341,2.0091672,1.210322,-0.9365749,-1.553763,1.1606451,0.031614225,0.9698097,0.6615329,0.7566946,-0.33743593,2.5295486,-0.47249603,0.66375345,-3.867145,-0.08640247,3.616499,0.442379,-0.529274,0.7432718,0.6686216,0.11828171,0.118867695,0.7244481,-1.2842392,-0.5105097,0.9893136,1.0,0.0,0.0,0.0,0.0,0.0,0.0,-3.1795487,0.07249603,-0.11375344,4.886055,12.177348,-1.1112459,-3.9055347,1.6857862,-6.7955375,-1.833719
30.23602,96.458694,34.016792,5.663815,-0.97337633,1.8723444,0.108101025,-0.80683213,0.7037238,0.010784597,0.57181925,0.52624464,0.64522266,-0.5286552,1.6064397,-0.9372125,-1.8684424,-0.94645214,2.0617917,1.2748443,-0.9894404,1.6720148,-0.99531305,-1.8692367,-0.993976,2.0159955,1.2174803,-0.94002146,-1.4972148,1.2488486,0.028860753,0.96384215,0.69003075,0.70200115,-0.34828514,2.4909058,-0.47335815,0.69915485,-3.8632789,-0.08631608,3.5146973,0.4297409,-0.5337486,0.7534951,0.6790151,0.10934344,0.11678756,0.7164797,-1.2615266,-0.41096917,1.0320307,1.0,0.0,0.0,0.0,0.0,0.0,0.0,-3.1409059,0.07335815,-0.14915484,5.4549456,8.687139,0.23051426,-0.8234978,2.7372837,-5.523336,-1.453191
24.492363,87.85406,30.73812,7.494038,-0.50422835,1.7562805,0.120833926,-0.80116636,0.7233183,0.04088937,0.5690196,0.5320805,0.6460776,-0.5210157,1.5918982,-0.9229812,-1.8651478,-0.93707407,2.0692036,1.282088,-0.992123,1.6573893,-0.982407,-1.8688228,-0.98425233,2.023106,1.2241675,-0.9435529,-1.4516151,1.3041248,0.04727534,0.97454965,0.71785897,0.6571216,-0.35594073,2.452301,-0.47422028,0.73353904,-3.8594165,-0.08622978,3.4129977,0.41724396,-0.53736115,0.7640848,0.6890699,0.100238614,0.11490129,0.70847195,-1.2475361,-0.32856342,1.0665622,1.0,0.0,0.0,0.0,0.0,0.0,0.0,-3.1023011,0.07422027,-0.18353903,4.386592,5.4100513,2.32182,0.8641958,2.683866,-4.572773,-1.1075318
20.13021,78.45361,27.058783,7.4408674,-0.24457312,1.5497627,0.17713001,-0.7958929,0.7327416,0.059456464,0.5434767,0.55598295,0.6466802,-0.5154291,1.5778,-0.90913284,-1.8628771,-0.92990464,2.0787044,1.2888355,-0.99509585,1.6431013,-0.9691576,-1.8681209,-0.9745048,2.0305142,1.2304674,-0.94714445,-1.4219226,1.3315921,0.07919211,0.9740125,0.7482099,0.6206455,-0.36120343,2.4137344,-0.4750824,0.766907,-3.855558,-0.08614357,3.3113997,0.40486145,-0.5402336,0.7749077,0.6987687,0.0910112,0.11304317,0.7004715,-1.2380733,-0.25813982,1.085798,1.0,0.0,0.0,0.0,0.0,0.0,0.0,-3.0637345,0.07508239,-0.21690696,2.8049707,2.6505947,3.6546967,-0.2646923,2.9476047,-3.7094593,-0.84840655
17.218542,72.90398,24.834745,7.1895742,-0.10886544,1.448112,0.23729947,-0.79558504,0.74305236,0.091387264,0.51650935,0.57943577,0.64968854,-0.5129274,1.5635428,-0.89485234,-1.8589822,-0.9228539,2.0884578,1.2954363,-0.99843717,1.6289831,-0.95574987,-1.8669841,-0.96490705,2.038239,1.2364546,-0.95077604,-1.4089628,1.3434466,0.12658311,0.9542758,0.7801267,0.591343,-0.364955,2.375206,-0.47594452,0.79925966,-3.8517032,-0.08605745,3.2099032,0.39253998,-0.5424423,0.785849,0.70807254,0.08170673,0.11110597,0.6925408,-1.231694,-0.19317538,1.0947946,1.0,0.0,0.0,0.0,0.0,0.0,0.0,-3.025206,0.07594451,-0.24925965,1.1281967,1.1032581,5.207993,-2.189684,3.1133175,-2.964151,-0.6877065
14.746323,71.711716,24.150772,8.231654,0.009732544,1.4837341,0.2372343,-0.7935015,0.7537312,0.12967874,0.5169493,0.5786554,0.6578422,-0.5028582,1.549633,-0.88037676,-1.8540163,-0.9132121,2.0961046,1.3022388,-1.0010619,1.6149164,-0.94226396,-1.8652713,-0.95550954,2.0462155,1.2421957,-0.9544315,-1.4064957,1.3499918,0.18784723,0.9341374,0.80344516,0.56827134,-0.36678892,2.3367195,-0.47680664,0.8305982,-3.8478522,-0.08597141,3.108508,0.38025284,-0.5440216,0.7968774,0.7169778,0.07230055,0.109048836,0.68470705,-1.2294712,-0.1305456,1.1032258,1.0,0.0,0.0,0.0,0.0,0.0,0.0,-2.9867196,0.076806635,-0.28059816,0.08106232,0.57549477,6.5977693,-2.2141933,2.2586346,-2.3414612,-0.4860878
14.645849,67.54338,22.062613,7.1236444,-0.11805636,1.2332904,0.23289117,-0.7861377,0.75854254,0.12301916,0.49176604,0.5898715,0.6589252,-0.50094306,1.5363027,-0.8664097,-1.8529694,-0.90633297,2.1052027,1.3080883,-1.0045258,1.600865,-0.9287313,-1.8630931,-0.9463934,2.0543942,1.2477423,-0.9580993,-1.405308,1.3541734,0.22930136,0.90341544,0.8226608,0.5502584,-0.36773255,2.2982712,-0.47766876,0.86092347,-3.844005,-0.08588545,3.0072145,0.3680191,-0.545002,0.80790794,0.72548634,0.062836275,0.10692123,0.67697036,-1.2220008,-0.07067845,1.100298,1.0,0.0,0.0,0.0,0.0,0.0,0.0,-2.9482713,0.077668756,-0.31092346,-0.04091263,0.35600662,4.5744715,-3.2811284,1.8766761,-1.7782211,-0.38043857
14.202843,63.832424,20.14823,6.09359,-0.22731435,1.0008233,0.2376484,-0.79109913,0.76196325,0.12768449,0.45557016,0.60623735,0.6555578,-0.49287108,1.5217551,-0.852535,-1.8503246,-0.90083635,2.115018,1.3132981,-1.0073864,1.5867869,-0.91516054,-1.8606308,-0.9377016,2.0627637,1.2531363,-0.96176714,-1.4090307,1.3579166,0.25315696,0.85697174,0.8416113,0.53586864,-0.36737832,2.259861,-0.47852707,0.8902366,-3.8401618,-0.08579958,2.906022,0.35588837,-0.5453949,0.818834,0.7335975,0.05339647,0.10479311,0.66932935,-1.2097741,-0.013963865,1.08699,1.0,0.0,0.0,0.0,0.0,0.0,0.0,-2.909861,0.07852706,-0.3402366,-0.5326748,0.32815933,2.7794986,-4.864359,1.8743992,-1.3643265,-0.23200512
16.195616,62.073517,19.165092,4.526267,-0.45199037,0.78053993,0.25224516,-0.7845151,0.76958996,0.12520981,0.4204944,0.61218673,0.66023767,-0.48189962,1.5083354,-0.8382015,-1.8481097,-0.8956521,2.1239824,1.31916,-1.0099571,1.5726992,-0.90152776,-1.8580654,-0.9295658,2.071301,1.258412,-0.9654216,-1.4091423,1.3649246,0.2588721,0.79837114,0.85749793,0.5251983,-0.3656768,2.221489,-0.47938156,0.91853863,-3.8363223,-0.085713804,2.8049307,0.34394073,-0.5452194,0.8295748,0.7412994,0.044048835,0.10275107,0.66179836,-1.1887257,0.043246455,1.0664737,1.0,0.0,0.0,0.0,0.0,0.0,0.0,-2.871489,0.079381555,-0.36853862,-0.16856194,0.66797733,0.935024,-6.0884,1.58993,-0.93978643,-0.08646846
18.486374,59.888252,18.280468,2.418394,-0.6773834,0.56389225,0.30818897,-0.7881834,0.77125955,0.13432723,0.35877436,0.6232966,0.6518894,-0.4866925,1.4938809,-0.8244018,-1.8446326,-0.8936883,2.1336308,1.3236009,-1.0140909,1.5586001,-0.8878263,-1.8554752,-0.9221939,2.0799909,1.2635943,-0.9690618,-1.4106315,1.3717902,0.2601872,0.71593994,0.8726105,0.51645064,-0.36438206,2.183155,-0.48023605,0.94583046,-3.8324866,-0.08562811,2.7039404,0.33226776,-0.5444603,0.8400507,0.74855685,0.034864992,0.100856304,0.65442723,-1.1581949,0.10136154,1.0377585,1.0,0.0,0.0,0.0,0.0,0.0,0.0,-2.8331552,0.08023605,-0.39583045,-0.30834675,0.6687641,0.47972202,-8.482588,1.5247583,-0.6856799,-0.116318464
19.76271,60.07747,18.49958,2.0047302,-0.7103525,0.5125625,0.3531923,-0.7900852,0.77249706,0.16258724,0.31784302,0.6332486,0.650963,-0.47818306,1.4795916,-0.8105766,-1.8392165,-0.8904096,2.1433158,1.3286905,-1.0168802,1.54448,-0.8740667,-1.8527668,-0.91569173,2.0888257,1.2687002,-0.9726848,-1.4129121,1.377349,0.27544528,0.6274988,0.8871135,0.5094424,-0.36239076,2.1448593,-0.48109055,0.97211313,-3.8286548,-0.08554249,2.6030512,0.32092667,-0.5431175,0.85024655,0.7553406,0.02585437,0.099098876,0.64728004,-1.1241895,0.15984152,1.0098251,1.0,0.0,0.0,0.0,0.0,0.0,0.0,-2.7948594,0.08109054,-0.42211312,-0.38120747,0.5471468,1.8623412,-9.072649,1.4747143,-0.49462318,-0.039052963
18.863518,58.22663,17.494846,2.5212712,-0.6971928,0.36683232,0.3083477,-0.7874859,0.7749034,0.14721817,0.29018575,0.624951,0.6543079,-0.46622813,1.4657314,-0.7965764,-1.8380449,-0.88667315,2.1513207,1.334131,-1.0193076,1.5303541,-0.8602575,-1.8499877,-0.91000307,2.0977483,1.2737509,-0.9762792,-1.4130014,1.3821431,0.2796682,0.548613,0.8942958,0.50419945,-0.35923102,2.1066017,-0.48194504,0.99738765,-3.8248267,-0.08545697,2.502263,0.30993652,-0.5412178,0.86015284,0.76168305,0.01701714,0.097507626,0.6403449,-1.0885755,0.21269558,0.98040533,1.0,0.0,0.0,0.0,0.0,0.0,0.0,-2.7566018,0.08194503,-0.44738764,-0.1455307,0.4842043,0.7025957,-8.107018,0.7698536,-0.30634403,0.09993315
23.0197,56.907288,17.286886,-0.5148649,-0.98972297,0.15235421,0.41698903,-0.7877428,0.77753925,0.16446505,0.18982436,0.6426501,0.64593667,-0.47313336,1.4515798,-0.7825036,-1.8335413,-0.89102066,2.1620133,1.3383446,-1.0235926,1.5162302,-0.8464025,-1.8471172,-0.9053453,2.10677,1.278752,-0.9798488,-1.4124774,1.3866968,0.29042718,0.43742743,0.90457314,0.4998817,-0.35694587,2.0683823,-0.48279953,1.021655,-3.8210025,-0.08537153,2.4015756,0.29938126,-0.53876877,0.869709,0.76753646,0.00842079,0.096103065,0.6337041,-1.0402329,0.26856488,0.9434457,1.0,0.0,0.0,0.0,0.0,0.0,0.0,-2.7183824,0.082799524,-0.47165495,-0.080251694,0.47512054,1.3456345,-11.338812,1.0865569,-0.14489293,0.022494793
27.413021,57.245567,17.901125,-3.2431197,-1.2511013,0.027396083,0.5528809,-0.79026806,0.7794437,0.20611279,0.09299059,0.6493719,0.6400853,-0.46241924,1.4372034,-0.7684581,-1.8265059,-0.8960463,2.1717072,1.3427604,-1.0260907,1.5021025,-0.8325056,-1.8439624,-0.90203893,2.1158948,1.2837149,-0.98339075,-1.4132338,1.3908474,0.32459766,0.29435042,0.9152112,0.49636668,-0.35391247,2.030201,-0.48365402,1.0449162,-3.817182,-0.08528618,2.3009887,0.28939438,-0.5357208,0.8788696,0.77280533,0.00011267803,0.09487737,0.62751114,-0.98022926,0.32931814,0.90277004,1.0,0.0,0.0,0.0,0.0,0.0,0.0,-2.680201,0.083654016,-0.49491614,-0.19869804,0.44915676,3.671801,-14.512682,1.1355519,-0.003993511,0.110805035
23.4068,57.55169,17.608963,0.12051058,-0.93473,0.05430527,0.44414967,-0.79054695,0.78406537,0.2076361,0.09151779,0.6479952,0.64216536,-0.4464111,1.4230478,-0.7540991,-1.8231988,-0.8928872,2.1806943,1.3479314,-1.0280318,1.4879671,-0.81855714,-1.8404891,-0.89989793,2.1251035,1.2886473,-0.9868917,-1.4140061,1.396408,0.3556806,0.18673211,0.92299503,0.49332044,-0.3494093,1.9920578,-0.4845085,1.0671724,-3.8133655,-0.085200906,2.2005024,0.27994537,-0.5321045,0.8876884,0.7775496,-0.007957254,0.09380917,0.62173384,-0.92935646,0.38146308,0.87066764,1.0,0.0,0.0,0.0,0.0,0.0,0.0,-2.642058,0.08450851,-0.5171724,-0.17800331,0.6025791,3.2796621,-10.937765,0.8976698,-0.001347065,0.28676987
21.695168,58.06501,17.770473,2.0658383,-0.73018324,0.078571096,0.40492305,-0.7883965,0.78526235,0.23583995,0.05117181,0.65571177,0.6471919,-0.43016812,1.4091275,-0.7400309,-1.8169051,-0.89478076,2.1906745,1.3533665,-1.0299085,1.4738375,-0.8045572,-1.8366477,-0.89866674,2.1343923,1.2935568,-0.99033827,-1.4131346,1.4013438,0.3939024,0.10141137,0.9313357,0.49108082,-0.3435774,1.9539528,-0.485363,1.0884244,-3.8095527,-0.08511572,2.1001165,0.27095032,-0.5280075,0.8962383,0.7818333,-0.01586324,0.09285246,0.6163306,-0.8838112,0.42960858,0.84518105,1.0,0.0,0.0,0.0,0.0,0.0,0.0,-2.603953,0.085363,-0.53842443,0.002861023,0.54974556,3.9395213,-8.6869,0.9889364,0.055664778,0.43478012
28.016453,54.225224,16.808456,-3.668645,-1.2870586,-0.31812096,0.5789036,-0.78707623,0.78420794,0.25396535,-0.10686904,0.6595659,0.64414775,-0.4142835,1.3951299,-0.7261364,-1.8112512,-0.9093536,2.2003489,1.3579715,-1.0317667,1.4597231,-0.7905258,-1.8324249,-0.898723,2.1437612,1.2984511,-0.9937181,-1.4109608,1.4039735,0.43208584,-0.041805618,0.93881696,0.49006203,-0.33653235,1.9158859,-0.48621368,1.1086735,-3.8057437,-0.08503063,1.9998312,0.26256943,-0.52339935,0.9044026,0.78557146,-0.023479188,0.09205449,0.61143446,-0.81589043,0.480513,0.8020687,1.0,0.0,0.0,0.0,0.0,0.0,0.0,-2.565886,0.08621368,-0.55867344,0.15392303,0.33466816,3.9140224,-14.467896,0.89803934,0.28713942,0.58137774
26.412521,53.269947,16.511055,-2.4360404,-1.1265869,-0.35812873,0.5670345,-0.7885017,0.78235185,0.2881745,-0.13785346,0.6615392,0.6462756,-0.3671212,1.380873,-0.7122906,-1.8036075,-0.91250837,2.2099152,1.3630786,-1.0304302,1.4456259,-0.7764896,-1.8277595,-0.9001173,2.153191,1.3033377,-0.9969978,-1.4096738,1.4037772,0.47808093,-0.17233168,0.9452318,0.4894816,-0.32537466,1.8778572,-0.48706055,1.1279203,-3.8019385,-0.08494561,1.8996458,0.2548561,-0.51831055,0.91215974,0.7887519,-0.030781638,0.09141029,0.60709715,-0.75139725,0.52587354,0.7619615,1.0,0.0,0.0,0.0,0.0,0.0,0.0,-2.5278573,0.08706054,-0.57792026,0.08544922,0.06582737,4.6269836,-13.178166,0.8303523,0.3205061,1.0160863
25.180008,54.025944,16.741585,-0.9607153,-1.0114541,-0.3540828,0.5378806,-0.78605235,0.7876204,0.31610626,-0.1844962,0.6601615,0.6438349,-0.3287785,1.3670206,-0.69772756,-1.7961489,-0.9185669,2.2192073,1.3677212,-1.0298756,1.4315478,-0.7624382,-1.8226058,-0.902696,2.1626668,1.3082167,-1.000143,-1.4072177,1.4058993,0.5275351,-0.28672716,0.9492607,0.48874676,-0.31117952,1.8398666,-0.4879074,1.146166,-3.7981372,-0.08486068,1.7995605,0.24774551,-0.5127907,0.9195577,0.7914105,-0.03781254,0.09090147,0.6033046,-0.6901469,0.56889904,0.72722495,1.0,0.0,0.0,0.0,0.0,0.0,0.0,-2.4898667,0.0879074,-0.59616596,0.21939278,0.31039715,4.9085617,-11.543667,0.63289404,0.29175878,1.3410926
23.2179,55.664837,17.306704,1.546391,-0.80754083,-0.2726133,0.48187503,-0.78023064,0.79185635,0.3491015,-0.21285659,0.65634847,0.645766,-0.28503487,1.3535247,-0.6832526,-1.7876956,-0.92398167,2.2283015,1.3727933,-1.0286466,1.4175192,-0.7483467,-1.8169239,-0.9061998,2.1721616,1.31309,-1.0031242,-1.4015899,1.4106268,0.5814838,-0.3718434,0.9505123,0.48804635,-0.29394212,1.8019142,-0.48875427,1.1634116,-3.7943397,-0.08477584,1.6995754,0.2411995,-0.5068283,0.926678,0.7935952,-0.044656545,0.09050684,0.60001737,-0.63587856,0.61023045,0.7016567,1.0,0.0,0.0,0.0,0.0,0.0,0.0,-2.4519143,0.08875427,-0.6134116,0.54974556,0.5834818,5.294299,-8.598864,0.40119886,0.26791692,1.6594589
21.607895,52.23477,15.877042,1.8076301,-0.7675751,-0.4409313,0.43768197,-0.7781818,0.7898811,0.34986445,-0.27033043,0.65557253,0.6475093,-0.2533106,1.339701,-0.66935855,-1.7819374,-0.93323284,2.2377188,1.3778409,-1.0284553,1.4035498,-0.7342199,-1.810828,-0.9105133,2.1816564,1.3179575,-1.0059242,-1.3952547,1.4136572,0.6185387,-0.45143643,0.9501828,0.48761156,-0.27532735,1.7639999,-0.48960114,1.1796582,-3.790546,-0.084691085,1.5996902,0.23519135,-0.50051117,0.933516,0.7953578,-0.0513018,0.09025244,0.5971839,-0.5817891,0.64432245,0.6722642,1.0,0.0,0.0,0.0,0.0,0.0,0.0,-2.414,0.08960113,-0.62965816,0.6296873,0.42085648,3.5772562,-8.048177,0.24433136,0.29245615,1.8122256
20.481129,52.02281,15.92299,2.9181552,-0.66499746,-0.43616718,0.43705016,-0.77539015,0.79076415,0.38932416,-0.30289856,0.6467729,0.6459349,-0.16075246,1.3260108,-0.6551435,-1.7718955,-0.9408031,2.2463336,1.382551,-1.0219995,1.3896452,-0.7200693,-1.8043163,-0.91553247,2.1911206,1.3228213,-1.0084858,-1.388838,1.4159245,0.66140205,-0.51892906,0.94606763,0.48699942,-0.24972513,1.7261238,-0.490448,1.1949067,-3.786756,-0.08460641,1.4999049,0.229702,-0.49386215,0.94008696,0.79671353,-0.057763986,0.09013864,0.594799,-0.5308818,0.67672604,0.64626986,1.0,0.0,0.0,0.0,0.0,0.0,0.0,-2.376124,0.09044799,-0.6449067,0.64492226,0.3533125,4.122138,-6.830716,-0.10738373,0.26413202,2.5198042
12.620806,49.419113,14.463967,8.40821,-0.09872627,-0.3279789,0.24621204,-0.78142685,0.78851616,0.3883931,-0.26127666,0.6351303,0.645084,-0.09073123,1.3115026,-0.64121765,-1.765477,-0.94166017,2.2546337,1.3873297,-1.0175589,1.3757597,-0.7059158,-1.7974899,-0.9208206,2.2005086,1.3276755,-1.0107574,-1.388607,1.4156114,0.6891281,-0.53244287,0.9374915,0.48563305,-0.21979402,1.6882858,-0.49129486,1.209158,-3.78297,-0.08452182,1.4002193,0.22455215,-0.48697662,0.94647145,0.7977835,-0.06413082,0.09014912,0.59270716,-0.5008351,0.6976763,0.62996566,1.0,0.0,0.0,0.0,0.0,0.0,0.0,-2.338286,0.091294855,-0.65915793,-0.008106232,0.101184845,2.6018023,-1.4704466,-0.5339503,0.11327863,2.944988
5.645216,45.112694,12.414503,12.611883,0.38468152,-0.3075587,0.07127438,-0.79022986,0.7832251,0.3799995,-0.23871596,0.6351594,0.6414162,-0.06282177,1.2967367,-0.6275933,-1.7594899,-0.9446922,2.2640245,1.3918171,-1.0170397,1.3618151,-0.6917957,-1.7905338,-0.9259542,2.2098203,1.3325106,-1.0127335,-1.3965514,1.411154,0.6973008,-0.50758994,0.92969924,0.48333195,-0.19053717,1.650486,-0.49214172,1.2224132,-3.7791877,-0.08443732,1.3006334,0.21957397,-0.4799614,0.9527284,0.79871774,-0.07046084,0.09026072,0.59071,-0.48799878,0.7063841,0.6181743,1.0,0.0,0.0,0.0,0.0,0.0,0.0,-2.300486,0.09214172,-0.6724132,-0.86603165,-0.3134966,0.6710887,2.3227334,-0.464046,-0.04249215,2.8683572
0.16414356,42.1102,10.888753,16.147152,0.7569153,-0.2743806,-0.062959604,-0.79975265,0.7823779,0.3665607,-0.2027323,0.628653,0.64078695,0.022242313,1.2818398,-0.61355793,-1.7538778,-0.94622743,2.2726855,1.3965893,-1.0105093,1.3477408,-0.6777252,-1.7836406,-0.93060243,2.219048,1.3373209,-1.0143852,-1.4115012,1.4060371,0.6863751,-0.45118538,0.9213817,0.48055288,-0.15694518,1.6127205,-0.4929886,1.2346734,-3.7754092,-0.084352896,1.2011471,0.2146225,-0.4729271,0.95890236,0.79963547,-0.0767968,0.0904746,0.5886421,-0.48901054,0.7066459,0.6110748,1.0,0.0,0.0,0.0,0.0,0.0,0.0,-2.2627206,0.09298858,-0.68467337,-1.6052008,-0.38237572,-1.2072921,5.4428816,-0.52292347,-0.145185,3.2919347
-8.787745,39.22632,9.283595,23.348812,1.503582,-0.06626116,-0.3110117,-0.80678564,0.7756752,0.33395776,-0.07197659,0.61881334,0.6513942,0.12168417,1.2670622,-0.6001577,-1.7502449,-0.9378001,2.2809293,1.4024603,-1.0022168,1.3334967,-0.6637291,-1.7770412,-0.9341167,2.2281804,1.3421065,-1.0156593,-1.4292802,1.3978946,0.65064514,-0.31901744,0.911473,0.47811115,-0.117769904,1.5749931,-0.49383163,1.2459394,-3.7716346,-0.08426856,1.1017601,0.2094574,-0.46597672,0.965118,0.800706,-0.08328172,0.09075201,0.5862577,-0.51790076,0.69554853,0.61899894,1.0,0.0,0.0,0.0,0.0,0.0,0.0,-2.2249932,0.09383163,-0.69593936,-1.9383192,-0.68531036,-3.6769748,12.96435,-0.6619215,-0.21036863,3.8277671
-22.626814,37.362576,7.7789392,35.623108,2.6786091,0.42248717,-0.71546704,-0.8186954,0.7683001,0.28177223,0.16453315,0.5803935,0.6656063,0.25578597,1.2516272,-0.58689904,-1.7488639,-0.9176634,2.2862198,1.4086671,-0.9900807,1.3190485,-0.64983594,-1.7710292,-0.9353317,2.2371182,1.3468729,-1.0164757,-1.4505799,1.3868407,0.5843156,-0.056616496,0.8891961,0.47570646,-0.06998443,1.5373039,-0.49467087,1.2562122,-3.7678638,-0.08418431,1.0024726,0.20365143,-0.4592209,0.97162944,0.8021927,-0.090230875,0.091033086,0.5831452,-0.59330684,0.67308396,0.65598214,1.0,0.0,0.0,0.0,0.0,0.0,0.0,-2.187304,0.09467086,-0.7062122,-2.351904,-0.9800911,-6.756389,25.928635,-1.8347263,-0.3791213,4.6592684
-32.435036,24.95598,1.4733198,39.509186,3.0684164,0.1405454,-1.0979884,-0.8326149,0.7622125,0.09045204,0.30045944,0.5448825,0.6756382,0.2625163,1.235787,-0.5736147,-1.761984,-0.9052858,2.2916064,1.4144367,-0.99022406,1.3043677,-0.636063,-1.7665012,-0.9335836,2.245747,1.3516203,-1.0168476,-1.4746139,1.374364,0.4084273,0.25072902,0.85522,0.47373936,-0.026522713,1.4996529,-0.4955101,1.2654929,-3.7640967,-0.08410014,0.9032844,0.19696426,-0.45287323,0.97845113,0.80440015,-0.09765505,0.09147547,0.5788229,-0.6850928,0.6269977,0.68514276,1.0,0.0,0.0,0.0,0.0,0.0,0.0,-2.149653,0.095510095,-0.7154929,-2.6223898,-1.1443853,-17.739946,30.392113,-3.0226827,-0.42479038,4.2474027
-24.881207,17.780558,-0.9571037,30.132412,2.167559,-0.46785393,-0.91210234,-0.8381712,0.745421,0.010656687,0.27546433,0.51147735,0.6728377,0.26326433,1.2205505,-0.5615209,-1.7654356,-0.9060372,2.2968948,1.4189041,-0.9905212,1.2894789,-0.62246835,-1.7639511,-0.92948186,2.2539716,1.3563544,-1.0168285,-1.4941703,1.354733,0.20317234,0.46243665,0.812753,0.47288573,0.010993108,1.46204,-0.49634933,1.2737825,-3.7603335,-0.08401606,0.8041952,0.18961716,-0.4470024,0.9853219,0.80730647,-0.10524607,0.09229491,0.57328975,-0.7429563,0.5800807,0.68242556,1.0,0.0,0.0,0.0,0.0,0.0,0.0,-2.11204,0.09634933,-0.7237825,-2.0932436,-1.8857956,-20.68474,20.875858,-3.9322376,-0.199157,3.6787987
-5.433338,18.826263,1.1209116,12.901843,0.46747422,-1.1370068,-0.2906715,-0.8422175,0.73064494,0.008907387,0.14376877,0.49170196,0.66735566,0.3061736,1.2052572,-0.54940385,-1.7630603,-0.915105,2.3031418,1.42309,-0.9862112,1.2744395,-0.6091083,-1.763068,-0.92465436,2.2617726,1.3610903,-1.016449,-1.5075207,1.3299867,0.04997306,0.4886549,0.76979756,0.47432554,0.04663091,1.4244652,-0.49718857,1.2810819,-3.7565742,-0.083932064,0.7052052,0.18218994,-0.4414749,0.9918586,0.8105327,-0.11255227,0.09363398,0.567099,-0.7348358,0.55077064,0.6394868,1.0,0.0,0.0,0.0,0.0,0.0,0.0,-2.0744653,0.09718856,-0.7310819,-1.4131308,-2.405405,-15.360776,2.3808658,-4.1072726,0.2880633,3.486099
16.338192,26.241848,6.406744,-3.469665,-1.1397723,-1.5753232,0.45602977,-0.8352497,0.7101999,0.07421207,-0.0043294416,0.47219613,0.6718555,0.38098732,1.1909145,-0.5380883,-1.7556467,-0.92508733,2.3089921,1.4282758,-0.9783502,1.2593561,-0.59604394,-1.762883,-0.920874,2.2691655,1.3658568,-1.0156994,-1.5087966,1.2988251,0.00834605,0.3405891,0.7290192,0.47884637,0.084095106,1.3869286,-0.4980278,1.2873923,-3.7528183,-0.08384815,0.6063141,0.1753273,-0.43605804,0.9977503,0.81354356,-0.11921804,0.09548432,0.5610853,-0.66156894,0.5458951,0.56836265,1.0,0.0,0.0,0.0,0.0,0.0,0.0,-2.0369287,0.098027796,-0.73739225,-0.16129017,-3.034258,-4.052689,-14.981651,-4.026127,0.8395016,3.6483302
28.160131,30.078358,9.063143,-12.547418,-2.0515661,-1.9175242,0.8610437,-0.82802117,0.6969489,0.07070466,-0.1157297,0.43499753,0.6803157,0.46603784,1.176554,-0.52634907,-1.7558125,-0.93244696,2.3126652,1.4338883,-0.9690956,1.2443358,-0.58329046,-1.7626941,-0.9192833,2.2761273,1.3706805,-1.0145493,-1.4996338,1.2678108,0.022828454,0.098180845,0.6847536,0.48536956,0.12513976,1.3494301,-0.49886703,1.2927144,-3.749066,-0.08376432,0.5075219,0.16949463,-0.4306221,1.0028133,0.81599367,-0.1250217,0.09783857,0.5558341,-0.5500876,0.54928565,0.48188072,1.0,0.0,0.0,0.0,0.0,0.0,0.0,-1.9994301,0.09886703,-0.74271435,0.94697475,-2.9974937,1.553379,-24.348143,-4.4222713,1.1558533,4.025319
27.9802,33.469254,10.64456,-10.359146,-1.7869728,-1.8153114,0.8702635,-0.8211256,0.6871701,0.07351879,-0.139837,0.4434289,0.66793513,0.49500197,1.1622232,-0.51457345,-1.7553422,-0.933267,2.3204703,1.437474,-0.965049,1.2294527,-0.57081544,-1.7621677,-0.9199518,2.2827535,1.3755537,-1.0130043,-1.4842341,1.2411137,0.06256392,-0.12216238,0.6557302,0.4895351,0.16404761,1.311966,-0.49970627,1.2970494,-3.7453177,-0.08368057,0.40882856,0.16472244,-0.42512894,1.0071027,0.8178163,-0.13000154,0.10058155,0.55150646,-0.44536033,0.55326366,0.40773582,1.0,0.0,0.0,0.0,0.0,0.0,0.0,-1.9619659,0.09970626,-0.7470494,1.6092062,-2.557516,3.9851055,-22.094458,-2.8544426,0.8480191,3.8380682
17.707155,28.203054,7.56327,-2.749424,-1.031114,-1.734604,0.5080017,-0.8227641,0.67481285,-0.008315834,-0.13538833,0.3915053,0.6731861,0.5123312,1.1471763,-0.50333416,-1.7629993,-0.93349063,2.321904,1.4428723,-0.9617712,1.2146994,-0.5585846,-1.7616317,-0.9222301,2.2890286,1.3804613,-1.0111008,-1.4721904,1.217525,0.050352782,-0.2633858,0.61841166,0.49216983,0.19899775,1.27454,-0.5005455,1.3003981,-3.741573,-0.08359691,0.31023386,0.16077423,-0.41970825,1.0107543,0.8192279,-0.13428451,0.10370225,0.5477948,-0.370458,0.5420649,0.34746107,1.0,0.0,0.0,0.0,0.0,0.0,0.0,-1.9245399,0.100545496,-0.7503981,1.2601852,-2.2516012,-1.2754731,-14.21336,-3.6432505,0.56700706,3.4455001
-0.8804865,18.60698,1.76594,11.0575,0.42023516,-1.5306897,-0.15302631,-0.82666403,0.67117584,-0.16981232,-0.03383823,0.3917544,0.6716908,0.5223873,1.132033,-0.491467,-1.778613,-0.92561394,2.3282042,1.4476304,-0.95886207,1.2000071,-0.5465349,-1.7620628,-0.9248575,2.2950025,1.3853804,-1.0088844,-1.4683402,1.2011362,-0.07423332,-0.26322082,0.5906765,0.49199903,0.22896084,1.2371521,-0.5013809,1.3027617,-3.7378323,-0.08351333,0.21173774,0.15715027,-0.41456985,1.0139856,0.82067466,-0.13806598,0.10723189,0.5439964,-0.3526533,0.50560546,0.31159264,1.0,0.0,0.0,0.0,0.0,0.0,0.0,-1.8871521,0.101380914,-0.75276166,0.34544468,-1.5588522,-12.475316,-0.19057989,-2.6771784,0.088232756,2.9073894
-8.857926,15.258154,-0.20320207,17.759018,1.1229341,-1.3458582,-0.43121824,-0.8269942,0.6589575,-0.22278328,-0.021631481,0.3736422,0.6768313,0.5197219,1.1173077,-0.48063916,-1.7843411,-0.92702067,2.3323667,1.4530635,-0.9569122,1.1853148,-0.5346426,-1.7639873,-0.9270052,2.3007169,1.3902918,-1.0064087,-1.4697338,1.185416,-0.23183128,-0.19956855,0.56551975,0.49091664,0.25335333,1.1998024,-0.5022125,1.304141,-3.7340953,-0.08342983,0.11334011,0.1534996,-0.40985107,1.0169655,0.8224252,-0.14150847,0.11115215,0.53966403,-0.36263967,0.462603,0.290154,1.0,0.0,0.0,0.0,0.0,0.0,0.0,-1.8498024,0.10221252,-0.75414103,-0.22873878,-1.5155554,-15.735161,6.1097713,-2.4213552,-0.09866953,2.320975
-7.81703,17.658978,0.99794817,17.971968,1.063634,-1.2372546,-0.3912148,-0.82987326,0.6497852,-0.23711121,-0.053929262,0.33028564,0.677032,0.52231145,1.1023275,-0.46966404,-1.7876984,-0.9323981,2.3337455,1.457995,-0.95417756,1.1705786,-0.5229038,-1.7673004,-0.9285768,2.3061147,1.3951899,-1.0037212,-1.4751523,1.1702058,-0.36427695,-0.14375058,0.5314524,0.4895944,0.27360064,1.1624908,-0.5030441,1.3045372,-3.7303622,-0.08334642,0.015040849,0.14976501,-0.4054947,1.019753,0.82449114,-0.14467989,0.115448326,0.5347463,-0.37158403,0.42728636,0.2721566,1.0,0.0,0.0,0.0,0.0,0.0,0.0,-1.8124908,0.10304412,-0.75453717,-0.63996315,-1.4739752,-13.195819,5.3402634,-3.3150792,-0.13341308,1.8994987
1.780824,18.699028,2.496776,8.764139,0.1494709,-1.5932754,-0.045821883,-0.8231359,0.63319796,-0.25314265,-0.18992545,0.2895229,0.6779411,0.51454806,1.0882651,-0.459584,-1.7926146,-0.9475694,2.335067,1.462984,-0.95226645,1.1558253,-0.5113529,-1.7716224,-0.9303497,2.3111043,1.4000822,-1.0008602,-1.4755497,1.1504077,-0.45485765,-0.18902202,0.48804572,0.48956862,0.28976178,1.1252136,-0.50387573,1.303951,-3.7266324,-0.083263084,-0.08316013,0.1462059,-0.40147018,1.0221925,0.826688,-0.14738986,0.12015181,0.52955323,-0.3442626,0.3955649,0.23210962,1.0,0.0,0.0,0.0,0.0,0.0,0.0,-1.7752136,0.10387573,-0.753951,-0.05671978,-1.905179,-9.04969,-4.6985416,-4.2808113,0.105422735,1.5189588
8.910877,21.935085,4.427825,2.5320716,-0.6149579,-1.7787516,0.19937204,-0.8270135,0.6296842,-0.26744077,-0.27638462,0.21635903,0.68418574,0.50244457,1.0731239,-0.44838446,-1.7983665,-0.95798814,2.3327403,1.4685009,-0.95061576,1.1410624,-0.49997368,-1.7765529,-0.93312967,2.3155026,1.4049841,-0.99786896,-1.4764019,1.1340493,-0.506005,-0.307972,0.42407903,0.4910354,0.3019493,1.0879745,-0.50470734,1.3023835,-3.7229064,-0.08317984,-0.18126293,0.1431427,-0.3977127,1.0241252,0.8288394,-0.1494454,0.1253502,0.5243839,-0.28923342,0.37003484,0.178152,1.0,0.0,0.0,0.0,0.0,0.0,0.0,-1.7379745,0.10470733,-0.75238353,-0.058937073,-1.5346766,-5.1303625,-12.014601,-6.354475,0.32122135,1.1418879
12.69183,25.485077,6.212693,0.20939445,-1.1085751,-1.7827709,0.30911615,-0.82582,0.6237596,-0.26970693,-0.3306915,0.08205448,0.6878945,0.4990043,1.0584804,-0.43759772,-1.8035237,-0.9661988,2.323708,1.4737736,-0.94796854,1.1263033,-0.48873606,-1.7817447,-0.9372982,2.3189473,1.4099051,-0.99477714,-1.4756635,1.120747,-0.52363586,-0.45347172,0.3179888,0.49318856,0.31137264,1.0507736,-0.50553894,1.2998358,-3.7191842,-0.083096676,-0.27926764,0.14075089,-0.39414597,1.0254894,0.8308416,-0.15078922,0.1311779,0.5193815,-0.21875682,0.35239562,0.12031791,1.0,0.0,0.0,0.0,0.0,0.0,0.0,-1.7007736,0.105538934,-0.7498358,0.12421608,-1.2104511,-1.8174648,-14.635068,-10.551572,0.41128993,0.8697748
8.066812,21.07804,3.9331915,3.219427,-1.3683815,-1.7387378,0.07158874,-0.8233053,0.5980901,-0.33213228,-0.31134623,-0.29779157,0.69995254,0.517128,1.0439727,-0.42892706,-1.814958,-0.9684328,2.2891681,1.4799004,-0.94306433,1.1115652,-0.4777073,-1.7872455,-0.9425672,2.320313,1.4148566,-0.99159473,-1.4729075,1.0972667,-0.5591601,-0.5516968,0.076595515,0.49623504,0.32003063,1.0136108,-0.50637054,1.2963088,-3.7154658,-0.083013594,-0.37717438,0.13904953,-0.39075089,1.0262833,0.8327761,-0.15148367,0.13809201,0.51426375,-0.15057479,0.33418342,0.06340002,1.0,0.0,0.0,0.0,0.0,0.0,0.0,-1.6636108,0.10637054,-0.74630874,0.33681393,-2.2423983,-3.6243677,-9.91447,-24.076324,0.48054457,0.7226229
-3.2607057,7.945566,-1.7243615,10.687687,-0.575853,-1.7085223,-0.31120673,-0.80777895,0.54447055,-0.42766488,-0.22616102,-0.54286957,0.6982609,0.53586197,1.0307873,-0.42326024,-1.830012,-0.9651833,2.266026,1.4846827,-0.93800855,1.0969263,-0.4671301,-1.7934806,-0.94805753,2.3187299,1.4198309,-0.9883284,-1.4606173,1.0447254,-0.6449282,-0.5485519,-0.23632993,0.4982468,0.3280994,0.9764824,-0.50720215,1.2918034,-3.7117512,-0.0829306,-0.47498322,0.13777542,-0.3876686,1.0265791,0.8348457,-0.15166405,0.14636578,0.5085349,-0.11618331,0.29748154,0.015811438,1.0,0.0,0.0,0.0,0.0,0.0,0.0,-1.6264824,0.10720214,-0.74180335,1.2863398,-5.198741,-8.617711,0.17559528,-31.25559,0.31523705,0.5607605
-20.143377,4.1360364,-4.4030275,29.313438,1.5386575,-0.95265925,-0.86496115,-0.80896366,0.51268786,-0.49542367,0.029612297,-0.63577104,0.683006,0.5622495,1.01603,-0.4158613,-1.8430231,-0.9450963,2.2551527,1.4881315,-0.93210346,1.0823904,-0.45717707,-1.8007991,-0.95203435,2.3141751,1.4248072,-0.9849734,-1.4517779,0.9786329,-0.7601249,-0.34822518,-0.52842665,0.4972987,0.33695462,0.9393921,-0.50803375,1.2863206,-3.7080402,-0.082847685,-0.5726943,0.13628006,-0.38495255,1.0267725,0.837299,-0.15182713,0.15582436,0.50159496,-0.1574781,0.26164266,0.017936334,1.0,0.0,0.0,0.0,0.0,0.0,0.0,-1.5893921,0.10803375,-0.73632056,0.7436991,-6.653285,-11.351371,19.774925,-29.202354,-0.0829339,0.57896376
-26.13488,-22.920248,-13.013489,25.406761,2.5688245,-1.6315404,-0.73871017,-0.79738903,0.37084314,-0.54112047,-0.030836947,-0.64655656,0.68561244,0.59569347,1.0026516,-0.42009276,-1.8549112,-0.95511806,2.2495196,1.4933684,-0.925404,1.0679842,-0.44843236,-1.8093021,-0.95422685,2.3072858,1.4297739,-0.98151153,-1.4367038,0.83956575,-0.8804021,-0.17661217,-0.74199456,0.4967828,0.34834397,0.90233994,-0.50886154,1.2798615,-3.7043328,-0.08276486,-0.67030776,0.13419342,-0.38296127,1.0268103,0.84017146,-0.15188034,0.16592057,0.49347207,-0.22345366,0.17577308,-0.0031455364,1.0,0.0,0.0,0.0,0.0,0.0,0.0,-1.5523399,0.108861536,-0.72986144,1.6149282,-13.963234,-12.08353,17.037361,-21.32901,0.009816885,0.8592844
-21.826263,-18.583843,-9.539324,24.141768,2.9578233,-1.4483387,-0.4194905,-0.7975164,0.31476194,-0.45895764,0.0011089029,-0.6373898,0.6809907,0.58534265,0.9882326,-0.41695616,-1.8551979,-0.954116,2.2435467,1.497873,-0.92297727,1.0537001,-0.4411768,-1.8183391,-0.95494497,2.2989163,1.4347311,-0.9779467,-1.4251045,0.68738997,-0.9118355,-0.03706908,-0.8685289,0.49557638,0.3586577,0.8653259,-0.5096855,1.272427,-3.7006292,-0.0826821,-0.76782364,0.13142776,-0.38176346,1.0266764,0.8432755,-0.15179205,0.17605372,0.48461384,-0.29310307,0.099136606,-0.01858778,1.0,0.0,0.0,0.0,0.0,0.0,0.0,-1.5153259,0.10968551,-0.72242695,1.2887955,-15.2645,-3.2429814,13.924956,-12.613832,-0.080251694,0.86293817
-29.42349,-73.75606,-26.31814,9.380885,3.9333923,-2.992838,-0.039010722,-0.78609824,-0.002077491,-0.47020048,-0.08970762,-0.6201446,0.6776715,0.55445975,0.97509027,-0.44138455,-1.8653592,-0.9639157,2.2369018,1.5024983,-0.9225007,1.0395762,-0.43660823,-1.8274581,-0.95514905,2.2898335,1.4396769,-0.9743094,-1.4060812,0.3800546,-0.9140581,-0.014054215,-0.92119926,0.49448904,0.3649733,0.82834625,-0.5105095,1.264018,-3.6969295,-0.08259944,-0.865242,0.12776184,-0.3820877,1.0258929,0.84652853,-0.15102354,0.18536307,0.47562763,-0.3893002,-0.07599444,-0.09939595,1.0,0.0,0.0,0.0,0.0,0.0,0.0,-1.4783462,0.110509485,-0.71401805,2.514124,-30.723309,-0.843668,2.5410194,-5.0689816,-0.03734231,0.5158305
-34.33357,-93.411194,-30.692455,8.697402,5.1591673,-3.0848308,0.16040547,-0.7803955,-0.2260318,-0.3357303,0.0024525886,-0.58367574,0.67197317,0.5093632,0.96153665,-0.4592114,-1.8610312,-0.9549038,2.231466,1.5068742,-0.92337304,1.0256449,-0.43577233,-1.8358371,-0.955068,2.2806401,1.4445997,-0.97064537,-1.3863243,-0.015293675,-0.81524545,0.017027969,-0.9175574,0.49149042,0.36703867,0.7914047,-0.51133347,1.2546357,-3.6932333,-0.08251686,-0.9625629,0.122867584,-0.38432312,1.0242726,0.849884,-0.14947757,0.19299588,0.4670184,-0.5245101,-0.27309766,-0.18347369,1.0,0.0,0.0,0.0,0.0,0.0,0.0,-1.4414047,0.11133346,-0.7046357,2.7310371,-39.541454,9.091878,3.5541866,0.5934,-0.37968755,0.2585411
-29.02204,-138.79236,-43.192554,-18.736282,4.0950727,-4.920618,0.9166929,-0.73803836,-0.5648497,-0.30032215,-0.3662781,-0.5564272,0.67138726,0.4789274,0.95184106,-0.4922573,-1.8658693,-0.9916958,2.2249975,1.5117384,-0.9227526,1.0120741,-0.43977156,-1.8430469,-0.95653,2.2717137,1.4494749,-0.96698993,-1.3443568,-0.5280942,-0.6921951,-0.19858229,-0.88359636,0.48457286,0.36532202,0.75450134,-0.51215744,1.2442808,-3.6895406,-0.082434356,-1.0597866,0.11684036,-0.3891945,1.021063,0.8532086,-0.14634602,0.19834207,0.45965028,-0.6303072,-0.5569104,-0.36712572,1.0,0.0,0.0,0.0,0.0,0.0,0.0,-1.4045013,0.112157434,-0.6942808,5.085802,-51.26134,11.443197,-20.940474,3.5764456,-1.1775196,-0.09313822
-9.389853,-123.09227,-35.83084,-36.3962,1.7301005,-5.149197,1.5867082,-0.70712465,-0.69238716,-0.2084543,-0.67897296,-0.52901906,0.6657408,0.44500685,0.94136167,-0.50901026,-1.8638923,-1.0244273,2.2188118,1.516049,-0.9224892,0.9989954,-0.44852248,-1.8487594,-0.9616941,2.2632146,1.454249,-0.9633822,-1.2943109,-0.9910699,-0.5317904,-0.6206645,-0.8389689,0.47163007,0.3594035,0.7176323,-0.5129814,1.2329545,-3.6858518,-0.08235194,-1.156913,0.1103363,-0.39677048,1.015665,0.8562326,-0.14095727,0.201385,0.45435756,-0.6617936,-0.8214146,-0.5985608,1.0,0.0,0.0,0.0,0.0,0.0,0.0,-1.3676323,0.11298141,-0.6829545,5.4415703,-46.391,15.768444,-41.696064,4.3135047,-2.3660004,-0.5490184
9.947228,-61.156075,-14.583132,-31.369892,-0.1393414,-3.5215943,1.6807258,-0.66344434,-0.711274,-0.10679978,-0.7451319,-0.6396879,0.6817662,0.470664,0.932651,-0.51964986,-1.8594394,-1.0362073,2.1992457,1.5224257,-0.9163158,0.9865061,-0.4607257,-1.8526847,-0.9709953,2.2547727,1.4589125,-0.95981354,-1.2337371,-1.297254,-0.34589297,-1.0321923,-0.84712946,0.46076712,0.35622293,0.6808014,-0.5138054,1.2206576,-3.6821668,-0.0822696,-1.2539424,0.10400772,-0.40617752,1.0082498,0.8586876,-0.13360418,0.20274118,0.45133317,-0.6283832,-0.9733594,-0.79197264,1.0,0.0,0.0,0.0,0.0,0.0,0.0,-1.3308014,0.11380538,-0.6706576,6.0766697,-30.776333,18.61192,-40.85431,-1.0593891,-2.1861315,-0.2530098
21.48314,9.5308895,8.870893,-13.064695,-0.70710295,-1.166538,1.4151698,-0.65832996,-0.7063851,0.04609835,-0.7425352,-0.68559843,0.6987711,0.4939691,0.92067313,-0.5313642,-1.8480749,-1.0452489,2.1862128,1.5287896,-0.9104166,0.9745146,-0.47471514,-1.8544452,-0.983436,2.2460332,1.4635206,-0.95624775,-1.1877055,-1.4330114,-0.12036638,-1.3143208,-0.88301045,0.45934227,0.3573887,0.64400864,-0.51462936,1.2073911,-3.6784854,-0.08218735,-1.3508747,0.09824753,-0.41610718,0.99955297,0.86040336,-0.12525184,0.20311606,0.45029086,-0.56501997,-0.9916817,-0.89980936,1.0,0.0,0.0,0.0,0.0,0.0,0.0,-1.2940086,0.11462936,-0.65739113,4.569173,-13.628483,22.227371,-28.097105,-3.5633922,-0.616765,0.33575892
20.817781,51.878548,21.572834,5.496765,-0.23637024,0.41308755,0.9157462,-0.6505685,-0.7216547,0.1062845,-0.729542,-0.6747455,0.69121855,0.47205317,0.90945774,-0.5468806,-1.8438168,-1.0563902,2.1785586,1.5326425,-0.9090424,0.96287215,-0.48922053,-1.8541572,-0.9975542,2.2369657,1.4681555,-0.95267814,-1.1559907,-1.4561143,0.076055914,-1.4439958,-0.9136845,0.46520677,0.3580851,0.6072502,-0.51545334,1.1931561,-3.6748075,-0.082105175,-1.4477102,0.09305191,-0.42563248,0.9903464,0.8614254,-0.11681946,0.20300002,0.45065558,-0.5096768,-0.9316238,-0.93204564,1.0,0.0,0.0,0.0,0.0,0.0,0.0,-1.2572502,0.11545333,-0.6431561,3.28269,-2.227211,18.904127,-12.899828,-2.7913213,0.7591605,0.42301416
11.454029,65.79759,23.513353,19.003645,0.58648276,1.054589,0.37611568,-0.6649552,-0.72767025,0.10169745,-0.72858477,-0.66038096,0.68128526,0.46624964,0.8963766,-0.5619876,-1.8439875,-1.0704126,2.1709275,1.536284,-0.9060532,0.9513575,-0.5035133,-1.8525035,-1.0121362,2.2276998,1.4728628,-0.9491047,-1.1490325,-1.4198556,0.19230302,-1.4625798,-0.9300124,0.47415718,0.3584223,0.57052994,-0.5162773,1.1779534,-3.6711335,-0.08202309,-1.5444489,0.08818436,-0.4344101,0.98114043,0.86197823,-0.10879324,0.20271742,0.45173338,-0.4830831,-0.84870774,-0.9206812,1.0,0.0,0.0,0.0,0.0,0.0,0.0,-1.2205299,0.11627731,-0.62795335,0.9727955,3.7685394,10.7353325,-1.730299,-1.3273239,1.3986468,0.41605234
0.5672083,53.50677,15.851577,22.566002,1.0849472,0.53899026,-0.06404664,-0.6238376,-0.73930234,-0.049951363,-0.7393846,-0.64510596,0.66479886,0.45571873,0.8889737,-0.5774435,-1.8574986,-1.0860747,2.1631892,1.5393428,-0.90353286,0.9400116,-0.5173654,-1.8509185,-1.0265119,2.2183728,1.4776369,-0.94554275,-1.1288803,-1.3733253,0.14534436,-1.428475,-0.9331399,0.47983485,0.3562585,0.5338478,-0.51709366,1.161784,-3.6674633,-0.08194108,-1.6410908,0.08338928,-0.44260406,0.97202015,0.86237204,-0.10107793,0.20250565,0.4528675,-0.48281375,-0.79822814,-0.9122517,1.0,0.0,0.0,0.0,0.0,0.0,0.0,-1.1838478,0.11709365,-0.61178404,2.263689,4.743576,-5.2570133,3.6113024,-0.21603107,0.9480059,0.030910969
-12.1191845,31.923069,4.5672874,22.914555,1.503673,-0.23236662,-0.4192451,-0.6151626,-0.744101,-0.22580501,-0.7347615,-0.6556555,0.66983575,0.4771084,0.87849534,-0.5917755,-1.873499,-1.0999881,2.1528072,1.5446205,-0.8978319,0.9288746,-0.53083605,-1.8509681,-1.0403993,2.2090116,1.4824511,-0.94199604,-1.1078721,-1.3383185,-0.055632003,-1.3742722,-0.9376324,0.4821623,0.35442755,0.4972,-0.51791,1.1446489,-3.6637964,-0.081859164,-1.737636,0.07836151,-0.45063782,0.96280694,0.86291564,-0.09326911,0.2025526,0.45348632,-0.5119529,-0.7939283,-0.92697644,1.0,0.0,0.0,0.0,0.0,0.0,0.0,-1.1472,0.11791,-0.5946489,2.3405075,3.4831524,-20.29066,5.7189465,-0.622952,0.33008456,-0.11167526
-22.97079,8.798944,-6.625449,20.682878,1.81748,-0.98259634,-0.61154765,-0.6171557,-0.7601382,-0.40707695,-0.740403,-0.65687853,0.67340165,0.49111354,0.86715907,-0.60684985,-1.8916758,-1.1144396,2.1433237,1.5497912,-0.8928847,0.91789687,-0.54415315,-1.8538463,-1.0538175,2.1996045,1.4872671,-0.9384617,-1.0935347,-1.3300034,-0.36495784,-1.329598,-0.94321793,0.48061,0.35276908,0.46059036,-0.51872635,1.1265491,-3.6601334,-0.08177732,-1.8340846,0.07285309,-0.45895004,0.95320207,0.86383826,-0.08487749,0.20292841,0.45320982,-0.5674754,-0.83391976,-0.97470933,1.0,0.0,0.0,0.0,0.0,0.0,0.0,-1.1105903,0.11872634,-0.5765491,1.7223358,0.68986416,-30.873722,4.88863,-0.965333,-0.3884077,-0.23778677
-26.629005,-0.25077105,-10.768875,18.2878,1.8721251,-1.1905234,-0.58316964,-0.62680274,-0.76433647,-0.5187109,-0.753791,-0.65837353,0.67400193,0.48875937,0.8552166,-0.6205868,-1.9057174,-1.1291966,2.1337671,1.5546674,-0.8895858,0.90696585,-0.5575103,-1.8599098,-1.0669763,2.1901402,1.4920546,-0.9349465,-1.0917408,-1.33837,-0.6865316,-1.3095025,-0.9493477,0.47677198,0.35073534,0.42401505,-0.5195427,1.1074857,-3.656474,-0.081695564,-1.930437,0.066719055,-0.46776962,0.9429747,0.865198,-0.07559586,0.20358644,0.45196262,-0.63297284,-0.8874683,-1.0426642,1.0,0.0,0.0,0.0,0.0,0.0,0.0,-1.074015,0.11954269,-0.55748564,0.5481243,-1.0480165,-32.07052,2.5191545,-1.1128664,-0.79743266,-0.3173709
-24.546614,8.802956,-6.0059996,19.106876,1.9636818,-0.5817487,-0.3963859,-0.6676143,-0.7595107,-0.5021586,-0.7531373,-0.6547706,0.6848194,0.49561468,0.8402044,-0.63346136,-1.9101256,-1.14229,2.124663,1.5605365,-0.88538504,0.8958231,-0.5709695,-1.8683765,-1.0800531,2.1806378,1.4968153,-0.9314408,-1.1204288,-1.349086,-0.9002858,-1.3053877,-0.952222,0.47459897,0.35042125,0.38747787,-0.52035904,1.0874592,-3.6528182,-0.08161388,-2.0266929,0.059936523,-0.47693253,0.9321444,0.86687624,-0.06552682,0.2043622,0.44996426,-0.6977842,-0.9150849,-1.1014162,1.0,0.0,0.0,0.0,0.0,0.0,0.0,-1.0374779,0.12035903,-0.5374592,-2.4396658,-1.2812138,-21.444332,0.9246826,-0.7362485,-0.5727351,-0.065761805
-19.631893,22.119585,1.1332288,20.1097,2.0376296,0.1192677,-0.1797265,-0.693208,-0.7590637,-0.49125716,-0.7531361,-0.61875206,0.68201655,0.4927585,0.8265023,-0.6468759,-1.9175022,-1.1553667,2.1187627,1.565017,-0.8821649,0.8842598,-0.58452123,-1.8781002,-1.0931604,2.171227,1.5015608,-0.92793316,-1.166991,-1.3577877,-0.9969766,-1.310958,-0.9381299,0.47382876,0.35123074,0.35097885,-0.5211754,1.066471,-3.649166,-0.081532285,-2.1228523,0.052562714,-0.4861374,0.92086756,0.86869967,-0.054970525,0.20502159,0.44755474,-0.75517577,-0.91138333,-1.141987,1.0,0.0,0.0,0.0,0.0,0.0,0.0,-1.0009788,0.12117538,-0.51647097,-4.251075,-1.0457754,-9.863531,-0.10435581,1.054728,-0.306499,0.15633106
-15.666567,35.414597,7.8110385,21.95064,2.1042373,0.76383907,-0.055193886,-0.7253275,-0.75171554,-0.4809574,-0.74469715,-0.59859943,0.6837085,0.47584322,0.81172705,-0.65969276,-1.9261959,-1.1676301,2.111367,1.5699316,-0.88034886,0.87213385,-0.5980968,-1.8881156,-1.1063097,2.1620336,1.5063101,-0.92442364,-1.226678,-1.3579166,-1.0039543,-1.3148929,-0.9140085,0.47508004,0.3513536,0.31451416,-0.5219917,1.0445219,-3.6455178,-0.08145077,-2.2189157,0.044677734,-0.49510193,0.9093457,0.87053776,-0.04425677,0.20539239,0.4449935,-0.8046604,-0.87943566,-1.1614226,1.0,0.0,0.0,0.0,0.0,0.0,0.0,-0.96451414,0.121991724,-0.49452192,-5.609393,-0.14736652,-0.97688437,-0.017642975,2.1478415,0.042062998,0.17252564
-15.597346,37.22943,8.437614,22.094711,2.0966744,0.84733963,-0.07320553,-0.73880166,-0.75485605,-0.55868,-0.73615885,-0.5986009,0.68330723,0.45453647,0.79825366,-0.6735824,-1.9439837,-1.1799256,2.1021736,1.5746409,-0.87896997,0.8594557,-0.61166376,-1.8982322,-1.1194513,2.1530614,1.5110728,-0.9209294,-1.2803513,-1.3567388,-1.0152811,-1.3125048,-0.89235014,0.47655442,0.34932628,0.27808762,-0.5228081,1.021613,-3.641873,-0.08136933,-2.314883,0.03630829,-0.5037308,0.8976464,0.87236685,-0.033487525,0.20544918,0.442318,-0.8527919,-0.844874,-1.1785347,1.0,0.0,0.0,0.0,0.0,0.0,0.0,-0.9280876,0.12280807,-0.471613,-5.0364017,-0.013494492,-1.3883352,0.6064892,1.9124627,0.06876588,-0.042814016
-14.751971,39.335762,9.082769,21.702494,1.9796025,0.8742578,-0.090394974,-0.75227064,-0.7473083,-0.60091144,-0.7319577,-0.59491724,0.68169206,0.43517488,0.7842286,-0.6863946,-1.9583234,-1.1926471,2.0935698,1.579242,-0.8774119,0.8463236,-0.6251773,-1.9085834,-1.1325376,2.1442723,1.5158488,-0.9174704,-1.3231302,-1.3499492,-1.0423824,-1.3062164,-0.87523675,0.4777775,0.3451901,0.2416954,-0.5236244,0.9977451,-3.6382318,-0.08128798,-2.4107544,0.027492523,-0.51200485,0.88577664,0.8741904,-0.022658769,0.20523448,0.43949562,-0.89644647,-0.80880564,-1.1953864,1.0,0.0,0.0,0.0,0.0,0.0,0.0,-0.8916954,0.123624414,-0.44774508,-3.9849758,0.55367947,-2.9251814,0.977087,1.4658093,0.03951192,-0.2695799
-16.884224,35.164795,6.552335,20.638428,1.9803342,0.6991441,-0.1499776,-0.7726574,-0.7517,-0.6692864,-0.73607504,-0.5704301,0.66767716,0.3778732,0.76905787,-0.7003473,-1.975512,-1.206145,2.0872293,1.5826164,-0.8796831,0.8328129,-0.638647,-1.9194973,-1.14558,2.1356778,1.520621,-0.91409534,-1.3593044,-1.3464521,-1.1081047,-1.3023624,-0.8549705,0.47653574,0.33529964,0.20534134,-0.52443314,0.97291917,-3.6345944,-0.08120671,-2.50653,0.01819992,-0.51999664,0.8736633,0.8760475,-0.011659718,0.20476124,0.4364374,-0.9445961,-0.781465,-1.2220082,1.0,0.0,0.0,0.0,0.0,0.0,0.0,-0.8553413,0.12443313,-0.42291915,-3.3223152,0.19979477,-6.7299604,0.77421665,1.7370939,-0.2950549,-0.87017417
-17.497566,34.81496,6.261789,20.485323,2.0150137,0.73599744,-0.17607936,-0.7895895,-0.7559628,-0.6908738,-0.7224902,-0.56110114,0.6637863,0.31942695,0.753854,-0.7142433,-1.9885846,-1.2178291,2.0795677,1.5869995,-0.8821527,0.8189808,-0.65211576,-1.9311054,-1.1585367,2.1272779,1.525376,-0.9108595,-1.3903462,-1.3475848,-1.1787918,-1.2918527,-0.83610946,0.47446704,0.3200561,0.1690216,-0.52524185,0.9471362,-3.6309605,-0.08112552,-2.6022098,0.008415222,-0.52770996,0.86127394,0.8779589,-0.00045663814,0.20401081,0.43309072,-0.99456614,-0.75381774,-1.2498784,1.0,0.0,0.0,0.0,0.0,0.0,0.0,-0.8190216,0.12524185,-0.3971362,-2.8262377,-0.27263165,-7.195306,1.4499664,1.5961528,-0.40376782,-1.407826
-15.389947,37.66535,7.9077816,19.706205,1.9263184,0.8574526,-0.13771047,-0.79956156,-0.7540029,-0.70250976,-0.7221553,-0.54003125,0.6533631,0.26634932,0.73902464,-0.72751606,-2.0013564,-1.2307522,2.0732746,1.5907123,-0.8842246,0.80488837,-0.66559786,-1.9433277,-1.1713979,2.1190877,1.5301024,-0.9078068,-1.4147427,-1.3489294,-1.236937,-1.2829258,-0.81402516,0.4715233,0.30082637,0.13274002,-0.52605057,0.9203972,-3.6273303,-0.08104441,-2.6977937,-0.00182724,-0.5351181,0.8486215,0.87990654,0.010913318,0.20294814,0.42948502,-1.038745,-0.72101015,-1.275711,1.0,0.0,0.0,0.0,0.0,0.0,0.0,-0.78274,0.12605056,-0.3703972,-2.198863,-0.28378963,-5.929494,1.2660503,1.9433618,-0.48086643,-1.7942369
-14.377426,37.19683,8.207639,18.768576,1.9229962,0.8933665,-0.12949093,-0.80604655,-0.7707505,-0.72595865,-0.71432364,-0.5174306,0.63308775,0.14765425,0.7242837,-0.7426729,-2.0159235,-1.2428303,2.0673447,1.5934112,-0.8930414,0.79060423,-0.6791715,-1.9560592,-1.1841562,2.1111493,1.5347849,-0.9050192,-1.4321904,-1.3607577,-1.2853706,-1.2720848,-0.7880949,0.46670443,0.2718932,0.09649277,-0.5268593,0.89270306,-3.6237037,-0.08096339,-2.7932823,-0.012500763,-0.54219055,0.8357016,0.8818841,0.022407742,0.20149693,0.42564926,-1.08141,-0.6877283,-1.3026879,1.0,0.0,0.0,0.0,0.0,0.0,0.0,-0.74649274,0.12685928,-0.34270304,-1.5284777,-1.3303757,-4.9518585,1.4597416,2.3540854,-0.6780267,-2.7449548
-12.58494,41.69502,10.567345,19.05923,1.9245152,1.1049937,-0.1380285,-0.8159973,-0.76776177,-0.7277994,-0.6987884,-0.48738325,0.6234869,0.021865493,0.7090045,-0.7559477,-2.028839,-1.254035,2.062411,1.5971336,-0.9028327,0.7761656,-0.6928453,-1.9691207,-1.1967599,2.10352,1.5394179,-0.902595,-1.447108,-1.3701127,-1.313376,-1.2552434,-0.75567156,0.46174264,0.233141,0.06028366,-0.527668,0.8640547,-3.6200807,-0.08088244,-2.8886755,-0.023571014,-0.54888535,0.8225715,0.88389164,0.03392199,0.19960834,0.42159364,-1.1191165,-0.6468801,-1.3216512,1.0,0.0,0.0,0.0,0.0,0.0,0.0,-0.71028364,0.127668,-0.31405467,-1.311636,-1.0691643,-2.9008865,2.0225763,3.0395389,-0.6514728,-3.7092805
-13.24728,44.68119,11.527536,20.395954,2.0208447,1.2565153,-0.2416393,-0.82463276,-0.7672789,-0.75404984,-0.6648442,-0.4714383,0.6115188,-0.16729954,0.69370234,-0.76957315,-2.0445256,-1.2632444,2.056376,1.6005697,-0.91932493,0.76158774,-0.7065868,-1.9824493,-1.2090642,2.0962071,1.5439974,-0.9006724,-1.4609306,-1.3759632,-1.3396496,-1.2209601,-0.72378284,0.4564039,0.17916185,0.024108887,-0.5284767,0.8344531,-3.6164615,-0.08080158,-2.9839733,-0.03501892,-0.5551491,0.809309,0.88596636,0.04535818,0.19730219,0.41722655,-1.157496,-0.6021759,-1.3329083,1.0,0.0,0.0,0.0,0.0,0.0,0.0,-0.67410886,0.12847671,-0.2844531,-1.2236834,-0.71897507,-2.6962519,3.749895,3.0014277,-0.6690979,-5.2365007
-15.594531,47.55232,11.996558,22.528872,2.2373824,1.4268954,-0.35354137,-0.8406743,-0.76416117,-0.77432185,-0.6233589,-0.43968278,0.6007406,-0.29484314,0.67752033,-0.7830029,-2.0598814,-1.2714001,2.052239,1.6040715,-0.9301567,0.7468511,-0.72032887,-1.9963139,-1.2209345,2.0892081,1.5490528,-0.8991917,-1.4732304,-1.3700194,-1.4631026,-1.1907076,-0.7278316,0.6230035,0.15743314,-0.006084442,-0.52926636,0.8132919,-1.7120022,0.055644836,0.47119552,-0.04693985,-0.5608978,0.7959215,0.88812065,0.05651582,0.19470906,0.4124754,-1.2097416,-0.5415586,-1.3665348,0.0,1.0,0.0,0.0,0.0,0.0,0.0,-0.64391553,0.12926635,-0.2632919,-0.4570961,1.094532,-22.01991,0.89161396,-4.5897126,33.756626,1.9766301
63.994324,176.0,110.0,110.0,5.467749,14.190207,-1.8043005,-0.8092984,0.50089747,0.7058812,0.68492603,-0.15706496,0.6302149,-0.4010701,0.6659213,-0.6702391,-1.9257258,-1.1524419,2.0735016,1.6120744,-0.9392987,0.73692524,-0.7365251,-2.0049975,-1.2195116,2.075334,1.5654808,-0.8978098,-0.8306231,-1.676215,-0.7093409,0.5743423,-1.5679345,2.0100343,0.14418131,-0.02319336,-0.5287094,0.8172639,-1.7102906,0.055589203,0.37253848,-0.05857086,-0.56370544,0.7865197,0.8898835,0.05669438,0.19613746,0.4079499,-1.1483184,-0.17764148,-0.8016493,0.0,1.0,0.0,0.0,0.0,0.0,0.0,-0.6268066,0.1287094,-0.2672639,64.79045,-22.620655,63.56803,172.87567,-72.22152,146.85487,2.4171205
-30.851063,158.92404,57.722717,99.56079,8.171084,5.5526514,-2.2995605,-0.8196461,-0.5779219,-0.23604475,0.7560078,-0.5705393,0.6410486,-0.18550362,0.65496063,-0.7943173,-2.028602,-1.1439109,2.01828,1.6295857,-0.91636014,0.7286731,-0.7524057,-2.009537,-1.2070795,2.059381,1.5856243,-0.89662915,-0.8215555,-1.5598701,-0.36811763,1.4681865,-1.6067202,2.0223575,0.1114469,-0.040283203,-0.52815247,0.82025003,-1.7085806,0.055533625,0.27398008,-0.07078934,-0.56451035,0.7814786,0.89223814,0.050209656,0.1998445,0.40181112,-1.2432591,-0.0365699,-0.41094756,1.0,0.0,0.0,0.0,0.0,0.0,0.0,-0.6097168,0.12815246,-0.27025002,1.4632106,11.2903595,34.466957,89.97703,-4.551387,3.1449795,-2.667345
-51.700863,131.90944,32.941254,75.10193,6.2591696,3.0079017,-1.7742133,-0.796278,-0.4943313,-0.41145098,0.7290693,-0.65411144,0.6072679,0.34200886,0.6490453,-0.8018388,-2.050682,-1.1341726,1.9939699,1.6463511,-0.86242825,0.71937096,-0.76609,-2.01289,-1.1893202,2.044248,1.6046349,-0.8953913,-0.96373206,-1.3059577,-0.32562518,1.8806535,-1.4829202,1.8644822,0.12831669,-0.057353973,-0.5275955,0.8222513,-1.7068723,0.055478103,0.17552021,-0.08400345,-0.5641823,0.77915096,0.8953363,0.042097427,0.20457052,0.39338472,-1.3459766,0.062387243,-0.18175128,1.0,0.0,0.0,0.0,0.0,0.0,0.0,-0.592646,0.12759551,-0.2722513,-13.407362,24.988556,3.819698,41.915276,12.054038,-14.623284,1.8080249
-28.728811,109.365944,31.591618,44.560917,3.9578402,2.107953,-0.49038494,-0.76258683,-0.60186726,0.07174352,0.7663371,-0.6226675,0.5863052,0.3664675,0.6431123,-0.8262767,-2.0057158,-1.1126865,1.9819814,1.6632653,-0.85874456,0.70834553,-0.7778192,-2.014622,-1.1701723,2.0308661,1.6216313,-0.89394265,-1.1475397,-1.1298031,-0.1228796,1.9271119,-1.2922156,1.6468326,0.15090168,-0.074409485,-0.5270386,0.8232688,-1.7051659,0.055422638,0.07715879,-0.09773636,-0.5629425,0.7783965,0.8987366,0.033837095,0.20928374,0.38383305,-1.3804541,0.15284388,-0.048779756,1.0,0.0,0.0,0.0,0.0,0.0,0.0,-0.5755905,0.12703857,-0.27326876,-17.98098,17.263103,20.174036,4.9188614,18.351603,-21.165443,2.401051
-13.52512,76.663345,22.584465,21.2024,1.9457169,0.971939,0.20160088,-0.76804364,-0.6172233,0.104134396,0.7481829,-0.64394844,0.5942908,0.29383257,0.6315412,-0.83954155,-2.0042086,-1.0953541,1.9664713,1.6810603,-0.8645594,0.695717,-0.78842884,-2.014477,-1.1520544,2.0191588,1.6365639,-0.89233094,-1.300939,-1.0387471,0.0599505,1.7734565,-1.1322391,1.4432709,0.16479845,-0.09144974,-0.5264816,0.82330334,-1.703461,0.055367228,-0.021104306,-0.111530304,-0.5610542,0.77821976,0.9021097,0.026144795,0.21335873,0.3741556,-1.3770397,0.21011566,-0.014998885,1.0,0.0,0.0,0.0,0.0,0.0,0.0,-0.55855024,0.12648162,-0.27330333,-15.233684,8.890104,18.319967,-15.323782,15.3546095,-20.015955,1.4624298
1.3281102,61.97371,20.312399,9.655723,0.75290596,0.31547922,0.49711952,-0.75922376,-0.59230685,0.15392116,0.75465786,-0.64239174,0.57175535,0.22226176,0.6197946,-0.8476595,-1.999085,-1.0765886,1.9549197,1.6937394,-0.8701048,0.6820394,-0.7985206,-2.0126917,-1.1358114,2.0086875,1.6496521,-0.89065915,-1.3901786,-0.99992466,0.21871947,1.5742223,-1.0204837,1.2647946,0.16811469,-0.10847473,-0.5259285,0.822356,-1.7017579,0.05531187,-0.11926915,-0.12505722,-0.55877304,0.77806264,0.9053022,0.019269532,0.21665634,0.36485136,-1.3431702,0.24397776,-0.022324704,1.0,0.0,0.0,0.0,0.0,0.0,0.0,-0.54152524,0.12592849,-0.27235597,-8.985138,3.7286043,16.071903,-19.985199,10.553384,-17.597437,0.358966
4.2068896,46.705254,14.597066,5.857946,0.40683228,-0.2990476,0.43144834,-0.76033485,-0.59680843,0.13126627,0.7528425,-0.6320078,0.57485086,0.11732874,0.6060059,-0.85820144,-1.9995651,-1.0605272,1.9454867,1.7071372,-0.8789263,0.66788495,-0.80853707,-2.0099223,-1.1212984,1.9990249,1.6611725,-0.8890503,-1.4240838,-1.0025711,0.29716417,1.4103004,-0.9497149,1.1149387,0.15852442,-0.12547684,-0.5253792,0.8204278,-1.7000566,0.05525657,-0.21733584,-0.13827133,-0.5563431,0.7776142,0.90832317,0.013294995,0.2192497,0.35595194,-1.312678,0.2522586,-0.05749568,1.0,0.0,0.0,0.0,0.0,0.0,0.0,-0.52452314,0.12537917,-0.27042776,-3.460431,-0.3653288,7.993412,-16.415333,6.63265,-14.79764,-0.93872845
4.1819477,39.56681,11.073631,6.462944,0.34827352,-0.67849123,0.2683408,-0.74262226,-0.59501815,0.092343256,0.7585322,-0.64596206,0.58353287,0.10139707,0.59362274,-0.8680389,-2.0006878,-1.0454452,1.9344287,1.7195258,-0.8789106,0.65375054,-0.8187061,-2.0069811,-1.1079031,1.9897742,1.6713921,-0.88755685,-1.410009,-1.0219814,0.29348704,1.3162218,-0.91775894,0.99144447,0.14629105,-0.14246368,-0.52482986,0.81751955,-1.6983569,0.055201326,-0.3153045,-0.15122604,-0.55395126,0.77674127,0.9112279,0.00824734,0.22136599,0.3472646,-1.2897571,0.24437541,-0.10154959,0.0,1.0,0.0,0.0,0.0,0.0,0.0,-0.5075363,0.12482986,-0.26751953,1.3564587,-2.0175695,-0.25624037,-9.365487,2.8911352,-12.198305,-1.2185901
-1.2929382,27.751207,4.776564,7.4096003,0.47532752,-1.0550618,0.09339413,-0.7283934,-0.62612486,0.007514127,0.7523349,-0.65167665,0.5967097,0.10114617,0.5809112,-0.88131857,-2.0062296,-1.0326697,1.9246066,1.731063,-0.87744224,0.6399518,-0.8292337,-2.004738,-1.0950171,1.9806647,1.6805493,-0.88617975,-1.369862,-1.0631913,0.2013604,1.2796857,-0.909048,0.89066035,0.13494375,-0.15943527,-0.52428055,0.81363237,-1.6966588,0.055146135,-0.4131752,-0.16410828,-0.55174637,0.77529716,0.9140918,0.0042253365,0.22319551,0.3385293,-1.2878284,0.22034566,-0.16257401,0.0,1.0,0.0,0.0,0.0,0.0,0.0,-0.4905647,0.12428054,-0.26363236,4.0124416,-4.1695833,-9.19936,-3.5251856,0.7360816,-9.986615,-1.1235803
-12.530132,16.620625,-3.0086746,9.764224,0.6465046,-1.3564248,-0.110122934,-0.72445524,-0.63902277,-0.16534185,0.7578444,-0.67314893,0.6001207,0.16472803,0.5675063,-0.89313596,-2.0212722,-1.0192326,1.9133499,1.7405614,-0.8697069,0.6265718,-0.84019333,-2.0042803,-1.0821711,1.9715037,1.6888348,-0.884857,-1.3271357,-1.106938,-0.006577225,1.2869011,-0.91830266,0.80801815,0.13145368,-0.1763916,-0.52373123,0.80876726,-1.6949625,0.055091,-0.51094806,-0.17718887,-0.549881,0.773092,0.9169949,0.0015083938,0.22496329,0.32940775,-1.3140721,0.18495744,-0.24357359,0.0,1.0,0.0,0.0,0.0,0.0,0.0,-0.47360837,0.123731226,-0.25876725,4.3521643,-4.404664,-20.957743,0.9684324,-0.8446336,-8.217203,-0.34824908
-23.765663,9.829893,-8.908558,12.465041,0.82546353,-1.4638249,-0.25939158,-0.7246249,-0.6468381,-0.35146514,0.77221423,-0.6828854,0.5989085,0.2564382,0.5541093,-0.9048771,-2.0394268,-1.0049497,1.9032152,1.7487257,-0.8592132,0.61353505,-0.8515325,-2.0065997,-1.0690466,1.9621978,1.6964031,-0.8834885,-1.2953111,-1.1430856,-0.3080465,1.3221408,-0.93370515,0.7397219,0.13861005,-0.19332886,-0.5231819,0.80292517,-1.6932678,0.05503592,-0.60862327,-0.19072723,-0.5483818,0.7699724,0.91999036,0.0004087942,0.22688498,0.3195947,-1.3645606,0.14707766,-0.33850053,0.0,1.0,0.0,0.0,0.0,0.0,0.0,-0.45667112,0.12318191,-0.25292516,3.357482,-3.6508322,-30.476341,3.8927555,-1.2910366,-6.827557,0.699836
-27.332035,16.14643,-7.205016,14.979399,0.998827,-1.106457,-0.2823753,-0.7305551,-0.64600563,-0.4350085,0.78070873,-0.67751026,0.6128286,0.27831158,0.54047954,-0.9161331,-2.0501006,-0.99097574,1.8944467,1.757686,-0.85565734,0.60069114,-0.8631171,-2.0119302,-1.0555502,1.9527342,1.7034152,-0.8820727,-1.2801765,-1.1638703,-0.6080068,1.3607616,-0.9489354,0.68810004,0.14329903,-0.2100563,-0.52136993,0.79960996,-1.6653241,0.200942,-0.29596832,-0.20477295,-0.5471649,0.76595575,0.92306674,0.0009618794,0.2290818,0.3089796,-1.4169319,0.12356495,-0.42613208,0.0,1.0,0.0,0.0,0.0,0.0,0.0,-0.43994367,0.12136993,-0.24960995,1.6063929,-2.1832705,-29.427809,4.66125,-1.0069132,-5.534649,0.9459883
-29.431662,35.622917,-0.4080615,19.832201,1.3152454,-0.41702694,-0.3255307,-0.76022065,-0.5966917,-0.50787354,0.7942816,-0.65885717,0.6039108,0.23084566,0.52466905,-0.9227863,-2.0627177,-0.9761221,1.8868486,1.7638062,-0.8589881,0.5877593,-0.8745841,-2.0197966,-1.0416495,1.9432238,1.7099556,-0.8806099,-1.2968181,-1.1415995,-0.8465998,1.4011672,-0.9518056,0.64244604,0.14704767,-0.22667694,-0.5192642,0.79623073,-1.6612698,0.21329318,-0.35456336,-0.21929169,-0.545948,0.7613462,0.92617285,0.0029112748,0.23163612,0.29755655,-1.4611363,0.1310081,-0.47657335,0.0,1.0,0.0,0.0,0.0,0.0,0.0,-0.42332304,0.119264215,-0.24623072,-1.4549255,2.0580053,-24.016321,4.4186354,-0.27819872,-4.629302,0.28958023
-26.08286,47.681763,5.173895,20.741695,1.412914,0.04494673,-0.23832856,-0.76505387,-0.58997273,-0.5716044,0.7970683,-0.6438144,0.60376596,0.23587608,0.51125395,-0.93358135,-2.076957,-0.9619426,1.8788424,1.7703322,-0.85702235,0.5745845,-0.8857354,-2.0295482,-1.0274343,1.933752,1.7160991,-0.8791139,-1.3238214,-1.1070429,-1.0180913,1.4292097,-0.9462553,0.6045608,0.15007825,-0.24324036,-0.5169754,0.79246455,-1.6551054,0.23338994,-0.38623407,-0.23414993,-0.5445328,0.7563894,0.9292332,0.0059631243,0.23453069,0.28545645,-1.4916693,0.1566076,-0.50610733,0.0,1.0,0.0,0.0,0.0,0.0,0.0,-0.40675962,0.1169754,-0.24246454,-2.5577068,3.2360554,-17.096615,3.100872,0.3625393,-3.9023995,0.1965642
-22.426994,49.063404,6.9902034,18.952599,1.3652364,0.22279513,-0.0978076,-0.7690933,-0.6057207,-0.64090794,0.7952113,-0.6329371,0.6065925,0.30791506,0.49767515,-0.9463075,-2.093639,-0.9479132,1.8704582,1.7767584,-0.8483224,0.5611415,-0.8966464,-2.0406685,-1.0130569,1.9243754,1.7219146,-0.87753856,-1.350781,-1.0865375,-1.1429712,1.4414325,-0.93588585,0.5732492,0.15972538,-0.25973892,-0.5144806,0.78840584,-1.6478527,0.25424162,-0.41387546,-0.24925995,-0.5428276,0.75114936,0.93217885,0.009921819,0.23763472,0.2728991,-1.5145774,0.18753164,-0.533793,0.0,1.0,0.0,0.0,0.0,0.0,0.0,-0.39026105,0.114480585,-0.23840582,-2.605009,1.8224001,-12.310362,1.4733315,0.74322224,-3.290999,0.86794794
-12.151875,54.774666,11.648621,16.141878,1.1577402,0.40666163,0.08455011,-0.75366056,-0.6091211,-0.63656014,0.795501,-0.6383069,0.6347916,0.34687945,0.48577544,-0.9575585,-2.1043246,-0.9335068,1.8605447,1.7853938,-0.8428506,0.5475602,-0.90745056,-2.0525148,-0.99864495,1.9150714,1.7274803,-0.87584203,-1.3606688,-1.0791538,-1.1974305,1.4415727,-0.9300204,0.5503966,0.17265229,-0.27614594,-0.51174545,0.78417605,-1.6380576,0.2795746,-0.42727244,-0.26444626,-0.54079056,0.7456927,0.9349318,0.014520676,0.24081706,0.26018983,-1.5160505,0.22155587,-0.55317366,0.0,1.0,0.0,0.0,0.0,0.0,0.0,-0.37385404,0.11174545,-0.23417604,-1.009965,0.5157232,-5.063224,0.15454292,0.14587641,-2.4623513,1.1971802
-6.6278987,57.22017,13.953874,14.526453,1.1011838,0.51436937,0.1864462,-0.75554717,-0.6130508,-0.6413496,0.7959158,-0.6327151,0.6404883,0.39275298,0.4720055,-0.96875566,-2.1166499,-0.9190534,1.8517998,1.7915292,-0.83656675,0.53393793,-0.91826236,-2.0645654,-0.98427594,1.9058205,1.7328551,-0.87398916,-1.3629246,-1.082549,-1.2060235,1.4356675,-0.92511195,0.5326426,0.18917172,-0.2924347,-0.5087395,0.7798527,-1.6258626,0.30724314,-0.43419254,-0.27957535,-0.5384064,0.74007684,0.9374502,0.01953348,0.24397014,0.24755654,-1.5068917,0.25661513,-0.5677318,0.0,1.0,0.0,0.0,0.0,0.0,0.0,-0.35756528,0.108739465,-0.22985268,-0.30601025,-0.55282116,-0.36592484,-0.5054951,-0.026619434,-1.962316,1.571086
-7.833378,56.565346,13.084665,14.29576,1.0225531,0.5206506,0.2183922,-0.7719681,-0.60761046,-0.6909705,0.78778726,-0.6632447,0.62561864,0.4674027,0.45674112,-0.9790234,-2.1336625,-0.9054972,1.839496,1.795417,-0.8272489,0.5202527,-0.9291104,-2.076742,-0.97001183,1.8965144,1.7380661,-0.8719273,-1.3705435,-1.086274,-1.2202096,1.4236138,-0.93422043,0.5166189,0.21151191,-0.30858994,-0.50546265,0.7754253,-1.6118765,0.33480206,-0.4454134,-0.29460526,-0.53567886,0.734284,0.93971205,0.024962697,0.24710304,0.23507062,-1.4973307,0.29126927,-0.5863686,0.0,1.0,0.0,0.0,0.0,0.0,0.0,-0.34141004,0.10546264,-0.2254253,-0.835371,-0.5842447,-0.93114376,-1.1108637,-1.4302373,-1.7948985,2.1443276
-5.924333,57.47776,13.470353,13.641943,0.96907246,0.52399915,0.25328094,-0.7654547,-0.609254,-0.6994305,0.7841258,-0.6597005,0.63686866,0.51271546,0.44370723,-0.99003583,-2.146685,-0.89159924,1.8305444,1.8017529,-0.82065576,0.5065322,-0.9400004,-2.0890481,-0.95587456,1.8871304,1.7431504,-0.86962056,-1.372877,-1.0907084,-1.2323315,1.4106491,-0.9413613,0.50517386,0.23675118,-0.3244896,-0.5019913,0.7708354,-1.581142,0.35033476,-0.46360487,-0.3095131,-0.53261185,0.7283055,0.9417063,0.03080343,0.25021425,0.222785,-1.4840214,0.3249579,-0.6048281,0.0,1.0,0.0,0.0,0.0,0.0,0.0,-0.32551038,0.101991266,-0.22083539,-0.32811165,-0.64980984,-0.69470406,-1.222539,-1.2071252,-1.3013959,2.4309099
-6.5314684,55.73958,12.609318,13.309206,1.0186832,0.49553233,0.25743935,-0.7708769,-0.62156236,-0.7074457,0.7769073,-0.6519272,0.61810297,0.5387458,0.4294445,-1.0021566,-2.1597927,-0.87818384,1.8219377,1.8049606,-0.81574595,0.49277928,-0.9509839,-2.1014802,-0.94187176,1.8777157,1.748123,-0.86706173,-1.3763341,-1.1015058,-1.2450866,1.3970755,-0.9433451,0.49394724,0.26198527,-0.34004974,-0.49840164,0.76600593,-1.5484493,0.36204234,-0.48922098,-0.32431412,-0.52921677,0.7221177,0.94344556,0.037043523,0.25324786,0.21072215,-1.4733151,0.35754016,-0.6264069,0.0,1.0,0.0,0.0,0.0,0.0,0.0,-0.30995023,0.098401636,-0.21600592,-0.43168068,-1.2795687,-0.7697344,-1.2709379,-0.7363558,-1.3077915,2.4237454
-6.9452405,56.219917,12.396607,13.3979,1.0494893,0.50303507,0.2610922,-0.7752858,-0.62370217,-0.7160788,0.7693343,-0.6574541,0.5968673,0.5809682,0.41525072,-1.0133541,-2.173088,-0.8649383,1.8119704,1.8078098,-0.8089649,0.47898054,-0.96207416,-2.1140454,-0.9280071,1.868281,1.752979,-0.86424464,-1.381335,-1.1121802,-1.2585431,1.3832318,-0.94542253,0.48214713,0.28800717,-0.3552971,-0.4947052,0.76089644,-1.5160187,0.3725574,-0.51665026,-0.33900833,-0.52547836,0.71571326,0.94493747,0.043687616,0.2561785,0.19888963,-1.4625793,0.3904276,-0.6480626,0.0,1.0,0.0,0.0,0.0,0.0,0.0,-0.2947029,0.094705194,-0.21089643,-0.5874157,-1.267767,-0.8282423,-1.2962818,-0.75461864,-1.3825297,2.5054991
-4.967334,63.50998,14.74712,14.500832,1.1561202,0.6290064,0.24537748,-0.77325517,-0.60644156,-0.7027825,0.7675536,-0.6512318,0.6029636,0.59069014,0.40165502,-1.0227183,-2.1843235,-0.8512518,1.8031578,1.8132755,-0.8051756,0.4651479,-0.97316635,-2.1266487,-0.91425693,1.8588502,1.7577343,-0.8611872,-1.3843448,-1.1089206,-1.2585413,1.3723197,-0.9443369,0.47265998,0.3112731,-0.3701706,-0.49090958,0.75558823,-1.4776244,0.38240805,-0.53363645,-0.3535347,-0.52140427,0.7091825,0.94618076,0.0506527,0.25903103,0.18729426,-1.444198,0.42670447,-0.6575403,0.0,1.0,0.0,0.0,0.0,0.0,0.0,-0.27982938,0.09090957,-0.20558822,-0.43189526,0.113368034,0.6226778,-1.0589123,-0.5280018,-1.1626899,2.2074223
-3.7468143,66.25116,15.582601,14.897348,1.2499747,0.66176385,0.2295683,-0.770655,-0.6085605,-0.69872314,0.7676922,-0.64104545,0.6024702,0.60179365,0.3880824,-1.0340225,-2.196521,-0.8374877,1.7947457,1.8179814,-0.80100787,0.4513082,-0.98420787,-2.1391947,-0.90058106,1.8494653,1.7624052,-0.8579153,-1.3843213,-1.1032592,-1.2509509,1.3660822,-0.9386908,0.4645601,0.3320788,-0.38464737,-0.48701477,0.75012624,-1.436841,0.39150053,-0.5483294,-0.36786652,-0.5169563,0.7025957,0.9471837,0.05785163,0.26180428,0.17593962,-1.4232094,0.46309435,-0.66175294,0.0,1.0,0.0,0.0,0.0,0.0,0.0,-0.2653526,0.087014765,-0.20012623,-0.14855862,0.35271645,1.4305115,-0.61388016,-0.109791756,-1.0338306,1.9593179
-3.5902653,66.422745,15.488657,15.045463,1.3519574,0.6549946,0.20923898,-0.7712065,-0.61475164,-0.69176143,0.76815456,-0.6285406,0.5902723,0.60602427,0.37418753,-1.045683,-2.208371,-0.82376564,1.7866112,1.8214324,-0.79731286,0.4374751,-0.9952209,-2.1516185,-0.88693476,1.8401719,1.7669955,-0.85445744,-1.3834957,-1.1013678,-1.2374882,1.364169,-0.92832845,0.45641786,0.35002473,-0.39872742,-0.48304367,0.7444985,-1.3971651,0.39909127,-0.5648511,-0.38199615,-0.5121422,0.6959768,0.9479664,0.06522307,0.2644648,0.16481479,-1.4030379,0.49895242,-0.66463774,0.0,1.0,0.0,0.0,0.0,0.0,0.0,-0.25127256,0.083043665,-0.19449848,-0.070762634,-0.020885468,2.0319939,-0.17905235,0.3564477,-1.0536909,1.6899109
-1.5067618,68.38412,16.141737,14.890112,1.3619214,0.6452573,0.20942435,-0.76287866,-0.6090937,-0.68237656,0.7675905,-0.6217995,0.57124364,0.6190315,0.36118722,-1.0561303,-2.219856,-0.8101757,1.777992,1.8241199,-0.79255426,0.42369014,-1.0062007,-2.1638784,-0.87329227,1.8309926,1.7714993,-0.8508336,-1.3774301,-1.0976722,-1.2198199,1.3642074,-0.9166583,0.44754514,0.36617982,-0.4123993,-0.47901154,0.7387162,-1.3559617,0.40433857,-0.5798426,-0.3958931,-0.50699615,0.6893514,0.9485403,0.07272439,0.26700056,0.15392615,-1.3789333,0.53258264,-0.66444093,0.0,1.0,0.0,0.0,0.0,0.0,0.0,-0.23760068,0.07901153,-0.18871617,0.4323721,0.16367435,2.4939299,-0.011849403,0.45558214,-1.1304677,1.5043795
5.7983847,71.17438,18.215658,13.321201,1.3013093,0.6341579,0.25275007,-0.7353527,-0.6100309,-0.64118594,0.7662158,-0.5936251,0.5846222,0.6318852,0.35015488,-1.0672038,-2.227997,-0.7966707,1.77163,1.8299615,-0.7876451,0.41009066,-1.0171565,-2.1757987,-0.8596526,1.8219973,1.7759327,-0.84705687,-1.3549315,-1.0953943,-1.180007,1.3636318,-0.8961131,0.44142035,0.38101056,-0.42561722,-0.47494507,0.732815,-1.3091224,0.40463158,-0.59045327,-0.40947342,-0.50154877,0.682768,0.9489212,0.08022072,0.26937073,0.14336157,-1.344107,0.560083,-0.6585561,0.0,1.0,0.0,0.0,0.0,0.0,0.0,-0.22438276,0.07494506,-0.18281502,2.0211697,0.038528442,4.7974586,-0.1484394,1.2926459,-0.8367777,1.3629913
5.6071258,68.41795,17.102592,12.799656,1.3286871,0.53260416,0.24300249,-0.7327178,-0.6207744,-0.63720703,0.76497334,-0.57145727,0.53448963,0.6321015,0.33681887,-1.0792339,-2.2395194,-0.78315526,1.7648516,1.8293816,-0.78384674,0.39671627,-1.0281466,-2.1873446,-0.84602064,1.8132463,1.7802716,-0.8431492,-1.332319,-1.1009018,-1.1436132,1.3627088,-0.8702111,0.43083632,0.3937805,-0.43840027,-0.47087097,0.7267517,-1.2660692,0.40698192,-0.6076879,-0.4227333,-0.4958496,0.67620945,0.9491402,0.0876787,0.2715163,0.1331325,-1.3128954,0.5838045,-0.65725446,0.0,1.0,0.0,0.0,0.0,0.0,0.0,-0.21159971,0.070870966,-0.17675167,2.0499945,-0.730443,4.4198036,-0.15950203,1.8621802,-1.2948334,1.1850595
23.62899,80.86792,24.256104,10.73731,1.3539389,0.6243556,0.31062686,-0.6631607,-0.60583735,-0.500058,0.77261734,-0.5139824,0.5430952,0.6350711,0.3304002,-1.0887303,-2.2373505,-0.7687589,1.761848,1.8345811,-0.7796421,0.38383827,-1.0391291,-2.1979637,-0.8323733,1.8048939,1.7845279,-0.83912754,-1.2741152,-1.0977697,-1.0312703,1.3644948,-0.82647365,0.42303073,0.40463433,-0.4506111,-0.46684647,0.72070944,-1.2034223,0.40028143,-0.5991319,-0.43546295,-0.48998642,0.66986156,0.9492414,0.094728634,0.27337778,0.123416975,-1.2532386,0.59654546,-0.6294053,0.0,1.0,0.0,0.0,0.0,0.0,0.0,-0.19938886,0.06684646,-0.17070943,5.465579,0.14715195,12.319994,-0.081181526,3.395629,-1.0433435,0.9871721
25.265465,69.613014,21.681208,7.319351,1.2857085,0.4122246,0.35415927,-0.6557524,-0.6575651,-0.44324052,0.7429939,-0.46067604,0.45598653,0.61837006,0.31826302,-1.1048857,-2.2422879,-0.7580739,1.7588263,1.8301265,-0.7772905,0.37152007,-1.05031,-2.2072935,-0.81884044,1.7970848,1.7886487,-0.83502114,-1.2186977,-1.1254265,-0.8971944,1.3488685,-0.76846385,0.40767163,0.41252393,-0.46227264,-0.46290588,0.71462697,-1.1509383,0.39126077,-0.6077349,-0.44765854,-0.48407364,0.66367424,0.9493153,0.10119453,0.27475312,0.11432751,-1.201387,0.60060364,-0.6173019,0.0,1.0,0.0,0.0,0.0,0.0,0.0,-0.18772733,0.06290588,-0.16462696,5.238366,-2.8983116,14.377272,-1.7559528,4.9144387,-1.7818391,0.76761246
34.391388,76.21224,25.563105,6.2972326,1.5864624,0.4560346,0.3730016,-0.6161618,-0.6507847,-0.2830185,0.71922225,-0.3412715,0.35980424,0.628268,0.3099039,-1.1153885,-2.2355955,-0.7469182,1.7629577,1.8246292,-0.7721943,0.35980937,-1.0617388,-2.2147696,-0.8055839,1.7901292,1.7925543,-0.8308392,-1.1563418,-1.1490997,-0.6943337,1.3171128,-0.6744289,0.3840738,0.42018893,-0.47333527,-0.45908737,0.70856553,-1.0892237,0.37829974,-0.6021055,-0.4592476,-0.47813416,0.6577454,0.9494805,0.10674759,0.2754252,0.10598375,-1.138696,0.60000837,-0.5868381,0.0,1.0,0.0,0.0,0.0,0.0,0.0,-0.17666471,0.059087366,-0.15856552,5.8867693,-2.4989605,21.415674,-3.4305573,8.3606,-2.5987327,0.7822752
43.493114,83.85096,31.603851,5.7323,2.9943676,0.6673789,0.3296075,-0.6097824,-0.6821988,0.06976438,0.6426078,0.078076616,0.13327724,0.6191917,0.29883114,-1.1299587,-2.2077932,-0.7413231,1.7979368,1.805882,-0.76892006,0.34860462,-1.0734996,-2.2188964,-0.792976,1.7852485,1.7960668,-0.8265887,-1.1096947,-1.1854781,-0.31465015,1.2410897,-0.4298245,0.33939725,0.4273159,-0.4837494,-0.45539093,0.7026924,-1.0228618,0.36568812,-0.5786945,-0.47021484,-0.47213364,0.6524096,0.9500723,0.11041882,0.27468956,0.09856979,-1.0768335,0.60874796,-0.51788664,0.0,1.0,0.0,0.0,0.0,0.0,0.0,-0.16625059,0.055390924,-0.15269238,4.30336,-3.7714005,39.293854,-7.88064,23.204512,-4.7294436,0.897485
46.27869,83.344666,32.677067,3.8272052,3.6634014,0.6421256,0.32157347,-0.6074692,-0.6950588,0.2797513,0.52004814,0.42005423,-0.10930083,0.5757212,0.2878577,-1.1430055,-2.1909213,-0.7409712,1.8272539,1.7851367,-0.76901656,0.33772174,-1.0856189,-2.2187357,-0.7816278,1.7836595,1.7989728,-0.8223059,-1.082108,-1.2212645,0.13038658,1.0987017,-0.07236301,0.27370548,0.42932022,-0.493515,-0.45182037,0.697072,-0.95973814,0.35368404,-0.554432,-0.4806099,-0.4659958,0.6478322,0.95139474,0.111518025,0.27186584,0.09219846,-1.0217146,0.6211367,-0.43993828,0.0,1.0,0.0,0.0,0.0,0.0,0.0,-0.15648496,0.051820368,-0.14707202,2.4738073,-3.718257,45.7309,-14.462972,34.554173,-6.779045,0.4289329
31.755995,68.49682,24.00785,3.8465147,3.1087852,0.10297245,0.26745063,-0.6020939,-0.7036616,0.21849191,0.46355137,0.5268321,-0.40665886,0.58459044,0.27751234,-1.155985,-2.1968865,-0.73527265,1.8363427,1.758307,-0.7638469,0.32701388,-1.098049,-2.21531,-0.771786,1.7855366,1.8010423,-0.8180095,-1.067405,-1.2506546,0.4156867,0.9457714,0.27207682,0.18440215,0.43030283,-0.5027962,-0.44835663,0.69148284,-0.91717416,0.3437535,-0.56014043,-0.49066162,-0.45978165,0.64373416,0.9534374,0.11053019,0.26689336,0.08664876,-0.99456584,0.6288353,-0.40235364,0.0,1.0,0.0,0.0,0.0,0.0,0.0,-0.1472038,0.048356622,-0.14148283,1.3383865,-3.0647993,29.24214,-15.34096,33.724712,-9.041685,0.26629567
40.714508,64.82994,22.023033,-0.20234793,1.6681771,-0.36092675,0.37907827,-0.50720394,-0.6962286,0.24834456,0.41726825,0.53199255,-0.49621662,0.58672106,0.2762935,-1.1676719,-2.1904757,-0.73005915,1.8387359,1.7514206,-0.75933737,0.31681293,-1.1106452,-2.2100234,-0.76335776,1.7902005,1.8022249,-0.8137103,-1.0047752,-1.2628846,0.5684522,0.80843306,0.52906114,0.09607064,0.42995828,-0.51158905,-0.44507217,0.68583477,-0.8681205,0.32383883,-0.56787974,-0.50032425,-0.45371246,0.63980997,0.95597005,0.10821275,0.260219,0.08183693,-0.9532488,0.6060926,-0.3919233,0.0,1.0,0.0,0.0,0.0,0.0,0.0,-0.13841093,0.045072168,-0.13583475,6.120014,-1.3533354,15.897942,-13.746702,25.131338,-8.84086,0.01860857
40.804432,68.88655,21.61375,1.6385249,1.1553799,-0.48341072,0.31727687,-0.46363798,-0.69137967,0.33000365,0.41428506,0.5613263,-0.49461013,0.5930339,0.27044913,-1.1797831,-2.177023,-0.72192925,1.8463331,1.7527639,-0.75440687,0.30739832,-1.1232585,-2.2036915,-0.75591844,1.7968049,1.8026161,-0.8094129,-0.92073214,-1.2612176,0.6567929,0.72260517,0.70269775,0.020278992,0.42973134,-0.51984787,-0.44202042,0.6801812,-0.8132396,0.29980516,-0.5667918,-0.50954056,-0.44794464,0.6359725,0.9587666,0.10503423,0.25239956,0.077645175,-0.9082911,0.574027,-0.3840682,0.0,1.0,0.0,0.0,0.0,0.0,0.0,-0.1301521,0.04202041,-0.1301812,8.291519,0.034236908,9.3748455,-8.527899,16.929222,-7.5295596,-0.0044345856
37.01699,71.472466,20.815247,3.3223367,0.87189484,-0.43121383,0.29788533,-0.44555762,-0.6792905,0.3918959,0.3539312,0.5999068,-0.49132225,0.5957199,0.26284257,-1.1911875,-2.164502,-0.7205253,1.8567955,1.7534839,-0.7498409,0.2987776,-1.1357554,-2.1966808,-0.74924684,1.8046826,1.8023468,-0.8051155,-0.84276515,-1.2461385,0.7174032,0.6490027,0.8149719,-0.04252339,0.42972526,-0.5275383,-0.4392128,0.6745874,-0.756636,0.27529165,-0.56029546,-0.5182953,-0.4424858,0.63220364,0.96167237,0.10127088,0.24383746,0.07398473,-0.8621833,0.54207206,-0.37763244,0.0,1.0,0.0,0.0,0.0,0.0,0.0,-0.12246168,0.039212793,-0.12458742,7.720387,1.380086,6.4911604,-7.259023,10.912776,-6.186246,0.014185905
39.57812,75.35674,21.899666,3.177431,0.6526431,-0.3441072,0.33091724,-0.39941776,-0.6694106,0.47204456,0.29728273,0.6403825,-0.45585304,0.5869379,0.25883582,-1.2026964,-2.1494763,-0.71951854,1.8687209,1.7567616,-0.74642175,0.29094753,-1.1480483,-2.1889653,-0.7433165,1.8134034,1.8015591,-0.80082446,-0.7632943,-1.224313,0.7908792,0.5747871,0.88999945,-0.090462044,0.42889756,-0.5346222,-0.43666458,0.6691389,-0.69515854,0.2488682,-0.54442173,-0.5265274,-0.43737411,0.62853014,0.9646017,0.09697591,0.23476511,0.07088387,-0.8086639,0.50686246,-0.36745054,0.0,1.0,0.0,0.0,0.0,0.0,0.0,-0.115377784,0.036664575,-0.1191389,7.888937,2.0514965,7.748008,-7.2991967,7.2360873,-4.6636224,-0.069493055
49.762222,67.82488,21.293346,-4.463692,-0.25933826,-0.3627946,0.63861847,-0.3621378,-0.67196584,0.5447209,0.11411058,0.67291695,-0.43389812,0.58266026,0.25473374,-1.2152449,-2.1344934,-0.7319054,1.8806951,1.7581693,-0.7425584,0.28387755,-1.1601676,-2.1803563,-0.7387857,1.822709,1.8003792,-0.7965443,-0.68843883,-1.2082915,0.885808,0.4130278,0.9428817,-0.12648505,0.4277607,-0.5410881,-0.4344139,0.66377753,-0.6329194,0.21838923,-0.53774303,-0.53409195,-0.43273544,0.6247968,0.96752113,0.09218599,0.22514051,0.0686751,-0.7384961,0.45458344,-0.37860617,0.0,1.0,0.0,0.0,0.0,0.0,0.0,-0.10891187,0.034413904,-0.11377752,7.4161053,1.4576197,9.85881,-16.060602,5.0410986,-3.4156651,-0.09175539
42.433636,53.540863,16.028826,-9.89403,-0.9257352,-0.3047352,0.9467966,-0.41768187,-0.663438,0.5576167,-0.16281404,0.7159289,-0.43706825,0.57781655,0.24210936,-1.2265114,-2.1245947,-0.7550671,1.8943019,1.7566724,-0.7387627,0.27709028,-1.17214,-2.1709287,-0.73697114,1.8324956,1.79889,-0.7922754,-0.67556137,-1.194001,0.9617672,0.10484674,0.99017966,-0.15550445,0.42692426,-0.5470276,-0.43243408,0.6582355,-0.5837623,0.19211197,-0.56493676,-0.54096603,-0.42860794,0.62065434,0.97041804,0.08715999,0.21472283,0.06772028,-0.66947556,0.40300885,-0.42946857,0.0,1.0,0.0,0.0,0.0,0.0,0.0,-0.10297239,0.032434076,-0.10823548,1.2631536,1.2931108,7.6283813,-30.661572,4.7021985,-2.6604354,0.020104647
46.031284,39.032078,12.416175,-17.99158,-1.8622671,-0.41100118,1.2709733,-0.41719833,-0.66855454,0.5747229,-0.43303975,0.7576679,-0.46081632,0.57255095,0.23537044,-1.2389954,-2.1134565,-0.7802751,1.9082624,1.7528083,-0.73502034,0.27023622,-1.18404,-2.1609042,-0.7391314,1.8427602,1.7971333,-0.7880144,-0.68866277,-1.1891562,1.0156417,-0.32219496,1.0387028,-0.18155293,0.4264738,-0.5525398,-0.43072128,0.65219575,-0.5424191,0.16517597,-0.62101275,-0.547081,-0.42510223,0.61572844,0.97327554,0.08217741,0.20323241,0.06839581,-0.5920042,0.33741438,-0.5164348,0.0,1.0,0.0,0.0,0.0,0.0,0.0,-0.09746015,0.030721277,-0.10219574,-1.2995124,0.33185482,5.19104,-42.471462,4.968405,-2.361834,0.1474917
15.390084,35.853233,7.1672697,-6.543688,-0.73620236,-0.3432187,0.8167271,-0.4645811,-0.68869156,0.5128954,-0.41465217,0.7594503,-0.441044,0.5736899,0.22377811,-1.2529091,-2.1096146,-0.7805966,1.9187052,1.7530289,-0.7306454,0.26295933,-1.1960219,-2.1508527,-0.74475634,1.8534021,1.7951541,-0.78375244,-0.74029315,-1.2015011,1.000562,-0.64147025,1.073465,-0.20305921,0.42712894,-0.55779266,-0.42917252,0.64547163,-0.5209367,0.1519855,-0.69284534,-0.5527458,-0.42197418,0.6099269,0.97604376,0.07749089,0.19077435,0.07027671,-0.55737305,0.3077645,-0.6034161,0.0,1.0,0.0,0.0,0.0,0.0,0.0,-0.09220731,0.02917251,-0.09547162,-5.0526977,-1.3331413,-1.9491673,-31.583149,3.7590027,-2.0412445,0.3623724
3.066855,53.175705,10.14881,5.406268,0.40086216,-0.1524781,0.33584356,-0.44104794,-0.6715847,0.525073,-0.37364253,0.7474635,-0.3814919,0.5873966,0.21885453,-1.2631804,-2.0983453,-0.7821206,1.9281485,1.7570049,-0.7250128,0.255298,-1.2080611,-2.1410642,-0.75233996,1.8642628,1.7930334,-0.7794752,-0.7742254,-1.2047871,0.9700642,-0.7961526,1.0916909,-0.21469878,0.4290061,-0.5628166,-0.4277153,0.6382439,-0.49737453,0.1437882,-0.7343828,-0.55820847,-0.4189644,0.6035544,0.97865903,0.073047616,0.17777148,0.07271702,-0.5405201,0.30138987,-0.64989424,0.0,1.0,0.0,0.0,0.0,0.0,0.0,-0.08718336,0.027715296,-0.0882439,-3.221023,-0.3373146,-3.6321044,-15.1154995,2.3009539,-1.0258526,0.5052149
11.722559,63.424866,14.436714,7.6602297,0.5693492,-0.16805473,0.1490112,-0.3812646,-0.68439966,0.5523575,-0.39112616,0.7436444,-0.3174856,0.5678625,0.21717152,-1.276501,-2.0858283,-0.7914526,1.9386272,1.7612848,-0.722689,0.24768862,-1.220169,-2.1314664,-0.76064646,1.8752261,1.7908725,-0.7751951,-0.75589406,-1.2126474,0.9548014,-0.84110445,1.0996311,-0.21585467,0.42855388,-0.5675621,-0.4263649,0.6307884,-0.4670382,0.13235246,-0.7498325,-0.56347656,-0.41606522,0.59690434,0.98108464,0.06861081,0.16455725,0.07540793,-0.5200251,0.28890094,-0.67099833,0.0,1.0,0.0,0.0,0.0,0.0,0.0,-0.08243787,0.026364893,-0.080788374,2.0128727,-0.73935986,-2.1211028,-4.1853666,1.3776064,0.09743273,0.22942424
17.276499,71.317314,17.517494,9.039695,0.6145109,-0.14299539,0.046348356,-0.35243487,-0.681686,0.5488176,-0.40039474,0.7452211,-0.2408902,0.55469763,0.21244514,-1.2883376,-2.0765846,-0.80068594,1.9497483,1.7667835,-0.7197254,0.24049887,-1.2323264,-2.1219678,-0.76893485,1.8862336,1.7887768,-0.77093214,-0.7060553,-1.2164384,0.94595295,-0.8237357,1.1033125,-0.20617636,0.4263245,-0.5719719,-0.42514038,0.6233195,-0.43469524,0.1153924,-0.74598265,-0.5685196,-0.41332245,0.59017473,0.98329955,0.06399516,0.1513567,0.07821602,-0.4959903,0.27245784,-0.6745189,0.0,1.0,0.0,0.0,0.0,0.0,0.0,-0.07802808,0.025140375,-0.073319495,5.165279,-0.2965212,-1.4840841,2.0153284,1.0274172,1.2889028,0.02052784
35.00975,79.058174,22.08945,5.9233055,0.097610064,-0.22467661,0.09903905,-0.26079845,-0.6771953,0.5615195,-0.37129727,0.7342575,-0.09953172,0.55735135,0.21441902,-1.300046,-2.065816,-0.80606455,1.9596593,1.7788236,-0.715197,0.23422322,-1.2444819,-2.112454,-0.7767251,1.8972332,1.7868885,-0.7666902,-0.6008202,-1.2148638,0.9515675,-0.7632307,1.1011534,-0.1815079,0.42416614,-0.57598114,-0.4241066,0.61604714,-0.39109218,0.09794421,-0.72106206,-0.57317734,-0.4108925,0.5835264,0.9852804,0.059023537,0.13836832,0.08119597,-0.45425126,0.2348096,-0.6624384,0.0,1.0,0.0,0.0,0.0,0.0,0.0,-0.074018836,0.024106592,-0.06604713,10.6958275,0.254941,0.014352798,6.3028693,0.477767,2.8816402,-0.004851818
44.52895,83.71371,24.918182,3.9800556,-0.18591765,-0.1651136,0.13825828,-0.19639258,-0.67407453,0.5890408,-0.34774345,0.7381387,0.13400543,0.5248146,0.21458396,-1.3118894,-2.0535498,-0.8114995,1.9710472,1.800289,-0.7142087,0.22919163,-1.2565936,-2.1027265,-0.7838052,1.9082175,1.7854228,-0.7624921,-0.47001553,-1.2096628,0.9780113,-0.68865883,1.0997998,-0.13374396,0.4190345,-0.5795479,-0.42329407,0.60912234,-0.34507558,0.0757313,-0.6837203,-0.577343,-0.40891266,0.5770739,0.98701644,0.053493824,0.12572725,0.084437124,-0.40197608,0.18818273,-0.6405413,0.0,1.0,0.0,0.0,0.0,0.0,0.0,-0.070452094,0.023294061,-0.059122324,13.25357,0.6094694,2.1507025,7.716286,0.54073334,5.175066,-0.29672384
42.03804,84.63602,24.834871,3.8632889,-0.30750108,-0.07740241,0.17308345,-0.1687041,-0.6582636,0.5863356,-0.36218324,0.72825485,0.23147102,0.50682163,0.21232122,-1.32242,-2.044093,-0.82002354,1.981043,1.8085699,-0.71180993,0.22535819,-1.2685813,-2.092751,-0.79033583,1.9191563,1.7844851,-0.75835603,-0.35383216,-1.1948197,1.0024813,-0.64020073,1.0941203,-0.079554394,0.41260993,-0.58267975,-0.42269897,0.6025629,-0.3009726,0.056055605,-0.6474015,-0.5809822,-0.40737915,0.5708374,0.9885011,0.047402527,0.11347993,0.08798258,-0.3484654,0.1439585,-0.61896026,0.0,1.0,0.0,0.0,0.0,0.0,0.0,-0.06732023,0.022698969,-0.052562892,11.79899,1.555419,1.9714952,5.1395655,0.078201294,5.7649226,-0.39957166
26.061426,83.512276,22.451952,7.040154,0.017776214,0.099186346,0.14008126,-0.18541175,-0.6353285,0.5772186,-0.3999317,0.7345189,0.2060537,0.5046493,0.20681702,-1.3321141,-2.0350292,-0.830329,1.9926082,1.8050904,-0.7078911,0.22228259,-1.2803248,-2.0826306,-0.7967436,1.9300529,1.7840234,-0.75428003,-0.29150382,-1.1671783,1.0134493,-0.6399981,1.0896262,-0.03362876,0.40671548,-0.5854492,-0.42226028,0.5963027,-0.2754788,0.04231316,-0.6174917,-0.58415985,-0.40612793,0.5647825,0.98974055,0.040906586,0.101571575,0.091778934,-0.306429,0.11880548,-0.60205775,0.0,1.0,0.0,0.0,0.0,0.0,0.0,-0.06455076,0.022260278,-0.046302676,6.428343,2.8345585,0.5523443,0.33214092,0.13484955,4.9436765,-0.32345057
8.993839,85.24537,20.412687,11.398514,0.3478025,0.24655342,0.07586218,-0.19940859,-0.59095496,0.53187853,-0.42787707,0.7363902,0.13865802,0.52844083,0.20234174,-1.3394203,-2.0294428,-0.8395313,2.003692,1.7978892,-0.7014359,0.21945088,-1.2916144,-2.072682,-0.8034239,1.9409231,1.7839067,-0.7502374,-0.27972555,-1.1159445,0.9865713,-0.67625576,1.0883303,-0.0031757476,0.4043123,-0.5879288,-0.42191315,0.59028673,-0.24089031,0.033345465,-0.5956948,-0.58701706,-0.4050064,0.5588927,0.99074095,0.03427721,0.08998159,0.09571101,-0.2765484,0.112451516,-0.5856856,0.0,1.0,0.0,0.0,0.0,0.0,0.0,-0.062071204,0.021913141,-0.04028672,1.3846099,5.2154064,-3.331232,-3.3073068,0.5013943,3.4181573,0.042402744
12.695492,88.530556,21.981514,11.108746,0.21042836,0.18973853,0.06936495,-0.13199782,-0.5719969,0.54394233,-0.3856105,0.7291717,0.18471245,0.5355642,0.2062511,-1.3488141,-2.0182877,-0.8419849,2.0138402,1.8023779,-0.69668096,0.21685378,-1.3023661,-2.062985,-0.8103018,1.9517626,1.7840841,-0.7462091,-0.25236413,-1.0612642,0.96215945,-0.69063634,1.0849148,0.02590553,0.40329352,-0.5901375,-0.4216423,0.5845686,-0.21405944,0.02497567,-0.56388533,-0.5895462,-0.40397263,0.5532251,0.99150854,0.027570069,0.07875685,0.09973909,-0.24449907,0.100922935,-0.561398,0.0,1.0,0.0,0.0,0.0,0.0,0.0,-0.059862494,0.021642298,-0.034568608,2.9414296,5.5722475,-3.069806,-1.1250734,0.3695488,3.2756596,0.17578602
6.2772284,88.74982,21.132273,13.495456,0.34030664,0.15510811,-0.029125288,-0.12700963,-0.5387811,0.4880232,-0.36383224,0.7216102,0.17499965,0.5329021,0.20415282,-1.3562442,-2.0141826,-0.846685,2.0239236,1.801584,-0.6929189,0.21448891,-1.3125342,-2.0537457,-0.81715107,1.9625467,1.7845056,-0.7421903,-0.2305608,-1.0015637,0.9092453,-0.68209,1.0783012,0.04916285,0.40226564,-0.5921135,-0.4214325,0.57915837,-0.19485016,0.0187018,-0.53293306,-0.5918274,-0.4030075,0.5478041,0.9920582,0.020895535,0.06797156,0.103747666,-0.22142184,0.094865605,-0.5363835,0.0,1.0,0.0,0.0,0.0,0.0,0.0,-0.05788648,0.02143249,-0.029158354,2.3719459,6.088853,-5.8865786,1.1462808,0.007557869,2.705472,0.16281009
10.798792,99.88222,24.486242,14.607145,0.092543416,0.086646885,-0.05573742,-0.07729827,-0.46057943,0.43901443,-0.32324934,0.71049464,0.1662391,0.5431908,0.20675908,-1.3585922,-2.0098443,-0.849476,2.0335963,1.8011295,-0.6878712,0.21251345,-1.3218783,-2.0452044,-0.82367444,1.9732449,1.7851236,-0.7381734,-0.18589954,-0.9115742,0.834118,-0.64153045,1.0692941,0.067500114,0.4022388,-0.5938606,-0.42128372,0.57420695,-0.16935453,0.013184377,-0.48219803,-0.5938339,-0.40217972,0.5427859,0.9924006,0.014360473,0.057815593,0.10766692,-0.19268724,0.08099312,-0.4909709,0.0,1.0,0.0,0.0,0.0,0.0,0.0,-0.05613935,0.021283716,-0.024206936,4.6551614,9.140539,-8.091772,4.330933,-0.19500256,2.266568,0.22928119
18.557997,116.325386,30.527372,16.357859,-0.028300706,0.14085259,-0.08974859,-0.013090489,-0.38480535,0.46278682,-0.23591441,0.6829813,0.23039551,0.53333503,0.2112044,-1.3603588,-1.9989257,-0.8472659,2.041543,1.8081632,-0.6848399,0.21122518,-1.33012,-2.0371892,-0.82939434,1.9837885,1.7859539,-0.73416513,-0.10916239,-0.7944406,0.78904074,-0.5479242,1.0521274,0.089669764,0.40094224,-0.5953598,-0.42120743,0.570032,-0.14226896,0.0066966116,-0.39560285,-0.59549713,-0.4015236,0.538485,0.9925513,0.007840752,0.04854764,0.111460365,-0.15648238,0.061090086,-0.4103438,0.0,1.0,0.0,0.0,0.0,0.0,0.0,-0.054640174,0.021207422,-0.020031989,7.868287,11.8729,-5.076325,9.611977,-0.92999935,2.6726484,0.05493164
23.617388,128.70125,34.241737,16.01938,-0.47067565,0.11878025,-0.011163494,0.021541087,-0.2708844,0.3981751,-0.24487844,0.68238705,0.2052007,0.5257685,0.2133793,-1.3572084,-1.9973718,-0.8538822,2.0520272,1.806474,-0.6815883,0.2107643,-1.3368739,-2.029743,-0.8343066,1.9941815,1.7869701,-0.730176,-0.024435611,-0.6350172,0.7277795,-0.47145554,1.0373464,0.10701462,0.3987843,-0.59658813,-0.42121124,0.56687355,-0.11833099,-0.00022458425,-0.28881097,-0.5967064,-0.40113068,0.5351458,0.99252206,0.0013637162,0.040348336,0.11519588,-0.10848826,0.032508634,-0.30912897,0.0,1.0,0.0,0.0,0.0,0.0,0.0,-0.05341184,0.021211237,-0.016873538,8.664055,16.092503,-6.665635,7.901973,-0.7220745,2.1997838,-0.050365925
3.3083067,174.87558,44.151752,32.52204,0.21110147,0.685647,-0.34707117,0.022375267,0.001429578,0.2714346,-0.08179261,0.65724546,0.21059367,0.5107757,0.21300183,-1.336731,-2.0025995,-0.84248585,2.059906,1.8080295,-0.6790984,0.2109753,-1.3410414,-2.0233877,-0.83790576,2.0044012,1.7881393,-0.7262211,0.036954522,-0.3433395,0.60267454,-0.32201886,1.0197895,0.12211283,0.39474666,-0.5975418,-0.42121124,0.5653957,-0.09101369,0.0007774779,-0.1002699,-0.59747696,-0.40078735,0.5334546,0.9923597,-0.0048774164,0.033886433,0.118533105,-0.06713518,0.034956258,-0.12331348,0.0,1.0,0.0,0.0,0.0,0.0,0.0,-0.052458167,0.021211237,-0.015395701,6.34142,29.376858,-13.142657,15.1745205,-0.83076954,2.0744176,-0.28520823
-4.7874265,130.36382,27.953526,27.612694,-0.30767,-0.21368933,-0.48332453,0.09064893,-0.022379104,-0.079417296,0.015724216,0.6077753,0.16551483,0.48675078,0.2200402,-1.3432794,-2.0313294,-0.83633333,2.0651786,1.8046908,-0.677546,0.21189584,-1.3428,-2.0197408,-0.8397654,2.014289,1.7893924,-0.7223234,0.110674925,-0.11974417,0.2846915,-0.14026877,0.97997844,0.12691602,0.38845924,-0.59833527,-0.42121506,0.5650832,-0.076268315,-0.00036166495,-0.008099595,-0.59802246,-0.4005432,0.53294694,0.9921485,-0.010036667,0.029266363,0.12117739,-0.050247256,0.021212172,-0.02737025,0.0,0.0,1.0,0.0,0.0,0.0,0.0,-0.05166471,0.021215051,-0.015083194,7.4470625,22.462236,-32.046707,18.307709,-3.5208344,0.6981924,-0.5260289
-9.27196,98.51772,17.424389,21.220743,-0.71614206,-0.5467962,-0.38668016,0.086815305,0.035820805,-0.24457067,-0.01905073,0.56058294,0.17484716,0.4743093,0.22057737,-1.3392179,-2.0441978,-0.8416705,2.0703473,1.806877,-0.6748925,0.21335544,-1.3427333,-2.019737,-0.8403195,2.02365,1.7906759,-0.7184954,0.15774664,0.04886213,-0.0947411,-0.027037304,0.9227166,0.12904198,0.3810736,-0.599041,-0.42124176,0.565197,-0.06703715,-0.006081755,0.017677322,-0.59843445,-0.40047836,0.5329234,0.9919478,-0.0134934755,0.026201423,0.12316982,-0.038296077,0.0011398154,0.0052316794,0.0,0.0,1.0,0.0,0.0,0.0,0.0,-0.05095899,0.021241754,-0.015196979,4.7163544,16.884747,-38.01706,11.331191,-5.478704,0.25262535,-0.6816447
-14.043026,80.817955,13.094462,19.252558,-0.39393577,-0.44806665,-0.34661478,0.085952275,0.07018777,-0.2858041,0.043599404,0.4844578,0.23532604,0.4950438,0.22195067,-1.3357145,-2.0483174,-0.83595955,2.0720956,1.8142085,-0.668991,0.21509397,-1.3414553,-2.0230024,-0.8399075,2.0322669,1.7920091,-0.7147246,0.17913328,0.15416144,-0.40323856,0.06368845,0.8415011,0.13464093,0.37573773,-0.59970474,-0.4212799,0.565375,-0.06527925,-0.00366455,0.017740633,-0.59879684,-0.4005432,0.5330262,0.99179,-0.015300622,0.02438777,0.124593765,-0.035642263,-0.008732104,0.0117591955,0.0,0.0,1.0,0.0,0.0,0.0,0.0,-0.050295234,0.021279901,-0.0153749585,2.1190076,10.510336,-30.812572,8.99096,-8.021116,0.5086094,-0.55140257
-22.25861,72.42257,11.25724,20.023443,0.18417041,-0.1744498,-0.32988194,0.05663895,0.10524394,-0.3524621,0.072920784,0.42243505,0.24303849,0.51306987,0.22075787,-1.330931,-2.0582485,-0.83261544,2.0745103,1.8163129,-0.66341764,0.21676624,-1.3394412,-2.0287013,-0.83879554,2.0399878,1.7933973,-0.71098906,0.16311477,0.21716088,-0.62454545,0.12670171,0.7487471,0.1399567,0.37258172,-0.60035324,-0.4212799,0.565494,-0.06541017,0.0010635413,0.010177694,-0.59921646,-0.4005661,0.53312206,0.9916887,-0.015766788,0.023559323,0.12549838,-0.043339506,-8.3464685e-05,0.009122647,0.0,0.0,1.0,0.0,0.0,0.0,0.0,-0.049646735,0.021279901,-0.015493989,-1.6420692,6.249699,-21.983301,6.181823,-9.326374,0.42234063,-0.39786696
-13.900249,68.29791,12.168065,16.49609,0.12155333,-0.19524647,-0.20262335,0.0870766,0.120870344,-0.40759066,0.10591548,0.3651373,0.20806716,0.5270133,0.2254739,-1.3273542,-2.0694604,-0.828204,2.0765016,1.814204,-0.6582877,0.21834695,-1.3370398,-2.0360065,-0.83715236,2.0467665,1.7948072,-0.7072697,0.15619938,0.2474703,-0.7653827,0.17635134,0.6537832,0.14110057,0.37134656,-0.6009903,-0.42124176,0.565529,-0.06440437,0.0034341745,0.0015466403,-0.5996666,-0.40054703,0.53317297,0.99163055,-0.015235766,0.023479763,0.12603675,-0.046443414,0.0025153884,0.0039316365,0.0,0.0,1.0,0.0,0.0,0.0,0.0,-0.04900968,0.021241754,-0.015528977,-0.7471442,2.9750676,-13.890589,4.8280864,-9.592366,0.008913875,-0.23754835
-7.191277,67.20796,13.64936,14.528171,0.16326489,-0.19768454,-0.12757792,0.100748464,0.12311874,-0.42989933,0.1492019,0.3060248,0.17182799,0.5291939,0.2284218,-1.324728,-2.0789964,-0.8222322,2.077369,1.81199,-0.65435034,0.21993911,-1.3345202,-2.0441852,-0.8349942,2.052603,1.7961956,-0.7035581,0.16000034,0.25340828,-0.83479756,0.22845227,0.5603053,0.13755628,0.3706416,-0.6016083,-0.42118454,0.5655081,-0.060872737,0.0064912303,-0.0028676386,-0.60014343,-0.40053558,0.53319156,0.9915974,-0.014035616,0.023964899,0.12634563,-0.047365993,0.0012909092,0.0017394201,0.0,0.0,1.0,0.0,0.0,0.0,0.0,-0.0483917,0.021184534,-0.015508115,0.3091842,0.5374968,-6.7198157,5.0670266,-9.464634,-0.47077835,-0.20289421
-4.973739,65.61023,13.981742,13.819926,0.21432512,-0.192477,-0.091475084,0.09858728,0.11799641,-0.4544634,0.1824565,0.21936771,0.12869221,0.5339709,0.22979784,-1.3227205,-2.0896316,-0.81674856,2.0745397,1.8090649,-0.650161,0.22158277,-1.3320655,-2.0527492,-0.83229846,2.0574431,1.7975154,-0.6998483,0.16556394,0.24257484,-0.8631123,0.28276977,0.45832774,0.1295753,0.37059015,-0.60219574,-0.42110443,0.56544626,-0.058105625,0.008061121,-0.006594104,-0.6006279,-0.4005394,0.53318757,0.9915773,-0.012361868,0.02491042,0.12649468,-0.04823282,-0.0008154623,-0.00047476293,0.0,0.0,1.0,0.0,0.0,0.0,0.0,-0.047804236,0.021104425,-0.015446246,0.47706366,-1.1416197,-2.586174,5.29505,-10.337668,-0.92954934,-0.14587641
-4.330009,68.90903,15.302377,14.560117,0.2950461,-0.118435815,-0.08172832,0.098045416,0.12304655,-0.45447892,0.21885055,0.13732065,0.10502872,0.52774423,0.23138732,-1.3197608,-2.098197,-0.8104134,2.071175,1.8080182,-0.64707386,0.22327602,-1.329727,-2.0613701,-0.829025,2.0612159,1.798738,-0.6961442,0.17026494,0.23067328,-0.86059415,0.34169886,0.3495225,0.119335115,0.3699055,-0.6027527,-0.42100525,0.56541264,-0.055148672,0.010483188,-0.0014889544,-0.60110855,-0.40055466,0.533221,0.99156266,-0.010340521,0.026300928,0.12650992,-0.048135135,-0.0012891041,0.005468391,0.0,0.0,1.0,0.0,0.0,0.0,0.0,-0.04724729,0.021005243,-0.015412629,0.37760735,-1.2573391,0.5455971,5.754155,-11.073912,-1.1664808,-0.22092462
-7.739886,63.418766,13.396671,13.942771,0.42404333,-0.110503614,-0.056700747,0.0707302,0.10129642,-0.46342102,0.20026092,0.083391346,0.031502273,0.51588094,0.23034903,-1.3195974,-2.1077123,-0.8089989,2.069555,1.8018882,-0.6445561,0.22487485,-1.3275927,-2.0699034,-0.8253893,2.0639439,1.7998102,-0.6924545,0.15613692,0.20746206,-0.8496894,0.37046814,0.24625143,0.102800466,0.3681258,-0.6032829,-0.42088318,0.56534386,-0.054621104,0.014211147,-0.0076748487,-0.6016159,-0.40055084,0.5332298,0.9915483,-0.007995693,0.02800988,0.12642518,-0.051508043,0.0021513577,0.00026567967,0.0,0.0,1.0,0.0,0.0,0.0,0.0,-0.046717048,0.020883173,-0.015343845,-1.4998585,-2.3858726,1.403451,2.7570784,-10.583157,-1.778172,-0.3236711
-3.2409053,71.23238,15.908615,13.8475275,0.21720608,-0.06980236,-0.00081711425,0.08438001,0.12601651,-0.45351055,0.22008203,0.0028757416,0.020351488,0.5081022,0.23331286,-1.3149911,-2.1152544,-0.80338115,2.0642314,1.8018453,-0.6416443,0.22638285,-1.3255442,-2.0782685,-0.82152593,2.065626,1.8007181,-0.6887884,0.14868225,0.20374048,-0.8306277,0.39110768,0.14128865,0.08623556,0.36557448,-0.6037636,-0.42074203,0.5653149,-0.04651961,0.014349933,-0.00018773742,-0.6020889,-0.4005432,0.53328687,0.99152154,-0.005347047,0.030052342,0.12630638,-0.046006277,0.00053250825,0.008450617,0.0,0.0,1.0,0.0,0.0,0.0,0.0,-0.046236396,0.020742029,-0.015314877,-0.84628165,-0.44069886,2.256596,1.9224286,-10.790009,-1.8004477,-0.4131496
