Afshin1997/kuka_rl_ros2/src/catch_and_throw/input_files/idealpd/recorded_trajectories/env_252_data.csv
torque0,torque1,torque2,torque3,torque4,torque5,torque6,action0,action1,action2,action3,action4,action5,action6,set_target_0,set_target_1,set_target_2,set_target_3,set_target_4,set_target_5,set_target_6,joint_pos_0,joint_pos_1,joint_pos_2,joint_pos_3,joint_pos_4,joint_pos_5,joint_pos_6,joint_vel_0,joint_vel_1,joint_vel_2,joint_vel_3,joint_vel_4,joint_vel_5,joint_vel_6,tennisball_pos_0,tennisball_pos_1,tennisball_pos_2,tennisball_lin_vel_0,tennisball_lin_vel_1,tennisball_lin_vel_2,end_effector_pos_0,end_effector_pos_1,end_effector_pos_2,end_effector_rot_0,end_effector_rot_1,end_effector_rot_2,end_effector_rot_3,end_effector_lin_vel_0,end_effector_lin_vel_1,end_effector_lin_vel_2,obs_task_0,obs_task_1,obs_task_2,obs_task_3,obs_task_4,obs_task_5,obs_task_6,to_final_target_0,to_final_target_1,to_final_target_2,joint_acc_0,joint_acc_1,joint_acc_2,joint_acc_3,joint_acc_4,joint_acc_5,joint_acc_6
0.0,0.0,0.0,0.0,0.0,0.0,0.0,0.0,0.0,0.0,0.0,0.0,0.0,0.0,1.7802359,-1.0646509,-1.8151424,-1.1170107,1.9373155,1.1170107,-0.91629785,1.7802359,-1.0646509,-1.8151424,-1.1170107,1.9373155,1.1170107,-0.91629785,0.0,0.0,0.0,0.0,0.0,0.0,0.0,2.8341837,-0.2519505,0.20300674,-3.194789,-0.49465224,4.999652,0.5304168,-0.4544952,0.693097,0.5745483,0.17512383,0.15255436,0.7848268,0.0,0.0,0.0,1.0,0.0,0.0,0.0,0.0,0.0,0.0,-3.4841838,-0.1480495,0.34699327,0.0,0.0,0.0,0.0,0.0,0.0,0.0
0.0,0.0,0.0,0.0,0.0,0.0,0.0,0.0,0.0,0.0,0.0,0.0,0.0,0.0,1.7802359,-1.0646509,-1.8151424,-1.1170107,1.9373155,1.1170107,-0.91629785,1.7802359,-1.0646509,-1.8151424,-1.1170107,1.9373155,1.1170107,-0.91629785,0.0,0.0,0.0,0.0,0.0,0.0,0.0,2.8341837,-0.2519505,0.20300674,-3.194789,-0.49465224,4.999652,0.5304168,-0.4544952,0.693097,0.5745483,0.17512383,0.15255436,0.7848268,0.0,0.0,0.0,1.0,0.0,0.0,0.0,0.0,0.0,0.0,-3.4841838,-0.1480495,0.34699327,0.0,0.0,0.0,0.0,0.0,0.0,0.0
0.0,0.0,0.0,0.0,0.0,0.0,0.0,0.0,0.0,0.0,0.0,0.0,0.0,0.0,1.7802359,-1.0646509,-1.8151424,-1.1170107,1.9373155,1.1170107,-0.91629785,1.7802359,-1.0646509,-1.8151424,-1.1170107,1.9373155,1.1170107,-0.91629785,0.0,0.0,0.0,0.0,0.0,0.0,0.0,2.8341837,-0.2519505,0.20300674,-3.194789,-0.49465224,4.999652,0.5304168,-0.4544952,0.693097,0.5745483,0.17512383,0.15255436,0.7848268,0.0,0.0,0.0,1.0,0.0,0.0,0.0,0.0,0.0,0.0,-3.4841838,-0.1480495,0.34699327,0.0,0.0,0.0,0.0,0.0,0.0,0.0
-176.0,72.52504,-4.2141438,110.0,10.006609,4.831508,-3.9392478,-0.78919697,0.36073914,-0.54058737,0.73261213,-0.02514302,0.6741503,-0.56044793,1.7013162,-1.028577,-1.8692012,-1.0437495,1.9348012,1.1844257,-0.97234267,1.7786528,-1.0624174,-1.820502,-1.1122061,1.9403672,1.1214415,-0.91725916,-0.21081193,0.2970683,-0.71410745,0.64094496,0.40632373,0.58940285,-0.12803821,2.8022597,-0.25689316,0.2522293,-3.1915948,-0.4941577,4.896467,0.5283424,-0.4575181,0.6939476,0.5782602,0.17362975,0.1519008,0.782556,-0.27630386,-0.4031628,0.113171235,1.0,0.0,0.0,0.0,0.0,0.0,0.0,-3.4522595,-0.14310685,0.2977707,-21.016588,29.52296,-71.266174,64.175545,40.451466,58.516373,-12.74146
-176.0,-36.99314,-47.92271,110.0,11.753031,1.1354605,-3.351487,-0.80250776,-0.19358681,-0.56462985,0.70985425,0.12010831,0.6541036,-0.6077839,1.698402,-1.081776,-1.876965,-1.0412207,1.952378,1.1868519,-0.97803754,1.7768389,-1.0597986,-1.8349178,-1.0977808,1.9464612,1.1336638,-0.9168834,-0.16917525,0.24878456,-1.6868569,1.713261,0.6785005,1.4293594,0.09547766,2.7703676,-0.26183105,0.30042082,-3.1884038,-0.49366364,4.7933855,0.5237727,-0.46564436,0.6947646,0.5864869,0.17001072,0.149771,0.7776233,-0.51869625,-0.9483585,0.07171727,1.0,0.0,0.0,0.0,0.0,0.0,0.0,-3.4203677,-0.13816896,0.24957919,4.948121,-5.217144,-98.11819,108.25975,27.640842,82.83608,23.167763
-155.95459,78.29601,18.069857,87.38453,8.500352,6.455555,-1.7520466,-0.7514187,0.12406572,0.06807807,0.65359753,0.25766394,0.66024953,-0.512403,1.701697,-1.047392,-1.82811,-1.0324211,1.9722276,1.1996887,-0.96812373,1.7720476,-1.0573572,-1.8499801,-1.078816,1.9533048,1.147906,-0.9162063,-0.58224076,0.23982571,-1.4408252,1.9596798,0.6813777,1.4172091,0.058351953,2.7385075,-0.26676416,0.34758228,-3.185216,-0.49317005,4.690407,0.5164461,-0.47687554,0.69666845,0.59748423,0.16500194,0.14632674,0.7709574,-0.81108165,-1.1747034,0.23383006,1.0,0.0,0.0,0.0,0.0,0.0,0.0,-3.3885074,-0.13323584,0.20241773,-41.186924,-1.7241985,26.176334,25.257229,-1.1827469,-2.8032303,-3.7427552
-101.33969,77.74841,30.487425,52.86719,5.8931427,6.7066574,-0.067673795,-0.77011603,-0.0691411,0.23992617,0.6616588,0.3254346,0.6439595,-0.5658177,1.695036,-1.0642713,-1.8259875,-1.0126501,1.9858482,1.2123019,-0.9727881,1.7630831,-1.0559973,-1.8593795,-1.0598875,1.9597249,1.1612288,-0.91608137,-1.0017221,0.099417225,-0.7662088,1.8718973,0.6230703,1.3009826,-0.0030220924,2.7066793,-0.27169204,0.39371473,-3.1820314,-0.492677,4.587531,0.5066181,-0.48921704,0.6999853,0.60928684,0.15900916,0.14117363,0.763908,-1.0510485,-1.2427152,0.3684887,1.0,0.0,0.0,0.0,0.0,0.0,0.0,-3.3566794,-0.12830797,0.15628529,-42.109646,-14.591092,69.45824,-8.41372,-7.610023,-12.545681,-6.2131124
-51.514084,89.773605,38.63932,28.421522,3.3739784,6.038123,0.6797751,-0.8024935,-0.021995826,0.2595938,0.6621591,0.4439747,0.63414973,-0.57598513,1.6828338,-1.0581968,-1.8334202,-0.9936716,2.0041223,1.2246437,-0.9736799,1.7505499,-1.0557646,-1.8617885,-1.0430418,1.9657807,1.1731974,-0.9166135,-1.3376793,-0.0035650786,-0.060439512,1.6223481,0.5949403,1.160686,-0.070603676,2.674883,-0.27661514,0.4388192,-3.17885,-0.49218443,4.4847584,0.49493065,-0.5014305,0.70448077,0.6207131,0.15226078,0.1342683,0.7573003,-1.2199029,-1.2017599,0.4777535,1.0,0.0,0.0,0.0,0.0,0.0,0.0,-3.324883,-0.12338486,0.11118081,-33.803154,-10.675621,72.202835,-24.911,-4.211402,-14.433789,-6.9380326
-14.135801,86.08691,35.480274,11.993778,1.3159157,4.217116,0.7484826,-0.8124266,-5.0019065e-05,0.24301058,0.65599203,0.4744263,0.6358277,-0.5874081,1.6693072,-1.0557696,-1.8374875,-0.9774426,2.0132234,1.2367802,-0.9753543,1.7357107,-1.0561708,-1.8587368,-1.0287176,1.9717641,1.1838785,-0.91777414,-1.5332062,-0.053661853,0.43013805,1.3688753,0.59700406,1.0373847,-0.1320103,2.6431181,-0.28153348,0.4828967,-3.1756716,-0.49169233,4.3820887,0.48214966,-0.5129118,0.709704,0.6313627,0.14511245,0.12615518,0.7512712,-1.3094661,-1.1181064,0.53567785,1.0,0.0,0.0,0.0,0.0,0.0,0.0,-3.293118,-0.118466526,0.06710333,-19.703888,-5.2574053,50.027847,-25.438643,-0.57029724,-12.339163,-6.358537
14.247991,131.48409,47.2862,9.043773,-0.81970274,4.0771074,0.20112334,-0.82124436,0.28450677,0.17403437,0.6341043,0.42748326,0.6447667,-0.58167946,1.6535863,-1.0277201,-1.8413333,-0.96530724,2.0145123,1.2483552,-0.9759421,1.7198092,-1.0554498,-1.8529518,-1.0164839,1.9777265,1.1934878,-0.9194879,-1.6098773,0.11305276,0.63016826,1.1746563,0.59459853,0.9362118,-0.1858948,2.6113853,-0.28644657,0.5259482,-3.1724966,-0.49120075,4.279521,0.46887848,-0.5230689,0.71583456,0.64143187,0.13751787,0.11811575,0.74545467,-1.3443215,-0.970236,0.63596225,1.0,0.0,0.0,0.0,0.0,0.0,0.0,-3.2613854,-0.113553435,0.024051785,-7.8727245,16.373253,20.700668,-19.5112,-0.60230494,-9.899818,-5.8250246
27.844608,151.30453,50.135445,8.294864,-1.9286873,3.5137587,-0.21001947,-0.8248921,0.44200584,0.10565942,0.5987038,0.46186095,0.63800675,-0.5776777,1.6373199,-1.0112493,-1.8423858,-0.95661354,2.0239127,1.2572885,-0.97725564,1.7037264,-1.0521559,-1.8469303,-1.0056921,1.9837937,1.2022177,-0.9216718,-1.6084783,0.40071288,0.594635,1.0471721,0.6102047,0.85294306,-0.23079132,2.579684,-0.2913549,0.56797487,-3.1693246,-0.49070966,4.1770563,0.45553502,-0.53160286,0.7230597,0.6512379,0.12947425,0.111205265,0.7394315,-1.340852,-0.80289656,0.74846506,1.0,0.0,0.0,0.0,0.0,0.0,0.0,-3.2296839,-0.10864511,-0.017974854,-0.10192394,28.48227,-3.024876,-12.777424,1.4201164,-8.053577,-4.9440236
33.252632,157.53444,50.719143,9.189306,-2.1429732,3.1934552,-0.3707058,-0.8186194,0.5607806,0.10668526,0.58360296,0.50443655,0.6292265,-0.5651716,1.6218644,-0.9960778,-1.8362617,-0.94733185,2.0342374,1.2651403,-0.978189,1.687966,-1.0457224,-1.8419769,-0.9956966,1.9901509,1.2102152,-0.9242353,-1.5659984,0.7233446,0.46373206,0.9836555,0.6439584,0.7825811,-0.26626733,2.5480146,-0.29625845,0.6089776,-3.1661558,-0.49021906,4.0746937,0.44233507,-0.53847694,0.73147154,0.66097724,0.120989405,0.10581791,0.7329892,-1.3209311,-0.6368927,0.8694187,1.0,0.0,0.0,0.0,0.0,0.0,0.0,-3.1980147,-0.10374156,-0.058977604,4.0040016,31.999361,-12.598276,-6.356442,3.2827735,-6.884289,-3.9589107
31.18893,147.51286,46.95371,10.406821,-1.7626207,2.8355722,-0.37789926,-0.80984145,0.6438508,0.108196236,0.58556414,0.52725077,0.6317374,-0.55579835,1.6069819,-0.9813373,-1.8311572,-0.93714017,2.042876,1.273389,-0.9798151,1.6727206,-1.0363458,-1.8383892,-0.98595005,1.9968934,1.2175947,-0.92709345,-1.5114369,1.0081359,0.32532522,0.9716633,0.6839378,0.7230439,-0.29360184,2.5163767,-0.30115676,0.64895755,-3.1629903,-0.48972893,3.972434,0.42932484,-0.54385185,0.74101776,0.6707304,0.112078846,0.101848416,0.7260757,-1.3002398,-0.49124426,0.9806454,1.0,0.0,0.0,0.0,0.0,0.0,0.0,-3.1663766,-0.09884325,-0.09895754,5.237818,28.24614,-13.368475,-1.2203932,3.9032102,-5.9741974,-3.0836046
27.024792,126.67123,40.28002,10.006218,-1.2293888,2.3697305,-0.2613816,-0.7963007,0.6910515,0.11219141,0.5825716,0.5369281,0.6414734,-0.5488526,1.5930905,-0.9672407,-1.82717,-0.9276929,2.0505862,1.2817421,-0.9819787,1.6580015,-1.0247225,-1.8358867,-0.97613007,2.0040023,1.2244574,-0.9301786,-1.4593912,1.212951,0.22663559,0.98516303,0.71969926,0.67378247,-0.31454435,2.4847705,-0.3060503,0.6879156,-3.159828,-0.48923928,3.8702767,0.41648212,-0.5479784,0.7514741,0.68046606,0.102804825,0.09893326,0.71875536,-1.2832026,-0.37202442,1.0651014,1.0,0.0,0.0,0.0,0.0,0.0,0.0,-3.1347704,-0.093949705,-0.13791561,5.016947,20.290136,-9.415814,1.2788653,3.4792662,-5.0403357,-2.4076343
17.844156,98.87866,30.536404,9.959229,-0.5912436,1.7361288,-0.19194637,-0.7942847,0.7112854,0.07755262,0.58962417,0.5384294,0.6468583,-0.53827405,1.5785731,-0.9535939,-1.8281314,-0.91716766,2.0578454,1.2891432,-0.984006,1.6436793,-1.0117277,-1.8341796,-0.9660793,2.0113952,1.2308966,-0.9334325,-1.423759,1.3279682,0.15334445,1.0111854,0.74568987,0.6337,-0.329919,2.453196,-0.31093907,0.7258529,-3.1566687,-0.48875016,3.7682214,0.4037395,-0.55119514,0.76246715,0.6901517,0.09332399,0.096691616,0.7110781,-1.2744023,-0.28945914,1.1086783,1.0,0.0,0.0,0.0,0.0,0.0,0.0,-3.1031961,-0.08906093,-0.1758529,3.4110546,11.367345,-6.952935,2.4718165,2.540338,-4.1223884,-1.813513
12.697286,78.948395,24.037022,8.829561,-0.16572708,1.327944,-0.06385356,-0.7903448,0.7285801,0.07649266,0.57712823,0.5641675,0.65395296,-0.54355556,1.5646448,-0.93886966,-1.8265303,-0.90836644,2.067812,1.2962918,-0.9877881,1.6295935,-0.99808824,-1.8329265,-0.95584923,2.0190513,1.2369982,-0.93682,-1.4039512,1.375572,0.1171533,1.0262886,0.7719424,0.6020179,-0.34256226,2.421653,-0.31582308,0.7627704,-3.1535127,-0.48826152,3.666268,0.3910383,-0.55376005,0.7736725,0.6997142,0.0837764,0.09477754,0.7031349,-1.2708817,-0.2292345,1.1224351,1.0,0.0,0.0,0.0,0.0,0.0,0.0,-3.071653,-0.08417693,-0.2127704,1.8426418,4.6681404,-3.2665105,1.3263941,2.5871873,-3.2363534,-1.533252
11.052254,65.67175,19.951561,7.1672792,0.006770611,1.0394019,0.056596506,-0.78227335,0.7308636,0.08487051,0.5658436,0.5656671,0.65667295,-0.54367536,1.5513662,-0.92500186,-1.8244394,-0.8992649,2.075618,1.3026655,-0.9911875,1.6156412,-0.984321,-1.8317878,-0.9455839,2.0269134,1.2428328,-0.94031614,-1.3929033,1.3769135,0.11398881,1.0258995,0.79097074,0.5772079,-0.352878,2.3901415,-0.32070184,0.79866916,-3.1503599,-0.48777336,3.564417,0.37836865,-0.5558095,0.7848606,0.7090559,0.07424789,0.09295292,0.69504434,-1.2674409,-0.18050969,1.1155185,1.0,0.0,0.0,0.0,0.0,0.0,0.0,-3.0401416,-0.07929817,-0.24866915,0.9748459,0.07305145,0.030744076,-0.2588272,1.8767357,-2.4818182,-1.3030827
9.997717,63.92337,19.720585,7.4305515,0.14053273,1.1011306,0.12711215,-0.78408045,0.7456562,0.11292775,0.5626907,0.57391584,0.66027445,-0.53744495,1.5372332,-0.90975535,-1.820495,-0.88931483,2.084305,1.3088602,-0.99406064,1.6017271,-0.97064054,-1.8304279,-0.9353834,2.0349357,1.2484556,-0.9438972,-1.3913025,1.3649522,0.14464554,1.0173172,0.8057709,0.5574872,-0.36076218,2.3586614,-0.32557583,0.83355016,-3.1472101,-0.48728567,3.4626675,0.36570203,-0.55737925,0.7959789,0.7181108,0.064716384,0.09107293,0.68690205,-1.2675397,-0.13254774,1.1083273,1.0,0.0,0.0,0.0,0.0,0.0,0.0,-3.0086613,-0.07442418,-0.28355014,0.026249886,-1.2556553,3.452438,-1.0728836,1.4382124,-1.9728303,-1.0651052
11.369145,61.874626,18.936829,6.313757,0.023222744,0.98276293,0.16988416,-0.77644557,0.7454393,0.110790014,0.5468568,0.57230425,0.6640612,-0.5347157,1.5240825,-0.8960966,-1.8193489,-0.8806977,2.0921662,1.3148618,-0.99736875,1.5878302,-0.9571136,-1.8287399,-0.92535263,2.0430572,1.2539164,-0.9475431,-1.3895935,1.348463,0.17796923,0.9975627,0.81418234,0.54229707,-0.36684352,2.3272128,-0.33044505,0.8674144,-3.1440637,-0.48679847,3.3610198,0.35306853,-0.5584569,0.80698436,0.72683144,0.055178024,0.08912195,0.67876995,-1.2626692,-0.08323235,1.095477,1.0,0.0,0.0,0.0,0.0,0.0,0.0,-2.977213,-0.069554955,-0.3174144,0.038051605,-1.7004728,3.7191808,-2.1942735,0.8022547,-1.4784694,-0.88252425
13.529722,63.686325,19.641928,5.6817045,-0.06972194,0.98758316,0.22154272,-0.7723277,0.7459087,0.14081717,0.529645,0.58429176,0.66486406,-0.53764516,1.5105975,-0.88252276,-1.8146582,-0.8723881,2.1014864,1.3204027,-1.0013076,1.57396,-0.94372594,-1.8266361,-0.91558224,2.0512626,1.2592474,-0.9512443,-1.3866588,1.3352883,0.22253978,0.9694256,0.82277936,0.5302883,-0.3720754,2.2957957,-0.3353095,0.90026295,-3.1409202,-0.48631176,3.2594738,0.34050924,-0.5590024,0.8178781,0.73517454,0.045612644,0.08709629,0.6707101,-1.2538506,-0.029057639,1.0846057,1.0,0.0,0.0,0.0,0.0,0.0,0.0,-2.9457955,-0.0646905,-0.35026294,0.15928745,-1.3707399,4.866436,-3.022182,0.8089185,-1.1467099,-0.80002546
13.97297,65.17456,19.693905,5.6235213,-0.15988976,0.94223356,0.22208537,-0.774315,0.7527336,0.144504,0.5093193,0.5949752,0.6685536,-0.52846855,1.4965284,-0.8684526,-1.8121856,-0.8646503,2.1107602,1.3261027,-1.0040911,1.560105,-0.93039834,-1.8241565,-0.9061437,2.0595672,1.2644793,-0.9549827,-1.3855888,1.3317587,0.25787005,0.93462753,0.8329311,0.5210415,-0.3754063,2.26441,-0.34016895,0.9320968,-3.13778,-0.48582557,3.1580293,0.32805708,-0.5589895,0.8286661,0.7431271,0.03601623,0.08503371,0.6627474,-1.241959,0.027228534,1.073868,1.0,0.0,0.0,0.0,0.0,0.0,0.0,-2.91441,-0.059831053,-0.38209677,-0.029325485,-0.40578842,3.9365916,-3.6783218,0.97072124,-0.8581877,-0.5996227
13.144318,65.87061,19.333706,6.110275,-0.20190197,0.88261855,0.19141725,-0.77855337,0.7585604,0.14643364,0.49215114,0.59833384,0.66821975,-0.5226567,1.4822496,-0.8545423,-1.8095132,-0.8569286,2.1194005,1.3313012,-1.0072484,1.5462328,-0.9170412,-1.8214233,-0.89706475,2.0679672,1.269631,-0.958744,-1.3881112,1.3367722,0.27965447,0.89830977,0.84221923,0.51363766,-0.37725684,2.2330558,-0.3450234,0.9629169,-3.1346428,-0.48533985,3.0566862,0.31572846,-0.55841255,0.83934796,0.7507127,0.026399648,0.083003804,0.6548617,-1.2287856,0.08306857,1.0628972,1.0,0.0,0.0,0.0,0.0,0.0,0.0,-2.8830557,-0.054976612,-0.4129169,-0.38952827,0.45125484,2.562368,-3.8206816,0.89907646,-0.6677747,-0.43616295
13.318947,63.40834,17.875994,5.7253904,-0.30559665,0.6610036,0.14976732,-0.76974046,0.7590974,0.12237099,0.479103,0.6003497,0.6742884,-0.5157638,1.4692588,-0.84113145,-1.8091862,-0.8491545,2.1280022,1.3370599,-1.0103204,1.532374,-0.9036163,-1.8186862,-0.88832337,2.0764472,1.2747256,-0.96251386,-1.3855664,1.3443465,0.27272877,0.86541826,0.84982,0.5085244,-0.3777474,2.201733,-0.34987307,0.9927244,-3.1315088,-0.4848546,2.9554443,0.30356738,-0.5573082,0.8498772,0.75796944,0.016811013,0.08109385,0.64701116,-1.2102932,0.13458881,1.0460368,1.0,0.0,0.0,0.0,0.0,0.0,0.0,-2.8517332,-0.05012694,-0.4427244,0.12652874,0.71959496,-0.36062002,-3.4816265,0.75873137,-0.40915012,-0.28247237
14.357454,65.76051,18.638565,5.9379845,-0.34150022,0.68503594,0.16565523,-0.76905173,0.7681609,0.14988644,0.46105027,0.602143,0.67365044,-0.50967175,1.4554689,-0.8268002,-1.8036976,-0.84221834,2.1366615,1.3420906,-1.013481,1.5185477,-0.8900808,-1.8159568,-0.8799005,2.0849884,1.2797762,-0.96628183,-1.3819871,1.3565322,0.274255,0.83395827,0.85542184,0.5043812,-0.37734523,2.1704414,-0.35471797,1.0215203,-3.128378,-0.48436984,2.8543038,0.29159945,-0.5556636,0.8602731,0.76490086,0.007232032,0.079328485,0.63920355,-1.1900303,0.18922691,1.0337874,1.0,0.0,0.0,0.0,0.0,0.0,0.0,-2.8204412,-0.045282036,-0.47152025,0.2302885,1.1789322,0.4976213,-3.3254862,0.55395365,-0.32098293,-0.19450784
19.875954,62.786938,17.669825,1.3528161,-0.77628,0.37265435,0.31284475,-0.7691686,0.77002037,0.14521173,0.3617224,0.62568307,0.66978776,-0.5064994,1.4416308,-0.81307876,-1.8014357,-0.8437283,2.1475568,1.346755,-1.0169318,1.5047537,-0.87643087,-1.813235,-0.872171,2.09364,1.2847944,-0.9700431,-1.3790672,1.367666,0.27286258,0.751945,0.8681793,0.5017331,-0.37652963,2.1391811,-0.3595581,1.0493054,-3.12525,-0.48388556,2.7532644,0.27996913,-0.5534382,0.8704405,0.77140945,-0.0022346368,0.07773898,0.6315687,-1.1512746,0.24792445,1.00717,1.0,0.0,0.0,0.0,0.0,0.0,0.0,-2.7891812,-0.0404419,-0.49930543,0.15246868,1.089406,0.21921396,-8.409822,1.2674689,-0.06334782,-0.15298128
27.666636,64.23741,18.67457,-3.026164,-1.23,0.20739514,0.49728942,-0.7572146,0.77837974,0.18009491,0.2773317,0.63073957,0.6746278,-0.49490893,1.4290322,-0.7985929,-1.7952255,-0.84443784,2.156714,1.3522573,-1.019534,1.491036,-0.86265886,-1.8103588,-0.86557347,2.1024215,1.2898012,-0.9737882,-1.3697761,1.3802652,0.29376608,0.6283607,0.88115454,0.50106215,-0.37467438,2.107952,-0.36439347,1.076081,-3.1221256,-0.48340175,2.652326,0.268867,-0.5505471,0.88030714,0.7773501,-0.0115166055,0.07633632,0.6243131,-1.0930194,0.31615832,0.9757756,1.0,0.0,0.0,0.0,0.0,0.0,0.0,-2.7579522,-0.035606533,-0.526081,0.7930279,1.2473822,2.471155,-12.564802,1.2796998,0.22191405,-0.053733587
30.843159,62.8218,18.465866,-5.473462,-1.4151781,0.030803263,0.6158764,-0.76065415,0.7783991,0.21229538,0.18960664,0.6428604,0.66871583,-0.4860598,1.4149706,-0.78481895,-1.7891293,-0.8466128,2.1667075,1.3566728,-1.0223942,1.4773871,-0.8487905,-1.807122,-0.86043984,2.111344,1.2948023,-0.9775085,-1.3636497,1.3890511,0.33478302,0.47434795,0.89606225,0.5009021,-0.37191242,2.0767543,-0.36922407,1.1018479,-3.119004,-0.48291844,2.5514884,0.25842112,-0.54696655,0.8898178,0.7826249,-0.02055546,0.075098306,0.61760503,-1.0242093,0.38460353,0.93864673,1.0,0.0,0.0,0.0,0.0,0.0,0.0,-2.7267542,-0.030775934,-0.5518479,0.48840046,0.88407993,4.4546843,-15.594875,1.4912963,0.3373444,0.055372715
36.20394,63.97937,19.190342,-8.575537,-1.7307777,-0.13035592,0.7573312,-0.75246847,0.7886377,0.25492662,0.07432757,0.6530587,0.6646074,-0.47267178,1.4021403,-0.7699268,-1.7816293,-0.8530071,2.17665,1.361263,-1.0247756,1.4638182,-0.8348173,-1.8033168,-0.8570886,2.120423,1.2998034,-0.9811925,-1.3548219,1.4001366,0.39658102,0.28824794,0.9116794,0.50118816,-0.36787137,2.0455875,-0.37404943,1.1266072,-3.1158857,-0.48243564,2.4507518,0.2487685,-0.5426564,0.8989365,0.78713715,-0.029303351,0.07401101,0.6116198,-0.9405334,0.45774734,0.8984196,1.0,0.0,0.0,0.0,0.0,0.0,0.0,-2.6955876,-0.02595058,-0.57660717,0.78384876,1.131463,6.4873695,-18.770182,1.588881,0.45092702,0.20835996
43.192543,61.91574,18.881275,-13.918076,-2.2347648,-0.47572392,0.95615816,-0.7461028,0.79008085,0.30110905,-0.09630666,0.6602752,0.655728,-0.4395138,1.389208,-0.7558092,-1.7732059,-0.8667193,2.1864505,1.3653762,-1.0251439,1.4503523,-0.8207506,-1.7987773,-0.8560119,2.129647,1.3048064,-0.9848117,-1.3440084,1.4089859,0.47387668,0.047129508,0.9265679,0.5017858,-0.3605472,2.014452,-0.37887,1.1503599,-3.1127703,-0.48195332,2.3501158,0.24012123,-0.5375838,0.90755886,0.79075545,-0.03763697,0.073106535,0.60658437,-0.8338472,0.53351897,0.845498,1.0,0.0,0.0,0.0,0.0,0.0,0.0,-2.664452,-0.021129996,-0.60035986,1.0231972,0.9311199,7.962674,-24.233753,1.5505195,0.59316754,0.5782664
52.177567,61.37089,19.194263,-20.435831,-2.873589,-0.84493446,1.2063245,-0.73653626,0.7980645,0.36621636,-0.30527523,0.67522234,0.6413245,-0.3963233,1.3766987,-0.74094415,-1.7621557,-0.88653946,2.1971693,1.3689388,-1.0244441,1.4370219,-0.80658376,-1.7933147,-0.8578544,2.1390388,1.3098093,-0.98832697,-1.3293302,1.4193854,0.5708365,-0.26143435,0.9435407,0.50207406,-0.34890962,1.9833475,-0.38368583,1.1731069,-3.1096582,-0.48147148,2.2495804,0.23274656,-0.53170013,0.9155567,0.79330945,-0.045389995,0.07242523,0.6027889,-0.6989166,0.61493665,0.7795164,1.0,0.0,0.0,0.0,0.0,0.0,0.0,-2.6333475,-0.016314179,-0.6231069,1.478219,1.1094093,9.816313,-30.901978,1.8082857,0.67402124,1.0725796
50.214172,62.544502,19.777374,-17.73901,-2.5735486,-0.8326601,1.1657735,-0.71473867,0.8004265,0.4301948,-0.36553985,0.6786876,0.6268837,-0.3156015,1.365548,-0.7265411,-1.7502952,-0.8944084,2.2069075,1.3724977,-1.0198871,1.4239165,-0.79232633,-1.7867858,-0.8624626,2.1485832,1.3148028,-0.99167055,-1.303848,1.4282845,0.6799474,-0.52726114,0.9590614,0.50051737,-0.32968098,1.9522743,-0.38849688,1.1948494,-3.1065493,-0.4809901,2.1491454,0.22665587,-0.5250406,0.9229784,0.79479903,-0.05260089,0.0719215,0.60029566,-0.57199305,0.68975025,0.7243174,1.0,0.0,0.0,0.0,0.0,0.0,0.0,-2.6022744,-0.01150313,-0.64484936,2.6366234,0.9888172,10.819017,-26.5504,1.786387,0.45022368,1.8903971
39.697987,63.94447,19.98547,-8.877899,-1.6827633,-0.55305225,0.92680264,-0.7000107,0.8052363,0.4802371,-0.36410898,0.6785293,0.6091718,-0.17701761,1.3539153,-0.7118027,-1.7387621,-0.89887345,2.2164361,1.3757199,-1.0093724,1.411101,-0.77798116,-1.7791831,-0.86895615,2.1582572,1.3197638,-0.994729,-1.2736728,1.4370043,0.7861721,-0.6898561,0.9711729,0.49612865,-0.29793695,1.9212321,-0.39330316,1.2155882,-3.1034434,-0.48050922,2.048811,0.22158134,-0.5177188,0.93002665,0.79539466,-0.059483718,0.07149074,0.598914,-0.47841495,0.75152946,0.6924094,1.0,0.0,0.0,0.0,0.0,0.0,0.0,-2.571232,-0.00669685,-0.6655882,3.1282663,1.0027647,10.346401,-16.212059,1.5821457,0.059360266,3.1685948
22.944933,59.270573,17.482637,2.1538196,-0.57688683,-0.31345984,0.5442476,-0.70359707,0.80294913,0.48341504,-0.336689,0.66182035,0.61247027,-0.026782827,1.3407413,-0.69768625,-1.7308416,-0.902625,2.2244394,1.3810108,-0.99740726,1.3985087,-0.7635826,-1.770787,-0.87622505,2.1679695,1.3246771,-0.99737734,-1.2541913,1.4413276,0.856575,-0.73926413,0.9728763,0.4908785,-0.25380027,1.8902209,-0.39810467,1.2353245,-3.1003406,-0.4800288,1.9485766,0.21711159,-0.5099492,0.9368862,0.7953953,-0.066244274,0.07109663,0.59825003,-0.42881978,0.79004884,0.6776098,1.0,0.0,0.0,0.0,0.0,0.0,0.0,-2.5402207,-0.0018953383,-0.6853245,2.0011187,0.5833864,6.7162156,-4.969096,0.5972266,-0.16005635,4.3973565
6.5178823,52.696777,14.415461,12.477577,0.5012151,-0.09148143,0.1852621,-0.7122538,0.79569906,0.48626843,-0.28132457,0.6495101,0.6257234,0.13913837,1.3272833,-0.68401265,-1.7221601,-0.9043575,2.2329204,1.3872495,-0.9834635,1.3859907,-0.74919736,-1.7619522,-0.8832384,2.177636,1.3295428,-0.99949163,-1.2511786,1.4381505,0.89149725,-0.68914574,0.9661287,0.4861548,-0.19745071,1.8592407,-0.4029014,1.2540592,-3.097241,-0.47954887,1.8484424,0.21281582,-0.50196695,0.94369996,0.7951088,-0.073055185,0.07071507,0.5978832,-0.42206144,0.8051879,0.67610914,1.0,0.0,0.0,0.0,0.0,0.0,0.0,-2.5092406,0.002901405,-0.7040592,0.26302338,-0.15661716,3.2007933,4.8766613,-0.23690462,-0.23288727,5.5873156
-7.1657724,44.33001,10.462152,19.58219,1.208729,-0.044205084,-0.14282772,-0.7400088,0.79338974,0.45262128,-0.23779821,0.6315927,0.63467705,0.20301197,1.3119899,-0.6698584,-1.7166901,-0.9070182,2.2407951,1.3930105,-0.9791904,1.3733088,-0.7348684,-1.7531288,-0.8893476,2.1871727,1.3343683,-1.001039,-1.2743306,1.4316025,0.8786004,-0.58563894,0.95070463,0.48195666,-0.1406575,1.8282914,-0.4076934,1.2717934,-3.0941443,-0.4790694,1.7484084,0.20836274,-0.49398994,0.9505145,0.79482526,-0.07997473,0.07040516,0.5974111,-0.44510716,0.79925567,0.676551,1.0,0.0,0.0,0.0,0.0,0.0,0.0,-2.4782915,0.00769338,-0.72179335,-2.4541378,-0.49960613,-1.482749,10.120487,-1.1488914,-0.28373003,5.6142273
-17.004395,39.63013,8.311437,26.141039,1.868031,0.09229268,-0.40048346,-0.7527482,0.78850746,0.42707625,-0.12224284,0.6181709,0.6421871,0.30735362,1.298034,-0.65601766,-1.7104211,-0.90157187,2.2489898,1.3985871,-0.97030365,1.3603121,-0.7206243,-1.7446678,-0.89395005,2.1965263,1.3391596,-1.0019984,-1.3086724,1.4224457,0.8347552,-0.41947627,0.9311901,0.47827828,-0.08106691,1.7973732,-0.4124806,1.2885278,-3.0910509,-0.47859043,1.6484743,0.20347717,-0.4861765,0.95739937,0.79477704,-0.08709063,0.07018912,0.5965049,-0.49475846,0.77957135,0.6858401,1.0,0.0,0.0,0.0,0.0,0.0,0.0,-2.4473732,0.012480587,-0.73852783,-3.6353827,-0.7628679,-4.5410633,16.32452,-1.5593767,-0.32120347,5.8767586
-29.221888,36.302094,6.7982683,36.005856,2.8585753,0.4296397,-0.7537081,-0.76905805,0.77878714,0.3824681,0.09815726,0.5984484,0.6472722,0.38701108,1.2834063,-0.6427456,-1.7064209,-0.8841343,2.256371,1.4038868,-0.9632973,1.3469359,-0.7065033,-1.7368515,-0.8960977,2.205651,1.3439146,-1.0023608,-1.3479453,1.4091917,0.76318884,-0.14771786,0.90791667,0.47431806,-0.021581165,1.7664859,-0.41726303,1.3042638,-3.0879605,-0.47811192,1.5486403,0.19779561,-0.47866368,0.96452713,0.7952234,-0.09462556,0.07000643,0.59478134,-0.5842894,0.74636436,0.7152927,1.0,0.0,0.0,0.0,0.0,0.0,0.0,-2.4164858,0.017263025,-0.7542638,-4.1760683,-1.1715412,-7.3382616,26.83379,-1.8868327,-0.48369765,5.8483644
-38.001602,35.148434,6.6034913,44.590458,3.6690488,0.84408754,-1.0298532,-0.78141236,0.761589,0.35373935,0.3431774,0.5449872,0.66248924,0.45695657,1.2687947,-0.6303444,-1.7014775,-0.86178,2.2601497,1.4101635,-0.95666516,1.3331953,-0.6925739,-1.7297962,-0.894774,2.2144248,1.3486372,-1.0021377,-1.3837438,1.3880707,0.68552905,0.22463654,0.8690801,0.47083855,0.036745314,1.7356294,-0.4220407,1.3190023,-3.0848732,-0.4776339,1.448906,0.19095877,-0.47151613,0.97210765,0.79637414,-0.10288466,0.06976498,0.59189177,-0.70859313,0.70960915,0.766076,1.0,0.0,0.0,0.0,0.0,0.0,0.0,-2.3856294,0.022040695,-0.76900226,-3.8101196,-1.967001,-8.031094,36.914402,-3.375566,-0.5861461,5.731071
-30.921673,36.43637,7.9685316,40.26925,3.2306423,0.7980165,-0.8547891,-0.78869647,0.745358,0.35831264,0.41638082,0.5310535,0.6641207,0.4609432,1.2543256,-0.6180381,-1.693965,-0.85313594,2.2675302,1.4150493,-0.95604336,1.3191649,-0.6789011,-1.7233264,-0.8900228,2.2228172,1.3533293,-1.0013881,-1.4099201,1.3607521,0.63339967,0.55788285,0.8305975,0.46786055,0.08738799,1.7048038,-0.4268136,1.3327441,-3.0817888,-0.47715634,1.3492714,0.18299657,-0.46463513,0.98014104,0.79814225,-0.11192549,0.069415025,0.5878971,-0.8171209,0.68767554,0.8095804,1.0,0.0,0.0,0.0,0.0,0.0,0.0,-2.3548038,0.026813596,-0.7827441,-2.7582169,-2.6225805,-5.468607,33.11101,-3.390503,-0.5503118,4.977314
-15.596327,38.811287,9.541061,28.11352,1.9940275,0.38746646,-0.44873095,-0.7958213,0.7374017,0.35510507,0.4036647,0.53683907,0.66336423,0.43164697,1.2395828,-0.6051609,-1.6878159,-0.84965634,2.2765012,1.4196657,-0.9582234,1.304938,-0.6654905,-1.7171848,-0.8829065,2.2309043,1.3580004,-1.000215,-1.427235,1.3347406,0.60736006,0.76243365,0.80281657,0.46647567,0.12695564,1.6740091,-0.43158174,1.3454903,-3.0787077,-0.47667927,1.2497364,0.17431384,-0.4578352,0.9884068,0.8002275,-0.12151364,0.069008805,0.5831879,-0.8772874,0.68583983,0.8261568,1.0,0.0,0.0,0.0,0.0,0.0,0.0,-2.324009,0.03158173,-0.7954903,-1.8151283,-2.5347948,-2.714944,20.318068,-2.4659991,-0.266999,3.864248
0.4840479,43.281055,11.606469,15.540218,0.6834327,-0.059747577,-0.016643174,-0.794548,0.73551655,0.36152774,0.3836882,0.54587483,0.6620179,0.43400058,1.2254832,-0.59193885,-1.6810321,-0.8445377,2.285492,1.4242022,-0.956815,1.2906195,-0.652284,-1.7111099,-0.87473637,2.2388122,1.3626677,-0.99870133,-1.4334234,1.3161539,0.607769,0.83489406,0.78769916,0.46700737,0.15915449,1.6432451,-0.4363451,1.3572419,-3.0756295,-0.47620267,1.150301,0.16542387,-0.4509201,0.9966503,0.8022874,-0.13133946,0.0686357,0.57825077,-0.88490635,0.7028956,0.8176185,1.0,0.0,0.0,0.0,0.0,0.0,0.0,-2.293245,0.036345094,-0.80724186,-0.6837368,-1.8299341,0.12331009,7.1457505,-1.3638735,0.0885725,3.098342
11.802897,43.385933,11.5348425,5.2338343,-0.38082057,-0.59739184,0.26879856,-0.79347974,0.7298105,0.33672902,0.34422702,0.5397949,0.66262686,0.42733353,1.2112715,-0.57930297,-1.677437,-0.8403137,2.2927916,1.4289304,-0.95596796,1.2762972,-0.6392206,-1.705056,-0.8666473,2.2466133,1.3673521,-0.9969151,-1.4320246,1.3030187,0.6053566,0.79991394,0.7775921,0.4695849,0.18465248,1.6125119,-0.4411037,1.3679998,-3.0725546,-0.47572654,1.050965,0.1567887,-0.44379878,1.0046253,0.80409014,-0.14107783,0.0684354,0.5734568,-0.8483381,0.72483075,0.78459305,1.0,0.0,0.0,0.0,0.0,0.0,0.0,-2.2625117,0.04110369,-0.8179998,0.079512596,-1.3009548,-0.03951788,-3.5978198,-0.9734154,0.46285987,2.4176927
19.709812,43.161823,11.275343,-2.328073,-1.144968,-1.0490966,0.48096558,-0.7935796,0.7254437,0.33269542,0.27285433,0.53737396,0.65421593,0.43778437,1.1969392,-0.5666762,-1.6717864,-0.83936185,2.3003507,1.4327737,-0.9531367,1.2620131,-0.62625635,-1.699023,-0.8595186,2.254338,1.3720633,-0.9949019,-1.4273835,1.2942458,0.60339,0.68351793,0.7708277,0.47264305,0.20641826,1.5818094,-0.44585752,1.377765,-3.0694826,-0.4752509,0.9517282,0.14876623,-0.43645406,1.0121423,0.80549395,-0.15045081,0.06853269,0.56907576,-0.7786388,0.7467726,0.73460144,1.0,0.0,0.0,0.0,0.0,0.0,0.0,-2.2318094,0.04585752,-0.82776505,0.41370392,-0.8698225,0.06798506,-11.732054,-0.7103205,0.6373346,2.0476608
24.339859,40.719376,10.41054,-7.311945,-1.6216302,-1.423102,0.6176995,-0.78717846,0.7101218,0.34112918,0.18899639,0.49850067,0.65098643,0.47572535,1.1832952,-0.55524415,-1.6649101,-0.84061897,2.304188,1.4371619,-0.94732934,1.2478071,-0.61341417,-1.6929653,-0.8539253,2.2619026,1.376805,-0.99267125,-1.4182421,1.2809753,0.6073237,0.51773095,0.75117433,0.4759581,0.22826181,1.5511376,-0.45060658,1.3865387,-3.0664139,-0.47477573,0.8525907,0.14160265,-0.42892098,1.0190709,0.8064193,-0.15926197,0.06902411,0.5652956,-0.6870324,0.76352906,0.6730982,1.0,0.0,0.0,0.0,0.0,0.0,0.0,-2.2011375,0.05060658,-0.83653873,0.90010166,-1.3122797,0.6474018,-16.653395,-2.0322561,0.7438481,2.0721436
23.731861,39.556427,9.787855,-7.2493052,-1.6076202,-1.5614864,0.59690714,-0.7859223,0.7079146,0.3332088,0.13410561,0.49119362,0.64710486,0.49922374,1.169215,-0.5426227,-1.6596444,-0.8405147,2.311022,1.4415154,-0.9427489,1.2336909,-0.60068834,-1.6869037,-0.8499933,2.269265,1.3815733,-0.990227,-1.4094056,1.2699232,0.60638493,0.3514711,0.73096424,0.4783829,0.24944848,1.5204965,-0.45535088,1.3943218,-3.063348,-0.47430104,0.75355226,0.13536209,-0.4212544,1.0253925,0.8068835,-0.1674468,0.069948204,0.56214577,-0.5943944,0.77437276,0.61293626,1.0,0.0,0.0,0.0,0.0,0.0,0.0,-2.1704965,0.05535087,-0.8443218,0.89366436,-1.0776997,0.09455681,-16.679317,-2.0652056,0.64020157,2.0322323
20.789944,37.923866,9.30081,-4.5438337,-1.2852521,-1.5482714,0.5118444,-0.7758184,0.69607204,0.3376581,0.100165285,0.47579098,0.6465499,0.5187692,1.156109,-0.53108114,-1.6531379,-0.8399768,2.316844,1.4462283,-0.9383501,1.219689,-0.58809507,-1.6808422,-0.8474794,2.2764137,1.3863589,-0.98757863,-1.3967539,1.255904,0.6064853,0.21785696,0.70953465,0.47981575,0.26963258,1.4898859,-0.4600904,1.4011152,-3.0602853,-0.47382683,0.6546129,0.12996206,-0.41351128,1.0311701,0.8069526,-0.17506167,0.07126115,0.5595559,-0.51306325,0.7795744,0.5606411,1.0,0.0,0.0,0.0,0.0,0.0,0.0,-2.139886,0.060090393,-0.85111517,1.2985468,-1.3580084,0.11109114,-13.4036455,-2.1417499,0.48825145,1.9491315
16.900623,37.36256,9.256867,-0.29822397,-0.8463993,-1.4193096,0.38638917,-0.7602872,0.6869643,0.33978003,0.08969771,0.4544676,0.6480251,0.53316,1.1436603,-0.5193986,-1.6468642,-0.8385096,2.3218606,1.4511614,-0.93426263,1.2058645,-0.5756544,-1.6747749,-0.8459154,2.2833297,1.3911539,-0.98474145,-1.3774292,1.2404147,0.6069591,0.13584767,0.68580294,0.4803751,0.28827226,1.4593061,-0.46482515,1.40692,-3.0572257,-0.4733531,0.5557724,0.1252463,-0.4057262,1.0365152,0.80670786,-0.1822475,0.072881736,0.55740154,-0.4490488,0.7824522,0.52068573,1.0,0.0,0.0,0.0,0.0,0.0,0.0,-2.109306,0.06482515,-0.85691994,1.9758224,-1.4899254,0.06657839,-8.243671,-2.3156524,0.33456087,1.8026412
13.410065,33.503113,7.789768,1.5548968,-0.56558776,-1.4754747,0.2930325,-0.7645627,0.67775726,0.3164028,0.030300664,0.46564946,0.64729434,0.5326227,1.1294082,-0.50787866,-1.6431346,-0.8428853,2.3298948,1.4558834,-0.93147916,1.1921831,-0.56337583,-1.6688144,-0.84507805,2.2900894,1.3959509,-0.9817393,-1.3649522,1.2238852,0.5925704,0.06616468,0.67274886,0.48036763,0.30404717,1.4287568,-0.46955514,1.4117371,-3.054169,-0.47287983,0.4570308,0.12109853,-0.39796948,1.0414704,0.80623716,-0.18903622,0.074759066,0.55557,-0.39474759,0.7769022,0.48213845,1.0,0.0,0.0,0.0,0.0,0.0,0.0,-2.0787568,0.06955513,-0.8617371,1.2738466,-1.5864611,-1.4448047,-7.0298967,-1.2257695,0.25141835,1.5262544
12.893188,30.574095,6.793572,0.9244089,-0.5569933,-1.608611,0.2974826,-0.7602737,0.66420406,0.31425446,-0.041884515,0.4511664,0.642964,0.54937005,1.1161557,-0.49695542,-1.637389,-0.8492665,2.335206,1.4602473,-0.9268023,1.178599,-0.5512861,-1.6630085,-0.84502655,2.2967231,1.4007441,-0.97858644,-1.3559501,1.2042496,0.5765496,-0.015391865,0.6603625,0.47981125,0.31888416,1.3982381,-0.47428036,1.4155675,-3.0511155,-0.47240704,0.35838792,0.11750484,-0.39030695,1.0460163,0.80557513,-0.19537696,0.07688337,0.55404454,-0.3390919,0.76540107,0.4405914,1.0,0.0,0.0,0.0,0.0,0.0,0.0,-2.048238,0.07428035,-0.8655675,0.9313822,-1.8945217,-1.6170502,-8.217907,-1.1646152,0.19716024,1.43978
13.862854,25.999743,5.278514,-1.7009706,-0.71598715,-1.8644812,0.34739974,-0.75237435,0.6421893,0.30584988,-0.1306689,0.42308754,0.6439835,0.55821353,1.1033616,-0.48706716,-1.6324235,-0.85809344,2.339032,1.4651425,-0.9227651,1.1651083,-0.53945386,-1.6573741,-0.8460155,2.3031776,1.4055334,-0.97529626,-1.3466977,1.1765271,0.558893,-0.1269089,0.64083827,0.47952753,0.3323245,1.3677498,-0.4790008,1.4184123,-3.048065,-0.47193474,0.25984365,0.114537135,-0.38282228,1.0500792,0.8047241,-0.2011516,0.07927995,0.552876,-0.27450508,0.74471873,0.3902644,1.0,0.0,0.0,0.0,0.0,0.0,0.0,-2.0177498,0.0790008,-0.8684123,0.98810196,-2.703309,-1.7928243,-11.204878,-1.9071221,0.2428174,1.3072789
14.253925,21.01715,3.6576378,-3.6258059,-0.81751066,-2.097925,0.36786473,-0.73748153,0.6159056,0.28826675,-0.20210735,0.37947533,0.64695656,0.568286,1.0913602,-0.4778633,-1.6285474,-0.86622626,2.341125,1.4702291,-0.91846764,1.1517569,-0.5279716,-1.6519611,-0.8482471,2.3093345,1.4103228,-0.97187924,-1.3310986,1.1389906,0.53533745,-0.25548047,0.6071625,0.4796293,0.34463906,1.3372921,-0.4837165,1.4202725,-3.0450175,-0.4714629,0.1613979,0.11226394,-0.3756132,1.0535859,0.8036954,-0.20624965,0.08198761,0.55209845,-0.20372684,0.7141822,0.33310038,1.0,0.0,0.0,0.0,0.0,0.0,0.0,-1.987292,0.08371648,-0.87027246,1.6666889,-3.684187,-2.414465,-12.901846,-3.3455849,0.28303266,1.1972904
10.755635,17.27484,2.1242437,-1.5358553,-0.63239354,-2.1339347,0.2428954,-0.73603475,0.6018662,0.2408959,-0.22971068,0.3387903,0.6532232,0.57488877,1.0781534,-0.467785,-1.6278715,-0.8712182,2.3432136,1.4756451,-0.9143904,1.1385428,-0.5168632,-1.64696,-0.85162216,2.315068,1.415116,-0.9683497,-1.3180106,1.1017097,0.48810342,-0.3651011,0.5622925,0.48000488,0.35559365,1.3068647,-0.4884274,1.4211489,-3.041973,-0.47099155,0.06305058,0.11063681,-0.36875415,1.0565363,0.8025816,-0.2106504,0.08506681,0.5515912,-0.14162318,0.6769876,0.27823806,1.0,0.0,0.0,0.0,0.0,0.0,0.0,-1.9568647,0.088427395,-0.8711489,1.400733,-3.6566973,-4.7902765,-11.028683,-4.4594646,0.2676487,1.0567963
1.5048914,3.701794,-2.5306828,4.300528,0.06281161,-2.151715,-0.075828195,-0.71985084,0.548087,0.14719115,-0.18375833,0.2274931,0.6549687,0.58760375,1.0665576,-0.46205452,-1.6322409,-0.869998,2.3378174,1.4806129,-0.9095893,1.1254965,-0.506287,-1.6428134,-0.8555561,2.3200843,1.419911,-0.9647162,-1.300001,1.0430346,0.3900285,-0.4033848,0.4813296,0.47999886,0.36558297,1.2764678,-0.49313378,1.4210426,-3.0389316,-0.47052068,-0.0351984,0.10941832,-0.3624127,1.058968,0.8016082,-0.21441774,0.088585585,0.5510007,-0.108286895,0.61965245,0.22761299,1.0,0.0,0.0,0.0,0.0,0.0,0.0,-1.9264678,0.09313378,-0.87104255,1.8604279,-5.7991743,-9.876615,-3.9830685,-8.060294,0.1717627,0.9179354
-5.977557,-13.628978,-7.9358497,7.2942247,0.622598,-2.2804937,-0.27593273,-0.70677364,0.4625844,0.09205819,-0.18807031,0.063606925,0.66275024,0.596093,1.0548191,-0.46002853,-1.6336076,-0.8743631,2.326445,1.486186,-0.9051069,1.1126562,-0.49660206,-1.639796,-0.85959584,2.3238838,1.4247099,-0.96099114,-1.2784792,0.9438377,0.2719024,-0.40487534,0.3464686,0.48043182,0.37433064,1.2461013,-0.49783564,1.4199544,-3.0358934,-0.47005028,-0.13334917,0.108379535,-0.35682535,1.0608557,0.80097353,-0.21757175,0.09260032,0.5500265,-0.09617731,0.53782,0.1724355,1.0,0.0,0.0,0.0,0.0,0.0,0.0,-1.8961012,0.09783563,-0.8699544,2.2259235,-9.8677635,-11.883926,-0.35704374,-13.472122,0.18520355,0.7420659
-10.798794,-45.834106,-17.60922,2.4117513,0.9455873,-2.9480855,-0.2555382,-0.68918675,0.29062596,0.059807748,-0.29771945,-0.17133072,0.66466993,0.5896584,1.0437375,-0.46753946,-1.6338153,-0.88936776,2.3067508,1.491177,-0.9020253,1.1000754,-0.48857737,-1.6378887,-0.86401707,2.3257759,1.4295145,-0.9571974,-1.2503806,0.75538516,0.16330543,-0.45517302,0.13665247,0.4809461,0.38028544,1.2157651,-0.5025325,1.4178854,-3.0328581,-0.4695803,-0.23140179,0.10744573,-0.35244703,1.0619378,0.8007724,-0.21985039,0.09710768,0.5486341,-0.08711226,0.40363184,0.08402561,1.0,0.0,0.0,0.0,0.0,0.0,0.0,-1.8657651,0.102532476,-0.8678854,3.0293465,-18.833828,-10.954222,-5.221218,-21.076702,0.18294454,0.39057732
-13.382443,-72.51927,-24.08445,-2.0339894,1.5160973,-3.319569,-0.037942454,-0.6701851,0.08028091,0.15469256,-0.39332175,-0.3881987,0.66731095,0.57286024,1.0330569,-0.48054928,-1.6224194,-0.9033492,2.286956,1.4962456,-0.8999114,1.0878168,-0.48319197,-1.6363266,-0.86935765,2.3251731,1.434321,-0.95337033,-1.2163451,0.4661372,0.15328598,-0.5608532,-0.12639539,0.48067707,0.38264045,1.1854593,-0.50722456,1.4148368,-3.029826,-0.4691108,-0.32935637,0.106539354,-0.3497069,1.0619388,0.80090594,-0.2210303,0.10183602,0.5471058,-0.087792285,0.22972853,-0.029910624,1.0,0.0,0.0,0.0,0.0,0.0,0.0,-1.8354592,0.107224554,-0.86483675,3.749609,-28.965992,-1.1215508,-10.693121,-26.459053,0.0017940998,-0.035977364
-32.983166,-161.35149,-51.037712,-8.379975,3.9057183,-4.84162,-0.14226975,-0.622717,-0.38503826,0.05234594,-0.5039323,-0.56596285,0.6688228,0.53560317,1.0255451,-0.5216958,-1.631092,-0.91975087,2.2685769,1.5012033,-0.89981,1.0760638,-0.48245335,-1.6350467,-0.87617165,2.3217933,1.4391028,-0.9495661,-1.1595179,-0.05761572,0.11977725,-0.72189826,-0.40986028,0.47623417,0.3781179,1.1551837,-0.51191235,1.4108092,-3.0267968,-0.46864176,-0.42721304,0.10520848,-0.34986115,1.0602417,0.8015237,-0.22048905,0.10605277,0.5456163,-0.14604823,-0.09805648,-0.2173046,1.0,0.0,0.0,0.0,0.0,0.0,0.0,-1.8051836,0.11191234,-0.86080915,6.2483788,-52.595856,-3.3065705,-16.188585,-28.77478,-0.8445859,-0.9435892
-27.023882,-158.26648,-46.752888,-7.739876,4.8128915,-4.478766,0.20959829,-0.44665694,-0.61145914,0.19357015,-0.47557563,-0.5689722,0.6577774,0.48341548,1.031398,-0.54359925,-1.6156898,-0.9237292,2.2648962,1.5048805,-0.90122455,1.0656134,-0.48732376,-1.6333435,-0.88421494,2.316098,1.4438101,-0.945843,-1.0054804,-0.6311641,0.18752892,-0.83165014,-0.62388027,0.4662068,0.36911285,1.1249384,-0.51659536,1.4058038,-3.0237706,-0.4681732,-0.5249719,0.1031635,-0.35322213,1.0567768,0.8023661,-0.21834755,0.10882253,0.54469305,-0.22446054,-0.41530147,-0.38998428,1.0,0.0,0.0,0.0,0.0,0.0,0.0,-1.7749383,0.11659536,-0.8558038,15.813661,-57.642166,6.9137006,-10.921181,-21.750713,-1.85619,-1.2750447
3.7546935,-106.80976,-28.579628,-18.270515,2.9107006,-4.182359,0.89883465,-0.13972339,-0.74266565,0.21149275,-0.57153547,-0.5913297,0.6464527,0.41672802,1.0516411,-0.5615903,-1.6121942,-0.94136846,2.256965,1.5084554,-0.90417016,1.0579764,-0.49732304,-1.6307857,-0.8934246,2.3087852,1.4484011,-0.9422476,-0.684094,-1.1236879,0.28025278,-0.95097786,-0.76721764,0.453321,0.3556496,1.0947233,-0.5212736,1.3998215,-3.0207474,-0.46770513,-0.62263304,0.10093656,-0.35918403,1.0517392,0.80282277,-0.21497662,0.10973249,0.54517835,-0.22457135,-0.654453,-0.542259,1.0,0.0,0.0,0.0,0.0,0.0,0.0,-1.7447233,0.12127361,-0.8498215,31.868494,-49.502243,9.804895,-11.997199,-14.491165,-2.3560524,-1.5323222
32.766533,-27.563667,-3.156568,-19.883814,0.44043303,-3.155439,1.1937445,0.10813643,-0.76181775,0.19614336,-0.54105294,-0.64065325,0.6666785,0.27135608,1.06879,-0.5735048,-1.6111714,-0.94752985,2.24472,1.5150689,-0.915112,1.0543371,-0.5108593,-1.6274688,-0.90337425,2.3003929,1.4529043,-0.9388783,-0.2604926,-1.4307445,0.3515521,-1.0106477,-0.86314076,0.44653016,0.33064023,1.0645385,-0.5259471,1.3928634,-3.0177274,-0.46723753,-0.72019655,0.099302396,-0.36658263,1.0456045,0.80241215,-0.2110011,0.10904493,0.547469,-0.14547725,-0.7642046,-0.6387256,1.0,0.0,0.0,0.0,0.0,0.0,0.0,-1.7145385,0.12594709,-0.8428634,41.379864,-30.845474,7.9674006,-6.2746644,-9.511816,-1.448834,-2.4931073
45.010956,23.466316,10.820738,-17.728329,-1.2314485,-2.5740294,1.0494998,0.25734478,-0.78330004,0.07658992,-0.54744816,-0.63523144,0.6659041,0.19112185,1.0800716,-0.5891893,-1.6198099,-0.9581191,2.2368698,1.5194948,-0.9197661,1.0548846,-0.5262173,-1.6242206,-0.91364914,2.291394,1.4573656,-0.9358046,0.15597832,-1.5710672,0.31875017,-1.0342933,-0.9114281,0.44443896,0.2998348,1.0343839,-0.5306158,1.3849304,-3.0147102,-0.4667704,-0.8176625,0.09878544,-0.37450647,1.0387925,0.80107963,-0.2067918,0.10738795,0.5513405,-0.021269169,-0.79635906,-0.6977719,1.0,0.0,0.0,0.0,0.0,0.0,0.0,-1.6843839,0.1306158,-0.83493036,40.47583,-14.108849,-2.3850858,-2.753067,-4.723549,-0.66625476,-3.0159354
38.139107,31.173737,8.102972,-12.950779,-1.6596682,-2.7960792,0.4144513,0.38468528,-0.8070036,-0.26752207,-0.5318505,-0.5728531,0.66557205,0.10038749,1.093353,-0.6069176,-1.6509728,-0.9668342,2.2341087,1.5239228,-0.9257659,1.0591513,-0.54216176,-1.6231105,-0.9238859,2.2823188,1.4618193,-0.93308854,0.5134393,-1.6024942,0.04508895,-1.0210031,-0.9063338,0.44426998,0.26201397,1.0042593,-0.5352802,1.3760234,-3.011696,-0.46630374,-0.91503096,0.09950186,-0.38277984,1.0314279,0.79930633,-0.2021798,0.10548245,0.55597305,0.10424875,-0.8314397,-0.75252724,1.0,0.0,0.0,0.0,0.0,0.0,0.0,-1.6542593,0.13528022,-0.8260234,34.708523,-3.2288551,-26.390383,1.0688066,0.43958426,-0.401932,-3.8156152
32.860195,31.474503,4.646687,-10.74301,-1.9415066,-3.0429327,0.028792344,0.5388486,-0.81546724,-0.5066696,-0.52690953,-0.57443136,0.6600875,0.08338676,1.1130362,-0.6237085,-1.6737775,-0.9765768,2.2248757,1.5278281,-0.92474985,1.0666243,-0.55798227,-1.6258438,-0.9338756,2.2734191,1.466271,-0.9307368,0.82255,-1.5754404,-0.37645373,-0.99219984,-0.8853507,0.44412088,0.22584738,0.97416496,-0.5399399,1.3661435,-3.008685,-0.4658375,-1.0123022,0.10146188,-0.391474,1.0234809,0.797552,-0.19685659,0.10391089,0.5606787,0.23077323,-0.8756055,-0.8128491,1.0,0.0,0.0,0.0,0.0,0.0,0.0,-1.6241649,0.13993987,-0.81614345,30.057407,2.620411,-41.2613,2.724588,1.9837141,-0.40274858,-3.722742
23.045513,30.932568,3.281343,-3.549735,-1.5245886,-2.6830838,-0.29698038,0.61808276,-0.8157148,-0.63720906,-0.4657011,-0.617455,0.65493006,-0.019460546,1.1284325,-0.6395537,-1.6895647,-0.98044574,2.2116737,1.531764,-0.9326828,1.0766016,-0.5733784,-1.6328571,-0.943296,2.264611,1.4707228,-0.92878747,1.0542138,-1.5279231,-0.8074779,-0.9253785,-0.8793856,0.44436148,0.1842683,0.9441007,-0.54459476,1.3552916,-3.005677,-0.46537176,-1.1094761,0.10446912,-0.40057182,1.0149941,0.7961207,-0.1907804,0.102995075,0.564966,0.3299326,-0.9149487,-0.8659125,1.0,0.0,0.0,0.0,0.0,0.0,0.0,-1.5941007,0.14459476,-0.8052916,22.634327,4.6766043,-42.48551,6.636679,0.48657656,-0.2853036,-4.2754264
13.471533,31.507072,4.413105,4.448758,-0.7300346,-1.9755226,-0.41632786,0.6602906,-0.8245828,-0.68739265,-0.4076321,-0.636839,0.6542897,-0.08117223,1.1426307,-0.65583664,-1.7015964,-0.9840592,2.200927,1.5361518,-0.93690467,1.0882651,-0.58837396,-1.64342,-0.9518371,2.2557724,1.4751803,-0.92726064,1.2028685,-1.4903331,-1.1379793,-0.83018124,-0.8861011,0.44560796,0.14197412,0.9140665,-0.5492449,1.3434688,-3.0026717,-0.46490648,-1.2065529,0.108165056,-0.40996003,1.0060916,0.7951107,-0.18416238,0.10271854,0.5686228,0.39040586,-0.9404197,-0.9049013,1.0,0.0,0.0,0.0,0.0,0.0,0.0,-1.5640664,0.14924487,-0.7934688,14.617014,3.6803484,-32.700012,9.54777,-0.78514814,-0.081551075,-4.313305
2.0468664,36.081413,7.90412,15.485359,0.39876682,-0.928162,-0.50719553,0.6565932,-0.82411647,-0.68305004,-0.299992,-0.65669924,0.6713644,-0.10752102,1.1539243,-0.6707856,-1.711725,-0.9818363,2.1901023,1.5423167,-0.9380127,1.1007506,-0.60310346,-1.6561515,-0.95906883,2.246781,1.479674,-0.92613053,1.2638658,-1.4675646,-1.3174664,-0.68715674,-0.90416616,0.45036483,0.10314377,0.8840623,-0.5538902,1.3306758,-2.9996698,-0.4644417,-1.3035326,0.112070754,-0.419425,0.997015,0.7945083,-0.17744252,0.1028821,0.5715645,0.399137,-0.942313,-0.91587687,1.0,0.0,0.0,0.0,0.0,0.0,0.0,-1.5340623,0.15389022,-0.7806758,6.0823917,2.1731377,-17.75217,14.379179,-2.0067692,0.4492104,-3.9244666
-6.085739,38.826115,10.098685,21.854279,1.1474416,-0.24437356,-0.4983652,0.63139874,-0.8214681,-0.6922846,-0.24772818,-0.65503603,0.6757873,-0.102862574,1.1638905,-0.6852503,-1.72538,-0.98384166,2.1812775,1.5472527,-0.9364168,1.1132933,-0.61769944,-1.6697929,-0.9648538,2.2376144,1.4842211,-0.92533994,1.2516929,-1.4573897,-1.3793533,-0.5418106,-0.92162263,0.45635116,0.07103052,0.85408807,-0.5585313,1.3169138,-2.9966707,-0.46397734,-1.4004153,0.11580975,-0.4288075,0.98794866,0.79426146,-0.17094298,0.10327534,0.57381296,0.37442446,-0.9307832,-0.91116357,1.0,0.0,0.0,0.0,0.0,0.0,0.0,-1.504088,0.15853128,-0.76691383,-1.0752916,0.89132786,-6.0806513,14.655388,-2.039194,0.6594777,-3.2250047
-4.125229,40.51565,11.460782,19.088375,1.0482156,-0.16313007,-0.28619972,0.6327079,-0.82487416,-0.6977235,-0.27430487,-0.6344179,0.6650164,-0.14864932,1.1765641,-0.70018685,-1.7395653,-0.9922843,2.1741726,1.5507227,-0.94020486,1.125508,-0.6322792,-1.6835124,-0.9696527,2.2283714,1.488814,-0.92486024,1.2118568,-1.4585205,-1.3696419,-0.4588844,-0.9263945,0.46025974,0.040341817,0.8241438,-0.5631676,1.3021837,-2.9936745,-0.46351343,-1.4972012,0.119340636,-0.43803787,0.97888654,0.79422665,-0.16468558,0.103727505,0.57560676,0.35485688,-0.9145876,-0.91220975,1.0,0.0,0.0,0.0,0.0,0.0,0.0,-1.4741437,0.16316757,-0.75218374,-3.8121939,-0.22547245,0.98752975,8.416015,-0.75576305,0.40347576,-3.0440137
0.38091087,41.227695,11.949902,14.3556,0.6461398,-0.2959953,-0.07294299,0.63170666,-0.82620347,-0.71029717,-0.28829032,-0.6421535,0.66756845,-0.119599186,1.1886786,-0.71489954,-1.7545421,-0.99848175,2.164156,1.5555708,-0.93682015,1.137303,-0.6469105,-1.6969593,-0.9740682,2.219094,1.4934393,-0.9246285,1.169214,-1.4649417,-1.3365581,-0.43543503,-0.92889863,0.46294665,0.017519195,0.7942295,-0.5677991,1.2864865,-2.9906816,-0.46305,-1.5938903,0.12280278,-0.44709563,0.9697249,0.79424876,-0.15853603,0.104191765,0.5772167,0.35197785,-0.89711875,-0.9249129,1.0,0.0,0.0,0.0,0.0,0.0,0.0,-1.4442295,0.16779909,-0.7364865,-4.1105986,-0.73308945,3.2631636,2.4586082,-0.48459768,0.20911694,-2.2404969
3.4827666,41.288754,11.861269,10.8312645,0.31825954,-0.4301738,0.036931634,0.6144925,-0.8259713,-0.7162845,-0.30014938,-0.64208764,0.66378117,-0.16358136,1.1987523,-0.7295076,-1.7685877,-1.0040832,2.1548853,1.5598174,-0.94098663,1.1486765,-0.6616085,-1.7100856,-0.97856385,2.209809,1.4980799,-0.92462564,1.1272031,-1.4716278,-1.3049049,-0.453935,-0.92888933,0.46404955,-0.0053082253,0.7643451,-0.5724263,1.2698231,-2.9876916,-0.46258706,-1.6904827,0.12633598,-0.45598292,0.9603588,0.7942388,-0.15234406,0.10468021,0.57880735,0.36204574,-0.88008153,-0.94778365,1.0,0.0,0.0,0.0,0.0,0.0,0.0,-1.414345,0.17242631,-0.71982306,-4.0565968,-0.74379444,3.0775309,-1.7387092,-0.19829273,-0.0055134296,-2.2379887
9.552436,43.476143,12.748007,6.518531,-0.18063247,-0.5926752,0.18642189,0.623346,-0.82486206,-0.71437,-0.3286737,-0.65719277,0.6580449,-0.1486948,1.2110112,-0.7440947,-1.7815226,-1.0114312,2.1440897,1.5638844,-0.9394951,1.1597773,-0.6763533,-1.7229583,-0.98348004,2.2004898,1.5027205,-0.9248135,1.1049249,-1.4756148,-1.2818731,-0.5039552,-0.9334096,0.4635795,-0.023138447,0.73449063,-0.5770488,1.2521945,-2.9847045,-0.4621246,-1.7869786,0.13011864,-0.4646759,0.9507016,0.79409593,-0.14598553,0.10524274,0.58053756,0.39172488,-0.8595654,-0.97893983,1.0,0.0,0.0,0.0,0.0,0.0,0.0,-1.3844906,0.17704877,-0.7021945,-2.1322012,-0.45351982,2.1882534,-4.918349,-0.5960345,-0.21759868,-1.7341446
11.313184,44.232155,13.049618,5.4104915,-0.300179,-0.61113226,0.22379443,0.6149708,-0.8279487,-0.71092063,-0.34038395,-0.658688,0.65947485,-0.15281923,1.2212744,-0.7591481,-1.7940503,-1.0175184,2.134621,1.568668,-0.9400954,1.1707293,-0.6911343,-1.7356708,-0.9889303,2.1911209,1.5073553,-0.92515874,1.0920236,-1.4791254,-1.2679929,-0.5584849,-0.93811923,0.46287158,-0.038149137,0.70466596,-0.58166647,1.2336017,-2.9817202,-0.46166253,-1.8833779,0.13423803,-0.47315788,0.9407125,0.7937667,-0.13940851,0.10590718,0.58248025,0.4260973,-0.8378688,-1.012575,1.0,0.0,0.0,0.0,0.0,0.0,0.0,-1.354666,0.18166646,-0.6836017,-1.2088299,-0.39892197,1.2638807,-5.369079,-0.59536695,-0.2586484,-1.4469113
12.817699,43.829185,12.668057,3.614562,-0.5289329,-0.67978466,0.2634007,0.60505253,-0.8275531,-0.7242206,-0.39091057,-0.6779605,0.65133727,-0.14758681,1.2312346,-0.7738896,-1.8080928,-1.0280213,2.1233249,1.572489,-0.93991745,1.1815764,-0.70593625,-1.7483737,-0.9950519,2.1816604,1.5119749,-0.9256308,1.0825186,-1.4806695,-1.2715479,-0.6297569,-0.94938654,0.46094966,-0.05007962,0.6748711,-0.5862794,1.2140455,-2.9787393,-0.46120095,-1.9796809,0.1387567,-0.4814272,0.9303341,0.7932261,-0.13253134,0.106735945,0.5846668,0.46771964,-0.8160587,-1.0532697,1.0,0.0,0.0,0.0,0.0,0.0,0.0,-1.3248711,0.18627939,-0.6640455,-0.8644104,-0.19381046,-0.5040884,-7.0319295,-1.232028,-0.4206419,-1.1471487
10.258625,46.146164,13.467556,6.1294,-0.3054564,-0.46374768,0.21858145,0.5893046,-0.8236376,-0.71334493,-0.38515362,-0.68399376,0.66174936,-0.10016244,1.2405069,-0.78830004,-1.8197082,-1.0335673,2.113261,1.5781499,-0.9356471,1.1922938,-0.72072583,-1.7611015,-1.0017191,2.172074,1.516585,-0.9261706,1.0685226,-1.478527,-1.2738177,-0.67868775,-0.961886,0.460556,-0.055099197,0.645106,-0.590888,1.1935271,-2.9757612,-0.46073985,-2.0758874,0.1436187,-0.48945332,0.9196033,0.79247993,-0.12540089,0.107757084,0.5870592,0.49911097,-0.7904036,-1.0866774,1.0,0.0,0.0,0.0,0.0,0.0,0.0,-1.2951059,0.19088802,-0.6435271,-1.2992144,0.17209053,-0.36621094,-4.793036,-1.3760805,-0.22798777,-0.45576692
5.2878904,48.530285,14.325171,10.706597,0.16458297,-0.15652767,0.11800425,0.5722932,-0.82332325,-0.6995473,-0.35375863,-0.694628,0.67474145,-0.04317075,1.249523,-0.80305815,-1.8310562,-1.037095,2.1026113,1.5840591,-0.93048763,1.2028185,-0.73548776,-1.7737892,-1.0085512,2.1623504,1.5212065,-0.92670465,1.0476475,-1.4755696,-1.2673961,-0.68445796,-0.9764705,0.46245313,-0.052653346,0.61537075,-0.5954919,1.1720474,-2.972786,-0.46027923,-2.1719975,0.1486554,-0.4972124,0.9086382,0.791574,-0.11817624,0.10894351,0.58955586,0.5117675,-0.76268953,-1.1066334,1.0,0.0,0.0,0.0,0.0,0.0,0.0,-1.2653707,0.19549188,-0.62204736,-1.9789696,0.24209023,0.5428791,-0.47323704,-1.6243696,0.078344345,0.29295385
-0.52431965,47.8687,13.453693,13.595451,0.49260032,-0.0016138256,0.007883787,0.53336734,-0.8183244,-0.71230364,-0.3677544,-0.70011365,0.6665069,-0.0689152,1.2561553,-0.8173202,-1.8450196,-1.0453267,2.092339,1.5878572,-0.9335962,1.2129904,-0.7502001,-1.7864654,-1.0153643,2.1524894,1.5258433,-0.92722726,1.0073618,-1.47005,-1.2678663,-0.6796046,-0.99015087,0.46390012,-0.0520173,0.58566517,-0.60009146,1.1496073,-2.9698136,-0.45981902,-2.2680118,0.15371662,-0.5047221,0.8974943,0.7905904,-0.110911496,0.11030262,0.59202933,0.5101971,-0.7385151,-1.1235898,1.0,0.0,0.0,0.0,0.0,0.0,0.0,-1.2356651,0.20009145,-0.5996073,-3.8821936,0.4856348,-0.12521744,0.616765,-1.5769839,0.057327747,0.095412135
-3.7590876,45.62635,12.270055,14.51426,0.69193584,0.029358,-0.055965826,0.509347,-0.8229875,-0.7212092,-0.37688214,-0.6974224,0.6563098,-0.13892397,1.2639251,-0.83249885,-1.8585863,-1.0530525,2.0827472,1.5914743,-0.9411197,1.2226969,-0.7648867,-1.799197,-1.0221258,2.1425254,1.5304877,-0.9277966,0.95894873,-1.4685123,-1.2751486,-0.6743993,-0.99907774,0.46408352,-0.05848537,0.5559893,-0.60468626,1.1262078,-2.9668446,-0.4593593,-2.36393,0.15870932,-0.51203346,0.8861626,0.7895993,-0.10358638,0.11181814,0.59438986,0.5012351,-0.720011,-1.1429278,1.0,0.0,0.0,0.0,0.0,0.0,0.0,-1.2059894,0.20468625,-0.5762078,-4.6806335,0.077581406,-0.7912636,0.6804347,-1.1191487,-0.07740855,-0.6170377
-8.3998,47.984062,12.886594,18.224146,1.0909674,0.26323116,-0.14394309,0.4788601,-0.8163347,-0.71130073,-0.32441327,-0.70678806,0.6679594,-0.0896018,1.2705829,-0.8465201,-1.870327,-1.0545672,2.0718467,1.5972836,-0.9367568,1.2318674,-0.77954084,-1.8119571,-1.0285937,2.13247,1.5351416,-0.9283955,0.903825,-1.4646751,-1.2762103,-0.63709384,-1.0082364,0.4658063,-0.06020381,0.5263431,-0.6092763,1.1018499,-2.9638784,-0.45890003,-2.4597523,0.16350266,-0.51916313,0.8747193,0.7886619,-0.09628536,0.11346671,0.59654576,0.47727686,-0.70175266,-1.1511279,1.0,0.0,0.0,0.0,0.0,0.0,0.0,-1.1763431,0.20927629,-0.5518499,-5.352378,0.29540062,-0.12681484,3.8879633,-1.1759996,0.13517141,-0.14494434
-11.654358,41.292812,9.577498,15.940754,1.0019224,0.12753752,-0.13327658,0.4123388,-0.82509434,-0.7374262,-0.40664828,-0.70797944,0.6412288,-0.19524345,1.2731013,-0.8620503,-1.8856997,-1.0692585,2.061672,1.5992645,-0.94791985,1.2403017,-0.79420453,-1.8248355,-1.0350844,2.1223419,1.5397879,-0.92908597,0.8239608,-1.4673036,-1.2919906,-0.65230334,-1.0151134,0.4638196,-0.07194874,0.49672654,-0.61386204,1.0765343,-2.960915,-0.45844123,-2.5554788,0.16806497,-0.5261774,0.863048,0.78780985,-0.08885294,0.11526112,0.5984777,0.45391658,-0.69240886,-1.1786755,1.0,0.0,0.0,0.0,0.0,0.0,0.0,-1.1467265,0.21386203,-0.52653426,-7.7717423,-0.36001205,-1.6316652,-1.2949467,-0.96108913,-0.3285408,-1.1611238
-33.836514,34.614506,4.4290915,23.531698,1.9856131,0.55245984,-0.39824706,0.23784868,-0.8223599,-0.7418593,-0.40994865,-0.71704787,0.6373867,-0.21260084,1.2640866,-0.8764405,-1.8990215,-1.0760792,2.050637,1.6035266,-0.95034605,1.2472674,-0.808893,-1.8378837,-1.0418135,2.11213,1.5444113,-0.92990613,0.65528166,-1.4698762,-1.3092861,-0.6786262,-1.0244968,0.46144694,-0.08544072,0.4671396,-0.618443,1.0502621,-2.9579546,-0.45798287,-2.6511095,0.17205022,-0.5332041,0.85107535,0.7872344,-0.08115599,0.11724305,0.5999415,0.3842341,-0.6973412,-1.2095957,1.0,0.0,0.0,0.0,0.0,0.0,0.0,-1.1171396,0.218443,-0.5002621,-16.50505,-0.40602684,-1.7582893,-2.283287,-1.3566494,-0.3546059,-1.3800457
-97.16482,11.699604,-12.049092,42.25872,4.5721245,1.5937796,-1.0361905,-0.24280252,-0.82553464,-0.74606335,-0.5503252,-0.7106809,0.6067767,-0.2177884,1.222987,-0.8914465,-1.91249,-1.096846,2.0410619,1.605089,-0.95168495,1.2505099,-0.8236292,-1.851094,-1.0494372,2.1018379,1.5489832,-0.9308598,0.21661654,-1.4758646,-1.3246651,-0.7876162,-1.0339358,0.4552237,-0.09909479,0.43758225,-0.6230192,1.0230343,-2.9549973,-0.45752499,-2.7466447,0.17440045,-0.5406008,0.83862,0.7874619,-0.07284422,0.11949095,0.600266,0.1885394,-0.7450578,-1.2633536,1.0,0.0,0.0,0.0,0.0,0.0,0.0,-1.0875822,0.22301921,-0.47303432,-43.03856,-0.92389584,-1.5269518,-10.123348,-1.8266916,-0.83052516,-1.4940813
-130.88303,5.2203217,-18.721043,50.01037,5.8402615,2.4160824,-1.0565894,-0.58294505,-0.8123113,-0.6905044,-0.7316094,-0.6646445,0.5662418,0.15193157,1.1922153,-0.9048603,-1.9201444,-1.122598,2.0353734,1.6056074,-0.91566664,1.2481714,-0.8383644,-1.8641517,-1.0589186,2.091584,1.5534521,-0.93165517,-0.3803791,-1.4744565,-1.2992992,-0.9978477,-1.0267557,0.4426658,-0.073149435,0.40805444,-0.62759113,0.994852,-2.952043,-0.45706755,-2.8420844,0.17429721,-0.54853344,0.82553357,0.78867865,-0.06359195,0.12193884,0.599227,-0.07556858,-0.8006181,-1.3295549,1.0,0.0,0.0,0.0,0.0,0.0,0.0,-1.0580544,0.22759113,-0.444852,-58.586838,-0.35722256,2.5540829,-19.876099,-0.58193207,-1.7276347,2.5329618
-99.01245,35.194115,-1.5099262,42.309345,4.986442,2.9228535,-0.4041347,-0.6082786,-0.7960567,-0.47798717,-0.7708548,-0.57541,0.6121113,0.38581192,1.1873436,-0.91797006,-1.9119505,-1.1360041,2.034043,1.6146632,-0.893074,1.240708,-0.8529938,-1.8759239,-1.07046,2.0816963,1.557841,-0.93198514,-0.8654398,-1.4603714,-1.1372908,-1.203082,-0.9793542,0.43632475,-0.018906495,0.37855616,-0.6321583,0.96571606,-2.9490917,-0.45661056,-2.9374285,0.17191054,-0.55659056,0.8121219,0.79041094,-0.053786665,0.12409829,0.5974588,-0.2950305,-0.79812664,-1.35057,1.0,0.0,0.0,0.0,0.0,0.0,0.0,-1.0285561,0.23215827,-0.41571605,-47.648655,0.99601746,16.031742,-19.555378,3.6663532,-1.0199845,5.6522665
-57.371387,54.733444,11.44322,30.792364,3.486839,2.5084493,0.030831419,-0.60800743,-0.7881501,-0.47272015,-0.76277673,-0.5475812,0.6365515,0.47075924,1.1799072,-0.93180877,-1.9231958,-1.1467376,2.0269382,1.6214961,-0.8849092,1.2298437,-0.8674353,-1.8860996,-1.0835463,2.0723846,1.5622069,-0.93171906,-1.1584464,-1.4395411,-0.97874177,-1.3414991,-0.91712826,0.43592367,0.04286072,0.34908736,-0.63672113,0.9356274,-2.9461432,-0.45615405,-3.0326774,0.16793469,-0.5643797,0.7986826,0.7921821,-0.043866705,0.1256658,0.59559315,-0.4363758,-0.7623205,-1.3465513,1.0,0.0,0.0,0.0,0.0,0.0,0.0,-0.99908733,0.23672113,-0.3856274,-28.788853,1.8542528,15.545392,-13.19983,5.625677,-0.22335052,6.523042
-28.398165,53.780567,13.188974,20.346945,2.1059513,1.4598418,0.13123733,-0.6238261,-0.79023194,-0.6112492,-0.7609522,-0.5553284,0.6424609,0.4573701,1.1674612,-0.94645846,-1.9472245,-1.1596415,2.0168517,1.6264529,-0.88598204,1.2173086,-0.88170034,-1.8956726,-1.0974756,2.063607,1.5665823,-0.9308989,-1.2842562,-1.4225897,-0.95103776,-1.408729,-0.8656177,0.43754852,0.09596154,0.319648,-0.6412792,0.9045869,-2.9431975,-0.45569798,-3.1278312,0.16305661,-0.57185936,0.78516674,0.793822,-0.033840436,0.12675677,0.59383,-0.51066834,-0.73192966,-1.3572643,1.0,0.0,0.0,0.0,0.0,0.0,0.0,-0.969648,0.24127921,-0.3545869,-12.299085,1.5789032,2.5351286,-6.2868357,4.8201084,0.009590387,5.574852
-15.508309,46.785614,10.807963,14.80805,1.397604,0.6889832,0.079042524,-0.66349846,-0.7970739,-0.6977171,-0.762718,-0.5584943,0.63782036,0.42434084,1.1509588,-0.9614077,-1.9654443,-1.1737474,2.0077577,1.6303644,-0.8884648,1.2042166,-0.89587575,-1.9057872,-1.1116835,2.0552185,1.5709692,-0.92964005,-1.3168961,-1.4161663,-1.0319904,-1.4237342,-0.83078927,0.43845144,0.13642496,0.29023808,-0.645833,0.87259555,-2.9402547,-0.45524237,-3.2228897,0.1576874,-0.57915306,0.77138364,0.79534256,-0.023528583,0.12758733,0.59211326,-0.55176365,-0.71647537,-1.3887769,1.0,0.0,0.0,0.0,0.0,0.0,0.0,-0.94023806,0.24583301,-0.32259554,-3.0885458,0.55844784,-8.203995,-1.1392593,3.2247424,-0.1211822,4.2136445
-14.150784,43.169735,9.06673,14.137547,1.4181176,0.46313298,-0.031935953,-0.7120115,-0.79620284,-0.7361213,-0.76186514,-0.49449512,0.6217743,0.3442511,1.1330154,-0.97549605,-1.9793993,-1.18787,2.005769,1.6331466,-0.8952149,1.1910082,-0.9100302,-1.9170463,-1.125817,2.047261,1.5753504,-0.92809606,-1.3216672,-1.4154774,-1.1572014,-1.408741,-0.7853543,0.43704927,0.1608296,0.26085758,-0.65038204,0.8396543,-2.9373152,-0.45478722,-3.3178532,0.15192555,-0.5863724,0.7572263,0.7968288,-0.012820591,0.12819986,0.5903086,-0.59048754,-0.71100265,-1.4279662,1.0,0.0,0.0,0.0,0.0,0.0,0.0,-0.91085756,0.25038204,-0.2896543,-0.33056736,-0.025177002,-12.546396,1.8563986,4.2823315,-0.40940046,2.5796862
-20.108952,44.71146,9.114407,17.273071,1.8929265,0.7248671,-0.172144,-0.7667513,-0.79233795,-0.74617696,-0.74186504,-0.4326702,0.6138684,0.26739645,1.114333,-0.989264,-1.991664,-1.2000034,2.003994,1.6367372,-0.9013564,1.1776415,-0.9241846,-1.9294593,-1.1396338,2.0398567,1.5797087,-0.9264109,-1.3411237,-1.4158101,-1.2692671,-1.3712686,-0.7263583,0.4344933,0.17160076,0.23150645,-0.6549263,0.8057642,-2.9343786,-0.45433253,-3.4127219,0.14564846,-0.59355164,0.74274105,0.7983938,-0.0017648925,0.12850572,0.58826053,-0.6464365,-0.706875,-1.4586406,1.0,0.0,0.0,0.0,0.0,0.0,0.0,-0.88150644,0.2549263,-0.2557642,-1.795578,-0.15702248,-11.185455,4.1275024,5.612004,-0.5462885,1.2353957
-20.897442,50.26121,11.654743,18.512997,2.071864,1.0440055,-0.19170487,-0.78674793,-0.7831743,-0.7568607,-0.7304297,-0.374963,0.6092244,0.23867515,1.0989667,-1.0025021,-2.0051453,-1.2126768,2.0023603,1.6406311,-0.9025434,1.1640173,-0.9383047,-1.9427421,-1.1530424,2.0331275,1.5840403,-0.9246676,-1.369179,-1.4111531,-1.3479166,-1.3295356,-0.6561523,0.4318426,0.17576456,0.20218466,-0.65946627,0.7709261,-2.931445,-0.45387828,-3.5074956,0.1387688,-0.60063076,0.72804826,0.8000759,0.009505046,0.12838742,0.5859223,-0.7081236,-0.69431585,-1.4762411,1.0,0.0,0.0,0.0,0.0,0.0,0.0,-0.85218465,0.25946626,-0.2209261,-2.6726723,0.34184456,-7.840657,4.5253277,6.753981,-0.5278647,0.59797764
-19.733717,52.552296,13.499541,18.259312,2.375829,1.2226164,-0.19396806,-0.79834104,-0.7918832,-0.7664124,-0.72246784,-0.20065974,0.5742054,0.083533034,1.0841832,-1.017493,-2.0193834,-1.2252892,2.0130615,1.6414608,-0.9163143,1.150054,-0.9523792,-1.9568357,-1.1662706,2.0278938,1.588064,-0.9231587,-1.4147351,-1.3974764,-1.4971253,-1.3665503,-0.4128538,0.2838986,0.12964413,0.17687228,-0.66343737,0.74422103,-1.7339263,-0.13264485,-0.120042294,0.13122019,-0.60766935,0.71314013,0.8019772,0.02114689,0.12741823,0.5832236,-0.7709468,-0.7202218,-1.5243912,0.0,1.0,0.0,0.0,0.0,0.0,0.0,-0.8268722,0.26343736,-0.19422102,-6.0021877,2.6901484,-25.394558,-10.613656,35.950882,-29.26907,-7.712653
23.77275,176.0,110.0,110.0,6.033206,12.372713,-1.9089379,-0.7314716,0.498832,0.7255644,0.6410758,-0.3584975,0.67303437,-0.40551445,1.0769068,-0.90249604,-1.8842793,-1.1021631,1.992044,1.6553674,-0.9637101,1.1390676,-0.9690609,-1.9626589,-1.1661562,2.0142524,1.5983407,-0.9212285,-0.98155826,-1.6762145,-0.41471845,0.43951687,-1.5569633,1.3394771,0.24557945,0.15954603,-0.6647625,0.7422851,-1.7321928,-0.13251223,-0.2181082,0.1223519,-0.61311245,0.7025001,0.80439997,0.023379274,0.12809485,0.5796428,-0.93173885,-0.4701067,-0.91484934,0.0,1.0,0.0,0.0,0.0,0.0,0.0,-0.809546,0.2647625,-0.19228506,46.86054,-3.2092571,67.046844,171.18484,-77.09484,124.68423,21.037111
-55.31419,162.154,61.504864,93.82331,8.876464,5.237088,-2.3593783,-0.7964263,-0.6894752,-0.043397766,0.70628846,-0.46268183,0.6143165,-0.38394174,1.059425,-1.0380085,-1.9669987,-1.0955273,1.9679842,1.6597724,-0.9596227,1.1292067,-0.9853716,-1.9632826,-1.1549505,1.998357,1.611841,-0.9191772,-0.9859772,-1.6168983,0.05697206,1.3492779,-1.6026789,1.3580158,0.19420232,0.1422371,-0.6660867,0.7393692,-1.7304609,-0.13237974,-0.31607607,0.11146928,-0.617702,0.69629043,0.808287,0.01894942,0.12945989,0.57406706,-1.1410576,-0.4446371,-0.5265656,0.0,1.0,0.0,0.0,0.0,0.0,0.0,-0.79223704,0.26608667,-0.1893692,0.019729137,5.6920767,47.7233,91.51418,-5.3082466,3.1987429,-4.366949
-70.872055,133.88281,34.503025,69.554214,6.4952707,2.914439,-1.9520696,-0.7982966,-0.5569944,-0.33834407,0.67205995,-0.5062294,0.61561996,-0.07245386,1.049377,-1.041071,-1.997117,-1.0877445,1.9477341,1.6734029,-0.92642254,1.1185179,-0.9997864,-1.9627771,-1.1383032,1.9836628,1.6248376,-0.9174758,-1.0946172,-1.3840373,0.04791856,1.7722244,-1.4259543,1.2824333,0.16293691,0.12494546,-0.6674094,0.7354744,-1.7287308,-0.13224739,-0.413946,0.09873995,-0.62214327,0.69263136,0.813699,0.012610083,0.1311609,0.5661551,-1.3178692,-0.43589008,-0.31855145,0.0,1.0,0.0,0.0,0.0,0.0,0.0,-0.77494544,0.2674094,-0.1854744,-10.28738,22.994041,-1.040665,42.99388,17.377424,-6.8718195,-2.9037623
-44.325794,116.96299,34.252472,42.31267,4.4109626,2.4147668,-0.8359102,-0.78841746,-0.63485134,0.18568891,0.73726547,-0.47340828,0.5669225,-0.1382552,1.0396762,-1.0632715,-1.9442083,-1.0645766,1.936322,1.6815299,-0.93130136,1.1064806,-1.0123367,-1.9612627,-1.1200479,1.9712918,1.6366823,-0.9161483,-1.2391908,-1.2129194,0.18605226,1.8442285,-1.1761878,1.1527783,0.12333608,0.10767111,-0.66873074,0.7306016,-1.7270024,-0.13211517,-0.5117181,0.08477472,-0.62621164,0.6905383,0.8199308,0.005773545,0.13253716,0.55687875,-1.4247168,-0.38797387,-0.17984134,0.0,1.0,0.0,0.0,0.0,0.0,0.0,-0.7576711,0.26873073,-0.1806016,-14.152503,16.810131,13.84197,7.5516224,24.358727,-12.684131,-3.7701547
-23.687706,80.80767,21.664448,17.59093,1.8949127,1.2177511,-0.1483617,-0.79392064,-0.6362286,0.11395328,0.67932826,-0.49763703,0.60619354,-0.25848028,1.0270885,-1.0759596,-1.9498674,-1.0521151,1.9215281,1.6973016,-0.94199634,1.0931768,-1.0236721,-1.9590025,-1.1027883,1.9611027,1.6473081,-0.9152776,-1.3606828,-1.1078464,0.23936886,1.6870201,-0.96781796,1.0329419,0.07517968,0.09041404,-0.6700511,0.7247518,-1.7252758,-0.13198309,-0.60939246,0.07025332,-0.6298108,0.6889769,0.82637763,-0.0006478413,0.13330732,0.5471094,-1.464291,-0.34042785,-0.15470502,0.0,1.0,0.0,0.0,0.0,0.0,0.0,-0.740414,0.2700511,-0.17475176,-12.08961,10.322785,5.3149996,-15.623856,20.414055,-11.818361,-4.781322
0.5945401,77.66587,24.999287,6.584671,0.5367108,0.9268705,0.26692986,-0.78106356,-0.5969427,0.2576051,0.69847023,-0.51113397,0.5989838,-0.28664374,1.0150704,-1.0833664,-1.933242,-1.0329413,1.9099894,1.7072065,-0.94394195,1.0790615,-1.0342466,-1.9559772,-1.0875688,1.9522957,1.6563454,-0.91466796,-1.4288148,-1.0411512,0.324006,1.4666927,-0.8508687,0.86359566,0.054490257,0.0711051,-0.66994476,0.7250823,-1.9760894,0.055651505,0.24790911,0.05583048,-0.6329155,0.68747187,0.8325953,-0.006155599,0.13356471,0.5375012,-1.4385666,-0.28968626,-0.15429166,0.0,1.0,0.0,0.0,0.0,0.0,0.0,-0.7211051,0.26994476,-0.17508227,-6.8767786,6.281233,11.180252,-20.36631,12.925458,-10.116458,-4.7234244
3.7128954,116.98045,36.193344,14.659692,0.07475284,1.2151647,-0.014569974,-0.80410343,-0.29744104,0.12140231,0.7547641,-0.499296,0.61195403,-0.34989423,0.99865115,-1.0639907,-1.9438369,-1.0120924,1.902366,1.7175407,-0.9496574,1.0644913,-1.043089,-1.9527481,-1.0738969,1.944403,1.664341,-0.9144782,-1.4668744,-0.83259535,0.32332498,1.3338981,-0.77068096,0.7792196,0.0065024802,0.051359028,-0.6693888,0.7268151,-1.9741136,0.055595864,0.1484101,0.04174228,-0.63525057,0.6865094,0.8386169,-0.011206169,0.13408032,0.5278432,-1.4017465,-0.20422556,-0.08117297,0.0,1.0,0.0,0.0,0.0,0.0,0.0,-0.70135903,0.26938877,-0.1768151,-3.9198875,20.623375,0.19270778,-13.31501,7.4639797,-8.11001,-4.9939833
2.4452639,127.8235,37.54593,19.467508,-0.0070402324,1.062293,-0.2203954,-0.8034113,-0.17704743,0.0038130637,0.76394564,-0.4991994,0.6091537,-0.30736458,0.9841502,-1.0607938,-1.9523667,-0.9975023,1.8944831,1.7252563,-0.9452146,1.0497551,-1.0494806,-1.950278,-1.0609727,1.9370254,1.6716557,-0.91471183,-1.4761286,-0.575483,0.22244787,1.2786742,-0.7283395,0.7165479,-0.034054924,0.03163269,-0.66883326,0.7275536,-1.97214,0.05554028,0.04901056,0.028055504,-0.63675547,0.6863963,0.84454584,-0.015965996,0.13559853,0.5177842,-1.3598845,-0.12255591,0.00857523,0.0,1.0,0.0,0.0,0.0,0.0,0.0,-0.68163264,0.26883325,-0.1775536,-1.0426283,25.473763,-9.8201275,-5.5149555,3.7589073,-5.9658885,-4.29881
-4.1872053,123.916145,32.707283,22.594059,-0.025277734,0.67300385,-0.3979037,-0.8069443,-0.056600977,-0.1796847,0.77050996,-0.5139335,0.60213536,-0.2593119,0.96906066,-1.0551406,-1.9682465,-0.9839217,1.885632,1.7318692,-0.940643,1.0350304,-1.0531904,-1.9497325,-1.0481629,1.9298404,1.678442,-0.91527164,-1.4715741,-0.30368292,-0.0006887489,1.2819226,-0.7163927,0.66666883,-0.06422316,0.011926081,-0.6682782,0.72729886,-1.9701682,0.05548475,-0.050289597,0.014741042,-0.63756704,0.6870788,0.8504709,-0.020217126,0.13865426,0.50701624,-1.3233702,-0.057793625,0.08560302,0.0,1.0,0.0,0.0,0.0,0.0,0.0,-0.66192603,0.2682782,-0.17729884,0.34806728,26.94627,-22.091871,0.3528118,0.825572,-4.795563,-3.291963
-12.4844265,86.50485,18.21257,19.914722,0.25737843,-0.0075745583,-0.45212698,-0.8077069,-0.093126394,-0.30627027,0.78395486,-0.52046186,0.62003785,-0.3074886,0.9542597,-1.062503,-1.9803596,-0.96976745,1.8777943,1.7404457,-0.9460205,1.0203947,-1.0549878,-1.9519095,-1.035091,1.9229645,1.6848266,-0.9161572,-1.461169,-0.1389745,-0.29183644,1.3149276,-0.67334044,0.6288908,-0.09783222,-0.006112338,-0.6670184,0.72819346,-1.7234341,0.1629284,0.18973592,0.0015637679,-0.63805914,0.68803203,0.8565034,-0.023598343,0.14304782,0.4953606,-1.3169693,-0.037391204,0.09630723,0.0,1.0,0.0,0.0,0.0,0.0,0.0,-0.64388764,0.2670184,-0.17819345,1.0178089,16.230028,-27.999527,3.6345482,0.06006956,-4.1975737,-3.0254393
-12.423466,68.18787,14.01774,17.216015,0.7794504,-0.07259631,-0.34724835,-0.8100317,-0.08214715,-0.29290995,0.77781,-0.42156318,0.6204553,-0.34005868,0.9393915,-1.0632025,-1.9812006,-0.95731,1.8808081,1.7468722,-0.95016307,1.0058511,-1.0557946,-1.9563594,-1.0216709,1.9165043,1.6908559,-0.9173282,-1.452282,-0.061791636,-0.49549016,1.3512329,-0.6375787,0.5939825,-0.12408582,-0.023228385,-0.66524553,0.73002267,-1.7076776,0.18208726,0.18033807,-0.0116420025,-0.6384249,0.68894213,0.8626169,-0.026117936,0.14823484,0.48294532,-1.3216307,-0.02650073,0.08830931,0.0,1.0,0.0,0.0,0.0,0.0,0.0,-0.62677157,0.26524553,-0.18002266,0.8668661,7.5668054,-20.220512,3.6444426,3.3907533,-3.571248,-2.7916403
-14.00732,50.383278,9.157476,14.465973,1.0871159,-0.13650072,-0.25185907,-0.81815684,-0.091943376,-0.36053574,0.7725908,-0.36364928,0.623979,-0.36549872,0.9240355,-1.064989,-1.9924129,-0.9444119,1.8801394,1.7532537,-0.95387805,0.9913353,-1.0563765,-1.96244,-1.007976,1.9104973,1.6965818,-0.91874415,-1.4513204,-0.057406712,-0.64521736,1.3757218,-0.58881396,0.565035,-0.14774984,-0.04024736,-0.6633315,0.73154664,-1.6998618,0.19459406,0.1433473,-0.025004394,-0.63875914,0.6895853,0.86875784,-0.02786676,0.1537256,0.46994853,-1.3406774,-0.02568041,0.055957343,0.0,1.0,0.0,0.0,0.0,0.0,0.0,-0.6097526,0.2633315,-0.18154663,0.100541115,0.3203325,-14.835167,2.4809122,4.7274947,-3.0195117,-2.4787397
-7.9703436,55.882984,13.7857685,13.462953,1.2693577,0.1998238,-0.11813995,-0.81281376,-0.068987526,-0.3180545,0.77611667,-0.3218475,0.63771266,-0.37795874,0.9100539,-1.0632752,-1.9942454,-0.9303644,1.8783126,1.7603531,-0.95654005,0.976828,-1.0570688,-1.9692186,-0.9941143,1.9050212,1.7020622,-0.92037314,-1.4507308,-0.073490955,-0.68768346,1.3895684,-0.53479356,0.54187065,-0.16827065,-0.05714623,-0.6612444,0.732841,-1.686356,0.21355566,0.12527263,-0.038529076,-0.63898706,0.6900382,0.874839,-0.029166266,0.15913431,0.45659858,-1.3557699,-0.011295081,0.041854203,0.0,1.0,0.0,0.0,0.0,0.0,0.0,-0.5928537,0.2612444,-0.182841,0.012636185,-1.7437682,-3.9234161,1.3820887,5.101216,-2.4851441,-2.1381407
-7.9691815,50.681393,12.336927,12.250472,1.3071837,0.20015144,-0.057162635,-0.81659245,-0.09116511,-0.3774651,0.7769406,-0.29060856,0.6251833,-0.35243085,0.8951687,-1.0661854,-2.0069652,-0.9164202,1.8759604,1.7645806,-0.95561624,0.9623016,-1.0580837,-1.9762698,-0.980181,1.9000807,1.7073358,-0.9221614,-1.4534154,-0.11119928,-0.7098691,1.3945903,-0.48133796,0.5219506,-0.18259811,-0.07392394,-0.65898275,0.733879,-1.6745468,0.23061013,0.09775188,-0.052223634,-0.63908243,0.6902887,0.8808114,-0.030145412,0.16427109,0.4430321,-1.3733417,0.002038641,0.019706892,0.0,1.0,0.0,0.0,0.0,0.0,0.0,-0.57607603,0.25898275,-0.18387902,-0.3099203,-3.8924694,-1.8932462,0.5116701,5.055475,-2.1584392,-1.4978886
-4.7065315,62.831528,16.712942,13.063641,1.1927731,0.4346462,-0.009274807,-0.8170512,-0.053133164,-0.3759092,0.77516174,-0.29425558,0.6268906,-0.34307337,0.8805965,-1.0633969,-2.0138607,-0.9026648,1.8706552,1.7700249,-0.95646876,0.9477418,-1.05927,-1.9833516,-0.9662552,1.8955632,1.7124363,-0.9240644,-1.457143,-0.12156368,-0.7061963,1.391824,-0.4431066,0.50553364,-0.19316246,-0.09051882,-0.6564956,0.734812,-1.6539975,0.2550368,0.09312659,-0.06601127,-0.63894033,0.6904661,0.8866177,-0.03093392,0.16919991,0.4293291,-1.379811,0.029452903,0.01742234,0.0,1.0,0.0,0.0,0.0,0.0,0.0,-0.55948114,0.25649557,-0.18481201,-0.4627943,-1.1909336,0.82616806,-0.31371117,3.413701,-1.8213987,-1.153031
-2.3682997,62.964447,17.1964,12.403938,1.1686919,0.45409548,0.022553612,-0.8112493,-0.08442905,-0.35603935,0.7810769,-0.2788003,0.62337816,-0.35710415,0.86661685,-1.0677129,-2.0189555,-0.8881475,1.8676832,1.7747741,-0.9597748,0.93317634,-1.0606205,-1.990231,-0.9523485,1.8913643,1.7173963,-0.92606646,-1.4566598,-0.14016771,-0.680291,1.3901664,-0.4134441,0.49199194,-0.2028323,-0.106889986,-0.6537709,0.7357067,-1.6312712,0.2798569,0.08966373,-0.079836205,-0.6385126,0.690631,0.8922239,-0.031642143,0.17392309,0.41555488,-1.3823832,0.058391724,0.016435705,0.0,1.0,0.0,0.0,0.0,0.0,0.0,-0.54311,0.25377092,-0.18570668,-0.05095005,-2.011001,3.0856967,-0.20883083,2.5315106,-1.5377045,-1.062581
2.3590658,85.29989,24.552414,14.837223,1.0481169,0.7791539,0.050564818,-0.81124973,-0.004473409,-0.31924522,0.7759313,-0.30624998,0.63322484,-0.33459032,0.8520514,-1.0610679,-2.0221555,-0.8747553,1.8607394,1.7807188,-0.95952547,0.91862136,-1.0617402,-1.9966718,-0.9384886,1.8873122,1.7222463,-0.92813754,-1.4557127,-0.103320606,-0.629792,1.3841039,-0.40445986,0.4817926,-0.20895544,-0.12291862,-0.6507087,0.7368702,-1.5930578,0.31663367,0.12665114,-0.09354811,-0.6376457,0.69105285,0.8975648,-0.03245584,0.17864132,0.40175998,-1.3661739,0.10721906,0.050976623,0.0,1.0,0.0,0.0,0.0,0.0,0.0,-0.5270814,0.25070867,-0.18687022,-0.08075237,3.4759924,5.7557464,-0.7274151,0.27058125,-1.2113094,-0.7772535
-2.4082334,60.95542,15.831854,11.773574,1.0555172,0.38368315,0.058329694,-0.81791854,-0.11050188,-0.3543699,0.7670226,-0.26822704,0.6115678,-0.33519325,0.8368295,-1.0727904,-2.0321088,-0.86178637,1.8604895,1.783403,-0.96165687,0.9040492,-1.0629418,-2.0028245,-0.92471725,1.8833778,1.726997,-0.93025935,-1.457971,-0.12637147,-0.6088363,1.3747096,-0.39110896,0.47215822,-0.21348624,-0.13867466,-0.64738274,0.73804575,-1.5693314,0.33964545,0.1162414,-0.10721506,-0.63645077,0.6915015,0.9026642,-0.03323081,0.18325882,0.387955,-1.3653295,0.1345857,0.043072924,0.0,1.0,0.0,0.0,0.0,0.0,0.0,-0.5113253,0.24738273,-0.18804574,-0.32060146,-2.4432034,2.577114,-0.98114014,0.91441274,-1.0994732,-0.558424
-1.339885,67.74628,17.493744,12.733395,0.991281,0.4295791,0.061636902,-0.8128257,-0.064093634,-0.34433094,0.76968557,-0.27888632,0.61689526,-0.30140355,0.82276666,-1.0693512,-2.0372577,-0.8477487,1.8554891,1.7886865,-0.9603997,0.88947517,-1.0642178,-2.008836,-0.9110165,1.8795202,1.7316675,-0.93239444,-1.4575754,-0.12866797,-0.5969238,1.3682468,-0.38526922,0.4647406,-0.21380362,-0.15415528,-0.64380455,0.73919845,-1.5403823,0.36558005,0.11676861,-0.12082891,-0.63494635,0.6919416,0.9075194,-0.033914782,0.18782997,0.37413666,-1.3582734,0.16655722,0.04445086,0.0,1.0,0.0,0.0,0.0,0.0,0.0,-0.4958447,0.24380454,-0.18919843,-0.072956085,-0.38577914,1.7215848,-0.70569515,0.1201272,-0.8999884,-0.15125275
-1.7474251,56.033665,14.318175,10.953724,1.1990806,0.2944579,0.06961703,-0.81200844,-0.13369264,-0.2929924,0.76655626,-0.21217187,0.6158263,-0.32424498,0.8082743,-1.0775871,-2.0381353,-0.8343609,1.858303,1.7932502,-0.96481895,0.87491536,-1.0658219,-2.0145612,-0.8973682,1.8758854,1.7362753,-0.93454325,-1.4557612,-0.17127672,-0.56290764,1.363647,-0.35733896,0.4587385,-0.21534872,-0.16940439,-0.6400132,0.7401979,-1.5191257,0.38525277,0.09625123,-0.13444863,-0.6331868,0.69227713,0.91216016,-0.03454579,0.19214597,0.3603475,-1.3611946,0.18991247,0.030221479,0.0,1.0,0.0,0.0,0.0,0.0,0.0,-0.4805956,0.24001321,-0.19019789,0.102329254,-4.3820915,3.8621187,-0.47872066,2.415657,-0.77522993,-0.20648539
-7.7098737,54.90882,11.767477,12.564097,1.0840342,0.18496156,0.018603206,-0.8242409,-0.110870354,-0.39110935,0.76970476,-0.24097529,0.59119904,-0.27097434,0.79249126,-1.076909,-2.053672,-0.82039773,1.8517878,1.7953953,-0.9616407,0.86031836,-1.0677254,-2.0204465,-0.88372946,1.8724259,1.7408133,-0.936667,-1.461246,-0.19708677,-0.5958509,1.3639054,-0.34294382,0.4515108,-0.21157281,-0.18445846,-0.6360383,0.74094117,-1.5001241,0.4031369,0.06917635,-0.14813265,-0.6312151,0.6924106,0.9166081,-0.03493607,0.19634,0.34649613,-1.368696,0.21039446,0.00789854,0.0,1.0,0.0,0.0,0.0,0.0,0.0,-0.4655415,0.2360383,-0.19094115,-0.5992651,-2.7077823,-2.927339,0.037527084,1.1320591,-0.8846164,0.3101349
-5.087878,59.94828,13.542726,12.735147,1.07653,0.24018306,0.036766812,-0.8146876,-0.11619479,-0.35399356,0.7711909,-0.2311593,0.59119976,-0.26167706,0.7788496,-1.0793449,-2.055846,-0.80661035,1.84931,1.7999332,-0.9628347,0.8457061,-1.0698254,-2.0265608,-0.8700697,1.8690993,1.745286,-0.93874526,-1.4614772,-0.21486901,-0.6152423,1.3665457,-0.33034465,0.4451999,-0.20672353,-0.19928722,-0.63186836,0.7414828,-1.4762939,0.4232481,0.051377714,-0.16184704,-0.6290078,0.692388,0.92084944,-0.0350845,0.20049325,0.33257732,-1.3700292,0.23486938,-0.0056247967,0.0,1.0,0.0,0.0,0.0,0.0,0.0,-0.45071274,0.23186836,-0.19148278,-0.0970602,-1.9183308,-1.4945388,0.25451183,0.88585615,-0.81184506,0.40813982
-10.164403,44.75818,7.8806353,11.234745,1.01701,0.011329412,0.030634474,-0.82713217,-0.18204589,-0.42210698,0.76400745,-0.20580404,0.5727038,-0.25064608,0.76299286,-1.08803,-2.0687714,-0.7936689,1.8485188,1.8025564,-0.96380985,0.83104527,-1.0723318,-2.033145,-0.8564088,1.865923,1.7496893,-0.94076914,-1.467653,-0.26300704,-0.6721716,1.3661362,-0.31400558,0.43812805,-0.20108299,-0.21396205,-0.6275563,0.7416207,-1.4637755,0.4350557,0.0037076364,-0.17567137,-0.62664366,0.6920224,0.92490894,-0.034832753,0.2045549,0.31857076,-1.3841013,0.24782588,-0.046817098,0.0,1.0,0.0,0.0,0.0,0.0,0.0,-0.43603793,0.22755632,-0.19162071,-0.6345749,-4.917884,-5.421889,0.007891655,1.4011741,-0.8526325,0.51320493
-5.85536,59.47189,12.469082,12.639158,0.99214995,0.1856032,0.061190154,-0.81681377,-0.13823515,-0.4123661,0.768162,-0.21177626,0.5729264,-0.19521701,0.7493639,-1.0861553,-2.0743816,-0.7795926,1.8447454,1.806982,-0.96029085,0.81637293,-1.075065,-2.0401938,-0.8427432,1.862877,1.7540284,-0.9427005,-1.4673897,-0.27726755,-0.7142933,1.3665415,-0.3023728,0.43193135,-0.19073577,-0.22842388,-0.6230788,0.7414764,-1.4392725,0.45348537,-0.017887035,-0.1895333,-0.62407064,0.6914205,0.928755,-0.034225468,0.20861076,0.3045067,-1.3842261,0.27147156,-0.064451545,0.0,1.0,0.0,0.0,0.0,0.0,0.0,-0.42157608,0.22307882,-0.1914764,-0.048565865,-1.5704632,-3.763461,0.030517578,0.77705383,-0.8091092,0.94490945
-8.223763,39.949223,6.9209366,9.593943,1.0238491,-0.029958606,0.07892781,-0.8226405,-0.24908675,-0.42984977,0.7642341,-0.16575193,0.5676743,-0.20653792,0.73410887,-1.0999737,-2.0831788,-0.7663198,1.8463018,1.8107959,-0.9633543,0.8016911,-1.0783514,-2.0476203,-0.82908434,1.8600354,1.7583084,-0.9445415,-1.4684899,-0.3461067,-0.7512312,1.3657988,-0.2786615,0.42623287,-0.1819912,-0.24274684,-0.6184864,0.7408519,-1.4289674,0.46236464,-0.07438655,-0.20350799,-0.62135553,0.69041705,0.93241817,-0.033237435,0.21246569,0.2904304,-1.3990158,0.28264776,-0.11214145,0.0,1.0,0.0,0.0,0.0,0.0,0.0,-0.40725315,0.2184864,-0.19085187,-0.122499466,-6.9763184,-3.4176707,-0.0103235245,2.1357656,-0.7226169,0.84472895
-7.9904327,35.137276,5.496339,8.215361,0.90613484,-0.07033378,0.12931794,-0.8223801,-0.27700457,-0.46135274,0.75491613,-0.1567857,0.55990833,-0.12848108,0.7194531,-1.1060518,-2.0937555,-0.7535927,1.8443569,1.8142992,-0.9573896,0.7870036,-1.0823969,-2.0554428,-0.81547594,1.8574257,1.7625331,-0.9462467,-1.4689143,-0.4243517,-0.79166186,1.3594301,-0.25546527,0.42070916,-0.16668977,-0.25698668,-0.61382294,0.7396003,-1.4212177,0.4687333,-0.13894087,-0.2176337,-0.6185441,0.6888752,0.9359091,-0.03180746,0.21601869,0.27640226,-1.414133,0.29190326,-0.16800068,0.0,1.0,0.0,0.0,0.0,0.0,0.0,-0.3930133,0.21382293,-0.18960029,-0.042796135,-7.905549,-3.8086176,-0.553751,2.1184564,-0.69543123,1.5130997
-5.01523,39.77019,7.028596,8.030171,0.78605497,-0.020441592,0.17435099,-0.81297034,-0.29408112,-0.46670812,0.75721633,-0.17966281,0.5460336,-0.05889123,0.70570654,-1.111805,-2.1021137,-0.7397543,1.8394594,1.8171364,-0.9521358,0.77235705,-1.0871614,-2.0635903,-0.8019209,1.8549409,1.7666984,-0.94775575,-1.4633512,-0.4940272,-0.82185537,1.3543994,-0.2466173,0.41475293,-0.14579675,-0.27110976,-0.6090832,0.7377669,-1.40802,0.47663343,-0.19492094,-0.23184736,-0.6156206,0.68682456,0.9392025,-0.029954456,0.21931747,0.2624904,-1.4206455,0.30401725,-0.21727866,0.0,1.0,0.0,0.0,0.0,0.0,0.0,-0.37889022,0.20908317,-0.18776691,0.5322933,-7.0607424,-2.7097464,-0.4392147,0.6175369,-0.7423401,2.0540535
-8.482109,30.47324,3.7300053,7.055295,0.6425172,-0.1270253,0.18244262,-0.8221537,-0.3668989,-0.5198808,0.75328207,-0.19903557,0.52344763,-0.029531544,0.6901417,-1.1238513,-2.1155784,-0.72659266,1.8350374,1.8190432,-0.9507089,0.7577258,-1.0927633,-2.072188,-0.78841555,1.85243,1.7707933,-0.949049,-1.4629049,-0.5824959,-0.87196016,1.3496467,-0.2528129,0.40728927,-0.123797156,-0.28515285,-0.6042962,0.7352457,-1.4017725,0.4803179,-0.26791817,-0.24617787,-0.61261654,0.6841509,0.9422998,-0.027559899,0.22240396,0.24869241,-1.433891,0.310868,-0.2840579,0.0,1.0,0.0,0.0,0.0,0.0,0.0,-0.36484712,0.2042962,-0.1852457,0.0651598,-8.923758,-4.823947,-0.34456253,-0.7862359,-0.88146925,2.191411
-7.434859,34.093437,4.812237,7.36301,0.692585,-0.07520127,0.2201392,-0.81747067,-0.40255296,-0.5191463,0.75227886,-0.18776421,0.5172321,0.08430615,0.6759787,-1.1330186,-2.1241026,-0.7131877,1.8336536,1.8225166,-0.9406184,0.7431107,-1.0992292,-2.0811975,-0.7749491,1.8498658,1.7748141,-0.950057,-1.461078,-0.66820765,-0.909867,1.3460764,-0.25798163,0.39988747,-0.09313102,-0.29911542,-0.59946394,0.732025,-1.393088,0.48506704,-0.33694735,-0.26062414,-0.60952187,0.6808416,0.94519717,-0.02461922,0.2252673,0.23505498,-1.4447646,0.32086858,-0.346575,0.0,1.0,0.0,0.0,0.0,0.0,0.0,-0.35088456,0.19946393,-0.18202502,0.19135475,-8.660852,-3.5443902,-0.22246838,-0.73953867,-0.9001255,3.0597658
-5.756401,31.282406,4.8472724,6.270376,1.0113956,-0.075588584,0.2336041,-0.81135654,-0.47171578,-0.50436115,0.7430849,-0.041356385,0.4917769,0.15172379,0.6619751,-1.1464008,-2.1316335,-0.70064056,1.8457302,1.8239918,-0.93488467,0.7285386,-1.1066564,-2.0903947,-0.7615466,1.8476872,1.7787466,-0.9507289,-1.4559425,-0.76775897,-0.92248464,1.3388073,-0.20490642,0.39041197,-0.058304958,-0.31302443,-0.59459543,0.7280644,-1.3892679,0.48854902,-0.4123377,-0.275231,-0.6063223,0.67690766,0.94794804,-0.02128062,0.2276124,0.2216624,-1.4623501,0.33178043,-0.40923083,0.0,1.0,0.0,0.0,0.0,0.0,0.0,-0.33697554,0.19459543,-0.1780644,0.525403,-10.036266,-1.0170221,-0.5724907,5.082634,-1.1586607,3.5391688
-5.5757713,23.662666,3.51358,4.383018,1.284681,-0.08971745,0.24295126,-0.81498426,-0.5577652,-0.48822087,0.7198453,0.10104629,0.46817753,0.188064,0.6470401,-1.1624329,-2.139217,-0.6895621,1.8577919,1.8255644,-0.9319225,0.71399695,-1.1152548,-2.0995317,-0.7483097,1.8464743,1.782569,-0.95104855,-1.4534117,-0.8906635,-0.91063267,1.3192221,-0.09387357,0.37893516,-0.022842038,-0.32690737,-0.58971214,0.72321177,-1.3880677,0.48886323,-0.50558627,-0.29009196,-0.60301304,0.67228454,0.9506435,-0.017700318,0.22902323,0.20859514,-1.4900386,0.34306324,-0.48052976,0.0,1.0,0.0,0.0,0.0,0.0,0.0,-0.3230926,0.18971214,-0.17321175,0.2895832,-12.351823,1.3630986,-1.7527342,10.938318,-1.3909519,3.6955497
-4.597544,21.349993,2.4251053,2.453001,0.6821531,-0.08012152,0.33809,-0.8193532,-0.60796493,-0.51844144,0.6857297,-0.035969976,0.42653185,0.2576593,0.6320616,-1.1760513,-2.1513758,-0.67973673,1.8428773,1.8252223,-0.9252826,0.6994496,-1.1250643,-2.1086464,-0.7354112,1.8458781,1.7862567,-0.950998,-1.455073,-1.0112519,-0.9113645,1.2807285,-0.04849502,0.36491117,0.014617365,-0.34077853,-0.5848255,0.7174169,-1.386836,0.48907337,-0.60052836,-0.3051359,-0.5996084,0.6668614,0.95325816,-0.013747771,0.22961593,0.19592457,-1.5049033,0.35244304,-0.5636682,0.0,1.0,0.0,0.0,0.0,0.0,0.0,-0.30922145,0.18482551,-0.16741687,-0.12538433,-12.115312,0.0579834,-3.6397457,4.391373,-1.5835345,3.8578146
-1.3155198,30.452122,4.691964,2.8569314,0.261625,0.08637488,0.40066463,-0.8128899,-0.64117515,-0.49069765,0.682293,-0.17533764,0.4423218,0.3571396,0.6181606,-1.1891818,-2.1577163,-0.6671819,1.8283443,1.8304888,-0.91528404,0.68490607,-1.1359304,-2.1176553,-0.7228759,1.845115,1.7898351,-0.9505439,-1.4541411,-1.1118098,-0.89631,1.2450271,-0.08626348,0.35494274,0.055894196,-0.35463804,-0.57991123,0.71085835,-1.384102,0.4925871,-0.6714725,-0.3201811,-0.5960851,0.6606797,0.95570207,-0.00934086,0.22977386,0.18371221,-1.4996899,0.3656253,-0.63720435,0.0,1.0,0.0,0.0,0.0,0.0,0.0,-0.29536194,0.17991123,-0.16085833,0.093746185,-10.134172,1.7860651,-3.3908606,-4.026303,-1.1658192,4.19129
-0.35722327,36.091652,5.5281625,3.309757,-0.08330436,0.13886213,0.44008058,-0.8119779,-0.6797883,-0.5092721,0.6654846,-0.26906514,0.4061034,0.4356336,0.60370827,-1.2039093,-2.1685824,-0.6563274,1.8182085,1.8304454,-0.9069805,0.67037684,-1.1476644,-2.126604,-0.7106886,1.8435814,1.7933004,-0.9496544,-1.4525996,-1.1942674,-0.8936796,1.2104243,-0.17644577,0.3433174,0.09990724,-0.36834478,-0.5749612,0.7036411,-1.3650187,0.49601078,-0.73607504,-0.3350854,-0.59242916,0.6537964,0.9579031,-0.0043671927,0.22983506,0.17198402,-1.4824171,0.37866396,-0.70678914,0.0,1.0,0.0,0.0,0.0,0.0,0.0,-0.2816552,0.17496118,-0.1536411,0.13628006,-8.338761,0.59951544,-3.3041477,-9.364531,-1.3117015,4.398288
-1.7679725,44.946514,6.9578757,5.6710052,0.09648134,0.19254261,0.38390866,-0.8115106,-0.69507897,-0.54594886,0.65617985,-0.22727118,0.36773062,0.46666268,0.58922577,-1.2171724,-2.181199,-0.6450706,1.8208543,1.8300735,-0.90298814,0.65586287,-1.1600202,-2.1357315,-0.69879884,1.8413118,1.7966324,-0.9483452,-1.4510692,-1.2495395,-0.91755396,1.1822656,-0.24482337,0.32913572,0.1411814,-0.38182646,-0.5699663,0.6958725,-1.3413577,0.5012237,-0.78828794,-0.34981322,-0.58861303,0.6463151,0.959852,0.0012177343,0.22992282,0.16068007,-1.4642452,0.3957859,-0.76328725,0.0,1.0,0.0,0.0,0.0,0.0,0.0,-0.26817352,0.16996631,-0.14587247,0.11677742,-5.644202,-1.9873261,-2.6847363,-7.2495847,-1.6209543,4.088655
-0.67993,50.51573,8.234438,6.353169,0.40754014,0.23305327,0.34984037,-0.8060196,-0.71462464,-0.56883115,0.62270427,-0.10707814,0.36715546,0.48281378,0.5752609,-1.2314827,-2.1926146,-0.63652843,1.830604,1.8333479,-0.9000638,0.64138514,-1.1727918,-2.145218,-0.68725914,1.8388819,1.7998325,-0.94665736,-1.4468373,-1.286731,-0.9575654,1.1448503,-0.24375151,0.316055,0.17796327,-0.39506412,-0.5649147,0.6876251,-1.3167231,0.5071338,-0.8348271,-0.364373,-0.58459854,0.6383446,0.96159506,0.007316231,0.22989124,0.14977118,-1.4476058,0.41631287,-0.8099371,0.0,1.0,0.0,0.0,0.0,0.0,0.0,-0.25493586,0.1649147,-0.1376251,0.36344528,-3.8434744,-3.5532713,-3.6533594,-0.34914613,-1.5656114,3.6462903
-0.09289503,60.850708,10.217359,8.456254,0.49335408,0.30837405,0.31547916,-0.8009357,-0.7068434,-0.59913814,0.6167436,-0.16136688,0.31497815,0.51778495,0.5612916,-1.2434762,-2.2051318,-0.6255848,1.8227452,1.8313303,-0.89487886,0.6269684,-1.1857351,-2.1552002,-0.67604756,1.8364599,1.8028784,-0.94462144,-1.4403119,-1.2974836,-1.0097909,1.1132399,-0.24322343,0.29976466,0.21194038,-0.40799838,-0.55979776,0.67903537,-1.2844663,0.51397973,-0.8651892,-0.37872067,-0.5803547,0.6300255,0.9631324,0.013888241,0.2297863,0.1392166,-1.4245625,0.4398599,-0.840959,0.0,1.0,0.0,0.0,0.0,0.0,0.0,-0.2420016,0.15979776,-0.12903535,0.5558491,-1.2174368,-4.655838,-3.137064,-0.50911605,-1.9067824,3.316152
6.4157763,59.752792,10.813892,5.741677,0.5604901,0.24625504,0.3665306,-0.7826537,-0.73149306,-0.61375415,0.55685836,-0.0008763293,0.26598847,0.53176445,0.548703,-1.2588844,-2.2165756,-0.62036175,1.8363723,1.8294772,-0.891445,0.6126918,-1.1987928,-2.165675,-0.66534424,1.8345566,1.8057374,-0.94227463,-1.4239082,-1.3088672,-1.0583398,1.055885,-0.17433831,0.28034362,0.24207613,-0.4206178,-0.5546298,0.67011374,-1.2532256,0.5182577,-0.89915174,-0.3928164,-0.57590914,0.621392,0.964516,0.020816255,0.22937015,0.12909281,-1.3983576,0.45887005,-0.87244695,0.0,1.0,0.0,0.0,0.0,0.0,0.0,-0.22938219,0.1546298,-0.12011373,1.5163183,-1.2574911,-4.27742,-5.7766676,6.32059,-2.2275746,2.9423237
7.6665635,69.98369,13.289965,7.6841726,0.8680193,0.3656627,0.33059478,-0.78373164,-0.70886785,-0.6013661,0.5319902,0.031234944,0.19227432,0.54902345,0.5343187,-1.2696795,-2.2258115,-0.61214525,1.8376801,1.8249648,-0.88737226,0.5985564,-1.2118124,-2.176447,-0.6552503,1.8334411,1.8083653,-0.93965036,-1.410673,-1.3001696,-1.0811015,0.99350274,-0.0927073,0.25586864,0.2689253,-0.4328771,-0.5494151,0.6609743,-1.2155153,0.523269,-0.9169116,-0.40662223,-0.5712366,0.61258686,0.9657833,0.027926158,0.2285208,0.119419344,-1.3681859,0.4825651,-0.8847333,0.0,1.0,0.0,0.0,0.0,0.0,0.0,-0.21712288,0.1494151,-0.11097431,1.1617422,0.7452011,-1.5612364,-6.353116,7.475497,-2.7499318,2.5986373
11.900812,72.87949,14.618442,7.147641,1.0440257,0.37427378,0.3230149,-0.76828575,-0.71329284,-0.5811498,0.49222445,0.12655564,0.10949092,0.5470728,0.5217278,-1.2831416,-2.234562,-0.60602784,1.8460968,1.8193145,-0.88494307,0.584587,-1.2247366,-2.1872191,-0.64583546,1.8333197,1.8107057,-0.9367916,-1.3929003,-1.2900816,-1.0737612,0.9234983,0.012630858,0.22596297,0.29127797,-0.4447441,-0.5441613,0.6516953,-1.1757509,0.5267438,-0.92953604,-0.42010757,-0.5663357,0.6037185,0.9669837,0.03502517,0.22708686,0.11021534,-1.3351338,0.50469846,-0.88885355,0.0,1.0,0.0,0.0,0.0,0.0,0.0,-0.20525587,0.14416131,-0.1016953,1.594162,0.90043545,1.4954805,-7.166171,9.818808,-3.284824,2.1570623
9.908098,75.58859,14.923101,8.600709,1.2285831,0.3564433,0.26964563,-0.77453756,-0.70716643,-0.5620401,0.45951045,0.14575961,-0.097197905,0.52955246,0.50713325,-1.2954532,-2.2434232,-0.5998844,1.8478956,1.8009858,-0.8838363,0.57072914,-1.2375406,-2.1977546,-0.63711387,1.8341439,1.8126186,-0.9337516,-1.3838878,-1.2774763,-1.0441546,0.85442626,0.10348487,0.17879693,0.3079634,-0.45621067,-0.5388794,0.64232373,-1.1356341,0.52930075,-0.93768376,-0.4332839,-0.5612068,0.5948575,0.9681496,0.0420501,0.22501062,0.101430744,-1.3049055,0.52722955,-0.8864022,0.0,1.0,0.0,0.0,0.0,0.0,0.0,-0.1937893,0.13887939,-0.09232372,0.7265806,1.1555195,3.7307024,-7.063782,8.358329,-5.0019593,1.5968323
13.466877,74.232124,15.029973,7.291459,1.2057302,0.24848443,0.28195164,-0.7582603,-0.7107531,-0.5336074,0.41077778,0.22786649,-0.29849356,0.5348349,0.4949031,-1.3086159,-2.2511153,-0.5960361,1.8569305,1.7827692,-0.8802681,0.5569953,-1.2502588,-2.2078629,-0.62913424,1.8359145,1.8139422,-0.9305657,-1.3704855,-1.2702537,-0.99713373,0.77861005,0.19963486,0.11592069,0.3218767,-0.46727815,-0.53359175,0.63286364,-1.0959551,0.52891606,-0.946834,-0.4461458,-0.55589676,0.5860168,0.9693172,0.048967373,0.22218496,0.093060195,-1.2732447,0.5435178,-0.8845119,0.0,1.0,0.0,0.0,0.0,0.0,0.0,-0.18272182,0.13359174,-0.08286363,1.1685371,0.6377697,5.43375,-7.74889,8.92748,-6.54234,1.3229847
13.44704,79.46746,16.076427,8.893737,1.3189992,0.3010099,0.23910812,-0.75591105,-0.6945425,-0.47494805,0.38783965,0.21352816,-0.41496432,0.53769475,0.48140416,-1.3197131,-2.2553577,-0.5903503,1.8572673,1.7724458,-0.87679625,0.5433768,-1.2628607,-2.2172883,-0.62183857,1.8384116,1.8145964,-0.9272586,-1.3595191,-1.25708,-0.92200184,0.7125244,0.26421052,0.04782255,0.3333825,-0.4779208,-0.52831936,0.62338936,-1.052619,0.52714187,-0.9459492,-0.45867658,-0.55041885,0.5772719,0.97049165,0.055711992,0.21864417,0.08506939,-1.2396173,0.56007254,-0.8723924,0.0,1.0,0.0,0.0,0.0,0.0,0.0,-0.17207918,0.12831935,-0.07338935,0.92413425,1.2367487,8.262539,-6.784272,5.7674227,-7.0440187,1.0688901
16.473745,79.12844,16.160723,7.9185534,1.2036505,0.28206187,0.26428324,-0.7425713,-0.690273,-0.4401619,0.33625835,0.26155585,-0.48828012,0.55390555,0.46911967,-1.331888,-2.2613044,-0.5882127,1.8645672,1.7657684,-0.8718681,0.5298985,-1.2753309,-2.2259166,-0.6152514,1.8415041,1.8145794,-0.92383987,-1.3444754,-1.2440966,-0.8407299,0.6401718,0.32219678,-0.01892712,0.34441084,-0.4881223,-0.52308416,0.61393267,-1.0085299,0.52261037,-0.9444016,-0.47084227,-0.54480743,0.5686407,0.9716739,0.062244058,0.21441296,0.07747627,-1.2023572,0.57173306,-0.8613275,0.0,1.0,0.0,0.0,0.0,0.0,0.0,-0.16187766,0.12308416,-0.06393266,1.3397217,1.2330055,8.819162,-7.4141264,5.1700296,-6.8755546,1.0152876
16.92128,78.21997,15.47664,6.707979,0.859266,0.3146299,0.34994912,-0.7520363,-0.6691265,-0.41775718,0.24004368,0.23786539,-0.5338735,0.55095744,0.4546949,-1.3422436,-2.2676923,-0.5912471,1.8652906,1.761192,-0.86874413,0.5164975,-1.2876028,-2.2338126,-0.60965806,1.8449559,1.8139329,-0.9203258,-1.3391865,-1.2218325,-0.7703137,0.5318284,0.35109094,-0.08042576,0.35342297,-0.49787563,-0.5179148,0.60447943,-0.9635751,0.5154774,-0.9448693,-0.4825833,-0.53910875,0.56006783,0.97283864,0.06865401,0.20957193,0.070365086,-1.158422,0.57909214,-0.85727316,0.0,1.0,0.0,0.0,0.0,0.0,0.0,-0.15212435,0.117914766,-0.05447942,0.38442612,2.175355,7.6367855,-11.000228,2.3303568,-6.313619,0.80776215
19.577744,92.50769,19.41219,10.127435,1.5603024,0.54843384,0.24933493,-0.74056774,-0.63625705,-0.25022155,0.2280809,0.32047823,-0.55067706,0.5569144,0.44244072,-1.3512285,-2.2588348,-0.58685,1.8770038,1.7588652,-0.8646344,0.5031651,-1.2995332,-2.2404344,-0.60502315,1.8488314,1.812735,-0.9167297,-1.3317621,-1.1835434,-0.62380964,0.43997002,0.39786926,-0.13352893,0.36140853,-0.507127,-0.5128255,0.5952145,-0.91152817,0.50759643,-0.91988707,-0.49387738,-0.53327656,0.55177945,0.9740272,0.07459274,0.20407425,0.06372204,-1.1136765,0.5937493,-0.820658,0.0,1.0,0.0,0.0,0.0,0.0,0.0,-0.14287299,0.11282548,-0.045214474,0.58283806,3.7892818,15.277052,-9.403229,4.143304,-5.4509535,0.71125627
18.603666,76.12258,14.592545,4.605626,0.5400697,0.33989322,0.4584078,-0.7571973,-0.629687,-0.36502072,0.053266373,0.31507444,-0.5872972,0.5531645,0.42744538,-1.362502,-2.2769365,-0.5996965,1.8803389,1.7540052,-0.86141324,0.48981178,-1.3111013,-2.2463243,-0.60185695,1.8530788,1.8110417,-0.91306394,-1.336821,-1.1479169,-0.5763064,0.2751073,0.43251303,-0.18152557,0.3680396,-0.51592135,-0.50783634,0.5859749,-0.86819273,0.496641,-0.9252135,-0.50468814,-0.52739716,0.54354316,0.9752078,0.080356315,0.1979539,0.05767896,-1.0645307,0.5946291,-0.82606214,0.0,1.0,0.0,0.0,0.0,0.0,0.0,-0.13407862,0.107836336,-0.03597486,-0.6011486,3.5382748,5.098808,-16.603947,3.1199455,-4.905218,0.6071508
21.55148,81.387146,16.079977,5.503937,0.69498396,0.40338182,0.41778082,-0.73961055,-0.6005652,-0.26712772,0.021669066,0.35444397,-0.5924191,0.54785305,0.41585073,-1.3711579,-2.273037,-0.59969,1.8885232,1.7517998,-0.85827863,0.4764732,-1.322265,-2.251623,-0.6002376,1.8577126,1.8089269,-0.9093448,-1.3331597,-1.1058481,-0.5137324,0.123828895,0.47290006,-0.22175771,0.3730096,-0.5242606,-0.5029745,0.5767641,-0.82207584,0.48350635,-0.9201765,-0.51498973,-0.52151346,0.535337,0.97637373,0.08595399,0.19124573,0.052262392,-1.0132922,0.5942682,-0.82023436,0.0,1.0,0.0,0.0,0.0,0.0,0.0,-0.1257394,0.102974504,-0.026764095,0.28293133,4.203105,6.498635,-15.257592,3.832209,-4.1018577,0.4514575
19.74945,89.18741,18.256083,9.231091,1.4225947,0.57920206,0.26747644,-0.7396409,-0.5852933,-0.12395067,0.0074689994,0.41045958,-0.5748644,0.56495816,0.40250912,-1.3807944,-2.264018,-0.5994907,1.8987585,1.7514405,-0.852849,0.46317756,-1.333032,-2.2558272,-0.59981227,1.8628474,1.8064781,-0.9055712,-1.3285626,-1.0667961,-0.38889968,0.015026517,0.52669835,-0.25299418,0.37872812,-0.5321366,-0.49824214,0.56771874,-0.7755904,0.47084454,-0.8999103,-0.5248427,-0.5155606,0.52735704,0.9775749,0.09102022,0.1839033,0.047352433,-0.9708347,0.603126,-0.7918768,0.0,1.0,0.0,0.0,0.0,0.0,0.0,-0.11786336,0.098242134,-0.017718732,0.39670467,3.9151669,12.615853,-10.998323,5.3352594,-3.1744866,0.55614114
31.256844,102.74743,23.516901,8.895295,1.8330952,0.84794414,0.33230764,-0.73170036,-0.5368579,0.10716266,-0.12704557,0.47536594,-0.57768327,0.584008,0.39000753,-1.3867178,-2.245111,-0.6125168,1.910384,1.7487098,-0.8471704,0.44996202,-1.343284,-2.257876,-0.6007047,1.86866,1.8037697,-0.9017315,-1.3193793,-1.0112697,-0.14351463,-0.12454076,0.5999522,-0.27665094,0.38570923,-0.5394704,-0.493675,0.55909896,-0.71894586,0.45302472,-0.8502657,-0.5341695,-0.50952816,0.51990324,0.97890246,0.09496189,0.1757231,0.043052856,-0.9152338,0.6102265,-0.73137987,0.0,1.0,0.0,0.0,0.0,0.0,0.0,-0.1105296,0.09367499,-0.009098947,0.865674,5.6016684,24.48156,-14.131162,7.500088,-2.2499144,0.6674051
23.033924,129.89395,28.533327,19.88638,3.1500268,1.1828052,0.019826299,-0.73483026,-0.4530457,0.24143639,-0.071744144,0.5556552,-0.5620185,0.60303956,0.376479,-1.3885885,-2.2337322,-0.60787916,1.9242254,1.7475679,-0.84142756,0.43681562,-1.352691,-2.2571516,-0.6024218,1.8753647,1.8008786,-0.8978156,-1.3130304,-0.91711986,0.14350307,-0.18793088,0.6952832,-0.2926126,0.39348516,-0.5461825,-0.4892857,0.5513261,-0.6561596,0.43439823,-0.7544094,-0.5430434,-0.5032759,0.51347697,0.9804002,0.09725434,0.16681038,0.03912984,-0.87371427,0.6363758,-0.6145629,0.0,1.0,0.0,0.0,0.0,0.0,0.0,-0.10381746,0.0892857,-0.0013260841,0.63934326,9.480333,28.423485,-6.4800053,9.994066,-1.3873577,0.75341463
31.254955,123.07299,27.314049,15.030268,2.3128395,0.9692995,0.17474951,-0.70255053,-0.41874734,0.25214785,-0.19990845,0.62819546,-0.5500083,0.6011786,0.36656058,-1.3945658,-2.231937,-0.6224127,1.9381843,1.7458779,-0.83769774,0.42386568,-1.3611311,-2.2540812,-0.6050218,1.8831056,1.7978697,-0.89382786,-1.2888136,-0.81953484,0.36014703,-0.2841623,0.8022596,-0.30272087,0.40063348,-0.55227274,-0.48512745,0.54446006,-0.5943957,0.40996072,-0.66617876,-0.55141914,-0.49689984,0.50807,0.9820345,0.097984105,0.15728465,0.035621043,-0.82173604,0.64357007,-0.5174986,0.0,1.0,0.0,0.0,0.0,0.0,0.0,-0.09772724,0.08512744,0.0055399537,2.4760723,9.824824,21.209175,-9.670364,11.332476,-0.7217288,0.7278681
25.0068,135.37642,27.343424,19.352232,1.959807,0.95838624,0.13573188,-0.70240146,-0.28642803,0.20370057,-0.24588923,0.6388231,-0.52943414,0.58948433,0.35362554,-1.3897738,-2.2337112,-0.6296107,1.946988,1.7449262,-0.8348794,0.41114318,-1.3681978,-2.2498136,-0.60858005,1.8917729,1.7948011,-0.8897832,-1.2664007,-0.66865075,0.44685838,-0.3795029,0.89088154,-0.30722377,0.40587595,-0.5577255,-0.48124313,0.5386001,-0.5302166,0.3817715,-0.5621561,-0.55924785,-0.49047327,0.50369513,0.983682,0.0976149,0.14759848,0.03249333,-0.76665634,0.64726305,-0.41192588,0.0,1.0,0.0,0.0,0.0,0.0,0.0,-0.09227449,0.08124313,0.011399925,2.3456812,15.17272,8.02781,-9.496683,9.699559,-0.09135604,0.5734861
22.290857,151.77054,29.84752,23.86121,2.00478,1.1171311,0.09386611,-0.69802034,-0.16261159,0.29280937,-0.28924915,0.65318763,-0.48574737,0.58363605,0.34134114,-1.3844589,-2.2205327,-0.637505,1.9570916,1.7462264,-0.8314196,0.39861572,-1.3734258,-2.2448974,-0.6130625,1.9011697,1.7917371,-0.88569754,-1.2476665,-0.47391447,0.5039039,-0.47083575,0.95931965,-0.30469966,0.40970874,-0.56250405,-0.4776683,0.53398675,-0.46180218,0.35002738,-0.43095788,-0.56649035,-0.483999,0.5005625,0.98526233,0.09635416,0.1381773,0.029681578,-0.70724547,0.6517373,-0.28140005,0.0,1.0,0.0,0.0,0.0,0.0,0.0,-0.08749592,0.07766828,0.016013265,2.0204306,19.590908,4.849434,-9.055864,7.935512,0.67828894,0.459373
29.166069,129.7934,27.56616,16.850866,1.6428754,0.9633883,0.19895133,-0.6714993,-0.19572192,0.48463598,-0.33758968,0.6871523,-0.39776218,0.57795686,0.33146578,-1.392998,-2.1964338,-0.6468215,1.9698849,1.7519609,-0.82790184,0.38634098,-1.3772234,-2.238821,-0.6184285,1.911143,1.7887661,-0.8815833,-1.220202,-0.347968,0.63949805,-0.55818385,1.0136719,-0.29324266,0.4123154,-0.56667036,-0.47440147,0.5304932,-0.40290305,0.31962603,-0.32561186,-0.57315683,-0.47753954,0.49850422,0.9868145,0.09405132,0.12886769,0.027285026,-0.6506102,0.6475712,-0.18154371,0.0,1.0,0.0,0.0,0.0,0.0,0.0,-0.08332962,0.07440147,0.019506812,2.9073954,12.705362,12.653172,-8.628893,6.5630317,1.5518129,0.3605485
