Afshin1997/kuka_rl_ros2/src/catch_and_throw/input_files/idealpd/recorded_trajectories/env_120_data.csv
torque0,torque1,torque2,torque3,torque4,torque5,torque6,action0,action1,action2,action3,action4,action5,action6,set_target_0,set_target_1,set_target_2,set_target_3,set_target_4,set_target_5,set_target_6,joint_pos_0,joint_pos_1,joint_pos_2,joint_pos_3,joint_pos_4,joint_pos_5,joint_pos_6,joint_vel_0,joint_vel_1,joint_vel_2,joint_vel_3,joint_vel_4,joint_vel_5,joint_vel_6,tennisball_pos_0,tennisball_pos_1,tennisball_pos_2,tennisball_lin_vel_0,tennisball_lin_vel_1,tennisball_lin_vel_2,end_effector_pos_0,end_effector_pos_1,end_effector_pos_2,end_effector_rot_0,end_effector_rot_1,end_effector_rot_2,end_effector_rot_3,end_effector_lin_vel_0,end_effector_lin_vel_1,end_effector_lin_vel_2,obs_task_0,obs_task_1,obs_task_2,obs_task_3,obs_task_4,obs_task_5,obs_task_6,to_final_target_0,to_final_target_1,to_final_target_2,joint_acc_0,joint_acc_1,joint_acc_2,joint_acc_3,joint_acc_4,joint_acc_5,joint_acc_6
0.0,0.0,0.0,0.0,0.0,0.0,0.0,0.0,0.0,0.0,0.0,0.0,0.0,0.0,1.7802359,-1.0646509,-1.8151424,-1.1170107,1.9373155,1.1170107,-0.91629785,1.7802359,-1.0646509,-1.8151424,-1.1170107,1.9373155,1.1170107,-0.91629785,0.0,0.0,0.0,0.0,0.0,0.0,0.0,2.7689133,-0.51414585,0.17942056,-3.0794346,0.04443602,5.693521,0.5304184,-0.4544952,0.693097,0.5745483,0.17512383,0.15255436,0.7848268,0.0,0.0,0.0,1.0,0.0,0.0,0.0,0.0,0.0,0.0,-3.4189134,0.114145845,0.37057945,0.0,0.0,0.0,0.0,0.0,0.0,0.0
0.0,0.0,0.0,0.0,0.0,0.0,0.0,0.0,0.0,0.0,0.0,0.0,0.0,0.0,1.7802359,-1.0646509,-1.8151424,-1.1170107,1.9373155,1.1170107,-0.91629785,1.7802359,-1.0646509,-1.8151424,-1.1170107,1.9373155,1.1170107,-0.91629785,0.0,0.0,0.0,0.0,0.0,0.0,0.0,2.7689133,-0.51414585,0.17942056,-3.0794346,0.04443602,5.693521,0.5304184,-0.4544952,0.693097,0.5745483,0.17512383,0.15255436,0.7848268,0.0,0.0,0.0,1.0,0.0,0.0,0.0,0.0,0.0,0.0,-3.4189134,0.114145845,0.37057945,0.0,0.0,0.0,0.0,0.0,0.0,0.0
0.0,0.0,0.0,0.0,0.0,0.0,0.0,0.0,0.0,0.0,0.0,0.0,0.0,0.0,1.7802359,-1.0646509,-1.8151424,-1.1170107,1.9373155,1.1170107,-0.91629785,1.7802359,-1.0646509,-1.8151424,-1.1170107,1.9373155,1.1170107,-0.91629785,0.0,0.0,0.0,0.0,0.0,0.0,0.0,2.7689133,-0.51414585,0.17942056,-3.0794346,0.04443602,5.693521,0.5304184,-0.4544952,0.693097,0.5745483,0.17512383,0.15255436,0.7848268,0.0,0.0,0.0,1.0,0.0,0.0,0.0,0.0,0.0,0.0,-3.4189134,0.114145845,0.37057945,0.0,0.0,0.0,0.0,0.0,0.0,0.0
-176.0,74.58758,-3.99407,110.0,11.0630455,5.0592184,-3.8717515,-0.82481164,0.38084206,-0.5457,0.74675506,0.2934242,0.6475621,-0.57779527,1.6977547,-1.0265667,-1.8697124,-1.0423352,1.9666579,1.1817669,-0.9740774,1.7786547,-1.0618299,-1.8215339,-1.1122423,1.9434628,1.1225249,-0.91745275,-0.21071832,0.3755243,-0.8512531,0.6360319,0.8186335,0.73274523,-0.15346508,2.738144,-0.5137019,0.2355766,-3.076356,0.044391595,5.5896425,0.52809143,-0.45787334,0.69404805,0.5783405,0.17370844,0.15083109,0.78268623,-0.30948183,-0.45052388,0.12668712,1.0,0.0,0.0,0.0,0.0,0.0,0.0,-3.388144,0.11370191,0.3144234,-21.010523,37.307106,-84.877525,63.672905,81.54433,72.567276,-15.189186
-176.0,-21.190435,-40.073875,108.24341,11.4683695,1.6814945,-3.3734622,-0.810794,-0.12346623,-0.5457753,0.7075382,0.37870696,0.630863,-0.56751347,1.6975753,-1.0741765,-1.8761115,-1.0414885,1.9813335,1.1856111,-0.9742041,1.7763563,-1.0582136,-1.8366096,-1.0982825,1.9539895,1.1352812,-0.91738313,-0.23701449,0.34937847,-1.7104222,1.6509305,1.1215484,1.4347612,0.05764779,2.707405,-0.51325846,0.29069465,-3.07328,0.044347215,5.485868,0.52305603,-0.46645784,0.69524103,0.58662957,0.17042248,0.14714795,0.77792627,-0.57007974,-0.9925991,0.11924479,1.0,0.0,0.0,0.0,0.0,0.0,0.0,-3.3574052,0.11325845,0.25930536,-2.84186,-4.924494,-81.13623,101.96891,27.556824,63.656403,20.277668
-154.45996,87.75705,20.201792,88.23439,7.958254,6.6423783,-2.088133,-0.78823817,0.25461534,-0.042219017,0.664522,0.4643039,0.67835903,-0.5400305,1.6975325,-1.032752,-1.8408315,-1.0318303,2.0004199,1.2031171,-0.9713862,1.7707068,-1.054315,-1.8521411,-1.0798842,1.9652295,1.1494547,-0.91709703,-0.6739496,0.39997727,-1.4945481,1.9046502,1.1197479,1.4043834,0.01795164,2.6766968,-0.512815,0.34477574,-3.0702076,0.04430288,5.382197,0.51509094,-0.47812653,0.6978081,0.59786355,0.1657632,0.14230365,0.77125305,-0.87937355,-1.2177498,0.30698335,1.0,0.0,0.0,0.0,0.0,0.0,0.0,-3.3266969,0.11281499,0.20522428,-43.65282,4.08442,23.426247,25.906897,-1.7055511,-5.111432,-4.252531
-92.888596,98.86905,36.38709,53.634926,4.756804,7.0581765,-0.4527125,-0.7880196,0.14878495,0.1010843,0.66557336,0.47494933,0.6543529,-0.56121147,1.6919048,-1.0394365,-1.8420327,-1.0133269,2.0127244,1.21489,-0.9732182,1.760861,-1.0506033,-1.8625381,-1.0613714,1.9755559,1.1625868,-0.9173631,-1.0892276,0.3592134,-0.8805199,1.8339695,0.99802953,1.2786592,-0.04338983,2.646019,-0.5123725,0.3978209,-3.067138,0.044258583,5.27863,0.5045662,-0.49065518,0.7021547,0.61015034,0.15984394,0.13637881,0.7639157,-1.123155,-1.2525791,0.4822664,1.0,0.0,0.0,0.0,0.0,0.0,0.0,-3.296019,0.11237249,0.15217912,-41.845356,-4.790658,63.70729,-6.8674088,-13.85194,-13.799429,-6.684841
-36.738087,112.63873,45.822,27.291872,1.9071933,6.3370895,0.39676,-0.8009839,0.22838388,0.11575857,0.6579286,0.5497605,0.6516444,-0.5575108,1.6807626,-1.0277649,-1.8509623,-0.9955786,2.030532,1.2277513,-0.9731142,1.7476774,-1.0469888,-1.8666236,-1.0447851,1.9847608,1.1743456,-0.91826814,-1.3963531,0.3603926,-0.24463198,1.5998213,0.89029586,1.1396794,-0.10834785,2.6153717,-0.51193,0.44983116,-3.0640714,0.04421433,5.1751657,0.49225998,-0.50258636,0.70808107,0.62222004,0.15280575,0.12956814,0.7567726,-1.2796565,-1.1593413,0.632165,1.0,0.0,0.0,0.0,0.0,0.0,0.0,-3.2653718,0.11192998,0.100168854,-31.134724,-0.39084554,65.57182,-23.548962,-12.047922,-14.438534,-7.1517334
0.65114105,123.464584,47.64778,13.093708,-0.28465152,4.9589696,0.38217127,-0.813752,0.38621274,0.029257774,0.65674794,0.5593352,0.63906336,-0.5717255,1.6663022,-1.0083675,-1.8636979,-0.97911036,2.0406942,1.2382519,-0.9754407,1.7324644,-1.0425676,-1.8661354,-1.0305811,1.9931378,1.1848341,-0.9197759,-1.5642507,0.46790278,0.15123336,1.35984,0.81768435,1.018154,-0.16703385,2.584755,-0.51148844,0.5008075,-3.061008,0.044170123,5.0718055,0.47899628,-0.5131426,0.7153131,0.6336849,0.14492692,0.12263104,0.74993414,-1.354279,-1.00684,0.7536225,1.0,0.0,0.0,0.0,0.0,0.0,0.0,-3.234755,0.11148843,0.04919249,-17.178608,10.35499,40.950134,-24.242092,-7.9630256,-12.279224,-6.5262375
18.950634,119.57864,41.739704,6.060256,-1.5915577,3.2613378,0.058966413,-0.8204338,0.49486333,-0.083923146,0.638419,0.55458194,0.6243736,-0.56911206,1.650421,-0.9930813,-1.8745277,-0.96673924,2.0485961,1.2472715,-0.97668713,1.7164198,-1.0365328,-1.8639019,-1.018355,2.001029,1.1942526,-0.9217958,-1.6189789,0.647813,0.25011748,1.175903,0.7786998,0.91661155,-0.21552305,2.5541687,-0.5110469,0.5507511,-3.0579476,0.04412596,4.9685483,0.46544266,-0.52214,0.72344583,0.64465606,0.136626,0.11644779,0.7430961,-1.3663335,-0.84939545,0.8318478,1.0,0.0,0.0,0.0,0.0,0.0,0.0,-3.2041688,0.11104688,-0.0007510781,-5.810213,17.703093,10.720691,-18.630814,-4.18905,-10.058069,-5.403179
25.996994,112.30058,36.523033,4.299453,-1.9370809,2.1909719,-0.16926624,-0.82259107,0.5677679,-0.098648645,0.6244259,0.56236535,0.62492007,-0.5646954,1.6341608,-0.979756,-1.8737667,-0.9559124,2.0572655,1.2567446,-0.97826535,1.7003523,-1.0285658,-1.861964,-1.0074106,2.0087347,1.2027899,-0.92422956,-1.6035148,0.84579796,0.1770334,1.0667284,0.7677752,0.8331491,-0.25418922,2.523613,-0.5106063,0.59966284,-3.0548904,0.04408184,4.865394,0.45198822,-0.52968836,0.7321802,0.65534073,0.12820272,0.111479305,0.7359788,-1.3463354,-0.70866513,0.8858904,1.0,0.0,0.0,0.0,0.0,0.0,0.0,-3.173613,0.11060628,-0.04966283,1.2598991,19.585573,-6.744227,-11.141849,-1.2102127,-8.226275,-4.3237953
21.926022,98.23077,29.776718,6.146387,-1.5675417,1.4636446,-0.34449917,-0.8263483,0.61165935,-0.13259307,0.6305755,0.5592806,0.62598455,-0.55607027,1.6177175,-0.96739984,-1.8752233,-0.9443531,2.0646627,1.2653884,-0.9798366,1.6846453,-1.0188326,-1.8613822,-0.99700797,2.016429,1.2106024,-0.9269857,-1.5606145,1.0153093,0.019856235,1.0306519,0.77012205,0.7639982,-0.2839089,2.4930878,-0.5101657,0.6475438,-3.051836,0.044037767,4.762344,0.4387741,-0.53609705,0.7412903,0.6659481,0.11983428,0.107779264,0.7283793,-1.3203441,-0.6033463,0.9179657,1.0,0.0,0.0,0.0,0.0,0.0,0.0,-3.1430879,0.110165685,-0.097543776,4.071498,16.79604,-15.334667,-3.82905,0.20204782,-6.873095,-3.3368647
15.313173,84.73799,24.49634,8.48623,-0.99690014,1.1245732,-0.39773273,-0.82575065,0.64449304,-0.16113266,0.6331907,0.55266947,0.6456345,-0.5559665,1.6020702,-0.95438325,-1.8774955,-0.9336889,2.0716958,1.2751658,-0.98258233,1.6693789,-1.0077566,-1.8624332,-0.9866177,2.024169,1.2178255,-0.9299926,-1.5160593,1.1380141,-0.1455589,1.0409617,0.7753515,0.7082687,-0.30730832,2.462593,-0.5097256,0.69439507,-3.048785,0.043993738,4.6593966,0.42575836,-0.5416846,0.7506085,0.6766053,0.111595094,0.10516203,0.7202032,-1.3014772,-0.5286128,0.93542564,1.0,0.0,0.0,0.0,0.0,0.0,0.0,-3.1125932,0.109725565,-0.14439505,4.2853117,12.145972,-16.23556,0.79910755,0.5189538,-5.619633,-2.6546776
11.5576,75.48839,22.012707,9.405941,-0.49769253,1.088257,-0.2837955,-0.8225135,0.66581917,-0.15460174,0.61892426,0.56560004,0.64467525,-0.56389153,1.5871276,-0.9411747,-1.8778933,-0.92472523,2.080729,1.2822931,-0.98638177,1.6544768,-0.9958166,-1.8647487,-0.97605,2.0320005,1.2245642,-0.9332046,-1.4819769,1.2123494,-0.25908583,1.0611596,0.7859249,0.6620575,-0.32689947,2.432129,-0.5092859,0.7402176,-3.0457368,0.043949753,4.556552,0.4128418,-0.54664564,0.7600492,0.6872898,0.10346968,0.10328941,0.71151805,-1.2918392,-0.46948847,0.94645345,1.0,0.0,0.0,0.0,0.0,0.0,0.0,-3.082129,0.10928592,-0.19021761,3.2504082,7.3216677,-11.014804,1.7730236,1.0345936,-4.721701,-2.2676468
9.180041,70.31542,21.128983,10.028319,-0.13201961,1.1970732,-0.14880127,-0.82006186,0.6820784,-0.1459297,0.6139732,0.56582165,0.6480913,-0.5619036,1.5724705,-0.9276087,-1.8793417,-0.9146527,2.0885828,1.2893733,-0.98939496,1.6398131,-0.9834093,-1.8677261,-0.96530116,2.0399275,1.2309042,-0.93658537,-1.4618479,1.2498728,-0.30928808,1.0786695,0.7949781,0.6241134,-0.34285825,2.4016953,-0.50884676,0.78501254,-3.0426917,0.043905813,4.4538097,0.39995956,-0.55106354,0.76958984,0.69791144,0.09538597,0.10183161,0.702461,-1.2908665,-0.41667518,0.9563779,1.0,0.0,0.0,0.0,0.0,0.0,0.0,-3.0516953,0.108846754,-0.23501253,1.8488169,3.6432981,-4.607826,1.5019178,0.8475423,-3.9280295,-1.9142449
9.018053,68.525925,21.37494,9.915114,0.074621916,1.3393413,0.0011764783,-0.8184363,0.69451684,-0.12552333,0.6023798,0.58186775,0.6514565,-0.5621357,1.5579695,-0.9139576,-1.8802785,-0.90506315,2.0981143,1.2960498,-0.9927989,1.62526,-0.97079504,-1.870774,-0.9544779,2.0479727,1.2369162,-0.9401054,-1.4536297,1.2649282,-0.30158168,1.0827197,0.8074951,0.59318405,-0.35612252,2.371292,-0.50840807,0.82878083,-3.0396497,0.04386192,4.3511705,0.3870468,-0.5549469,0.7792377,0.7083574,0.08726465,0.10051935,0.69318855,-1.2947017,-0.3626503,0.96755505,1.0,0.0,0.0,0.0,0.0,0.0,0.0,-3.0212922,0.10840806,-0.27878082,0.6402731,1.3965845,1.2717307,0.15559196,1.153636,-3.2372236,-1.6611934
10.893431,68.413925,21.893473,9.110899,0.08093655,1.408457,0.11667059,-0.8110642,0.70421237,-0.10572347,0.59133923,0.5874481,0.6574461,-0.5653088,1.5441536,-0.9003738,-1.8813463,-0.89534396,2.1067176,1.3026608,-0.9966363,1.6107622,-0.95810735,-1.8734748,-0.9437138,2.05614,1.2426668,-0.94374365,-1.4492792,1.2697197,-0.2577438,1.0735135,0.81933963,0.5686044,-0.36748892,2.3409195,-0.50796986,0.87152344,-3.0366106,0.043818068,4.2486343,0.37410355,-0.55825186,0.7890015,0.7185216,0.07903633,0.099194184,0.68384236,-1.2972044,-0.3034155,0.9791495,1.0,0.0,0.0,0.0,0.0,0.0,0.0,-2.9909196,0.10796985,-0.32152343,0.2405405,0.37338734,4.943866,-1.1713505,1.062715,-2.58528,-1.4859974
10.6894245,68.927216,21.884111,9.2878475,0.081542134,1.440362,0.14498758,-0.81500715,0.71709406,-0.09371997,0.58345234,0.58931226,0.66251093,-0.56421363,1.5292615,-0.88639796,-1.8828468,-0.8853685,2.115071,1.3089179,-1.000165,1.5962588,-0.94536626,-1.8756607,-0.9330975,2.0644064,1.2482115,-0.9474792,-1.4513303,1.2753267,-0.20371434,1.0568484,0.8285355,0.5492,-0.37679577,2.3105774,-0.5075321,0.91324145,-3.0335746,0.043774262,4.1462,0.36112213,-0.56094694,0.7988835,0.72836095,0.07066247,0.09781578,0.67448443,-1.2997388,-0.24175088,0.99074423,1.0,0.0,0.0,0.0,0.0,0.0,0.0,-2.9605775,0.107532114,-0.36324143,-0.40609837,0.45554638,5.98526,-1.9098997,0.7899165,-2.0599842,-1.278609
10.438182,68.32692,21.313911,9.340693,0.076836824,1.3861263,0.15345839,-0.8167463,0.72295177,-0.07870389,0.5740462,0.60100406,0.6639409,-0.5596353,1.5145842,-0.8730711,-1.8835311,-0.87569284,2.1245067,1.3146056,-1.0034428,1.5817114,-0.9325594,-1.8773277,-0.9226757,2.0727758,1.2535902,-0.951292,-1.4563893,1.2820834,-0.15254198,1.0364366,0.8390602,0.5337576,-0.3839119,2.2802658,-0.5070944,0.95393586,-3.0305417,0.043730494,4.0438685,0.34812546,-0.5630264,0.8088658,0.7378646,0.062139146,0.09638551,0.66513485,-1.30104,-0.18026404,0.9997675,1.0,0.0,0.0,0.0,0.0,0.0,0.0,-2.930266,0.10709438,-0.40393585,-0.70545673,0.5762577,5.690691,-2.2783756,0.93011856,-1.6474009,-1.0500789
10.643866,67.83942,20.701954,9.24732,0.010340154,1.2981069,0.142752,-0.8165823,0.73090625,-0.066822566,0.5642359,0.59995186,0.66236866,-0.5525796,1.5000532,-0.85946876,-1.88401,-0.8662521,2.132771,1.3198271,-1.00655,1.5671183,-0.9196619,-1.8785636,-0.9124657,2.0812254,1.2588354,-0.9551601,-1.4611038,1.2920132,-0.11219427,1.0151104,0.8465418,0.5212688,-0.38887495,2.2499847,-0.5066576,0.99360776,-3.0275116,0.04368677,3.9416397,0.3351364,-0.56448984,0.81891966,0.74703515,0.053478308,0.09494749,0.6557923,-1.2991959,-0.11869159,1.0059174,1.0,0.0,0.0,0.0,0.0,0.0,0.0,-2.8999848,0.106657594,-0.44360775,-0.66678524,0.900507,4.5859723,-2.3655415,0.6415367,-1.3290763,-0.82436204
11.55356,66.84909,20.07435,8.778274,-0.0607028,1.18358,0.15062138,-0.8141265,0.7357769,-0.052719425,0.5515578,0.60779756,0.6661241,-0.54054105,1.4857056,-0.8460842,-1.8838356,-0.85730994,2.1420052,1.3254478,-1.0092142,1.5525004,-0.9066595,-1.8794677,-0.9024769,2.0897512,1.2639776,-0.9590606,-1.4626876,1.3027766,-0.08142768,0.992685,0.85441923,0.5117381,-0.39148366,2.2197342,-0.5062208,1.0322582,-3.0244849,0.04364309,3.839513,0.32219315,-0.56534004,0.82900995,0.7558698,0.044698954,0.093535915,0.64646256,-1.2929718,-0.057490617,1.0084984,1.0,0.0,0.0,0.0,0.0,0.0,0.0,-2.8697343,0.10622081,-0.48225814,-0.3476858,0.9930372,3.6042407,-2.4739623,0.695312,-1.0069847,-0.5801678
11.75037,65.671616,19.474861,8.66713,-0.06030011,1.0966778,0.16145432,-0.8159458,0.7378382,-0.031114237,0.5399163,0.61753243,0.6651105,-0.5327866,1.4709058,-0.83287567,-1.8825792,-0.8484853,2.1515045,1.3304887,-1.0123392,1.537871,-0.8935627,-1.8800762,-0.8927113,2.0983725,1.2690398,-0.96297544,-1.4637535,1.311733,-0.052397747,0.9704405,0.8640405,0.5041355,-0.39248493,2.1895142,-0.505785,1.0698881,-3.021461,0.043599457,3.7374887,0.30932617,-0.5655894,0.8391107,0.76436174,0.035812046,0.092147954,0.6371634,-1.2846644,0.002051498,1.0086014,1.0,0.0,0.0,0.0,0.0,0.0,0.0,-2.8395143,0.10578498,-0.5198881,-0.29058456,0.81984997,3.4154243,-2.451253,0.8789897,-0.7978678,-0.41159987
12.539209,64.73828,18.779842,8.132292,-0.17541045,0.966249,0.15047033,-0.8132074,0.7482469,-0.03554901,0.5228025,0.6157324,0.66853315,-0.5348179,1.4565502,-0.818738,-1.8836311,-0.84043103,2.1599457,1.335893,-1.0164572,1.5232493,-0.8803543,-1.8805053,-0.8831898,2.1070662,1.2740389,-0.9668979,-1.4621962,1.3236105,-0.0380128,0.94523287,0.87096417,0.49861217,-0.3931562,2.1593246,-0.50534916,1.1064986,-3.01844,0.043555867,3.6355662,0.296566,-0.5652466,0.8491847,0.7725187,0.026846731,0.090835884,0.6278876,-1.2711153,0.061132055,1.0047086,1.0,0.0,0.0,0.0,0.0,0.0,0.0,-2.8093247,0.10534915,-0.5564986,-0.023841858,1.1206388,1.92523,-2.7487397,0.6251693,-0.56010485,-0.3684938
13.676849,62.98429,18.089468,7.129613,-0.25893456,0.8307141,0.18816186,-0.813834,0.7501574,-0.021532852,0.49339756,0.6271123,0.6687245,-0.52676463,1.4418659,-0.80533856,-1.8826586,-0.83385,2.1697774,1.3409114,-1.0195744,1.5086428,-0.8670429,-1.880801,-0.8740002,2.1158438,1.2789942,-0.9708194,-1.460617,1.333496,-0.025347099,0.9094079,0.8798723,0.49460858,-0.39277622,2.1291656,-0.5049143,1.1420906,-3.0154223,0.043512322,3.5337455,0.28398132,-0.5643182,0.8591835,0.78032035,0.017842412,0.08961638,0.6186684,-1.2521468,0.11918669,0.99566454,1.0,0.0,0.0,0.0,0.0,0.0,0.0,-2.7791657,0.10491428,-0.59209055,-0.020337105,0.9332895,1.7399862,-3.815508,0.83373785,-0.36999583,-0.25661588
14.420717,61.53704,17.615454,6.7529826,-0.26539835,0.73094887,0.21111827,-0.8097959,0.7493132,-0.004369591,0.47975335,0.63327533,0.66665685,-0.5255773,1.4276632,-0.7921116,-1.8812379,-0.82602483,2.1791713,1.3456599,-1.0233772,1.4940687,-0.8536657,-1.8809383,-0.86516917,2.1247168,1.2839152,-0.9747352,-1.4566932,1.339043,-0.008399439,0.8736527,0.8892973,0.49149206,-0.392128,2.0990372,-0.5044794,1.1766651,-3.0124075,0.04346882,3.4320269,0.27161026,-0.56282425,0.86907697,0.78775257,0.008815873,0.0884674,0.6095422,-1.2301751,0.17500892,0.9845162,1.0,0.0,0.0,0.0,0.0,0.0,0.0,-2.7490373,0.1044794,-0.62666506,0.22292137,0.5088806,2.1510558,-3.80342,0.89342594,-0.259912,-0.22284389
13.998421,62.23252,17.600372,7.1048765,-0.2698998,0.72352636,0.21705541,-0.8183569,0.76085055,0.011383754,0.45301318,0.6349143,0.672666,-0.51822805,1.4122331,-0.7775807,-1.8798,-0.81986785,2.188208,1.3511817,-1.026558,1.4794909,-0.8402046,-1.8808677,-0.85673296,2.1336699,1.2888151,-0.9786386,-1.4587085,1.3482169,0.013766057,0.83288354,0.89704746,0.48962522,-0.3907077,2.0689392,-0.504045,1.2102232,-3.0093956,0.04342536,3.3304098,0.259449,-0.56076336,0.8788685,0.7948134,-0.00024037939,0.08739488,0.6005279,-1.2076737,0.23144497,0.97429764,1.0,0.0,0.0,0.0,0.0,0.0,0.0,-2.7189393,0.104045,-0.6602232,-0.37646294,0.8736849,2.6773584,-4.2966604,0.7279873,-0.13136268,-0.13770461
15.705734,60.42382,17.079004,5.783117,-0.37051255,0.5801437,0.2711584,-0.8150718,0.7589343,0.027584337,0.41317478,0.64407694,0.6718366,-0.5140675,1.3979837,-0.7643112,-1.8781093,-0.8154155,2.1980774,1.3559988,-1.0300454,1.4648997,-0.8266777,-1.8805416,-0.84879744,2.1427069,1.2937018,-0.98252577,-1.4597445,1.3540254,0.04033029,0.779768,0.9059011,0.48861772,-0.3888907,2.0388641,-0.5036111,1.2427659,-3.006387,0.04338194,3.2288942,0.24756241,-0.5581422,0.8885219,0.8014766,-0.009295766,0.08639246,0.5916799,-1.1785952,0.2867005,0.95904773,1.0,0.0,0.0,0.0,0.0,0.0,0.0,-2.6888642,0.10361108,-0.6927659,-0.27236938,0.55069923,3.0986369,-5.5312157,0.8492112,0.00088214874,-0.08895993
18.181507,60.91991,17.576836,4.5874662,-0.462757,0.5372598,0.36335394,-0.81714034,0.76048917,0.07858437,0.3665231,0.64954275,0.67117137,-0.5112716,1.3831856,-0.75062877,-1.8726832,-0.8121451,2.2076612,1.3608189,-1.0336529,1.4502913,-0.8131069,-1.8797653,-0.8415066,2.1518316,1.2985827,-0.98639387,-1.461921,1.3579496,0.09158786,0.7114274,0.9146765,0.48819834,-0.38698184,2.0088196,-0.50317764,1.2742941,-3.0033813,0.043338567,3.1274803,0.2360115,-0.55494547,0.89802057,0.80768573,-0.01834551,0.08541796,0.5831045,-1.1432934,0.34471393,0.943227,1.0,0.0,0.0,0.0,0.0,0.0,0.0,-2.6588197,0.10317764,-0.7242941,-0.38461685,0.37038326,5.5775123,-7.0426464,0.83931684,0.095790625,-0.077569485
20.670258,59.697346,17.199087,2.6920109,-0.66062915,0.3585567,0.42638704,-0.81648135,0.7659781,0.09352348,0.30607814,0.6561213,0.6656321,-0.50914043,1.3686432,-0.7365091,-1.870413,-0.8108988,2.2174437,1.3651459,-1.0373079,1.4356676,-0.7994884,-1.878474,-0.8350512,2.161048,1.3034579,-0.99024194,-1.463115,1.3631544,0.14289479,0.6229031,0.9239081,0.4880362,-0.38494462,1.9788055,-0.5027447,1.3048091,-3.0003784,0.04329524,3.0261676,0.22488022,-0.55116796,0.9073181,0.81339794,-0.027337156,0.08447968,0.57489085,-1.0979215,0.40206733,0.9214701,1.0,0.0,0.0,0.0,0.0,0.0,0.0,-2.6288056,0.10274467,-0.7548091,-0.27616024,0.5136967,5.548562,-9.054316,0.90287924,0.18393993,-0.045883656
22.77998,58.363556,16.855585,1.1198902,-0.80102384,0.19015124,0.48746076,-0.815092,0.7675212,0.12514395,0.24540494,0.6650882,0.6623763,-0.49958944,1.3541584,-0.7227363,-1.8659596,-0.8105107,2.2275567,1.3696954,-1.040201,1.421044,-0.7858213,-1.876643,-0.8295952,2.1703672,1.308333,-0.9940643,-1.4626647,1.367952,0.19771685,0.51916414,0.9345137,0.48816803,-0.3820484,1.948822,-0.5023117,1.3343117,-2.9973786,0.043251954,2.9249563,0.2142601,-0.54682636,0.9163671,0.8185826,-0.03621489,0.08358881,0.56711894,-1.04423,0.45732722,0.89520234,1.0,0.0,0.0,0.0,0.0,0.0,0.0,-2.598822,0.1023117,-0.7843117,-0.09431839,0.48930645,5.8511615,-10.562027,1.0650754,0.26710033,0.06260872
24.071867,55.463535,15.997279,-0.46493387,-0.9024782,-0.016344666,0.54245484,-0.8174236,0.76432586,0.15866233,0.17167442,0.67608666,0.664232,-0.4900648,1.3393016,-0.70938873,-1.8607767,-0.81242776,2.2379758,1.3747562,-1.0430708,1.4064184,-0.7721323,-1.8742454,-0.8253027,2.1798086,1.313214,-0.9978513,-1.4629279,1.3692694,0.25482482,0.39872026,0.94725513,0.48912755,-0.37824634,1.918869,-0.5018797,1.362803,-2.994382,0.04320871,2.8238463,0.20422745,-0.54196405,0.9251052,0.82321745,-0.04490882,0.08274376,0.5598656,-0.9835252,0.5074117,0.862326,1.0,0.0,0.0,0.0,0.0,0.0,0.0,-2.568869,0.101879686,-0.812803,-0.14486313,0.15985966,6.0162783,-12.219411,1.309216,0.405699,0.18280149
24.418156,55.94823,16.003752,-0.53592634,-0.9711279,-0.09499624,0.5481589,-0.81969035,0.7744408,0.19186348,0.110523134,0.6698918,0.66134983,-0.47219235,1.3244494,-0.6946882,-1.855059,-0.8142504,2.2467978,1.3793489,-1.0450705,1.3917795,-0.7583946,-1.8712661,-0.8222376,2.1893377,1.3181025,-1.0015879,-1.4644239,1.3753301,0.31313685,0.27531013,0.95500153,0.48999,-0.3727787,1.8889465,-0.5014477,1.3902838,-2.991388,0.04316551,2.7228374,0.1948204,-0.536602,0.933523,0.8273086,-0.053394552,0.08197605,0.5531631,-0.9194303,0.5562613,0.83036953,1.0,0.0,0.0,0.0,0.0,0.0,0.0,-2.5389466,0.10144767,-0.8402838,-0.25000572,0.6465435,6.0717583,-12.489462,0.84700584,0.41451454,0.38015246
24.420261,55.476337,15.8869915,-0.39743567,-0.94785017,-0.16913536,0.5627967,-0.8196062,0.7745373,0.236399,0.050096646,0.6743911,0.66241604,-0.4425185,1.309819,-0.68094087,-1.8476262,-0.81722796,2.2567768,1.3843441,-1.0458397,1.3771292,-0.7446016,-1.867646,-0.8203827,2.1989317,1.3230006,-1.0052519,-1.4655598,1.3808148,0.37873623,0.15512377,0.96152765,0.4909978,-0.3646375,1.8590546,-0.5010166,1.4167553,-2.9883971,0.04312235,2.6219294,0.18605804,-0.5307641,0.94163144,0.83086497,-0.06167733,0.081284985,0.5470394,-0.854517,0.6022148,0.7995174,1.0,0.0,0.0,0.0,0.0,0.0,0.0,-2.5090547,0.10101661,-0.8667553,-0.19023418,0.6021023,6.728977,-12.1409235,0.76526403,0.44029355,0.67457557
20.552162,55.2466,15.527884,2.8780384,-0.63240623,-0.12116033,0.45157233,-0.8165374,0.77380013,0.26641026,0.050308865,0.66802573,0.665664,-0.4118466,1.2954755,-0.6672216,-1.841005,-0.81535184,2.2657342,1.3895669,-1.0464365,1.3624865,-0.7307695,-1.8633888,-0.81940615,2.20856,1.3279082,-1.0088148,-1.4640995,1.3842359,0.44185194,0.0782271,0.9635902,0.49173328,-0.3540181,1.8291931,-0.50058556,1.4422185,-2.9854095,0.04307924,2.5211222,0.17785263,-0.5245013,0.9494992,0.83395815,-0.0698386,0.0806422,0.5414178,-0.80216974,0.64271665,0.77759,1.0,0.0,0.0,0.0,0.0,0.0,0.0,-2.4791932,0.10058555,-0.89221853,0.090265274,0.4056692,6.393218,-7.792759,0.37339926,0.36346316,0.9414077
18.292252,54.30206,15.066094,4.4085,-0.48036122,-0.13933113,0.39941308,-0.8206811,0.7747604,0.30295905,0.010006803,0.666638,0.66132456,-0.39360085,1.2804184,-0.6532935,-1.8330929,-0.81840545,2.2752237,1.3940406,-1.0481749,1.3478419,-0.7169126,-1.8585002,-0.81906855,2.218192,1.3328177,-1.0122671,-1.464739,1.386399,0.50487155,0.018613406,0.9635816,0.49172822,-0.34247923,1.7993622,-0.50015545,1.4666744,-2.9824247,0.04303617,2.4204159,0.17012024,-0.5178561,0.9571725,0.83664846,-0.0779318,0.080032796,0.53622824,-0.75586265,0.6795095,0.7587258,1.0,0.0,0.0,0.0,0.0,0.0,0.0,-2.4493623,0.10015544,-0.91667444,-0.110936165,0.28760433,6.3333454,-6.0535336,0.19665956,0.27182698,1.0501742
18.561552,53.481564,14.814271,4.109776,-0.52802026,-0.22785029,0.40839335,-0.8185302,0.7779364,0.3362363,-0.040826272,0.6647407,0.66341215,-0.36435905,1.2659888,-0.63911897,-1.8248767,-0.8231512,2.284666,1.3991588,-1.0487031,1.3331991,-0.70302904,-1.8529918,-0.8193346,2.2278128,1.337731,-1.0155897,-1.4641546,1.3892477,0.5660212,-0.041879408,0.9620187,0.49192658,-0.3293206,1.7695618,-0.49972534,1.490124,-2.9794428,0.042993143,2.3198102,0.16285706,-0.51084995,0.964651,0.83894813,-0.085954286,0.07946874,0.5314721,-0.70716006,0.71455073,0.7387953,1.0,0.0,0.0,0.0,0.0,0.0,0.0,-2.4195619,0.099725336,-0.940124,0.025963783,0.3629923,6.109774,-6.12684,0.058197975,0.30483603,1.2283623
16.812634,52.84162,14.478233,5.5012736,-0.4086062,-0.24520183,0.36124933,-0.8163123,0.7791449,0.3640084,-0.045539808,0.6591711,0.66058505,-0.31775117,1.251568,-0.62511456,-1.816591,-0.8238886,2.2937298,1.4037895,-1.0473648,1.3185736,-0.6891178,-1.8469112,-0.8200594,2.237399,1.3426424,-1.0187578,-1.4620225,1.3920588,0.6219815,-0.08287633,0.9583619,0.4916408,-0.3129803,1.7397919,-0.4992957,1.5125682,-2.9764638,0.042950157,2.219305,0.15605164,-0.50351,0.971956,0.84089047,-0.09392667,0.078960866,0.527111,-0.6634745,0.74679613,0.7222172,1.0,0.0,0.0,0.0,0.0,0.0,0.0,-2.389792,0.099295706,-0.9625682,0.19001961,0.36671162,5.546367,-4.1698227,-0.12687445,0.23873448,1.5587747
10.867676,49.882797,12.937336,9.293161,-0.033150256,-0.2318809,0.1775274,-0.8190514,0.7769234,0.35672814,-0.0062782927,0.6557221,0.66158605,-0.30057994,1.2366685,-0.61142546,-1.8112384,-0.82068723,2.3029714,1.4088011,-1.0488158,1.3039557,-0.67519605,-1.8404682,-0.8208519,2.2469397,1.3475481,-1.0217638,-1.4618206,1.392608,0.65141016,-0.07844978,0.95384866,0.4907886,-0.29676306,1.7100525,-0.49886656,1.5340081,-2.973488,0.042907216,2.1189005,0.14955139,-0.49590564,0.9791382,0.8425867,-0.101909555,0.07851698,0.52296954,-0.63683015,0.77071774,0.71109784,1.0,0.0,0.0,0.0,0.0,0.0,0.0,-2.3600526,0.09886655,-0.98400813,-0.018239021,0.14653206,2.8651357,0.34788847,-0.19215345,0.120681524,1.5487552
4.442565,49.33683,12.118684,14.354127,0.3964318,-0.087769225,-0.033152476,-0.8214425,0.7812197,0.3528192,0.060833257,0.64158076,0.66077757,-0.27958155,1.2218114,-0.5970741,-1.8051863,-0.8147686,2.3110976,1.4136258,-1.049722,1.2893225,-0.66125524,-1.8338993,-0.82116663,2.2564,1.3524405,-1.0246096,-1.4639983,1.3949023,0.65824896,-0.01627714,0.9448928,0.48902914,-0.28070346,1.6803398,-0.49843788,1.5544448,-2.9705153,0.04286432,2.0185962,0.14315414,-0.4880829,0.98629403,0.8441762,-0.11002121,0.07815043,0.518801,-0.6310155,0.79165214,0.71120524,1.0,0.0,0.0,0.0,0.0,0.0,0.0,-2.33034,0.098437876,-1.0044448,-0.28464794,0.32384396,0.5942941,6.0971026,-0.61120987,-0.05518794,1.5260339
1.3526316,46.99017,11.19633,16.331667,0.61678314,-0.07841653,-0.11810759,-0.82436293,0.77616817,0.35624394,0.09452494,0.64077806,0.65443194,-0.2534343,1.2068862,-0.5836384,-1.7982749,-0.8117141,2.320478,1.4178836,-1.049953,1.2746512,-0.6473173,-1.8273418,-0.820685,2.2657804,1.357308,-1.0272913,-1.4684278,1.3936328,0.65469134,0.06916,0.9368474,0.48629507,-0.26437333,1.6506538,-0.49800968,1.5738791,-2.9675453,0.042821463,1.918392,0.13674927,-0.48007607,0.99346966,0.84573364,-0.11832418,0.07785078,0.514464,-0.6349549,0.8091831,0.71363276,1.0,0.0,0.0,0.0,0.0,0.0,0.0,-2.300654,0.098009676,-1.023879,-0.5256176,-0.036478043,-0.43091774,8.407554,-0.52580833,-0.194031,1.5455604
-0.14054298,46.511974,10.819605,17.514917,0.67866296,-0.07052865,-0.18423223,-0.82590955,0.78235596,0.33935696,0.14261487,0.63678735,0.6512232,-0.24568354,1.1920602,-0.56908166,-1.7934061,-0.80642354,2.3294592,1.4224304,-1.0518596,1.2599322,-0.6333698,-1.8209312,-0.81924975,2.2750845,1.3621451,-1.0298204,-1.4734151,1.3954942,0.63638,0.16790193,0.9293639,0.48309332,-0.24953233,1.6209984,-0.49758172,1.5923122,-2.9645782,0.04277865,1.8182878,0.13026428,-0.47189283,1.0006843,0.84730154,-0.12684451,0.0776358,0.5098658,-0.6430185,0.82703537,0.7180095,1.0,0.0,0.0,0.0,0.0,0.0,0.0,-2.2709985,0.097581714,-1.0423121,-0.5937815,0.26972294,-1.8859863,9.735608,-0.47872066,-0.2734363,1.3933927
-1.1063528,45.019577,10.283747,18.13354,0.7279758,-0.08838405,-0.22092947,-0.8260249,0.78044283,0.32169953,0.20336628,0.63001204,0.6559538,-0.21704887,1.1773297,-0.5553255,-1.7887613,-0.7989131,2.3380857,1.4277405,-1.0515254,1.2451731,-0.6194118,-1.8147819,-0.8167511,2.2843122,1.3669573,-1.0321989,-1.4771851,1.3961835,0.6076076,0.2767107,0.9213094,0.48046538,-0.23416317,1.5913734,-0.49715424,1.609745,-2.9616144,0.04273588,1.7182839,0.123680115,-0.46353698,1.0079432,0.8489014,-0.13560171,0.07751978,0.5049447,-0.6538954,0.84427017,0.7223526,1.0,0.0,0.0,0.0,0.0,0.0,0.0,-2.2413735,0.09715423,-1.0597451,-0.47633648,0.14491081,-2.9152513,10.739631,-0.54701567,-0.23984313,1.4404088
3.8115735,42.592377,9.817137,13.111474,0.2551378,-0.38658494,-0.07918862,-0.82528186,0.78151137,0.30502757,0.16748953,0.635013,0.652083,-0.22455381,1.1626449,-0.5412607,-1.7842791,-0.80000216,2.3478136,1.4321656,-1.0546542,1.230393,-0.6054443,-1.8089569,-0.81358206,2.2934866,1.3717467,-1.0344439,-1.4786396,1.397105,0.5740214,0.3298848,0.91683006,0.47861972,-0.2215943,1.561779,-0.49672723,1.6261785,-2.9586535,0.042693153,1.61838,0.11714172,-0.45502782,1.0151362,0.85047764,-0.14445065,0.07755439,0.4998069,-0.6433568,0.8589997,0.71198535,1.0,0.0,0.0,0.0,0.0,0.0,0.0,-2.211779,0.09672722,-1.0761786,-0.22625923,0.15804768,-3.350854,5.193406,-0.24656057,-0.0864625,1.1666864
6.5269957,39.572636,9.053326,9.671248,-0.039950073,-0.6300673,0.013717331,-0.8297773,0.77807546,0.28735137,0.16321594,0.6302433,0.648203,-0.2156371,1.1474153,-0.52763677,-1.7802217,-0.79726046,2.3565109,1.436567,-1.0560076,1.2155882,-0.5914873,-1.8034828,-0.8101803,2.302619,1.3765188,-1.0365725,-1.4814118,1.3954791,0.5388082,0.3432143,0.9122316,0.47731036,-0.21017003,1.5322151,-0.4963007,1.6416137,-2.9556954,0.04265047,1.5185759,0.110816956,-0.44640994,1.0221432,0.85197926,-0.15322961,0.07778617,0.49457175,-0.6190625,0.86886466,0.6907062,1.0,0.0,0.0,0.0,0.0,0.0,0.0,-2.1822152,0.09630069,-1.0916138,-0.3488779,-0.0998497,-3.486812,1.2135804,-0.29393435,0.025206804,1.0590911
10.232145,37.99393,8.902515,5.94694,-0.36746874,-0.85468173,0.15371081,-0.8287519,0.7757255,0.28307173,0.13411663,0.6246312,0.6509878,-0.1671558,1.1327131,-0.51391476,-1.7751756,-0.79676867,2.365082,1.4416176,-1.053288,1.2007662,-0.5775598,-1.7982948,-0.8069569,2.3116941,1.3812853,-1.0385637,-1.4825863,1.3920428,0.5124479,0.3150643,0.9065643,0.47723144,-0.19570468,1.5026817,-0.4958744,1.6560516,-2.9527402,0.042607825,1.4188716,0.104854584,-0.43771434,1.0288682,0.8533399,-0.16180667,0.07825069,0.48939386,-0.57893085,0.8755981,0.6602754,1.0,0.0,0.0,0.0,0.0,0.0,0.0,-2.1526818,0.0958744,-1.1060517,-0.16686916,-0.28147697,-2.5843978,-2.9170096,-0.43343306,0.21126866,1.3701439
13.217745,38.980335,9.516629,3.7259407,-0.57819486,-0.9652386,0.28164908,-0.82721967,0.77927196,0.28741103,0.10510903,0.630057,0.6558602,-0.09038565,1.1180443,-0.49963263,-1.7695537,-0.79644597,2.3746998,1.4468713,-1.0476023,1.185948,-0.5636476,-1.7932556,-0.8042103,2.3207388,1.3860594,-1.0403643,-1.481724,1.3912003,0.50112057,0.2609101,0.904105,0.47820833,-0.175149,1.4731789,-0.4954486,1.6694932,-2.9497879,0.042565227,1.3192672,0.09936142,-0.42894244,1.0352681,0.8544856,-0.1701129,0.07894643,0.48444125,-0.52802813,0.88297194,0.6271711,1.0,0.0,0.0,0.0,0.0,0.0,0.0,-2.123179,0.09544858,-1.1194932,0.05788803,-0.02090931,-1.0779262,-5.4906187,-0.12691021,0.3491044,1.9859254
10.321272,36.874783,8.867447,6.12965,-0.28857678,-0.92324394,0.23759231,-0.8266482,0.7674441,0.27463368,0.14573115,0.6127873,0.6571632,0.04030865,1.1032832,-0.48690322,-1.7657923,-0.7896372,2.3820176,1.4517757,-1.0363334,1.1711451,-0.5497917,-1.7883174,-0.8017689,2.3297186,1.390843,-1.0418768,-1.479931,1.3840648,0.49148002,0.2382468,0.89666003,0.47899973,-0.14352,1.4437065,-0.49502325,1.6819396,-2.9468389,0.042522673,1.2197621,0.09430313,-0.42011356,1.0413799,0.85541683,-0.17820138,0.07984805,0.4797192,-0.48909184,0.88757503,0.59992,1.0,0.0,0.0,0.0,0.0,0.0,0.0,-2.0937066,0.095023245,-1.1319396,0.14810562,-0.64361095,-0.94363093,-2.355808,-0.59376955,0.29022694,3.0899763
9.505683,34.72648,8.063936,6.0776005,-0.27015603,-1.0209559,0.21606368,-0.8286625,0.7670298,0.24848427,0.11624822,0.6167895,0.6615233,0.07545421,1.0882788,-0.4730887,-1.763469,-0.7901441,2.3913975,1.4569954,-1.0343313,1.1563479,-0.5360035,-1.7835586,-0.7995678,2.338645,1.3956362,-1.043067,-1.4795411,1.377237,0.47059703,0.21380104,0.8916996,0.48012248,-0.111001536,1.414257,-0.4945984,1.6933916,-2.9438927,0.042480156,1.1203566,0.08961868,-0.41126633,1.0472094,0.85616153,-0.18606785,0.08096034,0.47519618,-0.45084724,0.88779306,0.57140535,1.0,0.0,0.0,0.0,0.0,0.0,0.0,-2.0642571,0.09459838,-1.1433916,0.00667572,-0.6094694,-2.078855,-2.5387168,-0.3426671,0.32308698,3.1869352
7.2619762,28.960108,6.077194,6.086006,-0.17135173,-1.1857967,0.1545837,-0.8341517,0.75315744,0.21109048,0.09882774,0.60890245,0.66310364,0.12088148,1.0729327,-0.46068773,-1.7624495,-0.7896851,2.3995352,1.4619466,-1.0309788,1.1415259,-0.52233446,-1.7791584,-0.79761374,2.3475142,1.4004408,-1.0439272,-1.4831681,1.3637587,0.4297345,0.18890914,0.8854243,0.48131368,-0.07792702,1.3848381,-0.494174,1.7038503,-2.9409494,0.042437684,1.0210505,0.085289,-0.40249443,1.0527216,0.8567768,-0.19364913,0.08231021,0.47080627,-0.41667113,0.87727016,0.5387279,1.0,0.0,0.0,0.0,0.0,0.0,0.0,-2.0348382,0.094174,-1.1538503,-0.40040016,-1.2693167,-4.0919304,-2.6074438,-0.47211647,0.33376813,3.2503872
6.25972,27.637693,5.557932,6.6770372,-0.11188549,-1.2325306,0.12736413,-0.83299434,0.7510294,0.1847748,0.095471114,0.6067205,0.6667841,0.20005307,1.0582265,-0.44723153,-1.7606809,-0.7880666,2.4081862,1.4671192,-1.0239218,1.1266714,-0.5087923,-1.7752426,-0.7958609,2.3563223,1.4052588,-1.0444326,-1.4863013,1.3513398,0.37861046,0.17026617,0.8798503,0.48261067,-0.04145487,1.3554497,-0.49374986,1.7133167,-2.938009,0.042395256,0.92184365,0.08128357,-0.3938415,1.0579182,0.8573,-0.20092906,0.08392117,0.46649912,-0.38529885,0.8643692,0.5077269,1.0,0.0,0.0,0.0,0.0,0.0,0.0,-2.0054498,0.09374985,-1.1633167,-0.3540516,-1.1612177,-5.1276627,-1.9891977,-0.39471388,0.33068657,3.5920718
3.2288313,25.70706,4.6693673,9.194622,0.1266805,-1.207014,0.01370573,-0.8320063,0.7455783,0.12890263,0.1297615,0.60553825,0.66535676,0.26644188,1.0434709,-0.43423444,-1.7623523,-0.7828847,2.416876,1.4717945,-1.0177884,1.111796,-0.49536836,-1.7720077,-0.79407084,2.3650846,1.4100863,-1.0445585,-1.4881775,1.3396918,0.30504528,0.18141271,0.8756215,0.48316628,-0.0030534219,1.3260918,-0.4933262,1.7217917,-2.9350715,0.04235287,0.822736,0.077503204,-0.38532805,1.0628456,0.85779047,-0.20795362,0.085805684,0.46215594,-0.36532333,0.84961396,0.48242813,1.0,0.0,0.0,0.0,0.0,0.0,0.0,-1.9760917,0.09332618,-1.1717918,-0.25129318,-1.0833502,-7.379806,0.96091926,-0.23921728,0.2119422,3.7783284
-0.0033392906,20.68859,2.779182,10.791729,0.33632898,-1.2853734,-0.11705689,-0.83039284,0.7324447,0.044117913,0.15301381,0.6029726,0.6663738,0.31311136,1.0287567,-0.42212388,-1.7675959,-0.77876943,2.425382,1.4767237,-1.0132474,1.0969168,-0.48208892,-1.7697799,-0.792009,2.3738089,1.4149157,-1.044301,-1.488012,1.3242755,0.19527446,0.21378775,0.8722111,0.4833802,0.03500613,1.2967644,-0.492903,1.7292764,-2.9321368,0.042310525,0.72372746,0.073848724,-0.37701774,1.0675257,0.85833764,-0.21473143,0.08799377,0.45760673,-0.35539705,0.8272464,0.45807657,1.0,0.0,0.0,0.0,0.0,0.0,0.0,-1.9467643,0.09290299,-1.1792765,-0.05722046,-1.4598131,-11.018762,3.0490994,-0.1446724,0.1515925,3.7408907
-6.4372663,16.225872,0.6897123,15.912445,0.7895908,-1.1859196,-0.3904073,-0.8334646,0.72517186,-0.07691622,0.24995118,0.5876991,0.66480607,0.34518388,1.0135703,-0.40957174,-1.7774715,-0.7670139,2.4325788,1.4813963,-1.0097827,1.082028,-0.46896732,-1.769038,-0.7891823,2.3824682,1.4197413,-1.0436792,-1.4895974,1.3083638,0.033684645,0.30478677,0.864415,0.4824585,0.070777975,1.2674675,-0.49248028,1.7357719,-2.9292054,0.042268224,0.6248179,0.070114136,-0.36894774,1.0720292,0.85908407,-0.22134832,0.090539254,0.45252848,-0.36900747,0.80265146,0.44297412,1.0,0.0,0.0,0.0,0.0,0.0,0.0,-1.9174675,0.09248027,-1.185772,-0.28874874,-1.517868,-16.202864,8.845705,-0.5401969,-0.047016144,3.493458
-6.675462,11.868677,-0.5454302,14.799227,0.7706215,-1.3261963,-0.3835999,-0.8316946,0.70451546,-0.15152043,0.24415678,0.57890135,0.66525525,0.41125548,0.9988586,-0.39851576,-1.78419,-0.76476663,2.4403584,1.4862669,-1.0025537,1.0671335,-0.4560641,-1.7699993,-0.7855431,2.3910322,1.4245592,-1.0426912,-1.4896001,1.2845489,-0.13957934,0.38271657,0.85413635,0.481724,0.10788008,1.2381973,-0.4920578,1.7412789,-2.926277,0.042225964,0.52600724,0.066265106,-0.36117578,1.0763446,0.86007655,-0.22777067,0.09347483,0.44682357,-0.3813926,0.77137196,0.42324856,1.0,0.0,0.0,0.0,0.0,0.0,0.0,-1.8881973,0.092057794,-1.1912789,-0.09584427,-2.312708,-17.402271,7.5458407,-0.79342127,-0.011461973,3.6317258
-4.139475,9.841557,-0.5051203,11.738869,0.6047437,-1.4703101,-0.2397094,-0.8346706,0.6779073,-0.18201995,0.2219762,0.56586665,0.6593976,0.44438446,0.9836665,-0.38827336,-1.7882012,-0.7633455,2.447619,1.490499,-0.9982528,1.0522295,-0.44348228,-1.7724464,-0.781428,2.3994627,1.4293677,-1.0413446,-1.4906222,1.2496301,-0.27997988,0.42042154,0.8401487,0.48097256,0.14332932,1.2089539,-0.4916358,1.7457986,-2.9233513,0.042183746,0.4272954,0.062358856,-0.35375237,1.0804077,0.8612572,-0.23390341,0.096764445,0.4406381,-0.38402766,0.73566765,0.39673895,1.0,0.0,0.0,0.0,0.0,0.0,0.0,-1.8589538,0.09163579,-1.1957986,-0.14679432,-3.4224033,-14.1265335,3.564626,-1.1972904,0.038069487,3.4762204
0.59806633,13.516076,1.3692946,8.385628,0.28599352,-1.532996,-0.030651942,-0.83205104,0.66530603,-0.19611937,0.19324453,0.55959374,0.66088724,0.4593008,0.9690244,-0.37695166,-1.7920583,-0.7621035,2.4554222,1.4954563,-0.99541456,1.0373312,-0.4312514,-1.775914,-0.7772814,2.407752,1.4341742,-1.0396719,-1.4894516,1.2144946,-0.3692338,0.41227046,0.8258218,0.48094139,0.17521313,1.1797409,-0.49121428,1.7493318,-2.9204285,0.04214157,0.32868224,0.058555603,-0.34666014,1.0841768,0.8625099,-0.2396813,0.100337476,0.43423718,-0.37011367,0.70367455,0.36681846,1.0,0.0,0.0,0.0,0.0,0.0,0.0,-1.8297409,0.09121427,-1.1993318,0.108122826,-3.4421206,-8.979535,-0.9668052,-1.28268,0.15580058,3.1245768
3.4820745,15.08282,2.4533367,6.2704525,0.09652829,-1.5883678,0.10986717,-0.8275546,0.64113075,-0.2146913,0.17632736,0.5280316,0.65645933,0.48973507,0.9545758,-0.36713833,-1.7973831,-0.7596487,2.460555,1.4998201,-0.9906984,1.0224711,-0.41940057,-1.7799709,-0.77341807,2.4158316,1.4389788,-1.037694,-1.4848223,1.1755425,-0.4179948,0.3772803,0.8022923,0.48092517,0.20516987,1.1505585,-0.49079323,1.7518797,-2.9175086,0.04209944,0.2301677,0.054969788,-0.33987832,1.0876297,0.8637404,-0.2450705,0.104140095,0.42784074,-0.34618527,0.67274994,0.33499736,1.0,0.0,0.0,0.0,0.0,0.0,0.0,-1.8005584,0.09079322,-1.2018797,0.48544407,-3.8190842,-4.9219427,-3.6117613,-2.2353172,0.18870234,2.9370844
3.2016816,16.235006,2.9932466,7.46671,0.20870352,-1.5152171,0.1114771,-0.82607895,0.62093616,-0.24206063,0.1943202,0.5154163,0.6551077,0.5068902,0.9398632,-0.35730696,-1.8041769,-0.75398606,2.4673731,1.5044895,-0.98700494,1.0076605,-0.40794218,-1.784375,-0.76982844,2.423667,1.4437815,-1.0354376,-1.4796433,1.1361859,-0.44786802,0.35246605,0.7776055,0.48052847,0.23217914,1.1214066,-0.49037266,1.7534431,-2.9145916,0.042057347,0.13175164,0.051597595,-0.3333726,1.0908004,0.86491543,-0.25012255,0.1081198,0.42150918,-0.32648197,0.6461019,0.30826882,1.0,0.0,0.0,0.0,0.0,0.0,0.0,-1.7714065,0.09037265,-1.203443,0.522995,-3.866005,-3.0059934,-2.5912523,-2.3579001,0.12230873,2.6344566
3.0255337,20.115318,4.004995,9.204964,0.25351155,-1.3999819,0.08439869,-0.8278622,0.61734545,-0.26648286,0.19667004,0.5154839,0.6490154,0.5079361,0.9248743,-0.34620762,-1.8110232,-0.7501614,2.4752154,1.5086831,-0.984644,0.9928824,-0.39679468,-1.7890327,-0.7664019,2.4312963,1.4485728,-1.0329447,-1.4774426,1.1077621,-0.47168374,0.33892977,0.75870895,0.47912672,0.25487244,1.0922852,-0.48995233,1.7540232,-2.9116774,0.0420153,0.03343397,0.048404694,-0.32706213,1.093754,0.8660289,-0.25491813,0.11225377,0.41522256,-0.30909625,0.6284613,0.28849134,1.0,0.0,0.0,0.0,0.0,0.0,0.0,-1.7422851,0.08995232,-1.2040231,0.1721859,-2.7851343,-2.331251,-1.4741182,-1.7904758,-0.02142191,2.1897197
2.5506861,19.343908,3.7273855,9.521181,0.24344534,-1.4182296,0.059025403,-0.8253606,0.5949559,-0.2876412,0.1855048,0.47364536,0.6466887,0.52012175,0.9103463,-0.33729908,-1.8177968,-0.74785143,2.4786608,1.5132416,-0.9809325,0.97812426,-0.38593376,-1.7939384,-0.7630917,2.4386663,1.4533488,-1.0302439,-1.4754348,1.0790596,-0.49655372,0.32800636,0.72987914,0.47747502,0.27487177,1.0631905,-0.48953247,1.7536209,-2.9087663,0.041973293,-0.064785406,0.045383453,-0.32092786,1.0965152,0.86709446,-0.2594781,0.116564475,0.4089387,-0.29230598,0.61078864,0.26954523,1.0,0.0,0.0,0.0,0.0,0.0,0.0,-1.7131904,0.089532465,-1.2036209,0.15070438,-2.8149843,-2.4350464,-1.211834,-2.7874708,-0.051498413,1.9202113
1.1820586,16.536648,2.792106,10.139018,0.31100047,-1.4574226,0.003061533,-0.8202546,0.5712383,-0.32145777,0.19172917,0.43374565,0.64652514,0.54401267,0.8960988,-0.32880992,-1.8260841,-0.7439188,2.482041,1.5180013,-0.9758426,0.96340144,-0.37538946,-1.7991855,-0.7598187,2.4456701,1.4581095,-1.0273485,-1.4712771,1.0463927,-0.53388447,0.32664528,0.6909015,0.4759013,0.29393682,1.0341225,-0.4891131,1.752237,-2.9058583,0.041931327,-0.16290659,0.042499542,-0.31498933,1.0990896,0.8681438,-0.2638019,0.121095404,0.4025801,-0.2798701,0.59032726,0.25116432,1.0,0.0,0.0,0.0,0.0,0.0,0.0,-1.6841224,0.08911309,-1.2022369,0.37493706,-3.2136202,-3.701961,-0.25931597,-3.798461,-0.05096197,1.8265426
0.895561,10.629652,1.2300682,8.107449,0.25115356,-1.6662928,0.009755801,-0.8135327,0.53671074,-0.34796244,0.15545832,0.38757926,0.6456913,0.54632026,0.8820482,-0.3217184,-1.8339818,-0.7442728,2.4844282,1.5226786,-0.9727165,0.94875014,-0.36525762,-1.8048675,-0.75669825,2.452201,1.4628569,-1.0242834,-1.4628837,1.0022866,-0.5799579,0.30692902,0.64068633,0.47482833,0.31051287,1.005085,-0.4886942,1.7498727,-2.9029531,0.041889407,-0.26092967,0.03975296,-0.30934858,1.1014287,0.86921054,-0.2677968,0.12587179,0.3961237,-0.26585537,0.55724317,0.2260906,1.0,0.0,0.0,0.0,0.0,0.0,0.0,-1.655085,0.088694185,-1.1998727,0.8719921,-4.3464184,-4.6623588,-2.070737,-4.926598,0.035518408,1.5970707
0.6357851,6.1346846,0.12215626,6.5871334,0.17735296,-1.8148609,0.026728405,-0.8108845,0.50245076,-0.36036897,0.12857106,0.3103134,0.64519966,0.56104106,0.8676617,-0.31501254,-1.8409044,-0.7438412,2.4832323,1.5273769,-0.9681793,0.93418944,-0.3556441,-1.8109825,-0.7538897,2.4580755,1.4675967,-1.0210619,-1.4535335,0.94791734,-0.62239665,0.27194595,0.56974554,0.47418764,0.32593644,0.97607803,-0.48827553,1.746529,-2.9000509,0.041847523,-0.35885474,0.037158966,-0.30410528,1.1034799,0.8703166,-0.27136445,0.13093346,0.38957232,-0.2504376,0.5150951,0.19628137,1.0,0.0,0.0,0.0,0.0,0.0,0.0,-1.626078,0.08827552,-1.1965289,1.0212183,-5.3658724,-4.355645,-3.5739422,-7.0075035,0.1044631,1.4921904
-0.70896435,-3.1403494,-1.90481,5.0836105,0.3514288,-1.9910505,0.053401537,-0.8018228,0.43388224,-0.3489873,0.10730104,0.22250026,0.652052,0.57848305,0.8540072,-0.3122559,-1.8458812,-0.7431596,2.4803255,1.5328019,-0.96321356,0.9197508,-0.34678733,-1.8173587,-0.7514883,2.4630728,1.4723364,-1.0176897,-1.4400932,0.8652136,-0.6435672,0.22939688,0.47694415,0.4746729,0.34086543,0.9471016,-0.48785734,1.7422066,-2.8971515,0.041805685,-0.4566819,0.034679413,-0.29939413,1.1051874,0.87147087,-0.27443177,0.13623814,0.3829685,-0.24250962,0.45795065,0.16070375,1.0,0.0,0.0,0.0,0.0,0.0,0.0,-1.5971016,0.087857336,-1.1922066,1.522994,-8.190786,-2.335894,-4.292053,-9.192884,0.24109483,1.4571965
-1.1366205,-12.632755,-4.208002,1.2209023,0.43542483,-2.353724,0.114583224,-0.8018309,0.38002124,-0.38035813,0.014744865,0.24223107,0.6433611,0.57282823,0.8395677,-0.3087852,-1.8553946,-0.7500138,2.4872959,1.5366725,-0.9604069,0.9054276,-0.33887327,-1.8239868,-0.7498623,2.4673414,1.4770762,-1.0141878,-1.4287443,0.767123,-0.67029935,0.14033131,0.41017696,0.47458923,0.3533223,0.91815186,-0.48743963,1.7369066,-2.894255,0.041763887,-0.55441135,0.032245636,-0.2954352,1.1064535,0.8727087,-0.2768085,0.14164598,0.3764213,-0.23768322,0.37655208,0.11401534,1.0,0.0,0.0,0.0,0.0,0.0,0.0,-1.5681518,0.08743963,-1.1869066,1.4219284,-9.7160225,-3.0028462,-8.902398,-6.613797,0.20182133,1.2390852
1.0855904,-26.929026,-7.6306024,-9.112706,-0.25563988,-3.0927465,0.28726143,-0.79226744,0.2997357,-0.40798387,-0.18712167,0.073075674,0.6466451,0.56580144,0.82620084,-0.3088997,-1.8647852,-0.7685745,2.474649,1.5417407,-0.9576077,0.8912426,-0.33211648,-1.8309543,-0.7499615,2.4706144,1.4818236,-1.010581,-1.4132627,0.645682,-0.70741075,-0.05968388,0.29982027,0.4755182,0.36324847,0.8892288,-0.4870224,1.7306302,-2.8913612,0.04172213,-0.65204304,0.030029297,-0.29262376,1.1070342,0.87410694,-0.27801552,0.1472326,0.37009025,-0.2116942,0.2501077,0.038615156,1.0,0.0,0.0,0.0,0.0,0.0,0.0,-1.5392288,0.087022394,-1.1806302,2.0773888,-12.016797,-4.2664886,-19.901571,-11.022615,0.3689766,1.0156155
10.060968,-13.986921,-3.6650107,-17.144861,-1.6971054,-3.3309886,0.613908,-0.7940893,0.3080568,-0.3507948,-0.41890723,-0.124630116,0.64937645,0.5171956,0.8118337,-0.3013108,-1.8660338,-0.79185224,2.4581513,1.5467612,-0.9588615,0.8771759,-0.3262862,-1.8379562,-0.7529408,2.4723425,1.4865805,-1.0069265,-1.402708,0.56265384,-0.69968307,-0.37686563,0.13013501,0.47645542,0.36630276,0.8603363,-0.4866054,1.7233781,-2.8884704,0.041680418,-0.74957716,0.028495789,-0.29109073,1.1067488,0.87563485,-0.27763656,0.1532961,0.36425528,-0.13197973,0.12122178,-0.051445268,1.0,0.0,0.0,0.0,0.0,0.0,0.0,-1.5103363,0.0866054,-1.173378,1.6085625,-8.153618,0.24622679,-31.563133,-17.021318,0.33896565,0.3127277
13.344265,-3.2352247,-0.90868205,-18.24405,-2.1338673,-3.281526,0.7093194,-0.8062501,0.30530658,-0.3487164,-0.5832382,-0.15826142,0.6574094,0.4503957,0.7965509,-0.29575554,-1.8728279,-0.8112646,2.4565163,1.5523214,-0.96188694,0.8631197,-0.3209952,-1.8447826,-0.7594086,2.4724798,1.4913431,-1.0033045,-1.4048051,0.51839167,-0.67853343,-0.73622525,-0.02529588,0.47663552,0.36095208,0.8314743,-0.4861889,1.7151515,-2.8855824,0.041638743,-0.8470138,0.027893066,-0.29078197,1.1055557,0.8772547,-0.27551252,0.15995446,0.35907024,-0.035589643,-3.518524e-05,-0.14252707,1.0,0.0,0.0,0.0,0.0,0.0,0.0,-1.4814743,0.08618888,-1.1651516,0.3206253,-4.2788267,1.61345,-35.76783,-15.615281,0.11255741,-0.5450189
8.89866,1.7497445,-1.1149982,-11.694191,-1.918412,-2.9641316,0.4121443,-0.8177876,0.30347788,-0.44678864,-0.6501393,-0.28680652,0.65519875,0.35043618,0.78134096,-0.29064742,-1.8894614,-0.82442254,2.4437993,1.5568631,-0.9682609,0.8489529,-0.31591403,-1.8518398,-0.7690302,2.4709997,1.4960982,-0.99981976,-1.4191822,0.5050253,-0.71588874,-1.0371004,-0.18949366,0.4748924,0.3440353,0.8026428,-0.48577285,1.7059513,-2.8826973,0.041597113,-0.9443529,0.02815628,-0.2915368,1.1035408,0.87903047,-0.27173313,0.16736776,0.3541956,0.045275867,-0.10249885,-0.22216365,1.0,0.0,0.0,0.0,0.0,0.0,0.0,-1.4526428,0.08577284,-1.1559513,-1.0022402,-1.2277842,-4.077077,-29.971731,-16.555082,-0.24212003,-1.7822504
0.912758,-4.02314,-3.9509578,-3.7234848,-1.1047304,-2.6586294,0.051427484,-0.8169634,0.26173893,-0.51859367,-0.68790203,-0.43757194,0.64688057,0.2719324,0.76725656,-0.28974015,-1.9036992,-0.8378204,2.4272425,1.5607862,-0.9726265,0.83463824,-0.31102455,-1.8596408,-0.7809254,2.4677534,1.5008227,-0.9965668,-1.4344245,0.48374313,-0.80171806,-1.2401289,-0.37060678,0.47115597,0.31834233,0.7738342,-0.48535728,1.6957784,-2.879815,0.041555524,-1.0415947,0.028945923,-0.29322696,1.1008264,0.88104874,-0.26651484,0.17561463,0.34911662,0.08754076,-0.19378835,-0.28963068,1.0,0.0,0.0,0.0,0.0,0.0,0.0,-1.4238342,0.08535728,-1.1457784,-1.1914492,-2.0893157,-8.670008,-20.253445,-18.365198,-0.5543828,-2.7915895
-13.127584,-41.228596,-14.109298,0.19754887,0.77546924,-2.8358037,-0.24759752,-0.8157883,0.08034744,-0.5303578,-0.7145415,-0.56490064,0.65388244,0.2552857,0.7530594,-0.3029898,-1.9126766,-0.85237956,2.4112635,1.5662109,-0.9710382,0.82021105,-0.30715168,-1.8682811,-0.7941452,2.4626455,1.5055109,-0.99357986,-1.4441165,0.3546878,-0.884319,-1.3489189,-0.5594993,0.46674675,0.29067674,0.74505615,-0.48494196,1.6846339,-2.8769357,0.041513976,-1.1387393,0.02956009,-0.29607987,1.0974159,0.88340837,-0.26003256,0.18431969,0.34350953,0.04752548,-0.31871936,-0.36058342,1.0,0.0,0.0,0.0,0.0,0.0,0.0,-1.3950561,0.08494195,-1.1346338,-0.54278374,-13.040733,-8.098019,-10.779738,-19.36149,-0.77358484,-3.2101393
-19.96598,-57.6796,-17.70452,4.784421,2.3266745,-2.6231637,-0.24197869,-0.81005496,-0.04847974,-0.4454537,-0.71527994,-0.6184697,0.6758531,0.32641318,0.73920554,-0.31199965,-1.9128265,-0.86567324,2.4007986,1.5730963,-0.9609386,0.8057524,-0.30512798,-1.8771541,-0.8078562,2.4558554,1.5101706,-0.9907942,-1.4449248,0.1507551,-0.88756657,-1.3779058,-0.7199846,0.4643503,0.27303663,0.7163086,-0.4845271,1.6725185,-2.8740592,0.041472472,-1.2357868,0.029369354,-0.3001852,1.0933598,0.88605803,-0.2526049,0.19287592,0.33747712,-0.049091607,-0.44358185,-0.42345127,1.0,0.0,0.0,0.0,0.0,0.0,0.0,-1.3663086,0.084527105,-1.1225185,0.35748482,-20.635145,-0.13762712,-2.7308464,-16.486418,-0.63762665,-2.2435248
-19.54304,-58.352547,-15.709854,7.864173,3.4348912,-2.2059367,0.0460053,-0.80138445,-0.1874976,-0.24688064,-0.7164626,-0.6141395,0.67887634,0.41576305,0.72561395,-0.32387775,-1.9018421,-0.8795025,2.3944414,1.5780582,-0.94921786,0.7913548,-0.30552948,-1.8849189,-0.8215109,2.4478788,1.5148112,-0.98808,-1.4365263,-0.104642645,-0.7398341,-1.3605405,-0.82398707,0.46280745,0.26983166,0.68759155,-0.48411274,1.6594335,-2.8711855,0.041431006,-1.3327372,0.028003693,-0.3053968,1.0887717,0.88879186,-0.24469645,0.20054816,0.33159158,-0.17277603,-0.5482583,-0.47361147,1.0,0.0,0.0,0.0,0.0,0.0,0.0,-1.3375915,0.08411273,-1.1094334,1.262331,-25.79793,14.711725,1.9769192,-10.577106,-0.55148005,-0.6262362
-17.999475,-60.069977,-14.155506,7.8611875,4.180357,-1.9861026,0.33262953,-0.7921741,-0.36155432,-0.06759016,-0.73041743,-0.5724906,0.678308,0.46381763,0.71213734,-0.3416849,-1.891678,-0.89455265,2.3906298,1.582642,-0.94169825,0.77709544,-0.30881536,-1.8903186,-0.83492625,2.439353,1.5194384,-0.98533154,-1.4207962,-0.4040913,-0.47454777,-1.3340957,-0.8623675,0.46112803,0.27619004,0.6589012,-0.48369884,1.6453797,-2.8683147,0.041389585,-1.4295908,0.025283813,-0.31159353,1.0837162,0.8914472,-0.23667526,0.20663716,0.3265086,-0.3121864,-0.6427723,-0.5192674,1.0,0.0,0.0,0.0,0.0,0.0,0.0,-1.3089012,0.08369884,-1.0953796,2.0418882,-30.20259,26.206928,2.9455423,-3.8271904,-0.6159067,0.52283406
-14.165502,-53.62717,-10.98777,7.1707463,4.2695856,-1.7537016,0.55209816,-0.771128,-0.51095337,0.09702654,-0.74298215,-0.542209,0.6660454,0.46820813,0.69998264,-0.3599107,-1.880616,-0.90922445,2.385132,1.5860429,-0.9385107,0.7630764,-0.31515777,-1.8925941,-0.84815085,2.4307852,1.5240389,-0.9825001,-1.394044,-0.71175015,-0.14698388,-1.3175329,-0.8543672,0.45811474,0.28571814,0.6302376,-0.4832852,1.630358,-2.8654468,0.041348204,-1.5263476,0.021224976,-0.31863737,1.0782224,0.8939301,-0.22878028,0.21071804,0.32271722,-0.44491333,-0.7219991,-0.56254905,1.0,0.0,0.0,0.0,0.0,0.0,0.0,-1.2802376,0.08328518,-1.080358,3.1433582,-30.996777,32.259068,1.950717,0.9211898,-0.7891059,1.0140419
-5.255774,-36.48975,-3.7383122,6.361027,3.9914534,-1.3374213,0.874272,-0.7172273,-0.66217846,0.3821592,-0.74804187,-0.49469775,0.6278766,0.44305217,0.6913537,-0.3813756,-1.8543782,-0.92295504,2.3813155,1.5868266,-0.9381949,0.74953616,-0.32452524,-1.890887,-0.8613001,2.4225645,1.528586,-0.97958565,-1.3395884,-1.0122902,0.27410847,-1.31345,-0.81014234,0.4520656,0.29436496,0.60160446,-0.482872,1.6143695,-2.8625817,0.041306864,-1.6230077,0.016044617,-0.3262775,1.0723501,0.8960938,-0.2213181,0.21247569,0.3207621,-0.54889065,-0.7728473,-0.5987559,1.0,0.0,0.0,0.0,0.0,0.0,0.0,-1.2516044,0.082872,-1.0643694,5.7979584,-30.218458,41.429497,0.60784817,4.7350645,-1.035285,1.1410713
3.065357,-10.945031,4.01762,8.054869,3.3852189,-0.8913578,0.92679286,-0.6411794,-0.73203236,0.49361408,-0.7367027,-0.3546386,0.6069046,0.36681548,0.68541825,-0.39772847,-1.8415256,-0.9349704,2.3871007,1.5892766,-0.9429041,0.7368256,-0.336419,-1.8852718,-0.8744122,2.4152174,1.5330702,-0.97664356,-1.2475078,-1.2486755,0.65515304,-1.3100674,-0.7080235,0.44613114,0.29553476,0.57300186,-0.4824593,1.5974152,-2.8597195,0.041265566,-1.719571,0.010101318,-0.33418822,1.0662155,0.89784855,-0.21455494,0.21187857,0.32084504,-0.6144679,-0.78958166,-0.62150997,1.0,0.0,0.0,0.0,0.0,0.0,0.0,-1.2230018,0.0824593,-1.0474153,9.409785,-23.721504,37.397808,0.42555332,10.603678,-0.84118843,0.5314112
6.393794,13.227837,8.870656,11.906521,2.3754725,-0.52444607,0.67318803,-0.6016584,-0.74987125,0.4948573,-0.7173195,-0.36792395,0.6172375,0.32440135,0.67665976,-0.4114061,-1.8357861,-0.9461441,2.3784251,1.5947939,-0.94420344,0.7250954,-0.34996212,-1.8768871,-0.8874184,2.4087782,1.5375181,-0.97373104,-1.1475383,-1.3895385,0.89717114,-1.2971693,-0.6211491,0.44456667,0.29125592,0.54442596,-0.48204684,1.5794959,-2.8568602,0.04122431,-1.8160378,0.0037727356,-0.3420608,1.0599389,0.8992165,-0.20853539,0.20948425,0.32255086,-0.6411793,-0.7772237,-0.6327432,1.0,0.0,0.0,0.0,0.0,0.0,0.0,-1.194426,0.08204684,-1.029496,10.192585,-14.091802,23.461676,1.3799429,9.068596,-0.14540553,-0.009870529
5.845373,26.120766,9.791377,14.614838,1.5333266,-0.46648067,0.31201404,-0.54181814,-0.76745856,0.43060145,-0.69644415,-0.3774549,0.6141721,0.24707064,0.6709136,-0.42670798,-1.8338269,-0.9570628,2.3710327,1.5989354,-0.94902396,0.7144257,-0.36433113,-1.8674018,-0.90020525,2.4029913,1.5419642,-0.9709263,-1.039527,-1.4525152,0.9634314,-1.2719288,-0.5635112,0.4451459,0.2780744,0.51587677,-0.48163486,1.5606127,-2.8540037,0.04118309,-1.9124081,-0.0026512146,-0.34975052,1.0535803,0.9003127,-0.20309627,0.20604447,0.32516837,-0.64476466,-0.7561872,-0.6395716,1.0,0.0,0.0,0.0,0.0,0.0,0.0,-1.1658767,0.08163485,-1.0106127,10.965061,-6.2587023,6.009412,2.673459,6.056261,0.22656322,-0.97222924
4.5830736,30.642277,9.019312,15.073721,0.90392417,-0.5810293,0.068699576,-0.4860404,-0.7852764,0.38231763,-0.6939133,-0.39181653,0.6102408,0.21264106,0.6658217,-0.44285876,-1.8291701,-0.96959656,2.3638096,1.6029882,-0.9496622,0.70483744,-0.37898004,-1.8581989,-0.91275275,2.397544,1.5464197,-0.9682808,-0.9315551,-1.4688218,0.9043955,-1.2484051,-0.53819823,0.44613862,0.2609339,0.4873581,-0.48122334,1.5407665,-2.85115,0.041141916,-2.008682,-0.009021759,-0.35726213,1.0471301,0.90126383,-0.19798031,0.20216969,0.3281078,-0.63501745,-0.73933125,-0.64935255,1.0,0.0,0.0,0.0,0.0,0.0,0.0,-1.1373581,0.08122334,-0.99076647,10.903252,-1.5846014,-6.337321,2.5424242,2.7122498,0.29876232,-1.4582753
4.7947035,32.81549,8.794969,14.057862,0.46074992,-0.70075226,-0.005012571,-0.43432474,-0.7938651,0.35666898,-0.7041199,-0.396605,0.6035428,0.201442,0.66140497,-0.45836654,-1.8225319,-0.9831647,2.3578835,1.606774,-0.94813657,0.6962906,-0.3936156,-1.8499897,-0.92517054,2.392192,1.5508772,-0.96580696,-0.8288931,-1.4616688,0.79210556,-1.2389343,-0.5338474,0.44624558,0.2435391,0.45886993,-0.4808123,1.5199583,-2.8482993,0.041100785,-2.1048594,-0.015213013,-0.36464643,1.0405443,0.90214217,-0.19296099,0.19822049,0.3310803,-0.6147214,-0.7283302,-0.6641048,1.0,0.0,0.0,0.0,0.0,0.0,0.0,-1.1088699,0.080812305,-0.96995825,10.321856,0.7532835,-11.53388,1.1377811,0.5395651,0.18661022,-1.5473366
5.444354,31.386623,7.911573,11.953147,0.113621175,-0.9115028,-0.027273148,-0.35352907,-0.7969012,0.25850096,-0.7064015,-0.41505128,0.60001904,0.21095358,0.6609377,-0.47330573,-1.8241396,-0.9958107,2.3506868,1.6108791,-0.9447116,0.6888596,-0.40812147,-1.8432777,-0.9375683,2.3867521,1.555329,-0.9634857,-0.71470714,-1.4468222,0.63042426,-1.2395289,-0.5472702,0.4450865,0.22860269,0.43040848,-0.48040152,1.498189,-2.8454514,0.04105969,-2.2009408,-0.021156311,-0.37200403,1.0337532,0.9029918,-0.18783616,0.19440773,0.33395958,-0.5872665,-0.72903574,-0.68662965,1.0,0.0,0.0,0.0,0.0,0.0,0.0,-1.0804085,0.08040151,-0.94818896,11.363149,1.5021801,-16.26606,0.10545254,-1.3263345,-0.017654896,-1.3735205
7.4142494,25.579058,5.929253,7.1758394,-0.213007,-1.3459499,0.023649313,-0.23581159,-0.7992717,0.083528616,-0.73551774,-0.38156682,0.58173853,0.26852986,0.66527843,-0.48804864,-1.8349248,-1.0111201,2.3485954,1.6135029,-0.93663275,0.6828381,-0.42249525,-1.8387268,-0.95014536,2.3812513,1.5597464,-0.96125793,-0.56546533,-1.4343274,0.39759713,-1.2633816,-0.55123574,0.44038472,0.22096011,0.40197372,-0.4799912,1.4754596,-2.8426063,0.041018642,-2.296926,-0.026786804,-0.37954903,1.0266191,0.9038584,-0.1823286,0.1907909,0.3367417,-0.5541297,-0.75445676,-0.72516084,1.0,0.0,0.0,0.0,0.0,0.0,0.0,-1.0519737,0.07999119,-0.92545956,14.662981,1.2269258,-23.039568,-2.2720575,-0.5077243,-0.54079294,-0.7305682
3.673013,16.404081,1.7274587,5.6966133,-0.17284113,-1.6161497,-0.060684443,-0.19548167,-0.7990127,-0.09249248,-0.7514611,-0.39458895,0.5717542,0.35565102,0.6632899,-0.5023965,-1.847976,-1.0252914,2.3417923,1.6169218,-0.92569286,0.67820704,-0.43677938,-1.83693,-0.96303904,2.3756857,1.5641028,-0.9590292,-0.42975387,-1.4266573,0.10824208,-1.2975584,-0.55912846,0.43329647,0.22343716,0.3735695,-0.47958136,1.451771,-2.839764,0.04097763,-2.3928154,-0.032180786,-0.3874793,1.0189981,0.9048245,-0.17615068,0.18743813,0.33930895,-0.53308153,-0.7979792,-0.77778107,1.0,0.0,0.0,0.0,0.0,0.0,0.0,-1.0235695,0.07958135,-0.901771,13.342637,0.70014,-28.586807,-3.2700539,-1.0185003,-0.92712045,0.20973682
2.9121642,11.285768,-0.34900856,3.9272306,-0.18101759,-1.7908683,-0.061863303,-0.11300003,-0.8014356,-0.25949728,-0.7712942,-0.39002538,0.55173033,0.4030593,0.666907,-0.51692295,-1.8628798,-1.0401684,2.3366833,1.6192758,-0.9187233,0.6749493,-0.45103395,-1.8382385,-0.9763199,2.3700666,1.5683714,-0.9567318,-0.29178646,-1.4253964,-0.20920783,-1.3377355,-0.5640194,0.42362404,0.23159836,0.34519577,-0.47917175,1.4271244,-2.8369248,0.040936664,-2.4886088,-0.037403107,-0.3959291,1.0107745,0.9059357,-0.16910501,0.1843592,0.34160733,-0.51693845,-0.8532587,-0.84144056,1.0,0.0,0.0,0.0,0.0,0.0,0.0,-0.99519575,0.07917175,-0.87712437,13.572968,0.032687187,-31.33467,-3.8578749,-0.7730007,-1.2935102,0.742048
7.6958704,16.534601,2.4859827,2.6429727,-0.46428242,-1.6875322,0.08347661,-0.0070539718,-0.80008876,-0.35634908,-0.7784979,-0.44055566,0.5521494,0.43616864,0.67424387,-0.5310428,-1.8738734,-1.0541697,2.3260112,1.6235864,-0.9131149,0.6732012,-0.46529233,-1.8424556,-0.98995554,2.3642607,1.5725504,-0.9543276,-0.13670146,-1.4262265,-0.49127063,-1.3718584,-0.58647203,0.41499054,0.24322744,0.31684494,-0.47876263,1.4015205,-2.8340883,0.040895734,-2.5843065,-0.0423584,-0.40488553,1.0019192,0.9071181,-0.16120306,0.18155266,0.3437862,-0.4857995,-0.90269923,-0.90541023,1.0,0.0,0.0,0.0,0.0,0.0,0.0,-0.9668449,0.07876262,-0.8515205,15.242275,-0.15516281,-27.84711,-3.3047915,-2.4471045,-1.1775732,1.1063695
10.561176,22.699799,5.724805,3.4974513,-0.48895493,-1.3969791,0.19417572,0.05225484,-0.8061414,-0.41146985,-0.7821971,-0.47125587,0.55695564,0.436072,0.6784267,-0.5459065,-1.8836026,-1.0681753,2.317135,1.628246,-0.9107204,0.6729237,-0.4795941,-1.8489444,-1.0038496,2.3581572,1.5766588,-0.95181084,0.007750295,-1.431643,-0.7006029,-1.3950514,-0.6187012,0.4086788,0.25434637,0.28852463,-0.47835398,1.3749603,-2.8312547,0.04085485,-2.6799085,-0.04694748,-0.4142251,0.99248046,0.9082607,-0.15261383,0.17896342,0.3460397,-0.44698492,-0.9375012,-0.96283317,1.0,0.0,0.0,0.0,0.0,0.0,0.0,-0.9385246,0.07835397,-0.8249603,14.216071,-0.59006214,-20.726633,-2.2426128,-3.325224,-0.8860588,1.1036694
3.899266,24.870663,5.9786243,9.182494,0.12956154,-0.86349845,0.099346004,-0.001155219,-0.8111073,-0.42488262,-0.78052354,-0.48477566,0.5636652,0.4337224,0.6728082,-0.5607048,-1.8914326,-1.081902,2.3096795,1.6330254,-0.9084386,0.6734568,-0.49397266,-1.856837,-1.0178705,2.3517256,1.5807234,-0.9491949,0.068624765,-1.4401608,-0.8191123,-1.4039835,-0.6511799,0.40514597,0.26408273,0.26023483,-0.4779458,1.3474449,-2.828424,0.040814,-2.775415,-0.051303864,-0.42373395,0.9825673,0.90933245,-0.14356038,0.17652628,0.34834358,-0.42918453,-0.9487196,-1.0076332,1.0,0.0,0.0,0.0,0.0,0.0,0.0,-0.9102348,0.0779458,-0.7974449,6.123249,-0.9129286,-11.906111,-0.73657036,-3.3585787,-0.5242765,1.0035753
-3.1535087,29.513899,7.0526304,15.466391,0.7883286,-0.24321443,0.017028965,-0.06610707,-0.80920047,-0.3856799,-0.78294456,-0.48574266,0.5643296,0.4368671,0.6668461,-0.5748927,-1.895405,-1.096165,2.3031514,1.6371564,-0.9055082,0.6739212,-0.50841606,-1.8651493,-1.0319201,2.3450308,1.584767,-0.94648933,0.03998291,-1.446032,-0.8361753,-1.4046904,-0.67583096,0.40385157,0.27301505,0.23197174,-0.47753787,1.3189751,-2.825596,0.040773198,-2.8708258,-0.055648804,-0.43314552,0.97233677,0.9103266,-0.13430564,0.17414935,0.350627,-0.4323089,-0.9318857,-1.0354635,1.0,0.0,0.0,0.0,0.0,0.0,0.0,-0.8819717,0.077537864,-0.7689751,-2.5731385,-0.65443516,-2.0188808,0.15525818,-2.5883675,-0.18296242,0.97069144
-7.7404113,29.41488,6.554653,18.124033,1.2657623,-0.0068321824,-0.0374586,-0.083625734,-0.8171651,-0.41101274,-0.7909635,-0.44176143,0.54747784,0.44983667,0.66555864,-0.5901326,-1.9062505,-1.1110164,2.3008547,1.6395148,-0.90150565,0.67380965,-0.5229367,-1.8733852,-1.0459791,2.3382902,1.5887896,-0.94369316,-0.026949083,-1.4543352,-0.8207296,-1.4054589,-0.6739631,0.40174598,0.28216726,0.20373535,-0.4771304,1.2895519,-2.822771,0.040732432,-2.9661412,-0.060142517,-0.44232774,0.9618716,0.9112616,-0.124989204,0.17168714,0.3528504,-0.45237458,-0.9066021,-1.0573952,1.0,0.0,0.0,0.0,0.0,0.0,0.0,-0.8537353,0.07713041,-0.73955184,-6.298885,-0.9116173,1.1523962,0.20024776,0.037062168,-0.23849607,1.0241985
-10.495418,31.672985,7.1973486,20.400806,1.5890247,0.24182972,-0.07064239,-0.12748063,-0.8205149,-0.3819055,-0.78762937,-0.41767818,0.5418962,0.43574148,0.6610616,-0.6049882,-1.9115758,-1.124742,2.2965224,1.6429791,-0.900119,0.6728436,-0.5375384,-1.8812244,-1.060023,2.3316946,1.5927912,-0.94082355,-0.11833154,-1.4624561,-0.7731042,-1.4029212,-0.6550107,0.39984274,0.2890207,0.17552948,-0.47672343,1.2591763,-2.819949,0.040691707,-3.0613613,-0.0649147,-0.45118666,0.95124376,0.9121509,-0.11573014,0.1690145,0.35499468,-0.4818692,-0.8715441,-1.0715828,1.0,0.0,0.0,0.0,0.0,0.0,0.0,-0.82552946,0.07672343,-0.70917624,-8.6883335,-0.89275837,4.3004513,0.55294037,1.753819,-0.17190576,0.8303523
-12.244907,28.356436,5.4180007,19.709578,1.7097658,0.11629593,-0.123833075,-0.14380673,-0.82752496,-0.4409074,-0.794458,-0.37155744,0.5021514,0.44035888,0.6584629,-0.6202909,-1.9253151,-1.1394688,2.294539,1.6430063,-0.89678764,0.6710373,-0.5522355,-1.8888805,-1.0740687,2.3254385,1.5967451,-0.93789196,-0.19997936,-1.4724245,-0.76434433,-1.4040126,-0.6166581,0.39368817,0.29502437,0.14735413,-0.4763167,1.2278491,-2.8171296,0.040651023,-3.1564865,-0.07003403,-0.45976186,0.94042796,0.91303945,-0.10647964,0.16604206,0.3570028,-0.5188769,-0.84498745,-1.0915165,1.0,0.0,0.0,0.0,0.0,0.0,0.0,-0.7973541,0.076316684,-0.6778491,-7.737109,-1.0946035,0.48217773,0.22053719,3.6614895,-0.65425634,0.7398963
-13.792921,25.707565,3.625847,18.895489,1.6745491,-0.009530783,-0.20008819,-0.17209609,-0.82816756,-0.49702117,-0.79649496,-0.3646482,0.47435388,0.41479465,0.6538277,-0.63505226,-1.9385827,-1.1537181,2.2889736,1.6441805,-0.8964125,0.66850436,-0.5670146,-1.8968112,-1.0881373,2.3195524,1.6006151,-0.93492794,-0.26966047,-1.4801443,-0.8037021,-1.4066404,-0.58003694,0.3844136,0.29716316,0.11920166,-0.47591043,1.1955715,-2.8143132,0.04061038,-3.2515163,-0.07555008,-0.4681332,0.929355,0.9139826,-0.09709668,0.16279107,0.35875738,-0.5593008,-0.82627535,-1.11904,1.0,0.0,0.0,0.0,0.0,0.0,0.0,-0.76920164,0.07591042,-0.64557153,-6.5663996,-0.8883476,-4.24577,0.09381771,3.4457207,-1.0301948,0.32359362
-18.722017,19.629036,-0.30731058,18.622507,1.7344656,-0.16536403,-0.35442603,-0.22097161,-0.8338157,-0.5874272,-0.79827183,-0.3788927,0.4235448,0.36698443,0.6464072,-0.65039617,-1.955554,-1.1679645,2.2816632,1.6429696,-0.8982295,0.6652676,-0.5818747,-1.9056022,-1.1022364,2.3139143,1.6043535,-0.93198776,-0.34028664,-1.488493,-0.90502316,-1.4095799,-0.5595646,0.36968312,0.29311186,0.09107971,-0.47550464,1.1623443,-2.8114996,0.04056978,-3.3464513,-0.08155441,-0.4763968,0.9179138,0.9150672,-0.08736127,0.15936069,0.3600335,-0.61152077,-0.81759,-1.158975,1.0,0.0,0.0,0.0,0.0,0.0,0.0,-0.7410797,0.07550463,-0.6123443,-6.6412687,-0.99475384,-10.347724,0.1358509,1.7368555,-1.6810119,-0.35218596
-22.124361,18.483664,-1.7498605,19.103754,1.8265363,-0.098346055,-0.41679594,-0.27758023,-0.8349283,-0.62879366,-0.8023196,-0.36839256,0.39579472,0.36469096,0.6375096,-0.66536754,-1.9684815,-1.1824683,2.277075,1.643933,-0.89551866,0.66125166,-0.59680355,-1.915528,-1.1163756,2.3084326,1.6079298,-0.9290943,-0.42057365,-1.494965,-1.0222654,-1.4137746,-0.5457924,0.35284135,0.28820115,0.06298828,-0.47509933,1.1281685,-2.8086889,0.040529218,-3.4412913,-0.08813858,-0.48456836,0.90603954,0.9163377,-0.077148125,0.15580776,0.36068973,-0.67138547,-0.8076341,-1.203495,1.0,0.0,0.0,0.0,0.0,0.0,0.0,-0.71298826,0.07509932,-0.57816845,-7.5787187,-0.83653927,-11.909235,0.057649612,1.0125995,-1.9448936,-0.4601121
-34.53745,16.632118,-5.3611517,23.790373,2.3822196,0.23833174,-0.6369055,-0.42283344,-0.8295398,-0.673187,-0.80193484,-0.39715382,0.34940442,0.33897462,0.6189683,-0.67975754,-1.9828467,-1.1965691,2.2687173,1.6428703,-0.89519686,0.65594447,-0.6117543,-1.9266098,-1.1305395,2.3029432,1.6113154,-0.9262676,-0.56534255,-1.4959528,-1.1373994,-1.4152939,-0.55186045,0.332681,0.28070325,0.03491974,-0.47469425,1.0930369,-2.8058805,0.040488698,-3.537102,-0.09553146,-0.4925549,0.8937278,0.91787255,-0.06638473,0.15222222,0.36046013,-0.7599291,-0.78541297,-1.2472608,1.0,0.0,0.0,0.0,0.0,0.0,0.0,-0.6849197,0.074694246,-0.5430369,-13.859969,-0.35977364,-11.725163,0.46195984,-1.111412,-2.3308933,-0.7589519
-46.960228,15.555936,-8.40557,28.614443,3.0441227,0.69640386,-0.8377855,-0.5670553,-0.83045024,-0.70592904,-0.79566777,-0.40404013,0.359219,0.27621284,0.59923893,-0.6947993,-1.9972026,-1.2101064,2.2625391,1.6472373,-0.89864635,0.64872515,-0.62670505,-1.9386985,-1.1446711,2.2973318,1.6145197,-0.92355824,-0.77153,-1.4959005,-1.2334831,-1.4100869,-0.56632996,0.31526312,0.26751548,0.006881714,-0.47428966,1.056948,-2.803075,0.040448215,-3.6328168,-0.10404205,-0.50019884,0.8810127,0.91975254,-0.05508984,0.14864033,0.35906303,-0.879044,-0.74610245,-1.2867302,1.0,0.0,0.0,0.0,0.0,0.0,0.0,-0.6568817,0.07428965,-0.50694793,-19.856787,-0.33459663,-9.842491,1.2754679,-2.0798206,-2.109778,-1.3427317
-50.57873,20.297438,-7.266951,30.882353,3.320297,1.1217092,-0.89314747,-0.66645867,-0.8269144,-0.71802396,-0.7865142,-0.38809276,0.39740944,0.13014223,0.5820793,-0.7093965,-2.010501,-1.2233225,2.2585225,1.6542606,-0.91054404,0.6393181,-0.6416348,-1.9515007,-1.1587015,2.291625,1.6176001,-0.92108154,-0.9945366,-1.493184,-1.296689,-1.3978993,-0.57436615,0.30428234,0.24104285,-0.021125793,-0.47388554,1.0199026,-2.8002725,0.040407777,-3.728436,-0.113788605,-0.507329,0.86797094,0.92199343,-0.043412704,0.14500357,0.35639483,-1.0059038,-0.68921435,-1.3171358,1.0,0.0,0.0,0.0,0.0,0.0,0.0,-0.6288742,0.07388553,-0.46990258,-21.527374,-0.09894371,-6.5582514,2.0128489,-1.4543295,-1.4735639,-2.6431918
-46.518814,27.326588,-3.6266437,30.154827,3.162734,1.3709836,-0.8298283,-0.7350449,-0.8243731,-0.7309973,-0.7777757,-0.3806178,0.41135442,-0.052649394,0.5658136,-0.72407216,-2.0246005,-1.2364792,2.2535632,1.6587355,-0.9263465,0.62785685,-0.65652454,-1.96473,-1.1725775,2.2858877,1.6206003,-0.9189911,-1.1944398,-1.488707,-1.3325652,-1.3818634,-0.57525325,0.29748535,0.19847974,-0.049110413,-0.47348166,0.9819017,-2.7974727,0.040367376,-3.8239594,-0.12470245,-0.5138197,0.8546842,0.9245477,-0.031531107,0.1412278,0.35252252,-1.1199472,-0.6213037,-1.3397743,1.0,0.0,0.0,0.0,0.0,0.0,0.0,-0.60088956,0.07348165,-0.4319017,-19.312477,0.09479523,-3.807497,2.350092,-0.66673756,-1.03181,-4.209301
-35.17759,35.626358,2.3002832,26.882126,2.8174448,1.4264197,-0.6568447,-0.7604522,-0.8246055,-0.7331425,-0.76812714,-0.27427435,0.40235552,-0.2642531,0.55181164,-0.73898506,-2.0380442,-1.2493902,2.2584603,1.6608359,-0.9454164,0.61484206,-0.6713723,-1.9781387,-1.1862837,2.28049,1.6235434,-0.9174566,-1.3355107,-1.4844157,-1.3444334,-1.3647673,-0.5293204,0.29215476,0.13891514,-0.077064514,-0.47307825,0.9429463,-2.7946758,0.040327016,-3.9193873,-0.13655472,-0.5196247,0.8412286,0.92733043,-0.019660154,0.13708302,0.34767804,-1.2079483,-0.55076104,-1.3545469,1.0,0.0,0.0,0.0,0.0,0.0,0.0,-0.57293546,0.073078245,-0.3929463,-13.615155,0.14588833,-1.3695478,2.3130655,4.175651,-0.8234918,-5.830407
-24.604237,43.25165,7.815235,24.29022,2.3879762,1.4957459,-0.48074356,-0.78710175,-0.8238297,-0.72790605,-0.7402496,-0.23682004,0.44847766,-0.335817,0.53613186,-0.7537553,-2.0509293,-1.2603086,2.2568078,1.6683911,-0.9510383,0.6008221,-0.68618,-1.9915302,-1.1997343,2.2756758,1.6264788,-0.9165268,-1.4230187,-1.480285,-1.3377331,-1.3371477,-0.46602148,0.29348475,0.07811311,-0.1049881,-0.47267532,0.90303737,-2.7918818,0.040286697,-4.01472,-0.14908981,-0.5247197,0.82768947,0.93024164,-0.008012906,0.13243613,0.34212118,-1.268982,-0.47855207,-1.3604666,1.0,0.0,0.0,0.0,0.0,0.0,0.0,-0.5450119,0.07267532,-0.35303736,-8.426642,0.2055645,0.5213022,3.2161713,6.0663643,-0.065523386,-5.9120564
-13.584607,50.71198,13.121975,21.356739,1.5305719,1.5296165,-0.3000535,-0.79267895,-0.8177496,-0.7216639,-0.7120012,-0.35285592,0.5145448,-0.366382,0.5215542,-0.76795495,-2.0636966,-1.2709345,2.2403903,1.6779332,-0.953165,0.5863024,-0.7009257,-2.0047767,-1.2128302,2.2710867,1.6294886,-0.916172,-1.4611139,-1.4730215,-1.3205867,-1.2993559,-0.45730153,0.30344647,0.021771118,-0.1328888,-0.47227287,0.8621758,-2.7890906,0.04024642,-4.1099567,-0.16194916,-0.52910376,0.81413174,0.9331556,0.0032999236,0.12748446,0.3360914,-1.2923621,-0.40683398,-1.3605602,1.0,0.0,0.0,0.0,0.0,0.0,0.0,-0.5171112,0.07227287,-0.3121758,-3.6328077,0.59895515,1.593113,4.079294,0.74448586,0.9199679,-5.4996624
-7.0552654,52.469906,15.045387,18.36554,0.93278843,1.4076767,-0.18467455,-0.7978055,-0.81597376,-0.74108166,-0.7026073,-0.40105617,0.5273285,-0.39679658,0.5065218,-0.7825231,-2.0788848,-1.283091,2.230981,1.6822214,-0.9558517,0.57163775,-0.715598,-2.017945,-1.2255751,2.2663183,1.6326109,-0.9163408,-1.4679599,-1.465656,-1.3159404,-1.2653264,-0.48372784,0.31511626,-0.029436948,-0.16075897,-0.47187066,0.8203626,-2.7863023,0.040206183,-4.205098,-0.17488098,-0.53282595,0.8005413,0.9359839,0.014324297,0.122450344,0.32974976,-1.2933242,-0.34227902,-1.3645072,0.0,1.0,0.0,0.0,0.0,0.0,0.0,-0.489241,0.071870655,-0.27036262,-0.5804777,0.64840317,0.36702156,3.6344528,-2.7215898,1.1237204,-5.0195627
-2.3172622,52.07922,15.87057,15.238535,0.54611576,1.254476,-0.07193201,-0.7958903,-0.81594837,-0.74781543,-0.709993,-0.39900982,0.51737666,-0.42947528,0.4920487,-0.7971928,-2.0927267,-1.2965744,2.2264173,1.6843486,-0.95928836,0.5572566,-0.73019516,-2.0322094,-1.2385274,2.2618456,1.6392034,-0.9166164,-1.4316403,-1.4585276,-1.4418238,-1.2951562,-0.4517776,0.6995866,-0.036944456,-0.17479706,-0.4708252,0.8211264,-1.2647085,0.13833472,0.61132,-0.18787766,-0.5355911,0.7864823,0.93858397,0.024021957,0.11765892,0.32348025,-1.2954719,-0.2439792,-1.4171379,0.0,1.0,0.0,0.0,0.0,0.0,0.0,-0.47520292,0.07082519,-0.2711264,1.5165806,0.3869772,-0.8971691,2.2584677,-3.0786574,0.33025742,-4.2228007
55.357006,176.0,110.0,110.0,0.8267692,11.706198,-0.9286969,-0.8114583,0.44222033,0.64895004,0.7173548,-0.41294277,0.65245956,-0.3879705,0.47611076,-0.6859731,-1.9673144,-1.1667919,2.2205513,1.7044494,-0.95541346,0.5461529,-0.74695694,-2.0384274,-1.238392,2.2476587,1.6530622,-0.91785616,-0.9869478,-1.6762142,-0.46668887,0.41955853,-1.6419216,1.6608671,-0.109411575,-0.18743515,-0.46944284,0.8264906,-1.2634441,0.13819641,0.5114576,-0.1993599,-0.5356617,0.77693504,0.9405723,0.024484597,0.11868561,0.31723458,-1.0959,0.090655185,-0.80560976,1.0,0.0,0.0,0.0,0.0,0.0,0.0,-0.46256483,0.06944284,-0.27649057,49.364258,-2.3841858e-05,61.95482,162.3892,-89.34703,110.020874,5.799131
-22.528564,161.18976,57.801403,93.57505,5.4812837,4.9828987,-1.6472566,-0.7913449,-0.63810456,-0.14078055,0.7488653,-0.6111667,0.6288978,-0.20255199,0.4670184,-0.8107674,-2.0525055,-1.1635054,2.186542,1.715952,-0.93811136,0.53637487,-0.7628881,-2.0399952,-1.2272645,2.2303057,1.6695455,-0.9190387,-0.97307414,-1.566157,-0.05282306,1.3453987,-1.7689117,1.6504453,-0.11916907,-0.20005798,-0.46806192,0.83085686,-1.2621808,0.13805825,0.4116951,-0.21064377,-0.5336013,0.772003,0.94263536,0.018831018,0.123309456,0.3096429,-1.1349351,0.25392258,-0.3939793,1.0,0.0,0.0,0.0,0.0,0.0,0.0,-0.449942,0.06806192,-0.28085685,1.8989921,10.801148,41.64405,93.03476,-13.495159,0.8661032,-0.37602484
-34.53516,146.4875,40.27953,71.17524,4.345874,3.0731099,-1.3857687,-0.76711565,-0.47509024,-0.2170948,0.718971,-0.66779035,0.6010377,0.19909105,0.4596633,-0.8103971,-2.0617046,-1.1553674,2.1635265,1.7296493,-0.8991296,0.5259951,-0.77639306,-2.0399265,-1.2104474,2.2135668,1.6851076,-0.91993517,-1.0574383,-1.279662,0.026109636,1.7954417,-1.6438242,1.5289234,-0.07924683,-0.21267319,-0.46668243,0.83422333,-1.2609189,0.13792022,0.31163856,-0.22232819,-0.5301261,0.7701351,0.94496703,0.011060073,0.12947722,0.30025074,-1.1760358,0.38510382,-0.12461065,1.0,0.0,0.0,0.0,0.0,0.0,0.0,-0.4373268,0.06668243,-0.28422332,-7.790947,28.322388,7.592185,45.555496,11.979866,-10.887146,4.169926
-23.554974,110.53758,29.872433,43.071068,2.9300199,1.6699545,-0.5334046,-0.74596137,-0.54901826,0.07481915,0.7695627,-0.65291005,0.59852254,0.18579336,0.45139894,-0.8312949,-2.0324447,-1.1334912,2.1482759,1.7449598,-0.9013558,0.51450807,-0.78759587,-2.0389118,-1.1917936,2.1987925,1.6991457,-0.92045206,-1.1779903,-1.068042,0.12559952,1.8897161,-1.4238306,1.3642572,-0.042205777,-0.22527313,-0.46530414,0.83659,-1.2596582,0.13778232,0.21168208,-0.23421097,-0.52565575,0.7699924,0.94737345,0.0028173083,0.13591462,0.2898324,-1.1900524,0.4746094,0.015154304,1.0,0.0,0.0,0.0,0.0,0.0,0.0,-0.42472684,0.06530413,-0.28658998,-11.710167,20.87524,9.733729,9.714675,21.495892,-15.811181,3.7881129
-16.887793,71.73396,15.86332,21.273762,1.5045443,0.3384596,-0.077058405,-0.7446258,-0.53138876,-0.018341748,0.7508829,-0.65606576,0.5747334,0.1731037,0.44004548,-0.8407347,-2.040746,-1.1167053,2.1331859,1.756619,-0.9031417,0.5019663,-0.7972299,-2.0377674,-1.1737882,2.1860895,1.7116026,-0.9206447,-1.2791965,-0.9290818,0.1098676,1.7710773,-1.2196332,1.2072965,-0.011756291,-0.23785782,-0.46392727,0.83795786,-1.2583988,0.13764457,0.11182555,-0.24615097,-0.5206647,0.7703408,0.94973105,-0.00474232,0.14190514,0.27901825,-1.1927216,0.51492846,0.034714848,1.0,0.0,0.0,0.0,0.0,0.0,0.0,-0.41214216,0.06392726,-0.28795785,-10.030699,13.733112,-1.7601877,-11.786222,20.183064,-15.322256,2.9898124
-9.56988,41.976334,6.488412,8.194573,0.5820495,-0.6133372,0.18891558,-0.7246548,-0.53570855,-0.09293969,0.7540014,-0.65990984,0.5495664,0.2077588,0.42950082,-0.85080075,-2.0470614,-1.0983881,2.1200986,1.7665592,-0.89986885,0.4887913,-0.80609524,-2.0373745,-1.1574403,2.1750154,1.7226232,-0.9205484,-1.3303913,-0.87252855,0.015152945,1.5892614,-1.0707122,1.0675708,0.016494853,-0.25043488,-0.46255183,0.8383278,-1.2571406,0.13750696,0.012068846,-0.2580986,-0.5155859,0.77032644,0.95199734,-0.010935729,0.14719708,0.2681686,-1.1919286,0.51370955,-0.018976891,1.0,0.0,0.0,0.0,0.0,0.0,0.0,-0.3995651,0.062551826,-0.2883278,-5.1520348,5.579865,-9.583722,-18.188334,14.783883,-13.761377,2.7339866
-10.333889,21.594305,-1.5923489,4.0903625,0.33160847,-1.1901386,0.1364891,-0.7156156,-0.53498286,-0.24226099,0.76591223,-0.66151154,0.5609224,0.21888247,0.4172297,-0.8595935,-2.0616007,-1.080849,2.1088643,1.7787155,-0.8986601,0.4754246,-0.8148004,-2.0386677,-1.1426831,2.1649942,1.7324156,-0.92019457,-1.3387418,-0.8699618,-0.17800674,1.4382218,-0.9788811,0.95015347,0.041365493,-0.26299667,-0.46117783,0.837701,-1.2558838,0.13736948,-0.087588124,-0.27015305,-0.5107093,0.7694711,0.9542059,-0.015403061,0.15186413,0.2572765,-1.206911,0.4872152,-0.11199297,1.0,0.0,0.0,0.0,0.0,0.0,0.0,-0.3870033,0.06117782,-0.287701,-0.840044,0.22857189,-19.487083,-15.048313,9.231496,-11.632848,2.4032667
-14.383902,9.64567,-6.962999,4.372733,0.39919686,-1.4143258,0.021798465,-0.7133889,-0.54945654,-0.3884291,0.7651367,-0.6733793,0.5775235,0.28673735,0.4040857,-0.869746,-2.0775106,-1.0661695,2.0976562,1.7901679,-0.89152086,0.46215516,-0.82374966,-2.0423832,-1.1289979,2.1555223,1.7411932,-0.91957086,-1.3227284,-0.90326744,-0.4369264,1.3458904,-0.9363466,0.8537175,0.06917875,-0.2755432,-0.45980525,0.8360784,-1.2546282,0.13723214,-0.18714546,-0.28250122,-0.50616693,0.76755583,0.9564024,-0.017995281,0.15610085,0.24617693,-1.2407162,0.45155692,-0.22163276,1.0,0.0,0.0,0.0,0.0,0.0,0.0,-0.37445676,0.059805244,-0.2860784,1.6771078,-3.3501983,-26.135612,-9.060264,4.4083,-9.619797,2.7199051
-13.294566,14.507648,-4.5311785,7.228087,0.4623863,-1.1958089,-0.026989132,-0.69700825,-0.54839146,-0.46050966,0.7739321,-0.675238,0.6205229,0.31170264,0.39245433,-0.8785888,-2.0884342,-1.0516047,2.0879986,1.8032454,-0.8884006,0.44917423,-0.8330699,-2.048582,-1.1157743,2.146245,1.7491659,-0.9186773,-1.2895455,-0.94188344,-0.681101,1.3153073,-0.9246036,0.77835065,0.09586806,-0.28808212,-0.45843387,0.8334609,-1.2533737,0.13709493,-0.28660324,-0.29516983,-0.50192165,0.7646701,0.95857984,-0.018888947,0.16013001,0.23478949,-1.2720789,0.4240089,-0.31408232,1.0,0.0,0.0,0.0,0.0,0.0,0.0,-0.36191785,0.05843386,-0.28346092,3.4163475,-3.9172173,-24.585283,-2.828455,1.2715697,-7.5619936,2.60659
-18.990093,13.203713,-5.6308703,10.0772,0.79959285,-0.97799695,-0.10727826,-0.71283257,-0.5876903,-0.57252836,0.7740528,-0.68441397,0.6144867,0.36293632,0.37789097,-0.89183897,-2.105835,-1.0383689,2.0778036,1.8106146,-0.88238364,0.43642884,-0.8428985,-2.0571117,-1.1025697,2.1369448,1.7564844,-0.9175052,-1.2689604,-0.9968324,-0.91065353,1.3233845,-0.9318323,0.7161038,0.124217466,-0.30060577,-0.4570639,0.82984966,-1.2521206,0.13695787,-0.38596162,-0.30826187,-0.49787092,0.76089597,0.9607341,-0.018260615,0.16405752,0.22302818,-1.3168743,0.40771714,-0.40153155,1.0,0.0,0.0,0.0,0.0,0.0,0.0,-0.3493942,0.057063907,-0.27984965,2.226448,-5.581367,-23.140144,1.1440277,-0.61906576,-6.303382,2.8039947
-11.699343,21.774761,-0.24588758,9.88518,0.6110926,-0.70239973,0.014027983,-0.6727344,-0.60967976,-0.61145824,0.7717993,-0.6848418,0.6505439,0.37520292,0.3691554,-0.90386647,-2.1182575,-1.0253898,2.0684607,1.8215388,-0.8799849,0.42399818,-0.853284,-2.0674572,-1.0891744,2.1275225,1.7632917,-0.916069,-1.2341413,-1.0527955,-1.075879,1.3456857,-0.9459681,0.6685887,0.14987224,-0.31311798,-0.4556954,0.82524556,-1.2508688,0.13682094,-0.48522067,-0.32165146,-0.4939301,0.7563784,0.96281,-0.016407577,0.16791232,0.21102878,-1.3421067,0.39907482,-0.47162855,1.0,0.0,0.0,0.0,0.0,0.0,0.0,-0.336882,0.055695385,-0.27524555,3.5769463,-5.7076693,-16.535675,2.514124,-1.4404655,-4.8490644,2.5189786
-5.6109686,25.797039,3.2544174,8.504016,0.43145087,-0.5178567,0.15107068,-0.647086,-0.6509845,-0.6477375,0.77045155,-0.695296,0.64914113,0.4227341,0.3592896,-0.91838247,-2.132231,-1.0121292,2.057993,1.8282058,-0.87379557,0.41197044,-0.8642894,-2.079008,-1.0755616,2.1179285,1.7696928,-0.9143705,-1.1921911,-1.1168342,-1.1809205,1.3673172,-0.9645673,0.6300139,0.17640272,-0.32561874,-0.4543283,0.81965804,-1.2496182,0.13668415,-0.58325726,-0.33519363,-0.49005365,0.7512261,0.9647502,-0.013610502,0.1716494,0.19901852,-1.3526481,0.3936828,-0.53296393,1.0,0.0,0.0,0.0,0.0,0.0,0.0,-0.32438123,0.054328293,-0.26965803,4.224777,-6.5199137,-10.390663,2.3976564,-1.9804001,-3.9663076,2.6088982
2.564425,26.380571,5.7416377,5.1483994,0.15503827,-0.5201789,0.3147272,-0.6034109,-0.7032513,-0.6817434,0.7568214,-0.6770442,0.61876786,0.45076272,0.35162935,-0.93461454,-2.1471825,-0.9998795,2.050224,1.8315696,-0.8692942,0.40048105,-0.87603295,-2.0912876,-1.0618478,2.108224,1.7757372,-0.9124126,-1.1347101,-1.1938744,-1.2427075,1.3731154,-0.97303116,0.59542084,0.20214322,-0.33810425,-0.4529624,0.81309086,-1.2483687,0.13654749,-0.6811958,-0.3487358,-0.4862733,0.7454515,0.96652275,-0.010063505,0.17512333,0.18725461,-1.3491167,0.38287368,-0.5957387,1.0,0.0,0.0,0.0,0.0,0.0,0.0,-0.31189573,0.052962393,-0.26309085,5.702853,-7.802701,-5.9705973,0.75047016,-1.0258913,-3.5845518,2.542448
15.171585,33.265514,10.394231,1.7222211,-0.46506998,-0.5695162,0.4860951,-0.5276019,-0.71537256,-0.72572494,0.7476235,-0.7012757,0.5957721,0.45430538,0.34772086,-0.9475702,-2.16386,-0.98708546,2.0380964,1.8353144,-0.86698204,0.38980943,-0.8884412,-2.1040668,-1.0481855,2.0983934,1.7814611,-0.9102258,-1.0452207,-1.2566808,-1.2882568,1.364074,-0.98735434,0.56427395,0.22390546,-0.3505783,-0.45159793,0.80554503,-1.2471206,0.13641097,-0.7790364,-0.36203003,-0.48268414,0.7390899,0.96808684,-0.005866271,0.17832485,0.17599298,-1.3168614,0.3608316,-0.6531297,1.0,0.0,0.0,0.0,0.0,0.0,0.0,-0.29942167,0.051597923,-0.25554502,8.776736,-6.3679695,-4.1936398,-0.88174343,-1.7089128,-3.2364964,2.0827146
28.09785,38.820015,14.589557,-1.9834168,-1.0293554,-0.6909597,0.6598112,-0.4465882,-0.74176145,-0.7440155,0.72165406,-0.70129526,0.5657683,0.4487876,0.34515062,-0.96261734,-2.1784685,-0.97602004,2.0282638,1.838038,-0.865347,0.38026553,-0.90140545,-2.1171894,-1.0347673,2.088437,1.7868894,-0.9078559,-0.9251033,-1.3099838,-1.3184057,1.3338683,-0.9994622,0.53501564,0.24093235,-0.36304092,-0.4502349,0.79700834,-1.2458738,0.13627459,-0.8785367,-0.3748207,-0.47942328,0.73217213,0.9694116,-0.0010940789,0.18125239,0.16549136,-1.2593375,0.32384458,-0.70855266,1.0,0.0,0.0,0.0,0.0,0.0,0.0,-0.28695905,0.050234884,-0.24700832,11.723328,-5.401492,-2.5207043,-3.13797,-1.5743136,-3.0599475,1.5604734
32.08473,45.64966,17.508623,-1.5050099,-1.03867,-0.60264164,0.68602985,-0.40012532,-0.7543667,-0.7341847,0.7145955,-0.6830439,0.54995453,0.46231765,0.340253,-0.9768421,-2.1906078,-0.96330774,2.0201328,1.8418849,-0.8616242,0.37192374,-0.9147893,-2.1304302,-1.0216752,2.0784388,1.792045,-0.90533155,-0.8049679,-1.3480295,-1.3240565,1.3004863,-1.0016264,0.5084582,0.25586385,-0.37548828,-0.44887328,0.78747743,-1.2446282,0.13613833,-0.9779375,-0.38695526,-0.47652912,0.7247967,0.97049963,0.0041130893,0.18389922,0.155867,-1.1928362,0.28646326,-0.7511378,1.0,0.0,0.0,0.0,0.0,0.0,0.0,-0.2745117,0.048873276,-0.23747742,11.6853,-3.8887262,0.015377998,-3.5126448,-0.6674051,-2.81173,1.3354003
28.120995,49.846207,17.926548,1.2755127,-0.69285804,-0.4384467,0.6014659,-0.3737912,-0.7686975,-0.724521,0.7077382,-0.672712,0.54074454,0.45891172,0.33454463,-0.99165905,-2.2028823,-0.9509014,2.0111675,1.8461194,-0.8594404,0.3646124,-0.9284755,-2.143591,-1.0088826,2.0684748,1.7969564,-0.90267843,-0.70751625,-1.3758193,-1.3115526,1.2716838,-0.99658686,0.48492628,0.26794067,-0.387928,-0.44751287,0.7769533,-1.2433838,0.13600223,-1.077239,-0.39847946,-0.47393632,0.71708,0.97137994,0.009617666,0.18628013,0.14706497,-1.1324569,0.2577251,-0.7826031,1.0,0.0,0.0,0.0,0.0,0.0,0.0,-0.26207197,0.04751286,-0.22695327,9.449757,-2.8879404,1.8408775,-3.023076,0.008738041,-2.5293767,1.0640979
21.454334,51.350433,16.96226,4.025602,-0.2608326,-0.28330576,0.50077456,-0.35594025,-0.78479105,-0.7073371,0.6869179,-0.6506128,0.51419365,0.45282742,0.32901838,-1.0069546,-2.2143247,-0.94019085,2.0034134,1.8483758,-0.8573957,0.35804635,-0.9424058,-2.156519,-0.9963863,2.0586329,1.8016409,-0.8999242,-0.6404033,-1.3991715,-1.2845019,1.241911,-0.9817008,0.46241862,0.2774678,-0.40035248,-0.44615388,0.7654368,-1.2421407,0.13586625,-1.1764412,-0.40948486,-0.47154284,0.7090936,0.9720951,0.0153251095,0.18837395,0.1389654,-1.0838231,0.23990326,-0.8079907,1.0,0.0,0.0,0.0,0.0,0.0,0.0,-0.2496475,0.046153873,-0.21543682,6.4737678,-2.463317,3.2626867,-3.057742,0.9777665,-2.4415016,0.83937645
11.230213,52.277798,15.068725,7.4491034,0.286363,-0.07950729,0.37633973,-0.36645707,-0.7926572,-0.68249226,0.65725297,-0.6189247,0.4759742,0.45129734,0.32140064,-1.0216715,-2.2247682,-0.93066096,1.9967403,1.8492383,-0.8547945,0.35183603,-0.9565278,-2.1690807,-0.98424506,2.0490274,1.8060983,-0.89708894,-0.6151271,-1.4170496,-1.2453743,1.2049192,-0.95509005,0.43946794,0.2853442,-0.4127617,-0.44479632,0.7529291,-1.2408987,0.13573042,-1.2755442,-0.42012405,-0.46920252,0.70088935,0.9726938,0.021171205,0.19012988,0.13141243,-1.0514333,0.23810251,-0.8286722,1.0,0.0,0.0,0.0,0.0,0.0,0.0,-0.23723829,0.044796318,-0.20292908,2.370274,-1.9351006,4.4059753,-3.695941,2.152598,-2.4903119,0.7114947
8.987024,55.699055,15.378889,9.428433,0.51412606,0.014211416,0.30776656,-0.33395532,-0.794389,-0.6693765,0.66139627,-0.5976153,0.48605874,0.47172722,0.3184405,-1.0359668,-2.2360184,-0.9181054,1.9892659,1.8547043,-0.8499162,0.3458355,-0.9707738,-2.1812534,-0.97237563,2.0397272,1.8103575,-0.89416975,-0.5954964,-1.4275638,-1.2061272,1.1810021,-0.92347866,0.4207192,0.29383647,-0.42516327,-0.44343996,0.7394311,-1.2396581,0.13559471,-1.3745481,-0.43046188,-0.4668367,0.69253725,0.9731995,0.02708552,0.19156867,0.124300085,-1.0223007,0.24169141,-0.84127104,0.0,1.0,0.0,0.0,0.0,0.0,0.0,-0.2248367,0.043439955,-0.18943107,1.8182755,-1.2086153,4.425025,-2.3771524,2.643609,-2.0692647,0.77689886
1.0360392,56.109013,13.865986,12.0333395,0.9855218,0.15121266,0.20238414,-0.36129555,-0.804235,-0.6303815,0.6383022,-0.54660547,0.42450508,0.46467748,0.30970594,-1.0511973,-2.2442915,-0.90854543,1.9850667,1.852808,-0.847702,0.33981258,-0.9851209,-2.1929493,-0.960757,2.0308466,1.8144068,-0.8911781,-0.6048431,-1.4376132,-1.155835,1.1557244,-0.8779568,0.39899847,0.30084637,-0.4375496,-0.44208503,0.72494376,-1.2384187,0.13545914,-1.473453,-0.4406166,-0.46433997,0.68408704,0.9736491,0.032998517,0.1926425,0.11750433,-1.0066835,0.25774908,-0.85007364,0.0,1.0,0.0,0.0,0.0,0.0,0.0,-0.21245039,0.04208502,-0.17494375,-1.0234475,-1.1713743,5.4789305,-2.4490833,4.048872,-2.3663342,0.66853166
4.6675463,58.32596,15.05101,11.38662,0.9207828,0.15162131,0.22572853,-0.33287323,-0.8065477,-0.60176784,0.62337565,-0.5121284,0.42317533,0.48047975,0.30652526,-1.0657756,-2.2531261,-0.89841944,1.9796338,1.8567243,-0.8431301,0.333781,-0.99954695,-2.2041645,-0.9494204,2.022436,1.8182926,-0.88815314,-0.6004351,-1.444863,-1.1311047,1.1189194,-0.7932693,0.4089852,0.30788565,-0.44976044,-0.44008112,0.7121856,-0.857337,0.18702744,-0.38980076,-0.45056152,-0.46171355,0.6755495,0.9740552,0.038856167,0.19334507,0.11101455,-0.9889062,0.27289826,-0.8646638,0.0,1.0,0.0,0.0,0.0,0.0,0.0,-0.20023954,0.040081114,-0.16218561,0.6852865,-0.9009361,-0.059318542,-4.773283,11.359048,3.7101448,0.63657165
-10.228377,73.64303,16.961063,21.489857,2.0843146,0.71255434,-0.06596654,-0.41404334,-0.77762985,-0.475677,0.68715423,-0.487277,0.43503237,0.47760594,0.29237667,-1.07731,-2.251732,-0.880705,1.9737082,1.8617959,-0.84039253,0.32741332,-1.0138845,-2.2146053,-0.93805546,2.014879,1.8222771,-0.885027,-0.6490576,-1.4307821,-1.0134239,1.1426551,-0.7454711,0.39449927,0.31419885,-0.45832825,-0.4382124,0.70753837,-0.8564798,0.18684044,-0.48969024,-0.46044922,-0.45867014,0.667198,0.9744609,0.0442475,0.19371304,0.10461009,-0.98217684,0.31984752,-0.82899684,0.0,1.0,0.0,0.0,0.0,0.0,0.0,-0.19167173,0.03821239,-0.15753835,-4.926169,1.20399,12.319207,2.4704695,4.1645765,-1.5968382,0.6246567
-4.0675774,78.67663,19.964182,21.048292,2.1126604,0.78325236,-0.029560931,-0.39709246,-0.7843265,-0.3717354,0.67564034,-0.44707757,0.4325675,0.4793775,0.28770408,-1.0923172,-2.2517788,-0.87049145,1.9701712,1.8655338,-0.83708924,0.32063985,-1.0280905,-2.223505,-0.9264359,2.007818,1.8261337,-0.88183886,-0.6871567,-1.4179938,-0.8468363,1.1685425,-0.69537216,0.38226616,0.32034197,-0.4668846,-0.43634558,0.701893,-0.85562354,0.18665364,-0.5894798,-0.47018814,-0.45518327,0.6592947,0.9748703,0.04895291,0.1938401,0.09827209,-0.96533704,0.3634587,-0.7808365,0.0,1.0,0.0,0.0,0.0,0.0,0.0,-0.18311536,0.03634557,-0.15189296,-3.9113402,1.0872364,17.287827,2.6334763,4.3339252,-1.3497472,0.61854124
-2.0854,77.29928,19.652704,19.601097,1.9136157,0.7214638,0.0042627007,-0.41145006,-0.7850996,-0.321969,0.6579927,-0.44218275,0.4264974,0.46499905,0.27949485,-1.1066004,-2.255702,-0.8606366,1.9635997,1.8687835,-0.83533895,0.31350636,-1.0421972,-2.230711,-0.91464657,2.0010927,1.829853,-0.8786107,-0.72236294,-1.4086375,-0.6765756,1.1824652,-0.6670081,0.36827037,0.32363984,-0.47543335,-0.43448067,0.69525045,-0.8547681,0.18646704,-0.68916965,-0.4797325,-0.45130396,0.6518327,0.9752878,0.052949477,0.19374232,0.0920541,-0.9443155,0.4009968,-0.73777264,0.0,1.0,0.0,0.0,0.0,0.0,0.0,-0.17456663,0.03448066,-0.14525044,-3.612101,0.7581711,17.624437,1.4425993,2.1837115,-1.5022695,0.3345847
1.7462647,75.95277,19.778357,17.586302,1.6157568,0.67434245,0.073030494,-0.4229001,-0.7852727,-0.22159709,0.6523836,-0.4803919,0.44476348,0.46759745,0.27121636,-1.1207244,-2.2528708,-0.8494082,1.9530535,1.8743294,-0.83185095,0.3060739,-1.056243,-2.236147,-0.9028124,1.9944335,1.8334618,-0.8753539,-0.75050694,-1.4038489,-0.4977083,1.1839209,-0.6677069,0.35816354,0.3263054,-0.48397446,-0.4326172,0.68761176,-0.8539135,0.18628061,-0.7887598,-0.4889984,-0.4471078,0.6447609,0.97570306,0.056276362,0.19347873,0.086037986,-0.9155782,0.43061787,-0.70018226,0.0,1.0,0.0,0.0,0.0,0.0,0.0,-0.16602552,0.03261718,-0.13761175,-2.904594,0.31576157,18.468576,0.19097328,-0.7103443,-1.0849059,0.2689898
17.61084,79.48313,24.119272,13.352694,1.182517,0.5860451,0.23915172,-0.391006,-0.7832141,-0.04295328,0.6318714,-0.4612274,0.42323482,0.4595423,0.26697332,-1.1345644,-2.2404423,-0.8396253,1.9483107,1.8757852,-0.82939965,0.2986009,-1.0702581,-2.2394009,-0.891108,1.9877483,1.8369675,-0.8720818,-0.74675274,-1.401131,-0.26518792,1.1657455,-0.67138374,0.3480783,0.32746115,-0.49250793,-0.43075562,0.6789779,-0.85305977,0.18609436,-0.8882504,-0.49780655,-0.44276166,0.6381119,0.9761264,0.058760557,0.19300452,0.08045868,-0.86409646,0.4405903,-0.6559355,0.0,1.0,0.0,0.0,0.0,0.0,0.0,-0.15749204,0.03075561,-0.1289779,0.22130013,0.1196146,23.964071,-1.8590927,-1.1313319,-1.0563493,0.104659796
7.8610096,60.223015,14.816557,9.969118,0.73343647,0.07609156,0.2104921,-0.41073978,-0.79119915,-0.20209347,0.58615613,-0.43616605,0.30245772,0.45240304,0.25752693,-1.1493781,-2.2596102,-0.83249235,1.9441316,1.8672132,-0.82684153,0.29115605,-1.0842981,-2.2415562,-0.879806,1.9811031,1.8402939,-0.86880594,-0.7439805,-1.4052695,-0.19754201,1.1186774,-0.66362166,0.32729983,0.32759577,-0.5010338,-0.42889595,0.6693499,-0.8522069,0.1859083,-0.9876416,-0.506279,-0.43837905,0.6315263,0.97655433,0.060947575,0.192266,0.07523773,-0.83675027,0.44195566,-0.66222906,0.0,1.0,0.0,0.0,0.0,0.0,0.0,-0.1489662,0.028895944,-0.1193499,0.21145344,-0.53966045,7.1334214,-4.6237707,0.3412366,-2.1403313,0.015228987
2.5688083,57.002773,11.921463,10.626497,0.62368256,-0.034824133,0.16398759,-0.41398478,-0.78296256,-0.18361843,0.59568787,-0.4798181,0.2972305,0.48998395,0.24975757,-1.1625944,-2.259918,-0.8202372,1.9331212,1.8700169,-0.8198075,0.283736,-1.0983477,-2.2435246,-0.8688931,1.9744159,1.84342,-0.8655034,-0.74149776,-1.4052771,-0.19581711,1.0825995,-0.6714462,0.3074645,0.33118108,-0.5095482,-0.4270382,0.6587287,-0.85135484,0.18572244,-1.0869334,-0.51452637,-0.4339795,0.6247939,0.9769556,0.063283004,0.19136442,0.07023182,-0.81700724,0.4434824,-0.6797337,0.0,1.0,0.0,0.0,0.0,0.0,0.0,-0.14045179,0.027038187,-0.10872871,0.21436214,-0.121593475,0.43237507,-3.4757376,-1.1019945,-2.0439684,0.35383105
8.115945,57.349056,13.06247,8.847529,0.6015328,-0.14291018,0.20347393,-0.39135602,-0.785399,-0.113116354,0.5586973,-0.3861444,0.18406898,0.48749408,0.24460039,-1.1768875,-2.254836,-0.8130233,1.9358015,1.8618269,-0.816754,0.27644637,-1.1124029,-2.2455149,-0.8584404,1.967912,1.8463068,-0.86219496,-0.7249827,-1.4060287,-0.19933906,1.0331873,-0.64387107,0.2822708,0.33084214,-0.5175133,-0.42473269,0.65060323,-0.77469957,0.24139264,-0.72425896,-0.5225601,-0.42962408,0.61786723,0.9773472,0.06580083,0.19020562,0.06545538,-0.79431945,0.43702373,-0.69977456,0.0,1.0,0.0,0.0,0.0,0.0,0.0,-0.1324867,0.02473268,-0.10060322,1.503706,-0.18649101,0.85045993,-4.4943333,2.4628282,-2.9074311,0.24822354
-8.795185,55.963894,9.092663,13.5731735,1.2758743,-0.122480094,0.0035604741,-0.44965598,-0.77652365,-0.17273258,0.5531454,-0.31158188,-0.009655317,0.4999998,0.23148078,-1.1900553,-2.262788,-0.80312586,1.9367537,1.8453413,-0.812195,0.2690387,-1.12642,-2.2478075,-0.8483753,1.9619321,1.848794,-0.85885817,-0.7459364,-1.4007647,-0.23886442,0.99822706,-0.58340967,0.23736122,0.33481798,-0.525177,-0.42226386,0.64314765,-0.76324874,0.24825956,-0.7531263,-0.530571,-0.42516637,0.6107511,0.9777623,0.068589374,0.18866408,0.06068093,-0.7986111,0.45265856,-0.71834016,0.0,1.0,0.0,0.0,0.0,0.0,0.0,-0.124822974,0.022263855,-0.093147635,-2.0745516,0.411582,-3.8267107,-3.3025146,5.8393717,-4.583412,0.4392624
10.243811,75.00347,18.58834,13.598637,1.3146529,0.046743542,0.09128359,-0.38420266,-0.75013953,0.011997303,0.56124884,-0.2931112,-0.07370415,0.5286207,0.23061845,-1.201434,-2.2466078,-0.79225045,1.932621,1.8414235,-0.8059961,0.26168978,-1.1402617,-2.2496166,-0.8385115,1.9565609,1.8508161,-0.8554651,-0.731446,-1.3789608,-0.16041876,0.98258066,-0.5226053,0.19047707,0.34104133,-0.53265,-0.41972613,0.6358011,-0.73750466,0.25140524,-0.731263,-0.53839874,-0.42065263,0.6037791,0.97822213,0.07120564,0.18674435,0.056015935,-0.77324873,0.4549773,-0.69258356,0.0,1.0,0.0,0.0,0.0,0.0,0.0,-0.11734998,0.019726127,-0.085801065,1.3686657,2.0511866,8.273935,-1.5045166,5.8116317,-4.7261534,0.69583654
20.262602,80.87169,23.253885,12.379168,1.6077085,0.1774506,0.1348544,-0.38087302,-0.7656901,0.17995028,0.5266138,-0.1883685,-0.13322446,0.5158048,0.22360247,-1.2168306,-2.2316215,-0.78585017,1.937724,1.8374937,-0.8038846,0.25453153,-1.1539679,-2.2497766,-0.828867,1.9520229,1.8523726,-0.85201293,-0.71092606,-1.3682288,0.03407157,0.95843244,-0.43299595,0.14382015,0.3466947,-0.53966904,-0.41730714,0.628754,-0.6898856,0.23860356,-0.6956652,-0.54590607,-0.41613626,0.5972227,0.97880095,0.073004276,0.18425943,0.051647857,-0.7392831,0.45431432,-0.645727,0.0,1.0,0.0,0.0,0.0,0.0,0.0,-0.11033094,0.017307132,-0.07875401,1.9497156,0.9427786,20.019522,-2.4122834,8.337074,-4.726496,0.5933285
38.481964,82.514366,26.98821,6.961212,1.447825,-0.059464544,0.2648489,-0.31014386,-0.74697345,0.23235013,0.45854428,0.10969187,-0.2584822,0.5408559,0.22351715,-1.2286652,-2.2265415,-0.78301257,1.9629921,1.8265244,-0.7979273,0.24789262,-1.1675253,-2.247873,-0.8197327,1.9491489,1.85342,-0.8484907,-0.648658,-1.3520197,0.24489255,0.89837587,-0.24093477,0.09089613,0.35415646,-0.54616547,-0.41507483,0.6221421,-0.63243604,0.22156218,-0.6514461,-0.5529938,-0.41178346,0.5911696,0.9795988,0.07353144,0.18081865,0.04778975,-0.6944908,0.43242615,-0.59407693,0.0,1.0,0.0,0.0,0.0,0.0,0.0,-0.10383451,0.015074819,-0.072142065,6.082988,1.4818192,21.745985,-6.042373,18.533495,-5.418025,0.7704556
38.423553,71.09975,22.935583,3.7781746,1.2303065,-0.41340828,0.24724378,-0.27438053,-0.7525069,0.17534392,0.42605177,0.30996346,-0.35151058,0.5180205,0.22045456,-1.242776,-2.2303386,-0.77712756,1.9801452,1.818269,-0.7966887,0.24199511,-1.1809816,-2.244562,-0.81128806,1.948623,1.853923,-0.8449184,-0.5704833,-1.3439095,0.3616119,0.8265847,0.008501746,0.036314033,0.35832846,-0.55221176,-0.4130478,0.6158024,-0.5943635,0.19764875,-0.62945616,-0.5597229,-0.40770984,0.5854259,0.9806532,0.072876535,0.17616498,0.044431757,-0.6629262,0.40254268,-0.5700684,0.0,1.0,0.0,0.0,0.0,0.0,0.0,-0.097788215,0.013047785,-0.065802395,7.7051997,0.6784916,12.193519,-7.138157,24.45345,-5.593248,0.45648813
45.833527,72.8198,23.167944,2.402019,0.6987872,-0.6557677,0.26366767,-0.181402,-0.7172305,0.15564536,0.43650526,0.41530144,-0.3504345,0.53375113,0.22385491,-1.2527047,-2.2289975,-0.76763755,1.9901531,1.8188795,-0.79154325,0.23717858,-1.194232,-2.240718,-0.8033765,1.9505666,1.8539301,-0.8413001,-0.45249078,-1.3190533,0.39378068,0.7795609,0.25471342,-0.011270894,0.36298656,-0.55781937,-0.41126657,0.60968745,-0.55015075,0.1718031,-0.6069021,-0.56608963,-0.4040668,0.5798882,0.981905,0.0713143,0.17044437,0.04154085,-0.6248947,0.3548198,-0.5506487,0.0,1.0,0.0,0.0,0.0,0.0,0.0,-0.09218061,0.011266559,-0.059687436,11.673432,2.3448944,3.7544727,-4.6358943,24.179491,-4.8088274,0.46628714
58.707024,77.23087,26.386433,-0.28570616,0.224141,-0.67689383,0.38440824,-0.09804108,-0.7098891,0.29705256,0.40236706,0.48567203,-0.33368808,0.53880394,0.22737446,-1.2652209,-2.2110126,-0.7631398,1.9991338,1.8205613,-0.7874197,0.2337374,-1.2072256,-2.2362587,-0.79591495,1.9546939,1.8535337,-0.83763695,-0.3084575,-1.2933712,0.46566597,0.73533595,0.46367282,-0.049261633,0.367379,-0.5629196,-0.4097929,0.6039184,-0.49726403,0.139988,-0.56970644,-0.57193375,-0.40103364,0.5746041,0.98330075,0.068810314,0.16383818,0.03926619,-0.56949604,0.2891889,-0.52347374,0.0,1.0,0.0,0.0,0.0,0.0,0.0,-0.08708036,0.009792894,-0.05391836,14.263916,2.4051905,7.8439593,-4.3530583,20.39616,-3.8413315,0.41632056
52.60324,78.06336,25.503828,0.9614755,0.26670623,-0.50463444,0.3925531,-0.084294535,-0.6954413,0.3701318,0.34135097,0.5535967,-0.3181859,0.5348758,0.22530794,-1.2767696,-2.1992455,-0.76177984,2.0100536,1.8217151,-0.78414935,0.23151968,-1.2199476,-2.2308807,-0.78903836,1.9605972,1.8528215,-0.83393764,-0.19316852,-1.265853,0.56359035,0.6721311,0.6311103,-0.078535184,0.3708058,-0.5675087,-0.40862012,0.59852326,-0.44788727,0.10984194,-0.53204674,-0.5772438,-0.39858794,0.56959176,0.9848004,0.06534143,0.15646091,0.037664294,-0.5160782,0.23222193,-0.4966793,0.0,1.0,0.0,0.0,0.0,0.0,0.0,-0.08249128,0.008620113,-0.048523247,11.440033,2.5902987,10.34919,-6.203592,16.335737,-2.927512,0.34154058
52.236904,69.43224,22.49388,-4.202846,-0.46842825,-0.5148682,0.65042406,-0.05463997,-0.67243767,0.3734539,0.1484932,0.6213503,-0.33942154,0.5411437,0.22605568,-1.2871914,-2.1935353,-0.77418905,2.0227323,1.8188794,-0.7798233,0.23023373,-1.2323549,-2.2246747,-0.7835769,1.9679269,1.8518398,-0.83020157,-0.10727389,-1.2328874,0.6409247,0.50461483,0.7658887,-0.10451631,0.3746982,-0.57162476,-0.4077351,0.59333175,-0.40041542,0.08191771,-0.51791364,-0.5819397,-0.39676595,0.56463426,0.9863627,0.061173957,0.14825653,0.036964804,-0.45362678,0.16779661,-0.49830908,0.0,1.0,0.0,0.0,0.0,0.0,0.0,-0.07837522,0.0077351034,-0.043331742,8.52547,3.1411648,8.117067,-16.609371,13.2096405,-2.5469437,0.42610168
27.809895,65.984406,17.709364,-0.14685094,0.009855624,-0.12173401,0.6052831,-0.12921098,-0.64531887,0.43572378,-0.0007248894,0.6656594,-0.2925548,0.53024286,0.21731263,-1.2968868,-2.1811023,-0.7836494,2.0344927,1.8225843,-0.7771773,0.2291406,-1.244375,-2.21766,-0.78033453,1.9763669,1.8506655,-0.82643825,-0.1099108,-1.1919655,0.72171265,0.26469055,0.8701023,-0.12130747,0.3772971,-0.57535934,-0.4070468,0.58815277,-0.36523917,0.064837515,-0.5205013,-0.58613586,-0.39532828,0.55957085,0.98795426,0.05653751,0.13916989,0.037168037,-0.40715867,0.13766424,-0.5118508,0.0,1.0,0.0,0.0,0.0,0.0,0.0,-0.07464063,0.007046789,-0.038152754,-0.23443252,3.9878607,8.06731,-23.82083,10.46052,-1.5591741,0.37469268
20.949997,67.39827,17.178991,1.0561072,0.06971356,0.107127264,0.6312466,-0.131377,-0.62167317,0.52464217,-0.13265356,0.6779131,-0.2325713,0.5289198,0.2160029,-1.3065423,-2.1651957,-0.7935999,2.0441582,1.8274083,-0.7735463,0.22776927,-1.2559564,-2.2096505,-0.7797366,1.9855952,1.849395,-0.82265127,-0.14589924,-1.1470249,0.8266504,-0.0077570127,0.9411982,-0.12840052,0.3796947,-0.57873917,-0.406497,0.582947,-0.32922885,0.05262125,-0.523257,-0.58986664,-0.39411044,0.55437726,0.9895366,0.05148091,0.1292353,0.038277302,-0.3600789,0.11813529,-0.52458704,0.0,1.0,0.0,0.0,0.0,0.0,0.0,-0.07126081,0.0064969957,-0.032947004,-3.5091372,4.4158697,10.236895,-27.036652,7.3627234,-0.53789616,0.41264296
