Afshin1997/kuka_rl_ros2/src/catch_and_throw/input_files/idealpd/recorded_trajectories/env_464_data.csv
torque0,torque1,torque2,torque3,torque4,torque5,torque6,action0,action1,action2,action3,action4,action5,action6,set_target_0,set_target_1,set_target_2,set_target_3,set_target_4,set_target_5,set_target_6,joint_pos_0,joint_pos_1,joint_pos_2,joint_pos_3,joint_pos_4,joint_pos_5,joint_pos_6,joint_vel_0,joint_vel_1,joint_vel_2,joint_vel_3,joint_vel_4,joint_vel_5,joint_vel_6,tennisball_pos_0,tennisball_pos_1,tennisball_pos_2,tennisball_lin_vel_0,tennisball_lin_vel_1,tennisball_lin_vel_2,end_effector_pos_0,end_effector_pos_1,end_effector_pos_2,end_effector_rot_0,end_effector_rot_1,end_effector_rot_2,end_effector_rot_3,end_effector_lin_vel_0,end_effector_lin_vel_1,end_effector_lin_vel_2,obs_task_0,obs_task_1,obs_task_2,obs_task_3,obs_task_4,obs_task_5,obs_task_6,to_final_target_0,to_final_target_1,to_final_target_2,joint_acc_0,joint_acc_1,joint_acc_2,joint_acc_3,joint_acc_4,joint_acc_5,joint_acc_6
0.0,0.0,0.0,0.0,0.0,0.0,0.0,0.0,0.0,0.0,0.0,0.0,0.0,0.0,1.7802359,-1.0646509,-1.8151424,-1.1170107,1.9373155,1.1170107,-0.91629785,1.7802359,-1.0646509,-1.8151424,-1.1170107,1.9373155,1.1170107,-0.91629785,0.0,0.0,0.0,0.0,0.0,0.0,0.0,3.066208,-0.28816223,0.24299249,-3.1474104,-0.24277456,5.2405195,0.5304184,-0.45449448,0.693097,0.5745483,0.17512383,0.15255436,0.7848268,0.0,0.0,0.0,1.0,0.0,0.0,0.0,0.0,0.0,0.0,-3.716208,-0.111837775,0.30700752,0.0,0.0,0.0,0.0,0.0,0.0,0.0
0.0,0.0,0.0,0.0,0.0,0.0,0.0,0.0,0.0,0.0,0.0,0.0,0.0,0.0,1.7802359,-1.0646509,-1.8151424,-1.1170107,1.9373155,1.1170107,-0.91629785,1.7802359,-1.0646509,-1.8151424,-1.1170107,1.9373155,1.1170107,-0.91629785,0.0,0.0,0.0,0.0,0.0,0.0,0.0,3.066208,-0.28816223,0.24299249,-3.1474104,-0.24277456,5.2405195,0.5304184,-0.45449448,0.693097,0.5745483,0.17512383,0.15255436,0.7848268,0.0,0.0,0.0,1.0,0.0,0.0,0.0,0.0,0.0,0.0,-3.716208,-0.111837775,0.30700752,0.0,0.0,0.0,0.0,0.0,0.0,0.0
0.0,0.0,0.0,0.0,0.0,0.0,0.0,0.0,0.0,0.0,0.0,0.0,0.0,0.0,1.7802359,-1.0646509,-1.8151424,-1.1170107,1.9373155,1.1170107,-0.91629785,1.7802359,-1.0646509,-1.8151424,-1.1170107,1.9373155,1.1170107,-0.91629785,0.0,0.0,0.0,0.0,0.0,0.0,0.0,3.066208,-0.28816223,0.24299249,-3.1474104,-0.24277456,5.2405195,0.5304184,-0.45449448,0.693097,0.5745483,0.17512383,0.15255436,0.7848268,0.0,0.0,0.0,1.0,0.0,0.0,0.0,0.0,0.0,0.0,-3.716208,-0.111837775,0.30700752,0.0,0.0,0.0,0.0,0.0,0.0,0.0
-176.0,70.205765,-5.405905,110.0,11.02376,4.8574433,-3.770244,-0.81967163,0.35841894,-0.541285,0.72108203,0.3332635,0.6438199,-0.5915398,1.6982688,-1.028809,-1.8692709,-1.0449026,1.9706419,1.1813927,-0.9754518,1.7788416,-1.062549,-1.8205726,-1.1123892,1.9432473,1.1223227,-0.9190683,-0.18577491,0.27947688,-0.72346395,0.6163479,0.78998727,0.7063249,-0.36871228,3.034752,-0.29058838,0.2946219,-3.1442635,-0.24253184,5.1370935,0.52822113,-0.45776367,0.6939453,0.57864463,0.173615,0.1506409,0.7825187,-0.29260638,-0.436283,0.11276103,1.0,0.0,0.0,0.0,0.0,0.0,0.0,-3.684752,-0.10941163,0.2553781,-18.515358,27.768478,-72.18507,61.721684,78.74049,70.0647,-36.67571
-176.0,-17.371368,-40.85818,110.0,11.833367,1.8213568,-3.0056803,-0.8053607,-0.10465966,-0.5355181,0.6942794,0.44480672,0.6419721,-0.6283285,1.6983056,-1.073015,-1.8741244,-1.0429612,1.987728,1.1865199,-0.9819011,1.7770754,-1.0596002,-1.8349559,-1.0988947,1.9549375,1.1357371,-0.92173856,-0.1712764,0.2986005,-1.678624,1.5968348,1.2954947,1.5472544,-0.22951716,3.0033264,-0.29301453,0.34521788,-3.14112,-0.24228936,5.0337715,0.52337646,-0.46613312,0.69496316,0.5873886,0.17007938,0.14627686,0.77759296,-0.5505555,-0.9691923,0.0984921,1.0,0.0,0.0,0.0,0.0,0.0,0.0,-3.6533265,-0.10698548,0.20478213,2.1278472,1.4749527,-96.09337,98.9377,50.578644,82.29351,15.0186
-154.80525,108.504906,28.657156,89.43773,7.816411,7.1970696,-1.6085883,-0.7622244,0.24800865,0.10014229,0.5855956,0.49963242,0.6558999,-0.5716642,1.700853,-1.0347993,-1.8249418,-1.0403352,2.0049007,1.2013271,-0.97890496,1.7721545,-1.0560488,-1.849755,-1.0813757,1.9680772,1.1510435,-0.9241857,-0.59931636,0.37118432,-1.4075719,1.8045998,1.3156679,1.5184786,-0.25112864,2.9719315,-0.29543304,0.39478138,-3.1379795,-0.24204713,4.9305525,0.5156555,-0.47731018,0.6974709,0.59883714,0.16500665,0.14049864,0.77099085,-0.85183614,-1.1608396,0.3052949,1.0,0.0,0.0,0.0,0.0,0.0,0.0,-3.6219316,-0.10456696,0.15521863,-42.8455,6.3772917,28.929352,21.134377,0.67629814,-4.847741,-2.5868268
-99.222946,114.879616,42.483574,56.858055,4.7608285,7.4776025,-0.27128103,-0.7738455,0.13505156,0.20072106,0.6099738,0.5065977,0.6395884,-0.5948206,1.6947699,-1.0425436,-1.829683,-1.0203784,2.0187368,1.2150024,-0.98366773,1.762982,-1.0525106,-1.8590038,-1.0640074,1.9802232,1.1652437,-0.9268865,-1.024326,0.34592775,-0.75686115,1.7148528,1.1762592,1.3834435,-0.27857697,2.9405823,-0.29785156,0.44331345,-3.1348422,-0.24180514,4.8274364,0.50540924,-0.4891777,0.70190585,0.6111125,0.1585862,0.13360322,0.76389927,-1.0944366,-1.1839437,0.49387836,1.0,0.0,0.0,0.0,0.0,0.0,0.0,-3.5905824,-0.10214844,0.10668656,-42.81504,-3.167653,67.24056,-8.835006,-15.394282,-14.590478,-3.4075916
-43.91697,124.57804,49.9033,30.038492,1.9042597,6.568494,0.4403891,-0.796356,0.21277969,0.20978022,0.5836195,0.5764899,0.6303637,-0.58894044,1.6833464,-1.0312326,-1.8380258,-1.0056455,2.037872,1.2282801,-0.98578054,1.7502791,-1.0490087,-1.861615,-1.0487276,1.9909024,1.1779238,-0.929882,-1.3534359,0.35017437,-0.09009588,1.4653637,1.0283465,1.2283074,-0.30877063,2.9092636,-0.30027008,0.49081516,-3.131708,-0.24156338,4.7244234,0.49337006,-0.50040436,0.707989,0.62302995,0.15102494,0.12587643,0.75708663,-1.2534904,-1.0892031,0.6482362,1.0,0.0,0.0,0.0,0.0,0.0,0.0,-3.5592637,-0.099729925,0.05918485,-33.27079,-0.017547607,68.435585,-25.050617,-15.830517,-15.868783,-3.710264
-2.8148377,133.49387,51.75731,15.12641,-0.16461205,5.1705303,0.47500378,-0.8044041,0.34023243,0.20108506,0.5939487,0.57132447,0.624288,-0.5981206,1.6698387,-1.0149854,-1.8415065,-0.98933274,2.048035,1.2403526,-0.98969406,1.7353674,-1.0448583,-1.8590858,-1.0358568,2.0003211,1.1891848,-0.9331569,-1.5381533,0.4356251,0.37100238,1.2271097,0.911374,1.0919724,-0.33579594,2.8779755,-0.30268097,0.53728753,-3.1285768,-0.24132186,4.6215134,0.48031616,-0.510273,0.7154321,0.634201,0.14257136,0.1179703,0.7506966,-1.3330289,-0.93956727,0.7754827,1.0,0.0,0.0,0.0,0.0,0.0,0.0,-3.5279756,-0.09731904,0.012712479,-18.770481,8.208937,47.277832,-23.977493,-12.2175455,-13.596559,-3.3364117
19.369757,137.22435,49.07737,8.550532,-1.4366707,3.7763376,0.20522706,-0.8169707,0.46734908,0.15649338,0.58010024,0.56015545,0.6228603,-0.60043347,1.6536703,-0.9981234,-1.8434365,-0.9778468,2.0563366,1.2514708,-0.99320024,1.7194773,-1.0392431,-1.8539188,-1.024882,2.0088623,1.199248,-0.93666834,-1.6066853,0.6025488,0.5674791,1.0538164,0.83434063,0.97856206,-0.3579423,2.8467178,-0.30509186,0.58273154,-3.125449,-0.24108058,4.5187063,0.4669037,-0.51854706,0.72396594,0.64472973,0.13350743,0.11065395,0.744483,-1.3546047,-0.77697,0.8769202,1.0,0.0,0.0,0.0,0.0,0.0,0.0,-3.496718,-0.09490815,-0.032731533,-7.1053505,16.430891,20.375711,-17.430328,-7.891166,-11.125433,-2.7439415
30.333445,135.12422,45.496742,5.6316786,-1.9353942,2.7701106,0.03046239,-0.8251408,0.56442076,0.16266829,0.5406478,0.5948411,0.62186456,-0.5938376,1.6369632,-0.982801,-1.837652,-0.9708172,2.0683463,1.2614344,-0.9960521,1.7034441,-1.0316709,-1.8481205,-1.0151907,2.0170105,1.2083288,-0.9403619,-1.602777,0.8080171,0.58572245,0.9405547,0.80785525,0.8852286,-0.3745544,2.8154907,-0.30750275,0.6271483,-3.122324,-0.24083954,4.4160023,0.45350647,-0.52524567,0.7333724,0.6547951,0.12408296,0.10437163,0.73820955,-1.3419595,-0.6207271,0.958989,1.0,0.0,0.0,0.0,0.0,0.0,0.0,-3.4654908,-0.09249726,-0.07714826,0.16257763,20.342493,2.3351789,-11.389852,-2.7021766,-9.08668,-2.0897508
35.24618,131.06937,43.374905,5.28807,-1.8825855,2.2864583,-0.017955394,-0.81466943,0.63976395,0.2125356,0.52811956,0.6135469,0.6209163,-0.58060145,1.6219772,-0.9676945,-1.8268669,-0.96237874,2.078365,1.2704204,-0.9984221,1.6877581,-1.0220731,-1.8426006,-1.0061918,2.0251358,1.2165972,-0.94418424,-1.5577404,1.0096684,0.54198784,0.8859915,0.8138524,0.80789983,-0.38597703,2.7842941,-0.30990982,0.6705387,-3.1192024,-0.24059874,4.313401,0.44034576,-0.5304756,0.7435577,0.6645071,0.11438788,0.09915542,0.7317882,-1.3154246,-0.47695765,1.0352166,1.0,0.0,0.0,0.0,0.0,0.0,0.0,-3.4342942,-0.090090185,-0.12053871,4.3091774,19.997597,-3.945434,-5.502689,0.58431625,-7.553041,-1.5123069
32.933792,115.83922,37.453842,5.1535883,-1.5463316,1.7361065,-0.022110475,-0.80304646,0.6837007,0.2053806,0.5133471,0.62925595,0.6317711,-0.56955147,1.6074535,-0.9537031,-1.8220625,-0.9548571,2.0880613,1.2797743,-1.0011394,1.6726176,-1.0107664,-1.8377235,-0.9974747,2.0334518,1.2242018,-0.94808954,-1.5000714,1.1707064,0.4708845,0.86685604,0.8374357,0.74486697,-0.39319596,2.753128,-0.31231308,0.7129039,-3.1160839,-0.24035819,4.210902,0.4274292,-0.534462,0.7543365,0.6739265,0.1045239,0.09483578,0.7251924,-1.285457,-0.35812002,1.0891328,1.0,0.0,0.0,0.0,0.0,0.0,0.0,-3.4031281,-0.087686926,-0.1629039,5.6087494,15.9787655,-6.763506,-1.9863605,2.368939,-6.1772346,-1.034826
28.320219,97.72963,30.947987,4.4135427,-1.1679149,1.2647725,0.039152022,-0.79525644,0.71169466,0.19823937,0.48201123,0.6506741,0.6348104,-0.5641169,1.593092,-0.9395969,-1.8178996,-0.9492735,2.0985193,1.2876829,-1.0045012,1.6579996,-0.99824655,-1.8335178,-0.98891544,2.042073,1.2312628,-0.95204824,-1.4494792,1.2787222,0.40461186,0.85183406,0.87037367,0.6933538,-0.3977625,2.7219925,-0.31471634,0.75424486,-3.1129684,-0.2401179,4.108506,0.41482544,-0.5374565,0.7654525,0.68305165,0.094624534,0.09116476,0.71845365,-1.2567985,-0.2633475,1.1159089,1.0,0.0,0.0,0.0,0.0,0.0,0.0,-3.3719926,-0.08528367,-0.20424485,4.9216986,10.714865,-6.327039,-1.6281486,3.3159733,-5.040896,-0.73713064
20.553534,80.215004,24.411251,4.810845,-0.7472975,0.89655167,0.055693187,-0.7953603,0.72836906,0.17612512,0.46331236,0.65463996,0.6448707,-0.5615524,1.5784636,-0.9254097,-1.8159053,-0.9425842,2.107537,1.2957499,-1.0082035,1.6437441,-0.9850162,-1.8299129,-0.9805231,2.0509956,1.2378851,-0.9560403,-1.4179226,1.3376873,0.3465747,0.83449113,0.8998153,0.6521984,-0.40063554,2.6908875,-0.31711578,0.79456264,-3.1098561,-0.23987783,4.006212,0.4024353,-0.53967667,0.7766438,0.6918902,0.08481978,0.08793346,0.71159065,-1.2346425,-0.1936077,1.1171092,1.0,0.0,0.0,0.0,0.0,0.0,0.0,-3.3408875,-0.08288422,-0.24456263,3.0305624,5.8444977,-5.54862,-1.909411,2.990353,-3.9991736,-0.53820014
15.209398,67.92613,20.012777,5.003379,-0.45149878,0.6636194,0.08480389,-0.7917906,0.7383575,0.16318947,0.4434407,0.66337705,0.648364,-0.55771387,1.5645651,-0.9111805,-1.813594,-0.93617904,2.1173334,1.3027215,-1.0118117,1.629685,-0.9714664,-1.8267753,-0.97235775,2.0601776,1.2441565,-0.9600534,-1.4023774,1.3606771,0.30374455,0.80990577,0.92437905,0.6191763,-0.40224874,2.659813,-0.3195114,0.83385825,-3.106747,-0.23963802,3.904021,0.39022064,-0.54133224,0.7877187,0.70044357,0.07519431,0.08498077,0.7046296,-1.2173643,-0.14057232,1.1011457,1.0,0.0,0.0,0.0,0.0,0.0,0.0,-3.309813,-0.08048859,-0.28385824,1.4344215,2.2712708,-4.0494976,-2.6687145,2.5186896,-3.1688452,-0.39758682
10.62075,60.94605,17.449072,6.3809214,-0.17912161,0.5688056,0.06592989,-0.7866696,0.7433742,0.14704134,0.4477819,0.662973,0.6555943,-0.54765356,1.5510181,-0.897129,-1.8120712,-0.9275796,2.1264749,1.3097159,-1.0148188,1.6157099,-0.9578489,-1.8239849,-0.9643736,2.0695426,1.2501475,-0.96407026,-1.3962256,1.3620617,0.27163973,0.7937977,0.94045615,0.5929302,-0.40227005,2.628769,-0.32190704,0.8721327,-3.1036408,-0.23939843,3.8019319,0.3781433,-0.54254913,0.7985855,0.70874006,0.06576168,0.08220337,0.69757116,-1.2062047,-0.10034738,1.0786577,1.0,0.0,0.0,0.0,0.0,0.0,0.0,-3.278769,-0.07809296,-0.3221327,0.50411224,0.12359619,-2.998662,-1.828754,1.6809225,-2.5007248,-0.22470951
12.076972,59.959152,17.541767,5.5030923,-0.23237032,0.5605676,0.13318308,-0.78037465,0.7479343,0.15862493,0.41404408,0.66460216,0.65640086,-0.54974425,1.5376724,-0.88305545,-1.8081224,-0.92296916,2.1360028,1.3157876,-1.0190446,1.6017748,-0.94428,-1.8213356,-0.9566498,2.0790145,1.2559153,-0.96808714,-1.3930603,1.3551328,0.26343986,0.7645062,0.9498484,0.5718539,-0.4023187,2.5977554,-0.32429886,0.90938705,-3.1005378,-0.23915909,3.6999447,0.36618805,-0.5433388,0.8092202,0.7167419,0.05649516,0.079541884,0.69047976,-1.1926657,-0.057179004,1.0552639,1.0,0.0,0.0,0.0,0.0,0.0,0.0,-3.2477555,-0.07570115,-0.35938704,0.20103455,-0.70581436,-0.5776644,-3.1512976,1.0048747,-1.9667864,-0.23727417
15.5508795,61.646713,18.343853,3.5700936,-0.46172434,0.5278945,0.22362317,-0.7799351,0.75881153,0.15980287,0.3588559,0.678326,0.6546336,-0.5399609,1.5237813,-0.8683989,-1.8053553,-0.9207642,2.1468472,1.3213786,-1.0220833,1.5878493,-0.93074644,-1.8186691,-0.94943047,2.0885856,1.2615038,-0.9720983,-1.3926867,1.352644,0.2684682,0.7070278,0.9595107,0.5549069,-0.40140748,2.5667725,-0.32668686,0.94562227,-3.0974379,-0.23891999,3.5980597,0.35440826,-0.5436325,0.8196132,0.72436655,0.047389302,0.07699036,0.6834616,-1.1714815,-0.0055100643,1.030714,1.0,0.0,0.0,0.0,0.0,0.0,0.0,-3.2167726,-0.07331315,-0.39562225,-0.0910759,-0.26051998,0.77916384,-5.9737444,1.0225058,-1.5163064,-0.14631748
20.762867,66.19578,20.421707,1.6351628,-0.7339885,0.5642836,0.33141908,-0.774458,0.76836073,0.1901547,0.30731046,0.6806005,0.6498348,-0.5279042,1.5104035,-0.8539104,-1.7996536,-0.91869944,2.1566458,1.3264873,-1.0248888,1.5739428,-0.9171804,-1.8157737,-0.9429579,2.098233,1.2669436,-0.9760913,-1.3903528,1.3578289,0.2977315,0.62656647,0.967013,0.54095143,-0.39940116,2.53582,-0.32907486,0.98083943,-3.094341,-0.23868112,3.4962766,0.3429184,-0.54330826,0.82979393,0.731513,0.038413767,0.07455646,0.67664933,-1.1411387,0.058502663,1.0105317,1.0,0.0,0.0,0.0,0.0,0.0,0.0,-3.18582,-0.07092515,-0.43083942,0.09877682,0.5072355,3.23506,-8.260226,0.7986188,-1.1830091,-0.044435263
27.020243,68.65883,21.615637,-1.6592946,-1.1278496,0.45551914,0.45515046,-0.76952964,0.77696943,0.21325651,0.2231676,0.6831679,0.645509,-0.52028424,1.4969898,-0.8394835,-1.794448,-0.9206411,2.1665497,1.3314945,-1.0281198,1.5600821,-0.9035133,-1.8124797,-0.93755245,2.1079452,1.2722632,-0.98005956,-1.3852859,1.3697201,0.34091532,0.51124054,0.97281796,0.529813,-0.39672366,2.504898,-0.33146286,1.0150396,-3.0912473,-0.2384425,3.3945951,0.33182526,-0.5422592,0.839754,0.73806363,0.029577317,0.07226843,0.67019725,-1.096074,0.13409992,0.9876821,1.0,0.0,0.0,0.0,0.0,0.0,0.0,-3.1548982,-0.068537146,-0.46503955,0.3706932,1.1869669,4.6354413,-11.740339,0.6343603,-0.82776546,0.026524067
30.09069,67.77266,21.33598,-3.7122145,-1.3286917,0.27345896,0.52552015,-0.76694876,0.78031284,0.23026286,0.14750494,0.69248646,0.6488373,-0.5010992,1.4833872,-0.825482,-1.7894535,-0.922802,2.1771939,1.3371469,-1.0301695,1.5462786,-0.88971937,-1.8087356,-0.9334583,2.11773,1.2774912,-0.9839868,-1.3791502,1.3827221,0.38636193,0.37488666,0.9804006,0.52163357,-0.3922234,2.4740067,-0.33384323,1.0482236,-3.0881567,-0.2382041,3.2930155,0.32126617,-0.540432,0.8494474,0.7439484,0.02092651,0.07015552,0.6642145,-1.0407907,0.21134046,0.95936304,1.0,0.0,0.0,0.0,0.0,0.0,0.0,-3.1240067,-0.066156775,-0.4982236,0.48975945,1.3136625,4.8264923,-13.831097,0.83088875,-0.4780531,0.23126006
33.09635,65.47965,20.50371,-6.5486045,-1.6051242,0.024256915,0.6028986,-0.7706294,0.7853541,0.25590515,0.032411154,0.6914616,0.6416171,-0.5045471,1.4692156,-0.8111839,-1.7831451,-0.9302172,2.186876,1.3416529,-1.0344415,1.5325075,-0.8757967,-1.8045261,-0.93098545,2.1275718,1.2826487,-0.987874,-1.3767948,1.395519,0.4334806,0.204075,0.9859384,0.51512,-0.38817492,2.4431458,-0.3362236,1.0803926,-3.0850692,-0.23796596,3.1915374,0.3113327,-0.5378113,0.8587855,0.7491114,0.012553172,0.06827084,0.658797,-0.97281253,0.28989062,0.9212015,1.0,0.0,0.0,0.0,0.0,0.0,0.0,-3.0931458,-0.0637764,-0.5303926,0.123786926,1.3114214,4.9536886,-17.265024,0.64474344,-0.24154186,0.21777153
35.464226,60.8284,18.831743,-9.093538,-1.7938278,-0.31013685,0.65559167,-0.7642348,0.78373486,0.26949748,-0.07651145,0.697115,0.63749295,-0.49235067,1.456084,-0.7974232,-1.7775763,-0.9386366,2.1972833,1.346398,-1.037109,1.5187765,-0.86178625,-1.7999027,-0.93038654,2.137471,1.2877508,-0.9917144,-1.3721534,1.4030783,0.4726406,0.011232635,0.9919291,0.5100708,-0.38318315,2.4123154,-0.33860397,1.1115476,-3.0819848,-0.23772804,3.0901608,0.3021698,-0.5344391,0.86765695,0.75351447,0.0045743044,0.06665634,0.65402746,-0.89277756,0.36357546,0.87135834,1.0,0.0,0.0,0.0,0.0,0.0,0.0,-3.0623155,-0.061396033,-0.5615476,0.38137436,0.80912113,4.0881577,-19.453865,0.7123947,-0.036597252,0.35071373
39.348236,60.324303,18.91882,-11.434131,-2.0281296,-0.5142295,0.7328191,-0.7546083,0.79107285,0.30861193,-0.19865108,0.6947014,0.6307293,-0.47761792,1.4433157,-0.78267896,-1.7690415,-0.95025164,2.2069411,1.3508238,-1.0394762,1.5051314,-0.84769857,-1.7948291,-0.9318619,2.1474159,1.2928072,-0.99549764,-1.3622515,1.4109102,0.5192098,-0.20081559,0.9956591,0.5057739,-0.3769949,2.3815155,-0.34097672,1.1416895,-3.0789034,-0.23749037,2.9888854,0.29389954,-0.53030777,0.87600094,0.7571106,-0.0029380226,0.06533988,0.65000427,-0.80078125,0.43859762,0.8174063,1.0,0.0,0.0,0.0,0.0,0.0,0.0,-3.0315156,-0.05902329,-0.5916895,0.94497204,0.85573196,4.7544837,-21.336605,0.5171895,0.08134842,0.508368
41.83999,60.777405,19.414612,-12.3256645,-2.098083,-0.6315691,0.7849185,-0.7407257,0.7961818,0.34963155,-0.30706292,0.70582306,0.6322121,-0.45255107,1.4310588,-0.7680804,-1.759866,-0.96256816,2.2179983,1.3560284,-1.0407528,1.4916407,-0.8335308,-1.789212,-0.9354706,2.157418,1.2978274,-0.9992036,-1.344602,1.4190633,0.5759578,-0.41454557,1.0027248,0.50255656,-0.36870638,2.3507462,-0.34334946,1.1708195,-3.0758252,-0.23725294,2.8877115,0.28659058,-0.52542114,0.8838148,0.75986636,-0.009970781,0.06430656,0.646814,-0.70265394,0.5130301,0.76435184,1.0,0.0,0.0,0.0,0.0,0.0,0.0,-3.0007463,-0.05665055,-0.6208195,1.7667532,0.90785027,5.675423,-21.457123,0.8999467,0.20349026,0.7539153
41.234856,64.60792,21.254915,-9.7471,-1.8773278,-0.4904501,0.7700999,-0.7225246,0.8026419,0.4164929,-0.36687902,0.70649064,0.6252454,-0.42364368,1.4193882,-0.7532666,-1.7475626,-0.9721585,2.2280672,1.3603519,-1.041568,1.4783922,-0.8192705,-1.7828395,-0.9409504,2.1674888,1.3028132,-1.0028105,-1.3181287,1.4287874,0.6574293,-0.59252477,1.0096716,0.49905518,-0.3581386,2.3200073,-0.3457222,1.1989385,-3.0727499,-0.23701574,2.7866387,0.28020477,-0.51978683,0.8912085,0.761797,-0.016634194,0.06346725,0.6444847,-0.6113871,0.58664817,0.7256966,1.0,0.0,0.0,0.0,0.0,0.0,0.0,-2.9700074,-0.054277807,-0.6489385,2.6940107,1.0886908,8.017182,-17.829382,0.97813606,0.15074015,1.0121644
37.564774,64.40914,21.448936,-6.330324,-1.5224019,-0.4003453,0.7081515,-0.70738405,0.798596,0.46845302,-0.41878968,0.702362,0.61635274,-0.37676257,1.4076538,-0.7394109,-1.7359942,-0.98282933,2.237725,1.3644484,-1.0404867,1.4654394,-0.804952,-1.7755554,-0.9478922,2.1776092,1.3077608,-1.0062857,-1.2873099,1.4333612,0.7512948,-0.7280503,1.0140591,0.49484578,-0.34390703,2.289299,-0.34809113,1.2260475,-3.0696778,-0.23677878,2.685667,0.27462006,-0.5134697,0.8982915,0.76296455,-0.023052137,0.06272639,0.64297664,-0.53174436,0.65277684,0.69674647,1.0,0.0,0.0,0.0,0.0,0.0,0.0,-2.939299,-0.05190888,-0.6760475,3.1572819,0.5918503,9.15184,-13.561964,0.7923603,0.046235323,1.3952255
30.494503,65.83908,21.899632,-0.03896475,-0.9601757,-0.1542134,0.5570125,-0.6901875,0.8047354,0.5158397,-0.41211486,0.6989895,0.61233705,-0.31564936,1.3964207,-0.7244785,-1.7239714,-0.9891037,2.247508,1.3689946,-1.0378506,1.4528128,-0.79058206,-1.7673118,-0.9556656,2.1877563,1.3126646,-1.0095816,-1.2542108,1.4387387,0.84746015,-0.79391485,1.0158861,0.49010774,-0.3249963,2.2586212,-0.35045624,1.2521476,-3.0666087,-0.23654206,2.5847962,0.26969147,-0.50654984,0.90522146,0.7634983,-0.029398752,0.061995696,0.6421545,-0.4739976,0.7095622,0.68541604,1.0,0.0,0.0,0.0,0.0,0.0,0.0,-2.9086213,-0.04954377,-0.70214754,3.3860922,0.69253445,9.294701,-6.596577,0.60822964,-0.06816387,1.8686652
19.85853,62.27789,19.930544,6.605711,-0.32367578,-0.017301992,0.33768806,-0.68918467,0.80610013,0.5291942,-0.39472616,0.6961625,0.60974896,-0.26145074,1.3838943,-0.709972,-1.7143924,-0.9951382,2.2573726,1.3736396,-1.0357267,1.4404417,-0.7761663,-1.7582843,-0.96363544,2.1978996,1.3175188,-1.0126619,-1.2312396,1.443016,0.92005765,-0.7981669,1.0152863,0.48486695,-0.3026371,2.227974,-0.35282135,1.2772397,-3.0635428,-0.23630558,2.4840262,0.26514435,-0.4991989,0.9121071,0.7635998,-0.03579328,0.06124726,0.6417809,-0.4409995,0.7490901,0.6830013,1.0,0.0,0.0,0.0,0.0,0.0,0.0,-2.877974,-0.047178656,-0.72723967,2.3324966,0.59063435,6.93841,-0.47819614,0.37546158,-0.19634366,2.208513
10.826474,57.46724,17.484928,11.539078,0.16930103,0.029982015,0.1557047,-0.6909161,0.8074067,0.5376232,-0.37602043,0.6982058,0.6076195,-0.20671652,1.3713502,-0.6954256,-1.704522,-1.0012375,2.2677202,1.3782808,-1.0333335,1.4282061,-0.7617153,-1.7487419,-0.97134495,2.208039,1.3223196,-1.0154982,-1.2212682,1.4463197,0.9647418,-0.7620958,1.0145382,0.47936878,-0.27741915,2.1973572,-0.35518265,1.3013248,-3.0604799,-0.23606932,2.3833568,0.26078033,-0.49155426,0.91899264,0.7634582,-0.04228069,0.06048371,0.6416273,-0.42694074,0.77282995,0.68361765,1.0,0.0,0.0,0.0,0.0,0.0,0.0,-2.8473573,-0.04481736,-0.75132483,0.982213,0.49426556,4.1874766,3.5066009,0.33905506,-0.28775334,2.4887204
5.4955087,52.688,15.13214,13.3664,0.3380667,-0.040754154,0.047689952,-0.7005842,0.811352,0.54078585,-0.37958324,0.6902555,0.6061573,-0.18278167,1.3581476,-0.6805801,-1.6946633,-1.0093033,2.2770646,1.3829354,-1.0337763,1.4159533,-0.74722517,-1.73894,-0.97865963,2.2181442,1.3270689,-1.0180883,-1.2267292,1.4504157,0.9846068,-0.72169095,1.0102955,0.47400802,-0.25282454,2.166771,-0.35754013,1.3244041,-3.05742,-0.23583329,2.2827883,0.2565155,-0.48376083,0.9258505,0.7632034,-0.04882796,0.05977064,0.64153236,-0.4200517,0.7870622,0.6796178,1.0,0.0,0.0,0.0,0.0,0.0,0.0,-2.816771,-0.042459875,-0.7744041,-0.60532093,0.56631565,1.7699361,3.9085507,-0.05249977,-0.31475425,2.4288297
1.2731037,45.074,11.945946,13.678074,0.47762513,-0.21233658,-0.014180955,-0.71799356,0.80135083,0.5369205,-0.38199422,0.690953,0.6150849,-0.15726294,1.3441539,-0.66709006,-1.6852479,-1.016859,2.2872396,1.3885775,-1.0338147,1.4035269,-0.73275125,-1.7290885,-0.98565197,2.2282035,1.3317744,-1.0204382,-1.2482005,1.4468855,0.9847813,-0.692296,1.0059108,0.47002596,-0.22914362,2.1362152,-0.3598976,1.3464785,-3.0543633,-0.23559749,2.18232,0.2522812,-0.47590637,0.93258834,0.76291496,-0.05533752,0.05915987,0.64140356,-0.4164702,0.78933716,0.66478515,1.0,0.0,0.0,0.0,0.0,0.0,0.0,-2.7862153,-0.040102392,-0.79647845,-2.245307,-0.21033287,-0.12426376,2.7686357,-0.11999607,-0.20288229,2.3337603
0.60502625,43.066574,11.239239,13.964558,0.5109531,-0.27477846,-0.033548348,-0.7205671,0.80238456,0.5401459,-0.35606393,0.68769354,0.6161266,-0.114623316,1.3314703,-0.6525128,-1.675074,-1.0212584,2.296973,1.393387,-1.0319005,1.3908793,-0.71831834,-1.7192886,-0.99233246,2.238217,1.3364455,-1.0225458,-1.2707685,1.4425951,0.9780989,-0.6605921,1.0010346,0.46675518,-0.20466487,2.10569,-0.36225128,1.3675488,-3.0513093,-0.23536193,2.0819523,0.24806976,-0.46804047,0.93916947,0.76262707,-0.06177283,0.058669817,0.6412035,-0.41330466,0.788774,0.64886624,1.0,0.0,0.0,0.0,0.0,0.0,0.0,-2.75569,-0.037748724,-0.8175488,-2.3639202,-0.28998852,-0.7896304,2.9917955,-0.18465519,-0.14329553,2.4116488
1.5340834,42.262737,11.172222,13.574366,0.48033917,-0.33916122,-0.009289052,-0.7260516,0.8010889,0.5420976,-0.3410499,0.68934345,0.6110121,-0.050066147,1.3182741,-0.63820946,-1.6650789,-1.0264374,2.3071516,1.3975466,-1.0275525,1.3780257,-0.70393026,-1.7095592,-0.99871063,2.2481964,1.3410841,-1.0243845,-1.2906524,1.4380358,0.9709785,-0.6307517,0.9980359,0.46358806,-0.1771114,2.0751953,-0.36460114,1.3876163,-3.0482588,-0.23512661,1.981685,0.243927,-0.46019363,0.9455875,0.7623292,-0.06812459,0.058299597,0.6409479,-0.40779242,0.7883319,0.63246983,1.0,0.0,0.0,0.0,0.0,0.0,0.0,-2.7251954,-0.03539887,-0.83761626,-2.0917892,-0.31938553,-0.82604885,2.8090477,-0.004017353,-0.13304353,2.717516
0.5729666,39.83182,10.440662,14.064478,0.56802934,-0.37411234,-0.025044795,-0.74169046,0.79236126,0.5391253,-0.31843567,0.6866723,0.6204136,-0.0226657,1.3038566,-0.6246941,-1.6556467,-1.0305542,2.3168635,1.4031255,-1.026651,1.3649565,-0.68961847,-1.6999004,-1.0047665,2.258145,1.3457018,-1.0259542,-1.3126513,1.4294189,0.96396285,-0.5977915,0.9951657,0.4617197,-0.15026464,2.0447311,-0.366951,1.4066819,-3.045211,-0.23489153,1.8815178,0.23983002,-0.45236588,0.95183724,0.76202977,-0.07439568,0.058032364,0.64063096,-0.40442768,0.78446835,0.61553735,1.0,0.0,0.0,0.0,0.0,0.0,0.0,-2.6947312,-0.033049017,-0.8566819,-2.3117542,-0.72886944,-0.7999897,3.1112552,-0.000166893,-0.015592575,2.641648
0.20236778,39.610294,10.44841,14.761671,0.59969205,-0.37025326,-0.034607228,-0.753451,0.7936457,0.5309056,-0.29108748,0.68158835,0.628498,0.051458433,1.2896113,-0.61025393,-1.6468098,-1.0338752,2.326304,1.4085516,-1.0208085,1.3516661,-0.67537534,-1.6903293,-1.0104446,2.2680595,1.3503081,-1.0272264,-1.33487,1.423163,0.9543767,-0.5583163,0.9912302,0.4609979,-0.1197747,2.0142975,-0.36930084,1.4247464,-3.0421665,-0.23465669,1.7814506,0.23571777,-0.44457626,0.95793587,0.76173717,-0.08060744,0.05786758,0.6402424,-0.40253526,0.7806759,0.6010229,1.0,0.0,0.0,0.0,0.0,0.0,0.0,-2.6642976,-0.030699164,-0.8747464,-2.3416042,-0.4936695,-1.0477543,3.7632465,-0.106585026,0.08728504,3.0056505
0.5710869,38.951714,10.567611,14.923849,0.62130535,-0.37192535,-0.0017050207,-0.76399326,0.785292,0.53904045,-0.26954398,0.6751428,0.6366555,0.15157852,1.2752668,-0.59684616,-1.6364253,-1.037399,2.3355737,1.4139736,-1.0120686,1.3381602,-0.6612133,-1.6807983,-1.0157108,2.2779243,1.3549162,-1.0281477,-1.3561122,1.4143448,0.9523449,-0.51662916,0.98562634,0.4613573,-0.08307588,1.9838943,-0.37164307,1.4418111,-3.039125,-0.23442209,1.6814835,0.23164368,-0.4368248,0.96389925,0.7614285,-0.086787514,0.057792928,0.63980824,-0.40097824,0.7775861,0.58789986,1.0,0.0,0.0,0.0,0.0,0.0,0.0,-2.6338944,-0.02835694,-0.8918111,-2.24185,-0.75092316,-0.29274225,3.987527,-0.26843548,0.19248128,3.6227286
-1.4291182,38.879066,10.705582,17.497253,0.81256807,-0.26541704,-0.05631741,-0.7744337,0.78348374,0.53182894,-0.20262626,0.662355,0.6442512,0.23449667,1.2607168,-0.5828649,-1.6276155,-1.0359734,2.3441598,1.4193413,-1.004698,1.3244501,-0.6471294,-1.6712997,-1.0203457,2.2877014,1.3595339,-1.0286722,-1.3762888,1.4068403,0.94881094,-0.4464247,0.9760801,0.4623776,-0.04230737,1.9535217,-0.3739853,1.4578769,-3.0360863,-0.23418772,1.5816164,0.22751617,-0.42910767,0.96979177,0.7611284,-0.09302092,0.05779195,0.63928926,-0.4078597,0.77334005,0.5828529,1.0,0.0,0.0,0.0,0.0,0.0,0.0,-2.6035218,-0.026014715,-0.9078769,-2.1505594,-0.6154299,-0.44982433,6.8305674,-0.64212084,0.23266077,4.024478
-4.2340956,36.738945,10.035849,20.111599,1.0783067,-0.1881946,-0.12963861,-0.7879876,0.77467847,0.5217008,-0.13601023,0.659552,0.65605164,0.2861423,1.2456514,-0.56966156,-1.6191297,-1.0339468,2.3536565,1.4251391,-1.0000579,1.3105303,-0.63313997,-1.6618736,-1.0240746,2.297383,1.3641688,-1.0287867,-1.397575,1.3966745,0.9403703,-0.34917185,0.9669304,0.46423382,-0.0013536172,1.9231796,-0.3763275,1.4729447,-3.033051,-0.2339536,1.4818491,0.22323608,-0.421463,0.9756767,0.76089483,-0.0993925,0.057827085,0.63860476,-0.42471075,0.7644275,0.5835566,1.0,0.0,0.0,0.0,0.0,0.0,0.0,-2.5731797,-0.023672491,-0.9229447,-2.279687,-0.8809805,-0.9387255,9.519041,-0.59018135,0.28481483,4.036074
-2.478362,37.288643,10.574648,19.657774,1.0159147,-0.22222757,-0.1035204,-0.7878141,0.77197886,0.5220952,-0.10034462,0.6641871,0.65591073,0.31978962,1.2317489,-0.55594206,-1.6096641,-1.034109,2.3638017,1.4297599,-0.9968077,1.2964541,-0.61924493,-1.65252,-1.0268288,2.3070076,1.3688227,-1.0285082,-1.4114251,1.3875209,0.93327403,-0.25153795,0.9620327,0.46596587,0.037417434,1.892868,-0.3786621,1.4870157,-3.0300186,-0.23371968,1.3821815,0.21881866,-0.41389465,0.98157775,0.7607189,-0.105933115,0.057865705,0.6377589,-0.43868482,0.7586197,0.58551556,1.0,0.0,0.0,0.0,0.0,0.0,0.0,-2.5428681,-0.021337897,-0.9370157,-1.5175343,-0.78344345,-0.80844164,9.576172,-0.17151833,0.2753198,3.8170867
-0.32852745,38.04004,11.185264,18.933636,0.91346073,-0.27246684,-0.07498992,-0.78359103,0.7684996,0.51865447,-0.05017338,0.6627148,0.65465045,0.3429216,1.218095,-0.542395,-1.6006545,-1.031846,2.373279,1.4342878,-0.994216,1.2823168,-0.6054338,-1.643235,-1.0286083,2.3165977,1.37349,-1.0278673,-1.4150426,1.3794507,0.9265168,-0.15404643,0.9591202,0.4673598,0.072746925,1.862587,-0.3809967,1.5000907,-3.026989,-0.233486,1.2826136,0.21429443,-0.40634918,0.98750293,0.760568,-0.11265446,0.057895165,0.63678354,-0.44838426,0.7564887,0.58826005,1.0,0.0,0.0,0.0,0.0,0.0,0.0,-2.512587,-0.019003302,-0.9500907,-0.46916008,-0.67965984,-0.7796526,9.583324,0.016868114,0.24498701,3.470464
-6.0810823,37.58705,11.394922,26.162348,1.533112,0.07286343,-0.2549958,-0.78155726,0.7628316,0.50465804,0.13823874,0.6546243,0.6551758,0.39994127,1.204161,-0.52915066,-1.5927691,-1.0147845,2.38206,1.4390075,-0.9878732,1.268191,-0.5917047,-1.6340683,-1.0287857,2.3261497,1.3781649,-1.0268717,-1.4121246,1.3712754,0.9130304,0.026908463,0.95525765,0.46771875,0.10817413,1.8323364,-0.3833313,1.5121708,-3.0239627,-0.23325256,1.1831453,0.20947266,-0.39886475,0.9936172,0.7605392,-0.11976957,0.057822984,0.6355248,-0.48468795,0.7502229,0.612566,1.0,0.0,0.0,0.0,0.0,0.0,0.0,-2.4823365,-0.016668707,-0.9621708,0.16357899,-0.6768465,-1.5046954,17.911957,-0.010049343,0.060158968,3.4691544
-10.1615,34.37234,10.071684,29.68769,1.8562051,0.17309114,-0.39318508,-0.7874201,0.7578589,0.4662789,0.25152826,0.65079147,0.65462595,0.40924716,1.189449,-0.51591885,-1.5874404,-1.0036329,2.391229,1.4436275,-0.98594695,1.2540842,-0.57805765,-1.6251972,-1.0268803,2.3356636,1.3828398,-1.0255518,-1.4108468,1.3629198,0.8778097,0.24449861,0.95102966,0.4672744,0.1395209,1.8021164,-0.38566208,1.5232569,-3.0209394,-0.23301935,1.0837764,0.20417786,-0.39147568,1.0000206,0.7607517,-0.12741482,0.057604168,0.63380116,-0.53487295,0.7387073,0.6430216,1.0,0.0,0.0,0.0,0.0,0.0,0.0,-2.4521165,-0.014337927,-0.9732569,-0.0113248825,-0.6958246,-3.6936402,21.570456,-0.026452541,-0.0746727,3.0639915
-7.66963,32.17528,8.9599,25.815277,1.5008885,-0.0761507,-0.34125832,-0.79422957,0.7548881,0.43796313,0.26597032,0.6486947,0.6513978,0.38560295,1.1746613,-0.50256884,-1.5814009,-1.0002832,2.400533,1.4479796,-0.9869915,1.2399546,-0.5644878,-1.6167781,-1.0231495,2.3451316,1.3875071,-1.0239744,-1.4140856,1.3553659,0.8295157,0.41524667,0.9465114,0.46662462,0.16368006,1.7719269,-0.38798904,1.5333501,-3.017919,-0.23278639,0.9845068,0.19850159,-0.38419724,1.00662,0.76121145,-0.1354801,0.057316244,0.6315988,-0.57082844,0.7289497,0.6590447,1.0,0.0,0.0,0.0,0.0,0.0,0.0,-2.421927,-0.012010962,-0.9833501,-0.4486084,-0.636816,-4.95317,16.907894,-0.10801554,-0.07081628,2.354312
-2.8579082,30.635708,8.030348,19.46371,0.927704,-0.4519163,-0.21619865,-0.796813,0.7517422,0.40545502,0.26731637,0.64556795,0.65434533,0.377999,1.1602733,-0.4893136,-1.5762327,-0.9964179,2.4096885,1.4529417,-0.9861745,1.2257754,-0.55098855,-1.6089122,-1.0182514,2.3545501,1.3921744,-1.022193,-1.4194322,1.34848,0.77194756,0.514105,0.94108856,0.46693513,0.18262021,1.7417679,-0.390316,1.5424514,-3.0149019,-0.23255366,0.88533646,0.19264221,-0.37700653,1.0132271,0.76183856,-0.14373277,0.05708788,0.62903404,-0.58250564,0.7219091,0.65480304,1.0,0.0,0.0,0.0,0.0,0.0,0.0,-2.391768,-0.009683996,-0.99245137,-0.6416321,-0.5935192,-5.8117867,9.736461,-0.27145147,0.0931263,1.8360317
2.7258348,31.203491,8.029037,12.897525,0.3091585,-0.79979974,-0.053884573,-0.80408686,0.75130516,0.38772947,0.24737558,0.6440181,0.6525719,0.37627736,1.1453667,-0.47585803,-1.5701393,-0.9935139,2.418952,1.4574316,-0.9845652,1.211516,-0.5375408,-1.6015842,-1.0129375,2.3639152,1.3968493,-1.0202513,-1.4284368,1.3438147,0.7199469,0.5367894,0.9355705,0.46795222,0.19780914,1.7116394,-0.39264297,1.5505617,-3.0118876,-0.23232114,0.7862653,0.1868515,-0.36984253,1.019655,0.7625192,-0.15192999,0.05704532,0.6262808,-0.56823903,0.72006375,0.63252896,1.0,0.0,0.0,0.0,0.0,0.0,0.0,-2.3616395,-0.007357031,-1.0005617,-0.9985447,-0.39224625,-5.1735044,2.137053,-0.3574729,0.24206638,1.4609396
8.146809,31.776865,8.433263,7.5933104,-0.13501161,-1.0947825,0.11429074,-0.790472,0.74129057,0.3762781,0.23021947,0.6437152,0.6491295,0.40227824,1.1324688,-0.46341175,-1.5639564,-0.9899156,2.4282868,1.4617622,-0.98002344,1.1972452,-0.5241684,-1.5946815,-1.007782,2.3732307,1.4015337,-1.0181589,-1.4267361,1.335251,0.6804845,0.5081402,0.9306643,0.4692717,0.21267146,1.6815414,-0.3949623,1.5576819,-3.008876,-0.23208886,0.6872932,0.18138123,-0.3626709,1.0257701,0.7631179,-0.15989318,0.057239655,0.6235454,-0.532699,0.72112006,0.5984489,1.0,0.0,0.0,0.0,0.0,0.0,0.0,-2.3315415,-0.005037695,-1.0076818,0.11796951,-0.7928133,-3.8868546,-2.9717684,-0.36256313,0.33668876,1.4211118
8.422899,30.016731,7.593649,6.5950727,-0.2117626,-1.2362043,0.11495153,-0.79237294,0.73748547,0.33480996,0.23665547,0.6286164,0.64972514,0.41135842,1.1180079,-0.4504198,-1.5612005,-0.98411644,2.4360924,1.4665062,-0.97702307,1.183005,-0.5108856,-1.588227,-1.0029926,2.3824623,1.4062315,-1.0159292,-1.4233052,1.3261191,0.63388044,0.46898508,0.921096,0.4706587,0.22623654,1.651474,-0.39728165,1.5638132,-3.005868,-0.23185682,0.58842,0.17629242,-0.35551453,1.0315204,0.76361424,-0.16754368,0.057709992,0.62087995,-0.49250388,0.7186287,0.5613059,1.0,0.0,0.0,0.0,0.0,0.0,0.0,-2.301474,-0.0027183592,-1.0138133,0.30236244,-0.8486986,-4.6064377,-4.020059,-0.84095,0.35414696,1.2972474
10.319356,27.96925,6.421006,2.9019098,-0.47556698,-1.5322181,0.17287202,-0.79775,0.73332816,0.29981235,0.15660492,0.63196677,0.65216047,0.4013134,1.10323,-0.43755278,-1.5582458,-0.98733217,2.445659,1.4714476,-0.9757979,1.1687781,-0.49769437,-1.5822895,-0.99892753,2.3916175,1.4109465,-1.0135851,-1.4226619,1.3169994,0.5804744,0.38542953,0.91383046,0.47259897,0.23679015,1.6214371,-0.39960098,1.5689565,-3.0028627,-0.23162502,0.48964572,0.17169952,-0.3484192,1.036812,0.76400155,-0.17473136,0.058515444,0.6183416,-0.43793347,0.7111755,0.51286536,1.0,0.0,0.0,0.0,0.0,0.0,0.0,-2.2714372,-0.0003990233,-1.0189564,0.040578842,-0.84991455,-5.268705,-8.451247,-0.6537914,0.45281053,1.0085046
12.237368,28.244434,6.606331,0.76959515,-0.6408921,-1.6779314,0.24804774,-0.79435927,0.7269509,0.2951161,0.09534379,0.62783056,0.6535671,0.41635016,1.0893421,-0.4249993,-1.5527779,-0.9893932,2.4544005,1.4763032,-0.97195005,1.1545664,-0.4846009,-1.5767925,-0.9958882,2.4007041,1.4156805,-1.0111399,-1.4206871,1.3070292,0.53983885,0.27663153,0.90697324,0.47463158,0.24693486,1.5914307,-0.4019127,1.5731127,-2.9998603,-0.23139344,0.39097023,0.16773224,-0.34139633,1.0415899,0.7642397,-0.1813568,0.059672933,0.61602473,-0.37448788,0.7033538,0.46078795,1.0,0.0,0.0,0.0,0.0,0.0,0.0,-2.2414308,0.0019126832,-1.0231128,0.20148754,-0.9349346,-3.9903283,-10.953051,-0.64218044,0.47433972,0.9716213
16.360666,29.13773,6.819806,-4.4400773,-1.0844338,-1.9852498,0.40413845,-0.7950362,0.72151893,0.29337674,-0.041983083,0.6163712,0.65048075,0.4460116,1.0750628,-0.412449,-1.5474548,-1.0000864,2.4623413,1.4807286,-0.9665387,1.14037,-0.47160852,-1.571574,-0.9943871,2.4096992,1.4204336,-1.0085821,-1.4190358,1.2968429,0.5162669,0.10781393,0.89705646,0.47656465,0.25853226,1.5614548,-0.4042244,1.5762831,-2.9968612,-0.23116209,0.29239342,0.16456604,-0.33444977,1.0457534,0.764238,-0.18725508,0.061232526,0.6141062,-0.28973368,0.6953886,0.39647296,1.0,0.0,0.0,0.0,0.0,0.0,0.0,-2.2114549,0.00422439,-1.026283,0.22540092,-0.9588957,-2.2783518,-16.909502,-1.0097146,0.5074978,1.1297762
18.359594,29.133896,6.8262143,-7.2348976,-1.2845843,-2.178989,0.49664003,-0.79435855,0.7139477,0.29346684,-0.15308592,0.60849154,0.6482921,0.47224373,1.0609342,-0.40021375,-1.5422273,-1.0096956,2.4705484,1.4852629,-0.9613577,1.1261927,-0.45872772,-1.5664756,-0.9948229,2.4185874,1.425202,-1.0058985,-1.416891,1.2853853,0.5078145,-0.09410059,0.88561696,0.47806612,0.27144247,1.5315094,-0.4065361,1.5784683,-2.993865,-0.23093097,0.19391514,0.16231537,-0.32758713,1.0492263,0.76392776,-0.1922917,0.0632168,0.61273307,-0.19379592,0.68510175,0.32602993,1.0,0.0,0.0,0.0,0.0,0.0,0.0,-2.1815095,0.0065360963,-1.0284684,0.33450127,-1.0819197,-0.80213547,-20.17585,-1.1915326,0.46725273,1.277709
17.539812,27.866642,6.6195946,-6.4320397,-1.1732714,-2.1824133,0.49578995,-0.7883856,0.70234346,0.29662105,-0.22561663,0.5844336,0.65164775,0.5021049,1.0473541,-0.38849336,-1.5368135,-1.0173845,2.4770308,1.4903668,-0.955688,1.112063,-0.445989,-1.5613773,-0.9972138,2.4273078,1.4299837,-1.0030775,-1.4111174,1.2703049,0.5104065,-0.28729156,0.8672897,0.47928,0.2857755,1.5015945,-0.408844,1.5796696,-2.9908717,-0.23070009,0.09553533,0.16100311,-0.3208351,1.0520158,0.76329935,-0.19646312,0.06560619,0.61194134,-0.10118129,0.67205274,0.25850502,1.0,0.0,0.0,0.0,0.0,0.0,0.0,-2.1515946,0.008843988,-1.0296695,0.7396221,-1.4348507,0.23519993,-19.282923,-1.8631339,0.39997697,1.4286697
16.829506,24.347218,5.532231,-6.7154193,-1.076263,-2.27123,0.50373197,-0.7746064,0.6813959,0.2965659,-0.33534974,0.5562217,0.6585363,0.52477103,1.0346024,-0.37784943,-1.5317206,-1.0307487,2.48293,1.4958373,-0.9506004,1.0980555,-0.43346965,-1.5562255,-1.0015416,2.435784,1.4347807,-1.0001078,-1.3966676,1.2460955,0.5163194,-0.48106036,0.8406731,0.4807176,0.300603,1.4717102,-0.41114807,1.5798877,-2.9878814,-0.23046944,-0.0027461357,0.16062927,-0.3142624,1.0541152,0.76235354,-0.19975883,0.06836793,0.6117511,-0.009290056,0.6520877,0.18906166,1.0,0.0,0.0,0.0,0.0,0.0,0.0,-2.1217103,0.011148065,-1.0298877,1.6796827,-2.3418665,0.4827261,-19.320286,-2.6916385,0.3943622,1.4844894
14.535862,20.71202,4.492186,-4.8913994,-0.8119669,-2.2363498,0.45469698,-0.7631474,0.66118467,0.2999772,-0.413747,0.52755755,0.6537502,0.5313999,1.0217408,-0.36735117,-1.5262278,-1.0429163,2.48854,1.5001557,-0.9469678,1.0842348,-0.42124975,-1.5510032,-1.0076604,2.44394,1.4395853,-0.99700063,-1.3764144,1.2142651,0.52373075,-0.65544486,0.8075091,0.4810467,0.31406188,1.4418564,-0.41345215,1.5791239,-2.9848943,-0.230239,-0.10092934,0.16110992,-0.30791473,1.0555464,0.7611245,-0.20220877,0.071454555,0.61212355,0.07348347,0.62639904,0.12309725,1.0,0.0,0.0,0.0,0.0,0.0,0.0,-2.0918565,0.0134521425,-1.0291238,2.290225,-3.1002045,0.5699158,-17.387152,-3.324592,0.23626685,1.3441324
11.40913,16.634277,3.1505833,-2.5367417,-0.548243,-2.15961,0.37892076,-0.7587984,0.63925487,0.30014902,-0.4892983,0.47683442,0.6603722,0.5523597,1.008355,-0.35732424,-1.5209883,-1.0565902,2.4916234,1.5056225,-0.94176465,1.0706049,-0.4093932,-1.5457199,-1.0153699,2.4516685,1.4443938,-0.99376005,-1.357786,1.176397,0.5291609,-0.80946606,0.7610727,0.48134634,0.32734987,1.4120331,-0.4157524,1.5773789,-2.98191,-0.23000881,-0.1990144,0.162323,-0.30186844,1.0563446,0.7596701,-0.20386724,0.074843265,0.6129747,0.14528486,0.5958602,0.060633264,1.0,0.0,0.0,0.0,0.0,0.0,0.0,-2.0620332,0.015752405,-1.0273788,2.120018,-3.704834,0.3505826,-15.372765,-4.6337366,0.18270016,1.315254
7.702695,11.4255905,1.505902,0.6376257,-0.20519525,-2.0409937,0.2777424,-0.74250793,0.6068308,0.29454434,-0.53770924,0.40603304,0.66494036,0.560221,0.9963541,-0.34871012,-1.5162654,-1.0691408,2.492272,1.5108877,-0.93773794,1.0571867,-0.39798915,-1.5404289,-1.0243802,2.4587867,1.449206,-0.9903974,-1.33568,1.1287102,0.5284615,-0.9314526,0.69550955,0.481545,0.33920443,1.3822403,-0.41804886,1.5746537,-2.9789286,-0.22977886,-0.29700136,0.16415405,-0.29615402,1.056558,0.75806797,-0.20482333,0.07852929,0.61417705,0.20270653,0.5599083,0.00356721,1.0,0.0,0.0,0.0,0.0,0.0,0.0,-2.0322404,0.018048853,-1.0246537,2.450943,-4.6901464,-0.27735233,-12.209166,-6.524563,0.12485385,1.1478424
3.2904074,3.8460016,-1.0080066,3.8172264,0.17175299,-1.9351351,0.16567954,-0.7268123,0.55996764,0.28466272,-0.5766404,0.29990605,0.6634504,0.5708955,0.9845055,-0.34199238,-1.5119627,-1.0820442,2.4887774,1.5155511,-0.9333078,1.0440127,-0.38718688,-1.5352066,-1.0343766,2.46502,1.4540163,-0.9869241,-1.3106327,1.0643357,0.5194651,-1.0225917,0.59953815,0.48114267,0.34983206,1.352478,-0.4203453,1.5709494,-2.9759502,-0.22954912,-0.39489037,0.16645813,-0.29086304,1.0562303,0.7564078,-0.20517014,0.08252347,0.61558294,0.24464992,0.5158184,-0.04956423,1.0,0.0,0.0,0.0,0.0,0.0,0.0,-2.0024781,0.0203453,-1.0209494,2.7251482,-6.3704967,-1.1048436,-9.174574,-9.558058,0.022512674,0.9866774
-1.8282533,-5.438912,-4.195922,7.096091,0.7251229,-1.8400309,0.051463638,-0.71853745,0.5043385,0.2688612,-0.6081648,0.23962684,0.659788,0.56734943,0.9721589,-0.33675304,-1.5083205,-1.0951931,2.4889827,1.5199951,-0.9301892,1.0310694,-0.37717092,-1.5301483,-1.0450921,2.4702423,1.4588171,-0.9833612,-1.2882026,0.9808329,0.50071,-1.0884544,0.4964467,0.47988528,0.35799056,1.3227463,-0.42264175,1.566267,-2.972975,-0.22931962,-0.4926815,0.16903687,-0.2861023,1.0553966,0.7547858,-0.20497084,0.08676501,0.6170551,0.26736024,0.4588384,-0.0992194,1.0,0.0,0.0,0.0,0.0,0.0,0.0,-1.9727463,0.022641748,-1.0162671,2.425003,-8.303249,-2.041757,-6.702161,-10.281056,-0.10868311,0.7017851
-7.0109415,-19.85882,-8.710584,9.175619,1.4233123,-1.810994,0.003947854,-0.68694645,0.4000103,0.27093375,-0.63836986,0.14096679,0.65309995,0.5667823,0.96237475,-0.3371699,-1.5030549,-1.108929,2.484339,1.5241271,-0.92668295,1.018437,-0.36832273,-1.5252521,-1.0563531,2.4743202,1.4635988,-0.9797315,-1.2540942,0.85286254,0.48528436,-1.1390892,0.3785113,0.47762793,0.36405417,1.293045,-0.42493057,1.5606074,-2.9700027,-0.22909035,-0.59037495,0.17169952,-0.28207016,1.0540555,0.7532492,-0.20425303,0.09109401,0.61854506,0.27001303,0.3809633,-0.14989226,1.0,0.0,0.0,0.0,0.0,0.0,0.0,-1.943045,0.024930567,-1.0106075,3.6401987,-12.782526,-1.745224,-5.220437,-11.782628,-0.24649501,0.4441917
-17.543365,-47.4441,-19.057922,11.466303,2.3803873,-1.9563982,-0.19689043,-0.65661055,0.24605237,0.19139712,-0.65122473,-0.07612053,0.6456962,0.56000376,0.95277596,-0.3437175,-1.5061123,-1.1214756,2.4667082,1.5281684,-0.92373115,1.0062319,-0.36127317,-1.5208385,-1.0679936,2.4767768,1.46835,-0.9760608,-1.2082725,0.65549475,0.42593402,-1.1731521,0.20107791,0.4739667,0.36714882,1.2633743,-0.4272194,1.5539716,-2.9670331,-0.2288613,-0.6879707,0.17420197,-0.27914047,1.0521338,0.75197065,-0.20296656,0.09544182,0.6198673,0.24479322,0.25984332,-0.20992808,1.0,0.0,0.0,0.0,0.0,0.0,0.0,-1.9133743,0.027219385,-1.0039716,4.8942804,-19.791948,-6.132513,-3.619504,-17.829918,-0.46858191,0.043547153
-48.410748,-141.50539,-53.29941,13.2588215,5.957762,-2.6901486,-0.565445,-0.5609349,-0.24035291,0.04579096,-0.675379,-0.37057176,0.62556267,0.53794456,0.9501384,-0.38530847,-1.5162594,-1.1355315,2.4397197,1.5309063,-0.92226636,0.9948726,-0.35818183,-1.5176628,-1.0799489,2.4768035,1.4730383,-0.9723968,-1.1095304,0.19270864,0.28026015,-1.2038913,-0.06483209,0.46572983,0.36431634,1.2337189,-0.4295082,1.5463606,-2.9640667,-0.22863248,-0.7854688,0.17577362,-0.27863312,1.0492773,0.75133467,-0.20074384,0.09922592,0.6207675,0.13116793,-0.022521906,-0.3135439,1.0,0.0,0.0,0.0,0.0,0.0,0.0,-1.8837188,0.029508203,-0.9963606,10.586286,-46.562775,-14.863557,-3.354478,-26.952774,-1.2115479,-0.83085895
-61.041126,-175.78513,-66.493484,16.063116,7.5248933,-2.8816082,-0.7578338,-0.4427937,-0.488904,-0.12879272,-0.6500033,-0.5168708,0.6017293,0.5315852,0.95059323,-0.40707225,-1.530542,-1.1449492,2.4251165,1.5332112,-0.91923827,0.9849439,-0.36041677,-1.5166328,-1.0919785,2.4740684,1.4776121,-0.96876997,-0.9514683,-0.36352378,0.04318103,-1.2029022,-0.34488374,0.45221567,0.3602727,1.2040939,-0.4317932,1.5377754,-2.9611034,-0.2284039,-0.88286954,0.17592621,-0.28142166,1.0453055,0.75160867,-0.19737874,0.101977244,0.62106884,-0.024954801,-0.36425513,-0.42637363,1.0,0.0,0.0,0.0,0.0,0.0,0.0,-1.8540939,0.031793207,-0.9877754,16.561281,-56.01362,-23.920525,0.07638931,-28.46803,-2.0759761,-0.96158385
-51.335358,-158.62363,-59.51514,11.695439,6.837852,-2.8257508,-0.4613657,-0.27338466,-0.6789002,-0.21006244,-0.7022051,-0.59832865,0.6298361,0.51031333,0.9576055,-0.4283068,-1.537639,-1.162199,2.4142356,1.5405958,-0.9177386,0.97715145,-0.36806476,-1.5180194,-1.1041436,2.4688041,1.4820677,-0.96518797,-0.72039485,-0.8998091,-0.19913135,-1.220128,-0.5885862,0.4400751,0.35630605,1.1744995,-0.4340744,1.528217,-2.958143,-0.22817555,-0.9801728,0.1747055,-0.28742218,1.040165,0.7526083,-0.1928477,0.10349108,0.62103134,-0.15668517,-0.67766464,-0.54416627,1.0,0.0,0.0,0.0,0.0,0.0,0.0,-1.8244995,0.034074396,-0.97821695,23.535645,-54.004158,-24.219015,-1.4056921,-24.742037,-2.175486,-0.7553756
2.6031034,-55.899216,-14.5607,-3.2040844,2.4371212,-2.3258274,0.8473092,0.20409514,-0.7252903,-0.08548306,-0.7330127,-0.65931696,0.6366451,0.46749544,0.997561,-0.44059378,-1.5265677,-1.1774449,2.4028723,1.5457323,-0.91843843,0.9734655,-0.3798827,-1.5206478,-1.1166177,2.4615257,1.4864336,-0.96165174,-0.25448045,-1.2762048,-0.28207165,-1.2562501,-0.7736953,0.43352357,0.35295793,1.1449356,-0.4363556,1.5176861,-2.9551854,-0.22794741,-1.0773789,0.17324066,-0.29520035,1.0340623,0.75314784,-0.18761472,0.10375921,0.62193483,-0.14563946,-0.8079511,-0.6342045,1.0,0.0,0.0,0.0,0.0,0.0,0.0,-1.7949356,0.036355585,-0.9676861,45.668625,-37.769867,-7.63953,-3.5200357,-18.313826,-1.2907982,-0.26404858
26.051,3.5628576,7.4320574,-6.4275227,-0.007421255,-2.07302,1.0462853,0.37913194,-0.75992155,-0.25212651,-0.69496506,-0.68522686,0.6636881,0.3953772,1.0113786,-0.45587486,-1.5458604,-1.1861142,2.393003,1.5528024,-0.922114,0.9746633,-0.39420164,-1.5242298,-1.129252,2.4528549,1.4907805,-0.9581937,0.23926064,-1.4838772,-0.37988827,-1.2665349,-0.8973507,0.43371707,0.344125,1.1154022,-0.43863297,1.5061839,-2.9522307,-0.22771952,-1.1744877,0.17240906,-0.3035698,1.0272617,0.752668,-0.1820793,0.10315161,0.6242577,-0.063089035,-0.8421996,-0.6988427,1.0,0.0,0.0,0.0,0.0,0.0,0.0,-1.7654022,0.03863296,-0.95618385,47.772774,-20.808292,-8.654488,-1.2048006,-12.062764,-0.37974715,-0.69315434
29.474873,25.409445,11.547743,-5.922083,-0.82026243,-2.2336955,0.7124977,0.4960149,-0.79237133,-0.49135062,-0.6935485,-0.62318766,0.6403778,0.28484514,1.0242648,-0.47343877,-1.5733649,-1.1986068,2.390536,1.5548183,-0.9297092,0.9802728,-0.40965402,-1.5295856,-1.1419053,2.4435508,1.4951235,-0.9549045,0.6630905,-1.565855,-0.58359784,-1.2656326,-0.94105005,0.43345967,0.3243596,1.0858994,-0.44090652,1.4937112,-2.949279,-0.22749184,-1.2714995,0.17256927,-0.31214142,1.0198823,0.75138503,-0.17623013,0.10211174,0.62764364,0.041311182,-0.8568626,-0.75582755,1.0,0.0,0.0,0.0,0.0,0.0,0.0,-1.7358993,0.04090652,-0.9437112,40.86008,-8.2375765,-19.225098,-0.13742447,-4.1883707,-0.3627479,-1.8252969
28.28278,37.080017,13.297991,-3.624967,-1.0617838,-2.153516,0.43763906,0.5957177,-0.80601597,-0.58266574,-0.7085093,-0.55903953,0.6347892,0.18754318,1.0398446,-0.49025562,-1.5878521,-1.2127563,2.387647,1.5586025,-0.9361502,0.989327,-0.42533386,-1.537173,-1.1545758,2.4342887,1.4994665,-0.95187944,0.9825111,-1.5687747,-0.8143491,-1.2680992,-0.9210075,0.4335992,0.29559663,1.056427,-0.44318008,1.4802693,-2.9463305,-0.22726439,-1.3684143,0.17370605,-0.3207779,1.0119883,0.7496153,-0.16997422,0.10091116,0.63166654,0.14537448,-0.8598514,-0.8065857,1.0,0.0,0.0,0.0,0.0,0.0,0.0,-1.706427,0.04318008,-0.9302693,30.841505,-0.32730103,-22.26367,-0.43683052,2.0981312,-0.25469065,-2.751714
24.86951,42.573956,14.376948,0.11166811,-0.9769707,-1.8542547,0.2274999,0.6732499,-0.8084563,-0.6279744,-0.71211696,-0.52065,0.6214301,0.033683304,1.056652,-0.5061795,-1.5999705,-1.2257875,2.3822238,1.5616095,-0.9485111,1.0008043,-0.4407562,-1.5468338,-1.1672788,2.425473,1.5038038,-0.9492406,1.200589,-1.5334982,-1.0151985,-1.2715316,-0.8685196,0.4331561,0.25362158,1.0269852,-0.44545364,1.465859,-2.943385,-0.22703718,-1.4652321,0.17579651,-0.32936478,1.0036564,0.74758637,-0.16330457,0.099666834,0.63601315,0.2357273,-0.8523104,-0.84899527,1.0,0.0,0.0,0.0,0.0,0.0,0.0,-1.6769851,0.045453638,-0.91585904,21.169138,3.4973383,-19.660378,-0.47130585,5.2802205,-0.24363995,-4.085559
20.28048,42.798504,14.477881,4.030864,-0.6860953,-1.4860915,0.09865615,0.7288874,-0.81069905,-0.6642317,-0.71319795,-0.49323803,0.6059301,-0.07029262,1.073693,-0.5218261,-1.6132569,-1.2385986,2.3761492,1.5643969,-0.95626986,1.0138353,-0.45577657,-1.5581005,-1.1800141,2.4172523,1.5081297,-0.9470729,1.3363397,-1.4916878,-1.1633999,-1.274394,-0.8067585,0.43163392,0.20481975,0.99757385,-0.44771957,1.4504813,-2.940442,-0.22681019,-1.5619532,0.17861938,-0.3378334,0.99495935,0.74543506,-0.15627651,0.09839723,0.64048594,0.3062805,-0.8388802,-0.8840953,1.0,0.0,0.0,0.0,0.0,0.0,0.0,-1.6475738,0.047719568,-0.9004813,13.283324,4.148388,-14.676189,-0.34985542,6.1570287,-0.30511022,-4.7774763
15.594889,41.304787,14.624914,7.8724647,-0.3021866,-1.0655426,0.048753053,0.7510949,-0.81149554,-0.6685626,-0.7152202,-0.45510688,0.59299475,-0.11169488,1.0889448,-0.53692615,-1.6249567,-1.2515361,2.3717415,1.5674292,-0.9582424,1.0277036,-0.47045028,-1.5703342,-1.1927762,2.4096687,1.5124308,-0.945383,1.4035728,-1.4594469,-1.243637,-1.2768203,-0.7426908,0.4293273,0.15727761,0.96819305,-0.4499855,1.434137,-2.9375021,-0.22658342,-1.6585776,0.18199158,-0.34613037,0.98597085,0.7432084,-0.1489829,0.09704097,0.64500266,0.35489056,-0.8206162,-0.91160804,1.0,0.0,0.0,0.0,0.0,0.0,0.0,-1.618193,0.0499855,-0.884137,6.6730022,3.1857967,-8.069897,-0.24983883,6.343758,-0.3412485,-4.6506286
10.892338,37.73617,13.862975,10.882577,0.09609747,-0.72940034,0.032310314,0.75617623,-0.8160603,-0.67349654,-0.7184024,-0.42038262,0.59196705,-0.08788956,1.1033213,-0.5520563,-1.6376839,-1.2646165,2.3676305,1.5716275,-0.95417196,1.0418676,-0.48492944,-1.582978,-1.205565,2.4026992,1.5167109,-0.9441022,1.4210218,-1.4442402,-1.2717153,-1.2795646,-0.681784,0.4273048,0.1186798,0.9388428,-0.45225143,1.4168272,-2.934565,-0.2263569,-1.7551054,0.1856842,-0.3542595,0.9767393,0.7409126,-0.14150678,0.095517255,0.6495388,0.38369545,-0.8027878,-0.93480885,1.0,0.0,0.0,0.0,0.0,0.0,0.0,-1.5888427,0.05225143,-0.8668272,1.8367052,1.4713526,-2.9511929,-0.22814274,5.9898853,-0.29056668,-3.7586644
8.639415,38.12107,14.612082,12.834165,0.10839927,-0.4318942,0.043649808,0.7514977,-0.8092472,-0.66134924,-0.71809983,-0.4614596,0.6088655,-0.052106608,1.1170174,-0.5658542,-1.6491129,-1.277375,2.3565533,1.5775974,-0.94931287,1.0559686,-0.49931562,-1.5955932,-1.2183728,2.3960807,1.5209872,-0.9431314,1.4070172,-1.4369133,-1.2589684,-1.2809672,-0.6553391,0.42755443,0.090169184,0.909523,-0.45451355,1.3985529,-2.931631,-0.22613057,-1.8515366,0.18961334,-0.36214447,0.96730846,0.73852307,-0.13394782,0.09388204,0.6540854,0.40354913,-0.7770121,-0.9536288,1.0,0.0,0.0,0.0,0.0,0.0,0.0,-1.559523,0.054513544,-0.8485529,-1.2309313,0.68302155,1.0698795,-0.07238388,2.5256038,-0.040137768,-2.767627
4.5530553,34.501328,12.864626,14.699972,0.23579967,-0.2817916,-0.0015646964,0.73425275,-0.8132267,-0.6816945,-0.7071418,-0.51327664,0.62122107,0.040810175,1.1293939,-0.5806383,-1.6637627,-1.289087,2.344753,1.5831093,-0.9390504,1.069774,-0.513699,-1.6080711,-1.2311349,2.3894432,1.5252768,-0.94233507,1.3723469,-1.4390088,-1.2446042,-1.2741711,-0.66718376,0.4293052,0.07632255,0.88023376,-0.45677185,1.3793149,-2.9287002,-0.2259045,-1.9478716,0.19366455,-0.3698082,0.95768785,0.73606557,-0.126358,0.0922773,0.6585787,0.41342306,-0.75432694,-0.97232866,1.0,0.0,0.0,0.0,0.0,0.0,0.0,-1.5302337,0.056771845,-0.8293149,-3.2516003,-0.27184486,1.22962,0.7888794,-1.3392568,0.107097626,-1.3362348
3.2061667,33.492565,12.611879,15.552728,0.27720034,-0.1735678,0.003923714,0.72727555,-0.8205169,-0.67303616,-0.6957942,-0.5443356,0.6371319,0.08578777,1.1425016,-0.5957507,-1.6753747,-1.3007143,2.3350096,1.58899,-0.9337563,1.0832151,-0.5281624,-1.6203697,-1.2437711,2.3825195,1.5295969,-0.94161123,1.3354422,-1.4489689,-1.22568,-1.2594545,-0.70138407,0.4327192,0.07122903,0.85097504,-0.45903015,1.3591144,-2.9257722,-0.22567864,-2.04411,0.1977768,-0.37725067,0.947888,0.7335406,-0.11878723,0.090789825,0.6629968,0.41899908,-0.73160565,-0.98979336,1.0,0.0,0.0,0.0,0.0,0.0,0.0,-1.500975,0.059030145,-0.8091144,-3.4827232,-1.0635614,1.7004728,1.59688,-3.5856247,0.2752483,-0.4692182
2.6288314,33.22973,12.4765625,15.534932,0.26309097,-0.13194665,0.02921813,0.70915055,-0.8253924,-0.667441,-0.6948213,-0.57431096,0.63924664,0.16104542,1.1541302,-0.6107017,-1.6871138,-1.3132532,2.3250885,1.5935216,-0.9255067,1.0962785,-0.54274887,-1.632489,-1.2562642,2.3751686,1.5339514,-0.94086355,1.297535,-1.4620875,-1.2080394,-1.2455931,-0.7471027,0.43609142,0.076071076,0.8217392,-0.46128845,1.3379521,-2.922847,-0.225453,-2.140252,0.2019577,-0.38445282,0.93790513,0.73092777,-0.111245364,0.08947093,0.667356,0.42362136,-0.7091742,-1.0082272,1.0,0.0,0.0,0.0,0.0,0.0,0.0,-1.4717392,0.061288446,-0.7879521,-3.5852194,-1.3807297,1.5744925,1.5253067,-4.744363,0.26453137,0.52123815
1.6504817,35.06025,13.147337,16.878782,0.28252232,-0.0006278455,0.009735383,0.6843978,-0.822052,-0.66105556,-0.6665905,-0.6195763,0.65934145,0.2148757,1.1647184,-0.62495404,-1.6985946,-1.3229233,2.313211,1.5998856,-0.91937596,1.1089433,-0.55742973,-1.644448,-1.2685208,2.3672798,1.5383536,-0.9400205,1.2569581,-1.4703354,-1.1925422,-1.2184931,-0.80308807,0.44128293,0.08718414,0.79252625,-0.46353912,1.3158293,-2.9199247,-0.2252276,-2.236298,0.20614624,-0.39142227,0.92777485,0.7282286,-0.103783496,0.08838373,0.6716401,0.42428848,-0.68396926,-1.0215031,1.0,0.0,0.0,0.0,0.0,0.0,0.0,-1.4425262,0.06353912,-0.76582927,-3.8472176,-0.895524,1.3741016,2.8492928,-5.7890415,0.470227,1.1363342
2.7283754,37.511482,14.273024,16.687332,0.26795858,0.024499387,0.027418785,0.675422,-0.8208207,-0.65576154,-0.65731156,-0.6153179,0.6609864,0.21159543,1.1764855,-0.6395118,-1.7100242,-1.334252,2.305748,1.6044523,-0.918861,1.1212591,-0.57215446,-1.6562736,-1.280499,2.358937,1.5428053,-0.93907064,1.2238154,-1.4734755,-1.1798893,-1.1906809,-0.84535795,0.44623235,0.09773859,0.7633438,-0.4657898,1.2927465,-2.9170053,-0.22500241,-2.332248,0.21035767,-0.39813232,0.91752803,0.725433,-0.0964238,0.087504834,0.67586404,0.42609924,-0.65718085,-1.0324335,1.0,0.0,0.0,0.0,0.0,0.0,0.0,-1.4133438,0.06578979,-0.74274653,-3.1211615,-0.38142204,1.1015892,2.9126406,-4.4138074,0.4537046,1.0912687
2.75527,38.021233,14.245349,16.155462,0.28697228,0.006574288,0.031105898,0.6559924,-0.8210393,-0.66158134,-0.65480226,-0.6220149,0.66269374,0.22873425,1.1868583,-0.6542584,-1.7224318,-1.3459792,2.2967355,1.6090747,-0.91619724,1.1332582,-0.5868868,-1.668042,-1.2922502,2.3502662,1.5473009,-0.93801206,1.1924644,-1.4734473,-1.1764435,-1.1695052,-0.8752749,0.45057657,0.108705975,0.7341919,-0.46804047,1.2687051,-2.9140887,-0.22477746,-2.428102,0.21458435,-0.40458298,0.9071564,0.7225388,-0.08912773,0.08679939,0.6800438,0.4283299,-0.6324019,-1.0451747,1.0,0.0,0.0,0.0,0.0,0.0,0.0,-1.3841919,0.06804046,-0.7187051,-2.9436827,-0.06453991,0.18444061,2.2563934,-3.1823754,0.38269758,1.136668
4.196286,39.790134,14.974569,14.460146,0.16251177,-0.021884277,0.083009146,0.63659334,-0.81588215,-0.65421003,-0.67345756,-0.6195837,0.66319954,0.24698357,1.1969175,-0.66847503,-1.7334629,-1.3595959,2.288308,1.6136209,-0.9133137,1.1449426,-0.6015839,-1.6797779,-1.3039498,2.341397,1.5518347,-0.93684095,1.1612698,-1.4685891,-1.1733024,-1.169717,-0.8914175,0.4540472,0.12008732,0.7050705,-0.4702835,1.2437059,-2.911175,-0.22455272,-2.5238602,0.21886444,-0.41077423,0.89662457,0.7195134,-0.08182452,0.08623776,0.68422806,0.43495354,-0.60532135,-1.0620201,1.0,0.0,0.0,0.0,0.0,0.0,0.0,-1.3550705,0.0702835,-0.69370586,-2.9215813,0.42574406,0.12972355,0.11963844,-1.7966151,0.27256012,1.1872321
4.5687284,42.341446,16.305782,14.620487,0.1543563,0.08480328,0.102114215,0.6154711,-0.81005436,-0.6364135,-0.6643432,-0.6217106,0.6707494,0.26159918,1.2064898,-0.68258935,-1.7434192,-1.3703841,2.279226,1.6189096,-0.910681,1.1563009,-0.6162018,-1.6914146,-1.3156686,2.3324287,1.5564047,-0.93555635,1.1279764,-1.459769,-1.1611105,-1.1722466,-0.89921874,0.45778054,0.13147019,0.6759796,-0.47252655,1.2177497,-2.9082646,-0.22432822,-2.6195226,0.22322845,-0.41666412,0.88594896,0.7163256,-0.07451394,0.08578235,0.6884524,0.44009498,-0.5742642,-1.0753804,1.0,0.0,0.0,0.0,0.0,0.0,0.0,-1.3259796,0.072526544,-0.6677497,-3.1294107,0.8272886,1.0275841,-0.11920929,-0.9623647,0.31101704,1.1950523
3.5412183,41.97295,15.970913,14.815003,0.2095902,0.12521693,0.0846481,0.596763,-0.8099762,-0.6433422,-0.66063213,-0.6408073,0.6754931,0.27765298,1.2159772,-0.69719946,-1.7557489,-1.3817317,2.268348,1.623954,-0.9077911,1.1673216,-0.6307406,-1.7029693,-1.3274083,2.323365,1.5610129,-0.9341573,1.0939685,-1.4521543,-1.1542827,-1.1741593,-0.90912783,0.4614256,0.14283685,0.64691925,-0.4747696,1.1908377,-2.9053571,-0.22410393,-2.7150893,0.22761536,-0.42226028,0.8751348,0.7129817,-0.067196436,0.085426874,0.69270766,0.4427331,-0.5451757,-1.0890384,1.0,0.0,0.0,0.0,0.0,0.0,0.0,-1.2969192,0.07476959,-0.6408377,-3.2045364,0.7048845,0.501132,-0.047540665,-1.1757851,0.29939413,1.1905134
0.12157774,37.857765,13.252838,14.939116,0.4350086,0.077952236,0.0012308657,0.5689375,-0.8132267,-0.67553806,-0.6677836,-0.6333591,0.6609101,0.22684483,1.2242153,-0.71206325,-1.7705231,-1.3941867,2.260029,1.6271039,-0.91147286,1.1779569,-0.64524025,-1.7146308,-1.3391938,2.3142478,1.5656401,-0.9326953,1.0540707,-1.449467,-1.170875,-1.1795198,-0.91339767,0.46286994,0.14742295,0.6178894,-0.47700882,1.1629708,-2.9024525,-0.22387987,-2.8105607,0.23196411,-0.42765427,0.8641314,0.7095634,-0.059791263,0.085155144,0.6969171,0.4396643,-0.5273721,-1.1095005,1.0,0.0,0.0,0.0,0.0,0.0,0.0,-1.2678894,0.07700881,-0.61297077,-3.7849665,0.19972324,-1.8238306,-0.3568411,-0.6239295,0.055879354,0.5028099
-0.9359169,38.135384,13.2274275,14.789114,0.43912446,0.15809135,0.003881365,0.5383756,-0.8088436,-0.6661951,-0.6807812,-0.64577454,0.6702249,0.24750549,1.2317945,-0.7261246,-1.7812504,-1.407272,2.2496705,1.6326625,-0.9079448,1.1881403,-0.6597132,-1.7264373,-1.351088,2.3050697,1.5702845,-0.9311847,1.0069933,-1.4468174,-1.1845821,-1.1921762,-0.9200082,0.4646291,0.15244012,0.5888901,-0.47924423,1.1341498,-2.8995507,-0.22365603,-2.9059365,0.2362976,-0.4328537,0.8529123,0.7060938,-0.052262828,0.084969394,0.70105654,0.43410242,-0.5088052,-1.1312728,1.0,0.0,0.0,0.0,0.0,0.0,0.0,-1.23889,0.079244226,-0.5841498,-4.492378,0.19538403,-1.5440702,-1.0771513,-0.8628249,0.07881522,0.54288805
-18.674,29.931572,6.4498854,19.971766,1.2780149,0.5704979,-0.28239053,0.3694023,-0.8077675,-0.6786186,-0.7023855,-0.66316754,0.65080684,0.19811413,1.2250805,-0.74048996,-1.7942992,-1.4213266,2.2387528,1.6353651,-0.9113733,1.1971678,-0.6741671,-1.7384136,-1.363194,2.295781,1.5749308,-0.9296703,0.869369,-1.4452245,-1.2027497,-1.2157912,-0.9330156,0.46434158,0.15101062,0.55992126,-0.48147964,1.1043758,-2.8966517,-0.22343242,-3.001217,0.24027252,-0.43804932,0.84144026,0.70281523,-0.04453515,0.08490765,0.70488155,0.39016354,-0.5114656,-1.1574345,1.0,0.0,0.0,0.0,0.0,0.0,0.0,-1.2099212,0.08147964,-0.5543758,-13.389481,0.053834915,-2.0339012,-2.078843,-1.5962958,-0.110024214,-0.16412437
-65.88604,8.643209,-11.423422,34.467434,3.6412158,1.6306535,-1.0183719,-0.035044722,-0.8085067,-0.6989887,-0.742715,-0.65826094,0.6018509,0.10957689,1.1936632,-0.75501776,-1.8083124,-1.4374654,2.2299547,1.6351159,-0.91871256,1.2030634,-0.688621,-1.750634,-1.3756833,2.2863739,1.579537,-0.92824835,0.49877664,-1.4461967,-1.2295393,-1.2582335,-0.94506913,0.459134,0.1387135,0.530983,-0.48371506,1.0736496,-2.8937557,-0.22320904,-3.0964022,0.24305725,-0.44369507,0.8296436,0.70044,-0.03642412,0.08500505,0.7076943,0.24335372,-0.573298,-1.1917901,1.0,0.0,0.0,0.0,0.0,0.0,0.0,-1.180983,0.08371505,-0.52364963,-36.287468,-0.3191948,-2.9933214,-3.7042856,-1.773572,-0.5813658,-1.3879806
-106.29471,-5.77189,-24.884628,46.69783,5.7756557,2.6535316,-1.5276309,-0.41435748,-0.8041647,-0.6896916,-0.7921669,-0.5740673,0.50307536,0.19098045,1.1616277,-0.7690375,-1.8196031,-1.4549,2.2289672,1.6298445,-0.9091503,1.2037958,-0.70307773,-1.7630394,-1.3887582,2.277108,1.5840117,-0.92688936,-0.06489096,-1.4467047,-1.245565,-1.3211639,-0.92334306,0.4429015,0.13429569,0.50205994,-0.48594284,1.0419724,-2.8908625,-0.22298588,-3.191492,0.24369812,-0.450325,0.8174868,0.6996261,-0.027728943,0.08512643,0.7088779,0.004895252,-0.6827355,-1.2281331,1.0,0.0,0.0,0.0,0.0,0.0,0.0,-1.1520599,0.085942835,-0.4919724,-55.24162,-0.43022633,-2.0172834,-5.452037,1.3030052,-1.7981946,-0.63515306
-100.27565,4.967493,-17.7804,45.97242,5.5578623,3.004825,-1.2657584,-0.52888507,-0.8040397,-0.61925495,-0.7925832,-0.54355645,0.528383,0.39611453,1.1509073,-0.7834817,-1.8249649,-1.4680165,2.2227523,1.63685,-0.8872779,1.1991724,-0.71754116,-1.775212,-1.4023614,2.268174,1.5883394,-0.9254026,-0.5911574,-1.4475901,-1.2091613,-1.3703618,-0.8863875,0.42857468,0.15337075,0.47316742,-0.48817062,1.0093449,-2.887972,-0.22276293,-3.286487,0.24196625,-0.45787048,0.805105,0.70029277,-0.01857735,0.085041575,0.7085286,-0.23145303,-0.7694653,-1.2457906,1.0,0.0,0.0,0.0,0.0,0.0,0.0,-1.1231674,0.08817062,-0.45934492,-51.565796,-0.5125761,3.2099962,-4.0211916,2.795875,-1.7295778,1.8607646
-75.97436,18.575039,-7.1305265,38.097534,4.3824763,2.655239,-0.856796,-0.5913036,-0.80554426,-0.6279456,-0.7952311,-0.51842105,0.54223084,0.4316729,1.1400421,-0.7980956,-1.8380066,-1.4818845,2.2163317,1.6425625,-0.8822353,1.1903375,-0.732017,-1.787009,-1.4163213,2.2596633,1.592547,-0.92368406,-0.9782524,-1.4487816,-1.1711003,-1.4017245,-0.84173614,0.41708934,0.17837098,0.44430542,-0.4903984,0.97576827,-2.8850846,-0.22254021,-3.381387,0.23828125,-0.46603012,0.79260015,0.70200795,-0.009141624,0.08458426,0.7070691,-0.41941258,-0.8208791,-1.2557791,1.0,0.0,0.0,0.0,0.0,0.0,0.0,-1.0943054,0.0903984,-0.42576826,-37.902367,-0.48918724,3.4358978,-2.3380518,3.7246346,-1.4865041,2.5837898
-53.88984,27.283974,-0.2501707,30.123236,3.2529938,2.0698352,-0.5905418,-0.668409,-0.7996954,-0.69590837,-0.79059196,-0.50863594,0.55189264,0.4142685,1.1234967,-0.8119865,-1.8565998,-1.4953805,2.2087998,1.6477363,-0.8822572,1.1786646,-0.7464718,-1.7988002,-1.4304395,2.2515647,1.5966631,-0.92173856,-1.2284842,-1.4453642,-1.1825439,-1.412992,-0.8008647,0.40855074,0.20034073,0.41547394,-0.49262238,0.9412433,-2.8822,-0.22231771,-3.476192,0.23309326,-0.4745369,0.77996045,0.7044229,0.0005357782,0.08374511,0.7048226,-0.55744237,-0.84913296,-1.2700785,1.0,0.0,0.0,0.0,0.0,0.0,0.0,-1.0654739,0.09262237,-0.39124328,-24.456549,0.04403591,-1.4035463,-0.45802593,3.5071254,-1.2010098,2.318126
-35.62768,33.587166,5.3916554,23.54155,2.4883265,1.5974138,-0.38787675,-0.7302244,-0.8011916,-0.72544885,-0.78902936,-0.41299552,0.5418976,0.32581612,1.1056421,-0.826591,-1.8713452,-1.5093424,2.2102652,1.6508529,-0.88915694,1.165296,-0.76089233,-1.8109367,-1.4445767,2.2440803,1.6006991,-0.9196624,-1.3718827,-1.4417146,-1.2246801,-1.4121623,-0.7321351,0.40095392,0.21066198,0.38667297,-0.49484253,0.90577096,-2.8793182,-0.22209544,-3.5709023,0.2268219,-0.48322678,0.76715004,0.70729035,0.010467029,0.08242645,0.70202327,-0.65686876,-0.86209196,-1.2878556,1.0,0.0,0.0,0.0,0.0,0.0,0.0,-1.036673,0.09484252,-0.35577095,-13.96668,0.14088154,-4.3811083,0.6154299,6.4397454,-1.0822475,1.1887789
-22.730711,37.741547,9.552328,19.11069,2.0843496,1.2887136,-0.2844673,-0.7707059,-0.80578685,-0.74668896,-0.7808942,-0.28264523,0.50741655,0.1382703,1.0882254,-0.841471,-1.8856056,-1.5226662,2.2158158,1.6514407,-0.9058354,1.1510404,-0.7753014,-1.823592,-1.458632,2.2375953,1.6046454,-0.91764444,-1.442593,-1.4410995,-1.2796301,-1.4018105,-0.6215697,0.39149454,0.19946285,0.35790253,-0.49706268,0.8693523,-2.8764393,-0.22187339,-3.665518,0.21974945,-0.4919815,0.75415426,0.7104735,0.020658614,0.08042376,0.6988081,-0.7312624,-0.8668562,-1.3065227,1.0,0.0,0.0,0.0,0.0,0.0,0.0,-1.0079025,0.09706268,-0.31935227,-6.832528,-0.10521412,-5.596733,1.4572859,10.74835,-1.2391388,-0.92781186
-15.010562,42.49283,13.291201,17.581074,1.8231595,1.2299386,-0.31161824,-0.79710525,-0.8018119,-0.7631761,-0.74950176,-0.20248458,0.5005485,-0.17430638,1.07133,-0.8554826,-1.8999095,-1.5335822,2.217347,1.6547003,-0.9350751,1.1363958,-0.78969234,-1.8367813,-1.4724355,2.232331,1.608502,-0.915986,-1.4713594,-1.4388233,-1.3321941,-1.3720969,-0.49514988,0.38297212,0.15526761,0.3291626,-0.49928284,0.83198816,-2.8735633,-0.22165157,-3.7600389,0.2120285,-0.5007324,0.7410227,0.71396255,0.031026911,0.077622175,0.6951759,-0.7917485,-0.86334324,-1.3182788,1.0,0.0,0.0,0.0,0.0,0.0,0.0,-0.9791626,0.09928283,-0.28198814,-2.72851,0.0988245,-5.2975655,3.3006668,12.435645,-1.096034,-4.2227955
-11.798842,46.671856,16.289019,18.401302,2.028606,1.3331785,-0.37516862,-0.81504357,-0.79755974,-0.7690967,-0.7056224,0.006635034,0.4943854,-0.41719332,1.0548915,-0.8694483,-1.9136909,-1.5429977,2.2329946,1.6579406,-0.9577053,1.1216081,-0.8040423,-1.8503864,-1.4857602,2.2287567,1.6122805,-0.91494364,-1.4808632,-1.434109,-1.3697189,-1.3185132,-0.3123014,0.37540108,0.08794773,0.3004532,-0.50149536,0.79367954,-2.87069,-0.22142996,-3.8544652,0.20371246,-0.50945663,0.72787076,0.7178244,0.04143834,0.07379475,0.69106096,-0.8523597,-0.8601031,-1.3171391,1.0,0.0,0.0,0.0,0.0,0.0,0.0,-0.95045316,0.101495355,-0.24367952,-0.85897446,0.36079884,-3.735423,5.619049,18.158733,-0.9699881,-6.505309
-10.784601,50.590424,18.576834,19.69157,2.1344721,1.4941674,-0.405744,-0.8271915,-0.79157346,-0.7759553,-0.65964437,0.14548166,0.50903887,-0.48522785,1.0388889,-0.88319963,-1.9279819,-1.5517247,2.2433047,1.6631844,-0.9634664,1.106769,-0.81832165,-1.8642547,-1.4984021,2.2271698,1.6160055,-0.9145879,-1.4846469,-1.4262362,-1.3923677,-1.2454219,-0.10759799,0.3707086,0.018877065,0.2717743,-0.5037079,0.7544193,-2.8678198,-0.22120857,-3.9498627,0.19477844,-0.5181351,0.71481234,0.7220986,0.051748224,0.06880976,0.6864116,-0.91489226,-0.8552682,-1.3052093,1.0,0.0,0.0,0.0,0.0,0.0,0.0,-0.92177427,0.10370788,-0.20441931,-0.31735897,0.68171024,-2.2005558,7.5278997,20.398855,-0.6661296,-6.68467
-8.699292,54.302704,20.696913,19.02348,1.6277993,1.620634,-0.37746695,-0.8338361,-0.78077483,-0.77712893,-0.62869495,0.11102168,0.5231041,-0.5097449,1.0233854,-0.89639914,-1.9419676,-1.5612717,2.238272,1.6683159,-0.9655624,1.0918856,-0.83245,-1.8785061,-1.5104215,2.2267625,1.619805,-0.9147192,-1.4910958,-1.4014158,-1.4986178,-1.2169219,-0.12636876,0.3691305,-0.0039799428,0.24673462,-0.50658035,0.7259671,-1.7697082,-0.33612886,0.4001056,0.18530273,-0.52663803,0.7018008,0.7266828,0.061899297,0.063125715,0.68126035,-0.95116293,-0.8291809,-1.3301384,0.0,1.0,0.0,0.0,0.0,0.0,0.0,-0.8967346,0.10658035,-0.1759671,-0.9357214,3.539729,-20.302319,-1.6492844,-18.180456,-0.29272437,1.9340279
62.0978,176.0,110.0,106.040436,-3.039857,10.772999,-0.8986825,-0.77703714,0.5571692,0.6697814,0.734666,-0.20716754,0.6581819,-0.36238486,1.0141819,-0.77673304,-1.811528,-1.436955,2.2060459,1.6856232,-0.9509577,1.0816755,-0.8461953,-1.8914207,-1.5099733,2.2148416,1.6329867,-0.9134394,-0.86824,-1.3649253,-1.2160009,0.46087214,-1.5428865,1.6430002,0.1679403,0.22904968,-0.5099373,0.72922075,-1.7679389,-0.33579278,0.30045438,0.17565918,-0.5330963,0.692802,0.7315028,0.062102597,0.062906854,0.67608404,-0.9742645,-0.5682957,-0.75771224,0.0,1.0,0.0,0.0,0.0,0.0,0.0,-0.87904966,0.10993728,-0.17922074,61.137154,3.8566828,30.141449,166.37285,-140.20567,129.95648,15.96587
-9.370644,164.34683,84.71273,91.90855,2.9305365,6.062705,-1.2640002,-0.8230416,-0.53344315,0.082067356,0.775167,-0.55121666,0.5039841,-0.27823606,0.99937135,-0.8995396,-1.883214,-1.4324566,2.15972,1.6833851,-0.941263,1.0730505,-0.8586579,-1.8994125,-1.4985788,2.1977975,1.64947,-0.91195166,-0.8601387,-1.2080538,-0.6573956,1.3652143,-1.7618626,1.6552429,0.14229035,0.21138763,-0.5132942,0.7314786,-1.7661712,-0.33545706,0.2009028,0.16531372,-0.53829575,0.6887109,0.73728204,0.054940574,0.065605104,0.6701437,-1.0557129,-0.4927449,-0.29744315,1.0,0.0,0.0,0.0,0.0,0.0,0.0,-0.8613876,0.113294214,-0.18147856,0.96849203,15.265584,56.70526,90.35693,-22.903801,2.7397633,-2.5982528
-44.634834,129.2816,46.04259,68.55153,3.6300104,3.6944952,-1.4852483,-0.81095755,-0.3396229,-0.455679,0.7391888,-0.6469735,0.6155987,-0.018079752,0.99195474,-0.8926202,-1.9449804,-1.42466,2.1331003,1.7110299,-0.91375965,1.0633554,-0.86874396,-1.904734,-1.4815633,2.1807077,1.6651388,-0.9106747,-1.0042094,-0.94360703,-0.49047837,1.8144877,-1.6935586,1.5400008,0.12249081,0.19374084,-0.5166435,0.73274165,-1.7644054,-0.3351217,0.10145079,0.15389252,-0.54312134,0.6877104,0.7443338,0.04521916,0.069598414,0.6626299,-1.1713883,-0.47145694,-0.041181073,1.0,0.0,0.0,0.0,0.0,0.0,0.0,-0.8437408,0.11664352,-0.18274164,-13.863861,26.0059,16.657787,45.232796,6.1336994,-10.7221365,-2.0744145
-55.656406,84.34818,17.590624,42.73569,3.4562402,1.8844717,-1.1674945,-0.8090809,-0.36638245,-0.4891993,0.7949496,-0.6414843,0.5453546,-0.055144176,0.9824474,-0.9053822,-1.9536539,-1.4020684,2.1165593,1.7196743,-0.91618913,1.0518064,-0.87664133,-1.9098495,-1.4626691,2.1654146,1.6792303,-0.90964377,-1.2037103,-0.73946154,-0.5197386,1.9152972,-1.4754335,1.3663621,0.096400514,0.17610931,-0.5199928,0.73301095,-1.7626413,-0.33478662,0.0020982074,0.14134216,-0.5479622,0.6879795,0.7524675,0.035591125,0.074091785,0.6534801,-1.285332,-0.4785632,0.042579867,1.0,0.0,0.0,0.0,0.0,0.0,0.0,-0.8261093,0.11999282,-0.18301094,-19.519497,20.10771,-3.2530427,10.369372,21.527554,-17.072392,-2.6932046
-50.966743,42.171673,-2.4637263,21.03494,2.6282816,0.5053302,-0.74067837,-0.8165853,-0.41548055,-0.55099314,0.7967811,-0.6435011,0.59542054,-0.104298614,0.9701479,-0.9181894,-1.9649489,-1.3829911,2.1010644,1.7387724,-0.9200736,1.0384989,-0.88334376,-1.9162487,-1.4442365,2.1523187,1.691693,-0.9088856,-1.3721888,-0.6477216,-0.6809106,1.8198673,-1.2542653,1.2061377,0.068632945,0.15849304,-0.5233383,0.73228747,-1.760879,-0.3344519,-0.09715505,0.12782288,-0.5530052,0.6880893,0.7613081,0.027546437,0.078503765,0.6430305,-1.3758475,-0.503101,-0.00535347,1.0,0.0,0.0,0.0,0.0,0.0,0.0,-0.808493,0.12333831,-0.18228745,-16.59119,9.013987,-16.428482,-9.318972,22.087883,-16.033459,-2.849506
-35.550148,23.161453,-6.891629,8.038553,1.6136166,-0.17816418,-0.3357164,-0.8166011,-0.42785534,-0.5674599,0.79509246,-0.62306553,0.5905588,-0.16800013,0.9568388,-0.9261293,-1.9729947,-1.3647273,2.090012,1.7507489,-0.9256856,1.0239878,-0.8897572,-1.9243835,-1.427263,2.1411188,1.7027098,-0.908425,-1.4770455,-0.6395897,-0.8582497,1.6570987,-1.0755432,1.0664512,0.038346615,0.14089966,-0.52668,0.73057216,-1.7591186,-0.33411753,-0.19630904,0.11367035,-0.5582962,0.687311,0.7704711,0.021571226,0.082540415,0.6317405,-1.4313452,-0.5247932,-0.10646385,1.0,0.0,0.0,0.0,0.0,0.0,0.0,-0.79089963,0.12667999,-0.18057215,-10.354948,0.7270694,-17.913342,-16.106106,17.813969,-14.092445,-3.0715816
-18.714333,22.261185,-1.6622845,3.098883,0.8523972,-0.30151975,-0.05200971,-0.8137559,-0.43453673,-0.55525446,0.7969127,-0.58866036,0.5755115,-0.22306117,0.9426122,-0.9332109,-1.979909,-1.3475717,2.0822527,1.7602609,-0.9307311,1.0088987,-0.8964339,-1.9338897,-1.4117906,2.131338,1.7124888,-0.90827906,-1.5194706,-0.6772606,-0.981518,1.5111879,-0.94567317,0.9481255,0.006684828,0.12332153,-0.53001785,0.7278661,-1.7573597,-0.33378348,-0.29536393,0.09919739,-0.5637016,0.6855377,0.77965546,0.017461056,0.086090066,0.6200168,-1.4562502,-0.5331555,-0.20441882,1.0,0.0,0.0,0.0,0.0,0.0,0.0,-0.7733215,0.13001785,-0.1778661,-4.2016983,-3.832817,-12.356031,-14.464736,12.822521,-11.957788,-3.1828675
-9.050947,23.673412,3.4077668,2.9101977,0.710076,-0.17436385,0.0767152,-0.8211789,-0.47993752,-0.54225594,0.7910314,-0.52069,0.5667696,-0.2730635,0.9267808,-0.94442767,-1.9881153,-1.3326875,2.079269,1.7691658,-0.93558544,0.99366474,-0.9037762,-1.9441074,-1.3974206,2.1226633,1.721232,-0.9084536,-1.5248141,-0.7533661,-1.0348865,1.4126859,-0.84219533,0.8493504,-0.025281284,0.10575867,-0.5333519,0.72417027,-1.7556027,-0.33344978,-0.3943198,0.08455658,-0.56915283,0.6829107,0.7887047,0.014753742,0.0890146,0.6081147,-1.4704487,-0.534964,-0.28507033,1.0,0.0,0.0,0.0,0.0,0.0,0.0,-0.75575864,0.13335189,-0.17417026,-0.53408146,-7.670486,-5.263996,-9.723306,10.136902,-9.990573,-3.1611772
-1.5804286,38.07327,12.442752,5.926926,0.4977368,0.20858258,0.114124924,-0.82137364,-0.46644655,-0.5163042,0.7895793,-0.49090588,0.5768891,-0.30053613,0.9115274,-0.95042086,-1.9957378,-1.3184627,2.0735726,1.778921,-0.9385072,0.9785242,-0.911748,-1.9543728,-1.3836515,2.1148088,1.7291285,-0.90893614,-1.5105726,-0.81214064,-1.0229473,1.3652226,-0.767313,0.7694501,-0.05587209,0.08821869,-0.53668594,0.7194856,-1.7538475,-0.33311638,-0.49317673,0.069862366,-0.57448196,0.6797711,0.79754454,0.012902106,0.09138584,0.59615844,-1.4734566,-0.51818705,-0.32642278,0.0,1.0,0.0,0.0,0.0,0.0,0.0,-0.73821867,0.13668594,-0.16948557,1.3721466,-5.9687495,1.3758421,-4.6794653,7.2033763,-8.054471,-3.0511127
0.14293432,47.825344,17.328934,9.115456,0.63190085,0.46913636,0.075922325,-0.82320696,-0.47474897,-0.5068252,0.7826569,-0.39973336,0.543265,-0.32042032,0.8962035,-0.9592229,-2.0050552,-1.3053858,2.0748355,1.783455,-0.94097817,0.96355534,-0.92017275,-1.9642833,-1.3700998,2.107744,1.7363096,-0.9097067,-1.4925416,-0.85306084,-0.9796672,1.3517622,-0.6872347,0.7007713,-0.08410067,0.07069397,-0.54001236,0.71381015,-1.7520939,-0.33278334,-0.5923285,0.055122375,-0.57958984,0.676414,0.80618006,0.011513035,0.093251474,0.5841621,-1.4769627,-0.49390337,-0.34181854,0.0,1.0,0.0,0.0,0.0,0.0,0.0,-0.72069395,0.14001235,-0.16381013,1.7371178,-4.208982,4.562068,-1.3053894,7.695842,-6.926656,-2.8270736
-0.6994648,52.805084,18.997065,11.063283,0.75754213,0.636144,0.02353971,-0.82247514,-0.48751906,-0.50143033,0.77333975,-0.33381876,0.55796355,-0.35081398,0.88130784,-0.96892464,-2.0144265,-1.2927659,2.074362,1.792106,-0.9447881,0.9487457,-0.9289027,-1.9737228,-1.356571,2.101507,1.7429034,-0.910751,-1.4772744,-0.88007694,-0.9312294,1.3534778,-0.60373694,0.64537823,-0.11117362,0.05318451,-0.5433388,0.7071439,-1.7503422,-0.33245063,-0.69138116,0.04032898,-0.58442307,0.6729894,0.8146486,0.0103744315,0.09464455,0.57208604,-1.4839852,-0.46575478,-0.34556624,0.0,1.0,0.0,0.0,0.0,0.0,0.0,-0.7031845,0.14333877,-0.15714389,1.4656067,-2.8333068,5.090332,0.2089262,8.042181,-5.6037188,-2.7224422
7.027242,69.34527,27.96174,12.289264,0.33580983,0.984405,0.101213545,-0.8007334,-0.4590613,-0.38909742,0.7757425,-0.34569606,0.60857344,-0.39666957,0.8686724,-0.9748088,-2.0126326,-1.2789967,2.0669374,1.8037606,-0.95041794,0.9341421,-0.9376517,-1.9822391,-1.342962,2.0958993,1.7490603,-0.9120728,-1.455109,-0.87368137,-0.8239802,1.363178,-0.54799765,0.60584265,-0.13947947,0.035690308,-0.5466614,0.69948786,-1.7485923,-0.33211824,-0.7903348,0.025596619,-0.58880234,0.6697827,0.8228814,0.009135078,0.09573651,0.56001526,-1.4716471,-0.41504824,-0.31529853,0.0,1.0,0.0,0.0,0.0,0.0,0.0,-0.6856903,0.14666137,-0.14948785,2.0871878,0.48468113,11.074125,0.8943081,5.178821,-3.9406776,-2.9135795
5.1338034,64.77293,25.059572,11.532751,0.305673,0.8951471,0.111426145,-0.7984106,-0.4928798,-0.3904674,0.7630457,-0.3484596,0.6097164,-0.36172393,0.85430104,-0.98693967,-2.0212858,-1.2666575,2.0610533,1.8100319,-0.94824517,0.9197447,-0.94641316,-1.9898806,-1.3293227,2.0905843,1.7548989,-0.9136903,-1.4327345,-0.8771128,-0.7558328,1.3609576,-0.5354199,0.5937655,-0.17394246,0.017822266,-0.5492172,0.6937758,-1.7688062,-0.14458354,0.047369283,0.0109939575,-0.5927124,0.6667616,0.8308591,0.007765177,0.09668736,0.54796386,-1.4583441,-0.3675598,-0.3052314,0.0,1.0,0.0,0.0,0.0,0.0,0.0,-0.66782224,0.14921722,-0.14377576,2.5412083,-0.4355669,4.9892187,-0.77643394,-1.0236979,0.7175565,-4.8764677
21.293404,149.79178,60.428516,23.56079,-1.0957258,2.2298234,0.12996353,-0.799099,-0.06385613,-0.19882591,0.7945096,-0.44225338,0.60639584,-0.37078756,0.83983475,-0.9527988,-2.0097632,-1.2498717,2.0463588,1.8155385,-0.95076907,0.90548915,-0.9532033,-1.9961023,-1.3155841,2.0850415,1.7606553,-0.91558146,-1.4241568,-0.6140057,-0.57569265,1.3765842,-0.56277686,0.5703582,-0.19570601,0.0001449585,-0.5506592,0.6935017,-1.7670377,-0.14443898,-0.052322976,-0.0029754639,-0.59549713,0.66502464,0.83844286,0.005598438,0.09861568,0.5359638,-1.381135,-0.23660563,-0.13258906,0.0,1.0,0.0,0.0,0.0,0.0,0.0,-0.65014493,0.15065917,-0.1435017,0.5458355,25.991165,18.641949,1.1068106,-3.4961581,-2.1264195,-2.6336045
17.453066,133.45296,52.5946,22.148556,-0.84022737,1.8452656,0.1452137,-0.7879112,-0.15137652,-0.19663769,0.7956488,-0.4909287,0.62037516,-0.312806,0.826698,-0.968341,-2.0157661,-1.2360191,2.0359488,1.8226928,-0.94686204,0.8913216,-0.95776665,-2.000754,-1.3016833,2.0790367,1.7662126,-0.9176031,-1.4140583,-0.4047481,-0.43118528,1.3933636,-0.60578585,0.5488158,-0.20047913,-0.017425537,-0.5519104,0.6924214,-1.6949049,0.013590796,0.034430973,-0.016273499,-0.59714127,0.66477674,0.84558135,0.002591534,0.10172512,0.52405846,-1.3133985,-0.13050373,0.007977769,0.0,1.0,0.0,0.0,0.0,0.0,0.0,-0.63257444,0.1519104,-0.14242136,0.8725643,20.647675,14.441079,1.3734818,-3.865552,-2.3349762,-0.22796392
-4.5588846,91.13022,28.529501,20.115522,0.0543921,1.0464287,-0.07937738,-0.8193421,-0.18200794,-0.37561494,0.78679913,-0.5074045,0.5965518,-0.2836016,0.8093874,-0.97596747,-2.0383155,-1.2230034,2.0282962,1.8258678,-0.94596326,0.87708133,-0.96089375,-2.0052023,-1.2876815,2.072563,1.7716699,-0.91964954,-1.4276227,-0.28270024,-0.44872212,1.4022744,-0.6617963,0.54370564,-0.2063692,-0.034309387,-0.5522423,0.6932637,-1.6847692,-0.03839259,0.09842362,-0.02924347,-0.59806824,0.6652442,0.8524533,-0.00057350384,0.10581853,0.51198184,-1.2942549,-0.07005671,0.05821635,0.0,1.0,0.0,0.0,0.0,0.0,0.0,-0.6156906,0.15224227,-0.1432637,-1.4413118,12.003785,-1.4948189,0.86216927,-5.7011843,-0.8053422,-0.6844789
-9.583698,70.16406,18.627005,17.387156,0.33761743,0.62707675,-0.11008942,-0.80734986,-0.14910166,-0.37478563,0.793353,-0.5272179,0.6146713,-0.29526865,0.79634637,-0.9758039,-2.0426807,-1.2083461,2.0198412,1.833137,-0.94917643,0.8627419,-0.9632293,-2.0102377,-1.2735938,2.0656202,1.7770221,-0.9217208,-1.4362648,-0.21767098,-0.5208966,1.410915,-0.7056916,0.53238165,-0.20789833,-0.05101776,-0.5524521,0.6943665,-1.6663983,-0.015505555,0.11290136,-0.042160034,-0.5985756,0.66589546,0.8591562,-0.003442313,0.11069361,0.49958554,-1.291079,-0.03391417,0.066465385,0.0,1.0,0.0,0.0,0.0,0.0,0.0,-0.5989822,0.15245208,-0.1443665,-0.9087324,6.3506126,-7.0266366,0.8668661,-4.608357,-1.1117935,-0.3215134
-13.836961,49.795597,10.014678,14.72807,0.6668711,0.29902118,-0.12223917,-0.8083792,-0.17161532,-0.40381956,0.79993045,-0.5321077,0.6186847,-0.30706105,0.781904,-0.98039085,-2.0506196,-1.1936008,2.0124094,1.8388906,-0.9524269,0.8483309,-0.9653951,-2.0161774,-1.2594107,2.0583265,1.7822621,-0.923814,-1.4426577,-0.21658494,-0.61813194,1.4208388,-0.73785746,0.52104735,-0.21015109,-0.067611694,-0.55249405,0.69535285,-1.6568433,-0.0005417244,0.09258573,-0.05518341,-0.5988693,0.6663528,0.86573213,-0.005773866,0.116041444,0.48683566,-1.3048482,-0.017629322,0.037967224,0.0,1.0,0.0,0.0,0.0,0.0,0.0,-0.5823883,0.15249404,-0.14535284,-0.6331444,-0.0019460917,-9.600306,1.0517597,-3.3412337,-1.149559,-0.3478557
-11.418316,45.547695,9.410946,12.9261875,0.6872489,0.24224606,-0.056090333,-0.80308884,-0.16035572,-0.41077945,0.7979749,-0.5263515,0.6293991,-0.2826883,0.76802206,-0.98143065,-2.0572553,-1.1796132,2.0056913,1.845202,-0.9520828,0.8339066,-0.9677049,-2.0229676,-1.2451628,2.050827,1.7874057,-0.9259072,-1.4423696,-0.23608024,-0.69882673,1.4264966,-0.75439775,0.5119667,-0.20945227,-0.084114075,-0.55239105,0.6961062,-1.6474624,0.013535769,0.06805347,-0.06832886,-0.5990181,0.66648257,0.87215817,-0.0075402055,0.12163206,0.47380266,-1.3178298,-0.003537001,0.004071826,0.0,1.0,0.0,0.0,0.0,0.0,0.0,-0.5658859,0.15239105,-0.14610618,0.02746582,-2.0505042,-7.9266787,0.61995983,-1.7853498,-0.9438753,-0.041100383
-9.578131,44.24879,9.734672,12.022775,0.7269037,0.23787639,-0.006266076,-0.8021049,-0.17180964,-0.4298127,0.7992101,-0.5217393,0.6233686,-0.26585838,0.7536961,-0.9848859,-2.065949,-1.1652418,1.998653,1.8497427,-0.952493,0.819508,-0.9703084,-2.0304143,-1.2308768,2.043251,1.7924663,-0.9279776,-1.4390599,-0.26866058,-0.75947255,1.4295508,-0.759174,0.5037758,-0.20661078,-0.10050964,-0.5521507,0.6966047,-1.6375606,0.027591329,0.04278976,-0.081596375,-0.5990257,0.6662675,0.8784018,-0.008799187,0.1273014,0.4605727,-1.3299857,0.010481658,-0.030545505,0.0,1.0,0.0,0.0,0.0,0.0,0.0,-0.54949033,0.15215072,-0.14660472,0.32002926,-3.3566475,-5.895138,0.35719872,-0.62856674,-0.87298155,0.18396974
-5.6678886,56.277462,15.034676,13.119954,0.59226143,0.4224267,0.041829117,-0.80005485,-0.13329841,-0.43371153,0.79994214,-0.5347638,0.62900585,-0.24435174,0.73950255,-0.9836383,-2.0737855,-1.1508826,1.9897747,1.8553668,-0.9524128,0.80515426,-0.9730197,-2.038265,-1.2165774,2.035637,1.7974677,-0.9300029,-1.4343774,-0.27242866,-0.79242337,1.430138,-0.76321,0.49864495,-0.20155649,-0.116752625,-0.5517273,0.6970152,-1.6202667,0.047061257,0.039483648,-0.09490967,-0.5988083,0.6658682,0.8844118,-0.009691766,0.13307828,0.44722697,-1.3302358,0.03608,-0.043531697,0.0,1.0,0.0,0.0,0.0,0.0,0.0,-0.53324735,0.15172729,-0.14701521,0.40848255,-0.50429106,-3.034699,0.059127808,-0.64896345,-0.57815313,0.3733337
-7.032253,48.0711,11.583209,11.83355,0.6919021,0.27231932,0.05118129,-0.79620576,-0.19521737,-0.4862301,0.79931295,-0.5339267,0.63031983,-0.23822007,0.72553366,-0.99254143,-2.086888,-1.1366462,1.9822443,1.8604997,-0.95382494,0.7908587,-0.9759809,-2.0465162,-1.2022818,2.0279999,1.8024217,-0.9319752,-1.4280283,-0.30442536,-0.8351918,1.4294039,-0.76453346,0.49404308,-0.19614018,-0.13285065,-0.55113983,0.69726294,-1.6065935,0.06277301,0.018874602,-0.10826111,-0.5983925,0.66521204,0.89018446,-0.01019416,0.13888398,0.43379596,-1.3367815,0.05364732,-0.07350254,0.0,1.0,0.0,0.0,0.0,0.0,0.0,-0.5171493,0.15113983,-0.14726293,0.59912205,-3.3076286,-4.0530205,-0.03900528,-0.33006668,-0.53316355,0.43383837
-5.6968665,55.366264,14.507894,12.79612,0.6770894,0.41049743,0.07249096,-0.79945993,-0.17496032,-0.4760477,0.7958903,-0.5357602,0.6337949,-0.22468807,0.7109127,-0.9934769,-2.094121,-1.1226928,1.9744239,1.8658012,-0.954444,0.7765984,-0.9791404,-2.0550385,-1.1880168,2.0203555,1.8073431,-0.9338872,-1.4255006,-0.3201929,-0.85714334,1.4257029,-0.76531196,0.49117595,-0.18993343,-0.14878082,-0.55036926,0.6973969,-1.5884668,0.08180323,0.010963544,-0.12164307,-0.5977478,0.66435516,0.89570355,-0.010366317,0.14471157,0.42031667,-1.3378806,0.078751355,-0.09023737,0.0,1.0,0.0,0.0,0.0,0.0,0.0,-0.50121915,0.15036926,-0.14739686,0.18856525,-1.7039835,-1.908946,-0.36187172,-0.33876896,-0.3723085,0.49780607
-3.1219559,66.85365,18.615026,14.415546,0.5929763,0.518517,0.087561235,-0.7911048,-0.1358062,-0.49040607,0.7998627,-0.53998315,0.620936,-0.1831572,0.6974879,-0.992721,-2.104079,-1.1080306,1.9663571,1.8694367,-0.9522029,0.7623867,-0.9822103,-2.0637436,-1.1737708,2.0126996,1.8122394,-0.9357106,-1.4200976,-0.30303603,-0.8737656,1.423965,-0.7666666,0.48871544,-0.18037742,-0.16447449,-0.54937744,0.6975958,-1.5628572,0.1049432,0.022463784,-0.13497162,-0.59680176,0.6634713,0.9009373,-0.010296057,0.15068296,0.40681767,-1.3285881,0.11146537,-0.08820449,0.0,1.0,0.0,0.0,0.0,0.0,0.0,-0.4855255,0.14937744,-0.14759576,0.43551922,1.5605032,-1.2996078,-0.21584034,-0.47997236,-0.34319162,0.79138577
-6.3615885,55.26624,13.643671,12.952849,0.70155716,0.3578055,0.08020887,-0.7936715,-0.19973919,-0.5307672,0.79658526,-0.54468524,0.62825185,-0.17375602,0.6830195,-1.0021842,-2.1168203,-1.0941123,1.9582311,1.8750646,-0.9530862,0.74820936,-0.98535454,-2.072731,-1.1595477,2.0050173,1.8171113,-0.93743855,-1.4172376,-0.31863126,-0.90628064,1.4218923,-0.76965106,0.48625067,-0.17069156,-0.17995453,-0.5481911,0.69774973,-1.5433929,0.123152815,0.012194494,-0.14827728,-0.5955887,0.66245025,0.9059004,-0.009907088,0.15673788,0.3932932,-1.3297048,0.13500424,-0.10720255,0.0,1.0,0.0,0.0,0.0,0.0,0.0,-0.47004545,0.14819106,-0.14774972,0.22199154,-1.6884804,-2.9586792,-0.19607544,-0.5661607,-0.34617782,0.8386284
-8.008229,57.34951,13.781184,13.891308,0.79275686,0.4101011,0.07434617,-0.80083495,-0.18617716,-0.5381751,0.79647034,-0.54251903,0.6213724,-0.13020207,0.66812587,-1.0039723,-2.1265485,-1.0799006,1.9507654,1.8792485,-0.95045877,0.73401386,-0.98861516,-2.0820312,-1.1453397,1.9973152,1.8219539,-0.9390464,-1.4205638,-0.3290066,-0.93686795,1.4204215,-0.771315,0.4833231,-0.15790892,-0.1952362,-0.5468178,0.6978076,-1.5231175,0.1420849,0.004286124,-0.16161346,-0.59412,0.66126454,0.9106029,-0.009169676,0.16285422,0.37973225,-1.3328035,0.16111836,-0.12272963,0.0,1.0,0.0,0.0,0.0,0.0,0.0,-0.45476377,0.14681777,-0.1478076,-0.3982544,-1.1775851,-2.745843,-0.13086796,-0.4540205,-0.408715,1.1459321
-5.9760556,53.992832,13.427514,12.712652,0.8479924,0.3703937,0.096977346,-0.7917042,-0.22209142,-0.52043873,0.7973343,-0.52596116,0.6279234,-0.14782451,0.65484345,-1.0108243,-2.1340752,-1.0656064,1.9447191,1.8847462,-0.9538288,0.7198184,-0.99212754,-2.0914764,-1.1311376,1.9896516,1.8267734,-0.9405484,-1.4194531,-0.3590883,-0.9462492,1.420351,-0.7655747,0.48105648,-0.14800459,-0.21031952,-0.5452652,0.6977444,-1.5034198,0.15928374,-0.009707408,-0.17497253,-0.59241104,0.65989685,0.9150485,-0.008147539,0.1689162,0.36617914,-1.3357804,0.18490823,-0.1418706,0.0,1.0,0.0,0.0,0.0,0.0,0.0,-0.43968046,0.14526519,-0.14774442,0.042152405,-3.1343937,-0.61511993,0.013566017,0.28631687,-0.34774542,0.8821398
-4.051074,56.157616,14.475408,12.457588,0.81969154,0.3888923,0.1328308,-0.78894407,-0.22487976,-0.5204244,0.7923739,-0.5237446,0.63055575,-0.09474259,0.640924,-1.0146155,-2.143519,-1.0519003,1.9372771,1.8898289,-0.9500227,0.7056506,-0.99592316,-2.100933,-1.1169546,1.9820586,1.8315758,-0.94192314,-1.4161364,-0.3868533,-0.9444363,1.4175062,-0.75817454,0.47957656,-0.13437024,-0.22518921,-0.54354477,0.69755507,-1.4812148,0.1766055,-0.021427143,-0.1883316,-0.5904465,0.65836376,0.9192272,-0.0068966504,0.17487042,0.35269538,-1.3342146,0.21012743,-0.15760376,0.0,1.0,0.0,0.0,0.0,0.0,0.0,-0.42481077,0.14354476,-0.14755505,0.24659634,-2.903545,0.53465366,-0.2802372,0.42401552,-0.26949644,1.2534976
-5.703983,51.875427,12.409173,12.011464,0.85278535,0.3218638,0.13158906,-0.79141665,-0.25687408,-0.54236275,0.79420936,-0.52690476,0.6214722,-0.060129695,0.62650895,-1.0216106,-2.1551692,-1.0375336,1.9293681,1.893723,-0.9479361,0.6915048,-1.0000802,-2.1104388,-1.1027887,1.9745218,1.8363534,-0.94314754,-1.4142196,-0.4257228,-0.951356,1.416358,-0.753164,0.47694454,-0.11874476,-0.2398529,-0.54166794,0.6971749,-1.4617219,0.19166736,-0.04266743,-0.20172119,-0.58826065,0.65661085,0.923148,-0.005380049,0.18068825,0.3392941,-1.3369287,0.23231971,-0.18153809,0.0,1.0,0.0,0.0,0.0,0.0,0.0,-0.41014707,0.14166793,-0.1471749,0.12660027,-4.00632,-0.37164688,-0.08120537,0.21730661,-0.3850758,1.4683425
-2.4729593,57.537487,14.943553,12.463598,0.85944825,0.36962038,0.16518465,-0.7802813,-0.25816238,-0.5139848,0.8011175,-0.51261836,0.62016964,0.021103183,0.61347663,-1.0258964,-2.1618373,-1.022677,1.92326,1.8983704,-0.94103724,0.6774227,-1.0045568,-2.1198761,-1.0885998,1.9670656,1.8411099,-0.9441671,-1.4065626,-0.45557725,-0.93977195,1.4197909,-0.744087,0.47483253,-0.09666968,-0.25428772,-0.5396309,0.696648,-1.4373585,0.2077857,-0.054812018,-0.215065,-0.5858269,0.65470105,0.9268003,-0.0036698543,0.18636476,0.32603022,-1.3326163,0.25728905,-0.19459452,0.0,1.0,0.0,0.0,0.0,0.0,0.0,-0.39571226,0.13963088,-0.14664799,0.67186356,-3.1134605,1.5396833,0.3464222,0.5666375,-0.3393054,2.1060824
-5.100009,54.073402,12.515478,12.17479,0.7896818,0.2890973,0.17368671,-0.78348553,-0.2812864,-0.5597948,0.7961243,-0.5362334,0.60251063,0.09419719,0.5990741,-1.0326854,-2.1758556,-1.0089874,1.9134423,1.901361,-0.93474734,0.66339695,-1.0093461,-2.1293976,-1.0743936,1.9596169,1.8458302,-0.944928,-1.4015044,-0.48720026,-0.9553281,1.4210304,-0.7460113,0.4708193,-0.06953298,-0.26850128,-0.5374527,0.69593203,-1.4153165,0.22174469,-0.075939454,-0.22840118,-0.583168,0.6525889,0.93018246,-0.0016740619,0.19195113,0.31290987,-1.3314005,0.2794521,-0.21736576,0.0,1.0,0.0,0.0,0.0,0.0,0.0,-0.3814987,0.13745269,-0.14593202,0.43411255,-3.2874763,-1.2185097,0.1544714,-0.49551725,-0.52447915,2.6096807
-6.425375,48.70561,10.163986,11.183907,0.7620072,0.19791496,0.1910932,-0.77971774,-0.31866777,-0.5786655,0.795051,-0.53079766,0.59035414,0.16179939,0.5854252,-1.0412129,-2.1872642,-0.99488854,1.9065372,1.9048656,-0.9287481,0.64942276,-1.0145437,-2.139182,-1.060182,1.9521466,1.8505001,-0.9453888,-1.3961756,-0.5308947,-0.98524,1.4211737,-0.7482369,0.4652488,-0.03854922,-0.2825241,-0.53515244,0.69491655,-1.3969302,0.2329547,-0.108633734,-0.24176788,-0.58032227,0.65016735,0.9333041,0.00072296866,0.19743185,0.29993933,-1.334225,0.29794234,-0.2510403,0.0,1.0,0.0,0.0,0.0,0.0,0.0,-0.36747587,0.13515243,-0.14491653,0.48208237,-4.4843316,-2.699089,0.07452965,-0.48459768,-0.6815553,3.0085206
-9.992794,40.57301,6.6371136,10.232986,0.77180564,0.12989807,0.19337271,-0.78564894,-0.3682217,-0.60478663,0.7955173,-0.5421968,0.5930952,0.21940766,0.5708579,-1.0513659,-2.1996608,-0.9806302,1.8979269,1.9098096,-0.923448,0.6354609,-1.0203267,-2.1493635,-1.0459683,1.9446114,1.8551128,-0.945525,-1.3962189,-0.5944969,-1.0288025,1.4217541,-0.75576353,0.45949346,-0.0054389327,-0.2964096,-0.5327606,0.6934451,-1.3852432,0.24128088,-0.15790138,-0.2552185,-0.577301,0.6472966,0.9361854,0.0036320093,0.20275433,0.28711367,-1.3457959,0.3136608,-0.29983178,0.0,1.0,0.0,0.0,0.0,0.0,0.0,-0.35359037,0.13276061,-0.14344507,-0.016379356,-6.464684,-4.133463,0.17969608,-0.9504914,-0.70491433,3.250211
-6.7166367,46.957867,9.297439,10.5339985,0.75502723,0.21221232,0.22291309,-0.7758787,-0.37150058,-0.59060866,0.79480326,-0.5356918,0.5937787,0.27584136,0.557873,-1.0574768,-2.2084243,-0.96648794,1.8910422,1.9144907,-0.91794086,0.6215287,-1.0266534,-2.1598458,-1.0317564,1.9370283,1.8596743,-0.9453182,-1.3922741,-0.64597857,-1.0538093,1.4212276,-0.7598384,0.45478705,0.0292128,-0.31014252,-0.53028107,0.6915481,-1.3680862,0.2507257,-0.1977287,-0.26873016,-0.57409286,0.6440206,0.9388213,0.007002364,0.2079108,0.27447855,-1.3488352,0.33311254,-0.33768722,0.0,1.0,0.0,0.0,0.0,0.0,0.0,-0.33985746,0.13028106,-0.1415481,0.34735203,-5.2634716,-2.2031069,0.031876564,-0.6764889,-0.61196685,3.3905783
-4.877908,52.86092,11.381034,11.201127,0.80670285,0.28953242,0.22288692,-0.7739419,-0.38399568,-0.5914324,0.79237837,-0.5226069,0.585552,0.2974028,0.5441345,-1.065053,-2.2189891,-0.9525186,1.8847677,1.9182296,-0.91557795,0.60764116,-1.0334016,-2.170477,-1.0175636,1.9294599,1.8641901,-0.9447817,-1.3878006,-0.6848911,-1.065019,1.4187126,-0.7567099,0.45016387,0.061544728,-0.32366943,-0.5276985,0.6893132,-1.3464599,0.26107752,-0.2294051,-0.2822113,-0.5706749,0.6404425,0.9412113,0.010735479,0.21289971,0.2620681,-1.346292,0.35596952,-0.36537597,0.0,1.0,0.0,0.0,0.0,0.0,0.0,-0.32633054,0.12769851,-0.13931316,0.37240982,-4.0174484,-0.75945854,-0.198102,-0.020086765,-0.6178677,3.147912
-4.28457,48.027187,10.576908,10.098816,0.98514074,0.2739933,0.20903704,-0.7747185,-0.45098427,-0.5639314,0.7940941,-0.47224778,0.5699634,0.30159196,0.5301693,-1.0785,-2.22687,-0.93815416,1.8822352,1.9211864,-0.91462255,0.593787,-1.0407106,-2.1810086,-1.0033859,1.9220783,1.8686496,-0.94395447,-1.3847938,-0.7464965,-1.0483631,1.4177036,-0.7327424,0.44399393,0.08981446,-0.33701324,-0.52503204,0.68667954,-1.3295153,0.2695999,-0.2710172,-0.29573822,-0.56703186,0.636557,0.9434026,0.014709094,0.21754079,0.24990223,-1.3488325,0.3776205,-0.39708737,0.0,1.0,0.0,0.0,0.0,0.0,0.0,-0.31298673,0.12503204,-0.13667953,0.23651123,-6.2728167,2.0158052,-0.018191338,2.0831943,-0.8019507,2.8119712
-0.98663855,56.65666,13.742787,11.159206,1.0301962,0.37288338,0.2167184,-0.7663178,-0.44654763,-0.53872335,0.7973691,-0.47041225,0.5655242,0.36605763,0.51715523,-1.0853653,-2.234881,-0.923649,1.8750371,1.925202,-0.9073487,0.57998914,-1.048504,-2.1912162,-0.989202,1.9149439,1.8730509,-0.94282967,-1.3784422,-0.7907072,-1.0102055,1.4187737,-0.70808434,0.43843618,0.12002106,-0.3501358,-0.5222664,0.6837314,-1.305242,0.27933353,-0.2991977,-0.3092041,-0.56314087,0.6324704,0.94540644,0.018785182,0.22181365,0.23801781,-1.3418379,0.40295315,-0.41348007,0.0,1.0,0.0,0.0,0.0,0.0,0.0,-0.29986417,0.12226638,-0.13373137,0.5319834,-4.545486,4.2576313,0.13999939,2.0627618,-0.73146224,2.9803798
2.032629,46.82872,12.128245,7.859579,1.0770866,0.27401823,0.2388669,-0.7598793,-0.5342116,-0.48320106,0.78200173,-0.39065367,0.5389432,0.36271754,0.5040012,-1.1019251,-2.2395363,-0.91100186,1.8758786,1.9269452,-0.9065579,0.56627697,-1.0570012,-2.200806,-0.97507215,1.9082491,1.8773779,-0.9414342,-1.3691418,-0.86972374,-0.94087994,1.4112257,-0.65759516,0.43028852,0.14623167,-0.36307526,-0.51943207,0.6803711,-1.288388,0.28566745,-0.3453197,-0.3226242,-0.5590477,0.6281259,0.9472819,0.02282912,0.22547872,0.22648434,-1.3383468,0.42284706,-0.4425732,0.0,1.0,0.0,0.0,0.0,0.0,0.0,-0.28692472,0.11943206,-0.1303711,0.84416866,-7.992065,7.323861,-0.69355965,4.7000527,-0.99485517,2.6590734
2.2280774,46.146347,11.618416,7.2696047,1.0034138,0.24288559,0.25660005,-0.7579794,-0.55860007,-0.47279146,0.77221566,-0.380177,0.48909223,0.4332101,0.49047902,-1.1128613,-2.248085,-0.8978506,1.8702314,1.926287,-0.8981132,0.5526517,-1.0662764,-2.2097394,-0.96106434,1.9020368,1.8815904,-0.93975526,-1.3605708,-0.94699967,-0.8765147,1.3974692,-0.6099596,0.41786742,0.17535493,-0.37584686,-0.5165405,0.6765239,-1.271965,0.29093993,-0.39457786,-0.33599854,-0.55475235,0.6234684,0.94906074,0.026842823,0.22845854,0.21533658,-1.333118,0.44168782,-0.47476462,0.0,1.0,0.0,0.0,0.0,0.0,0.0,-0.2741531,0.11654052,-0.12652391,0.7780552,-7.8158736,6.809497,-1.3054848,4.4204235,-1.4075756,2.9530792
6.156785,47.915924,13.207245,6.480022,1.0232091,0.2723469,0.26738006,-0.7482173,-0.60231644,-0.38682407,0.7642295,-0.3409678,0.46688265,0.45242354,0.47782996,-1.1265081,-2.248422,-0.8846414,1.86794,1.9282787,-0.8945129,0.5391343,-1.0763434,-2.2177877,-0.9472186,1.8963274,1.8856713,-0.9377972,-1.3490542,-1.0269182,-0.7797264,1.38038,-0.55896837,0.40437666,0.20288263,-0.38843536,-0.5135994,0.67220426,-1.2528701,0.2956676,-0.44079962,-0.34928894,-0.5502815,0.61852926,0.950771,0.030713653,0.23069584,0.20462322,-1.3216721,0.46014956,-0.5017509,0.0,1.0,0.0,0.0,0.0,0.0,0.0,-0.2615646,0.11359939,-0.122204244,1.0561943,-8.0755,10.095811,-1.6589403,4.7148824,-1.5033662,2.8095007
7.6417527,51.893642,14.633368,6.7486744,1.0860634,0.33582482,0.26437783,-0.7490611,-0.6331545,-0.3146542,0.7457457,-0.30536622,0.43044817,0.49003547,0.4642282,-1.1396589,-2.2492533,-0.872644,1.8657907,1.9287161,-0.88879365,0.5257047,-1.0871505,-2.224703,-0.9335998,1.8911333,1.8896034,-0.93556416,-1.3411683,-1.0989211,-0.6606423,1.35581,-0.50720865,0.38896874,0.23038125,-0.40081024,-0.51060486,0.6674677,-1.2304118,0.30063498,-0.4811719,-0.3624344,-0.5456009,0.61337733,0.9524395,0.0343163,0.23216127,0.19437721,-1.3056252,0.48035926,-0.5213416,0.0,1.0,0.0,0.0,0.0,0.0,0.0,-0.24918973,0.11060485,-0.1174677,0.68535805,-7.28786,12.359643,-2.421093,4.7446966,-1.6905904,2.8172402
8.210966,55.846428,15.419601,7.1907015,1.1978095,0.3207276,0.23514938,-0.7439655,-0.6524563,-0.27489236,0.7198109,-0.20667417,0.34460703,0.5111924,0.45130813,-1.1523961,-2.2521923,-0.86161876,1.8704659,1.924064,-0.88444495,0.5123503,-1.0985602,-2.2304742,-0.9203072,1.8866503,1.8933302,-0.9330691,-1.3338813,-1.155317,-0.5478449,1.3205307,-0.42992684,0.36679864,0.2561132,-0.4129486,-0.50756454,0.6623637,-1.2061753,0.30542678,-0.5173978,-0.3753891,-0.5407295,0.6080753,0.9541071,0.03759869,0.23280308,0.18457709,-1.2884667,0.50076574,-0.5350675,0.0,1.0,0.0,0.0,0.0,0.0,0.0,-0.23705137,0.10756454,-0.112363696,0.6237984,-5.7316303,11.729038,-3.5052538,7.2831926,-2.3602247,2.637711
5.0001965,57.36338,14.293729,7.8202515,1.2485448,0.27783614,0.20348541,-0.74850965,-0.6641912,-0.272774,0.68111527,-0.11175633,0.25667033,0.5398292,0.43749934,-1.1649793,-2.2577517,-0.8521957,1.8754747,1.9189973,-0.8790862,0.49902546,-1.1103953,-2.2354062,-0.9074877,1.8831162,1.8967822,-0.930325,-1.3323298,-1.1931692,-0.4740305,1.2691826,-0.3289549,0.33768606,0.28073627,-0.42485046,-0.50447845,0.65688217,-1.1835383,0.31009322,-0.55538946,-0.38820648,-0.5356293,0.6026248,0.95580685,0.040650725,0.23259906,0.17515226,-1.2750953,0.52208036,-0.55051976,0.0,1.0,0.0,0.0,0.0,0.0,0.0,-0.22514951,0.10447845,-0.106882155,0.06890297,-3.8802385,7.76186,-5.097413,9.703171,-3.0462742,2.5195062
5.174612,60.015137,14.209781,7.594808,1.1737504,0.22262752,0.20666938,-0.74434114,-0.6664525,-0.25850508,0.62900996,-0.018855661,0.14947905,0.54821104,0.42459136,-1.1770406,-2.2612567,-0.8445867,1.8812307,1.91173,-0.8755039,0.48571545,-1.1224593,-2.2398384,-0.89534146,1.8807245,1.8998852,-0.9273569,-1.3308328,-1.211322,-0.4317661,1.1965203,-0.21034391,0.30075085,0.30236992,-0.43650818,-0.5013504,0.65103525,-1.1594983,0.31386447,-0.5920915,-0.40088654,-0.5303345,0.5970184,0.95755386,0.04358819,0.23154536,0.16606408,-1.2590442,0.54186314,-0.5662606,0.0,1.0,0.0,0.0,0.0,0.0,0.0,-0.2134918,0.1013504,-0.10103524,0.06110668,-1.9089222,4.572219,-7.2445154,11.489764,-3.8226247,2.2032082
10.124262,60.272575,15.155015,5.7240567,1.3086606,0.11778134,0.20146485,-0.7294055,-0.68234235,-0.21480441,0.5640121,0.22264855,0.013345621,0.55089355,0.4127749,-1.1906935,-2.2613187,-0.83894026,1.9029894,1.9012197,-0.87226754,0.47248173,-1.1346682,-2.2438622,-0.88410395,1.8800411,1.9025435,-0.92419684,-1.3212001,-1.2243919,-0.3915755,1.0994669,-0.021849085,0.25385344,0.32082134,-0.44794464,-0.49819565,0.64479554,-1.1366552,0.31609,-0.630872,-0.4133911,-0.5248718,0.59126705,0.95941734,0.046333946,0.2293927,0.15732242,-1.2422452,0.55756,-0.58031374,0.0,1.0,0.0,0.0,0.0,0.0,0.0,-0.20205534,0.09819564,-0.094795525,0.8595228,-1.3885021,4.359627,-9.719086,18.48783,-4.833615,1.9043565
4.8629274,55.330933,11.769647,5.237808,1.1515447,-0.05342704,0.18968599,-0.7426344,-0.6855747,-0.28059304,0.49592903,0.31121832,-0.24020599,0.5344897,0.39821827,-1.2032257,-2.2719214,-0.83451104,1.911163,1.878523,-0.87074786,0.45927998,-1.146963,-2.2479281,-0.8739757,1.8812659,1.9045784,-0.92088914,-1.3200346,-1.2314081,-0.41087607,0.9840713,0.16989268,0.18614803,0.33427414,-0.459198,-0.49502563,0.63808984,-1.120091,0.31736028,-0.6817692,-0.42577362,-0.51926804,0.5852604,0.9614196,0.04910571,0.22606036,0.14885424,-1.2329602,0.57032347,-0.6095822,0.0,1.0,0.0,0.0,0.0,0.0,0.0,-0.19080198,0.09502563,-0.08808982,0.048851967,-0.7777691,-1.7110288,-11.503231,18.909231,-6.916037,1.4102161
1.2642548,62.16086,11.894924,8.864996,1.1076267,-0.10811937,0.114163,-0.72948986,-0.6647364,-0.32175028,0.5112745,0.3090488,-0.40367594,0.564242,0.386331,-1.2134366,-2.2801032,-0.82284826,1.9121708,1.8642108,-0.86446494,0.44613212,-1.1591929,-2.2524903,-0.86469066,1.8840499,1.9058601,-0.91744643,-1.3131884,-1.2204683,-0.47051194,0.91014194,0.31393066,0.10842157,0.3477148,-0.47024536,-0.49184418,0.6309708,-1.0988498,0.31815255,-0.72066224,-0.43808746,-0.5135498,0.57902074,0.96349674,0.052150417,0.22183846,0.14050569,-1.2244163,0.58254594,-0.6309378,0.0,1.0,0.0,0.0,0.0,0.0,0.0,-0.17975461,0.09184417,-0.080970764,0.6277561,1.0042667,-5.7420373,-7.337904,14.162358,-7.9199657,1.3676047
8.781258,71.186104,15.386915,10.01586,0.852795,-0.094248116,0.12689985,-0.68944603,-0.65578824,-0.29798636,0.51596236,0.2774918,-0.43164673,0.596661,0.37718752,-1.2247717,-2.282289,-0.81309444,1.9117991,1.8626953,-0.85778034,0.4332308,-1.1712493,-2.2575254,-0.8558376,1.8877921,1.9064149,-0.9138608,-1.2827728,-1.2009554,-0.5134029,0.87707025,0.39347953,0.037231676,0.36201224,-0.48098755,-0.48867798,0.6236233,-1.0653888,0.31572154,-0.73848706,-0.45018768,-0.50775146,0.5726798,0.9655528,0.05547318,0.21710834,0.13226677,-1.200098,0.58772814,-0.63714564,0.0,1.0,0.0,0.0,0.0,0.0,0.0,-0.16901243,0.08867797,-0.0736233,2.9459953,1.8603325,-3.9591908,-3.3209443,7.6658487,-7.241878,1.3824463
