Afshin1997/kuka_rl_ros2/src/catch_and_throw/input_files/idealpd/recorded_trajectories/env_332_data.csv
torque0,torque1,torque2,torque3,torque4,torque5,torque6,action0,action1,action2,action3,action4,action5,action6,set_target_0,set_target_1,set_target_2,set_target_3,set_target_4,set_target_5,set_target_6,joint_pos_0,joint_pos_1,joint_pos_2,joint_pos_3,joint_pos_4,joint_pos_5,joint_pos_6,joint_vel_0,joint_vel_1,joint_vel_2,joint_vel_3,joint_vel_4,joint_vel_5,joint_vel_6,tennisball_pos_0,tennisball_pos_1,tennisball_pos_2,tennisball_lin_vel_0,tennisball_lin_vel_1,tennisball_lin_vel_2,end_effector_pos_0,end_effector_pos_1,end_effector_pos_2,end_effector_rot_0,end_effector_rot_1,end_effector_rot_2,end_effector_rot_3,end_effector_lin_vel_0,end_effector_lin_vel_1,end_effector_lin_vel_2,obs_task_0,obs_task_1,obs_task_2,obs_task_3,obs_task_4,obs_task_5,obs_task_6,to_final_target_0,to_final_target_1,to_final_target_2,joint_acc_0,joint_acc_1,joint_acc_2,joint_acc_3,joint_acc_4,joint_acc_5,joint_acc_6
0.0,0.0,0.0,0.0,0.0,0.0,0.0,0.0,0.0,0.0,0.0,0.0,0.0,0.0,1.7802359,-1.0646509,-1.8151424,-1.1170107,1.9373155,1.1170107,-0.91629785,1.7802359,-1.0646509,-1.8151424,-1.1170107,1.9373155,1.1170107,-0.91629785,0.0,0.0,0.0,0.0,0.0,0.0,0.0,2.840456,-0.27591705,0.32263368,-2.853849,-0.08904595,5.2053924,0.5304146,-0.45449448,0.693097,0.5745483,0.17512383,0.15255436,0.7848268,0.0,0.0,0.0,1.0,0.0,0.0,0.0,0.0,0.0,0.0,-3.490456,-0.12408295,0.22736633,0.0,0.0,0.0,0.0,0.0,0.0,0.0
0.0,0.0,0.0,0.0,0.0,0.0,0.0,0.0,0.0,0.0,0.0,0.0,0.0,0.0,1.7802359,-1.0646509,-1.8151424,-1.1170107,1.9373155,1.1170107,-0.91629785,1.7802359,-1.0646509,-1.8151424,-1.1170107,1.9373155,1.1170107,-0.91629785,0.0,0.0,0.0,0.0,0.0,0.0,0.0,2.840456,-0.27591705,0.32263368,-2.853849,-0.08904595,5.2053924,0.5304146,-0.45449448,0.693097,0.5745483,0.17512383,0.15255436,0.7848268,0.0,0.0,0.0,1.0,0.0,0.0,0.0,0.0,0.0,0.0,-3.490456,-0.12408295,0.22736633,0.0,0.0,0.0,0.0,0.0,0.0,0.0
0.0,0.0,0.0,0.0,0.0,0.0,0.0,0.0,0.0,0.0,0.0,0.0,0.0,0.0,1.7802359,-1.0646509,-1.8151424,-1.1170107,1.9373155,1.1170107,-0.91629785,1.7802359,-1.0646509,-1.8151424,-1.1170107,1.9373155,1.1170107,-0.91629785,0.0,0.0,0.0,0.0,0.0,0.0,0.0,2.840456,-0.27591705,0.32263368,-2.853849,-0.08904595,5.2053924,0.5304146,-0.45449448,0.693097,0.5745483,0.17512383,0.15255436,0.7848268,0.0,0.0,0.0,1.0,0.0,0.0,0.0,0.0,0.0,0.0,-3.490456,-0.12408295,0.22736633,0.0,0.0,0.0,0.0,0.0,0.0,0.0
-176.0,86.54268,1.2697372,110.0,11.181792,5.4902196,-3.773376,-0.8293161,0.4383906,-0.52588826,0.72036827,0.45515704,0.618517,-0.5862133,1.6973042,-1.0208118,-1.8677312,-1.0449739,1.9828311,1.1788625,-0.9749192,1.7785403,-1.0620054,-1.8205936,-1.1127783,1.9441285,1.1223055,-0.9185695,-0.22586773,0.3522597,-0.7260273,0.5645127,0.90741587,0.70373905,-0.3023814,2.8119392,-0.2768097,0.37391213,-2.8509958,-0.08895692,5.1020017,0.52807426,-0.45772552,0.6941667,0.57841575,0.17369802,0.15041521,0.78271276,-0.31179157,-0.43073094,0.14252144,1.0,0.0,0.0,0.0,0.0,0.0,0.0,-3.4619393,-0.12319031,0.17608789,-22.551125,35.02616,-72.366745,56.499905,90.442924,69.709435,-30.065775
-176.0,12.494816,-28.752413,110.0,11.335591,2.7370706,-3.398115,-0.8161203,0.054419607,-0.5520231,0.69087166,0.5238884,0.618747,-0.62070346,1.6969283,-1.0565635,-1.875796,-1.0436912,1.9965173,1.1841803,-0.9806399,1.7758394,-1.0576376,-1.8345344,-1.1004931,1.9572549,1.1349913,-0.92100805,-0.28306496,0.46314132,-1.617556,1.4520736,1.4467791,1.4499795,-0.22121833,2.783451,-0.27769852,0.4241574,-2.8481455,-0.088867985,4.9987144,0.5229111,-0.4658203,0.69583154,0.5869451,0.17036653,0.14590989,0.77793366,-0.5861518,-0.9349542,0.17492476,1.0,0.0,0.0,0.0,0.0,0.0,0.0,-3.4334512,-0.12230149,0.1258426,-5.1730814,10.564703,-89.40139,89.43796,53.696106,72.56739,9.030345
-151.66458,106.88289,25.894033,87.05026,7.2648077,6.727573,-1.981853,-0.77741396,0.3470368,-0.0548659,0.54908836,0.53732055,0.64701074,-0.5841165,1.6980981,-1.0229338,-1.840021,-1.0455842,2.010987,1.1996924,-0.9794197,1.7698046,-1.0521177,-1.849448,-1.0844961,1.9718404,1.1493117,-0.9234361,-0.71048826,0.57853407,-1.4433463,1.649942,1.4583974,1.4189619,-0.25155586,2.7549896,-0.27858353,0.4733706,-2.845298,-0.08877914,4.8955307,0.5149002,-0.47665787,0.69901454,0.59834814,0.16564186,0.14037262,0.7712572,-0.8804442,-1.1262397,0.37008247,1.0,0.0,0.0,0.0,0.0,0.0,0.0,-3.4049897,-0.12141648,0.0766294,-42.827755,10.6526375,19.175457,20.074224,-0.072312355,-5.2317142,-3.5080194
-92.68014,123.24385,43.3796,56.21888,4.052368,7.2691474,-0.6430821,-0.7879069,0.33017093,0.037845362,0.5784995,0.5264121,0.62325877,-0.59480864,1.6910139,-1.0191007,-1.8456634,-1.0266461,2.0244815,1.2116375,-0.98291695,1.7596956,-1.0459665,-1.8599365,-1.0685087,1.9851823,1.1625715,-0.92617315,-1.1125004,0.62501276,-0.9100389,1.5819149,1.2886145,1.2907302,-0.28389737,2.7265587,-0.27946854,0.52155274,-2.8424535,-0.08869038,4.79245,0.5044441,-0.4880638,0.70415556,0.61082107,0.15956594,0.13432881,0.7638011,-1.1121664,-1.1347624,0.56728464,1.0,0.0,0.0,0.0,0.0,0.0,0.0,-3.3765588,-0.12053147,0.02844727,-40.608,3.9517999,55.48743,-6.7569256,-18.239069,-14.087319,-4.0628138
-33.096733,134.23923,52.69843,28.549812,1.1452093,6.4931536,0.23930398,-0.7995607,0.41940224,0.062635906,0.5420158,0.5820266,0.6173515,-0.5836341,1.6797396,-1.0040263,-1.8536729,-1.0143071,2.043385,1.2243067,-0.9845365,1.7463804,-1.039224,-1.8647335,-1.0543581,1.9967046,1.1744105,-0.92922777,-1.4060525,0.68909466,-0.3300835,1.358803,1.1037554,1.1468403,-0.31546953,2.6981544,-0.28035355,0.56870484,-2.8396118,-0.08860171,4.689472,0.49234962,-0.49860382,0.7110757,0.6231135,0.15222536,0.12806736,0.75640965,-1.254271,-1.0140885,0.7369338,1.0,0.0,0.0,0.0,0.0,0.0,0.0,-3.3481545,-0.11964646,-0.018704832,-29.857468,5.926132,59.867096,-22.5024,-19.394756,-14.870381,-4.01603
6.499339,131.80304,52.404274,12.404081,-0.5084324,5.043201,0.53288174,-0.8166803,0.48941988,0.112535626,0.53780353,0.6087758,0.6022009,-0.5919717,1.6647124,-0.99028206,-1.8534799,-1.0005778,2.0575821,1.2346306,-0.98842496,1.7311255,-1.0316709,-1.8646877,-1.0424582,2.0067422,1.1849352,-0.9325647,-1.5668433,0.7764182,0.120610125,1.1330183,0.96868896,1.0206418,-0.34211257,2.6697807,-0.28123856,0.61482793,-2.836773,-0.08851313,4.5865974,0.47940254,-0.5076103,0.71941966,0.63466495,0.14389233,0.12187242,0.74942803,-1.3190327,-0.84762955,0.8677901,1.0,0.0,0.0,0.0,0.0,0.0,0.0,-3.3197808,-0.11876145,-0.06482792,-16.49537,8.406591,46.388187,-22.80748,-13.989997,-12.664509,-3.3773065
27.868824,126.3295,48.655834,4.9677625,-1.3083929,3.695271,0.49439517,-0.8261593,0.5651955,0.15334824,0.52389175,0.6349658,0.60293245,-0.5895513,1.6485095,-0.97515136,-1.8493528,-0.99006903,2.0702388,1.2452284,-0.9915198,1.7150656,-1.0230383,-1.8614585,-1.0323969,2.0159051,1.1943556,-0.9361257,-1.6202673,0.8913925,0.3931385,0.963279,0.8977897,0.91628075,-0.3626389,2.6414337,-0.28212357,0.6599231,-2.833937,-0.08842464,4.4838257,0.4661808,-0.5149231,0.72884685,0.645393,0.13486937,0.115999684,0.7428473,-1.3313965,-0.6780932,0.96658146,1.0,0.0,0.0,0.0,0.0,0.0,0.0,-3.2914338,-0.11787644,-0.109923065,-5.6519985,11.269212,28.128248,-17.158127,-7.3010325,-10.2931385,-2.6161075
37.564327,118.94248,43.86776,2.0552711,-1.6181743,2.6473122,0.3589955,-0.8200383,0.6330767,0.18835273,0.49988624,0.64928806,0.6074348,-0.5858951,1.6330618,-0.9597306,-1.8426232,-0.9824083,2.080834,1.255099,-0.9947152,1.6990134,-1.0131468,-1.8566253,-1.0235506,2.024721,1.2028757,-0.93985456,-1.6011583,1.0210809,0.515214,0.85779405,0.87561,0.8313983,-0.3778132,2.6131153,-0.28300858,0.70399123,-2.8311036,-0.08833624,4.381157,0.45306206,-0.52064896,0.7390821,0.65540785,0.1254052,0.11063995,0.7365275,-1.3121608,-0.5225933,1.0401236,1.0,0.0,0.0,0.0,0.0,0.0,0.0,-3.2631154,-0.11699143,-0.15399122,1.6825199,12.806213,12.801427,-10.684657,-2.2891402,-8.281744,-1.9704103
36.896263,108.65812,38.395344,2.597454,-1.460935,1.9585023,0.21833445,-0.81441337,0.67807406,0.22550298,0.48830497,0.6494833,0.6146379,-0.5716316,1.6175721,-0.9453393,-1.834075,-0.9747201,2.0896692,1.2643396,-0.99701774,1.6833903,-1.0020288,-1.8512428,-1.01533,2.0335023,1.2106692,-0.9436969,-1.5497314,1.1415722,0.5473373,0.8097483,0.87872237,0.7624913,-0.387627,2.5848255,-0.2838936,0.7470335,-2.8282728,-0.088247925,4.27859,0.440197,-0.5250015,0.7499084,0.6648723,0.11566556,0.10584754,0.7303167,-1.2826723,-0.39232922,1.0939056,1.0,0.0,0.0,0.0,0.0,0.0,0.0,-3.2348256,-0.11610642,-0.19703346,4.9773216,11.932874,3.6314487,-4.908514,0.30972958,-6.704402,-1.3487816
29.840311,91.86655,30.502363,3.2257671,-1.1419866,1.2863407,0.1166608,-0.8146258,0.70253783,0.21273366,0.4561311,0.66457224,0.6246041,-0.56324387,1.6019276,-0.93177503,-1.8299694,-0.96971685,2.0999596,1.2731296,-1.0000213,1.6682822,-0.9899203,-1.8460281,-1.007424,2.0424325,1.2178751,-0.94760984,-1.498364,1.2337465,0.5140179,0.78389597,0.89807886,0.7070882,-0.39352983,2.5565643,-0.2847786,0.7890508,-2.825445,-0.088159695,4.1761265,0.42761993,-0.52830124,0.7610415,0.67392576,0.10585568,0.10159776,0.7240832,-1.2524595,-0.29364878,1.1167,1.0,0.0,0.0,0.0,0.0,0.0,0.0,-3.2065644,-0.11522141,-0.2390508,5.0055504,9.146643,-3.0449033,-2.7113438,1.9807696,-5.3632975,-0.8811772
22.969511,78.59221,24.996614,4.1224146,-0.7792973,0.9330768,0.09475221,-0.8111949,0.71747726,0.2265387,0.43290794,0.67162937,0.62129676,-0.55602163,1.5871626,-0.9181726,-1.8233743,-0.9641332,2.1095955,1.2800047,-1.003212,1.6535898,-0.9771401,-1.8412273,-0.99972224,2.0515878,1.2246004,-0.9515628,-1.4597131,1.2926184,0.4695355,0.765118,0.92147076,0.66139615,-0.39677206,2.5283318,-0.28565598,0.83004427,-2.82262,-0.08807155,4.073765,0.41530418,-0.5307884,0.77225584,0.682645,0.096117415,0.097777754,0.717772,-1.2272706,-0.21856116,1.1195028,1.0,0.0,0.0,0.0,0.0,0.0,0.0,-3.1783319,-0.11434403,-0.28004426,3.7499905,5.8452845,-4.2183876,-2.0345807,2.4076104,-4.4054627,-0.57725906
17.610058,69.47643,21.435856,5.1356153,-0.48298758,0.759514,0.08993498,-0.80268985,0.7303394,0.22677305,0.42225584,0.67443824,0.6328315,-0.5440138,1.5733209,-0.9041062,-1.81855,-0.95749664,2.1190317,1.2878836,-1.0059642,1.6391913,-0.9639699,-1.836829,-0.9921758,2.0609567,1.2309366,-0.95553106,-1.4336884,1.3250326,0.43082792,0.7504834,0.94196427,0.62495995,-0.39765185,2.500126,-0.28653336,0.8700149,-2.8197978,-0.08798349,3.971506,0.4031868,-0.5326462,0.78341156,0.6910671,0.08650891,0.09426635,0.7113763,-1.2079594,-0.15958321,1.1107277,1.0,0.0,0.0,0.0,0.0,0.0,0.0,-3.150126,-0.11346665,-0.3200149,2.495718,3.2171488,-3.666246,-1.6416073,2.130878,-3.4925342,-0.32135248
14.388786,63.55884,19.221954,5.346995,-0.3339941,0.6546274,0.11530103,-0.80054206,0.73984677,0.22278516,0.3956669,0.68165064,0.6321736,-0.54301316,1.5591371,-0.8899852,-1.8145504,-0.9526091,2.1291218,1.294154,-1.0098324,1.6249529,-0.950607,-1.8327262,-0.98484874,2.070501,1.2369581,-0.9595031,-1.420906,1.3399838,0.40412548,0.7261989,0.9591045,0.59524035,-0.39779693,2.4719486,-0.28741074,0.90896374,-2.8169785,-0.08789552,3.8693497,0.39123535,-0.5339737,0.7944163,0.6991949,0.077059776,0.09097814,0.70491934,-1.191813,-0.10875879,1.0935988,1.0,0.0,0.0,0.0,0.0,0.0,0.0,-3.1219487,-0.11258927,-0.35896373,1.1683702,1.4814615,-2.46526,-2.6244879,1.8011689,-2.8159976,-0.2385199
13.0582285,61.267143,18.465002,5.537384,-0.26262623,0.6311685,0.14597586,-0.79729474,0.74787456,0.22333716,0.3757222,0.687594,0.63402236,-0.53212136,1.5452235,-0.87581956,-1.8103925,-0.94727653,2.1392605,1.3003604,-1.0127152,1.6107813,-0.93715924,-1.8287818,-0.9778173,2.0801904,1.242726,-0.9634666,-1.4164056,1.3463484,0.3919428,0.69484496,0.9726703,0.57117414,-0.39662457,2.4438,-0.28828812,0.9468918,-2.814162,-0.08780764,3.7672954,0.37942505,-0.5348053,0.8052334,0.7070136,0.06776454,0.08785196,0.6984423,-1.177165,-0.060660265,1.0742171,1.0,0.0,0.0,0.0,0.0,0.0,0.0,-3.0938,-0.11171189,-0.39689177,0.33712387,0.62777996,-1.0048151,-3.3355594,1.4462352,-2.2491217,-0.103235245
16.78379,60.183598,18.403759,2.8014922,-0.52846724,0.5062568,0.2602876,-0.79214704,0.7537841,0.2274815,0.3102329,0.6897759,0.63108754,-0.52577627,1.5315666,-0.8617808,-1.8060337,-0.94679403,2.149168,1.3058348,-1.0160443,1.5966345,-0.9236705,-1.8248603,-0.9713495,2.0899866,1.2482878,-0.96741384,-1.4144024,1.3497245,0.3929742,0.63008845,0.9821389,0.5518166,-0.39483467,2.41568,-0.2891655,0.9838,-2.8113484,-0.08771985,3.665343,0.3678379,-0.535099,0.8158064,0.7144385,0.058649298,0.08488748,0.6920491,-1.1526598,-0.005156352,1.048021,1.0,0.0,0.0,0.0,0.0,0.0,0.0,-3.06568,-0.11083451,-0.43379998,0.0767231,0.33507347,0.34400225,-6.690812,1.0305762,-1.7191648,-0.04617572
18.934555,62.11072,19.265743,2.0344853,-0.6579528,0.50736463,0.31674868,-0.79065114,0.7648013,0.23999828,0.27304837,0.6916992,0.6365224,-0.5128472,1.5175694,-0.8471903,-1.8008605,-0.94404465,2.1591566,1.3119401,-1.0186986,1.5824991,-0.9101178,-1.8208282,-0.9656246,2.0998514,1.2536875,-0.97133535,-1.4138163,1.3570487,0.40744752,0.552545,0.9883759,0.5367491,-0.39188316,2.3875885,-0.29004288,1.0196896,-2.8085377,-0.08763215,3.5634928,0.3565216,-0.53479767,0.826134,0.72140855,0.049700864,0.08209704,0.68582755,-1.1233721,0.05567108,1.0239096,1.0,0.0,0.0,0.0,0.0,0.0,0.0,-3.0375886,-0.10995713,-0.46968955,-0.06661415,0.7332802,1.6958416,-7.959163,0.7129669,-1.2713194,0.072687864
21.386742,61.05522,18.865793,0.2939763,-0.8554381,0.3454142,0.3674143,-0.78827333,0.7681317,0.23729725,0.21173085,0.6921874,0.63958406,-0.5102191,1.5036718,-0.83330464,-1.7970985,-0.9444515,2.16907,1.3176459,-1.0223572,1.5683733,-0.89648694,-1.8166587,-0.9608152,2.1097581,1.2589613,-0.97522634,-1.4125811,1.3651291,0.4208892,0.4564046,0.9919163,0.52533275,-0.38881683,2.3595238,-0.29092026,1.0545613,-2.8057299,-0.08754454,3.4617443,0.34556007,-0.5338745,0.8361805,0.727883,0.04094481,0.07951556,0.6798434,-1.0852399,0.118767515,0.99433774,1.0,0.0,0.0,0.0,0.0,0.0,0.0,-3.0095239,-0.10907975,-0.50456125,0.0013828278,0.819993,1.578176,-9.819227,0.4530549,-0.8606672,0.09659529
23.695309,59.88318,18.344753,-1.5758185,-1.0615683,0.15859775,0.4207766,-0.78906995,0.77522135,0.23755911,0.13432302,0.6959808,0.6409885,-0.49905765,1.4894663,-0.8189648,-1.7929028,-0.94738287,2.179356,1.3230602,-1.0251321,1.5542532,-0.88275784,-1.8123844,-0.957134,2.1196992,1.2641436,-0.97908014,-1.4122056,1.3755307,0.43042186,0.33790922,0.99515307,0.5168019,-0.3848549,2.3314877,-0.29179764,1.0884163,-2.8029249,-0.087457016,3.3600976,0.33504486,-0.5322914,0.8458852,0.73382336,0.03244001,0.07719499,0.67416,-1.037584,0.18332219,0.95843464,1.0,0.0,0.0,0.0,0.0,0.0,0.0,-2.9814878,-0.10820237,-0.5384163,-0.08084774,1.0648727,1.1670947,-12.052864,0.43258667,-0.5252719,0.20540357
31.32814,58.673702,18.437693,-7.0051327,-1.5886185,-0.14015877,0.6124725,-0.7852949,0.7781465,0.26624674,-0.008794533,0.6934408,0.63175184,-0.49373132,1.4757237,-0.8049432,-1.7857597,-0.9580135,2.1890433,1.3273188,-1.0284532,1.5401541,-0.8689315,-1.8079154,-0.95506835,2.1296556,1.2692496,-0.98289293,-1.4097162,1.3851808,0.45305124,0.16203608,0.99620444,0.51019156,-0.38069955,2.3034801,-0.29267502,1.1212558,-2.8001227,-0.08736958,3.2585526,0.3251667,-0.52998734,0.8551358,0.73909235,0.024302613,0.07519604,0.6689525,-0.967734,0.25820693,0.9096767,1.0,0.0,0.0,0.0,0.0,0.0,0.0,-2.9534802,-0.10732499,-0.57125574,0.13921261,1.0056257,2.4739504,-17.78839,0.21423101,-0.22591352,0.23959875
39.582138,56.38533,18.152782,-13.18242,-2.1554956,-0.52563787,0.8199327,-0.7793266,0.78036517,0.28842774,-0.17384993,0.69802344,0.63191795,-0.49223337,1.4622214,-0.790895,-1.7790726,-0.97245336,2.199458,1.3324413,-1.0321163,1.5261065,-0.8550231,-1.8031452,-0.9552381,2.1396272,1.2743059,-0.9866666,-1.4034079,1.3929788,0.4855383,-0.077301644,0.9981855,0.5060083,-0.37668437,2.2754993,-0.29354477,1.1530805,-2.797323,-0.087282225,3.1571088,0.31617546,-0.52684784,0.8637785,0.74352,0.016690629,0.073582605,0.66444325,-0.87242043,0.3413277,0.8447215,1.0,0.0,0.0,0.0,0.0,0.0,0.0,-2.9254994,-0.10645524,-0.60308045,0.54979324,0.8404732,3.4263015,-24.114796,0.31279325,0.12835264,0.25721192
43.87474,56.94976,18.909399,-15.27838,-2.3333106,-0.6799761,0.92685676,-0.76745546,0.7838468,0.33212253,-0.29070523,0.70279396,0.6268615,-0.48102164,1.449361,-0.7766384,-1.7699329,-0.9843086,2.2099066,1.3369921,-1.0347688,1.5121752,-0.8410441,-1.7979019,-0.9579227,2.1496332,1.279328,-0.9903936,-1.3898797,1.3997672,0.5375625,-0.33255762,1.0020999,0.5027335,-0.37182337,2.2475471,-0.29441452,1.1838914,-2.794526,-0.08719496,3.0557666,0.30821228,-0.5228653,0.8717659,0.7470084,0.009663104,0.0723438,0.6607961,-0.76596445,0.42655197,0.77869254,1.0,0.0,0.0,0.0,0.0,0.0,0.0,-2.8975472,-0.105585486,-0.6338914,1.324892,0.7615328,5.2838683,-25.650433,0.5512595,0.25190115,0.38292408
43.551033,60.135532,20.380726,-13.019052,-2.1422186,-0.6031375,0.90271026,-0.7491178,0.7926,0.3777068,-0.36205772,0.704879,0.6199052,-0.45245358,1.4372634,-0.76178414,-1.7601312,-0.99412847,2.2201211,1.3413185,-1.0356389,1.4984537,-0.82697743,-1.7920101,-0.96290374,2.159685,1.2843157,-0.9940538,-1.3661364,1.4094056,0.60612905,-0.5535372,1.0072576,0.49918184,-0.36438453,2.2196236,-0.29528427,1.2136897,-2.791732,-0.08710778,2.9545257,0.30127335,-0.5180397,0.8791933,0.74957633,0.0031349848,0.071408875,0.6580472,-0.6638155,0.50869346,0.7256629,1.0,0.0,0.0,0.0,0.0,0.0,0.0,-2.8696237,-0.104715735,-0.6636897,2.4016857,1.0716677,6.7985654,-22.160738,0.759387,0.19471645,0.6800711
39.548805,60.912888,20.728817,-9.406828,-1.7954586,-0.494558,0.8237269,-0.74198055,0.79479915,0.42406183,-0.43983552,0.7024741,0.61590296,-0.41736454,1.4242557,-0.7474975,-1.7496039,-1.0068873,2.2299323,1.345906,-1.0357902,1.4849745,-0.8128211,-1.7853458,-0.9697969,2.1697786,1.2892653,-0.99761766,-1.3416892,1.4181545,0.6859757,-0.73473865,1.0112212,0.49527556,-0.3538991,2.1917267,-0.29615402,1.2424763,-2.788941,-0.08702069,2.8533862,0.2952633,-0.5124359,0.88617724,0.7513043,-0.0030061281,0.07069809,0.65615124,-0.5733079,0.5830002,0.6837376,1.0,0.0,0.0,0.0,0.0,0.0,0.0,-2.8417268,-0.103845984,-0.69247633,2.5032282,1.0033131,7.8134775,-18.14698,0.7133007,0.11417866,1.015991
34.439884,61.781376,21.006401,-4.7748985,-1.3756518,-0.33977634,0.69989085,-0.7258636,0.8000356,0.46642256,-0.48282793,0.700771,0.6146913,-0.37581092,1.4123881,-0.73281753,-1.7387035,-1.0180796,2.2398558,1.3507344,-1.0351988,1.4717604,-0.7985751,-1.7778594,-0.97810054,2.1799028,1.2941767,-1.0010533,-1.3143563,1.4273072,0.7686486,-0.86228544,1.0138776,0.491236,-0.3401261,2.1638584,-0.29702377,1.2702523,-2.7861526,-0.08693369,2.7523477,0.29004097,-0.5061531,0.89284587,0.7523096,-0.008893864,0.0701379,0.6550052,-0.49817094,0.6484059,0.65531886,1.0,0.0,0.0,0.0,0.0,0.0,0.0,-2.8138585,-0.10297623,-0.72025234,2.8071404,1.0638714,8.001685,-12.767542,0.6485939,0.050354004,1.3623476
27.97453,60.565132,20.423967,0.2573042,-0.87905216,-0.20606072,0.5476617,-0.7105736,0.80031884,0.5023346,-0.4984941,0.7042736,0.6136739,-0.33577737,1.4007031,-0.71854323,-1.727626,-1.0279499,2.2503302,1.3555441,-1.034631,1.4588286,-0.78425854,-1.7695835,-0.987252,2.1900537,1.2990481,-1.0043321,-1.2859892,1.4336481,0.84617776,-0.93283445,1.017147,0.48710394,-0.32376808,2.1360188,-0.29789352,1.2970186,-2.7833672,-0.08684678,2.6514103,0.28543472,-0.49930573,0.8993186,0.752733,-0.014657187,0.069655664,0.6544664,-0.4410132,0.70140547,0.6382085,1.0,0.0,0.0,0.0,0.0,0.0,0.0,-2.7860188,-0.10210648,-0.74701864,2.9059172,0.79746246,7.4328423,-7.081878,0.74899197,-0.012153387,1.6230941
18.905233,57.66702,18.701817,5.8799543,-0.35525307,-0.08308314,0.34015128,-0.71299875,0.80585974,0.5169306,-0.49648514,0.6989854,0.6129569,-0.2899692,1.3875287,-0.7036726,-1.7178904,-1.0369005,2.2599523,1.3603437,-1.033329,1.446097,-0.7698752,-1.76068,-0.99673057,2.2002199,1.3038775,-1.0074277,-1.2688429,1.440384,0.9041607,-0.9531395,1.0174487,0.48272195,-0.30471337,2.1082058,-0.29876328,1.3227764,-2.7805846,-0.08675995,2.5505736,0.28124428,-0.49203873,0.9056828,0.75275797,-0.020386675,0.069223784,0.65433,-0.4048125,0.7391311,0.62903386,1.0,0.0,0.0,0.0,0.0,0.0,0.0,-2.758206,-0.10123673,-0.7727764,1.7411947,0.84381104,5.4892898,-2.0957232,0.45280457,-0.10869503,1.8910587
12.494704,51.83317,15.951015,8.435644,-0.06210351,-0.15508011,0.20237444,-0.7173176,0.8036393,0.5222375,-0.5176576,0.69795424,0.6114269,-0.27162305,1.3743652,-0.6895113,-1.7084562,-1.0484964,2.2700152,1.3650202,-1.03459,1.4334399,-0.75545377,-1.7513759,-1.0062921,2.2103746,1.3086649,-1.0103345,-1.2646763,1.4431986,0.9383819,-0.9573973,1.0161448,0.47824407,-0.28610238,2.0804214,-0.29963303,1.3475267,-2.7778044,-0.0866732,2.449838,0.2773342,-0.4845047,0.91192734,0.75253206,-0.026070232,0.068868846,0.65442556,-0.3791274,0.7627311,0.61603504,1.0,0.0,0.0,0.0,0.0,0.0,0.0,-2.7304215,-0.10036698,-0.79752666,0.40314198,0.44522285,3.1694412,-0.53048134,0.24778843,-0.16873479,1.8431544
8.782929,47.048615,13.840374,9.423362,0.078480065,-0.2562298,0.13240561,-0.72274923,0.80203557,0.532284,-0.53444165,0.696723,0.6051733,-0.24538703,1.3611649,-0.67525023,-1.6981475,-1.0597363,2.280047,1.3691822,-1.0348732,1.4207464,-0.7410304,-1.741843,-1.0158899,2.2205064,1.3134047,-1.0130544,-1.271202,1.4425957,0.95743424,-0.9609505,1.0135121,0.47341576,-0.26746902,2.0526638,-0.30049896,1.3712703,-2.775027,-0.08658654,2.3492029,0.2736454,-0.476799,0.9180038,0.7521411,-0.031651605,0.068622544,0.6546546,-0.35787827,0.777126,0.59770954,1.0,0.0,0.0,0.0,0.0,0.0,0.0,-2.702664,-0.09950104,-0.8212703,-0.69491863,0.09562969,1.7042398,-0.4855156,0.07376671,-0.23520589,1.8445611
5.9824266,45.336807,13.240098,11.641645,0.30187047,-0.2146633,0.06981309,-0.71979,0.8012921,0.54713905,-0.5011837,0.69441634,0.61083513,-0.18149674,1.3487674,-0.6609012,-1.687129,-1.0660082,2.289948,1.3744882,-1.031204,1.4079806,-0.7266261,-1.7321556,-1.0253465,2.2306077,1.3181044,-1.0155625,-1.2786711,1.4402244,0.97183126,-0.94102407,1.0102909,0.46948865,-0.24518478,2.0249348,-0.30136108,1.3940083,-2.7722526,-0.086499974,2.2486684,0.27011108,-0.46899033,0.92393076,0.75164884,-0.03715586,0.06847278,0.6549465,-0.34446958,0.7856641,0.5837834,1.0,0.0,0.0,0.0,0.0,0.0,0.0,-2.6749349,-0.09863892,-0.84400827,-0.8082628,-0.0780344,1.2465119,1.8413663,0.015878677,-0.1707375,2.2022903
3.0959373,42.901917,12.267918,13.423554,0.49625707,-0.2037638,0.0031851046,-0.72976947,0.79880774,0.5492919,-0.48043457,0.6954202,0.6135759,-0.15543555,1.3350036,-0.6467453,-1.6772264,-1.07339,2.3001497,1.379462,-1.0311061,1.3951021,-0.71225804,-1.7223728,-1.034498,2.2406862,1.3227698,-1.0178475,-1.2913598,1.4362106,0.97983456,-0.90707064,1.0080116,0.46622747,-0.22298406,1.9972324,-0.3022232,1.4157416,-2.769481,-0.086413495,2.1482344,0.26665497,-0.4611435,0.929732,0.75111485,-0.042611174,0.068397336,0.65523475,-0.33784932,0.78808904,0.57159984,1.0,0.0,0.0,0.0,0.0,0.0,0.0,-2.6472325,-0.0977768,-0.86574155,-1.3553143,-0.2445221,0.6342411,3.2232285,0.09961128,-0.13191104,2.1879554
3.8738136,40.640026,11.444165,12.174054,0.4020161,-0.35191718,0.029352697,-0.7358906,0.7974085,0.54527617,-0.49768877,0.6992953,0.60387117,-0.117922,1.321513,-0.6325172,-1.6678451,-1.0842669,2.3106158,1.3831569,-1.0296397,1.3820864,-0.69793195,-1.7125671,-1.0434282,2.250757,1.3274008,-1.0199037,-1.3053269,1.431906,0.98022854,-0.8888059,1.0078311,0.4625523,-0.19997115,1.9695587,-0.30308533,1.4364713,-2.7667122,-0.086327106,2.047901,0.26330757,-0.4532776,0.9353656,0.75054234,-0.047965463,0.0684178,0.65551853,-0.3259761,0.7892347,0.55335414,1.0,0.0,0.0,0.0,0.0,0.0,0.0,-2.6195588,-0.09691468,-0.88647133,-1.4820814,-0.28192997,-0.09614229,1.6580343,0.27837753,-0.17386675,2.2720695
4.8911543,39.303078,11.132421,11.314091,0.33057564,-0.4433425,0.057164535,-0.7393453,0.7939218,0.5482175,-0.49458545,0.6985643,0.6132075,-0.0821727,1.3081518,-0.61853975,-1.6577454,-1.0928867,2.3206134,1.3887216,-1.0281209,1.3689429,-0.68365544,-1.702769,-1.0522401,2.2608278,1.3320051,-1.0217271,-1.3174483,1.426645,0.97925335,-0.87922674,1.0078303,0.46030283,-0.17651047,1.9419117,-0.30394745,1.4561986,-2.763946,-0.08624079,1.9476674,0.26010323,-0.4453926,0.9407944,0.7499108,-0.053178098,0.06855001,0.6558252,-0.3101764,0.7904228,0.53204656,1.0,0.0,0.0,0.0,0.0,0.0,0.0,-2.5919118,-0.09605256,-0.90619856,-1.2908936,-0.3820181,-0.22028685,0.7950902,0.2790451,-0.030529499,2.3173661
6.3373847,39.185677,11.453147,10.730474,0.2715577,-0.4950623,0.106490195,-0.7396914,0.79088104,0.55708325,-0.48778975,0.6987882,0.60468537,-0.00963226,1.2949737,-0.60456735,-1.6470608,-1.1010191,2.3307066,1.3924737,-1.0226903,1.3557154,-0.6694352,-1.6929443,-1.0609834,2.2708986,1.3365847,-1.0232854,-1.3248526,1.4209456,0.98297715,-0.87304044,1.0081428,0.4577235,-0.14902075,1.9142933,-0.30480957,1.4749242,-2.7611825,-0.086154565,1.8475342,0.2570839,-0.43749237,0.9460099,0.74917924,-0.058239397,0.068790756,0.6562061,-0.29098633,0.79343253,0.5107388,1.0,0.0,0.0,0.0,0.0,0.0,0.0,-2.5642934,-0.095190436,-0.9249242,-0.80661774,-0.4263878,0.24526119,0.46625137,0.31096935,-0.05979538,2.7193785
6.1176457,38.11036,11.078441,10.410883,0.23340839,-0.5423249,0.110725865,-0.75678194,0.7903356,0.5578412,-0.49901733,0.69852597,0.6095481,0.009626148,1.2800372,-0.59040165,-1.6371602,-1.1108851,2.3407512,1.3975395,-1.0223228,1.3423659,-0.6552617,-1.6830776,-1.0697477,2.2809732,1.3411433,-1.0245786,-1.3385705,1.4166025,0.98768914,-0.8779695,1.0082245,0.45592856,-0.12282502,1.8867016,-0.3056717,1.4926493,-2.758422,-0.08606843,1.747501,0.25426865,-0.4295578,0.9509934,0.74833834,-0.063124746,0.06915461,0.65667546,-0.2704481,0.7964086,0.48697466,1.0,0.0,0.0,0.0,0.0,0.0,0.0,-2.5367017,-0.094328314,-0.9426493,-1.4484406,-0.2945423,0.3686905,-0.64122677,0.27492046,0.010579824,2.5955453
5.300928,34.90059,9.704792,9.794978,0.22131181,-0.6608606,0.10292356,-0.7723752,0.7840421,0.5481452,-0.5170904,0.69655424,0.61810684,0.041624933,1.2651284,-0.5768575,-1.628263,-1.1214567,2.3506286,1.402954,-1.020416,1.3288275,-0.64114636,-1.6732128,-1.0786645,2.2910402,1.3456923,-1.0256143,-1.3592017,1.4102161,0.98576206,-0.8966519,1.0072094,0.45523334,-0.097128384,1.8591385,-0.3065338,1.5093747,-2.755664,-0.08598238,1.6475679,0.25166893,-0.42161942,0.9556934,0.7473997,-0.06777609,0.069673695,0.65722567,-0.24799772,0.7952124,0.45705804,1.0,0.0,0.0,0.0,0.0,0.0,0.0,-2.5091386,-0.09346619,-0.9593747,-2.1504164,-0.50668716,-0.2599001,-2.022028,0.13403893,0.109642744,2.548781
6.032795,33.025223,9.087521,8.756175,0.15591884,-0.77676857,0.1269698,-0.7781405,0.77785844,0.54859155,-0.5374191,0.6953819,0.6212066,0.071490586,1.2510134,-0.5633605,-1.6183536,-1.1324065,2.3605783,1.407813,-1.0184652,1.3150889,-0.6271121,-1.6633766,-1.087858,2.3010957,1.3502394,-1.0263982,-1.37906,1.4015504,0.9827532,-0.9272479,1.0054201,0.45514047,-0.07216517,1.8316021,-0.30739594,1.5251017,-2.7529092,-0.08589642,1.5477346,0.2493248,-0.4137001,0.9600613,0.7463559,-0.07213725,0.07036511,0.6578737,-0.22120015,0.7926318,0.42272627,1.0,0.0,0.0,0.0,0.0,0.0,0.0,-2.4816022,-0.09260407,-0.97510165,-2.0628452,-0.73947906,-0.35752058,-3.2077074,0.03631115,0.1689136,2.4764373
7.536692,36.138462,11.009374,9.989007,0.18324012,-0.6568531,0.17301568,-0.76914185,0.77910167,0.5727789,-0.5105553,0.6899624,0.6255376,0.19274297,1.2381747,-0.5492019,-1.6060987,-1.1389135,2.370092,1.4127932,-1.0071238,1.3012434,-0.6131436,-1.6534584,-1.0971906,2.3111207,1.3547884,-1.0268693,-1.3865238,1.3958371,0.994444,-0.93557686,1.0021367,0.4556611,-0.03872989,1.8040943,-0.30825424,1.539831,-2.7501566,-0.085810535,1.4480011,0.24723625,-0.4057579,0.96416324,0.74516267,-0.07628838,0.07119734,0.658668,-0.19622712,0.79622465,0.39870766,1.0,0.0,0.0,0.0,0.0,0.0,0.0,-2.4540944,-0.091745764,-0.98983103,-0.8074522,-0.43020248,1.0637879,-0.9674907,-0.06754398,0.23394227,3.3209405
7.2448516,36.246925,11.333572,11.073728,0.25448227,-0.6136745,0.15694058,-0.774581,0.77641755,0.5750605,-0.50488937,0.6887658,0.63156086,0.22770284,1.2237853,-0.53550184,-1.5959523,-1.1476796,2.3799973,1.4179446,-1.004099,1.2873503,-0.5992219,-1.6434047,-1.1065061,2.3211114,1.3593489,-1.0270047,-1.3904138,1.3913327,1.0084825,-0.9306943,0.99882877,0.4567315,-0.005366512,1.7766132,-0.30910873,1.5535638,-2.747407,-0.08572474,1.3483673,0.24537468,-0.39777374,0.9680603,0.7438134,-0.08030413,0.07214219,0.65961224,-0.17396015,0.80026,0.37925413,1.0,0.0,0.0,0.0,0.0,0.0,0.0,-2.4266133,-0.09089127,-1.0035639,-0.45378208,-0.3042698,1.2905359,0.35266876,-0.05697012,0.280416,3.3121116
6.140268,35.105778,11.162592,12.426007,0.39176047,-0.56865394,0.13648133,-0.7796068,0.76982737,0.58391947,-0.49065763,0.68736637,0.6342499,0.28674886,1.2093896,-0.52223915,-1.5850128,-1.1555718,2.389848,1.4227738,-0.9983298,1.2734228,-0.5853593,-1.6331928,-1.1156709,2.3310678,1.3639208,-1.0267968,-1.3938205,1.385038,1.0251924,-0.9121326,0.9959135,0.45793015,0.029460173,1.7491589,-0.30996323,1.566301,-2.7446601,-0.08563904,1.2488332,0.24370384,-0.38976288,0.97179186,0.7423233,-0.08423094,0.073168576,0.6606872,-0.15631475,0.8023547,0.36371028,1.0,0.0,0.0,0.0,0.0,0.0,0.0,-2.399159,-0.09003678,-1.0163009,-0.4169464,-0.48072338,1.5582085,1.711607,-0.00821352,0.28144717,3.4546506
6.1615753,33.79813,10.71826,12.263035,0.3777513,-0.6292938,0.12685171,-0.78037393,0.7673014,0.584962,-0.49374846,0.6836107,0.634654,0.30253378,1.1953855,-0.50862914,-1.5746965,-1.1650457,2.3994288,1.4273862,-0.99654347,1.2594687,-0.5715596,-1.6228416,-1.1246679,2.3409936,1.3685042,-1.0262647,-1.3960143,1.3787696,1.037923,-0.8960735,0.99231446,0.4589603,0.06115257,1.7217331,-0.31081772,1.5780435,-2.7419162,-0.085553415,1.1493986,0.2422142,-0.38173294,0.97535735,0.7407043,-0.08806716,0.07427212,0.66187984,-0.13716032,0.8033101,0.3467006,1.0,0.0,0.0,0.0,0.0,0.0,0.0,-2.3717332,-0.08918229,-1.0280435,-0.2933979,-0.48110485,1.1711359,1.4644027,-0.09109974,0.25952458,3.1420133
5.24219,31.926924,10.09704,12.989622,0.46662223,-0.64037204,0.10281828,-0.7815048,0.7610794,0.58868235,-0.4746045,0.67887384,0.64086133,0.34742284,1.1813182,-0.49545166,-1.5639733,-1.1721283,2.408881,1.4325902,-0.9915224,1.2454973,-0.55783623,-1.6123874,-1.133455,2.3508775,1.3731009,-1.0254178,-1.3977866,1.370671,1.0475252,-0.8733995,0.98774356,0.46034604,0.09247776,1.694334,-0.3116722,1.5887924,-2.7391748,-0.085467875,1.0500634,0.24090576,-0.3737259,0.97875935,0.7389743,-0.09181571,0.075449936,0.6631697,-0.12033526,0.8013778,0.3306071,1.0,0.0,0.0,0.0,0.0,0.0,0.0,-2.3443341,-0.088327795,-1.0387924,-0.25861263,-0.665164,0.86700916,2.1182895,-0.19236803,0.2843082,3.102304
5.2966194,30.099024,9.39536,12.610277,0.4627611,-0.7279215,0.09271303,-0.7780726,0.75580233,0.5854559,-0.47165212,0.67938334,0.64139414,0.35100973,1.16769,-0.482256,-1.5538418,-1.1806202,2.4188159,1.4372402,-0.9903168,1.2315317,-0.5442025,-1.6018894,-1.1420457,2.3607233,1.3777109,-1.0242887,-1.3963845,1.3614341,1.050313,-0.8547317,0.98405135,0.46158877,0.11960022,1.6669636,-0.3125267,1.5985488,-2.7364361,-0.085382424,0.9508276,0.23977852,-0.36574173,0.9819818,0.73715085,-0.09545453,0.07670258,0.66454023,-0.10144777,0.79696727,0.31203616,1.0,0.0,0.0,0.0,0.0,0.0,0.0,-2.3169637,-0.0874733,-1.0485487,0.068211555,-0.7833004,0.19314289,1.7200112,-0.122749805,0.26614666,2.6814654
4.5148754,28.453688,8.9623165,13.419831,0.57248497,-0.72106516,0.080407575,-0.7771364,0.74756104,0.59156364,-0.4485767,0.68011546,0.6427231,0.39551625,1.1538181,-0.4694464,-1.542733,-1.1869034,2.4287348,1.4419832,-0.98473704,1.217589,-0.53068036,-1.5913627,-1.1503961,2.3705423,1.3823324,-1.0228868,-1.3938469,1.3497125,1.0533432,-0.82904387,0.98184353,0.46268776,0.14672683,1.6396198,-0.3133812,1.6073135,-2.7337003,-0.08529706,0.851691,0.23881721,-0.35783005,0.985032,0.7352448,-0.09898989,0.07800636,0.6659812,-0.08542734,0.79011476,0.29537886,1.0,0.0,0.0,0.0,0.0,0.0,0.0,-2.28962,-0.08661881,-1.0573134,0.1765728,-1.0321379,0.22029877,2.4161577,0.027108192,0.24244785,2.679336
5.4492297,28.569641,9.1535845,12.697466,0.4799133,-0.77675873,0.10390995,-0.77465147,0.7463104,0.596248,-0.4536494,0.679557,0.64161825,0.40666503,1.1401238,-0.45604932,-1.5317379,-1.1957611,2.438498,1.4464942,-0.98222023,1.2036825,-0.5172574,-1.5807941,-1.1585653,2.3803422,1.3869616,-1.0212369,-1.3898542,1.3403214,1.0578141,-0.81324416,0.9803845,0.46349603,0.17105074,1.6123028,-0.3142357,1.6150876,-2.7309673,-0.08521178,0.7526535,0.23805046,-0.34996414,0.98790234,0.73324454,-0.10240588,0.07936569,0.66750765,-0.06554402,0.7853975,0.27701142,1.0,0.0,0.0,0.0,0.0,0.0,0.0,-2.2623029,-0.08576432,-1.0650876,0.33226013,-0.80156326,0.369215,1.4432669,0.09226799,0.21375418,2.4037929
5.8404555,28.742426,9.574954,13.163182,0.4923272,-0.76104367,0.11577901,-0.764859,0.7410216,0.6036666,-0.4302956,0.67705315,0.63429785,0.4443114,1.1271967,-0.44315523,-1.5204275,-1.2015948,2.4480476,1.4503914,-0.97680575,1.1898562,-0.5039241,-1.570153,-1.1665285,2.390127,1.3915926,-1.0193429,-1.3804747,1.3315592,1.0658066,-0.791195,0.97876173,0.46339348,0.19530681,1.5850143,-0.31509018,1.6218721,-2.7282367,-0.085126586,0.65371495,0.23747444,-0.34212875,0.99061084,0.7311325,-0.10572043,0.08076922,0.6691373,-0.045885563,0.7824538,0.2615732,1.0,0.0,0.0,0.0,0.0,0.0,0.0,-2.2350144,-0.08490983,-1.071872,0.8775711,-0.7357359,0.7100582,2.074647,0.084769726,0.120431185,2.3971856
4.927172,27.018984,8.720104,13.597906,0.5379074,-0.80406123,0.07617456,-0.76292026,0.7391129,0.5868478,-0.41581425,0.6732877,0.6361672,0.46918786,1.1135641,-0.43001276,-1.5114682,-1.2081099,2.4574556,1.4552094,-0.9724241,1.1761214,-0.49066058,-1.5595214,-1.1742513,2.3998888,1.3962218,-1.0172143,-1.3712616,1.3250512,1.0620031,-0.76648486,0.976031,0.46325707,0.21857597,1.5577526,-0.31594086,1.6276678,-2.725509,-0.08504148,0.5548754,0.23709679,-0.33434677,0.9931617,0.72893673,-0.108930275,0.082231976,0.6708378,-0.027023554,0.77649873,0.2457299,1.0,0.0,0.0,0.0,0.0,0.0,0.0,-2.2077527,-0.08405915,-1.0776677,0.8498907,-0.512743,-0.4510641,2.3359418,-0.039589405,0.10539293,2.2998662
4.286216,24.40772,7.721424,13.328667,0.59230995,-0.864274,0.07399929,-0.7622863,0.72732687,0.5897697,-0.4170955,0.67690086,0.63551736,0.47490695,1.0998927,-0.4179279,-1.5005444,-1.2159609,2.467579,1.4597735,-0.9697236,1.1624609,-0.47749415,-1.5489337,-1.1817892,2.4096353,1.4008509,-1.0148759,-1.364443,1.3142545,1.0576187,-0.74980235,0.9750265,0.46295905,0.23898521,1.5305176,-0.31678772,1.632476,-2.722784,-0.08495646,0.45613462,0.23690414,-0.32664108,0.99553025,0.7266733,-0.11200231,0.08374763,0.67259777,-0.0081352675,0.7667571,0.22689322,1.0,0.0,0.0,0.0,0.0,0.0,0.0,-2.1805177,-0.083212286,-1.0824759,0.61166286,-0.9475231,-0.4962206,1.5315413,0.11816025,0.081938505,2.0137339
4.315979,23.220694,7.4234977,13.16037,0.6034736,-0.89600855,0.08613576,-0.75478196,0.7203849,0.59183514,-0.41066942,0.6768373,0.63622266,0.4924952,1.0869827,-0.40545565,-1.4897503,-1.222856,2.477319,1.4644731,-0.96562636,1.1488806,-0.46445027,-1.5383766,-1.1891916,2.4193742,1.4054762,-1.0123429,-1.3560554,1.3015378,1.054857,-0.7374655,0.9745764,0.46272635,0.2578624,1.5033112,-0.31763458,1.6362973,-2.7200618,-0.084871516,0.35749263,0.23690987,-0.31904602,0.9977027,0.7243361,-0.11491478,0.08530139,0.6744297,0.011476654,0.75625825,0.20710973,1.0,0.0,0.0,0.0,0.0,0.0,0.0,-2.1533113,-0.08236542,-1.0862973,0.7767439,-1.1420488,-0.3340721,1.1018872,0.16748905,0.08483529,1.8610477
3.987509,21.912716,6.670482,12.4602375,0.54202366,-0.97293574,0.07571002,-0.76109546,0.7187934,0.58242327,-0.42370474,0.66940755,0.6386051,0.49702656,1.0727711,-0.3925709,-1.4801342,-1.231562,2.486315,1.4693367,-0.9626403,1.1353346,-0.4515156,-1.5278785,-1.1965787,2.4290903,1.4101015,-1.0096402,-1.3543059,1.2911608,1.0480348,-0.739683,0.9713724,0.46265262,0.27429762,1.4761314,-0.31848145,1.6391331,-2.7173421,-0.08478666,0.25894925,0.23712921,-0.31156158,0.99964505,0.72193855,-0.117622286,0.086925395,0.6763236,0.033763308,0.74446726,0.18301024,1.0,0.0,0.0,0.0,0.0,0.0,0.0,-2.1261315,-0.08151856,-1.089133,0.10390282,-0.9143114,-0.71144104,-0.34674406,-0.12882948,0.09230375,1.6223371
3.166866,20.309881,5.9925885,13.04077,0.6236081,-0.9870002,0.042653184,-0.7561699,0.7128469,0.5709477,-0.4099783,0.67246735,0.63756156,0.5016984,1.0597177,-0.3802309,-1.4707837,-1.2375766,2.496337,1.4738576,-0.9594704,1.1218077,-0.43868056,-1.517493,-1.2039602,2.4387872,1.414723,-1.0067906,-1.3523753,1.2813498,1.0352069,-0.738108,0.96956295,0.4624185,0.2884772,1.4489784,-0.3193283,1.6409842,-2.7146254,-0.084701896,0.1605044,0.23756218,-0.3042221,1.0013521,0.7195113,-0.12010763,0.08862591,0.67824996,0.054234784,0.7298877,0.15976265,1.0,0.0,0.0,0.0,0.0,0.0,0.0,-2.0989785,-0.0806717,-1.0909841,0.11241436,-0.8583069,-1.3021231,0.027799606,0.006198883,0.06459355,1.3980746
4.4287176,20.810724,6.3942676,11.90242,0.480723,-1.0464671,0.091068946,-0.74856526,0.7080094,0.5763529,-0.43081793,0.6609513,0.64023614,0.5165789,1.0469512,-0.36787963,-1.4598577,-1.247042,2.5048823,1.4787467,-0.9551327,1.1083285,-0.42593804,-1.5071971,-1.2114275,2.4484346,1.4193445,-1.0038056,-1.3466082,1.272316,1.0277019,-0.7498824,0.96370965,0.46248445,0.30178162,1.4218521,-0.32017517,1.6418515,-2.7119114,-0.084617205,0.06215798,0.2382412,-0.29698944,1.0028028,0.7170308,-0.1223496,0.09042223,0.6802361,0.08008453,0.71860665,0.1335274,1.0,0.0,0.0,0.0,0.0,0.0,0.0,-2.0718522,-0.079824835,-1.0918515,0.5243778,-0.782609,-0.7823229,-1.286304,-0.40615797,0.09714961,1.3126552
3.2614226,18.128242,5.222021,12.152204,0.58161986,-1.0770768,0.062093973,-0.7516337,0.69807804,0.5626432,-0.4339254,0.6619177,0.6445048,0.51309586,1.0331651,-0.35613024,-1.4509329,-1.25482,2.5146263,1.483795,-0.95249605,1.0948874,-0.41330615,-1.4970081,-1.2190282,2.4580324,1.4239699,-1.0007043,-1.3434926,1.2605261,1.0156959,-0.7638656,0.9586702,0.4629117,0.31266847,1.3947525,-0.32102203,1.6417361,-2.7092,-0.0845326,-0.036090113,0.23916435,-0.28990936,1.0039804,0.7145104,-0.12432376,0.092309356,0.6822737,0.10395302,0.7026185,0.105879135,1.0,0.0,0.0,0.0,0.0,0.0,0.0,-2.0447526,-0.07897797,-1.0917361,0.25234222,-1.0618687,-1.2194157,-1.5138984,-0.335598,0.120556355,1.0709941
2.743763,15.812216,4.1487675,11.657613,0.6065308,-1.158205,0.056967963,-0.7464835,0.6883747,0.547326,-0.45173422,0.6534401,0.6367315,0.520919,1.020239,-0.34446868,-1.4422755,-1.2642016,2.5233765,1.487643,-0.9486124,1.0814902,-0.4008135,-1.4869888,-1.2268293,2.4675615,1.4285933,-0.9975043,-1.338632,1.2458558,0.9972172,-0.7859498,0.9514461,0.46248743,0.32242048,1.3676815,-0.3218689,1.6406391,-2.7064912,-0.08444809,-0.13423999,0.24033928,-0.2830162,1.0048552,0.7119714,-0.12598526,0.094293,0.68434876,0.12914509,0.6826094,0.07481588,1.0,0.0,0.0,0.0,0.0,0.0,0.0,-2.0176816,-0.07813111,-1.0906391,0.44608116,-1.355195,-1.8702745,-2.321577,-0.5725026,0.027042627,0.9563744
2.9780865,13.90929,2.806202,9.031095,0.46343482,-1.3629353,0.08005542,-0.75037247,0.6821784,0.5275135,-0.51545966,0.65027004,0.64371717,0.504555,1.0064529,-0.33259565,-1.4342375,-1.2783753,2.5325885,1.492965,-0.9470488,1.0681158,-0.38846865,-1.4772193,-1.2351148,2.4770143,1.4332186,-0.99423033,-1.3370639,1.2310501,0.97011495,-0.84294784,0.9438393,0.46263996,0.32893124,1.3406372,-0.32271576,1.6385612,-2.7037854,-0.08436366,-0.23229171,0.24183083,-0.27635193,1.0053294,0.7094192,-0.12720492,0.096417025,0.6864743,0.16253315,0.6583104,0.031974513,1.0,0.0,0.0,0.0,0.0,0.0,0.0,-1.9906372,-0.07728425,-1.0885613,0.16379356,-1.3821363,-2.7304292,-5.7889104,-0.6612301,0.076788664,0.6356001
3.846712,13.412781,2.990091,7.9568677,0.39338094,-1.4033368,0.14861955,-0.7370516,0.6649367,0.5358116,-0.5487978,0.6347844,0.64255834,0.52214175,0.9944107,-0.321975,-1.4236382,-1.2899946,2.5404928,1.4974744,-0.9420161,1.0548102,-0.37631598,-1.4676406,-1.2440717,2.4863603,1.4378439,-0.99088866,-1.3281095,1.2103251,0.9536537,-0.91357166,0.931916,0.46267644,0.33579403,1.3136196,-0.3235588,1.6355036,-2.701082,-0.08427931,-0.3302454,0.24367905,-0.26992416,1.0053492,0.706808,-0.12791744,0.09868376,0.68870974,0.19937494,0.63534707,-0.014348457,1.0,0.0,0.0,0.0,0.0,0.0,0.0,-1.9636196,-0.0764412,-1.0855036,0.9615421,-1.9755602,-1.7148733,-7.131648,-1.0976195,0.06082058,0.6695509
2.3496819,9.998471,1.6456084,8.491682,0.5252895,-1.3935148,0.12364363,-0.7332892,0.64425904,0.5179777,-0.57376945,0.6076549,0.6484736,0.5250222,0.98148125,-0.31189007,-1.4158429,-1.3014487,2.5471258,1.5026913,-0.93838644,1.0416056,-0.3644289,-1.458245,-1.2537267,2.4955194,1.442473,-0.987485,-1.3174317,1.1818136,0.9346091,-0.9829279,0.91121054,0.46308908,0.34182626,1.2866287,-0.32439804,1.6314672,-2.6983814,-0.084195055,-0.42810118,0.2458744,-0.26374817,1.0048988,0.7041404,-0.12811431,0.10108557,0.6910533,0.23242173,0.6074501,-0.061383694,1.0,0.0,0.0,0.0,0.0,0.0,0.0,-1.9366287,-0.075601965,-1.0814672,1.1506557,-2.7578592,-1.9911051,-7.0133567,-1.9825578,0.07779598,0.58029294
0.20851207,5.4295745,-0.3257022,8.951604,0.7277434,-1.3957574,0.081558265,-0.7352891,0.618159,0.50214064,-0.61720276,0.59355384,0.64855164,0.49835545,0.9680767,-0.30261302,-1.408031,-1.315447,2.554875,1.5073283,-0.9376494,1.028483,-0.352899,-1.4490631,-1.2641008,2.5044534,1.4471041,-0.9840489,-1.3103116,1.1436291,0.91230386,-1.0560402,0.8876987,0.46325165,0.34416568,1.2596645,-0.32523727,1.6264529,-2.6956837,-0.08411088,-0.5258591,0.2483654,-0.2579193,1.0039635,0.70145744,-0.1277727,0.10359101,0.6934699,0.26027367,0.57150626,-0.11039074,1.0,0.0,0.0,0.0,0.0,0.0,0.0,-1.9096645,-0.07476273,-1.076453,0.8039236,-3.7337303,-2.3206234,-7.400155,-2.2790432,0.025182962,0.20495653
-0.79736555,3.1381164,-0.7950969,9.979881,0.86151886,-1.307724,0.08075009,-0.72764224,0.5895712,0.50669205,-0.64884156,0.56246513,0.6394435,0.49797714,0.9557188,-0.29394186,-1.3983939,-1.328985,2.5607,1.5110484,-0.9342512,1.0154406,-0.34181586,-1.4400356,-1.275173,2.5130975,1.4517294,-0.98059565,-1.301902,1.0968621,0.8990402,-1.1245568,0.85710144,0.46227366,0.34555584,1.232727,-0.3260765,1.6204618,-2.6929884,-0.08402678,-0.62351936,0.25109673,-0.25244904,1.0025548,0.6987662,-0.12691085,0.10616688,0.69595116,0.28290308,0.53446335,-0.1568958,1.0,0.0,0.0,0.0,0.0,0.0,0.0,-1.882727,-0.0739235,-1.0704618,0.9371042,-4.5930624,-1.4371991,-6.9471836,-2.9759765,-0.10844469,0.106817484
-1.6475958,2.3825707,-0.8939743,11.135946,1.006227,-1.2194592,0.057145305,-0.7331947,0.57229596,0.50366545,-0.6834079,0.57554746,0.6297651,0.47419608,0.9421211,-0.28458625,-1.3896691,-1.3435137,2.5706522,1.5147059,-0.93317604,1.0024344,-0.33118716,-1.4310997,-1.2869031,2.5215242,1.4563357,-0.97714907,-1.3002175,1.0517945,0.8916321,-1.1895403,0.83810735,0.460089,0.34419295,1.2058182,-0.32691574,1.6134949,-2.690296,-0.08394278,-0.721082,0.2540264,-0.24736023,1.0007058,0.69608045,-0.12554859,0.10875419,0.6984855,0.30035037,0.49696115,-0.19990939,1.0,0.0,0.0,0.0,0.0,0.0,0.0,-1.8558182,-0.073084265,-1.0634949,0.2256155,-4.4235706,-0.8240223,-6.597233,-1.8087983,-0.25218725,-0.15954971
-2.2907314,-2.2498488,-1.4162059,12.184135,1.2163348,-1.075975,0.13924672,-0.6928062,0.49953613,0.52506495,-0.7081711,0.5059035,0.62942845,0.50191855,0.93315375,-0.28123355,-1.3785932,-1.3577203,2.5721145,1.5192785,-0.9269572,0.9896157,-0.32123318,-1.4221027,-1.2992151,2.5296152,1.4609209,-0.9736987,-1.2751831,0.97688454,0.9016999,-1.2456877,0.79970837,0.45794344,0.345238,1.178936,-0.32775497,1.605553,-2.6876063,-0.08385885,-0.81854707,0.25707817,-0.24264908,0.99844915,0.6933301,-0.123752795,0.11125873,0.70114195,0.31069994,0.45793712,-0.23981729,1.0,0.0,0.0,0.0,0.0,0.0,0.0,-1.828936,-0.07224503,-1.055553,2.6510715,-7.4083686,0.7936239,-5.725932,-3.7154913,-0.25082827,0.069499016
-5.0724554,-7.259906,-3.2711577,14.620922,1.564056,-0.9375793,0.07194697,-0.6879208,0.45630556,0.5055778,-0.71569955,0.4808986,0.6231059,0.50390863,0.9208236,-0.27560264,-1.371545,-1.370785,2.577705,1.5232315,-0.92330784,0.9770596,-0.31211177,-1.4130714,-1.3119543,2.5372941,1.4654814,-0.9702359,-1.2486912,0.89078814,0.90290153,-1.2838029,0.7574257,0.45518506,0.3465201,1.1520805,-0.3285942,1.5966372,-2.684919,-0.083775006,-0.9159147,0.260149,-0.23838806,0.9958369,0.69053096,-0.12159051,0.11360848,0.7039004,0.30929005,0.41196385,-0.27354813,1.0,0.0,0.0,0.0,0.0,0.0,0.0,-1.8020805,-0.0714058,-1.0466373,2.7636766,-8.534479,-0.08120537,-3.9523363,-4.100132,-0.3383577,0.089114904
-8.73167,-15.042315,-6.6958313,16.223354,1.9833808,-0.8910426,-0.00039854646,-0.6651486,0.38790274,0.47174045,-0.7341118,0.44078228,0.6126133,0.51335555,0.91054475,-0.27332148,-1.3658973,-1.3853655,2.5813723,1.5267427,-0.9189003,0.9648278,-0.303996,-1.4042041,-1.3250101,2.5444963,1.4700056,-0.966754,-1.2142895,0.7853727,0.88057345,-1.3133031,0.7082257,0.45135632,0.34857342,1.1252518,-0.32943344,1.5867485,-2.6822348,-0.083691254,-1.0131849,0.26312828,-0.2346878,0.99289453,0.687754,-0.119076096,0.11574101,0.7066961,0.29676145,0.35179293,-0.30572495,1.0,0.0,0.0,0.0,0.0,0.0,0.0,-1.7752517,-0.070566565,-1.0367484,3.5783052,-10.484922,-2.457893,-3.1148434,-4.818094,-0.47816634,0.1547277
-19.568447,-40.295948,-17.541758,19.618206,3.453512,-0.82926,-0.14178514,-0.6189177,0.21706027,0.40305707,-0.7341769,0.43183625,0.5797487,0.51312876,0.902936,-0.28228998,-1.3638984,-1.3984277,2.5876799,1.5279804,-0.91544116,0.95309377,-0.29751912,-1.3958976,-1.3382528,2.5512636,1.4744688,-0.96325403,-1.1589168,0.60175306,0.8128867,-1.3285607,0.6663198,0.44387817,0.35010177,1.0984497,-0.33027267,1.5758878,-2.679553,-0.08360758,-1.1103579,0.2657261,-0.231987,0.9896326,0.6851375,-0.11615843,0.11732376,0.70945674,0.24949436,0.24046339,-0.3370157,1.0,0.0,0.0,0.0,0.0,0.0,0.0,-1.7484497,-0.06972733,-1.0258877,5.801964,-18.36232,-7.115972,-1.7578363,-4.1541457,-0.915426,0.06886721
-42.966564,-98.87294,-41.892475,24.466837,6.490061,-0.69015986,-0.3082861,-0.52906996,-0.17468797,0.30295345,-0.75150585,0.30975688,0.5350346,0.5229905,0.9001868,-0.31498793,-1.3656023,-1.4134034,2.5822392,1.5279723,-0.91095495,0.94226766,-0.29445735,-1.3887126,-1.3516481,2.5573366,1.4788176,-0.9597369,-1.0551232,0.2071872,0.68470836,-1.3442931,0.58756274,0.43049732,0.3516676,1.0716743,-0.3311081,1.5640562,-2.676874,-0.08352399,-1.2074338,0.26730537,-0.23122406,0.9859828,0.6828766,-0.11268744,0.11761697,0.71214277,0.1289609,0.018645065,-0.37731197,1.0,0.0,0.0,0.0,0.0,0.0,0.0,-1.7216743,-0.06889191,-1.0140562,11.005282,-39.587505,-13.530958,-1.8780708,-7.9737663,-1.7010987,0.001502037
-59.331207,-140.45093,-61.332832,26.059698,7.6381884,-0.85723215,-0.585466,-0.28982475,-0.5064428,-0.012016773,-0.7286732,-0.29557103,0.50676066,0.5427486,0.9132852,-0.34510162,-1.3899143,-1.4245154,2.5277796,1.5294937,-0.905462,0.9334767,-0.29647198,-1.3841426,-1.3650377,2.560888,1.4830023,-0.9561959,-0.8179282,-0.3384838,0.37836972,-1.3377266,0.277213,0.4124401,0.35405105,1.0449257,-0.3319397,1.5512544,-2.6741977,-0.08344048,-1.3044126,0.2674675,-0.23320007,0.981776,0.6812375,-0.10863303,0.11668682,0.7144918,-0.02171649,-0.27064916,-0.43657172,1.0,0.0,0.0,0.0,0.0,0.0,0.0,-1.6949257,-0.06806031,-1.0012543,24.475193,-54.810947,-31.438452,0.50001144,-31.291092,-2.4411917,-0.013577938
-34.698116,-107.50581,-42.71979,18.10943,5.4720025,-1.1672674,0.15273093,0.2915837,-0.66357577,-0.25387162,-0.6953032,-0.47911963,0.5225904,0.52501583,0.96263504,-0.36282957,-1.4095298,-1.434568,2.5129762,1.5352614,-0.90369433,0.9294951,-0.30378094,-1.3834331,-1.3781545,2.5609415,1.4870344,-0.9526387,-0.25896594,-0.8622805,-0.031233974,-1.30263,-0.08528491,0.39826167,0.35581592,1.0182037,-0.3327713,1.5374836,-2.671524,-0.08335706,-1.4012945,0.2666664,-0.23751068,0.9769423,0.6796705,-0.104182184,0.11477217,0.71695286,-0.10144195,-0.4833205,-0.49919024,1.0,0.0,0.0,0.0,0.0,0.0,0.0,-1.6682037,-0.067228705,-0.98748356,55.669064,-52.569378,-40.899914,3.586483,-36.319656,-1.9866049,0.05428195
-14.9500475,-66.93138,-25.423277,11.715772,3.3490705,-1.495914,0.41374516,0.5215801,-0.7436339,-0.45568198,-0.69233096,-0.52761346,0.57598585,0.45726627,0.9816531,-0.37814432,-1.4290013,-1.4473876,2.5081801,1.544633,-0.9069121,0.93158174,-0.31536952,-1.3870151,-1.3909051,2.55776,1.4909865,-0.9491101,0.35935187,-1.25829,-0.46272936,-1.2652259,-0.39600527,0.39243403,0.35186687,0.9915085,-0.3336029,1.5227447,-2.668853,-0.08327372,-1.4980794,0.26556206,-0.24343872,0.9714503,0.67774785,-0.09943118,0.11218976,0.7198505,-0.11555529,-0.62556756,-0.5667713,1.0,0.0,0.0,0.0,0.0,0.0,0.0,-1.6415085,-0.0663971,-0.97274464,60.291553,-39.777493,-41.81741,3.8826227,-31.081486,-1.0810554,-0.3779173
-2.7933803,-30.333773,-12.822796,7.607435,1.7153094,-1.7694777,0.3007514,0.58432585,-0.7734962,-0.6057435,-0.7075162,-0.5146706,0.59301853,0.36247537,0.9900143,-0.39271915,-1.4475894,-1.4616568,2.5062928,1.5502883,-0.91286254,0.93886876,-0.32966748,-1.3945873,-1.403425,2.552244,1.4949118,-0.9456921,0.8457749,-1.4875202,-0.85002834,-1.2470841,-0.60382885,0.3911863,0.33883533,0.96483994,-0.3344345,1.5070387,-2.666185,-0.08319046,-1.5947676,0.2646351,-0.25039673,0.96526974,0.6754939,-0.09430026,0.1093317,0.723092,-0.08402144,-0.71554184,-0.63821214,1.0,0.0,0.0,0.0,0.0,0.0,0.0,-1.6148399,-0.0655655,-0.9570387,46.82709,-23.086906,-37.111164,1.9343853,-20.812237,-0.5496681,-1.2201488
5.7930365,0.48840618,-0.8312917,6.483507,0.54547554,-1.6213479,0.19828728,0.5917087,-0.79139113,-0.62045646,-0.73152226,-0.45537034,0.5940445,0.25524488,0.9980396,-0.4088066,-1.456633,-1.4765772,2.506707,1.5543163,-0.9201676,0.94949555,-0.34521618,-1.4050071,-1.4159734,2.5455034,1.4988409,-0.9424811,1.1311786,-1.5777535,-1.1027707,-1.2572609,-0.69762665,0.39241323,0.31556365,0.9381981,-0.3352661,1.4903665,-2.6635191,-0.08310729,-1.6913592,0.26415062,-0.25786972,0.9584474,0.6730224,-0.08873064,0.106446706,0.72652376,-0.031921722,-0.75363094,-0.70242774,1.0,0.0,0.0,0.0,0.0,0.0,0.0,-1.5881981,-0.06473389,-0.94036645,27.402771,-9.148598,-24.301125,-0.9469032,-9.435987,-0.17815232,-2.232647
10.911638,22.43568,9.391207,8.870328,-0.22949696,-1.1216866,0.110192105,0.60269755,-0.7986814,-0.60399926,-0.7234222,-0.4685691,0.6104564,0.13374718,1.0097653,-0.42508432,-1.465407,-1.4883157,2.4986465,1.5598866,-0.92910635,0.96170354,-0.36098853,-1.416867,-1.4286497,2.5382745,1.5028044,-0.93958384,1.2496891,-1.5773516,-1.2130799,-1.2709062,-0.7317563,0.39713988,0.28130978,0.91158295,-0.33609772,1.4727291,-2.6608562,-0.083024204,-1.7878542,0.26417732,-0.2653656,0.95114386,0.6704096,-0.08284561,0.1036988,0.7300234,0.020671688,-0.743818,-0.7468243,1.0,0.0,0.0,0.0,0.0,0.0,0.0,-1.5615829,-0.06390229,-0.9227291,11.53965,-0.04901886,-10.809183,-1.3389587,-3.5110116,0.3191054,-3.3664346
16.2113,37.494873,18.275759,10.351638,-0.6857309,-0.6866529,0.20113438,0.65775746,-0.8037667,-0.5716748,-0.7354538,-0.40957215,0.5889858,0.008686019,1.0274793,-0.4413652,-1.4740345,-1.502195,2.4973173,1.561703,-0.9387152,0.97449994,-0.37645045,-1.4289501,-1.4415128,2.5311372,1.5068022,-0.9371014,1.2898494,-1.5360343,-1.2074226,-1.2915889,-0.7079973,0.40067962,0.23749097,0.8849945,-0.33692932,1.4541276,-2.658196,-0.0829412,-1.8842528,0.2647133,-0.27249146,0.9435376,0.66758436,-0.07680162,0.1010515,0.73363554,0.07197757,-0.69754076,-0.7729912,1.0,0.0,0.0,0.0,0.0,0.0,0.0,-1.5349945,-0.063070685,-0.90412754,4.1177273,4.0742874,0.39675236,-2.0947218,2.2778153,0.30103922,-4.3168635
18.094719,43.460087,22.971176,12.961747,-0.57686967,-0.31148434,0.2683494,0.69584507,-0.80174303,-0.5443202,-0.72568,-0.30034018,0.5809069,-0.065872714,1.0440844,-0.45662475,-1.4833821,-1.5140808,2.5011032,1.5648929,-0.9436887,0.987468,-0.39143077,-1.4404781,-1.4545057,2.5246675,1.5108305,-0.93507963,1.3000014,-1.4855356,-1.1355039,-1.3018426,-0.6268667,0.4036578,0.1907751,0.85843277,-0.33776093,1.4345628,-2.6555383,-0.08285827,-1.9805548,0.26568794,-0.27905273,0.9358055,0.6644519,-0.070738,0.09827677,0.737456,0.11340978,-0.6372014,-0.7806797,1.0,0.0,0.0,0.0,0.0,0.0,0.0,-1.5084327,-0.06223908,-0.8845628,1.2698174,5.001354,6.8992853,-1.0672092,8.015978,0.31738877,-4.587311
17.018824,42.28907,23.540134,14.986442,-0.19256312,-0.10230468,0.3156704,0.7125465,-0.8023134,-0.51483244,-0.7246512,-0.19309707,0.560205,-0.031822797,1.0587226,-0.4716621,-1.4919614,-1.5269709,2.5053577,1.566851,-0.9382619,1.0004629,-0.40599003,-1.4510906,-1.4675443,2.5193155,1.5148703,-0.9334546,1.3002594,-1.4462856,-1.0374143,-1.3047103,-0.5053559,0.4043856,0.15339932,0.83189774,-0.3385887,1.4140356,-2.6528833,-0.08277543,-2.0767603,0.26699066,-0.28504562,0.9280683,0.6609479,-0.064718686,0.09510975,0.7415615,0.1431777,-0.5810112,-0.7782883,1.0,0.0,0.0,0.0,0.0,0.0,0.0,-1.4818977,-0.06141129,-0.86403555,0.30667782,3.8736343,9.509897,-0.30870438,12.060285,0.12280345,-3.637451
9.713216,31.878239,16.911148,16.517572,0.46557713,-0.14681724,0.17901257,0.68975586,-0.8024261,-0.5553885,-0.73034155,-0.158263,0.53733575,0.1471147,1.0694385,-0.48623264,-1.5066295,-1.5405785,2.5034893,1.5686039,-0.91874313,1.0133108,-0.4202856,-1.4610565,-1.4806001,2.5151384,1.5188967,-0.9320231,1.2805305,-1.4241775,-0.98391,-1.3058368,-0.38896462,0.4020628,0.14006686,0.8053894,-0.3394127,1.392547,-2.650231,-0.082692675,-2.1728697,0.2684822,-0.29070282,0.92030776,0.657177,-0.05865463,0.09147611,0.745862,0.1577271,-0.55455947,-0.7814516,1.0,0.0,0.0,0.0,0.0,0.0,0.0,-1.4553894,-0.060587317,-0.842547,-1.6653776,2.1376848,5.0709605,-0.059127808,11.515063,-0.21523833,-1.2595862
6.033448,27.33491,13.784017,17.452822,0.2603255,-0.106904745,0.050556596,0.6841146,-0.7967457,-0.55412096,-0.7130739,-0.36006218,0.57092303,0.19797407,1.0817223,-0.49996018,-1.5164685,-1.5519075,2.4791322,1.575989,-0.9122257,1.025926,-0.43444386,-1.4707191,-1.4935739,2.5112855,1.5229212,-0.9306479,1.256111,-1.4133544,-0.9612686,-1.2942222,-0.3848043,0.4025955,0.1367477,0.7789078,-0.34023666,1.3700981,-2.6475813,-0.082609996,-2.268883,0.27010727,-0.29610825,0.91248035,0.65326494,-0.052586902,0.087739974,0.75018746,0.16998832,-0.5306418,-0.7888825,1.0,0.0,0.0,0.0,0.0,0.0,0.0,-1.4289078,-0.059763342,-0.8200981,-2.1571398,0.9992361,2.0239353,1.2493849,0.27318597,0.036156178,-0.31904876
3.4571998,23.52173,10.659689,16.560287,0.091884315,-0.22343948,-0.022942863,0.67639387,-0.79391676,-0.57596123,-0.7244991,-0.46257156,0.54949564,0.2631357,1.0935653,-0.51383555,-1.5283152,-1.5660238,2.4650283,1.5778707,-0.90433437,1.038297,-0.44855013,-1.4804275,-1.506479,2.5069177,1.5269343,-0.9292384,1.231718,-1.4100435,-0.9746641,-1.2888342,-0.45470455,0.40063354,0.14231001,0.75245094,-0.34106064,1.3466898,-2.6449342,-0.08252741,-2.3648005,0.27187157,-0.30133057,0.90449715,0.6493013,-0.04650384,0.08429083,0.7544138,0.1843926,-0.51229185,-0.80675477,1.0,0.0,0.0,0.0,0.0,0.0,0.0,-1.4024509,-0.058939368,-0.7966898,-2.1838903,0.24297237,-1.5553355,0.65801144,-7.148719,-0.26706457,0.53539574
0.9389119,19.497074,8.033822,17.283699,0.3357196,-0.23248097,-0.10270188,0.6815488,-0.80314016,-0.6102259,-0.69892055,-0.47290173,0.5822959,0.24936768,1.106452,-0.52886415,-1.5414501,-1.5763711,2.4596276,1.5851638,-0.9043016,1.050506,-0.46270362,-1.4905059,-1.5192297,2.5017526,1.5309511,-0.92777735,1.2181066,-1.4174534,-1.0193846,-1.2700948,-0.5380248,0.40179706,0.14722145,0.7260208,-0.3418846,1.3223231,-2.6422899,-0.08244489,-2.4606218,0.27374268,-0.3064537,0.8963189,0.6453715,-0.040396746,0.08122225,0.7584634,0.19370645,-0.5058076,-0.82675654,1.0,0.0,0.0,0.0,0.0,0.0,0.0,-1.3760208,-0.058115393,-0.7723231,-1.1644125,-0.8439541,-4.6176195,2.016759,-8.513528,0.027006865,0.46441555
0.09921265,18.23341,6.978466,16.47662,0.43120074,-0.2729469,-0.10088566,0.6655535,-0.80694,-0.62724334,-0.70991385,-0.48525423,0.56992453,0.26881197,1.1170614,-0.5433976,-1.5532303,-1.590221,2.4532273,1.5879436,-0.90089613,1.06257,-0.47696295,-1.5010993,-1.531862,2.4958246,1.5349718,-0.92625624,1.2029862,-1.4290925,-1.0731345,-1.2604511,-0.6119325,0.4016871,0.15367173,0.6996174,-0.3427086,1.2969989,-2.639648,-0.082362466,-2.5563474,0.27570534,-0.31155014,0.8878985,0.64150274,-0.03420555,0.078499906,0.7623267,0.2021364,-0.50497705,-0.85226977,1.0,0.0,0.0,0.0,0.0,0.0,0.0,-1.3496174,-0.05729142,-0.74699885,-1.3211727,-1.2702227,-5.520606,1.1251688,-7.580924,-0.120317936,0.6250799
1.3009171,20.411228,8.5762615,15.812632,0.3439352,-0.19342488,-0.054826416,0.65205413,-0.8112518,-0.61825126,-0.7139697,-0.5099548,0.58248335,0.21241884,1.1277754,-0.5580881,-1.5629245,-1.603259,2.444829,1.5932201,-0.90501434,1.0744623,-0.49134627,-1.5120914,-1.5444582,2.489248,1.5390002,-0.92471796,1.1851631,-1.4417272,-1.108498,-1.2587718,-0.6733447,0.40279913,0.15390009,0.67324066,-0.34353256,1.2707181,-2.637009,-0.082280114,-2.6519773,0.27775002,-0.31660843,0.87922543,0.6376613,-0.027913628,0.07605927,0.7660442,0.21072686,-0.49848655,-0.87749094,1.0,0.0,0.0,0.0,0.0,0.0,0.0,-1.3232406,-0.056467444,-0.7207181,-1.5856504,-1.3648748,-3.7008762,0.3266096,-6.327808,0.003260374,0.015980005
4.428746,24.366253,11.283214,14.099901,0.14532518,-0.18730144,0.069609985,0.6564741,-0.8129156,-0.61707103,-0.73172665,-0.49994922,0.5778865,0.23204005,1.1401097,-0.57263786,-1.5737985,-1.6176308,2.439253,1.5967888,-0.90151393,1.0862325,-0.50583506,-1.5232971,-1.5571535,2.482248,1.5430342,-0.9231673,1.1750344,-1.4515762,-1.1252402,-1.2724731,-0.7092214,0.40333873,0.15552211,0.64689064,-0.34435654,1.2434818,-2.6343725,-0.08219785,-2.7475116,0.27992058,-0.32152176,0.87029344,0.63373524,-0.021492735,0.07380204,0.7697214,0.22442234,-0.48267847,-0.9035309,1.0,0.0,0.0,0.0,0.0,0.0,0.0,-1.2968906,-0.05564347,-0.69348174,-0.83048344,-1.0741234,-1.8531799,-1.2257338,-3.758514,-0.06042123,0.18235147
3.1811476,26.336775,12.682421,15.7718525,0.19755644,0.077897705,0.04540117,0.60783654,-0.813277,-0.59759444,-0.7163232,-0.5337361,0.58473825,0.23340593,1.1470162,-0.58716273,-1.5830566,-1.6287857,2.4288745,1.601508,-0.8998267,1.0977224,-0.520391,-1.534476,-1.5699232,2.4749238,1.5470797,-0.92160136,1.1410898,-1.4573039,-1.1162035,-1.2778176,-0.74058056,0.40479398,0.15694754,0.6205673,-0.3451805,1.2152908,-2.6317387,-0.08211567,-2.8429506,0.28217125,-0.32625198,0.86116856,0.62970454,-0.015009615,0.07168135,0.7733748,0.22962025,-0.46255368,-0.9204713,1.0,0.0,0.0,0.0,0.0,0.0,0.0,-1.2705673,-0.054819494,-0.6652908,-3.1547308,-0.6611347,0.6899595,-0.39038658,-3.319931,0.064343214,0.15463829
0.25990915,24.818817,10.967618,16.184616,0.42230076,0.12877253,-0.043968074,0.5740672,-0.8142763,-0.62988776,-0.7285492,-0.53166854,0.58103645,0.20880878,1.1551291,-0.6018186,-1.5974648,-1.642778,2.421757,1.6051834,-0.9007205,1.1087488,-0.5349822,-1.5456607,-1.5827749,2.4673822,1.5511385,-0.9200421,1.0906758,-1.4600168,-1.1200601,-1.2870922,-0.75942636,0.40579873,0.15566698,0.5942707,-0.3460045,1.1861461,-2.6291075,-0.082033575,-2.9382942,0.28442383,-0.3308525,0.8518559,0.6256543,-0.008445377,0.06965931,0.7769382,0.22808664,-0.45112517,-0.93975514,1.0,0.0,0.0,0.0,0.0,0.0,0.0,-1.2442707,-0.05399552,-0.6361461,-4.7653913,-0.3648281,-0.61819553,-0.7594347,-2.0861387,0.019067526,-0.122374296
-1.6557698,25.085876,11.030154,17.087563,0.5319989,0.29710308,-0.06662676,0.53117436,-0.81649935,-0.61345375,-0.72992724,-0.54371274,0.58394796,0.24574336,1.1618662,-0.61663216,-1.6070061,-1.6557676,2.4130108,1.6095333,-0.89546776,1.1191438,-0.54959345,-1.5568149,-1.5957067,2.4596803,1.5552069,-0.9184695,1.023564,-1.4617871,-1.1147444,-1.2945328,-0.7741348,0.40708438,0.1578308,0.5679989,-0.34682083,1.1560488,-2.626479,-0.08195156,-3.0335424,0.28660583,-0.33535385,0.842374,0.6216289,-0.0018032026,0.067708686,0.78037786,0.2193985,-0.44095185,-0.9556173,1.0,0.0,0.0,0.0,0.0,0.0,0.0,-1.2179989,-0.053179175,-0.60604876,-6.4056873,-0.2722025,0.28235912,-0.56688786,-1.685226,0.06172657,0.21821558
-8.053312,21.410095,7.5455055,18.594395,0.9262753,0.44858631,-0.24459419,0.4451477,-0.81556267,-0.63784194,-0.73853296,-0.55770075,0.58163726,0.2022892,1.1636586,-0.6311497,-1.6205992,-1.66956,2.4039102,1.6133707,-0.89824057,1.128591,-0.5642085,-1.568032,-1.6087282,2.4518335,1.5592867,-0.9169083,0.919628,-1.461873,-1.1248456,-1.304048,-0.7886918,0.4079985,0.15551239,0.54175377,-0.34763718,1.1249996,-2.623853,-0.081869625,-3.1286952,0.28860283,-0.33985138,0.83271,0.61778855,0.0049498724,0.06582784,0.7835683,0.19651218,-0.44553077,-0.9744263,1.0,0.0,0.0,0.0,0.0,0.0,0.0,-1.1917537,-0.05236283,-0.57499963,-10.016274,-0.1172781,-1.2969494,-0.73103905,-1.7045856,0.028902292,-0.2536595
-18.30066,15.944233,2.4048042,20.953278,1.5335656,0.7303592,-0.52161634,0.30218554,-0.81235355,-0.6524474,-0.7583358,-0.55712134,0.57912844,0.08408886,1.1588095,-0.64544386,-1.6332768,-1.6845617,2.3961213,1.6171995,-0.9084994,1.1364988,-0.5788064,-1.5794303,-1.6219137,2.443876,1.5633723,-0.9154616,0.74977493,-1.4594909,-1.1459541,-1.3224508,-0.7991069,0.40856516,0.14086783,0.51553535,-0.34845352,1.0929997,-2.6212296,-0.08178777,-3.223753,0.29019165,-0.34457016,0.8228229,0.6144258,0.011891098,0.06401036,0.7862838,0.15004139,-0.47105297,-0.9976227,1.0,0.0,0.0,0.0,0.0,0.0,0.0,-1.1655353,-0.051546484,-0.5429997,-16.474533,0.10595322,-2.4792194,-1.5512705,-1.3484955,-0.0027239323,-1.5210956
-49.37698,-1.5530739,-12.770365,30.236153,3.4100652,1.6615305,-1.2886757,-0.075920485,-0.8143275,-0.6754784,-0.77016455,-0.5904989,0.5804309,-0.060370572,1.1289067,-0.66023916,-1.6469781,-1.6989301,2.3848262,1.6214154,-0.92149866,1.1412061,-0.59339285,-1.5911415,-1.6353052,2.4357355,1.5674654,-0.9142733,0.38080892,-1.4590902,-1.1815934,-1.3430141,-0.8207659,0.40916362,0.11093581,0.48934174,-0.34926987,1.0600499,-2.618609,-0.081706,-3.3187156,0.2907753,-0.34999084,0.8126723,0.6122802,0.019106511,0.06226662,0.78795356,0.03028134,-0.5581092,-1.0249766,1.0,0.0,0.0,0.0,0.0,0.0,0.0,-1.1393417,-0.05073014,-0.5100499,-35.983746,-0.17988682,-4.1669607,-1.557827,-2.6687503,0.005620718,-3.1565456
-79.07783,-16.170147,-26.374252,38.581413,5.2750993,2.5681748,-1.9333967,-0.45747203,-0.80711603,-0.7065698,-0.79227287,-0.5429437,0.52856743,-0.075038694,1.095459,-0.67410445,-1.6617985,-1.7145325,2.381441,1.6203222,-0.9217772,1.1408609,-0.6079526,-1.603318,-1.6489503,2.4275339,1.5715166,-0.91338545,-0.16870731,-1.4561036,-1.2327094,-1.3689843,-0.82269245,0.40323704,0.080678836,0.46317482,-0.3500862,1.0261512,-2.6159909,-0.081624314,-3.4135833,0.2896347,-0.35671997,0.80221355,0.6121377,0.026744172,0.06050342,0.78797936,-0.16119471,-0.7033577,-1.0567292,1.0,0.0,0.0,0.0,0.0,0.0,0.0,-1.1131748,-0.049913794,-0.47615117,-53.63509,-0.05247593,-5.9545994,-1.8313646,-0.93553066,-0.7744789,-3.2515585
-77.91965,-11.643176,-23.171095,37.758663,5.1959715,2.7812219,-1.7371328,-0.59744805,-0.8075326,-0.7037976,-0.7981946,-0.49745175,0.49967048,0.12048159,1.0811161,-0.68870586,-1.6736977,-1.7287698,2.3777888,1.6214837,-0.90133727,1.1352018,-0.6224904,-1.6159122,-1.6628225,2.4194849,1.5754782,-0.9126206,-0.69381666,-1.4544384,-1.2710718,-1.3905233,-0.80195266,0.3924743,0.0745389,0.4370346,-0.35090256,0.9913045,-2.6133754,-0.08154271,-3.508356,0.28655243,-0.36483765,0.7914709,0.6140207,0.034829743,0.058546912,0.7863444,-0.35786572,-0.8378078,-1.083871,1.0,0.0,0.0,0.0,0.0,0.0,0.0,-1.0870346,-0.04909745,-0.4413045,-51.208393,-0.24945736,-4.673791,-1.2957811,1.264143,-1.4446855,-0.77008456
-62.029152,1.3750706,-12.316076,32.987892,4.290319,2.6560125,-1.2863266,-0.6922125,-0.80811465,-0.6891242,-0.7942033,-0.40021542,0.473607,0.08659959,1.0659806,-0.70330185,-1.6848246,-1.7422428,2.3794632,1.6228389,-0.90396065,1.1251615,-0.63702154,-1.6286914,-1.67683,2.411947,1.5793139,-0.91190344,-1.1038183,-1.4538951,-1.2823758,-1.4014363,-0.7396903,0.37904307,0.07060214,0.4109211,-0.3517189,0.95551085,-2.6107626,-0.081461184,-3.6030343,0.28172874,-0.37400436,0.78053516,0.6174824,0.043276984,0.056148663,0.7833836,-0.5275915,-0.93219405,-1.1002567,1.0,0.0,0.0,0.0,0.0,0.0,0.0,-1.0609211,-0.048281103,-0.40551084,-39.94925,-0.34291744,-1.8097162,-0.30772686,5.508268,-1.7788529,-0.433667
-40.391964,15.763543,0.051566124,26.57526,3.1048288,2.2811825,-0.82478386,-0.7408997,-0.8090947,-0.69191927,-0.7823753,-0.2824731,0.48610815,-0.12576853,1.0510715,-0.71793103,-1.6978834,-1.7550676,2.3836997,1.6279247,-0.9244803,1.1121706,-0.6515517,-1.6414745,-1.6908395,2.4053667,1.583037,-0.9113665,-1.3618634,-1.4538735,-1.278419,-1.3989149,-0.6325917,0.36876303,0.048324786,0.38483238,-0.35253525,0.9187711,-2.6081524,-0.08137974,-3.6976175,0.27554703,-0.38378143,0.7695047,0.621998,0.05195827,0.053049885,0.77948993,-0.65420014,-0.9814059,-1.1073984,1.0,0.0,0.0,0.0,0.0,0.0,0.0,-1.0348324,-0.04746476,-0.36877108,-25.114346,-0.30856133,-0.045728683,0.8455992,10.194612,-1.4007449,-2.1672652
-22.425547,26.767155,9.514254,21.40263,2.5181525,1.8815932,-0.49300084,-0.78051114,-0.8032495,-0.69672984,-0.7750194,0.030811507,0.49645713,-0.3696922,1.0341195,-0.7318767,-1.7111474,-1.7683414,2.4084477,1.6326827,-0.94833577,1.0975488,-0.66605234,-1.6541812,-1.7047632,2.4006975,1.586682,-0.9112244,-1.4943557,-1.4495136,-1.2688059,-1.3890424,-0.41245735,0.36205083,0.0034368404,0.35877037,-0.3533516,0.8810862,-2.6055448,-0.08129837,-3.7921064,0.26837158,-0.39387894,0.75845027,0.6271726,0.060836453,0.048797555,0.77496594,-0.745824,-1.0061296,-1.1080568,1.0,0.0,0.0,0.0,0.0,0.0,0.0,-1.0087703,-0.046648413,-0.33108616,-12.8626585,0.21743774,0.73838234,1.3819933,21.704853,-0.967592,-4.328201
-8.305587,34.59138,16.519321,17.552876,1.9262652,1.5462524,-0.23086861,-0.78856903,-0.8019327,-0.6959911,-0.755707,0.2307967,0.50996,-0.4652654,1.0186919,-0.7462456,-1.7237804,-1.7803339,2.423777,1.6376779,-0.957751,1.0823282,-0.6804986,-1.6667793,-1.7185075,2.3986375,1.5902869,-0.9115811,-1.530879,-1.4435511,-1.2568842,-1.3687007,-0.13731542,0.35927162,-0.048041847,0.33273506,-0.35416412,0.8424571,-2.6029398,-0.081217095,-3.8865008,0.2605133,-0.40408707,0.74742144,0.63270015,0.06986298,0.043077204,0.770035,-0.80752736,-1.0110676,-1.1043019,1.0,0.0,0.0,0.0,0.0,0.0,0.0,-0.98273504,-0.045835882,-0.2924571,-3.4926414,0.45900345,1.1409283,2.2617817,27.394152,-0.47357678,-4.9504204
-1.4373761,38.61557,19.264324,14.958214,1.3590143,1.3068312,-0.13745216,-0.8045009,-0.7917771,-0.718832,-0.749446,0.3087372,0.5287756,-0.509232,1.0018781,-0.75967634,-1.7386625,-1.7934521,2.4295113,1.6431644,-0.96250427,1.0670904,-0.69484377,-1.6793811,-1.732044,2.399164,1.5938898,-0.9124451,-1.5212449,-1.4318641,-1.2611847,-1.3481675,0.116331354,0.3600115,-0.0985697,0.30672455,-0.35497284,0.80287683,-2.6003375,-0.08113589,-3.9818664,0.252182,-0.4142418,0.7363993,0.6384094,0.07899357,0.035946216,0.7647884,-0.8498883,-1.0025814,-1.1047689,1.0,0.0,0.0,0.0,0.0,0.0,0.0,-0.9567245,-0.045027167,-0.25287682,1.0269403,1.0724306,-0.40819645,2.2086859,25.336424,-0.066804886,-4.877575
1.4304621,40.97132,20.273533,12.885162,0.69885516,1.181964,-0.11171459,-0.8165724,-0.77655387,-0.73396623,-0.74853534,0.30350873,0.5127509,-0.5182208,0.98543316,-0.77249914,-1.7527778,-1.8068975,2.429515,1.645165,-0.9642672,1.052049,-0.7090144,-1.6921241,-1.7454202,2.4016702,1.5974928,-0.91377074,-1.4984586,-1.4123863,-1.2786353,-1.3336129,0.29510447,0.36008972,-0.14350718,0.28074074,-0.35578156,0.7623436,-2.5977376,-0.08105478,-4.0771356,0.24352264,-0.42420197,0.72533435,0.64420575,0.08819316,0.02775894,0.75924325,-0.87907195,-0.9794105,-1.1105214,0.0,1.0,0.0,0.0,0.0,0.0,0.0,-0.9307407,-0.04421845,-0.21234357,2.315855,1.8692017,-1.711154,1.5830994,17.883778,-0.094264746,-4.3707266
2.230556,41.262543,20.099493,11.23018,0.12755448,1.1130838,-0.1001235,-0.8156713,-0.77239907,-0.7495197,-0.74780023,0.2615188,0.4929665,-0.52426654,0.97048193,-0.78625435,-1.7670761,-1.8202002,2.427822,1.6467894,-0.9661974,1.0373027,-0.72288346,-1.7062244,-1.7591885,2.4021418,1.6028975,-0.9148096,-1.465649,-1.3789603,-1.4526824,-1.3884215,-0.028195275,0.58180505,-0.10313656,0.26486015,-0.3610878,0.7633285,-1.3571202,-0.62486476,1.4030472,0.23464203,-0.43342972,0.713795,0.6498027,0.09677145,0.020370848,0.75364226,-0.8963031,-0.8897712,-1.170528,1.0,0.0,0.0,0.0,0.0,0.0,0.0,-0.9148601,-0.038912207,-0.21332848,2.781272,1.7838001,-3.4495592,1.4133453,8.637764,-0.2973795,-4.0056376
76.385315,176.0,110.0,87.60171,-8.870455,8.300821,-0.25954372,-0.7402238,0.51775026,0.68942744,0.73904973,-0.25398153,0.6316694,-0.3962703,0.9632803,-0.6711084,-1.6372817,-1.6852835,2.3767436,1.6660645,-0.9544366,1.0274513,-0.7332232,-1.721117,-1.7631387,2.3919146,1.6165045,-0.9139732,-0.8289658,-0.9183676,-1.4939989,-0.06953342,-1.3494837,1.627027,0.14055529,0.2512989,-0.36733246,0.776604,-1.3557633,-0.62424004,1.3023932,0.22626686,-0.44000244,0.7061834,0.65547323,0.09655924,0.018852383,0.7487828,-0.82392836,-0.5658813,-0.62589103,1.0,0.0,0.0,0.0,0.0,0.0,0.0,-0.9012989,-0.032667547,-0.22660398,62.494564,46.248722,-1.8265724,130.21037,-130.72627,106.54993,22.764019
24.78222,154.05876,106.353485,93.64365,-2.15228,6.9614315,-0.40498686,-0.79159933,-0.37626415,0.4458936,0.797115,-0.6444037,0.5561967,-0.35588795,0.94829136,-0.7708496,-1.6765276,-1.6834271,2.327474,1.6721243,-0.949562,1.0193183,-0.7405474,-1.7302189,-1.7565106,2.3763468,1.6327094,-0.91273916,-0.808488,-0.67163754,-0.7127019,0.9053161,-1.6292108,1.6237644,0.11657254,0.23775291,-0.3735695,0.78887373,-1.3544078,-0.6236159,1.2018398,0.21804047,-0.44449615,0.7042294,0.6615703,0.088554464,0.02095587,0.744341,-0.8250056,-0.4006321,-0.054882962,1.0,0.0,0.0,0.0,0.0,0.0,0.0,-0.8877529,-0.026430517,-0.23887372,1.9580603,24.32313,79.030945,96.963615,-28.861595,1.3660669,-2.7570472
-16.039692,113.65858,60.215984,75.34944,1.2308683,4.506363,-1.338894,-0.7890271,-0.11817913,-0.23009376,0.773383,-0.6808125,0.62611544,-0.25328496,0.9404156,-0.75236535,-1.7532283,-1.6791723,2.3082657,1.695321,-0.9380677,1.0101459,-0.74512124,-1.7345257,-1.7427872,2.3601153,1.6480311,-0.9118465,-0.9516643,-0.38712674,-0.337121,1.5283759,-1.6239449,1.5045807,0.08008933,0.22421837,-0.3798027,0.80013865,-1.3530537,-0.6229924,1.101387,0.20930672,-0.4482193,0.7063454,0.66878814,0.07660202,0.024769785,0.73908114,-0.89051443,-0.35616705,0.2957398,1.0,0.0,0.0,0.0,0.0,0.0,0.0,-0.87421834,-0.020197302,-0.25013864,-13.800562,28.100098,37.365925,62.45694,-0.37899017,-11.01377,-3.664936
-24.954103,104.01261,41.100468,50.672127,1.0314405,2.746893,-1.4488987,-0.80021983,0.19571978,-0.3095108,0.79293674,-0.6858242,0.6369524,-0.18288061,0.9301239,-0.7255493,-1.7654767,-1.6634935,2.2915328,1.7117263,-0.9301346,0.9990318,-0.7461674,-1.7369823,-1.7255219,2.3450625,1.6618785,-0.91131246,-1.1635277,-0.0115303695,-0.21673588,1.7930596,-1.4677974,1.3465188,0.04409236,0.21069908,-0.3860283,0.81039983,-1.3517009,-0.6223695,1.0010347,0.19999695,-0.45151138,0.7108161,0.677281,0.06340762,0.029986292,0.7323733,-0.9461534,-0.31283912,0.4922091,1.0,0.0,0.0,0.0,0.0,0.0,0.0,-0.86069906,-0.013971716,-0.26039982,-20.823383,37.25291,11.557588,26.586056,15.035439,-15.251827,-3.7337086
-45.04539,30.480259,-5.706816,26.941195,3.243026,0.555191,-1.4272455,-0.8178706,-0.055509884,-0.5693351,0.7761342,-0.68349856,0.66820663,-0.3207681,0.91724473,-0.7517184,-1.7939159,-1.6479084,2.2767127,1.7286991,-0.9433893,0.98598266,-0.7453463,-1.7407036,-1.7075528,2.331753,1.67424,-0.9112009,-1.3512388,0.11305548,-0.4250267,1.79869,-1.2847778,1.1998636,-5.610392e-05,0.19719124,-0.39224625,0.8196582,-1.3503494,-0.6217473,0.90078276,0.18988037,-0.4552002,0.7155097,0.6870104,0.051268976,0.03567331,0.7239582,-1.0357548,-0.37864104,0.45749578,1.0,0.0,0.0,0.0,0.0,0.0,0.0,-0.8471912,-0.0077537596,-0.2696582,-18.528152,12.380286,-21.157581,0.6608486,18.45193,-14.518237,-4.482292
-38.30018,6.186774,-16.376848,12.332375,2.867842,-0.3941033,-0.96701175,-0.8148047,-0.05049517,-0.57725376,0.77960324,-0.67346305,0.67016596,-0.348704,0.9045022,-0.75039583,-1.798429,-1.6295924,2.2644067,1.7412566,-0.94607127,0.97157645,-0.74417806,-1.7470226,-1.690442,2.320061,1.6852835,-0.9115137,-1.4698004,0.11801022,-0.7013505,1.6820878,-1.1301056,1.0723798,-0.042021982,0.18369865,-0.3984604,0.82791483,-1.3489994,-0.6211257,0.800631,0.17901039,-0.45962906,0.719229,0.6976221,0.041239027,0.04121083,0.7140898,-1.1066415,-0.45450395,0.3403692,1.0,0.0,0.0,0.0,0.0,0.0,0.0,-0.83369863,-0.0015396178,-0.27791482,-11.686182,0.48870593,-27.795828,-11.605525,15.681934,-12.773657,-4.287346
-21.889664,14.666068,-7.159166,6.7499647,1.4932635,-0.5081918,-0.5146713,-0.81452864,0.048684023,-0.56717527,0.78474575,-0.6518881,0.68343127,-0.36632067,0.8901236,-0.73930967,-1.8037401,-1.6119674,2.254872,1.7536267,-0.94814575,0.9564903,-0.7429869,-1.7557182,-1.6746606,2.309601,1.6952189,-0.91221654,-1.5213956,0.11937584,-0.925992,1.543601,-1.0175743,0.9668506,-0.08008527,0.17021751,-0.4046669,0.8351707,-1.3476506,-0.6205047,0.70057935,0.16771889,-0.46453094,0.7218482,0.70865077,0.03328892,0.046597887,0.7032315,-1.1394717,-0.49182135,0.2337757,1.0,0.0,0.0,0.0,0.0,0.0,0.0,-0.8202175,0.0046668947,-0.28517067,-5.0831556,0.10869801,-22.516907,-13.841057,11.274767,-10.603582,-3.9350061
-9.421011,26.651651,3.8807344,6.837757,0.5666856,-0.25764453,-0.20739987,-0.8202398,0.07631056,-0.5789228,0.7847668,-0.62984145,0.6968412,-0.39860544,0.8744663,-0.73535585,-1.8136106,-1.5961839,2.2466168,1.7649031,-0.9520771,0.9412124,-0.74174523,-1.7660313,-1.6600407,2.299988,1.7042483,-0.91327894,-1.5298191,0.12553895,-1.0660836,1.4347593,-0.9431106,0.88141197,-0.11548994,0.15675163,-0.41086578,0.8414268,-1.3463032,-0.6198843,0.6006277,0.15629578,-0.46956253,0.72366226,0.719747,0.026948731,0.05196645,0.69176394,-1.1471773,-0.49544457,0.16273944,1.0,0.0,0.0,0.0,0.0,0.0,0.0,-0.8067516,0.010865778,-0.29142678,-0.8419037,0.55725724,-13.966286,-10.918117,7.310188,-8.571804,-3.6814213
-0.37385774,39.413197,14.264873,9.301456,-0.05283436,0.09196299,-0.0076068603,-0.8171447,0.0987447,-0.58050054,0.78162724,-0.621531,0.70682764,-0.40990016,0.85949796,-0.7318708,-1.8240813,-1.5818781,2.237835,1.7749311,-0.95426893,0.9260404,-0.7403443,-1.7771225,-1.6461781,2.2908785,1.7125491,-0.9146637,-1.5132253,0.14458928,-1.1230892,1.3700113,-0.9009104,0.8129267,-0.14666224,0.1432991,-0.41706085,0.8466812,-1.3449572,-0.61926454,0.50038236,0.14492416,-0.47442245,0.7250666,0.7306733,0.021650305,0.05746243,0.67996013,-1.137371,-0.47121456,0.13224897,1.0,0.0,0.0,0.0,0.0,0.0,0.0,-0.7932991,0.017060846,-0.29668117,1.58813,1.8131286,-5.5692673,-6.5565825,3.9761305,-6.837654,-3.2709777
3.705828,47.36417,20.516573,12.286556,-0.2537123,0.39245218,0.074524015,-0.8148027,0.11165302,-0.5795957,0.7797178,-0.61387306,0.71878856,-0.42810905,0.84456015,-0.72917897,-1.835082,-1.5682063,2.2294912,1.784428,-0.9574746,0.9110935,-0.7387068,-1.788353,-1.6326665,2.282036,1.7202681,-0.9163364,-1.4888473,0.16969462,-1.1223218,1.3445146,-0.8798841,0.7585303,-0.17466213,0.12985992,-0.4232483,0.85093385,-1.3436126,-0.6186454,0.40023714,0.13370323,-0.47893143,0.7263869,0.7413117,0.01692507,0.06318228,0.66796595,-1.1210243,-0.4323638,0.13141076,1.0,0.0,0.0,0.0,0.0,0.0,0.0,-0.7798599,0.023248285,-0.30093384,2.3277044,2.3944588,0.2673626,-2.6528358,1.8063545,-5.4111123,-2.958119
4.9627223,54.39057,24.30592,14.826197,-0.36429986,0.5952394,0.07821558,-0.8153953,0.15356207,-0.5854017,0.7756088,-0.6193575,0.7161884,-0.41557518,0.82955396,-0.72335064,-1.8468932,-1.5551056,2.2201004,1.7918869,-0.9578939,0.89635825,-0.736665,-1.7993965,-1.6192311,2.2732813,1.7275199,-0.9182466,-1.4687632,0.21517996,-1.0976268,1.3427745,-0.87545043,0.7140521,-0.19708806,0.1164341,-0.4294281,0.8541858,-1.3422692,-0.6180269,0.30019206,0.1226635,-0.482975,0.72784615,0.75162554,0.012480152,0.06925963,0.65582496,-1.1010774,-0.38371205,0.15044421,1.0,0.0,0.0,0.0,0.0,0.0,0.0,-0.7664341,0.029428095,-0.3041858,1.8765211,4.408619,2.692008,-0.29501915,0.116598606,-4.4232607,-2.4193377
2.5764608,52.239998,23.060247,16.260164,-0.065636486,0.6835574,0.04718338,-0.8182681,0.14353463,-0.5804256,0.77164257,-0.6059302,0.7237388,-0.44331688,0.81453145,-0.72231156,-1.857439,-1.5420668,2.2126882,1.7998937,-0.9625783,0.8817527,-0.73427796,-1.810133,-1.6057385,2.2645533,1.734392,-0.9203714,-1.4581959,0.24610823,-1.0648913,1.3511142,-0.87294596,0.6782914,-0.2181314,0.10302162,-0.4356041,0.8564381,-1.3409272,-0.617409,0.20024702,0.111763,-0.4865532,0.72950405,0.76163256,0.008187989,0.075672925,0.64352345,-1.0890871,-0.34007517,0.17076549,1.0,0.0,0.0,0.0,0.0,0.0,0.0,-0.7530216,0.03560409,-0.3064381,0.940609,2.9517174,3.5015821,0.74059963,-0.059974194,-3.5705805,-2.2679539
-1.1118968,46.067528,19.244644,16.854584,0.31573024,0.65414053,0.004602611,-0.8164691,0.12684348,-0.59151477,0.7751385,-0.61308616,0.7328024,-0.43617955,0.8001058,-0.7215936,-1.8692845,-1.5282247,2.2032447,1.8076723,-0.9639894,0.8672073,-0.73176503,-1.8206444,-1.5921239,2.2558138,1.7409629,-0.9226755,-1.4535304,0.25256002,-1.0458179,1.3647251,-0.8752688,0.6498459,-0.23498781,0.0896225,-0.44177246,0.85769165,-1.3395865,-0.6167917,0.10040192,0.10089874,-0.48979568,0.7312937,0.7713728,0.0040388647,0.08232533,0.6310231,-1.088266,-0.3077347,0.18167411,1.0,0.0,0.0,0.0,0.0,0.0,0.0,-0.7396225,0.041772455,-0.30769163,0.3889084,0.5148262,2.1165133,1.3095379,-0.49465895,-2.8529763,-1.8341959
-4.0411835,36.37955,14.638286,16.362312,0.72852266,0.56845117,0.018190859,-0.80784786,0.07215148,-0.5800616,0.77996224,-0.6162845,0.7361808,-0.42780647,0.7864225,-0.7245499,-1.8786505,-1.5141276,2.1941855,1.8145809,-0.9654561,0.85271716,-0.72953343,-1.8309917,-1.5783643,2.24704,1.7472914,-0.92511785,-1.447604,0.21298818,-1.0305141,1.3798622,-0.87907726,0.6271113,-0.24767455,0.076236725,-0.447937,0.8579475,-1.3382472,-0.61617506,0.0006566413,0.08994675,-0.4928093,0.73307985,0.78085715,5.701557e-05,0.089022696,0.618334,-1.0992783,-0.28932273,0.17764258,1.0,0.0,0.0,0.0,0.0,0.0,0.0,-0.7262367,0.047937006,-0.30794752,0.55634975,-4.0634184,1.7215014,1.5136242,-0.58989525,-2.2766232,-1.3847828
-6.202364,28.194727,10.8817215,15.391224,1.0276853,0.48943904,0.047918264,-0.80446047,0.016884482,-0.5654613,0.7785933,-0.61338454,0.7305322,-0.42142406,0.7722711,-0.727845,-1.8875378,-1.500505,2.1857016,1.8203447,-0.96726024,0.83828807,-0.7279885,-1.841177,-1.5644883,2.2382395,1.7534198,-0.9276613,-1.4413579,0.13468209,-1.01411,1.3903011,-0.8810011,0.6081169,-0.25688934,0.0628643,-0.45409393,0.8572067,-1.3369093,-0.615559,-0.09898891,0.07881355,-0.4957199,0.7347235,0.7900797,-0.0037269816,0.09555304,0.60549945,-1.1196722,-0.28112844,0.15979381,1.0,0.0,0.0,0.0,0.0,0.0,0.0,-0.7128643,0.054093927,-0.3072067,0.61888695,-7.9156876,1.8170357,1.0868549,-0.36079884,-1.894784,-1.005435
-5.272949,27.496687,11.205901,14.91235,1.047348,0.5017231,0.102740034,-0.79735434,-0.017425703,-0.52740556,0.7844124,-0.60779065,0.729482,-0.4177936,0.7585526,-0.729731,-1.8939176,-1.486047,2.1774604,1.826368,-0.96944064,0.82394004,-0.7273133,-1.8510647,-1.5505189,2.2294428,1.759384,-0.93027914,-1.4326671,0.0448172,-0.97955453,1.3994012,-0.8798332,0.5925317,-0.26362187,0.049505234,-0.46024323,0.8554702,-1.3355726,-0.61494356,-0.19853485,0.0674839,-0.49853516,0.7361864,0.7990104,-0.007351281,0.10179489,0.59259266,-1.1395301,-0.2714193,0.14161447,1.0,0.0,0.0,0.0,0.0,0.0,0.0,-0.6995052,0.06024322,-0.30547017,0.8572817,-9.06811,3.6434531,0.962615,-0.06122589,-1.5425444,-0.73869824
-3.8716776,22.099379,10.604482,13.756725,1.1775439,0.4910243,0.21357529,-0.7824648,-0.1250668,-0.4552173,0.7924144,-0.6071497,0.7329857,-0.4060789,0.74569356,-0.73981994,-1.8965864,-1.4712775,2.1687279,1.8326826,-0.970887,0.80973315,-0.7278607,-1.8603077,-1.5364484,2.2206652,1.7652167,-0.9329418,-1.4167969,-0.08808979,-0.9053976,1.4097377,-0.877671,0.5803761,-0.26727173,0.036159515,-0.4663887,0.852739,-1.3342373,-0.61432874,-0.29798126,0.055934906,-0.5012741,0.73743516,0.80758303,-0.010928495,0.10754012,0.57976323,-1.1612929,-0.26456097,0.11876196,1.0,0.0,0.0,0.0,0.0,0.0,0.0,-0.6861595,0.0663887,-0.30273896,1.5761614,-13.352648,7.620132,1.1168718,0.0387311,-1.1727929,-0.37992597
-5.353723,10.605066,6.1771054,11.7568,1.43134,0.3603854,0.27063063,-0.77014935,-0.26109257,-0.4177899,0.79260314,-0.6218845,0.72360486,-0.39444855,0.7327182,-0.75396997,-1.9020867,-1.457188,2.1584768,1.8375772,-0.97238666,0.7957227,-0.73014474,-1.8687153,-1.5222958,2.2118647,1.7709388,-0.9356226,-1.3957075,-0.27524817,-0.8185119,1.4175408,-0.8811047,0.56971115,-0.2680914,0.022827148,-0.47252655,0.84902245,-1.3329034,-0.6137145,-0.396205,0.044103622,-0.50403595,0.7383249,0.81577456,-0.014486305,0.112536535,0.56713086,-1.1924273,-0.2696409,0.07825218,1.0,0.0,0.0,0.0,0.0,0.0,0.0,-0.6728271,0.072526544,-0.29902244,2.1339417,-18.74611,8.86941,0.9251833,-0.4777789,-1.0109067,-0.03194213
-0.082475185,13.875315,10.3988495,10.6846285,1.2379134,0.45637277,0.4175594,-0.75215185,-0.35044274,-0.27426368,0.7947634,-0.60846233,0.7093789,-0.39532265,0.72050756,-0.765189,-1.8961416,-1.4428195,2.1510184,1.8418766,-0.9751548,0.78196883,-0.7343981,-1.8757477,-1.5080842,2.2030642,1.7765578,-0.93830526,-1.368716,-0.47548681,-0.66398317,1.4230078,-0.8805391,0.5596973,-0.26798892,0.009508133,-0.47866058,0.8443244,-1.3315707,-0.61310095,-0.49433056,0.032039642,-0.50676346,0.73888403,0.82350564,-0.018202817,0.116612345,0.55489504,-1.2126559,-0.26412013,0.047171433,1.0,0.0,0.0,0.0,0.0,0.0,0.0,-0.6595081,0.07866058,-0.2943244,2.6833296,-20.057838,15.685713,0.67636967,-0.15763044,-0.923264,0.10164976
-1.42577,13.918129,9.306067,10.32234,1.2292686,0.40138298,0.3820998,-0.74988663,-0.43004557,-0.24901074,0.78964555,-0.614993,0.6926681,-0.35968256,0.70698017,-0.7774027,-1.9006487,-1.4291196,2.1415648,1.8458246,-0.9742735,0.7684448,-0.74057126,-1.8813381,-1.4938611,2.1942523,1.7820758,-0.9409574,-1.3469496,-0.6647344,-0.5233185,1.4225578,-0.88194674,0.5494689,-0.26397416,-0.0037975311,-0.484787,0.8386458,-1.3302395,-0.612488,-0.59235805,0.019767761,-0.5094452,0.7391028,0.8307919,-0.022096653,0.11977751,0.5430929,-1.2341442,-0.25940385,0.011397149,1.0,0.0,0.0,0.0,0.0,0.0,0.0,-0.64620245,0.08478698,-0.2886458,2.1841288,-18.963802,14.260876,0.099372864,-0.35067797,-0.9537339,0.50747395
4.912606,21.382305,13.561273,8.941356,0.78350556,0.3185553,0.50179213,-0.705012,-0.50430137,-0.15606602,0.7815839,-0.63276863,0.68083274,-0.26256254,0.69794357,-0.7910014,-1.8969448,-1.4157027,2.1309755,1.850159,-0.9672137,0.7552793,-0.74846864,-1.8854446,-1.479699,2.1853716,1.7874945,-0.943498,-1.306577,-0.8315618,-0.37239793,1.414529,-0.89109075,0.53977203,-0.25037947,-0.017089844,-0.49090576,0.8319745,-1.3289095,-0.6118756,-0.69204503,0.007429123,-0.5120125,0.7390072,0.83758265,-0.02619003,0.1221332,0.5318391,-1.2357566,-0.24612373,-0.019234333,1.0,0.0,0.0,0.0,0.0,0.0,0.0,-0.63291013,0.090905756,-0.2819745,3.998375,-16.732513,15.318465,-0.70602894,-1.1828899,-0.8732796,1.4543474
2.1751757,21.157932,10.06683,8.802106,0.715262,0.045756996,0.38737068,-0.67863816,-0.555358,-0.21482727,0.78451014,-0.65950793,0.6649237,-0.1445751,0.6874155,-0.80400443,-1.9069273,-1.401248,2.1194208,1.8539869,-0.95795554,0.7425821,-0.75776887,-1.8887005,-1.4656056,2.1763232,1.792816,-0.9458183,-1.2575786,-0.96310943,-0.30933052,1.4081544,-0.9099106,0.52975166,-0.2256981,-0.030368805,-0.49702072,0.8243071,-1.3275809,-0.6112639,-0.7916323,-0.0049324036,-0.51451874,0.73851603,0.843941,-0.030278625,0.123917066,0.52104837,-1.2387661,-0.24232717,-0.062266618,1.0,0.0,0.0,0.0,0.0,0.0,0.0,-0.6196312,0.097020715,-0.27430707,4.8793793,-13.205647,6.4694166,-0.5184889,-2.0768166,-0.9201169,2.5410116
-2.7183294,17.353489,3.8557117,8.323917,0.7538054,-0.3259241,0.20156667,-0.64231604,-0.59722316,-0.32774398,0.77919084,-0.6631785,0.6544475,-0.09261809,0.67835045,-0.8174912,-1.9214749,-1.3876865,2.1100054,1.8582608,-0.9550801,0.73045135,-0.76812863,-1.8922482,-1.4515809,2.1670992,1.7980365,-0.94786584,-1.1982805,-1.0603992,-0.36954537,1.4010583,-0.9270701,0.5197339,-0.19767381,-0.043634415,-0.50312805,0.8156445,-1.3262535,-0.61065274,-0.89112,-0.01738739,-0.5171013,0.7374346,0.8500269,-0.033963155,0.12537722,0.5104716,-1.2495258,-0.25464472,-0.12710223,1.0,0.0,0.0,0.0,0.0,0.0,0.0,-0.60636556,0.103128046,-0.2656445,5.9241533,-9.772992,-5.9346795,-0.5442858,-1.7879605,-0.95419884,2.8513699
-4.4559436,11.788518,-1.192452,6.4940705,0.7404203,-0.67299706,0.0904015,-0.5878467,-0.6585167,-0.42271075,0.76725256,-0.6501473,0.6616829,-0.12543462,0.6716667,-0.8339803,-1.9345192,-1.3748556,2.1020844,1.8642048,-0.9604093,0.71904445,-0.7793801,-1.897068,-1.437663,2.1577837,1.8031691,-0.94968164,-1.1214298,-1.146797,-0.5192272,1.3893217,-0.93338835,0.51132303,-0.17609742,-0.056886673,-0.50923157,0.80598783,-1.3249276,-0.6100422,-0.9905082,-0.029975891,-0.5199127,0.7355412,0.8559726,-0.036885377,0.12662104,0.4999175,-1.2642624,-0.28170976,-0.2141468,1.0,0.0,0.0,0.0,0.0,0.0,0.0,-0.5931133,0.10923156,-0.25598782,7.6691866,-8.673859,-14.915204,-0.9667635,-0.6098628,-0.8431554,2.2012293
-0.60185575,14.58388,0.25910056,4.95035,0.4565556,-0.76345396,0.12178898,-0.53289247,-0.6967794,-0.4580041,0.7588879,-0.6548825,0.6805825,-0.14435521,0.6657552,-0.84905803,-1.9428685,-1.3617742,2.0922954,1.8712274,-0.96411717,0.708514,-0.79139733,-1.9034729,-1.4238843,2.1484225,1.8082446,-0.9513258,-1.0304393,-1.2201259,-0.68046546,1.3746572,-0.9367921,0.50604457,-0.16039588,-0.07012558,-0.51532745,0.79533803,-1.3236029,-0.6094323,-1.0897971,-0.04263878,-0.52298737,0.73277116,0.86179364,-0.038940497,0.12770765,0.48937315,-1.268129,-0.30704722,-0.3024028,1.0,0.0,0.0,0.0,0.0,0.0,0.0,-0.5798744,0.11532745,-0.24533802,9.045291,-7.3768854,-16.042591,-1.2701273,-0.32821894,-0.54997206,1.5988201
6.0549192,19.50038,3.950943,2.8545575,0.11008772,-0.796124,0.23773319,-0.46935228,-0.7326514,-0.49592015,0.7384159,-0.63025093,0.68851066,-0.124225065,0.6615788,-0.86466247,-1.9530649,-1.3500427,2.0853975,1.8770957,-0.9637483,0.6989982,-0.80408216,-1.9113293,-1.410323,2.1391184,1.8132819,-0.95282304,-0.9256443,-1.2847683,-0.8203325,1.3505031,-0.9282723,0.5026883,-0.14603506,-0.083351135,-0.5214157,0.7836961,-1.3222796,-0.60882294,-1.1889867,-0.055215836,-0.5262718,0.72915757,0.8674275,-0.040175408,0.12861536,0.4789713,-1.2555516,-0.32717854,-0.38599133,1.0,0.0,0.0,0.0,0.0,0.0,0.0,-0.56664884,0.121415704,-0.2336961,10.36849,-6.5182686,-13.852083,-2.2626877,0.8152485,-0.37041903,1.455757
8.653587,25.054638,7.157139,2.6460774,-0.049334347,-0.68034506,0.2742769,-0.43316334,-0.7573876,-0.5339588,0.7225257,-0.623682,0.6911094,-0.15975031,0.65568185,-0.87982094,-1.9647251,-1.3380704,2.0767503,1.8823929,-0.9687981,0.6904695,-0.8173287,-1.9203453,-1.3970422,2.1299288,1.8182925,-0.9542211,-0.8290291,-1.3382493,-0.9282755,1.3210574,-0.9163587,0.50036246,-0.1377485,-0.09656525,-0.52750015,0.77106297,-1.3209575,-0.60821426,-1.288077,-0.067611694,-0.52970123,0.7247844,0.8728362,-0.040693734,0.1293385,0.46879902,-1.2348927,-0.33920014,-0.4598291,0.0,1.0,0.0,0.0,0.0,0.0,0.0,-0.5534347,0.12750015,-0.22106296,9.538388,-5.420089,-10.637999,-2.8155804,1.1039376,-0.27285814,0.8400202
15.639679,30.794348,11.406214,0.7506032,-0.45329309,-0.67969215,0.4100241,-0.36134472,-0.7836502,-0.56165105,0.6951442,-0.63625646,0.6867087,-0.13727713,0.654335,-0.8956937,-1.9765104,-1.3275278,2.0663033,1.8869634,-0.96794885,0.6829916,-0.8310565,-1.93026,-1.3841807,2.1208668,1.8232013,-0.9555046,-0.717018,-1.3836833,-1.0361606,1.2592328,-0.8569152,0.50305945,-0.11850561,-0.1102581,-0.5322075,0.7607322,-1.265802,-0.16921967,0.079055,-0.0796566,-0.5332298,0.719703,0.87794405,-0.04052558,0.12986436,0.45902842,-1.2004405,-0.35256204,-0.53856987,0.0,1.0,0.0,0.0,0.0,0.0,0.0,-0.5397419,0.13220748,-0.21073216,11.680496,-4.505682,-13.976312,-8.34136,11.273956,0.7202625,3.016144
-14.978594,77.83669,27.224087,25.257792,1.0971079,1.4756155,-0.1388987,-0.6454404,-0.6038056,-0.27307436,0.7978803,-0.6520845,0.68594164,-0.1535975,0.6184476,-0.89143705,-1.9575673,-1.3043926,2.0556583,1.8917955,-0.97086436,0.6750418,-0.84425914,-1.9395258,-1.3713328,2.1122494,1.8282272,-0.95665854,-0.8204687,-1.3000711,-0.88967216,1.2935791,-0.8652991,0.50266904,-0.11482803,-0.12290764,-0.5339012,0.76076996,-1.2645365,-0.1690505,-0.021303248,-0.091739655,-0.53624725,0.71484613,0.8829093,-0.040550068,0.13048705,0.44922134,-1.2095014,-0.27617645,-0.47396237,0.0,1.0,0.0,0.0,0.0,0.0,0.0,-0.52709234,0.13390121,-0.21076995,-10.201073,8.097434,14.803076,3.489852,-1.3357639,0.07096529,0.21148622
-27.128008,95.68848,32.574036,33.839294,1.7775278,2.2114904,-0.35293868,-0.7036466,-0.55139875,-0.21103424,0.7923105,-0.6059561,0.6624597,-0.19286779,0.60467714,-0.89939904,-1.9606292,-1.2921017,2.0516539,1.8944731,-0.9759453,0.66551363,-0.85625637,-1.9468024,-1.3580557,2.103651,1.8332454,-0.9578182,-0.9962046,-1.1673405,-0.67331225,1.3392158,-0.859673,0.50184286,-0.11685158,-0.13554382,-0.5355873,0.75980496,-1.2632723,-0.16888148,-0.12156116,-0.10404968,-0.5382767,0.71097946,0.88782644,-0.04136293,0.13168404,0.43899053,-1.2377752,-0.17091125,-0.36302364,0.0,1.0,0.0,0.0,0.0,0.0,0.0,-0.51445615,0.1355873,-0.20980495,-17.342365,12.961149,21.755314,4.6288013,-0.023925304,0.07789135,-0.37795454
-13.876607,98.017586,38.813217,29.816053,1.5748272,2.1583185,-0.13270536,-0.6727021,-0.59298563,-0.010567583,0.7645457,-0.5290919,0.6593808,-0.32845065,0.5982434,-0.91555494,-1.9478592,-1.2816012,2.050742,1.8991835,-0.9906633,0.65449107,-0.867257,-1.9511416,-1.3444506,2.0952473,1.8382407,-0.9591076,-1.1372176,-1.0785674,-0.35338956,1.3674648,-0.8363016,0.4993771,-0.13324113,-0.14816666,-0.5372734,0.75783813,-1.2620093,-0.16871263,-0.22171882,-0.11645889,-0.5392456,0.70828754,0.89260423,-0.04334339,0.13315845,0.42854142,-1.2415699,-0.063379996,-0.24257912,0.0,1.0,0.0,0.0,0.0,0.0,0.0,-0.5018333,0.1372734,-0.20783812,-13.983774,8.606505,32.2101,2.8398752,1.692915,-0.052541494,-1.7194808
0.6011162,90.33005,38.950146,22.073496,1.0132203,1.628367,0.13514152,-0.66083986,-0.5969744,0.10455052,0.7408963,-0.5293514,0.63563734,-0.29758367,0.5884071,-0.92695445,-1.9406866,-1.270361,2.0423121,1.9018044,-0.988866,0.6425234,-0.87770164,-1.9522631,-1.3307902,2.0870724,1.8431941,-0.9605343,-1.2164236,-1.0338496,-0.030864472,1.3656437,-0.8131226,0.4947882,-0.14591189,-0.16077805,-0.5389595,0.7548704,-1.2607476,-0.16854396,-0.32177636,-0.12870026,-0.5392685,0.7066173,0.8970988,-0.04654333,0.13459513,0.41824815,-1.2180386,0.026608525,-0.14575966,0.0,1.0,0.0,0.0,0.0,0.0,0.0,-0.48922193,0.1389595,-0.2048704,-7.88815,4.2630434,32.500572,-0.19352436,1.717782,-0.24656057,-1.2948364
5.650194,75.0879,31.910112,16.078417,0.6999132,0.926788,0.21891181,-0.66152465,-0.59178656,0.11558513,0.7335859,-0.52530134,0.5941434,-0.21735674,0.57637095,-0.9368803,-1.9407046,-1.2574316,2.0345423,1.9026085,-0.98226994,0.63015234,-0.88793457,-1.9508803,-1.3172652,2.0791073,1.8480712,-0.9620134,-1.2439888,-1.0201861,0.19522214,1.3480599,-0.79234105,0.4861244,-0.14852875,-0.17337608,-0.5406456,0.7509029,-1.259487,-0.16837545,-0.4217339,-0.14066696,-0.53860474,0.70559335,0.9012776,-0.050618373,0.1358535,0.40826494,-1.189407,0.08728373,-0.09150169,0.0,1.0,0.0,0.0,0.0,0.0,0.0,-0.4766239,0.1406456,-0.20090288,-2.7478218,1.2151241,22.806349,-1.740694,1.6219497,-0.67508817,-0.26646852
4.69883,57.23961,22.15121,11.977581,0.5972097,0.28994274,0.19057713,-0.6567339,-0.6052369,0.10081751,0.7302861,-0.52373886,0.5681723,-0.15888123,0.56447893,-0.94845825,-1.9407985,-1.2442366,2.0267334,1.9048884,-0.9779015,0.61777556,-0.8982371,-1.9481547,-1.3039461,2.0713139,1.8528453,-0.9634592,-1.2338227,-1.0337839,0.2909563,1.3221526,-0.7647145,0.4553511,-0.13249403,-0.18596077,-0.5423279,0.7459366,-1.2941675,0.048225574,-0.19678506,-0.1524086,-0.5375595,0.70476556,0.9051984,-0.055061106,0.13689499,0.398552,-1.1697985,0.11343186,-0.08546561,0.0,1.0,0.0,0.0,0.0,0.0,0.0,-0.4640392,0.14232787,-0.19593656,1.19102,-1.45123,8.922747,-3.0055523,3.57064,-4.893798,2.6896625
-23.283707,32.595333,1.3450627,15.380737,1.3361096,-0.12920469,-0.28998876,-0.7384586,-0.57387286,-0.16566639,0.7367533,-0.50237817,0.52977175,-0.14750372,0.5439297,-0.9556244,-1.9647213,-1.2302709,2.021076,1.9058225,-0.97820956,0.6052319,-0.90857786,-1.9464391,-1.2908366,2.0639865,1.8574463,-0.9647517,-1.2608752,-1.0344009,0.1323283,1.3086971,-0.7258526,0.4577966,-0.1275258,-0.19804192,-0.54224396,0.7449976,-1.2039618,0.0043034386,-0.10495514,-0.16444778,-0.5364456,0.70351845,0.9091652,-0.0588707,0.13781561,0.38853526,-1.215163,0.11857908,-0.1406769,0.0,1.0,0.0,0.0,0.0,0.0,0.0,-0.45195806,0.14224395,-0.19499761,-2.6151896,-0.13198853,-15.645382,-0.8583784,2.6284456,-1.0343015,0.7181674
-22.493286,40.23879,3.9677114,16.753471,1.2593791,-0.09497738,-0.32369405,-0.72886586,-0.53214717,-0.11611123,0.7512087,-0.47389457,0.53620595,-0.16077043,0.5323453,-0.9617926,-1.9580503,-1.2157156,2.016597,1.9110669,-0.98082876,0.5924622,-0.9187154,-1.9463919,-1.2777199,2.056957,1.8619308,-0.9659854,-1.2819133,-1.0070443,-0.038293146,1.3135442,-0.6950955,0.4454493,-0.12195435,-0.21009064,-0.5421181,0.7436251,-1.205997,0.015771171,-0.14986192,-0.17687225,-0.5352516,0.7018238,0.91325545,-0.06185516,0.13891275,0.37794378,-1.251543,0.12808672,-0.1822697,0.0,1.0,0.0,0.0,0.0,0.0,0.0,-0.43990934,0.14211807,-0.19362509,-1.9915104,2.6638985,-17.203377,0.7322788,3.1391025,-1.1854053,0.57353526
-22.059624,38.59516,3.9694066,16.217152,1.3113624,-0.04627645,-0.31690365,-0.7351453,-0.5590174,-0.14904507,0.7466055,-0.42511287,0.5624884,-0.18647262,0.51894766,-0.9746172,-1.9612964,-1.2030593,2.0144458,1.9181796,-0.9846327,0.579497,-0.9286956,-1.9479388,-1.264521,2.050282,1.866325,-0.96719754,-1.3010269,-0.9952735,-0.19367076,1.3229371,-0.6583823,0.43733013,-0.120899126,-0.22216797,-0.5418701,0.7417739,-1.2090014,0.027863517,-0.19810066,-0.18967628,-0.533947,0.6997027,0.9174558,-0.06407318,0.14014515,0.3667816,-1.2894877,0.13937557,-0.22514954,0.0,1.0,0.0,0.0,0.0,0.0,0.0,-0.427832,0.14187011,-0.19177389,-1.7971754,1.0933638,-15.639922,1.190567,3.701055,-0.804919,0.11656135
3.1180224,62.905666,22.059217,12.899743,0.5936288,0.23173553,0.08505356,-0.68209827,-0.54483044,0.07341616,0.74444413,-0.43196538,0.60458237,-0.16679159,0.51128715,-0.9831787,-1.9405972,-1.1900766,2.0070856,1.9267832,-0.9838767,0.5666424,-0.9385461,-1.9495544,-1.2512554,2.0439153,1.8706894,-0.96838593,-1.2803736,-0.9821106,-0.15022847,1.327863,-0.6303087,0.43635875,-0.11822393,-0.23408318,-0.5413933,0.7398793,-1.1856415,0.054305933,-0.1870828,-0.20243263,-0.53238297,0.6975563,0.92153156,-0.06621333,0.14136857,0.35554212,-1.2701958,0.1712449,-0.21427876,0.0,1.0,0.0,0.0,0.0,0.0,0.0,-0.4159168,0.14139327,-0.1898793,2.0315409,1.1892319,4.5501175,0.5411148,2.52043,-0.030630827,0.22185892
8.7876,64.51527,25.303247,11.026652,0.5287713,0.30714643,0.20107612,-0.6923742,-0.5742304,0.109623305,0.72546464,-0.41541436,0.58238924,-0.18857893,0.497405,-0.9959692,-1.9385921,-1.1787089,2.002374,1.9289284,-0.98724383,0.5539966,-0.9484443,-1.9501457,-1.2380546,2.0378046,1.8750366,-0.9695639,-1.2595128,-0.99280906,-0.027923096,1.3176384,-0.6055839,0.43442473,-0.11773625,-0.24573326,-0.54063797,0.73814714,-1.1579982,0.082581274,-0.16898838,-0.21492004,-0.53048325,0.6955725,0.9253586,-0.06871048,0.14239162,0.34455025,-1.2410004,0.20562264,-0.19615918,0.0,1.0,0.0,0.0,0.0,0.0,0.0,-0.40426672,0.14063796,-0.18814713,2.0301104,-1.1962295,12.504869,-1.0067463,2.1092653,-0.11096001,0.026351213
12.014655,69.261665,27.834051,10.718597,0.3847615,0.30177575,0.25941905,-0.68175757,-0.5577207,0.14660667,0.724724,-0.43377933,0.56813025,-0.15657023,0.48582086,-1.0042164,-1.935485,-1.1655822,1.9944267,1.9318496,-0.9852209,0.5415798,-0.9584064,-1.9493243,-1.224978,2.0318272,1.8793579,-0.9707158,-1.2359121,-0.9977593,0.11980165,1.3043438,-0.5963153,0.43163368,-0.114358805,-0.25706863,-0.5395813,0.7366766,-1.1254816,0.11334603,-0.14042673,-0.22704697,-0.52822495,0.69383186,0.9288935,-0.0717087,0.1432098,0.33392444,-1.2020442,0.24139783,-0.16973923,0.0,1.0,0.0,0.0,0.0,0.0,0.0,-0.39293134,0.1395813,-0.18667656,2.2999763,-0.62669516,15.071019,-1.3274908,0.5262971,-0.16365051,0.30739903
5.951116,63.200623,23.416775,11.12804,0.5642246,0.19983494,0.1909542,-0.69108194,-0.566794,0.13970311,0.7104567,-0.40694487,0.5271658,-0.10444722,0.4724716,-1.0150858,-1.935354,-1.1539323,1.9911327,1.9320745,-0.9811605,0.5293022,-0.9684467,-1.9473274,-1.2120805,2.0259612,1.8836193,-0.97179556,-1.225085,-1.0065647,0.22689378,1.2851703,-0.58411855,0.42450204,-0.10592052,-0.26812553,-0.53824234,0.7353727,-1.0992445,0.14088386,-0.12766434,-0.23888588,-0.5256424,0.69225067,0.9321767,-0.07507381,0.1438371,0.32360688,-1.1768564,0.2717405,-0.15731183,0.0,1.0,0.0,0.0,0.0,0.0,0.0,-0.38187444,0.13824233,-0.18537271,1.0647774,-0.9964943,10.920781,-1.861453,0.9031534,-0.6109476,0.8425057
-0.554389,59.310852,19.42901,12.469074,0.7491311,0.094236135,0.07402089,-0.6916357,-0.55815923,0.12594575,0.7129614,-0.38211715,0.50933665,-0.09756047,0.46013862,-1.0242625,-1.9347328,-1.1407844,1.9877495,1.934553,-0.9815516,0.51707226,-0.9785175,-1.9446975,-1.199326,2.0202622,1.8877968,-0.9727903,-1.222322,-1.0076058,0.2753994,1.2725787,-0.5660987,0.4156656,-0.09725753,-0.278965,-0.5366478,0.73411334,-1.079123,0.16542876,-0.12675105,-0.25057793,-0.5227928,0.690714,0.9352859,-0.078579076,0.1443266,0.31342506,-1.1652943,0.29788345,-0.15547767,0.0,1.0,0.0,0.0,0.0,0.0,0.0,-0.37103498,0.13664779,-0.18411332,0.2926588,-0.20625591,4.9756885,-1.1524677,1.5806556,-0.7945895,0.88258237
-1.5374045,59.34355,18.691156,12.510878,0.70939934,0.040600777,0.06753021,-0.6839971,-0.55404085,0.16229443,0.7037023,-0.3874327,0.5073307,-0.058360394,0.44867253,-1.0339216,-1.9284681,-1.1289558,1.981519,1.9385298,-0.9786263,0.50486904,-0.9885587,-1.941722,-1.186692,2.0147042,1.89189,-0.97367674,-1.2196434,-1.0033036,0.30534714,1.2606082,-0.55331063,0.4074574,-0.085787684,-0.2896061,-0.53481674,0.73284286,-1.0593145,0.18876533,-0.12781937,-0.26215363,-0.51968384,0.68917716,0.9382461,-0.08210792,0.14475131,0.30331448,-1.1540682,0.32276148,-0.15614568,0.0,1.0,0.0,0.0,0.0,0.0,0.0,-0.36039388,0.13481674,-0.18284285,0.28755665,0.33097267,3.1041026,-1.0807753,1.0767579,-0.71837306,1.1574954
-5.794723,55.511833,15.442249,12.797702,0.7325727,-0.06134224,0.01988933,-0.68936366,-0.55011964,0.12199077,0.6957145,-0.38111168,0.474255,-0.017268121,0.43593267,-1.0435706,-1.929523,-1.1171205,1.976593,1.9393156,-0.97540355,0.4926553,-0.9985303,-1.9388021,-1.174176,2.00925,1.8958824,-0.97442794,-1.2218914,-0.99538636,0.28772268,1.2491149,-0.54303813,0.39675155,-0.0714604,-0.30008125,-0.53276443,0.731469,-1.043647,0.21024263,-0.1412447,-0.2736721,-0.5163574,0.68755054,0.9410904,-0.08547199,0.14518708,0.29319623,-1.1504589,0.3436328,-0.1677841,0.0,1.0,0.0,0.0,0.0,0.0,0.0,-0.34991872,0.13276443,-0.18146896,-0.19161701,0.70335865,-1.7078698,-1.0054827,0.8903861,-0.9723544,1.4470742
-11.677706,52.295155,12.395896,14.003787,0.8710305,-0.10595405,-0.06478086,-0.70421404,-0.5428585,0.07470143,0.6977535,-0.36504552,0.43741885,-0.005345459,0.4222339,-1.0528162,-1.931332,-1.1044006,1.9727454,1.9396243,-0.9749625,0.4803429,-1.0083952,-1.9363722,-1.1617305,2.0039136,1.8997462,-0.97503877,-1.2341646,-0.9839153,0.22818471,1.2436035,-0.53075117,0.3832729,-0.05752493,-0.31043625,-0.5305176,0.7298904,-1.0329535,0.22937393,-0.16424555,-0.28524208,-0.51283646,0.68574846,0.94387066,-0.088474154,0.14569621,0.28293628,-1.157771,0.36349475,-0.18739009,0.0,1.0,0.0,0.0,0.0,0.0,0.0,-0.33956373,0.13051757,-0.1798904,-1.1715412,1.064837,-5.9530706,-0.37100315,1.1516333,-1.2744665,1.4178015
-13.976645,48.85753,10.383223,14.136067,0.9596489,-0.15967721,-0.102760546,-0.70462734,-0.5488672,0.03553887,0.7033361,-0.33941343,0.42165166,0.029758573,0.40988016,-1.0632819,-1.9328183,-1.0913969,1.9699723,1.9419113,-0.9720629,0.4679089,-1.0181913,-1.9347051,-1.1492813,1.99875,1.9034731,-0.9754984,-1.24627,-0.97862434,0.14624672,1.2460284,-0.51169956,0.36927944,-0.041968614,-0.32071114,-0.52809525,0.7280133,-1.0258142,0.2462957,-0.19620039,-0.29693413,-0.50912476,0.68369794,0.94662035,-0.09100461,0.14627329,0.2724559,-1.1718719,0.3813086,-0.21389194,0.0,1.0,0.0,0.0,0.0,0.0,0.0,-0.32928884,0.12809524,-0.17801327,-1.1460543,0.44925213,-8.204982,0.44124126,1.8517733,-1.3577104,1.5889853
-15.82369,45.471703,7.900237,13.726887,0.82443655,-0.2546742,-0.1091859,-0.705688,-0.54056746,-0.06201159,0.7057195,-0.36215407,0.4037185,0.067260064,0.3973401,-1.0722481,-1.9409063,-1.0787094,1.9625345,1.943845,-0.96877235,0.45537475,-1.0279264,-1.9341844,-1.1367767,1.9936804,1.907059,-0.9757905,-1.2555869,-0.9718937,0.02061037,1.2527373,-0.5054445,0.35521275,-0.024888666,-0.33093452,-0.52553177,0.72572535,-1.021076,0.2598135,-0.23956987,-0.3087883,-0.5052681,0.68130136,0.9493557,-0.092882104,0.14699674,0.26170325,-1.1876923,0.39526507,-0.2509017,0.0,1.0,0.0,0.0,0.0,0.0,0.0,-0.31906545,0.12553176,-0.17572534,-0.86398125,0.59372187,-12.593712,0.88500977,0.6036639,-1.3853014,1.7341961
