Afshin1997/kuka_rl_ros2/src/catch_and_throw/input_files/idealpd/recorded_trajectories/env_110_data.csv
torque0,torque1,torque2,torque3,torque4,torque5,torque6,action0,action1,action2,action3,action4,action5,action6,set_target_0,set_target_1,set_target_2,set_target_3,set_target_4,set_target_5,set_target_6,joint_pos_0,joint_pos_1,joint_pos_2,joint_pos_3,joint_pos_4,joint_pos_5,joint_pos_6,joint_vel_0,joint_vel_1,joint_vel_2,joint_vel_3,joint_vel_4,joint_vel_5,joint_vel_6,tennisball_pos_0,tennisball_pos_1,tennisball_pos_2,tennisball_lin_vel_0,tennisball_lin_vel_1,tennisball_lin_vel_2,end_effector_pos_0,end_effector_pos_1,end_effector_pos_2,end_effector_rot_0,end_effector_rot_1,end_effector_rot_2,end_effector_rot_3,end_effector_lin_vel_0,end_effector_lin_vel_1,end_effector_lin_vel_2,obs_task_0,obs_task_1,obs_task_2,obs_task_3,obs_task_4,obs_task_5,obs_task_6,to_final_target_0,to_final_target_1,to_final_target_2,joint_acc_0,joint_acc_1,joint_acc_2,joint_acc_3,joint_acc_4,joint_acc_5,joint_acc_6
0.0,0.0,0.0,0.0,0.0,0.0,0.0,0.0,0.0,0.0,0.0,0.0,0.0,0.0,1.7802359,-1.0646509,-1.8151424,-1.1170107,1.9373155,1.1170107,-0.91629785,1.7802359,-1.0646509,-1.8151424,-1.1170107,1.9373155,1.1170107,-0.91629785,0.0,0.0,0.0,0.0,0.0,0.0,0.0,2.835022,-0.69892883,0.11149129,-2.73279,0.27143893,5.7390046,0.5304184,-0.45448303,0.693097,0.5745483,0.17512383,0.15255436,0.7848268,0.0,0.0,0.0,1.0,0.0,0.0,0.0,0.0,0.0,0.0,-3.485022,0.29892883,0.43850872,0.0,0.0,0.0,0.0,0.0,0.0,0.0
0.0,0.0,0.0,0.0,0.0,0.0,0.0,0.0,0.0,0.0,0.0,0.0,0.0,0.0,1.7802359,-1.0646509,-1.8151424,-1.1170107,1.9373155,1.1170107,-0.91629785,1.7802359,-1.0646509,-1.8151424,-1.1170107,1.9373155,1.1170107,-0.91629785,0.0,0.0,0.0,0.0,0.0,0.0,0.0,2.835022,-0.69892883,0.11149129,-2.73279,0.27143893,5.7390046,0.5304184,-0.45448303,0.693097,0.5745483,0.17512383,0.15255436,0.7848268,0.0,0.0,0.0,1.0,0.0,0.0,0.0,0.0,0.0,0.0,-3.485022,0.29892883,0.43850872,0.0,0.0,0.0,0.0,0.0,0.0,0.0
0.0,0.0,0.0,0.0,0.0,0.0,0.0,0.0,0.0,0.0,0.0,0.0,0.0,0.0,1.7802359,-1.0646509,-1.8151424,-1.1170107,1.9373155,1.1170107,-0.91629785,1.7802359,-1.0646509,-1.8151424,-1.1170107,1.9373155,1.1170107,-0.91629785,0.0,0.0,0.0,0.0,0.0,0.0,0.0,2.835022,-0.69892883,0.11149129,-2.73279,0.27143893,5.7390046,0.5304184,-0.45448303,0.693097,0.5745483,0.17512383,0.15255436,0.7848268,0.0,0.0,0.0,1.0,0.0,0.0,0.0,0.0,0.0,0.0,-3.485022,0.29892883,0.43850872,0.0,0.0,0.0,0.0,0.0,0.0,0.0
-176.0,64.35452,-7.724674,110.0,11.449508,4.689032,-3.7051547,-0.8204681,0.32917348,-0.5432811,0.7360095,0.44123596,0.6502065,-0.5842738,1.698189,-1.0317335,-1.8694705,-1.0434098,1.9814391,1.1820314,-0.97472525,1.7788836,-1.0623659,-1.821183,-1.112084,1.9425397,1.1221663,-0.91704935,-0.18020721,0.3038809,-0.80472326,0.6573622,0.6959294,0.685502,-0.09973362,2.8077164,-0.69621277,0.16810185,-2.730058,0.27116755,5.6350803,0.52827835,-0.4578247,0.69386786,0.57810444,0.1738013,0.150992,0.7828089,-0.28546363,-0.44338733,0.102547124,1.0,0.0,0.0,0.0,0.0,0.0,0.0,-3.4577165,0.29621276,0.38189816,-17.943237,30.17931,-80.30317,65.83349,69.34585,67.966286,-9.819993
-176.0,-41.724396,-48.34734,110.0,12.844418,1.1664525,-3.1862688,-0.8012265,-0.23762687,-0.50978124,0.701623,0.47086564,0.64458543,-0.5784129,1.698761,-1.0861286,-1.8721611,-1.0419217,1.9896263,1.1866248,-0.97489065,1.7774302,-1.0599397,-1.8361824,-1.0973727,1.9523244,1.1352488,-0.91620916,-0.13546355,0.21277046,-1.7104229,1.743735,1.0612642,1.4888076,0.14099436,2.7804337,-0.6934967,0.22367391,-2.7273283,0.27089643,5.53126,0.5235634,-0.46650696,0.694604,0.585975,0.17052528,0.1470934,0.77840734,-0.53379273,-1.0082144,0.066689245,1.0,0.0,0.0,0.0,0.0,0.0,0.0,-3.4304338,0.2934967,0.3263261,3.996542,-11.920762,-84.18303,109.05223,33.152603,72.231964,22.772703
-160.20161,99.92764,25.716309,92.75107,8.793047,7.654244,-1.9847631,-0.78350574,0.23747379,0.059943046,0.6623805,0.5233069,0.6916581,-0.5278893,1.6990796,-1.0361924,-1.830188,-1.0311346,2.0046551,1.2044146,-0.9689981,1.7727591,-1.0573496,-1.8513229,-1.0780989,1.9633298,1.1500098,-0.9151239,-0.5773819,0.27141425,-1.4423171,1.9902705,1.1084472,1.4650092,0.09663917,2.7531815,-0.6907959,0.27820858,-2.7246015,0.2706256,5.4275436,0.5159073,-0.47828674,0.6968039,0.5966979,0.16574542,0.14164889,0.7722794,-0.85109556,-1.2274771,0.27523154,1.0,0.0,0.0,0.0,0.0,0.0,0.0,-3.4031816,0.2907959,0.27179143,-44.144012,4.888529,28.716135,25.158382,3.1461477,-4.430151,-4.734613
-102.76399,91.294685,34.695988,55.57234,5.661012,7.509654,-0.23730853,-0.78075516,-0.009847741,0.22524671,0.66868705,0.5286646,0.677357,-0.575915,1.6946836,-1.0583344,-1.8287982,-1.0112302,2.0161963,1.2177454,-0.9727154,1.7636935,-1.0553507,-1.8606403,-1.058911,1.9738584,1.1637369,-0.914689,-1.016858,0.1739957,-0.7540797,1.8959718,1.0284393,1.3381783,0.024464406,2.725956,-0.6880951,0.33170685,-2.7218776,0.27035502,5.3239307,0.50558853,-0.4910431,0.70072967,0.6083674,0.1597426,0.13463086,0.765667,-1.1051438,-1.2811106,0.43601865,1.0,0.0,0.0,0.0,0.0,0.0,0.0,-3.375956,0.2880951,0.21829316,-44.181503,-10.373247,71.05687,-9.155059,-9.734845,-13.793302,-7.618207
-39.324257,130.05678,54.220657,30.153778,2.2486787,7.660802,0.56503475,-0.7880013,0.16764097,0.3100754,0.6627638,0.5981166,0.6648075,-0.56804734,1.6848934,-1.0385866,-1.8296328,-0.9926346,2.03367,1.2302177,-0.9714937,1.7510382,-1.053531,-1.8626487,-1.0419108,1.9835553,1.1760412,-0.91501135,-1.3496733,0.18269913,-0.009506187,1.6342062,0.94580185,1.1927819,-0.05352679,2.6987572,-0.6853943,0.38416976,-2.7191563,0.2700847,5.220422,0.4933319,-0.50318146,0.7064389,0.6197158,0.1524601,0.12631023,0.7594431,-1.2785591,-1.1771972,0.6172935,1.0,0.0,0.0,0.0,0.0,0.0,0.0,-3.3487573,0.28539428,0.16583025,-33.659508,0.3299266,76.53476,-26.31054,-9.61647,-15.030813,-8.525436
-2.4380274,121.48512,48.12651,12.979231,0.009108633,5.369609,0.5684343,-0.7989307,0.21601872,0.22454117,0.66200197,0.602577,0.66558737,-0.59970134,1.6711451,-1.0319291,-1.8401946,-0.9757106,2.043813,1.2426,-0.9749815,1.7361609,-1.0512346,-1.8591831,-1.0275122,1.9925752,1.1870257,-0.91606325,-1.5345337,0.24412218,0.46948934,1.3745606,0.88508946,1.066995,-0.12440383,2.671589,-0.6826935,0.43559837,-2.7164376,0.2698147,5.117016,0.48000717,-0.5139847,0.7134792,0.6303507,0.14426368,0.117448695,0.7536921,-1.3629197,-1.0351632,0.7315371,1.0,0.0,0.0,0.0,0.0,0.0,0.0,-3.321589,0.28269348,0.11440164,-18.767334,5.778673,49.15251,-26.140522,-6.7420006,-12.56299,-7.6936393
21.825497,135.15662,47.76243,6.1840544,-1.8202105,3.9437032,0.14438955,-0.80098784,0.42278472,0.11094953,0.6285807,0.62001204,0.66530085,-0.57686645,1.6560621,-1.0089561,-1.8480881,-0.96465415,2.0545764,1.2535558,-0.9737499,1.7203699,-1.0473036,-1.8534019,-1.0152899,2.0012364,1.1969134,-0.91772646,-1.5950236,0.44156498,0.6169209,1.1709939,0.8590694,0.96347463,-0.18224666,2.6444435,-0.6799927,0.4859937,-2.7137218,0.26954493,5.013714,0.46632385,-0.5231705,0.7215422,0.6404134,0.1355176,0.109145075,0.7480595,-1.3813467,-0.86560977,0.82817566,1.0,0.0,0.0,0.0,0.0,0.0,0.0,-3.2944436,0.27999267,0.0640063,-6.3290834,19.431084,15.52471,-20.493889,-2.8289795,-10.098767,-6.3697815
27.536848,130.27094,41.383484,4.728142,-2.423901,2.6068478,-0.2451525,-0.8157097,0.5308668,0.032210518,0.598819,0.64042515,0.6492335,-0.58175856,1.638799,-0.99421686,-1.8501809,-0.955408,2.065279,1.2618368,-0.9759023,1.7044874,-1.041015,-1.8479679,-1.0045573,2.00985,1.2058932,-0.91988844,-1.5867503,0.69064236,0.5204715,1.0403023,0.86225665,0.87710935,-0.22911103,2.6173286,-0.6772995,0.5353568,-2.7110085,0.26927546,4.910515,0.45271683,-0.53076935,0.7303568,0.6502131,0.1265695,0.10217461,0.7421344,-1.3634118,-0.7115976,0.8962181,1.0,0.0,0.0,0.0,0.0,0.0,0.0,-3.2673287,0.2772995,0.014643192,0.56631565,24.671936,-9.170448,-13.164735,0.2965331,-8.354759,-5.1430793
25.142872,115.17685,33.52396,5.2995563,-2.3076835,1.6109769,-0.46735257,-0.8153755,0.59454113,-0.032726478,0.5868633,0.63191557,0.65125567,-0.5657221,1.6229498,-0.98156095,-1.8512405,-0.94587094,2.0730417,1.2710187,-0.97646064,1.688933,-1.0323614,-1.8444202,-0.994619,2.0185513,1.2141215,-0.9224376,-1.5459014,0.92298526,0.30069342,0.9779692,0.8729329,0.8054339,-0.2647729,2.5902367,-0.67461395,0.58368874,-2.708298,0.26900622,4.807419,0.43937683,-0.5370712,0.7396335,0.6600055,0.11769062,0.09682038,0.73564076,-1.3308446,-0.58902276,0.93546253,1.0,0.0,0.0,0.0,0.0,0.0,0.0,-3.2402368,0.27461395,-0.033688724,3.8630486,23.067438,-21.675331,-6.36245,1.125145,-6.9726586,-3.9183526
16.730936,95.1995,25.68066,7.557743,-1.6276381,1.0074664,-0.5483291,-0.8184512,0.63022494,-0.08794602,0.5891661,0.6285903,0.6566877,-0.5652692,1.6070879,-0.9693389,-1.8532147,-0.9357024,2.0814104,1.2797903,-0.9789645,1.6737982,-1.0218347,-1.8432415,-0.98490393,2.0273633,1.2217261,-0.9252872,-1.5032547,1.0956142,0.057590812,0.96865755,0.88392353,0.7457945,-0.2926753,2.5631752,-0.6719284,0.63099045,-2.7055902,0.2687373,4.704426,0.42631912,-0.5424423,0.7491112,0.66995144,0.10904279,0.09294814,0.7284472,-1.3032317,-0.50571525,0.9497413,1.0,0.0,0.0,0.0,0.0,0.0,0.0,-3.2131753,0.2719284,-0.08099043,4.09472,17.146826,-24.107256,-1.1152864,1.1815906,-5.8913827,-3.0711532
8.440951,76.648834,19.631155,9.490513,-0.8560446,0.7188752,-0.5030402,-0.81991047,0.64728,-0.13087834,0.59078217,0.6236503,0.65865856,-0.5720717,1.5918071,-0.9571067,-1.8563293,-0.9258257,2.0897284,1.2875919,-0.98249435,1.6589991,-1.0101217,-1.8442008,-0.9750687,2.0362477,1.2288119,-0.928379,-1.4726212,1.1964067,-0.14655215,0.9877357,0.89047277,0.69602793,-0.3155077,2.5361404,-0.66924286,0.67726296,-2.7028854,0.2684686,4.601536,0.41342545,-0.54722595,0.7585858,0.6800958,0.10068902,0.090206794,0.7205512,-1.2879611,-0.45450032,0.94537145,1.0,0.0,0.0,0.0,0.0,0.0,0.0,-3.1861405,0.26924285,-0.12726295,2.9318333,9.992623,-20.237556,1.6819,0.73155165,-4.9893856,-2.5346637
6.460448,68.77813,18.614737,9.898731,-0.33511692,0.84427446,-0.3040227,-0.81475675,0.6667663,-0.12597474,0.5786752,0.640533,0.6626225,-0.5798856,1.5775235,-0.9434451,-1.8567983,-0.91720116,2.100301,1.2950741,-0.9863676,1.6444193,-0.9977987,-1.8465526,-0.96504176,2.0452237,1.2354666,-0.93167394,-1.4534551,1.2438596,-0.26380977,1.006846,0.90027946,0.6548886,-0.33511233,2.5091324,-0.6665573,0.72250736,-2.700183,0.2682002,4.498749,0.4006195,-0.5515747,0.76800424,0.6903341,0.092562936,0.08814592,0.7121104,-1.2828988,-0.4127272,0.93980974,1.0,0.0,0.0,0.0,0.0,0.0,0.0,-3.1591325,0.2665573,-0.17250735,1.7851353,4.663229,-11.460858,1.6645193,1.0138869,-4.1777015,-2.2353947
5.4262657,65.58694,18.740606,10.347154,-0.019200563,1.0295908,-0.15289001,-0.8132054,0.6818674,-0.13552336,0.57791644,0.6380444,0.6656557,-0.57936424,1.5630988,-0.9296119,-1.8601049,-0.9072501,2.109028,1.3020321,-0.9896104,1.6299521,-0.9852426,-1.8495548,-0.9548594,2.0542722,1.2417647,-0.93514055,-1.4451815,1.2592086,-0.31129077,1.0212554,0.90670604,0.62103915,-0.3514827,2.482151,-0.66387177,0.76672465,-2.6974833,0.26793203,4.3960648,0.38779068,-0.5555115,0.7773833,0.7005415,0.084553525,0.08642116,0.7032949,-1.2855681,-0.3729173,0.9368717,1.0,0.0,0.0,0.0,0.0,0.0,0.0,-3.1321511,0.26387176,-0.21672463,0.6848097,1.4513493,-4.39375,1.192689,0.6384492,-3.4770489,-1.9353807
5.9101586,65.26636,19.343056,10.216344,0.073394895,1.1759979,-0.03830065,-0.813519,0.69280344,-0.14072433,0.5705041,0.63349843,0.67107564,-0.5826114,1.5486002,-0.9159623,-1.8636272,-0.89780897,2.117622,1.3088722,-0.9934017,1.6155058,-0.97264266,-1.8526866,-0.94461787,2.063355,1.2477709,-0.9387521,-1.4449478,1.2600076,-0.31250024,1.0243214,0.90838414,0.5937227,-0.3655,2.4551964,-0.66119385,0.80991584,-2.6947865,0.26766416,4.2934833,0.3749199,-0.55903625,0.78675115,0.71061605,0.07656703,0.08483683,0.694237,-1.2909273,-0.32937154,0.93648005,1.0,0.0,0.0,0.0,0.0,0.0,0.0,-3.1051965,0.26119384,-0.25991583,-0.13575554,-0.0069618225,0.31163692,0.058412552,0.12613535,-2.828586,-1.7180085
7.700754,67.200905,20.440321,9.728461,0.051652372,1.2953541,0.06538666,-0.81487423,0.7018842,-0.12729388,0.55591625,0.6431553,0.6692752,-0.5832462,1.5340184,-0.90245426,-1.865416,-0.8890262,2.1276705,1.3146985,-0.99707675,1.6010252,-0.9600532,-1.8555954,-0.93445456,2.0724645,1.2535425,-0.94248766,-1.4496886,1.2582865,-0.28185365,1.0128137,0.91160107,0.5712539,-0.3773513,2.4282684,-0.65852356,0.852082,-2.6920922,0.26739654,4.1910043,0.36199188,-0.56207275,0.796141,0.7204641,0.068530515,0.08328673,0.68505347,-1.2955377,-0.27891612,0.93959534,1.0,0.0,0.0,0.0,0.0,0.0,0.0,-3.0782685,0.25852355,-0.302082,-0.6520033,-0.26285648,3.5668612,-1.4004946,0.25017262,-2.3406267,-1.5190601
11.404762,70.151054,21.723892,8.3218155,-0.13865316,1.347897,0.17224081,-0.81471753,0.71194476,-0.103349,0.5267183,0.64854485,0.6686711,-0.5800268,1.5195534,-0.88885874,-1.8659302,-0.8817827,2.1373188,1.3204097,-1.0004903,1.5864912,-0.94744563,-1.8580482,-0.92455924,2.081612,1.2591215,-0.94632524,-1.4552501,1.2613353,-0.23119533,0.9809059,0.9158879,0.5531211,-0.3870258,2.4013672,-0.6558533,0.8932242,-2.6894007,0.2671292,4.088628,0.34906006,-0.5645294,0.80557865,0.72998756,0.06040145,0.08172925,0.6758625,-1.2938917,-0.2182746,0.94469506,1.0,0.0,0.0,0.0,0.0,0.0,0.0,-3.0513673,0.25585327,-0.34322417,-0.7524967,0.21579266,5.618781,-3.448689,0.3448367,-1.875937,-1.3180315
15.1051655,71.69414,22.269817,6.837284,-0.34384736,1.2844996,0.24394743,-0.80934244,0.7196351,-0.086200505,0.50140214,0.65641004,0.6721511,-0.575476,1.505557,-0.87548214,-1.8666682,-0.87441903,2.147253,1.3263366,-1.0038729,1.5719343,-0.9347675,-1.8599727,-0.91508067,2.0908208,1.264548,-0.9502439,-1.4562898,1.2696439,-0.17759132,0.9358813,0.9226009,0.5390515,-0.39454526,2.3744926,-0.653183,0.93334335,-2.6867118,0.26686212,3.9863539,0.3362007,-0.5663223,0.81506276,0.7391139,0.05216904,0.08016726,0.66675496,-1.2837687,-0.15120673,0.94876784,1.0,0.0,0.0,0.0,0.0,0.0,0.0,-3.0244927,0.25318298,-0.38334334,-0.3042221,0.7502556,5.917558,-4.763627,0.59045553,-1.4264584,-1.1040211
17.752483,71.895485,22.26904,5.5137997,-0.49640584,1.1804221,0.30880105,-0.8097807,0.7251225,-0.057947338,0.464031,0.6687017,0.67142934,-0.5679023,1.4909563,-0.8622552,-1.8657675,-0.86867756,2.157691,1.3316909,-1.0070341,1.5573813,-0.9219854,-1.8613479,-0.9061581,2.1001287,1.2698542,-0.95421976,-1.4557319,1.2808669,-0.12238539,0.8768785,0.9332922,0.52806926,-0.39985123,2.3476448,-0.6505127,0.97244054,-2.6840255,0.26659533,3.8841827,0.3235016,-0.5674362,0.8245676,0.7477851,0.04384992,0.07860478,0.6578114,-1.2661669,-0.08087877,0.9497841,1.0,0.0,0.0,0.0,0.0,0.0,0.0,-2.997645,0.2505127,-0.42244053,-0.14433861,1.0534525,6.0680346,-6.1617017,1.0014176,-1.071322,-0.8769214
16.952265,69.78473,20.824625,5.696533,-0.5311925,0.9872987,0.254108,-0.80816966,0.73477185,-0.070429295,0.448416,0.6711906,0.6735649,-0.5643639,1.4765643,-0.8485082,-1.8683908,-0.8613165,2.1672478,1.3372107,-1.0106561,1.5428492,-0.9090631,-1.8623722,-0.89778864,2.1095395,1.2750708,-0.95823663,-1.453205,1.2957927,-0.09416506,0.8227897,0.94359,0.51969826,-0.4034106,2.3208275,-0.6478424,1.0105168,-2.6813421,0.26632878,3.7821136,0.3109932,-0.56785583,0.8340467,0.75603026,0.035485815,0.07710419,0.64900994,-1.2453079,-0.015925482,0.94565624,1.0,0.0,0.0,0.0,0.0,0.0,0.0,-2.9708276,0.2478424,-0.46051675,0.06864071,1.4378548,3.3004985,-5.661881,0.9944439,-0.78389645,-0.67262053
17.47053,69.69791,20.424791,5.6048183,-0.6062206,0.8854606,0.24336927,-0.80555886,0.7473718,-0.055672053,0.4171036,0.6729713,0.67600954,-0.5567562,1.4622933,-0.8343259,-1.8679394,-0.85607827,2.1768367,1.3426718,-1.0139122,1.5283514,-0.8959596,-1.8631904,-0.8899609,2.119038,1.2802187,-0.96227735,-1.449121,1.3150445,-0.07624598,0.76864725,0.9520239,0.5134315,-0.40531236,2.294033,-0.6451874,1.0475731,-2.6786613,0.26606253,3.6801465,0.29871368,-0.56764984,0.84347755,0.76387525,0.027100435,0.07572548,0.64033246,-1.220538,0.04829224,0.9402501,1.0,0.0,0.0,0.0,0.0,0.0,0.0,-2.9440331,0.24518737,-0.49757308,0.23024082,1.8793821,2.2406192,-5.6618094,0.8281827,-0.5556822,-0.4939139
23.07323,67.010086,20.017504,1.533308,-0.9540403,0.63891894,0.41556427,-0.8037428,0.7448566,-0.009243536,0.31803,0.6849354,0.67646694,-0.5520771,1.4479772,-0.82147396,-1.8641148,-0.8581579,2.1875317,1.3478655,-1.017485,1.5138975,-0.8827112,-1.8637035,-0.8829943,2.128636,1.285319,-0.96632856,-1.444663,1.3280715,-0.041613568,0.6717766,0.96243155,0.50957227,-0.4061511,2.2672691,-0.64253235,1.0836105,-2.6759832,0.2657965,3.5782814,0.28680038,-0.56676483,0.85277027,0.7712187,0.018770603,0.074464396,0.63192123,-1.1795764,0.11701049,0.9233345,1.0,0.0,0.0,0.0,0.0,0.0,0.0,-2.9172692,0.24253234,-0.5336105,0.26490688,1.2823105,3.9097264,-9.951508,1.0326743,-0.20418167,-0.38215518
26.344059,65.82107,19.576668,-0.75784683,-1.2162622,0.41938788,0.48804307,-0.79996973,0.75912863,-0.0023152665,0.24856623,0.6906432,0.6763132,-0.54527843,1.4339006,-0.80679834,-1.863935,-0.85813767,2.1977003,1.3529503,-1.0208564,1.499499,-0.86931205,-1.8638942,-0.87717974,2.1383367,1.2903925,-0.9703807,-1.4389515,1.3438946,-0.010307819,0.5504802,0.9729123,0.5073939,-0.40579206,2.240528,-0.6398773,1.11863,-2.673308,0.26553077,3.476518,0.27539062,-0.56516266,0.8618442,0.77799135,0.010578396,0.07335412,0.62388825,-1.1264421,0.18635233,0.89946085,1.0,0.0,0.0,0.0,0.0,0.0,0.0,-2.8905282,0.23987731,-0.56863004,0.3998518,1.5837669,3.5325046,-12.391531,1.0648489,0.037133694,-0.23856163
28.59131,62.93433,18.531986,-3.033846,-1.4511507,0.15348065,0.5511847,-0.8012964,0.76615363,0.009830001,0.15744947,0.6882603,0.6738547,-0.53507364,1.4193693,-0.7926967,-1.8629112,-0.8614348,2.2071626,1.357778,-1.0238881,1.4851404,-0.8557575,-1.8637989,-0.87277853,2.1481175,1.2954489,-0.9744186,-1.4354588,1.3592868,0.01729809,0.40243796,0.97997224,0.50639784,-0.40398848,2.2138176,-0.6372223,1.1526327,-2.670635,0.2652653,3.3748565,0.2645836,-0.5628891,0.8706111,0.7841563,0.0026247296,0.07244945,0.61631405,-1.0619078,0.2532777,0.86617184,1.0,0.0,0.0,0.0,0.0,0.0,0.0,-2.8638177,0.23722228,-0.6026327,0.19242764,1.5659332,3.101637,-15.060544,0.753963,0.23099184,-0.059968233
36.132793,62.878788,19.389055,-7.8666964,-1.9062781,-0.056957096,0.7858249,-0.80064124,0.771404,0.088013805,0.0028416114,0.6942667,0.6694572,-0.52962464,1.4050763,-0.7786171,-1.8549975,-0.8724944,2.2175443,1.3623946,-1.0273811,1.4708067,-0.84206367,-1.8631485,-0.87027895,2.1579633,1.3005034,-0.9784345,-1.4333214,1.3729757,0.082115576,0.19830638,0.9867995,0.50651515,-0.40141678,2.18713,-0.63456726,1.1856195,-2.667965,0.26500008,3.2732966,0.25457382,-0.5598831,0.8789838,0.7895782,-0.0049996777,0.07174239,0.6094212,-0.97666824,0.32758734,0.8245439,1.0,0.0,0.0,0.0,0.0,0.0,0.0,-2.83713,0.23456725,-0.63561946,0.07388592,1.4246225,6.7857304,-20.648247,0.75559616,0.4594803,0.045090914
45.30311,60.454697,19.576717,-14.471299,-2.5131063,-0.43505508,1.0589399,-0.79686594,0.77233547,0.15618208,-0.18884397,0.6941896,0.6623849,-0.5151295,1.3911201,-0.7648301,-1.8475302,-0.8891634,2.2273822,1.3667419,-1.0299474,1.4565035,-0.82826686,-1.8616092,-0.87034667,2.1678662,1.3055617,-0.9824123,-1.4297416,1.3821778,0.17848837,-0.07570042,0.9918394,0.5076812,-0.39711878,2.1604729,-0.63191986,1.2175915,-2.6652975,0.26473513,3.1718383,0.24560928,-0.5560837,0.88682723,0.79406846,-0.012146284,0.0712213,0.60351896,-0.8636679,0.4069123,0.76736784,1.0,0.0,0.0,0.0,0.0,0.0,0.0,-2.810473,0.23191985,-0.6675915,0.2662182,1.0131836,9.838104,-27.59072,0.6261349,0.7147908,0.27543306
45.922874,59.721992,19.582682,-14.45108,-2.47123,-0.56324273,1.0840812,-0.7902394,0.77608144,0.21128635,-0.28697422,0.69530505,0.6627264,-0.49824056,1.3774796,-0.7506587,-1.8404806,-0.8990441,2.2373967,1.3718343,-1.0322363,1.4422632,-0.81439567,-1.8590038,-0.8731104,2.177815,1.3106333,-0.9863338,-1.4222099,1.3891001,0.2880985,-0.3437358,0.99642205,0.50904405,-0.39088494,2.1338387,-0.6292801,1.2485496,-2.6626327,0.26447043,3.0704813,0.2378006,-0.55152893,0.89411175,0.79759187,-0.01878169,0.07085401,0.598727,-0.74812025,0.48057768,0.7114271,1.0,0.0,0.0,0.0,0.0,0.0,0.0,-2.7838387,0.22928008,-0.69854957,0.7287264,0.8104086,10.985056,-26.920424,0.67254305,0.7464409,0.537771
39.206757,62.677357,20.197716,-7.960733,-1.846381,-0.34839836,0.8898038,-0.77886856,0.7862016,0.26512328,-0.30612436,0.69812375,0.66429305,-0.4688727,1.3643764,-0.73577553,-1.8324914,-0.9037228,2.2476273,1.3770626,-1.033221,1.428147,-0.8004348,-1.8552921,-0.87796843,2.1878095,1.3157145,-0.9901752,-1.4081852,1.398925,0.3984366,-0.53334785,1.0017136,0.50961006,-0.38195452,2.107235,-0.6266403,1.2784948,-2.6599708,0.26420602,2.9692256,0.23096848,-0.54628754,0.90099365,0.8002871,-0.025068922,0.07056324,0.59492254,-0.6546133,0.54488915,0.676003,1.0,0.0,0.0,0.0,0.0,0.0,0.0,-2.757235,0.22664031,-0.7284948,1.4228821,1.1188984,10.877895,-19.025867,0.8628249,0.57502985,0.85031986
34.061474,62.995495,20.356564,-3.6846275,-1.3732747,-0.20143285,0.7919631,-0.7784153,0.78168076,0.35421476,-0.38178402,0.6941234,0.65574473,-0.4419067,1.3503054,-0.72226673,-1.8198706,-0.9161468,2.2572217,1.381289,-1.0343659,1.4141566,-0.7864158,-1.8503444,-0.8843676,2.1978383,1.3207918,-0.9939117,-1.3958396,1.4034541,0.5259592,-0.67559004,1.004961,0.5086709,-0.37098026,2.0806541,-0.62400055,1.3074284,-2.6573112,0.26394185,2.8680713,0.22494888,-0.5404434,0.90761465,0.8022678,-0.031168856,0.07024865,0.5919965,-0.57763,0.6027399,0.6524748,1.0,0.0,0.0,0.0,0.0,0.0,0.0,-2.7306542,0.22400054,-0.75742835,1.2786865,0.6025791,12.479424,-14.260351,0.7431984,0.37720203,1.0792673
28.628082,64.84741,20.920643,1.1714749,-0.9029705,0.021857373,0.6770046,-0.77509475,0.78573495,0.43663636,-0.41664428,0.6931529,0.6566833,-0.40084478,1.336647,-0.70784235,-1.8066808,-0.926032,2.2671535,1.3864602,-1.0339961,1.4002749,-0.77235484,-1.8440311,-0.89180243,2.2078938,1.3258578,-0.9975166,-1.3856763,1.4075075,0.6653651,-0.7661561,1.0072894,0.5072125,-0.35697034,2.0541,-0.6213608,1.3353511,-2.6546545,0.26367798,2.767018,0.21956635,-0.5340347,0.9141123,0.8036284,-0.03724346,0.06982342,0.5898465,-0.51884896,0.65700483,0.6434928,1.0,0.0,0.0,0.0,0.0,0.0,0.0,-2.7041001,0.22136077,-0.7853511,1.0683298,0.56762695,13.578045,-9.077131,0.7274866,0.27669668,1.397562
21.31781,65.96216,20.873266,7.2578745,-0.34682557,0.2515739,0.48582953,-0.7683598,0.7914869,0.49152872,-0.3933404,0.6901948,0.6551784,-0.33802572,1.3234389,-0.69320613,-1.7948782,-0.9311365,2.2769134,1.3913755,-1.0313191,1.3864905,-0.7582414,-1.8363922,-0.89962924,2.217957,1.3309046,-1.0009456,-1.3758212,1.4132451,0.7953089,-0.78832704,1.007969,0.50499207,-0.3382515,2.0275726,-0.618721,1.362264,-2.6520004,0.26341435,2.666066,0.21458817,-0.52713776,0.9206402,0.804506,-0.043469142,0.06924446,0.58829045,-0.4826486,0.7050959,0.650136,1.0,0.0,0.0,0.0,0.0,0.0,0.0,-2.6775727,0.218721,-0.812264,1.0260582,0.748229,12.582254,-2.2491693,0.6131649,0.13389587,1.8661201
12.666477,62.246975,18.879211,12.516423,0.19612074,0.31872183,0.2678247,-0.77149665,0.7891869,0.5201321,-0.3608959,0.6879823,0.649899,-0.27315453,1.3093408,-0.6793227,-1.784379,-0.93571883,2.2867553,1.3958945,-1.0282611,1.3727595,-0.7440927,-1.8276775,-0.90725577,2.2280164,1.3359228,-1.0041537,-1.3720762,1.4161007,0.8955628,-0.75437766,1.0068631,0.50168294,-0.31507468,2.001072,-0.61608887,1.3881682,-2.649349,0.263151,2.5652146,0.20981216,-0.5198593,0.9272835,0.8050658,-0.049946044,0.068514675,0.58709455,-0.46817642,0.740546,0.66298467,1.0,0.0,0.0,0.0,0.0,0.0,0.0,-2.651072,0.21608886,-0.8381682,0.3804922,0.46217442,9.637749,3.3219576,0.42014122,-0.046610832,2.2990167
2.6784558,55.487778,15.528722,17.740425,0.7642833,0.30596662,-0.009211723,-0.77960116,0.784171,0.5183418,-0.29500133,0.67959243,0.65622413,-0.24494344,1.2947993,-0.6656756,-1.7758433,-0.9367559,2.2959757,1.4015453,-1.028648,1.3589998,-0.7299526,-1.8183124,-0.9141346,2.2380338,1.3409086,-1.0071292,-1.3773665,1.4139433,0.9490361,-0.6661943,1.0016167,0.49838862,-0.29178274,1.9745979,-0.61346436,1.4130646,-2.6467001,0.2628879,2.4644642,0.20500565,-0.51234436,0.93407017,0.80551594,-0.05671395,0.06768385,0.5859576,-0.4765641,0.7586045,0.67748517,1.0,0.0,0.0,0.0,0.0,0.0,0.0,-2.624598,0.21346435,-0.8630646,-0.5795717,-0.0436306,5.033982,8.678508,-0.05054474,-0.13282895,2.2893548
-2.6133366,48.011803,12.209047,18.993128,0.9557202,0.11429514,-0.16099398,-0.79179823,0.78060305,0.50803196,-0.2706024,0.680648,0.66307974,-0.2371671,1.27982,-0.65189224,-1.7675092,-0.9411949,2.3060985,1.4072167,-1.0308459,1.3451144,-0.7158601,-1.8087394,-0.92007124,2.2480016,1.3458678,-1.0098891,-1.3925592,1.4081761,0.9593211,-0.57019216,0.99611783,0.4957029,-0.27087235,1.9481506,-0.61083984,1.4369544,-2.644054,0.26262504,2.3638144,0.2000618,-0.50476074,0.94093764,0.8060063,-0.063706644,0.06682924,0.5846614,-0.492453,0.7631475,0.68329793,1.0,0.0,0.0,0.0,0.0,0.0,0.0,-2.5981507,0.21083984,-0.88695437,-1.6106367,-0.4192114,0.806129,9.418678,-0.15399456,-0.11879206,2.0443916
-7.044132,44.968536,10.683706,21.63612,1.211252,0.11181095,-0.29990864,-0.79948664,0.78111625,0.5010474,-0.18545288,0.674283,0.6604092,-0.196137,1.2651657,-0.6377485,-1.7586347,-0.9386165,2.31543,1.4119086,-1.0295029,1.3310477,-0.7018211,-1.7992637,-0.92484725,2.2579007,1.3508002,-1.0124335,-1.4118698,1.4029763,0.9428856,-0.44742343,0.98904365,0.49268964,-0.2491933,1.92173,-0.60821533,1.4598383,-2.6414106,0.26236248,2.2632654,0.19486237,-0.49717712,0.94787925,0.8066488,-0.07091754,0.06600583,0.5830365,-0.5190738,0.7607317,0.6912633,1.0,0.0,0.0,0.0,0.0,0.0,0.0,-2.5717301,0.20821533,-0.90983826,-2.0537138,-0.36783218,-1.8253088,12.067467,-0.332582,-0.20228624,2.1119328
-4.3603725,43.09316,10.177988,19.193527,0.95226985,-0.08258796,-0.26253334,-0.80205655,0.7814427,0.49226576,-0.17178331,0.6790621,0.6626021,-0.22027233,1.250842,-0.62367684,-1.7500372,-0.9420256,2.3258069,1.4170604,-1.0344608,1.3168093,-0.68782115,-1.7900474,-0.928578,2.2677503,1.3557078,-1.0148005,-1.4282769,1.399506,0.91404516,-0.34893695,0.98484564,0.4904069,-0.23286413,1.8953362,-0.6055908,1.4817175,-2.6387696,0.26210016,2.1628168,0.18949127,-0.4896164,0.9548405,0.8074506,-0.07827962,0.065259315,0.5810653,-0.5353437,0.75894564,0.69126385,1.0,0.0,0.0,0.0,0.0,0.0,0.0,-2.5453362,0.20559081,-0.93171746,-1.7527819,-0.20916462,-3.0303478,9.655083,-0.08819103,-0.11470318,1.5817165
2.4012318,40.39348,9.723896,13.087194,0.3654759,-0.46954942,-0.09087276,-0.8025516,0.77674526,0.4794318,-0.20508856,0.67948496,0.6602263,-0.21904926,1.2365541,-0.61014664,-1.7421042,-0.9490869,2.3356988,1.4217304,-1.0367055,1.3024546,-0.6738641,-1.7811515,-0.9317833,2.2775693,1.3605963,-1.0170264,-1.4383284,1.3947747,0.88104796,-0.31161463,0.9820608,0.48889786,-0.21933201,1.868969,-0.6029663,1.5025929,-2.6361315,0.2618381,2.0624685,0.18413544,-0.48205566,0.9616704,0.8083148,-0.08561231,0.06465589,0.5788931,-0.5267768,0.7590058,0.67383844,1.0,0.0,0.0,0.0,0.0,0.0,0.0,-2.518969,0.2029663,-0.9525929,-1.0847569,-0.35455227,-3.4008145,3.5664856,-0.015699863,0.026935339,1.3090312
7.958208,41.31809,10.527485,9.010738,-0.09276426,-0.67132497,0.05868469,-0.80579734,0.78054476,0.4801912,-0.21656442,0.6770895,0.6560384,-0.20574915,1.2218748,-0.59580964,-1.7331324,-0.9534398,2.3452783,1.4262002,-1.0376014,1.2880293,-0.6599271,-1.7725132,-0.9349419,2.2873654,1.3654715,-1.0191245,-1.4441441,1.3937072,0.85777986,-0.31771287,0.97943985,0.48781005,-0.20685807,1.8426247,-0.6003494,1.5224657,-2.6334958,0.26157632,1.9622207,0.17899704,-0.4744568,0.9682664,0.80913013,-0.09278322,0.06424334,0.57669103,-0.49982432,0.764765,0.64849263,1.0,0.0,0.0,0.0,0.0,0.0,0.0,-2.4926248,0.20034942,-0.9724657,-0.6354809,0.004053116,-2.4110675,-0.741905,-0.026679039,0.11822581,1.2121588
12.3766775,41.63454,11.154227,5.6320114,-0.424988,-0.8468592,0.20300719,-0.80839163,0.77874106,0.48655203,-0.24633542,0.6817234,0.6539635,-0.17875487,1.2071902,-0.582053,-1.723858,-0.9595754,2.355538,1.4308678,-1.037,1.2735659,-0.6459987,-1.763993,-0.9384371,2.297154,1.3703371,-1.0210948,-1.4472628,1.3929659,0.8497968,-0.36052507,0.9793088,0.48717064,-0.19359621,1.8163109,-0.5977402,1.5413368,-2.630863,0.26131478,1.862073,0.17424393,-0.466774,0.9745588,0.80979407,-0.09970006,0.06403502,0.57462406,-0.45835888,0.7739738,0.6165218,1.0,0.0,0.0,0.0,0.0,0.0,0.0,-2.466311,0.19774017,-0.99133676,-0.34120083,0.032019615,-0.87361336,-4.3848934,0.19979477,0.20148158,1.2986898
14.307805,43.13703,12.108883,5.093469,-0.50947535,-0.8651631,0.27674332,-0.8031721,0.77913857,0.4950628,-0.24698992,0.6788034,0.65544426,-0.10852919,1.1932486,-0.56808484,-1.7144867,-0.9631361,2.3650343,1.4358816,-1.0319477,1.2591139,-0.6320703,-1.7554462,-0.9423748,2.3069386,1.3752009,-1.0228915,-1.4444358,1.393222,0.8558904,-0.40516973,0.97879,0.4869468,-0.1750947,1.79002,-0.5951309,1.5592071,-2.6282325,0.26105353,1.7620252,0.16993332,-0.45897675,0.9805498,0.81023794,-0.106363505,0.06401265,0.57280326,-0.41287985,0.7865071,0.58699876,1.0,0.0,0.0,0.0,0.0,0.0,0.0,-2.44002,0.19513091,-1.009207,0.27461052,0.13668537,0.50822496,-4.5471487,0.17464161,0.25033355,1.8263191
14.110872,43.47832,12.495863,5.6879506,-0.45503426,-0.84100896,0.30395326,-0.80675226,0.77797914,0.5088597,-0.25831914,0.6768353,0.6559886,-0.045457717,1.1784387,-0.5542724,-1.7045603,-0.96820676,2.374622,1.4407997,-1.0274373,1.2446848,-0.6181419,-1.746743,-0.9467236,2.3167157,1.3800627,-1.0244708,-1.4424887,1.3931004,0.8745938,-0.44503364,0.97786117,0.4868231,-0.15208587,1.7637596,-0.59252167,1.5760777,-2.6256049,0.26079252,1.6620775,0.16605759,-0.45102692,0.98626953,0.8104309,-0.11280923,0.06414704,0.5712801,-0.369191,0.8000888,0.5606261,1.0,0.0,0.0,0.0,0.0,0.0,0.0,-2.4137597,0.19252166,-1.0260777,0.18873215,0.103735924,1.7539144,-4.0614247,0.14983416,0.2508819,2.2798805
14.245927,41.17985,11.846258,4.8844643,-0.47613516,-0.95699346,0.33877188,-0.80804473,0.77212024,0.51473564,-0.2985068,0.67553777,0.65637904,0.009524875,1.1638803,-0.54092985,-1.6952693,-0.97657424,2.3842695,1.4457006,-1.0235183,1.2302672,-0.6042421,-1.7378337,-0.95154345,2.3264775,1.3849245,-1.0257945,-1.4416624,1.3893175,0.8960135,-0.49449074,0.97643673,0.48680937,-0.12600292,1.7375221,-0.5899124,1.5919496,-2.6229796,0.26053178,1.5622298,0.16264343,-0.44295502,0.9916975,0.81035477,-0.119011626,0.064431705,0.5700963,-0.32303074,0.8103514,0.5305418,1.0,0.0,0.0,0.0,0.0,0.0,0.0,-2.3875222,0.18991241,-1.0419495,0.08523464,-0.26230812,2.023375,-5.017364,0.09179115,0.26568174,2.5920331
14.545985,40.35353,11.899182,4.778989,-0.45247513,-0.9980576,0.40460205,-0.80319506,0.7664157,0.5403797,-0.32013977,0.66951174,0.64860463,0.15469517,1.1499476,-0.5276005,-1.6837958,-0.9835574,2.3934288,1.449785,-1.010325,1.2158743,-0.5904062,-1.7286327,-0.95685065,2.3362088,1.3897806,-1.026773,-1.4384581,1.3819972,0.9277838,-0.5430024,0.9729162,0.48604304,-0.08848307,1.7113113,-0.58730316,1.6068237,-2.6203573,0.2602713,1.4624819,0.15969849,-0.43479156,0.9968298,0.80996996,-0.124962814,0.06485045,0.5693217,-0.27637547,0.81984943,0.5009901,1.0,0.0,0.0,0.0,0.0,0.0,0.0,-2.3613114,0.18730316,-1.0568237,0.33769608,-0.61318874,3.0383468,-4.915142,-0.10783672,0.18946528,3.736706
13.600843,36.333477,10.363886,4.1363945,-0.43405527,-1.1621709,0.3953899,-0.8044182,0.75883,0.53201544,-0.3585237,0.6647583,0.65481085,0.21924023,1.1354325,-0.51452315,-1.6754311,-0.992703,2.4026847,1.4552617,-1.004849,1.2015063,-0.57667136,-1.7192066,-0.96269953,2.3458905,1.3946329,-1.0273547,-1.4363712,1.3709108,0.94720376,-0.59908557,0.96767694,0.485859,-0.04810305,1.6851273,-0.58470917,1.6207011,-2.6177373,0.26001108,1.3628337,0.15721893,-0.42658997,1.0016253,0.80928075,-0.13060686,0.06542271,0.56896955,-0.22860019,0.82209444,0.46587,1.0,0.0,0.0,0.0,0.0,0.0,0.0,-2.3351274,0.18470916,-1.0707011,0.23047924,-0.992465,1.8122554,-5.679643,-0.3040433,0.24312139,4.0265083
13.361988,33.550335,9.232308,3.1461835,-0.48395604,-1.3269389,0.38423356,-0.8044775,0.7549278,0.5295998,-0.40632352,0.66397613,0.65644056,0.24451289,1.1210585,-0.50117856,-1.6662467,-1.0033319,2.4122882,1.460277,-1.0029035,1.1871516,-0.56305003,-1.7096736,-0.9692055,2.3555264,1.3994852,-1.0275493,-1.4350955,1.3595964,0.95496297,-0.66794825,0.9627027,0.48589778,-0.009986022,1.6589699,-0.5821152,1.6335827,-2.6151202,0.25975114,1.2632852,0.15524292,-0.41840363,1.0060291,0.8083141,-0.1358608,0.06618173,0.56902546,-0.17743623,0.81890744,0.42549232,1.0,0.0,0.0,0.0,0.0,0.0,0.0,-2.30897,0.18211517,-1.0835826,0.15852451,-1.0177612,0.65265894,-6.954038,-0.3052354,0.26237965,3.8098679
10.918031,33.6754,9.247654,5.919654,-0.25668356,-1.2211099,0.30532506,-0.8023065,0.75433683,0.5367615,-0.38968706,0.65652055,0.64823604,0.3185753,1.106921,-0.48761636,-1.6559975,-1.0081742,2.4211786,1.4643089,-0.9956917,1.1728121,-0.5495174,-1.7000873,-0.9761807,2.3651013,1.4043299,-1.0273509,-1.4335706,1.351549,0.95922714,-0.7076236,0.956413,0.48483703,0.029899793,1.6328392,-0.5795212,1.6454697,-2.6125054,0.25949144,1.1638361,0.15371323,-0.41025543,1.0100931,0.8071171,-0.14077635,0.06713079,0.56941843,-0.1360105,0.8156507,0.39356643,1.0,0.0,0.0,0.0,0.0,0.0,0.0,-2.2828393,0.17952117,-1.0954697,0.15916824,-0.68109035,0.29383898,-4.052663,-0.40909052,0.11789799,3.9836884
8.957231,30.373938,7.949121,6.7505813,-0.11048889,-1.2783768,0.22996753,-0.8027813,0.7437255,0.524216,-0.41408548,0.65228695,0.6555524,0.31863278,1.092534,-0.47514483,-1.6476657,-1.0175892,2.43033,1.4698851,-0.99548763,1.1584822,-0.5360849,-1.6905448,-0.9834944,2.3746114,1.4091707,-1.026792,-1.4329327,1.3408269,0.95208025,-0.7397405,0.9495571,0.48430306,0.06428089,1.6067314,-0.5769272,1.6563629,-2.6098936,0.25923198,1.0644865,0.15255737,-0.40216064,1.0138347,0.8057512,-0.14537096,0.06826495,0.57006335,-0.09911037,0.80648774,0.36116183,1.0,0.0,0.0,0.0,0.0,0.0,0.0,-2.2567315,0.17692718,-1.1063628,0.0579834,-0.9499788,-0.8304715,-3.3160806,-0.48137903,0.14914274,3.4285479
8.867121,30.137133,8.017179,7.0813475,-0.07738054,-1.2911777,0.22640759,-0.7988265,0.7404602,0.5305195,-0.43640786,0.6530052,0.65268964,0.35661843,1.0785996,-0.46203887,-1.6374929,-1.0271351,2.4399118,1.4744397,-0.99113023,1.1441714,-0.5227525,-1.6810596,-0.9911114,2.3840642,1.4140021,-1.0259051,-1.4303253,1.3311903,0.9469417,-0.7693482,0.9447302,0.48350978,0.09694803,1.5806541,-0.5743332,1.6662633,-2.607284,0.25897282,0.96523625,0.15176773,-0.39416504,1.0172633,0.8042385,-0.14964853,0.06957245,0.5709337,-0.062844776,0.79731065,0.33042186,1.0,0.0,0.0,0.0,0.0,0.0,0.0,-2.2306542,0.17433318,-1.1162634,0.25789738,-0.8390665,-0.6360054,-3.061545,-0.2755046,0.11424422,3.2593415
7.562931,28.523487,7.417933,8.094618,0.03038776,-1.29827,0.16862294,-0.7961119,0.73492014,0.516495,-0.43860546,0.64378387,0.6557193,0.36937875,1.0645602,-0.4492605,-1.6294101,-1.034972,2.4484427,1.479574,-0.98896724,1.1298987,-0.5095155,-1.6716793,-0.9989468,2.393456,1.4188277,-1.0247188,-1.4264573,1.3216062,0.9346497,-0.7886002,0.9380001,0.4829059,0.1257748,1.5545998,-0.5717392,1.675172,-2.6046774,0.2587139,0.86608523,0.15132523,-0.38628387,1.0203989,0.8026109,-0.15363042,0.071046256,0.57198405,-0.03039728,0.7857496,0.30159795,1.0,0.0,0.0,0.0,0.0,0.0,0.0,-2.2045999,0.17173919,-1.1251719,0.3735304,-0.8327246,-1.3437271,-2.038145,-0.46920776,0.115543604,2.8716133
6.533385,28.061485,7.3694887,9.267839,0.14347255,-1.254698,0.14152302,-0.7987082,0.73137116,0.517731,-0.44222558,0.64454013,0.6527417,0.40502957,1.0500278,-0.43637842,-1.6199062,-1.0431694,2.45791,1.4841018,-0.9842158,1.115645,-0.49636462,-1.6624019,-1.0069119,2.4027944,1.4236456,-1.0232539,-1.4250778,1.3133303,0.9252429,-0.79957616,0.93327254,0.4819766,0.15353659,1.5285721,-0.56916046,1.6830899,-2.6020732,0.25845522,0.76703334,0.1511612,-0.3785019,1.0232717,0.8008952,-0.15734947,0.072670415,0.57317275,-0.0022539543,0.77438825,0.27619013,1.0,0.0,0.0,0.0,0.0,0.0,0.0,-2.1785722,0.16916046,-1.1330898,0.104665756,-0.69959164,-1.0443807,-1.2182236,-0.2595067,0.06599426,2.7639418
6.472918,25.483269,6.4382772,8.241536,0.1234166,-1.3784845,0.140522,-0.79942507,0.7219872,0.50695175,-0.4786495,0.64452523,0.65192664,0.3936955,1.0357026,-0.4241659,-1.6117067,-1.0547768,2.4672468,1.4888383,-0.9838844,1.1013914,-0.48331597,-1.6532409,-1.0151001,2.4120984,1.428454,-1.0215507,-1.4253664,1.3024508,0.91292644,-0.825612,0.9299404,0.48098582,0.17596735,1.5025711,-0.5665817,1.6900179,-2.5994718,0.25819683,0.6680805,0.15130234,-0.3708496,1.0258527,0.799106,-0.16075921,0.07443691,0.5744956,0.028702857,0.7585122,0.24588092,1.0,0.0,0.0,0.0,0.0,0.0,0.0,-2.1525712,0.16658172,-1.140018,-0.050854683,-0.96752644,-1.319921,-2.7182102,-0.15099049,0.053054094,2.232492
6.732075,24.992962,6.337454,7.718966,0.081849515,-1.430567,0.1453828,-0.8025345,0.7195087,0.5070657,-0.50352615,0.6457468,0.64914685,0.38048506,1.021138,-0.4113651,-1.6025343,-1.0654527,2.4766731,1.4933687,-0.98350215,1.0871168,-0.47036508,-1.6441734,-1.0236298,2.4213834,1.433251,-1.0196605,-1.4282185,1.2930154,0.9043476,-0.86253446,0.9284957,0.4797598,0.1932169,1.4765968,-0.564003,1.6959573,-2.5968728,0.25793868,0.56922656,0.15177536,-0.3633728,1.0281179,0.797249,-0.16381739,0.076343,0.5759597,0.062013138,0.74217916,0.21383427,1.0,0.0,0.0,0.0,0.0,0.0,0.0,-2.126597,0.16400298,-1.1459572,-0.30264854,-0.8249998,-0.94014406,-3.7948728,0.027787685,0.022125244,1.7203391
5.8249955,25.171076,6.4906516,9.3589,0.18390614,-1.356783,0.09786473,-0.79735285,0.71940595,0.49501124,-0.48679325,0.6376504,0.6560147,0.40604433,1.0073816,-0.39842448,-1.5946722,-1.0723091,2.4851484,1.4988525,-0.97905606,1.0728384,-0.4574819,-1.6352184,-1.0323921,2.430634,1.4380404,-1.0176044,-1.4280274,1.2871553,0.89232695,-0.8813036,0.92494327,0.47919676,0.20963535,1.4506493,-0.56142426,1.7009089,-2.5942764,0.25768077,0.47047147,0.15255737,-0.35606384,1.030103,0.79534763,-0.16656852,0.07838895,0.57752246,0.09063193,0.7275787,0.18723637,1.0,0.0,0.0,0.0,0.0,0.0,0.0,-2.1006494,0.16142425,-1.150909,-0.01821518,-0.46129227,-1.2823224,-1.99126,-0.1662612,0.07151365,1.6344547
5.2874837,22.790907,5.580323,9.03507,0.23785162,-1.4369498,0.07512138,-0.79834205,0.7117315,0.479188,-0.5158444,0.64764297,0.659679,0.38368523,0.9930042,-0.38630873,-1.5872996,-1.0839766,2.4953983,1.5040083,-0.9792358,1.05856,-0.44466832,-1.6264312,-1.041391,2.4398847,1.4428278,-1.0154204,-1.4276536,1.2798709,0.87380916,-0.90628296,0.9257147,0.4790614,0.22117406,1.4247246,-0.5588455,1.7048737,-2.5916827,0.25742316,0.37181517,0.15361404,-0.34890747,1.0318018,0.7934288,-0.16899917,0.08055718,0.579155,0.11919959,0.7085319,0.1580233,1.0,0.0,0.0,0.0,0.0,0.0,0.0,-2.0747247,0.15884551,-1.1548736,0.006508827,-0.6084919,-1.9199848,-2.6126623,0.24508238,0.103503466,1.1453688
5.9107685,22.173695,5.575411,8.125082,0.17846823,-1.4916012,0.11102305,-0.80119884,0.70534533,0.48944566,-0.5523585,0.6448767,0.6575009,0.37345544,0.9784401,-0.3741338,-1.5774866,-1.0966269,2.5043724,1.508578,-0.9780749,1.0442759,-0.43193963,-1.6177528,-1.0507466,2.449143,1.4476134,-1.0131469,-1.428735,1.2709335,0.8655747,-0.9457613,0.926244,0.4787859,0.22940375,1.3988266,-0.5562668,1.7078526,-2.5890915,0.2571658,0.2732575,0.15499115,-0.34194183,1.0331873,0.7914838,-0.1710701,0.08283239,0.5808847,0.15119103,0.6891814,0.1259441,1.0,0.0,0.0,0.0,0.0,0.0,0.0,-2.0488267,0.15626678,-1.1578526,-0.119662285,-0.7767916,-0.8983612,-4.044962,0.21092892,0.085526705,0.81941485
6.043666,22.0318,5.7075567,8.298452,0.17974603,-1.4905701,0.11933582,-0.79583055,0.70268154,0.4841479,-0.56360126,0.640465,0.6601547,0.39008605,0.96469283,-0.36167148,-1.569338,-1.1071067,2.5131893,1.5136288,-0.97413826,1.030007,-0.4192944,-1.6091373,-1.0604874,2.4583898,1.4523989,-1.0107913,-1.4263597,1.262788,0.85978085,-0.98392797,0.9250523,0.4787404,0.23750678,1.3729553,-0.5537033,1.7098467,-2.586503,0.25690866,0.17479835,0.15668106,-0.33516693,1.0342581,0.78950065,-0.1727808,0.08520978,0.5827305,0.18350413,0.670697,0.09469799,1.0,0.0,0.0,0.0,0.0,0.0,0.0,-2.0229554,0.1537033,-1.1598468,0.23577213,-0.69549084,-0.666523,-3.9079905,0.04310608,0.10110736,0.8083105
5.3140717,21.491915,5.641076,9.295288,0.24499789,-1.4409349,0.094117805,-0.7980057,0.6995018,0.48203576,-0.57099617,0.63015634,0.6592925,0.39313334,0.95020646,-0.3493442,-1.5609337,-1.117587,2.5214055,1.5183282,-0.971478,1.0157534,-0.40672353,-1.6005619,-1.0705525,2.4675946,1.4571806,-1.0083632,-1.4253476,1.25565,0.8565857,-1.014312,0.9196306,0.4784933,0.24461743,1.3471107,-0.55113983,1.7108569,-2.583917,0.25665182,0.07643765,0.1586914,-0.32855988,1.0350356,0.7874888,-0.17415853,0.08769026,0.5846712,0.21283633,0.65328526,0.06607055,1.0,0.0,0.0,0.0,0.0,0.0,0.0,-1.9971107,0.15113983,-1.160857,0.07867813,-0.5922556,-0.3951192,-3.1378984,-0.36939383,0.06556511,0.7065922
4.6548862,18.998968,5.0286007,9.8936405,0.39905286,-1.4415048,0.09556523,-0.7830865,0.68336344,0.47844654,-0.57812333,0.62873983,0.6578857,0.41547647,0.93744475,-0.3383872,-1.5527172,-1.1283648,2.5304687,1.5229692,-0.9668156,1.0015761,-0.3942776,-1.5920208,-1.080854,2.476746,1.4619604,-1.005857,-1.4153342,1.2413356,0.8531074,-1.0357624,0.9139969,0.47804347,0.2527211,1.3212929,-0.54857635,1.7108843,-2.5813336,0.25639522,-0.02182472,0.16095734,-0.32215118,1.0355358,0.7854465,-0.17523366,0.09023275,0.5867068,0.23852137,0.6328182,0.038664453,1.0,0.0,0.0,0.0,0.0,0.0,0.0,-1.9712929,0.14857635,-1.1608844,0.9995222,-1.3108492,-0.44754744,-2.2543669,-0.3874302,0.038021803,0.79797804
3.517146,16.696577,4.210935,10.369583,0.51339835,-1.4417547,0.07054343,-0.7886575,0.67516464,0.47628707,-0.59762055,0.6275832,0.65491307,0.40567806,0.9227103,-0.32676113,-1.544392,-1.140616,2.5395043,1.5274518,-0.9652892,0.98746663,-0.3819938,-1.5835121,-1.0913769,2.4858441,1.4667326,-1.003284,-1.4094875,1.2244548,0.84990704,-1.0581272,0.90898985,0.4771872,0.25878474,1.2954979,-0.5460129,1.7099297,-2.5787528,0.25613886,-0.11998885,0.16346359,-0.31598663,1.0357598,0.78338903,-0.17600329,0.09281105,0.58882123,0.26086003,0.6095305,0.010981732,1.0,0.0,0.0,0.0,0.0,0.0,0.0,-1.9454979,0.14601287,-1.1599298,0.56746006,-1.5720606,-0.39696693,-2.353716,-0.3332615,-0.019842386,0.59075356
2.4697998,13.796557,3.421238,11.223194,0.66356397,-1.4149688,0.06639723,-0.7742997,0.65442073,0.47573256,-0.59552157,0.60201585,0.65616184,0.44333938,0.9100367,-0.31655172,-1.5359389,-1.1509291,2.5460458,1.5323488,-0.95895004,0.97346383,-0.36994317,-1.5750301,-1.1020523,2.494824,1.4714972,-1.0006309,-1.3972299,1.1989546,0.84740233,-1.0710477,0.89529365,0.4763975,0.2673998,1.2697296,-0.5434494,1.7079942,-2.5761745,0.2558828,-0.21805483,0.16614532,-0.31005096,1.0357175,0.7813194,-0.17649107,0.09540547,0.5910065,0.27866423,0.583728,-0.015201676,1.0,0.0,0.0,0.0,0.0,0.0,0.0,-1.9197296,0.1434494,-1.1579943,1.218915,-2.4366379,-0.34296513,-1.4239311,-1.1980295,-0.022739172,0.83488226
2.1521475,11.51265,2.5998406,10.506058,0.6917474,-1.4882653,0.07904582,-0.7688313,0.6386985,0.4715566,-0.6279899,0.6003814,0.64666766,0.4347259,0.8965807,-0.3060733,-1.5278745,-1.1648513,2.554862,1.5361639,-0.95715827,0.9595936,-0.35817912,-1.5665843,-1.112949,2.503674,1.4762465,-0.99790525,-1.383617,1.1692214,0.8433186,-1.096414,0.8822113,0.47466424,0.27421105,1.243988,-0.5408859,1.7050788,-2.5735989,0.25562698,-0.31602275,0.1690445,-0.3044052,1.0353854,0.77923715,-0.17666046,0.09799547,0.59327674,0.2974335,0.55394197,-0.045037717,1.0,0.0,0.0,0.0,0.0,0.0,0.0,-1.893988,0.14088592,-1.1550789,1.3854504,-2.8680563,-0.51089525,-2.6583672,-1.1593938,-0.12814403,0.65460205
1.3447534,10.560393,2.3476243,11.4520035,0.7345593,-1.426124,0.061478145,-0.7653757,0.6253464,0.47102204,-0.6275898,0.56594765,0.65372974,0.4641066,0.88305604,-0.29564446,-1.5194821,-1.175708,2.5602689,1.5416194,-0.9514946,0.9458464,-0.34671405,-1.5581748,-1.1240593,2.5123181,1.4809862,-0.99509764,-1.3718123,1.1392986,0.8400079,-1.1162739,0.85872346,0.47360352,0.28278673,1.2182693,-0.5383377,1.7011845,-2.5710258,0.2553714,-0.41389272,0.17208481,-0.29903412,1.0347683,0.7771491,-0.1765219,0.10060527,0.59561545,0.31340158,0.52550375,-0.072913714,1.0,0.0,0.0,0.0,0.0,0.0,0.0,-1.8682693,0.1383377,-1.1511846,1.180625,-2.8875828,-0.41589737,-2.1162748,-2.194202,-0.07609129,0.8268237
0.4029292,7.5558977,1.3867791,11.73356,0.86816984,-1.4329218,0.061177135,-0.75107574,0.5965293,0.46746346,-0.6401128,0.54926836,0.6441189,0.4754617,0.8707388,-0.28706113,-1.5114285,-1.1880707,2.567245,1.5453981,-0.9475515,0.93224984,-0.3356085,-1.5498054,-1.1353699,2.5207028,1.4857069,-0.9922042,-1.3555022,1.1013318,0.83558375,-1.1362733,0.8321285,0.47167942,0.29141328,1.1925774,-0.5357895,1.6963122,-2.5684555,0.25511608,-0.5116648,0.17527771,-0.29399872,1.0338668,0.7750593,-0.17607649,0.10322175,0.5980179,0.32614464,0.49331468,-0.101324275,1.0,0.0,0.0,0.0,0.0,0.0,0.0,-1.8425773,0.13578948,-1.1463122,1.6515255,-3.6983252,-0.542593,-2.136016,-2.5117397,-0.17508864,0.8257568
-0.2820816,7.4265914,1.2228237,12.498129,0.9262194,-1.3917097,0.024911692,-0.75495166,0.5901705,0.45887613,-0.6521296,0.5529195,0.64314157,0.4647394,0.85675466,-0.27659145,-1.5039178,-1.2005829,2.5759947,1.550021,-0.94573027,0.91876394,-0.3248339,-1.5415084,-1.1468788,2.528874,1.4904085,-0.98924017,-1.3463627,1.0698401,0.8275402,-1.1563243,0.8126859,0.46960977,0.2978688,1.1669121,-0.5332413,1.6904628,-2.5658875,0.25486103,-0.60933924,0.17858124,-0.28926086,1.0326927,0.7729903,-0.17532597,0.10583551,0.6004544,0.33645773,0.4618672,-0.12809242,1.0,0.0,0.0,0.0,0.0,0.0,0.0,-1.816912,0.13324127,-1.1404629,0.889802,-3.0523777,-0.8560538,-2.1431208,-1.8041134,-0.20887852,0.614357
-2.033124,2.7598357,-0.62433815,12.693868,1.0857526,-1.4198426,-0.00068002846,-0.7437808,0.55298287,0.44449562,-0.6665119,0.506783,0.63815373,0.48620677,0.84438586,-0.2695356,-1.4970589,-1.2135301,2.5795522,1.5542239,-0.94061947,0.90538293,-0.3144546,-1.5333488,-1.1586033,2.5367665,1.4950873,-0.9862056,-1.3352966,1.0275679,0.8118554,-1.1784598,0.7818429,0.4671232,0.30512026,1.1412735,-0.53069305,1.6836376,-2.563322,0.25460622,-0.70691603,0.18195724,-0.28488922,1.0312327,0.7709715,-0.1742498,0.10844897,0.602892,0.342413,0.42369533,-0.15711933,1.0,0.0,0.0,0.0,0.0,0.0,0.0,-1.7912735,0.13069305,-1.1336377,1.1038303,-4.142642,-1.6252756,-2.3621798,-2.9651165,-0.2701819,0.67937374
-4.7535295,-2.2445722,-3.219531,13.213225,1.3298619,-1.4783494,-0.09769036,-0.7465003,0.53176826,0.3989617,-0.68076444,0.5014484,0.62855107,0.48009142,0.8307329,-0.26127777,-1.4934527,-1.2266798,2.5869114,1.5579424,-0.9381964,0.8920706,-0.30451158,-1.5255382,-1.1705662,2.5443769,1.4997336,-0.9831109,-1.3299835,0.983448,0.7707878,-1.2027062,0.75437546,0.46361223,0.31064853,1.1156616,-0.52814484,1.6758373,-2.5607593,0.25435165,-0.8043953,0.18535233,-0.2809906,1.0294656,0.7690825,-0.17279446,0.111066446,0.6052423,0.34152085,0.3755032,-0.18809207,1.0,0.0,0.0,0.0,0.0,0.0,0.0,-1.7656616,0.12814483,-1.1258373,0.5099058,-4.344487,-4.1091084,-2.587986,-2.674985,-0.4069686,0.49468875
-7.0048985,-6.4431944,-5.4529595,13.559277,1.4732939,-1.5218987,-0.18080759,-0.7457159,0.50650865,0.35485342,-0.69667524,0.45805484,0.62601495,0.4798329,0.817499,-0.2538607,-1.4900528,-1.2402338,2.5901823,1.562335,-0.9351276,0.87878686,-0.2950249,-1.5183074,-1.1827904,2.55164,1.5043455,-0.9799695,-1.3278476,0.9372238,0.70726365,-1.2294188,0.7169443,0.45986667,0.31500694,1.0900726,-0.5255966,1.6670629,-2.558199,0.25409734,-0.9017771,0.18870163,-0.27761078,1.0273705,0.7674118,-0.17091458,0.1137284,0.60739857,0.33601823,0.31984752,-0.22123694,1.0,0.0,0.0,0.0,0.0,0.0,0.0,-1.7400726,0.12559661,-1.1170628,0.19197464,-4.5701385,-6.324053,-2.841258,-3.7119746,-0.4619956,0.36097765
-6.512186,-6.2787833,-4.9800186,13.714521,1.4253279,-1.4636937,-0.14204068,-0.72913593,0.475667,0.34855983,-0.7126086,0.40576363,0.6239295,0.48410746,0.8058733,-0.2474582,-1.4834515,-1.2540512,2.5922165,1.5667385,-0.9315587,0.8655861,-0.2860308,-1.5116527,-1.1952931,2.5584302,1.5089194,-0.97678804,-1.3173858,0.8869846,0.6515552,-1.2576057,0.6666073,0.45630634,0.3189562,1.0645103,-0.52306366,1.6573154,-2.5556412,0.2538433,-0.9990615,0.19200897,-0.27477264,1.0249468,0.7659503,-0.16861953,0.11646101,0.6093639,0.33132342,0.267797,-0.25365594,1.0,0.0,0.0,0.0,0.0,0.0,0.0,-1.7145103,0.12306365,-1.1073153,1.0605335,-4.972446,-5.589044,-2.9749393,-4.992628,-0.4511237,0.31844378
-11.237065,-18.084835,-9.954613,14.22146,1.9552231,-1.522774,-0.22254232,-0.715453,0.39861453,0.2808252,-0.72840303,0.33530608,0.6061968,0.48034164,0.7940408,-0.24616934,-1.4835702,-1.2681334,2.591961,1.5695391,-0.92875385,0.8525513,-0.277782,-1.5057228,-1.2080837,2.5645757,1.5134455,-0.973577,-1.2984756,0.80422646,0.57326096,-1.2867134,0.5973213,0.4510569,0.32147932,1.0389748,-0.5205307,1.6465958,-2.553086,0.2535895,-1.0962485,0.1951561,-0.27259064,1.0221651,0.76474845,-0.16587535,0.11922144,0.6110903,0.31174773,0.19623946,-0.2902928,1.0,0.0,0.0,0.0,0.0,0.0,0.0,-1.6889747,0.120530695,-1.0965958,1.9944906,-8.257544,-7.901931,-3.086543,-6.936884,-0.6612301,0.13467073
-26.704142,-56.72362,-26.46994,15.4201975,3.5958576,-1.7518144,-0.48776153,-0.6630158,0.18987364,0.12645157,-0.73327404,0.09428657,0.59363425,0.49162266,0.7862497,-0.25879464,-1.4930776,-1.2814112,2.5740044,1.572809,-0.92441475,0.83994466,-0.27121547,-1.5011585,-1.2211167,2.5693974,1.5179087,-0.9703431,-1.246548,0.6071956,0.4165363,-1.3096795,0.44338343,0.44399092,0.32314384,1.0134621,-0.51799774,1.6349051,-2.5505335,0.25333595,-1.1933385,0.19776154,-0.27162933,1.018907,0.76402414,-0.16256177,0.121909626,0.612355,0.24471898,0.06034662,-0.34116703,1.0,0.0,0.0,0.0,0.0,0.0,0.0,-1.663462,0.117997736,-1.0849051,5.610323,-19.789732,-15.955406,-2.5285244,-15.551644,-0.9541333,-0.09652376
-61.940445,-140.93704,-63.17507,19.549814,7.6129637,-2.1861877,-1.1359254,-0.56636876,-0.23808452,-0.19705135,-0.70678717,-0.2573552,0.5660953,0.4776259,0.7833078,-0.29502392,-1.5208637,-1.2917954,2.5436618,1.5745182,-0.92258054,0.82829744,-0.26844075,-1.4995067,-1.2341782,2.5717473,1.5222708,-0.96711874,-1.1341666,0.16647191,0.07944127,-1.3058951,0.16384418,0.4319039,0.3204055,0.9879761,-0.5154648,1.6222442,-2.5479836,0.2530827,-1.2903314,0.19883728,-0.27310944,1.0149518,0.7643168,-0.15842338,0.12412571,0.6126292,0.06172716,-0.22021694,-0.4161487,1.0,0.0,0.0,0.0,0.0,0.0,0.0,-1.637976,0.11546478,-1.0722442,12.240624,-44.38955,-34.34689,0.15802383,-28.412304,-1.752317,-0.80204606
-66.37766,-155.7604,-67.52878,21.249804,8.382174,-1.945391,-1.0156671,-0.4347244,-0.46665728,-0.27814123,-0.69965994,-0.48429137,0.5255218,0.48424637,0.78482497,-0.31510648,-1.5273209,-1.3041441,2.523318,1.574823,-0.9186941,0.8182829,-0.2707062,-1.5012519,-1.2470871,2.5708966,1.5264803,-0.9639163,-0.9535644,-0.35880408,-0.2616714,-1.2853508,-0.16906475,0.41502798,0.31862006,0.9625168,-0.5129318,1.6086141,-2.5454361,0.25282967,-1.3872273,0.19790268,-0.2774887,1.0102386,0.76568234,-0.15345849,0.12556349,0.6118944,-0.14758953,-0.5118748,-0.49087632,1.0,0.0,0.0,0.0,0.0,0.0,0.0,-1.6125168,0.11293182,-1.058614,19.155169,-52.90252,-34.862114,2.216816,-33.715687,-2.3965716,-0.6607294
-35.592556,-103.07234,-36.203217,18.045828,5.9180613,-0.92329437,0.23165081,-0.23195256,-0.64078987,0.009567177,-0.7279783,-0.5587113,0.56595623,0.51438975,0.79508764,-0.3347852,-1.5002952,-1.3198849,2.5150256,1.583076,-0.9124773,0.81073934,-0.278039,-1.5042808,-1.2599045,2.5670362,1.5305735,-0.9606881,-0.68662196,-0.8589466,-0.31817308,-1.2792202,-0.4586585,0.4058061,0.32385498,0.9370804,-0.51039886,1.5940157,-2.5428913,0.2525769,-1.4840263,0.19541931,-0.2838745,1.0049251,0.767163,-0.14813334,0.12584662,0.61129373,-0.2855703,-0.6794421,-0.54590493,1.0,0.0,0.0,0.0,0.0,0.0,0.0,-1.5870804,0.11039886,-1.0440156,27.107738,-50.26468,-6.114888,1.0038853,-28.996914,-1.4156342,0.4144013
8.600672,-23.783178,4.5126095,8.8737335,1.7813128,-0.5773089,1.4856323,0.18484698,-0.7086889,0.032914616,-0.7344735,-0.5612927,0.60279906,0.46106035,0.82922405,-0.3489079,-1.5009893,-1.3333519,2.510907,1.5908535,-0.9145821,0.80731946,-0.28935865,-1.5068252,-1.2727448,2.5609593,1.5346361,-0.95742846,-0.23032786,-1.2231749,-0.23138712,-1.2850593,-0.6561956,0.40583792,0.32754427,0.9116707,-0.50788116,1.5784501,-2.540349,0.25232434,-1.5807285,0.19257355,-0.29089355,0.99919313,0.76755583,-0.14294954,0.12485408,0.61223763,-0.2869364,-0.70323807,-0.5841377,1.0,0.0,0.0,0.0,0.0,0.0,0.0,-1.5616707,0.10788116,-1.02845,44.644,-36.480713,9.196565,-0.45013428,-19.43972,-0.1484394,0.6081581
23.57813,14.528755,18.479961,6.0522165,-0.075630605,-0.7853264,1.4553643,0.32402432,-0.74440986,-0.14104697,-0.7161278,-0.53655714,0.63332206,0.39454204,0.8397219,-0.36379963,-1.5209299,-1.3443576,2.5073037,1.5979683,-0.91797423,0.80844194,-0.30315593,-1.5089538,-1.2855908,2.5536084,1.5387369,-0.9541831,0.22149722,-1.4319462,-0.20330897,-1.2846516,-0.7603094,0.4111641,0.32441884,0.8862877,-0.50536346,1.5619183,-2.5378091,0.2520721,-1.6773342,0.19016647,-0.2977829,0.99314886,0.76657754,-0.13804618,0.122864425,0.61498475,-0.22714864,-0.6802621,-0.6140471,1.0,0.0,0.0,0.0,0.0,0.0,0.0,-1.5362877,0.10536346,-1.0119183,43.703415,-20.895077,3.8380651,-0.026917458,-10.1654415,0.44341683,-0.03798008
19.32284,20.330948,13.952578,5.7969003,-0.014638454,-1.3537817,0.8092282,0.4115201,-0.7749932,-0.371578,-0.721253,-0.40152463,0.62594223,0.30953166,0.84959394,-0.38065526,-1.5461116,-1.3577161,2.5134559,1.6013311,-0.92322993,0.8134182,-0.3181391,-1.5120075,-1.2984501,2.5460782,1.5428854,-0.9510417,0.5852708,-1.5206714,-0.33584237,-1.2867016,-0.75038654,0.4154942,0.31124562,0.8609276,-0.50284576,1.5444211,-2.535272,0.2518201,-1.7738432,0.18834305,-0.30462646,0.98677117,0.76470536,-0.13315639,0.120158955,0.6189158,-0.16499901,-0.68178654,-0.6494643,1.0,0.0,0.0,0.0,0.0,0.0,0.0,-1.5109276,0.10284576,-0.99442106,35.060806,-8.9303255,-12.178516,-0.2781391,1.0403156,0.27694106,-1.137197
16.104773,24.503408,11.04394,5.555274,0.24625283,-1.701448,0.40933603,0.50937176,-0.7806989,-0.46037063,-0.7506763,-0.18686551,0.58448654,0.28558642,0.8643554,-0.396209,-1.5580446,-1.3735178,2.5273917,1.6013341,-0.9224831,0.82131654,-0.3333874,-1.5169246,-1.3114659,2.5395513,1.5470415,-0.948051,0.8549096,-1.5264052,-0.5409406,-1.3066791,-0.61993915,0.41507202,0.29540846,0.8355942,-0.50032806,1.5259595,-2.5327373,0.25156832,-1.8702557,0.18709564,-0.31163025,0.98000854,0.76240003,-0.12793757,0.11677549,0.6234915,-0.10681879,-0.70159805,-0.689755,1.0,0.0,0.0,0.0,0.0,0.0,0.0,-1.4855942,0.10032806,-0.9759595,26.018524,-0.6480694,-19.686317,-2.044654,12.995315,-0.20503402,-1.4413357
12.958565,26.61341,10.100267,7.7151313,0.6433127,-1.6075667,0.1842328,0.5607208,-0.7841266,-0.47533646,-0.7599172,0.003270233,0.55620736,0.26172653,0.8773886,-0.41180006,-1.5644583,-1.3874576,2.5398784,1.6026623,-0.92187834,0.8311642,-0.34839728,-1.5237396,-1.3247181,2.5349355,1.551169,-0.9452262,1.0265993,-1.4927971,-0.72711354,-1.331495,-0.4088921,0.41159844,0.27862218,0.8102875,-0.49781036,1.5065345,-2.530205,0.2513168,-1.9665718,0.18630981,-0.31886292,0.97288334,0.7599165,-0.1222344,0.11259466,0.6284171,-0.062632754,-0.72565776,-0.72555846,1.0,0.0,0.0,0.0,0.0,0.0,0.0,-1.4602875,0.09781036,-0.95653445,16.708958,3.283763,-18.204117,-2.4816275,21.011902,-0.4662931,-1.5333056
10.132704,27.419014,10.192289,10.523579,0.7930979,-1.3009315,0.074382946,0.5856305,-0.7834339,-0.48425052,-0.7647346,0.075940214,0.5349367,0.2812036,0.88972723,-0.42674068,-1.5721647,-1.4011916,2.5425296,1.6046627,-0.91710585,0.84209806,-0.36299852,-1.531987,-1.3381993,2.5324407,1.555247,-0.9425397,1.1154567,-1.4494573,-0.8570276,-1.3534197,-0.19705917,0.40630037,0.26578012,0.78500366,-0.49529266,1.486147,-2.5276754,0.25106552,-2.0627916,0.18587494,-0.3262787,0.9654536,0.7573627,-0.1160597,0.10761603,0.63352233,-0.031182962,-0.74304664,-0.75477904,1.0,0.0,0.0,0.0,0.0,0.0,0.0,-1.4350036,0.09529266,-0.93614703,8.813405,4.259062,-12.917852,-2.1500587,21.076097,-0.6087065,-1.1481464
5.6165524,25.040302,8.67457,13.172734,0.7117253,-1.0115927,-0.058634885,0.5719092,-0.77611965,-0.5190652,-0.7712933,0.010741909,0.4708932,0.3377179,0.89928895,-0.44061047,-1.5838934,-1.4153286,2.5335147,1.6023363,-0.9087679,0.85335904,-0.37719443,-1.541209,-1.3518654,2.531464,1.5592276,-0.9399247,1.1303676,-1.4099437,-0.9446275,-1.370657,-0.065119036,0.39503333,0.2603023,0.75974655,-0.49279022,1.4647982,-2.5251482,0.25081453,-2.158915,0.18566132,-0.3338089,0.9577528,0.7548283,-0.10946368,0.1021438,0.63860667,-0.010223709,-0.75377977,-0.7816654,1.0,0.0,0.0,0.0,0.0,0.0,0.0,-1.4097465,0.092790216,-0.9147982,1.7044783,3.8713932,-8.921838,-1.6308546,13.061075,-1.2030542,-0.47203302
2.4630845,22.571915,7.247242,14.61754,0.24274236,-0.80866206,-0.15865996,0.5800362,-0.77340716,-0.5751871,-0.76648533,-0.20422418,0.4439619,0.36814862,0.91136265,-0.45453516,-1.5987277,-1.428514,2.5110416,1.6036237,-0.90310985,0.86452657,-0.39109042,-1.5511978,-1.3656193,2.5307164,1.5630785,-0.9373317,1.1132238,-1.3830914,-1.0178868,-1.3765757,-0.07875704,0.38155863,0.2589632,0.73451614,-0.49028778,1.4424888,-2.5226235,0.25056377,-2.2549422,0.18566513,-0.34140015,0.9497724,0.752387,-0.102522336,0.096761696,0.64345944,0.010458786,-0.7544106,-0.8101337,1.0,0.0,0.0,0.0,0.0,0.0,0.0,-1.3845161,0.090287775,-0.8924888,-1.4127493,2.600193,-7.5599313,-0.4689932,-1.5150533,-1.4457822,-0.14282465
2.4059567,22.507273,7.8340845,15.214415,-0.24113041,-0.62043005,-0.14300853,0.60550636,-0.7771179,-0.6070866,-0.7533475,-0.38004217,0.48179236,0.3671817,0.9250772,-0.4688022,-1.6119064,-1.4409541,2.4927123,1.6112578,-0.9006135,0.8755539,-0.40484145,-1.5618141,-1.3793236,2.5289845,1.5668341,-0.9347472,1.1000903,-1.3727517,-1.0767108,-1.3677905,-0.2051661,0.37321645,0.2580448,0.7093086,-0.48778534,1.4192199,-2.5201013,0.25031325,-2.3508735,0.18589783,-0.34887695,0.9415114,0.75002617,-0.09537094,0.09197403,0.6480014,0.035610314,-0.7422709,-0.83792585,1.0,0.0,0.0,0.0,0.0,0.0,0.0,-1.3593086,0.08778533,-0.86921984,-1.0579109,0.948596,-6.091261,1.0030985,-12.786714,-0.9348452,-0.15051961
2.9585173,22.50613,8.542744,15.028101,-0.35178643,-0.51842326,-0.07312986,0.6095468,-0.78200257,-0.623947,-0.7569388,-0.42697176,0.48529714,0.37096652,0.9365086,-0.4830417,-1.6242088,-1.4550174,2.4862874,1.6153638,-0.89765054,0.8864916,-0.41859105,-1.5728939,-1.3929325,2.5257993,1.5705229,-0.9321666,1.0923299,-1.3759717,-1.1190315,-1.3581287,-0.3567197,0.36699015,0.25782248,0.6841278,-0.4852829,1.3949924,-2.5175817,0.25006297,-2.446709,0.18640137,-0.3562317,0.932973,0.7476854,-0.088090904,0.08792393,0.6522852,0.06132997,-0.7256716,-0.86562157,1.0,0.0,0.0,0.0,0.0,0.0,0.0,-1.3341278,0.08528289,-0.84499234,-0.563097,-0.40798187,-4.4213533,1.0959864,-15.301043,-0.7289946,-0.080788136
4.818988,24.680319,10.643888,14.47932,-0.3368351,-0.39510906,0.05988207,0.60240304,-0.7864016,-0.605557,-0.76903975,-0.4191507,0.49353206,0.386702,0.9467319,-0.49723122,-1.6334496,-1.4698365,2.483884,1.6198761,-0.8934964,0.89735395,-0.43243125,-1.5841472,-1.4065129,2.5213284,1.5741659,-0.9295745,1.0848444,-1.3869407,-1.1280428,-1.3578216,-0.47742888,0.36300582,0.25966594,0.6589699,-0.48278046,1.3698071,-2.5150647,0.24981296,-2.5424485,0.18716049,-0.3633499,0.9241711,0.74525726,-0.08072043,0.08446703,0.656461,0.086890034,-0.7039182,-0.89151263,1.0,0.0,0.0,0.0,0.0,0.0,0.0,-1.3089699,0.08278045,-0.8198071,-0.55241585,-1.1753321,-1.1058807,0.15516281,-12.204414,-0.4970491,0.16288161
4.4789133,23.976667,10.475829,14.251755,-0.084649324,-0.35047868,0.08333111,0.5965068,-0.79442567,-0.626394,-0.77362204,-0.4162545,0.507735,0.37121618,0.9570046,-0.51187384,-1.6467866,-1.483875,2.479703,1.6249394,-0.8924529,0.90813714,-0.44641927,-1.5954654,-1.420139,2.515965,1.5777861,-0.92697287,1.0767596,-1.403009,-1.1338316,-1.3635849,-0.5563497,0.36128956,0.260284,0.63383865,-0.48027802,1.3436652,-2.51255,0.24956319,-2.6380923,0.18813324,-0.37031555,0.9151021,0.7426965,-0.07324772,0.08137651,0.66061664,0.106897354,-0.6867387,-0.9181952,1.0,0.0,0.0,0.0,0.0,0.0,0.0,-1.2838386,0.08027801,-0.79366523,-0.6175518,-1.6885757,-0.78167915,-0.43857098,-8.034706,-0.2793491,0.06863475
5.1628523,25.489738,11.576733,14.060297,0.080235004,-0.27385384,0.13469556,0.5878169,-0.79896146,-0.6144546,-0.7829456,-0.3847861,0.504101,0.37371293,0.9669188,-0.5263154,-1.6569109,-1.4984335,2.4774864,1.6281962,-0.8896016,0.91881925,-0.46056512,-1.6067398,-1.4338738,2.510178,1.581391,-0.9243636,1.065948,-1.4187101,-1.1262281,-1.3761746,-0.5866517,0.35990897,0.26131228,0.6087303,-0.47779083,1.3165677,-2.5100381,0.24931368,-2.7336404,0.18928146,-0.3771057,0.90577775,0.7399662,-0.06566061,0.07841123,0.6648235,0.12370755,-0.66976136,-0.9433355,1.0,0.0,0.0,0.0,0.0,0.0,0.0,-1.2587303,0.07779083,-0.76656765,-0.8835554,-1.648736,0.54290295,-1.1209726,-3.170693,-0.2403915,0.14315844
6.0091267,27.804592,13.301004,14.623667,0.107333064,-0.12431053,0.16730271,0.58142227,-0.8085628,-0.58842623,-0.7780887,-0.40103233,0.5136752,0.34832457,0.9769615,-0.5414214,-1.6655824,-1.5116826,2.470075,1.6327585,-0.88953114,0.9293831,-0.47487405,-1.6178005,-1.4477001,2.5042272,1.584994,-0.92176294,1.0538831,-1.4351853,-1.1001384,-1.3841981,-0.59838474,0.36003327,0.25984976,0.5836487,-0.47530365,1.2885153,-2.5075285,0.24906442,-2.8290932,0.19058609,-0.38368988,0.896242,0.7370258,-0.05800942,0.07542591,0.6691328,0.13860054,-0.64808655,-0.9629521,1.0,0.0,0.0,0.0,0.0,0.0,0.0,-1.2336487,0.075303644,-0.7385153,-1.0116816,-1.7208576,2.386427,-0.67157745,-1.3066769,-0.06762147,-0.085920095
7.913976,32.177364,15.746223,14.868847,-0.06803954,-0.018026404,0.2019034,0.5837482,-0.8017726,-0.5750187,-0.77540505,-0.41556367,0.53387123,0.36389017,0.9877579,-0.5550513,-1.6753024,-1.5252407,2.4626708,1.6383811,-0.88537395,0.939864,-0.48927358,-1.6285503,-1.4615666,2.4982038,1.588616,-0.91916513,1.0467469,-1.4417845,-1.0671887,-1.3869284,-0.603982,0.3626252,0.2598916,0.55859375,-0.47281647,1.2595092,-2.5050216,0.2488154,-2.9244506,0.19206238,-0.3899994,0.88655263,0.73383474,-0.050361402,0.07239842,0.67357904,0.15697765,-0.6183271,-0.9766601,1.0,0.0,0.0,0.0,0.0,0.0,0.0,-1.2085937,0.07281646,-0.7095092,-0.52514076,-0.72255135,3.0742168,-0.16131401,-0.6834984,0.20244122,0.07211566
6.7537527,33.200764,16.035341,15.689834,-0.031577885,0.117183484,0.16665174,0.5550952,-0.8038729,-0.55533195,-0.77776635,-0.42723334,0.538141,0.3720775,0.9953735,-0.56966084,-1.6840835,-1.5393432,2.4554803,1.6424301,-0.8819574,0.9501713,-0.5037063,-1.6389339,-1.4754463,2.4921231,1.5922667,-0.9165616,1.0261893,-1.4439691,-1.0296223,-1.3878537,-0.6097646,0.3658237,0.26077935,0.5335617,-0.47032928,1.2295501,-2.502517,0.24856664,-3.0197127,0.19369507,-0.39600372,0.8767514,0.73040366,-0.0427569,0.06934606,0.6781396,0.170978,-0.58684796,-0.9867367,1.0,0.0,0.0,0.0,0.0,0.0,0.0,-1.1835617,0.07032928,-0.6795501,-1.8324375,-0.27928352,3.5149813,0.026774406,-0.71269274,0.27849078,0.1499772
5.559678,33.802876,16.36453,16.686821,0.13253236,0.26227394,0.14354965,0.5336263,-0.8079253,-0.52331364,-0.77467537,-0.38782153,0.5418036,0.36890462,1.003534,-0.5844988,-1.6912652,-1.5529139,2.453341,1.6464471,-0.87967116,0.96019536,-0.51815635,-1.648875,-1.4893109,2.4861188,1.5959517,-0.91395044,0.9953071,-1.4455081,-0.98301566,-1.3853927,-0.597783,0.36933944,0.26144248,0.50855637,-0.4678421,1.1986392,-2.500015,0.24831812,-3.1148794,0.19541931,-0.40168762,0.86688215,0.7267551,-0.035231467,0.066204876,0.6827903,0.17848273,-0.5559501,-0.992051,1.0,0.0,0.0,0.0,0.0,0.0,0.0,-1.1585563,0.067842096,-0.64863914,-2.8460264,-0.2140522,4.4101477,0.37059784,1.0608554,0.3322065,0.13492107
3.072001,32.24667,14.998063,17.527473,0.34539092,0.3237995,0.05788418,0.51340175,-0.8111424,-0.5235108,-0.7675852,-0.38409287,0.54794073,0.34233966,1.0115355,-0.5992706,-1.7012261,-1.5660694,2.4477096,1.6507457,-0.87971646,0.9698618,-0.5326274,-1.6584461,-1.5031124,2.4802556,1.5996729,-0.91135454,0.9579088,-1.4479532,-0.94922316,-1.3778564,-0.58279693,0.37312022,0.25928858,0.4835739,-0.46535492,1.1667773,-2.4975154,0.24806985,-3.209951,0.19717026,-0.40711975,0.8569617,0.72295636,-0.0277905,0.06294224,0.68745905,0.17870468,-0.53119874,-0.9968268,1.0,0.0,0.0,0.0,0.0,0.0,0.0,-1.1335739,0.06535491,-0.61677724,-3.4926534,-0.3103733,3.1416059,0.8956909,1.3529778,0.36420822,-0.15304685
0.70348835,30.136522,13.176115,17.630894,0.50062066,0.3120125,-0.00723885,0.49099502,-0.81463367,-0.5300339,-0.7681807,-0.388778,0.5336314,0.363151,1.0189613,-0.6140908,-1.7114495,-1.5799305,2.4413779,1.653036,-0.87503946,0.9791239,-0.54713565,-1.6678264,-1.5168434,2.4745107,1.603419,-0.9087653,0.91641307,-1.4520469,-0.9348658,-1.3710049,-0.5719542,0.37485838,0.25900954,0.45861816,-0.462883,1.1339654,-2.4950185,0.24782184,-3.3049273,0.19888306,-0.41236877,0.84696305,0.7190779,-0.020386744,0.059571043,0.6920712,0.17407389,-0.51364785,-1.0052384,1.0,0.0,0.0,0.0,0.0,0.0,0.0,-1.1086181,0.06288299,-0.58396536,-3.9031029,-0.4827261,1.2111425,0.84929466,0.9259224,0.14713407,0.025188923
-7.2892995,25.275688,8.602747,19.447535,0.9608782,0.4695258,-0.21418497,0.40147418,-0.8122544,-0.5451588,-0.7686575,-0.4104371,0.5282263,0.37921476,1.0192713,-0.6283611,-1.7223423,-1.5937092,2.433467,1.6562415,-0.8708438,0.98764974,-0.56166965,-1.6772316,-1.530521,2.4687772,1.6071726,-0.90616655,0.8323039,-1.4541081,-0.9432574,-1.3661172,-0.57420653,0.3755217,0.2601778,0.4336853,-0.46041107,1.1002045,-2.492524,0.24757406,-3.399809,0.20040512,-0.41752625,0.8368454,0.71528804,-0.012947406,0.056163576,0.69644874,0.15014328,-0.50905895,-1.0181327,1.0,0.0,0.0,0.0,0.0,0.0,0.0,-1.0836853,0.060411066,-0.55020446,-8.0824375,-0.298357,-1.0983825,0.70660114,-0.4310727,0.037014484,0.1325965
-30.170101,10.453394,-4.694315,25.183777,2.4080982,0.88103056,-0.81317484,0.18024078,-0.8146628,-0.6174362,-0.7736126,-0.46383363,0.4792179,0.3051927,1.0056738,-0.6431359,-1.7389752,-1.6078823,2.4223938,1.6550944,-0.8756473,0.9944151,-0.57622844,-1.6871135,-1.5441853,2.46283,1.6108938,-0.9036155,0.6264763,-1.457022,-1.0045887,-1.36523,-0.6025357,0.3707305,0.25311536,0.40877914,-0.45793915,1.0654874,-2.490032,0.24732654,-3.495661,0.20127487,-0.4229355,0.82649875,0.712083,-0.0052984687,0.05285793,0.70008266,0.07001054,-0.5426008,-1.0442184,1.0,0.0,0.0,0.0,0.0,0.0,0.0,-1.0587791,0.057939142,-0.5154874,-20.01444,-0.44836998,-6.501794,0.46317577,-3.1796813,-0.52939653,-0.78521967
-49.96607,-0.40159082,-14.7713585,29.987017,3.8291352,1.3840185,-1.2350127,-0.041409012,-0.8151112,-0.6486348,-0.790944,-0.3898703,0.41686553,0.3175593,0.9902742,-0.6577396,-1.751977,-1.6232797,2.4238431,1.6525804,-0.87185955,0.998287,-0.59081584,-1.6977546,-1.5579277,2.4568143,1.6145159,-0.9011283,0.3102288,-1.4600446,-1.0857813,-1.375486,-0.60297406,0.35911757,0.24680403,0.3838997,-0.45546722,1.0298126,-2.4875424,0.24707927,-3.5914173,0.200943,-0.4289093,0.8158291,0.7099354,0.0027424775,0.04957886,0.70251405,-0.06386168,-0.6071201,-1.0785586,1.0,0.0,0.0,0.0,0.0,0.0,0.0,-1.0338997,0.05546722,-0.47981256,-30.822617,-0.53162575,-8.612108,-0.49521923,-0.5295038,-1.2608469,-0.7552445
-68.40597,-7.7913327,-22.160814,35.415176,4.968444,2.097255,-1.6017023,-0.31103307,-0.82218957,-0.6597736,-0.790236,-0.4142028,0.37807086,0.26405883,0.9671837,-0.6730348,-1.763732,-1.6369513,2.415394,1.652323,-0.8747224,0.9982069,-0.6054643,-1.7091434,-1.5717636,2.4507565,1.617993,-0.8987403,-0.110576265,-1.4675498,-1.1585493,-1.3839794,-0.60870457,0.34313416,0.23558465,0.35904312,-0.4529953,0.9931809,-2.4850554,0.24683224,-3.6870778,0.1988945,-0.4356537,0.80481905,0.7092268,0.011221309,0.046254437,0.7033718,-0.24924617,-0.68918145,-1.11252,1.0,0.0,0.0,0.0,0.0,0.0,0.0,-1.0090431,0.052995294,-0.44318086,-41.045033,-1.0716915,-7.901478,-0.14014244,-1.2138486,-1.794517,-1.283899
-61.38973,-0.29739046,-16.681213,32.82347,4.386443,2.149104,-1.3711203,-0.38790983,-0.8201916,-0.68353677,-0.7911524,-0.41375545,0.404433,0.27944586,0.9594159,-0.68748343,-1.777497,-1.6508789,2.409381,1.6584363,-0.8707957,0.99431497,-0.6201728,-1.7211692,-1.5856682,2.4446607,1.6213347,-0.89644194,-0.4789689,-1.4729999,-1.2191318,-1.3901755,-0.61220276,0.33023083,0.22746702,0.33420944,-0.45052338,0.9555933,-2.482571,0.24658544,-3.7826426,0.19511414,-0.44309998,0.7934956,0.7098719,0.020073693,0.042821594,0.7027412,-0.41968176,-0.7515779,-1.1429566,1.0,0.0,0.0,0.0,0.0,0.0,0.0,-0.9842094,0.05052337,-0.40559328,-35.885696,-0.88477135,-6.637788,0.10304451,-0.9786129,-1.5833676,-0.9269297
-54.625336,6.0859637,-11.984455,29.883999,3.7499108,2.1496353,-1.1738671,-0.52526546,-0.82344705,-0.7206429,-0.79395866,-0.4529822,0.39808232,0.25757754,0.94178843,-0.7025175,-1.7932335,-1.6650641,2.3993626,1.661143,-0.8706842,0.9871271,-0.6349347,-1.7337749,-1.5996243,2.4384198,1.6245543,-0.8942275,-0.7959097,-1.4783813,-1.2761605,-1.3948683,-0.62998027,0.31814516,0.2190749,0.30940247,-0.44805908,0.9170508,-2.4800887,0.24633892,-3.878112,0.18977356,-0.4510193,0.7818744,0.71165675,0.02923568,0.039282043,0.7008186,-0.5734867,-0.79495347,-1.1724831,1.0,0.0,0.0,0.0,0.0,0.0,0.0,-0.95940244,0.048059076,-0.36705077,-30.843412,-0.88038445,-6.2261343,0.25212765,-2.383685,-1.5612185,-0.91920793
-43.46445,16.416647,-4.0433307,26.311094,2.8264332,2.1701798,-0.9032757,-0.63333136,-0.8168674,-0.72178864,-0.7940632,-0.4597227,0.44832942,0.17590716,0.923794,-0.71662146,-1.8059537,-1.6790307,2.3924475,1.6693872,-0.8766368,0.9772566,-0.64970237,-1.7467849,-1.6136128,2.4319959,1.6277071,-0.8921466,-1.0485383,-1.4772073,-1.3107274,-1.3980389,-0.6485778,0.3132569,0.20436762,0.2846222,-0.44560242,0.8775543,-2.4776092,0.24609263,-3.9734857,0.18310165,-0.45916748,0.7700161,0.71431917,0.03858455,0.03562704,0.69784665,-0.70101774,-0.8098521,-1.1941844,1.0,0.0,0.0,0.0,0.0,0.0,0.0,-0.93462217,0.04560241,-0.3275543,-24.568785,-0.19021034,-3.8930655,0.32298565,-2.3854136,-0.8154571,-1.5057981
-33.80827,23.912712,2.2845063,23.28847,2.3341827,2.1106372,-0.72440815,-0.720791,-0.82013494,-0.72403604,-0.7926321,-0.35321465,0.4258126,-0.058841467,0.9051775,-0.73171586,-1.8191885,-1.692876,2.3966744,1.6702883,-0.89803076,0.9653061,-0.6644576,-1.7599952,-1.6276165,2.4257398,1.6308085,-0.89037466,-1.2420393,-1.4758132,-1.325444,-1.3994058,-0.6195556,0.3081377,0.168151,0.2598648,-0.44314575,0.8371048,-2.475132,0.24584658,-4.0687637,0.17531204,-0.46736145,0.7579892,0.7176587,0.04802839,0.031660173,0.6940151,-0.8082776,-0.8087417,-1.2092894,1.0,0.0,0.0,0.0,0.0,0.0,0.0,-0.9098648,0.043145746,-0.2871048,-18.813038,-0.12843609,-1.8127918,0.41410923,2.4720073,-0.80844164,-3.5890908
-24.588432,30.42321,8.133621,21.48336,2.404167,2.0254357,-0.60494417,-0.7690701,-0.8189233,-0.7201222,-0.7761883,-0.03097179,0.4312177,-0.34995294,0.8883991,-0.74634993,-1.8320074,-1.7052354,2.4226425,1.6739303,-0.92537,0.95189077,-0.679189,-1.7732208,-1.6415554,2.4207845,1.6338717,-0.8891635,-1.3734742,-1.4729924,-1.3223071,-1.3905188,-0.4552423,0.30470297,0.10586692,0.23513031,-0.4406891,0.79570323,-2.4726574,0.24560077,-4.163946,0.16654968,-0.47553253,0.74588454,0.7215635,0.057484966,0.026816176,0.6894363,-0.90336186,-0.8046777,-1.2144263,1.0,0.0,0.0,0.0,0.0,0.0,0.0,-0.8851303,0.04068908,-0.24570322,-12.772059,0.06132126,0.097727776,1.3237238,16.129059,-0.61974525,-6.087865
-15.332605,35.755547,13.264607,19.547167,2.3692412,1.8871317,-0.43935618,-0.7844112,-0.8179912,-0.71833575,-0.75740016,0.25173235,0.47736758,-0.43114763,0.8734496,-0.7609881,-1.8450544,-1.7172954,2.4459577,1.6816084,-0.9322783,0.93762666,-0.693888,-1.786349,-1.6553189,2.4182935,1.6369425,-0.8885999,-1.443211,-1.4694996,-1.3098276,-1.3705307,-0.18117666,0.30691853,0.04062624,0.21042252,-0.43823242,0.75335056,-2.4701853,0.24535523,-4.259034,0.15694046,-0.48363495,0.7337787,0.7259075,0.066860214,0.020534476,0.68422675,-0.98428565,-0.79850346,-1.2127688,0.0,1.0,0.0,0.0,0.0,0.0,0.0,-0.8604225,0.038232416,-0.20335054,-6.753516,0.18088818,1.1539936,2.3159504,27.246052,-0.02334714,-6.3082776
-7.5962214,40.78086,17.312382,16.83178,1.6881576,1.7436213,-0.30262554,-0.799256,-0.8061934,-0.7204659,-0.75368714,0.3065975,0.49435425,-0.4661521,0.85770106,-0.77450734,-1.8583957,-1.7306876,2.4489532,1.6863779,-0.93521506,0.9230281,-0.70838594,-1.8004699,-1.6694399,2.4158013,1.6416377,-0.88788944,-1.4655994,-1.4469787,-1.4166161,-1.4087236,-0.20004973,0.4742654,0.057553582,0.19649887,-0.4427719,0.7581796,-1.3541839,-0.47206324,0.7318737,0.1467781,-0.49126434,0.72128993,0.73029506,0.07577914,0.014076276,0.67876977,-1.032817,-0.7440482,-1.2525795,0.0,1.0,0.0,0.0,0.0,0.0,0.0,-0.84649885,0.042771906,-0.2081796,-2.417612,0.8818865,0.63097477,2.6111603,25.652546,0.1658082,-6.123091
77.62048,176.0,110.0,97.19477,-8.650102,9.738422,-0.11145058,-0.7114301,0.4599034,0.69847125,0.742928,-0.40251136,0.65755564,-0.3490375,0.8518851,-0.6623956,-1.7306228,-1.5951471,2.3755503,1.7073933,-0.9227932,0.9139682,-0.7204871,-1.8153415,-1.6721712,2.4033043,1.6554068,-0.8856264,-0.72432035,-1.1303319,-1.5022212,0.09994846,-1.5953857,1.6860013,0.27762178,0.18296814,-0.44748688,0.7647484,-1.35283,-0.4715913,0.6318908,0.13729095,-0.496521,0.7130204,0.7347905,0.075561486,0.013780166,0.6739313,-0.9244234,-0.4348876,-0.68635154,1.0,0.0,0.0,0.0,0.0,0.0,0.0,-0.8329681,0.04748687,-0.21474838,72.650375,31.905079,-6.018424,149.20238,-138.22363,123.6531,20.534145
21.201956,157.77376,100.19278,95.72394,-1.0246487,7.0167603,-0.37733266,-0.7758079,-0.5131282,0.4025003,0.7918403,-0.647912,0.5789589,-0.31993815,0.8363874,-0.7717999,-1.7750914,-1.5929872,2.3385131,1.7133027,-0.9176202,0.90691864,-0.7304101,-1.8247218,-1.6637732,2.3858712,1.6722983,-0.8831659,-0.6986575,-0.9475714,-0.7468627,1.0853206,-1.7970023,1.6962441,0.23526756,0.16945267,-0.45220184,0.7703152,-1.3514775,-0.47111982,0.5316141,0.12807846,-0.49985504,0.7103069,0.73965645,0.06761306,0.017293125,0.6693562,-0.91944647,-0.29006022,-0.13694714,1.0,0.0,0.0,0.0,0.0,0.0,0.0,-0.81945264,0.052201837,-0.22031516,2.525866,17.881275,76.4835,98.16399,-21.403576,2.8458595,-4.335067
-15.340801,119.82051,61.0939,73.83701,1.6169602,4.832468,-1.0279701,-0.769111,-0.32404914,-0.078059636,0.7523511,-0.6597599,0.6256965,-0.2069729,0.83000755,-0.762815,-1.8325278,-1.588538,2.3198953,1.7348679,-0.9038632,0.89873517,-0.73824835,-1.8286586,-1.6486651,2.3684876,1.6883353,-0.88119465,-0.85613716,-0.73059314,-0.2766759,1.6532243,-1.722557,1.5761673,0.18474908,0.15594482,-0.45690918,0.77487993,-1.3501263,-0.47064883,0.4314377,0.1183815,-0.50227356,0.7115901,0.74529207,0.05579604,0.0221267,0.6640308,-0.9857176,-0.21853498,0.21055311,1.0,0.0,0.0,0.0,0.0,0.0,0.0,-0.8059448,0.056909174,-0.22487992,-15.134966,21.294176,46.85901,57.00688,6.2583685,-10.96139,-4.9313545
-17.815426,116.26876,51.36982,49.812218,0.7753335,3.583612,-0.8184504,-0.77829176,-0.06952388,0.03681811,0.77913576,-0.6403471,0.58421326,-0.049542293,0.820906,-0.74520075,-1.8249768,-1.5707515,2.304453,1.7467567,-0.88614887,0.88839924,-0.7432933,-1.8288131,-1.6306788,2.3529541,1.7027949,-0.87963825,-1.091156,-0.43030605,0.07014145,1.8475565,-1.4998269,1.4051318,0.14596352,0.14245224,-0.4616089,0.7784437,-1.3487765,-0.47017825,0.33136144,0.1082077,-0.50379944,0.7154639,0.75155485,0.042422213,0.027647557,0.65772426,-1.0293143,-0.12483556,0.43962437,1.0,0.0,0.0,0.0,0.0,0.0,0.0,-0.7924522,0.06160888,-0.22844368,-23.032629,29.671162,34.22599,19.573975,21.312737,-16.357708,-3.897789
-34.88888,50.795612,10.077722,26.578024,2.4138455,1.2843213,-0.95423186,-0.7905387,-0.23711573,-0.18915115,0.7767605,-0.6355813,0.61156744,-0.2428989,0.80934536,-0.76700485,-1.8477281,-1.5530027,2.289396,1.7639517,-0.90392816,0.87594235,-0.74665594,-1.8279834,-1.6125246,2.3396943,1.7156371,-0.8785587,-1.2964633,-0.3052886,0.08585083,1.8052284,-1.2685739,1.2449675,0.095280774,0.12897491,-0.4663086,0.7810074,-1.347428,-0.46970814,0.23138525,0.09735489,-0.5050659,0.72003275,0.7584361,0.029532183,0.03307839,0.6502371,-1.1063414,-0.1192325,0.45680705,1.0,0.0,0.0,0.0,0.0,0.0,0.0,-0.7789749,0.06630859,-0.2310074,-20.293785,12.388444,1.1803478,-4.1232824,22.963547,-15.650558,-5.040006
-27.191826,22.469193,-1.4620463,11.876281,2.064405,0.1251353,-0.55101335,-0.7861789,-0.2835359,-0.103646636,0.77829427,-0.6286274,0.6235579,-0.29988343,0.7973245,-0.7750095,-1.838348,-1.5346951,2.2768316,1.7779928,-0.90854704,0.86200917,-0.7497144,-1.827579,-1.5955454,2.3283875,1.7270411,-0.8779846,-1.4253473,-0.30616584,0.024802165,1.6622165,-1.0852101,1.1062471,0.04473857,0.11551285,-0.4710083,0.78257215,-1.3460808,-0.46923852,0.13150902,0.085884094,-0.5064621,0.7241112,0.7657127,0.01808741,0.037883874,0.64181125,-1.161557,-0.13673587,0.38684624,1.0,0.0,0.0,0.0,0.0,0.0,0.0,-0.7655128,0.071008295,-0.23257214,-12.815666,-0.11200309,-6.2777953,-14.282393,18.28983,-13.694048,-5.0354614
-14.304654,15.44579,-0.15126961,5.8996863,1.3076043,-0.34923708,-0.14573276,-0.78011405,-0.2969813,-0.028993743,0.7856092,-0.6324437,0.61106884,-0.25459296,0.7839978,-0.7794125,-1.8304784,-1.5169845,2.2651432,1.788148,-0.9034439,0.8473693,-0.7532859,-1.8276858,-1.5800081,2.3184197,1.7372168,-0.87783295,-1.4768851,-0.37415224,-0.022549538,1.5176467,-0.96774215,0.9884456,0.0053687044,0.102062225,-0.47569275,0.7831389,-1.344735,-0.46876937,0.03173264,0.07409668,-0.50801086,0.72736025,0.77305144,0.008135679,0.041930366,0.6329037,-1.186307,-0.15378334,0.30052078,1.0,0.0,0.0,0.0,0.0,0.0,0.0,-0.7520622,0.07569274,-0.23313886,-5.1493406,-6.8051157,-4.759622,-14.464545,11.633026,-11.655819,-3.9288337
-3.2109113,19.317871,6.6375265,5.401971,0.70453805,-0.3212877,0.14725058,-0.7833212,-0.33109364,0.056568857,0.7801986,-0.61011976,0.6058982,-0.26780778,0.7690372,-0.78639525,-1.822029,-1.5019883,2.2574077,1.7978066,-0.90461373,0.83258545,-0.75777674,-1.8277488,-1.5656325,2.3092759,1.7463626,-0.8780313,-1.4790196,-0.47424236,-0.00058756815,1.4108169,-0.89711595,0.89032584,-0.028184049,0.08862305,-0.4803772,0.7827085,-1.3433906,-0.4683007,-0.06794399,0.06223297,-0.5096588,0.729891,0.78019094,-0.00071906875,0.04522739,0.6239039,-1.1883653,-0.15871786,0.2340069,1.0,0.0,0.0,0.0,0.0,0.0,0.0,-0.738623,0.08037719,-0.23270851,-0.23567677,-10.029036,2.2671745,-10.6915,6.84433,-9.686649,-3.3430562
-0.3423679,18.486217,7.403802,6.69785,0.6588736,-0.37697875,0.18462056,-0.7720059,-0.38696596,0.026171042,0.7715334,-0.6199197,0.6065526,-0.2466606,0.75538486,-0.7964733,-1.8251317,-1.4884791,2.247284,1.8070178,-0.9026974,0.81801903,-0.76339674,-1.8276,-1.5519854,2.3005326,1.7546557,-0.87850434,-1.4491946,-0.59127706,0.0204025,1.3493803,-0.86776876,0.80944926,-0.05361918,0.07519913,-0.48506165,0.7812822,-1.3420475,-0.4678325,-0.16752096,0.050365448,-0.51138306,0.7318059,0.7870577,-0.008785371,0.047865316,0.6149568,-1.1872991,-0.16694185,0.17437537,1.0,0.0,0.0,0.0,0.0,0.0,0.0,-0.7251991,0.08506164,-0.23128217,2.9753685,-11.722088,2.1846163,-6.118965,2.7332306,-7.968116,-2.5210001
3.953557,24.444918,12.051098,8.518592,0.4494884,-0.23481536,0.25472945,-0.75113255,-0.4327339,0.08657814,0.7649342,-0.6127814,0.61297965,-0.25010797,0.7429058,-0.8066701,-1.8189422,-1.475492,2.2392545,1.8159537,-0.90351516,0.80388653,-0.77016115,-1.8269687,-1.5386797,2.2919266,1.7622546,-0.87919766,-1.4013088,-0.7049062,0.07791289,1.3245736,-0.8590831,0.74379045,-0.074503526,0.061790466,-0.48973083,0.77886087,-1.3407058,-0.4673648,-0.26699838,0.038570404,-0.51312256,0.7332784,0.79360294,-0.016390843,0.049950678,0.6061606,-1.1787411,-0.16641378,0.13536088,1.0,0.0,0.0,0.0,0.0,0.0,0.0,-0.71179044,0.08973083,-0.22886086,4.7786474,-11.398625,5.8679013,-2.4466515,0.6254673,-6.4337373,-2.064371
2.0269427,25.696915,11.583497,10.328987,0.57068294,-0.1901663,0.16755113,-0.7384309,-0.471897,0.06743171,0.76183265,-0.61119175,0.60160613,-0.21519065,0.7300434,-0.81735086,-1.8202255,-1.4624964,2.2308075,1.8224152,-0.9007167,0.7902366,-0.77794886,-1.8259063,-1.5254427,2.2833283,1.7692775,-0.8800455,-1.3528813,-0.80354416,0.11579752,1.3236563,-0.86068976,0.6889144,-0.08804168,0.04839325,-0.49440002,0.77545387,-1.3393652,-0.46689752,-0.36525312,0.026821136,-0.5148468,0.73440534,0.79987144,-0.02368779,0.05160881,0.59747887,-1.175824,-0.16730087,0.102030106,0.0,1.0,0.0,0.0,0.0,0.0,0.0,-0.6983932,0.09440002,-0.22545385,4.8540354,-9.905314,3.8817315,-0.02553463,-0.37258863,-5.3587914,-1.325962
3.2043757,30.917452,13.40933,10.857644,0.37505746,-0.17271054,0.14575958,-0.7073446,-0.49226484,0.07506359,0.75326586,-0.62097067,0.6022174,-0.21118042,0.71950215,-0.8271753,-1.8183999,-1.4501162,2.2212312,1.8294992,-0.9011635,0.7771026,-0.7865186,-1.8245578,-1.5121657,2.2746575,1.7758254,-0.88100296,-1.300324,-0.874975,0.14157036,1.3293425,-0.8700946,0.64401025,-0.09828826,0.035007477,-0.4990692,0.77106506,-1.3380262,-0.4664307,-0.46340963,0.015140533,-0.5165558,0.7352526,0.8058986,-0.030733265,0.0529998,0.588875,-1.1676496,-0.1628185,0.075795256,0.0,1.0,0.0,0.0,0.0,0.0,0.0,-0.68500745,0.09906921,-0.22106504,5.255747,-7.1968436,2.6723714,0.63540936,-1.1547327,-4.3438435,-1.0143161
-1.1576047,27.604692,9.878023,11.061342,0.6213963,-0.22028196,0.03322377,-0.6975398,-0.540753,0.038278695,0.7412984,-0.61544055,0.5953435,-0.2148031,0.7073486,-0.8405939,-1.82073,-1.4380358,2.2131135,1.8353597,-0.9024833,0.76441395,-0.7957616,-1.8232379,-1.4988676,2.2659104,1.7819785,-0.88204914,-1.258347,-0.94084543,0.12886599,1.3302993,-0.87693834,0.60630894,-0.10664355,0.021636963,-0.5037308,0.76569545,-1.3366884,-0.46596435,-0.561468,0.0034637451,-0.5182648,0.73576117,0.8117681,-0.037452202,0.054186173,0.5802531,-1.1699591,-0.16505168,0.039191574,0.0,1.0,0.0,0.0,0.0,0.0,0.0,-0.67163694,0.10373077,-0.21569544,4.2158365,-6.636119,-1.2145102,0.19702911,-0.8414388,-3.6419868,-0.8144632
-5.6293435,20.663097,3.5083997,10.525756,0.9266869,-0.5243985,-0.13525575,-0.657251,-0.57843965,-0.08977462,0.74129874,-0.61520004,0.5927094,-0.21880846,0.69868886,-0.85360557,-1.8322153,-1.4247378,2.2043903,1.8412495,-0.90393,0.7522334,-0.80562335,-1.8228962,-1.4856462,2.2569878,1.7875315,-0.88327956,-1.2051042,-1.0014032,0.0037045474,1.320313,-0.895509,0.5486909,-0.12557636,0.006454468,-0.50496674,0.7669461,-1.5243535,-0.078606226,0.3083368,-0.008266449,-0.52017975,0.7356626,0.81766516,-0.04335712,0.05527518,0.57139164,-1.17728,-0.1905544,-0.029342992,0.0,1.0,0.0,0.0,0.0,0.0,0.0,-0.65645444,0.10496673,-0.21694607,4.906392,-6.2176585,-10.302689,0.15308857,-0.47619343,-3.009057,-0.7146403
-16.205894,57.526028,13.585427,20.8106,0.530839,0.21321464,-0.5610496,-0.7635974,-0.28396782,-0.19126828,0.77840483,-0.57268304,0.5819249,-0.19007595,0.67587364,-0.83402014,-1.842023,-1.4078058,2.1997194,1.845724,-0.9022872,0.7399396,-0.81454784,-1.8241112,-1.4722776,2.2481492,1.7928187,-0.88456607,-1.2370913,-0.8565967,-0.16355045,1.3427757,-0.8801797,0.52278864,-0.13013788,-0.008777618,-0.50574493,0.76927495,-1.5228294,-0.07852764,0.20774934,-0.020122528,-0.521965,0.735422,0.8238316,-0.048557732,0.056989618,0.5618682,-1.1911572,-0.16763976,-0.026008148,0.0,1.0,0.0,0.0,0.0,0.0,0.0,-0.64122236,0.10574493,-0.21927494,-3.083849,14.356589,-16.876884,2.3924112,1.4670014,-2.3701668,-0.582543
-22.542513,63.836338,14.613343,24.248701,0.82019216,0.5027046,-0.70174557,-0.78796554,-0.26317063,-0.2609621,0.78303355,-0.5090275,0.56107885,-0.22795644,0.661143,-0.8408649,-1.8502074,-1.3939743,2.1972463,1.8489265,-0.9073617,0.7270802,-0.8217662,-1.8270676,-1.4586439,2.239692,1.7978903,-0.88590884,-1.3017602,-0.677543,-0.34024647,1.3707577,-0.83467954,0.50248927,-0.13617723,-0.023994446,-0.50652313,0.7705987,-1.5213069,-0.07844912,0.10726243,-0.032222748,-0.5234604,0.7353226,0.8304069,-0.05308317,0.059606113,0.55141044,-1.2178302,-0.13571173,-0.008040022,0.0,1.0,0.0,0.0,0.0,0.0,0.0,-0.62600553,0.10652313,-0.2205987,-6.3188076,17.741585,-17.835266,2.9392242,4.459393,-1.8829107,-0.7643193
-22.94508,63.56902,14.7064705,23.95121,0.8096325,0.55121386,-0.6500168,-0.7972852,-0.22753206,-0.33824673,0.7851814,-0.5125777,0.5562638,-0.22070764,0.6473517,-0.8445194,-1.8608923,-1.3801258,2.1884341,1.8535167,-0.9079796,0.71355903,-0.8272746,-1.8317406,-1.4447603,2.2316582,1.8027788,-0.88730025,-1.3685132,-0.5092466,-0.5101148,1.3946153,-0.79325974,0.48455387,-0.1407856,-0.039196014,-0.50730133,0.77091837,-1.5197859,-0.07837069,0.0068759867,-0.04458618,-0.5246124,0.7353949,0.8373608,-0.056936555,0.06311644,0.5400012,-1.2446089,-0.10054109,0.009440414,0.0,1.0,0.0,0.0,0.0,0.0,0.0,-0.61080396,0.107301325,-0.22091836,-6.5493584,16.64436,-17.090256,2.496028,4.015863,-1.7356157,-0.6380737
-20.482922,55.887535,12.618873,21.292702,0.7816421,0.42428386,-0.5149772,-0.79887414,-0.2109637,-0.4179885,0.7901707,-0.5320375,0.5634833,-0.2160145,0.63367164,-0.84837097,-1.8735394,-1.3657433,2.1784544,1.8591272,-0.9089017,0.6995095,-0.83146983,-1.8380253,-1.4306841,2.2238991,1.8075129,-0.8887279,-1.4167721,-0.39025047,-0.6680857,1.4121205,-0.7703907,0.4696825,-0.14398214,-0.054382324,-0.5080795,0.7702349,-1.5182663,-0.07829233,-0.09341009,-0.057209015,-0.5254898,0.73552597,0.8445809,-0.06010607,0.06739011,0.5277585,-1.2690128,-0.07113821,0.012026569,0.0,1.0,0.0,0.0,0.0,0.0,0.0,-0.59561765,0.10807952,-0.22023487,-4.730439,11.721331,-15.824366,1.8422842,2.147901,-1.4982224,-0.48977435
-21.942553,35.159035,4.1630893,17.471127,1.2155339,0.1586057,-0.43288073,-0.80742276,-0.26224542,-0.5291787,0.7866222,-0.5261409,0.5591059,-0.19092967,0.6187672,-0.8576944,-1.8909432,-1.3520218,2.1712852,1.8634235,-0.9078209,0.68511283,-0.83516246,-1.8459599,-1.4165144,2.216304,1.8121115,-0.8901603,-1.4469317,-0.36269328,-0.83541775,1.419238,-0.7562418,0.45638883,-0.14337718,-0.069553375,-0.5088577,0.7685493,-1.5167484,-0.07821406,-0.1935959,-0.07019806,-0.526207,0.73538697,0.8519854,-0.06248307,0.07207494,0.5148029,-1.3085977,-0.06335255,-0.024194168,0.0,1.0,0.0,0.0,0.0,0.0,0.0,-0.5804466,0.10885772,-0.21854931,-2.8926134,2.6243448,-16.757465,0.8615017,1.3499379,-1.3969064,-0.055152178
-15.773905,29.431963,4.3427343,14.167892,1.0957382,0.054362893,-0.23385674,-0.7904941,-0.2711617,-0.5547524,0.79259557,-0.51552415,0.57286817,-0.17244732,0.6060634,-0.86227864,-1.9014351,-1.3372549,2.1647515,1.8693984,-0.9074051,0.67063034,-0.83896476,-1.855262,-1.4022951,2.2088234,1.8166052,-0.89156795,-1.4483514,-0.38646215,-0.9616528,1.4232895,-0.74566835,0.44659528,-0.14011635,-0.08470917,-0.5096359,0.76586264,-1.515232,-0.07813586,-0.29368156,-0.0835228,-0.5268936,0.7348137,0.85943425,-0.06412729,0.07686393,0.50135064,-1.3409861,-0.058924176,-0.06980498,0.0,1.0,0.0,0.0,0.0,0.0,0.0,-0.5652908,0.10963592,-0.21586263,-0.051784515,-2.4867296,-12.582338,0.5494833,0.9774089,-1.053226,0.23482144
-10.992654,24.501099,4.4949675,11.474779,0.99332446,0.008409679,-0.071984366,-0.7777073,-0.31437385,-0.58066654,0.79354495,-0.5253266,0.5953258,-0.16838208,0.5928596,-0.87040216,-1.9133286,-1.3229406,2.1562908,1.8761377,-0.90840614,0.6562855,-0.84333843,-1.8655226,-1.3880616,2.2013733,1.8210479,-0.8929432,-1.4288831,-0.45431182,-1.0516012,1.4215884,-0.7450672,0.44881272,-0.13733588,-0.09996033,-0.51036835,0.7627691,-1.5308722,-0.041845415,-0.11716324,-0.09712982,-0.5275421,0.7337208,0.8667897,-0.06517301,0.08153338,0.48762724,-1.3677,-0.056115493,-0.12549467,0.0,1.0,0.0,0.0,0.0,0.0,0.0,-0.55003965,0.11036834,-0.21276909,2.1116734,-6.84278,-9.480834,-0.33330917,-0.16630888,0.9325981,0.08831024
-4.9561477,38.126358,11.850209,11.727821,0.4543575,0.19222748,0.07055543,-0.77540475,-0.2685817,-0.5822759,0.7982148,-0.5466106,0.6016052,-0.13325013,0.57874507,-0.8701966,-1.9237502,-1.3082402,2.1467123,1.8812084,-0.90626824,0.6421654,-0.84814876,-1.8763278,-1.3738385,2.193862,1.8255254,-0.89425874,-1.4064336,-0.49029365,-1.089642,1.4226981,-0.7541176,0.44718882,-0.13000478,-0.115161896,-0.5106354,0.76139694,-1.5184855,-0.021019658,-0.14333992,-0.11084747,-0.5280609,0.73225635,0.87392676,-0.06581395,0.086162366,0.4738105,-1.3727267,-0.03644916,-0.15485902,0.0,1.0,0.0,0.0,0.0,0.0,0.0,-0.5348381,0.11063537,-0.21139693,2.2319555,-3.7234962,-3.6068678,0.1821518,-1.157403,-0.17822981,0.59752166
-8.022925,34.50169,9.887369,11.97015,0.6546885,0.24087757,0.056973115,-0.78655005,-0.32631907,-0.62379676,0.79713,-0.553936,0.5849169,-0.1079282,0.5635104,-0.8807807,-1.9387075,-1.2941256,2.1384683,1.8840171,-0.9050515,0.6281817,-0.85343975,-1.887457,-1.3596116,2.186221,1.8299788,-0.895489,-1.3955611,-0.54238605,-1.1199464,1.423091,-0.768096,0.44431087,-0.12095122,-0.13032913,-0.5107269,0.7597318,-1.5161107,-0.0043236893,-0.17419516,-0.124679565,-0.5283661,0.73045975,0.8808264,-0.066090874,0.09074389,0.4599372,-1.3857971,-0.017933536,-0.18948555,0.0,1.0,0.0,0.0,0.0,0.0,0.0,-0.51967084,0.11072692,-0.20973182,1.0985851,-5.3357005,-2.845168,0.16155243,-1.5766859,-0.37459135,0.8232981
-6.213476,39.199913,12.025015,11.966068,0.47200665,0.28618038,0.114794366,-0.7714941,-0.33139956,-0.63711303,0.7974228,-0.57319105,0.5987612,-0.045716647,0.5510323,-0.8865797,-1.9511683,-1.2798693,2.1289017,1.8898549,-0.90006065,0.6143181,-0.85916084,-1.8988076,-1.345379,2.1783967,1.8344117,-0.89658856,-1.383347,-0.58249724,-1.1393516,1.4237132,-0.78794914,0.4426024,-0.1065488,-0.14545059,-0.5106354,0.75781566,-1.510458,0.0149604855,-0.19746584,-0.13857651,-0.52845,0.7283695,0.8874596,-0.06603412,0.09531837,0.4460597,-1.3910044,0.0057600015,-0.21717381,0.0,1.0,0.0,0.0,0.0,0.0,0.0,-0.5045494,0.11063537,-0.20781565,1.2089729,-4.1507244,-1.7202854,0.16007423,-2.1939993,-0.25318265,1.344286
-7.951373,38.331158,11.007185,12.037896,0.5334761,0.29668742,0.112525746,-0.77425075,-0.36066902,-0.6619712,0.79407567,-0.58690345,0.5886928,0.00746503,0.536893,-0.89522773,-1.9650048,-1.2659714,2.1197064,1.893281,-0.8958421,0.6005288,-0.8652939,-1.9103832,-1.331154,2.170359,1.8388202,-0.89751357,-1.3775153,-0.6241214,-1.1629514,1.4223527,-0.8096843,0.44002074,-0.088030376,-0.16051483,-0.5103531,0.75563985,-1.5052483,0.033746522,-0.22386777,-0.15254593,-0.5283127,0.7259826,0.89382374,-0.06562167,0.09990564,0.4321941,-1.3991402,0.029332548,-0.2477747,0.0,1.0,0.0,0.0,0.0,0.0,0.0,-0.48948514,0.11035308,-0.20563984,0.5832672,-4.30547,-2.147293,-0.016784668,-2.381909,-0.3568709,1.7616421
-5.759972,42.104507,12.674874,11.80373,0.38544998,0.28364092,0.17023909,-0.75776154,-0.36890763,-0.6688252,0.7973364,-0.60065,0.5810008,0.0975089,0.5247526,-0.90218467,-1.9772657,-1.2514204,2.1102939,1.8969203,-0.88776267,0.58684164,-0.8717703,-1.9221686,-1.316931,2.162104,1.8432014,-0.8981984,-1.3657919,-0.65591305,-1.1829268,1.4225166,-0.83164465,0.43719596,-0.06238865,-0.17550278,-0.50987244,0.75324357,-1.4968851,0.053807642,-0.2448749,-0.16654968,-0.5279236,0.72332674,0.8998952,-0.064853236,0.10453578,0.41839558,-1.3998023,0.05488349,-0.2734207,0.0,1.0,0.0,0.0,0.0,0.0,0.0,-0.4744972,0.10987243,-0.20324355,1.1483908,-3.32942,-1.7538309,0.10750294,-2.4475217,-0.34948587,2.4482622
-2.5700943,45.40934,14.45396,11.081551,0.21335828,0.26379174,0.22893569,-0.7402334,-0.38271847,-0.6677241,0.7943896,-0.6157935,0.59880316,0.130553,0.5128183,-0.91004217,-1.9889411,-1.2374921,2.1005244,1.9030817,-0.8851431,0.5733338,-0.8785204,-1.9340876,-1.3027211,2.1536276,1.8475733,-0.89862,-1.3460081,-0.68192506,-1.1941193,1.4207308,-0.8534878,0.43677,-0.035891384,-0.1903801,-0.5091858,0.75067115,-1.4849263,0.07467951,-0.26154664,-0.18050003,-0.52726746,0.7204447,0.9056399,-0.06376369,0.109230876,0.4047456,-1.3914998,0.081372604,-0.2952107,0.0,1.0,0.0,0.0,0.0,0.0,0.0,-0.45961988,0.109185785,-0.20067114,1.9228458,-2.7521968,-0.84097385,-0.122094154,-2.4650455,-0.083094835,2.5178843
-5.978372,41.466972,11.837665,11.365864,0.40828133,0.23346019,0.19231814,-0.7473043,-0.41780606,-0.69939595,0.7971401,-0.633134,0.57450867,0.2004621,0.49860337,-0.920301,-2.0040271,-1.2230071,2.0903141,1.9050242,-0.8785738,0.55996424,-0.8856053,-1.9462143,-1.2885114,2.1449263,1.8519222,-0.89874977,-1.3339355,-0.7178438,-1.2178587,1.4212998,-0.8762766,0.43384925,-0.0057671797,-0.20516205,-0.5083084,0.7478657,-1.4756445,0.09326025,-0.28661415,-0.1944313,-0.5263672,0.71728843,0.9110815,-0.062302478,0.113964655,0.39123,-1.392174,0.10468007,-0.32444015,0.0,1.0,0.0,0.0,0.0,0.0,0.0,-0.44483793,0.108308405,-0.19786566,1.1848927,-3.7414432,-2.1270514,0.16391277,-2.5248408,-0.39613843,2.9080935
-2.7577622,51.41218,15.717026,11.746138,0.15118465,0.28235722,0.24247755,-0.7312098,-0.37794143,-0.7054613,0.78961045,-0.63196725,0.58020675,0.27052963,0.48684326,-0.92339945,-2.0167603,-1.2095504,2.0817297,1.9099429,-0.8716968,0.54674244,-0.8927912,-1.9585701,-1.2743341,2.136053,1.8562506,-0.8985544,-1.3184693,-0.71948695,-1.2405158,1.4167144,-0.8922202,0.4320198,0.027407642,-0.21980286,-0.5072174,0.7449275,-1.459833,0.115710735,-0.2960216,-0.20827484,-0.52518463,0.7139469,0.9162043,-0.06046869,0.118816994,0.3778832,-1.3788222,0.1339121,-0.33957347,0.0,1.0,0.0,0.0,0.0,0.0,0.0,-0.43019712,0.1072174,-0.19492751,1.4788628,-0.33673048,-1.9597292,-0.4267454,-1.9086123,-0.30269623,3.1650198
-6.60073,46.17061,12.92203,12.062975,0.47130626,0.28917986,0.17470884,-0.7406886,-0.4275022,-0.716354,0.79071355,-0.6254907,0.5731092,0.25335106,0.47267357,-0.93554145,-2.0302055,-1.1952627,2.073504,1.9135616,-0.87321925,0.533596,-0.9001383,-1.971149,-1.2601947,2.1270845,1.8605537,-0.89807093,-1.3134755,-0.7403516,-1.2627392,1.4134992,-0.8995239,0.42918023,0.054905787,-0.23431396,-0.5059204,0.74182254,-1.4478903,0.13582446,-0.3150649,-0.2220726,-0.5237427,0.7103951,0.9210421,-0.058258574,0.12371445,0.36466694,-1.3778651,0.1608363,-0.36248302,0.0,1.0,0.0,0.0,0.0,0.0,0.0,-0.415686,0.105920404,-0.19182253,0.46470165,-2.2536755,-1.9434452,-0.2313137,-1.0218978,-0.4159212,2.6308014
-4.433924,52.95428,15.698579,12.541823,0.359374,0.35600883,0.20424193,-0.72971165,-0.4046233,-0.71131533,0.78899014,-0.6305758,0.5845081,0.2976396,0.4606248,-0.94060063,-2.0422804,-1.1812956,2.0640268,1.9190046,-0.868307,0.5205106,-0.90756077,-1.9838667,-1.2460879,2.1180627,1.8648398,-0.8973138,-1.3070863,-0.7435211,-1.2735375,1.4097394,-0.90394175,0.427975,0.08216979,-0.24867249,-0.50440216,0.7386116,-1.4310374,0.15857846,-0.32260755,-0.23579025,-0.5219803,0.7066967,0.9255922,-0.055721436,0.12866682,0.3515949,-1.3680058,0.19225967,-0.37444842,0.0,1.0,0.0,0.0,0.0,0.0,0.0,-0.4013275,0.104402155,-0.18861157,0.5703926,-0.49880743,-0.7463455,-0.3342867,-0.7865429,-0.26814342,2.58355
2.381608,63.432514,20.686735,12.2983265,0.052488863,0.348953,0.285018,-0.69982153,-0.37099737,-0.7000909,0.7861892,-0.62463415,0.5851547,0.3331756,0.45052844,-0.9446605,-2.0538757,-1.167469,2.0555992,1.9233552,-0.8639962,0.50760645,-0.9148163,-1.996579,-1.2320306,2.1090438,1.8691235,-0.89628774,-1.2853051,-0.7201335,-1.269068,1.4043314,-0.902934,0.42783248,0.10878151,-0.26279068,-0.5026398,0.7354616,-1.405058,0.18400408,-0.3121403,-0.24927902,-0.51989746,0.7030017,0.92981046,-0.052954644,0.13374355,0.3387638,-1.3385919,0.22536866,-0.36988005,0.0,1.0,0.0,0.0,0.0,0.0,0.0,-0.3872093,0.102639765,-0.18546158,2.0367622,2.1463275,0.8732319,-0.6051302,-0.33637285,-0.13827085,2.4616942
-6.98188,45.163116,11.979295,11.670492,0.57907605,0.24077988,0.18757996,-0.73095554,-0.4653883,-0.734677,0.7815841,-0.64850706,0.5339624,0.3623504,0.4345109,-0.96135515,-2.0700467,-1.1538723,2.044193,1.9225197,-0.8600527,0.49476236,-0.9222588,-2.0093725,-1.2180287,2.099968,1.8733579,-0.89500225,-1.2842431,-0.752808,-1.281772,1.3991994,-0.91048914,0.4215859,0.13481613,-0.27674866,-0.5006714,0.7321518,-1.3919901,0.2016382,-0.33632994,-0.26268387,-0.51755524,0.69912195,0.9337573,-0.04985201,0.13879329,0.32611093,-1.3388293,0.24981841,-0.39595854,0.0,1.0,0.0,0.0,0.0,0.0,0.0,-0.37325132,0.10067138,-0.1821518,0.06759167,-3.4278512,-0.97358227,-0.40988922,-1.0637045,-0.76333284,2.4965584
-5.308661,52.98872,14.678198,12.483527,0.46422556,0.29081458,0.20580533,-0.7190237,-0.41607752,-0.73223585,0.7784276,-0.64426297,0.5111135,0.40819588,0.42286,-0.96386653,-2.082596,-1.140186,2.0355418,1.9244692,-0.85418266,0.4819359,-0.92984146,-2.0222847,-1.2040838,2.0908277,1.8775142,-0.89345074,-1.2823333,-0.76068944,-1.2929184,1.3931853,-0.91634256,0.4132488,0.16146684,-0.29053116,-0.49851227,0.72869366,-1.3733642,0.22165787,-0.34811917,-0.2760353,-0.5149231,0.6950686,0.9374448,-0.046380144,0.14383127,0.31362167,-1.3297646,0.27830127,-0.41028032,0.0,1.0,0.0,0.0,0.0,0.0,0.0,-0.35946882,0.09851226,-0.17869365,0.1210928,-0.9675145,-0.76391697,-0.5494118,-0.9557605,-0.9945631,2.5247545
-9.969311,43.38069,10.109383,11.805088,0.6882815,0.23206013,0.16159599,-0.73218316,-0.47438368,-0.7511592,0.7726659,-0.6639074,0.47479546,0.41816467,0.40871757,-0.97727984,-2.0974007,-1.1268172,2.024437,1.9249938,-0.85163426,0.46905315,-0.93772644,-2.0353727,-1.190204,2.0815804,1.8815616,-0.89165235,-1.2903239,-0.79831696,-1.3132299,1.3865948,-0.9287689,0.40128085,0.18566515,-0.30418015,-0.49617767,0.72496635,-1.3615526,0.2374376,-0.37963274,-0.2893982,-0.51203156,0.6907446,0.94090563,-0.042470966,0.1487859,0.3012567,-1.3348207,0.30311057,-0.4417403,0.0,1.0,0.0,0.0,0.0,0.0,0.0,-0.34581983,0.09617767,-0.17496634,-0.81818104,-3.9253354,-1.7470837,-0.5185604,-1.551342,-1.3518155,2.3221076
-6.43927,50.00154,12.851058,11.665945,0.51188236,0.26921052,0.21036312,-0.71960527,-0.4533732,-0.7480307,0.7649335,-0.6641124,0.4812606,0.45640275,0.3970926,-0.98306376,-2.1101758,-1.1137106,2.0151691,1.9296877,-0.84601206,0.45614272,-0.94585365,-2.0486171,-1.1764158,2.0722225,1.8855036,-0.88961166,-1.2914481,-0.8179927,-1.32711,1.3764832,-0.93932784,0.391219,0.20982786,-0.3176689,-0.49368286,0.7209917,-1.3439013,0.2543757,-0.40146187,-0.30271912,-0.50888824,0.68617475,0.9441295,-0.038131516,0.15366916,0.28905216,-1.3282015,0.32987905,-0.4640517,0.0,1.0,0.0,0.0,0.0,0.0,0.0,-0.33233106,0.093682855,-0.17099166,-0.17273426,-2.1390915,-1.0455132,-0.92988014,-1.4200091,-1.1743665,2.289596
-8.955976,47.74971,11.528141,12.121989,0.69462144,0.3027209,0.16644204,-0.7341739,-0.4881579,-0.7483,0.769828,-0.67262876,0.4618067,0.4476556,0.38272533,-0.99466944,-2.1234472,-1.099433,2.0049596,1.9316844,-0.8448461,0.4431684,-0.9542603,-2.0619566,-1.1626865,2.062754,1.8893392,-0.88736117,-1.2995416,-0.8488332,-1.3349853,1.3721603,-0.95051986,0.38034058,0.22978352,-0.33099747,-0.49102783,0.7167637,-1.3284249,0.27039808,-0.42819878,-0.3160324,-0.505455,0.6813615,0.9471306,-0.03339069,0.15845221,0.2769866,-1.3280753,0.35777766,-0.48908505,0.0,1.0,0.0,0.0,0.0,0.0,0.0,-0.3190025,0.091027826,-0.16676366,-0.8504391,-3.255713,-0.45528412,-0.31003952,-1.4725447,-1.2879312,1.8978566
-10.878931,46.630722,10.377971,12.127326,0.74554306,0.28664142,0.1507761,-0.745322,-0.5049513,-0.7659387,0.7599625,-0.68617064,0.3731705,0.46203083,0.3686362,-1.0047554,-2.1385505,-1.0866902,1.9941368,1.9266562,-0.8411581,0.4300686,-0.9629912,-2.0754144,-1.1490201,2.0531518,1.8930069,-0.8849266,-1.3135253,-0.88171107,-1.3484052,1.365168,-0.96427673,0.3617591,0.24777645,-0.34418488,-0.4882202,0.712224,-1.3141764,0.28519884,-0.45984307,-0.3293686,-0.50174713,0.6762725,0.9499289,-0.028196605,0.16309927,0.2650255,-1.3306681,0.38584098,-0.51758057,0.0,1.0,0.0,0.0,0.0,0.0,0.0,-0.3058151,0.08822021,-0.162224,-1.4266014,-3.4609199,-1.0209799,-0.55360794,-1.7298341,-2.0531297,1.7047435
-9.997343,41.867046,8.921389,10.571962,0.731281,0.23009926,0.17235012,-0.74145955,-0.551091,-0.7653995,0.75569725,-0.69490737,0.3601045,0.47251502,0.35592264,-1.0181003,-2.1519544,-1.0734503,1.983661,1.9290174,-0.8376751,0.41686398,-0.9721922,-2.088979,-1.1354263,2.0434093,1.8964899,-0.8823252,-1.3228232,-0.9334663,-1.3581686,1.3579748,-0.97848123,0.3431244,0.26407933,-0.3572464,-0.48529053,0.70728934,-1.3024837,0.29711312,-0.5026466,-0.3427391,-0.49778748,0.67082936,0.9525357,-0.022534747,0.16752082,0.25318912,-1.3349321,0.4106269,-0.5553841,0.0,1.0,0.0,0.0,0.0,0.0,0.0,-0.29275358,0.08529052,-0.15728933,-0.9496212,-5.3302646,-0.6829262,-0.54528713,-1.7385364,-2.0603418,1.5657187
-5.719436,45.634857,10.834484,9.841654,0.5627419,0.23255229,0.21884915,-0.72792786,-0.55701286,-0.7655223,0.756113,-0.70476013,0.3814745,0.49476302,0.34407118,-1.0278935,-2.1655312,-1.0598149,1.9729333,1.9346373,-0.83284885,0.40366122,-0.9818539,-2.1026084,-1.1218896,2.0335245,1.8998218,-0.87956357,-1.3196125,-0.97754747,-1.3636186,1.35273,-0.99267346,0.32908645,0.27996123,-0.37015915,-0.48223877,0.7019564,-1.2864143,0.30829945,-0.5407061,-0.3560791,-0.4935913,0.66504365,0.95493567,-0.016452294,0.1717136,0.24153998,-1.3291993,0.4337999,-0.5885601,0.0,1.0,0.0,0.0,0.0,0.0,0.0,-0.27984083,0.08223876,-0.15195638,0.26569366,-4.5602202,-0.21078587,-0.3988266,-1.7658114,-1.5922487,1.5023768
