Afshin1997/kuka_rl_ros2/src/catch_and_throw/input_files/idealpd/recorded_trajectories/env_430_data.csv
torque0,torque1,torque2,torque3,torque4,torque5,torque6,action0,action1,action2,action3,action4,action5,action6,set_target_0,set_target_1,set_target_2,set_target_3,set_target_4,set_target_5,set_target_6,joint_pos_0,joint_pos_1,joint_pos_2,joint_pos_3,joint_pos_4,joint_pos_5,joint_pos_6,joint_vel_0,joint_vel_1,joint_vel_2,joint_vel_3,joint_vel_4,joint_vel_5,joint_vel_6,tennisball_pos_0,tennisball_pos_1,tennisball_pos_2,tennisball_lin_vel_0,tennisball_lin_vel_1,tennisball_lin_vel_2,end_effector_pos_0,end_effector_pos_1,end_effector_pos_2,end_effector_rot_0,end_effector_rot_1,end_effector_rot_2,end_effector_rot_3,end_effector_lin_vel_0,end_effector_lin_vel_1,end_effector_lin_vel_2,obs_task_0,obs_task_1,obs_task_2,obs_task_3,obs_task_4,obs_task_5,obs_task_6,to_final_target_0,to_final_target_1,to_final_target_2,joint_acc_0,joint_acc_1,joint_acc_2,joint_acc_3,joint_acc_4,joint_acc_5,joint_acc_6
0.0,0.0,0.0,0.0,0.0,0.0,0.0,0.0,0.0,0.0,0.0,0.0,0.0,0.0,1.7802359,-1.0646509,-1.8151424,-1.1170107,1.9373155,1.1170107,-0.91629785,1.7802359,-1.0646509,-1.8151424,-1.1170107,1.9373155,1.1170107,-0.91629785,0.0,0.0,0.0,0.0,0.0,0.0,0.0,3.227501,-0.55629826,0.13365285,-3.5813546,-0.1584913,4.975162,0.5304184,-0.45449448,0.693097,0.5745483,0.17512383,0.15255436,0.7848268,0.0,0.0,0.0,1.0,0.0,0.0,0.0,0.0,0.0,0.0,-3.877501,0.15629825,0.41634715,0.0,0.0,0.0,0.0,0.0,0.0,0.0
0.0,0.0,0.0,0.0,0.0,0.0,0.0,0.0,0.0,0.0,0.0,0.0,0.0,0.0,1.7802359,-1.0646509,-1.8151424,-1.1170107,1.9373155,1.1170107,-0.91629785,1.7802359,-1.0646509,-1.8151424,-1.1170107,1.9373155,1.1170107,-0.91629785,0.0,0.0,0.0,0.0,0.0,0.0,0.0,3.227501,-0.55629826,0.13365285,-3.5813546,-0.1584913,4.975162,0.5304184,-0.45449448,0.693097,0.5745483,0.17512383,0.15255436,0.7848268,0.0,0.0,0.0,1.0,0.0,0.0,0.0,0.0,0.0,0.0,-3.877501,0.15629825,0.41634715,0.0,0.0,0.0,0.0,0.0,0.0,0.0
0.0,0.0,0.0,0.0,0.0,0.0,0.0,0.0,0.0,0.0,0.0,0.0,0.0,0.0,1.7802359,-1.0646509,-1.8151424,-1.1170107,1.9373155,1.1170107,-0.91629785,1.7802359,-1.0646509,-1.8151424,-1.1170107,1.9373155,1.1170107,-0.91629785,0.0,0.0,0.0,0.0,0.0,0.0,0.0,3.227501,-0.55629826,0.13365285,-3.5813546,-0.1584913,4.975162,0.5304184,-0.45449448,0.693097,0.5745483,0.17512383,0.15255436,0.7848268,0.0,0.0,0.0,1.0,0.0,0.0,0.0,0.0,0.0,0.0,-3.877501,0.15629825,0.41634715,0.0,0.0,0.0,0.0,0.0,0.0,0.0
-176.0,32.24002,-20.27404,110.0,10.587523,3.3991518,-3.7519264,-0.7808944,0.1592562,-0.5548982,0.7412749,0.0088882325,0.6866567,-0.59623814,1.7021464,-1.0487252,-1.8706322,-1.0428833,1.9382043,1.1856763,-0.9759217,1.7793375,-1.0634245,-1.8210723,-1.1109434,1.9398103,1.1221033,-0.91667646,-0.11952185,0.16283263,-0.790737,0.80963904,0.33218288,0.67805874,-0.049906187,3.1917152,-0.5578823,0.1826307,-3.577774,-0.15833284,4.8720016,0.52848434,-0.4579544,0.69352126,0.57827955,0.17355017,0.15169953,0.78259844,-0.2580241,-0.4616233,0.05627257,1.0,0.0,0.0,0.0,0.0,0.0,0.0,-3.8417153,0.1578823,0.3673693,-11.815049,16.12157,-79.07375,81.15108,33.118736,67.47681,-4.8405614
-176.0,-67.33063,-58.994537,106.34089,12.10299,0.076376334,-2.9922569,-0.7852182,-0.3549796,-0.5546756,0.70898044,0.17242554,0.6686995,-0.5850554,1.7008157,-1.0989224,-1.87654,-1.0400454,1.9570528,1.1889733,-0.975182,1.778607,-1.0630182,-1.8360336,-1.0945536,1.9449487,1.1351019,-0.9153184,-0.058587223,-0.009067994,-1.7104235,1.9177176,0.5641408,1.4816126,0.19319586,3.155964,-0.55946445,0.23057772,-3.574197,-0.15817454,4.7689447,0.5241852,-0.4668913,0.6934091,0.58638394,0.17003524,0.14906104,0.777832,-0.48766047,-1.0354668,-0.030950135,1.0,0.0,0.0,0.0,0.0,0.0,0.0,-3.805964,0.15946445,0.3194223,5.736728,-19.89086,-85.76312,111.47151,20.142864,72.695564,22.963306
-147.9326,93.49142,27.282665,84.51058,8.385692,7.361858,-1.355252,-0.72692716,0.07056398,0.24965386,0.65813565,0.3046666,0.7008525,-0.4740321,1.7059143,-1.0559618,-1.8110682,-1.02874,1.9754153,1.2051872,-0.96272165,1.7748553,-1.0631422,-1.8503215,-1.073857,1.9508958,1.1498324,-0.91369814,-0.48043817,-0.016257282,-1.3288515,2.122201,0.59917843,1.4653238,0.15142353,3.1202507,-0.5610447,0.27749494,-3.5706236,-0.1580164,4.665991,0.51711273,-0.47875404,0.69455,0.5969757,0.16503246,0.14471972,0.7716478,-0.7880227,-1.2289615,0.1657065,1.0,0.0,0.0,0.0,0.0,0.0,0.0,-3.7702508,0.16104469,0.27250507,-42.07793,-1.5517881,39.94007,21.00687,1.8103719,-3.1101704,-4.2364063
-102.54794,75.36908,30.64898,50.022102,5.9559717,6.841976,0.17883101,-0.7538945,-0.22690655,0.33404797,0.6741524,0.36121392,0.68654394,-0.55514026,1.6994658,-1.0858328,-1.8169167,-1.0064417,1.9870172,1.2184868,-0.9692122,1.7667032,-1.0644983,-1.8580177,-1.0537611,1.9567952,1.1635939,-0.91273206,-0.92695826,-0.1771355,-0.57683426,1.9732469,0.58071196,1.3439932,0.07832913,3.0845718,-0.562624,0.3233834,-3.5670538,-0.15785842,4.56314,0.50745773,-0.49160385,0.69715863,0.6081382,0.1590171,0.13828062,0.7653495,-1.0351843,-1.2922965,0.29503614,1.0,0.0,0.0,0.0,0.0,0.0,0.0,-3.734572,0.16262397,0.22661662,-44.739197,-16.569592,77.14816,-14.552093,-3.7466764,-12.904811,-7.281595
-48.638885,123.406906,50.60593,30.208225,2.9690862,7.197975,0.6150566,-0.7744675,0.0009147665,0.34732896,0.68426955,0.4543916,0.69982284,-0.5517935,1.6892565,-1.0644069,-1.8232847,-0.98533416,2.0022345,1.2335762,-0.9679114,1.7547785,-1.0662569,-1.8583229,-1.0362574,1.9626412,1.1759917,-0.9125404,-1.2816335,-0.17690311,0.15721305,1.675891,0.580998,1.2038871,-0.001758491,3.0489273,-0.56420135,0.36824408,-3.5634875,-0.1577006,4.460391,0.49583817,-0.50402737,0.70133793,0.61888045,0.15200941,0.13011293,0.7595726,-1.2164644,-1.2136571,0.4583769,1.0,0.0,0.0,0.0,0.0,0.0,0.0,-3.6989274,0.16420135,0.18175593,-35.660027,-0.44461787,75.0878,-29.79219,-1.4513373,-14.368463,-8.35116
-18.286055,94.04963,36.027664,13.018043,1.1289833,4.2864223,0.58306503,-0.7902384,-0.07487093,0.2650617,0.67620164,0.48684552,0.6822913,-0.59487003,1.6757547,-1.0737439,-1.8318167,-0.9686372,2.0113258,1.2442207,-0.97202736,1.7403933,-1.0680345,-1.8534477,-1.021609,1.968638,1.1870981,-0.9131078,-1.4913249,-0.17875394,0.6003329,1.3943107,0.60340846,1.0798562,-0.0757694,3.013321,-0.5657768,0.41207808,-3.5599246,-0.15754293,4.357745,0.48305893,-0.5155983,0.7064043,0.62893534,0.14454792,0.12093423,0.7542686,-1.3106581,-1.127172,0.5196679,1.0,0.0,0.0,0.0,0.0,0.0,0.0,-3.663321,0.16577682,0.13792193,-21.079517,-0.4392475,45.121956,-28.237152,1.5470862,-12.334371,-7.6176586
6.206421,137.21452,45.685028,11.565722,-0.7791805,3.9504213,-0.015379697,-0.8120474,0.25328127,0.15401208,0.65200895,0.5151977,0.6790667,-0.58781534,1.6591885,-1.0427064,-1.8380464,-0.956408,2.0201578,1.2550048,-0.9718894,1.724795,-1.0681871,-1.8466175,-1.0092055,1.9749761,1.1971155,-0.91433805,-1.5832176,0.038207673,0.7122753,1.1889361,0.64326185,0.97672576,-0.14018257,2.9777489,-0.56735134,0.45488638,-3.5563655,-0.15738541,4.2552023,0.46972656,-0.5259161,0.7123681,0.6385936,0.1367668,0.11205006,0.74895775,-1.3525337,-0.9895682,0.61801994,1.0,0.0,0.0,0.0,0.0,0.0,0.0,-3.627749,0.16735134,0.095113635,-9.362054,21.404026,11.69964,-20.557667,3.755474,-10.032452,-6.8478227
16.51412,139.5707,41.203815,9.510842,-1.88996,2.679011,-0.48156685,-0.8162437,0.38042185,-0.0033155512,0.624,0.50267845,0.6687658,-0.58491653,1.6431706,-1.0301449,-1.846949,-0.9468055,2.025244,1.2639921,-0.9728297,1.708903,-1.0655683,-1.8407753,-0.9982363,1.9816556,1.2062327,-0.91613096,-1.5920417,0.33583352,0.5424591,1.06615,0.6763703,0.891049,-0.19353399,2.9422112,-0.56892395,0.49667004,-3.5528097,-0.15722805,4.1527615,0.45630646,-0.5348606,0.7191491,0.64824754,0.12886189,0.10460378,0.7431203,-1.3491647,-0.85188407,0.6946272,1.0,0.0,0.0,0.0,0.0,0.0,0.0,-3.5922112,0.16892394,0.053329974,-1.0979414,29.524073,-16.687525,-12.283301,3.3268332,-8.246684,-5.7263465
27.210634,151.20224,44.746487,8.824567,-2.389367,2.5856025,-0.5661719,-0.8110365,0.5325966,0.0021038966,0.5836413,0.5192994,0.66788274,-0.5841325,1.6277993,-1.0123087,-1.8405648,-0.93987215,2.0335855,1.273021,-0.9745442,1.6932627,-1.0596842,-1.837117,-0.9880978,1.988646,1.2146002,-0.9183883,-1.5554737,0.6716482,0.30841172,0.9961407,0.7065632,0.81928277,-0.23779197,2.9067116,-0.5704956,0.53743005,-3.5492578,-0.15707086,4.050423,0.443058,-0.5423269,0.7268382,0.65805,0.12081672,0.09905121,0.7365883,-1.3249316,-0.6999217,0.7909245,1.0,0.0,0.0,0.0,0.0,0.0,0.0,-3.5567117,0.1704956,0.012569964,3.409481,33.33987,-23.032581,-7.062435,3.0287504,-6.9808006,-4.8461647
29.8192,140.18732,41.844063,7.286145,-2.1639292,2.245544,-0.41453227,-0.8091563,0.60633534,-0.008505756,0.53857505,0.56743795,0.65282273,-0.5775418,1.6123471,-0.9990506,-1.8379675,-0.9342403,2.04539,1.2798824,-0.97614247,1.6780745,-1.0508245,-1.8355834,-0.97849905,1.9960084,1.2223269,-0.9210214,-1.5074141,0.95686394,0.10284365,0.94729984,0.7461316,0.75713706,-0.27317125,2.8712463,-0.57206535,0.57716745,-3.5457091,-0.15691382,3.9481876,0.43008804,-0.5483732,0.73539704,0.6679377,0.11262772,0.09520632,0.72945863,-1.2939783,-0.559698,0.87577045,1.0,0.0,0.0,0.0,0.0,0.0,0.0,-3.5212464,0.17206535,-0.02716744,4.562545,28.31266,-20.135315,-5.031514,3.927195,-6.1659336,-3.9272904
32.469852,128.85115,40.47537,5.7717338,-1.7302995,2.2146528,-0.13943656,-0.7921795,0.6698254,0.03920451,0.50871944,0.59030193,0.6585835,-0.5780317,1.5988566,-0.983842,-1.831663,-0.9276271,2.0550387,1.2881852,-0.97882456,1.6633803,-1.0396703,-1.835305,-0.96931326,2.0037694,1.229508,-0.9239606,-1.4574616,1.167751,0.0044389926,0.90836376,0.78573376,0.7051003,-0.30204496,2.8358154,-0.5736332,0.61588323,-3.542164,-0.15675694,3.8460546,0.41739655,-0.55308723,0.7447615,0.6777245,0.10422102,0.092541724,0.72198576,-1.264562,-0.4280221,0.9553861,1.0,0.0,0.0,0.0,0.0,0.0,0.0,-3.4858155,0.17363319,-0.06588322,4.7616243,20.908855,-9.331355,-4.091227,3.8841844,-5.2506924,-3.2734573
27.718502,110.11157,35.42181,6.122187,-1.075067,1.9899126,0.015249129,-0.7842169,0.70387983,0.048413422,0.50637764,0.5915968,0.66392845,-0.5719464,1.5849586,-0.9692824,-1.8304636,-0.9186755,2.0629292,1.295901,-0.9811553,1.6491076,-1.0270265,-1.8354099,-0.9603869,2.0118527,1.2362391,-0.92714304,-1.4180202,1.2961901,-0.013922877,0.8868115,0.81549716,0.66223395,-0.3247557,2.8004227,-0.5751991,0.65357846,-3.5386226,-0.1566002,3.7440236,0.4049301,-0.55666924,0.7547751,0.68728083,0.095554285,0.09052658,0.71436644,-1.2441658,-0.32045412,1.0154991,1.0,0.0,0.0,0.0,0.0,0.0,0.0,-3.4504228,0.17519912,-0.10357845,3.744173,12.705755,-1.3370436,-2.3569703,2.9027104,-4.3664217,-2.6273549
22.28282,91.122604,29.349323,6.0693483,-0.58527094,1.6214533,0.101660654,-0.7743512,0.72604716,0.039908186,0.49623194,0.60050046,0.67566764,-0.56453276,1.5716724,-0.9544218,-1.8314191,-0.9107637,2.0719028,1.3038058,-0.9835963,1.6351458,-1.013595,-1.8354118,-0.951615,2.0201764,1.2426077,-0.9305133,-1.3893775,1.3585813,0.005821338,0.87330204,0.8379319,0.6284684,-0.3421813,2.7650604,-0.5767641,0.69025415,-3.5350847,-0.15644364,3.6420946,0.39261246,-0.5593605,0.76519525,0.69654727,0.08667876,0.08878881,0.7067002,-1.229991,-0.2368794,1.0495362,1.0,0.0,0.0,0.0,0.0,0.0,0.0,-3.4150605,0.1767641,-0.14025414,2.6970148,6.1418533,2.422442,-1.5594006,2.1953583,-3.4266233,-2.0717263
18.555334,75.56293,24.043335,4.7545977,-0.34676075,1.2382264,0.19443166,-0.77381486,0.7369565,0.047019914,0.45259625,0.62577355,0.67695856,-0.5673353,1.5577643,-0.9398993,-1.8307098,-0.9063554,2.0827537,1.3103036,-0.9872469,1.6213633,-0.99987733,-1.8350837,-0.94311583,2.0287328,1.2486922,-0.93403333,-1.3750091,1.3760178,0.043012258,0.8413802,0.8616847,0.6018794,-0.35627687,2.7297363,-0.5783272,0.7259113,-3.5315504,-0.15628722,3.5402675,0.38041687,-0.5613384,0.7757592,0.7054569,0.07771338,0.08709627,0.69907475,-1.2170464,-0.16973251,1.0570941,1.0,0.0,0.0,0.0,0.0,0.0,0.0,-3.3797364,0.17832717,-0.1759113,1.2840271,1.6828775,4.1253114,-3.4225106,2.3501873,-2.6339054,-1.7163515
14.7950115,67.36106,20.831017,5.237277,-0.17890024,1.0197864,0.18255144,-0.76939464,0.7487639,0.0504783,0.44715887,0.62094176,0.6832125,-0.56140786,1.5444238,-0.92500097,-1.8300359,-0.89839995,2.090827,1.3170134,-0.9901741,1.6076647,-0.9861349,-1.834399,-0.9349209,2.0374646,1.2545553,-0.93766874,-1.3686087,1.3734629,0.07825914,0.81146234,0.8770409,0.58133554,-0.36693868,2.6944466,-0.5798893,0.760551,-3.5280194,-0.15613097,3.4385421,0.36833572,-0.5627346,0.786305,0.7140088,0.068730704,0.085373074,0.6915048,-1.2065555,-0.11470387,1.0517832,1.0,0.0,0.0,0.0,0.0,0.0,0.0,-3.3444467,0.17988929,-0.21055096,0.50230026,-0.2963066,3.8810513,-3.2227874,1.5374303,-1.994729,-1.3492882
13.473343,63.25283,18.815268,5.094852,-0.20594841,0.8157773,0.16355807,-0.7633847,0.7595315,0.039207347,0.42677352,0.62528926,0.68691677,-0.5460553,1.5313263,-0.91018176,-1.8304782,-0.89224356,2.0999935,1.3232471,-0.9922743,1.5940119,-0.97244203,-1.8335025,-0.9270483,2.0463147,1.2602469,-0.9413833,-1.3646557,1.3677528,0.09450267,0.7783174,0.8878281,0.56547827,-0.3737938,2.6591911,-0.5814495,0.79417413,-3.5244923,-0.15597486,3.3369186,0.35636902,-0.56361866,0.7967334,0.7222244,0.059788503,0.08365738,0.6839727,-1.1936191,-0.06515803,1.0375402,1.0,0.0,0.0,0.0,0.0,0.0,0.0,-3.3091912,0.1814495,-0.24417412,0.26466846,-0.5990505,1.9398928,-3.548944,1.1017799,-1.4924526,-0.94869137
15.343891,60.771675,17.599094,3.0565758,-0.43765718,0.5978341,0.2157817,-0.7635584,0.76402515,0.037661664,0.3654776,0.6418125,0.6843955,-0.5413214,1.5176561,-0.8960395,-1.8297364,-0.89050055,2.110496,1.3286865,-0.99551547,1.5803763,-0.95879114,-1.832545,-0.9197165,2.055287,1.2658049,-0.94514936,-1.3638109,1.3641164,0.09716796,0.71735144,0.90042335,0.553111,-0.37847155,2.6239738,-0.5830078,0.82678187,-3.5209684,-0.15581892,3.2353966,0.34459686,-0.5639963,0.80694556,0.73006773,0.05097472,0.08201736,0.67651737,-1.1716352,-0.014015367,1.0133078,1.0,0.0,0.0,0.0,0.0,0.0,0.0,-3.273974,0.1830078,-0.27678186,-0.05238056,-0.37841797,0.56928545,-6.34712,1.2939453,-1.0792375,-0.7197976
19.342846,60.695793,17.589287,0.5219364,-0.7416458,0.44563746,0.30599496,-0.76118845,0.76728725,0.05173977,0.29839775,0.6477628,0.6823786,-0.53127676,1.5042574,-0.88206244,-1.8273711,-0.8898767,2.120063,1.3340428,-0.99827707,1.5667483,-0.9451479,-1.8315513,-0.9132248,2.0643811,1.2712599,-0.9489469,-1.3631455,1.3643707,0.10124721,0.62565404,0.91214854,0.54359156,-0.38102895,2.588791,-0.58456516,0.85837513,-3.5174482,-0.15566313,3.1339762,0.33312607,-0.56381035,0.8168742,0.73746246,0.042355344,0.08050953,0.6692333,-1.1379057,0.043125685,0.9834979,1.0,0.0,0.0,0.0,0.0,0.0,0.0,-3.238791,0.18456516,-0.30837512,-0.07619858,0.022387505,0.7130921,-9.429371,1.2132764,-0.73029995,-0.5038202
26.25586,57.04322,16.03301,-5.245312,-1.3957361,0.0012789965,0.44265243,-0.76019984,0.77427566,0.015943205,0.16444948,0.6596227,0.6819286,-0.5248182,1.4907283,-0.8677203,-1.829957,-0.8967799,2.1303434,1.3394527,-1.0014287,1.5531241,-0.9314569,-1.8307006,-0.90813696,2.0736012,1.2766405,-0.9527587,-1.3625275,1.3707306,0.080602154,0.46885607,0.925317,0.537316,-0.38206622,2.5536423,-0.5861206,0.88895494,-3.5139315,-0.1555075,3.0326571,0.32217407,-0.5629959,0.8263555,0.7442893,0.03410909,0.07927652,0.6622577,-1.079269,0.10712683,0.93357337,1.0,0.0,0.0,0.0,0.0,0.0,0.0,-3.2036424,0.1861206,-0.33895493,-0.087451935,0.65996647,-1.7810538,-15.970689,1.3693929,-0.26453733,-0.33198595
39.8847,56.382027,16.5586,-14.258057,-2.343364,-0.4099312,0.746338,-0.75337344,0.7805209,0.043189067,-0.038853873,0.67314214,0.6805812,-0.5303212,1.4777868,-0.8534048,-1.8263817,-0.91202235,2.1409154,1.3446987,-1.0057908,1.5395361,-0.9176687,-1.8299396,-0.9053494,2.0829663,1.2819754,-0.956582,-1.357862,1.3816102,0.07569117,0.2142961,0.9405275,0.5342062,-0.38311708,2.5185318,-0.58767414,0.9185223,-3.5104182,-0.15535203,2.9314394,0.31208038,-0.56139565,0.8351992,0.7503035,0.026443701,0.07843156,0.6558916,-0.9838752,0.18940927,0.8650458,1.0,0.0,0.0,0.0,0.0,0.0,0.0,-3.168532,0.18767413,-0.3685223,0.32188892,1.1470556,-0.21073222,-25.757986,1.5787482,0.2366662,-0.3170848
54.190434,61.243946,19.67959,-21.380035,-3.0916991,-0.58063185,1.0611844,-0.7340286,0.7910398,0.12002797,-0.22850916,0.68150645,0.6679364,-0.52529997,1.4661332,-0.8385647,-1.8179368,-0.9282003,2.151117,1.3487691,-1.009112,1.5260874,-0.90373456,-1.8288314,-0.90562594,2.092484,1.2872854,-0.9604091,-1.3407606,1.3977736,0.12307208,-0.1090612,0.95610446,0.5321827,-0.3832175,2.4834518,-0.5892267,0.9470783,-3.5069084,-0.15519671,2.8303227,0.30316162,-0.5588074,0.84333897,0.75522655,0.019438313,0.07796773,0.65051967,-0.8572114,0.29209194,0.7938437,1.0,0.0,0.0,0.0,0.0,0.0,0.0,-3.133452,0.18922672,-0.39707828,1.6130924,1.7136097,4.944168,-32.57848,1.6700268,0.4744649,-0.18631816
55.544617,64.36675,21.20609,-19.97892,-2.9645321,-0.5785396,1.0581455,-0.71174306,0.79916686,0.15277782,-0.31159532,0.68099546,0.6587124,-0.5121647,1.4549131,-0.82381785,-1.8135537,-0.93678546,2.1605835,1.3531567,-1.0116255,1.5129095,-0.88962305,-1.8270824,-0.9089161,2.1021352,1.2925726,-0.9642238,-1.3102198,1.4159328,0.19213626,-0.40291724,0.9685717,0.52971166,-0.38136634,2.44841,-0.5907774,0.97462386,-3.5034022,-0.15504155,2.7293072,0.29550934,-0.5552025,0.85085726,0.7590219,0.013020207,0.07781769,0.6462666,-0.7300501,0.39115644,0.73396397,1.0,0.0,0.0,0.0,0.0,0.0,0.0,-3.0984101,0.19077739,-0.42462385,3.0344725,1.9454479,6.920588,-29.537846,1.4751315,0.41110516,0.07159114
50.247448,67.16288,22.477955,-13.889385,-2.3173242,-0.37682608,0.92024916,-0.68424463,0.8004739,0.21026285,-0.35267895,0.6779501,0.64697284,-0.48020017,1.4444851,-0.8095757,-1.8060561,-0.944184,2.1699302,1.3572699,-1.0122439,1.5001322,-0.87536085,-1.824475,-0.9145304,2.111874,1.2978255,-0.96799463,-1.2667665,1.4300414,0.28301102,-0.61454827,0.9768819,0.5256385,-0.3760296,2.4134026,-0.59232616,1.00116,-3.4998994,-0.15488653,2.6283927,0.28897858,-0.5506878,0.8579439,0.76182306,0.006989125,0.07784394,0.643053,-0.621887,0.47777885,0.6957884,1.0,0.0,0.0,0.0,0.0,0.0,0.0,-3.0634027,0.19232616,-0.45116,4.385257,1.5645027,8.905378,-21.251083,1.1936188,0.17175674,0.45856237
40.037125,72.09715,24.40012,-4.508612,-1.3454363,0.10290232,0.72184366,-0.66911346,0.8060948,0.30388716,-0.36032143,0.67718947,0.6403487,-0.43825454,1.4332209,-0.79475135,-1.7940863,-0.95056254,2.179593,1.3618603,-1.0118201,1.4877898,-0.8609785,-1.8206947,-0.92150366,2.121674,1.3030306,-0.9716825,-1.2231995,1.4416023,0.40853253,-0.7251523,0.9824545,0.5201625,-0.366678,2.3784294,-0.593874,1.0266877,-3.4964004,-0.15473168,2.527579,0.2832756,-0.5453901,0.8648869,0.7638274,0.0010325832,0.07783911,0.6407087,-0.54785055,0.5522579,0.688807,1.0,0.0,0.0,0.0,0.0,0.0,0.0,-3.0284295,0.19387397,-0.47668773,4.409981,1.3243914,12.227142,-11.116779,1.051271,-0.07562637,0.8721292
36.288303,74.507034,25.93663,-0.1973877,-0.86853117,0.3627732,0.67759407,-0.6416126,0.8034366,0.4093572,-0.40873808,0.67904645,0.62816495,-0.39563334,1.4236284,-0.7806348,-1.7797589,-0.9623775,2.1895788,1.3658471,-1.0112458,1.4759089,-0.8465313,-1.8153961,-0.9291979,2.1315198,1.3081709,-0.97525114,-1.1762402,1.4463346,0.5689505,-0.7843768,0.98712295,0.51363885,-0.35372248,2.3434906,-0.5954199,1.0512081,-3.4929047,-0.15457697,2.4268663,0.2781868,-0.5393677,0.8718879,0.76512384,-0.005081971,0.07762393,0.6391667,-0.49001476,0.62360054,0.69843286,1.0,0.0,0.0,0.0,0.0,0.0,0.0,-2.9934907,0.19541988,-0.5012081,4.7713995,0.6519556,15.61988,-5.949843,1.0429859,-0.21145344,1.2377381
29.52722,75.52085,26.280127,5.4460526,-0.3353085,0.5823468,0.54519576,-0.6153286,0.80769247,0.4796728,-0.3818701,0.6697985,0.6174966,-0.3033005,1.414376,-0.76576203,-1.7674288,-0.96738493,2.1984997,1.3699206,-1.0055811,1.4645067,-0.8320478,-1.8084743,-0.9370018,2.1413732,1.3132426,-0.97863,-1.1280206,1.4495852,0.7317306,-0.7791681,0.9867246,0.50616825,-0.33279654,2.3085861,-0.59696484,1.0747222,-3.4894125,-0.15442243,2.3262541,0.2735138,-0.53268814,0.8791013,0.7658157,-0.011537319,0.07711115,0.63831586,-0.4523745,0.6869262,0.722975,1.0,0.0,0.0,0.0,0.0,0.0,0.0,-2.9585862,0.19696483,-0.52472216,4.9026012,0.50981045,15.804874,0.5006075,0.57190657,-0.36039352,2.0333886
12.689419,69.44336,22.905087,14.333253,0.62363744,0.768331,0.25405508,-0.63398683,0.8033639,0.5165522,-0.3121015,0.6721457,0.6201834,-0.2081723,1.401108,-0.7517114,-1.7568191,-0.96821195,2.2085876,1.375261,-0.9994472,1.4533755,-0.81756914,-1.8001468,-0.9442402,2.151219,1.3182417,-0.98174185,-1.1082944,1.4477986,0.8650552,-0.7056783,0.98555475,0.4986225,-0.30420104,2.2737198,-0.5985079,1.0972308,-3.4859238,-0.15426804,2.2257426,0.26895142,-0.5255642,0.8866148,0.76613945,-0.018433236,0.076272406,0.637866,-0.45201382,0.7252847,0.7544856,1.0,0.0,0.0,0.0,0.0,0.0,0.0,-2.92372,0.19850788,-0.5472308,1.9856453,-0.00064373016,12.924517,7.272649,0.45326948,-0.49207807,2.7897954
-5.749338,60.11888,17.926765,23.235786,1.5854473,0.86858153,-0.08293694,-0.6613955,0.79593664,0.5274216,-0.21389835,0.65856814,0.6268794,-0.08944452,1.3872359,-0.7379755,-1.7474047,-0.96563005,2.2170758,1.3809297,-0.9906863,1.4421812,-0.8031534,-1.7908561,-0.95025885,2.1610074,1.3231703,-0.9844989,-1.1234062,1.4400401,0.9493611,-0.5678353,0.97811246,0.4913876,-0.26653203,2.238884,-0.600049,1.1187351,-3.4824386,-0.1541138,2.1253314,0.26411057,-0.51828194,0.8944552,0.7664029,-0.02580299,0.07514825,0.63742733,-0.48944512,0.73414344,0.787381,1.0,0.0,0.0,0.0,0.0,0.0,0.0,-2.888884,0.20004901,-0.56873506,-1.5932798,-0.6043911,8.123779,13.621926,-0.23596287,-0.5917251,3.6859274
-24.947672,51.367718,12.914156,32.979416,2.5946012,1.0270379,-0.48786828,-0.7061651,0.79352945,0.5149059,-0.06985754,0.6461861,0.6404543,-0.04853026,1.3715647,-0.7238004,-1.7393656,-0.95724463,2.225626,1.3872157,-0.9893519,1.4305502,-0.7888254,-1.7811477,-0.9543768,2.1706853,1.3280379,-0.9868774,-1.1770235,1.4309458,0.9774244,-0.36060378,0.96559495,0.48510566,-0.22846381,2.2040863,-0.6015892,1.1392361,-3.4789567,-0.15395972,2.0250208,0.25857925,-0.51113415,0.90265584,0.7669705,-0.033685595,0.07380857,0.63653255,-0.5675522,0.7137172,0.8243249,1.0,0.0,0.0,0.0,0.0,0.0,0.0,-2.8540864,0.2015892,-0.5892361,-5.548215,-0.73809624,2.5781393,20.476978,-0.77689886,-0.63699484,3.7291555
-37.61434,46.800068,10.181918,41.275227,3.4189448,1.2194393,-0.8185269,-0.72957647,0.7912133,0.49412638,0.12996745,0.64057505,0.64856166,0.010882493,1.3575926,-0.70970404,-1.7317351,-0.9413801,2.2347429,1.392894,-0.9857891,1.418286,-0.77458227,-1.771508,-0.9558073,2.1802335,1.3328482,-0.9888658,-1.2434498,1.4226196,0.9587178,-0.07144431,0.9525434,0.47929448,-0.1892659,2.169323,-0.6031275,1.1587346,-3.4754784,-0.15380579,1.9248102,0.2520256,-0.5043402,0.9113109,0.76816016,-0.04219245,0.07227929,0.6347641,-0.6780729,0.67402804,0.8724778,1.0,0.0,0.0,0.0,0.0,0.0,0.0,-2.819323,0.20312747,-0.60873455,-6.8668127,-0.66013336,-2.1060348,28.643585,-0.8203387,-0.7211983,3.851071
-48.273354,40.905552,7.0697584,48.0625,4.1056795,1.3340231,-1.143062,-0.76679206,0.7844884,0.43102804,0.35050678,0.63650376,0.6702588,-0.0074608023,1.3416067,-0.69613343,-1.7284051,-0.92075664,2.2438838,1.3998741,-0.98961186,1.4052988,-0.76043165,-1.7624633,-0.9538113,2.1896634,1.3376166,-0.99051374,-1.317825,1.4130822,0.88543487,0.2891132,0.9412032,0.47507295,-0.15682724,2.134594,-0.6046648,1.1772317,-3.4720037,-0.15365201,1.8246996,0.24415207,-0.4980774,0.9204928,0.7702601,-0.051428456,0.07057532,0.6317226,-0.81629753,0.6173677,0.9267068,1.0,0.0,0.0,0.0,0.0,0.0,0.0,-2.784594,0.2046648,-0.62723166,-7.6589108,-0.7890701,-7.6165676,35.79316,-0.6262183,-0.7036388,3.2017708
-37.664448,39.360508,7.0462112,40.22346,3.2430434,0.9790609,-0.96618855,-0.78131485,0.78133285,0.40339506,0.38834402,0.63180774,0.6705045,-0.06097049,1.3271674,-0.68229836,-1.7221239,-0.9149769,2.252844,1.404667,-0.9966108,1.3916689,-0.7463707,-1.7542617,-0.9487339,2.1989865,1.3423506,-0.99191755,-1.3784536,1.404101,0.7976657,0.57994246,0.93098545,0.47202957,-0.134946,2.0998993,-0.6062002,1.1947286,-3.4685323,-0.1534984,1.7246892,0.2351265,-0.49226952,0.9300593,0.7732015,-0.061265424,0.06879653,0.62743366,-0.9245346,0.5772175,0.9599184,1.0,0.0,0.0,0.0,0.0,0.0,0.0,-2.7498994,0.20620021,-0.6447286,-6.217766,-0.77757835,-9.028423,28.890574,-0.57895184,-0.5481839,2.1562576
-15.38947,39.496124,8.18194,22.949108,1.4198327,0.26330364,-0.47223064,-0.79448396,0.77992797,0.384427,0.30282727,0.63260317,0.6727438,-0.1361009,1.3122206,-0.6683779,-1.715819,-0.9184512,2.2622468,1.4096249,-1.0055276,1.3775622,-0.73238504,-1.7468612,-0.94204867,2.2082295,1.3470713,-0.9931945,-1.4217596,1.3969566,0.72074956,0.6975716,0.92286193,0.47206533,-0.12549381,2.065239,-0.6077337,1.2112261,-3.4650645,-0.15334493,1.6247789,0.22552872,-0.48664284,0.93964386,0.77658975,-0.071314715,0.06712986,0.6223473,-0.9649791,0.5680848,0.95144224,1.0,0.0,0.0,0.0,0.0,0.0,0.0,-2.715239,0.20773372,-0.6612261,-4.4598103,-0.6459713,-7.756746,11.589694,-0.52490234,-0.011646748,0.8857161
6.7369256,42.144585,10.318443,6.637811,-0.275519,-0.40613243,0.042317055,-0.7966347,0.779301,0.37940294,0.21812218,0.64387614,0.6685908,-0.18449998,1.2978987,-0.65445495,-1.708921,-0.92023647,2.272617,1.4139304,-1.0116445,1.3631827,-0.71845186,-1.7400215,-0.935392,2.2174382,1.3518053,-0.994441,-1.4438351,1.3922096,0.6722545,0.6543703,0.9206366,0.47468746,-0.12469642,2.0306168,-0.6092663,1.2267252,-3.4616003,-0.15319161,1.5249684,0.21602249,-0.4809084,0.9488894,0.7799663,-0.081173986,0.06573214,0.6170433,-0.938769,0.5863417,0.90919065,1.0,0.0,0.0,0.0,0.0,0.0,0.0,-2.6806169,0.20926628,-0.6767252,-2.3287535,-0.44076443,-4.710412,-4.4970274,-0.096702576,0.4995525,-0.025260448
25.221996,43.676933,11.821139,-7.4767575,-1.6798215,-1.060626,0.51821995,-0.7975039,0.77466154,0.3840172,0.08131419,0.6524709,0.66323984,-0.16399235,1.2834322,-0.6409857,-1.7016197,-0.9272606,2.2826853,1.4181293,-1.0108402,1.348704,-0.7045692,-1.7334278,-0.93023074,2.2266622,1.3565737,-0.9956779,-1.4495511,1.3870656,0.6561043,0.4694613,0.92279816,0.4792733,-0.1238566,1.9960251,-0.6107969,1.241227,-3.4581394,-0.15303846,1.4252578,0.20721817,-0.47485828,0.9574929,0.78291774,-0.09047637,0.06470998,0.61209995,-0.85375017,0.62185395,0.837982,1.0,0.0,0.0,0.0,0.0,0.0,0.0,-2.6460252,0.21079692,-0.691227,-0.6715059,-0.49362183,-1.3345242,-18.66061,0.21182299,0.9264171,-0.043037534
37.89152,46.06699,13.215638,-16.98254,-2.6616318,-1.5494629,0.855307,-0.7962881,0.7767991,0.3991223,-0.0759921,0.6455473,0.6508878,-0.12680003,1.2690752,-0.6268893,-1.6935155,-0.93783,2.2912169,1.4216624,-1.0083579,1.3342482,-0.69071424,-1.7267768,-0.9276453,2.23589,1.361384,-0.9968814,-1.444401,1.3851141,0.6692778,0.18780297,0.9225006,0.48380205,-0.11961276,1.9614716,-0.6123266,1.2547325,-3.4546819,-0.15288545,1.3256469,0.19958115,-0.46836948,0.96525705,0.7851504,-0.09895277,0.064156905,0.60797286,-0.72645915,0.66731393,0.7500147,1.0,0.0,0.0,0.0,0.0,0.0,0.0,-2.6114717,0.21232662,-0.7047325,0.4707098,-0.17209053,1.6231537,-28.279781,-0.099265575,1.0553837,0.31629205
43.917362,47.86013,14.460907,-20.680325,-2.9958181,-1.7809006,1.077324,-0.7834015,0.76967525,0.43970847,-0.20848916,0.6335174,0.6472354,0.0572436,1.255908,-0.6137467,-1.682806,-0.94849426,2.2992415,1.4261075,-0.99115705,1.3199354,-0.6768974,-1.7197444,-0.9281012,2.2450757,1.3662344,-0.9979057,-1.426763,1.380639,0.71538883,-0.123426974,0.9171409,0.4876969,-0.09683166,1.9269485,-0.6138544,1.2672426,-3.451228,-0.1527326,1.2261355,0.1933403,-0.4613924,0.97212553,0.78647226,-0.106504165,0.064081974,0.604989,-0.58132404,0.7149472,0.6600339,1.0,0.0,0.0,0.0,0.0,0.0,0.0,-2.5769486,0.2138544,-0.71724254,1.8151999,-0.40824413,4.8130035,-31.148165,-0.58749914,1.0105491,2.2089674
31.77159,47.675972,14.505085,-9.058006,-1.7794819,-1.3264052,0.8412899,-0.77683,0.75910735,0.45909297,-0.1399282,0.6129801,0.65025157,0.3343882,1.2422525,-0.60098666,-1.6738352,-0.942094,2.3063736,1.4312596,-0.96446687,1.3058249,-0.6631664,-1.7121856,-0.93067133,2.2541509,1.3711134,-0.99849695,-1.4055663,1.3708773,0.76955897,-0.30149513,0.905031,0.48947638,-0.046761464,1.8924637,-0.6153803,1.2787583,-3.4477775,-0.15257989,1.1267236,0.1882019,-0.45402908,0.9783406,0.7869869,-0.11341396,0.06434218,0.603033,-0.48216367,0.7488252,0.602939,1.0,0.0,0.0,0.0,0.0,0.0,0.0,-2.5424638,0.21538028,-0.7287583,2.195692,-0.90174675,5.414164,-17.817942,-1.1047482,0.6132126,4.957358
14.202522,43.971024,12.964701,6.769703,-0.2146784,-0.7356954,0.3646909,-0.7582983,0.74230486,0.4444314,-0.012503728,0.5503815,0.65645933,0.47490525,1.229995,-0.5889359,-1.6677425,-0.9319217,2.309189,1.4367594,-0.9510064,1.2919737,-0.64959943,-1.7042606,-0.93362963,2.262936,1.376002,-0.9985036,-1.3782712,1.3523017,0.79973847,-0.2942798,0.87056404,0.48944497,0.014519763,1.8580093,-0.6169052,1.2892807,-3.4443305,-0.15242735,1.0274111,0.18358994,-0.44645977,0.98427594,0.78703254,-0.12016081,0.064788245,0.6016174,-0.44586748,0.7638194,0.58445835,1.0,0.0,0.0,0.0,0.0,0.0,0.0,-2.5080094,0.2169052,-0.73928064,2.757454,-1.7478943,2.8682113,0.62933564,-3.1893373,0.2433598,6.0573483
-1.4879408,38.024864,10.461958,19.735365,1.0386426,-0.2839624,-0.09790413,-0.7518488,0.72330284,0.42165175,0.099760644,0.47669372,0.65635425,0.5035365,1.2167888,-0.57726914,-1.6620954,-0.92365354,2.3106055,1.4416374,-0.94815,1.2783686,-0.63628423,-1.6962802,-0.9354397,2.2711835,1.380879,-0.99792284,-1.3547602,1.3250433,0.79672176,-0.14380895,0.81056744,0.48760098,0.07232857,1.8235931,-0.61842823,1.2988106,-3.4408867,-0.15227495,0.92819786,0.17894745,-0.43886185,0.9902294,0.7869907,-0.12714756,0.06535505,0.6001732,-0.4618587,0.761962,0.5930203,1.0,0.0,0.0,0.0,0.0,0.0,0.0,-2.4735932,0.21842822,-0.7488106,2.3051739,-2.5973082,-0.5045414,14.863849,-5.657792,-0.07810593,5.688144
-3.703515,34.760082,9.338444,20.745003,1.1667671,-0.29477346,-0.16373071,-0.74588436,0.7071844,0.4323828,0.08376829,0.450693,0.6585866,0.49326143,1.2037802,-0.5655658,-1.653042,-0.92706287,2.3162527,1.4467378,-0.9485967,1.264958,-0.6232742,-1.6883762,-0.9357172,2.278809,1.385739,-0.9968328,-1.3366675,1.29336,0.78785247,0.010257925,0.748044,0.48563462,0.12098868,1.7892075,-0.6199503,1.3073491,-3.4374466,-0.1521227,0.8290838,0.17411041,-0.4313078,0.9962596,0.7869983,-0.13446666,0.06603319,0.5984913,-0.4831724,0.75693506,0.6004751,1.0,0.0,0.0,0.0,0.0,0.0,0.0,-2.4392076,0.21995029,-0.7573491,1.7568588,-3.0490875,-1.0641932,15.224796,-5.936146,-0.110542774,4.7787533
2.064331,32.425735,8.515998,14.010454,0.5596876,-0.67981845,0.012382153,-0.73874545,0.6919234,0.43392235,0.015222365,0.43259805,0.6547978,0.5111337,1.1910834,-0.55408186,-1.644984,-0.934195,2.322069,1.4512187,-0.9457194,1.2516981,-0.6105875,-1.6805637,-0.9350754,2.28587,1.3905798,-0.99530405,-1.3224695,1.2607204,0.77876383,0.08163553,0.6924424,0.48407844,0.16333978,1.7548599,-0.62147045,1.3148972,-3.4340098,-0.15197061,0.73006886,0.16924667,-0.42379856,1.0022092,0.7869743,-0.14190927,0.06687619,0.59670824,-0.47830293,0.75285447,0.5874374,1.0,0.0,0.0,0.0,0.0,0.0,0.0,-2.40486,0.22147045,-0.76489717,1.3932943,-3.16782,-1.0109663,6.990601,-5.3354144,-0.0055909157,4.158884
10.1660385,31.5734,8.105095,5.224893,-0.23920003,-1.1738228,0.24897799,-0.7306073,0.6805233,0.4297285,-0.06688376,0.43039587,0.6504674,0.5059855,1.1786374,-0.5425351,-1.6375909,-0.94176376,2.3289096,1.4556266,-0.9447055,1.2385699,-0.5982021,-1.672837,-0.9345051,2.2924924,1.3954092,-0.99340814,-1.3096787,1.2314163,0.77050483,0.048444618,0.6523792,0.4831988,0.19813104,1.7205429,-0.6229887,1.3214558,-3.4305766,-0.15181866,0.631153,0.16470718,-0.41631985,1.0078481,0.7867659,-0.14914922,0.06796833,0.5950917,-0.438186,0.74999666,0.5505543,1.0,0.0,0.0,0.0,0.0,0.0,0.0,-2.370543,0.2229887,-0.7714558,1.2842178,-2.856326,-0.8501649,-3.4271798,-3.8817406,0.14916658,3.4120023
15.88092,31.260881,7.846447,-1.2218223,-0.81476843,-1.5549426,0.42741767,-0.72793764,0.6690492,0.4299631,-0.14403294,0.42686322,0.6473128,0.5137928,1.1657761,-0.5312972,-1.6298407,-0.9489084,2.3351786,1.4601405,-0.9420289,1.2255446,-0.586079,-1.6651657,-0.93486845,2.2988172,1.400231,-0.9912042,-1.3002367,1.2061203,0.7660523,-0.064803146,0.6260404,0.48279634,0.22762258,1.686264,-0.624506,1.3270262,-3.4271467,-0.15166688,0.53233594,0.16076279,-0.40886784,1.0129908,0.7862483,-0.15590082,0.06936945,0.5938825,-0.37196898,0.74671984,0.49690267,1.0,0.0,0.0,0.0,0.0,0.0,0.0,-2.3362641,0.22450599,-0.77702624,0.97482204,-2.4690866,-0.42408705,-11.399194,-2.5769472,0.24859905,2.8920352
19.707573,28.76131,6.9073267,-5.762573,-1.1522909,-1.9127941,0.5369291,-0.7057533,0.6468955,0.4163498,-0.22066122,0.41032985,0.64255655,0.5339215,1.1549692,-0.5213894,-1.6235306,-0.9569346,2.3398502,1.4644866,-0.93781203,1.2126852,-0.57423437,-1.6575801,-0.9367033,2.3049207,1.405047,-0.98872846,-1.2809647,1.1774905,0.7559035,-0.22314416,0.60493433,0.4823265,0.25401554,1.6520157,-0.6260214,1.3316091,-3.4237201,-0.15151525,0.43361777,0.15761948,-0.40149307,1.0175041,0.7853503,-0.1619571,0.07110577,0.59324414,-0.28760812,0.7373642,0.431121,1.0,0.0,0.0,0.0,0.0,0.0,0.0,-2.3020158,0.22602138,-0.7816091,2.014637,-2.8059244,-1.0129333,-15.879479,-2.09769,0.2650082,2.5913775
16.61166,24.86174,5.413006,-3.6071358,-0.9119961,-1.9553874,0.42172393,-0.68813497,0.6239281,0.38727918,-0.22630715,0.35420945,0.64173985,0.5380024,1.1438718,-0.51184154,-1.6188523,-0.959334,2.3403416,1.469221,-0.93492824,1.2000738,-0.562714,-1.6502216,-0.9399029,2.3107076,1.4098574,-0.9860191,-1.2541177,1.1437736,0.72898364,-0.35244292,0.56988484,0.48148403,0.2764448,1.6178055,-0.6275358,1.3352057,-3.4202971,-0.15136376,0.3349983,0.15525436,-0.39426517,1.0213865,0.784142,-0.16730589,0.073199116,0.59310365,-0.21175203,0.71945655,0.36911622,1.0,0.0,0.0,0.0,0.0,0.0,0.0,-2.2678056,0.22753581,-0.78520566,2.788496,-3.3056974,-2.7436137,-12.986737,-3.4746408,0.18572807,2.19689
8.482521,13.812087,0.87441283,0.30299473,-0.4738192,-2.0327427,0.16356692,-0.69178045,0.58714163,0.3140766,-0.24686028,0.24539083,0.64825153,0.53349537,1.1308959,-0.5039998,-1.6188139,-0.96458894,2.3352466,1.4746826,-0.9326695,1.1876704,-0.5516304,-1.6434524,-0.9441086,2.3158612,1.414662,-0.98311895,-1.2357092,1.0968105,0.65938765,-0.44371182,0.49747574,0.48084086,0.29437312,1.5836258,-0.62904835,1.3378167,-3.4168775,-0.15121242,0.23647745,0.15351868,-0.38735676,1.0246404,0.7828417,-0.1719584,0.07576424,0.5931686,-0.15358032,0.68206877,0.30630037,1.0,0.0,0.0,0.0,0.0,0.0,0.0,-2.233626,0.22904834,-0.7878167,1.9090176,-4.6302795,-7.0041776,-9.247118,-7.213664,0.15035868,1.7285705
3.088562,3.4224586,-3.3322895,1.3892884,-0.45482677,-2.178433,-0.0006986074,-0.6976146,0.5413297,0.2630006,-0.31589055,0.04218289,0.65875095,0.54407316,1.1179088,-0.4974974,-1.6171523,-0.97569764,2.3200796,1.480537,-0.92871165,1.1753565,-0.54114664,-1.6375587,-0.9491936,2.3197484,1.4194666,-0.98005766,-1.2297628,1.0324364,0.5661547,-0.5307154,0.35233518,0.480948,0.309697,1.5494843,-0.63055897,1.3394432,-3.4134614,-0.15106124,0.13805507,0.15234756,-0.38092422,1.0272038,0.78165394,-0.17586666,0.07906327,0.59315836,-0.09965524,0.6308196,0.23546271,1.0,0.0,0.0,0.0,0.0,0.0,0.0,-2.1994843,0.23055896,-0.7894432,0.6488323,-6.383872,-9.334278,-8.856487,-14.519798,0.18527508,1.4320433
-5.449543,-20.134304,-11.3524685,2.8658404,0.07078791,-2.4450812,-0.18004586,-0.6857651,0.4180723,0.20991854,-0.33909222,-0.21889694,0.66770583,0.5431124,1.10678,-0.4993394,-1.6165669,-0.9831028,2.2978587,1.4862372,-0.92574644,1.1631056,-0.53177106,-1.6326892,-0.9549967,2.3215299,1.424277,-0.97686857,-1.2233113,0.9060139,0.4604774,-0.59762836,0.12004721,0.48159745,0.32134223,1.5153732,-0.63206863,1.3400862,-3.4100487,-0.15091021,0.039731096,0.15158081,-0.3752632,1.0289415,0.78076833,-0.17895968,0.08326363,0.59282494,-0.061750174,0.5442265,0.14938152,1.0,0.0,0.0,0.0,0.0,0.0,0.0,-2.1653733,0.23206863,-0.7900862,0.7364273,-12.61841,-10.56925,-6.9098353,-23.282497,0.19370914,0.97414255
-30.594435,-128.86096,-46.119358,-2.9997442,3.3232226,-4.1572475,-0.24251465,-0.63733494,-0.11568417,0.18108556,-0.45391324,-0.41399407,0.67398363,0.5298163,1.0993721,-0.5433395,-1.6145806,-1.000388,2.2801304,1.4916753,-0.92388695,1.151137,-0.5260118,-1.6287811,-0.96178496,2.32066,1.4290911,-0.9736051,-1.1868055,0.46534815,0.3676234,-0.7072067,-0.15707645,0.48119605,0.32643896,1.4813004,-0.6335764,1.3397468,-3.4066393,-0.15075934,-0.05849458,0.15075302,-0.37187576,1.0291052,0.7803673,-0.18059772,0.08752134,0.59224254,-0.08517397,0.26982307,-0.030953094,1.0,0.0,0.0,0.0,0.0,0.0,0.0,-2.1313004,0.23357639,-0.7897468,4.03378,-44.206566,-9.267813,-11.344051,-27.996412,-0.08211136,0.021874905
-43.364155,-176.0,-72.45997,-10.045654,5.5236325,-5.9516244,-0.3512538,-0.42922616,-0.50309396,-0.1137357,-0.48360896,-0.48923063,0.61327434,0.47257814,1.1082144,-0.57632124,-1.6401546,-1.0101459,2.271737,1.4904186,-0.92634726,1.1405684,-0.52403677,-1.6313064,-0.9697701,2.3210683,1.4355055,-0.96876615,-1.0116074,0.1074567,-0.4582819,-0.8293723,0.10382807,0.6932375,0.5347004,1.447258,-0.6350832,1.3384259,-3.4032333,-0.15060861,-0.15662205,0.14946365,-0.37238598,1.0268887,0.7806864,-0.17995322,0.09095314,0.5915007,-0.1405673,-0.15904656,-0.28653806,1.0,0.0,0.0,0.0,0.0,0.0,0.0,-2.097258,0.2350832,-0.78842586,18.12241,-36.038628,-82.2394,-12.321973,25.215609,20.659971,20.312685
26.038895,-132.53894,-37.787495,-33.32766,2.4181995,-5.916153,1.2601136,0.3516801,-0.68011385,0.09341555,-0.41661572,-0.60853463,0.6733828,0.48798522,1.1757364,-0.59204817,-1.6219648,-1.0114317,2.2602148,1.5028437,-0.91996765,1.1352564,-0.52766263,-1.636502,-0.97822154,2.320477,1.4424158,-0.96339506,-0.37013692,-0.5194394,-0.54157335,-0.8495058,-0.112689786,0.68909246,0.53807193,1.4132538,-0.6365881,1.3361243,-3.3998308,-0.15045804,-0.2546514,0.14870834,-0.3761921,1.0225304,0.7804645,-0.17761,0.09254304,0.59225464,-0.05627625,-0.4546684,-0.4862164,1.0,0.0,0.0,0.0,0.0,0.0,0.0,-2.0632539,0.23658809,-0.7861243,64.42038,-62.710476,-8.829659,-1.7491817,-21.408667,-0.8235097,0.3705263
23.366596,-103.27373,-28.44564,-16.910946,2.4932969,-4.9157867,0.5977295,0.5245981,-0.751159,-0.4240246,-0.08822136,-0.65224254,0.7103235,0.33559525,1.1877162,-0.60277855,-1.6789045,-0.9870437,2.2552528,1.5134482,-0.92983556,1.136748,-0.53690183,-1.6432159,-0.98502505,2.3173223,1.4491373,-0.95826334,0.31957686,-1.0590706,-0.71305037,-0.623407,-0.38190332,0.66445124,0.50539565,1.3792801,-0.6380911,1.3328433,-3.3964317,-0.15030761,-0.35258272,0.14861679,-0.3825493,1.0166814,0.77960634,-0.17447245,0.09234508,0.5943447,0.0044948626,-0.6953362,-0.618878,1.0,0.0,0.0,0.0,0.0,0.0,0.0,-2.0292802,0.23809108,-0.7828433,68.16241,-54.064156,-16.637945,22.782444,-26.61233,-3.0570865,-3.0961037
25.351767,-57.405632,-16.069628,-11.078869,1.1170168,-4.0722733,0.24959128,0.60317767,-0.78616065,-0.6272675,-0.13220933,-0.62118644,0.6701281,0.13947093,1.1970657,-0.6155179,-1.7059426,-0.99824595,2.2552037,1.5161501,-0.94431627,1.1441046,-0.5502323,-1.6518734,-0.9896532,2.3117719,1.4555289,-0.953659,0.8702012,-1.4247819,-0.91322625,-0.40874928,-0.6119414,0.62861776,0.44635722,1.3453407,-0.6395931,1.3285836,-3.393036,-0.15015733,-0.45041615,0.14925003,-0.39074516,1.0097603,0.7784713,-0.170838,0.09107347,0.59707814,0.083557606,-0.85866153,-0.71934515,1.0,0.0,0.0,0.0,0.0,0.0,0.0,-1.9953407,0.23959312,-0.7785836,53.833115,-36.697937,-19.01679,21.611559,-22.812181,-4.201865,-5.6570587
24.522793,-11.990419,-3.8493233,-5.8907404,-0.11221409,-3.0371115,-0.01014594,0.6518996,-0.81800765,-0.66672844,-0.16797422,-0.6097522,0.68075985,-0.14529133,1.2092946,-0.63203305,-1.7185462,-1.0064507,2.2507966,1.5236049,-0.9681881,1.1554228,-0.5658945,-1.6623275,-0.99273646,2.3044896,1.4615961,-0.9498357,1.2158923,-1.6138903,-1.0868958,-0.27452546,-0.7667933,0.5978053,0.3615395,1.3114357,-0.64109325,1.3233464,-3.3896437,-0.1500072,-0.5481518,0.15068817,-0.39999008,1.0020531,0.77733004,-0.16676852,0.0894351,0.5999563,0.16974083,-0.942966,-0.793218,1.0,0.0,0.0,0.0,0.0,0.0,0.0,-1.9614357,0.24109325,-0.77334636,33.614826,-19.034863,-16.560863,13.528454,-15.407348,-3.5702467,-8.298516
23.981733,23.74377,5.9691687,-3.5920734,-1.1179326,-2.2031558,-0.05648824,0.6835554,-0.8285532,-0.6927587,-0.22522083,-0.5907637,0.6713501,-0.2641341,1.2237784,-0.6487498,-1.7316034,-1.0152586,2.2454133,1.5287311,-0.9762491,1.1688315,-0.5824226,-1.674155,-0.99532187,2.2962155,1.4673907,-0.9469003,1.3809382,-1.6660866,-1.2133465,-0.25304788,-0.847663,0.57203263,0.27097112,1.277565,-0.64259243,1.3171326,-3.3862548,-0.14985722,-0.64578974,0.1530075,-0.4096079,0.99374366,0.7763002,-0.16221516,0.08795313,0.6027508,0.26094636,-0.96366775,-0.8507315,1.0,0.0,0.0,0.0,0.0,0.0,0.0,-1.927565,0.24259242,-0.7671326,16.03582,-5.3132296,-12.292242,2.1711946,-8.077967,-2.9316187,-8.999098
15.9867,48.432404,13.639854,6.278118,-0.84896916,-1.083285,-0.19227919,0.694747,-0.8269053,-0.6869103,-0.14075765,-0.56652325,0.68424445,-0.27649662,1.2383062,-0.66511315,-1.742846,-1.0093976,2.2395632,1.5358151,-0.97454995,1.1829249,-0.5988525,-1.6867607,-0.99770224,2.28756,1.4729811,-0.9448032,1.4186845,-1.635602,-1.2762065,-0.23313193,-0.87172586,0.5543848,0.18930046,1.2437286,-0.6440897,1.3099431,-3.3828692,-0.14970739,-0.74333006,0.15595627,-0.4190998,0.98514086,0.77545494,-0.15739559,0.08681672,0.6052761,0.31655985,-0.93920445,-0.8716447,1.0,0.0,0.0,0.0,0.0,0.0,0.0,-1.8937286,0.2440897,-0.75994307,3.7420988,2.9589415,-6.2286615,1.9872934,-2.536428,-1.8910527,-8.189869
6.3658504,60.36018,17.60276,16.151884,-0.16020042,-0.21602648,-0.33639914,0.6922515,-0.82170737,-0.67893595,-0.05239494,-0.57941717,0.68838614,-0.2800753,1.25215,-0.68102324,-1.7546543,-1.0029417,2.2296183,1.5418197,-0.9728107,1.1968466,-0.6147264,-1.6996028,-0.99960005,2.2788281,1.4784361,-0.94343275,1.3840799,-1.5717094,-1.2869226,-0.17529999,-0.8745062,0.54276735,0.11936461,1.2099228,-0.645586,1.3017788,-3.379487,-0.14955771,-0.84077287,0.15914536,-0.42819214,0.97656906,0.7748705,-0.15265138,0.08602756,0.6073486,0.331486,-0.8938188,-0.86061084,1.0,0.0,0.0,0.0,0.0,0.0,0.0,-1.8599228,0.24558601,-0.7517788,-3.2555103,6.2851667,-1.1056423,5.790305,-0.54268837,-1.1086941,-7.052387
0.5946369,58.704285,16.681255,19.224766,0.24810314,-0.031760585,-0.37080663,0.68712276,-0.8205657,-0.70647377,-0.037273165,-0.59763175,0.67224085,-0.26425493,1.2655588,-0.696783,-1.7702502,-1.0033274,2.219065,1.5456603,-0.9698582,1.2102228,-0.62998235,-1.7124774,-1.0009009,2.2700925,1.4837862,-0.9426622,1.3229021,-1.5106438,-1.2876754,-0.11479065,-0.87428963,0.53255826,0.06271022,1.1761551,-0.6470804,1.2926408,-3.3761082,-0.14940818,-0.9381183,0.16236115,-0.43687057,0.9681347,0.77459,-0.14809264,0.08556597,0.60889834,0.32897577,-0.8535175,-0.8454218,1.0,0.0,0.0,0.0,0.0,0.0,0.0,-1.8261551,0.24708042,-0.7426408,-5.852914,5.992532,-0.11651516,6.098661,-0.28443336,-0.95067024,-5.732249
0.094073296,52.523006,14.566182,17.287548,0.33665,-0.19413322,-0.28033185,0.68254983,-0.82140535,-0.71691906,-0.05051378,-0.59842163,0.6615773,-0.26233286,1.2784778,-0.7121229,-1.7841693,-1.0059522,2.2102504,1.5499439,-0.96889544,1.2230078,-0.64477766,-1.7253463,-1.0017821,2.261372,1.4890372,-0.9423799,1.2644984,-1.4695472,-1.28655,-0.07914371,-0.87202716,0.5225328,0.016678303,1.1424179,-0.6485739,1.2825303,-3.3727326,-0.14925879,-1.0353663,0.16557312,-0.4452343,0.959765,0.7745746,-0.14363247,0.0853791,0.61001164,0.32789907,-0.82506263,-0.8413821,1.0,0.0,0.0,0.0,0.0,0.0,0.0,-1.7924179,0.24857387,-0.7325303,-5.613065,3.9975166,0.08318424,3.6430314,-0.058937073,-0.9962082,-4.6492004
14.043791,44.39525,11.980539,1.8737049,-0.96130586,-1.0463135,0.169998,0.69705975,-0.8209571,-0.7422666,-0.25822687,-0.61506504,0.6375566,-0.25369978,1.2927138,-0.7268734,-1.799573,-1.0276047,2.1998656,1.5527928,-0.9677499,1.2354132,-0.6593193,-1.7383182,-1.0034395,2.2526326,1.4941679,-0.9424867,1.2330543,-1.4492549,-1.3010415,-0.1945463,-0.87472945,0.5091026,-0.019913036,1.1087189,-0.6500654,1.271448,-3.3693607,-0.14910956,-1.1325171,0.16920471,-0.4533682,0.95106643,0.77455896,-0.13877802,0.08552736,0.61113334,0.38358822,-0.8041214,-0.88627374,1.0,0.0,0.0,0.0,0.0,0.0,0.0,-1.7587188,0.25006542,-0.721448,-3.0372858,1.9717932,-1.5701532,-11.4951315,-0.39803982,-1.5835881,-3.6909025
19.362541,41.05643,11.546743,-3.1960716,-1.3139937,-1.2094717,0.37763652,0.6882799,-0.82426673,-0.7235976,-0.30469438,-0.62547064,0.66302174,-0.22816373,1.3042412,-0.74174595,-1.810678,-1.033909,2.1900856,1.5604701,-0.96530306,1.2476183,-0.6737932,-1.7513511,-1.006579,2.2438397,1.4991881,-0.94288725,1.2164255,-1.4469193,-1.3045175,-0.35355452,-0.88146013,0.49869418,-0.04676214,1.0750504,-0.65155506,1.2593949,-3.365992,-0.14896047,-1.2295709,0.17350769,-0.46129322,0.94179523,0.774319,-0.13327338,0.08599394,0.61259544,0.45480132,-0.7826403,-0.9474664,1.0,0.0,0.0,0.0,0.0,0.0,0.0,-1.7250503,0.25155506,-0.7093949,-1.5952587,0.19977093,-0.5143404,-15.84391,-0.7453799,-1.374352,-2.678667
19.792088,43.07865,13.153155,-1.4063368,-1.0779605,-0.96556133,0.4266446,0.6908978,-0.8255208,-0.6970323,-0.29373166,-0.6248059,0.6859748,-0.14235692,1.3167081,-0.7563453,-1.8210543,-1.0359522,2.181359,1.5677855,-0.9571229,1.2597681,-0.68831575,-1.7642677,-1.0110518,2.234982,1.5041357,-0.94344896,1.21451,-1.4542357,-1.2877086,-0.478432,-0.8873972,0.49254817,-0.05918545,1.0414162,-0.65304375,1.2463719,-3.3626268,-0.14881153,-1.3265275,0.17847061,-0.4689703,0.93197805,0.7737424,-0.12722549,0.08666843,0.614512,0.5171637,-0.7558093,-0.9998788,1.0,0.0,0.0,0.0,0.0,0.0,0.0,-1.6914161,0.25304374,-0.69637185,-0.14505386,-0.7641077,1.5215635,-12.420744,-0.6666064,-0.9216428,-1.1907465
9.948873,47.855946,14.838137,8.956697,-0.091685,-0.32687512,0.19703594,0.66702217,-0.8193298,-0.6785946,-0.20104393,-0.6413483,0.6994591,-0.04234979,1.3264704,-0.7702487,-1.8321271,-1.0311562,2.1708472,1.5740817,-0.94768393,1.2718397,-0.7029022,-1.7769096,-1.0159498,2.2260213,1.5090529,-0.9440288,1.2049026,-1.4603301,-1.2563919,-0.49334803,-0.8992981,0.491044,-0.057454817,1.0078163,-0.6545305,1.2323802,-3.3592649,-0.14866275,-1.4233873,0.18375397,-0.47636795,0.9218771,0.7729147,-0.12101064,0.087447226,0.6166946,0.5390062,-0.7269288,-1.0200968,1.0,0.0,0.0,0.0,0.0,0.0,0.0,-1.6578163,0.25453052,-0.68238014,-0.8923769,-0.6695986,3.0572653,-1.4091611,-1.3468623,-0.2844572,0.23482591
3.894948,49.699463,15.100019,14.467229,0.46800387,-0.0474689,0.051346578,0.6571683,-0.8177164,-0.68347913,-0.18342438,-0.6410629,0.69767815,0.02385945,1.3375566,-0.7846738,-1.8452575,-1.0342923,2.161915,1.5788207,-0.9416428,1.2837855,-0.7175306,-1.7892883,-1.0205637,2.2169576,1.5139662,-0.94452566,1.1911736,-1.4638922,-1.2315881,-0.45046073,-0.9097527,0.4912702,-0.046923388,0.974247,-0.65601635,1.2174205,-3.3559062,-0.1485141,-1.5201503,0.18910217,-0.48351097,0.91169107,0.77195543,-0.11488355,0.088284604,0.6189445,0.539438,-0.70174146,-1.0245857,1.0,0.0,0.0,0.0,0.0,0.0,0.0,-1.624247,0.25601634,-0.66742045,-1.2945175,-0.43420792,2.4672985,4.383838,-1.2506008,-0.022137165,1.1100538
2.7533512,50.734734,15.271041,15.762587,0.5935177,0.0029946864,0.0010329336,0.65958226,-0.81883425,-0.6817172,-0.17810583,-0.6494986,0.6937026,0.028757518,1.3497437,-0.79941404,-1.85746,-1.0383743,2.1520078,1.5833365,-0.9416499,1.2956244,-0.73218286,-1.80148,-1.024613,2.2077832,1.5188833,-0.9449119,1.1816161,-1.4659873,-1.2149799,-0.389321,-0.9208262,0.49170166,-0.035703696,0.9407158,-0.65750027,1.201494,-3.352551,-0.14836562,-1.6168165,0.19441986,-0.49041462,0.9014919,0.77092624,-0.10892503,0.08918487,0.6211716,0.53589976,-0.67861694,-1.0246626,1.0,0.0,0.0,0.0,0.0,0.0,0.0,-1.5907158,0.25750026,-0.65149397,-0.8846998,-0.29459,1.6793728,6.2133255,-1.3255715,0.016433,1.1741288
-0.6267986,52.835014,15.6729355,19.1623,0.91938215,0.15107629,-0.11501861,0.65491694,-0.8163405,-0.6769584,-0.0992194,-0.65870386,0.6961803,0.031567283,1.361116,-0.8138169,-1.8691759,-1.0345349,2.141913,1.5885013,-0.9417552,1.3073775,-0.74683416,-1.8135498,-1.0277544,2.1984906,1.5238081,-0.9451923,1.1735052,-1.4651988,-1.2040606,-0.28879172,-0.9330203,0.49294287,-0.025441451,0.9072151,-0.6589823,1.1846014,-3.349199,-0.14821728,-1.713386,0.19960785,-0.49711132,0.89137316,0.7699118,-0.103237554,0.09015066,0.62325794,0.5208596,-0.65838873,-1.0136968,1.0,0.0,0.0,0.0,0.0,0.0,0.0,-1.5572151,0.25898227,-0.6346014,-0.74424744,-0.020575523,1.1652946,10.1557255,-1.470232,0.14891624,1.0707955
3.9989285,48.613834,13.92583,13.467571,0.46555275,-0.20913735,-0.019219682,0.6562467,-0.82032126,-0.7055344,-0.16545516,-0.62928563,0.6770558,-0.058756664,1.3730022,-0.8288663,-1.8841032,-1.0443,2.135562,1.5915138,-0.9510679,1.3190848,-0.7614902,-1.8256958,-1.0303484,2.1891866,1.5287253,-0.94544977,1.1699718,-1.4659944,-1.2179246,-0.24922444,-0.9299477,0.4910668,-0.025797738,0.8737488,-0.66046333,1.166744,-3.3458505,-0.14806908,-1.809859,0.20480347,-0.50363827,0.8812027,0.76889837,-0.097634226,0.09120142,0.62525594,0.52544147,-0.64280736,-1.0241088,1.0,0.0,0.0,0.0,0.0,0.0,0.0,-1.5237488,0.26046333,-0.616744,-0.28555393,-0.17206669,-1.3513803,4.0795536,0.09608269,-0.27692318,0.0036846846
7.6617265,45.711597,12.671937,8.301098,-0.07033241,-0.4259566,0.086520605,0.64096475,-0.8202275,-0.71640146,-0.21876901,-0.65518546,0.67399293,-0.124540925,1.3831812,-0.84351295,-1.8973359,-1.0522254,2.123668,1.5961245,-0.95790386,1.3307081,-0.77615297,-1.8380668,-1.033034,2.1798635,1.5336157,-0.9457721,1.1600593,-1.4666454,-1.243416,-0.27461785,-0.9335767,0.48776257,-0.034397423,0.8403168,-0.66194344,1.1479225,-3.3425052,-0.14792104,-1.9062355,0.21017838,-0.5099907,0.870777,0.7678188,-0.09185595,0.09242328,0.62727547,0.5473563,-0.62481457,-1.0546231,1.0,0.0,0.0,0.0,0.0,0.0,0.0,-1.4903167,0.26194343,-0.5979225,-0.90653896,-0.14560223,-2.5707483,-2.402699,-0.53964853,-0.5211055,-0.83909744
7.215477,45.278122,12.295112,6.9974775,-0.24164975,-0.37229428,0.118912406,0.6160697,-0.8198951,-0.71319616,-0.23488116,-0.6861959,0.68494254,-0.15901075,1.3923151,-0.8581425,-1.9093864,-1.0565221,2.111244,1.6021099,-0.9616732,1.3421293,-0.7908195,-1.8506591,-1.0361925,2.1704144,1.5384794,-0.94620985,1.1364439,-1.4668593,-1.2645744,-0.3291184,-0.949257,0.4853262,-0.046905253,0.8069153,-0.66342163,1.128138,-3.3391633,-0.14777315,-2.0025156,0.21578598,-0.5161381,0.8599919,0.76663244,-0.08578608,0.09389762,0.6293636,0.57115895,-0.6028569,-1.0922552,1.0,0.0,0.0,0.0,0.0,0.0,0.0,-1.4569153,0.26342162,-0.57813793,-2.2514582,-0.09543896,-2.1720886,-5.3013144,-1.7419934,-0.4682839,-1.2425221
6.47247,44.017036,11.555082,5.6846457,-0.3629872,-0.3439411,0.15278009,0.5924706,-0.8204757,-0.7288177,-0.2848396,-0.6992904,0.67934585,-0.18842031,1.4013764,-0.8728671,-1.923541,-1.0646765,2.1004853,1.6064141,-0.9650519,1.3532263,-0.80548894,-1.8634765,-1.0401064,2.1607747,1.5433165,-0.9467887,1.1012816,-1.4671448,-1.2879695,-0.4114307,-0.9695958,0.48232597,-0.06153035,0.7735481,-0.6648979,1.1073914,-3.3358247,-0.1476254,-2.098699,0.22165298,-0.5220547,0.8487693,0.76530975,-0.0793396,0.09567563,0.6315475,0.5959059,-0.57908046,-1.1380918,1.0,0.0,0.0,0.0,0.0,0.0,0.0,-1.4235481,0.2648979,-0.55739135,-3.379631,-0.09658337,-2.4312973,-8.061957,-2.203834,-0.5633235,-1.4607489
1.8704433,44.942997,11.3572645,7.1401324,-0.20403206,-0.11078751,0.1319159,0.5428384,-0.81523776,-0.7250262,-0.33022684,-0.71657264,0.6818229,-0.20684272,1.4075102,-0.8870127,-1.9359791,-1.073129,2.0891175,1.6114988,-0.96747303,1.3637949,-0.8201355,-1.876456,-1.0449301,2.150906,1.5481287,-0.9475164,1.0425702,-1.4640259,-1.3014476,-0.5053696,-0.99358356,0.48001802,-0.0764873,0.7402153,-0.66637325,1.0856837,-3.3324895,-0.1474778,-2.1947865,0.22767258,-0.52771854,0.83709264,0.7638513,-0.072498046,0.097776406,0.6338099,0.6097389,-0.55291367,-1.1832736,1.0,0.0,0.0,0.0,0.0,0.0,0.0,-1.3902153,0.26637325,-0.5356837,-5.695224,0.24383068,-1.4598846,-9.206557,-2.5955677,-0.48817992,-1.5020297
-13.0905905,45.59292,10.064702,14.888357,0.7380829,0.3850681,-0.07148245,0.45526847,-0.8145107,-0.7160968,-0.31047884,-0.7215096,0.69031024,-0.18938608,1.4093218,-0.90158653,-1.9480658,-1.075978,2.0787551,1.6171597,-0.966455,1.3734537,-0.8347477,-1.889466,-1.0504004,2.1408162,1.5529314,-0.94836515,0.9409693,-1.4605824,-1.3010471,-0.5601833,-1.0150071,0.4799477,-0.08782855,0.706913,-0.6678467,1.0630158,-3.3291576,-0.14733036,-2.290778,0.23355484,-0.5331974,0.8250714,0.76238966,-0.06538605,0.10015095,0.6359688,0.58541715,-0.5363745,-1.2140965,1.0,0.0,0.0,0.0,0.0,0.0,0.0,-1.356913,0.26784667,-0.5130158,-9.935021,0.25353432,-0.03054142,-5.259633,-2.420044,-0.16407967,-1.1489556
-24.750935,42.738453,7.3442364,18.38382,1.261246,0.6200516,-0.16978508,0.36019742,-0.81220824,-0.73203605,-0.37456796,-0.73027027,0.68306947,-0.17093423,1.4094734,-0.9159685,-1.9626696,-1.0878571,2.067789,1.6212384,-0.9654586,1.3817927,-0.8493217,-1.9025047,-1.0564772,2.1305318,1.5577322,-0.9492988,0.7990026,-1.4567193,-1.3048187,-0.62263256,-1.034126,0.4795922,-0.095387444,0.67364883,-0.66931915,1.0393888,-3.325829,-0.14718306,-2.3866735,0.23902893,-0.5385885,0.812723,0.7610438,-0.05800489,0.10277958,0.6378746,0.53790903,-0.53001076,-1.2472463,1.0,0.0,0.0,0.0,0.0,0.0,0.0,-1.3236488,0.26931915,-0.48938876,-13.91548,0.27387142,-0.43673515,-5.9657097,-2.2505045,-0.18427372,-0.7861823
-52.030273,38.55309,1.993232,28.307276,2.5729513,1.192562,-0.4526869,0.16205856,-0.8047158,-0.73419213,-0.3981336,-0.7421086,0.6785296,-0.098259926,1.3979986,-0.9297933,-1.9759239,-1.0962906,2.056321,1.6255852,-0.9591248,1.3880259,-0.8638338,-1.9155796,-1.0631129,2.1200566,1.5625292,-0.9502439,0.5661816,-1.4499756,-1.3082731,-0.67604834,-1.0533342,0.47944367,-0.09432996,0.6404152,-0.6707897,1.0148035,-3.3225038,-0.14703591,-2.4824731,0.24361801,-0.54408264,0.8000753,0.76004535,-0.050333045,0.10566815,0.63924325,0.4343994,-0.5462263,-1.2760156,1.0,0.0,0.0,0.0,0.0,0.0,0.0,-1.2904152,0.2707897,-0.46480352,-22.887218,0.5021572,-0.34601688,-4.9493074,-2.4154186,-0.11190176,0.03851354
-107.11383,22.51501,-11.978856,43.24299,4.869586,2.1086278,-0.86845493,-0.25214875,-0.8050918,-0.7301328,-0.5419648,-0.725431,0.6628097,0.07724539,1.362811,-0.944343,-1.9885929,-1.1173093,2.0475135,1.6288102,-0.94251937,1.3903509,-0.87829816,-1.9286582,-1.0707804,2.1094632,1.567309,-0.95103925,0.12362287,-1.4463425,-1.3075613,-0.7946557,-1.0639908,0.47690102,-0.07488917,0.60721207,-0.67225933,0.989261,-3.319182,-0.14688891,-2.578177,0.2463913,-0.5500879,0.7870093,0.759793,-0.04211715,0.108792335,0.6396132,0.22692415,-0.60935926,-1.3219239,1.0,0.0,0.0,0.0,0.0,0.0,0.0,-1.257212,0.27225932,-0.43926096,-43.566597,0.037384033,0.13253689,-11.121046,-1.9185066,-0.4376173,1.8349737
-132.91684,24.579826,-14.860642,49.36757,5.904482,2.9559321,-0.8306293,-0.5597972,-0.77395886,-0.6455985,-0.70625985,-0.67307097,0.66427743,0.38338503,1.3343712,-0.9556941,-1.9932181,-1.1414064,2.0421562,1.6337367,-0.9127008,1.3873698,-0.8926033,-1.941325,-1.0802447,2.098946,1.5720564,-0.9514026,-0.4359455,-1.4267095,-1.252751,-0.993689,-1.0513396,0.4726084,-0.02349959,0.5740471,-0.67372704,0.9627621,-3.3158634,-0.14674205,-2.6737852,0.2467041,-0.5567455,0.7734994,0.76037735,-0.033188112,0.11197678,0.6388944,-0.034870315,-0.67533714,-1.3654178,1.0,0.0,0.0,0.0,0.0,0.0,0.0,-1.2240471,0.27372703,-0.4127621,-55.111088,1.5089989,5.540824,-18.893887,0.11255741,-0.8107245,5.1349907
-80.07984,76.99258,16.715555,41.155697,4.4869537,4.038361,0.032145023,-0.5615194,-0.7339883,-0.16813663,-0.73723304,-0.6323672,0.7094314,0.5596083,1.3312178,-0.9660021,-1.9581386,-1.153968,2.0357094,1.6429995,-0.8954418,1.3797957,-0.906525,-1.951226,-1.0915953,2.0887303,1.5768172,-0.9511146,-0.8629533,-1.3813651,-0.9038796,-1.1802789,-1.0141771,0.47735447,0.04744789,0.5409126,-0.6751938,0.93530786,-3.3125482,-0.14659533,-2.7692976,0.24489594,-0.56327057,0.76030314,0.7611078,-0.024426116,0.11448067,0.6379752,-0.23311466,-0.6358096,-1.308606,1.0,0.0,0.0,0.0,0.0,0.0,0.0,-1.1909126,0.27519378,-0.38530785,-42.170715,4.3204546,34.49763,-18.081451,3.054452,0.5176604,7.4819207
-47.088745,71.260185,17.714417,28.957422,2.989243,2.7244978,0.15098494,-0.567449,-0.7449823,-0.39114448,-0.72959095,-0.624821,0.7056375,0.55662,1.3230507,-0.98102325,-1.9903405,-1.1645544,2.0262482,1.647381,-0.8954526,1.3693072,-0.92008054,-1.9587944,-1.1043097,2.0789075,1.5816237,-0.9501657,-1.1097677,-1.3474112,-0.7091435,-1.3004391,-0.97277594,0.48195562,0.111940265,0.5078125,-0.67665863,0.90689915,-3.3092363,-0.14644876,-2.8647146,0.24168396,-0.5694189,0.7474969,0.7616856,-0.015980529,0.116246976,0.63723326,-0.35482728,-0.5984977,-1.2743235,1.0,0.0,0.0,0.0,0.0,0.0,0.0,-1.1578125,0.27665862,-0.35689914,-24.334145,3.2862425,19.053246,-11.562371,3.816378,0.48139095,6.8248215
-19.43063,46.839584,9.320344,13.598031,1.2232058,0.76349735,0.188356,-0.54526544,-0.76769286,-0.6458613,-0.7657088,-0.64701873,0.6727698,0.5672064,1.3147806,-0.99684983,-2.0233805,-1.1808805,2.0142057,1.6489006,-0.8934451,1.3576533,-0.9335035,-1.9663227,-1.1179034,2.0693707,1.5864397,-0.9486417,-1.1833355,-1.3408543,-0.7680755,-1.3775449,-0.9481794,0.48063672,0.16645643,0.4747467,-0.67812157,0.877537,-3.3059278,-0.14630234,-2.9600363,0.23785782,-0.5753889,0.7344891,0.76207286,-0.007255415,0.11774171,0.63665473,-0.3973167,-0.58661395,-1.3114393,1.0,0.0,0.0,0.0,0.0,0.0,0.0,-1.1247467,0.27812156,-0.327537,-7.1469307,0.5676508,-6.0790777,-7.296872,2.1893024,-0.35513043,5.637026
-15.352356,36.631577,4.408347,11.004438,0.9105245,0.10250425,0.040176637,-0.6104411,-0.7625648,-0.7084494,-0.75579596,-0.6506187,0.67628473,0.5659697,1.2966092,-1.00976,-2.0371675,-1.193483,2.004309,1.6540682,-0.8920447,1.3457209,-0.9469341,-1.9753387,-1.1318632,2.0599866,1.5912329,-0.94664854,-1.1960933,-1.3441118,-0.945993,-1.4006414,-0.93650705,0.47778702,0.21051958,0.44171143,-0.67958355,0.8472224,-3.3026226,-0.14615607,-3.0552626,0.2337265,-0.5813799,0.7209088,0.7623639,0.0021298192,0.119305685,0.6360526,-0.4242669,-0.59274083,-1.374963,1.0,0.0,0.0,0.0,0.0,0.0,0.0,-1.0917114,0.27958354,-0.29722238,-1.1120319,-0.43375492,-17.80045,-1.8880129,0.8494139,-0.63379407,4.486865
-22.909533,35.664246,2.4333348,13.99762,1.303128,0.23688036,-0.13525978,-0.690377,-0.7532709,-0.74269575,-0.7561726,-0.63308233,0.67951816,0.5194578,1.2766832,-1.0222611,-2.0496082,-1.2074805,1.9966784,1.6591847,-0.89470273,1.333592,-0.96039045,-1.9863002,-1.1458212,2.0507092,1.5959975,-0.9443111,-1.2179399,-1.346629,-1.1457965,-1.3927225,-0.9265145,0.47446418,0.24166153,0.40871048,-0.6810446,0.81595623,-3.2993207,-0.14600995,-3.1503937,0.22919464,-0.58749676,0.70669335,0.7627068,0.012245905,0.121027425,0.6352012,-0.46789652,-0.6068279,-1.4387335,1.0,0.0,0.0,0.0,0.0,0.0,0.0,-1.0587105,0.28104457,-0.26595622,-2.012515,-0.40216446,-19.898487,1.2610674,0.6129265,-0.7494211,3.1739264
-25.830704,41.733387,5.1190305,16.565922,1.7092476,0.67596495,-0.16717042,-0.7275498,-0.7531059,-0.746682,-0.7503073,-0.58373445,0.67332447,0.5156914,1.2608371,-1.035701,-2.0609684,-1.2208519,1.9923358,1.6633298,-0.8927419,1.3211428,-0.9738697,-1.9988868,-1.159577,2.0416455,1.6007277,-0.9417123,-1.2534013,-1.3488691,-1.2959973,-1.3684603,-0.9009321,0.4711526,0.26631624,0.37574387,-0.6825037,0.7837395,-3.296022,-0.14586397,-3.2454298,0.22412491,-0.5937195,0.69197637,0.7631587,0.02295182,0.12274611,0.63403106,-0.52614766,-0.61506546,-1.4847081,1.0,0.0,0.0,0.0,0.0,0.0,0.0,-1.0257438,0.2825037,-0.2337395,-3.3866405,-0.38318634,-14.937425,2.8814316,2.1837592,-0.7193923,2.569604
-25.173899,50.367977,9.6336355,18.00514,1.9271007,1.159796,-0.14470543,-0.75506604,-0.7494729,-0.74876934,-0.74264073,-0.54493576,0.6700592,0.48324868,1.2456362,-1.0488169,-2.0737638,-1.2338411,1.987152,1.6677336,-0.89338744,1.3082606,-0.98734605,-2.0124748,-1.1730582,2.0329366,1.6054293,-0.93892473,-1.2994696,-1.3477942,-1.379706,-1.3399943,-0.862351,0.46864608,0.28345257,0.34280777,-0.6839609,0.7505731,-3.2927265,-0.14571813,-3.3403707,0.21842957,-0.5999317,0.67697155,0.7637092,0.03401101,0.124230415,0.6325807,-0.59136224,-0.6106072,-1.5080554,1.0,0.0,0.0,0.0,0.0,0.0,0.0,-0.99280775,0.2839609,-0.20057309,-4.475713,-0.037026405,-8.318853,3.2497883,3.5308719,-0.56740046,1.870209
-24.311749,56.834206,13.136443,18.827076,2.0288682,1.5352628,-0.13090137,-0.7852713,-0.7493771,-0.756161,-0.7257609,-0.5294187,0.668251,0.45293903,1.2297335,-1.0622838,-2.088091,-1.2456342,1.9799947,1.6722544,-0.8936308,1.2948576,-1.0008044,-2.026509,-1.1862303,2.024613,1.6101099,-0.9360141,-1.3534621,-1.3457059,-1.4113966,-1.3084733,-0.8231043,0.46706697,0.2942667,0.3099022,-0.6854172,0.71645796,-3.2894344,-0.14557244,-3.4352167,0.21206284,-0.6060257,0.6618647,0.7643461,0.04520624,0.12532696,0.6308919,-0.65956193,-0.5957243,-1.5138078,1.0,0.0,0.0,0.0,0.0,0.0,0.0,-0.95990217,0.28541717,-0.16645795,-5.294156,0.07972717,-3.1414032,3.5134315,3.6424994,-0.4128635,1.2725949
-17.79579,58.05938,15.318695,16.024145,1.8275015,1.5619569,-0.05194524,-0.78935367,-0.7604689,-0.7701691,-0.7313381,-0.46286064,0.6313301,0.37532818,1.2159222,-1.0768514,-2.1035259,-1.2593641,1.9783268,1.6732429,-0.8984813,1.2810084,-1.0142932,-2.0406692,-1.1991888,2.0168118,1.6147524,-0.9330711,-1.3950654,-1.3503531,-1.4172838,-1.2904401,-0.76645935,0.46257398,0.29505894,0.27703476,-0.6868715,0.6813951,-3.2861457,-0.1454269,-3.5299678,0.20507812,-0.6119213,0.64671576,0.7650254,0.05645412,0.12586883,0.6290518,-0.7170032,-0.57350683,-1.5171062,1.0,0.0,0.0,0.0,0.0,0.0,0.0,-0.92703474,0.28687152,-0.1313951,-4.0765047,-0.5641222,-0.60994625,2.1258116,5.4546,-0.6669283,0.30661225
-15.152439,58.369358,16.303953,14.793525,1.8868834,1.597581,-0.051889166,-0.80960536,-0.7680362,-0.77421445,-0.720839,-0.35572964,0.6034801,0.26742816,1.2000479,-1.0910968,-2.1180906,-1.2712728,1.9812388,1.6751004,-0.90632826,1.2667388,-1.0278172,-2.0551162,-1.2122416,2.0104089,1.6189003,-0.93045694,-1.4470224,-1.3419862,-1.5268842,-1.3641934,-0.48987302,0.25431278,0.22520576,0.2492485,-0.68836594,0.6552221,-1.7543318,-0.06816437,-0.021220148,0.19753265,-0.6177225,0.6314234,0.7658709,0.06810908,0.12546243,0.6269465,-0.7678843,-0.6002929,-1.5649254,0.0,1.0,0.0,0.0,0.0,0.0,0.0,-0.8992485,0.28836593,-0.105222106,-6.703973,2.5744915,-22.661472,-15.806365,46.238716,-41.17174,-12.5723095
34.02029,176.0,110.0,110.0,6.3466854,12.459613,-1.9847931,-0.7098295,0.54557264,0.73242664,0.61616933,-0.3838986,0.6613253,-0.40717718,1.1957558,-0.97326,-1.9818735,-1.1506248,1.9720191,1.6850328,-0.97117466,1.2552737,-1.044169,-2.0615478,-1.2116599,1.9968122,1.6301823,-0.9275492,-1.0368474,-1.6762145,-0.43776062,0.50537485,-1.5674345,1.4607891,0.33228788,0.23171997,-0.68904686,0.6542736,-1.7525778,-0.06809622,-0.119384885,0.18873215,-0.62268066,0.6205359,0.76781434,0.06995476,0.12604056,0.6242446,-0.92336625,-0.44518727,-0.931506,0.0,1.0,0.0,0.0,0.0,0.0,0.0,-0.88171995,0.28904685,-0.10427362,43.887733,-16.40482,82.194084,178.87282,-83.0801,133.01471,16.606426
-38.652355,176.0,74.868126,93.41577,9.203925,5.8998575,-2.1683908,-0.8140627,-0.6589931,0.21226616,0.7211484,-0.3293073,0.5668319,-0.30955702,1.1738675,-1.1100683,-2.040321,-1.1395451,1.9638815,1.6868654,-0.9585049,1.2447547,-1.0609307,-2.0603614,-1.1995902,1.9808172,1.6446114,-0.92483217,-1.0553378,-1.6762147,0.3049845,1.4416013,-1.6123706,1.4423609,0.25504878,0.2142067,-0.6897278,0.6523442,-1.7508255,-0.06802814,-0.21745147,0.17819214,-0.6273899,0.6146558,0.77162904,0.064325005,0.12661193,0.6200163,-1.0987569,-0.46855655,-0.47645736,0.0,1.0,0.0,0.0,0.0,0.0,0.0,-0.8642067,0.28972778,-0.102344215,-1.4053106,0.0,74.643394,93.88119,-5.1483393,-0.21617413,-6.66514
-67.66072,137.85117,33.55784,66.000984,6.5670204,2.9827433,-1.9099894,-0.8038428,-0.5668772,-0.31630272,0.65421194,-0.44332683,0.62462056,-0.19214897,1.1643704,-1.1176184,-2.0919917,-1.134169,1.9364846,1.7070735,-0.94404703,1.2334689,-1.0760674,-2.057115,-1.1822295,1.9662126,1.6583557,-0.92271215,-1.1512196,-1.4602691,0.33039954,1.8363587,-1.4102594,1.3542883,0.19849917,0.19670868,-0.6904068,0.6494349,-1.749075,-0.06796012,-0.31542,0.16597748,-0.6324148,0.61147267,0.7772185,0.056604754,0.1272015,0.6136342,-1.2651647,-0.50567037,-0.27177075,0.0,1.0,0.0,0.0,0.0,0.0,0.0,-0.84670866,0.2904068,-0.09943491,-9.065223,21.38257,2.3481488,40.107513,20.067905,-8.0479145,-5.3861647
-45.807903,126.14863,34.172123,41.12667,4.5987387,2.5884,-0.9315169,-0.81802016,-0.6059014,0.2510137,0.72472703,-0.31498808,0.522089,-0.25638583,1.1516669,-1.1366576,-2.0320137,-1.1097568,1.9347138,1.7105646,-0.9483507,1.2208976,-1.0891213,-2.0529532,-1.1636233,1.9545053,1.6707954,-0.9211891,-1.2915182,-1.2545457,0.44412628,1.8697037,-1.0922348,1.2083141,0.13750067,0.17923355,-0.6910858,0.6455467,-1.7473264,-0.06789217,-0.4132906,0.15252686,-0.6373968,0.6099044,0.7838668,0.04852137,0.12729917,0.60579985,-1.3751601,-0.4872824,-0.12570146,0.0,1.0,0.0,0.0,0.0,0.0,0.0,-0.8292335,0.2910858,-0.09554666,-13.750958,20.342016,11.215896,3.6276817,31.399727,-14.195037,-5.9283524
-28.914686,96.62039,23.600763,19.730658,2.3835337,1.5849521,-0.34752396,-0.8273702,-0.5648085,0.18207566,0.6768075,-0.2194545,0.5834044,-0.3881558,1.1381606,-1.1456022,-2.0347457,-1.0959426,1.9325598,1.7291359,-0.9600047,1.2070693,-1.100348,-2.0485244,-1.1463084,1.9459814,1.6818848,-0.9203194,-1.4131395,-1.0791559,0.44206953,1.685726,-0.77320653,1.0766975,0.07023129,0.16177368,-0.69176483,0.64068043,-1.7455795,-0.0678243,-0.5110634,0.13838196,-0.6420603,0.60904515,0.79095995,0.04099586,0.1266261,0.5972163,-1.432034,-0.4492513,-0.07902955,0.0,1.0,0.0,0.0,0.0,0.0,0.0,-0.81177366,0.29176483,-0.09068042,-12.114978,17.39471,-0.4214704,-18.323374,31.675793,-12.89618,-6.7146435
-5.503787,82.95211,24.14707,7.9534264,1.4205334,1.0951228,0.05257373,-0.8140026,-0.5534871,0.29747897,0.6719897,0.00046957016,0.5786166,-0.4448212,1.125669,-1.1556967,-2.0187764,-1.0791094,1.9460284,1.7397465,-0.9648015,1.1924158,-1.1102928,-2.0440242,-1.131326,1.9407865,1.6913427,-0.91994053,-1.4830368,-0.9667828,0.45404622,1.4365549,-0.4354304,0.90719044,0.02485903,0.14407349,-0.69177437,0.6421321,-1.7641014,0.016464336,0.3135339,0.1240387,-0.64636326,0.6083451,0.79807824,0.034544084,0.12482232,0.5884701,-1.4409195,-0.41300452,-0.07145089,0.0,1.0,0.0,0.0,0.0,0.0,0.0,-0.79407346,0.29177436,-0.09213209,-7.054782,10.8676195,3.9451957,-23.23563,32.03,-11.249197,-6.4782047
12.326422,129.97687,44.652122,14.011335,1.3367107,1.8227816,0.034392957,-0.81460595,-0.27720395,0.41907233,0.68664706,0.23050337,0.60437816,-0.47063252,1.1109552,-1.1380132,-2.002117,-1.0626613,1.9638368,1.7517805,-0.96700376,1.1773897,-1.1183227,-2.0386722,-1.118293,1.9388906,1.6997198,-0.9201332,-1.50948,-0.7490226,0.5633201,1.2585471,-0.10917639,0.81541204,-0.034350943,0.12644577,-0.69161034,0.64452064,-1.7623376,0.016447874,0.21396926,0.109760284,-0.6499624,0.6085417,0.80513597,0.028209822,0.12199126,0.5797225,-1.4289793,-0.33153784,0.04609699,0.0,1.0,0.0,0.0,0.0,0.0,0.0,-0.77644575,0.29161033,-0.09452063,-2.7763844,21.579504,11.171352,-17.907429,32.1595,-8.862818,-6.0320086
10.529806,125.57451,42.198715,16.471804,1.4552541,1.6097689,-0.09301518,-0.8281322,-0.23971994,0.3700606,0.6703313,0.33794835,0.60286945,-0.4766921,1.0945765,-1.1422948,-2.001666,-1.0512599,1.9726855,1.7600068,-0.9678024,1.1622549,-1.1243347,-2.0324733,-1.1064999,1.93989,1.7073454,-0.92087036,-1.5150235,-0.5523941,0.6390989,1.1529577,0.1686401,0.74596334,-0.08712955,0.10883331,-0.6914463,0.64591426,-1.7605757,0.01643143,0.11450418,0.09555817,-0.6528368,0.60986954,0.8121697,0.021571472,0.1184093,0.57087153,-1.4213766,-0.26212117,0.15833129,0.0,1.0,0.0,0.0,0.0,0.0,0.0,-0.7588333,0.2914463,-0.095914245,-0.63917637,19.49705,7.7857494,-10.56869,27.500736,-6.665373,-5.372072
6.0093913,122.65026,38.97224,19.689137,1.2588679,1.3917797,-0.24830352,-0.8235024,-0.14253,0.32055408,0.6839337,0.31170303,0.6191399,-0.49234495,1.0799047,-1.1385877,-2.000418,-1.0381066,1.9710603,1.7692593,-0.9701049,1.1471869,-1.1284256,-2.025982,-1.0951842,1.9429051,1.7143929,-0.9220851,-1.5039982,-0.36117887,0.6435357,1.1196846,0.3520126,0.6758603,-0.12880297,0.091228485,-0.6912508,0.6464629,-1.7741504,0.078308105,0.33262292,0.081417084,-0.6550722,0.6122545,0.81922865,0.014595654,0.11464251,0.56170136,-1.4130477,-0.20369835,0.25883773,0.0,1.0,0.0,0.0,0.0,0.0,0.0,-0.74122846,0.2912508,-0.096462905,1.0809422,19.042133,-0.4063964,-3.779602,18.90288,-8.471251,-3.795962
3.8746881,155.71257,48.190083,28.1245,0.7495222,1.8217432,-0.4059856,-0.82218444,0.13299255,0.30680543,0.722221,0.165482,0.63809663,-0.4882074,1.0649685,-1.1151264,-1.9953014,-1.0229621,1.9594532,1.7782025,-0.97090584,1.1322643,-1.1298409,-2.01979,-1.0837227,1.9467479,1.7207185,-0.9236285,-1.4883317,-0.069130845,0.611694,1.1554532,0.39471272,0.61821264,-0.16331239,0.07330704,-0.68997383,0.6510319,-1.8006686,0.1482,0.49998686,0.067481995,-0.6565504,0.6160457,0.8262938,0.0072860117,0.111767136,0.5519905,-1.3904408,-0.11868397,0.41665778,0.0,1.0,0.0,0.0,0.0,0.0,0.0,-0.723307,0.28997383,-0.1010319,1.5221357,28.996372,-2.987206,3.7296534,4.098958,-5.7913423,-3.5546541
-4.8939486,137.85934,38.435425,27.273079,0.16410166,1.4137179,-0.43981755,-0.8297647,0.18932731,0.17409864,0.73201275,0.0046211127,0.6486576,-0.477103,1.0492878,-1.1109082,-2.0023801,-1.0105214,1.94721,1.7855842,-0.9713388,1.117446,-1.1285763,-2.0146124,-1.0717251,1.9501609,1.7266161,-0.9254819,-1.4799085,0.19100182,0.48703474,1.2151026,0.32352203,0.58102286,-0.19311588,0.05558014,-0.688179,0.65685576,-1.762986,0.19036458,0.61300445,0.0537529,-0.6572485,0.62108773,0.8333574,-0.0002459182,0.110601656,0.5415557,-1.368701,-0.04254931,0.53142226,0.0,1.0,0.0,0.0,0.0,0.0,0.0,-0.7055801,0.288179,-0.10685575,0.790596,25.823952,-12.344551,6.125736,-7.1401777,-3.4996033,-3.110075
-16.474304,100.13444,20.439327,22.553495,-0.54597163,0.61797196,-0.4587997,-0.8331147,0.23378262,-0.1041971,0.73609734,-0.1755507,0.65413797,-0.45893255,1.0341345,-1.105198,-2.025032,-0.9981154,1.9326057,1.79203,-0.97137517,1.1026583,-1.1252023,-2.0118918,-1.0591421,1.9521227,1.7322406,-0.9275856,-1.4786608,0.38564566,0.20020959,1.2728181,0.15424408,0.5567845,-0.2164104,0.038131714,-0.6860628,0.66317356,-1.7385741,0.21921599,0.6411459,0.040225983,-0.6573868,0.6266209,0.8404207,-0.007278746,0.11174692,0.53023833,-1.3492318,0.0071173795,0.5590259,0.0,1.0,0.0,0.0,0.0,0.0,0.0,-0.6881317,0.2860628,-0.113173544,0.077557564,19.334429,-28.728163,5.857587,-16.844427,-2.214241,-2.4274201
-20.480633,77.69643,11.602341,19.166847,-0.660636,0.22468424,-0.4214681,-0.83389395,0.29236728,-0.23616312,0.7566658,-0.23165873,0.64632165,-0.45479378,1.0192689,-1.0959656,-2.0355082,-0.9834755,1.9289569,1.7968727,-0.97306496,1.0878514,-1.1203119,-2.0123796,-1.046027,1.9522989,1.737666,-0.92988884,-1.4814835,0.52316236,-0.13225885,1.3243796,-0.027534042,0.5384028,-0.23544446,0.020874023,-0.6837139,0.66946507,-1.7209212,0.24054326,0.6281518,0.026836395,-0.65716076,0.63209546,0.8474744,-0.013324173,0.11528668,0.51799476,-1.3345603,0.03927524,0.5428299,0.0,1.0,0.0,0.0,0.0,0.0,0.0,-0.670874,0.2837139,-0.11946505,-0.32000542,13.637924,-33.305733,5.154729,-18.104448,-1.6800284,-2.0423384
-19.460981,59.500397,7.2336154,15.530892,-0.3142727,0.066862226,-0.33132482,-0.8367757,0.29106137,-0.294361,0.76961344,-0.21753295,0.64962035,-0.48625502,1.0041739,-1.0912057,-2.0418158,-0.9690656,1.9305456,1.802628,-0.9785144,1.0729951,-1.114607,-2.0158122,-1.0324883,1.9509894,1.7429408,-0.9323826,-1.4870836,0.5861175,-0.4135545,1.3632466,-0.16506273,0.5240629,-0.25455353,0.003753662,-0.68119335,0.6754458,-1.7087417,0.25640005,0.5908555,0.013519287,-0.6567192,0.6372145,0.85448647,-0.018289097,0.12070539,0.50492424,-1.3298348,0.05786006,0.50176924,0.0,1.0,0.0,0.0,0.0,0.0,0.0,-0.65375364,0.28119335,-0.12544578,-0.58603287,6.196964,-28.122652,3.8212776,-13.737305,-1.3505816,-2.0901978
-13.390067,52.380005,8.06828,12.3891945,0.056061983,0.109390676,-0.19186862,-0.8341071,0.28907156,-0.3202069,0.77062994,-0.19621539,0.6520262,-0.49892697,0.9895843,-1.0856998,-2.047833,-0.9554254,1.9313679,1.8081434,-0.9822753,1.0581006,-1.1086789,-2.0213277,-1.0186999,1.9487413,1.7480928,-0.9350566,-1.4905356,0.59480137,-0.5973056,1.3836799,-0.2450429,0.5123174,-0.27229956,-0.013252258,-0.6785183,0.68104255,-1.6969641,0.27167115,0.551813,0.00020980835,-0.6561136,0.6419035,0.86138403,-0.022355417,0.12726592,0.49124435,-1.3287796,0.073358804,0.45876175,0.0,1.0,0.0,0.0,0.0,0.0,0.0,-0.6367477,0.2785183,-0.13104254,-0.39055347,0.7765651,-18.235874,1.934123,-8.083257,-1.1639237,-1.9739985
-10.048915,44.171562,7.491575,9.950849,0.42388713,0.09206176,-0.09694223,-0.83623564,0.2604439,-0.3772759,0.77126646,-0.165353,0.63842815,-0.50217915,0.974477,-1.0826346,-2.0590553,-0.94157326,1.932206,1.8119355,-0.98527455,1.0431734,-1.1030103,-2.0281706,-1.0048141,1.9460905,1.7531339,-0.9378901,-1.4936436,0.55727047,-0.7127562,1.3896983,-0.272042,0.50121546,-0.2875867,-0.030155182,-0.6757088,0.6861827,-1.6875972,0.2845782,0.5042456,-0.013126373,-0.65539646,0.6461105,0.86811846,-0.025698205,0.13430859,0.47714895,-1.3343462,0.08337638,0.40921047,0.0,1.0,0.0,0.0,0.0,0.0,0.0,-0.6198448,0.27570876,-0.13618267,-0.36108494,-3.8239598,-11.348497,0.4826784,-2.8209329,-1.1391401,-1.7145514
-6.2650433,45.5074,9.622099,9.334953,0.61689746,0.18433934,-0.022495724,-0.8351576,0.2457759,-0.3956153,0.77862966,-0.1850382,0.6327712,-0.49012795,0.95965767,-1.0784327,-2.067732,-0.92695117,1.9275867,1.816411,-0.9869029,1.0282294,-1.0978452,-2.0357041,-0.99090064,1.9433082,1.7580706,-0.9408467,-1.4949505,0.50273466,-0.7660951,1.391388,-0.28064203,0.49106613,-0.29896072,-0.046951294,-0.67275524,0.69090456,-1.6761771,0.2994327,0.4644884,-0.026535034,-0.65455437,0.64988154,0.8746443,-0.02851427,0.14144042,0.4627946,-1.3397304,0.096224025,0.36792874,0.0,1.0,0.0,0.0,0.0,0.0,0.0,-0.6030487,0.27275524,-0.14090455,-0.2035141,-5.527675,-5.041313,0.046372414,-1.0542214,-1.0813892,-1.3133705
-4.591024,45.984066,10.3395195,9.016148,0.68247575,0.20686233,0.021581694,-0.8359194,0.22137576,-0.4297932,0.7777215,-0.19752817,0.61833096,-0.47745657,0.9446374,-1.0757077,-2.0786834,-0.9131285,1.9235554,1.8199037,-0.9885923,1.0132757,-1.0932714,-2.0435843,-0.9770005,1.9404877,1.7629076,-0.94389,-1.4956783,0.4420154,-0.79402804,1.3890761,-0.28290662,0.48109543,-0.30670527,-0.06362152,-0.6696472,0.6952501,-1.6633223,0.31512216,0.42748594,-0.039974213,-0.65357494,0.6532609,0.8809319,-0.030917242,0.1484922,0.44827777,-1.3442739,0.11032936,0.32959944,0.0,1.0,0.0,0.0,0.0,0.0,0.0,-0.58637846,0.2696472,-0.14525008,-0.15547276,-6.146908,-2.4587274,-0.35090446,-0.45644045,-1.0769129,-0.9423137
-5.886937,40.48394,8.174702,8.52886,0.7351517,0.09750074,0.029891262,-0.83602816,0.17259605,-0.4851728,0.7811317,-0.18954141,0.6003758,-0.45295343,0.92967296,-1.0760118,-2.0921016,-0.8988873,1.9215336,1.8229452,-0.98918533,0.9983202,-1.0894014,-2.0518196,-0.96311265,1.9376918,1.7676455,-0.9469791,-1.4956733,0.36853173,-0.8324928,1.388349,-0.27869228,0.47107854,-0.310197,-0.08018112,-0.6664057,0.6991426,-1.6529815,0.32781452,0.37955725,-0.0534935,-0.6524935,0.6561842,0.88698256,-0.032876365,0.1553858,0.43363163,-1.3529849,0.119059145,0.2815813,0.0,1.0,0.0,0.0,0.0,0.0,0.0,-0.56981885,0.26640567,-0.14914256,-0.059962273,-7.4113727,-3.5619974,-0.16658306,0.23434758,-1.073277,-0.49974918
-4.3343744,45.26936,9.788025,8.973206,0.6445758,0.16683906,0.068401635,-0.8353092,0.15558808,-0.483874,0.7781701,-0.2371169,0.603327,-0.426599,0.9147893,-1.0738425,-2.1002069,-0.8852956,1.9139801,1.8279781,-0.989639,0.98337036,-1.0861913,-2.0603411,-0.9492439,1.93481,1.7722956,-0.9500739,-1.4950492,0.30497202,-0.8577734,1.3860358,-0.2918291,0.4628393,-0.30979705,-0.09660721,-0.6630144,0.7026309,-1.6384389,0.3434301,0.34145606,-0.06707382,-0.6512871,0.6586882,0.89276963,-0.03442056,0.1621755,0.4188993,-1.3561771,0.13299078,0.24158625,0.0,1.0,0.0,0.0,0.0,0.0,0.0,-0.55339277,0.2630144,-0.15263087,-0.01680851,-6.4338264,-2.180481,-0.32811165,-1.5576601,-0.9051442,-0.11947751
-1.192984,55.602367,13.337159,10.33884,0.64510924,0.29010916,0.08189223,-0.8268357,0.15219946,-0.4737454,0.7858274,-0.24992128,0.61998653,-0.42530426,0.9006868,-1.0709714,-2.1077156,-0.87066114,1.9098179,1.8342942,-0.9926043,0.9684653,-1.0834485,-2.0689733,-0.9353628,1.931764,1.776887,-0.95315826,-1.4893997,0.26366124,-0.86394906,1.388342,-0.30966282,0.4575721,-0.30857572,-0.11283493,-0.65942764,0.7058877,-1.6167978,0.3644192,0.3235707,-0.08061218,-0.64987755,0.66093206,0.89826,-0.035681605,0.16894108,0.40412214,-1.351581,0.15497555,0.22012454,0.0,1.0,0.0,0.0,0.0,0.0,0.0,-0.53716505,0.25942764,-0.15588766,0.44763088,-4.2373657,-0.156641,0.110173225,-2.128619,-0.64475536,-0.05584359
-3.0720272,54.016243,12.256531,10.772961,0.6785865,0.26030475,0.0791551,-0.8323703,0.110298395,-0.49775967,0.78842187,-0.27460083,0.6083109,-0.39869145,0.8852283,-1.0724187,-2.1187494,-0.85652065,1.9043039,1.8377181,-0.9930274,0.95358986,-1.0811425,-2.0777082,-0.92144066,1.9284832,1.7814264,-0.95621,-1.4873015,0.21924523,-0.8751098,1.3931844,-0.33505553,0.4525136,-0.30452126,-0.12885284,-0.65563774,0.70894134,-1.5956811,0.3844957,0.302205,-0.094135284,-0.6482611,0.66293687,0.90344816,-0.036664333,0.17572938,0.38930213,-1.3494545,0.1754747,0.19539604,0.0,1.0,0.0,0.0,0.0,0.0,0.0,-0.52114713,0.25563774,-0.15894133,0.103354454,-4.5482845,-0.6669998,0.3848791,-2.8788507,-0.6217003,0.23810267
-2.4968562,58.987514,13.211078,11.448603,0.5550087,0.27765322,0.107426964,-0.8298653,0.11151988,-0.51881045,0.7832958,-0.32569233,0.594673,-0.35523427,0.8706033,-1.0699905,-2.1295893,-0.8431111,1.895914,1.8408937,-0.99173343,0.9387344,-1.0791532,-2.086626,-0.90749854,1.9248366,1.785914,-0.95918953,-1.4853674,0.19180252,-0.8954115,1.394083,-0.37557995,0.44712022,-0.2964,-0.1446228,-0.6516304,0.7118407,-1.5698371,0.40679115,0.28878164,-0.10758591,-0.6464138,0.664735,0.90830797,-0.03733376,0.18266581,0.37445435,-1.3411839,0.19918524,0.17617618,0.0,1.0,0.0,0.0,0.0,0.0,0.0,-0.5053772,0.2516304,-0.16184068,0.06875992,-2.8656392,-1.5324593,-0.024652481,-4.4451833,-0.65903664,0.62586665
-2.5234172,57.00968,12.674191,11.280178,0.66616297,0.2569574,0.11220041,-0.8293044,0.07186622,-0.50502163,0.7868234,-0.32105038,0.6023279,-0.3481291,0.85580397,-1.0719665,-2.137128,-0.8288162,1.8927315,1.8461467,-0.99400246,0.92389333,-1.077509,-2.095651,-0.8935412,1.9208467,1.7903594,-0.9620859,-1.484081,0.15491305,-0.9033374,1.395904,-0.4079038,0.4432898,-0.28794384,-0.16013718,-0.6474085,0.7145826,-1.5445946,0.42783007,0.27173308,-0.120975494,-0.64433765,0.6663283,0.91283816,-0.03770985,0.1897069,0.35960475,-1.3354268,0.22129373,0.15502405,0.0,1.0,0.0,0.0,0.0,0.0,0.0,-0.4898628,0.24740848,-0.16458261,0.008225441,-3.8043022,-0.2914548,0.07972717,-3.6299884,-0.5084574,0.67273974
-4.944689,43.638855,8.118324,9.191241,0.5672418,0.04831171,0.13277343,-0.82910144,0.0055018086,-0.5509846,0.7851509,-0.3526805,0.5923964,-0.31611744,0.8409832,-1.0769589,-2.1507494,-0.8150261,1.8855786,1.849599,-0.99369764,0.90906274,-1.0764601,-2.1049228,-0.8795724,1.9165033,1.7947652,-0.96488243,-1.4829074,0.08794223,-0.9340694,1.3969135,-0.44376045,0.43958896,-0.2774029,-0.175457,-0.6430321,0.7169589,-1.5266654,0.44152465,0.22934103,-0.13436127,-0.6421232,0.6675285,0.91705793,-0.037657876,0.19678123,0.34476605,-1.3365782,0.23256782,0.10959477,0.0,1.0,0.0,0.0,0.0,0.0,0.0,-0.47454298,0.24303207,-0.16695887,0.04861355,-6.778425,-2.7163029,0.04787445,-3.8587034,-0.4498005,0.9061754
-2.2982635,56.781746,12.189587,11.247495,0.75063163,0.21246201,0.1387482,-0.82606125,0.038066257,-0.52438796,0.78297037,-0.3278016,0.58519286,-0.27338114,0.8264566,-1.0726535,-2.1573615,-0.8012754,1.8837231,1.8532845,-0.9922205,0.8942522,-1.0758402,-2.114348,-0.8656131,1.9119599,1.7991334,-0.9675491,-1.4808246,0.05306349,-0.9437193,1.3951731,-0.45901272,0.43542278,-0.26359782,-0.19053268,-0.6384716,0.71909314,-1.5002506,0.46130726,0.2107189,-0.1477089,-0.63971996,0.6684581,0.92096174,-0.037266035,0.20385765,0.32997397,-1.3315449,0.2536859,0.08868419,0.0,1.0,0.0,0.0,0.0,0.0,0.0,-0.4594673,0.2384716,-0.16909313,0.08561611,-3.604573,-0.44721365,-0.26874542,-1.9502759,-0.5588949,1.2141347
-2.9019775,49.900627,10.199805,10.150772,0.84255105,0.11181259,0.13656278,-0.82442254,-0.026536053,-0.5355433,0.7840267,-0.30784327,0.5764794,-0.27114987,0.8118099,-1.0784938,-2.1679022,-0.78721046,1.8811755,1.8567814,-0.9946641,0.8794691,-1.0757143,-2.123857,-0.8516662,1.9073895,1.8034569,-0.97008675,-1.4778651,-0.0011820424,-0.9518176,1.3942068,-0.4572049,0.4309745,-0.25091836,-0.2053833,-0.63374615,0.7209379,-1.4785061,0.47696114,0.17870222,-0.16106033,-0.637146,0.6691038,0.92457557,-0.036563087,0.21080758,0.3152512,-1.3323596,0.2694736,0.057689637,0.0,1.0,0.0,0.0,0.0,0.0,0.0,-0.44461668,0.23374614,-0.1709379,0.19836426,-5.5222464,-0.35624504,-0.16212463,-0.18723011,-0.581342,1.1315644
-7.815277,20.659487,1.6400712,5.207107,0.7164277,-0.23502028,0.17728317,-0.8314386,-0.16627192,-0.5731195,0.77416855,-0.2988824,0.5470528,-0.22112474,0.7963252,-1.0923415,-2.181169,-0.7742494,1.8775012,1.8581622,-0.99219924,0.8646814,-1.0766699,-2.1335828,-0.83775896,1.902879,1.8077171,-0.97247475,-1.4789416,-0.12704076,-0.9792393,1.3896813,-0.44899094,0.42434028,-0.23497105,-0.22014618,-0.62897015,0.7220573,-1.4754698,0.47832364,0.09319468,-0.17456055,-0.63455963,0.669079,0.92796683,-0.03533495,0.21737008,0.3006313,-1.352626,0.2655582,-0.021459604,0.0,1.0,0.0,0.0,0.0,0.0,0.0,-0.4298538,0.22897014,-0.17205727,-0.08826256,-12.609999,-2.6188493,-0.39241314,0.750196,-0.72221756,1.5461206
-6.9571023,36.51121,5.453483,8.314045,0.7300843,-0.07674289,0.20725888,-0.8296033,-0.1294886,-0.58195984,0.77848417,-0.34562603,0.53968155,-0.08177296,0.7817211,-1.0896188,-2.191779,-0.7599105,1.8683164,1.8616853,-0.98065203,0.8498823,-1.0785849,-2.1436028,-0.82387966,1.8983253,1.8119125,-0.97461414,-1.480273,-0.21309851,-1.0086262,1.3874512,-0.45776275,0.41763046,-0.20711724,-0.23483658,-0.6241379,0.7225248,-1.4648438,0.48567885,0.03409442,-0.18818283,-0.6319313,0.6684282,0.9311114,-0.033552784,0.22366172,0.2861487,-1.3634039,0.27260593,-0.07854434,0.0,1.0,0.0,0.0,0.0,0.0,0.0,-0.4151634,0.22413787,-0.17252481,-0.16322136,-8.679217,-2.6505828,-0.18875599,-1.078862,-0.78517795,2.7099788
-6.640377,20.599873,1.9225354,4.8020773,0.7426574,-0.23112428,0.23917952,-0.82511175,-0.26639608,-0.5613139,0.7765939,-0.29154468,0.5297451,-0.059727456,0.7673711,-1.1052245,-2.1997342,-0.7462203,1.8691709,1.864887,-0.9805869,0.83509463,-1.0817149,-2.1537614,-0.8100118,1.8938223,1.8160374,-0.9764706,-1.4781222,-0.34647575,-1.0179771,1.3868207,-0.4477577,0.41049442,-0.17859815,-0.24946213,-0.61927795,0.72217447,-1.4615788,0.486551,-0.054621324,-0.20200348,-0.629303,0.6670399,0.9340455,-0.03122865,0.22949588,0.271874,-1.3840321,0.270372,-0.15819195,0.0,1.0,0.0,0.0,0.0,0.0,0.0,-0.40053785,0.21927795,-0.17217445,0.24213791,-13.369989,-0.7999897,0.04954338,0.9107232,-0.80694556,2.8444023
-6.0567656,19.084707,1.6956153,3.970566,0.74336517,-0.2128458,0.26541448,-0.8260313,-0.32541212,-0.56747407,0.7634335,-0.2640298,0.5344285,-0.010803189,0.7524915,-1.114256,-2.2105088,-0.73366845,1.8674194,1.8694803,-0.9775509,0.82032794,-1.0862048,-2.1639657,-0.7962026,1.8895088,1.8200984,-0.9780294,-1.476086,-0.4831557,-1.0208591,1.3793265,-0.4258204,0.40441424,-0.14831889,-0.2640648,-0.61441326,0.7209029,-1.4589498,0.4868272,-0.14799727,-0.21602249,-0.626688,0.6648358,0.93680507,-0.02838092,0.23472005,0.25787044,-1.4052035,0.26940802,-0.24042866,0.0,1.0,0.0,0.0,0.0,0.0,0.0,-0.3859352,0.21441326,-0.17090291,0.2373457,-13.699746,-0.16736984,-0.6089449,2.1092772,-0.7206142,3.0498683
-6.399476,23.65223,2.6106958,4.962588,0.8193503,-0.15679038,0.2765162,-0.8257,-0.37123388,-0.5827658,0.76448333,-0.23445292,0.503752,0.11132046,0.7377579,-1.1233282,-2.2222424,-0.7197543,1.8660636,1.8704736,-0.9668973,0.80557936,-1.0919573,-2.1742349,-0.78246075,1.8854947,1.8240829,-0.9792239,-1.474318,-0.6061403,-1.0283021,1.3728809,-0.39343578,0.39612612,-0.109788075,-0.2786293,-0.60954094,0.71874636,-1.4550596,0.48789504,-0.23473155,-0.23025894,-0.624053,0.661864,0.9394034,-0.025034385,0.23932491,0.24416794,-1.4255991,0.27290937,-0.31566894,0.0,1.0,0.0,0.0,0.0,0.0,0.0,-0.37137067,0.20954093,-0.16874635,0.2019167,-12.349534,-0.5856037,-0.49176216,3.1097949,-0.9779513,3.8857846
-6.424531,24.708414,2.857802,5.019741,0.95036185,-0.1292569,0.28623086,-0.8241482,-0.44067726,-0.58783865,0.75592864,-0.14554265,0.47933862,0.22068286,0.72316456,-1.1360251,-2.2330186,-0.7068679,1.8709404,1.8720167,-0.95715564,0.7908508,-1.0989096,-2.1845884,-0.7688071,1.8820294,1.8279712,-0.97998124,-1.4723102,-0.7250038,-1.0372524,1.3633524,-0.330974,0.3858894,-0.06419548,-0.29315948,-0.6046581,0.715714,-1.4512795,0.48888776,-0.32263187,-0.24469757,-0.6213665,0.6581597,0.9418723,-0.021228712,0.24322289,0.23079978,-1.4482152,0.2791889,-0.38848957,0.0,1.0,0.0,0.0,0.0,0.0,0.0,-0.3568405,0.20465812,-0.16571397,0.22642612,-11.9448185,-0.73440075,-0.7820368,6.108981,-1.2094676,4.6229796
-9.94973,15.586617,0.08522129,3.4008942,1.1032138,-0.23070204,0.2920468,-0.8358451,-0.5333612,-0.6274256,0.7218926,0.03337144,0.37345636,0.31499794,0.70726633,-1.1522458,-2.247331,-0.69661784,1.8853666,1.8653169,-0.94848144,0.7760851,-1.1071532,-2.1952047,-0.7553851,1.8796643,1.8316829,-0.9802454,-1.4777602,-0.8574917,-1.0698096,1.3359683,-0.20510344,0.36532733,-0.01329902,-0.30765915,-0.59977245,0.71173793,-1.4498286,0.48839897,-0.42258853,-0.25948334,-0.61863613,0.65361893,0.9442989,-0.016905177,0.24613719,0.2177846,-1.4844952,0.28318712,-0.47595885,0.0,1.0,0.0,0.0,0.0,0.0,0.0,-0.34234083,0.19977245,-0.16173792,-0.46887398,-13.295996,-3.2519102,-2.4878502,12.568792,-2.2851884,5.2385573
-8.002508,23.82535,2.5788789,4.319988,1.3125167,-0.06571603,0.2789045,-0.83804184,-0.57213926,-0.5921947,0.70051146,0.12973472,0.33017677,0.35649905,0.6922809,-1.1643671,-2.254424,-0.68533397,1.8926377,1.8647006,-0.9445955,0.7612478,-1.1165888,-2.2059507,-0.74231595,1.8787259,1.8351638,-0.9800146,-1.4856447,-0.97240293,-1.0761105,1.2980318,-0.057331894,0.34140944,0.035715736,-0.32214355,-0.5948925,0.706763,-1.4483792,0.4879107,-0.5224452,-0.27458954,-0.615798,0.6483166,0.9467359,-0.012181842,0.24790537,0.20514752,-1.5157368,0.29666957,-0.54863584,0.0,1.0,0.0,0.0,0.0,0.0,0.0,-0.32785642,0.1948925,-0.15676302,-0.74846745,-11.556112,-0.49836636,-3.571701,14.635742,-2.6607394,5.063946
-2.032518,28.21049,4.450893,2.8437293,0.9120133,0.069214046,0.35196644,-0.8320276,-0.6326618,-0.55697984,0.66852677,0.061868053,0.33443046,0.3783449,0.67804503,-1.179855,-2.2616487,-0.67546326,1.8849127,1.8686069,-0.94218016,0.7463667,-1.1271174,-2.2165213,-0.72971696,1.8788232,1.8384292,-0.9793318,-1.4888815,-1.0799272,-1.0500515,1.2477175,0.03138388,0.32078424,0.07957841,-0.33661652,-0.5900173,0.70079035,-1.4469311,0.48742288,-0.62220204,-0.2898674,-0.6128073,0.6423142,0.9491475,-0.00715543,0.24865039,0.19297862,-1.5273361,0.31306943,-0.61805606,0.0,1.0,0.0,0.0,0.0,0.0,0.0,-0.31338346,0.19001731,-0.15079033,-0.32513142,-10.815549,2.8530598,-4.859948,8.624917,-2.2943795,4.5100718
3.697454,39.500107,7.7458396,3.3367712,0.74237853,0.22255749,0.3919204,-0.82811505,-0.6596763,-0.5169083,0.6360779,0.0618774,0.28931037,0.42647347,0.66355515,-1.1930851,-2.268212,-0.66610914,1.885011,1.8673602,-0.9366844,0.7314884,-1.1385367,-2.2266002,-0.7176857,1.8795013,1.8414795,-0.9782304,-1.4877213,-1.1627097,-0.99415886,1.1877095,0.08191268,0.30048347,0.120145924,-0.35107422,-0.585145,0.69383454,-1.436167,0.4917111,-0.67979306,-0.3051262,-0.60962296,0.6357389,0.95148456,-0.0019313584,0.24855553,0.18136594,-1.5199581,0.3340652,-0.67181486,0.0,1.0,0.0,0.0,0.0,0.0,0.0,-0.29892576,0.18514499,-0.14383453,0.059199333,-8.351183,5.8617115,-6.0066223,4.9859786,-2.103275,4.068233
4.518224,47.23736,9.094969,4.5144944,0.7410404,0.2925223,0.3815059,-0.8316305,-0.6796496,-0.52863604,0.5930712,0.13950332,0.24937929,0.45837894,0.6483253,-1.2065016,-2.2794638,-0.6583786,1.8934517,1.8664175,-0.93239254,0.7166158,-1.1505911,-2.2362318,-0.70634145,1.8807262,1.8443323,-0.9767516,-1.4874372,-1.2198288,-0.9515648,1.1166617,0.13469039,0.27945977,0.15726084,-0.365345,-0.58018875,0.68665916,-1.4231337,0.49720746,-0.7276142,-0.32024765,-0.6062069,0.6286975,0.9537371,0.0034417065,0.24772356,0.17031324,-1.5057302,0.35793772,-0.71605104,0.0,1.0,0.0,0.0,0.0,0.0,0.0,-0.28465497,0.18018875,-0.13665915,-0.05776882,-5.7948112,4.739189,-7.065463,4.817979,-2.3073077,3.7420392
3.4936776,61.034847,11.033995,8.295651,0.68459564,0.3708694,0.32477632,-0.82706916,-0.6682304,-0.55129397,0.5895511,0.072366945,0.18999669,0.4803863,0.63390887,-1.2174141,-2.291361,-0.6473863,1.8879629,1.863332,-0.928713,0.7017652,-1.1629298,-2.2456763,-0.69558287,1.8821614,1.8469564,-0.97493607,-1.4846826,-1.2388934,-0.9402749,1.0621442,0.14462656,0.25609186,0.1894428,-0.37947083,-0.5751362,0.6792193,-1.4091797,0.50881004,-0.74617434,-0.3351593,-0.60252476,0.6213492,0.95584774,0.009032359,0.24650079,0.15972129,-1.4815267,0.3851894,-0.74242383,0.0,1.0,0.0,0.0,0.0,0.0,0.0,-0.27052915,0.17513618,-0.1292193,0.15697479,-2.013898,1.7134547,-5.4732084,0.35315752,-2.53824,3.127894
5.113606,65.26129,11.859194,9.108552,0.7950396,0.3676734,0.28172532,-0.81430763,-0.68708414,-0.54620177,0.5639555,0.16272713,0.17727886,0.49481383,0.6203344,-1.2316382,-2.3002965,-0.63918734,1.898434,1.8646842,-0.9254547,0.6869996,-1.175381,-2.2551022,-0.68530965,1.8838819,1.849353,-0.9728142,-1.4742852,-1.2475431,-0.94158703,1.0155318,0.17957078,0.23362239,0.21960832,-0.39329147,-0.5699854,0.6715672,-1.3724234,0.5172305,-0.76993865,-0.34983063,-0.5985718,0.6137952,0.95781624,0.014809076,0.24497136,0.14952469,-1.4562483,0.41193476,-0.7611207,0.0,1.0,0.0,0.0,0.0,0.0,0.0,-0.2567085,0.16998538,-0.12156719,0.90584755,-0.972867,0.47677755,-4.707074,2.9443681,-2.4492474,2.9396594
3.115598,72.57639,12.910017,11.784884,1.1381234,0.3971809,0.20312102,-0.81840074,-0.67644954,-0.5404887,0.54330915,0.23519503,0.06928564,0.5159439,0.6051595,-1.2430259,-2.309151,-0.6309787,1.9074014,1.8562815,-0.9212198,0.672313,-1.1877958,-2.2645657,-0.67544746,1.8861283,1.8514677,-0.97040963,-1.4673115,-1.2396982,-0.9456829,0.9761091,0.23786135,0.20345508,0.24710295,-0.40673447,-0.56474495,0.6637462,-1.3336549,0.52631646,-0.7840909,-0.36427307,-0.5943222,0.6061576,0.9596745,0.02069826,0.2431012,0.13963601,-1.4344572,0.44227007,-0.7658517,0.0,1.0,0.0,0.0,0.0,0.0,0.0,-0.24326551,0.16474494,-0.113746166,0.552845,0.6678581,0.25274754,-4.009795,5.235693,-3.2419653,2.6655107
6.4520025,70.21599,12.429936,9.458747,0.85364604,0.23948407,0.28067574,-0.81403923,-0.67783976,-0.5529042,0.46380728,0.25769058,-0.18679233,0.52137375,0.59090906,-1.2555797,-2.3198562,-0.6290667,1.9118974,1.8327885,-0.91827226,0.65769315,-1.2001077,-2.2741325,-0.66622615,1.888964,1.8531169,-0.9677608,-1.4606416,-1.228586,-0.95833576,0.90377253,0.29704753,0.15132006,0.27053463,-0.41979218,-0.5594435,0.6557499,-1.2950362,0.53137547,-0.8026407,-0.3784523,-0.58982754,0.59841996,0.96143997,0.026801882,0.24081448,0.13008875,-1.4064949,0.46409938,-0.77761304,0.0,1.0,0.0,0.0,0.0,0.0,0.0,-0.2302078,0.15944347,-0.105749905,0.51870346,1.0145426,-0.6302595,-7.3321223,5.3236065,-5.4167957,2.2417367
3.804689,71.56313,12.139872,10.952155,0.99378455,0.20624638,0.22488363,-0.8164333,-0.6757406,-0.55237377,0.4614577,0.26985496,-0.33321187,0.5345835,0.5760498,-1.2676817,-2.3293698,-0.62008035,1.9159496,1.8197957,-0.91430247,0.6431086,-1.2123071,-2.283816,-0.65763044,1.8923177,1.8541638,-0.96489793,-1.458102,-1.2174473,-0.9695307,0.8445303,0.3463352,0.08837691,0.291242,-0.4324684,-0.5540972,0.6475872,-1.2575052,0.5356311,-0.8193486,-0.3923912,-0.58511734,0.59058917,0.963122,0.033179943,0.23810673,0.1208313,-1.3832967,0.48585328,-0.78606135,0.0,1.0,0.0,0.0,0.0,0.0,0.0,-0.21753156,0.15409717,-0.09758717,0.11880398,1.0164976,-0.50092936,-6.002307,4.34978,-6.51294,1.9748449
1.7695205,75.17965,12.451126,13.114822,1.1592056,0.23538685,0.15493178,-0.8134517,-0.6683694,-0.5440157,0.4669464,0.25749165,-0.4290428,0.5534769,0.5617634,-1.279144,-2.3382177,-0.6109358,1.9180669,1.8112595,-0.90955025,0.628546,-1.2243882,-2.2935467,-0.6494343,1.896006,1.8545568,-0.9618398,-1.4560235,-1.2053591,-0.9718859,0.81109667,0.37449005,0.022308616,0.3103179,-0.44475937,-0.5487108,0.6393053,-1.2186518,0.53949964,-0.8295256,-0.4061203,-0.58017445,0.58273065,0.9647131,0.03980998,0.2350584,0.11176484,-1.3627672,0.50926584,-0.78683335,0.0,1.0,0.0,0.0,0.0,0.0,0.0,-0.2052406,0.14871082,-0.08930528,0.073599815,1.1069059,0.4069805,-3.4146547,2.2265315,-6.8401814,1.8023252
-0.21943784,82.86004,13.311628,15.986471,1.1921693,0.34390455,0.11309649,-0.81606716,-0.6403865,-0.54253656,0.46302095,0.16944936,-0.48370925,0.56752646,0.54693925,-1.2884269,-2.3478003,-0.60313225,1.9129509,1.8061858,-0.9050872,0.6139824,-1.2362481,-2.3032622,-0.6414289,1.8996109,1.8543142,-0.9586034,-1.4569402,-1.1798112,-0.969129,0.79662395,0.35396674,-0.04052345,0.32760483,-0.45661545,-0.5432911,0.6310214,-1.1738126,0.54265153,-0.8261265,-0.41960144,-0.5749731,0.5749506,0.9661626,0.04669053,0.23190203,0.102816604,-1.3386662,0.53522843,-0.7760877,0.0,1.0,0.0,0.0,0.0,0.0,0.0,-0.19338453,0.14329109,-0.08102137,-0.24006367,2.445674,0.9858608,-1.5413642,-2.6932478,-6.510339,1.5797198
2.6682532,82.15386,13.329371,14.9344015,1.0225178,0.35811573,0.14945821,-0.8080078,-0.63701105,-0.5363667,0.4325898,0.15583712,-0.5173428,0.575798,0.5331816,-1.2999493,-2.3568988,-0.5981699,1.9151946,1.8025799,-0.90102357,0.59944165,-1.2478676,-2.312909,-0.63360757,1.9029006,1.853488,-0.95520854,-1.4536662,-1.1561825,-0.9608485,0.7769306,0.31871593,-0.097362556,0.34286332,-0.46801376,-0.5378599,0.62277085,-1.1281615,0.5429761,-0.8232845,-0.43281174,-0.56954384,0.56725943,0.9674441,0.053820528,0.22872706,0.094016716,-1.3092498,0.557239,-0.7676946,0.0,1.0,0.0,0.0,0.0,0.0,0.0,-0.18198621,0.13785991,-0.072770834,0.17194748,2.2653103,1.5427351,-2.084577,-4.170352,-5.8990374,1.3635635
4.5744367,81.64555,13.127143,13.938929,0.88132715,0.3650502,0.19352522,-0.8066269,-0.6181025,-0.54914737,0.39442194,0.15664794,-0.5551736,0.58616805,0.518779,-1.3096778,-2.3678236,-0.5941654,1.9185654,1.7979707,-0.8965917,0.58494,-1.2592182,-2.3225365,-0.62611234,1.9058567,1.8521314,-0.9516735,-1.4495301,-1.1283675,-0.96117723,0.7399065,0.2860207,-0.14898165,0.3565317,-0.47896194,-0.53244495,0.6145294,-1.08277,0.540714,-0.8224083,-0.44569778,-0.5639105,0.55962884,0.9685505,0.061217092,0.22553155,0.085426636,-1.2761075,0.5759292,-0.762514,0.0,1.0,0.0,0.0,0.0,0.0,0.0,-0.17103803,0.13244495,-0.06452936,0.2554655,2.695489,0.6676078,-3.8381934,-3.909856,-5.3691626,1.1954486
12.250878,80.33121,13.910266,10.79159,0.66363156,0.37615108,0.30097967,-0.79691327,-0.6017304,-0.5095925,0.3210805,0.16970628,-0.58425575,0.58547556,0.50524867,-1.3193913,-2.3734958,-0.5940043,1.9228274,1.7937058,-0.89312595,0.57051855,-1.2702751,-2.332,-0.61928475,1.9085919,1.8503011,-0.94801855,-1.4402821,-1.0984371,-0.9392311,0.6629663,0.26754954,-0.19489644,0.3678362,-0.48944855,-0.52708054,0.606279,-1.0361925,0.5346738,-0.82387763,-0.45817947,-0.5581436,0.55202675,0.96950644,0.06880674,0.22217692,0.07720308,-1.2326939,0.5875844,-0.7604381,0.0,1.0,0.0,0.0,0.0,0.0,0.0,-0.16055143,0.12708053,-0.056279004,0.7519007,2.9372454,2.89042,-7.888913,-2.48667,-4.764777,0.94786286
18.807724,79.45914,14.834816,8.1622715,0.64353764,0.40859884,0.38017753,-0.7923625,-0.5828017,-0.45912385,0.23563966,0.2322098,-0.5968171,0.57628864,0.49128228,-1.3285553,-2.3779125,-0.59572077,1.9318129,1.7906195,-0.8903897,0.5562001,-1.2810135,-2.3410141,-0.6135435,1.9114013,1.84806,-0.9442725,-1.4295794,-1.0657752,-0.8868261,0.5437127,0.2836189,-0.23434642,0.37631127,-0.49946594,-0.5217972,0.59800404,-0.9900106,0.5259779,-0.82787746,-0.4701805,-0.55228806,0.54444164,0.9703752,0.07640934,0.21840814,0.069508485,-1.1832032,0.59466827,-0.7588166,0.0,1.0,0.0,0.0,0.0,0.0,0.0,-0.15053403,0.121797174,-0.04800403,0.8961439,3.2416344,5.8885813,-12.160528,1.009208,-4.089117,0.67575574
24.343138,85.043594,17.099806,8.48237,0.9252793,0.51081306,0.36715767,-0.7800445,-0.55899364,-0.35978952,0.19217506,0.257047,-0.5975882,0.5755127,0.47819564,-1.3369129,-2.3769932,-0.594326,1.937106,1.7883012,-0.88672125,0.54202557,-1.2913914,-2.3490891,-0.6090258,1.9145029,1.8454767,-0.9404541,-1.4140037,-1.0282952,-0.77888525,0.42013392,0.31724653,-0.26673555,0.3831382,-0.5089989,-0.5166168,0.58975977,-0.9404295,0.51503104,-0.82184106,-0.48165894,-0.5463648,0.5369822,0.97122854,0.08371315,0.21403673,0.062414434,-1.1296681,0.60073036,-0.7424669,0.0,1.0,0.0,0.0,0.0,0.0,0.0,-0.1410011,0.116616815,-0.039759755,1.3807535,3.7468433,11.404694,-12.630057,2.8263867,-3.3498259,0.51989555
29.23978,79.553795,17.29172,5.6733932,1.0426826,0.49324661,0.40282786,-0.77223074,-0.5639197,-0.26681873,0.092274025,0.37184632,-0.609362,0.5762446,0.4648025,-1.3477833,-2.375771,-0.5997984,1.9516875,1.7845405,-0.88282967,0.528018,-1.3014984,-2.355772,-0.6059243,1.9182688,1.8426037,-0.9365756,-1.396804,-1.0048097,-0.6299491,0.27267808,0.39513466,-0.29437482,0.3890553,-0.5180702,-0.5115557,0.5815162,-0.89555603,0.50285476,-0.8241522,-0.4926033,-0.5404043,0.52965343,0.9721671,0.09042169,0.20875694,0.05599519,-1.0776755,0.60322464,-0.7307424,0.0,1.0,0.0,0.0,0.0,0.0,0.0,-0.13192976,0.111555666,-0.031516194,1.5788555,2.3697615,15.331221,-14.983111,7.4213624,-2.8416336,0.48450232
31.93658,82.93139,18.726137,5.7898607,1.294527,0.58666337,0.4089085,-0.77161586,-0.53511554,-0.13728686,-0.0066389595,0.43722606,-0.6187719,0.58564633,0.45085642,-1.3550099,-2.3695006,-0.6065882,1.9619914,1.7807264,-0.878011,0.5141487,-1.3113292,-2.3606164,-0.6044394,1.9229585,1.839486,-0.9326371,-1.3839304,-0.9758169,-0.43483037,0.1064101,0.49288252,-0.31757456,0.39520365,-0.52668,-0.50662804,0.57330257,-0.8496194,0.4892291,-0.8201459,-0.5030136,-0.5344105,0.5225142,0.9732723,0.09625499,0.20234957,0.050305404,-1.024756,0.60613924,-0.70952946,0.0,1.0,0.0,0.0,0.0,0.0,0.0,-0.12331998,0.10662803,-0.023302555,1.1783123,2.9334068,19.785702,-16.838493,9.576141,-2.3398876,0.5430579
30.638037,93.79729,21.14953,10.120877,1.9698575,0.75310695,0.2774693,-0.7661149,-0.5060093,0.028976211,-0.034611978,0.51074857,-0.6140821,0.60582024,0.43753722,-1.3619301,-2.3577187,-0.60790056,1.9740334,1.7780778,-0.87205505,0.5003929,-1.320805,-2.3631074,-0.6043765,1.9287245,1.8361745,-0.9286279,-1.3730371,-0.93807685,-0.18712054,-0.027720738,0.6044657,-0.33552063,0.4027292,-0.5348053,-0.50184345,0.56528026,-0.80062205,0.47487694,-0.79666805,-0.51294327,-0.5283308,0.51578486,0.97460306,0.10084685,0.19475849,0.045252778,-0.9778563,0.616012,-0.6620522,0.0,1.0,0.0,0.0,0.0,0.0,0.0,-0.11519468,0.10184345,-0.015280247,1.020503,3.8134575,24.858866,-13.588783,11.181391,-1.7541468,0.71116686
31.602392,120.07924,26.418133,17.502966,2.7344518,1.0856432,0.15073791,-0.76140267,-0.41244403,0.22079127,-0.09755117,0.5788977,-0.5729295,0.6009817,0.42425263,-1.3620493,-2.3410282,-0.6141316,1.9866143,1.7788815,-0.86852974,0.48673433,-1.3295368,-2.3627305,-0.6055317,1.9356571,1.8327518,-0.92455155,-1.363557,-0.8514004,0.11197377,-0.14535612,0.72381276,-0.34398782,0.40912473,-0.5423393,-0.4972353,0.5578344,-0.7384575,0.45601434,-0.7282967,-0.52236557,-0.522089,0.5099063,0.97618467,0.10376629,0.1861121,0.040721416,-0.9267751,0.633363,-0.5644754,0.0,1.0,0.0,0.0,0.0,0.0,0.0,-0.10766065,0.09723529,-0.007834375,0.9259224,8.7203865,29.770443,-11.925719,12.282789,-0.98193884,0.7837057
32.394478,108.49638,23.616938,12.644422,1.9590594,0.92203987,0.31652322,-0.7647543,-0.39243034,0.24544685,-0.2796325,0.655442,-0.55229515,0.5822239,0.4102589,-1.3687798,-2.3381858,-0.633495,2.0012014,1.7775222,-0.86632913,0.47312826,-1.3374027,-2.3598773,-0.6083346,1.9437882,1.8292825,-0.92042965,-1.3594815,-0.76471996,0.341959,-0.32530263,0.84452164,-0.34724104,0.4133104,-0.5492935,-0.49283695,0.55094373,-0.6817756,0.43482956,-0.6778202,-0.5312424,-0.51575375,0.50477356,0.97797847,0.10517684,0.17646731,0.03681223,-0.8716093,0.63985574,-0.49741164,0.0,1.0,0.0,0.0,0.0,0.0,0.0,-0.10070646,0.092836946,-0.00094372034,0.44927597,8.714401,22.581573,-18.038025,12.624228,-0.08948445,0.4631579
