Afshin1997/kuka_rl_ros2/src/catch_and_throw/input_files/idealpd/recorded_trajectories/env_385_data.csv
torque0,torque1,torque2,torque3,torque4,torque5,torque6,action0,action1,action2,action3,action4,action5,action6,set_target_0,set_target_1,set_target_2,set_target_3,set_target_4,set_target_5,set_target_6,joint_pos_0,joint_pos_1,joint_pos_2,joint_pos_3,joint_pos_4,joint_pos_5,joint_pos_6,joint_vel_0,joint_vel_1,joint_vel_2,joint_vel_3,joint_vel_4,joint_vel_5,joint_vel_6,tennisball_pos_0,tennisball_pos_1,tennisball_pos_2,tennisball_lin_vel_0,tennisball_lin_vel_1,tennisball_lin_vel_2,end_effector_pos_0,end_effector_pos_1,end_effector_pos_2,end_effector_rot_0,end_effector_rot_1,end_effector_rot_2,end_effector_rot_3,end_effector_lin_vel_0,end_effector_lin_vel_1,end_effector_lin_vel_2,obs_task_0,obs_task_1,obs_task_2,obs_task_3,obs_task_4,obs_task_5,obs_task_6,to_final_target_0,to_final_target_1,to_final_target_2,joint_acc_0,joint_acc_1,joint_acc_2,joint_acc_3,joint_acc_4,joint_acc_5,joint_acc_6
0.0,0.0,0.0,0.0,0.0,0.0,0.0,0.0,0.0,0.0,0.0,0.0,0.0,0.0,1.7802359,-1.0646509,-1.8151424,-1.1170107,1.9373155,1.1170107,-0.91629785,1.7802359,-1.0646509,-1.8151424,-1.1170107,1.9373155,1.1170107,-0.91629785,0.0,0.0,0.0,0.0,0.0,0.0,0.0,3.25465,-0.45316124,0.25968337,-3.6918478,-0.33892354,4.8300996,0.5304184,-0.4544952,0.693097,0.5745483,0.17512383,0.15255436,0.7848268,0.0,0.0,0.0,1.0,0.0,0.0,0.0,0.0,0.0,0.0,-3.9046502,0.053161234,0.29031664,0.0,0.0,0.0,0.0,0.0,0.0,0.0
0.0,0.0,0.0,0.0,0.0,0.0,0.0,0.0,0.0,0.0,0.0,0.0,0.0,0.0,1.7802359,-1.0646509,-1.8151424,-1.1170107,1.9373155,1.1170107,-0.91629785,1.7802359,-1.0646509,-1.8151424,-1.1170107,1.9373155,1.1170107,-0.91629785,0.0,0.0,0.0,0.0,0.0,0.0,0.0,3.25465,-0.45316124,0.25968337,-3.6918478,-0.33892354,4.8300996,0.5304184,-0.4544952,0.693097,0.5745483,0.17512383,0.15255436,0.7848268,0.0,0.0,0.0,1.0,0.0,0.0,0.0,0.0,0.0,0.0,-3.9046502,0.053161234,0.29031664,0.0,0.0,0.0,0.0,0.0,0.0,0.0
0.0,0.0,0.0,0.0,0.0,0.0,0.0,0.0,0.0,0.0,0.0,0.0,0.0,0.0,1.7802359,-1.0646509,-1.8151424,-1.1170107,1.9373155,1.1170107,-0.91629785,1.7802359,-1.0646509,-1.8151424,-1.1170107,1.9373155,1.1170107,-0.91629785,0.0,0.0,0.0,0.0,0.0,0.0,0.0,3.25465,-0.45316124,0.25968337,-3.6918478,-0.33892354,4.8300996,0.5304184,-0.4544952,0.693097,0.5745483,0.17512383,0.15255436,0.7848268,0.0,0.0,0.0,1.0,0.0,0.0,0.0,0.0,0.0,0.0,-3.9046502,0.053161234,0.29031664,0.0,0.0,0.0,0.0,0.0,0.0,0.0
-176.0,47.496807,-14.028126,110.0,10.009483,3.9284828,-3.8732142,-0.77714425,0.23044556,-0.54211867,0.73639435,-0.13627288,0.6933602,-0.58086264,1.7025214,-1.0416063,-1.8693542,-1.0433713,1.9236882,1.1863468,-0.9743841,1.7791144,-1.0630964,-1.8207862,-1.1113096,1.9392533,1.1217562,-0.9163074,-0.1492762,0.20689337,-0.7522792,0.7606639,0.25796422,0.63157874,-0.0010360669,3.2177582,-0.45654798,0.3072117,-3.6881566,-0.3385847,4.7270846,0.5284767,-0.45771313,0.69367844,0.5781049,0.173526,0.1520377,0.7826672,-0.25914314,-0.42917636,0.0774366,1.0,0.0,0.0,0.0,0.0,0.0,0.0,-3.8677583,0.05654797,0.24278831,-14.815946,20.518915,-75.17846,76.21395,25.687439,62.841682,-0.0185846
-176.0,-63.55765,-58.60685,106.045334,11.296742,0.10372308,-3.3963823,-0.780865,-0.32667205,-0.57836133,0.70850754,-0.13231525,0.66688925,-0.59398377,1.7010279,-1.0957636,-1.8786224,-1.0404589,1.9260218,1.1884451,-0.97570574,1.7780997,-1.0620493,-1.835635,-1.0954443,1.9428182,1.1344076,-0.9144219,-0.08661539,0.06206366,-1.710423,1.8640144,0.38015002,1.4532773,0.24728087,3.1809044,-0.45993137,0.35371062,-3.6844692,-0.33824617,4.6241727,0.5242195,-0.4661708,0.69376737,0.58605415,0.16983066,0.15035623,0.777876,-0.48192203,-0.9829859,-0.0115265865,1.0,0.0,0.0,0.0,0.0,0.0,0.0,-3.8309045,0.059931368,0.19628939,5.9802814,-17.000452,-90.22147,110.951706,9.519792,75.27173,23.483196
-153.26443,68.20879,16.107613,83.41673,8.039177,6.4167094,-1.6579868,-0.7310263,-0.024696426,0.2107035,0.6779159,-0.0923201,0.6988676,-0.47637784,1.7049971,-1.0645189,-1.8145646,-1.0276527,1.9335861,1.2042944,-0.9620597,1.7741095,-1.0619901,-1.8501918,-1.0750872,1.9458566,1.1489054,-0.9122952,-0.50255215,-0.015282803,-1.3654732,2.0952525,0.27326295,1.4445513,0.20139238,3.1440887,-0.4633112,0.39918122,-3.6807857,-0.337908,4.521363,0.5173073,-0.47764087,0.6947342,0.5966302,0.16467714,0.14751635,0.7714615,-0.76786685,-1.1943033,0.13612524,1.0,0.0,0.0,0.0,0.0,0.0,0.0,-3.7940888,0.06331119,0.1508188,-41.41981,-8.480834,36.050392,23.84057,-12.260461,-2.063632,-4.517314
-103.61763,61.101955,25.053799,49.399837,5.9370575,6.3613915,0.11667567,-0.75311804,-0.2689529,0.33686218,0.687,0.083969064,0.68920815,-0.52858865,1.6987977,-1.0888854,-1.8165057,-1.0063872,1.9542534,1.2178262,-0.9651541,1.7658163,-1.0636991,-1.8582771,-1.0550581,1.9479966,1.1625048,-0.9108561,-0.9382722,-0.22440791,-0.61672986,1.9736444,0.18768512,1.3294281,0.1255238,3.1073074,-0.46668768,0.44362447,-3.6771054,-0.33757016,4.418656,0.5079193,-0.49022865,0.69687366,0.6078588,0.1585777,0.14282069,0.7648288,-1.0056146,-1.2691271,0.2424625,1.0,0.0,0.0,0.0,0.0,0.0,0.0,-3.7573075,0.06668767,0.106375545,-43.622173,-21.347689,76.71006,-11.720252,-10.493803,-12.176585,-7.3629975
-49.248695,101.450356,43.57365,28.206533,3.3936625,6.5818853,0.7716796,-0.7721771,-0.11902558,0.381415,0.693338,0.23756583,0.7042457,-0.5533486,1.6885986,-1.0756017,-1.8201356,-0.98572433,1.9717532,1.2329293,-0.966191,1.7538553,-1.0665354,-1.8587539,-1.0374151,1.9498639,1.1747843,-0.9102315,-1.2826917,-0.30486232,0.147201,1.6945645,0.18100417,1.1928499,0.04143021,3.0705643,-0.47006083,0.4870414,-3.673429,-0.33723265,4.316052,0.49663925,-0.50258994,0.7002936,0.6186408,0.15163548,0.13620715,0.75877386,-1.1797603,-1.213646,0.37448496,1.0,0.0,0.0,0.0,0.0,0.0,0.0,-3.7205644,0.07006082,0.0629586,-34.58619,-8.444661,77.99174,-27.890396,-2.325654,-14.033961,-8.42814
-10.319923,133.03345,51.72645,17.056528,1.1424909,5.7397428,0.57756436,-0.7888821,0.06195243,0.31839192,0.68420076,0.30539137,0.69053286,-0.5872101,1.6749672,-1.0603402,-1.8269148,-0.9689951,1.9804031,1.2438376,-0.9689525,1.7395006,-1.0688642,-1.8536136,-1.0225245,1.9520898,1.1857992,-0.9104117,-1.4869875,-0.21015131,0.6395814,1.4203916,0.23321778,1.0707362,-0.038649186,3.0338593,-0.47343063,0.5294331,-3.6697564,-0.3368955,4.2135506,0.48414993,-0.51387143,0.7051001,0.62875867,0.14393349,0.12853037,0.75327647,-1.2831686,-1.089186,0.5129138,1.0,0.0,0.0,0.0,0.0,0.0,0.0,-3.6838593,0.07343063,0.02056694,-20.57898,9.086591,50.27867,-27.487732,4.231417,-12.261987,-8.245517
6.805362,151.72607,50.06283,13.826417,-0.77816665,4.2690697,-0.16712138,-0.8085804,0.28647938,0.07105649,0.6687244,0.30056372,0.68479973,-0.5808141,1.6586426,-1.0402163,-1.8465079,-0.95565206,1.9821461,1.2542793,-0.9684931,1.723971,-1.0688947,-1.8467338,-1.0098158,1.9549127,1.1957403,-0.91130817,-1.5756317,0.06486102,0.7058104,1.2210376,0.29742172,0.96921206,-0.107835434,2.9971886,-0.4767971,0.5708005,-3.6660874,-0.33655867,4.1111517,0.4710884,-0.52374196,0.7111569,0.6385919,0.13576572,0.121310934,0.7476976,-1.3251445,-0.9430097,0.63273865,1.0,0.0,0.0,0.0,0.0,0.0,0.0,-3.6471887,0.0767971,-0.020800471,-9.055686,27.167374,7.140672,-19.909214,6.0619116,-9.934378,-7.2666364
17.565126,160.63673,47.999073,12.033853,-1.850833,3.1950126,-0.60274816,-0.8200428,0.47628343,-0.060047697,0.6220615,0.38782382,0.6660796,-0.57174116,1.6419667,-1.0212665,-1.8527386,-0.94760966,1.993695,1.2623483,-0.96848226,1.7081248,-1.0654176,-1.8412902,-0.9985971,1.9585748,1.204785,-0.9128064,-1.5883253,0.44113186,0.4918812,1.0889277,0.38890204,0.8836248,-0.1650286,2.960556,-0.48016024,0.6111447,-3.662422,-0.33622217,4.008855,0.45791626,-0.5321107,0.7183155,0.6485094,0.1274358,0.11567932,0.74149436,-1.324616,-0.7906594,0.7403827,1.0,0.0,0.0,0.0,0.0,0.0,0.0,-3.6105561,0.08016023,-0.06114471,-1.5271902,37.332516,-21.037186,-13.177204,9.027642,-8.330118,-6.0861735
32.378555,167.05771,51.782146,9.343791,-2.0599382,3.102001,-0.45100015,-0.8029352,0.6021459,0.03965937,0.5796261,0.4921064,0.63391197,-0.54785424,1.6278312,-1.005203,-1.8373243,-0.9406345,2.0077853,1.2681762,-0.9675918,1.6925398,-1.0581907,-1.8379657,-0.9883298,1.9633374,1.2130533,-0.9147843,-1.5495342,0.81564224,0.28106317,1.005785,0.50476813,0.8079239,-0.20997702,2.9239578,-0.48352003,0.65046674,-3.6587603,-0.33588603,3.906661,0.44488525,-0.5388706,0.72667503,0.6585,0.118913054,0.11173286,0.7346789,-1.3027369,-0.6256561,0.86548585,1.0,0.0,0.0,0.0,0.0,0.0,0.0,-3.573958,0.083520025,-0.10046673,3.5885572,37.159695,-20.561903,-8.368087,11.398834,-7.5344324,-4.8824043
37.10443,154.46,49.644154,7.95473,-1.7238824,2.8940454,-0.24982202,-0.78574336,0.6743149,0.08460193,0.5733523,0.50201696,0.6474159,-0.5332222,1.6139655,-0.9907592,-1.8295056,-0.93099463,2.013539,1.277795,-0.9681065,1.677508,-1.0477995,-1.8361576,-0.9785356,1.969111,1.2206599,-0.917137,-1.4886729,1.1128407,0.14935729,0.97030973,0.6008798,0.7444696,-0.24483564,2.8873978,-0.4868765,0.68876755,-3.6551025,-0.33555022,3.8045695,0.43209457,-0.5440748,0.7362344,0.66843396,0.11006093,0.109074034,0.7274513,-1.2760617,-0.47172457,0.984358,1.0,0.0,0.0,0.0,0.0,0.0,0.0,-3.5373979,0.08687648,-0.13876754,5.8202744,29.46477,-12.578469,-3.6566854,9.395874,-6.474328,-3.8553178
32.052048,129.08464,42.2566,7.8318152,-1.0092673,2.460176,-0.08076389,-0.7797461,0.71488374,0.09162324,0.5712004,0.5357035,0.65825266,-0.52645,1.5995334,-0.9763111,-1.8269953,-0.92141557,2.0226812,1.2864851,-0.969782,1.6630465,-1.0352281,-1.835078,-0.9688577,1.975718,1.227719,-0.9197806,-1.4327269,1.3046982,0.09594825,0.9665149,0.6799782,0.69225776,-0.27196676,2.8508759,-0.49022937,0.7260483,-3.651448,-0.33521473,3.70258,0.41950607,-0.54798245,0.74676335,0.67820954,0.1008574,0.10715957,0.7199835,-1.2568458,-0.34901026,1.0742546,1.0,0.0,0.0,0.0,0.0,0.0,0.0,-3.500876,0.09022936,-0.17604828,5.3772926,18.986511,-4.777066,-0.51578283,7.7234745,-5.419624,-3.0496597
25.234009,100.94988,33.21864,6.808841,-0.4491781,1.8912325,0.060978144,-0.77267104,0.73328185,0.0948841,0.5545728,0.5570166,0.6695023,-0.53009087,1.5857794,-0.96189994,-1.8255895,-0.9134004,2.0314198,1.2946692,-0.9727897,1.6490351,-1.021478,-1.8341243,-0.95917314,1.9829698,1.2343336,-0.92265785,-1.3913043,1.3979186,0.09702109,0.9684999,0.73985785,0.6509244,-0.29404387,2.8143883,-0.4935789,0.76230985,-3.6477973,-0.3348796,3.6006925,0.40706253,-0.55090475,0.7578925,0.6877411,0.091399826,0.10552892,0.7124056,-1.2441628,-0.25773218,1.1241338,1.0,0.0,0.0,0.0,0.0,0.0,0.0,-3.4643884,0.093578905,-0.21230984,3.9666653,9.184694,0.60697496,0.02412796,5.855906,-4.281795,-2.5268137
18.163555,78.57008,25.569874,6.4168577,-0.03153026,1.4078596,0.1329679,-0.76682854,0.74173915,0.10064628,0.54855365,0.5682863,0.6716244,-0.52098703,1.5723523,-0.9473041,-1.8240597,-0.9043178,2.0397985,1.301496,-0.97475654,1.6353155,-1.0073274,-1.8329437,-0.94946855,1.9906812,1.2405993,-0.9257182,-1.3658794,1.4206184,0.12651445,0.97047925,0.7814369,0.6182409,-0.3109967,2.7779388,-0.49692512,0.79755336,-3.6441503,-0.33454478,3.4989066,0.39468002,-0.55311847,0.7692706,0.6969792,0.081811264,0.10388065,0.70479476,-1.237596,-0.19307962,1.1405127,1.0,0.0,0.0,0.0,0.0,0.0,0.0,-3.427939,0.09692511,-0.24755335,2.3981333,2.1825075,3.3805637,-0.007915497,4.078567,-3.3387184,-1.9990683
11.801521,64.49328,20.148645,6.8931475,0.2076934,1.0611582,0.115707785,-0.7638638,0.7496374,0.09157281,0.5495935,0.5718855,0.67669684,-0.5211738,1.5589292,-0.9323637,-1.8237864,-0.8945092,2.0478697,1.3082689,-0.97783554,1.6217467,-0.9932207,-1.8314807,-0.9397411,1.9986863,1.2465922,-0.92892253,-1.3541694,1.4073199,0.15407172,0.97269654,0.8068216,0.5928811,-0.3244719,2.7415237,-0.500268,0.8317798,-3.6405067,-0.3342103,3.3972228,0.38233185,-0.5548291,0.7806463,0.7059366,0.07219769,0.1021117,0.69714713,-1.2358426,-0.14736757,1.134432,1.0,0.0,0.0,0.0,0.0,0.0,0.0,-3.3915238,0.10026798,-0.28177977,1.0454178,-1.3852596,3.1199546,-0.0020384789,2.501583,-2.5466442,-1.6272426
7.0964923,55.777523,16.016298,7.371671,0.23528534,0.7345795,0.038341664,-0.7597227,0.7548954,0.04912045,0.5515716,0.5681865,0.68970793,-0.5065532,1.5457743,-0.91773117,-1.8265687,-0.8845839,2.055505,1.315563,-0.97957784,1.6082388,-0.9793247,-1.8300045,-0.9299888,2.0068421,1.2523791,-0.9322299,-1.349974,1.3835063,0.14637615,0.975309,0.81831604,0.57422024,-0.3336326,2.7051468,-0.5036075,0.86499006,-3.636867,-0.33387616,3.2956405,0.3699875,-0.5561769,0.79183674,0.71467113,0.06266614,0.100298025,0.6893898,-1.2345026,-0.114506125,1.1114373,1.0,0.0,0.0,0.0,0.0,0.0,0.0,-3.355147,0.103607506,-0.31499004,0.3051281,-2.415061,-0.48265755,0.023376942,1.1593103,-1.8257499,-1.1657
7.165356,55.81964,15.607827,6.9789677,0.10303223,0.6737391,0.043936294,-0.7592426,0.76141465,0.052188013,0.52991676,0.57250917,0.684241,-0.51143473,1.5323145,-0.9031832,-1.8247857,-0.8769971,2.064093,1.3208032,-0.98337334,1.5947367,-0.96562517,-1.8286655,-0.9203176,2.0150628,1.2580057,-0.9356173,-1.3508507,1.3652992,0.13083768,0.9635507,0.8233009,0.55901647,-0.34122878,2.6688042,-0.5069437,0.8971853,-3.633231,-0.33354235,3.1941597,0.35767746,-0.5571749,0.8027789,0.7231902,0.053258177,0.098535165,0.68150586,-1.2300308,-0.0791693,1.0858717,1.0,0.0,0.0,0.0,0.0,0.0,0.0,-3.3188043,0.1069437,-0.3471853,-0.21185875,-1.8548012,-1.2550473,-1.4172792,0.507164,-1.461947,-1.0050893
9.134739,58.175003,16.448927,6.03589,-0.021566331,0.703257,0.12057765,-0.7643093,0.76019025,0.07132344,0.49449542,0.59446645,0.6794196,-0.50798124,1.5183058,-0.8896061,-1.8215332,-0.870868,2.0745094,1.3259476,-0.98641545,1.5811831,-0.9520582,-1.8273914,-0.91093725,2.0233636,1.2634989,-0.9390677,-1.3571961,1.3536662,0.12724365,0.9287679,0.83268005,0.54635525,-0.34711322,2.6324997,-0.51027656,0.9283665,-3.6295984,-0.3332089,3.0927804,0.34544373,-0.5577667,0.8134767,0.7314378,0.04397417,0.09683892,0.673563,-1.2215253,-0.037009913,1.0617994,1.0,0.0,0.0,0.0,0.0,0.0,0.0,-3.2824998,0.11027655,-0.37836647,-0.7753134,-1.2010813,-0.015693903,-3.721571,0.92965364,-1.194036,-0.8406997
12.092683,60.261875,16.748877,4.7686973,-0.2978831,0.60209435,0.1397834,-0.7576862,0.769565,0.03667605,0.46874985,0.59167254,0.68307024,-0.49422628,1.5054145,-0.8751017,-1.8237238,-0.86406225,2.0825307,1.331806,-0.98849034,1.567597,-0.9385122,-1.8262813,-0.9020042,2.0317407,1.2688872,-0.94255817,-1.3596646,1.3547866,0.10680105,0.8806921,0.83918196,0.53661156,-0.3505002,2.5962296,-0.5136061,0.9585346,-3.6259696,-0.33287573,2.9915025,0.33335876,-0.5578909,0.8239259,0.739378,0.034832772,0.095297195,0.66560143,-1.2037518,0.010937593,1.0366243,1.0,0.0,0.0,0.0,0.0,0.0,0.0,-3.2462296,0.113606066,-0.4085346,-0.3938675,0.076150894,-1.7008111,-5.0549507,0.6476402,-0.87177753,-0.58918595
16.093967,62.94983,17.798918,3.0170407,-0.5151212,0.575163,0.23347786,-0.75954515,0.77354014,0.04986466,0.41527367,0.6100319,0.68057626,-0.49386156,1.4916425,-0.8611582,-1.8212948,-0.8604768,2.0927439,1.3369448,-0.9919443,1.55399,-0.92490137,-1.8252952,-0.8937263,2.0402207,1.2741915,-0.9460763,-1.3616054,1.3630558,0.09719702,0.80933857,0.85069305,0.52878755,-0.35306787,2.5599976,-0.51693225,0.98769075,-3.6223443,-0.33254293,2.8903258,0.32151031,-0.55747366,0.83413136,0.74694455,0.025840757,0.09394167,0.65770894,-1.1772121,0.066730835,1.0124881,1.0,0.0,0.0,0.0,0.0,0.0,0.0,-3.2099977,0.11693224,-0.43769073,-0.35235882,0.79364777,-0.58484674,-7.386446,1.1390567,-0.65021515,-0.51485896
24.629074,64.315704,18.802116,-1.9247828,-1.0293949,0.4214629,0.44390363,-0.75646293,0.77706033,0.073813625,0.305099,0.623817,0.678215,-0.48994908,1.4783437,-0.8471953,-1.8179139,-0.8632164,2.1026025,1.342013,-0.9950712,1.5403849,-0.91118467,-1.8242481,-0.8865623,2.0488381,1.2794329,-0.94961345,-1.3606098,1.3744084,0.108676136,0.6846156,0.865496,0.5232202,-0.3548283,2.5238,-0.5202551,1.0158359,-3.6187227,-0.33221045,2.7892501,0.31008148,-0.55639434,0.84404665,0.75397897,0.017047735,0.09277971,0.6500899,-1.1303362,0.13574497,0.98166007,1.0,0.0,0.0,0.0,0.0,0.0,0.0,-3.1738,0.12025508,-0.46583587,-0.07126331,1.116991,1.5605674,-12.740135,1.459527,-0.3225088,-0.44520497
28.855532,64.76936,19.217451,-3.8393679,-1.2157294,0.29117858,0.5360345,-0.7481185,0.7811362,0.08616538,0.24488874,0.6354058,0.6826447,-0.47738796,1.4655731,-0.83307105,-1.8156315,-0.8620734,2.1123786,1.3476974,-0.99735224,1.526837,-0.8973516,-1.8229969,-0.8807544,2.0576158,1.2846323,-0.95315635,-1.3535032,1.3862183,0.13186605,0.5453396,0.882298,0.51978666,-0.35488728,2.4876404,-0.5235746,1.042971,-3.6151047,-0.3318783,2.6882756,0.2991867,-0.55459976,0.853645,0.7603872,0.008476335,0.09179691,0.642894,-1.072952,0.20715272,0.94944507,1.0,0.0,0.0,0.0,0.0,0.0,0.0,-3.1376405,0.123574585,-0.492971,0.5558014,1.1808157,2.6966662,-14.181316,1.6844273,-0.05812645,-0.2632022
45.396275,63.827847,20.048166,-14.748438,-2.2869618,-0.13585004,0.95436996,-0.73708737,0.7851886,0.14286563,0.0022702578,0.6591389,0.6784416,-0.48710644,1.4531282,-0.81883276,-1.8087103,-0.8805274,2.1235297,1.3524765,-1.001867,1.5134112,-0.88340795,-1.8212631,-0.8771848,2.066607,1.2898127,-0.956705,-1.3394598,1.3972223,0.18836915,0.29336455,0.9048412,0.5191148,-0.35563326,2.4515152,-0.526891,1.0690972,-3.6114902,-0.33154652,2.587402,0.28918457,-0.55192924,0.8627605,0.7658874,0.00029095242,0.09101094,0.6365009,-0.9726735,0.29897428,0.89557123,1.0,0.0,0.0,0.0,0.0,0.0,0.0,-3.1015153,0.12689099,-0.51909715,1.2603045,1.1369705,6.0292273,-25.456804,2.2682548,0.44754744,-0.3229499
56.199112,64.02813,20.927225,-21.456547,-2.9717631,-0.4466577,1.2355,-0.7246812,0.7918165,0.20555592,-0.18146768,0.65584254,0.66472155,-0.4443927,1.440943,-0.8042263,-1.8007075,-0.89533156,2.1321912,1.3562849,-1.0011443,1.5001723,-0.86935174,-1.8187301,-0.87663645,2.0757852,1.2949873,-0.9602269,-1.3190732,1.4086577,0.27577353,-0.025332876,0.9222454,0.51909065,-0.3516244,2.4154282,-0.53020406,1.0942154,-3.6078796,-0.33121502,2.4866295,0.28039932,-0.54824924,0.8712567,0.77022886,-0.0073677013,0.09045699,0.63127697,-0.84294474,0.40119356,0.83047056,1.0,0.0,0.0,0.0,0.0,0.0,0.0,-3.0654283,0.13020405,-0.5442154,1.953435,1.2163162,9.006032,-32.065437,1.8220067,0.6543398,0.20532012
58.623684,68.50578,23.170992,-20.579836,-2.871449,-0.3801152,1.2985861,-0.70084995,0.79786736,0.30311918,-0.2736775,0.6508797,0.6480682,-0.38855803,1.4300872,-0.789565,-1.7884182,-0.9040042,2.1408732,1.3597941,-0.9990827,1.4872214,-0.8551811,-1.8150032,-0.8791141,2.0850816,1.3001505,-0.963663,-1.2871557,1.4203017,0.40508804,-0.3221656,0.9330248,0.51767224,-0.34143102,2.3793755,-0.5335138,1.1183265,-3.6042724,-0.3308839,2.3859577,0.27291107,-0.5435231,0.87920296,0.77334064,-0.014571176,0.090065025,0.62739164,-0.7122578,0.50469935,0.7784493,1.0,0.0,0.0,0.0,0.0,0.0,0.0,-3.0293756,0.13351378,-0.56832653,3.196907,1.2671232,12.980056,-29.765049,1.2950659,0.51380396,0.8918941
52.14676,71.595215,24.427624,-14.139446,-2.1879349,-0.14442763,1.1677548,-0.68134695,0.7989202,0.3929423,-0.31846723,0.642466,0.6376808,-0.28680372,1.4190867,-0.77528906,-1.7757089,-0.9109608,2.1493282,1.3639185,-0.99234337,1.4746348,-0.84091604,-1.8097827,-0.8839721,2.0944314,1.3052889,-0.96692264,-1.2489017,1.4289095,0.5602752,-0.5404076,0.93672943,0.51455015,-0.32107794,2.343361,-0.5368202,1.1414318,-3.600669,-0.33055305,2.2853866,0.2665596,-0.5378232,0.8867984,0.7753191,-0.021532422,0.089697644,0.62479675,-0.60366565,0.5983506,0.7481503,1.0,0.0,0.0,0.0,0.0,0.0,0.0,-2.993361,0.13682017,-0.5914318,3.8989067,0.9878397,15.339208,-21.823614,0.741601,0.2676487,1.9602656
38.226227,71.26959,23.97954,-4.146006,-1.0995848,0.16331974,0.9086701,-0.6766358,0.7941677,0.47391358,-0.32247794,0.63965267,0.62686235,-0.1337833,1.4069712,-0.7614993,-1.7623913,-0.9162199,2.1583967,1.3679751,-0.98030096,1.4623781,-0.82661664,-1.8029525,-0.8902368,2.1037889,1.3103834,-0.96987236,-1.2176721,1.4307151,0.7227692,-0.65509355,0.9371099,0.5093591,-0.28655788,2.3073807,-0.5401232,1.1635321,-3.5970688,-0.33022258,2.1849158,0.26099777,-0.5313258,0.8942627,0.7763756,-0.028488697,0.08920696,0.62327474,-0.5338651,0.67237425,0.7402385,1.0,0.0,0.0,0.0,0.0,0.0,0.0,-2.9573808,0.14012322,-0.6135321,3.2072544,0.32470226,15.920544,-11.454069,0.52205324,-0.054574013,3.3983827
23.990416,68.21277,22.127232,5.067044,-0.16407537,0.3440111,0.6403527,-0.6688588,0.7933239,0.51674455,-0.30173042,0.62109065,0.6227242,0.13720159,1.3954923,-0.74728423,-1.751278,-0.92040986,2.1658978,1.3726559,-0.9561522,1.4503714,-0.81232774,-1.7946918,-0.8969278,2.113089,1.3154207,-0.97229373,-1.1945935,1.4288089,0.859237,-0.6738466,0.9289445,0.5030433,-0.22752951,2.2714386,-0.54342294,1.1846285,-3.5934725,-0.32989243,2.0845456,0.25587463,-0.52424574,0.90176237,0.7767455,-0.03561389,0.08854125,0.62254196,-0.49922454,0.7251804,0.7471504,1.0,0.0,0.0,0.0,0.0,0.0,0.0,-2.9214387,0.14342293,-0.6346285,2.365756,-0.034856796,13.267315,-1.8963099,-0.29360056,-0.2728343,5.848506
5.6895895,59.865883,17.68292,14.902946,0.79970336,0.4034494,0.23898286,-0.6838804,0.78801924,0.5114881,-0.23594652,0.5881339,0.6312981,0.31069547,1.3819834,-0.7335258,-1.743543,-0.92052245,2.1719024,1.3785505,-0.9412242,1.4384352,-0.7980913,-1.7855117,-0.90313333,2.1222024,1.3204008,-0.97402847,-1.1932651,1.4224265,0.9365986,-0.603163,0.9070285,0.49690384,-0.15569071,2.2355309,-0.5467193,1.2047219,-3.5898798,-0.3295626,1.9842756,0.25079346,-0.5168586,0.9093771,0.776748,-0.042991273,0.08777585,0.6221814,-0.5030702,0.74831736,0.7599099,1.0,0.0,0.0,0.0,0.0,0.0,0.0,-2.885531,0.1467193,-0.6547219,0.109410286,-0.47876835,7.410383,6.955898,-1.7032027,-0.38417578,7.117662
-9.6394,48.878166,12.401932,21.724709,1.5024383,0.31483114,-0.115558185,-0.7114964,0.7763094,0.49346414,-0.17712289,0.564266,0.6408655,0.37425682,1.3672856,-0.72046036,-1.7361653,-0.9208456,2.178629,1.3844874,-0.9366028,1.426314,-0.78397214,-1.7760112,-0.9082498,2.1310334,1.3253256,-0.97505367,-1.2188262,1.4090357,0.9535656,-0.48173207,0.8764807,0.49150857,-0.08498772,2.1996574,-0.5500126,1.2238133,-3.5862906,-0.3292331,1.8841057,0.24547195,-0.5094502,0.9170873,0.77670777,-0.05059718,0.08702075,0.62176543,-0.53523076,0.74353904,0.76824397,1.0,0.0,0.0,0.0,0.0,0.0,0.0,-2.8496575,0.15001258,-0.6738133,-2.66788,-1.1855364,1.4653563,11.937153,-2.6352406,-0.41037202,6.997882
-25.004293,46.461708,10.67385,32.77833,2.5753994,0.65308,-0.5400063,-0.72632146,0.773745,0.4927507,0.02669795,0.5349123,0.6521465,0.44893533,1.3536818,-0.7065976,-1.7267362,-0.90558,2.1845245,1.3905402,-0.93016016,1.4138457,-0.76998365,-1.7665889,-0.91132635,2.1395135,1.3302046,-0.97538745,-1.2567372,1.3959897,0.9378146,-0.2504488,0.8397263,0.48668396,-0.016477551,2.1638222,-0.5533025,1.2419038,-3.582705,-0.32890394,1.7840359,0.2395134,-0.50223756,0.9250411,0.77697194,-0.058602832,0.08627871,0.6208351,-0.6098977,0.71939015,0.7978668,1.0,0.0,0.0,0.0,0.0,0.0,0.0,-2.8138223,0.15330252,-0.69190377,-3.9640903,-1.1399269,-1.8161297,22.868425,-3.2268405,-0.48849583,6.772959
-39.864597,42.90782,8.800448,43.848244,3.7012844,1.0047945,-0.96904236,-0.7498594,0.7601689,0.46036533,0.27306014,0.50716215,0.6638979,0.49584115,1.3388597,-0.69396675,-1.7205524,-0.8840203,2.1902297,1.3965944,-0.92580336,1.4009348,-0.75615823,-1.7575614,-0.91122144,2.1476045,1.3350416,-0.97507465,-1.303105,1.3785968,0.8900754,0.09653462,0.8002136,0.48218337,0.046949923,2.1280212,-0.5565891,1.2589943,-3.579123,-0.3285751,1.6840663,0.23246765,-0.4954114,0.9334483,0.7778914,-0.06726721,0.08547449,0.6189136,-0.728743,0.6765758,0.84848106,1.0,0.0,0.0,0.0,0.0,0.0,0.0,-2.7780213,0.15658912,-0.7089943,-4.831481,-1.5713453,-5.068803,34.423862,-3.4606695,-0.6172657,6.2744007
-38.059433,42.299866,8.7716,42.947998,3.5614371,0.97915727,-0.9797695,-0.7647752,0.7558237,0.4367119,0.37658274,0.49450728,0.65233123,0.49977276,1.3244573,-0.68057585,-1.7138903,-0.8735632,2.197055,1.4002748,-0.92509735,1.3875834,-0.742494,-1.7491024,-0.9076938,2.155333,1.3398272,-0.97419536,-1.3461258,1.3627614,0.83024365,0.43757415,0.76521796,0.4766139,0.10145854,2.0922546,-0.5598724,1.2750859,-3.5755446,-0.3282466,1.5841966,0.2242508,-0.4889741,0.94233745,0.7795449,-0.076641575,0.08460404,0.6158554,-0.84484446,0.6401211,0.8959051,1.0,0.0,0.0,0.0,0.0,0.0,0.0,-2.7422547,0.15987238,-0.7250859,-4.4442415,-1.4455557,-6.2838197,33.906483,-3.0359387,-0.77721477,5.4074807
-24.166164,43.108704,9.926174,32.793232,2.543423,0.654747,-0.64369303,-0.7724162,0.74831116,0.4350809,0.3905859,0.5121385,0.6537213,0.47224966,1.3103417,-0.66766286,-1.7055943,-0.86863524,2.2065468,1.4051993,-0.9269704,1.3738867,-0.7289833,-1.7411392,-0.9015216,2.1628404,1.344567,-0.97285926,-1.3779303,1.3474559,0.78434646,0.67666197,0.74707484,0.47245827,0.144196,2.0565262,-0.5631523,1.2901795,-3.5719697,-0.3279184,1.4844266,0.215168,-0.48275566,0.9515308,0.7817023,-0.08655012,0.08369356,0.61191994,-0.923098,0.62445366,0.92064756,1.0,0.0,0.0,0.0,0.0,0.0,0.0,-2.7065263,0.1631523,-0.7401795,-3.271532,-1.4407396,-4.778099,23.777866,-1.4623761,-0.5649328,4.221721
-8.115714,44.80984,11.299568,20.911507,1.3107817,0.2443541,-0.24872865,-0.7734874,0.7429607,0.42813662,0.39454788,0.51422954,0.6585233,0.4586317,1.296538,-0.6546872,-1.6983255,-0.86206686,2.2142634,1.4104192,-0.9269961,1.359984,-0.71561086,-1.7335098,-0.89383787,2.1702409,1.34928,-0.9711665,-1.3947885,1.3340206,0.7556894,0.7986543,0.73855233,0.47080868,0.17737375,2.020832,-0.56642914,1.3042762,-3.5683985,-0.32759055,1.3847566,0.20564651,-0.47654438,0.960781,0.7840358,-0.09673495,0.08281301,0.607513,-0.95452577,0.6301145,0.9199762,1.0,0.0,0.0,0.0,0.0,0.0,0.0,-2.6708322,0.16642913,-0.7542762,-1.7570019,-1.2963295,-2.8864026,12.092018,-0.6381631,-0.18231273,3.2312512
6.861002,45.481434,12.014617,8.939936,0.07079697,-0.24178648,0.14326876,-0.7771171,0.7372017,0.42371935,0.3455809,0.5117681,0.6603889,0.4563694,1.2822723,-0.6418907,-1.6911378,-0.85927975,2.2214177,1.4153188,-0.92552954,1.3459841,-0.70236146,-1.7260482,-0.8858575,2.177588,1.3539912,-0.96919334,-1.401896,1.3220506,0.7433992,0.7973805,0.7339285,0.47170877,0.20357959,1.9851761,-0.5697026,1.317377,-3.5648308,-0.32726303,1.2851862,0.19617462,-0.47016215,0.9698225,0.78622687,-0.10690054,0.0820739,0.60306174,-0.9373973,0.65157324,0.8923568,1.0,0.0,0.0,0.0,0.0,0.0,0.0,-2.6351762,0.16970262,-0.76737696,-0.7880211,-1.1806726,-1.0733247,-0.24427176,-0.3801942,0.24564862,2.4962366
19.054832,46.252182,12.497309,-0.9578352,-0.9731096,-0.70383096,0.46662077,-0.77598846,0.7338141,0.4258237,0.2669969,0.50252193,0.65094244,0.46988153,1.2683853,-0.62898004,-1.6834658,-0.85915786,2.2278402,1.4190854,-0.9222052,1.3319727,-0.68921125,-1.7186058,-0.8786554,2.1848817,1.3587137,-0.96698654,-1.4010721,1.3126317,0.745322,0.6940668,0.7275776,0.4735844,0.22592214,1.9495544,-0.5729728,1.3294828,-3.5612667,-0.32693583,1.1857152,0.18719482,-0.4634905,0.97843087,0.78801703,-0.11677146,0.0816007,0.5989447,-0.8780184,0.6827644,0.84378177,1.0,0.0,0.0,0.0,0.0,0.0,0.0,-2.5995545,0.17297277,-0.7794828,0.006747246,-0.9426117,0.46916008,-10.450209,-0.65517426,0.49769282,2.0900786
26.088732,45.153812,12.209175,-6.917419,-1.5563489,-1.0814649,0.6541609,-0.768101,0.7237744,0.4285628,0.19230455,0.49277696,0.6486251,0.48992276,1.2551626,-0.6168338,-1.6757494,-0.85942495,2.2341595,1.4235762,-0.91799426,1.3180338,-0.6761707,-1.711087,-0.8729133,2.1920915,1.3634592,-0.9645709,-1.3916157,1.3012531,0.7550026,0.5338489,0.7183753,0.47617623,0.24633259,1.913971,-0.5762396,1.3405946,-3.557706,-0.32660896,1.0863438,0.17900085,-0.45649958,0.9864589,0.7892565,-0.1261548,0.08147278,0.5954169,-0.79249823,0.71395105,0.7828134,1.0,0.0,0.0,0.0,0.0,0.0,0.0,-2.563971,0.17623958,-0.79059464,0.8996725,-1.1375427,1.2619495,-16.125261,-0.9852052,0.660491,1.9022375
25.327765,43.203426,11.191481,-6.709597,-1.560108,-1.2605363,0.60036886,-0.7620946,0.72002375,0.4045947,0.16018686,0.47260115,0.648648,0.5009886,1.2418244,-0.60416836,-1.6706275,-0.8568946,2.2393515,1.428324,-0.91447204,1.3042208,-0.66323507,-1.7035835,-0.86871904,2.19916,1.3682295,-0.9619664,-1.3776969,1.291159,0.7495569,0.38099933,0.70288527,0.4785739,0.26478118,1.8784218,-0.5795033,1.3507135,-3.5541492,-0.3262824,0.9870716,0.17167664,-0.44924545,0.9938794,0.7899697,-0.13498634,0.08174711,0.59248966,-0.70512384,0.73752093,0.7224346,1.0,0.0,0.0,0.0,0.0,0.0,0.0,-2.5284219,0.17950329,-0.8007135,1.3763428,-0.99322796,-0.3320098,-15.368801,-1.5850186,0.6360233,1.7352104
23.857885,41.64426,10.650686,-5.4620457,-1.4782915,-1.3251823,0.5448909,-0.75038755,0.7069015,0.41461074,0.11046409,0.41166064,0.6469778,0.53609246,1.229182,-0.5925449,-1.6621224,-0.85767263,2.2403262,1.4329273,-0.90835714,1.2905852,-0.650432,-1.6961105,-0.8659019,2.205912,1.3730189,-0.9591721,-1.3586714,1.2768505,0.746934,0.24836846,0.665666,0.48024282,0.28391966,1.842907,-0.5827637,1.3598403,-3.5505958,-0.3259562,0.88789874,0.16519547,-0.4417801,1.0007265,0.79021823,-0.14329493,0.08246636,0.5901024,-0.6205606,0.7563817,0.666325,1.0,0.0,0.0,0.0,0.0,0.0,0.0,-2.492907,0.18276367,-0.80984026,1.9193649,-1.399684,-0.1265049,-13.32846,-3.7283301,0.53750277,1.8228352
20.150082,39.21423,9.879952,-2.440261,-1.1136534,-1.3201681,0.43679833,-0.73812145,0.6928434,0.412842,0.08109358,0.39315146,0.6438927,0.54260373,1.216773,-0.5811477,-1.6548263,-0.85779256,2.2452273,1.4374081,-0.90491176,1.277165,-0.63780916,-1.6886718,-0.86414236,2.2122674,1.3778158,-0.95620143,-1.3362122,1.2575868,0.74295264,0.15158476,0.6254115,0.48078504,0.3011193,1.8074265,-0.5860207,1.3679762,-3.547046,-0.3256303,0.78882504,0.15946579,-0.43417668,1.0070672,0.79008836,-0.15115108,0.08359564,0.5881543,-0.54844415,0.76747113,0.61759704,1.0,0.0,0.0,0.0,0.0,0.0,0.0,-2.4574265,0.1860207,-0.8179762,2.2797823,-1.8790722,-0.34111738,-9.741365,-3.9907098,0.3763318,1.6419411
14.263453,37.928345,9.45794,2.4784832,-0.55463123,-1.1784873,0.2875389,-0.7382086,0.6849678,0.41212517,0.07587983,0.39009896,0.6399928,0.55369014,1.2033442,-0.5693124,-1.6474593,-0.8565544,2.2512772,1.4418151,-0.9008324,1.2639223,-0.6253799,-1.6812732,-0.86301416,2.2182794,1.3826109,-0.9530705,-1.3202027,1.2381725,0.739068,0.099629626,0.5933236,0.48000574,0.31680554,1.7719803,-0.58927464,1.3751221,-3.5434997,-0.32530475,0.6898504,0.1543045,-0.42649722,1.0130067,0.7896886,-0.1586709,0.08503994,0.5865012,-0.49746063,0.77277356,0.58061403,1.0,0.0,0.0,0.0,0.0,0.0,0.0,-2.4219804,0.18927464,-0.82512206,1.6158581,-1.8808603,-0.38381815,-5.27018,-3.1223178,0.17650723,1.5002251
14.811693,35.002625,8.480442,1.148859,-0.61701775,-1.3517891,0.3146922,-0.72340673,0.66823584,0.40569186,-0.007085729,0.3657492,0.6401733,0.5574553,1.1915816,-0.5585563,-1.640704,-0.86372274,2.2548542,1.4466282,-0.897325,1.2508532,-0.6131767,-1.6739318,-0.8625173,2.2239785,1.3873984,-0.9497994,-1.3023372,1.2146249,0.7322544,0.032863673,0.56249297,0.47924748,0.33040485,1.7365723,-0.59252524,1.3812789,-3.5399568,-0.3249795,0.5909747,0.14969254,-0.4188006,1.0185404,0.78904533,-0.16583018,0.086768195,0.5851315,-0.4417277,0.77271587,0.53898525,1.0,0.0,0.0,0.0,0.0,0.0,0.0,-2.3865724,0.19252524,-0.83127886,1.816225,-2.2925854,-0.6877899,-6.7489796,-3.008151,0.18877387,1.2963057
14.371542,32.281544,7.5275283,0.87187576,-0.6188043,-1.4812065,0.29867744,-0.7078056,0.65198606,0.39252004,-0.044262927,0.32641137,0.6362482,0.5644231,1.1800727,-0.5479781,-1.6346798,-0.8669436,2.2566197,1.4510232,-0.8933571,1.23799,-0.60123384,-1.6667125,-0.8626966,2.2293267,1.3921744,-0.94640434,-1.2807909,1.1877266,0.7184006,-0.035043497,0.5255186,0.47809154,0.3424508,1.7011986,-0.59577274,1.3864477,-3.5364177,-0.32465458,0.49219784,0.14563751,-0.41114044,1.0236436,0.78818,-0.17258218,0.088795014,0.58404016,-0.38469046,0.7672346,0.49564898,1.0,0.0,0.0,0.0,0.0,0.0,0.0,-2.3511987,0.19577274,-0.83644766,2.1978617,-2.624607,-1.4128327,-6.8636947,-3.625095,0.1447618,1.1446655
11.070663,25.127623,5.000438,2.007183,-0.4672932,-1.6344901,0.1922616,-0.69248104,0.62076885,0.35513544,-0.052058004,0.24741082,0.6373846,0.58161783,1.168742,-0.539157,-1.631199,-0.8679024,2.254068,1.4559128,-0.88824254,1.2253691,-0.5896467,-1.6597946,-0.8634271,2.2341294,1.3969427,-0.94289005,-1.2556896,1.1492761,0.6828996,-0.086007625,0.4657567,0.47704598,0.35416475,1.6658592,-0.5990169,1.3906294,-3.532882,-0.32433,0.3935198,0.14212036,-0.40362287,1.0282909,0.7871812,-0.17889704,0.09118331,0.5831185,-0.3329535,0.749274,0.44956812,1.0,0.0,0.0,0.0,0.0,0.0,0.0,-2.3158593,0.1990169,-0.8406294,2.5583744,-3.774953,-3.606081,-5.19794,-5.898899,0.14363527,1.1068165
12.132124,11.362804,-0.15761524,-3.9990683,-0.99194825,-2.2611547,0.23580366,-0.6818398,0.57012266,0.2906112,-0.19139522,0.116613686,0.6352491,0.5821369,1.1571851,-0.53263444,-1.6307335,-0.88256663,2.2457907,1.4604677,-0.88467634,1.212998,-0.57861364,-1.6535003,-0.8651437,2.2380128,1.4017016,-0.93927276,-1.2307391,1.0881463,0.61162806,-0.20055984,0.36273128,0.4763827,0.36399868,1.630558,-0.6022577,1.3938253,-3.5293498,-0.32400572,0.2949404,0.13929749,-0.39645123,1.0322706,0.7861162,-0.18449032,0.09414479,0.5823414,-0.25834388,0.70856196,0.3762825,1.0,0.0,0.0,0.0,0.0,0.0,0.0,-2.280558,0.20225772,-0.8438253,2.5839806,-6.056547,-7.155025,-11.573747,-10.303366,0.22414923,0.9022176
10.782627,-3.0171442,-5.429319,-8.145142,-1.4199035,-2.7613204,0.22004753,-0.681572,0.5058793,0.23996343,-0.30226874,-0.10316906,0.64205164,0.5752624,1.1448408,-0.5280257,-1.629504,-0.8953706,2.227696,1.4659067,-0.88174653,1.2008139,-0.56840074,-1.6480739,-0.86838144,2.2403169,1.4064585,-0.9355773,-1.2137523,0.9991292,0.51961315,-0.36523822,0.1863852,0.47639182,0.3710217,1.5952911,-0.6054952,1.396036,-3.5258212,-0.3236818,0.19645959,0.13734055,-0.38984537,1.0353373,0.78507197,-0.189052,0.09799059,0.5816521,-0.16796395,0.6458895,0.27941895,1.0,0.0,0.0,0.0,0.0,0.0,0.0,-2.2452912,0.20549521,-0.846036,1.8219233,-8.863592,-9.193695,-16.59912,-17.705605,0.27754903,0.57961345
1.0216775,-47.374687,-18.17966,-9.229045,-0.3905953,-3.428131,0.15429497,-0.63423985,0.26584178,0.25264245,-0.33810186,-0.374831,0.6640775,0.5776127,1.1373899,-0.5418166,-1.6228096,-0.90219164,2.2028337,1.4728663,-0.877816,1.1889616,-0.5600599,-1.6433456,-0.8731794,2.2402368,1.4112288,-0.9318274,-1.174846,0.7790008,0.4572717,-0.5187799,-0.07354365,0.4778791,0.37529445,1.5600586,-0.6087296,1.3972627,-3.522296,-0.32335818,0.09807723,0.13611603,-0.38438487,1.037178,0.7841466,-0.19236141,0.10258813,0.58102214,-0.10101793,0.513222,0.14881162,1.0,0.0,0.0,0.0,0.0,0.0,0.0,-2.2100587,0.2087296,-0.8472627,4.1214705,-22.022427,-6.235409,-15.584069,-26.133245,0.33622384,0.15445352
-31.139435,-176.0,-57.943977,-11.513754,3.5349774,-5.5752754,-0.09651473,-0.5546058,-0.3457893,0.16797207,-0.392746,-0.52592826,0.66380924,0.5662195,1.133501,-0.5946388,-1.6265484,-0.91245395,2.187644,1.4776098,-0.87520546,1.1778456,-0.556291,-1.640063,-0.87940687,2.2380166,1.4162394,-0.92788017,-1.089097,0.24217065,0.28622162,-0.65891784,-0.2734734,0.5081475,0.39910012,1.5248642,-0.6119609,1.3975062,-3.5187745,-0.32303488,-0.00020677682,0.13490677,-0.3819623,1.0369343,0.78364974,-0.19372027,0.10678121,0.5804852,-0.1232689,0.15176232,-0.08434507,1.0,0.0,0.0,0.0,0.0,0.0,0.0,-2.1748643,0.21196088,-0.8475062,8.971286,-53.890907,-16.833002,-14.468384,-20.458824,2.841729,1.7461956
-16.57323,-176.0,-52.736195,-9.676611,4.9330473,-5.4398675,0.17339048,-0.09474433,-0.59849864,0.21463709,-0.122607,-0.5904597,0.65229917,0.45865646,1.1683712,-0.61614084,-1.6185993,-0.89166754,2.1789706,1.4814693,-0.8820145,1.1696535,-0.55854166,-1.6381843,-0.88535017,2.2341905,1.4215609,-0.9237431,-0.728134,-0.3814516,0.15578099,-0.57359236,-0.41983968,0.53810984,0.4171484,1.4897003,-0.61518884,1.3967677,-3.5152564,-0.3227119,-0.09839252,0.13331604,-0.3831799,1.0346518,0.7833368,-0.19356829,0.10921598,0.58050543,-0.16836482,-0.21309613,-0.27691212,1.0,0.0,0.0,0.0,0.0,0.0,0.0,-2.1397004,0.21518883,-0.8467677,36.410095,-62.556183,-12.888345,8.305109,-14.891397,2.4314523,1.3838053
10.795053,-144.59628,-41.05414,-16.444433,3.600173,-5.6388845,0.34394616,0.3395522,-0.7326237,-0.115231186,-0.009868601,-0.59714824,0.66915476,0.33881703,1.2036088,-0.63180405,-1.6497074,-0.88633704,2.1744757,1.4884764,-0.8898614,1.1668574,-0.5667871,-1.6379936,-0.8895034,2.228663,1.4268767,-0.9197377,-0.13142075,-0.9726552,-0.023943296,-0.36299863,-0.5972943,0.5267224,0.3945566,1.4545746,-0.61841345,1.3950481,-3.5117419,-0.32238927,-0.1964801,0.13175964,-0.38771105,1.0306703,0.78292435,-0.1924,0.109512255,0.58139366,-0.15307842,-0.5320861,-0.43857965,1.0,0.0,0.0,0.0,0.0,0.0,0.0,-2.1045747,0.21841344,-0.8450481,59.212017,-59.25975,-17.256464,20.937712,-17.830181,-1.9544721,-2.3692787
12.516341,-85.321785,-24.641138,-3.7791665,2.7230675,-4.276966,-0.15661563,0.4239786,-0.76412946,-0.31187814,0.1827335,-0.6476075,0.70150054,0.1601498,1.2092552,-0.64320004,-1.6691813,-0.87123007,2.1639023,1.4970267,-0.9037227,1.1696345,-0.5795101,-1.6401317,-0.8907127,2.2215486,1.432078,-0.9160994,0.41095266,-1.3725685,-0.27360812,-0.040045578,-0.74974424,0.5156782,0.3541176,1.4194832,-0.62163496,1.3923484,-3.508231,-0.32206696,-0.2944696,0.13035583,-0.39469957,1.0255656,0.78259337,-0.19076931,0.108220205,0.5826174,-0.13707195,-0.7527684,-0.5356323,1.0,0.0,0.0,0.0,0.0,0.0,0.0,-2.0694833,0.22163495,-0.8423484,53.30218,-40.103004,-23.86323,32.36642,-15.300501,-1.7782927,-3.8854122
13.425984,-36.277824,-12.936916,0.3513875,1.2436599,-3.4318798,-0.45113945,0.47792286,-0.7996247,-0.4838341,0.18363158,-0.6260465,0.7016539,-0.07678233,1.2174268,-0.6594726,-1.6885151,-0.8723495,2.158944,1.5022434,-0.92377764,1.1766764,-0.59482515,-1.6451385,-0.88915247,2.2133317,1.4371783,-0.91302764,0.7992214,-1.584841,-0.5732046,0.22207174,-0.84586585,0.50662374,0.29217505,1.3844261,-0.62485313,1.3886695,-3.5047233,-0.32174495,-0.39236113,0.1292572,-0.40330815,1.0197071,0.7826388,-0.18880773,0.106202684,0.5835658,-0.09858384,-0.8949068,-0.60604906,1.0,0.0,0.0,0.0,0.0,0.0,0.0,-2.0344262,0.22485313,-0.8386695,37.996662,-21.339298,-29.008507,26.409203,-9.657288,-1.3916492,-6.0049715
17.667757,7.582617,-1.5909157,-0.061273575,-0.3278817,-2.6769073,-0.39662287,0.541972,-0.8106259,-0.57040215,0.15682042,-0.63262063,0.70176405,-0.13343564,1.2308736,-0.67588776,-1.7021787,-0.8734704,2.1500697,1.5073546,-0.9263712,1.1864535,-0.61113966,-1.6529548,-0.8858728,2.2044663,1.4422098,-0.9105853,1.0354707,-1.6473527,-0.8490408,0.36373875,-0.89999175,0.50079215,0.22846262,1.3494072,-0.6280682,1.3840123,-3.5012193,-0.32142326,-0.4901548,0.12873459,-0.41276956,1.0132878,0.7831264,-0.18643165,0.104235046,0.5840302,-0.031130562,-0.9613446,-0.6595568,1.0,0.0,0.0,0.0,0.0,0.0,0.0,-1.9994072,0.2280682,-0.8340123,23.097181,-6.371069,-26.997602,14.299851,-5.4378986,-0.9095073,-6.312558
18.512146,37.41958,6.9215813,1.4203825,-1.0549089,-1.943471,-0.30384976,0.59113884,-0.81457853,-0.6234607,0.1796702,-0.6288354,0.68586093,-0.20960052,1.2455673,-0.6925975,-1.7153009,-0.86790574,2.1415827,1.510796,-0.9315453,1.1977202,-0.62741697,-1.663039,-0.88180155,2.1952996,1.4471861,-0.9087838,1.1560678,-1.6217046,-1.060415,0.42169487,-0.92223275,0.49589697,0.16385002,1.3144188,-0.63127995,1.378378,-3.4977188,-0.3211019,-0.58785075,0.12891388,-0.42248726,1.0064812,0.783994,-0.18363512,0.1027495,0.5840153,0.042440653,-0.9730965,-0.69479597,1.0,0.0,0.0,0.0,0.0,0.0,0.0,-1.9644188,0.23127994,-0.828378,11.821294,2.4359703,-20.831226,5.8234396,-2.3004293,-0.7056713,-6.528324
15.94865,52.46248,11.732589,4.183676,-1.0966834,-1.338837,-0.19703102,0.61435455,-0.8150421,-0.65876037,0.2010447,-0.6296528,0.68768483,-0.19103199,1.2591556,-0.7089212,-1.728915,-0.8616971,2.1323342,1.5159546,-0.92788696,1.2095915,-0.64317834,-1.6746719,-0.87750524,2.1860414,1.4521261,-0.90755165,1.1973912,-1.5614151,-1.1969076,0.4322273,-0.92750776,0.49273238,0.10932751,1.2794685,-0.6344886,1.3717674,-3.4942217,-0.32078087,-0.685449,0.12973404,-0.4321003,0.99942905,0.7851367,-0.18049967,0.10187574,0.5836107,0.10544893,-0.95464563,-0.7161365,1.0,0.0,0.0,0.0,0.0,0.0,0.0,-1.9294685,0.23448858,-0.8217674,4.0887594,5.8957815,-13.484335,1.0214448,-0.69236755,-0.4745841,-5.5799665
12.527277,56.9367,13.565325,6.6251945,-0.8246714,-0.96257985,-0.12317805,0.6260193,-0.810684,-0.6877575,0.20997012,-0.6288016,0.681359,-0.20746459,1.2721934,-0.72424674,-1.7434477,-0.85650826,2.1231613,1.520262,-0.9282981,1.2215449,-0.6583265,-1.6872108,-0.873269,2.1767945,1.4570357,-0.90680873,1.1947833,-1.4997085,-1.2725518,0.4205392,-0.92472404,0.4899138,0.062110472,1.2445526,-0.6376941,1.3641816,-3.4907281,-0.32046017,-0.78294975,0.13108444,-0.44145226,0.99221784,0.7864585,-0.17711553,0.10156279,0.5829221,0.15379119,-0.9255341,-0.7302216,1.0,0.0,0.0,0.0,0.0,0.0,0.0,-1.8945526,0.23769411,-0.8141816,-0.21269321,6.037545,-7.4416876,-1.2098074,0.03938675,-0.41992664,-4.853246
11.463739,53.85883,13.126939,6.2959538,-0.63477767,-0.88350594,-0.009271741,0.6364509,-0.814043,-0.70571727,0.18534528,-0.6368103,0.6715633,-0.21318625,1.28519,-0.73973083,-1.7577826,-0.8547345,2.1131134,1.524192,-0.92812735,1.2333628,-0.67300737,-1.7001846,-0.8693246,2.1675706,1.4619128,-0.90648067,1.1775949,-1.4580404,-1.3053268,0.38574424,-0.92271256,0.48641345,0.022610573,1.209671,-0.6408963,1.3556216,-3.4872382,-0.32013977,-0.880353,0.1328659,-0.4505372,0.984834,0.7878586,-0.17349957,0.101693764,0.5820954,0.19644576,-0.899301,-0.74820507,1.0,0.0,0.0,0.0,0.0,0.0,0.0,-1.859671,0.24089631,-0.80562156,-1.6646147,4.0460825,-3.1675339,-3.504312,-0.05261898,-0.5092859,-4.050513
5.8839927,52.61849,13.272975,10.762545,-0.002748251,-0.59314215,-0.05583947,0.62323,-0.8044634,-0.69993865,0.23758543,-0.6431606,0.67397755,-0.18376827,1.2956858,-0.75345373,-1.7701784,-0.8455661,2.1032546,1.5293105,-0.9248575,1.244927,-0.68738973,-1.7132194,-0.86546415,2.1583428,1.4667612,-0.90647304,1.1496189,-1.4319713,-1.3024408,0.38626397,-0.9242144,0.4839604,-0.0066795344,1.1748238,-0.6440952,1.3460882,-3.4837515,-0.3198197,-0.9776588,0.13490295,-0.45937586,0.97733676,0.7893117,-0.16978233,0.10211924,0.58114773,0.21558344,-0.8747084,-0.7569137,1.0,0.0,0.0,0.0,0.0,0.0,0.0,-1.8248237,0.24409518,-0.79608816,-2.7088404,2.4740696,0.43156147,0.08325577,-0.47034025,-0.36708713,-2.9872913
7.0279007,47.331615,11.686147,8.396105,-0.068875015,-0.74591446,0.036556214,0.62151337,-0.8068605,-0.7167959,0.18350023,-0.6532007,0.65847266,-0.19008316,1.3070784,-0.76807576,-1.784899,-0.84711415,2.0930228,1.5326085,-0.9254814,1.2562376,-0.7016443,-1.7261913,-0.8617744,2.1490655,1.4715754,-0.90671813,1.1250746,-1.4236071,-1.2950588,0.36340278,-0.9299978,0.48001367,-0.030579463,1.1400108,-0.64729095,1.3355825,-3.4802685,-0.31949994,-1.0748672,0.13718033,-0.4680326,0.9696696,0.79077005,-0.16592823,0.10277475,0.580162,0.24013291,-0.85853595,-0.77637005,1.0,0.0,0.0,0.0,0.0,0.0,0.0,-1.7900108,0.24729094,-0.7855825,-2.3892164,0.7186413,0.8617163,-2.2339344,-0.86175203,-0.556165,-2.4273992
7.0638423,44.38911,10.764297,7.540925,-0.053218007,-0.79496366,0.07995185,0.61069906,-0.8068993,-0.7197076,0.1670143,-0.66117764,0.6590967,-0.1772503,1.3173075,-0.7823342,-1.798162,-0.845073,2.0829477,1.537485,-0.9244432,1.2673174,-0.7158922,-1.7390869,-0.8583669,2.139708,1.4763533,-0.90715873,1.1025785,-1.4256418,-1.2874783,0.3333796,-0.9386754,0.47634137,-0.04857116,1.105236,-0.6504836,1.3241055,-3.476789,-0.3191805,-1.1719786,0.13970566,-0.47656322,0.96176547,0.79219496,-0.16187638,0.10363518,0.57920873,0.26541013,-0.84703785,-0.8014404,1.0,0.0,0.0,0.0,0.0,0.0,0.0,-1.755236,0.2504836,-0.7741055,-2.191615,-0.31383038,0.86939335,-2.9298246,-1.1326313,-0.5479336,-1.8220544
9.738946,43.106,10.568694,5.707228,-0.13951838,-0.87010264,0.16438833,0.6190659,-0.8132306,-0.7166071,0.14930601,-0.6591172,0.6549394,-0.139716,1.329224,-0.7972152,-1.8107476,-0.8434363,2.0737963,1.5418472,-0.92113036,1.278277,-0.730224,-1.75191,-0.855298,2.130282,1.481093,-0.9077233,1.0938586,-1.4360287,-1.280145,0.29825965,-0.94488615,0.47246444,-0.05910867,1.0704918,-0.65367293,1.3116581,-3.4733129,-0.31886137,-1.2689929,0.14253235,-0.48499823,0.9535754,0.79352546,-0.15759052,0.10465867,0.5783848,0.29641846,-0.8377249,-0.83106756,1.0,0.0,0.0,0.0,0.0,0.0,0.0,-1.7204918,0.25367293,-0.76165813,-0.8473158,-1.1411905,0.84621906,-3.440082,-0.8608937,-0.5958915,-1.0591708
12.531555,43.77908,10.683113,3.480679,-0.3959188,-0.91943043,0.23517412,0.6104295,-0.8105093,-0.71954787,0.097859256,-0.6681317,0.64890003,-0.16633953,1.33932,-0.81127495,-1.8238647,-0.84551203,2.0634687,1.5459831,-0.92435724,1.289168,-0.74464834,-1.7646949,-0.8527488,2.1207833,1.4857908,-0.9083928,1.087697,-1.4448351,-1.2775398,0.24070922,-0.95221037,0.46818355,-0.06967264,1.0357857,-0.65685916,1.2982414,-3.4698403,-0.31854257,-1.3659102,0.14574051,-0.49332666,0.9450466,0.794707,-0.15300831,0.10586501,0.57777303,0.33674866,-0.82622516,-0.86624134,1.0,0.0,0.0,0.0,0.0,0.0,0.0,-1.6857857,0.25685915,-0.74824136,-0.6037235,-0.9716749,0.35119057,-5.6990504,-0.94738007,-0.6676674,-1.0696948
15.542913,44.89634,11.114136,1.5984445,-0.5493455,-0.9387332,0.32340735,0.6139499,-0.8131213,-0.72013247,0.05405308,-0.646084,0.6495936,-0.1333437,1.350563,-0.82596046,-1.8367082,-0.8473435,2.056175,1.5507503,-0.9217272,1.3000456,-0.7591499,-1.7774761,-0.850892,2.1112962,1.4904505,-0.90913093,1.0878005,-1.4522293,-1.2780441,0.16748376,-0.94855773,0.46424407,-0.07517855,1.0011139,-0.6600423,1.2838562,-3.4663713,-0.31822407,-1.4627306,0.1493988,-0.50152564,0.93614113,0.7956726,-0.14808482,0.10723853,0.5774737,0.38376448,-0.81242436,-0.9048156,1.0,0.0,0.0,0.0,0.0,0.0,0.0,-1.6511139,0.26004228,-0.73385614,0.00846386,-0.81961155,0.019311905,-7.281473,0.1737833,-0.6605208,-0.5583808
22.399244,44.463993,11.13603,-3.7438617,-1.0920485,-1.0882794,0.5054243,0.6197362,-0.81851083,-0.722552,-0.06190312,-0.6383911,0.6450911,-0.14996599,1.3620192,-0.841001,-1.8497313,-0.8570823,2.047457,1.5549597,-0.9241275,1.310969,-0.7737249,-1.7902877,-0.8501758,2.1018853,1.4950682,-0.90992534,1.093746,-1.4594759,-1.2820957,0.039734922,-0.9391591,0.4597077,-0.08092619,0.96647644,-0.6632221,1.2685034,-3.4629056,-0.31790593,-1.5594543,0.15369797,-0.509562,0.92675096,0.79630476,-0.14268948,0.10878651,0.577671,0.45140553,-0.794928,-0.95666915,1.0,0.0,0.0,0.0,0.0,0.0,0.0,-1.6164764,0.26322207,-0.7185034,0.5748272,-0.77688694,-0.40564537,-12.758553,0.81276894,-0.7944882,-0.5830109
15.834706,49.30581,12.610505,2.1654525,-0.48294842,-0.685665,0.36620575,0.6028732,-0.81570214,-0.6997498,-0.015633907,-0.6375066,0.66730535,-0.09499242,1.3712564,-0.8552951,-1.8602628,-0.85173917,2.0381346,1.5617987,-0.9194246,1.3218771,-0.78834,-1.8030326,-0.8503379,2.092566,1.4996649,-0.91072834,1.0899731,-1.4623955,-1.2718168,-0.034637496,-0.9302374,0.4587594,-0.08009442,0.9318733,-0.66639876,1.2521842,-3.4594433,-0.3175881,-1.6560812,0.15847778,-0.51738954,0.9169675,0.7966248,-0.13695695,0.11046421,0.57829857,0.49418256,-0.7721523,-0.9917744,1.0,0.0,0.0,0.0,0.0,0.0,0.0,-1.5818733,0.26639876,-0.70218414,-0.36194324,-0.35719872,1.048398,-7.399226,0.71475506,-0.35371184,0.0937596
4.492328,53.47928,13.510696,11.123723,0.46137,-0.24315627,0.10344845,0.58461475,-0.81491023,-0.6917042,0.055903938,-0.6381476,0.6759734,-0.038173355,1.3803385,-0.86983097,-1.8722031,-0.84474754,2.0287514,1.5672623,-0.91454566,1.3326517,-0.80296266,-1.815625,-0.85060686,2.0833116,1.5042692,-0.9114741,1.0735537,-1.462537,-1.2547429,-0.024014918,-0.92453337,0.4605459,-0.07271876,0.89730453,-0.66957235,1.2348993,-3.4559846,-0.31727058,-1.7526114,0.16340637,-0.52499914,0.9070021,0.7967802,-0.1311642,0.11221545,0.5790896,0.5002405,-0.75029534,-1.0042824,1.0,0.0,0.0,0.0,0.0,0.0,0.0,-1.5473045,0.26957235,-0.6848993,-1.5899658,-0.107979774,1.7976761,1.1360668,0.31095743,0.047194958,0.7604271
-6.0148535,54.787865,13.110104,17.651836,1.1502656,0.017301679,-0.11917372,0.5501406,-0.81158614,-0.6973886,0.0820279,-0.63347596,0.668604,-0.042444006,1.3876657,-0.8841213,-1.8853638,-0.84240407,2.019964,1.5711297,-0.9157185,1.3431078,-0.81756246,-1.8280895,-0.8504142,2.0741067,1.5088927,-0.9121493,1.036563,-1.4594417,-1.2430439,0.034079432,-0.92019063,0.4626584,-0.065736026,0.8627701,-0.6727426,1.2166498,-3.4525294,-0.31695336,-1.8490452,0.16819763,-0.5324328,0.89700174,0.796942,-0.12547697,0.11403112,0.5797722,0.47902322,-0.73377347,-1.0045966,1.0,0.0,0.0,0.0,0.0,0.0,0.0,-1.51277,0.2727426,-0.66664976,-3.6029577,0.19152164,1.3114214,5.923478,0.10826588,0.15689135,0.7139236
-12.998449,53.38552,11.8573,20.839432,1.4835511,0.085764766,-0.24877779,0.5175164,-0.8121451,-0.71004003,0.102423675,-0.64293087,0.657373,-0.044276465,1.3948594,-0.89877695,-1.8990935,-0.8401719,2.0098135,1.5746299,-0.916577,1.3530775,-0.8321327,-1.840533,-0.8495149,2.0649018,1.5135294,-0.9127625,0.9841809,-1.4565898,-1.2443409,0.10906472,-0.92176574,0.46372664,-0.05984538,0.82826996,-0.67590976,1.1974368,-3.4490776,-0.31663647,-1.9453825,0.17268372,-0.53975344,0.8870095,0.79723704,-0.119921476,0.115958914,0.5801599,0.44402122,-0.7243974,-1.003279,1.0,0.0,0.0,0.0,0.0,0.0,0.0,-1.4782699,0.27590975,-0.6474368,-5.109453,0.15108585,0.036740303,7.6534123,-0.5159378,0.071537495,0.59241205
2.1902304,46.165554,10.065144,8.236462,0.17362285,-0.45695817,0.12616971,0.52352947,-0.8224537,-0.7293676,-0.071897045,-0.6377857,0.63159466,-0.11744614,1.4054304,-0.91437805,-1.9134698,-0.8567046,2.0011232,1.5766889,-0.92450714,1.3626333,-0.8467268,-1.8531215,-0.84880537,2.0556931,1.5181452,-0.91337955,0.94636095,-1.4605737,-1.2632569,0.05871083,-0.92155594,0.46003813,-0.06237971,0.79380417,-0.6790738,1.1772611,-3.4456291,-0.31631988,-2.0416234,0.17718887,-0.54696965,0.876757,0.7975036,-0.11416277,0.11808184,0.5805268,0.45787972,-0.7136012,-1.038244,1.0,0.0,0.0,0.0,0.0,0.0,0.0,-1.4438041,0.2790738,-0.6272611,-3.6875367,-0.49159527,-1.8323421,-4.903403,-0.2268076,-0.59490204,-0.26522875
2.6616254,45.273113,9.583174,6.308833,-0.0867787,-0.41749328,0.20305999,0.47517905,-0.81964177,-0.72250485,-0.09539894,-0.6706193,0.65992886,-0.13006935,1.4101512,-0.92869097,-1.925372,-0.85834527,1.9886312,1.584138,-0.9263865,1.3717142,-0.86135423,-1.8658721,-0.84889406,2.0463853,1.5227419,-0.91403854,0.895539,-1.4637172,-1.2790289,-0.030993758,-0.93440354,0.4585941,-0.06719112,0.7593727,-0.6822345,1.1561238,-3.4421842,-0.31600362,-2.1377678,0.18186569,-0.55404544,0.86608666,0.79763216,-0.10802395,0.12048347,0.58103126,0.4773322,-0.6984761,-1.0823815,1.0,0.0,0.0,0.0,0.0,0.0,0.0,-1.4093727,0.28223452,-0.60612375,-4.9684405,-0.39556026,-1.5597582,-8.83158,-1.5252113,-0.41140318,-0.5057916
2.2433543,45.47547,9.5199795,5.1195707,-0.20092481,-0.3152329,0.29341823,0.42649272,-0.8169985,-0.71460885,-0.1662554,-0.67352754,0.66415435,-0.108729474,1.4143635,-0.9430541,-1.937333,-0.8655196,1.9790325,1.5891573,-0.9249115,1.3801676,-0.8759941,-1.8787086,-0.85016245,2.036944,1.5273291,-0.91472995,0.82903177,-1.4642606,-1.2852403,-0.15823321,-0.9483369,0.45757547,-0.06983147,0.7249794,-0.68539214,1.1340257,-3.4387426,-0.3156877,-2.2338164,0.18675613,-0.56093884,0.8549307,0.7975517,-0.101432666,0.12318354,0.58176327,0.49782977,-0.6786847,-1.1324054,1.0,0.0,0.0,0.0,0.0,0.0,0.0,-1.3749794,0.28539214,-0.5840257,-6.51139,-0.123906136,-0.6491661,-12.574728,-1.6371489,-0.39901137,-0.28744936
-9.922823,44.000854,7.9653177,9.282852,0.30583227,-0.019356877,0.20483236,0.32422546,-0.8168878,-0.70685655,-0.23656212,-0.687166,0.6682645,-0.11866604,1.4125901,-0.95768285,-1.9493942,-0.87381864,1.9682273,1.5941556,-0.9265966,1.3876044,-0.8906301,-1.8915279,-0.8528194,2.0273385,1.5319105,-0.91545093,0.71601444,-1.4636817,-1.2811223,-0.30077288,-0.9655939,0.45739728,-0.07288251,0.6906166,-0.68854666,1.1109678,-3.4353046,-0.31537205,-2.3297687,0.19166946,-0.5676601,0.8432665,0.7972938,-0.09435808,0.12618072,0.5826641,0.49364123,-0.6619681,-1.183614,1.0,0.0,0.0,0.0,0.0,0.0,0.0,-1.3406166,0.28854665,-0.56096774,-11.084175,-0.022935867,0.3641367,-14.035028,-2.0343304,-0.2999723,-0.3249392
-50.37658,39.35569,2.7069502,25.663528,2.2428143,0.6829704,-0.2647863,0.0889711,-0.81220776,-0.7040272,-0.2658407,-0.6888995,0.66303056,-0.11316483,1.3965014,-0.9718509,-1.9619306,-0.8794035,1.9584485,1.5982136,-0.9267674,1.3929831,-0.9052385,-1.9042671,-0.85671896,2.017569,1.536492,-0.9161948,0.47978857,-1.460541,-1.2712924,-0.4183722,-0.9823544,0.45778048,-0.07503249,0.65629196,-0.6916981,1.0869511,-3.43187,-0.31505674,-2.425625,0.19592667,-0.5743878,0.8311538,0.7971684,-0.086813346,0.12947346,0.58328605,0.4058544,-0.66820526,-1.226244,1.0,0.0,0.0,0.0,0.0,0.0,0.0,-1.3062919,0.29169807,-0.5369511,-23.219019,0.15380383,1.028657,-11.3465605,-2.2400856,-0.15012622,-0.24232417
-117.68417,28.635529,-7.5177,50.130585,5.136463,1.6995823,-0.90508056,-0.31928158,-0.80444914,-0.690912,-0.35626826,-0.71876544,0.6584766,0.027712325,1.3610549,-0.98568344,-1.9733583,-0.8923458,1.9456925,1.6023396,-0.91342354,1.3943678,-0.9197897,-1.9168403,-0.86183447,2.0075517,1.5410753,-0.9168509,0.027189316,-1.4544305,-1.2519231,-0.539924,-1.0114975,0.45783335,-0.06264568,0.62199783,-0.6948464,1.0619766,-3.428439,-0.31474176,-2.5213857,0.19834137,-0.5814743,0.8186323,0.7976876,-0.07871175,0.13312463,0.5829038,0.18806684,-0.71405315,-1.2663823,1.0,0.0,0.0,0.0,0.0,0.0,0.0,-1.2719978,0.2948464,-0.51197654,-44.53641,0.2765894,2.1760702,-11.345601,-3.9826632,-0.18042326,1.2113333
-119.24962,28.8556,-7.783988,45.800377,4.87122,1.9160485,-0.49895945,-0.49949288,-0.79225206,-0.61585385,-0.62185556,-0.70992434,0.6501257,0.31841367,1.3444185,-0.99901485,-1.9784257,-0.92402005,1.9365592,1.6060879,-0.8850095,1.390925,-0.93423307,-1.9288929,-0.8690757,1.9972967,1.5456396,-0.9171561,-0.4653485,-1.4422742,-1.1888865,-0.78211933,-1.0341473,0.4544687,-0.019535769,0.58774185,-0.6979914,1.0360452,-3.4250112,-0.31442708,-2.6170506,0.19860458,-0.58892703,0.8055948,0.7987442,-0.06985055,0.13704243,0.58167684,-0.027910562,-0.7477662,-1.3215547,1.0,0.0,0.0,0.0,0.0,0.0,0.0,-1.2377418,0.29799137,-0.48604518,-48.46456,0.8206129,6.4974546,-23.22427,-3.4999847,-0.783211,4.404863
-65.906425,68.29222,12.649828,32.05959,3.5875247,2.5234327,0.32106954,-0.48586354,-0.7575981,-0.2800793,-0.70345175,-0.6767093,0.693477,0.53477436,1.3423387,-1.0099928,-1.9569008,-0.9394209,1.9296257,1.6149874,-0.8636787,1.3836561,-0.94839704,-1.9388072,-0.8788213,1.986997,1.5502192,-0.9168643,-0.81257814,-1.4084054,-0.9266298,-1.0366532,-1.0307915,0.45841986,0.046614714,0.5535164,-0.70113325,1.0091578,-3.4215868,-0.31411272,-2.7126198,0.19727707,-0.59613204,0.79245704,0.7996771,-0.06079458,0.14060105,0.5805617,-0.17075229,-0.70331573,-1.3163462,1.0,0.0,0.0,0.0,0.0,0.0,0.0,-1.2035164,0.30113325,-0.45915776,-34.234463,3.1979084,25.935745,-24.84864,-0.32379627,0.24542809,6.965343
-33.403152,81.45613,20.356417,23.630314,2.5657606,2.2395515,0.49955475,-0.53531,-0.7383346,-0.29151374,-0.71382713,-0.6696569,0.70207876,0.55796033,1.3301251,-1.0222305,-1.9679586,-0.950204,1.9200313,1.620427,-0.86106825,1.3739401,-0.96215284,-1.946305,-0.89061445,1.976827,1.554856,-0.91592777,-1.02352,-1.3647338,-0.6926943,-1.2255795,-1.0129621,0.4657632,0.11065062,0.5193291,-0.70427203,0.9813155,-3.418166,-0.31379867,-2.8080935,0.19495392,-0.60273767,0.7795218,0.8001701,-0.051950824,0.14353855,0.5800221,-0.25702158,-0.6377517,-1.2902244,1.0,0.0,0.0,0.0,0.0,0.0,0.0,-1.169329,0.30427203,-0.43131548,-20.78352,4.3313265,22.8109,-18.519901,1.6250134,0.8100748,6.8051605
-11.571676,61.167004,14.006109,12.157171,1.0838411,0.82191646,0.45699984,-0.5325867,-0.7542586,-0.53679854,-0.7514367,-0.6473526,0.67864704,0.5802517,1.3206815,-1.0375787,-1.9999849,-0.96575814,1.9120917,1.6227206,-0.8579026,1.3631274,-0.97561777,-1.9531639,-0.9038171,1.9669126,1.5595385,-0.9144057,-1.0998901,-1.3405432,-0.68492097,-1.3508266,-0.9844882,0.4688641,0.16686343,0.48517227,-0.7074077,0.9525192,-3.4147484,-0.31348494,-2.903472,0.1922226,-0.608912,0.7664792,0.8002367,-0.042977035,0.14615953,0.58000994,-0.28349817,-0.6016132,-1.3122537,1.0,0.0,0.0,0.0,0.0,0.0,0.0,-1.1351722,0.3074077,-0.40251917,-7.4314833,2.4078846,0.39480925,-12.199593,2.7386427,0.2173543,5.8591547
-1.1950315,47.61361,9.273774,6.7699733,0.26838925,-0.029937267,0.33452776,-0.53692997,-0.75482523,-0.64089435,-0.7620902,-0.66922015,0.67820555,0.5785621,1.3094344,-1.0511003,-2.0172534,-0.9800261,1.8999906,1.627359,-0.8565495,1.3521696,-0.9889511,-1.9610546,-0.9177875,1.957189,1.5642401,-0.9123982,-1.0939977,-1.3310277,-0.82451993,-1.4114228,-0.96897596,0.46983495,0.21236691,0.4510498,-0.7105403,0.9227698,-3.4113343,-0.3131715,-2.998755,0.18946457,-0.6148865,0.7529745,0.79997146,-0.033485025,0.14884134,0.5803193,-0.27991012,-0.58638996,-1.3659525,1.0,0.0,0.0,0.0,0.0,0.0,0.0,-1.1010498,0.3105403,-0.37276977,0.7273197,0.9369135,-14.115227,-5.770588,1.3854027,-0.12494922,4.642728
-7.4863014,44.759453,7.1104755,9.860923,0.5160218,-0.087145746,0.11357855,-0.58423984,-0.74150467,-0.6839968,-0.7523446,-0.68685,0.691278,0.5652594,1.2937456,-1.0631015,-2.0294542,-0.99302197,1.8885039,1.6333679,-0.8558723,1.3413359,-1.0022053,-1.9707057,-0.9319467,1.9475092,1.5689532,-0.9100112,-1.0793943,-1.3237027,-1.0119,-1.4164706,-0.96853626,0.4708981,0.24766812,0.41696167,-0.71366954,0.89206827,-3.4079237,-0.3128584,-3.0939426,0.18664551,-0.6207938,0.7389081,0.7995201,-0.023359032,0.15179582,0.58067197,-0.28794274,-0.582012,-1.4229895,1.0,0.0,0.0,0.0,0.0,0.0,0.0,-1.0669616,0.31366953,-0.34206825,1.5880346,0.68478584,-18.742525,-0.20358562,-0.20816326,-0.17446876,3.559965
-20.211529,44.07077,5.8059664,15.03731,1.3130261,0.2055096,-0.059773564,-0.6415229,-0.74501824,-0.7105333,-0.75698876,-0.64216006,0.68365014,0.53074425,1.2771837,-1.0767071,-2.041759,-1.0076456,1.8832932,1.6373181,-0.85693675,1.3304201,-1.0154403,-1.9820793,-0.9459743,1.9379209,1.5736662,-0.9073466,-1.095339,-1.3237679,-1.1788291,-1.3968858,-0.95653665,0.47038025,0.27299324,0.38290787,-0.7167959,0.8604156,-3.4045165,-0.3125456,-3.189035,0.18351746,-0.6267154,0.72431666,0.79902846,-0.012637587,0.15493564,0.5808517,-0.32646823,-0.5849371,-1.4742843,1.0,0.0,0.0,0.0,0.0,0.0,0.0,-1.0329078,0.31679592,-0.31041557,-1.4485121,-0.1124382,-16.60719,2.3263693,0.8494258,-0.38910508,2.591592
-31.178947,48.26929,6.573741,20.08892,2.104566,0.67575365,-0.17378457,-0.69036555,-0.74284333,-0.7295184,-0.74737555,-0.6098134,0.6787451,0.51729923,1.2613835,-1.0897247,-2.055031,-1.0207119,1.8769395,1.6415408,-0.8556167,1.3190829,-1.0286888,-1.994746,-0.9597091,1.9285387,1.5783697,-0.9044751,-1.1460847,-1.3256737,-1.2955999,-1.3642436,-0.93340415,0.4691621,0.29222184,0.3488884,-0.71991897,0.8278127,-3.4011126,-0.31223312,-3.2840323,0.1797905,-0.63266087,0.70932955,0.7986041,-0.0014610175,0.15805027,0.5807318,-0.39370143,-0.58662564,-1.5102552,1.0,0.0,0.0,0.0,0.0,0.0,0.0,-0.9988884,0.31991896,-0.27781266,-4.9218655,-0.33905506,-11.552143,3.6762714,1.9044638,-0.4655838,2.037686
-34.26646,51.063995,7.8841286,21.421581,2.5194123,0.99294746,-0.1815009,-0.71998066,-0.7521114,-0.74744785,-0.74494606,-0.5573027,0.6631263,0.4784552,1.2470847,-1.1039,-2.0694907,-1.0342038,1.8728085,1.6446824,-0.85662955,1.30712,-1.042004,-2.0082133,-0.9731397,1.9195265,1.5830504,-0.90146625,-1.2125324,-1.334186,-1.3634573,-1.3344784,-0.8917382,0.46643227,0.3043776,0.31490326,-0.7230389,0.7942605,-3.3977122,-0.31192094,-3.3789349,0.17531586,-0.6385951,0.69405943,0.79828763,0.010032368,0.16088296,0.580304,-0.4734604,-0.58413243,-1.5361339,1.0,0.0,0.0,0.0,0.0,0.0,0.0,-0.96490324,0.3230389,-0.24426049,-6.4982176,-1.014018,-6.6779613,3.4098864,3.7670732,-0.6130338,1.3978481
-34.801613,55.10302,9.616298,21.896135,2.7405698,1.2576115,-0.18313794,-0.755564,-0.7517907,-0.7669604,-0.73615193,-0.50274837,0.6511483,0.43291345,1.2315636,-1.1171831,-2.0849094,-1.0467548,1.8692516,1.6481652,-0.8581749,1.2944361,-1.0554012,-2.022114,-0.98630804,1.9110521,1.5876948,-0.8983897,-1.2865913,-1.3420242,-1.3984408,-1.309499,-0.8337913,0.4628035,0.30958527,0.28095245,-0.72615576,0.75976,-3.3943152,-0.3116091,-3.4737422,0.16999817,-0.64446497,0.6786035,0.7980986,0.021729382,0.16322705,0.5795889,-0.55856496,-0.57538635,-1.5519954,1.0,0.0,0.0,0.0,0.0,0.0,0.0,-0.9309524,0.32615575,-0.20976001,-7.2717667,-0.9459019,-3.409958,2.927804,5.418837,-0.6875038,0.7507801
-32.25336,55.913074,10.669041,20.801067,2.8009534,1.3631684,-0.1699079,-0.78217983,-0.76780105,-0.7758941,-0.71966124,-0.43672416,0.62925565,0.36779696,1.2162181,-1.1321813,-2.0997036,-1.0582741,1.8673797,1.6506203,-0.86161,1.2810503,-1.0689319,-2.036198,-0.9992294,1.9032816,1.5922896,-0.8953208,-1.3555324,-1.3574277,-1.4113413,-1.2849065,-0.7592449,0.45745936,0.3068275,0.24703217,-0.7292695,0.7243122,-3.3909216,-0.31129754,-3.568455,0.16383743,-0.65022755,0.663017,0.79805,0.033545528,0.16490154,0.5786176,-0.642346,-0.56339943,-1.5640069,1.0,0.0,0.0,0.0,0.0,0.0,0.0,-0.89703214,0.3292695,-0.17431217,-6.77433,-1.6919613,-1.237011,2.8845072,7.135546,-0.84463954,-0.0017285347
-27.887215,59.90497,12.906457,19.853046,2.9187522,1.4704657,-0.17072065,-0.80385137,-0.7655966,-0.78176945,-0.70483416,-0.2867284,0.60379195,0.2714901,1.2006652,-1.1454916,-2.1143749,-1.0697128,1.8746088,1.6526687,-0.86817175,1.2670618,-1.0825847,-2.0503237,-1.0119075,1.8965963,1.5968195,-0.89235675,-1.4130225,-1.3683339,-1.413025,-1.2607311,-0.6391,0.45046,0.2939373,0.21315002,-0.73238015,0.68791795,-3.3875313,-0.3109863,-3.663073,0.15684891,-0.65584683,0.6473785,0.7981743,0.04539332,0.16568068,0.5774141,-0.7230073,-0.54769874,-1.5666081,1.0,0.0,0.0,0.0,0.0,0.0,0.0,-0.86315,0.33238015,-0.13791794,-5.653119,-1.217413,-0.14321804,2.79212,11.763954,-0.97260475,-0.9731293
-24.072681,63.00612,14.926338,19.723972,3.5473928,1.4733367,-0.25095218,-0.813734,-0.7656224,-0.79690987,-0.6784679,0.09833452,0.5524647,0.03350592,1.1856884,-1.159147,-2.1300147,-1.0797542,1.9064298,1.652066,-0.88900614,1.252586,-1.0962553,-2.0649269,-1.0245347,1.8929626,1.6007661,-0.89000106,-1.4675086,-1.3561693,-1.561744,-1.3122264,-0.13542987,0.23933586,0.18945417,0.18528366,-0.7348907,0.66129994,-1.6729761,-0.023744863,-0.12089494,0.14896393,-0.66153574,0.63167703,0.79876643,0.057587594,0.16473772,0.5757754,-0.8177594,-0.59720355,-1.6002597,0.0,1.0,0.0,0.0,0.0,0.0,0.0,-0.83528364,0.3348907,-0.11129993,-6.8912506,2.930951,-29.244328,-13.12573,75.04086,-41.35435,-16.925526
21.05744,176.0,110.0,110.0,11.132802,11.916041,-2.3783998,-0.71165943,0.46246004,0.7140217,0.45017108,0.048141085,0.68753695,-0.4052684,1.1814201,-1.0500093,-1.9935247,-0.9795176,1.8977767,1.6695198,-0.9305279,1.2406441,-1.1130171,-2.06894,-1.0232186,1.8839198,1.610072,-0.8863828,-1.0849408,-1.6762148,-0.21704127,0.5545907,-0.9684224,1.2345843,0.43563077,0.16856384,-0.7351279,0.6593554,-1.6713035,-0.023721123,-0.21896002,0.13930511,-0.66645527,0.6206216,0.8005733,0.060677547,0.16333118,0.57334423,-1.0221967,-0.44018695,-0.9446568,0.0,1.0,0.0,0.0,0.0,0.0,0.0,-0.8185638,0.33512792,-0.10935539,43.719337,0.0,73.746,169.19461,-25.680637,121.56837,29.542225
-33.949966,176.0,74.26088,86.58605,10.988712,5.51463,-2.3579395,-0.7693186,-0.73933804,0.39707133,0.6570803,0.0001106033,0.60358626,-0.43367875,1.1637123,-1.1869509,-2.0292327,-0.9575106,1.8839309,1.6704307,-0.9297507,1.2299858,-1.1297789,-2.065152,-1.0111985,1.8747588,1.622443,-0.8825643,-1.0582836,-1.6762149,0.5790091,1.4185971,-0.9003762,1.2418011,0.36708182,0.1518631,-0.7353649,0.65643096,-1.6696326,-0.023697406,-0.31692705,0.12764359,-0.6708548,0.61453813,0.80423814,0.056675408,0.16085653,0.5693101,-1.2156545,-0.4286859,-0.4987854,0.0,1.0,0.0,0.0,0.0,0.0,0.0,-0.8018631,0.3353649,-0.10643095,3.0636072,4.7683716e-05,80.14118,86.676155,6.318748,1.891017,-5.883312
-60.610912,129.31612,28.187569,55.61697,5.7936,2.1757855,-1.8230594,-0.77018917,-0.66256243,-0.27371353,0.55375814,-0.25107765,0.6627034,-0.4121165,1.152967,-1.1960351,-2.0925233,-0.9558227,1.8496511,1.6887133,-0.923776,1.218948,-1.1452551,-2.0595977,-0.9947305,1.8669025,1.634402,-0.8795669,-1.1176268,-1.5051755,0.5467294,1.7250829,-0.7474309,1.1820136,0.27813783,0.13518143,-0.73560166,0.6525276,-1.6679633,-0.023673713,-0.4147961,0.1144371,-0.67525434,0.6107063,0.809432,0.050811812,0.15822604,0.56320727,-1.358808,-0.43504745,-0.3500885,0.0,1.0,0.0,0.0,0.0,0.0,0.0,-0.7851814,0.33560166,-0.10252756,-5.5299044,16.945934,-3.3842206,31.300402,15.310097,-5.545759,-8.665651
-35.992714,138.14145,37.46255,38.716454,4.184359,2.7303085,-0.9021375,-0.78437936,-0.65034014,0.5124152,0.69629484,-0.29840547,0.6177748,-0.40334928,1.1405101,-1.2102891,-2.008356,-0.925101,1.8370619,1.6961795,-0.91990185,1.206905,-1.158967,-2.0527122,-0.97735643,1.8604289,1.6454036,-0.87747645,-1.2327136,-1.327439,0.73620826,1.7425923,-0.6158819,1.0742073,0.18640788,0.118515015,-0.7358382,0.6476463,-1.6662956,-0.023650045,-0.51256734,0.10025787,-0.6792362,0.6084121,0.8154532,0.04422944,0.1554598,0.55579853,-1.4403367,-0.37661523,-0.19598174,0.0,1.0,0.0,0.0,0.0,0.0,0.0,-0.768515,0.33583817,-0.097646296,-11.29849,17.521572,19.1378,2.062583,12.590599,-10.408235,-9.054756
-17.990175,104.339905,26.59642,17.99215,1.7069383,1.777559,-0.21754593,-0.78510684,-0.63823533,0.44372937,0.62739164,-0.27576813,0.66109943,-0.41759333,1.1283944,-1.2227906,-2.0083392,-0.9146173,1.8328521,1.7115135,-0.91923577,1.1937977,-1.1711798,-2.044728,-0.961308,1.8550731,1.6554039,-0.8762338,-1.3368114,-1.1863664,0.81934786,1.5593417,-0.5099012,0.97644347,0.103627056,0.10186386,-0.73607445,0.641788,-1.6646297,-0.023626398,-0.6102409,0.08572006,-0.68258023,0.6069184,0.8217001,0.03759297,0.1524642,0.54785967,-1.4633379,-0.310373,-0.1401458,0.0,1.0,0.0,0.0,0.0,0.0,0.0,-0.75186384,0.33607444,-0.091787994,-10.383916,13.931203,8.346617,-18.214725,10.224676,-9.409035,-8.284799
-3.4963436,97.248146,25.246017,10.207633,0.8140423,1.2903404,0.0474355,-0.78260773,-0.5504756,0.42819712,0.6146303,-0.13543199,0.6389624,-0.41463986,1.1155369,-1.2262273,-2.0019083,-0.899845,1.8415298,1.7193,-0.9176978,1.179915,-1.1820126,-2.0365725,-0.9475374,1.8507758,1.6639098,-0.8753959,-1.4055287,-1.0495802,0.81590915,1.3175312,-0.4001237,0.81639016,0.07247558,0.08330536,-0.7353265,0.6425328,-1.8834547,0.09899021,0.24673156,0.07129669,-0.6853621,0.60569435,0.8277738,0.031722743,0.14932667,0.53989404,-1.4418975,-0.25674534,-0.12094439,0.0,1.0,0.0,0.0,0.0,0.0,0.0,-0.73330534,0.33532652,-0.09253281,-6.8987846,13.284016,2.6433825,-22.308016,11.965948,-8.157182,-7.1824713
-0.60135984,145.80838,38.99999,21.263168,0.80730784,1.7834194,-0.24006325,-0.7883131,-0.256203,0.3951243,0.70689,-0.27135652,0.64380974,-0.4216037,1.1010836,-1.2076329,-1.9970601,-0.8768484,1.8236402,1.7282908,-0.9175563,1.1656022,-1.1905136,-2.0286493,-0.9352541,1.847066,1.6715316,-0.8751174,-1.4398717,-0.7844222,0.7850641,1.1992013,-0.36241361,0.7457491,0.0123995375,0.06448746,-0.73433733,0.64425385,-1.8815717,0.09889124,0.14723374,0.057113647,-0.6873503,0.6053966,0.8337442,0.026014978,0.14684331,0.5316302,-1.4147364,-0.16973312,-0.0037179075,0.0,1.0,0.0,0.0,0.0,0.0,0.0,-0.71448743,0.33433732,-0.09425384,-3.4761906,26.29391,-2.9069066,-11.669755,3.3975601,-6.5588713,-6.1607275
-2.454712,140.41972,36.886665,23.516874,0.9849242,1.5348806,-0.37473977,-0.7935537,-0.22665405,0.37041715,0.72026795,-0.28590283,0.6459792,-0.4065876,1.0862468,-1.213179,-1.9916077,-0.8632273,1.8184757,1.7361295,-0.9157762,1.1511273,-1.1965866,-2.0211916,-0.9234896,1.8434707,1.6785983,-0.8753835,-1.4500865,-0.54892254,0.7331952,1.1695853,-0.3598445,0.6949403,-0.039915945,0.045684814,-0.7333491,0.64498067,-1.8796905,0.098792374,0.04783538,0.043144226,-0.6885679,0.60623616,0.8396951,0.02019157,0.14543062,0.5228329,-1.3937775,-0.0963265,0.10971556,0.0,1.0,0.0,0.0,0.0,0.0,0.0,-0.6956848,0.33334908,-0.09498066,-1.0369539,23.345768,-4.96825,-2.7352333,-0.08826852,-4.705584,-5.328413
-5.2738495,130.87411,33.12405,24.015867,1.022254,1.2421169,-0.42978916,-0.7977882,-0.1448959,0.30839384,0.72076756,-0.29724264,0.643414,-0.38218132,1.0713485,-1.2110761,-1.9903522,-0.85141283,1.8137465,1.7429397,-0.91360164,1.1366423,-1.2005278,-2.0145864,-0.9116568,1.8400487,1.6851944,-0.8761368,-1.4480166,-0.34286177,0.63464457,1.1875653,-0.33394378,0.6469978,-0.087092854,0.028331757,-0.73173213,0.64677393,-1.6761158,0.18981332,0.28495055,0.029304504,-0.6891787,0.6080679,0.8456984,0.014335013,0.14508599,0.51336014,-1.3834592,-0.04043081,0.2043093,0.0,1.0,0.0,0.0,0.0,0.0,0.0,-0.67833173,0.33173212,-0.09677392,0.20747185,20.364952,-8.733678,2.1131992,-2.3125172,-4.4985414,-3.7326427
-4.65722,133.57118,35.517303,24.983488,1.9708159,1.3734541,-0.4240765,-0.809307,-0.03321978,0.3785324,0.7012268,0.0057525947,0.6372141,-0.42674938,1.0557116,-1.2038498,-1.9767332,-0.84153414,1.840624,1.7489158,-0.91881174,1.1221675,-1.2025248,-2.0084677,-0.89959687,1.8375562,1.6913544,-0.8772834,-1.4474616,-0.15270673,0.6055489,1.2128096,-0.22231798,0.60570127,-0.12384525,0.0118637085,-0.7295654,0.65039253,-1.6372303,0.22686276,0.38805497,0.015457153,-0.68923044,0.6109723,0.8517868,0.008248832,0.1452839,0.5032731,-1.3867716,0.016199535,0.31678507,0.0,1.0,0.0,0.0,0.0,0.0,0.0,-0.6618637,0.32956538,-0.10039252,0.034356117,18.797651,-2.5471807,2.7475357,10.744223,-4.05643,-3.689599
-4.146667,103.64881,28.098513,19.421171,2.4931543,1.0492208,-0.31207803,-0.81275874,-0.07343364,0.41656137,0.67946947,0.26490125,0.6438412,-0.47617078,1.0408916,-1.2098682,-1.9668115,-0.8316499,1.8640463,1.7557385,-0.9249005,1.1076834,-1.2033659,-2.0022223,-0.88740224,1.8368946,1.6971633,-0.87878066,-1.4486332,-0.061908554,0.63208264,1.2221822,-0.015365165,0.5721191,-0.15818569,-0.004333496,-0.7270992,0.65466017,-1.6143484,0.25433105,0.4400381,0.0014190674,-0.68885326,0.61467665,0.85798335,0.0017882525,0.14510326,0.49275374,-1.4099728,0.054904148,0.386193,0.0,1.0,0.0,0.0,0.0,0.0,0.0,-0.6456665,0.32709917,-0.10466015,-0.13356209,8.915906,3.0062556,1.0876656,20.325596,-3.4298062,-3.3976138
-4.935069,97.21397,25.938295,17.983774,2.4615402,1.0061691,-0.26916552,-0.81974626,0.008188301,0.38814205,0.67304695,0.34983367,0.65173787,-0.49777275,1.0257088,-1.2025471,-1.9634081,-0.82009757,1.871878,1.7623371,-0.92855793,1.0931532,-1.2034289,-1.9957136,-0.87520295,1.8383573,1.7026911,-0.8805963,-1.4545405,0.011949712,0.65825,1.2196217,0.19925547,0.545808,-0.18924594,-0.020336151,-0.7243655,0.65934664,-1.5950737,0.2810845,0.47918475,-0.012874603,-0.6880901,0.6189761,0.86426544,-0.0050600083,0.14420514,0.48189682,-1.4359512,0.09416818,0.44256803,0.0,1.0,0.0,0.0,0.0,0.0,0.0,-0.6296638,0.32436547,-0.10934663,-0.6100416,7.235758,2.9580832,-0.12645721,21.146103,-2.7143836,-3.0797958
-4.169,97.23205,25.290367,17.425266,2.0618575,0.9760977,-0.2467061,-0.8146077,0.07737044,0.3671749,0.690377,0.3465367,0.65693694,-0.50759846,1.0116925,-1.1956918,-1.958996,-0.8061653,1.873011,1.7683848,-0.93135613,1.0785906,-1.2027308,-1.9890757,-0.86298335,1.8415772,1.7079996,-0.8826951,-1.456965,0.08855016,0.66689765,1.2231722,0.36212683,0.52542824,-0.21670629,-0.036128998,-0.72135067,0.66442335,-1.573524,0.30980673,0.51845634,-0.027359009,-0.6869042,0.6238035,0.87056834,-0.012262026,0.14279957,0.47071072,-1.4528815,0.1380591,0.4939926,0.0,1.0,0.0,0.0,0.0,0.0,0.0,-0.613871,0.32135066,-0.114423335,-0.26772022,7.5069337,1.218009,0.48043728,15.99865,-2.09769,-2.7424037
-8.041718,92.22209,21.99977,17.17769,1.5756676,0.85036844,-0.23842989,-0.82758117,0.12365236,0.29311296,0.6898817,0.35128978,0.65446854,-0.5017313,0.9958325,-1.1903656,-1.9597644,-0.7939952,1.8767061,1.7734464,-0.9328682,1.0639536,-1.2012526,-1.9827675,-0.8507304,1.8459946,1.7131377,-0.8850322,-1.4659095,0.16694371,0.6196906,1.2263802,0.4678514,0.5096424,-0.23930143,-0.051712036,-0.7180555,0.66979873,-1.5532106,0.3377525,0.5450132,-0.041973114,-0.6852834,0.62901694,0.87683254,-0.01961938,0.14128785,0.4591486,-1.4644356,0.18187965,0.5281754,0.0,1.0,0.0,0.0,0.0,0.0,0.0,-0.59828794,0.31805548,-0.11979872,-0.9229183,7.700503,-4.4484735,0.4356861,10.380769,-1.5920758,-2.2634625
-4.933535,111.34224,27.42372,19.213366,1.2534332,1.1016798,-0.22251603,-0.8258944,0.23734957,0.3229926,0.70561874,0.3078712,0.65911996,-0.5132558,0.9813642,-1.1775177,-1.9504682,-0.78016853,1.8767817,1.7790498,-0.93635774,1.0492442,-1.1986606,-1.9768313,-0.8383797,1.8509909,1.7181392,-0.8875754,-1.4728996,0.28924534,0.58649343,1.2383648,0.5093441,0.49650863,-0.2593812,-0.06700897,-0.7144022,0.675728,-1.5216411,0.3763004,0.6100247,-0.05657196,-0.68309784,0.63480043,0.882975,-0.027177168,0.14012589,0.44719276,-1.4585621,0.24312533,0.5929338,0.0,1.0,0.0,0.0,0.0,0.0,0.0,-0.582991,0.3144022,-0.12572801,-0.75166225,12.0330925,-2.8869748,1.336813,3.840053,-1.347357,-2.0462484
-3.975473,101.86048,24.181652,16.719948,0.8146415,0.93439853,-0.15470476,-0.82840216,0.24429826,0.28070292,0.7003162,0.29074386,0.66404265,-0.5163592,0.96640396,-1.1742308,-1.948761,-0.76834804,1.8800653,1.7845434,-0.9392113,1.0344718,-1.1950176,-1.971332,-0.8259436,1.8560939,1.7230365,-0.89029866,-1.4789975,0.3886981,0.5389905,1.2456608,0.50981975,0.48706463,-0.27671644,-0.08199692,-0.7103815,0.6821761,-1.4911454,0.41263932,0.6579055,-0.071063995,-0.6803293,0.64107966,0.88892955,-0.034853913,0.1395336,0.4348789,-1.4443488,0.30074632,0.6375111,0.0,1.0,0.0,0.0,0.0,0.0,0.0,-0.56800306,0.3103815,-0.1321761,-0.67653656,9.764004,-4.322529,0.8183241,-0.25162697,-0.9517908,-1.7851949
-0.43697625,110.227356,26.909039,16.803087,0.6518062,1.0376918,-0.10281541,-0.82872134,0.32295266,0.31067544,0.70961183,0.24481945,0.66253483,-0.50904495,0.9515996,-1.1627223,-1.9402645,-0.7549824,1.8805758,1.78929,-0.9412032,1.0196538,-1.1903046,-1.9660691,-0.81341887,1.8609505,1.7278484,-0.8931693,-1.4829671,0.49802116,0.5238355,1.255013,0.4762664,0.4787533,-0.29065523,-0.096637726,-0.7059524,0.6892393,-1.4547842,0.45509282,0.7239934,-0.08534241,-0.67692494,0.6479111,0.89463294,-0.042700235,0.13963811,0.4222675,-1.4188507,0.36663693,0.69635445,0.0,1.0,0.0,0.0,0.0,0.0,0.0,-0.55336225,0.3059524,-0.13923931,-0.48458576,10.718161,-0.9391904,1.0200739,-3.779024,-0.8736253,-1.4685214
-2.1809802,104.39806,24.23421,16.06897,0.49915662,0.86697483,-0.09345803,-0.83659047,0.37158662,0.22598526,0.7095262,0.26247397,0.6430808,-0.51184976,0.93599474,-1.153146,-1.9434706,-0.7424663,1.8871979,1.7921565,-0.94435424,1.0047765,-1.1845464,-1.9612389,-0.800823,1.8654954,1.732576,-0.8961632,-1.4897466,0.60105336,0.47111872,1.2612481,0.44621423,0.47035453,-0.30241835,-0.110939026,-0.70111537,0.6968588,-1.4209068,0.4954834,0.77652186,-0.09935379,-0.6729021,0.65522575,0.9000664,-0.050608583,0.1405086,0.4093611,-1.3924128,0.42730287,0.74131244,0.0,1.0,0.0,0.0,0.0,0.0,0.0,-0.53906095,0.30111536,-0.14685881,-0.77404976,10.1026535,-4.7407446,0.68109035,-3.3908248,-0.88680387,-1.2479544
-0.8566597,98.10503,22.486448,14.451001,0.43175438,0.74784064,-0.05504195,-0.83654654,0.39966628,0.22079717,0.7108036,0.25474563,0.63187444,-0.5088544,0.92112184,-1.1445798,-1.9391592,-0.7297426,1.89097,1.7957635,-0.94704866,0.98984194,-1.1779069,-1.9568932,-0.7881828,1.8697633,1.7372228,-0.8992578,-1.4950181,0.68427527,0.42408094,1.2648991,0.41908523,0.46222645,-0.31202614,-0.12491226,-0.6958864,0.70492274,-1.3885218,0.53432935,0.8183146,-0.113098145,-0.66830564,0.6629102,0.9052194,-0.058505718,0.14207034,0.39619544,-1.3643581,0.48364517,0.77566165,0.0,1.0,0.0,0.0,0.0,0.0,0.0,-0.5250877,0.29588637,-0.15492272,-0.63352585,8.133173,-4.149431,0.38006306,-3.1178117,-0.876379,-1.0439694
-5.8971276,75.72683,14.643008,12.138078,0.20104387,0.3326416,-0.06415586,-0.8460943,0.3987297,0.063309364,0.70887417,0.27273014,0.6052889,-0.50034285,0.9052325,-1.1380339,-1.9505622,-0.7172954,1.8970363,1.7977517,-0.94929206,0.9748263,-1.1707106,-1.9536401,-0.7755329,1.8738606,1.741789,-0.9024306,-1.5040992,0.7308932,0.29343596,1.2647862,0.40637815,0.45453238,-0.31923142,-0.13863754,-0.69035935,0.7130553,-1.3659747,0.56112427,0.81405264,-0.12662506,-0.66329336,0.67061526,0.9101257,-0.06605476,0.14429383,0.3827364,-1.3440998,0.5201512,0.76703024,0.0,1.0,0.0,0.0,0.0,0.0,0.0,-0.51136243,0.29035935,-0.1630553,-1.0040045,4.5377016,-12.745392,-0.069618225,-1.4403462,-0.7998526,-0.79336166
-2.6546865,64.83584,12.408813,9.4780035,0.19860184,0.17989486,-0.019720897,-0.8365596,0.38733023,0.077195756,0.7128784,0.2748075,0.6052109,-0.4982967,0.8911703,-1.1319776,-1.9459206,-0.7042451,1.9013413,1.8023101,-0.95226026,0.9597792,-1.1633329,-1.9514952,-0.7628774,1.877887,1.7462906,-0.9056655,-1.50523,0.739753,0.18930577,1.2652898,0.40096122,0.44850126,-0.32519314,-0.15215683,-0.68459654,0.7210177,-1.3463268,0.5832839,0.79310316,-0.13996887,-0.65798044,0.67812073,0.9147978,-0.07316809,0.14698026,0.36903667,-1.3250027,0.54804885,0.7436433,0.0,1.0,0.0,0.0,0.0,0.0,0.0,-0.49784315,0.28459653,-0.1710177,-0.20956993,0.78651905,-10.076941,-0.06854534,-0.74759126,-0.6148517,-0.69701076
-6.8926463,43.149033,5.353383,7.3949785,-0.01098007,-0.20692486,-0.037061695,-0.8414527,0.35582447,-0.09750442,0.7176997,0.27770025,0.5743063,-0.48901528,0.87563396,-1.1277505,-1.9612457,-0.69110745,1.905657,1.8037212,-0.9545671,0.9447207,-1.1561575,-1.95092,-0.7501941,1.881889,1.7507278,-0.9089453,-1.5062811,0.7099824,0.01362726,1.2686783,0.40031484,0.44258317,-0.32926863,-0.16555023,-0.67870426,0.7284463,-1.3362554,0.59225637,0.72966635,-0.15319061,-0.6525407,0.68510073,0.9192789,-0.07956494,0.15007184,0.3550691,-1.3149041,0.55541277,0.68155634,0.0,1.0,0.0,0.0,0.0,0.0,0.0,-0.48444974,0.27870426,-0.1784463,-0.17213821,-3.013897,-17.48505,0.17054081,-0.072169304,-0.46066642,-0.5145669
-7.937584,30.405308,2.044237,6.083691,0.01701507,-0.39081722,-0.03993107,-0.8384646,0.31101313,-0.1667214,0.7290843,0.2816717,0.56558084,-0.4731534,0.86087424,-1.1250561,-1.9675921,-0.6772857,1.9100561,1.8072859,-0.9562607,0.92967546,-1.1495352,-1.9521323,-0.7374227,1.8859029,1.7551124,-0.9122479,-1.5040839,0.6461194,-0.16650178,1.2792664,0.40225837,0.43752953,-0.33095396,-0.17889023,-0.6727767,0.73507804,-1.3320405,0.59395343,0.6449661,-0.16636658,-0.6471083,0.691322,0.9236071,-0.085086055,0.15347093,0.3408178,-1.3128134,0.55155176,0.60145485,0.0,1.0,0.0,0.0,0.0,0.0,0.0,-0.47110975,0.2727767,-0.18507802,0.18126965,-6.3933015,-18.028753,0.885272,0.26709437,-0.3533721,-0.2750516
-10.538678,8.5311165,-4.177287,3.5539865,-0.26124042,-0.70581615,-0.026520368,-0.83411956,0.2221913,-0.31711283,0.740999,0.21801889,0.55039585,-0.43983856,0.8462635,-1.127316,-1.9838437,-0.6633228,1.9077048,1.810152,-0.9562318,0.914678,-1.1439123,-1.9554492,-0.7244947,1.8897557,1.759444,-0.91553617,-1.4981545,0.5343567,-0.38761497,1.2968388,0.380617,0.43271917,-0.32844025,-0.1921997,-0.6668415,0.74077547,-1.3307089,0.5933596,0.5446764,-0.17958069,-0.64185953,0.6964677,0.9278169,-0.08946768,0.15716653,0.32626647,-1.3186052,0.5281217,0.48537353,0.0,1.0,0.0,0.0,0.0,0.0,0.0,-0.45780027,0.2668415,-0.19077545,0.6151676,-11.126494,-22.390795,1.608038,-1.8703699,-0.23937821,0.16439557
-13.632574,-17.885883,-10.956575,0.5257573,-0.47281572,-1.0159135,0.0029886477,-0.83076614,0.08442547,-0.434976,0.75912374,0.12778212,0.5003887,-0.37452647,0.8316014,-1.1354698,-1.9989468,-0.64858234,1.9025339,1.8094828,-0.9529888,0.89975774,-1.139905,-1.9610759,-0.7113235,1.8931336,1.7637012,-0.9187453,-1.4896351,0.35652262,-0.6230729,1.3236557,0.3252704,0.42459837,-0.3185218,-0.20549393,-0.6609125,0.7454707,-1.3293784,0.59276634,0.44448695,-0.19295502,-0.6370046,0.7001438,0.93194467,-0.09241011,0.16111305,0.31141934,-1.3374593,0.48316765,0.3287242,0.0,1.0,0.0,0.0,0.0,0.0,0.0,-0.44450605,0.2609125,-0.19547069,0.97031593,-17.665762,-24.152863,2.6325226,-4.9697933,-0.47786832,0.9598911
-11.9874325,-6.4291754,-7.6161127,1.7372847,-0.6668593,-0.84893703,0.07073668,-0.8313577,0.061377045,-0.48994607,0.7656375,-0.039443653,0.47494158,-0.3231637,0.81662196,-1.1337672,-2.0100706,-0.6347597,1.8891892,1.8111954,-0.95106167,0.8849071,-1.1375246,-1.968753,-0.697891,1.8954816,1.7678611,-0.921819,-1.4832401,0.19873059,-0.8173679,1.349788,0.20596632,0.41389453,-0.30386105,-0.21878052,-0.65498924,0.7491732,-1.3280493,0.5921737,0.34552088,-0.20642471,-0.6325221,0.70240784,0.935941,-0.09389554,0.16549827,0.29632467,-1.3453834,0.4482743,0.1932698,0.0,1.0,0.0,0.0,0.0,0.0,0.0,-0.43121946,0.25498924,-0.19917321,0.74965954,-15.714401,-19.853699,2.636838,-11.524606,-0.81824064,1.4146566
-7.949024,10.55913,-2.4563954,3.1552954,-0.6234394,-0.61787087,0.15986717,-0.82539636,0.012770139,-0.5124292,0.77294976,-0.14833063,0.4608336,-0.22302346,0.8023675,-1.1362476,-2.019996,-0.62059605,1.8806485,1.8139445,-0.9441213,0.8701252,-1.136529,-1.9778548,-0.6842277,1.8963971,1.7719047,-0.9246819,-1.4763356,0.0664826,-0.94158506,1.3720406,0.053622168,0.4017595,-0.28076723,-0.23205185,-0.64907193,0.7518869,-1.3267214,0.59158164,0.24665375,-0.2198906,-0.62828183,0.70353985,0.93971866,-0.09412754,0.17043638,0.2811055,-1.3418655,0.4274844,0.087894306,0.0,1.0,0.0,0.0,0.0,0.0,0.0,-0.41794813,0.24907193,-0.20188689,0.7494688,-13.221544,-12.520194,2.2554636,-15.1097145,-1.0709882,2.2114635
-4.0256624,24.309544,1.4220114,3.7742074,-0.7023538,-0.45593083,0.27316296,-0.8223979,-0.038322847,-0.55393213,0.76704603,-0.2871516,0.44125298,-0.10114458,0.78788537,-1.1403613,-2.033248,-0.6075231,1.867682,1.81603,-0.93479633,0.8554052,-1.1366701,-1.9878417,-0.6704395,1.895575,1.7758205,-0.92723966,-1.4705743,-0.041201815,-1.0170957,1.3811282,-0.12796155,0.38841346,-0.24794738,-0.24530792,-0.6431606,0.75361264,-1.325395,0.5909902,0.14788547,-0.23322678,-0.62417555,0.7037811,0.94319046,-0.09326865,0.17600921,0.2659201,-1.3254954,0.41640088,0.004439184,0.0,1.0,0.0,0.0,0.0,0.0,0.0,-0.40469205,0.24316058,-0.20361263,0.5772352,-10.8097,-7.3634744,0.9064436,-18.291962,-1.2563169,3.1294494
-4.3343377,16.396421,0.21297288,2.5908926,-0.3605054,-0.5352938,0.30451906,-0.8230276,-0.16380747,-0.5702039,0.7661293,-0.2902855,0.38329607,-0.028818455,0.77310246,-1.1530509,-2.044862,-0.59382653,1.8665465,1.8141501,-0.9301215,0.8407234,-1.1381121,-1.9982902,-0.6566217,1.8932309,1.7795703,-0.929435,-1.4672909,-0.17861116,-1.0535507,1.3822637,-0.27016395,0.37065703,-0.21033494,-0.25854874,-0.63725495,0.7543382,-1.3240699,0.5903993,0.047458414,-0.24648666,-0.62021613,0.70310676,0.9463639,-0.09140876,0.18191157,0.2508941,-1.3224981,0.4000901,-0.089830086,0.0,1.0,0.0,0.0,0.0,0.0,0.0,-0.39145124,0.23725495,-0.2043382,0.36137104,-13.758394,-3.5235167,0.18155575,-14.30485,-1.723969,3.6632748
-4.778507,12.654401,-0.58475375,1.8993083,-0.28285915,-0.5921217,0.35526145,-0.8218577,-0.24016812,-0.61474985,0.7626738,-0.35903132,0.33130267,0.107028455,0.75853765,-1.1621289,-2.059765,-0.58035433,1.8573278,1.8127006,-0.91873217,0.82606447,-1.1409864,-2.0090814,-0.6428392,1.889626,1.7831142,-0.93118215,-1.4652315,-0.3238961,-1.0874465,1.3773775,-0.390801,0.34923354,-0.16315731,-0.27178192,-0.6313555,0.75406027,-1.322746,0.58980906,-0.05286824,-0.25976944,-0.6164372,0.7014484,0.9492603,-0.08853991,0.18791297,0.23612306,-1.3252648,0.38114738,-0.18988444,0.0,1.0,0.0,0.0,0.0,0.0,0.0,-0.37821805,0.23135552,-0.20406026,0.2603531,-14.539755,-3.3258677,-0.3693819,-12.109291,-2.1190047,4.649076
-7.4279532,-1.9833221,-3.896161,0.07811257,-0.13375558,-0.8101585,0.37211832,-0.8239462,-0.3638559,-0.65615237,0.75718117,-0.35688096,0.14656807,0.21532664,0.74366987,-1.177372,-2.0746965,-0.5671211,1.853938,1.797771,-0.9096495,0.8114103,-1.1455507,-2.0202966,-0.62913203,1.8851514,1.7863243,-0.9324105,-1.4650612,-0.50061244,-1.1337736,1.3692713,-0.46565837,0.3114998,-0.1093859,-0.28499985,-0.6254618,0.7527798,-1.3214236,0.5892194,-0.15309459,-0.273201,-0.6129241,0.6986303,0.9519431,-0.08454054,0.19370995,0.22166094,-1.3449209,0.35196346,-0.3115476,0.0,1.0,0.0,0.0,0.0,0.0,0.0,-0.36500013,0.22546181,-0.20277977,0.14657974,-17.648489,-4.8407793,-0.5666733,-7.302517,-3.7689447,5.396937
-6.819501,6.348919,-2.118282,1.0270663,-0.08248177,-0.7974155,0.40160653,-0.8231953,-0.40703216,-0.6830791,0.7464172,-0.4054643,-0.020401837,0.31171715,0.7290908,-1.1862539,-2.0886045,-0.5544903,1.844605,1.7842841,-0.90123874,0.79675424,-1.1517115,-2.0320039,-0.6155479,1.8800416,1.789048,-0.9330771,-1.465476,-0.65451175,-1.1836841,1.3556262,-0.52604973,0.25920218,-0.05238798,-0.2982025,-0.61957407,0.7504978,-1.3201025,0.5886303,-0.2532207,-0.28680038,-0.60966635,0.69468886,0.954435,-0.07935672,0.19919938,0.20754711,-1.3614622,0.32790926,-0.4208942,0.0,1.0,0.0,0.0,0.0,0.0,0.0,-0.35179746,0.21957406,-0.2004978,0.06258488,-15.40004,-5.074978,-1.1255264,-5.99609,-5.3042593,5.7108617
-2.1531515,22.258919,1.7103817,2.0070956,-0.021993078,-0.63651067,0.45335644,-0.8131377,-0.44330305,-0.68131584,0.7290871,-0.4301883,-0.060022626,0.4138707,0.71544045,-1.1960418,-2.1001356,-0.5426392,1.8370228,1.7830456,-0.89169,0.78213537,-1.1591406,-2.0440774,-0.60216594,1.8744206,1.791251,-0.93315434,-1.4605671,-0.77236176,-1.214596,1.3328453,-0.57491255,0.20687017,0.006977782,-0.31139374,-0.6136923,0.7472154,-1.3187827,0.5880418,-0.35324675,-0.30047226,-0.6065724,0.6898351,0.95671165,-0.07311607,0.20438628,0.19386329,-1.3654728,0.31426102,-0.5063842,0.0,1.0,0.0,0.0,0.0,0.0,0.0,-0.33860624,0.21369228,-0.19721538,0.51534176,-11.837864,-2.8704882,-2.1336079,-5.1365495,-5.3860636,5.8946567
-4.1212153,27.149864,2.360234,3.0796974,0.050873287,-0.61085457,0.46302205,-0.8303727,-0.50656277,-0.7143727,0.6975918,-0.46032572,-0.25426602,0.46373048,0.6990981,-1.2097969,-2.1155148,-0.53240675,1.8283881,1.7658243,-0.8867813,0.767485,-1.1676245,-2.0564828,-0.5891273,1.8683496,1.792834,-0.93266034,-1.4664738,-0.874055,-1.2481402,1.2946569,-0.6191227,0.14151251,0.063340105,-0.32457352,-0.6078162,0.7429334,-1.3174641,0.58745384,-0.45317277,-0.31418228,-0.6035886,0.684175,0.9587747,-0.06582219,0.2092584,0.18063611,-1.3695793,0.3044663,-0.58585006,1.0,0.0,0.0,0.0,0.0,0.0,0.0,-0.32542646,0.20781621,-0.19293338,-0.57735443,-10.240353,-3.0540466,-3.6776543,-4.7785163,-6.7328873,5.5879736
-2.767426,33.081985,3.531065,3.3474422,0.04054743,-0.54224557,0.48360682,-0.8308262,-0.55237037,-0.7282353,0.66810876,-0.49650204,-0.35603535,0.49836215,0.6844024,-1.2228615,-2.1293063,-0.52231646,1.8186994,1.7572305,-0.8828241,0.7527622,-1.1770086,-2.0691857,-0.5765579,1.8618283,1.79374,-0.93164086,-1.4742583,-0.9601094,-1.2763366,1.2447468,-0.6647756,0.072953664,0.11461877,-0.33773804,-0.6019461,0.7376529,-1.316147,0.5868665,-0.5529989,-0.3278885,-0.6006763,0.677776,0.9606226,-0.057481874,0.21380784,0.16788773,-1.3682861,0.2983527,-0.65810484,1.0,0.0,0.0,0.0,0.0,0.0,0.0,-0.31226194,0.20194611,-0.18765289,-0.7945299,-8.688938,-2.400732,-4.8873425,-5.0509095,-7.0878105,5.0563517
-1.194551,33.41963,3.870997,2.8000855,0.16538781,-0.4879362,0.47532,-0.8290767,-0.61319035,-0.7242375,0.64165163,-0.47643104,-0.41374967,0.51093584,0.6698545,-1.2383276,-2.1416094,-0.5123927,1.8141853,1.7523651,-0.8805473,0.7379774,-1.1872606,-2.0820642,-0.5645206,1.8550038,1.7939804,-0.93015885,-1.4799011,-1.0472203,-1.2902367,1.1903292,-0.6899888,0.006949617,0.15926096,-0.3508873,-0.596082,0.73137486,-1.314831,0.58627975,-0.6527252,-0.34160614,-0.5978086,0.6706611,0.9622723,-0.0481942,0.2179107,0.15564099,-1.36798,0.29445523,-0.7299064,1.0,0.0,0.0,0.0,0.0,0.0,0.0,-0.29911268,0.19608197,-0.18137485,-0.58579445,-8.790636,-0.95386505,-5.3374767,-3.0257463,-6.8707943,4.409656
-1.1043422,42.12768,5.596133,4.707306,0.39578718,-0.32559514,0.40988946,-0.82991886,-0.63670415,-0.72267354,0.6333397,-0.49932268,-0.42801312,0.49595693,0.6549855,-1.250931,-2.1543314,-0.5011866,1.8050716,1.7511791,-0.88056314,0.72314966,-1.1982584,-2.0949883,-0.55294585,1.8479466,1.7936199,-0.92829823,-1.4838691,-1.1177174,-1.2912385,1.1467432,-0.7131438,-0.051447496,0.19480617,-0.36402893,-0.59022355,0.72410035,-1.3135165,0.5856936,-0.75235176,-0.35529327,-0.5949185,0.66293395,0.96372837,-0.038122293,0.22154133,0.14385273,-1.3652643,0.2990169,-0.7879555,1.0,0.0,0.0,0.0,0.0,0.0,0.0,-0.28597105,0.19022354,-0.17410034,-0.45201778,-7.149124,0.48599243,-4.2945623,-2.9577017,-6.1578717,3.4822316
0.09897184,48.742477,7.085525,5.9394073,0.6759346,-0.15933347,0.3587808,-0.8249058,-0.66817933,-0.70941865,0.62120414,-0.46919888,-0.38609558,0.5211147,0.6406591,-1.2650763,-2.1659303,-0.49082544,1.8010267,1.7550104,-0.8761868,0.708321,-1.2098818,-2.1078057,-0.5417259,1.8408074,1.7927749,-0.9261124,-1.4828358,-1.1776121,-1.2766755,1.1138016,-0.7167112,-0.096707664,0.22626996,-0.3771553,-0.58437085,0.7158303,-1.3122032,0.58510804,-0.85187876,-0.36894608,-0.5919254,0.65471494,0.96499723,-0.027489858,0.22465888,0.13248722,-1.3613154,0.31122062,-0.8345442,1.0,0.0,0.0,0.0,0.0,0.0,0.0,-0.27284467,0.18437085,-0.16583031,0.017786026,-6.098938,2.1560907,-3.2702684,-1.0932088,-4.8841896,3.0675888
2.4109573,55.75121,8.714199,6.675257,0.98763204,-0.014799833,0.32067782,-0.82124937,-0.68716276,-0.69031316,0.58966655,-0.38419998,-0.37817633,0.5095918,0.626196,-1.2785981,-2.176837,-0.4827592,1.8023875,1.7549573,-0.87515324,0.6935295,-1.2219973,-2.1203752,-0.53086543,1.8339295,1.7915447,-0.9236605,-1.4783852,-1.2233065,-1.2473545,1.0767106,-0.6808403,-0.13308205,0.25115412,-0.39026642,-0.57852435,0.7065658,-1.3108913,0.5845231,-0.9513062,-0.38254166,-0.5887623,0.6461237,0.96610576,-0.01654631,0.22714166,0.121542,-1.3550758,0.3301018,-0.8686966,1.0,0.0,0.0,0.0,0.0,0.0,0.0,-0.25973356,0.17852435,-0.15656579,0.32241344,-4.68266,3.753233,-3.7484646,2.744317,-4.029396,2.4020016
5.177795,61.650738,10.134398,7.0834427,1.3222967,0.09031469,0.29136238,-0.8134269,-0.7015875,-0.67128617,0.55992025,-0.25242475,-0.3850368,0.5226134,0.6121868,-1.292156,-2.1875038,-0.4748734,1.8086871,1.753041,-0.87139916,0.67881715,-1.2344732,-2.132586,-0.5204246,1.8278184,1.7899959,-0.9209845,-1.469327,-1.256101,-1.2090083,1.0328362,-0.59071237,-0.16360584,0.27273268,-0.40336227,-0.5726836,0.69630766,-1.3095806,0.58393866,-1.0506343,-0.3960724,-0.585371,0.63727784,0.9671038,-0.005556117,0.22880432,0.11103133,-1.347586,0.3541127,-0.8913355,1.0,0.0,0.0,0.0,0.0,0.0,0.0,-0.2466377,0.17268357,-0.14630765,0.75154305,-3.3908844,4.7433853,-4.488325,8.097339,-3.4705043,2.070552
11.174688,65.32638,11.171963,5.654699,1.3632213,0.13383365,0.3316237,-0.798157,-0.70950717,-0.65948176,0.5054968,-0.12043783,-0.41176292,0.5417989,0.59900147,-1.305424,-2.1985343,-0.46987492,1.8157746,1.7488196,-0.8668046,0.66425645,-1.2471838,-2.1444154,-0.5105865,1.8229489,1.788161,-0.9181082,-1.4523498,-1.2764646,-1.1714706,0.9667505,-0.45547998,-0.19132842,0.29230002,-0.4164505,-0.5668485,0.68505704,-1.3082713,0.58335483,-1.149863,-0.40945816,-0.58174944,0.62825304,0.96804124,0.0052864314,0.22947925,0.101032265,-1.3323686,0.37683308,-0.90795976,1.0,0.0,0.0,0.0,0.0,0.0,0.0,-0.23354948,0.16684851,-0.13505703,1.5109777,-2.1321058,4.7122955,-6.788349,12.574053,-3.1835585,1.8532515
16.75453,67.18781,11.718086,3.671464,1.2464473,0.17043841,0.4032586,-0.7910835,-0.71106666,-0.63989645,0.42336702,-0.0029123418,-0.44242796,0.52805126,0.5851481,-1.3182905,-2.208405,-0.4682498,1.8226577,1.7439183,-0.8653031,0.649876,-1.2600088,-2.1558747,-0.50168777,1.8196244,1.786061,-0.9150708,-1.4338939,-1.2849495,-1.1342626,0.86340874,-0.2946763,-0.21731831,0.30715862,-0.42952347,-0.5610192,0.6728149,-1.3069632,0.5827716,-1.2489924,-0.42264175,-0.5779269,0.6190724,0.9689587,0.015872296,0.22905481,0.0916574,-1.3076547,0.39581007,-0.9231685,0.0,1.0,0.0,0.0,0.0,0.0,0.0,-0.22047651,0.16101918,-0.12281489,1.6414881,-0.9206772,4.6777725,-10.576296,15.139061,-2.9772162,1.3676047
20.280806,66.1996,11.427793,1.747965,0.98639226,0.17187417,0.4799874,-0.7866068,-0.7132613,-0.63167644,0.33481184,0.08250704,-0.48717564,0.5193501,0.57121533,-1.331335,-2.2190423,-0.46820658,1.8278751,1.7373434,-0.86313576,0.6356615,-1.2728682,-2.167029,-0.49408048,1.8179078,1.7837017,-0.9119122,-1.4178497,-1.286337,-1.1062216,0.7256567,-0.13361984,-0.2432772,0.3182558,-0.44258118,-0.55519605,0.6595822,-1.3056566,0.58218896,-1.3480229,-0.43549728,-0.5739567,0.6097032,0.96987844,0.026200797,0.22750565,0.0830083,-1.2750037,0.40894303,-0.94305265,0.0,1.0,0.0,0.0,0.0,0.0,0.0,-0.2074188,0.15519604,-0.109582186,1.4098406,-0.18508434,3.6660433,-14.034712,15.255383,-2.9248328,0.98851323
19.235481,69.06652,11.253337,2.4302106,0.7942955,0.21733654,0.4962588,-0.78860486,-0.69722486,-0.6385924,0.25984162,0.10792723,-0.5195657,0.5134442,0.556801,-1.3425907,-2.2308881,-0.46809632,1.8287005,1.7317451,-0.8605678,0.6215528,-1.285636,-2.1780381,-0.4879555,1.8175569,1.7810886,-0.9086659,-1.4091923,-1.273571,-1.0963264,0.5739541,-0.004880246,-0.268315,0.32633287,-0.45562744,-0.54937863,0.64535993,-1.3043511,0.58160686,-1.4469544,-0.44800568,-0.56987,0.6001391,0.97078186,0.036369305,0.22498877,0.075098895,-1.2368102,0.41983253,-0.9623113,0.0,1.0,0.0,0.0,0.0,0.0,0.0,-0.19437253,0.14937863,-0.09535992,0.6879568,1.2429953,1.764369,-15.42877,12.107109,-2.7886868,0.6759465
13.608858,74.69266,11.710931,6.601857,1.191623,0.31013072,0.34352577,-0.78027856,-0.69395894,-0.6115825,0.26303518,0.1662975,-0.51949847,0.5401502,0.543525,-1.3550318,-2.2391963,-0.46165198,1.8341866,1.7291387,-0.85465086,0.60752666,-1.2982545,-2.1890032,-0.48301667,1.818522,1.7783437,-0.90534306,-1.4010199,-1.2590955,-1.125214,0.45877123,0.18836732,-0.25834206,0.3347401,-0.4678955,-0.54385805,0.6319912,-0.9245166,0.49849492,-0.7177178,-0.46020508,-0.5655997,0.59045845,0.9716662,0.046297345,0.22164993,0.067767836,-1.2133815,0.44392738,-0.9767324,0.0,1.0,0.0,0.0,0.0,0.0,0.0,-0.18210447,0.14385805,-0.081991196,0.65112114,1.260829,-6.6125154,-12.846255,27.181202,3.8489103,0.6513357
9.329298,100.61007,17.107275,15.883153,2.7236907,0.7496626,0.017071066,-0.7753108,-0.655039,-0.3738775,0.29908276,0.22396396,-0.50755656,0.48713237,0.52999556,-1.3637584,-2.226391,-0.4531084,1.8409184,1.727588,-0.85662985,0.59357536,-1.3105683,-2.1990702,-0.47865123,1.8211122,1.7756429,-0.9019747,-1.3939325,-1.2220562,-0.96405405,0.42801476,0.2799495,-0.27488095,0.33710888,-0.4771347,-0.5388768,0.6240673,-0.92359227,0.4979965,-0.8172794,-0.4721985,-0.5609064,0.5810908,0.97262204,0.05529646,0.21739171,0.060741235,-1.1905055,0.48838833,-0.9248663,0.0,1.0,0.0,0.0,0.0,0.0,0.0,-0.17286527,0.13887677,-0.074067295,0.49402714,3.661847,17.047083,-3.4035504,8.371308,-1.9280732,0.101321936
20.364885,96.077194,17.92208,10.668709,2.628279,0.8014221,0.1968696,-0.772118,-0.66350156,-0.22562088,0.12889007,0.3578912,-0.5209844,0.50846297,0.51636356,-1.3769184,-2.2216322,-0.46576223,1.8569013,1.7235445,-0.8511284,0.57968986,-1.3225865,-2.2068484,-0.47507924,1.8247495,1.7727857,-0.89857197,-1.3874916,-1.1951492,-0.71325356,0.33258158,0.38959223,-0.28999704,0.34097221,-0.48636246,-0.5339005,0.6151485,-0.9226689,0.49749863,-0.9167415,-0.48389435,-0.55582595,0.572219,0.97372174,0.06302324,0.2120378,0.054166075,-1.1575164,0.52467006,-0.87621874,0.0,1.0,0.0,0.0,0.0,0.0,0.0,-0.16363752,0.1339005,-0.06514847,0.4535675,2.6862144,25.866747,-9.854102,10.314428,-1.6930044,0.29457808
44.122444,79.30291,16.27607,-3.972464,0.8278408,0.59907055,0.77564704,-0.76600903,-0.6428985,-0.18055108,-0.18550003,0.42390808,-0.5556644,0.5073272,0.50308895,-1.3868763,-2.2249036,-0.49362925,1.8671403,1.7172192,-0.84783924,0.5658797,-1.3343167,-2.212166,-0.47378367,1.8293576,1.7697568,-0.8951359,-1.3793538,-1.1654437,-0.4699546,0.060972255,0.48354518,-0.30704275,0.3443254,-0.49558258,-0.52892923,0.6052358,-0.92174643,0.49700123,-1.0161042,-0.4949684,-0.5506735,0.56352085,0.9750005,0.069621414,0.20532036,0.048686016,-1.0848894,0.5214465,-0.86922723,0.0,1.0,0.0,0.0,0.0,0.0,0.0,-0.1544174,0.12892923,-0.055235803,0.67260265,3.0241966,24.697971,-27.44841,9.090632,-1.6695619,0.27056336
37.173832,89.689476,17.57162,1.9068973,1.4850919,0.6927786,0.5649868,-0.7645805,-0.6080635,-0.036752794,-0.14131613,0.48834306,-0.5462567,0.51648855,0.48942167,-1.3951231,-2.2158413,-0.48791528,1.878192,1.7151312,-0.843487,0.55214393,-1.3456635,-2.2150004,-0.47478265,1.8349004,1.766583,-0.89165974,-1.3718797,-1.1243252,-0.22096463,-0.15410896,0.5781557,-0.3203706,0.3486267,-0.5047951,-0.523963,0.59433025,-0.9208248,0.4965043,-1.1153674,-0.50539017,-0.54547524,0.5550593,0.9764645,0.07502927,0.19729872,0.04428141,-1.0240798,0.52786523,-0.8402157,0.0,1.0,0.0,0.0,0.0,0.0,0.0,-0.1452049,0.12396297,-0.04433024,0.68006516,4.1643143,24.863539,-21.684408,9.583103,-1.2389183,0.42709708
37.347206,71.51442,12.553415,-3.7907505,-0.023710247,0.31213254,0.75802,-0.7606336,-0.5938836,-0.20023572,-0.3457621,0.5309204,-0.55378866,0.51794285,0.47608057,-1.405052,-2.235024,-0.5093589,1.8879924,1.711204,-0.83986545,0.5384854,-1.3566113,-2.216827,-0.4782984,1.8413997,1.7633135,-0.88814497,-1.3637388,-1.0850612,-0.17827438,-0.41922632,0.6866909,-0.32465675,0.3525508,-0.513607,-0.5190139,0.58353025,-0.8114354,0.482689,-0.9218773,-0.5151558,-0.5403943,0.5465089,0.97800565,0.07986638,0.18827742,0.04096279,-0.95686466,0.50993365,-0.8631459,0.0,1.0,0.0,0.0,0.0,0.0,0.0,-0.13639295,0.119013876,-0.033530235,0.82974434,3.9149761,2.4374695,-26.88372,13.388836,0.4050076,0.39146543
15.665049,119.62396,20.158085,17.99251,2.6685004,0.93843865,0.055150244,-0.7643086,-0.48999286,0.11183052,-0.17399025,0.568646,-0.51833737,0.5263815,0.46205455,-1.4056106,-2.205644,-0.4956974,1.8982643,1.7114798,-0.8355068,0.5248736,-1.3667774,-2.217438,-0.48306218,1.8489383,1.76006,-0.8845899,-1.3601202,-0.99346006,-0.024594646,-0.4956508,0.77907044,-0.32508558,0.35668364,-0.52130127,-0.5142641,0.5748044,-0.75540835,0.47340417,-0.8575446,-0.5244827,-0.5351181,0.53848547,0.9796116,0.083689146,0.17861582,0.038125668,-0.9200516,0.5404962,-0.78381,0.0,1.0,0.0,0.0,0.0,0.0,0.0,-0.1286987,0.1142641,-0.024804413,0.41060448,9.263587,14.638582,-7.720643,10.089397,0.19803047,0.43233633
21.291073,105.71908,19.332102,13.095362,2.5134706,0.887475,0.14762345,-0.75555384,-0.5328615,0.28582063,-0.33777732,0.6344738,-0.48569262,0.53557724,0.44931823,-1.4200636,-2.188856,-0.5168399,1.9123857,1.7114906,-0.83103216,0.51132184,-1.3763332,-2.2159662,-0.488691,1.857396,1.7568369,-0.88098747,-1.3533102,-0.94265926,0.20148839,-0.5852161,0.8714241,-0.32093537,0.36180046,-0.52848434,-0.5096202,0.5666135,-0.7064086,0.46264875,-0.8087033,-0.53344727,-0.52957916,0.53112346,0.9813369,0.08611702,0.16819558,0.035662998,-0.88566744,0.5648739,-0.7219205,0.0,1.0,0.0,0.0,0.0,0.0,0.0,-0.12151563,0.10962018,-0.016613483,0.77118874,5.175674,21.693996,-8.941698,10.298228,0.65543056,0.60928464
17.340929,138.47368,23.77575,22.150526,2.8806174,1.1518053,-0.004788637,-0.7494827,-0.36814946,0.2670012,-0.3548727,0.6606723,-0.48556188,0.5580211,0.43637356,-1.4131482,-2.1892662,-0.52417827,1.9234632,1.7082807,-0.82518536,0.4978571,-1.3848133,-2.2126784,-0.4949705,1.8666822,1.7536745,-0.87732226,-1.34365,-0.81582093,0.3670482,-0.64201033,0.9525516,-0.31348038,0.3684349,-0.53507996,-0.5051222,0.55929106,-0.6445378,0.44663006,-0.70898247,-0.5420227,-0.52375245,0.5247591,0.98311514,0.08713783,0.15739143,0.033457298,-0.84405726,0.59434336,-0.6092602,0.0,1.0,0.0,0.0,0.0,0.0,0.0,-0.11492002,0.10512218,-0.009291053,1.1212587,12.832522,15.270275,-5.635345,9.628534,1.1818945,0.7643521
8.772745,138.4866,22.546597,24.640068,2.7079122,1.1107793,-0.071199246,-0.76492137,-0.32085088,0.2755049,-0.38488182,0.67883664,-0.46132448,0.53067625,0.42136496,-1.4168984,-2.185128,-0.5334587,1.9345658,1.7075421,-0.82425463,0.48440313,-1.391964,-2.208243,-0.50172627,1.8766361,1.7506006,-0.8736152,-1.3453486,-0.68075395,0.4645389,-0.686351,1.0146502,-0.3041654,0.37194315,-0.5410919,-0.50077987,0.5529599,-0.58794427,0.43050772,-0.6103393,-0.55023193,-0.5176201,0.5194829,0.9848648,0.08701164,0.14658536,0.03135417,-0.809479,0.62466216,-0.5015383,0.0,1.0,0.0,0.0,0.0,0.0,0.0,-0.10890806,0.10077986,-0.002959907,0.022506714,13.656354,8.403587,-4.3053746,7.761824,1.3426483,0.48690438
8.755401,132.13254,20.375496,21.94673,1.7812804,0.91093314,0.046749506,-0.7650645,-0.2435801,0.2060057,-0.4782306,0.69504696,-0.48255318,0.5187987,0.4078967,-1.416322,-2.1876423,-0.54954934,1.9461409,1.7023453,-0.8217353,0.47090912,-1.3976828,-2.2036316,-0.5091881,1.887078,1.7475965,-0.8698843,-1.3500764,-0.53501815,0.45579317,-0.7655068,1.0587881,-0.29789823,0.3740536,-0.5465622,-0.49662423,0.5475322,-0.534651,0.4110928,-0.52320206,-0.5580292,-0.5112941,0.5151204,0.98650044,0.08625665,0.13606079,0.029393466,-0.7673273,0.63987267,-0.41545427,0.0,1.0,0.0,0.0,0.0,0.0,0.0,-0.10343778,0.096624225,0.002467811,-0.2711296,14.723051,-2.189666,-7.735455,5.8995724,1.0357916,0.3868878
