Afshin1997/kuka_rl_ros2/src/catch_and_throw/input_files/idealpd/recorded_trajectories/env_23_data.csv
torque0,torque1,torque2,torque3,torque4,torque5,torque6,action0,action1,action2,action3,action4,action5,action6,set_target_0,set_target_1,set_target_2,set_target_3,set_target_4,set_target_5,set_target_6,joint_pos_0,joint_pos_1,joint_pos_2,joint_pos_3,joint_pos_4,joint_pos_5,joint_pos_6,joint_vel_0,joint_vel_1,joint_vel_2,joint_vel_3,joint_vel_4,joint_vel_5,joint_vel_6,tennisball_pos_0,tennisball_pos_1,tennisball_pos_2,tennisball_lin_vel_0,tennisball_lin_vel_1,tennisball_lin_vel_2,end_effector_pos_0,end_effector_pos_1,end_effector_pos_2,end_effector_rot_0,end_effector_rot_1,end_effector_rot_2,end_effector_rot_3,end_effector_lin_vel_0,end_effector_lin_vel_1,end_effector_lin_vel_2,obs_task_0,obs_task_1,obs_task_2,obs_task_3,obs_task_4,obs_task_5,obs_task_6,to_final_target_0,to_final_target_1,to_final_target_2,joint_acc_0,joint_acc_1,joint_acc_2,joint_acc_3,joint_acc_4,joint_acc_5,joint_acc_6
0.0,0.0,0.0,0.0,0.0,0.0,0.0,0.0,0.0,0.0,0.0,0.0,0.0,0.0,1.7802359,-1.0646509,-1.8151424,-1.1170107,1.9373155,1.1170107,-0.91629785,1.7802359,-1.0646509,-1.8151424,-1.1170107,1.9373155,1.1170107,-0.91629785,0.0,0.0,0.0,0.0,0.0,0.0,0.0,2.7681198,-0.40402222,0.28750378,-3.076832,-0.036488395,4.9030933,0.5304184,-0.45448303,0.693097,0.5745483,0.17512383,0.15255436,0.7848268,0.0,0.0,0.0,1.0,0.0,0.0,0.0,0.0,0.0,0.0,-3.41812,0.004022211,0.26249623,0.0,0.0,0.0,0.0,0.0,0.0,0.0
0.0,0.0,0.0,0.0,0.0,0.0,0.0,0.0,0.0,0.0,0.0,0.0,0.0,0.0,1.7802359,-1.0646509,-1.8151424,-1.1170107,1.9373155,1.1170107,-0.91629785,1.7802359,-1.0646509,-1.8151424,-1.1170107,1.9373155,1.1170107,-0.91629785,0.0,0.0,0.0,0.0,0.0,0.0,0.0,2.7681198,-0.40402222,0.28750378,-3.076832,-0.036488395,4.9030933,0.5304184,-0.45448303,0.693097,0.5745483,0.17512383,0.15255436,0.7848268,0.0,0.0,0.0,1.0,0.0,0.0,0.0,0.0,0.0,0.0,-3.41812,0.004022211,0.26249623,0.0,0.0,0.0,0.0,0.0,0.0,0.0
0.0,0.0,0.0,0.0,0.0,0.0,0.0,0.0,0.0,0.0,0.0,0.0,0.0,0.0,1.7802359,-1.0646509,-1.8151424,-1.1170107,1.9373155,1.1170107,-0.91629785,1.7802359,-1.0646509,-1.8151424,-1.1170107,1.9373155,1.1170107,-0.91629785,0.0,0.0,0.0,0.0,0.0,0.0,0.0,2.7681198,-0.40402222,0.28750378,-3.076832,-0.036488395,4.9030933,0.5304184,-0.45448303,0.693097,0.5745483,0.17512383,0.15255436,0.7848268,0.0,0.0,0.0,1.0,0.0,0.0,0.0,0.0,0.0,0.0,-3.41812,0.004022211,0.26249623,0.0,0.0,0.0,0.0,0.0,0.0,0.0
-176.0,75.50364,-3.7789917,110.0,11.130001,5.0270805,-3.8074687,-0.8278753,0.3943562,-0.5595338,0.72322834,0.3890352,0.6346776,-0.58567053,1.6974484,-1.0252153,-1.8710958,-1.0446879,1.9762189,1.1804785,-0.9748649,1.7786661,-1.0621198,-1.8210285,-1.1121413,1.9427209,1.1220938,-0.91813844,-0.20922992,0.3367527,-0.78418815,0.6495247,0.7199652,0.675745,-0.24482264,2.737381,-0.40438843,0.3357615,-3.0737557,-0.036451913,4.800005,0.5281677,-0.45781708,0.6940478,0.57858276,0.17366886,0.15104069,0.7824754,-0.3010978,-0.44451043,0.1264844,1.0,0.0,0.0,0.0,0.0,0.0,0.0,-3.387381,0.004388422,0.21423852,-20.858265,33.469063,-78.23818,65.032196,71.74276,66.96301,-24.332363
-176.0,-19.146307,-39.682735,108.85242,12.052713,1.7142439,-3.0310345,-0.81260324,-0.10504698,-0.56791353,0.69730073,0.48028117,0.6301573,-0.61281824,1.6974058,-1.0726246,-1.8778198,-1.0424112,1.990749,1.1851095,-0.97942024,1.7764612,-1.0587763,-1.835717,-1.0979944,1.9526086,1.1345679,-0.9189319,-0.22189042,0.33202317,-1.6990615,1.6729074,1.0789225,1.432124,-0.021047201,2.7066727,-0.40475464,0.38298908,-3.0706828,-0.03641547,4.6970196,0.523201,-0.4663849,0.69523424,0.58718944,0.17029996,0.14754431,0.7774555,-0.56322515,-0.99076784,0.11674761,1.0,0.0,0.0,0.0,0.0,0.0,0.0,-3.3566728,0.0047546327,0.16701093,-0.54818094,-0.9404659,-92.10639,103.292175,36.007225,73.90518,23.318562
-147.52353,100.13576,25.202389,84.2696,7.703379,6.9583445,-1.7073799,-0.7715757,0.29823586,-0.022747725,0.5883981,0.51299596,0.6690855,-0.56736976,1.6993036,-1.0289527,-1.8379917,-1.0391546,2.0039082,1.2014765,-0.9756689,1.7710367,-1.054767,-1.8511779,-1.0797678,1.9637322,1.1487547,-0.9193849,-0.6493661,0.4207657,-1.4894426,1.8739072,1.1188679,1.4077154,-0.054596364,2.6759949,-0.40512085,0.4291876,-3.0676126,-0.03637906,4.594137,0.51538086,-0.47779846,0.6978355,0.5985546,0.16553663,0.14287038,0.7706608,-0.86275595,-1.1863656,0.312069,1.0,0.0,0.0,0.0,0.0,0.0,0.0,-3.325995,0.0051208436,0.120812416,-42.76249,7.972002,22.727798,20.474482,2.616167,-4.429364,-3.7131832
-92.40118,112.123985,40.395542,52.84491,4.5202827,7.4101243,-0.37623888,-0.7902382,0.21923369,0.06637179,0.6143907,0.51192117,0.64325255,-0.5905392,1.6920129,-1.0328436,-1.8445407,-1.0183288,2.0149243,1.2130799,-0.9784388,1.7613989,-1.050445,-1.8617923,-1.0618578,1.9743009,1.1619421,-0.9203128,-1.0696915,0.43381643,-0.9113116,1.7635872,1.0311,1.2850524,-0.107490316,2.6453476,-0.40548706,0.47435805,-3.0645456,-0.036342688,4.491358,0.505043,-0.48988342,0.7023054,0.6108564,0.15954936,0.13723305,0.7632597,-1.1028731,-1.2043386,0.49722973,1.0,0.0,0.0,0.0,0.0,0.0,0.0,-3.2953477,0.0054870546,0.07564196,-42.38938,0.6145358,60.05285,-10.942364,-10.332131,-13.472557,-5.9109716
-34.058105,131.51001,52.43771,26.814692,1.4927711,6.9607,0.41916084,-0.8046581,0.3254598,0.11948218,0.5799899,0.57879615,0.6300593,-0.57264125,1.6809331,-1.017899,-1.8498441,-1.0038588,2.0321805,1.224948,-0.977577,1.7483298,-1.0456594,-1.8661869,-1.0462996,1.983952,1.1737486,-0.92179674,-1.3876888,0.4917879,-0.27526996,1.4859425,0.9393242,1.1442028,-0.16469088,2.6147308,-0.40585327,0.5185015,-3.0614817,-0.03630635,4.3886814,0.49293518,-0.50112915,0.7085542,0.62284243,0.15239698,0.1308576,0.75612086,-1.2573711,-1.084865,0.6705718,1.0,0.0,0.0,0.0,0.0,0.0,0.0,-3.264731,0.0058532655,0.03149849,-32.292057,5.28782,65.61666,-27.978348,-10.346508,-14.579511,-6.4833045
4.191703,133.95796,52.049644,12.048833,-0.50257015,5.403512,0.49572146,-0.8153891,0.43436313,0.092261925,0.5796764,0.5813113,0.6154152,-0.58080345,1.6667908,-1.0022231,-1.8569607,-0.9883319,2.0420833,1.2352902,-0.9798771,1.7331396,-1.0398573,-1.8656528,-1.0334383,1.9928384,1.1842638,-0.92380613,-1.5641168,0.6083684,0.16751951,1.2188522,0.8697844,1.0203382,-0.21529497,2.5841446,-0.40621948,0.561619,-3.058421,-0.036270052,4.286107,0.4799118,-0.5108261,0.7162785,0.6340771,0.14431833,0.12432088,0.7494416,-1.3297564,-0.91610754,0.8068181,1.0,0.0,0.0,0.0,0.0,0.0,0.0,-3.2341447,0.0062194765,-0.011618972,-18.0552,11.2963915,45.635742,-26.957058,-7.552874,-12.434912,-5.7440577
26.056723,131.62802,48.80886,4.8353443,-1.5310879,4.015854,0.38756037,-0.8293116,0.5281822,0.12230187,0.54371506,0.61955535,0.613147,-0.5841833,1.6502085,-0.987039,-1.8534226,-0.97906685,2.0547938,1.2455785,-0.98222446,1.7170244,-1.0325674,-1.8622062,-1.0227953,2.0013547,1.1936938,-0.92625993,-1.6283075,0.76837397,0.40674385,1.0121429,0.8446709,0.917723,-0.2573223,2.5535889,-0.4065857,0.6037115,-3.0553632,-0.03623379,4.1836357,0.466568,-0.5187683,0.725155,0.64455104,0.13559806,0.11813208,0.74310964,-1.3456091,-0.7387585,0.9134334,1.0,0.0,0.0,0.0,0.0,0.0,0.0,-3.203589,0.0065856874,-0.053711474,-6.747818,15.739059,24.818045,-20.865227,-2.766788,-10.095156,-4.767063
35.493233,125.58566,44.39577,2.9144568,-1.8840165,2.9667368,0.1966873,-0.8240124,0.6091189,0.15243566,0.5298503,0.6192185,0.61803484,-0.572551,1.6346232,-0.9716555,-1.8469627,-0.9698103,2.0632765,1.2554972,-0.983515,1.700854,-1.0235609,-1.8575332,-1.0135733,2.009789,1.2022387,-0.92906564,-1.6141617,0.94408756,0.48943308,0.8918202,0.84266895,0.83415407,-0.28990385,2.5230637,-0.4069519,0.64478,-3.0523083,-0.036197565,4.0812664,0.45328522,-0.5250397,0.7349483,0.6544267,0.1264307,0.11261896,0.7369246,-1.3287916,-0.5754406,0.9991327,1.0,0.0,0.0,0.0,0.0,0.0,0.0,-3.1730638,0.0069518983,-0.09477997,1.1645794,17.380106,8.879107,-12.161362,-0.27445555,-8.142101,-3.7237644
34.719967,114.70041,38.72262,3.629521,-1.7121221,2.2189784,0.049636,-0.8220743,0.6708572,0.16899762,0.51138324,0.63512665,0.6252325,-0.5669031,1.6186465,-0.95647514,-1.8406335,-0.96243495,2.0733016,1.2647619,-0.985756,1.6850783,-1.012895,-1.8527305,-1.005057,2.018334,1.2100645,-0.93214124,-1.5658067,1.1068534,0.4787066,0.8379166,0.85817266,0.766129,-0.3148006,2.492569,-0.40731812,0.6848256,-3.0492568,-0.036161374,3.979,0.44023895,-0.52988434,0.74544746,0.6638931,0.1169678,0.10788312,0.73070216,-1.3010052,-0.43875182,1.0641825,1.0,0.0,0.0,0.0,0.0,0.0,0.0,-3.142569,0.0073181093,-0.13482559,4.6475887,16.139221,-0.6454468,-5.487323,1.5516162,-6.6241384,-2.8610528
31.278595,96.76906,31.469748,2.6538677,-1.4493568,1.5024414,0.051752515,-0.8163826,0.6956801,0.178149,0.46154842,0.6566959,0.62641466,-0.5619931,1.60344,-0.94332695,-1.8349156,-0.9589021,2.0840034,1.272706,-0.98834056,1.669829,-1.000934,-1.8483207,-0.9969412,2.0271153,1.2173048,-0.9354238,-1.5115955,1.2255546,0.4296935,0.8022346,0.88499564,0.7106129,-0.3336918,2.4621048,-0.40768433,0.72384936,-3.0462081,-0.03612522,3.876836,0.42752838,-0.5335617,0.75635415,0.67302203,0.10740147,0.10383503,0.7243787,-1.2680546,-0.32917935,1.096685,1.0,0.0,0.0,0.0,0.0,0.0,0.0,-3.112105,0.00768432,-0.17384934,5.2696466,11.783481,-4.583192,-3.7015676,2.7202845,-5.3726315,-2.1991253
25.223589,81.46576,25.627808,3.4442492,-1.0256088,1.0724005,0.041687425,-0.80371577,0.71536565,0.17812262,0.45511293,0.65901655,0.63471633,-0.55536085,1.5894574,-0.92939746,-1.8305085,-0.9514299,2.093017,1.2807765,-0.9909599,1.6550814,-0.98812723,-1.8444374,-0.9890295,2.0361524,1.2240702,-0.9388599,-1.4629852,1.2988123,0.37546518,0.7869219,0.90991884,0.66577125,-0.34781566,2.4316711,-0.40805054,0.7618522,-3.0431626,-0.036089104,3.774774,0.4150772,-0.53635406,0.76742315,0.68185836,0.09785873,0.100303434,0.717936,-1.2390922,-0.24643715,1.10721,1.0,0.0,0.0,0.0,0.0,0.0,0.0,-3.0816712,0.008050531,-0.2118522,4.7398806,7.272792,-5.1717224,-1.6953588,2.5552034,-4.327309,-1.6875029
17.997765,68.81643,20.701515,4.5220127,-0.637035,0.7976298,0.03552772,-0.8032275,0.72952676,0.16311143,0.43646118,0.6616973,0.64775926,-0.54722524,1.5747586,-0.91517454,-1.8281262,-0.9453834,2.102322,1.2888461,-0.9935824,1.6406828,-0.97486067,-1.8410633,-0.9812552,2.0453954,1.2304579,-0.9424085,-1.4323833,1.3358413,0.32520393,0.7736832,0.92946005,0.6303547,-0.3579314,2.401268,-0.40841675,0.79883516,-3.0401201,-0.03605302,3.6728141,0.40285492,-0.53847504,0.7784601,0.6904431,0.08842679,0.09714279,0.71135944,-1.2176423,-0.1855104,1.0993385,1.0,0.0,0.0,0.0,0.0,0.0,0.0,-3.051268,0.008416742,-0.24883515,2.9503107,3.675127,-4.816264,-1.5166163,2.0324945,-3.392613,-1.2551844
15.392199,62.041695,18.556133,4.146039,-0.47422904,0.69065714,0.112218104,-0.8001026,0.73762363,0.17654769,0.396253,0.6741565,0.6443222,-0.5468585,1.5606725,-0.9010983,-1.8234085,-0.9416299,2.112811,1.2948902,-0.99709433,1.6264731,-0.9614072,-1.8379924,-0.9737488,2.0548177,1.2365404,-0.94604105,-1.4174323,1.348457,0.3019065,0.7422379,0.94684637,0.6014219,-0.36583078,2.3708954,-0.40878296,0.8347993,-3.0370805,-0.036016975,3.5709562,0.39082336,-0.5400238,0.78934276,0.6987405,0.079153195,0.09421427,0.70471275,-1.1990012,-0.13189057,1.0814934,1.0,0.0,0.0,0.0,0.0,0.0,0.0,-3.0208955,0.008782953,-0.28479928,1.3806581,1.2469769,-2.1065056,-3.3591628,1.8178821,-2.7267933,-1.0291934
16.620173,59.44243,17.943863,2.5422578,-0.5737082,0.60355103,0.2088205,-0.7930983,0.74764377,0.1806303,0.3455472,0.67838377,0.6446847,-0.53833115,1.5471632,-0.8866428,-1.8199294,-0.9391941,2.122656,1.3010089,-0.9998742,1.6123549,-0.94790125,-1.8349998,-0.9667593,2.0643811,1.242375,-0.9497346,-1.4104091,1.3513204,0.29923356,0.6837687,0.96014047,0.57822627,-0.37135723,2.3405533,-0.40914917,0.8697456,-3.034044,-0.035980966,3.4692004,0.3790207,-0.5410385,0.79999834,0.7066651,0.0700621,0.0914507,0.6981063,-1.1758521,-0.07589405,1.0571371,1.0,0.0,0.0,0.0,0.0,0.0,0.0,-2.9905534,0.009149164,-0.3197456,0.5789995,0.27968884,-0.019615889,-6.0756087,1.4068127,-2.1122098,-0.79534054
20.079826,59.63818,18.325912,0.29690075,-0.81416816,0.5270844,0.31879422,-0.7878751,0.75799614,0.19028498,0.2798158,0.6859723,0.6467949,-0.5261245,1.5335673,-0.87210166,-1.8159713,-0.93877774,2.1329784,1.3070545,-1.0023471,1.5982805,-0.9343667,-1.831908,-0.9605919,2.0740628,1.248015,-0.95346636,-1.406812,1.3541788,0.3134312,0.59355366,0.9714274,0.56005394,-0.37452132,2.3102417,-0.40951538,0.90367514,-3.0310106,-0.03594499,3.367546,0.36749268,-0.54143524,0.8103822,0.7141138,0.061172135,0.0888413,0.6916695,-1.1437848,-0.012360401,1.028953,1.0,0.0,0.0,0.0,0.0,0.0,0.0,-2.9602418,0.009515375,-0.35367513,0.2282381,0.2859831,1.6894519,-9.254742,1.2037635,-1.5565276,-0.55912733
21.430637,59.39383,18.15092,-0.69248676,-0.9515583,0.42311117,0.35814202,-0.78786415,0.76478505,0.19056574,0.22389701,0.68830925,0.64660496,-0.52246684,1.5194942,-0.8578882,-1.8128514,-0.9382022,2.1428938,1.3126756,-1.005713,1.5842177,-0.9207845,-1.8286521,-0.9554535,2.083836,1.2534987,-0.95721906,-1.4063971,1.3595432,0.3303976,0.48654374,0.97981435,0.54568136,-0.3763636,2.2799606,-0.4098816,0.9365889,-3.02798,-0.035909053,3.2659934,0.35633087,-0.5411606,0.8204642,0.72103536,0.052505255,0.08641345,0.68548083,-1.1055799,0.052902937,0.997773,1.0,0.0,0.0,0.0,0.0,0.0,0.0,-2.9299607,0.009881586,-0.38658887,-0.088620186,0.54655075,1.9519627,-10.928303,0.925529,-1.1424899,-0.41197538
26.534767,59.131706,18.136581,-3.8739104,-1.3344952,0.19398099,0.45250672,-0.77819777,0.7734853,0.19166623,0.12660722,0.69100606,0.6440862,-0.50894153,1.5063978,-0.84343594,-1.8094856,-0.9427928,2.1529367,1.3179073,-1.0081133,1.5701929,-0.90711546,-1.8252494,-0.95162547,2.093678,1.2588621,-0.9609756,-1.4014063,1.3695027,0.34435698,0.34751624,0.9860984,0.5345725,-0.37621307,2.24971,-0.4102478,0.96848786,-3.024953,-0.035873152,3.1645422,0.34566498,-0.54019165,0.8301784,0.72735566,0.044124924,0.084235884,0.67964035,-1.0517075,0.12489372,0.9590876,1.0,0.0,0.0,0.0,0.0,0.0,0.0,-2.8997102,0.010247797,-0.41848785,0.37589073,1.0219812,1.6288936,-14.128912,0.728178,-0.73765516,-0.19664168
24.95577,57.796448,17.431297,-3.066699,-1.2525494,0.10461599,0.42866495,-0.7843218,0.77481246,0.20154928,0.075048946,0.6900526,0.6463616,-0.5030808,1.4917607,-0.8296342,-1.8050945,-0.9441206,2.1626832,1.3234982,-1.0112836,1.5561892,-0.89335203,-1.8217056,-0.9491583,2.1035619,1.264134,-0.9647235,-1.4004976,1.3787663,0.3582302,0.21247248,0.9897038,0.52586174,-0.3749536,2.21949,-0.41059875,0.9993731,-3.0219285,-0.035837285,3.0631926,0.3355255,-0.5385361,0.83950603,0.73308635,0.03604926,0.082331814,0.6741708,-0.99803716,0.19052818,0.9201964,1.0,0.0,0.0,0.0,0.0,0.0,0.0,-2.8694901,0.010598749,-0.44937307,-0.017881393,0.9668827,1.5679657,-13.711879,0.48679113,-0.500679,-0.05593896
29.909332,56.365364,17.190912,-6.676486,-1.6210761,-0.15185721,0.54646945,-0.7804064,0.7793935,0.21983486,-0.06268389,0.6942105,0.6416998,-0.5041912,1.4781486,-0.8154127,-1.7997221,-0.9554267,2.172983,1.328304,-1.0151427,1.5422026,-0.87949705,-1.8179786,-0.94834197,2.113484,1.2693316,-0.96845907,-1.3983284,1.3880321,0.37811056,0.03731474,0.99316067,0.519148,-0.37358987,2.1893005,-0.4109497,1.0292456,-3.018907,-0.035801455,2.9619443,0.32604218,-0.53617096,0.84837246,0.73816085,0.028359115,0.080734625,0.66917574,-0.92829865,0.26145837,0.8714707,1.0,0.0,0.0,0.0,0.0,0.0,0.0,-2.8393006,0.010949701,-0.4792456,0.12280941,0.984931,2.1404922,-17.713186,0.48285723,-0.2238512,-0.022774935
34.18875,56.671936,17.71215,-9.21657,-1.8855355,-0.30941293,0.65318173,-0.7763798,0.7859854,0.25429845,-0.18432431,0.6971703,0.63851863,-0.49980953,1.4645646,-0.8008985,-1.7925488,-0.9667744,2.1832008,1.3331834,-1.01844,1.5282522,-0.86554193,-1.8139293,-0.94948924,2.1234403,1.2744719,-0.97217745,-1.3941122,1.3982899,0.4140961,-0.1659144,0.9968547,0.5139092,-0.37168008,2.1591415,-0.41130066,1.0581064,-3.015889,-0.035765663,2.8607972,0.31733704,-0.53305817,0.85672516,0.7424861,0.021113085,0.079460256,0.6647966,-0.84614533,0.33707693,0.8188906,1.0,0.0,0.0,0.0,0.0,0.0,0.0,-2.8091416,0.011300653,-0.5081064,0.35381317,1.101923,3.7015438,-20.488804,0.52928925,-0.026464462,0.06288886
37.815845,56.986427,18.245058,-10.764388,-2.0504458,-0.45819148,0.7220614,-0.76040345,0.7903717,0.2829738,-0.28804278,0.6960628,0.63489866,-0.4796848,1.4522119,-0.78650475,-1.7856319,-0.97829354,2.1930466,1.3379618,-1.0201459,1.5144163,-0.8514857,-1.8094394,-0.95271933,2.1334233,1.2795664,-0.97586244,-1.3800623,1.4082966,0.46070862,-0.37576926,0.99948585,0.5096728,-0.3677189,2.1289978,-0.4116516,1.0859565,-3.0128736,-0.035729904,2.759751,0.3095398,-0.5291748,0.86454886,0.7460055,0.014332013,0.07850291,0.6611411,-0.75429624,0.41417447,0.76563406,1.0,0.0,0.0,0.0,0.0,0.0,0.0,-2.778998,0.011651605,-0.53595644,1.3818264,1.0981321,4.6756744,-21.110243,0.4678011,0.10470152,0.29900074
39.64013,57.78984,19.249203,-10.906336,-2.0133567,-0.4717276,0.7890562,-0.7489592,0.7874453,0.34970114,-0.39103073,0.70270836,0.6336312,-0.46358848,1.4395204,-0.7727412,-1.7744693,-0.9918224,2.203694,1.3429295,-1.0222213,1.5007693,-0.83736944,-1.804261,-0.9580132,2.1434522,1.2846247,-0.9794969,-1.3596642,1.4131604,0.5367248,-0.5807714,1.0044299,0.5062021,-0.3621884,2.0988846,-0.41200256,1.1127968,-3.0098612,-0.035694182,2.658806,0.30265045,-0.5245056,0.87187654,0.7486725,0.007977565,0.07777733,0.6583134,-0.6603318,0.4913262,0.716859,1.0,0.0,0.0,0.0,0.0,0.0,0.0,-2.7488847,0.0120025575,-0.5627968,2.0627499,0.60305595,7.514429,-20.576561,0.7609129,0.18895864,0.4865706
40.468452,61.360355,21.192629,-9.385814,-1.8851522,-0.35072345,0.8105658,-0.727231,0.7940615,0.42045346,-0.4665401,0.70586854,0.62921655,-0.4361378,1.4280461,-0.7579633,-1.7622156,-1.0046672,2.214039,1.3475463,-1.0231106,1.4874007,-0.8231988,-1.7981117,-0.96516097,2.1535344,1.2896487,-0.9830579,-1.329215,1.4188461,0.6402453,-0.75952953,1.0107944,0.50287753,-0.35421285,2.0688019,-0.41235352,1.1386285,-3.0068521,-0.035658494,2.5579622,0.29667664,-0.51903534,0.8788138,0.75047237,0.0019374483,0.077182695,0.65637666,-0.5695639,0.57017756,0.6805802,1.0,0.0,0.0,0.0,0.0,0.0,0.0,-2.718802,0.01235351,-0.5886285,3.115201,0.7077217,10.136044,-17.899286,0.99384785,0.19694567,0.7591367
37.093197,63.6802,22.115196,-5.5085125,-1.5507286,-0.20014015,0.71804225,-0.7063616,0.8025734,0.46778822,-0.50252426,0.7062402,0.6169255,-0.40483823,1.4167645,-0.74294144,-1.7513329,-1.0154134,2.2241585,1.3513412,-1.0235417,1.4743849,-0.8089452,-1.7908924,-0.9737221,2.1636777,1.2946326,-0.9865207,-1.2920665,1.4279555,0.7481681,-0.8882642,1.0167829,0.49847662,-0.3437183,2.0387497,-0.41270447,1.1634524,-3.003846,-0.035622843,2.457219,0.2915268,-0.5128174,0.88549876,0.75148046,-0.003926256,0.07664725,0.6552761,-0.49078965,0.6437497,0.65854704,1.0,0.0,0.0,0.0,0.0,0.0,0.0,-2.6887498,0.012704462,-0.6134524,3.8113117,1.0706186,10.469031,-12.86956,1.0327578,0.052934885,1.0321498
28.56867,60.266933,20.356455,-0.30982494,-0.9997933,-0.13022089,0.5343331,-0.7008823,0.7996071,0.49434993,-0.5199461,0.7016512,0.61717796,-0.3712978,1.4042966,-0.7289845,-1.7414573,-1.0257167,2.2338428,1.3563503,-1.0236505,1.4616915,-0.7946296,-1.7827251,-0.98316634,2.1738553,1.2995726,-0.9898614,-1.2613983,1.433393,0.8384311,-0.9632258,1.0196147,0.49387243,-0.33097148,2.008728,-0.41305542,1.1872697,-3.0008426,-0.03558723,2.3565764,0.2870102,-0.5059967,0.8920164,0.7518655,-0.009704178,0.076139934,0.6548333,-0.43188834,0.7003658,0.6432143,1.0,0.0,0.0,0.0,0.0,0.0,0.0,-2.6587281,0.013055414,-0.6372697,3.1472921,0.71172714,8.675873,-7.5155735,0.7354021,-0.03874302,1.2601018
21.706272,57.993195,19.05615,4.0750227,-0.5690415,-0.059983626,0.37712097,-0.68893445,0.8049161,0.523552,-0.5269564,0.7006142,0.614198,-0.3297839,1.3927981,-0.714138,-1.7303699,-1.035862,2.2439167,1.3609924,-1.0228398,1.449267,-0.7802558,-1.7737987,-0.9930235,2.1840444,1.3044649,-0.99305433,-1.235859,1.4393172,0.9094778,-0.99335337,1.0202892,0.48895276,-0.31550884,1.9787369,-0.41340637,1.2100813,-2.9978423,-0.03555165,2.2560346,0.28295135,-0.49868774,0.8984328,0.75179446,-0.015462143,0.07565823,0.6548601,-0.3892403,0.7443264,0.63442695,1.0,0.0,0.0,0.0,0.0,0.0,0.0,-2.628737,0.013406366,-0.6600813,2.6096582,0.76749325,6.753409,-3.0576944,0.5168438,-0.12837052,1.5331864
12.447031,53.758312,16.71785,9.237652,-0.03317666,0.013329074,0.17453088,-0.69349885,0.807758,0.53301543,-0.50481534,0.6958013,0.6150547,-0.29189542,1.3799171,-0.69948,-1.7204971,-1.0435051,2.2536244,1.3659704,-1.0222439,1.4369894,-0.76582575,-1.764365,-1.0028492,2.1942182,1.3093096,-0.99607843,-1.2250285,1.444865,0.95372933,-0.979253,1.0178517,0.48397294,-0.29809505,1.9487762,-0.41375732,1.2318883,-2.9948452,-0.035516106,2.1555934,0.27916718,-0.49108124,0.9047968,0.7514619,-0.021248575,0.07521583,0.6551305,-0.3671008,0.7712654,0.63015115,1.0,0.0,0.0,0.0,0.0,0.0,0.0,-2.5987763,0.013757318,-0.6818883,1.0813236,0.73144436,4.121268,1.3130546,0.18339157,-0.21035671,1.7208576
5.234783,47.169464,13.703957,12.244084,0.37351847,-0.042316765,0.03884037,-0.70264065,0.8005381,0.53718585,-0.49491668,0.6974173,0.61540705,-0.2551857,1.3667253,-0.68577194,-1.7106464,-1.0523409,2.26396,1.3708503,-1.021597,1.4247042,-0.751389,-1.7546642,-1.0123802,2.204369,1.3141066,-0.9989175,-1.2298564,1.4437681,0.97474927,-0.9450443,1.0152521,0.4790981,-0.27922073,1.9188461,-0.41410828,1.2526916,-2.9918509,-0.035480596,2.0552523,0.2755127,-0.48332214,0.911095,0.7510253,-0.027047245,0.074821204,0.65546256,-0.3586133,0.7815756,0.6225119,1.0,0.0,0.0,0.0,0.0,0.0,0.0,-2.5688462,0.01410827,-0.7026916,-0.53765774,0.05733967,1.8714547,3.270793,0.11820793,-0.25949478,1.8555522
1.5672364,45.240543,12.817673,14.585922,0.61730814,-0.003398031,-0.03747899,-0.7054303,0.80473894,0.55000055,-0.46239835,0.69940615,0.61345875,-0.20433843,1.3541611,-0.6709151,-1.6996641,-1.0586201,2.2743096,1.3754525,-1.0193514,1.412316,-0.736959,-1.7448242,-1.0214268,2.214501,1.3188559,-1.0015459,-1.2418895,1.4433221,0.98632896,-0.89183605,1.0137552,0.4743553,-0.2576648,1.8889465,-0.41445923,1.2724923,-2.9888594,-0.035445124,1.9550117,0.27186584,-0.47550964,0.917342,0.75057703,-0.03287147,0.074471876,0.6557495,-0.35911357,0.7852511,0.6181431,1.0,0.0,0.0,0.0,0.0,0.0,0.0,-2.5389466,0.014459223,-0.7224923,-1.2902975,0.121855736,0.95819235,5.1486373,0.21607876,-0.28036237,2.1205723
-1.6150074,42.157867,11.514566,15.845892,0.764716,-0.00952211,-0.0892431,-0.72656643,0.8019848,0.55632377,-0.44310835,0.68963766,0.62104046,-0.16920716,1.3396593,-0.6567605,-1.6891918,-1.0657376,2.2834647,1.38096,-1.0184666,1.3997103,-0.722548,-1.7349079,-1.0299298,2.2245908,1.3235689,-1.0039549,-1.267217,1.4408453,0.9930011,-0.83709043,1.0088063,0.47072768,-0.23521398,1.8590775,-0.41481018,1.2912914,-2.9858713,-0.035409685,1.8548712,0.26817322,-0.46769714,0.9235326,0.75017816,-0.038720872,0.074180715,0.6559196,-0.3654971,0.7834486,0.6121326,1.0,0.0,0.0,0.0,0.0,0.0,0.0,-2.5090775,0.014810175,-0.74129134,-2.6548862,-0.08871555,0.5158782,5.2820683,-0.14812946,-0.19976497,2.2070913
-1.9997072,39.440372,10.603819,15.647745,0.79709107,-0.096756294,-0.080462396,-0.73638326,0.7962159,0.5567539,-0.4225641,0.69427013,0.62394714,-0.10705712,1.326072,-0.6429264,-1.6792325,-1.0721861,2.2940178,1.3859637,-1.0146606,1.3868319,-0.7081876,-1.7249572,-1.0379177,2.2346501,1.3282515,-1.0061121,-1.2951465,1.4349161,0.99535054,-0.7865229,1.0060121,0.46796462,-0.20951302,1.8292389,-0.41516113,1.3090897,-2.982886,-0.035374284,1.7548307,0.26441956,-0.45993805,0.9296375,0.749835,-0.044566534,0.0739458,0.6559675,-0.37138173,0.77835596,0.602747,1.0,0.0,0.0,0.0,0.0,0.0,0.0,-2.479239,0.015161127,-0.75908965,-2.9221773,-0.44195652,0.11152029,4.858315,0.043416023,-0.122600794,2.5297375
-1.5215006,38.43723,10.291106,15.352708,0.7418941,-0.16710357,-0.087476626,-0.74775296,0.7972889,0.55143565,-0.39687246,0.68738985,0.6246469,-0.09153065,1.3120565,-0.6284587,-1.6698136,-1.077605,2.303389,1.3907162,-1.0152651,1.3736788,-0.69387674,-1.7150276,-1.0454212,2.2446713,1.3329111,-1.0080252,-1.3225914,1.4302809,0.99188095,-0.7388961,1.0015076,0.4657425,-0.18531263,1.7994308,-0.41551208,1.3258883,-2.9799037,-0.035338916,1.6548902,0.26062012,-0.45220947,0.9356381,0.7495542,-0.05039048,0.073788606,0.6558845,-0.37486914,0.7732523,0.591938,1.0,0.0,0.0,0.0,0.0,0.0,0.0,-2.449431,0.015512079,-0.77588826,-2.8756618,-0.31688213,-0.45319796,4.5673013,-0.1414299,-0.07216334,2.3807855
-0.58783054,35.95011,9.4259,14.02284,0.6523895,-0.31657887,-0.061007734,-0.76424825,0.79076993,0.54417485,-0.39341462,0.6904099,0.628762,-0.061185744,1.297254,-0.61479974,-1.6606101,-1.0847627,2.3137124,1.3957874,-1.0141437,1.3602453,-0.6796298,-1.7051742,-1.0525681,2.2546582,1.3375536,-1.0096998,-1.3507679,1.4232441,0.98294824,-0.7071147,0.99877083,0.4643945,-0.16159208,1.7696533,-0.41586304,1.3416884,-2.9769244,-0.035303585,1.5550497,0.2567978,-0.44454956,0.94148296,0.74932235,-0.056136556,0.07373307,0.65568894,-0.3730884,0.7666084,0.5748168,1.0,0.0,0.0,0.0,0.0,0.0,0.0,-2.4196534,0.015863031,-0.7916884,-2.9456615,-0.56655407,-0.97221136,2.9847264,0.0051140785,0.018721819,2.3330748
3.2366772,35.299202,9.395031,10.722085,0.32026696,-0.5310921,0.031270422,-0.7748466,0.7892663,0.5438436,-0.4238139,0.6916361,0.62748754,-0.047767267,1.2827607,-0.6007032,-1.6507899,-1.0949495,2.3238218,1.4003024,-1.0144765,1.3465544,-0.6654477,-1.6954048,-1.0596653,2.2646298,1.3421866,-1.0111532,-1.3756992,1.4169071,0.9747231,-0.71102756,0.9972536,0.46351266,-0.13985854,1.7399063,-0.416214,1.3564907,-2.9739482,-0.035268288,1.4553089,0.2531433,-0.43693542,0.94708574,0.7490711,-0.06170629,0.07381753,0.6554661,-0.35739535,0.7645798,0.5483246,1.0,0.0,0.0,0.0,0.0,0.0,0.0,-2.3899064,0.016213983,-0.8064907,-2.5956392,-0.50604343,-0.8837819,-0.55838823,0.09256601,0.09237528,2.1428823
6.1528616,36.322624,10.322634,9.636983,0.18567586,-0.5879226,0.114473306,-0.77202964,0.7849161,0.5535862,-0.40827665,0.6874003,0.6321856,0.06074652,1.2693515,-0.5869561,-1.6400461,-1.100493,2.33337,1.4054052,-1.0050786,1.3327013,-0.65133333,-1.6856525,-1.0668198,2.2745786,1.3468157,-1.012332,-1.3887537,1.4101036,0.9750381,-0.7175178,0.9950715,0.46349394,-0.110654324,1.7101898,-0.41656494,1.3702965,-2.970975,-0.03523303,1.355668,0.2496643,-0.42929077,0.95243114,0.7487168,-0.067085326,0.07404605,0.65531665,-0.33546263,0.7671057,0.5228559,1.0,0.0,0.0,0.0,0.0,0.0,0.0,-2.36019,0.016564935,-0.82029647,-1.3777733,-0.55093765,-0.052070618,-0.796628,0.032293797,0.19337535,2.8866053
5.7236423,37.051468,11.040462,11.518357,0.33838236,-0.49167407,0.11242105,-0.773344,0.7807825,0.5585395,-0.36115938,0.68142635,0.63740134,0.1795599,1.2553669,-0.57325506,-1.6297985,-1.1029357,2.3427212,1.4105558,-0.99437594,1.3187796,-0.6372886,-1.6758544,-1.0738312,2.284493,1.3514487,-1.013154,-1.3935935,1.4030738,0.98110974,-0.696325,0.9912411,0.4640002,-0.07277174,1.6805038,-0.4169159,1.3831066,-2.9680045,-0.035197802,1.2561266,0.24637604,-0.42162323,0.9575898,0.74823314,-0.07235992,0.07437774,0.6552703,-0.31906286,0.7699548,0.5063921,1.0,0.0,0.0,0.0,0.0,0.0,0.0,-2.330504,0.016915888,-0.8331066,-0.55401325,-0.5646944,0.49575567,1.968658,-0.10150671,0.2323091,3.7459657
0.298954,33.262104,9.601271,16.013123,0.8447538,-0.3386857,-0.017280493,-0.7878395,0.7666914,0.544028,-0.28699324,0.6686626,0.6599842,0.26785773,1.2399956,-0.5606194,-1.6214516,-1.1025305,2.3513591,1.4174471,-0.98636824,1.3047816,-0.62336206,-1.6660583,-1.0802704,2.2943387,1.3561026,-1.0135603,-1.4022306,1.389662,0.9787394,-0.62722516,0.9831819,0.4663454,-0.030068904,1.6508484,-0.41726685,1.394922,-2.9650369,-0.035162613,1.1566848,0.2430954,-0.41400146,0.96265864,0.7477088,-0.07765689,0.07475059,0.6552199,-0.32085216,0.76171064,0.49988738,1.0,0.0,0.0,0.0,0.0,0.0,0.0,-2.3008485,0.01726684,-0.844922,-0.97494125,-1.1973381,-0.34587383,6.714475,-0.50109625,0.3687501,4.2135663
2.344748,31.90298,9.073622,13.539299,0.619203,-0.53246164,0.034804016,-0.7926795,0.76402503,0.53890836,-0.32883754,0.6737442,0.6549946,0.2750405,1.2255136,-0.5469596,-1.6121675,-1.1131542,2.3617132,1.421602,-0.98605627,1.290692,-0.6095643,-1.6563194,-1.0862519,2.3041234,1.3607775,-1.0135717,-1.4113296,1.3768988,0.97185314,-0.5890901,0.97771305,0.46828267,0.008435005,1.6212234,-0.4176178,1.4057437,-2.9620726,-0.035127457,1.0573423,0.23988342,-0.406456,0.967595,0.7471431,-0.08292253,0.07518356,0.6551706,-0.31257874,0.7547753,0.4845495,1.0,0.0,0.0,0.0,0.0,0.0,0.0,-2.2712235,0.017617792,-0.8557437,-1.0051489,-1.1445761,-0.7690549,3.637755,-0.28293133,0.34264326,3.8014426
4.4006653,32.786617,9.736275,12.476765,0.47022378,-0.5933994,0.09028998,-0.7885973,0.7603228,0.5480416,-0.313131,0.6684757,0.6501143,0.34001324,1.2118323,-0.533532,-1.6015152,-1.1175649,2.370971,1.4257889,-0.9795704,1.2765528,-0.595881,-1.6466072,-1.0919281,2.3138509,1.3654658,-1.0131922,-1.4150186,1.3659403,0.97070926,-0.5609609,0.97202235,0.46955416,0.04762367,1.591629,-0.41796875,1.4155728,-2.9591112,-0.035092335,0.9580991,0.23680115,-0.39894867,0.97237134,0.7464843,-0.08811773,0.07569781,0.6551841,-0.2984448,0.7521732,0.46848956,1.0,0.0,0.0,0.0,0.0,0.0,0.0,-2.2416291,0.017968744,-0.86557275,-0.44538975,-0.96604824,-0.19835234,2.6577353,-0.30919313,0.2875507,3.8716998
4.9697886,32.876373,9.929067,12.559582,0.43738163,-0.6200096,0.09160744,-0.7855848,0.75646573,0.5413992,-0.28239328,0.6604125,0.6556239,0.38764125,1.1979944,-0.5202344,-1.5924672,-1.1201675,2.379892,1.4310281,-0.97442806,1.2624136,-0.5822911,-1.6369236,-1.0972973,2.3235135,1.3701693,-1.0124254,-1.4135458,1.3570793,0.96738505,-0.52956486,0.96480584,0.4710641,0.08603244,1.5620651,-0.4183197,1.4244101,-2.9561527,-0.03505725,0.85895526,0.23387146,-0.39144135,0.976998,0.745717,-0.09325418,0.07630164,0.65527695,-0.2829372,0.7508471,0.45391852,1.0,0.0,0.0,0.0,0.0,0.0,0.0,-2.2120652,0.018319696,-0.8744101,0.07817745,-0.756073,-0.41965246,2.9922962,-0.46305656,0.3093362,3.7938447
4.2971435,31.930222,9.488017,13.0737705,0.46432328,-0.64885056,0.053939298,-0.78939736,0.7545135,0.5271801,-0.2596081,0.6533488,0.65760154,0.4088823,1.1834738,-0.50683975,-1.5842055,-1.1232581,2.3888483,1.4359294,-0.9715372,1.248284,-0.568769,-1.6273315,-1.102327,2.3330884,1.3748881,-1.011302,-1.4128232,1.3509871,0.9562463,-0.4946252,0.95628625,0.47247115,0.12110123,1.5325317,-0.41867065,1.4322568,-2.953197,-0.0350222,0.75991046,0.2310791,-0.3839798,0.9814836,0.7448708,-0.098337434,0.077019595,0.65541226,-0.26834235,0.74811137,0.44004318,1.0,0.0,0.0,0.0,0.0,0.0,0.0,-2.1825318,0.018670648,-0.8822568,-0.0071048737,-0.48077106,-1.1874914,3.34512,-0.6016493,0.2875924,3.4625485
5.7881823,31.220615,9.297735,11.379404,0.31417036,-0.7816725,0.10009365,-0.7872914,0.74929214,0.5265442,-0.27568638,0.6542115,0.65472937,0.43670958,1.1695548,-0.49383977,-1.5746771,-1.1298957,2.3985095,1.440361,-0.96763104,1.2341734,-0.55530787,-1.6178463,-1.1071621,2.3425984,1.3796164,-1.0098448,-1.4106184,1.3448435,0.94581676,-0.48033035,0.94969654,0.4734914,0.15356287,1.5030289,-0.4190216,1.4391137,-2.9502444,-0.034987185,0.66096467,0.22850037,-0.37652588,0.9857889,0.74392515,-0.10331139,0.07786634,0.655621,-0.2466214,0.74633604,0.42070755,1.0,0.0,0.0,0.0,0.0,0.0,0.0,-2.153029,0.0190216,-0.8891137,0.15764236,-0.49171448,-1.1062384,1.2959957,-0.43228865,0.26020408,3.206122
8.936465,29.68896,8.627679,6.959421,-0.048982322,-1.0881442,0.2075029,-0.7865461,0.74170196,0.5233045,-0.34198838,0.65377533,0.6480788,0.4384021,1.1555188,-0.48113766,-1.5655158,-1.141361,2.407976,1.4444243,-0.96600455,1.2200876,-0.5419278,-1.6084545,-1.1122547,2.3520513,1.3843485,-1.0081015,-1.4078537,1.3361797,0.9367787,-0.51905555,0.94483,0.47394654,0.18125635,1.4735413,-0.41937256,1.4449819,-2.947295,-0.034952205,0.5621178,0.22625732,-0.3690796,0.9897825,0.7428109,-0.10801071,0.07889358,0.656004,-0.20793101,0.7451535,0.38580993,1.0,0.0,0.0,0.0,0.0,0.0,0.0,-2.1235414,0.019372553,-0.8949819,0.2563715,-0.75826645,-0.94611645,-3.9758384,-0.31627417,0.23471117,2.7367444
8.276645,29.948853,9.041825,8.659638,0.07215464,-1.010651,0.17546788,-0.7763639,0.7397428,0.5232527,-0.29680368,0.6428456,0.6467433,0.4712263,1.1424513,-0.46795353,-1.5561292,-1.1419351,2.4163358,1.4490229,-0.9609788,1.2060744,-0.5286269,-1.5991275,-1.1175724,2.3614392,1.3890826,-1.0060911,-1.3994071,1.3285043,0.93122774,-0.5363653,0.9376265,0.47397074,0.20751181,1.4440842,-0.4197235,1.4498625,-2.9443483,-0.03491726,0.46336988,0.2243576,-0.3616333,0.9934821,0.741524,-0.112452574,0.08008872,0.65656865,-0.17420581,0.7444126,0.35819724,1.0,0.0,0.0,0.0,0.0,0.0,0.0,-2.0940843,0.019723505,-0.89986247,0.8228302,-0.6516695,-0.6193042,-1.8360734,-0.5283475,0.17425418,2.5915413
6.4057994,27.96592,8.476083,10.768077,0.30106103,-0.9444164,0.117336154,-0.7686075,0.7299762,0.5132184,-0.27137142,0.63133883,0.652618,0.5030115,1.1292136,-0.4556293,-1.5478057,-1.1447096,2.4245732,1.4543444,-0.95579,1.1921736,-0.5154271,-1.5898788,-1.1228787,2.3707356,1.3938204,-1.0038252,-1.3870777,1.3176132,0.9225428,-0.528933,0.92760265,0.4743259,0.23285657,1.4146576,-0.42007446,1.4537562,-2.9414046,-0.03488235,0.36472067,0.22274017,-0.35421753,0.996951,0.7401083,-0.11671772,0.08141202,0.6572585,-0.14840962,0.739796,0.33671874,1.0,0.0,0.0,0.0,0.0,0.0,0.0,-2.0646577,0.020074457,-0.9037562,1.2012959,-0.9680271,-0.94611645,0.6214857,-0.7926345,0.186342,2.4949372
4.5922117,25.825125,7.6126733,12.047655,0.47897667,-0.93038327,0.06458767,-0.7716479,0.7252373,0.50159574,-0.27071488,0.6391338,0.64888334,0.5068835,1.1150088,-0.44290337,-1.5397192,-1.1499501,2.434649,1.4587088,-0.95313686,1.1783625,-0.502337,-1.580754,-1.1280476,2.3799672,1.3985583,-1.0013304,-1.3794303,1.306532,0.909027,-0.51334196,0.92253834,0.47409597,0.25484872,1.3852615,-0.42042542,1.4566642,-2.9384637,-0.034847476,0.26617008,0.221344,-0.3468933,1.0002214,0.7386177,-0.120835386,0.08283032,0.65801346,-0.1281844,0.7307659,0.31750232,1.0,0.0,0.0,0.0,0.0,0.0,0.0,-2.0352616,0.02042541,-0.9066642,0.7084608,-0.9868622,-1.4128804,1.4244199,-0.29433966,0.108897686,2.1614969
5.0138254,25.407944,7.156755,10.719931,0.33521068,-1.0498304,0.069057494,-0.7758888,0.7287492,0.48778978,-0.30605808,0.6360875,0.646484,0.5029177,1.1007736,-0.42946205,-1.531975,-1.1586534,2.4435759,1.4632066,-0.9510386,1.1645781,-0.48931503,-1.5718067,-1.133228,2.3891568,1.4032904,-0.9986458,-1.3784299,1.3011147,0.88994277,-0.52010834,0.9185378,0.47356814,0.27294677,1.355896,-0.42077637,1.4585875,-2.9355257,-0.034812637,0.16771802,0.22020721,-0.33966064,1.0032572,0.73707443,-0.12474063,0.08438049,0.6588179,-0.10210285,0.72179806,0.29264212,1.0,0.0,0.0,0.0,0.0,0.0,0.0,-2.005896,0.020776361,-0.9085875,0.037884712,-0.42731762,-1.9374967,-0.79803467,-0.2162695,0.07824898,1.7813444
4.8301926,23.666044,6.477184,10.337155,0.33048874,-1.1183627,0.06750071,-0.7700396,0.7192363,0.47721162,-0.3085256,0.6230549,0.6517282,0.51639134,1.0875741,-0.4173914,-1.5240855,-1.1640805,2.4514623,1.4684632,-0.94700664,1.150807,-0.47636318,-1.5630672,-1.1385247,2.3982816,1.4080225,-0.9957943,-1.3768287,1.29356,0.86861956,-0.5332064,0.9110183,0.47351885,0.28917238,1.326561,-0.42112732,1.4595269,-2.9325907,-0.03477783,0.069364384,0.2193222,-0.33252716,1.0060242,0.73548687,-0.12839061,0.08608595,0.6596696,-0.07448583,0.7104752,0.26531023,1.0,0.0,0.0,0.0,0.0,0.0,0.0,-1.976561,0.021127313,-0.9095269,0.10602474,-0.6439924,-2.1581888,-1.4295459,-0.58072805,0.12079477,1.5938759
4.1702013,19.503447,4.6317234,9.242089,0.3465683,-1.281672,0.06013131,-0.7651794,0.70313984,0.4501668,-0.3310726,0.6031424,0.65058863,0.5206642,1.0742891,-0.4060492,-1.5180506,-1.1716319,2.4585958,1.4730814,-0.94372785,1.1370684,-0.46354485,-1.5546215,-1.144054,2.4072804,1.4127547,-0.9927969,-1.3728328,1.2782621,0.83655083,-0.5600155,0.896405,0.47342432,0.30312255,1.2972565,-0.42147827,1.4594835,-2.929659,-0.03474306,-0.028890915,0.21873474,-0.32556152,1.0084649,0.7338762,-0.13171339,0.0879679,0.6605594,-0.043917857,0.6915396,0.23090759,1.0,0.0,0.0,0.0,0.0,0.0,0.0,-1.9472564,0.021478266,-0.9094835,0.37441254,-1.4251232,-3.237939,-2.8026938,-1.3208747,0.11433959,1.3630509
5.2679815,15.754327,2.5003138,4.7090425,0.077049315,-1.6445724,0.12580137,-0.77114964,0.69146895,0.42009133,-0.431871,0.59380096,0.6589854,0.5121781,1.0599535,-0.39439794,-1.5126123,-1.1872412,2.4666605,1.4786532,-0.9415791,1.1233412,-0.45091724,-1.546582,-1.150293,2.4161115,1.4174906,-0.9896841,-1.3723762,1.2579429,0.79305047,-0.64544886,0.8790783,0.47427648,0.31393686,1.2679825,-0.42182922,1.4584583,-2.92673,-0.034708325,-0.12704799,0.21859741,-0.31884003,1.0104128,0.7322312,-0.1344928,0.09009909,0.661537,0.0018230121,0.6649151,0.17687656,1.0,0.0,0.0,0.0,0.0,0.0,0.0,-1.9179825,0.021829218,-0.9084583,0.08611679,-1.9451618,-4.3723226,-8.634985,-1.671946,0.21859407,1.0556042
6.0172787,13.24063,0.96255344,1.3732224,-0.118454754,-1.9247751,0.16889785,-0.7717032,0.6810743,0.38872257,-0.5151414,0.5826491,0.654841,0.49965054,1.0461708,-0.38280982,-1.5077097,-1.2018071,2.4743764,1.4829746,-0.9397191,1.1096121,-0.4385066,-1.539048,-1.1577126,2.4247594,1.4222323,-0.98648834,-1.3727427,1.2356731,0.7401502,-0.77446634,0.8601983,0.47462162,0.32146698,1.238739,-0.42218018,1.4564523,-2.9238038,-0.034673624,-0.22510691,0.21897888,-0.31243896,1.0117128,0.7305397,-0.1365169,0.09254404,0.6626541,0.05892483,0.6320966,0.10862351,1.0,0.0,0.0,0.0,0.0,0.0,0.0,-1.888739,0.02218017,-0.90645224,0.06916523,-2.152729,-5.3198934,-12.96221,-1.8896103,0.15666485,0.73053837
4.939011,9.542533,-0.38693643,1.3128386,0.03162378,-1.9809345,0.17022799,-0.76096576,0.6535573,0.3660256,-0.55968934,0.56206703,0.65868944,0.5083302,1.0335156,-0.3731509,-1.5024453,-1.2136815,2.480966,1.4881012,-0.9356553,1.0959288,-0.4263978,-1.5320461,-1.1664444,2.4331937,1.4269797,-0.98322296,-1.3662567,1.2028462,0.6868281,-0.90643626,0.8376391,0.4750373,0.32814604,1.2095261,-0.42253113,1.4534664,-2.9208806,-0.034638956,-0.3230678,0.21994781,-0.30639648,1.0123106,0.728804,-0.1377128,0.09527944,0.6639289,0.11367182,0.59206945,0.037899002,1.0,0.0,0.0,0.0,0.0,0.0,0.0,-1.859526,0.022531122,-0.9034664,0.80792904,-3.211689,-5.407691,-13.252365,-2.272725,0.13498664,0.6379664
4.5293336,8.323927,-0.19831562,1.885035,0.11610794,-1.8912528,0.20857497,-0.75972253,0.6251973,0.37736025,-0.62658656,0.5230528,0.65691054,0.5220179,1.0199566,-0.36387807,-1.49431,-1.2291031,2.485499,1.4926708,-0.93102115,1.082318,-0.41469336,-1.5253913,-1.1765,2.4413228,1.431727,-0.97988987,-1.3586646,1.1598868,0.65787,-1.0387962,0.8047691,0.4749176,0.33493397,1.1803436,-0.42288208,1.4495018,-2.9179602,-0.034604326,-0.42093074,0.22140503,-0.3007431,1.0122136,0.7269887,-0.1381025,0.0982567,0.6654027,0.16450156,0.5532625,-0.031071233,1.0,0.0,0.0,0.0,0.0,0.0,0.0,-1.8303436,0.022882074,-0.89950174,0.9440899,-4.2248726,-3.01224,-13.282037,-3.2874346,0.05095005,0.6418228
1.9659109,4.102662,-1.29139,4.444763,0.46264002,-1.742022,0.16487929,-0.74819756,0.5840719,0.36104697,-0.6597405,0.47487912,0.6510787,0.52435815,1.0074981,-0.35628617,-1.4892867,-1.242474,2.4888108,1.4968349,-0.92745405,1.0688254,-0.40353203,-1.5189655,-1.1876923,2.4490285,1.4364668,-0.9764948,-1.3454373,1.1017634,0.63697183,-1.1461833,0.75885963,0.47378862,0.34077898,1.1511917,-0.42323303,1.4445591,-2.9150426,-0.03456973,-0.51869583,0.22328949,-0.29551697,1.0114743,0.72510207,-0.13777128,0.101403624,0.66705567,0.20283636,0.50949556,-0.093555085,1.0,0.0,0.0,0.0,0.0,0.0,0.0,-1.8011917,0.023233026,-0.8945591,1.5104532,-5.743742,-2.242756,-10.808802,-4.56686,-0.08721948,0.5304873
-0.74253607,1.4026176,-2.181341,7.4171553,0.7758846,-1.579157,0.08179986,-0.7442543,0.5560039,0.33473304,-0.68992335,0.43719548,0.6452895,0.5231657,0.9943999,-0.34793162,-1.4854922,-1.2566847,2.492748,1.5009958,-0.92417824,1.0554625,-0.3929777,-1.51278,-1.1997524,2.456223,1.4411894,-0.9730501,-1.3326852,1.0402148,0.6119143,-1.2263802,0.7065731,0.47170934,0.34541893,1.1220703,-0.42358398,1.4386396,-2.912128,-0.034535166,-0.6163633,0.2254715,-0.29074097,1.0101712,0.7232041,-0.13682063,0.104676835,0.668804,0.22862306,0.4624878,-0.14780083,1.0,0.0,0.0,0.0,0.0,0.0,0.0,-1.7720703,0.023583978,-0.8886396,1.4220476,-6.0898304,-2.6444197,-8.117652,-5.1896334,-0.22179484,0.39861798
-4.3778906,-3.802445,-4.2193136,10.554487,1.1928123,-1.442301,-0.027232315,-0.73400444,0.5101253,0.30006352,-0.7053939,0.3829438,0.6428309,0.5121564,0.98206204,-0.3419652,-1.4827735,-1.2702918,2.4945173,1.5054725,-0.92183447,1.0422426,-0.38311148,-1.5069473,-1.2123905,2.4628224,1.4458891,-0.9695749,-1.31799,0.96889406,0.57336587,-1.2768193,0.64444864,0.4691271,0.34786668,1.0929642,-0.42393494,1.4317441,-2.9092166,-0.03450064,-0.71393305,0.22781372,-0.28650665,1.0083772,0.7213868,-0.13534296,0.10803301,0.6705313,0.23976983,0.40710184,-0.19484814,1.0,0.0,0.0,0.0,0.0,0.0,0.0,-1.7429641,0.02393493,-0.8817441,1.5833855,-7.0777774,-3.976369,-5.1782846,-6.173098,-0.31061172,0.15824437
-12.87533,-20.171509,-12.313167,12.651004,2.1080928,-1.6014879,-0.23965688,-0.73768246,0.4346665,0.18638645,-0.7380744,0.38003844,0.6283753,0.504985,0.9684744,-0.33964482,-1.4883087,-1.286198,2.5008264,1.5087266,-0.91907644,1.0291201,-0.37415552,-1.5019672,-1.2254597,2.4688916,1.4505507,-0.9660883,-1.3099171,0.8711599,0.472687,-1.317744,0.59436756,0.46451262,0.34847918,1.0638885,-0.4242859,1.4238737,-2.9063082,-0.034466147,-0.8114053,0.2301178,-0.28311157,1.006068,0.71986586,-0.13325393,0.111360036,0.67203826,0.2293609,0.3129136,-0.24752401,1.0,0.0,0.0,0.0,0.0,0.0,0.0,-1.7138885,0.024285883,-0.87387365,0.9422779,-9.768891,-10.138345,-4.2704344,-5.0800323,-0.5983412,-0.06802082
-20.265673,-36.89135,-19.915133,14.068015,2.996146,-1.7365097,-0.37544933,-0.7168631,0.3299752,0.094586104,-0.76273406,0.34140605,0.6019317,0.48094326,0.95743376,-0.341158,-1.4925085,-1.3017331,2.5030322,1.5107439,-0.91799396,1.0161425,-0.3664899,-1.4983337,-1.2389027,2.474465,1.4551417,-0.9626188,-1.2927953,0.73155856,0.32651725,-1.3538978,0.54459023,0.45675683,0.34587052,1.0348434,-0.42463684,1.4150293,-2.9034026,-0.03443169,-0.90878004,0.23215485,-0.28092957,1.0031828,0.7188312,-0.13042295,0.11448103,0.67317575,0.19841076,0.18223959,-0.30619878,1.0,0.0,0.0,0.0,0.0,0.0,0.0,-1.6848434,0.024636835,-0.8650293,1.9509315,-14.0073185,-14.733934,-3.7979603,-5.1404476,-0.99657774,-0.4325211
-51.072487,-110.70913,-53.12274,16.99252,6.4379206,-2.4098268,-0.85631555,-0.6835604,-0.051957175,-0.19495592,-0.78064394,0.17123735,0.59007823,0.47866088,0.94778645,-0.3716856,-1.5178293,-1.3169671,2.4915886,1.5141494,-0.9147527,1.003491,-0.36178207,-1.4973075,-1.2526776,2.4791226,1.4596354,-0.9591875,-1.2535776,0.383017,0.026825165,-1.3859915,0.4380922,0.44520524,0.34098125,1.0058289,-0.4249878,1.4052118,-2.9004998,-0.034397263,-1.0060574,0.23331451,-0.28121185,0.9994079,0.71878064,-0.12644151,0.11688275,0.6735765,0.08829084,-0.1033401,-0.40424663,1.0,0.0,0.0,0.0,0.0,0.0,0.0,-1.6558288,0.024987787,-0.8552118,4.6285152,-35.110535,-30.325954,-3.3754349,-11.1622095,-1.693356,-0.8553624
-69.50721,-154.38783,-71.88747,19.666885,7.7797484,-2.4602334,-1.1238315,-0.6406753,-0.3707761,-0.36374345,-0.7766518,-0.41339564,0.57511824,0.5091084,0.9394235,-0.39885968,-1.5336819,-1.3303428,2.437783,1.5171472,-0.9082767,0.9914132,-0.36172247,-1.4997299,-1.2666413,2.4810605,1.4639956,-0.9557867,-1.1888874,-0.121002026,-0.33412242,-1.3991014,0.11014523,0.43012175,0.33819032,0.9768448,-0.42533875,1.3944223,-2.8976,-0.03436287,-1.1032375,0.23301697,-0.2848816,0.99446464,0.7200792,-0.12116329,0.11862271,0.67285514,-0.0685596,-0.45435742,-0.5260203,1.0,0.0,0.0,0.0,0.0,0.0,0.0,-1.6268448,0.02533874,-0.8444223,7.5491667,-50.79614,-36.740555,-1.1370182,-33.4534,-2.3538113,-0.7773757
-65.24252,-145.56133,-65.27602,21.341646,7.4506397,-1.7737176,-0.8692346,-0.5874199,-0.5681073,-0.37974268,-0.7694792,-0.5767127,0.601678,0.5216698,0.9326712,-0.4185332,-1.5377041,-1.3435892,2.4233892,1.5241634,-0.9036197,0.9801455,-0.3668518,-1.5051563,-1.2805935,2.4794278,1.4682318,-0.95239353,-1.1023997,-0.6449574,-0.61453104,-1.3918178,-0.25615758,0.41837215,0.3384545,0.94789124,-0.42568207,1.3826617,-2.894703,-0.034328517,-1.2003205,0.23114014,-0.29175568,0.9883762,0.72253364,-0.11482799,0.119718365,0.6711387,-0.23312828,-0.7654089,-0.6374875,1.0,0.0,0.0,0.0,0.0,0.0,0.0,-1.5978912,0.025682062,-0.8326617,9.720969,-52.803062,-28.758251,1.3317347,-37.15604,-2.094406,-0.36216378
-38.701004,-90.30767,-35.696537,19.105196,5.0887723,-0.650182,-0.1105338,-0.52656347,-0.67711514,-0.21948026,-0.7932987,-0.5983735,0.6147881,0.5321448,0.92748916,-0.43456334,-1.5271043,-1.3599234,2.4195905,1.5297107,-0.89917904,0.9698563,-0.37650585,-1.5117233,-1.2945305,2.4746556,1.4723898,-0.94896984,-1.0022172,-1.0731807,-0.67263085,-1.3919529,-0.5519832,0.41284198,0.34324464,0.9189682,-0.42601776,1.369931,-2.8918087,-0.034294195,-1.2973064,0.22796631,-0.30075073,0.98141897,0.7253593,-0.10794825,0.120069854,0.66916674,-0.35058376,-0.94047976,-0.71702,1.0,0.0,0.0,0.0,0.0,0.0,0.0,-1.5689682,0.026017755,-0.819931,10.663557,-43.113255,-6.3816905,0.6757498,-29.810041,-1.1731863,0.3820479
5.937618,-4.4947033,9.819493,13.397619,1.0049751,0.5162798,0.9737816,-0.34367302,-0.7068336,0.040497493,-0.7918545,-0.6554741,0.6353151,0.52524096,0.935489,-0.4471892,-1.5076735,-1.373716,2.4091082,1.5359213,-0.89644575,0.9611741,-0.38920736,-1.5168464,-1.3084847,2.4675221,1.4765536,-0.945487,-0.82418895,-1.3360158,-0.4595677,-1.3959296,-0.766494,0.41787642,0.35074455,0.8900757,-0.42635345,1.3562312,-2.8889174,-0.034259908,-1.3941953,0.22441101,-0.3100052,0.97406995,0.7273536,-0.10131169,0.11975088,0.6680962,-0.3649149,-0.9169059,-0.7441606,1.0,0.0,0.0,0.0,0.0,0.0,0.0,-1.5400757,0.026353449,-0.8062312,17.638195,-26.340914,21.089952,-0.14286041,-21.258986,0.55857897,0.9790361
42.839733,55.718445,39.49625,3.874,-2.213047,0.29587236,1.6596051,0.025827302,-0.73493433,-0.022585148,-0.7739,-0.67666006,0.646382,0.50005746,0.9637568,-0.46270078,-1.519105,-1.3858746,2.399856,1.5411918,-0.8954813,0.9557019,-0.40347195,-1.5198028,-1.3224255,2.4588513,1.4808012,-0.9419441,-0.4583836,-1.45617,-0.23972325,-1.3941271,-0.89934325,0.42825228,0.356601,0.8612137,-0.42668915,1.3415632,-2.886029,-0.034225654,-1.4909874,0.22151184,-0.31821442,0.9666445,0.7276153,-0.09538093,0.118963316,0.66882443,-0.26823136,-0.7816339,-0.7456542,1.0,0.0,0.0,0.0,0.0,0.0,0.0,-1.5112137,0.026689142,-0.7915632,35.5259,-11.886835,22.39985,-0.055933,-12.866902,1.4079213,0.9565592
42.551876,55.589264,32.527626,-0.12480593,-2.2857811,-0.95669407,1.2180661,0.22220984,-0.7689567,-0.37748122,-0.75602794,-0.6623392,0.6304205,0.4514587,0.97792286,-0.48036763,-1.5575509,-1.3980283,2.3926175,1.5438433,-0.89679825,0.95437723,-0.4182992,-1.5225837,-1.3362614,2.4493794,1.4851252,-0.93839455,-0.028086647,-1.4913017,-0.28817883,-1.3809962,-0.9622871,0.43400225,0.35511768,0.8323822,-0.42702484,1.3259281,-2.8831434,-0.034191433,-1.5876827,0.2197876,-0.3254242,0.95906264,0.7263671,-0.08984977,0.11799073,0.67111546,-0.14370054,-0.69182235,-0.7657653,1.0,0.0,0.0,0.0,0.0,0.0,0.0,-1.4823822,0.027024835,-0.7759281,41.777065,-3.4240723,-4.0228844,1.0327816,-6.0667753,0.65360665,0.07891655
34.67311,44.03732,21.21711,-1.1944127,-1.5510719,-1.8334768,0.7458184,0.3753137,-0.78962946,-0.55551326,-0.7578048,-0.5907183,0.62001973,0.40306035,0.9919086,-0.49726215,-1.578135,-1.4120419,2.3903077,1.5471271,-0.8980885,0.9572335,-0.43316793,-1.5272491,-1.3499733,2.4398084,1.4894778,-0.93490887,0.38633022,-1.4853642,-0.5228299,-1.3686392,-0.9551199,0.43519306,0.3468215,0.803566,-0.42736053,1.3093266,-2.8802607,-0.03415725,-1.6842813,0.21923065,-0.3321457,0.9511157,0.72417855,-0.08419254,0.11694457,0.6743893,-0.024641657,-0.6600819,-0.8077901,1.0,0.0,0.0,0.0,0.0,0.0,0.0,-1.453566,0.027360529,-0.75932664,40.269573,0.60999393,-22.550655,1.0361195,0.7882714,-0.03476143,-0.6990433
23.662525,32.319057,12.02965,1.027637,-0.6753967,-2.0164118,0.35548007,0.44112635,-0.7948193,-0.6269311,-0.77043504,-0.5438293,0.6054627,0.377778,1.0013461,-0.5126499,-1.5899422,-1.4270169,2.3854253,1.550024,-0.8971311,0.9634724,-0.4478569,-1.5346553,-1.3636414,2.4306111,1.4938189,-0.93152905,0.70043755,-1.4635451,-0.8108202,-1.3665109,-0.9078239,0.43293127,0.3353493,0.7747803,-0.42769623,1.2917601,-2.8773808,-0.0341231,-1.7807834,0.2196579,-0.3388443,0.9426622,0.72153187,-0.078044645,0.11583466,0.6781468,0.06808534,-0.66661334,-0.86200976,1.0,0.0,0.0,0.0,0.0,0.0,0.0,-1.4247802,0.027696222,-0.7417601,30.612457,2.1410942,-28.141272,0.14717579,4.6972036,-0.47248602,-1.0614991
13.927999,26.455757,8.310802,5.6714334,0.008674502,-1.5619699,0.12538008,0.45451364,-0.7929737,-0.63266,-0.7752117,-0.5148583,0.60487556,0.38511786,1.0089238,-0.52715427,-1.5979214,-1.4411626,2.3791254,1.5543064,-0.89301723,0.9718409,-0.46230936,-1.5444915,-1.377338,2.4219937,1.4981352,-0.9282532,0.881171,-1.4394131,-1.0401502,-1.3705943,-0.8469245,0.4304349,0.3252718,0.7460251,-0.42803192,1.2732291,-2.8745039,-0.034088984,-1.8771889,0.22075653,-0.3456726,0.933704,0.7187194,-0.07132547,0.11463649,0.68206555,0.12659094,-0.68176466,-0.9121152,1.0,0.0,0.0,0.0,0.0,0.0,0.0,-1.3960251,0.028031915,-0.7232291,17.735195,2.3432732,-22.64787,-0.36263466,5.9825897,-0.47421455,-0.93999505
9.331003,28.414928,10.807129,10.568277,0.19409508,-0.7674322,0.08372838,0.4667668,-0.79293036,-0.5856062,-0.7662467,-0.54506767,0.62917197,0.38166577,1.0185176,-0.5416024,-1.6030521,-1.4539627,2.367487,1.5610524,-0.8900866,0.9812022,-0.47656775,-1.5556953,-1.3910443,2.413815,1.5024496,-0.9250698,0.9543957,-1.4215838,-1.1469758,-1.3702283,-0.8089609,0.43140024,0.31627125,0.7173004,-0.4283676,1.2537348,-2.8716297,-0.0340549,-1.9734981,0.22223663,-0.35251617,0.92438364,0.7158024,-0.06424445,0.113360904,0.68603843,0.15938312,-0.67709506,-0.9443681,1.0,0.0,0.0,0.0,0.0,0.0,0.0,-1.3673004,0.028367609,-0.7037348,7.3074937,1.7095566,-10.681963,0.12040138,3.6516547,-0.041913986,-0.8361161
4.0772896,28.499165,11.817688,15.011886,0.42812973,-0.1273362,0.0044525787,0.451389,-0.79166895,-0.58463514,-0.7543383,-0.57497585,0.6382344,0.3660631,1.0263411,-0.55573463,-1.6141589,-1.4664781,2.3563175,1.5662731,-0.8884635,0.990676,-0.49070454,-1.5673301,-1.4046818,2.4058003,1.5067888,-0.921978,0.9456046,-1.4113352,-1.1697636,-1.3610802,-0.7996548,0.4343144,0.30690226,0.68860626,-0.4287033,1.2332782,-2.8687584,-0.034020852,-2.0697107,0.22384644,-0.35921478,0.91485584,0.71282,-0.057046022,0.11205775,0.68998295,0.16859601,-0.661059,-0.9615822,1.0,0.0,0.0,0.0,0.0,0.0,0.0,-1.3386062,0.028703302,-0.68327814,-0.68091154,0.94258785,-2.4405003,1.0324001,0.74065924,0.22202134,-0.89788437
0.8460078,28.492405,12.425554,17.62653,0.5938256,0.25814527,-0.03817235,0.4401284,-0.79182714,-0.58765525,-0.74415326,-0.58558404,0.6473659,0.3486696,1.0346888,-0.5698873,-1.6260957,-1.4790971,2.3472419,1.5715255,-0.88711107,0.9997521,-0.5047908,-1.5788524,-1.4181763,2.3977513,1.5111643,-0.9189844,0.8959032,-1.4080262,-1.1472161,-1.3450432,-0.8071373,0.43859205,0.2969907,0.6599426,-0.429039,1.2118602,-2.8658903,-0.03398684,-2.165827,0.2254715,-0.3657303,0.90522677,0.7098093,-0.04989277,0.110755,0.6938406,0.16354698,-0.6397025,-0.96921414,1.0,0.0,0.0,0.0,0.0,0.0,0.0,-1.3099426,0.029038996,-0.66186017,-4.684484,0.24394989,2.028513,1.7401934,-0.9642482,0.40069222,-0.9617567
-5.471376,23.139194,8.881381,19.274563,1.0416554,0.37883893,-0.15666705,0.383073,-0.7966332,-0.6184531,-0.7489824,-0.5694282,0.6324047,0.3564894,1.0380594,-0.5844541,-1.6406977,-1.4930745,2.3408084,1.5744047,-0.8833355,1.0080395,-0.51889944,-1.5901821,-1.4315487,2.3896413,1.5155684,-0.91607475,0.807462,-1.4121575,-1.129243,-1.33386,-0.8131286,0.44095188,0.28894457,0.6313095,-0.4293747,1.1894816,-2.8630252,-0.03395286,-2.2618475,0.22690582,-0.3721161,0.8954994,0.70688283,-0.04277249,0.1094321,0.697504,0.14130443,-0.6322912,-0.9794903,1.0,0.0,0.0,0.0,0.0,0.0,0.0,-1.2813095,0.029374689,-0.6394816,-8.472657,-0.5181074,1.5296459,1.3115883,-0.8530736,0.20167828,-0.7955313
-16.274738,16.990757,3.9472163,22.66644,1.6882478,0.67363006,-0.39234325,0.23226795,-0.7891041,-0.6119401,-0.7543825,-0.5680577,0.62700814,0.33479255,1.0312662,-0.59780985,-1.6513761,-1.506987,2.3328354,1.5782692,-0.8825955,1.0148487,-0.5330291,-1.6013362,-1.4448658,2.3814778,1.5199877,-0.9132538,0.6405889,-1.4136432,-1.1121631,-1.3302189,-0.81838465,0.4422955,0.27966496,0.6027069,-0.4297104,1.1661437,-2.860163,-0.033918913,-2.3577719,0.2279129,-0.37856293,0.88565814,0.70428103,-0.035616882,0.108098894,0.70073843,0.0899269,-0.64140403,-0.99112964,1.0,0.0,0.0,0.0,0.0,0.0,0.0,-1.2527069,0.029710382,-0.61614364,-16.125822,-0.28254986,1.3376951,0.6413698,-0.85721016,0.10300279,-0.9649277
-36.356415,3.1373262,-6.6062975,27.776169,2.9508357,1.0596645,-0.79049575,-0.03045089,-0.79407877,-0.6206758,-0.7864306,-0.5422926,0.5817196,0.33284447,1.0118036,-0.61243695,-1.6634039,-1.5235089,2.3272486,1.5781597,-0.87996936,1.01898,-0.547194,-1.6124198,-1.4583222,2.373345,1.5243822,-0.91052055,0.34039262,-1.4181207,-1.1091032,-1.3491113,-0.81313187,0.43822858,0.2707836,0.5741272,-0.43004608,1.1418473,-2.8573036,-0.033885002,-2.4536004,0.22799683,-0.38537598,0.87562436,0.70242447,-0.028236374,0.10673242,0.7031434,-0.013671588,-0.6870451,-1.0125643,1.0,0.0,0.0,0.0,0.0,0.0,0.0,-1.2241272,0.030046076,-0.59184724,-29.13164,-0.6481409,-0.24652481,-1.435113,0.042450428,-0.4867375,-0.9887278
-46.514217,-0.54202986,-9.642103,31.292606,3.640934,1.5055181,-0.93315595,-0.21947137,-0.79738265,-0.57958215,-0.7908669,-0.49567202,0.55137974,0.34661192,0.9970329,-0.62693226,-1.6703781,-1.5374088,2.3237777,1.5795202,-0.8758594,1.019619,-0.56141615,-1.6233337,-1.471996,2.3654103,1.52871,-0.907856,-0.024682842,-1.4244261,-1.0874478,-1.3717175,-0.7886107,0.43051296,0.26470304,0.5455704,-0.43038177,1.1165931,-2.8544471,-0.033851124,-2.549333,0.22682953,-0.39272308,0.8654008,0.70156115,-0.020564219,0.105218284,0.7044984,-0.1490182,-0.74307966,-1.0304112,1.0,0.0,0.0,0.0,0.0,0.0,0.0,-1.1955703,0.030381769,-0.5665931,-35.46806,-0.88009834,1.5176296,-1.707077,1.8808603,-0.8934438,-0.70139766
-43.13626,6.10534,-5.380726,30.435383,3.3637319,1.7023743,-0.78816754,-0.324141,-0.7917312,-0.5453825,-0.79609203,-0.4776553,0.55510944,0.4006912,0.9872049,-0.64058924,-1.677872,-1.5516051,2.3176448,1.584221,-0.8677869,1.0168171,-0.57566595,-1.633887,-1.4858853,2.3577695,1.5329653,-0.90519905,-0.3621798,-1.4260086,-1.0466486,-1.3927938,-0.757528,0.42327607,0.26596522,0.51704407,-0.43071747,1.0903825,-2.8515935,-0.03381728,-2.64497,0.2243576,-0.40052032,0.8550484,0.7016067,-0.012670627,0.10346814,0.7048984,-0.2793872,-0.78257084,-1.0413605,1.0,0.0,0.0,0.0,0.0,0.0,0.0,-1.167044,0.030717462,-0.54038244,-32.784233,-0.41167736,3.4551144,-1.5619755,2.5575042,-0.87164044,0.09035468
-30.433292,16.635847,2.1444628,25.93639,2.4401007,1.5533595,-0.47955748,-0.3614502,-0.7922665,-0.53498113,-0.8000871,-0.4971552,0.554751,0.44795156,0.98067206,-0.6548926,-1.6873852,-1.565894,2.308054,1.5884404,-0.8604039,1.0113697,-0.58991766,-1.6440208,-1.499952,2.350346,1.5371557,-0.90248203,-0.60326993,-1.4254793,-1.0039977,-1.4097304,-0.73872846,0.41715777,0.27361587,0.48854828,-0.43105316,1.0632162,-2.8487422,-0.03378347,-2.7405114,0.22083282,-0.40849304,0.8446092,0.70225126,-0.004659199,0.10148018,0.70464396,-0.37644735,-0.7945288,-1.048943,1.0,0.0,0.0,0.0,0.0,0.0,0.0,-1.1385483,0.031053156,-0.5132162,-23.395092,-0.15563965,3.76904,-1.245451,1.4363408,-0.739336,0.7880449
-23.676672,19.42408,3.5022347,22.0927,1.9434974,1.1729016,-0.37578556,-0.42678156,-0.7907405,-0.6075565,-0.80454344,-0.51562023,0.54427,0.4550796,0.9686915,-0.6689917,-1.7047764,-1.5804063,2.298784,1.5915828,-0.85697407,1.0041008,-0.6041484,-1.6541584,-1.5141522,2.342999,1.5412813,-0.89968204,-0.7665438,-1.4227924,-1.0180504,-1.4222894,-0.7350034,0.4106055,0.28225192,0.460083,-0.43138885,1.0350951,-2.8458939,-0.033749692,-2.835957,0.21653748,-0.4165802,0.834015,0.7033173,0.003515389,0.09932734,0.70389384,-0.45023808,-0.80296415,-1.0667578,1.0,0.0,0.0,0.0,0.0,0.0,0.0,-1.110083,0.03138885,-0.48509508,-15.792131,0.0838995,-1.7743587,-0.84581375,-0.017249584,-0.8237362,0.8962929
-20.738754,20.748606,3.974625,20.305182,1.7322868,1.0202961,-0.3402868,-0.5056215,-0.7903386,-0.64200795,-0.8008344,-0.5239185,0.56316316,0.4651931,0.95353866,-0.68318224,-1.7183591,-1.5942357,2.2906072,1.5975976,-0.85316277,0.99551684,-0.6183486,-1.6647022,-1.5284153,2.3356137,1.5453631,-0.8967943,-0.8874694,-1.4196987,-1.0675242,-1.4264555,-0.7404807,0.4065702,0.2911127,0.43164825,-0.43172455,1.0060203,-2.8430483,-0.03371595,-2.9313073,0.21157837,-0.42474365,0.8232,0.70473963,0.011901282,0.09706494,0.70269394,-0.5143749,-0.8103291,-1.0899746,1.0,0.0,0.0,0.0,0.0,0.0,0.0,-1.0816482,0.031724542,-0.4560203,-11.65452,0.13375282,-5.2371264,-0.019860268,-0.9169698,-0.6010771,0.9189546
-24.036884,18.615953,1.6109066,20.617573,1.9143854,1.030796,-0.44885612,-0.6064049,-0.79013526,-0.6949835,-0.79504424,-0.5394056,0.56433177,0.40790188,0.9348763,-0.6973621,-1.7342005,-1.6079197,2.2816732,1.6017963,-0.8560041,0.98573023,-0.63252306,-1.675988,-1.5426556,2.328114,1.5494066,-0.8938694,-1.0075787,-1.4174361,-1.14972,-1.4218404,-0.7546002,0.4029392,0.2929979,0.40324402,-0.43206024,0.9759928,-2.8402057,-0.033682242,-3.0265622,0.20593262,-0.43304443,0.8121095,0.7065921,0.020555811,0.09471922,0.70095164,-0.5861085,-0.82524276,-1.1188967,1.0,0.0,0.0,0.0,0.0,0.0,0.0,-1.053244,0.032060236,-0.4259928,-11.567772,0.028562546,-8.484483,0.90715885,-1.8123746,-0.6237149,0.20824671
-24.199951,20.374453,2.864708,20.567787,1.9752004,1.2146403,-0.43231526,-0.67895323,-0.79410726,-0.693607,-0.79470277,-0.49712387,0.5552702,0.3517439,0.9178349,-0.7119338,-1.7453487,-1.6221259,2.2784016,1.6049336,-0.85869503,0.97474676,-0.64670324,-1.6879795,-1.5568329,2.3206067,1.553414,-0.890975,-1.1271734,-1.4188032,-1.2166914,-1.4147378,-0.75067085,0.3989101,0.28833792,0.3748703,-0.43239594,0.9450134,-2.8373659,-0.033648565,-3.1217222,0.19952393,-0.44145203,0.80075586,0.7088875,0.029456792,0.09219358,0.69864947,-0.6623419,-0.83549124,-1.1443188,1.0,0.0,0.0,0.0,0.0,0.0,0.0,-1.0248703,0.03239593,-0.3950134,-11.533427,-0.34196377,-6.948304,1.1631727,-0.00096559525,-0.6753862,-0.4225552
-21.898033,24.650757,6.1211357,20.336216,1.8905615,1.4300973,-0.38100225,-0.7294338,-0.7946511,-0.69066626,-0.78304183,-0.45118412,0.5556992,0.2528228,0.9018034,-0.72616833,-1.7570461,-1.6351371,2.2754884,1.6089839,-0.86569273,0.9626437,-0.66090536,-1.7004325,-1.570892,2.3133016,1.5573851,-0.8882036,-1.2367213,-1.4213262,-1.2555513,-1.40146,-0.7247751,0.39577144,0.27365842,0.34651184,-0.43273163,0.91308314,-2.834529,-0.033614926,-3.2167869,0.19237518,-0.4499054,0.7892159,0.7115802,0.038504437,0.08934383,0.6958366,-0.7373925,-0.83504504,-1.1606172,1.0,0.0,0.0,0.0,0.0,0.0,0.0,-0.9965118,0.032731622,-0.36308312,-10.578442,-0.44875145,-4.107237,1.7495394,2.2346258,-0.5560875,-1.3913155
-18.714436,28.032982,8.789508,19.169872,1.8235515,1.4975324,-0.36019313,-0.76671046,-0.7982294,-0.70312256,-0.7812783,-0.35590416,0.52213985,-0.0001605103,0.8859726,-0.7407283,-1.7707448,-1.6490198,2.2777112,1.6095991,-0.88821965,0.94958216,-0.67514753,-1.713145,-1.5848271,2.3065457,1.5613047,-0.88576317,-1.328288,-1.425737,-1.277149,-1.3896402,-0.6600843,0.389943,0.23458982,0.3181839,-0.43306732,0.88020295,-2.8316948,-0.033581316,-3.3117566,0.18450165,-0.45830536,0.7775474,0.7146456,0.047628805,0.08597217,0.6925474,-0.8077617,-0.8280983,-1.1723553,1.0,0.0,0.0,0.0,0.0,0.0,0.0,-0.9681839,0.033067316,-0.33020294,-8.841538,-0.6225586,-2.3465872,1.5680552,6.1622024,-0.8098602,-3.7876725
-17.363243,29.568361,10.138194,19.28545,2.079205,1.5652808,-0.40771654,-0.8015037,-0.80645084,-0.71876353,-0.75608206,-0.18753424,0.5096975,-0.29315513,0.8694318,-0.7557926,-1.7850214,-1.6604353,2.2877922,1.6122744,-0.9150787,0.9357329,-0.689466,-1.7260234,-1.5985581,2.3009038,1.5651613,-0.8839178,-1.4029249,-1.4344474,-1.291894,-1.3664279,-0.53325284,0.38337192,0.16849983,0.28988647,-0.43340302,0.84637374,-2.8288636,-0.033547744,-3.4066312,0.17591858,-0.46666718,0.76580536,0.7181373,0.056768134,0.081778415,0.68874407,-0.8808029,-0.8236862,-1.1781249,1.0,0.0,0.0,0.0,0.0,0.0,0.0,-0.93988645,0.03340301,-0.29637372,-7.1997166,-1.0453701,-1.6139984,2.6855707,12.423992,-0.8851528,-6.4399004
-13.068253,36.82748,14.911627,20.136383,2.0039515,1.7575228,-0.39778873,-0.816162,-0.78484964,-0.70437884,-0.7071376,-0.04310742,0.5587409,-0.42190105,0.8541167,-0.76795095,-1.7964613,-1.6692718,2.296593,1.6210355,-0.9261079,0.9213162,-0.7037587,-1.7389095,-1.6118656,2.2968526,1.568997,-0.8827934,-1.4540095,-1.4279854,-1.2876748,-1.3179262,-0.3631676,0.38305676,0.09435546,0.26161957,-0.4337387,0.8115965,-2.8260353,-0.0335142,-3.501411,0.1666336,-0.47491455,0.7541415,0.72206604,0.065745026,0.07658088,0.684422,-0.94817,-0.8100003,-1.1657087,1.0,0.0,0.0,0.0,0.0,0.0,0.0,-0.91161954,0.033738703,-0.2615965,-4.927659,0.4987955,0.37212372,5.118084,16.839712,-0.19671917,-7.2333856
-9.329854,40.70753,17.287935,19.322285,1.6681165,1.7428609,-0.37140736,-0.8226579,-0.7763226,-0.7187312,-0.6784161,0.0006673279,0.5728644,-0.48208013,0.8390504,-0.78139096,-1.8107826,-1.6797073,2.2969193,1.6262834,-0.9310014,0.9065619,-0.71792555,-1.7517745,-1.6246105,2.2944036,1.572848,-0.88239384,-1.48217,-1.4132944,-1.2860628,-1.259198,-0.20615937,0.38540384,0.022294108,0.23338318,-0.4340744,0.77587223,-2.8232098,-0.033480696,-3.596096,0.1567688,-0.48295593,0.7426335,0.72639155,0.074447796,0.07044282,0.6795959,-1.0040884,-0.7891008,-1.1489885,1.0,0.0,0.0,0.0,0.0,0.0,0.0,-0.88338315,0.034074396,-0.22587222,-2.6938438,1.3445139,0.16722679,6.0823917,15.596893,0.10700822,-7.0549116
-5.979383,41.316616,17.634432,16.150827,1.1628133,1.5597837,-0.29308894,-0.8280303,-0.77561563,-0.73837787,-0.6860892,0.025183007,0.56064504,-0.5147799,0.8237589,-0.7954871,-1.8256123,-1.6932194,2.296922,1.6289124,-0.9338718,0.891643,-0.7319101,-1.7650671,-1.6370414,2.2923164,1.5772123,-0.8822988,-1.4948566,-1.3865501,-1.4143871,-1.2621704,-0.4063388,0.517666,0.048893716,0.20973969,-0.4356842,0.75276136,-1.517361,-0.33035463,0.8742175,0.146492,-0.49067688,0.73107904,0.7308936,0.08283018,0.06400681,0.6744158,-1.0305022,-0.72986996,-1.1887854,0.0,1.0,0.0,0.0,0.0,0.0,0.0,-0.85973966,0.0356842,-0.20276135,-1.2491941,3.801012,-24.618507,-4.2963743,-52.363037,26.18376,11.988611
66.429016,176.0,110.0,91.701294,-5.2399735,9.946302,-0.783826,-0.78083044,0.5120112,0.6803496,0.7438071,-0.17634696,0.65314734,-0.43841243,0.81355995,-0.680709,-1.6970321,-1.5626607,2.2746818,1.6425271,-0.92614007,0.88126224,-0.7433504,-1.77847,-1.639069,2.2797241,1.5904741,-0.88048875,-0.88980097,-1.0625535,-1.3085027,0.14533804,-1.5396419,1.6038017,0.22088869,0.19458008,-0.4389801,0.76076055,-1.515844,-0.33002433,0.77515745,0.13674164,-0.49580383,0.7234323,0.7354391,0.08259374,0.06397031,0.66948885,-0.9587225,-0.42646685,-0.6248631,0.0,1.0,0.0,0.0,0.0,0.0,0.0,-0.84458005,0.038980097,-0.21076053,59.30859,32.565308,12.706256,139.20291,-112.18151,110.99093,15.957037
9.556247,141.0443,89.70946,88.20655,1.3317242,6.9057875,-0.8763172,-0.81462294,-0.5270984,0.344918,0.7834256,-0.5662707,0.5316633,-0.32012612,0.7997999,-0.7960602,-1.7439783,-1.5607264,2.223097,1.6436405,-0.91250134,0.87246555,-0.7527927,-1.7864122,-1.6306919,2.2630196,1.606534,-0.8785213,-0.87598825,-0.90607065,-0.62036,1.0678424,-1.7174051,1.6120864,0.18910648,0.17943573,-0.442276,0.7677698,-1.5143285,-0.3296944,0.67619646,0.12696075,-0.49917603,0.7210074,0.74063,0.07523951,0.06720253,0.6642966,-0.9872512,-0.29648843,-0.118755236,1.0,0.0,0.0,0.0,0.0,0.0,0.0,-0.8294357,0.042275995,-0.2177698,1.4594913,15.295219,69.54001,92.031944,-18.764353,2.4612665,-3.0838013
-20.925785,110.74869,52.477432,67.36395,2.7759407,4.1721025,-1.3243377,-0.7932896,-0.23348941,-0.2649951,0.73368627,-0.6439893,0.6229332,-0.080135494,0.7931366,-0.77614164,-1.8129117,-1.5573232,2.1986206,1.6688273,-0.88653487,0.862739,-0.75996244,-1.7903471,-1.616032,2.2465172,1.6217718,-0.8768705,-1.0030115,-0.6551502,-0.31850573,1.5995687,-1.6305089,1.4972218,0.15735494,0.16430664,-0.4455719,0.77379024,-1.5128144,-0.32936475,0.5773344,0.11651611,-0.5017929,0.72213465,0.746881,0.06472939,0.07176845,0.65789676,-1.0621595,-0.24406788,0.18429004,1.0,0.0,0.0,0.0,0.0,0.0,0.0,-0.8143066,0.045571893,-0.22379023,-12.156534,24.735546,30.017889,53.40085,7.8522444,-10.607314,-3.0910702
-36.635406,71.34888,22.926584,44.672928,3.2998888,2.2224736,-1.198166,-0.8052068,-0.22405387,-0.31181437,0.78811693,-0.6249887,0.55710936,-0.11483568,0.78221834,-0.7823678,-1.8215286,-1.5372204,2.1840184,1.6774827,-0.88835406,0.8512663,-0.765098,-1.7929296,-1.5985302,2.2318306,1.6354933,-0.8755802,-1.1937264,-0.46712992,-0.23951973,1.8014145,-1.4162838,1.3318031,0.119817235,0.14919281,-0.4488678,0.7788228,-1.5113019,-0.32903546,0.47857124,0.10517883,-0.50424194,0.7249609,0.7541938,0.053636074,0.07672962,0.6499442,-1.1582593,-0.23795731,0.30943698,1.0,0.0,0.0,0.0,0.0,0.0,0.0,-0.7991928,0.048867792,-0.22882277,-18.605637,18.558662,7.483086,20.441269,21.038437,-16.136074,-3.7010238
-43.86198,24.652027,-6.0932145,23.803228,3.359018,0.36509514,-0.98618615,-0.81311274,-0.30264455,-0.46732128,0.78561515,-0.64228785,0.58805454,-0.18981744,0.76995504,-0.7953624,-1.8396618,-1.5199686,2.1676018,1.6942987,-0.89456195,0.83808655,-0.76931036,-1.7965002,-1.5806717,2.2192116,1.6476545,-0.8746885,-1.3584288,-0.4061722,-0.39759952,1.7812997,-1.2100209,1.1778319,0.07892236,0.13409424,-0.45215607,0.78286844,-1.5097909,-0.32870647,0.37990683,0.09282684,-0.50704193,0.7277736,0.7624013,0.04375384,0.08139956,0.6404717,-1.2618127,-0.28387624,0.26662076,1.0,0.0,0.0,0.0,0.0,0.0,0.0,-0.7840942,0.05215606,-0.23286843,-16.163708,6.012779,-16.185755,-1.8038988,20.703602,-15.307832,-4.083796
-32.8747,13.813602,-9.246517,12.003774,2.2834265,-0.28816694,-0.5884539,-0.8119962,-0.28332368,-0.4492339,0.7997492,-0.6337464,0.5995026,-0.24105819,0.7568869,-0.7976427,-1.8414236,-1.5006968,2.155837,1.7076048,-0.89879435,0.8237156,-0.7733549,-1.8019152,-1.5636982,2.2083015,1.6584387,-0.8742069,-1.4626733,-0.4039793,-0.59011775,1.6698701,-1.0515442,1.0451993,0.037713274,0.119010925,-0.4554367,0.7859202,-1.5082814,-0.32837784,0.28027582,0.07971954,-0.5102539,0.72976136,0.7711697,0.035740305,0.08556141,0.6298406,-1.3319576,-0.3238342,0.17191966,1.0,0.0,0.0,0.0,0.0,0.0,0.0,-0.7690109,0.0554367,-0.23592019,-10.253978,0.17276406,-19.47199,-11.003685,15.89098,-13.283634,-4.1534357
-20.498259,10.131522,-6.352645,6.15067,1.4765894,-0.46544683,-0.23356315,-0.80757546,-0.32419991,-0.44112837,0.79855716,-0.6148948,0.60242605,-0.28192168,0.74295807,-0.80577487,-1.846028,-1.4838425,2.146812,1.7186813,-0.90239906,0.80876774,-0.77781045,-1.8089495,-1.5479397,2.1985893,1.6680613,-0.8741249,-1.5052277,-0.45948818,-0.7415515,1.5450284,-0.9444625,0.93455225,-0.0017212493,0.10394287,-0.45871735,0.78797644,-1.5067735,-0.3280495,0.18074444,0.066093445,-0.5138092,0.7307249,0.7801445,0.029512698,0.08914488,0.6185116,-1.3735677,-0.35255942,0.06777193,1.0,0.0,0.0,0.0,0.0,0.0,0.0,-0.75394285,0.05871734,-0.23797643,-4.167485,-5.581093,-15.220785,-12.3639345,10.64967,-11.107027,-3.9566405
-10.291201,16.355347,0.91183865,5.4659386,0.91929114,-0.26818228,-0.010431514,-0.8083041,-0.34280398,-0.43424013,0.79562825,-0.5808935,0.59847647,-0.2845845,0.72793734,-0.8120909,-1.8523735,-1.4683769,2.1405,1.7279088,-0.90258336,0.79370064,-0.7829536,-1.8169775,-1.5332111,2.1896858,1.6767206,-0.8743957,-1.5071491,-0.53264385,-0.8230456,1.4491398,-0.8726547,0.84315777,-0.035528347,0.088890076,-0.461998,0.78903806,-1.505267,-0.32772154,0.08131256,0.052230835,-0.51750946,0.73080975,0.78907406,0.02466442,0.09216598,0.60684353,-1.3934573,-0.3632273,-0.014187148,1.0,0.0,0.0,0.0,0.0,0.0,0.0,-0.73889005,0.06199798,-0.23903805,-0.16469955,-7.359892,-8.119213,-9.488559,7.0227027,-9.1511135,-3.3822734
-0.8554363,31.899124,11.894092,7.472825,0.35312575,0.16521692,0.11565608,-0.80392545,-0.32701862,-0.39123115,0.7937575,-0.55953383,0.61145043,-0.33090895,0.7133081,-0.81565547,-1.8561006,-1.4538354,2.1337323,1.7378657,-0.9074866,0.77878326,-0.788648,-1.8251867,-1.5191349,2.1813087,1.6846037,-0.87499845,-1.4868518,-0.5819356,-0.81992877,1.3939316,-0.8269847,0.7700244,-0.06863164,0.07384491,-0.46527863,0.78910613,-1.503762,-0.32739386,-0.018019892,0.038345337,-0.5211029,0.73039544,0.79779,0.020640207,0.09479474,0.595079,-1.3898492,-0.3463331,-0.053369913,1.0,0.0,0.0,0.0,0.0,0.0,0.0,-0.7238449,0.06527862,-0.23910612,1.9857645,-5.0123215,0.44728518,-5.4887295,4.297292,-7.2594047,-3.338196
0.5541172,37.102478,15.439091,10.076533,0.40950075,0.4014301,0.11423978,-0.80367506,-0.35975996,-0.3923021,0.79466295,-0.53328574,0.61131793,-0.32636982,0.69841576,-0.824624,-1.864417,-1.4396685,2.1279802,1.7457355,-0.90763545,0.7641005,-0.79480875,-1.833108,-1.5053371,2.173298,1.6918573,-0.87589204,-1.4622092,-0.62780297,-0.7824032,1.3753732,-0.7936185,0.71052,-0.09632917,0.058815002,-0.468544,0.7881816,-1.5022585,-0.32706654,-0.117253035,0.024482727,-0.52446747,0.729746,0.8062502,0.01704966,0.09713379,0.5832966,-1.3855472,-0.32267457,-0.071648,1.0,0.0,0.0,0.0,0.0,0.0,0.0,-0.708815,0.068544,-0.23818159,2.421832,-4.6879053,3.9184213,-1.8207312,3.0526996,-5.883336,-2.795148
3.9619994,43.215485,20.465654,11.447605,0.3403955,0.6871891,0.1885217,-0.7931202,-0.3964598,-0.2994503,0.78882194,-0.51183754,0.62392926,-0.34791872,0.68478847,-0.8344547,-1.863053,-1.4264549,2.1221142,1.7542503,-0.91068393,0.7496733,-0.8014568,-1.8401709,-1.4915794,2.1655693,1.6986074,-0.8770431,-1.4364216,-0.677448,-0.6800054,1.3757927,-0.76696014,0.6634894,-0.121431835,0.043800354,-0.4718094,0.7862655,-1.5007566,-0.32673952,-0.21638696,0.010726929,-0.52752686,0.7290775,0.81439763,0.013527703,0.099189155,0.5716074,-1.3749346,-0.28693017,-0.068089135,1.0,0.0,0.0,0.0,0.0,0.0,0.0,-0.69380033,0.07180938,-0.23626548,2.515173,-5.0792813,10.456074,0.05657673,2.3286104,-4.6029687,-2.5240853
2.5697045,43.17236,20.58109,12.363845,0.5249718,0.7953976,0.18256392,-0.7957791,-0.43508035,-0.25060672,0.78148144,-0.48328197,0.61455154,-0.3498926,0.6700954,-0.84496486,-1.8652315,-1.4134313,2.1172411,1.7600626,-0.91203237,0.73543113,-0.80865896,-1.846055,-1.4777778,2.1581154,1.7049475,-0.87841547,-1.4202636,-0.73492503,-0.5572669,1.3816006,-0.7390947,0.6243382,-0.14248103,0.028800964,-0.47507477,0.7833588,-1.4992561,-0.32641286,-0.31542176,-0.0029678345,-0.5302048,0.728476,0.8222229,0.009873691,0.100908905,0.560062,-1.3697817,-0.25040486,-0.060558196,1.0,0.0,0.0,0.0,0.0,0.0,0.0,-0.67880094,0.07507476,-0.2333588,1.5765429,-5.86462,12.480617,0.6182194,2.4547338,-3.8147688,-2.0986528
4.668171,47.710247,22.389767,12.344187,0.24652785,0.78896916,0.20245007,-0.77133733,-0.4340153,-0.2090443,0.7869405,-0.5376038,0.6205919,-0.3158537,0.6582974,-0.8520605,-1.8669595,-1.3990837,2.104355,1.7670066,-0.91000086,0.7213978,-0.8163036,-1.8507433,-1.4638847,2.1507187,1.7109537,-0.87994707,-1.3978422,-0.77471685,-0.43857387,1.3920417,-0.74090993,0.593196,-0.15680651,0.0138168335,-0.47834015,0.7794625,-1.4977572,-0.3260865,-0.41435757,-0.016532898,-0.5324936,0.7279871,0.8297063,0.006021577,0.10244561,0.5486858,-1.3542016,-0.20880033,-0.04812913,1.0,0.0,0.0,0.0,0.0,0.0,0.0,-0.6638168,0.07834014,-0.2294625,2.1960735,-4.1003942,12.079257,1.0632277,-0.51635504,-2.9782295,-1.4526516
0.8617387,40.406086,16.776197,11.562711,0.39013195,0.5138626,0.13701144,-0.75838965,-0.47718543,-0.24013622,0.7837386,-0.56020135,0.6213124,-0.271282,0.64555883,-0.86402214,-1.8747569,-1.3855108,2.0946987,1.773085,-0.9070753,0.7076029,-0.8244022,-1.854701,-1.4499096,2.1431847,1.716691,-0.8815645,-1.3734559,-0.8218845,-0.3811538,1.3994323,-0.7586253,0.5676452,-0.16350341,-0.0011520386,-0.4815979,0.7745776,-1.4962598,-0.32576048,-0.5131945,-0.030006409,-0.53445435,0.72745925,0.836892,0.0021334596,0.10389923,0.53741235,-1.3475388,-0.18113664,-0.05758773,1.0,0.0,0.0,0.0,0.0,0.0,0.0,-0.64884794,0.081597894,-0.2245776,2.4273872,-4.817271,5.8946667,0.80678463,-2.0226955,-2.440858,-0.6798774
-1.6077611,33.763294,11.741741,10.339676,0.4634319,0.21792239,0.08642648,-0.7346195,-0.50990605,-0.27219146,0.7822476,-0.57807297,0.6258264,-0.23878753,0.63414097,-0.8753928,-1.8819202,-1.3716848,2.0853775,1.7792736,-0.90544325,0.6941084,-0.83300817,-1.858552,-1.4358906,2.1354103,1.7222109,-0.8832077,-1.3413739,-0.87382627,-0.3860447,1.4030471,-0.7843447,0.5469644,-0.16468008,-0.016105652,-0.48484802,0.76870507,-1.4947639,-0.32543477,-0.6119326,-0.04345703,-0.536232,0.72667575,0.8438419,-0.0015462147,0.105313286,0.5261534,-1.3470834,-0.16651757,-0.08857865,1.0,0.0,0.0,0.0,0.0,0.0,0.0,-0.6338943,0.08484802,-0.21870506,3.2118797,-5.2761674,-0.37770867,0.46522617,-2.7481318,-1.9795418,-0.12201071
-5.0990043,27.070755,6.337968,9.46906,0.5762878,-0.06215334,0.008754127,-0.7139668,-0.5365074,-0.34284124,0.7834186,-0.59626716,0.63521826,-0.21101153,0.6227118,-0.8866589,-1.8928361,-1.3575487,2.0757835,1.7857327,-0.90430886,0.68096966,-0.84213865,-1.862977,-1.4218487,2.1273575,1.7275572,-0.8848337,-1.3045331,-0.92636293,-0.4611458,1.4049747,-0.81265944,0.530633,-0.16186836,-0.031044006,-0.48809814,0.7618459,-1.4932693,-0.32510942,-0.71057194,-0.056991577,-0.53796387,0.72542113,0.850631,-0.004750698,0.10672673,0.5147948,-1.3555981,-0.16501921,-0.14124873,0.0,1.0,0.0,0.0,0.0,0.0,0.0,-0.61895597,0.08809814,-0.21184587,3.7073135,-5.3215504,-7.4470816,0.34167767,-2.9239655,-1.581049,0.2788931
-7.570651,22.688877,2.9544973,8.806929,0.6620016,-0.20672071,-0.029057954,-0.6973212,-0.57001007,-0.39920056,0.7804118,-0.6065755,0.64407206,-0.18831052,0.6112375,-0.89913964,-1.9028971,-1.3438075,2.0667,1.7919644,-0.90366477,0.66819996,-0.85181844,-1.8684473,-1.4078125,2.1190453,1.732768,-0.8864111,-1.2676439,-0.98203987,-0.575499,1.4038903,-0.83787334,0.5178725,-0.15637636,-0.045967102,-0.49134827,0.7539981,-1.4917763,-0.32478437,-0.8095064,-0.07065582,-0.53972626,0.72353417,0.8573102,-0.0072867176,0.108138755,0.5032614,-1.3710588,-0.1704951,-0.20816049,0.0,1.0,0.0,0.0,0.0,0.0,0.0,-0.6040329,0.09134826,-0.20399809,3.7281036,-5.631423,-11.401439,0.08070469,-2.5648713,-1.2615323,0.5520493
-7.025348,16.919477,0.39506388,6.9563994,0.70840585,-0.3662045,-0.00055892486,-0.6612197,-0.6315965,-0.4556187,0.7745507,-0.5941369,0.6541667,-0.1807221,0.60207796,-0.9149781,-1.9140092,-1.3303574,2.0596316,1.7981848,-0.90448326,0.65587467,-0.86220586,-1.8751745,-1.3938183,2.1105766,1.737874,-0.88792837,-1.2206826,-1.057749,-0.7050205,1.3986791,-0.849993,0.5081275,-0.15011205,-0.06087494,-0.4945984,0.7451617,-1.4902849,-0.32445964,-0.90834194,-0.084503174,-0.54161835,0.7208727,0.8638877,-0.009057968,0.10942919,0.4915701,-1.3897551,-0.18319687,-0.289349,0.0,1.0,0.0,0.0,0.0,0.0,0.0,-0.58912504,0.09459838,-0.1951617,4.7312737,-7.6243877,-12.918913,-0.2982378,-1.2237787,-1.0045648,0.6543517
-3.2745636,15.60048,0.7006036,4.920049,0.5628974,-0.45991212,0.05967146,-0.615865,-0.68031245,-0.5053036,0.7698365,-0.5882018,0.66412127,-0.21451142,0.5942882,-0.9302371,-1.9257048,-1.3168346,2.0517564,1.8042861,-0.9093795,0.6441737,-0.873428,-1.8833354,-1.3799416,2.1016917,1.7429416,-0.889691,-1.1532739,-1.1437744,-0.8540444,1.3846933,-0.89854556,0.5127394,-0.18092628,-0.07707977,-0.49532318,0.742768,-1.6211963,-0.0061523984,0.012996992,-0.09842682,-0.54364777,0.71728826,0.87037677,-0.009980387,0.11066511,0.47968528,-1.3952641,-0.19799328,-0.38595992,0.0,1.0,0.0,0.0,0.0,0.0,0.0,-0.5729202,0.095323175,-0.19276798,6.21469,-8.738494,-12.333941,-0.52859783,-0.22953749,-0.64139366,0.22037923
-9.800436,62.762398,18.945955,16.46069,0.28107244,0.80251455,-0.13385645,-0.7263522,-0.4402054,-0.45234215,0.8074067,-0.64116794,0.6406,-0.19345821,0.57153845,-0.9174485,-1.9285696,-1.2992009,2.037575,1.8070016,-0.9090368,0.632474,-0.8842131,-1.8922236,-1.3659817,2.092548,1.7480133,-0.89148486,-1.175394,-1.0574476,-0.8999888,1.400081,-0.92075497,0.50559753,-0.17949955,-0.09327698,-0.49538422,0.7421504,-1.6195754,-0.0061462475,-0.0866609,-0.112342834,-0.5453491,0.7135464,0.87675273,-0.010461195,0.112385556,0.46750906,-1.3894539,-0.15109414,-0.37487754,0.0,1.0,0.0,0.0,0.0,0.0,0.0,-0.556723,0.09538421,-0.19215041,-2.166915,8.421874,-4.4671416,1.6008377,-2.525103,-0.6897688,-0.033774972
-15.951485,76.34927,23.10196,21.26412,0.54753464,1.230847,-0.22965169,-0.7512696,-0.40576825,-0.50816405,0.80882055,-0.6233686,0.6300306,-0.178425,0.55734706,-0.9247899,-1.94304,-1.2850996,2.030211,1.8110163,-0.9093273,0.6202727,-0.8937565,-1.9014552,-1.3518311,2.0833163,1.7530105,-0.89323103,-1.2347552,-0.9209564,-0.9303276,1.4201096,-0.925112,0.49763453,-0.17368926,-0.10945892,-0.49544525,0.7405371,-1.6179562,-0.0061401026,-0.18621916,-0.1262207,-0.5464859,0.71014076,0.88304317,-0.010682387,0.11488916,0.45488587,-1.3897125,-0.08712987,-0.33354515,0.0,1.0,0.0,0.0,0.0,0.0,0.0,-0.54054105,0.095445246,-0.1905371,-5.872631,13.38135,-2.8757334,2.029705,-0.8352518,-0.802505,0.34719408
-15.632017,79.100075,24.143902,21.30079,0.57153463,1.2695322,-0.18397462,-0.7524619,-0.3770372,-0.5395958,0.8008238,-0.6192513,0.6302777,-0.12911,0.5450265,-0.9314602,-1.9554148,-1.2717487,2.0213912,1.8160383,-0.90614206,0.6074706,-0.90191615,-1.9109442,-1.3375412,2.0741076,1.7579257,-0.89487803,-1.2952826,-0.78189826,-0.9542945,1.4319428,-0.9209145,0.48926455,-0.16254275,-0.12562561,-0.4955063,0.7379289,-1.6163385,-0.006133964,-0.28567785,-0.14012146,-0.5469284,0.7071761,0.88921803,-0.010670745,0.118178755,0.441827,-1.3870999,-0.02085773,-0.2877929,0.0,1.0,0.0,0.0,0.0,0.0,0.0,-0.52437437,0.09550628,-0.18792892,-6.0266495,13.629103,-2.1839023,1.18227,-0.017726421,-0.8807838,0.8741349
-10.446608,75.84985,23.926672,18.830114,0.45077875,1.0827706,-0.06260231,-0.74056476,-0.35039946,-0.5488005,0.80511314,-0.62438583,0.63914925,-0.06481523,0.5334141,-0.9369561,-1.9658242,-1.2570299,2.0116692,1.8218406,-0.90135956,0.5942479,-0.9088856,-1.920624,-1.3231636,2.0649447,1.7627704,-0.8963686,-1.3313699,-0.66941243,-0.97144765,1.4395138,-0.91624576,0.48263112,-0.14541538,-0.14177704,-0.49556732,0.7343269,-1.6147225,-0.006127831,-0.38503715,-0.15392303,-0.5467758,0.70460594,0.8951984,-0.01043814,0.12213525,0.42847842,-1.3760191,0.038166028,-0.2497416,0.0,1.0,0.0,0.0,0.0,0.0,0.0,-0.50822294,0.095567316,-0.18432689,-3.6378145,10.996175,-1.4485598,0.7298708,0.032687187,-0.726372,1.491335
-11.971848,57.163597,15.793602,15.617085,0.6499897,0.68881726,-0.0062023997,-0.7502114,-0.3808725,-0.61595047,0.80596614,-0.6411285,0.62884194,0.039554592,0.51922673,-0.94697285,-1.9822191,-1.2425671,2.0008318,1.8256546,-0.89241314,0.5807782,-0.91523325,-1.9307234,-1.3087403,2.055778,1.7675464,-0.89761794,-1.3521504,-0.62383705,-1.0221419,1.443606,-0.9176187,0.47585773,-0.11856521,-0.15791321,-0.49562836,0.729732,-1.613108,-0.0061217044,-0.4842971,-0.16771698,-0.546196,0.7021261,0.90095645,-0.00983135,0.12650584,0.41494223,-1.3797613,0.076679096,-0.249817,0.0,1.0,0.0,0.0,0.0,0.0,0.0,-0.49208677,0.09562835,-0.17973197,-2.0762682,4.3622375,-4.8618674,0.46863556,-0.44454336,-0.7661462,2.530022
-7.6664095,49.709625,13.697237,12.405201,0.52479374,0.4532357,0.1015169,-0.7376349,-0.37133026,-0.6284316,0.8011867,-0.6422768,0.63311696,0.09840999,0.5070147,-0.9523663,-1.9935666,-1.2286216,1.9915503,1.8308581,-0.8877769,0.5672694,-0.9213911,-1.9413378,-1.2943207,2.0465884,1.772269,-0.89856875,-1.3489987,-0.6133809,-1.0833763,1.4408417,-0.90028316,0.4930437,-0.07202311,-0.17403412,-0.4956894,0.72414523,-1.3907338,0.039038815,-0.30268198,-0.18152618,-0.5452957,0.69951653,0.9064503,-0.008772285,0.13108261,0.4013581,-1.3838686,0.106968366,-0.2690797,0.0,1.0,0.0,0.0,0.0,0.0,0.0,-0.47596586,0.095689386,-0.17414522,0.4522562,0.90789795,-6.8580866,-0.2966404,3.4694433,3.8832307,6.0986743
-4.587103,39.373627,11.200689,9.457621,0.642862,0.3103605,0.1453492,-0.728353,-0.42084685,-0.60674983,0.79838973,-0.60192543,0.64205396,-0.010841799,0.4944341,-0.9634758,-2.0020127,-1.2144817,1.9863958,1.8364744,-0.89965296,0.55390453,-0.927837,-1.9523772,-1.2799621,2.0376475,1.7772237,-0.89920247,-1.3324167,-0.6554154,-1.1096202,1.4348127,-0.8919099,0.49529836,-0.06015642,-0.1881485,-0.4951706,0.7214414,-1.4150338,0.054203525,-0.27488568,-0.1953888,-0.54416656,0.6965869,0.9116586,-0.0074297655,0.13552196,0.387888,-1.3866373,0.12766184,-0.30264622,0.0,1.0,0.0,0.0,0.0,0.0,0.0,-0.46185148,0.09517059,-0.17144138,1.6095638,-4.324889,-2.303791,-0.47118664,0.86249113,-0.10167956,1.3372674
-6.0665874,37.91333,10.570244,9.614383,0.73504025,0.36686033,0.15745881,-0.74271536,-0.42795455,-0.612115,0.7999586,-0.61702317,0.6375425,0.06850548,0.479633,-0.9706325,-2.0135887,-1.1999662,1.9759451,1.8409779,-0.8923519,0.5406466,-0.93478644,-1.9635562,-1.2656493,2.0287745,1.7821771,-0.8996669,-1.3236059,-0.70857954,-1.1199628,1.4306304,-0.88638467,0.4949796,-0.042014055,-0.20238495,-0.49454498,0.7184928,-1.4272697,0.06565694,-0.30146205,-0.20932007,-0.54281616,0.6933168,0.91660583,-0.005783997,0.13975523,0.37452447,-1.3933976,0.14960955,-0.33707747,0.0,1.0,0.0,0.0,0.0,0.0,0.0,-0.44761503,0.09454498,-0.1684928,0.8658409,-5.438268,-0.8165598,-0.29969215,0.33313036,-0.13890266,1.7741382
5.6212454,46.019882,16.70134,7.4422603,0.3487746,0.344777,0.3100397,-0.68578553,-0.43824232,-0.55291307,0.8007673,-0.5934539,0.6539734,0.13250487,0.47206807,-0.9786107,-2.0188475,-1.1855726,1.9694291,1.8475745,-0.88641644,0.5277024,-0.94224036,-1.974449,-1.2513633,2.019981,1.7871249,-0.8999311,-1.2850587,-0.75800675,-1.0779805,1.4279929,-0.8777445,0.49484217,-0.021024622,-0.2166748,-0.49376678,0.7154114,-1.424783,0.07888425,-0.31117368,-0.22312164,-0.5412369,0.68982685,0.9212256,-0.0040378184,0.14374846,0.3614738,-1.3737116,0.17185377,-0.3550237,0.0,1.0,0.0,0.0,0.0,0.0,0.0,-0.43332517,0.09376678,-0.16541141,3.7475824,-5.0555825,4.5095444,-0.24228096,0.7409811,0.027525425,2.2028022
6.698681,41.567654,15.466666,6.3813267,0.4363891,0.24745011,0.31960803,-0.67505395,-0.5082868,-0.53494537,0.79702616,-0.5843129,0.6487057,0.09953272,0.460197,-0.99306905,-2.0279436,-1.1716607,1.9615496,1.8519955,-0.8899778,0.5151654,-0.9503838,-1.984802,-1.2371058,2.0113099,1.7920644,-0.9000074,-1.2435182,-0.8334271,-1.0198855,1.4251535,-0.8646253,0.4935971,-0.0032816867,-0.23075867,-0.49286652,0.7121091,-1.4040953,0.09308754,-0.33608544,-0.23675537,-0.53948975,0.68609667,0.92551893,-0.0023058201,0.1473713,0.34884232,-1.357385,0.18827488,-0.38124192,0.0,1.0,0.0,0.0,0.0,0.0,0.0,-0.4192413,0.09286651,-0.16210908,4.0548086,-7.639098,6.1240196,-0.24020672,1.0014057,-0.14669895,1.7574152
10.531706,46.69024,18.00085,5.9572372,0.26119387,0.26036102,0.36191243,-0.64801466,-0.51649535,-0.49474144,0.7929888,-0.5947409,0.6546624,0.14536299,0.45036393,-1.0020334,-2.0342762,-1.157807,1.9518358,1.8575307,-0.8854711,0.5030871,-0.9591881,-1.9944588,-1.2228922,2.0027199,1.7970045,-0.89989454,-1.1963035,-0.89638114,-0.9465358,1.4202732,-0.8580338,0.4941262,0.016113738,-0.24461365,-0.49184418,0.70862585,-1.3797758,0.10483845,-0.3518147,-0.25014496,-0.5375366,0.68216753,0.92948335,-0.00066478306,0.150642,0.33670026,-1.3293892,0.20547156,-0.39924774,0.0,1.0,0.0,0.0,0.0,0.0,0.0,-0.40538633,0.09184417,-0.15862584,4.595256,-6.399441,7.6877832,-0.48048496,0.32874346,0.009727478,1.9282814
9.324253,46.418278,17.224867,6.2252245,0.2963318,0.22818464,0.33139735,-0.63319564,-0.5512486,-0.47447303,0.7921771,-0.5993065,0.6468484,0.15622073,0.43976754,-1.014313,-2.041906,-1.1436745,1.9427892,1.8616893,-0.88427246,0.49144465,-0.96860373,-2.0034308,-1.2087225,1.9941589,1.8019443,-0.8995998,-1.1539325,-0.9569459,-0.879544,1.4161029,-0.85658145,0.4938081,0.03395759,-0.2582245,-0.49071503,0.70497936,-1.3558747,0.11564031,-0.36982676,-0.2632599,-0.5354538,0.67804676,0.93314296,0.00088935404,0.15360619,0.32503608,-1.303378,0.22100912,-0.41894582,0.0,1.0,0.0,0.0,0.0,0.0,0.0,-0.3917755,0.09071502,-0.15497935,4.127264,-6.162679,7.033634,-0.38895607,-0.17998219,-0.07522702,1.7797761
4.377254,44.137638,14.632475,7.090507,0.4288593,0.19913465,0.2698529,-0.6302858,-0.5820621,-0.47633725,0.78668636,-0.6007119,0.63150316,0.1963599,0.42841607,-1.0268099,-2.0510645,-1.1300539,1.9340876,1.8650945,-0.8799638,0.48012072,-0.9785963,-2.0119262,-1.1946043,1.985591,1.806865,-0.8991173,-1.1254511,-1.0136899,-0.83835125,1.4105586,-0.85787445,0.4912036,0.052994013,-0.27162933,-0.4894867,0.70108765,-1.3356408,0.1255434,-0.39558527,-0.27620697,-0.5332031,0.673679,0.9365461,0.002466818,0.15630178,0.31375968,-1.2868174,0.23621249,-0.4455122,0.0,1.0,0.0,0.0,0.0,0.0,0.0,-0.37837064,0.08948669,-0.15108764,2.7774572,-5.785632,4.40439,-0.4771948,-0.4210472,-0.31881332,1.9054062
11.114454,51.05604,18.593697,6.254615,0.24211851,0.20661607,0.3249267,-0.58330524,-0.597188,-0.39334226,0.7838822,-0.59203154,0.63349986,0.20031548,0.42179018,-1.0383152,-2.0512605,-1.1162161,1.9263879,1.8702149,-0.8790857,0.46918547,-0.9890667,-2.0197995,-1.1805471,1.9770327,1.811767,-0.89845914,-1.0832522,-1.058542,-0.76899844,1.4041109,-0.8564171,0.48980328,0.07004125,-0.28477478,-0.48815155,0.6970436,-1.3077383,0.13574319,-0.40785605,-0.2888565,-0.5308075,0.669145,0.9396884,0.0039812536,0.1587559,0.30292958,-1.2544178,0.25059807,-0.4590247,0.0,1.0,0.0,0.0,0.0,0.0,0.0,-0.3652252,0.088151544,-0.14704359,4.1037083,-4.601574,7.2880983,-0.6304264,-0.2191782,-0.17991066,1.6915388
8.278803,50.873917,17.891191,6.9884415,0.4098465,0.25703117,0.2856308,-0.5879089,-0.6307938,-0.35432175,0.7743019,-0.58487874,0.6263032,0.20631595,0.41039458,-1.0521461,-2.0552316,-1.103117,1.9185448,1.8743973,-0.8778275,0.45856822,-0.99999106,-2.0269215,-1.1665835,1.9685118,1.81665,-0.8976465,-1.0548561,-1.1042384,-0.6920835,1.393762,-0.85196567,0.48762822,0.085079856,-0.2976532,-0.48671722,0.6928653,-1.2812142,0.14617848,-0.42128184,-0.3012085,-0.528244,0.66448087,0.9425967,0.0053711617,0.16094878,0.29253745,-1.227728,0.2669532,-0.47211853,0.0,1.0,0.0,0.0,0.0,0.0,0.0,-0.35234678,0.08671722,-0.1428653,2.7468204,-4.689431,8.0267315,-0.9921551,0.08136034,-0.2615273,1.511164
2.2778668,56.539867,17.872171,10.029565,0.5961611,0.36249265,0.19598417,-0.5961819,-0.6117151,-0.3552807,0.7803619,-0.5991233,0.6053971,0.26422584,0.39895,-1.0611626,-2.0624497,-1.0885473,1.9085995,1.8771898,-0.8712239,0.4480964,-1.0111586,-2.0334446,-1.1526791,1.9599906,1.8214989,-0.8966604,-1.0448773,-1.1215106,-0.63797885,1.3895115,-0.8534298,0.48371533,0.10303022,-0.31025696,-0.48516083,0.6886153,-1.2540592,0.15844356,-0.4273722,-0.31336212,-0.5254593,0.6597512,0.9453046,0.006703565,0.16300857,0.2824579,-1.2069019,0.28962266,-0.47658607,0.0,1.0,0.0,0.0,0.0,0.0,0.0,-0.33974302,0.08516082,-0.13861531,0.93779564,-1.8690586,5.720985,-0.35989285,-0.5113125,-0.43139458,1.7751902
-0.6427424,56.99775,17.435223,10.960302,0.82915884,0.4194275,0.13673146,-0.59757596,-0.6370881,-0.3018558,0.77075416,-0.56094646,0.59182256,0.22364238,0.3883388,-1.0748674,-2.06363,-1.0756037,1.903896,1.8806812,-0.8742961,0.4376346,-1.0224997,-2.0393727,-1.1388361,1.9515603,1.8262978,-0.8955416,-1.0467196,-1.1387745,-0.5769089,1.3827345,-0.8407731,0.47835,0.1148202,-0.32260132,-0.48348236,0.6842989,-1.2282962,0.17123146,-0.43336928,-0.32536316,-0.5224457,0.6549929,0.9478553,0.0079660565,0.16492103,0.27259484,-1.1925837,0.31555766,-0.47893134,0.0,1.0,0.0,0.0,0.0,0.0,0.0,-0.32739866,0.083482355,-0.13429886,-0.22571087,-1.8702507,6.403923,-0.59103966,0.9002328,-0.58757067,1.1793673
-0.51178813,54.558037,15.616726,9.759091,0.639073,0.27432552,0.1666353,-0.58179224,-0.64586645,-0.32367703,0.75479317,-0.58222055,0.5676038,0.303267,0.37945536,-1.0870863,-2.0717404,-1.0633569,1.8933382,1.8830582,-0.8652149,0.42719042,-1.0339895,-2.0449536,-1.1251205,1.9431947,1.8310251,-0.8942636,-1.0437996,-1.1529174,-0.55058426,1.3681778,-0.8362317,0.47066185,0.13205373,-0.33470154,-0.48168945,0.6798586,-1.203983,0.18158327,-0.44825974,-0.33718872,-0.51919556,0.6501311,0.9502553,0.009293333,0.16670486,0.26294118,-1.1769257,0.33605438,-0.49179316,0.0,1.0,0.0,0.0,0.0,0.0,0.0,-0.31529844,0.08168945,-0.12985861,0.25434494,-1.5487432,2.8929949,-1.3618708,0.12614727,-0.815779,1.7085433
-0.7497215,56.042725,16.0616,10.324301,0.73489964,0.28882205,0.14348681,-0.5823004,-0.65589714,-0.27749535,0.76321507,-0.5735555,0.55268025,0.3139647,0.36896038,-1.0995792,-2.0727031,-1.048799,1.8858392,1.8862932,-0.8628672,0.41677058,-1.0456225,-2.0502102,-1.1114944,1.9348816,1.8356688,-0.8928189,-1.0415114,-1.1672732,-0.516206,1.3610694,-0.8307233,0.46212935,0.14854646,-0.34655762,-0.47979736,0.675291,-1.1790147,0.19197418,-0.4605226,-0.34887695,-0.5157318,0.64517105,0.9525142,0.010690205,0.16837005,0.25348365,-1.1622483,0.35721675,-0.50062245,0.0,1.0,0.0,0.0,0.0,0.0,0.0,-0.30344236,0.07979736,-0.12529099,0.19435883,-1.5719175,3.7082791,-0.61211586,0.21588802,-0.902611,1.6431808
-2.038025,55.650356,15.697564,10.416827,0.84569126,0.321688,0.12271477,-0.59218657,-0.6706286,-0.24404413,0.7491373,-0.55334145,0.54231817,0.30259934,0.35755193,-1.1126853,-2.0746148,-1.0365807,1.8795475,1.8899006,-0.862559,0.40632275,-1.057429,-2.055055,-1.0979713,1.9266707,1.8402255,-0.8912347,-1.0459452,-1.185603,-0.4731064,1.3497456,-0.8190142,0.4532324,0.1617838,-0.35816956,-0.47779846,0.6705886,-1.1550678,0.20229918,-0.47433946,-0.36044312,-0.51203156,0.64012104,0.95465434,0.012108364,0.16986646,0.2442005,-1.1504519,0.38009876,-0.5097264,0.0,1.0,0.0,0.0,0.0,0.0,0.0,-0.29183042,0.077798456,-0.1205886,-0.4688263,-1.9667387,4.5729876,-1.0215282,0.8367419,-0.9454429,1.3346642
-1.4699869,52.150528,14.131716,9.153891,0.7688717,0.21372196,0.1264439,-0.5831309,-0.6893513,-0.25350237,0.73681474,-0.5401553,0.52659655,0.30104497,0.34800965,-1.1263641,-2.0804052,-1.0242898,1.8726552,1.8928851,-0.8611302,0.39586666,-1.0694681,-2.0595982,-1.0845951,1.9186057,1.8446854,-0.8895362,-1.0455842,-1.2105154,-0.4473146,1.3340307,-0.8033289,0.44342816,0.17261457,-0.36956024,-0.47571564,0.6656742,-1.1334957,0.21059693,-0.49721715,-0.37189484,-0.5081482,0.63491,0.95669293,0.013595446,0.17114042,0.23508416,-1.1397771,0.39868024,-0.5281617,0.0,1.0,0.0,0.0,0.0,0.0,0.0,-0.28043973,0.07571563,-0.1156742,0.014185905,-2.6140928,2.8140306,-1.4484644,1.2676716,-1.0439754,1.1028528
6.967947,60.906498,18.879677,8.3026905,0.57100123,0.24312222,0.18539679,-0.5557634,-0.6789093,-0.17093585,0.73656625,-0.55313164,0.5324519,0.3013361,0.3402903,-1.137359,-2.0766919,-1.0109384,1.8632926,1.8979306,-0.8594026,0.3855476,-1.0816637,-2.0636036,-1.0713543,1.9106417,1.8490685,-0.8877422,-1.0275489,-1.222924,-0.38391104,1.3209649,-0.7955347,0.43647763,0.18160775,-0.38065338,-0.4735489,0.66066885,-1.1019034,0.21837696,-0.5016223,-0.38311005,-0.5041046,0.6296456,0.9586083,0.015011697,0.17223574,0.22622891,-1.1105411,0.41414186,-0.529047,0.0,1.0,0.0,0.0,0.0,0.0,0.0,-0.2693466,0.07354888,-0.11066884,1.7332554,-1.3735056,6.677371,-1.2557268,0.37994385,-0.7326007,0.8932054
1.1538217,49.620464,12.911738,7.3571815,0.5984602,0.027084708,0.1421369,-0.5667014,-0.71596766,-0.2535654,0.71678627,-0.5128758,0.4700782,0.3146044,0.32887748,-1.1532605,-2.0889602,-0.99967563,1.8593541,1.8960763,-0.85628176,0.3753614,-1.0940939,-2.0674412,-1.0582927,1.9028426,1.8533355,-0.8858616,-1.0157496,-1.2501343,-0.3831603,1.3015623,-0.77555364,0.42318237,0.19028924,-0.39151764,-0.47132874,0.65542114,-1.081473,0.22339527,-0.5327423,-0.39414215,-0.4999466,0.6241734,0.9604296,0.01653862,0.17309083,0.21757953,-1.0977803,0.42443994,-0.5565084,0.0,1.0,0.0,0.0,0.0,0.0,0.0,-0.25848234,0.07132873,-0.105421126,1.1533737,-2.8327227,0.28832555,-1.8147945,1.7301917,-1.3982892,0.8895576
4.393012,52.60627,14.104203,6.829094,0.4643943,-0.024887145,0.16772588,-0.5429373,-0.7110027,-0.231081,0.7142667,-0.5132564,0.44894674,0.3468516,0.3210677,-1.1651942,-2.0905492,-0.98686606,1.851517,1.8982302,-0.85117644,0.36536786,-1.106732,-2.0713058,-1.0454029,1.8952229,1.8574632,-0.88387984,-0.9940552,-1.2688062,-0.38705656,1.2850868,-0.75839025,0.40903217,0.20079777,-0.40215302,-0.4690628,0.6498992,-1.0577823,0.22722958,-0.5592796,-0.4050064,-0.49569702,0.61845565,0.96215904,0.018259563,0.17371865,0.20913687,-1.0781827,0.43119696,-0.5801437,0.0,1.0,0.0,0.0,0.0,0.0,0.0,-0.24784696,0.0690628,-0.09989917,2.1254897,-1.9828558,-0.14677644,-1.5449524,1.4237046,-1.4820278,1.0530561
11.385711,55.571102,16.61436,5.1483407,0.33189458,-0.04468119,0.22826682,-0.51312774,-0.72808695,-0.17165537,0.7005934,-0.49484375,0.45154518,0.36099324,0.3140551,-1.1795408,-2.0884712,-0.9753435,1.8457385,1.9026178,-0.8477805,0.3556947,-1.1195761,-2.0749755,-1.032698,1.8877976,1.8614649,-0.88179034,-0.9586737,-1.2899462,-0.35930827,1.2658827,-0.73843503,0.39711675,0.21168558,-0.41251373,-0.466774,0.6441631,-1.0289896,0.22945371,-0.5781852,-0.415596,-0.49142456,0.61255425,0.9637869,0.020043958,0.17409801,0.20100491,-1.0477133,0.43292424,-0.59663945,0.0,1.0,0.0,0.0,0.0,0.0,0.0,-0.23748624,0.06677398,-0.09416306,3.462565,-2.2298574,3.0828536,-1.8615723,1.6446948,-1.25404,1.0913521
15.314377,54.8038,16.207327,3.2852237,0.034190655,-0.21231496,0.2792046,-0.48209095,-0.73053396,-0.21667801,0.6784345,-0.49251658,0.3986603,0.37791267,0.3074856,-1.1926295,-2.0966432,-0.9648546,1.8385459,1.901331,-0.8439991,0.34646934,-1.132588,-2.0785725,-1.020245,1.8805438,1.8653233,-0.8795903,-0.910797,-1.305284,-0.35878542,1.2387232,-0.7221942,0.38185233,0.22274221,-0.42258453,-0.46448517,0.63821,-0.99913156,0.22865264,-0.60094494,-0.4258423,-0.4872055,0.60643995,0.96530193,0.021950658,0.17424548,0.19325858,-1.0109067,0.4254289,-0.61942506,0.0,1.0,0.0,0.0,0.0,0.0,0.0,-0.22741544,0.06448516,-0.08820999,4.698515,-1.644516,0.35167933,-2.6728868,1.2867928,-1.5867293,1.0873377
0.34982586,50.901505,11.48235,7.129221,0.43357635,-0.15289128,0.14378025,-0.5207789,-0.7346045,-0.2867049,0.6790364,-0.4838214,0.3141886,0.4104003,0.29439145,-1.2060485,-2.107243,-0.9523413,1.8321617,1.8967421,-0.83855027,0.33745998,-1.1457182,-2.0825474,-1.0080055,1.8734332,1.8689703,-0.8772691,-0.8976704,-1.3159875,-0.40954968,1.2194571,-0.70816773,0.35868794,0.2352289,-0.43242645,-0.46218872,0.63193125,-0.97939247,0.23047101,-0.636971,-0.43587494,-0.48296356,0.60002255,0.96673334,0.024235584,0.17421095,0.18571444,-0.99801254,0.4291886,-0.6522111,0.0,1.0,0.0,0.0,0.0,0.0,0.0,-0.21757352,0.062188715,-0.08193123,1.2937546,-1.1841536,-4.8931303,-1.7841339,1.1686325,-2.4074495,1.2489498
0.29839587,49.056454,9.939987,6.283235,0.26482594,-0.2848518,0.16876605,-0.48799893,-0.73337704,-0.3519618,0.65760046,-0.45624554,0.2381282,0.45750824,0.28866008,-1.2190559,-2.1177435,-0.9422455,1.8278086,1.892783,-0.8315183,0.328618,-1.1589056,-2.087354,-0.99599236,1.8665096,1.8723406,-0.87480074,-0.8797596,-1.3200252,-0.50373787,1.1956832,-0.6877052,0.3294885,0.2506855,-0.44208527,-0.45988464,0.62523186,-0.96167946,0.23053005,-0.6807853,-0.4458084,-0.47873688,0.5932121,0.9680859,0.027130932,0.17400955,0.1783096,-0.98538125,0.42844206,-0.69371307,0.0,1.0,0.0,0.0,0.0,0.0,0.0,-0.20791471,0.059884638,-0.07523185,1.7725945,-0.5151987,-9.265858,-2.232337,1.8471599,-3.0317545,1.5244722
-7.332556,44.44894,6.582322,7.1512136,0.43039167,-0.31008428,0.13257514,-0.50621784,-0.7420299,-0.43384892,0.6308564,-0.39927688,0.09352738,0.5011597,0.2779962,-1.2331086,-2.1307387,-0.93290675,1.8265818,1.8816932,-0.82468474,0.31981415,-1.1721426,-2.0933886,-0.98428315,1.8599273,1.8753256,-0.8721582,-0.8805009,-1.3253336,-0.636113,1.1632463,-0.6487849,0.28771368,0.26867855,-0.451622,-0.45757294,0.6179904,-0.95143294,0.2315224,-0.7383533,-0.4556961,-0.47444916,0.58589745,0.9693788,0.030852562,0.17355424,0.17097263,-0.9861182,0.43256852,-0.7469505,0.0,1.0,0.0,0.0,0.0,0.0,0.0,-0.19837797,0.05757293,-0.06799036,-0.05750656,-0.6422043,-13.153267,-3.0473232,3.749001,-4.3363094,1.7914474
-6.533507,52.53769,9.701269,8.691128,0.6576663,-0.17724752,0.11506309,-0.50074846,-0.7275393,-0.42607248,0.6318821,-0.36024883,0.00076678046,0.5463666,0.2697393,-1.2448965,-2.1359959,-0.92109495,1.8239024,1.8754022,-0.8175216,0.31098416,-1.185351,-2.1004877,-0.97283715,1.8538104,1.8778541,-0.86931866,-0.88381916,-1.319757,-0.73410225,1.138886,-0.6000025,0.24054363,0.28903747,-0.46102905,-0.45524597,0.6102923,-0.93621796,0.23351023,-0.7796107,-0.4655838,-0.47009277,0.57819116,0.9706182,0.035306893,0.17280453,0.16368352,-0.98380405,0.44182256,-0.78133607,0.0,1.0,0.0,0.0,0.0,0.0,0.0,-0.18897092,0.055245966,-0.060292304,-0.33431053,0.42965412,-9.625208,-2.2809029,4.6414137,-4.9012604,2.0175755
-10.959342,53.98961,9.677833,9.891842,0.9397242,-0.08523947,0.082546435,-0.5293858,-0.7300225,-0.46534738,0.5968777,-0.2974512,-0.21753098,0.5580157,0.25804558,-1.2583532,-2.1470225,-0.91314936,1.8240653,1.856101,-0.8135171,0.30197716,-1.1985022,-2.108426,-0.96171826,1.8482941,1.8797824,-0.866285,-0.90629476,-1.3140687,-0.81346005,1.103348,-0.5364179,0.17636856,0.30813104,-0.47029114,-0.4528885,0.6021888,-0.92261714,0.23698208,-0.81930447,-0.4754715,-0.4656067,0.57017547,0.9718235,0.040416125,0.17164649,0.1564063,-0.98773915,0.45831653,-0.8111369,0.0,1.0,0.0,0.0,0.0,0.0,0.0,-0.17970884,0.052888483,-0.052188814,-2.2424936,0.4341364,-7.7414393,-3.3914804,6.079495,-6.636426,1.9066751
2.0781024,66.57909,17.152859,8.907099,1.199397,0.036890924,0.1069119,-0.49401164,-0.7204092,-0.3691179,0.5884847,-0.14809078,-0.28020397,0.5771327,0.252576,-1.2705431,-2.1453378,-0.9028698,1.833485,1.851762,-0.80857176,0.29291484,-1.2115599,-2.1164289,-0.95093405,1.8437657,1.881076,-0.86306536,-0.9064262,-1.3033626,-0.79472023,1.0702667,-0.42630985,0.11308139,0.32657716,-0.47932434,-0.45050812,0.5939239,-0.89661455,0.23822609,-0.8270604,-0.48532104,-0.46096802,0.562114,0.9730264,0.045682993,0.16988336,0.14923869,-0.9764673,0.47165138,-0.806918,0.0,1.0,0.0,0.0,0.0,0.0,0.0,-0.17067564,0.05050811,-0.043923914,-0.086045265,0.9378433,2.2376895,-3.284812,10.589618,-6.547366,1.8419564
5.337455,66.4968,18.474768,7.035618,1.4085453,0.15728205,0.13579811,-0.51715094,-0.7326693,-0.33217746,0.51106393,0.011041089,-0.36094332,0.5729679,0.24119975,-1.2848269,-2.1496465,-0.89982766,1.8448699,1.8449817,-0.80576855,0.28378862,-1.2245814,-2.1238482,-0.9407583,1.8406886,1.881739,-0.8596836,-0.91494316,-1.3021425,-0.72354734,0.99997556,-0.26956472,0.049934126,0.34219792,-0.48809052,-0.4481125,0.5856014,-0.86968035,0.23914684,-0.83170915,-0.49503326,-0.4561844,0.554127,0.97428274,0.05067062,0.16721083,0.14228863,-0.96352386,0.48731863,-0.7984754,0.0,1.0,0.0,0.0,0.0,0.0,0.0,-0.16190946,0.04811248,-0.035601377,-0.9369731,0.0075101852,7.488942,-7.033992,15.240079,-6.5351458,1.5939713
13.261228,67.123,20.160246,3.8267066,1.1924162,0.17377096,0.2260662,-0.5087104,-0.73038137,-0.28587168,0.4376914,0.10702157,-0.42306006,0.5677772,0.23291758,-1.2976195,-2.1524353,-0.89698917,1.8513907,1.839433,-0.80290586,0.27463093,-1.2376046,-2.1303291,-0.9315439,1.8392636,1.8817929,-0.85616827,-0.91642267,-1.3025342,-0.6215012,0.8950949,-0.10144231,-0.010128395,0.35478634,-0.49655914,-0.44573975,0.57727414,-0.8382316,0.23694888,-0.831787,-0.50453186,-0.45129395,0.5462306,0.9756171,0.05514122,0.16344562,0.1357059,-0.93832254,0.49592498,-0.78879666,0.0,1.0,0.0,0.0,0.0,0.0,0.0,-0.15344083,0.04573974,-0.027274132,-0.25173426,-0.13077259,10.56633,-10.540938,16.396566,-6.1891937,1.2862504
22.615192,75.87633,24.85298,4.0317802,1.1162361,0.21844333,0.21965194,-0.4737373,-0.72659403,-0.15688977,0.4596707,0.10106712,-0.43070853,0.5716787,0.2272572,-1.310264,-2.146018,-0.88557684,1.8493702,1.838722,-0.7990004,0.26563823,-1.2506223,-2.1353376,-0.9231182,1.8392041,1.881312,-0.85254145,-0.89395237,-1.3017789,-0.45949736,0.8246608,0.024501558,-0.06102162,0.36527672,-0.5046387,-0.4434204,0.56912917,-0.79713154,0.23025297,-0.8071025,-0.5136719,-0.44638062,0.5385993,0.9770137,0.058810126,0.15874115,0.12956373,-0.90014374,0.49596432,-0.7569692,0.0,1.0,0.0,0.0,0.0,0.0,0.0,-0.1453613,0.043420404,-0.019129157,2.1218777,-0.011086464,16.62237,-7.1497083,12.175033,-5.210801,1.0439038
33.81558,84.66915,29.934978,3.5482635,1.0903664,0.236456,0.2249496,-0.43366158,-0.72410506,0.0019738297,0.44541496,0.17311762,-0.4332153,0.5719315,0.22227207,-1.3230327,-2.1351402,-0.8785767,1.8565159,1.8379905,-0.7953483,0.25706613,-1.263619,-2.138233,-0.9152149,1.8402793,1.880391,-0.84882486,-0.84539664,-1.2993879,-0.23139055,0.77846164,0.13376902,-0.102539696,0.37373188,-0.5122299,-0.4412079,0.56143606,-0.7466454,0.21815519,-0.7559808,-0.52233124,-0.4415512,0.53146064,0.9784656,0.06131331,0.15325773,0.12392582,-0.8497735,0.48554906,-0.70188075,0.0,1.0,0.0,0.0,0.0,0.0,0.0,-0.13777006,0.04120788,-0.011436045,4.7172546,0.15406609,23.288599,-4.771161,10.50139,-4.2120442,0.8098781
