Afshin1997/kuka_rl_ros2/src/catch_and_throw/input_files/idealpd/recorded_trajectories/env_369_data.csv
torque0,torque1,torque2,torque3,torque4,torque5,torque6,action0,action1,action2,action3,action4,action5,action6,set_target_0,set_target_1,set_target_2,set_target_3,set_target_4,set_target_5,set_target_6,joint_pos_0,joint_pos_1,joint_pos_2,joint_pos_3,joint_pos_4,joint_pos_5,joint_pos_6,joint_vel_0,joint_vel_1,joint_vel_2,joint_vel_3,joint_vel_4,joint_vel_5,joint_vel_6,tennisball_pos_0,tennisball_pos_1,tennisball_pos_2,tennisball_lin_vel_0,tennisball_lin_vel_1,tennisball_lin_vel_2,end_effector_pos_0,end_effector_pos_1,end_effector_pos_2,end_effector_rot_0,end_effector_rot_1,end_effector_rot_2,end_effector_rot_3,end_effector_lin_vel_0,end_effector_lin_vel_1,end_effector_lin_vel_2,obs_task_0,obs_task_1,obs_task_2,obs_task_3,obs_task_4,obs_task_5,obs_task_6,to_final_target_0,to_final_target_1,to_final_target_2,joint_acc_0,joint_acc_1,joint_acc_2,joint_acc_3,joint_acc_4,joint_acc_5,joint_acc_6
0.0,0.0,0.0,0.0,0.0,0.0,0.0,0.0,0.0,0.0,0.0,0.0,0.0,0.0,1.7802359,-1.0646509,-1.8151424,-1.1170107,1.9373155,1.1170107,-0.91629785,1.7802359,-1.0646509,-1.8151424,-1.1170107,1.9373155,1.1170107,-0.91629785,0.0,0.0,0.0,0.0,0.0,0.0,0.0,3.0601006,-0.69639206,0.35132197,-2.9495308,0.1161454,5.29599,0.5304184,-0.45449448,0.693097,0.5745483,0.17512383,0.15255436,0.7848268,0.0,0.0,0.0,1.0,0.0,0.0,0.0,0.0,0.0,0.0,-3.7101007,0.29639205,0.19867805,0.0,0.0,0.0,0.0,0.0,0.0,0.0
0.0,0.0,0.0,0.0,0.0,0.0,0.0,0.0,0.0,0.0,0.0,0.0,0.0,0.0,1.7802359,-1.0646509,-1.8151424,-1.1170107,1.9373155,1.1170107,-0.91629785,1.7802359,-1.0646509,-1.8151424,-1.1170107,1.9373155,1.1170107,-0.91629785,0.0,0.0,0.0,0.0,0.0,0.0,0.0,3.0601006,-0.69639206,0.35132197,-2.9495308,0.1161454,5.29599,0.5304184,-0.45449448,0.693097,0.5745483,0.17512383,0.15255436,0.7848268,0.0,0.0,0.0,1.0,0.0,0.0,0.0,0.0,0.0,0.0,-3.7101007,0.29639205,0.19867805,0.0,0.0,0.0,0.0,0.0,0.0,0.0
0.0,0.0,0.0,0.0,0.0,0.0,0.0,0.0,0.0,0.0,0.0,0.0,0.0,0.0,1.7802359,-1.0646509,-1.8151424,-1.1170107,1.9373155,1.1170107,-0.91629785,1.7802359,-1.0646509,-1.8151424,-1.1170107,1.9373155,1.1170107,-0.91629785,0.0,0.0,0.0,0.0,0.0,0.0,0.0,3.0601006,-0.69639206,0.35132197,-2.9495308,0.1161454,5.29599,0.5304184,-0.45449448,0.693097,0.5745483,0.17512383,0.15255436,0.7848268,0.0,0.0,0.0,1.0,0.0,0.0,0.0,0.0,0.0,0.0,-3.7101007,0.29639205,0.19867805,0.0,0.0,0.0,0.0,0.0,0.0,0.0
-176.0,55.00728,-10.690428,110.0,11.327415,4.384674,-3.655736,-0.80303127,0.26752236,-0.5186268,0.7416983,0.3613879,0.6840492,-0.6140996,1.6999328,-1.0378987,-1.8670051,-1.0428408,1.9734542,1.1854156,-0.9777078,1.7789828,-1.062816,-1.8207614,-1.1120268,1.9424672,1.1221358,-0.9177818,-0.16682887,0.244027,-0.7489661,0.66472274,0.6860967,0.6816456,-0.19728388,3.0306282,-0.6952324,0.40350568,-2.9465818,0.11602928,5.1925087,0.5283165,-0.4578514,0.69378275,0.5782734,0.17376071,0.1508307,0.78272414,-0.2797234,-0.44777906,0.09106619,1.0,0.0,0.0,0.0,0.0,0.0,0.0,-3.6806283,0.2952324,0.14649433,-16.597273,24.222166,-74.77344,66.58994,68.38634,67.64773,-19.547152
-176.0,-15.383295,-38.688534,110.0,12.201059,1.9679009,-3.112711,-0.78571886,-0.10064805,-0.518332,0.6970855,0.4856042,0.6615537,-0.582459,1.7004108,-1.0728809,-1.8725946,-1.0423182,1.9910276,1.1882911,-0.97602767,1.7772871,-1.0602487,-1.8350437,-1.0981852,1.95295,1.1349398,-0.9186744,-0.16823071,0.25943056,-1.6565254,1.626979,1.1692407,1.4744918,-0.049933665,3.0011845,-0.6940727,0.45465538,-2.9436357,0.11591327,5.0891314,0.52360153,-0.4662857,0.6946358,0.58644164,0.17049755,0.14675798,0.7781252,-0.53708017,-0.9739564,0.08375853,1.0,0.0,0.0,0.0,0.0,0.0,0.0,-3.6511846,0.29407272,0.09534463,0.54929554,1.0882378,-91.30643,97.15388,48.36998,77.62,15.742506
-157.51309,126.28989,36.284035,96.23536,8.360915,8.385653,-1.9217819,-0.7701652,0.31916815,0.11428099,0.6693636,0.49208152,0.70034647,-0.53084,1.7002707,-1.0283319,-1.8236156,-1.0312488,2.0021582,1.2049744,-0.9717584,1.7723204,-1.0566915,-1.8494956,-1.0800692,1.9649625,1.1495634,-0.91943544,-0.60634845,0.38442126,-1.3679116,1.8742063,1.2067933,1.4509647,-0.08662457,2.9717712,-0.69291306,0.50477207,-2.9406927,0.115797386,4.985857,0.5158844,-0.47751236,0.6973469,0.59748536,0.16548254,0.14127025,0.7717963,-0.8569707,-1.1653727,0.3373302,1.0,0.0,0.0,0.0,0.0,0.0,0.0,-3.6217713,0.29291305,0.045227945,-43.870842,11.476439,30.897713,25.059628,2.268362,-4.505968,-4.2029395
-103.37847,113.47899,41.585987,59.948547,5.2231374,7.8298073,-0.43949735,-0.77867883,0.12805375,0.16321896,0.661732,0.5158403,0.6759063,-0.570068,1.6944525,-1.0438862,-1.8331738,-1.013896,2.0165465,1.217154,-0.9764422,1.7630373,-1.052955,-1.8585498,-1.0618502,1.9762979,1.1631724,-0.92065614,-1.0365965,0.36762708,-0.7437675,1.8051014,1.1040573,1.3266538,-0.13586493,2.9423866,-0.6917534,0.5538568,-2.9377527,0.11568161,4.8826857,0.50551605,-0.48953247,0.7021259,0.6095785,0.15903492,0.13459511,0.7648568,-1.1099597,-1.2033983,0.5290634,1.0,0.0,0.0,0.0,0.0,0.0,0.0,-3.5923867,0.29175338,-0.0038567781,-43.313778,-2.373153,64.62564,-6.726527,-11.811733,-13.664103,-5.5209756
-42.989857,134.48701,54.149975,33.020496,2.0883307,7.3296676,0.34339115,-0.79007643,0.2653252,0.22016357,0.6543047,0.59761083,0.6662853,-0.58140177,1.6840297,-1.0264225,-1.8365334,-0.9964197,2.036059,1.2298009,-0.9787963,1.7502524,-1.0489954,-1.8610618,-1.0454928,1.986548,1.1753718,-0.92239755,-1.3605099,0.40361276,-0.08067457,1.5788852,0.9948854,1.1826686,-0.18943,2.9130287,-0.69059753,0.60191053,-2.9348156,0.11556595,4.7796173,0.49323273,-0.5009346,0.7087502,0.6214876,0.15130329,0.12700488,0.7581096,-1.2795411,-1.1054934,0.70882136,1.0,0.0,0.0,0.0,0.0,0.0,0.0,-3.5630288,0.29059753,-0.05191052,-32.78427,3.0661762,68.26744,-22.72458,-12.0844,-14.954281,-6.0980053
-3.4406693,125.73411,48.914383,14.66258,-0.097812444,5.1857123,0.44106796,-0.7997826,0.3375811,0.16285501,0.652197,0.6047445,0.6617063,-0.6082711,1.6702741,-1.0152372,-1.8447763,-0.98027307,2.0470223,1.2415423,-0.9832247,1.7353197,-1.0443758,-1.8586662,-1.0314394,1.9958997,1.1862608,-0.9246406,-1.5386363,0.48024493,0.3505132,1.3471267,0.91324526,1.057421,-0.23804972,2.8837013,-0.6894455,0.6489344,-2.9318814,0.115450405,4.676652,0.47991943,-0.51103973,0.7167076,0.63276,0.14268567,0.11914181,0.7517053,-1.3608866,-0.9647313,0.82407945,1.0,0.0,0.0,0.0,0.0,0.0,0.0,-3.5337014,0.2894455,-0.09893441,-18.128372,7.305211,44.366055,-23.341656,-8.758032,-12.580609,-5.4821196
21.866192,133.92711,47.937157,6.683292,-1.7101029,3.8228152,0.18037805,-0.8068244,0.5076939,0.103124335,0.62443006,0.60532725,0.668095,-0.6007951,1.6546373,-0.9936064,-1.8483537,-0.9689964,2.0564325,1.2530704,-0.9847201,1.7194926,-1.0382475,-1.853976,-1.019343,2.0046828,1.1960608,-0.92730707,-1.5984033,0.6560302,0.5111429,1.1633332,0.865731,0.9547831,-0.27815503,2.8544044,-0.68829346,0.6949294,-2.92895,0.11533498,4.5737896,0.46625137,-0.5195503,0.72566617,0.64343697,0.13351513,0.11186122,0.7454191,-1.379177,-0.79848254,0.9175383,1.0,0.0,0.0,0.0,0.0,0.0,0.0,-3.5044045,0.28829345,-0.14492941,-6.2736034,17.283905,16.888815,-18.529415,-4.99568,-10.095668,-4.578018
29.824394,126.456184,41.858948,4.0622783,-2.2113173,2.5869713,-0.06113994,-0.81712425,0.5880606,0.07398398,0.6003575,0.60947627,0.65529037,-0.5885781,1.6377802,-0.9794414,-1.8465776,-0.95930725,2.0656304,1.2615898,-0.98616487,1.7035853,-1.0301527,-1.849118,-1.0085913,2.013201,1.2049662,-0.9303083,-1.5890642,0.8596941,0.4790135,1.045388,0.846788,0.8696683,-0.3089168,2.825138,-0.6871414,0.73989654,-2.9260216,0.115219675,4.47103,0.45264816,-0.5264931,0.7353478,0.65371954,0.124082245,0.10571144,0.7389719,-1.3622006,-0.64597625,0.98220056,1.0,0.0,0.0,0.0,0.0,0.0,0.0,-3.4751382,0.2871414,-0.18989652,0.6742954,20.146608,-2.6645362,-11.919713,-1.9662619,-8.2972765,-3.5297036
26.543327,109.78788,33.206097,4.6814685,-2.0285661,1.5730823,-0.27099904,-0.8177621,0.6433685,0.0041831154,0.59482884,0.60789776,0.6679903,-0.56560713,1.621809,-0.96581584,-1.8486997,-0.9491084,2.0739908,1.2717652,-0.986869,1.688006,-1.0201544,-1.8455226,-0.99853194,2.0216467,1.2131411,-0.9335498,-1.548306,1.0458281,0.32082993,0.9922934,0.84411705,0.8006147,-0.3303417,2.7959023,-0.6859894,0.78383684,-2.923096,0.115104474,4.368374,0.43929672,-0.5321808,0.7454372,0.6638381,0.1146593,0.100895375,0.732115,-1.3319347,-0.5278113,1.0150087,1.0,0.0,0.0,0.0,0.0,0.0,0.0,-3.4459023,0.28598937,-0.23383683,3.8672447,18.46502,-15.483177,-5.4531217,-0.24563074,-6.7369103,-2.4827838
20.88559,91.37704,26.07651,5.7349577,-1.4784894,0.9760582,-0.30304098,-0.81213605,0.6686114,-0.021815525,0.5869149,0.61808825,0.66631186,-0.56384367,1.6067924,-0.9532932,-1.8477042,-0.93984044,2.0834556,1.2797723,-0.9899342,1.6728846,-1.0086912,-1.8436801,-0.988691,2.0301535,1.2207133,-0.9369659,-1.5007666,1.1793975,0.1395457,0.9808217,0.85333234,0.74324805,-0.3463389,2.766693,-0.68483734,0.82675135,-2.9201736,0.11498939,4.2658205,0.4262352,-0.5369377,0.75567174,0.6739162,0.10541909,0.09726223,0.7247509,-1.3026254,-0.44335756,1.0239092,1.0,0.0,0.0,0.0,0.0,0.0,0.0,-3.4166932,0.28483734,-0.27675134,4.5916796,13.25798,-17.893337,-1.3398886,0.97732544,-5.635619,-1.8838227
13.74059,77.014694,21.1917,7.4958987,-0.84428394,0.75129116,-0.2665677,-0.81300896,0.6912863,-0.050619837,0.5796686,0.62726957,0.66776645,-0.55619603,1.5915837,-0.93956256,-1.8487421,-0.93072414,2.0928805,1.2874899,-0.9925855,1.6581484,-0.9962858,-1.8434551,-0.9788176,2.0387976,1.2277876,-0.94050974,-1.4649867,1.2607598,-0.015776526,0.98872244,0.8683354,0.6956233,-0.35794622,2.7375107,-0.6836853,0.86864114,-2.9172542,0.11487443,4.163369,0.4133873,-0.5410576,0.76588607,0.68398887,0.09642538,0.09450175,0.7168897,-1.2834744,-0.3852585,1.0187743,1.0,0.0,0.0,0.0,0.0,0.0,0.0,-3.3875108,0.2836853,-0.31864113,3.4428358,8.062649,-15.322399,0.5646825,1.5607476,-4.7252417,-1.4200807
10.320113,67.24028,18.581856,7.809909,-0.4341591,0.69139713,-0.15869884,-0.8071808,0.70274043,-0.07094011,0.5640456,0.6342117,0.6728887,-0.56340075,1.5774304,-0.92601174,-1.8505491,-0.922413,2.1022189,1.2950765,-0.99684983,1.6436774,-0.98339593,-1.8444164,-0.9688822,2.0475981,1.2344519,-0.94415754,-1.4415245,1.2981555,-0.12212594,0.9942584,0.8843106,0.65673786,-0.36784908,2.7083588,-0.6825409,0.90950716,-2.9143376,0.11475958,4.0610204,0.40066147,-0.5446892,0.77598286,0.6940057,0.08767554,0.0923017,0.70862496,-1.2715889,-0.34009847,1.0051286,1.0,0.0,0.0,0.0,0.0,0.0,0.0,-3.3583589,0.2825409,-0.35950714,2.217412,3.6810637,-10.394788,0.30412674,1.6457081,-3.873217,-1.2530625
8.581035,63.563187,18.152674,8.12938,-0.16963553,0.80201995,-0.043648154,-0.80766886,0.7136398,-0.07597518,0.5478365,0.643725,0.6757117,-0.56686354,1.5629104,-0.91203195,-1.852014,-0.91409856,2.1119707,1.302023,-1.0008439,1.629336,-0.9703287,-1.8460376,-0.95897734,2.0565588,1.2407805,-0.94789404,-1.4319588,1.3094025,-0.17431556,0.9884648,0.8999679,0.6249374,-0.37643045,2.6792374,-0.6813965,0.9493504,-2.911424,0.11464484,3.958774,0.38800812,-0.5478935,0.7859376,0.70388126,0.07911783,0.09040043,0.70008516,-1.2661629,-0.29817787,0.9911774,1.0,0.0,0.0,0.0,0.0,0.0,0.0,-3.3292375,0.28139648,-0.3993504,0.81732273,1.0682821,-4.910472,-0.83500147,1.584661,-3.1821847,-1.1339843
7.735569,61.29529,17.619606,8.238475,-0.074929,0.8260827,0.008939881,-0.8047402,0.720518,-0.10381983,0.53914714,0.6426908,0.6866484,-0.56802994,1.548862,-0.89827687,-1.8564196,-0.9050626,2.120828,1.3094453,-1.0046971,1.6150366,-0.9572433,-1.8479984,-0.9491869,2.0656416,1.2468439,-0.9517059,-1.429904,1.3080244,-0.20205466,0.975049,0.9107255,0.6000052,-0.38371783,2.6501465,-0.6802521,0.98817205,-2.908513,0.11453022,3.8566303,0.37538528,-0.5506897,0.79574037,0.7135613,0.07070351,0.08866928,0.6913531,-1.2628542,-0.257504,0.97563446,1.0,0.0,0.0,0.0,0.0,0.0,0.0,-3.3001466,0.28025207,-0.43817204,0.060081482,-0.19078255,-2.4331272,-1.5993237,1.0834098,-2.4926543,-1.0090411
11.155272,63.828503,19.072906,6.844643,-0.22253233,0.917119,0.1288172,-0.803257,0.73001677,-0.089948416,0.49969167,0.6500025,0.68332714,-0.56202084,1.5347109,-0.88424164,-1.8569932,-0.8992177,2.130642,1.3151766,-1.007908,1.6007277,-0.9441742,-1.8499935,-0.9397074,2.074816,1.2526919,-0.9555778,-1.431684,1.3063687,-0.19732822,0.9379539,0.9196776,0.57967216,-0.38937208,2.6210861,-0.67910767,1.025973,-2.905605,0.11441571,3.7545888,0.3628235,-0.5530014,0.8054095,0.7229508,0.062383804,0.087042905,0.68254954,-1.2550346,-0.20686002,0.96298385,1.0,0.0,0.0,0.0,0.0,0.0,0.0,-3.2710862,0.27910766,-0.47597295,-0.34558773,-0.21903515,0.88279545,-3.976059,0.8781433,-2.010131,-0.8662045
15.842955,67.82883,21.052214,5.2941146,-0.41166013,1.0036194,0.25138345,-0.7997224,0.7374717,-0.060307775,0.4600821,0.66255087,0.68047976,-0.56061065,1.5207554,-0.870427,-1.8560243,-0.89369917,2.141071,1.3207399,-1.0116389,1.5864073,-0.9310907,-1.851712,-0.93075526,2.0840895,1.2583624,-0.95949835,-1.4329017,1.308744,-0.16160665,0.88008577,0.9300365,0.5630395,-0.39403218,2.5920486,-0.67796326,1.0627543,-2.9027,0.11430132,3.6526494,0.35039902,-0.55472565,0.8149881,0.7319363,0.054102045,0.0854658,0.6738233,-1.2403417,-0.14485906,0.9550467,1.0,0.0,0.0,0.0,0.0,0.0,0.0,-3.2420487,0.27796325,-0.51275426,-0.3071785,0.18467903,4.040906,-6.0557246,0.9993315,-1.613152,-0.78504086
16.340225,68.0009,20.67995,5.162898,-0.4968601,0.91633123,0.24535993,-0.80059457,0.7458343,-0.077974334,0.4364939,0.6638497,0.68989843,-0.55039483,1.5063479,-0.8565073,-1.8595095,-0.8871059,2.1504745,1.3273523,-1.0145378,1.5720717,-0.9179405,-1.8531463,-0.9224106,2.0934546,1.2638975,-0.9634513,-1.434297,1.3169963,-0.1359788,0.8184081,0.93852454,0.5505887,-0.39672664,2.5630417,-0.67681885,1.098517,-2.8997977,0.11418704,3.5508118,0.33813095,-0.55581665,0.824477,0.74049866,0.04584903,0.08396318,0.66521394,-1.2216369,-0.08273986,0.9454004,1.0,0.0,0.0,0.0,0.0,0.0,0.0,-3.2130418,0.27681884,-0.5485169,-0.3216505,0.7806301,3.006357,-6.4317703,0.82981586,-1.1729002,-0.5748153
17.605522,67.138535,19.841713,4.317546,-0.6709232,0.73099047,0.23407662,-0.79659945,0.7571044,-0.09719741,0.39589253,0.66389406,0.68946016,-0.53908294,1.4924117,-0.8422301,-1.862866,-0.8828214,2.159844,1.3328435,-1.0173596,1.5577437,-0.9046577,-1.8544891,-0.9147345,2.1028845,1.2693278,-0.9674167,-1.4327326,1.3319387,-0.13249317,0.74978137,0.9445017,0.54097176,-0.39745718,2.5340652,-0.67567444,1.133262,-2.8968983,0.11407288,3.449076,0.32610703,-0.5562897,0.83383447,0.74865025,0.037667774,0.08262941,0.6567163,-1.1954019,-0.021102248,0.93076444,1.0,0.0,0.0,0.0,0.0,0.0,0.0,-3.1840653,0.27567443,-0.583262,-0.01950264,1.4643431,0.7473439,-7.1300626,0.603652,-0.850296,-0.35979152
18.977459,65.8894,19.357216,3.2813048,-0.7725096,0.6041986,0.27581322,-0.8003739,0.75941414,-0.0763453,0.33963904,0.66891134,0.6890901,-0.53713375,1.4777063,-0.8287163,-1.8621236,-0.88077056,2.1697757,1.3382368,-1.0211301,1.5434195,-0.89123094,-1.8557765,-0.90784895,2.1123679,1.2746779,-0.97138494,-1.4329805,1.3461341,-0.12609205,0.6672451,0.95005196,0.5336042,-0.39745286,2.5051193,-0.67453766,1.1669905,-2.894002,0.11395883,3.3474417,0.3143921,-0.5561447,0.8430165,0.7563729,0.029598195,0.081499346,0.6483686,-1.1633073,0.04040171,0.912082,1.0,0.0,0.0,0.0,0.0,0.0,0.0,-3.1551194,0.27453765,-0.6169905,-0.19950867,1.4042854,1.0215998,-8.522617,0.57361126,-0.5865693,-0.27416945
25.896412,66.25247,20.039122,-0.50797653,-1.1606967,0.42232507,0.42301098,-0.78907144,0.7680356,-0.048201084,0.24762042,0.67658705,0.68761146,-0.5367525,1.4645123,-0.8144274,-1.8605967,-0.8830869,2.1800265,1.343439,-1.0250602,1.529143,-0.87765634,-1.8568904,-0.9020449,2.1219199,1.2799689,-0.9753513,-1.4264086,1.3613018,-0.10537562,0.550528,0.9569854,0.5284645,-0.3972469,2.476204,-0.6734009,1.1997033,-2.8911088,0.113844894,3.2459092,0.30310822,-0.55532074,0.85197026,0.7635659,0.02169008,0.08057229,0.640316,-1.1141632,0.10983747,0.8876017,1.0,0.0,0.0,0.0,0.0,0.0,0.0,-3.126204,0.27340087,-0.6497033,0.48470497,1.5239954,2.4458826,-11.947763,0.7245898,-0.2734661,-0.2509296
29.318108,65.910866,20.418694,-2.470059,-1.3096899,0.3159799,0.5374491,-0.7915668,0.7704132,-0.0028670658,0.16531658,0.68074095,0.68073624,-0.5315284,1.4499863,-0.800615,-1.8571771,-0.88551325,2.1899939,1.3480425,-1.0285041,1.5149199,-0.86395586,-1.8576,-0.8975855,2.1315444,1.285216,-0.9793109,-1.4214301,1.3731246,-0.058544707,0.4101943,0.9642809,0.5243541,-0.3963522,2.4473114,-0.6722641,1.2314017,-2.8882184,0.11373107,3.1444783,0.2923813,-0.5537758,0.86065954,0.7701366,0.013972588,0.07981052,0.63271207,-1.0559969,0.18159942,0.8601941,1.0,0.0,0.0,0.0,0.0,0.0,0.0,-3.0973115,0.2722641,-0.68140167,0.33521652,1.2105227,5.028946,-14.294672,0.7803917,-0.11154413,-0.1634419
32.89867,66.18247,20.949923,-4.5251465,-1.495363,0.20700881,0.6519403,-0.79242665,0.77825993,0.045679692,0.06301565,0.68565774,0.6788503,-0.52048516,1.4356772,-0.78612983,-1.853032,-0.8912839,2.2001102,1.353101,-1.0313594,1.5007311,-0.8501371,-1.8576629,-0.8947245,2.1412413,1.2904288,-0.98325247,-1.4184958,1.3848922,0.012072866,0.2440352,0.9719366,0.52149725,-0.39417335,2.4184494,-0.6711273,1.2620864,-2.885331,0.11361736,3.0431488,0.28230667,-0.55148315,0.8690561,0.7760031,0.006473768,0.079179086,0.6257059,-0.9880132,0.25647306,0.82999104,1.0,0.0,0.0,0.0,0.0,0.0,0.0,-3.0684495,0.2711273,-0.7120864,0.14686584,1.2264252,7.359844,-16.851768,0.84826946,0.074625015,-0.00705719
40.423717,67.055595,22.36577,-8.806631,-1.869712,0.0657998,0.87676287,-0.7878474,0.7793628,0.14273475,-0.0847738,0.6884779,0.66736794,-0.5002804,1.4219464,-0.7722008,-1.8433894,-0.9032019,2.2100892,1.3571656,-1.0332805,1.4865824,-0.8362278,-1.8566749,-0.89386237,2.1510108,1.2956148,-0.9871568,-1.4142476,1.3932186,0.12851454,0.0330055,0.9791594,0.51916283,-0.38980883,2.389618,-0.66999054,1.2917585,-2.8824463,0.11350377,2.9419205,0.27303696,-0.54837036,0.8771162,0.78101426,-0.00076816045,0.07861534,0.61954474,-0.90211916,0.3400482,0.79475963,1.0,0.0,0.0,0.0,0.0,0.0,0.0,-3.039618,0.26999053,-0.7417585,0.31003952,0.9098768,11.874515,-21.296244,0.85235834,0.23175478,0.2460897
44.948112,68.901,23.8036,-10.55329,-2.0338256,0.005077943,1.0083839,-0.77886784,0.7835997,0.23824723,-0.19593807,0.68563014,0.6618033,-0.4656341,1.4086956,-0.7578678,-1.8328502,-0.9134562,2.2195737,1.3617952,-1.0337203,1.47251,-0.822245,-1.8542507,-0.89520895,2.1608336,1.3007799,-0.99099153,-1.4050331,1.4002886,0.2806781,-0.19086388,0.9840357,0.51734084,-0.38186356,2.360817,-0.66885376,1.3204193,-2.8795645,0.11339029,2.8407934,0.26469803,-0.5443764,0.88484097,0.78505987,-0.007762652,0.07805289,0.61443347,-0.8065846,0.42788684,0.76119393,1.0,0.0,0.0,0.0,0.0,0.0,0.0,-3.010817,0.26885375,-0.7704193,0.86193085,0.80754757,15.313572,-22.51172,0.7009864,0.34089088,0.6526172
40.7058,71.27486,24.545336,-5.960973,-1.5779204,0.1504479,0.9157551,-0.769914,0.7894836,0.31793472,-0.2201996,0.69646776,0.65348893,-0.41481298,1.3955185,-0.7432966,-1.8224572,-0.91722894,2.2304804,1.3661288,-1.0324728,1.4585634,-0.8081869,-1.8502166,-0.8983799,2.170729,1.3059202,-0.9947118,-1.3911136,1.4080107,0.44420785,-0.3592997,0.9922826,0.51457334,-0.3690609,2.3320427,-0.6677208,1.3480694,-2.8766856,0.11327692,2.7397673,0.25719452,-0.53954315,0.89234936,0.78819585,-0.0146366665,0.07739535,0.61036295,-0.7254328,0.5084589,0.7430115,1.0,0.0,0.0,0.0,0.0,0.0,0.0,-2.9820428,0.2677208,-0.7980694,1.38309,0.88710785,16.2862,-16.906029,1.1459112,0.19665956,1.1809647
30.015968,73.44877,24.617409,2.984579,-0.72982764,0.47496754,0.67118603,-0.7661678,0.7936297,0.39642373,-0.18676609,0.69171906,0.64827925,-0.33104363,1.3819467,-0.7288239,-1.8105743,-0.91705656,2.2399008,1.3707482,-1.0278162,1.4447542,-0.7940515,-1.8445613,-0.90249693,2.1806853,1.3110262,-0.998249,-1.3773457,1.4158708,0.60520256,-0.429274,0.9981389,0.51048625,-0.3487995,2.3032951,-0.66659164,1.3747101,-2.8738096,0.11316367,2.6388423,0.2502594,-0.5339966,0.89985913,0.79061556,-0.021627963,0.07654208,0.6071248,-0.6760918,0.5762436,0.7485917,1.0,0.0,0.0,0.0,0.0,0.0,0.0,-2.9532952,0.26659164,-0.8247101,1.3852835,0.9123087,15.902162,-7.034773,1.0088086,-0.04490614,1.9441485
19.055458,69.2884,22.140465,9.628322,-0.062257588,0.54131764,0.40856135,-0.7686732,0.791182,0.43472904,-0.17577317,0.6895043,0.65074307,-0.295351,1.3678869,-0.71493334,-1.8010885,-0.9200742,2.2496357,1.3761005,-1.0277841,1.4310385,-0.77986753,-1.8375404,-0.90678465,2.190676,1.3160921,-1.0015688,-1.3696557,1.4196047,0.7334136,-0.4287007,1.0011905,0.506093,-0.32659256,2.274578,-0.6654625,1.4003422,-2.8709364,0.11305053,2.5380182,0.24362564,-0.5279083,0.90748703,0.7925482,-0.028873004,0.075474046,0.60443145,-0.6523884,0.6262484,0.76192987,1.0,0.0,0.0,0.0,0.0,0.0,0.0,-2.9245782,0.2654625,-0.8503422,0.76670647,0.50337315,12.587345,0.0018298626,0.740695,-0.1650691,2.1449149
10.294258,66.24511,20.118864,15.171129,0.4480654,0.594585,0.17695402,-0.7651118,0.7961403,0.46534505,-0.1314055,0.6886748,0.6502369,-0.24415441,1.3545274,-0.7002535,-1.7910058,-0.9199252,2.2595434,1.3811158,-1.0259843,1.4173781,-0.7656435,-1.8295219,-0.9106108,2.2006857,1.3211123,-1.0046473,-1.3647286,1.4237797,0.8239285,-0.36751738,1.0021831,0.5013411,-0.30188453,2.2458916,-0.66433334,1.4249669,-2.868066,0.1129375,2.437295,0.23706818,-0.5214195,0.9153024,0.7942007,-0.03645197,0.07421767,0.6020034,-0.64937395,0.6627883,0.7821616,1.0,0.0,0.0,0.0,0.0,0.0,0.0,-2.8958917,0.26433334,-0.8749669,0.47209263,0.5517483,8.810198,6.039566,0.5338669,-0.27902126,2.394563
-1.1762905,60.90323,17.15866,22.185623,1.1608126,0.6798304,-0.11755238,-0.7683879,0.79070127,0.47397003,-0.019626323,0.6830608,0.6510775,-0.20420943,1.3405392,-0.6865733,-1.7821249,-0.91257346,2.2689917,1.38622,-1.0250682,1.4037272,-0.7514156,-1.8209159,-0.91325915,2.2106802,1.3260847,-1.007472,-1.3654697,1.4228754,0.87214154,-0.23096204,0.9998556,0.49614614,-0.27636075,2.2172356,-0.6632042,1.4485852,-2.8651986,0.11282459,2.3366723,0.23032379,-0.514698,0.92337954,0.79580605,-0.044462986,0.072791375,0.599514,-0.67457604,0.6810819,0.8100528,1.0,0.0,0.0,0.0,0.0,0.0,0.0,-2.8672357,0.2632042,-0.89858514,-0.1295805,0.045776367,4.5913815,13.530475,0.19099712,-0.43101907,2.4647534
-17.377687,55.79254,13.853081,32.73695,2.1961174,0.956831,-0.5346126,-0.7858959,0.78705543,0.4524117,0.1746099,0.66984874,0.662613,-0.17949826,1.3251376,-0.67271006,-1.7756748,-0.89579815,2.2776651,1.392346,-1.0254219,1.3899676,-0.73722494,-1.8121898,-0.91375506,2.220606,1.3310095,-1.0100489,-1.3796154,1.4183118,0.8719768,0.010318241,0.99186546,0.4910037,-0.25182956,2.1886024,-0.66207504,1.471198,-2.862334,0.11271179,2.2361503,0.22301102,-0.5079498,0.93185335,0.7976819,-0.05308284,0.07119391,0.596504,-0.74267536,0.67886513,0.85338324,1.0,0.0,0.0,0.0,0.0,0.0,0.0,-2.8386025,0.26207504,-0.92119795,-1.5224695,-0.31814575,-0.24511814,23.951775,-0.35976171,-0.59849024,2.3554504
-17.46047,49.174194,11.283274,30.442842,2.0120285,0.69014513,-0.5683471,-0.79371816,0.7817239,0.43318158,0.19722074,0.6757268,0.66486424,-0.2527297,1.3105958,-0.65905255,-1.7688717,-0.89403296,2.2881787,1.397496,-1.0353218,1.3760287,-0.72310674,-1.8037078,-0.9120413,2.230471,1.3358904,-1.0124617,-1.3989941,1.410063,0.8397693,0.22451438,0.9860355,0.48669064,-0.2379922,2.1599998,-0.6609459,1.4928062,-2.8594723,0.1125991,2.1357288,0.21506119,-0.5012665,0.9406409,0.7999288,-0.06223948,0.06948917,0.5927996,-0.8046208,0.67256045,0.88065475,1.0,0.0,0.0,0.0,0.0,0.0,0.0,-2.81,0.2609459,-0.9428062,-2.0463705,-0.70872307,-3.3960462,21.245096,-0.20626783,-0.5197406,1.2972176
-8.998221,45.745956,10.437312,22.383415,1.1963742,0.24920508,-0.3771779,-0.79862607,0.78411347,0.4156681,0.17957647,0.6761658,0.66126215,-0.2713111,1.2961661,-0.6446954,-1.762141,-0.8940837,2.2980876,1.4020166,-1.0395927,1.3619028,-0.7090515,-1.795655,-0.9088322,2.24029,1.3407351,-1.0147753,-1.4175638,1.4043281,0.79332423,0.35248864,0.9814529,0.483636,-0.22934617,2.1314278,-0.65982056,1.513411,-2.8566134,0.11248652,2.0354078,0.20672989,-0.4945984,0.94951504,0.8024304,-0.07167925,0.067813724,0.5885311,-0.8354853,0.6735027,0.8830411,1.0,0.0,0.0,0.0,0.0,0.0,0.0,-2.7814279,0.25982055,-0.96341103,-1.9579649,-0.4854679,-4.7291636,12.638068,-0.16769171,-0.2971232,0.7846713
0.78306675,45.513874,11.048311,14.626861,0.39506644,-0.10036412,-0.13602757,-0.80028045,0.7842961,0.41434854,0.17577957,0.6734314,0.65679914,-0.2660383,1.2818748,-0.6306219,-1.7542201,-0.89125425,2.3076332,1.406415,-1.0413791,1.3476301,-0.69503534,-1.7880065,-0.90494025,2.2500632,1.345555,-1.0170145,-1.4307986,1.4010262,0.7554978,0.4009031,0.9767292,0.4818281,-0.222495,2.1028862,-0.65869904,1.5330135,-2.8537574,0.11237406,1.9351869,0.19831848,-0.48784256,0.95827603,0.8049993,-0.081171505,0.06627936,0.58394724,-0.8347199,0.6847834,0.8672976,1.0,0.0,0.0,0.0,0.0,0.0,0.0,-2.7528863,0.25869903,-0.98301345,-1.4148474,-0.26378632,-3.7783384,4.697853,-0.25838614,-0.06374121,0.5981147
11.05042,44.273006,11.248421,5.804331,-0.4653813,-0.55070907,0.12860018,-0.80477023,0.7831449,0.40362623,0.111057,0.67648715,0.6613854,-0.2779681,1.2671531,-0.61672086,-1.747644,-0.89383453,2.3177118,1.4116935,-1.0448114,1.3332545,-0.6810411,-1.780669,-0.90126,2.259802,1.350371,-1.019206,-1.4402142,1.399076,0.72684485,0.35660067,0.9737334,0.48238522,-0.21821761,2.0743675,-0.6575775,1.5516143,-2.8509042,0.112261705,1.8350661,0.19018173,-0.48091888,0.9667173,0.80743635,-0.09046684,0.064985186,0.5793436,-0.7981401,0.7029208,0.8298781,1.0,0.0,0.0,0.0,0.0,0.0,0.0,-2.7243676,0.2575775,-1.0016143,-1.0244846,-0.14166832,-2.7762651,-4.5663595,-0.16402006,0.31281114,0.34027994
21.268017,44.94675,12.113726,-2.314897,-1.2778574,-0.9661262,0.39559555,-0.8021222,0.78684443,0.405149,0.016212719,0.677929,0.65921694,-0.2660444,1.2530422,-0.6023567,-1.740154,-0.8996388,2.327595,1.4162927,-1.0458105,1.3188349,-0.6670393,-1.7735031,-0.89864504,2.2695258,1.3552004,-1.0213518,-1.4425535,1.4007516,0.7137935,0.22941077,0.97195065,0.4843344,-0.21373013,2.0458794,-0.656456,1.5692147,-2.848054,0.11214947,1.7350454,0.18267441,-0.47377014,0.9746585,0.80954915,-0.09932902,0.064015634,0.57503545,-0.7267774,0.7275991,0.7758907,1.0,0.0,0.0,0.0,0.0,0.0,0.0,-2.6958795,0.256456,-1.0192146,-0.2888441,0.2156496,-1.1669993,-12.826347,-0.10788441,0.5775213,0.3694862
26.468967,44.87377,12.659621,-6.330052,-1.619425,-1.2080383,0.56418073,-0.80131936,0.78114474,0.42636597,-0.059630524,0.6758803,0.65253437,-0.23019424,1.238703,-0.5889248,-1.7308664,-0.9046081,2.3371139,1.4204538,-1.0443712,1.3044249,-0.65304124,-1.7662857,-0.89760077,2.2792304,1.360047,-1.0234327,-1.4403692,1.3996913,0.7246895,0.06259933,0.97014785,0.4862245,-0.20621422,2.0174217,-0.6553345,1.5858157,-2.8452065,0.11203734,1.6351247,0.1760025,-0.466362,0.9820101,0.81120557,-0.10762987,0.063383035,0.5712651,-0.63827026,0.7529377,0.71540946,1.0,0.0,0.0,0.0,0.0,0.0,0.0,-2.6674218,0.25533447,-1.0358157,0.20492077,-0.051808357,1.207912,-16.752075,-0.1264453,0.62577724,0.689286
26.809166,48.688797,14.296724,-4.7608137,-1.5089781,-1.1105968,0.60894567,-0.79655135,0.78738683,0.45725396,-0.08903933,0.6768093,0.65058666,-0.13135198,1.2247697,-0.57430255,-1.7205603,-0.9065047,2.3469112,1.4251057,-1.0365679,1.290074,-0.6390251,-1.7587726,-0.89808047,2.2889273,1.3649088,-1.0253668,-1.4333252,1.4023972,0.76014686,-0.08486101,0.96962297,0.4873969,-0.18937959,1.9889908,-0.65421295,1.6014181,-2.842362,0.11192533,1.535304,0.17019272,-0.4586563,0.9888405,0.81235033,-0.11543279,0.06302914,0.5681457,-0.5533069,0.7818093,0.6660227,1.0,0.0,0.0,0.0,0.0,0.0,0.0,-2.6389909,0.25421295,-1.0514181,0.72500706,0.33814907,3.5889387,-14.773014,0.049316883,0.5186081,1.6366601
20.472744,48.03188,14.105256,1.3581114,-0.8619153,-0.88045746,0.5067164,-0.79323536,0.77809846,0.47355857,-0.06498358,0.6683139,0.64726603,0.05472615,1.2107505,-0.5612152,-1.7114167,-0.9045788,2.3557587,1.4296354,-1.0198941,1.275807,-0.6250242,-1.7508476,-0.8995091,2.2986014,1.3697726,-1.0270014,-1.424532,1.3996251,0.8030879,-0.1624076,0.9670578,0.48713702,-0.15494043,1.9605865,-0.65309143,1.6160232,-2.8395202,0.11181342,1.4355829,0.16503906,-0.45070267,0.99530345,0.8130304,-0.12292497,0.06285036,0.5656154,-0.49311626,0.80529153,0.63348776,1.0,0.0,0.0,0.0,0.0,0.0,0.0,-2.6105866,0.25309142,-1.0660231,0.9005785,-0.1901865,4.247153,-7.791981,-0.07213354,0.28796196,3.3959985
11.075377,46.792126,13.446812,10.083437,-0.014878035,-0.52207404,0.29260492,-0.79041415,0.7722195,0.4806422,0.00439948,0.6515237,0.65313524,0.21891627,1.1967657,-0.54780227,-1.7027833,-0.89906913,2.3637538,1.4350861,-1.0051098,1.261624,-0.61108243,-1.7425411,-0.9009901,2.308203,1.3746306,-1.0281858,-1.4164296,1.3927351,0.8394782,-0.1437053,0.9588725,0.48614174,-0.10636488,1.9322128,-0.65197754,1.6296318,-2.8366814,0.11170163,1.3359617,0.1602211,-0.44253922,1.0016041,0.8133721,-0.13037762,0.06274815,0.5634626,-0.46821904,0.8233259,0.6225868,1.0,0.0,0.0,0.0,0.0,0.0,0.0,-2.582213,0.25197753,-1.0796318,0.7928133,-0.5829096,3.5294533,1.7870396,-0.5457163,0.10278225,4.7939973
1.9459996,43.58927,11.951622,17.790855,0.75226027,-0.24520317,0.040729422,-0.7910749,0.7655025,0.47096816,0.083192736,0.6474512,0.6617962,0.2793003,1.1825165,-0.5345322,-1.6954442,-0.89267087,2.3729482,1.4408102,-1.0002558,1.2474924,-0.597237,-1.7340248,-0.90166914,2.3177207,1.379481,-1.0288706,-1.4122134,1.3823016,0.855197,-0.04310529,0.95026714,0.4849855,-0.056145918,1.9038696,-0.65086365,1.6422449,-2.8338454,0.111589946,1.23644,0.15541458,-0.4342575,1.0079159,0.81354403,-0.13803032,0.06264289,0.5613995,-0.47564143,0.83431095,0.62765586,1.0,0.0,0.0,0.0,0.0,0.0,0.0,-2.5538697,0.25086364,-1.0922449,0.35066605,-0.92527866,1.4419913,9.920834,-0.53088665,-0.013190508,4.9422197
-2.8159866,39.850056,10.41744,21.181515,1.1079067,-0.18031386,-0.104443,-0.79186964,0.75733703,0.46076414,0.136163,0.6419392,0.6565374,0.3108255,1.1683055,-0.52150327,-1.6879483,-0.8880528,2.3819146,1.4451346,-0.997788,1.2333761,-0.58351743,-1.7254989,-0.9010817,2.3271506,1.3843142,-1.0290766,-1.4117162,1.3688322,0.8512714,0.09216496,0.94158006,0.4828583,-0.009138044,1.8755493,-0.64974976,1.6538635,-2.8310122,0.11147838,1.1370177,0.15041733,-0.4258995,1.0143123,0.81367,-0.14598936,0.062510416,0.5592143,-0.49809805,0.83988786,0.6371712,1.0,0.0,0.0,0.0,0.0,0.0,0.0,-2.5255494,0.24974975,-1.1038635,-0.049591064,-1.2291431,-0.51401854,13.361025,-0.52992105,-0.16189218,4.615745
-0.8620386,37.4252,9.402262,18.104258,0.79072917,-0.41595095,-0.07984324,-0.7945558,0.7565042,0.44608805,0.121617794,0.63472825,0.6529773,0.30030125,1.1539205,-0.50786704,-1.6808901,-0.8889199,2.3906233,1.4496119,-0.99904644,1.2192408,-0.5699123,-1.7171352,-0.8994194,2.3364851,1.3891245,-1.0288725,-1.4146556,1.3580675,0.8312859,0.19042663,0.9318379,0.48075372,0.029947324,1.8472595,-0.64863586,1.6644888,-2.828182,0.11136692,1.0376949,0.145298,-0.41749954,1.0207213,0.8137773,-0.15415546,0.062423218,0.5568714,-0.50799394,0.843659,0.63567376,1.0,0.0,0.0,0.0,0.0,0.0,0.0,-2.4972596,0.24863586,-1.1144888,-0.3884554,-0.97329617,-2.0747662,9.676102,-0.6878376,-0.13129115,3.8350372
2.8805327,36.018143,8.8089485,13.809576,0.34815115,-0.71086043,-0.011991508,-0.78863686,0.7555524,0.42222103,0.12106404,0.6272054,0.6511536,0.2985081,1.140377,-0.49435708,-1.674913,-0.887313,2.3992057,1.4542398,-0.99902165,1.2050997,-0.5563873,-1.7090824,-0.8971077,2.3457167,1.3939177,-1.0283289,-1.4142029,1.3509786,0.79639673,0.24424005,0.9209897,0.47920105,0.062258173,1.8190002,-0.647522,1.6741215,-2.8253546,0.11125558,0.93847144,0.14020157,-0.4090767,1.0270253,0.81384593,-0.1623629,0.06248546,0.55442643,-0.49942237,0.8460576,0.62217814,1.0,0.0,0.0,0.0,0.0,0.0,0.0,-2.4690003,0.24752197,-1.1241214,-0.026392937,-0.6191969,-3.5309076,5.2541676,-0.8544564,-0.02605319,3.1676755
6.332241,34.541317,8.288023,9.580604,-0.04657072,-0.99281776,0.08211644,-0.79065174,0.7514749,0.4063924,0.105234034,0.6205768,0.6470858,0.32410884,1.1260345,-0.4812398,-1.6684431,-0.88658434,2.4077744,1.4586263,-0.99591804,1.1909605,-0.5429224,-1.7014091,-0.89461386,2.3548377,1.3986956,-1.0274858,-1.4141654,1.3452413,0.7576374,0.25072563,0.90966076,0.47808802,0.091472976,1.7907677,-0.6464081,1.6827627,-2.8225298,0.11114434,0.8393471,0.13533401,-0.40065002,1.0331081,0.81383634,-0.17043835,0.06278462,0.55197746,-0.47347263,0.846195,0.5972634,1.0,0.0,0.0,0.0,0.0,0.0,0.0,-2.4407678,0.24640808,-1.1327627,-0.050139427,-0.4944563,-3.8837433,0.54000616,-0.95323324,0.07066131,2.86697
11.799657,32.02387,7.502822,2.625404,-0.6124912,-1.438109,0.25702873,-0.7933616,0.74429613,0.3935534,0.016269185,0.623558,0.645337,0.33667335,1.1116244,-0.46849275,-1.6620537,-0.89298695,2.4171934,1.4632293,-0.9938185,1.1768118,-0.529529,-1.6941001,-0.89264166,2.3638709,1.4034697,-1.0263758,-1.41522,1.3377064,0.72212857,0.179185,0.9016086,0.4779507,0.11732831,1.7625618,-0.6452942,1.6904135,-2.8197076,0.11103322,0.74032193,0.13092804,-0.3922577,1.0388008,0.8136735,-0.17813033,0.06339446,0.5497145,-0.42048085,0.84034,0.5538259,1.0,0.0,0.0,0.0,0.0,0.0,0.0,-2.412562,0.24529418,-1.1404135,-0.119280815,-0.68547726,-3.52,-7.2318287,-0.70620775,0.25883913,2.5464594
13.028685,33.481815,8.428446,2.5515718,-0.61568123,-1.4335,0.3160569,-0.78445166,0.73816687,0.4086871,0.029015595,0.6135106,0.64303386,0.39101315,1.0983666,-0.4557123,-1.6532314,-0.8897401,2.425222,1.4677731,-0.98727447,1.1626936,-0.5162233,-1.6869762,-0.89137137,2.3728163,1.40824,-1.0249987,-1.4104928,1.3284762,0.70912427,0.1094689,0.89265853,0.4777066,0.14437704,1.7343864,-0.6441879,1.6970747,-2.8168883,0.11092221,0.6413958,0.1270523,-0.38390732,1.044088,0.8132992,-0.1854051,0.064287975,0.5477557,-0.3662951,0.8369313,0.5143964,1.0,0.0,0.0,0.0,0.0,0.0,0.0,-2.3843865,0.24418792,-1.1470747,0.48663616,-0.8515358,-1.2938976,-7.0264263,-0.79416037,0.23784041,2.665019
9.514785,32.296234,8.151958,6.617421,-0.22694898,-1.2805582,0.20686214,-0.7765187,0.7292994,0.38695824,0.077137016,0.5957717,0.64369154,0.42972085,1.0850418,-0.44329336,-1.6482804,-0.8836577,2.4323936,1.4726092,-0.9820266,1.1486613,-0.5030321,-1.6799915,-0.89043677,2.3816397,1.4130083,-1.0233507,-1.4005791,1.3163208,0.69484484,0.08788462,0.87955695,0.47703588,0.17145075,1.7062416,-0.64308167,1.7027473,-2.814072,0.110811315,0.5425685,0.12360382,-0.37558746,1.0490643,0.8127474,-0.19240044,0.06540233,0.5460277,-0.3285186,0.832989,0.48626566,1.0,0.0,0.0,0.0,0.0,0.0,0.0,-2.3562417,0.24308166,-1.1527474,0.9944439,-1.1325598,-1.4660478,-2.2338436,-1.1608243,0.13939142,2.661428
7.6891317,28.875856,7.1221247,7.776474,-0.019475996,-1.3101285,0.15901165,-0.7701907,0.71371484,0.37202337,0.06069845,0.58852535,0.63682294,0.44460297,1.0716422,-0.4316606,-1.6427891,-0.8843669,2.4404922,1.4766906,-0.9788904,1.134751,-0.49001157,-1.6731708,-0.8896109,2.3903296,1.4177634,-1.0214491,-1.3877482,1.2975348,0.67750484,0.08045352,0.86609596,0.47558627,0.19623125,1.6781197,-0.6419754,1.7074325,-2.8112583,0.110700525,0.44384012,0.1204834,-0.3673439,1.0537724,0.81206125,-0.1991746,0.06668592,0.54446197,-0.2974814,0.8240012,0.45997706,1.0,0.0,0.0,0.0,0.0,0.0,0.0,-2.3281198,0.2419754,-1.1574326,1.2890816,-1.7916203,-1.7924547,-0.83262473,-1.1887908,0.046265125,2.4309456
10.3564005,23.739304,5.1597223,2.1067195,-0.41382897,-1.7556585,0.24845481,-0.76860183,0.6999562,0.34308487,-0.061540462,0.5758273,0.6339357,0.44050905,1.0578908,-0.42001596,-1.6388624,-0.89576495,2.4479122,1.481157,-0.97739816,1.120957,-0.47721422,-1.6666229,-0.88934386,2.398867,1.422505,-1.01933,-1.3763986,1.2740753,0.6470173,0.008635558,0.8502511,0.4745096,0.21698731,1.6500282,-0.64086914,1.7111311,-2.8084476,0.11058985,0.34521043,0.11782837,-0.359272,1.0580845,0.8112482,-0.2055202,0.06819968,0.54312676,-0.24616575,0.8023941,0.41615468,1.0,0.0,0.0,0.0,0.0,0.0,0.0,-2.3000283,0.24086913,-1.1611311,1.1938095,-2.2669077,-3.100741,-7.245098,-1.4996648,0.14643669,2.0486026
12.376075,25.178228,6.144842,0.782599,-0.51995796,-1.7987434,0.35505298,-0.7572944,0.68576705,0.38352773,-0.09439153,0.5585241,0.6261092,0.48865104,1.0452275,-0.40863752,-1.6282701,-0.898783,2.4547193,1.4851159,-0.97046494,1.1073004,-0.4646734,-1.6601493,-0.88991797,2.407221,1.4272314,-1.0169935,-1.3618754,1.247716,0.64732826,-0.079579204,0.8311288,0.47286975,0.2390044,1.6219673,-0.6397629,1.7138441,-2.8056397,0.11047928,0.24667934,0.115730286,-0.35140228,1.0619576,0.8102455,-0.2113626,0.06993029,0.5421603,-0.18905911,0.7831542,0.37253767,1.0,0.0,0.0,0.0,0.0,0.0,0.0,-2.2719674,0.23976287,-1.1638441,1.5487432,-2.5573492,-0.043022633,-8.85218,-1.837194,0.09183884,2.178249
9.833622,21.640593,5.078678,2.842547,-0.24424985,-1.7793999,0.2791039,-0.7419614,0.66241413,0.36008936,-0.08586259,0.53378195,0.62767506,0.5003974,1.0331043,-0.398432,-1.6241404,-0.89850426,2.4605992,1.4899989,-0.96695375,1.0938307,-0.45244682,-1.653712,-0.89118826,2.4153464,1.4319426,-1.0144529,-1.3418072,1.2146281,0.64217895,-0.14310402,0.8065934,0.47128695,0.25906825,1.5939293,-0.6386566,1.7155726,-2.8028347,0.110368825,0.14824677,0.1141243,-0.34375,1.0654261,0.80907315,-0.21675102,0.071833394,0.54153436,-0.14217018,0.75918365,0.33330247,1.0,0.0,0.0,0.0,0.0,0.0,0.0,-2.2439294,0.23865661,-1.1655726,2.1061897,-3.224516,-0.6245613,-6.4037504,-2.3572803,0.067293644,1.9794911
9.184138,21.349045,4.8483853,2.8734531,-0.22335899,-1.8194532,0.26966313,-0.7491974,0.65634084,0.35707575,-0.15128662,0.5431938,0.62501353,0.50365645,1.018911,-0.38681275,-1.6180044,-0.90631694,2.4696658,1.4944439,-0.9640873,1.0804888,-0.44051206,-1.6473205,-0.89317954,2.4232924,1.4366366,-1.0117311,-1.3312647,1.1867031,0.63794017,-0.21803406,0.7908862,0.46949342,0.2764633,1.5659218,-0.63755035,1.7163174,-2.8000326,0.11025848,0.0499126,0.11299896,-0.3363495,1.0685003,0.80776197,-0.22167236,0.073895566,0.54122216,-0.0956985,0.73402613,0.2940972,1.0,0.0,0.0,0.0,0.0,0.0,0.0,-2.2159219,0.23755035,-1.1663175,1.1336327,-2.710247,-0.5142093,-7.5401874,-1.4809012,0.028979778,1.7214537
8.882439,20.977652,4.7423525,2.971703,-0.22926489,-1.8478904,0.263139,-0.7411391,0.6410053,0.36003703,-0.19535065,0.51748365,0.620027,0.51052356,1.0063748,-0.37641153,-1.6113168,-0.9127146,2.4750407,1.4986392,-0.9606788,1.0672423,-0.42884576,-1.640948,-0.89594424,2.4310515,1.4413096,-1.008851,-1.3221954,1.1601943,0.63674384,-0.29607636,0.77130026,0.4672807,0.29169166,1.5379448,-0.6364517,1.7160797,-2.7972333,0.11014824,-0.04832325,0.11232376,-0.32919312,1.0711863,0.8063265,-0.22611228,0.07612552,0.54121673,-0.04896801,0.7085341,0.25560325,1.0,0.0,0.0,0.0,0.0,0.0,0.0,-2.187945,0.23645172,-1.1660798,0.9892225,-2.5683165,-0.21737814,-7.8457174,-1.8690586,-0.027900934,1.5089393
6.175139,14.5542755,2.5323899,3.7929845,0.0017462969,-1.935561,0.18533078,-0.7305826,0.60842735,0.3314608,-0.22049664,0.48528963,0.61759645,0.5249764,0.994184,-0.36800304,-1.607802,-0.9179939,2.4795804,1.5030692,-0.9563534,1.0541025,-0.41752088,-1.6347091,-0.8994194,2.438555,1.4459616,-1.0058298,-1.310956,1.1235175,0.6192113,-0.3648658,0.7437602,0.46488646,0.30570573,1.5099907,-0.6353531,1.7148604,-2.7944367,0.11003812,-0.14646089,0.11207199,-0.32236862,1.0734769,0.80482775,-0.23005408,0.07852463,0.54144377,-0.00956058,0.6727984,0.21589382,1.0,0.0,0.0,0.0,0.0,0.0,0.0,-2.1599908,0.23535308,-1.1648605,1.2102365,-3.5871267,-1.8584609,-6.947422,-2.6741505,-0.065505505,1.3788879
7.2466583,8.983736,0.8415665,-0.1102705,-0.16966099,-2.2194123,0.2742497,-0.7229502,0.5691097,0.34507647,-0.33558807,0.43286648,0.62646824,0.5422871,0.98180753,-0.36060992,-1.6002015,-0.9329782,2.4818416,1.5086085,-0.9516011,1.0410906,-0.40667713,-1.6285789,-0.90391695,2.4456618,1.4505984,-1.0026712,-1.2974194,1.0715393,0.6105029,-0.47819427,0.6999133,0.4637715,0.31921816,1.4820671,-0.63425446,1.7126604,-2.7916427,0.1099281,-0.2445004,0.11230469,-0.31598663,1.0752753,0.8032664,-0.23335516,0.08111866,0.541967,0.040862266,0.6251141,0.16378789,1.0,0.0,0.0,0.0,0.0,0.0,0.0,-2.1320672,0.23425445,-1.1626604,1.5259743,-5.1296234,-1.0112405,-11.369431,-4.3622255,0.07057786,1.3297617
4.9357657,0.09314275,-1.8212492,-0.3863182,0.12579495,-2.354035,0.25441653,-0.70485675,0.51336414,0.3361049,-0.3786027,0.3903042,0.62642807,0.55407166,0.97060496,-0.35534072,-1.5949684,-0.9417772,2.484692,1.5132412,-0.9472641,1.0282732,-0.39652526,-1.622544,-0.9095646,2.4522574,1.4552237,-0.99938333,-1.2758224,0.99654245,0.60056496,-0.5937042,0.6459115,0.4626742,0.331688,1.454174,-0.6331558,1.7094808,-2.7888515,0.1098182,-0.3424419,0.11299133,-0.3101883,1.0765175,0.80165845,-0.23593137,0.08385911,0.5428146,0.084240235,0.5626625,0.10722005,1.0,0.0,0.0,0.0,0.0,0.0,0.0,-2.1041741,0.23315582,-1.1594808,2.3804426,-7.444167,-1.1632442,-11.604584,-5.406618,0.042819977,1.2048185
1.7974876,-11.90538,-5.394416,-0.72099304,0.54261154,-2.5082421,0.23276442,-0.68255574,0.43379733,0.33185646,-0.44129106,0.32954037,0.62751657,0.5620324,0.9600177,-0.35314554,-1.5893584,-0.95369375,2.4852114,1.5179753,-0.9431801,1.0157439,-0.38737142,-1.6166008,-0.9163929,2.4582121,1.4598395,-0.9959816,-1.2442048,0.8884233,0.59155804,-0.71285826,0.57829726,0.46148622,0.34266412,1.4263039,-0.6320572,1.7053225,-2.7860632,0.109708406,-0.44028544,0.11403656,-0.30516434,1.0771453,0.80003655,-0.23772171,0.086645916,0.5439874,0.117329575,0.48089406,0.044530164,1.0,0.0,0.0,0.0,0.0,0.0,0.0,-2.076304,0.23205718,-1.1553226,3.4373283,-10.779715,-1.0913134,-11.994183,-6.8095565,-0.010126829,1.0221362
-5.6901364,-41.03866,-14.268049,-1.2127428,1.5171934,-2.8595362,0.1412778,-0.6170764,0.26296914,0.30063432,-0.48774457,0.18419932,0.6187074,0.5684569,0.95403624,-0.3610745,-1.5865374,-0.9651674,2.476632,1.5217102,-0.9391359,1.0037943,-0.37992132,-1.6108711,-0.92433226,2.463156,1.4644343,-0.99248445,-1.1772614,0.6971774,0.56606,-0.8215049,0.46590132,0.45881328,0.35150298,1.3984642,-0.63095856,1.7001865,-2.7832778,0.10959872,-0.5380312,0.11524582,-0.30129623,1.0770371,0.79848295,-0.238619,0.08929766,0.5454464,0.12538984,0.35275465,-0.03220011,1.0,0.0,0.0,0.0,0.0,0.0,0.0,-2.0484643,0.23095855,-1.1501865,7.090211,-19.150078,-2.7709484,-11.015499,-11.38345,-0.2379477,0.71442723
-28.66708,-123.49657,-41.298138,-3.324918,4.3648806,-4.0094204,-0.2636901,-0.5013009,-0.121323906,0.111344025,-0.53863335,0.024233192,0.58938247,0.51086324,0.95366424,-0.3920537,-1.5997367,-0.9781956,2.4655793,1.5233725,-0.94139814,0.99299014,-0.37593162,-1.6062515,-0.9332949,2.466612,1.4689661,-0.98896635,-1.0462254,0.29886723,0.4272093,-0.92217505,0.3038864,0.45061275,0.35055098,1.3706551,-0.6298599,1.6940738,-2.7804952,0.10948914,-0.6356793,0.11598587,-0.29977798,1.0758172,0.79736173,-0.23819058,0.091304295,0.5469397,0.06112365,0.0828113,-0.15397139,1.0,0.0,0.0,0.0,0.0,0.0,0.0,-2.0206552,0.22985992,-1.1440737,13.680124,-40.038036,-13.929969,-10.372555,-16.70258,-1.0670364,-0.5070865
-38.763157,-171.55821,-57.332127,-7.293478,5.3283396,-4.844728,-0.4704231,-0.26346472,-0.4360395,-0.098472,-0.5628508,-0.42412108,0.5550735,0.47732386,0.9666437,-0.41953558,-1.6160986,-0.98958,2.4242,1.5244734,-0.94123393,0.9844576,-0.37696016,-1.603936,-0.9430796,2.4673064,1.473374,-0.98549974,-0.7870802,-0.237902,0.16711174,-0.9979105,-0.010916726,0.43516347,0.34341913,1.3428688,-0.6287689,1.6869853,-2.7777154,0.10937968,-0.73322976,0.11595154,-0.30155563,1.0731336,0.79697996,-0.2360847,0.09257355,0.54819435,-0.024308972,-0.26556394,-0.307403,1.0,0.0,0.0,0.0,0.0,0.0,0.0,-1.9928688,0.22876891,-1.1369853,26.465797,-54.023857,-25.811676,-7.7614307,-32.155083,-2.2088766,-1.2791038
-4.3687863,-124.719376,-35.227512,-18.938011,3.5547936,-4.5535283,0.71253014,0.27484965,-0.6507491,0.07991346,-0.5945022,-0.55415344,0.602121,0.46877939,1.0119426,-0.44203508,-1.5959446,-1.0025299,2.411891,1.5335861,-0.9386218,0.98069537,-0.3834504,-1.6030757,-0.9534966,2.464804,1.4776617,-0.9820999,-0.2403528,-0.786955,0.060631976,-1.056735,-0.33059704,0.42386723,0.3377683,1.3151131,-0.6276779,1.678922,-2.774938,0.10927032,-0.8306827,0.11569214,-0.30625534,1.0690151,0.7964909,-0.23264906,0.09261212,0.550363,-0.027974496,-0.5371578,-0.44724694,1.0,0.0,0.0,0.0,0.0,0.0,0.0,-1.965113,0.22767791,-1.128922,54.346107,-55.17347,-10.121204,-5.9829235,-32.094654,-1.9437611,-0.8755624
7.7444196,-80.27724,-20.957693,-15.37171,2.4075859,-3.841172,0.75553876,0.43499216,-0.73845696,-0.10084064,-0.5536772,-0.5181852,0.66614246,0.3279349,1.0241946,-0.45729607,-1.6131598,-1.0088643,2.4129853,1.544276,-0.9493064,0.9825045,-0.39452398,-1.6034839,-0.9640986,2.459799,1.481896,-0.97884786,0.31676614,-1.2149636,-0.07024258,-1.0618821,-0.55717456,0.4202147,0.3207116,1.287384,-0.6265869,1.6698849,-2.7721636,0.10916107,-0.9280382,0.11562729,-0.3131256,1.0637177,0.79547274,-0.22834578,0.091309324,0.5538447,-0.00063994474,-0.73485047,-0.5585991,1.0,0.0,0.0,0.0,0.0,0.0,0.0,-1.937384,0.22658691,-1.119885,54.367535,-43.048813,-11.762643,-0.67653656,-22.641378,-1.2338102,-1.8138647
16.41968,-32.108685,-7.3569026,-10.615387,1.0775425,-3.1456356,0.5890523,0.55025744,-0.773998,-0.24223131,-0.5597212,-0.42477974,0.6720978,0.18207498,1.0375302,-0.47192377,-1.627707,-1.0200707,2.417321,1.5491059,-0.9606404,0.9891592,-0.40860784,-1.6054733,-0.97461474,2.453478,1.486117,-0.97586095,0.7763471,-1.473507,-0.23700823,-1.0488935,-0.6567664,0.42056513,0.29137924,1.2596817,-0.6254959,1.659875,-2.769392,0.109051935,-1.0252963,0.11602783,-0.32141876,1.0575343,0.7939499,-0.22345479,0.08893712,0.5583921,0.055754103,-0.85718274,-0.6413479,1.0,0.0,0.0,0.0,0.0,0.0,0.0,-1.9096817,0.2254959,-1.109875,44.353462,-26.052212,-15.193823,1.1153221,-9.9262,-0.66410303,-2.8963149
21.175648,5.640482,2.411062,-7.432687,-0.02224189,-2.655207,0.37759924,0.63086724,-0.7897638,-0.33948043,-0.6149817,-0.2942097,0.65845424,0.009597398,1.052246,-0.48758423,-1.6394213,-1.0361129,2.4240572,1.5519624,-0.9749012,0.9993435,-0.42414463,-1.6092746,-0.985211,2.4470809,1.4903494,-0.97327936,1.0949775,-1.5808471,-0.42427066,-1.0637506,-0.63426316,0.42247903,0.24742267,1.2320099,-0.6244049,1.6488934,-2.7666233,0.1089429,-1.1224571,0.11713028,-0.33052444,1.0506715,0.79208195,-0.21803758,0.08583467,0.5636472,0.13300128,-0.9232229,-0.7060431,1.0,0.0,0.0,0.0,0.0,0.0,0.0,-1.8820099,0.2244049,-1.0988934,30.62644,-10.869074,-17.65247,-1.6475677,2.2674441,-0.29155612,-4.2970476
23.496983,31.56781,9.288954,-5.007836,-0.59708536,-2.2656746,0.24893647,0.69699717,-0.7898127,-0.40603337,-0.67343897,-0.09842361,0.63394123,-0.1346201,1.0690433,-0.5031259,-1.6498779,-1.052555,2.4372385,1.5537435,-0.98674136,1.0117775,-0.4399618,-1.6148746,-0.99625075,2.4417708,1.4945933,-0.9712156,1.2906554,-1.5821948,-0.60342294,-1.1178542,-0.49654308,0.4240105,0.19314042,1.2043648,-0.6233139,1.6369408,-2.7638574,0.10883398,-1.2195209,0.11903763,-0.34000015,1.0432671,0.7900021,-0.21205208,0.08216624,0.5693674,0.21752086,-0.9509813,-0.75810486,1.0,0.0,0.0,0.0,0.0,0.0,0.0,-1.8543648,0.2233139,-1.0869408,18.863344,-0.20384789,-17.4047,-5.5429697,13.79798,-0.14309883,-5.286798
24.28212,48.93483,14.974649,-2.0595846,-0.5621909,-1.8277707,0.27676958,0.7332068,-0.77500707,-0.4113327,-0.7317249,0.19366609,0.5851518,-0.14297794,1.0850981,-0.5174625,-1.6560079,-1.0694232,2.4611373,1.5531085,-0.9855134,1.025436,-0.45533836,-1.6218402,-1.0080833,2.4387305,1.4988238,-0.9696554,1.3900957,-1.5228188,-0.72750056,-1.2053205,-0.2395639,0.4221528,0.14444743,1.1767464,-0.6222229,1.6240184,-2.761094,0.108725175,-1.3164877,0.1217041,-0.34955597,1.0354469,0.7876963,-0.20548083,0.07777794,0.5755542,0.2937919,-0.9516936,-0.7969494,1.0,0.0,0.0,0.0,0.0,0.0,0.0,-1.8267463,0.2222229,-1.0740185,9.706616,5.9304237,-12.400889,-8.853483,25.756268,-0.3184378,-4.6497436
17.464981,48.56851,14.585434,3.6336632,0.19056141,-1.4579483,0.1787068,0.73423696,-0.7713034,-0.46287307,-0.7474765,0.44131753,0.5074615,-0.022841323,1.0988598,-0.5324687,-1.6681275,-1.082831,2.4828622,1.54957,-0.9719395,1.0395199,-0.4700297,-1.6298282,-1.0207424,2.4387724,1.5029799,-0.96843565,1.414739,-1.4512085,-0.82311153,-1.2861861,0.08548265,0.41325286,0.11530345,1.1491585,-0.6211395,1.6101269,-2.7583334,0.10861647,-1.4133575,0.12490463,-0.3591118,1.0273138,0.78518724,-0.19832698,0.07243394,0.5821518,0.33877128,-0.9518463,-0.8261265,1.0,0.0,0.0,0.0,0.0,0.0,0.0,-1.7991585,0.22113952,-1.0601268,2.556777,7.1647882,-9.781885,-8.101726,32.512962,-0.9352982,-2.6630328
6.636444,39.873905,10.753997,9.918028,0.62917095,-1.0996647,-0.035261273,0.6901993,-0.7681279,-0.51560986,-0.75313294,0.41501278,0.46698737,0.14501108,1.1085398,-0.5468425,-1.6813892,-1.0960557,2.4802737,1.5496786,-0.95393455,1.0533329,-0.48410642,-1.638663,-1.0340233,2.4415038,1.5070177,-0.96733224,1.371202,-1.3932378,-0.904514,-1.3417748,0.33543882,0.40043375,0.10924211,1.1215935,-0.62005615,1.5952675,-2.7555757,0.10850788,-1.5101305,0.12833405,-0.36870575,1.0189087,0.7826187,-0.19062923,0.06632102,0.58887166,0.35484755,-0.9557451,-0.8528391,1.0,0.0,0.0,0.0,0.0,0.0,0.0,-1.7715935,0.22005615,-1.0452676,-4.0412664,5.7809114,-8.424318,-5.46875,24.90848,-1.3344109,-0.42820275
-3.9424896,27.88343,5.281909,14.599264,0.5160947,-0.8615637,-0.29671142,0.648084,-0.77287173,-0.5915765,-0.7434781,0.15731134,0.461712,0.2926539,1.1181413,-0.5613936,-1.6978207,-1.1083711,2.4572349,1.5531889,-0.93806684,1.0664059,-0.49780786,-1.6483963,-1.0475941,2.4453108,1.5109259,-0.9661516,1.2872849,-1.3626188,-0.99701136,-1.3615623,0.3948668,0.38723338,0.121180005,1.094059,-0.6189728,1.5794412,-2.7528207,0.10839939,-1.6068068,0.13182068,-0.3783722,1.0102023,0.78022873,-0.18245521,0.060134374,0.59526205,0.3557949,-0.9627169,-0.88423806,1.0,0.0,0.0,0.0,0.0,0.0,0.0,-1.744059,0.21897277,-1.0294411,-7.9966784,3.0058384,-9.474325,-1.8052816,5.7452917,-1.4633894,1.2179122
-3.693944,29.444042,6.1195383,14.991396,-0.6531383,-0.60758936,-0.32068852,0.64937013,-0.7706007,-0.5917334,-0.73586357,-0.2812307,0.509697,0.31845474,1.1313429,-0.5748679,-1.7075696,-1.1211804,2.4171877,1.5618956,-0.93430614,1.078714,-0.51135385,-1.6588333,-1.0611649,2.4478285,1.5147501,-0.964826,1.2129432,-1.3520399,-1.0599922,-1.3550999,0.20406243,0.3803915,0.13599162,1.0665512,-0.6178894,1.5626488,-2.7500687,0.108291015,-1.7033863,0.13545609,-0.3879013,1.0011791,0.7781164,-0.17400429,0.05485501,0.6010393,0.37452975,-0.9436466,-0.9160545,1.0,0.0,0.0,0.0,0.0,0.0,0.0,-1.7165512,0.2178894,-1.0126488,-7.110238,1.0076761,-6.5267324,0.7923126,-19.229836,-0.8384347,1.3685375
2.5344582,37.42027,10.87227,14.521318,-1.3662646,-0.34969252,-0.1678164,0.6851046,-0.7737552,-0.5625838,-0.69982606,-0.47385222,0.59121853,0.254879,1.1472244,-0.5887294,-1.7150917,-1.1311475,2.4004433,1.573872,-0.9393381,1.0906311,-0.52490556,-1.6695259,-1.0744305,2.4476416,1.5185839,-0.9634088,1.1852003,-1.3563461,-1.0731238,-1.3167045,-0.09278199,0.38432628,0.14324357,1.0390701,-0.61680603,1.5448912,-2.747319,0.10818274,-1.7998693,0.13939667,-0.39705276,0.9919135,0.7761699,-0.16558312,0.050952114,0.606256,0.40833092,-0.8983155,-0.9376855,1.0,0.0,0.0,0.0,0.0,0.0,0.0,-1.6890701,0.21680602,-0.9948912,-2.614212,-0.4582405,-1.5247583,3.9123535,-29.726702,0.31926036,0.59782267
3.204235,34.144176,10.300633,14.794687,-1.1237848,-0.36279935,-0.18899095,0.7026023,-0.7962382,-0.62203836,-0.65156454,-0.54913497,0.639584,0.11217217,1.1608914,-0.6045294,-1.7317297,-1.1395869,2.392728,1.5825423,-0.9521916,1.1025482,-0.538648,-1.6804378,-1.0870857,2.4445326,1.5225016,-0.96203935,1.1940596,-1.380349,-1.0976156,-1.2480496,-0.38376516,0.3942416,0.13440672,1.0116196,-0.61572266,1.5261695,-2.7445722,0.10807458,-1.8962557,0.14365005,-0.40580368,0.9824432,0.7743532,-0.15735388,0.048379574,0.61096334,0.43797615,-0.8601403,-0.957403,1.0,0.0,0.0,0.0,0.0,0.0,0.0,-1.6616195,0.21572265,-0.9761695,0.9356737,-2.4481535,-2.5454998,6.9485903,-29.160511,0.9143889,-0.9905666
6.517702,34.26556,11.044413,13.184952,-0.82530427,-0.4957756,-0.12982064,0.7291254,-0.8058206,-0.6466081,-0.63403624,-0.5370926,0.63056725,-0.044023734,1.1754608,-0.6192301,-1.7450986,-1.1504893,2.3908234,1.5855583,-0.96644175,1.1147782,-0.55267465,-1.6916416,-1.0990505,2.4391196,1.5265108,-0.9608816,1.2324258,-1.4102072,-1.1279277,-1.1791543,-0.5941492,0.4029577,0.10940644,0.9841919,-0.6146393,1.5064847,-2.7418282,0.107966535,-1.9925458,0.1482048,-0.41423798,0.9727684,0.7726221,-0.14931479,0.046780035,0.61528176,0.46829453,-0.8307083,-0.97790694,1.0,0.0,0.0,0.0,0.0,0.0,0.0,-1.6341919,0.21463928,-0.95648474,3.8110971,-3.0402184,-3.0696154,6.9700956,-21.101898,0.77859163,-2.5343359
9.634471,34.532326,11.420808,10.181478,-0.52786934,-0.69136274,-0.016113684,0.7389995,-0.81013316,-0.66800404,-0.655942,-0.45845562,0.6109224,-0.081904,1.1886781,-0.633688,-1.7584419,-1.1646447,2.393274,1.5876031,-0.969072,1.1274353,-0.5669693,-1.7031906,-1.11059,2.4324515,1.530583,-0.9599937,1.2769573,-1.4360806,-1.1640728,-1.1452178,-0.69123304,0.40802705,0.08207629,0.95679474,-0.61356354,1.4858378,-2.739087,0.10785859,-2.0887394,0.15307617,-0.42247772,0.9628322,0.7708867,-0.1413103,0.0456868,0.61941725,0.5009348,-0.81188065,-1.0060054,1.0,0.0,0.0,0.0,0.0,0.0,0.0,-1.6067947,0.21356353,-0.9358378,4.427266,-2.641344,-3.667426,3.4842968,-9.773577,0.36366582,-2.689208
11.221952,37.977844,13.031742,9.096255,-0.29026645,-0.64990175,0.10629291,0.7326476,-0.80863464,-0.6580556,-0.6652612,-0.38971213,0.6089717,-0.015507564,1.2007,-0.64783275,-1.7689961,-1.1771162,2.3934803,1.5914803,-0.96154445,1.1404301,-0.5814403,-1.7149818,-1.122015,2.425501,1.5346934,-0.95930326,1.3070806,-1.4509832,-1.1844114,-1.1412687,-0.6963364,0.41158426,0.06494839,0.9294243,-0.6124878,1.4642296,-2.7363484,0.10775075,-2.1848369,0.15825272,-0.4305191,0.95260704,0.7690312,-0.13321461,0.044697754,0.6235758,0.5305656,-0.79357684,-1.0351214,1.0,0.0,0.0,0.0,0.0,0.0,0.0,-1.5794243,0.21248779,-0.9142296,3.037691,-1.5354872,-2.149701,0.48611164,-0.58039427,0.20890236,-1.6089664
12.358286,44.08184,15.779672,9.584966,-0.36319727,-0.42358163,0.17412877,0.7308359,-0.80530524,-0.6320355,-0.65787846,-0.42675665,0.6429859,-0.0033279024,1.2135137,-0.66197085,-1.7781854,-1.1878028,2.3828254,1.598992,-0.95963603,1.153606,-0.5959743,-1.7267673,-1.1334782,2.4186537,1.5388609,-0.9587463,1.321571,-1.4542753,-1.1770285,-1.1477576,-0.68108207,0.41799363,0.052997384,0.90208054,-0.61141205,1.4416612,-2.7336125,0.10764302,-2.2808383,0.16370773,-0.4383011,0.9421361,0.7669682,-0.12504973,0.04366355,0.62786597,0.5584259,-0.7639068,-1.0581629,1.0,0.0,0.0,0.0,0.0,0.0,0.0,-1.5520805,0.21141204,-0.8916612,1.5197277,-0.35939217,0.55992603,-0.57435036,1.4591098,0.52708983,-1.071731
12.990105,49.0152,18.24305,10.286264,-0.47687218,-0.19055325,0.24586162,0.72549593,-0.807979,-0.59117,-0.66148853,-0.45997253,0.6474007,0.04690832,1.2261556,-0.67677224,-1.7858843,-1.199627,2.3726566,1.603601,-0.9540555,1.1668183,-0.6105064,-1.7382267,-1.145052,2.411917,1.5430933,-0.9582504,1.3212612,-1.4529163,-1.1362088,-1.1606085,-0.6711613,0.4246372,0.048912168,0.8747673,-0.6103363,1.4181335,-2.7308795,0.1075354,-2.3767436,0.16943741,-0.44569778,0.9314848,0.7646176,-0.1168902,0.04257322,0.6323638,0.58452076,-0.72281235,-1.0744693,1.0,0.0,0.0,0.0,0.0,0.0,0.0,-1.5247673,0.2103363,-0.8681335,0.07510185,0.12040138,3.8454533,-1.2206793,0.9312153,0.58314204,-0.274992
8.275271,47.365543,16.972326,12.8543215,-0.26677555,-0.017880797,0.1543757,0.7081811,-0.8125604,-0.6062938,-0.63918525,-0.5011233,0.6634104,0.1104213,1.2376363,-0.69176245,-1.798856,-1.2089704,2.3618047,1.6094344,-0.9472083,1.1798989,-0.6250299,-1.7493484,-1.1566391,2.4051344,1.5473982,-0.9577354,1.3041453,-1.452323,-1.1048473,-1.1578848,-0.6809781,0.4323129,0.05268276,0.84747696,-0.60926056,1.3936474,-2.7281494,0.10742789,-2.472553,0.17533112,-0.452713,0.920694,0.76202214,-0.10879048,0.04150894,0.63699585,0.5985713,-0.6844789,-1.0873959,1.0,0.0,0.0,0.0,0.0,0.0,0.0,-1.4974769,0.20926055,-0.8436474,-1.5696764,0.03323555,2.9193401,0.36656857,-1.0812283,0.7097602,0.47736764
4.5396466,46.275177,16.090815,15.239156,-0.07747722,0.1250087,0.06577271,0.6983012,-0.81563246,-0.6026228,-0.6114996,-0.54046535,0.6730533,0.13334969,1.2497289,-0.70659316,-1.8096107,-1.217789,2.3510878,1.6147035,-0.9444004,1.1927544,-0.63956296,-1.7602222,-1.1680393,2.3981078,1.5517813,-0.95716035,1.2796564,-1.4538149,-1.0822506,-1.1338118,-0.7099424,0.4403115,0.0593225,0.82021713,-0.6081848,1.368204,-2.7254217,0.10732048,-2.5682666,0.18130112,-0.45936966,0.90980494,0.7592628,-0.10081287,0.040565353,0.6416473,0.6026888,-0.6491285,-1.0958225,1.0,0.0,0.0,0.0,0.0,0.0,0.0,-1.4702171,0.20818481,-0.818204,-2.2999525,-0.18515587,2.0786047,2.5188684,-3.0272841,0.76900125,0.73860955
1.8082395,46.38628,15.703389,17.686996,0.11994469,0.23278052,-0.032642543,0.6956703,-0.81271714,-0.6092446,-0.5649221,-0.56479937,0.6819065,0.13097233,1.2623215,-0.7208347,-1.8211466,-1.2245315,2.3416278,1.619972,-0.9440631,1.2053849,-0.6541008,-1.7709873,-1.178978,2.3907301,1.5562464,-0.95652425,1.25797,-1.45389,-1.0750144,-1.0801325,-0.747644,0.44851652,0.06524406,0.792984,-0.60710907,1.3418041,-2.7226968,0.107213184,-2.6638846,0.18724823,-0.46569443,0.8988797,0.7564279,-0.093036674,0.03979884,0.6462019,0.59849936,-0.6173872,-1.0973997,1.0,0.0,0.0,0.0,0.0,0.0,0.0,-1.442984,0.20710906,-0.79180413,-2.0356417,-0.053954124,0.60174465,5.482459,-3.9302468,0.8237362,0.64653456
3.3895426,42.84332,13.889242,14.362551,-0.014355123,-0.04755473,0.004572995,0.6987225,-0.8160499,-0.64533716,-0.60081726,-0.562597,0.66422683,0.17441769,1.2752571,-0.73570573,-1.835521,-1.2390597,2.3344705,1.6226691,-0.9390825,1.2178704,-0.6686529,-1.7819145,-1.1895962,2.383032,1.5607687,-0.9558033,1.2460113,-1.4557911,-1.0989417,-1.0551107,-0.777558,0.4530281,0.074624754,0.7657776,-0.60604095,1.3144488,-2.7199748,0.10710599,-2.759407,0.19322968,-0.47176743,0.887827,0.753532,-0.08532079,0.039247315,0.6506684,0.6041665,-0.593637,-1.1136018,1.0,0.0,0.0,0.0,0.0,0.0,0.0,-1.4157776,0.20604095,-0.7644488,-1.068449,-0.24421215,-2.507639,2.6488304,-3.1454802,0.3721118,0.9878114
4.6846366,44.6464,14.701818,13.722511,-0.10503608,-0.036983997,0.024205178,0.69402814,-0.8100548,-0.6430425,-0.58133656,-0.57720023,0.6751279,0.17073824,1.2872732,-0.74965835,-1.8462187,-1.2477298,2.3253121,1.6282815,-0.93872947,1.2302738,-0.6831945,-1.7930992,-1.1999931,2.375067,1.565333,-0.9549974,1.2389264,-1.4537652,-1.1251994,-1.034117,-0.8034572,0.45738825,0.08278737,0.73859787,-0.60497284,1.286139,-2.7172554,0.106998906,-2.854834,0.19929504,-0.47759628,0.87661153,0.75055814,-0.07759931,0.038916104,0.6550772,0.61261755,-0.56738836,-1.1298457,1.0,0.0,0.0,0.0,0.0,0.0,0.0,-1.3885978,0.20497283,-0.736139,-0.5879402,0.14996529,-2.7371645,2.2413254,-2.7420163,0.34773946,0.8668512
7.3957725,45.777702,15.505738,11.339482,-0.32526106,-0.08868688,0.1138046,0.68947726,-0.80877715,-0.6441041,-0.6045158,-0.5873514,0.6748371,0.20584807,1.2992215,-0.76407224,-1.8575096,-1.2604448,2.3163319,1.6328167,-0.9344126,1.2426239,-0.6977056,-1.8045089,-1.2103729,2.3668807,1.5699335,-0.9540924,1.2341181,-1.4503813,-1.1467319,-1.038787,-0.82429427,0.46051347,0.093354106,0.71144485,-0.6039047,1.2568756,-2.7145386,0.10689193,-2.9501657,0.20550537,-0.48311234,0.86519104,0.7474397,-0.06980737,0.0387982,0.65951157,0.62861866,-0.53711236,-1.1516124,1.0,0.0,0.0,0.0,0.0,0.0,0.0,-1.3614448,0.20390472,-0.7068756,-0.35543442,0.29177666,-2.293682,-0.32103062,-2.221644,0.18385649,1.1160805
5.977074,46.014206,15.65396,11.501394,-0.24716127,0.04438913,0.12948324,0.66413486,-0.8121253,-0.63521165,-0.6079496,-0.59523237,0.68412375,0.21988302,1.3090374,-0.77891815,-1.8680301,-1.2711679,2.3073573,1.638346,-0.9321041,1.254829,-0.7122015,-1.8160255,-1.2208729,2.3585188,1.5745665,-0.9530796,1.2165455,-1.449448,-1.1539036,-1.0532347,-0.84086174,0.4639917,0.10417483,0.68432236,-0.6028366,1.2266597,-2.7118247,0.10678506,-3.045402,0.21183014,-0.48833084,0.8535511,0.7441413,-0.0619218,0.03885163,0.66401047,0.63960266,-0.5054996,-1.1735208,1.0,0.0,0.0,0.0,0.0,0.0,0.0,-1.3343223,0.2028366,-0.67665964,-1.6114712,0.047779083,-0.8790016,-1.2876034,-1.8008351,0.22011995,1.1472374
6.8266077,48.889496,17.417841,12.054532,-0.21896952,0.19466998,0.15672821,0.6648084,-0.8114909,-0.61819494,-0.59622264,-0.5915855,0.6925146,0.21119249,1.3213099,-0.7933506,-1.877845,-1.2804952,2.2993603,1.6438179,-0.93196034,1.2668759,-0.72669256,-1.8274753,-1.2314682,2.3500464,1.5792395,-0.9519743,1.2011521,-1.449122,-1.1426003,-1.0610896,-0.8497341,0.468053,0.11291641,0.65722275,-0.6017685,1.195492,-2.7091134,0.10667829,-3.140543,0.2182579,-0.4932022,0.8417412,0.74062955,-0.05400638,0.038999625,0.6686031,0.64813405,-0.46950856,-1.1886656,1.0,0.0,0.0,0.0,0.0,0.0,0.0,-1.3072227,0.20176849,-0.645492,-1.4046192,-0.006365776,0.964427,-0.641942,-1.027739,0.30334592,0.9591982
4.5520577,53.54862,19.419481,15.761057,-0.02552718,0.5064121,0.08745228,0.6525846,-0.8032424,-0.59914786,-0.5419904,-0.6239287,0.70780504,0.21450344,1.3321344,-0.8070168,-1.8873901,-1.2856672,2.2876534,1.65002,-0.93052393,1.2787472,-0.7411455,-1.8386943,-1.2418575,2.3414252,1.5839659,-0.95079076,1.1830256,-1.4441423,-1.1153084,-1.0311409,-0.8668,0.47399658,0.12041392,0.63015366,-0.6007004,1.1633737,-2.7064047,0.10657164,-3.2355888,0.2246933,-0.49768448,0.82990986,0.7369367,-0.046241887,0.039221115,0.6732366,0.64574194,-0.43016937,-1.1861627,1.0,0.0,0.0,0.0,0.0,0.0,0.0,-1.2801536,0.20070037,-0.6133737,-1.6945839,0.46224594,2.5977135,3.1085968,-1.864183,0.57231784,0.83042383
3.046173,50.34209,17.334677,15.119463,0.03877777,0.38118497,0.044779465,0.6490652,-0.80424744,-0.6452058,-0.5529373,-0.6353451,0.69613343,0.25921208,1.3436537,-0.8215702,-1.9032149,-1.2971512,2.2778907,1.6535792,-0.92486954,1.2904621,-0.7555555,-1.8498714,-1.2519722,2.3326209,1.5887362,-0.94951,1.168224,-1.4400718,-1.1188524,-1.0044211,-0.8854169,0.47787187,0.13088767,0.60310745,-0.59963226,1.1303056,-2.7036989,0.10646509,-3.3305397,0.23110962,-0.5018425,0.8180438,0.7331137,-0.038599137,0.0395649,0.6778561,0.6436715,-0.39907026,-1.1913775,1.0,0.0,0.0,0.0,0.0,0.0,0.0,-1.2531074,0.19963226,-0.58030564,-1.3635635,0.35989285,-0.457263,2.8133392,-2.027917,0.33220053,1.1093557
1.961503,46.27727,15.112314,13.533256,0.07721573,0.25108692,0.026744306,0.63786155,-0.81058306,-0.66573584,-0.56816053,-0.6377745,0.6907834,0.24591525,1.3542483,-0.83661383,-1.916445,-1.3087883,2.2688434,1.6578145,-0.9249185,1.3020245,-0.7699646,-1.8612411,-1.2619438,2.3236525,1.5935332,-0.9481424,1.1526273,-1.4414039,-1.1432408,-0.9940805,-0.90085095,0.47997245,0.13885237,0.57609177,-0.5985718,1.0962887,-2.700996,0.10635864,-3.4253955,0.23750305,-0.5057297,0.8060355,0.72919106,-0.030940758,0.040052965,0.6824359,0.6427256,-0.37480584,-1.2083457,1.0,0.0,0.0,0.0,0.0,0.0,0.0,-1.2260917,0.19857177,-0.54628867,-1.4364719,-0.19102097,-2.5355577,1.2101293,-1.7114043,0.10591149,0.8508086
-0.88243246,41.812885,12.236887,11.85312,0.10795617,0.16373838,-0.020950899,0.60741645,-0.81206024,-0.6972858,-0.59956473,-0.65193486,0.6734302,0.17245102,1.3627661,-0.8511706,-1.9309697,-1.3219002,2.258459,1.6608762,-0.9308973,1.3133312,-0.7844051,-1.8730133,-1.272028,2.3145278,1.5983301,-0.9467615,1.1237857,-1.4452846,-1.1889186,-1.0125339,-0.9168841,0.4791358,0.13790344,0.5491028,-0.5975113,1.061324,-2.6982954,0.106252305,-3.5201566,0.24389267,-0.5094223,0.793746,0.72521615,-0.023089036,0.040718857,0.6869281,0.6404124,-0.35621372,-1.2401456,1.0,0.0,0.0,0.0,0.0,0.0,0.0,-1.1991028,0.19751129,-0.511324,-2.730012,-0.45809746,-4.6751738,-1.6245842,-1.7781138,-0.24666786,-0.060477853
-7.168154,39.67027,10.024658,11.7545185,0.23518491,0.33814085,-0.0572913,0.5376977,-0.80857927,-0.7025044,-0.64843464,-0.67494637,0.6572471,0.15741366,1.367101,-0.86526304,-1.9432636,-1.3368714,2.247033,1.6640549,-0.93102014,1.3240658,-0.7988695,-1.8852184,-1.2825623,2.3052084,1.6031023,-0.945413,1.057322,-1.4471201,-1.2314633,-1.066135,-0.93780947,0.4760156,0.13397114,0.5221405,-0.5964508,1.0254123,-2.6955976,0.106146075,-3.6148229,0.25018692,-0.51294327,0.781072,0.7212299,-0.014904289,0.041604057,0.69128454,0.62700355,-0.33877128,-1.2806103,1.0,0.0,0.0,0.0,0.0,0.0,0.0,-1.1721405,0.1964508,-0.4754123,-6.4309835,-0.26302338,-4.3973446,-5.0991535,-2.2960424,-0.50492287,-0.38527548
-16.727413,37.84998,7.895584,14.331345,0.7293316,0.69791687,-0.16600202,0.45451957,-0.81717783,-0.6954248,-0.6711503,-0.6682165,0.6527556,0.054029565,1.3695178,-0.8805873,-1.9547609,-1.3496773,2.2383869,1.6683779,-0.94001,1.3338143,-0.81338537,-1.8977096,-1.2937069,2.295729,1.6078421,-0.94418275,0.9482579,-1.4533865,-1.2555976,-1.1296443,-0.9520957,0.4726352,0.119454764,0.49520493,-0.5953903,0.9885548,-2.6929026,0.10603995,-3.7093947,0.25616455,-0.51633453,0.7679964,0.7173215,-0.0063611004,0.04264542,0.69540685,0.59093493,-0.32778808,-1.3206369,1.0,0.0,0.0,0.0,0.0,0.0,0.0,-1.1452049,0.19539031,-0.43855476,-10.647106,-0.72169304,-2.5669575,-6.0549974,-1.6762137,-0.51332116,-1.4500573
-80.86102,22.773525,-10.261107,34.692047,3.9325447,2.3677855,-1.0408201,0.006836351,-0.8188866,-0.69323707,-0.7127264,-0.6704024,0.6138827,-0.13371174,1.3344979,-0.89527404,-1.9670333,-1.3649795,2.2286887,1.6692303,-0.9575539,1.3405377,-0.8279718,-1.9103153,-1.3055534,2.2861235,1.6125265,-0.94324243,0.58206,-1.4611756,-1.2626809,-1.2012886,-0.96495605,0.4670658,0.08514379,0.46829605,-0.59432983,0.9507522,-2.69021,0.10593393,-3.8038716,0.26078796,-0.520092,0.75453526,0.71419287,0.0025711972,0.043766424,0.69857454,0.4206129,-0.37930098,-1.3584298,1.0,0.0,0.0,0.0,0.0,0.0,0.0,-1.118296,0.19432983,-0.4007522,-36.09654,-1.002574,-0.8095026,-6.6592455,-1.8488169,-0.5984664,-3.5791113
-157.86877,7.2893987,-31.738008,58.811127,7.9361444,4.3040347,-1.9216412,-0.52452,-0.80949324,-0.6996502,-0.7680828,-0.5734232,0.56177646,0.08941529,1.2880857,-0.9089211,-1.9802803,-1.3823618,2.2287812,1.6687042,-0.9343009,1.3413826,-0.8425907,-1.9229438,-1.3181953,2.2766936,1.6171175,-0.9424671,-0.0784528,-1.4637275,-1.2629876,-1.2820803,-0.939315,0.4561308,0.074214466,0.44141388,-0.59326935,0.91199756,-2.6875205,0.10582802,-3.8993196,0.26250458,-0.5249634,0.7407168,0.71276575,0.011986612,0.04475581,0.69987017,0.08898196,-0.5116252,-1.3930964,1.0,0.0,0.0,0.0,0.0,0.0,0.0,-1.0914139,0.19326934,-0.36199754,-65.201584,-0.7221222,-0.05555153,-7.1651936,1.5226722,-1.1980653,-1.3139635
-152.47739,15.052036,-26.99358,58.045315,7.927393,4.452919,-1.6833031,-0.6312617,-0.814244,-0.66071475,-0.7742484,-0.4965035,0.53509355,0.3477551,1.2782564,-0.9240151,-1.9890153,-1.3956202,2.2270432,1.6706269,-0.9076916,1.3359162,-0.8572439,-1.9353645,-1.33148,2.267771,1.6215712,-0.9415649,-0.69998664,-1.4677105,-1.2351995,-1.3401481,-0.8800652,0.4405389,0.09554616,0.4145584,-0.59220886,0.8722892,-2.6848335,0.10572221,-3.9946723,0.26094055,-0.53108597,0.7266644,0.71309656,0.02181716,0.045301158,0.69926035,-0.24031639,-0.63585967,-1.4122276,1.0,0.0,0.0,0.0,0.0,0.0,0.0,-1.0645584,0.19220886,-0.32228917,-61.322945,-0.9577751,2.7281284,-4.6916723,4.8145533,-1.9431233,2.1223829
-113.35919,26.527275,-14.935137,45.57327,6.035443,3.6002564,-1.1649367,-0.67111915,-0.8190039,-0.69658643,-0.77191067,-0.48818904,0.5226755,0.40955105,1.2688042,-0.93914425,-2.0050232,-1.4086711,2.2189522,1.6738387,-0.9006098,1.3255821,-0.87194765,-1.9476688,-1.3451271,2.2594435,1.6258627,-0.94037664,-1.1425879,-1.472892,-1.2292128,-1.3695548,-0.8203879,0.4235386,0.12711918,0.38772964,-0.5911522,0.83162796,-2.6821492,0.10561651,-4.089929,0.25667953,-0.5381546,0.7124401,0.7147211,0.03198147,0.04527922,0.6972092,-0.49257627,-0.7183103,-1.4285843,1.0,0.0,0.0,0.0,0.0,0.0,0.0,-1.0377296,0.19115219,-0.28162795,-43.62081,-1.0131359,0.52924156,-1.8893957,5.0596476,-2.2341907,3.2981396
-70.43411,37.081642,-2.6841528,31.320263,3.9426653,2.575843,-0.67967594,-0.7247577,-0.8153572,-0.7424261,-0.781973,-0.4205758,0.4698726,0.34869695,1.2531064,-0.95348334,-2.0219114,-1.4233243,2.217386,1.67285,-0.90550697,1.3122154,-0.8866705,-1.9601848,-1.3589592,2.251818,1.6299616,-0.93892705,-1.4000239,-1.4731896,-1.2590798,-1.3850721,-0.74519706,0.4034732,0.15159854,0.36092758,-0.59009933,0.7900149,-2.6794677,0.10551091,-4.1850905,0.25056076,-0.54572296,0.69802296,0.71712106,0.042491294,0.044664945,0.6942168,-0.6583823,-0.7576549,-1.4483196,1.0,0.0,0.0,0.0,0.0,0.0,0.0,-1.0109276,0.19009933,-0.24001491,-25.325918,-0.3841877,-3.049302,-0.7324219,6.8799973,-2.5134146,2.649212
-37.043884,46.074715,7.8787017,21.298717,2.592663,1.8969076,-0.35677648,-0.7725123,-0.81596357,-0.75046617,-0.7737795,-0.24441658,0.45680535,0.17494568,1.2349643,-0.96826684,-2.0352314,-1.4363371,2.2273762,1.6756421,-0.9214325,1.297319,-0.901379,-1.9730651,-1.3728275,2.2453635,1.6338717,-0.93738973,-1.5188059,-1.4706831,-1.2978859,-1.3854753,-0.6136425,0.38556167,0.15526864,0.33415222,-0.5890465,0.74745095,-2.6767886,0.10540542,-4.2801566,0.2432518,-0.5534897,0.6834352,0.7199234,0.053318765,0.04325321,0.69064933,-0.76206577,-0.76787585,-1.4642401,1.0,0.0,0.0,0.0,0.0,0.0,0.0,-0.9841522,0.18904647,-0.19745094,-11.647201,0.037765503,-3.9275646,0.50985813,12.774873,-2.1806002,0.61584413
-15.36935,52.160664,15.317293,15.903624,2.1282387,1.50335,-0.24780689,-0.793663,-0.81762964,-0.7577151,-0.7505853,0.05566212,0.45653296,-0.15272824,1.2179527,-0.98314196,-2.0488367,-1.4478861,2.2509296,1.679525,-0.9526625,1.2819248,-0.9160589,-1.9863117,-1.3865528,2.2409842,1.6376272,-0.9360851,-1.545976,-1.4675126,-1.3335178,-1.3671012,-0.3796027,0.37135196,0.123196535,0.30740356,-0.5879936,0.70393705,-2.6741123,0.10530004,-4.3751283,0.23516846,-0.5612869,0.6687456,0.72298557,0.06439448,0.040617764,0.6866552,-0.8311874,-0.7680968,-1.4725171,0.0,1.0,0.0,0.0,0.0,0.0,0.0,-0.95740354,0.18799362,-0.15393704,-2.6174068,0.20794868,-3.5804749,2.1678686,23.237932,-1.7082572,-2.8952703
-4.161789,58.038113,20.618174,14.214186,1.8676862,1.4481268,-0.20902276,-0.80814075,-0.80966043,-0.7541308,-0.7196576,0.2535827,0.4680805,-0.2907082,1.2011107,-0.99702495,-2.0617247,-1.4585186,2.2663424,1.6844352,-0.9651559,1.266555,-0.93061507,-2.000195,-1.4002494,2.2392037,1.6410432,-0.93513167,-1.5388309,-1.4430523,-1.4709469,-1.418597,-0.13132074,0.25988024,0.095572315,0.28496552,-0.5888252,0.67492825,-1.5756469,-0.34825882,0.14870444,0.22657776,-0.5690613,0.65387946,0.72622865,0.075916536,0.036617436,0.68226665,-0.86216587,-0.7725261,-1.5242789,0.0,1.0,0.0,0.0,0.0,0.0,0.0,-0.9349655,0.18882522,-0.124928236,-0.20337105,4.0178537,-25.438595,-13.866448,21.455008,-21.54088,-0.5071044
69.72169,176.0,110.0,110.0,-3.1172862,12.089825,-0.7756042,-0.67793036,0.5856223,0.72463155,0.7022396,-0.37127542,0.6710013,-0.3531467,1.1987619,-0.87205285,-1.9277319,-1.3300254,2.2020762,1.7081434,-0.97044635,1.256282,-0.94654906,-2.0114522,-1.3995723,2.2255738,1.6547856,-0.9327055,-0.8607634,-1.6421311,-1.0053611,0.55802023,-1.7681047,1.7560588,0.28794834,0.26922226,-0.5923042,0.6756697,-1.5740715,-0.34791064,0.04930461,0.21765137,-0.57525253,0.6431942,0.72999865,0.07632325,0.03708227,0.6781604,-0.9083549,-0.5523009,-0.9164285,0.0,1.0,0.0,0.0,0.0,0.0,0.0,-0.91922224,0.19230422,-0.12566972,66.624626,-19.464636,48.1745,196.1318,-161.95703,152.71062,18.162241
-4.1052637,176.0,93.958664,93.7612,3.0676808,6.6970677,-1.1236352,-0.8030507,-0.61251175,0.31715024,0.76100075,-0.5767632,0.5391926,-0.27767617,1.1759769,-1.0078002,-1.9797372,-1.3234721,2.1678975,1.708705,-0.9604731,1.247657,-0.963287,-2.014523,-1.3864535,2.2050583,1.6718907,-0.9308888,-0.86019903,-1.6762145,-0.084221646,1.5607396,-2.141828,1.7060937,0.154367,0.25349426,-0.59578323,0.67541796,-1.5724978,-0.34756282,-0.049995843,0.2079773,-0.58052444,0.6378895,0.7348894,0.06802163,0.039545342,0.67360735,-0.9887115,-0.50729,-0.40624616,0.0,1.0,0.0,0.0,0.0,0.0,0.0,-0.90349424,0.19578323,-0.12541795,0.92419386,-0.9640932,89.16268,99.54173,-36.02171,-1.7879963,-10.949549
-47.00453,142.9216,48.719166,66.86639,4.1819086,4.1030216,-1.4541975,-0.7944062,-0.5474436,-0.19467367,0.6841983,-0.586798,0.62678534,-0.33652693,1.1682163,-1.0180314,-2.0339904,-1.3180337,2.1463785,1.7345693,-0.96454144,1.2380592,-0.9784485,-2.013329,-1.3677939,2.1846993,1.6880326,-0.9298302,-0.9910646,-1.4639072,0.18706267,1.9690582,-2.0037465,1.5872948,0.0907697,0.23778152,-0.5992546,0.6741739,-1.5709256,-0.34721535,-0.14919703,0.19710922,-0.58569336,0.63587105,0.74109036,0.056711916,0.042334132,0.66766506,-1.1209344,-0.51175654,-0.14183827,0.0,1.0,0.0,0.0,0.0,0.0,0.0,-0.8877815,0.1992546,-0.12417388,-12.478375,20.902824,27.026329,41.280674,12.896633,-10.756111,-6.030516
-47.800198,123.11303,34.962917,41.779507,3.1602867,2.893565,-0.91523576,-0.80389965,-0.51515555,0.037373494,0.7369741,-0.60831714,0.59355193,-0.18044789,1.1576692,-1.0299641,-2.0095916,-1.2940965,2.1238675,1.7473878,-0.94787496,1.2266647,-0.99112093,-2.0104985,-1.3480815,2.1671212,1.7025876,-0.92923796,-1.1876092,-1.2024988,0.3133442,1.9726958,-1.6774118,1.414237,0.04909905,0.22208405,-0.602726,0.6719386,-1.569355,-0.3468682,-0.248299,0.18510056,-0.5907059,0.63560045,0.7481834,0.04501015,0.044870835,0.66044086,-1.2302042,-0.48988172,0.0021223163,0.0,1.0,0.0,0.0,0.0,0.0,0.0,-0.872084,0.20272598,-0.121938586,-19.252945,25.890827,12.176413,0.5936861,32.12669,-16.562534,-4.08055
-52.644684,73.31887,6.498366,21.964182,2.4890132,0.98369575,-0.8203932,-0.81689847,-0.5061184,-0.23002855,0.74789846,-0.58324355,0.58078665,-0.173535,1.1449748,-1.0417328,-2.0335014,-1.2732916,2.1087968,1.7606663,-0.94659144,1.2134887,-1.0015429,-2.0087895,-1.3297385,2.1528847,1.7154889,-0.9289843,-1.360428,-0.98897755,0.12141727,1.788613,-1.338561,1.2500335,0.01725144,0.20640182,-0.6061897,0.66871005,-1.567786,-0.34652138,-0.34769565,0.17216492,-0.59570694,0.63555115,0.7559187,0.034768492,0.047170956,0.6520375,-1.3186746,-0.49531594,-0.015111494,0.0,1.0,0.0,0.0,0.0,0.0,0.0,-0.8564018,0.20618972,-0.11871004,-17.100216,21.266365,-19.825348,-18.240118,34.067226,-16.013765,-3.2596328
-38.994118,49.237167,-1.3442135,10.6760025,1.5136341,0.00026720762,-0.5786505,-0.81168664,-0.48234656,-0.27766007,0.76754904,-0.54300946,0.57883984,-0.26466003,1.13232,-1.0497776,-2.0365555,-1.2529836,2.0985837,1.7733729,-0.9554503,1.1990749,-1.0103682,-2.009644,-1.313425,2.1415703,1.7268987,-0.92906916,-1.468349,-0.847429,-0.15556292,1.5794069,-1.0617255,1.1052951,-0.017396288,0.19073486,-0.6096535,0.6644883,-1.5662185,-0.34617493,-0.44699296,0.15863419,-0.6008034,0.63486,0.76409614,0.026736474,0.04938196,0.64265347,-1.3698037,-0.5042757,-0.09303276,0.0,1.0,0.0,0.0,0.0,0.0,0.0,-0.84073484,0.20965347,-0.1144883,-10.735059,14.09918,-28.133287,-20.808697,27.843975,-14.329743,-3.5722039
-24.417755,37.845,-1.1525128,5.831031,1.0440018,-0.40160573,-0.3663699,-0.8149452,-0.47559112,-0.30160058,0.7639855,-0.42647177,0.56103766,-0.30657125,1.1175803,-1.0579274,-2.039804,-1.2370265,2.0989232,1.7830024,-0.9597263,1.1840394,-1.0183364,-2.0131447,-1.298895,2.1325583,1.7367444,-0.9295176,-1.5151083,-0.7799389,-0.4162622,1.4105355,-0.8486661,0.9420809,-0.054555565,0.17373657,-0.6124153,0.66208506,-1.7532892,-0.24664189,-0.1343516,0.1448021,-0.60603714,0.6332481,0.77252877,0.021016404,0.051494274,0.6325392,-1.3899636,-0.51933426,-0.18829627,0.0,1.0,0.0,0.0,0.0,0.0,0.0,-0.82373655,0.21241531,-0.112085044,-4.7770023,6.6470027,-25.29816,-16.275978,22.758902,-12.453758,-3.4636385
-6.1830378,68.30654,17.375103,10.120527,0.22155327,0.2270233,-0.19172657,-0.8147033,-0.33151305,-0.23746614,0.7847503,-0.42172837,0.56287616,-0.3613624,1.102569,-1.0514877,-2.0368915,-1.22042,2.0903854,1.793032,-0.9656539,1.1688511,-1.0253783,-2.018203,-1.2854022,2.125173,1.7453904,-0.9303227,-1.520331,-0.6794415,-0.5358865,1.3286942,-0.70249283,0.8384944,-0.08973896,0.15629196,-0.6148567,0.6604874,-1.741742,-0.24113852,-0.16374859,0.1309433,-0.61112213,0.6313084,0.7810324,0.016716344,0.053661235,0.6219561,-1.3893229,-0.49333048,-0.19901876,0.0,1.0,0.0,0.0,0.0,0.0,0.0,-0.80629194,0.21485671,-0.1104874,-0.5821228,9.915102,-11.896205,-8.222985,14.361752,-10.447502,-3.691432
5.0719056,88.4041,30.766483,14.029316,0.1336106,0.82028836,-0.04636442,-0.82122844,-0.2821527,-0.15711966,0.7789161,-0.3083286,0.56115067,-0.37668234,1.0867283,-1.0535936,-2.033915,-1.2075106,2.0943403,1.8015054,-0.96799093,1.1537411,-1.0314094,-2.0233948,-1.2722987,2.1191077,1.7531536,-0.93145496,-1.508363,-0.57838404,-0.5126159,1.3038727,-0.5760619,0.75575536,-0.12159245,0.13899994,-0.617115,0.659192,-1.7248813,-0.2207896,-0.1190638,0.11714554,-0.6157913,0.6297077,0.78945845,0.012884186,0.05579858,0.6111267,-1.379125,-0.4465455,-0.14937545,0.0,1.0,0.0,0.0,0.0,0.0,0.0,-0.7889999,0.21711501,-0.109192014,1.065731,9.930706,2.6366353,-2.6109695,12.199127,-8.246744,-3.3544614
16.229609,112.06836,44.947792,17.591103,-0.11296308,1.4497489,0.113795005,-0.81741375,-0.2013482,-0.012467912,0.7758499,-0.2682797,0.5817554,-0.40185785,1.0719998,-1.0515442,-2.0246415,-1.1947137,2.0922797,1.8113291,-0.97164077,1.1388066,-1.0362979,-2.0272713,-1.2591952,2.1140845,1.7602377,-0.93288827,-1.489193,-0.4595628,-0.34444705,1.3118593,-0.4795332,0.6928775,-0.1512154,0.12194443,-0.6190872,0.658844,-1.6992544,-0.18943515,-0.007133899,0.10355377,-0.6197891,0.6290666,0.7976507,0.00868156,0.05781506,0.60027945,-1.3550321,-0.37249914,-0.037295144,0.0,1.0,0.0,0.0,0.0,0.0,0.0,-0.7719444,0.21908721,-0.10884398,1.7133951,11.666089,17.326677,0.583148,9.0523,-6.208205,-3.168112
21.923811,123.14926,51.42566,18.882938,-0.32005912,1.7279272,0.22348383,-0.81327355,-0.1358857,0.100853965,0.76630765,-0.2701995,0.600056,-0.40231046,1.0574793,-1.0498865,-2.017186,-1.1825645,2.0870645,1.8202432,-0.9731193,1.1240628,-1.0399562,-2.028904,-1.2459544,2.1097505,1.766808,-0.93458295,-1.470159,-0.335356,-0.1009753,1.3273441,-0.4202527,0.6453968,-0.17622478,0.10517502,-0.62070084,0.65982753,-1.6691498,-0.15146427,0.1338263,0.09028244,-0.6229286,0.6297509,0.80548567,0.003580814,0.059726372,0.5895868,-1.3205646,-0.28368706,0.10224509,0.0,1.0,0.0,0.0,0.0,0.0,0.0,-0.755175,0.22070083,-0.10982752,1.6880751,12.188255,24.929445,1.3411283,5.279332,-4.6322346,-2.7173429
20.653728,130.24362,52.857555,20.561838,-0.5479646,1.8316061,0.21428649,-0.81776047,-0.032162927,0.16387685,0.7624746,-0.33200997,0.6113073,-0.41593143,1.0422868,-1.0431725,-2.0125163,-1.169707,2.0765495,1.8279388,-0.9761761,1.109443,-1.0421878,-2.028156,-1.2325743,2.105612,1.7729897,-0.93650466,-1.4597071,-0.18644477,0.1352218,1.3411075,-0.4137898,0.6096162,-0.19821483,0.088718414,-0.62189865,0.66228664,-1.6378158,-0.10901153,0.2838849,0.07739258,-0.62511444,0.6318981,0.81292087,-0.0025900495,0.06181522,0.57907844,-1.2808152,-0.18602724,0.25101554,0.0,1.0,0.0,0.0,0.0,0.0,0.0,-0.7387184,0.22189865,-0.11228663,0.85835457,14.646736,24.170708,1.2400627,0.026005507,-3.4260392,-2.4181902
11.793191,115.65839,43.167553,19.589811,-0.5003251,1.4743049,0.10945591,-0.82249314,0.012047013,0.13583016,0.75583386,-0.39298877,0.6237857,-0.42101866,1.0271937,-1.0409831,-2.014573,-1.156991,2.0663133,1.8353683,-0.9786065,1.0948594,-1.0430442,-2.0257676,-1.219116,2.1012175,1.7788795,-0.9386199,-1.4583707,-0.052632432,0.27499613,1.3473241,-0.449595,0.58262354,-0.21650727,0.072532654,-0.62270355,0.6659379,-1.6122975,-0.070935555,0.3934401,0.064842224,-0.6264305,0.63523465,0.8200106,-0.009551379,0.06441179,0.5686321,-1.2482541,-0.102776416,0.36003298,0.0,1.0,0.0,0.0,0.0,0.0,0.0,-0.72253263,0.22270355,-0.11593789,0.0062704086,13.177406,14.373654,0.58043003,-4.036832,-2.5402546,-1.9991755
0.8183427,86.68538,28.052073,16.389986,-0.1386193,0.90008473,-0.0148276985,-0.8268259,0.0052396343,0.086224034,0.74674964,-0.38885254,0.63623625,-0.41971004,1.0121768,-1.0425203,-2.0171452,-1.144441,2.0623322,1.8425032,-0.98059094,1.0802376,-1.042966,-2.0228302,-1.2056669,2.0964372,1.7845465,-0.9408907,-1.4637085,0.027642934,0.30062273,1.3440936,-0.48839542,0.5619705,-0.23105441,0.056526184,-0.6232071,0.67020077,-1.5966855,-0.043562733,0.43805724,0.05248642,-0.627121,0.63917834,0.8268651,-0.01676544,0.0675929,0.558072,-1.23258,-0.049093787,0.40445647,0.0,1.0,0.0,0.0,0.0,0.0,0.0,-0.70652616,0.22320709,-0.12020075,-0.60608387,7.898683,2.7790427,-0.32336712,-4.1349053,-1.9176364,-1.5664637
-1.3609697,79.29814,24.0594,15.503762,-0.06559324,0.68726176,-0.042528737,-0.82124925,0.060275786,0.1183103,0.7531227,-0.410402,0.633828,-0.42083436,0.9981127,-1.0369384,-2.0109992,-1.1303546,2.055397,1.8479292,-0.9829742,1.0655797,-1.0421878,-2.0199158,-1.1922392,2.0912604,1.7900363,-0.9432875,-1.4667903,0.0943489,0.2889833,1.3422456,-0.5281317,0.54525274,-0.24290009,0.04066086,-0.62345505,0.67479277,-1.5830816,-0.018223496,0.46686077,0.040267944,-0.62734604,0.6434333,0.8335324,-0.023959495,0.07137138,0.5473169,-1.2193424,-0.0039584134,0.43125686,0.0,1.0,0.0,0.0,0.0,0.0,0.0,-0.69066083,0.22345504,-0.124792755,-0.37276745,6.561168,-0.9849489,-0.18596649,-4.1807055,-1.5317321,-1.2900621
-7.173694,66.00352,16.887941,14.701162,0.21451756,0.38567346,-0.12901151,-0.82464373,0.07599964,0.04548326,0.75844336,-0.40103078,0.6284286,-0.41351098,0.98311526,-1.0345879,-2.0153675,-1.1163949,2.0511575,1.8528792,-0.9846386,1.0508854,-1.0409118,-2.0176003,-1.1788019,2.085794,1.7953783,-0.9457805,-1.4705096,0.13844657,0.21267089,1.3443338,-0.5530586,0.5308383,-0.2518565,0.024894714,-0.6234894,0.67946106,-1.5745331,0.0013722739,0.46719483,0.02809143,-0.6272507,0.6477374,0.84008026,-0.03087227,0.07572508,0.5362627,-1.2169982,0.024384966,0.4288504,0.0,1.0,0.0,0.0,0.0,0.0,0.0,-0.6748947,0.22348937,-0.12946105,-0.41303635,4.3319197,-7.5347304,0.20859241,-2.6019812,-1.3161421,-0.99086165
-7.338186,64.33251,16.0599,14.495478,0.32897326,0.29601362,-0.1250452,-0.824586,0.10231011,0.033328354,0.7560843,-0.39012414,0.62277365,-0.4110332,0.9684268,-1.0306808,-2.0142674,-1.1031935,2.0467815,1.8576556,-0.9868838,1.0361645,-1.0392562,-2.0160973,-1.1653494,2.0801978,1.8005906,-0.94834876,-1.4729581,0.17447485,0.12976283,1.3455609,-0.5623594,0.5182809,-0.25884175,0.009208679,-0.623333,0.6841083,-1.5664704,0.02094708,0.46384844,0.015918732,-0.62688446,0.6519769,0.84652823,-0.037398268,0.08056704,0.5248811,-1.2163682,0.049029663,0.4212135,0.0,1.0,0.0,0.0,0.0,0.0,0.0,-0.65920866,0.22333297,-0.1341083,-0.28910637,3.5246968,-8.181247,0.110173225,-1.0459781,-1.1562705,-0.8028507
-7.886587,64.82192,15.883364,14.861765,0.4397727,0.25493637,-0.13789175,-0.8266989,0.13525857,-0.0146392835,0.7579218,-0.36467603,0.6101997,-0.41043586,0.9534946,-1.0257304,-2.0175612,-1.0895572,2.0437303,1.8616107,-0.98939234,1.0214169,-1.0372154,-2.0154908,-1.1518797,2.0746474,1.8056827,-0.95097613,-1.4754964,0.2135979,0.03792155,1.3474689,-0.5531185,0.50640255,-0.26444566,-0.0063972473,-0.6229706,0.68873787,-1.5585766,0.041496493,0.4623887,0.0037384033,-0.6262932,0.6561435,0.85288244,-0.043510377,0.08583007,0.5131584,-1.2176957,0.0721825,0.41412827,0.0,1.0,0.0,0.0,0.0,0.0,0.0,-0.6436027,0.22297058,-0.13873786,-0.30281544,3.8275032,-9.0621195,0.17037392,0.7992625,-1.1208177,-0.6741524
-11.013197,57.787903,11.713119,14.283667,0.56326663,0.04284954,-0.18900378,-0.824807,0.14873849,-0.14876471,0.7557993,-0.32100326,0.5960741,-0.4032503,0.93893623,-1.0223415,-2.0303671,-1.0762998,2.042547,1.86529,-0.9913012,1.0066597,-1.0348197,-2.0162156,-1.1384023,2.0693452,1.8106568,-0.9536474,-1.4758519,0.24795695,-0.10932552,1.3475808,-0.52264696,0.49461314,-0.26845473,-0.021942139,-0.6224289,0.69322747,-1.5531415,0.058426466,0.4443817,-0.008495331,-0.6255455,0.66011155,0.85918254,-0.0490328,0.091490716,0.5010295,-1.224729,0.0853641,0.3901294,0.0,1.0,0.0,0.0,0.0,0.0,0.0,-0.62805784,0.22242889,-0.14322746,-0.0723362,3.362939,-14.655966,-0.018620491,2.9818535,-1.1318147,-0.5239904
-5.4502196,66.38485,16.898695,14.772217,0.54934776,0.19609562,-0.110346474,-0.81846064,0.17309467,-0.09796811,0.766264,-0.3066163,0.6015997,-0.40834042,0.9248137,-1.0175103,-2.0260124,-1.0617759,2.0386837,1.8708167,-0.99448144,0.99193585,-1.0320693,-2.0179398,-1.1248833,2.0643864,1.815531,-0.95635486,-1.4715652,0.28374717,-0.19282356,1.3530788,-0.4873327,0.4850381,-0.27200752,-0.037399292,-0.62166977,0.69770896,-1.5433403,0.08198462,0.4492235,-0.020751953,-0.624588,0.6639974,0.8653785,-0.054123756,0.09743558,0.48856622,-1.2245573,0.10840263,0.38758266,0.0,1.0,0.0,0.0,0.0,0.0,0.0,-0.6126007,0.22166976,-0.14770895,0.35774708,3.4745693,-8.149317,0.49493313,3.3485293,-0.96858144,-0.49600005
-2.5209594,69.10071,19.17788,14.696101,0.55564016,0.2873109,-0.05053488,-0.8192812,0.17676753,-0.0964518,0.7694688,-0.31012467,0.6105911,-0.41132516,0.9100077,-1.0143926,-2.027585,-1.0479364,2.0333738,1.8765901,-0.99748737,0.97725135,-1.0290366,-2.020141,-1.1112992,2.0597248,1.8203299,-0.95909387,-1.4676257,0.30929768,-0.22821538,1.3600045,-0.4600012,0.47799262,-0.27508792,-0.052742004,-0.62064743,0.70230657,-1.5309954,0.1093279,0.46333423,-0.032981873,-0.6233673,0.66792125,0.87140465,-0.05899521,0.10354679,0.4758692,-1.2206409,0.13674158,0.39371723,0.0,1.0,0.0,0.0,0.0,0.0,0.0,-0.597258,0.22064742,-0.15230656,0.3027439,2.4389565,-3.2537282,0.621891,2.4875283,-0.74228644,-0.45400858
-6.584247,58.680656,14.193394,13.7427,0.64306855,0.12910724,-0.0768529,-0.8249659,0.1620172,-0.2060392,0.7661035,-0.2997878,0.6020847,-0.40104124,0.89475477,-1.0128349,-2.0407448,-1.0346888,2.029746,1.8805383,-0.999198,0.9625724,-1.0259105,-2.0229447,-1.0976692,2.0552893,1.8250588,-0.9618538,-1.4682198,0.3134174,-0.29711014,1.3636687,-0.43831372,0.47122955,-0.27672502,-0.067985535,-0.61938477,0.7068805,-1.5219128,0.13186078,0.45581633,-0.04523468,-0.621933,0.671747,0.8772703,-0.06354706,0.109800756,0.4629281,-1.2239695,0.15556422,0.3787288,0.0,1.0,0.0,0.0,0.0,0.0,0.0,-0.58201444,0.21938476,-0.1568805,-0.12464523,0.3185451,-6.669402,0.30288696,1.993674,-0.70124865,-0.3025174
-1.4312497,64.89801,17.910961,13.567986,0.5087545,0.21626547,0.008345328,-0.8149952,0.17781468,-0.15210505,0.7714538,-0.31980982,0.59764796,-0.3944712,0.8810729,-1.008129,-2.038155,-1.0205239,2.0233083,1.8848236,-1.0013009,0.94792205,-1.0227443,-2.0260575,-1.0839974,2.0509558,1.829728,-0.9646204,-1.4642346,0.3173613,-0.31501034,1.3679614,-0.4323188,0.4653156,-0.2770825,-0.083099365,-0.6178589,0.71149176,-1.5076679,0.1597601,0.46329862,-0.057430267,-0.6202545,0.67552626,0.8829228,-0.0678819,0.11616981,0.44982642,-1.2172664,0.18237153,0.3776624,0.0,1.0,0.0,0.0,0.0,0.0,0.0,-0.5669006,0.21785888,-0.16149175,0.3005743,0.28367043,-1.4623404,0.34468174,0.3324449,-0.6323278,-0.18875003
-8.48726,49.233482,10.314758,12.430729,0.6416933,-0.016896427,-0.052854452,-0.82642525,0.13894562,-0.28213772,0.7679773,-0.31219035,0.5857628,-0.38468838,0.86527956,-1.0088497,-2.0542712,-1.0071996,2.0197368,1.8883042,-1.0030892,0.9332592,-1.019744,-2.029803,-1.0703081,2.046652,1.8343322,-0.9673824,-1.4671952,0.29406777,-0.39341378,1.3691407,-0.43027437,0.45881978,-0.27637956,-0.09811783,-0.6161194,0.71592593,-1.4998536,0.17883232,0.43796435,-0.069675446,-0.61841583,0.67905706,0.8883979,-0.07180329,0.122663885,0.43651676,-1.2237403,0.19398797,0.34511352,0.0,1.0,0.0,0.0,0.0,0.0,0.0,-0.55188215,0.21611938,-0.16592592,-0.3427744,-2.4049401,-7.6471567,0.060153008,0.06523132,-0.6613612,-0.06478429
-9.161289,46.293095,9.203258,12.113211,0.71896935,-0.059458077,-0.046730332,-0.8264395,0.12523754,-0.2974711,0.7681791,-0.2915303,0.57274777,-0.3748014,0.85061526,-1.0072203,-2.05955,-0.99349016,2.017499,1.891607,-1.0048625,0.9185583,-1.0170509,-2.0343194,-1.0566151,2.042409,1.8388678,-0.9701299,-1.4711215,0.26082188,-0.47042412,1.3690978,-0.4229636,0.4516361,-0.27458587,-0.11306381,-0.6141968,0.72006696,-1.4928002,0.19673207,0.407124,-0.08200455,-0.6164818,0.6822297,0.89371574,-0.075215265,0.12923267,0.42298177,-1.2332656,0.20319387,0.30818644,0.0,1.0,0.0,0.0,0.0,0.0,0.0,-0.53693616,0.21419677,-0.17006695,-0.4327774,-3.397721,-7.508993,-0.054192543,0.5933523,-0.7429123,0.04825592
-11.364968,33.93592,4.532034,10.346704,0.7747907,-0.23359114,-0.046154805,-0.82358515,0.06465314,-0.36555463,0.77098817,-0.2935452,0.563995,-0.34919295,0.83619976,-1.0105855,-2.070875,-0.97951627,2.0130544,1.8952672,-1.0050492,0.90383637,-1.0149299,-2.0397553,-1.0429109,2.038216,1.843329,-0.97284216,-1.4725236,0.19577271,-0.5679278,1.3708031,-0.41808277,0.44426733,-0.27042475,-0.12797546,-0.6121521,0.7237191,-1.4902029,0.20740432,0.35251325,-0.09448242,-0.6145363,0.68487006,0.89889514,-0.07799306,0.13579616,0.4092237,-1.2502792,0.20140094,0.24962276,0.0,1.0,0.0,0.0,0.0,0.0,0.0,-0.5220245,0.2121521,-0.17371911,-0.14107227,-6.551117,-9.641111,0.14986992,0.4275024,-0.7459581,0.3042221
-12.335474,28.845873,2.7200694,9.795551,0.7817366,-0.2905954,-0.03137345,-0.8229743,0.021239223,-0.41180137,0.7801181,-0.31564513,0.5590869,-0.3151102,0.8215389,-1.0128059,-2.0809355,-0.9648991,2.0066516,1.8992376,-1.0043532,0.88911355,-1.0135814,-2.0461829,-1.0291454,2.033989,1.8477194,-0.97548866,-1.4720323,0.11437561,-0.66732424,1.3785393,-0.4240787,0.43720573,-0.2630447,-0.14287186,-0.6100197,0.7267561,-1.4892722,0.21532373,0.2887833,-0.10715866,-0.61263657,0.6868645,0.9039404,-0.08006379,0.14232852,0.39525184,-1.2707087,0.19599396,0.18320426,0.0,1.0,0.0,0.0,0.0,0.0,0.0,-0.5071281,0.21001968,-0.17675608,0.06980896,-8.18146,-9.8562355,0.78680515,-0.63546896,-0.71926713,0.6393671
-9.384938,36.191063,5.944681,10.6566105,0.77550316,-0.19688296,0.0109448135,-0.816572,0.0056722923,-0.41575268,0.7911714,-0.31272796,0.55742663,-0.26931617,0.8074564,-1.0130142,-2.087758,-0.95002824,2.002716,1.903462,-1.0024203,0.8744316,-1.012971,-2.053377,-1.0152552,2.0297077,1.8520467,-0.9780294,-1.4670202,0.04302288,-0.7365401,1.3925546,-0.4297839,0.43094873,-0.25139758,-0.1577301,-0.60777664,0.72925866,-1.4841509,0.2279085,0.23947825,-0.11999893,-0.61074066,0.68830675,0.9088168,-0.08153963,0.14881416,0.38112658,-1.2858634,0.19776338,0.13168761,0.0,1.0,0.0,0.0,0.0,0.0,0.0,-0.49226987,0.20777664,-0.17925864,0.49540997,-7.2026834,-6.7468405,1.4140606,-0.68763494,-0.67617893,1.0589838
-6.137286,40.87109,8.16832,10.437795,0.7070794,-0.14251608,0.062486272,-0.81048954,-0.027373077,-0.43406597,0.7869963,-0.3111139,0.5597226,-0.25273004,0.79338264,-1.0157083,-2.0967834,-0.93655556,1.9985963,1.908019,-1.0033023,0.859827,-1.0130265,-2.0610898,-1.0012627,2.025385,1.8563204,-0.9804471,-1.458429,-0.022072284,-0.78201884,1.4015285,-0.43351945,0.4259161,-0.2389021,-0.17250824,-0.60538864,0.7313261,-1.4752079,0.24324124,0.19811106,-0.13293457,-0.60878754,0.6892946,0.91348505,-0.08253494,0.1552223,0.3669319,-1.2944348,0.20446977,0.08843189,0.0,1.0,0.0,0.0,0.0,0.0,0.0,-0.47749174,0.20538864,-0.18132609,0.8255005,-6.5896206,-4.2989016,0.89519024,-0.5562067,-0.5720079,1.1329412
-4.5972223,49.460075,11.128888,11.605535,0.72424316,-0.033449054,0.08881229,-0.81292814,-0.03729076,-0.4433857,0.785117,-0.30227426,0.5437506,-0.2259803,0.7785342,-1.0167556,-2.1054282,-0.92275095,1.9951575,1.9106954,-1.0030452,0.84528434,-1.0135872,-2.0690963,-0.9872243,2.0210688,1.8605375,-0.98272955,-1.4530983,-0.067783035,-0.8059847,1.4045081,-0.4316204,0.42005855,-0.22506094,-0.18716049,-0.6028099,0.7330868,-1.4614738,0.26366732,0.17134286,-0.14592361,-0.60671616,0.68996096,0.9179163,-0.08316301,0.16154425,0.35272795,-1.2977664,0.21923743,0.059910346,0.0,1.0,0.0,0.0,0.0,0.0,0.0,-0.46283948,0.2028099,-0.18308681,0.46420097,-4.6766005,-2.0495892,0.2748251,-0.08447766,-0.6862879,1.2530208
-2.737149,58.90468,14.077859,12.781304,0.6777652,0.053652585,0.12653771,-0.81064343,-0.034512646,-0.45589325,0.7803417,-0.30137408,0.533248,-0.16805322,0.76422,-1.0170385,-2.1146855,-0.9091901,1.9909314,1.9138623,-0.9995349,0.83078367,-1.0144188,-2.0772667,-0.9732087,2.0167909,1.8646954,-0.9848424,-1.4493936,-0.08870439,-0.8191286,1.4003007,-0.4274044,0.4138901,-0.2070816,-0.20162964,-0.59999084,0.73469526,-1.4416934,0.2892883,0.15998349,-0.15889359,-0.6044388,0.6904515,0.92207915,-0.08350884,0.16783041,0.33856928,-1.2933937,0.24167216,0.04604554,0.0,1.0,0.0,0.0,0.0,0.0,0.0,-0.44837034,0.19999084,-0.18469524,0.26197433,-2.2228315,-0.8679986,-0.47860146,0.053101778,-0.73835254,1.6396761
-5.6009684,48.985767,10.491238,11.596146,0.82429886,-0.053946376,0.112396136,-0.81455773,-0.10470982,-0.48236942,0.7788771,-0.27331194,0.49303058,-0.13433726,0.7493279,-1.0248898,-2.1255035,-0.895321,1.9894596,1.9139985,-0.9982762,0.8162868,-1.0156548,-2.0856123,-0.95925033,2.0126271,1.8687652,-0.986765,-1.4499782,-0.13558038,-0.8387812,1.3943206,-0.41321963,0.40422174,-0.18763712,-0.21595001,-0.59695816,0.7360413,-1.4277385,0.3084492,0.12912175,-0.17189026,-0.60198593,0.69068533,0.92600024,-0.083519526,0.17398067,0.32446685,-1.2990831,0.25648692,0.016315771,0.0,1.0,0.0,0.0,0.0,0.0,0.0,-0.43404996,0.19695815,-0.1860413,-0.12786388,-4.793972,-1.6060829,-0.6114006,1.1248708,-1.0450184,1.8066943
-5.260862,64.33059,14.4752865,14.797093,0.7705961,0.07231003,0.12134331,-0.81686866,-0.049939655,-0.49608335,0.7835401,-0.30629689,0.4595604,-0.06510932,0.73459995,-1.0206487,-2.1352205,-0.88089633,1.9819975,1.9147213,-0.99327594,0.8017604,-1.0170338,-2.0941756,-0.9453291,2.0085127,1.8727205,-0.98845756,-1.453883,-0.13920648,-0.8607852,1.3911743,-0.41180956,0.39197803,-0.16358562,-0.23006058,-0.5936737,0.7372735,-1.4043933,0.33629617,0.124587744,-0.1848793,-0.5993004,0.6907989,0.9296607,-0.08321192,0.18014656,0.3104091,-1.2950937,0.28279185,0.010230642,0.0,1.0,0.0,0.0,0.0,0.0,0.0,-0.4199394,0.1936737,-0.1872735,-0.5079031,-0.5158663,-1.7053485,-0.3679514,-0.2824068,-1.375562,2.2397041
-9.538001,36.996815,5.723929,10.158236,0.76898813,-0.19736552,0.11720832,-0.8186174,-0.18796952,-0.53726405,0.77790755,-0.31668773,0.44212976,-0.064995736,0.71989864,-1.0358307,-2.147902,-0.8675384,1.976844,1.9169334,-0.99495715,0.78719,-1.0189869,-2.1031086,-0.93143934,2.0043335,1.8765463,-0.98993313,-1.4581528,-0.21426024,-0.9033168,1.388421,-0.42031255,0.379183,-0.14239356,-0.24405289,-0.59023285,0.7380874,-1.3964103,0.3476113,0.07019826,-0.19795227,-0.5965004,0.6905118,0.9331066,-0.08239962,0.18622147,0.2963847,-1.3090792,0.28910255,-0.041095264,0.0,1.0,0.0,0.0,0.0,0.0,0.0,-0.4059471,0.19023284,-0.1880874,-0.44164658,-7.5886545,-4.011905,-0.22039413,-1.0479212,-1.3670266,2.032131
-12.981949,23.051159,0.76304245,7.8838634,0.64269197,-0.35915536,0.17021698,-0.82337564,-0.24580778,-0.5921475,0.7738913,-0.35294756,0.3751521,0.09259902,0.70485246,-1.0435678,-2.1623235,-0.8540502,1.9690387,1.9140614,-0.98067325,0.7725645,-1.0219223,-2.112667,-0.917578,1.9999379,1.8802063,-0.9911047,-1.46381,-0.32019123,-0.97320855,1.3857251,-0.4460579,0.36136433,-0.108863704,-0.25802612,-0.5867462,0.73815525,-1.3969054,0.34999114,-0.010288759,-0.21124268,-0.59371185,0.68952495,0.93636894,-0.080828376,0.19214539,0.28241816,-1.3320546,0.2855298,-0.11747435,0.0,1.0,0.0,0.0,0.0,0.0,0.0,-0.39197385,0.18674621,-0.18815523,-0.51636696,-10.649574,-6.9024086,-0.13198853,-2.6346684,-1.8482208,3.3139691
-11.535401,21.004005,0.37915778,6.9101334,0.507249,-0.3880356,0.20830947,-0.81420743,-0.29042426,-0.612387,0.7821136,-0.38966528,0.3649127,0.14623636,0.69114375,-1.0509648,-2.1739058,-0.8393666,1.9609714,1.9166976,-0.9764811,0.757937,-1.0259755,-2.1229231,-0.90369445,1.9951878,1.8836931,-0.99192303,-1.4621321,-0.43391204,-1.0428194,1.3896358,-0.48487756,0.3443932,-0.07310429,-0.27199936,-0.58324814,0.737385,-1.3982049,0.35037336,-0.09440695,-0.22473526,-0.5909767,0.68774307,0.9394421,-0.0784131,0.19793656,0.26855326,-1.3527005,0.2806647,-0.19807221,0.0,1.0,0.0,0.0,0.0,0.0,0.0,-0.37800062,0.18324813,-0.18738496,0.22542477,-11.428392,-6.887603,0.55787563,-3.9463758,-1.7676592,3.5377085
-11.756213,15.254618,-1.3596389,5.3133717,0.33739048,-0.4468425,0.26763356,-0.8151862,-0.36845538,-0.6545664,0.7782472,-0.4465763,0.30249676,0.2455823,0.6764184,-1.062821,-2.1883798,-0.82586974,1.9505302,1.9139428,-0.9673648,0.7433372,-1.0312741,-2.1339095,-0.88977844,1.9899254,1.8869756,-0.99233884,-1.4589008,-0.56196177,-1.1171132,1.3930001,-0.54014105,0.3228124,-0.031007402,-0.2859726,-0.57974625,0.7356894,-1.396807,0.35002303,-0.19459176,-0.2384491,-0.58831406,0.68507254,0.94231826,-0.0750573,0.20360489,0.25484815,-1.3741246,0.2721744,-0.28979397,0.0,1.0,0.0,0.0,0.0,0.0,0.0,-0.36402738,0.17974624,-0.18568939,0.40676594,-12.854242,-7.415724,0.5583525,-5.536723,-2.2267044,4.193587
-9.009078,28.567394,2.7478585,7.1866026,0.38056841,-0.2887026,0.29448766,-0.8123695,-0.38042185,-0.66510534,0.7777341,-0.44726294,0.29681817,0.3247842,0.66210026,-1.0693163,-2.20042,-0.81200504,1.9451991,1.9166574,-0.95986044,0.7287813,-1.0376179,-2.1455007,-0.8758427,1.9841799,1.8900653,-0.9923188,-1.4543792,-0.65872663,-1.1727505,1.3941863,-0.58589435,0.30391213,0.013027655,-0.2999382,-0.57624435,0.7331803,-1.3943777,0.35159484,-0.2641793,-0.25230026,-0.58566284,0.6816436,0.94496924,-0.07084961,0.20918381,0.24136172,-1.3858091,0.27440628,-0.36062008,0.0,1.0,0.0,0.0,0.0,0.0,0.0,-0.35006177,0.17624435,-0.18318027,0.4777193,-9.76398,-5.384326,0.30505657,-4.6622276,-2.0914555,4.4284225
-9.172095,32.02035,3.7004206,7.7203164,0.49403247,-0.20951724,0.289778,-0.8176607,-0.43831265,-0.6867737,0.7710539,-0.44619572,0.26139072,0.3560564,0.6470152,-1.0814492,-2.214178,-0.7987373,1.9395603,1.9162043,-0.9567132,0.71423846,-1.0448735,-2.1575572,-0.8619353,1.9780922,1.8929541,-0.9918719,-1.4542506,-0.74822354,-1.2159489,1.3901073,-0.6166752,0.28334782,0.05518377,-0.31384277,-0.5726967,0.72998315,-1.3874102,0.35689926,-0.33407933,-0.26626968,-0.5829544,0.6775509,0.9473975,-0.06587512,0.21461505,0.22812043,-1.3975368,0.28122562,-0.42578003,0.0,1.0,0.0,0.0,0.0,0.0,0.0,-0.3361572,0.17269668,-0.17998314,0.024223328,-9.049475,-4.091525,-0.23188591,-3.3013344,-2.2140682,4.164337
-10.1834755,34.333965,4.088555,8.127341,0.54345375,-0.13748503,0.29890355,-0.82682216,-0.48756462,-0.7058567,0.7599352,-0.47644374,0.20496751,0.40597737,0.6315563,-1.09363,-2.228143,-0.7859418,1.9304478,1.9134508,-0.95127416,0.6996423,-1.0529816,-2.1699762,-0.8481255,1.9717069,1.8956133,-0.99101144,-1.4614285,-0.83202773,-1.2496266,1.3784579,-0.64633584,0.2595248,0.09630102,-0.32767105,-0.569088,0.72610354,-1.379651,0.36309355,-0.40193507,-0.28036118,-0.580143,0.6728282,0.94961137,-0.060155857,0.21985027,0.21514027,-1.4090235,0.29215756,-0.48815712,0.0,1.0,0.0,0.0,0.0,0.0,0.0,-0.32232893,0.16908798,-0.17610353,-0.71151257,-8.490742,-3.1049728,-0.97813606,-3.2360911,-2.564913,4.0640817
-6.367714,39.019802,6.0124893,7.702622,0.53971314,-0.0905813,0.32945243,-0.81800425,-0.5256225,-0.7011041,0.7481782,-0.47013575,0.15851225,0.45260784,0.6178419,-1.1055439,-2.2400866,-0.7733077,1.9246933,1.9114646,-0.94575065,0.6850101,-1.061868,-2.1825826,-0.8344826,1.9651176,1.8980203,-0.9897486,-1.4639157,-0.90773344,-1.2634362,1.3599023,-0.66381747,0.2337203,0.136128,-0.34139252,-0.5654068,0.7215922,-1.3678328,0.37028205,-0.46353167,-0.2945099,-0.5772133,0.6675388,0.9516146,-0.053775307,0.22480932,0.20248078,-1.4133109,0.30567157,-0.5432111,0.0,1.0,0.0,0.0,0.0,0.0,0.0,-0.30860746,0.1654068,-0.17159218,-0.28009415,-7.6832175,-1.03333,-1.7130375,-2.0990968,-2.7826488,3.923516
-7.353793,39.97115,6.079677,7.8283043,0.64145625,-0.05925572,0.32987127,-0.83344734,-0.56985754,-0.70235866,0.7272397,-0.4681428,0.04261497,0.49689725,0.6016653,-1.1188537,-2.2528186,-0.7617586,1.9183033,1.9022818,-0.9400589,0.6702949,-1.0714924,-2.195238,-0.8210974,1.9584187,1.9001036,-0.9880976,-1.4741789,-0.9812767,-1.2651646,1.3318154,-0.6726962,0.19924293,0.17471412,-0.35500336,-0.56165695,0.716455,-1.3565375,0.3772949,-0.52590364,-0.30871582,-0.574131,0.66171277,0.95342976,-0.04676577,0.2293916,0.19016875,-1.4190112,0.3215798,-0.59677637,0.0,1.0,0.0,0.0,0.0,0.0,0.0,-0.29499662,0.16165695,-0.16645497,-1.0565042,-7.46994,0.19025803,-2.6541233,-1.2740135,-3.6670656,3.81248
-5.3177023,46.990486,7.9418736,8.706815,0.715528,-0.0353958,0.31949374,-0.82945174,-0.58492416,-0.7094389,0.71609306,-0.44586158,-0.06616416,0.52954626,0.5873497,-1.1299849,-2.266182,-0.74948806,1.9138325,1.8934871,-0.935143,0.6555034,-1.0817215,-2.207894,-0.80800563,1.9517448,1.9017864,-0.98607796,-1.4810143,-1.0371051,-1.2642627,1.3019345,-0.6667261,0.15722315,0.21088447,-0.36846542,-0.557827,0.7107707,-1.3403951,0.38582,-0.57850504,-0.3229332,-0.57086563,0.65543324,0.9550735,-0.039171923,0.23354483,0.17820472,-1.419329,0.34023938,-0.63935494,0.0,1.0,0.0,0.0,0.0,0.0,0.0,-0.28153455,0.15782699,-0.16077071,-0.7490635,-5.7087183,0.53896904,-2.8828144,0.12500286,-4.449022,3.5525918
