Afshin1997/kuka_rl_ros2/src/catch_and_throw/input_files/idealpd/recorded_trajectories/env_172_data.csv
torque0,torque1,torque2,torque3,torque4,torque5,torque6,action0,action1,action2,action3,action4,action5,action6,set_target_0,set_target_1,set_target_2,set_target_3,set_target_4,set_target_5,set_target_6,joint_pos_0,joint_pos_1,joint_pos_2,joint_pos_3,joint_pos_4,joint_pos_5,joint_pos_6,joint_vel_0,joint_vel_1,joint_vel_2,joint_vel_3,joint_vel_4,joint_vel_5,joint_vel_6,tennisball_pos_0,tennisball_pos_1,tennisball_pos_2,tennisball_lin_vel_0,tennisball_lin_vel_1,tennisball_lin_vel_2,end_effector_pos_0,end_effector_pos_1,end_effector_pos_2,end_effector_rot_0,end_effector_rot_1,end_effector_rot_2,end_effector_rot_3,end_effector_lin_vel_0,end_effector_lin_vel_1,end_effector_lin_vel_2,obs_task_0,obs_task_1,obs_task_2,obs_task_3,obs_task_4,obs_task_5,obs_task_6,to_final_target_0,to_final_target_1,to_final_target_2,joint_acc_0,joint_acc_1,joint_acc_2,joint_acc_3,joint_acc_4,joint_acc_5,joint_acc_6
0.0,0.0,0.0,0.0,0.0,0.0,0.0,0.0,0.0,0.0,0.0,0.0,0.0,0.0,1.7802359,-1.0646509,-1.8151424,-1.1170107,1.9373155,1.1170107,-0.91629785,1.7802359,-1.0646509,-1.8151424,-1.1170107,1.9373155,1.1170107,-0.91629785,0.0,0.0,0.0,0.0,0.0,0.0,0.0,3.2223492,-0.6995621,0.31241864,-3.0251398,0.3073172,5.3981476,0.5304146,-0.45449448,0.693097,0.5745483,0.17512383,0.15255436,0.7848268,0.0,0.0,0.0,1.0,0.0,0.0,0.0,0.0,0.0,0.0,-3.8723493,0.29956207,0.23758137,0.0,0.0,0.0,0.0,0.0,0.0,0.0
0.0,0.0,0.0,0.0,0.0,0.0,0.0,0.0,0.0,0.0,0.0,0.0,0.0,0.0,1.7802359,-1.0646509,-1.8151424,-1.1170107,1.9373155,1.1170107,-0.91629785,1.7802359,-1.0646509,-1.8151424,-1.1170107,1.9373155,1.1170107,-0.91629785,0.0,0.0,0.0,0.0,0.0,0.0,0.0,3.2223492,-0.6995621,0.31241864,-3.0251398,0.3073172,5.3981476,0.5304146,-0.45449448,0.693097,0.5745483,0.17512383,0.15255436,0.7848268,0.0,0.0,0.0,1.0,0.0,0.0,0.0,0.0,0.0,0.0,-3.8723493,0.29956207,0.23758137,0.0,0.0,0.0,0.0,0.0,0.0,0.0
0.0,0.0,0.0,0.0,0.0,0.0,0.0,0.0,0.0,0.0,0.0,0.0,0.0,0.0,1.7802359,-1.0646509,-1.8151424,-1.1170107,1.9373155,1.1170107,-0.91629785,1.7802359,-1.0646509,-1.8151424,-1.1170107,1.9373155,1.1170107,-0.91629785,0.0,0.0,0.0,0.0,0.0,0.0,0.0,3.2223492,-0.6995621,0.31241864,-3.0251398,0.3073172,5.3981476,0.5304146,-0.45449448,0.693097,0.5745483,0.17512383,0.15255436,0.7848268,0.0,0.0,0.0,1.0,0.0,0.0,0.0,0.0,0.0,0.0,-3.8723493,0.29956207,0.23758137,0.0,0.0,0.0,0.0,0.0,0.0,0.0
-176.0,64.146576,-7.3115616,110.0,11.55032,4.713636,-3.6299627,-0.81846035,0.32138082,-0.5240151,0.72707033,0.50190425,0.65204746,-0.6089154,1.6983899,-1.0325128,-1.8675439,-1.0443037,1.9875059,1.1822155,-0.9771894,1.7788378,-1.0623621,-1.8211391,-1.1122233,1.943522,1.1224676,-0.91839975,-0.18630712,0.3043939,-0.79887974,0.6384837,0.82649255,0.725379,-0.27957577,3.1921215,-0.69649124,0.36562318,-3.0221155,0.30700994,5.2945642,0.5281868,-0.45790482,0.69389975,0.57853186,0.17372349,0.15062605,0.7825808,-0.29702678,-0.45457992,0.10671183,1.0,0.0,0.0,0.0,0.0,0.0,0.0,-3.8421216,0.29649124,0.18437684,-18.556782,30.229628,-79.699425,63.94561,82.35459,71.89697,-27.755112
-176.0,-17.69343,-38.03907,110.0,12.115365,1.9546072,-2.850045,-0.797022,-0.1198972,-0.49256217,0.687418,0.541968,0.64929044,-0.5987954,1.6991355,-1.0743518,-1.8703953,-1.0434815,1.9977188,1.1873966,-0.9782793,1.7768809,-1.059358,-1.8356559,-1.0984026,1.954926,1.1354681,-0.91969484,-0.19643024,0.29749727,-1.6709421,1.6329951,1.244976,1.4854506,-0.07609052,3.1619244,-0.6934242,0.41779268,-3.019094,0.306703,5.191085,0.5232582,-0.46647644,0.6949515,0.58697414,0.17040801,0.14632034,0.7778256,-0.5593494,-0.99025625,0.105211616,1.0,0.0,0.0,0.0,0.0,0.0,0.0,-3.8119245,0.29342422,0.13220733,-0.314492,-1.1771619,-87.701675,100.41201,41.819645,74.16255,21.37354
-153.91286,121.95012,34.74695,93.17099,8.269352,8.028021,-1.7977853,-0.7848945,0.35349587,0.06263689,0.63780105,0.5657935,0.6849906,-0.5672667,1.6983914,-1.0240084,-1.8293922,-1.0346226,2.0115054,1.2039672,-0.97642154,1.7716013,-1.0553793,-1.850394,-1.0803229,1.9676919,1.150149,-0.92068094,-0.63876545,0.42782426,-1.4009961,1.8673522,1.2822788,1.454809,-0.10804694,3.1317577,-0.6903572,0.46892816,-3.0160754,0.30639637,5.0877085,0.5153351,-0.47785187,0.6978255,0.5982507,0.165405,0.1406831,0.7713271,-0.87843055,-1.1800213,0.35216695,1.0,0.0,0.0,0.0,0.0,0.0,0.0,-3.7817578,0.2903572,0.08107185,-44.301067,11.987221,29.06971,23.770714,2.2237062,-5.310464,-3.759329
-97.47156,112.15514,41.113194,56.52087,4.9678054,7.5057907,-0.3937166,-0.7862815,0.17339979,0.11625974,0.6306482,0.57379246,0.65543455,-0.59746563,1.6929731,-1.0380393,-1.838768,-1.017258,2.0250711,1.2156924,-0.9804275,1.7620245,-1.0511125,-1.8599327,-1.0623137,1.9797616,1.1637598,-0.92209715,-1.065039,0.4238969,-0.79741234,1.779111,1.1769633,1.3255291,-0.1550934,3.1016178,-0.6872978,0.51903063,-3.01306,0.30609003,4.9844356,0.50478745,-0.48994446,0.70271844,0.6105262,0.15903535,0.13398944,0.764207,-1.1252285,-1.2071867,0.5395537,1.0,0.0,0.0,0.0,0.0,0.0,0.0,-3.751618,0.28729782,0.030969381,-42.958164,-1.1049271,62.626778,-8.684373,-12.0660305,-14.178395,-5.373782
-38.353783,127.65006,51.16406,29.100004,1.8290322,6.764909,0.33768812,-0.79654694,0.2946274,0.14322771,0.61431056,0.6322144,0.6546132,-0.5950521,1.6823698,-1.0216498,-1.8456099,-1.0008826,2.042983,1.2292211,-0.9816024,1.749005,-1.0465635,-1.8632686,-1.0463969,1.9906888,1.1759382,-0.9240188,-1.3824898,0.463601,-0.17249405,1.528626,1.0610129,1.1802009,-0.20720781,3.0715084,-0.68423843,0.5681011,-3.0100477,0.305784,4.881266,0.49245262,-0.5013313,0.7093179,0.62255603,0.15150361,0.12656492,0.75726604,-1.2830474,-1.1015589,0.7025332,1.0,0.0,0.0,0.0,0.0,0.0,0.0,-3.7215085,0.28423843,-0.018101096,-32.181976,3.4541845,64.4387,-25.205374,-12.714887,-15.02645,-5.987987
1.8539019,124.542274,48.917343,11.8023815,-0.28092107,4.9653225,0.4764812,-0.80719465,0.3819735,0.12367924,0.6039944,0.6471107,0.6446339,-0.60120904,1.6682855,-1.0083661,-1.8509007,-0.98599744,2.0554,1.2404016,-0.9841397,1.7338911,-1.0412763,-1.8618438,-1.0330187,2.0006738,1.1867911,-0.9264173,-1.5555156,0.5494573,0.25164607,1.2734802,0.9759398,1.0537803,-0.25291333,3.0414295,-0.68118286,0.61614066,-3.007038,0.30547827,4.7781997,0.47917366,-0.5112953,0.7171915,0.6338612,0.14314944,0.1189956,0.75071174,-1.3544582,-0.94734925,0.8155349,1.0,0.0,0.0,0.0,0.0,0.0,0.0,-3.6914296,0.28118286,-0.06614065,-17.672825,8.231842,43.708057,-25.740551,-9.083736,-12.64286,-5.244532
27.674656,131.52771,48.55284,3.7302234,-1.725956,3.7062604,0.31685054,-0.8118243,0.5326825,0.09813254,0.56129235,0.66545826,0.6428188,-0.59056777,1.6527086,-0.9880081,-1.8520305,-0.9768895,2.0672195,1.2510729,-0.98547405,1.7179323,-1.0344938,-1.8579471,-1.0218416,2.0101228,1.1965414,-0.9292087,-1.6105659,0.72035164,0.43858403,1.0650581,0.9335996,0.94947064,-0.2899043,3.0113811,-0.6781311,0.66315037,-3.0040317,0.30517286,4.675236,0.4656391,-0.51953506,0.7260627,0.64442575,0.13425647,0.11197892,0.7444134,-1.3635246,-0.7686708,0.90929765,1.0,0.0,0.0,0.0,0.0,0.0,0.0,-3.6613812,0.2781311,-0.11315036,-5.8386087,16.807247,19.577085,-21.050953,-4.4708014,-10.207868,-4.3096123
33.588596,123.387474,42.40453,2.4534845,-2.0535479,2.5508509,0.06853167,-0.82050836,0.607783,0.07483538,0.54641956,0.6645784,0.6463778,-0.577134,1.6358815,-0.9737155,-1.8504636,-0.9671997,2.0765805,1.2611792,-0.9869221,1.7019335,-1.0258383,-1.8535545,-1.0121485,2.0193543,1.2053915,-0.93230337,-1.5970749,0.91315323,0.44122943,0.93673015,0.91912806,0.8643377,-0.31757283,2.9813633,-0.67507935,0.70913124,-3.0010283,0.30486774,4.572376,0.45222664,-0.5261421,0.73567975,0.6544671,0.12507878,0.10596762,0.738105,-1.3413917,-0.6101283,0.9765838,1.0,0.0,0.0,0.0,0.0,0.0,0.0,-3.6313634,0.27507934,-0.15913123,1.0821581,19.078362,0.83821416,-12.988353,-1.503098,-8.263898,-3.2411516
33.13107,107.839226,35.30494,1.928062,-1.9073122,1.6838193,-0.023697402,-0.8185024,0.64490557,0.08268072,0.5091676,0.66734946,0.65083766,-0.5722936,1.6200832,-0.9613477,-1.8452864,-0.9612317,2.0860894,1.2704753,-0.9895327,1.6863047,-1.0154699,-1.849757,-1.0033365,2.028563,1.2135092,-0.935625,-1.5522057,1.0774912,0.36054742,0.8620689,0.9215144,0.79483044,-0.338307,2.951376,-0.6720352,0.7540843,-2.9980278,0.30456293,4.4696183,0.43912125,-0.5313835,0.7457591,0.66415083,0.115831725,0.10104169,0.73162645,-1.3056056,-0.48009503,1.0157092,1.0,0.0,0.0,0.0,0.0,0.0,0.0,-3.601376,0.2720352,-0.20408428,4.2752028,16.299736,-7.666731,-7.630527,0.25277138,-6.726837,-2.4493277
24.355408,91.71918,28.499105,5.0740547,-1.2539461,1.202286,-0.12980601,-0.81759626,0.67719513,0.06671433,0.5183588,0.66644496,0.6555145,-0.56085813,1.6045451,-0.9477504,-1.8430855,-0.95150065,2.0952075,1.2790606,-0.99171084,1.6711413,-1.0037969,-1.846978,-0.9948393,2.0378404,1.2210242,-0.93910974,-1.5048059,1.1969061,0.25128913,0.8450292,0.9300668,0.73747283,-0.352902,2.9214191,-0.6689911,0.79801047,-2.9950304,0.30425844,4.3669634,0.4263134,-0.53560257,0.7560884,0.6736415,0.10663465,0.09704389,0.7248576,-1.276778,-0.38829195,1.0361124,1.0,0.0,0.0,0.0,0.0,0.0,0.0,-3.5714192,0.26899108,-0.24801046,4.5845747,11.853242,-10.649866,-1.8741727,0.9095907,-5.604315,-1.7582238
17.779005,77.21707,23.108177,6.1700783,-0.77788085,0.8809341,-0.11894131,-0.8138811,0.69846267,0.04740711,0.49326473,0.6713485,0.6564656,-0.56084543,1.5897532,-0.93395066,-1.8422372,-0.94551283,2.1049752,1.2866707,-0.9951943,1.6563727,-0.991279,-1.8452289,-0.98640025,2.0472245,1.2280413,-0.94271463,-1.4677992,1.2699497,0.15035266,0.842823,0.94138813,0.6900907,-0.3639932,2.8914928,-0.6659508,0.8409109,-2.992036,0.30395424,4.264411,0.4137287,-0.5391083,0.76648015,0.6830058,0.097571954,0.09374567,0.7177705,-1.2548469,-0.32170606,1.0379313,1.0,0.0,0.0,0.0,0.0,0.0,0.0,-3.541493,0.26595077,-0.2909109,3.5691023,7.245159,-9.863255,-0.42294264,1.200068,-4.6444774,-1.3750732
14.560238,68.39527,20.44354,6.205081,-0.47970206,0.778031,-0.034786947,-0.80904925,0.71369576,0.047644112,0.46436843,0.67846686,0.65885043,-0.56736857,1.5754677,-0.9199094,-1.8404645,-0.9399634,2.1150713,1.2939264,-0.9994515,1.6418768,-0.9783014,-1.844218,-0.9780375,2.056727,1.2346483,-0.9464187,-1.4440308,1.3070065,0.08537345,0.8333272,0.953573,0.65131617,-0.3733995,2.8615932,-0.6629143,0.88278663,-2.9890447,0.30365035,4.161961,0.40132523,-0.5420189,0.7768141,0.6922069,0.08867144,0.09091054,0.710438,-1.2380847,-0.26664436,1.029641,1.0,0.0,0.0,0.0,0.0,0.0,0.0,-3.5115933,0.26291427,-0.33278662,2.2485256,3.6624193,-6.2528667,-1.1761189,1.2781501,-3.7911296,-1.2012899
13.277351,63.35075,19.08298,5.880997,-0.33698088,0.7349848,0.04703496,-0.8029212,0.72498685,0.038984213,0.4422077,0.68094426,0.6675701,-0.55863065,1.5615847,-0.9058027,-1.8403196,-0.93381673,2.1248214,1.3014053,-1.0022818,1.6275431,-0.9651207,-1.8436267,-0.96985877,2.0663362,1.2409292,-0.9501981,-1.4302838,1.3216391,0.051291764,0.81187975,0.9637067,0.62046564,-0.3802812,2.8317242,-0.6598778,0.9236386,-2.986056,0.30334675,4.0596137,0.3890667,-0.54441833,0.78702,0.701181,0.07992756,0.088363394,0.7029571,-1.2235315,-0.21618834,1.015436,1.0,0.0,0.0,0.0,0.0,0.0,0.0,-3.4817243,0.25987777,-0.37363857,1.2431622,1.429534,-3.1378434,-2.3848653,1.0666728,-2.9910564,-0.9515047
14.936453,62.00178,19.07978,4.5140686,-0.39182767,0.7142763,0.1531174,-0.7983815,0.7357345,0.042143926,0.39963824,0.69185567,0.66014767,-0.558263,1.5477049,-0.8915472,-1.8394123,-0.9298949,2.1355217,1.306944,-1.0060244,1.6132971,-0.95186365,-1.8431652,-0.9620749,2.076056,1.2469393,-0.9540357,-1.4233648,1.3269652,0.045406807,0.7663889,0.9747856,0.5949211,-0.3858221,2.8018856,-0.6568489,0.96346784,-2.9830706,0.30304345,3.957369,0.3769703,-0.54628754,0.79706043,0.7098343,0.071336,0.085995205,0.6954504,-1.2058092,-0.16225813,0.99814165,1.0,0.0,0.0,0.0,0.0,0.0,0.0,-3.4518857,0.2568489,-0.41346782,0.54855347,0.5055189,-0.28007254,-4.8000336,1.1498094,-2.430296,-0.82458854
15.7318535,62.288563,19.214815,4.103695,-0.4623856,0.70616364,0.19366314,-0.796254,0.7471778,0.036580004,0.37020132,0.68631583,0.67103267,-0.547637,1.5336717,-0.8771459,-1.8395071,-0.9250547,2.1446877,1.3140426,-1.0087994,1.5990855,-0.93855226,-1.8426788,-0.95483553,2.0858445,1.2527376,-0.95791334,-1.4208419,1.3323905,0.050823268,0.70895755,0.98071027,0.57522684,-0.38924223,2.7720776,-0.65382004,1.0022753,-2.9800882,0.30274048,3.8552268,0.36506844,-0.547596,0.8069262,0.71811706,0.06287655,0.083787456,0.68799275,-1.1854376,-0.10570466,0.9805538,1.0,0.0,0.0,0.0,0.0,0.0,0.0,-3.4220777,0.25382003,-0.45227534,0.103735924,0.52125454,0.8590393,-5.9927106,0.63940287,-1.8262744,-0.60964227
17.4873,61.424618,18.927286,2.5739412,-0.62439203,0.6061046,0.25941226,-0.800347,0.75103134,0.0423297,0.30758965,0.68988276,0.6696011,-0.547114,1.5190507,-0.8634491,-1.8384458,-0.92407656,2.1548328,1.3196977,-1.0126247,1.5848566,-0.9251884,-1.8420761,-0.9483601,2.0956826,1.2583681,-0.96181864,-1.4240232,1.3376656,0.06442106,0.62615764,0.98499686,0.55964655,-0.39173988,2.7423,-0.650795,1.0400622,-2.9771087,0.3024378,3.7531867,0.35341644,-0.5483055,0.8165797,0.7259727,0.054570258,0.08174716,0.68066376,-1.1585647,-0.045825604,0.9579081,1.0,0.0,0.0,0.0,0.0,0.0,0.0,-3.3923001,0.25079498,-0.49006218,-0.47416687,0.517416,1.6818516,-8.535278,0.4786849,-1.3688207,-0.5087018
27.986263,62.89801,20.288172,-3.864605,-1.3272989,0.4021876,0.49800676,-0.79524636,0.7607432,0.0839513,0.16263063,0.6867958,0.66954887,-0.53496784,1.505332,-0.8491141,-1.833681,-0.932097,2.1643622,1.325323,-1.0153154,1.5706087,-0.9117397,-1.8411491,-0.9432503,2.105536,1.2638727,-0.9657354,-1.425375,1.3473133,0.10350789,0.4716254,0.98609734,0.5484743,-0.39255276,2.712551,-0.64777374,1.0768294,-2.974132,0.30213544,3.6512487,0.34221077,-0.54825974,0.8259285,0.73320335,0.046497833,0.0799267,0.6736932,-1.1063691,0.034091745,0.92477626,1.0,0.0,0.0,0.0,0.0,0.0,0.0,-3.3625512,0.24777374,-0.5268294,-0.3070116,0.9753227,4.265091,-15.728068,0.15708208,-0.7836938,-0.34527183
37.723793,64.01716,21.409307,-9.969976,-1.9664507,0.15298024,0.7280806,-0.79478294,0.77212054,0.1269823,0.008607984,0.6971203,0.66524905,-0.5181048,1.4911305,-0.8345277,-1.8284509,-0.9423895,2.175248,1.3303976,-1.0175458,1.5563551,-0.8981527,-1.8396595,-0.9402071,2.1154275,1.2692858,-0.9696445,-1.4257753,1.3625168,0.16522193,0.2476499,0.9901481,0.5406255,-0.39113805,2.6828308,-0.6447525,1.112578,-2.9711587,0.30183336,3.5494123,0.33171272,-0.5472946,0.8348684,0.73958075,0.038769245,0.07836721,0.6673649,-1.028771,0.12953195,0.88080806,1.0,0.0,0.0,0.0,0.0,0.0,0.0,-3.332831,0.2447525,-0.562578,-0.20596981,1.5590191,6.5084815,-22.664568,0.47301054,-0.31188726,-0.099653006
47.2211,63.594875,22.091618,-15.937156,-2.5547428,-0.16313523,0.9460788,-0.78756636,0.7767328,0.1829532,-0.16389228,0.69868755,0.6629715,-0.5011614,1.4775984,-0.82047945,-1.8213642,-0.9565964,2.1852963,1.335583,-1.0197606,1.5421396,-0.8844131,-1.8373783,-0.9398514,2.125361,1.2746397,-0.97352403,-1.4205786,1.377976,0.24970025,-0.035921175,0.99488026,0.5356532,-0.38750044,2.653141,-0.6417389,1.1473091,-2.9681883,0.30153158,3.4476779,0.32217598,-0.5452881,0.8432831,0.744903,0.03150202,0.07710016,0.6619536,-0.9254037,0.23588067,0.8249725,1.0,0.0,0.0,0.0,0.0,0.0,0.0,-3.303141,0.24173889,-0.59730905,0.39539337,1.619029,8.698383,-28.583208,0.589478,0.10870695,0.17015934
47.81888,65.11768,22.900532,-14.831422,-2.449889,-0.19704331,0.9455771,-0.7765202,0.7849133,0.2418762,-0.24704638,0.6966627,0.6617649,-0.48353016,1.4644877,-0.8059218,-1.8131907,-0.96455604,2.1950274,1.3408163,-1.021877,1.5280329,-0.8705162,-1.8341339,-0.94217455,2.1353326,1.2799517,-0.9773521,-1.4076064,1.3939836,0.34965232,-0.2983398,0.9986885,0.53181994,-0.38174963,2.6234818,-0.6387253,1.1810235,-2.9652207,0.3012301,3.346045,0.31367302,-0.5422287,0.85119796,0.7491499,0.024674755,0.076086804,0.65755326,-0.8210794,0.33767968,0.7764756,1.0,0.0,0.0,0.0,0.0,0.0,0.0,-3.2734818,0.23872527,-0.63102347,1.2396097,1.7014503,10.080492,-26.39004,0.59291124,0.21877289,0.44090748
46.503185,66.2886,23.774685,-12.309311,-2.140442,-0.14146239,0.9245823,-0.76260674,0.7847048,0.32738385,-0.33773693,0.70512974,0.6547862,-0.46801457,1.4517722,-0.7920457,-1.8013955,-0.9759483,2.2058456,1.3454304,-1.0241536,1.5141131,-0.8564991,-1.829705,-0.946838,2.1453652,1.2852255,-0.9811134,-1.3866414,1.404759,0.47367263,-0.52268374,1.0057441,0.5279087,-0.37453696,2.593853,-0.6357155,1.2137223,-2.962256,0.30092892,3.244514,0.30615997,-0.53819656,0.8587164,0.7523714,0.018178083,0.07520551,0.65417963,-0.72323006,0.4325282,0.7390845,1.0,0.0,0.0,0.0,0.0,0.0,0.0,-3.243853,0.23571548,-0.66372234,2.1017075,1.2020826,12.3211975,-22.514248,1.0217905,0.18876791,0.6331384
39.991318,69.32672,24.894928,-5.541791,-1.483619,0.13051316,0.7717291,-0.74435776,0.79042447,0.4068612,-0.35317755,0.698102,0.64727104,-0.42058083,1.4396772,-0.77745664,-1.7890189,-0.9821558,2.2151754,1.3499526,-1.0231714,1.5004622,-0.84238756,-1.8239257,-0.95311224,2.1554437,1.2904555,-0.98477167,-1.3576683,1.4138213,0.61203194,-0.66247064,1.0100846,0.52310914,-0.36317897,2.5642529,-0.6327095,1.2454066,-2.9592943,0.30062807,3.1430843,0.29944992,-0.5333023,0.8660372,0.7547114,0.011799285,0.07431968,0.6517269,-0.6471334,0.51552165,0.7247552,1.0,0.0,0.0,0.0,0.0,0.0,0.0,-3.214253,0.2327095,-0.6954066,2.9429436,1.0525703,13.594044,-14.014959,0.8677006,0.026488304,1.0730147
29.349342,68.40552,24.02727,2.130959,-0.70066476,0.3554166,0.55190617,-0.74072057,0.7904392,0.46495324,-0.353099,0.698639,0.64544517,-0.3848427,1.4263902,-0.76334363,-1.7774304,-0.98842216,2.2253075,1.355,-1.023256,1.4870707,-0.82821596,-1.8168056,-0.96016943,2.1655564,1.2956358,-0.9882974,-1.3329661,1.4188131,0.7444279,-0.7202996,1.0134757,0.51774675,-0.34918067,2.5346813,-0.6297035,1.2760774,-2.9563358,0.3003275,3.041756,0.2932911,-0.52770233,0.8733441,0.7563883,0.0053389673,0.07332152,0.6499786,-0.5989746,0.58007455,0.72704357,1.0,0.0,0.0,0.0,0.0,0.0,0.0,-3.1846814,0.22970352,-0.7260774,2.5153637,0.65784454,12.91765,-5.820167,0.82826614,-0.12155771,1.3478637
22.406963,64.153,21.92008,5.7639246,-0.31555042,0.321527,0.4118445,-0.7346325,0.7890231,0.5046561,-0.38395926,0.69881153,0.63569283,-0.3477563,1.4136075,-0.74931365,-1.76634,-0.9985654,2.2354376,1.3592051,-1.0230731,1.4738833,-0.8140253,-1.8085277,-0.967528,2.175696,1.300757,-0.99166673,-1.3139653,1.4196348,0.8543069,-0.74118936,1.015511,0.5115058,-0.3329295,2.5051403,-0.62670517,1.3057357,-2.95338,0.30002725,2.940529,0.28751564,-0.5215683,0.88068444,0.7575681,-0.0012566827,0.07219254,0.6487505,-0.56442904,0.6301163,0.73025584,1.0,0.0,0.0,0.0,0.0,0.0,0.0,-3.1551404,0.22670516,-0.7557357,1.9357204,0.2424717,10.660494,-2.1416068,0.6793022,-0.2608776,1.5792727
13.889198,60.25703,19.652884,10.59772,0.14883757,0.3455815,0.21879333,-0.7311175,0.7914988,0.5278351,-0.35070497,0.6919592,0.6401892,-0.30268824,1.4007715,-0.7348754,-1.7557442,-1.0025985,2.244892,1.364776,-1.0219356,1.4608332,-0.7998308,-1.7993953,-0.97473586,2.1858277,1.3058211,-0.9948539,-1.3021439,1.419933,0.9318995,-0.714215,1.0136343,0.50571835,-0.31408516,2.4756298,-0.6237068,1.3343824,-2.9504273,0.2997273,2.8394034,0.28194427,-0.5150528,0.8880866,0.7584322,-0.0080216965,0.07096655,0.6478271,-0.54765874,0.6641042,0.7372524,1.0,0.0,0.0,0.0,0.0,0.0,0.0,-3.12563,0.22370681,-0.7843824,1.1880636,0.19304752,7.44859,2.612245,0.26779175,-0.28420687,1.8384218
7.731514,53.471313,16.208145,11.930975,0.3062864,0.16664743,0.09477422,-0.7461362,0.7924537,0.52870536,-0.3697552,0.6947097,0.6504584,-0.29800236,1.3862196,-0.7205854,-1.7465248,-1.0117114,2.2552986,1.3708669,-1.0246542,1.4477736,-0.7856344,-1.7897842,-0.9816853,2.1959405,1.3108393,-0.9978656,-1.3072711,1.4200597,0.9702607,-0.68893725,1.0114138,0.50134957,-0.29689372,2.446146,-0.6207123,1.3620187,-2.9474773,0.29942763,2.7383788,0.27649117,-0.5083008,0.8954802,0.7591248,-0.014879172,0.069733076,0.6470281,-0.5374082,0.6846497,0.73359615,1.0,0.0,0.0,0.0,0.0,0.0,0.0,-3.096146,0.22071227,-0.8120187,-0.54872036,0.16565323,3.6006927,2.4087906,0.16410351,-0.18540621,1.6830206
4.3815417,49.223167,14.126634,12.677549,0.39037144,0.03329228,0.026494423,-0.752489,0.7937613,0.53550553,-0.36106232,0.6946091,0.64445204,-0.25524452,1.3725247,-0.7062583,-1.7362336,-1.0177915,2.2654014,1.3752846,-1.02339,1.4345957,-0.7714323,-1.7799785,-0.988382,2.2060266,1.3158137,-1.0006918,-1.3214533,1.42081,0.9834456,-0.6637248,1.0089662,0.49692443,-0.27794367,2.4166927,-0.61772156,1.3886455,-2.9445302,0.29912826,2.6374552,0.27111244,-0.5014,0.9027932,0.75973046,-0.021743517,0.068572395,0.6462466,-0.53014886,0.696967,0.72389054,1.0,0.0,0.0,0.0,0.0,0.0,0.0,-3.0666928,0.21772155,-0.8386455,-1.4820099,0.22199154,1.1312366,2.3798943,0.10113716,-0.21653771,1.8637359
2.2138457,46.048744,12.651972,13.214113,0.44049084,-0.0670607,-0.030001923,-0.7621579,0.79417896,0.53461784,-0.34488586,0.6885855,0.6451734,-0.24005824,1.35838,-0.6920144,-1.7265167,-1.0228705,2.2748852,1.380331,-1.0246975,1.4212328,-0.7572206,-1.770169,-0.9948193,2.2160707,1.320748,-1.0033354,-1.3415549,1.4217056,0.9796804,-0.6376189,1.0043595,0.49300966,-0.2599189,2.38727,-0.61473083,1.4142638,-2.9415865,0.2988292,2.5366325,0.26579666,-0.4944191,0.9099806,0.7603121,-0.02856274,0.067540765,0.6454053,-0.5246719,0.7036717,0.7103234,1.0,0.0,0.0,0.0,0.0,0.0,0.0,-3.03727,0.21473083,-0.86426383,-2.0949364,0.23167133,-0.5278468,2.4522066,-0.14369488,-0.18578172,1.7732501
3.3303823,43.69486,11.926574,11.935226,0.343163,-0.21280032,-0.0036128424,-0.7678904,0.7911414,0.5373801,-0.3512493,0.69208497,0.64701366,-0.2152125,1.3444438,-0.6781065,-1.716431,-1.0299442,2.285279,1.3854493,-1.0248566,1.4076735,-0.7430166,-1.760432,-1.001092,2.226088,1.3256499,-1.0057997,-1.3610911,1.4204338,0.971081,-0.624356,1.0016505,0.4899493,-0.24201714,2.3578777,-0.61174774,1.4388747,-2.9386456,0.29853043,2.4359107,0.26057243,-0.48738098,0.9169915,0.7608678,-0.035282258,0.066657975,0.6445092,-0.51410514,0.70923716,0.6911661,1.0,0.0,0.0,0.0,0.0,0.0,0.0,-3.0078778,0.21174774,-0.8888747,-2.0374775,0.008201599,-0.9868264,1.1660099,0.020480156,-0.09482503,1.7600566
3.3234491,43.268005,12.126276,12.953988,0.45435756,-0.20380175,-0.013265245,-0.76554817,0.7865874,0.5425036,-0.30490595,0.6893848,0.6475208,-0.16711582,1.3311187,-0.66435784,-1.7061816,-1.0315826,2.2950265,1.390402,-1.0225112,1.3939787,-0.7288488,-1.7507598,-1.0070829,2.2360787,1.330525,-1.0080694,-1.372617,1.4160147,0.96540385,-0.59125197,0.9991459,0.48739436,-0.22196594,2.3285122,-0.60876465,1.4624791,-2.9357076,0.29823196,2.3352895,0.25543022,-0.4802971,0.92384666,0.7614002,-0.04193477,0.06589266,0.64355993,-0.5062045,0.7131159,0.67684644,1.0,0.0,0.0,0.0,0.0,0.0,0.0,-2.9785123,0.20876464,-0.9124791,-1.2293577,-0.30312538,-0.70968866,3.14579,0.051164627,-0.0551939,1.9650608
-2.4848137,41.959015,11.5614195,18.019287,0.96950287,-0.013278127,-0.15765885,-0.77981293,0.7820018,0.5313287,-0.20933162,0.68705475,0.6517209,-0.14006113,1.3159974,-0.65064865,-1.697627,-1.0280161,2.3047843,1.3956971,-1.0220755,1.3801504,-0.714744,-1.7411792,-1.0123396,2.2460427,1.3353792,-1.010137,-1.3864815,1.4090711,0.95517594,-0.50448114,0.9967408,0.485103,-0.20184368,2.2991772,-0.60578156,1.4850781,-2.9327724,0.2979338,2.2347689,0.25022125,-0.4732437,0.9306558,0.7620143,-0.048652057,0.06517068,0.64243275,-0.5175528,0.7079452,0.6754726,1.0,0.0,0.0,0.0,0.0,0.0,0.0,-2.9491773,0.20578155,-0.9350781,-1.4930487,-0.5479574,-1.175487,8.482063,0.08891821,-0.08996129,1.9599915
-2.2009935,38.338898,10.162527,16.53519,0.8640112,-0.18242182,-0.14953113,-0.7954595,0.77519536,0.5126407,-0.227813,0.68500876,0.6573996,-0.15230629,1.3006045,-0.63722444,-1.6899152,-1.0351208,2.3145437,1.4011192,-1.0253676,1.3661467,-0.70073164,-1.7317684,-1.0168886,2.2559838,1.3402163,-1.0120329,-1.405444,1.3990107,0.93596727,-0.4391597,0.9938886,0.4837667,-0.18563858,2.2698727,-0.6028061,1.5066726,-2.92984,0.2976359,2.1343486,0.2449379,-0.46624756,0.93738496,0.7627408,-0.05540193,0.06449821,0.64109045,-0.52398306,0.70037067,0.66534054,1.0,0.0,0.0,0.0,0.0,0.0,0.0,-2.9198728,0.20280609,-0.9566726,-2.0086288,-0.87270737,-2.0309687,6.33353,0.0059962273,0.007265806,1.5695006
4.87688,38.969833,10.800001,10.967548,0.26659024,-0.47194242,0.014095604,-0.79388773,0.77781725,0.51390636,-0.27990055,0.68438756,0.64802337,-0.1370341,1.286758,-0.6229499,-1.6803777,-1.0448787,2.3244226,1.4050186,-1.0257363,1.351998,-0.68679273,-1.7225177,-1.0212202,2.2658944,1.345038,-1.0137743,-1.4184221,1.3926363,0.9211078,-0.43170688,0.99107486,0.48236194,-0.17064206,2.2405949,-0.5998306,1.5272636,-2.9269106,0.29733834,2.034029,0.23976135,-0.45925522,0.943914,0.7634643,-0.06204153,0.06395509,0.63967407,-0.5071727,0.7030252,0.6421277,1.0,0.0,0.0,0.0,0.0,0.0,0.0,-2.890595,0.19983062,-0.9772636,-1.3772488,-0.5195141,-1.5612006,0.58576465,-0.03681183,0.058078766,1.4563978
9.1438265,40.641087,11.850765,8.381443,-0.03764075,-0.5890192,0.12155594,-0.7931106,0.778227,0.51887006,-0.27958247,0.68552786,0.6535736,-0.082922325,1.272687,-0.60897005,-1.6706307,-1.0491785,2.3344471,1.4103954,-1.0220665,1.3377692,-0.672891,-1.7133491,-1.0256605,2.275786,1.3498541,-1.015344,-1.4245318,1.3897231,0.9153257,-0.44854012,0.9892622,0.48203927,-0.15261109,2.2113476,-0.596859,1.5468522,-2.9239845,0.29704106,1.9338094,0.2348423,-0.4521942,0.95018554,0.7640715,-0.06850113,0.0635793,0.63832587,-0.4784147,0.71287,0.6156581,1.0,0.0,0.0,0.0,0.0,0.0,0.0,-2.8613477,0.19685897,-0.9968522,-0.6663799,-0.17650127,-0.6505251,-1.8146455,0.053203106,0.19454956,1.7631412
9.49867,42.79331,13.047258,9.627628,0.022382021,-0.50282514,0.13426019,-0.7928483,0.7788488,0.52768826,-0.24045537,0.6826429,0.65159017,-0.015780183,1.2584844,-0.5950061,-1.6605803,-1.0497061,2.3440502,1.4150131,-1.016922,1.3235193,-0.658996,-1.7041557,-1.0301409,2.2856584,1.3546664,-1.0167001,-1.4253542,1.3898413,0.9204303,-0.44841528,0.98741823,0.48162585,-0.13006431,2.1821308,-0.59389114,1.5654395,-2.9210613,0.29674408,1.83369,0.23018837,-0.4449997,0.956253,0.76452327,-0.074838586,0.063348554,0.6370952,-0.45242226,0.72605664,0.5972477,1.0,0.0,0.0,0.0,0.0,0.0,0.0,-2.832131,0.19389114,-1.0154395,-0.13272762,0.13401508,0.4146576,-0.10750294,0.076425076,0.17433763,2.2133887
11.0163965,40.22945,12.233612,7.5062428,-0.11964178,-0.68791187,0.18899202,-0.7974141,0.76974547,0.52475107,-0.28510916,0.68605304,0.6516168,-0.0066923103,1.243778,-0.5820214,-1.6516806,-1.0586518,2.3542638,1.419828,-1.0173694,1.3092619,-0.6451334,-1.6949031,-1.0348005,2.295527,1.3594748,-1.0178427,-1.4260951,1.3855083,0.92673653,-0.47233236,0.98718446,0.48147032,-0.10900374,2.1529408,-0.5909233,1.583026,-2.918141,0.2964474,1.7336707,0.22584915,-0.4376831,0.96207464,0.7647826,-0.081004664,0.06325868,0.6360378,-0.4186762,0.73765177,0.5706226,1.0,0.0,0.0,0.0,0.0,0.0,0.0,-2.8029408,0.1909233,-1.033026,-0.11150837,-0.3173828,0.5513549,-2.5055826,0.20823479,0.21737218,2.0679162
11.124514,41.02327,12.873258,8.271179,-0.06716794,-0.6494808,0.21803565,-0.7947078,0.7703617,0.5422134,-0.27286512,0.6850735,0.64837676,0.09477836,1.2297912,-0.56809723,-1.6406817,-1.062087,2.3640344,1.4243125,-1.0083648,1.295014,-0.6313089,-1.6855114,-1.0396318,2.3053918,1.3642813,-1.01872,-1.4243743,1.3818436,0.9429347,-0.48711386,0.9872747,0.48097104,-0.08081701,2.1237812,-0.5879631,1.5996132,-2.9152234,0.296151,1.6337514,0.22183609,-0.43022537,0.96766573,0.7648151,-0.08701629,0.06329188,0.6352009,-0.3867684,0.7508264,0.5486884,1.0,0.0,0.0,0.0,0.0,0.0,0.0,-2.7737813,0.1879631,-1.0496132,0.13816357,-0.24547577,1.5249968,-1.584065,0.25862455,0.1751244,2.7805686
10.449917,40.595093,12.936042,9.214758,0.021189094,-0.627141,0.22550383,-0.7939341,0.76736915,0.5532039,-0.26669133,0.6826267,0.64861166,0.18606113,1.2156206,-0.554572,-1.630191,-1.066301,2.3736544,1.4291425,-1.000114,1.2807909,-0.6175264,-1.6759212,-1.0445356,2.3152528,1.3690802,-1.0192693,-1.4219251,1.3774804,0.96384716,-0.4917598,0.98662335,0.48044458,-0.046534553,2.0946522,-0.5850029,1.6152021,-2.9123087,0.29585493,1.533932,0.21811676,-0.42264557,0.97306246,0.76460505,-0.09291203,0.06342257,0.6346053,-0.35789862,0.7634377,0.53002906,1.0,0.0,0.0,0.0,0.0,0.0,0.0,-2.7446523,0.1850029,-1.065202,0.20873547,-0.31158924,1.9879818,-0.5704522,0.19744635,0.16158819,3.3893971
12.258638,39.665936,12.627008,7.0365367,-0.19821382,-0.7909084,0.2809821,-0.79445714,0.7664231,0.56120145,-0.31766227,0.6776452,0.64633644,0.21917044,1.2013452,-0.5408841,-1.619801,-1.0763018,2.3830173,1.4337138,-0.9973523,1.2665869,-0.60378206,-1.6661212,-1.0496798,2.3250947,1.3738753,-1.0194792,-1.4199868,1.3738056,0.9850245,-0.5220775,0.9838249,0.47988057,-0.012606972,2.0655499,-0.5820465,1.6297934,-2.909397,0.29555914,1.4342123,0.21475792,-0.41493225,0.9782188,0.7641195,-0.09863455,0.06368623,0.6343,-0.319825,0.7771749,0.5042206,1.0,0.0,0.0,0.0,0.0,0.0,0.0,-2.71555,0.1820465,-1.0797935,0.17251968,-0.24831295,2.028489,-3.1200647,-0.04352331,0.17388463,3.362012
11.315089,38.27096,12.194326,7.7907662,-0.11351228,-0.80850744,0.26875958,-0.79200083,0.7618505,0.5711639,-0.3084657,0.67284745,0.6442147,0.29320976,1.1873869,-0.527597,-1.6090049,-1.0805264,2.3923795,1.4382967,-0.9901582,1.2524058,-0.5900854,-1.6561153,-1.0550623,2.3348947,1.3786627,-1.0193304,-1.4173987,1.3687718,1.0054256,-0.54414785,0.97925705,0.47910258,0.024095397,2.036478,-0.57909393,1.6433884,-2.906488,0.29526365,1.3345923,0.21175575,-0.40709305,0.98312914,0.76335895,-0.10417376,0.06409217,0.63428944,-0.28421697,0.7883569,0.47983852,1.0,0.0,0.0,0.0,0.0,0.0,0.0,-2.6864781,0.17909393,-1.0933883,0.23560524,-0.38113594,1.944983,-2.2991896,-0.21630526,0.14103055,3.6402187
10.524228,36.06493,11.326926,7.9993496,-0.056730628,-0.88155174,0.2472884,-0.7887845,0.757227,0.5715338,-0.31780136,0.6720091,0.6445952,0.33171803,1.1735274,-0.5143627,-1.598962,-1.0868424,2.4020956,1.4431223,-0.9861586,1.2382628,-0.57644975,-1.6459587,-1.0606489,2.3446488,1.3834425,-1.0188211,-1.4134521,1.3621861,1.0187229,-0.5636891,0.9747927,0.47834226,0.059867945,2.0074348,-0.57614136,1.6559879,-2.9035819,0.29496846,1.235072,0.20911026,-0.39916992,0.9877862,0.7623436,-0.1095174,0.064642936,0.6345545,-0.24925111,0.79548097,0.45425326,1.0,0.0,0.0,0.0,0.0,0.0,0.0,-2.657435,0.17614135,-1.1059878,0.37288666,-0.5360365,1.2355566,-2.0511985,-0.21561384,0.13487339,3.5486712
10.335843,32.13776,9.6604805,6.4002676,-0.11502832,-1.073389,0.24712458,-0.79319304,0.7467727,0.5713475,-0.36633176,0.6685497,0.64538074,0.32318774,1.1589434,-0.50177246,-1.5888239,-1.097282,2.4115038,1.4479806,-0.98650235,1.2241331,-0.5629171,-1.6357219,-1.066596,2.3543534,1.3882147,-1.017999,-1.412973,1.3506445,1.0249189,-0.6052235,0.9697418,0.4777801,0.08975921,1.9784203,-0.5731964,1.6675929,-2.9006789,0.29467353,1.1356512,0.20684624,-0.39121628,0.99212074,0.76109535,-0.114575796,0.06535709,0.6350864,-0.20932011,0.7964685,0.41973346,1.0,0.0,0.0,0.0,0.0,0.0,0.0,-2.6284204,0.1731964,-1.1175928,0.034999847,-1.0406971,0.54798126,-4.2512894,-0.31220913,0.15536547,2.96361
9.989335,31.897514,9.59177,6.8223505,-0.08972168,-1.0940174,0.23456748,-0.7905811,0.7482513,0.5767655,-0.37359878,0.6694151,0.6411797,0.36824057,1.1450751,-0.48809198,-1.5780454,-1.1039559,2.421295,1.4523327,-0.981175,1.2100092,-0.549477,-1.6254394,-1.072938,2.3640237,1.3929812,-1.0168813,-1.4122212,1.342189,1.029215,-0.644114,0.9663276,0.4768038,0.11912138,1.9494362,-0.57025146,1.6782044,-2.897779,0.2943789,1.0363299,0.20498085,-0.38325882,0.99612135,0.75962996,-0.11932419,0.06624171,0.6358743,-0.16999751,0.7968843,0.38676468,1.0,0.0,0.0,0.0,0.0,0.0,0.0,-2.5994363,0.17025146,-1.1282043,0.05953312,-0.72944164,0.35676956,-3.9828777,-0.1478076,0.10290146,2.9158263
10.396399,30.88287,9.210596,6.2013783,-0.13332087,-1.1879725,0.2360194,-0.7838952,0.74325436,0.5747094,-0.40357873,0.6679955,0.64098215,0.37732986,1.1316197,-0.47515154,-1.5679685,-1.1132958,2.4308233,1.4570794,-0.9791484,1.1959215,-0.5361179,-1.6151454,-1.0797129,2.3736634,1.3977381,-1.0154966,-1.4075893,1.3342067,1.0293679,-0.6890347,0.96360236,0.4758875,0.14501078,1.9204788,-0.56731033,1.6878234,-2.894882,0.29408458,0.93710774,0.20353317,-0.37530518,0.9997761,0.7579567,-0.12373653,0.06730612,0.6369151,-0.12749268,0.795756,0.35158917,1.0,0.0,0.0,0.0,0.0,0.0,0.0,-2.570479,0.16731033,-1.1378233,0.46424866,-0.68290234,-0.06291866,-4.5770764,-0.092327595,0.10523796,2.572033
8.682621,28.842749,8.484368,7.6291447,0.031383514,-1.1727825,0.1835014,-0.78239614,0.735057,0.5713237,-0.40256217,0.66046077,0.63794285,0.39271748,1.117682,-0.4626122,-1.5580131,-1.1199691,2.4397094,1.4615324,-0.97622484,1.1818854,-0.5228523,-1.6048763,-1.0868311,2.3832612,1.4024817,-1.0138716,-1.4023322,1.3243716,1.0257832,-0.71964407,0.9588792,0.47455284,0.16823609,1.891552,-0.564373,1.6964511,-2.8919878,0.29379055,0.83798486,0.20247078,-0.36738586,1.0031013,0.7561134,-0.12782732,0.06853627,0.6381657,-0.090443976,0.79075587,0.31943494,1.0,0.0,0.0,0.0,0.0,0.0,0.0,-2.541552,0.16437301,-1.146451,0.51534176,-0.8648157,-0.43861866,-3.1604052,-0.28675795,0.042891502,2.3029537
8.5473175,28.124308,8.3082695,7.712062,0.04430318,-1.1986969,0.17813863,-0.7785923,0.73126733,0.5729217,-0.42862892,0.6590394,0.64281917,0.40250817,1.1040261,-0.44972557,-1.547584,-1.129694,2.449165,1.4667636,-0.9736207,1.1679102,-0.50968206,-1.5946395,-1.094264,2.3928132,1.4072176,-1.0120348,-1.3959222,1.3150109,1.0227731,-0.7513453,0.9544147,0.4737603,0.18869658,1.8626537,-0.5614357,1.7040881,-2.8890965,0.29349682,0.73896104,0.2017765,-0.35951614,1.0061052,0.7541192,-0.1316049,0.06992254,0.6396055,-0.053227972,0.785195,0.2873843,1.0,0.0,0.0,0.0,0.0,0.0,0.0,-2.5126538,0.1614357,-1.154088,0.63488483,-0.81670284,-0.38352013,-3.265214,-0.263834,0.088238716,2.0288646
7.597759,27.357626,8.172411,8.805177,0.147133,-1.1634693,0.15122408,-0.7769248,0.72679806,0.57500577,-0.43380708,0.65666664,0.6373409,0.4142918,1.0902177,-0.43700224,-1.5371389,-1.1376448,2.45848,1.4709517,-0.9706056,1.1539923,-0.49660146,-1.5844162,-1.1019468,2.4023232,1.4119421,-1.0100092,-1.3904049,1.3061624,1.0219483,-0.7743203,0.9502758,0.47246477,0.20695269,1.8337841,-0.558506,1.7107357,-2.886208,0.29320338,0.6400362,0.20142937,-0.35170746,1.0088127,0.7519938,-0.1350939,0.071446955,0.6412101,-0.0197757,0.7789173,0.25849834,1.0,0.0,0.0,0.0,0.0,0.0,0.0,-2.4837842,0.158506,-1.1607356,0.5321264,-0.7619858,-0.16348362,-2.3981094,-0.22153854,0.022745132,1.8094778
6.485774,26.450293,7.916208,10.061577,0.25674444,-1.1236435,0.10839653,-0.77408653,0.723742,0.57008094,-0.43350166,0.65279126,0.64121425,0.41002008,1.0765836,-0.42422727,-1.527408,-1.145297,2.4676023,1.4760635,-0.96900713,1.1401259,-0.4835981,-1.5742157,-1.1097765,2.4117875,1.4166571,-1.0078291,-1.3854334,1.2987764,1.0192454,-0.78617454,0.94594616,0.4715134,0.22180057,1.804945,-0.5555763,1.7163948,-2.8833225,0.29291025,0.54121035,0.20139122,-0.34396744,1.0112567,0.7497728,-0.13833192,0.0730962,0.64293236,0.009449137,0.77169514,0.23300779,1.0,0.0,0.0,0.0,0.0,0.0,0.0,-2.454945,0.15557632,-1.1663947,0.4589796,-0.6121874,-0.3447771,-1.2946725,-0.2329588,0.04130006,1.4693677
6.213348,23.887777,6.878852,9.193077,0.24525386,-1.2237804,0.113149256,-0.7734104,0.71269685,0.5658938,-0.46917588,0.64546645,0.6429714,0.4113186,1.0627848,-0.41232842,-1.5176263,-1.156694,2.476334,1.4809542,-0.9666972,1.1262976,-0.47069728,-1.5640571,-1.1178255,2.4211984,1.4213625,-1.0055174,-1.3819062,1.2875513,1.0144855,-0.81153977,0.9396221,0.47083458,0.23410705,1.7761326,-0.55264664,1.7210664,-2.8804398,0.2926174,0.4424833,0.20165825,-0.3363304,1.0134084,0.7474694,-0.14128064,0.07486978,0.64476645,0.041129973,0.7606283,0.20256953,1.0,0.0,0.0,0.0,0.0,0.0,0.0,-2.4261327,0.15264663,-1.1710663,0.32799244,-1.0033846,-0.54113865,-2.6419163,-0.4565835,0.06146431,1.2142718
5.822803,23.727037,7.0652857,10.101093,0.3207503,-1.1804938,0.10423247,-0.76901865,0.71029085,0.571201,-0.46537924,0.6475092,0.6399772,0.42205513,1.0493957,-0.3996682,-1.506937,-1.1643634,2.4859493,1.4853603,-0.96331185,1.1125132,-0.45789993,-1.5539157,-1.126071,2.4305596,1.4260603,-1.0030912,-1.3775336,1.2775648,1.0138285,-0.82939994,0.935515,0.4698938,0.24532752,1.7473507,-0.5497246,1.7247514,-2.87756,0.29232484,0.34385496,0.20222473,-0.32878494,1.0152808,0.7450883,-0.14395276,0.07675139,0.64670724,0.07003615,0.7503563,0.17550814,1.0,0.0,0.0,0.0,0.0,0.0,0.0,-2.3973508,0.14972457,-1.1747513,0.40254593,-0.87559223,-0.13229847,-1.892376,-0.2233386,0.024670362,1.1078537
6.1957064,21.523031,6.0582194,8.227317,0.23718226,-1.335609,0.12991959,-0.76997733,0.70001954,0.56561637,-0.51878464,0.6499142,0.6369788,0.40115583,1.0355154,-0.38789797,-1.4973541,-1.1779494,2.495551,1.4897583,-0.9629756,1.0987593,-0.4452237,-1.5437953,-1.1346884,2.439898,1.4307486,-1.000583,-1.3747727,1.2646403,1.011204,-0.87278944,0.9335046,0.4687503,0.2526226,1.7185955,-0.5468025,1.7274508,-2.874683,0.29203257,0.24532524,0.2031269,-0.321373,1.0168211,0.7426251,-0.14627168,0.07873949,0.6487777,0.1049277,0.7361517,0.14036427,1.0,0.0,0.0,0.0,0.0,0.0,0.0,-2.3685956,0.14680251,-1.1774509,0.27339458,-1.1799812,-0.32351017,-4.42822,-0.049877167,-8.34465e-05,0.7177055
6.079631,20.056837,5.36593,7.46474,0.18828559,-1.4165504,0.12762333,-0.76852506,0.6938151,0.55913395,-0.54871607,0.63650763,0.63789594,0.38939783,1.0219067,-0.37584218,-1.4878819,-1.1895599,2.5035489,1.4945382,-0.9616433,1.0850283,-0.43267906,-1.5337265,-1.1438265,2.449183,1.4354254,-0.99802285,-1.3724588,1.2514119,1.0051365,-0.9279094,0.9273146,0.46770415,0.25713417,1.6898708,-0.5438843,1.7291658,-2.8718088,0.2917406,0.14689401,0.20440483,-0.31411362,1.0179807,0.7400891,-0.1481694,0.08086093,0.6509803,0.14268686,0.71982104,0.10123446,1.0,0.0,0.0,0.0,0.0,0.0,0.0,-2.339871,0.14388427,-1.1791658,0.24645329,-1.2150764,-0.66690445,-5.591452,-0.48846006,-0.0016987324,0.44082403
4.8944325,18.215939,4.926366,8.910297,0.35010052,-1.350017,0.10619429,-0.7600439,0.6809145,0.55913794,-0.54516906,0.62363595,0.6479119,0.41918272,1.0090239,-0.3645876,-1.4778126,-1.1983434,2.5115466,1.5002166,-0.9561046,1.0713526,-0.42029512,-1.5237129,-1.1534033,2.4583764,1.4401003,-0.99540406,-1.3659738,1.2343961,0.9996913,-0.96794194,0.9167689,0.4676454,0.2633997,1.6611729,-0.54096985,1.7298971,-2.8689375,0.29144892,0.0485612,0.20601273,-0.30703354,1.0187776,0.7374914,-0.1496776,0.08309906,0.6532973,0.17472348,0.7018182,0.06598165,1.0,0.0,0.0,0.0,0.0,0.0,0.0,-2.311173,0.14096984,-1.1798971,0.6569624,-1.5901089,-0.61591864,-4.0976763,-0.908947,0.08086562,0.61060786
2.4776378,13.069768,2.7936018,9.698032,0.59063655,-1.3743008,0.05833158,-0.76275146,0.6590926,0.54272103,-0.56995404,0.6155312,0.6484822,0.41950303,0.99507743,-0.35438585,-1.4694408,-1.2103987,2.5199294,1.5049485,-0.9534538,1.0577208,-0.4081496,-1.5138175,-1.1633615,2.4674478,1.4447752,-0.99272805,-1.3620437,1.2082602,0.98593926,-1.0054666,0.90428525,0.4675861,0.2688543,1.6325054,-0.5380554,1.729646,-2.866069,0.29115754,-0.0496733,0.207901,-0.30020142,1.0192102,0.7348771,-0.15079373,0.085425,0.6556824,0.20065035,0.6745984,0.029248025,1.0,0.0,0.0,0.0,0.0,0.0,0.0,-2.2825055,0.13805541,-1.179646,0.39498806,-2.5108576,-1.4312029,-3.8697004,-1.121974,0.057798624,0.5197406
1.7749344,11.089183,2.2078726,10.284758,0.69521546,-1.3647238,0.05088022,-0.7505152,0.6425816,0.5375611,-0.5870862,0.6002765,0.64332646,0.42280513,0.98266923,-0.34389144,-1.4600614,-1.2220702,2.5274754,1.5091078,-0.95044756,1.0441729,-0.39630115,-1.5040691,-1.1736593,2.4763665,1.4494444,-0.99000245,-1.352248,1.1774153,0.9707135,-1.0383888,0.88827175,0.4669273,0.27376783,1.6038666,-0.5351486,1.7284131,-2.8632035,0.29086643,-0.1478096,0.21003342,-0.2936554,1.0192835,0.7322629,-0.15152276,0.087811336,0.6581193,0.22395404,0.64507157,-0.006310433,1.0,0.0,0.0,0.0,0.0,0.0,0.0,-2.2538667,0.13514861,-1.1784132,0.9965658,-2.9830933,-1.596868,-3.4140348,-1.4742613,-0.014537573,0.46150684
0.6703713,9.685407,1.8559477,11.704393,0.8496667,-1.292083,0.027722422,-0.746196,0.6279869,0.52885336,-0.5905908,0.5934829,0.64545846,0.44376087,0.9695533,-0.33350247,-1.4511838,-1.2327183,2.5357149,1.5139903,-0.9456264,1.0307299,-0.38476646,-1.4944828,-1.1842031,2.4851289,1.4541079,-0.9872177,-1.3415028,1.1458038,0.95426714,-1.0602676,0.8730535,0.46633184,0.27996352,1.5752563,-0.5322418,1.7261996,-2.8603408,0.29057562,-0.24584776,0.21235847,-0.2873993,1.0190301,0.72966295,-0.15190235,0.09023083,0.66058755,0.24177182,0.6145309,-0.037822388,1.0,0.0,0.0,0.0,0.0,0.0,0.0,-2.2252564,0.13224182,-1.1761997,1.0696411,-3.058672,-1.7103791,-2.3216724,-1.3853788,-0.024467707,0.5892992
1.4824353,9.970716,2.2025118,10.887041,0.773731,-1.3179761,0.0717192,-0.73664206,0.61047214,0.53199047,-0.6313741,0.5856192,0.6443794,0.4380388,0.9570657,-0.32371923,-1.4412837,-1.2473406,2.5436907,1.5185459,-0.94341385,1.0174185,-0.3735522,-1.4850109,-1.1950674,2.49375,1.4587656,-0.9843796,-1.3273836,1.1136229,0.9446736,-1.0955409,0.8589204,0.4656593,0.28494495,1.5466747,-0.52933884,1.7230065,-2.857481,0.2902851,-0.3437879,0.21489143,-0.28144455,1.018442,0.72705036,-0.15191732,0.09266514,0.66312295,0.26302063,0.5859436,-0.071706355,1.0,0.0,0.0,0.0,0.0,0.0,0.0,-2.1966748,0.12933883,-1.1730065,1.4406681,-3.1176329,-1.0496616,-3.640008,-1.2809992,-0.03824234,0.47354698
1.089904,10.394847,2.6078687,12.388351,0.8325741,-1.2272859,0.045699585,-0.7259396,0.6006317,0.5195762,-0.62222064,0.56911594,0.6354452,0.44518968,0.9448246,-0.31348902,-1.4330533,-1.2572894,2.5506618,1.5223101,-0.93986064,1.0042692,-0.3626231,-1.4756496,-1.2061777,2.502215,1.46341,-0.9814928,-1.3105577,1.0863318,0.93311125,-1.1165501,0.8427425,0.46407124,0.28983784,1.5181217,-0.52643967,1.7188348,-2.854624,0.2899949,-0.44163015,0.21761322,-0.27575684,1.017555,0.72442675,-0.15160805,0.09511693,0.66571283,0.2807452,0.56035745,-0.10010228,1.0,0.0,0.0,0.0,0.0,0.0,0.0,-2.1681218,0.12643966,-1.1688347,1.6798735,-2.622795,-1.2345672,-2.2206783,-1.4677644,-0.14125109,0.46814084
0.9036341,8.067472,2.226971,12.472852,0.88837826,-1.2004726,0.08598687,-0.70193374,0.5624822,0.52633023,-0.6417392,0.52782094,0.63113475,0.46726674,0.9340759,-0.30637488,-1.4230165,-1.2703516,2.554997,1.5265235,-0.9347662,0.99136984,-0.3520621,-1.4663436,-1.2175055,2.5104241,1.4680353,-0.97854596,-1.282854,1.0463886,0.9292184,-1.138538,0.8140683,0.46209475,0.29612112,1.4895973,-0.5235405,1.7136853,-2.85177,0.28970495,-0.5393746,0.22050667,-0.27031708,1.0163789,0.7217596,-0.15100291,0.097570576,0.66838694,0.29718152,0.5340172,-0.12898618,1.0,0.0,0.0,0.0,0.0,0.0,0.0,-2.1395974,0.12354049,-1.1636853,2.8153658,-3.890419,-0.52301884,-2.3180962,-2.71039,-0.18488169,0.60089827
-0.89306724,2.7475352,0.19877052,12.454657,1.077663,-1.2223977,0.081062004,-0.6886149,0.52029294,0.5172705,-0.6681558,0.49751094,0.6180089,0.45797464,0.92250836,-0.30003282,-1.4146166,-1.2843211,2.5601752,1.5298362,-0.9327485,0.9787699,-0.3420242,-1.457093,-1.2291117,2.5182862,1.472632,-0.9755505,-1.2521024,0.98992664,0.92324114,-1.1685088,0.7774525,0.45881304,0.3006827,1.4611015,-0.52064514,1.7075591,-2.8489187,0.2894153,-0.6370213,0.22353935,-0.265213,1.0148863,0.7190476,-0.15007226,0.0999932,0.6711558,0.3093941,0.4995052,-0.16138077,1.0,0.0,0.0,0.0,0.0,0.0,0.0,-2.1111016,0.120645136,-1.1575592,3.159666,-5.5554748,-0.7603407,-3.1249046,-3.5241485,-0.3343463,0.41870475
-2.3854213,-1.3623126,-1.3247988,12.715819,1.2402195,-1.216785,0.077679664,-0.66840863,0.47980785,0.50907105,-0.68772185,0.46347335,0.60228914,0.46398452,0.911929,-0.29404342,-1.4061859,-1.2978839,2.5646336,1.532861,-0.929152,0.96650755,-0.33264434,-1.4479263,-1.2410536,2.5257325,1.4771849,-0.97251016,-1.2171776,0.920941,0.91382337,-1.2031564,0.7342443,0.45404136,0.30493206,1.4326324,-0.5177536,1.7004572,-2.8460703,0.28912595,-0.73457044,0.22666168,-0.26049042,1.0130547,0.71629745,-0.14878425,0.10235375,0.6740215,0.3174851,0.45922074,-0.19544044,1.0,0.0,0.0,0.0,0.0,0.0,0.0,-2.0826325,0.117753595,-1.1504571,3.6056519,-6.8184614,-1.1289835,-3.5985708,-4.196584,-0.50302744,0.38126707
-8.650087,-18.685791,-8.193573,13.767256,2.051332,-1.2511392,0.035907336,-0.6139284,0.357078,0.47055072,-0.6995659,0.3922866,0.5871114,0.4781099,0.9051147,-0.29693654,-1.4008712,-1.3110101,2.5649612,1.5358961,-0.9246992,0.9547783,-0.3243941,-1.4390247,-1.2533274,2.5326066,1.4816805,-0.96942407,-1.1573753,0.7931671,0.88108915,-1.235983,0.6718199,0.4477567,0.30947375,1.4041939,-0.51486206,1.6923805,-2.8432248,0.28883687,-0.8320221,0.2297306,-0.2564125,1.0108404,0.7135477,-0.14708963,0.10449544,0.6769749,0.30643114,0.3881413,-0.2347758,1.0,0.0,0.0,0.0,0.0,0.0,0.0,-2.054194,0.114862055,-1.1423805,6.223917,-12.7365,-3.5776854,-3.4689903,-6.1640024,-0.6951988,0.3674388
-22.22007,-53.103783,-22.55788,16.857347,3.841115,-1.3149431,-0.12825787,-0.5266469,0.1458588,0.36385283,-0.6912134,0.31612304,0.5548444,0.46757105,0.9021136,-0.30980822,-1.4026394,-1.3224487,2.564219,1.5371649,-0.92266697,0.94397604,-0.3182429,-1.4309375,-1.2658052,2.53871,1.4860884,-0.96630937,-1.0530441,0.55560434,0.7831344,-1.2528094,0.5895846,0.4379406,0.31158304,1.375782,-0.51197815,1.68333,-2.840382,0.28854808,-0.92937624,0.23237419,-0.2535286,1.0081812,0.7109552,-0.14489686,0.106043056,0.67992824,0.25264388,0.25123543,-0.28028783,1.0,0.0,0.0,0.0,0.0,0.0,0.0,-2.025782,0.11197814,-1.1333301,10.856009,-23.796535,-10.246038,-1.9660473,-8.242965,-1.141727,0.049048662
-47.03141,-117.61914,-52.310223,18.693333,6.733016,-1.9501334,-0.52816665,-0.2643428,-0.22462952,-0.028759835,-0.66865695,0.051559065,0.47296962,0.45737627,0.91754174,-0.34070587,-1.4338135,-1.3326709,2.543866,1.5333854,-0.92057174,0.9353243,-0.31591594,-1.4256103,-1.2782621,2.543303,1.4903322,-0.9631937,-0.800006,0.124342844,0.44711515,-1.2444632,0.41488546,0.41833356,0.31045762,1.3474007,-0.50909424,1.6733068,-2.8375423,0.2882596,-1.026633,0.23404121,-0.25303268,1.0048566,0.70894074,-0.14190973,0.10656683,0.6825746,0.13992462,-0.019629912,-0.35245073,1.0,0.0,0.0,0.0,0.0,0.0,0.0,-1.9974006,0.10909423,-1.1233068,26.069307,-43.335052,-34.24761,0.49693584,-17.752922,-2.3631394,-0.43491125
-36.789665,-118.96161,-49.296665,13.072824,5.957093,-2.296581,-0.033776343,0.3093931,-0.49856895,-0.26628932,-0.6266569,-0.41697708,0.42419115,0.47443283,0.96626365,-0.36577284,-1.4522393,-1.3409278,2.5016053,1.5327513,-0.91575044,0.9316317,-0.31863534,-1.4245327,-1.2903738,2.544909,1.4943472,-0.96007615,-0.22435178,-0.40470588,-0.006740349,-1.2003596,0.07571382,0.3945014,0.31119788,1.319046,-0.50621414,1.6623118,-2.8347054,0.2879714,-1.1237926,0.23487282,-0.25515747,1.0007281,0.70719147,-0.13817874,0.10605754,0.6852289,0.06291511,-0.27777025,-0.43398157,1.0,0.0,0.0,0.0,0.0,0.0,0.0,-1.969046,0.106214136,-1.1123118,57.97876,-53.118706,-45.81904,4.3090105,-34.06034,-2.8464317,-0.20160079
-27.38546,-100.5472,-40.10794,12.045113,5.053218,-2.1034217,0.16483915,0.511754,-0.6583014,-0.40853342,-0.60312915,-0.5147251,0.4928986,0.43563893,0.9828071,-0.3844655,-1.465386,-1.3506867,2.4934366,1.543637,-0.91651225,0.9340178,-0.32639062,-1.4278781,-1.3019285,2.5431542,1.4981924,-0.95697194,0.3901743,-0.8999228,-0.4414526,-1.1402097,-0.25943533,0.37942448,0.30981675,1.29072,-0.50333786,1.6503459,-2.8318713,0.2876835,-1.2208551,0.23512268,-0.25958252,0.995815,0.7053616,-0.13390806,0.10459995,0.6881805,0.01073863,-0.49529794,-0.5109736,1.0,0.0,0.0,0.0,0.0,0.0,0.0,-1.94072,0.103337854,-1.1003458,60.63506,-49.755466,-42.759506,6.1216593,-33.572834,-2.014351,-0.23927689
-16.28075,-67.868256,-27.659014,8.796889,3.5809562,-2.0237136,0.19963655,0.59560776,-0.73878634,-0.52944386,-0.64270085,-0.49113628,0.56279653,0.35146502,0.99357855,-0.40026927,-1.4808226,-1.3661987,2.4940407,1.5544721,-0.92182547,0.9416071,-0.33815038,-1.4349906,-1.3131533,2.5387483,1.5019633,-0.9539383,0.8770832,-1.2687426,-0.7968752,-1.1158684,-0.5014496,0.3744849,0.30143836,1.2624226,-0.5004616,1.6374102,-2.82904,0.28739586,-1.3178205,0.23511505,-0.2657814,0.99012315,0.7033562,-0.12912436,0.10239042,0.6914717,-0.0038932555,-0.65844065,-0.5905083,1.0,0.0,0.0,0.0,0.0,0.0,0.0,-1.9124225,0.10046157,-1.0874102,47.230495,-37.10971,-34.21762,2.6419878,-24.249823,-1.0078251,-0.7941246
-3.8247905,-28.680088,-11.64262,7.578593,2.1768844,-1.7233558,0.2235058,0.64740306,-0.7765601,-0.5570639,-0.65714127,-0.3428893,0.59371173,0.23324998,1.0063474,-0.4158064,-1.490697,-1.3788674,2.5044594,1.5613344,-0.9306133,0.95272505,-0.35245073,-1.4446399,-1.3243494,2.533072,1.5057303,-0.9510706,1.1860188,-1.4844393,-1.0172892,-1.1203723,-0.59012216,0.37615576,0.28226116,1.2341537,-0.4975891,1.6235055,-2.8262117,0.2871085,-1.414689,0.23516083,-0.273098,0.9837441,0.7011372,-0.12384293,0.09953012,0.69509953,0.010782685,-0.75445116,-0.65812665,1.0,0.0,0.0,0.0,0.0,0.0,0.0,-1.8841537,0.097589105,-1.0735054,29.676174,-21.75107,-20.970226,-0.274992,-8.919001,-0.23403168,-1.7890394
5.191152,3.5304666,1.9772966,8.443983,1.4892535,-1.3377676,0.23306346,0.66304773,-0.78932846,-0.55448323,-0.6736703,-0.029991915,0.58523995,0.15885326,1.0190299,-0.43138358,-1.5000882,-1.3917165,2.5300727,1.5642543,-0.93518525,0.96567404,-0.36791456,-1.4555252,-1.3357592,2.5279984,1.509524,-0.9484413,1.3294823,-1.5674176,-1.1107163,-1.1475209,-0.4797174,0.3797011,0.2570582,1.2059135,-0.49472046,1.6086328,-2.8233862,0.28682145,-1.5114605,0.23539925,-0.2810135,0.9768539,0.6986777,-0.11807541,0.0958219,0.6990892,0.035284296,-0.7997012,-0.705766,1.0,0.0,0.0,0.0,0.0,0.0,0.0,-1.8559135,0.09472045,-1.0586329,13.816333,-8.425832,-8.918166,-2.6160479,10.960168,0.120174885,-2.3468494
16.03509,33.7523,17.162172,8.837982,0.67243093,-0.86091876,0.44641152,0.6793369,-0.7839572,-0.44636607,-0.7150252,0.25097665,0.5211614,0.17006314,1.0336077,-0.44631028,-1.5001618,-1.4072617,2.553096,1.5616401,-0.931435,0.97923625,-0.38351238,-1.4662006,-1.3476477,2.5251412,1.5133158,-0.94603616,1.3653585,-1.5574178,-1.0536281,-1.2026423,-0.22100712,0.37888387,0.23571584,1.1777,-0.4918518,1.5927931,-2.8205636,0.2865347,-1.6081353,0.2359581,-0.28894806,0.96966803,0.69576937,-0.11188243,0.09097726,0.70364076,0.070851415,-0.78696275,-0.73054606,1.0,0.0,0.0,0.0,0.0,0.0,0.0,-1.8277,0.0918518,-1.042793,3.6311865,0.9417057,5.5496693,-5.5263042,25.830523,-0.11784434,-1.9168466
16.7019,45.22283,22.137352,11.4511595,0.037151873,-0.49304938,0.36389005,0.63923603,-0.7710927,-0.42326388,-0.7274481,0.1987659,0.45688015,0.24701968,1.0431598,-0.46062165,-1.5085269,-1.4203925,2.5450177,1.5590038,-0.9213342,0.99251044,-0.3986429,-1.4758918,-1.3600893,2.524588,1.5170542,-0.94376546,1.3162994,-1.4983177,-0.9424388,-1.2580487,-4.8191145e-05,0.37241295,0.22463088,1.1495152,-0.48899078,1.5759873,-2.8177438,0.28624824,-1.7047136,0.23685837,-0.29652023,0.9623364,0.6923909,-0.10538329,0.08524591,0.7086764,0.10549469,-0.7436061,-0.74181217,1.0,0.0,0.0,0.0,0.0,0.0,0.0,-1.7995151,0.08899078,-1.0259874,-4.440856,5.8851957,10.6013775,-5.55532,22.063103,-0.56884885,-0.9636462
11.572547,40.613045,18.548561,13.375432,0.04939854,-0.47237855,0.15356022,0.63912255,-0.77228844,-0.47875232,-0.7379915,0.18148474,0.4006092,0.2593895,1.0564227,-0.47587174,-1.5237671,-1.4338884,2.5427365,1.5571151,-0.91782653,1.0051352,-0.41315305,-1.4847839,-1.3730059,2.5257287,1.5206839,-0.9415768,1.2462976,-1.4353402,-0.873254,-1.302723,0.15169485,0.36011723,0.21724984,1.1213589,-0.48612976,1.5582165,-2.8149264,0.28596205,-1.8011953,0.23805237,-0.30373383,0.9548812,0.6887295,-0.09860388,0.07902534,0.7139214,0.13266517,-0.70830876,-0.75401336,1.0,0.0,0.0,0.0,0.0,0.0,0.0,-1.7713588,0.086129755,-1.0082164,-6.4763784,6.2663555,6.4038754,-4.4262886,15.121614,-1.1740625,-0.65585077
7.2411284,33.856487,14.548645,14.857801,-0.13198274,-0.46259475,0.0023311153,0.6497114,-0.7740135,-0.5082536,-0.728296,0.012400674,0.40477166,0.32717013,1.0701063,-0.4905544,-1.5356092,-1.4458355,2.5269687,1.561161,-0.9088598,1.0171801,-0.4271649,-1.4933746,-1.386178,2.527392,1.5241972,-0.9394005,1.191919,-1.3899609,-0.85562783,-1.3216239,0.17104472,0.3483987,0.21784125,1.0932312,-0.48327255,1.5394816,-2.8121119,0.28567615,-1.8975805,0.23951149,-0.3106346,0.9472735,0.6849631,-0.09162097,0.072837,0.71911466,0.15717375,-0.6784077,-0.7695869,1.0,0.0,0.0,0.0,0.0,0.0,0.0,-1.7432312,0.08327255,-0.9894816,-5.0219297,4.490185,1.3810277,-1.8139362,1.8602878,-1.175642,0.07458925
3.817554,27.703672,10.761231,15.289489,-0.43580085,-0.49737257,-0.1291022,0.6431393,-0.7685305,-0.54382116,-0.72613937,-0.21437791,0.41943377,0.34417647,1.081494,-0.50401795,-1.5477567,-1.458792,2.505954,1.5661407,-0.90498286,1.0288149,-0.44086063,-1.5021598,-1.3994017,2.528212,1.5276133,-0.9371994,1.1551334,-1.3630246,-0.8870992,-1.3222831,0.051938333,0.3389692,0.22065288,1.0651321,-0.48041916,1.5197836,-2.8093002,0.28539053,-1.9938694,0.24122429,-0.3172531,0.9394578,0.68124425,-0.08453347,0.06726295,0.72404146,0.18296258,-0.6516338,-0.79174817,1.0,0.0,0.0,0.0,0.0,0.0,0.0,-1.7151321,0.08041915,-0.9697836,-3.3660173,2.6303768,-3.4186006,0.037264824,-12.01788,-1.0172904,0.23419261
4.93993,25.775059,10.394515,14.585495,-0.71830595,-0.5048259,-0.09238413,0.683296,-0.77633584,-0.5616912,-0.7160474,-0.36649427,0.5097526,0.32638463,1.0971445,-0.5184942,-1.558329,-1.4710064,2.4915626,1.5785885,-0.9045609,1.0404135,-0.45445526,-1.5114181,-1.4125185,2.5272737,1.5310122,-0.9349831,1.1621171,-1.3584765,-0.9390121,-1.3077264,-0.1425965,0.33987483,0.22176369,1.0370598,-0.47756577,1.4991233,-2.8064914,0.2851052,-2.0900617,0.24324417,-0.32358932,0.9313958,0.67757744,-0.07746223,0.06262643,0.7286743,0.21408692,-0.62113017,-0.8166925,1.0,0.0,0.0,0.0,0.0,0.0,0.0,-1.6870598,0.07756576,-0.9491233,0.84836483,0.3849268,-5.3359985,1.5553951,-19.559278,-0.017017126,0.05378127
6.025494,25.016764,10.92569,14.445309,-0.63493264,-0.45019656,-0.020743527,0.69738007,-0.78565484,-0.56427336,-0.70623446,-0.40986437,0.551616,0.30968857,1.1101515,-0.53302073,-1.5678455,-1.4831419,2.486287,1.5861738,-0.9040142,1.0522524,-0.46813142,-1.5211513,-1.4254293,2.5244355,1.5344626,-0.9327696,1.1914226,-1.3708771,-0.98509145,-1.2852212,-0.33085933,0.34627342,0.22106393,1.009016,-0.4747162,1.477502,-2.8036854,0.28482017,-2.186158,0.2455635,-0.329628,0.9230944,0.6738873,-0.070489384,0.05888249,0.733103,0.24397872,-0.59133196,-0.84016806,1.0,0.0,0.0,0.0,0.0,0.0,0.0,-1.659016,0.07471618,-0.927502,2.9970407,-1.3156414,-4.6896935,2.35188,-18.935442,0.52639246,-0.106826425
6.571662,24.364841,11.232973,14.423184,-0.2807393,-0.41886476,0.035820123,0.71212363,-0.79600817,-0.57870805,-0.69817007,-0.37733012,0.5680463,0.27715683,1.1234648,-0.54773223,-1.5790222,-1.4952464,2.4867024,1.5912672,-0.9050539,1.0644633,-0.48200643,-1.5312889,-1.4381056,2.5201821,1.5379893,-0.9305876,1.2308193,-1.3933557,-1.0232995,-1.2613558,-0.4569017,0.35455874,0.21730214,0.9810009,-0.47187042,1.4549203,-2.8008823,0.2845354,-2.282158,0.24815178,-0.3354149,0.9145688,0.67010695,-0.06360361,0.05572686,0.7374318,0.26913884,-0.5688422,-0.86212605,1.0,0.0,0.0,0.0,0.0,0.0,0.0,-1.6310009,0.07187042,-0.9049203,3.966999,-2.3302317,-3.8694859,2.4941683,-12.720955,0.7153332,-0.37193298
6.7550735,25.001831,11.713433,13.80409,-0.029732227,-0.39091668,0.084186055,0.70568055,-0.80030924,-0.5805807,-0.7117696,-0.34790468,0.55771106,0.279908,1.1350313,-0.56203735,-1.5893469,-1.5092826,2.4853916,1.5937604,-0.9025968,1.0769736,-0.49610507,-1.5416934,-1.4506598,2.5151582,1.5415865,-0.92843896,1.2581224,-1.4156612,-1.0464225,-1.2530955,-0.5180316,0.36107868,0.21419193,0.95301247,-0.46902466,1.4313794,-2.798082,0.28425092,-2.378062,0.2509613,-0.3410225,0.9058137,0.6661857,-0.056721866,0.052842095,0.7417459,0.29053935,-0.5509977,-0.88546,1.0,0.0,0.0,0.0,0.0,0.0,0.0,-1.6030124,0.06902465,-0.8813794,2.7921915,-2.3121834,-2.3981094,0.9442806,-6.2371373,0.5377412,-0.2720952
8.105421,30.105726,14.8076515,14.278515,-0.12470651,-0.19591808,0.13382596,0.6956641,-0.7934459,-0.5481227,-0.7045559,-0.37820095,0.5640091,0.2846871,1.1465399,-0.57544965,-1.5965058,-1.5211153,2.477338,1.5979874,-0.89997023,1.0896174,-0.5103425,-1.5520732,-1.4631586,2.5097299,1.5452467,-0.9263142,1.266766,-1.4266058,-1.0356965,-1.2486725,-0.5516643,0.36749622,0.21209687,0.92505264,-0.46618652,1.4068801,-2.7952847,0.28396672,-2.4738703,0.25396538,-0.3463707,0.8968824,0.6620613,-0.04985596,0.050084114,0.74611044,0.30947906,-0.5227612,-0.9011724,1.0,0.0,0.0,0.0,0.0,0.0,0.0,-1.5750526,0.06618652,-0.8568801,0.98814964,-1.164937,0.9277344,0.5470991,-3.4894466,0.56098104,-0.15944242
8.60537,32.07168,15.671638,13.700796,-0.18695492,-0.16868985,0.14315471,0.70074284,-0.7956873,-0.5562841,-0.7140661,-0.39745468,0.56061155,0.2729069,1.1596917,-0.5899112,-1.6077017,-1.5345652,2.4699843,1.6013079,-0.8990235,1.1022936,-0.5246409,-1.5623157,-1.4756899,2.5040689,1.5489622,-0.9242161,1.2683716,-1.4310596,-1.0210141,-1.2544384,-0.57141477,0.37257588,0.20932741,0.8971214,-0.4633484,1.3814236,-2.7924902,0.28368282,-2.5695827,0.257164,-0.351429,0.8877902,0.65771276,-0.042989075,0.04741129,0.75054514,0.3287898,-0.49196893,-0.91724145,1.0,0.0,0.0,0.0,0.0,0.0,0.0,-1.5471214,0.06334838,-0.8314236,0.31120777,-0.5094528,1.2945175,-0.46904087,-2.1007895,0.42626858,-0.22118986
7.7606297,32.65683,15.622908,14.087676,-0.15740865,-0.110032946,0.11046414,0.69874257,-0.7955014,-0.5657818,-0.7077772,-0.4223209,0.5706164,0.28614265,1.1721679,-0.60419106,-1.6188939,-1.5464677,2.4618368,1.6060239,-0.8956018,1.1149412,-0.53894603,-1.5724628,-1.488265,2.498221,1.5527292,-0.92213327,1.2642155,-1.4305393,-1.0131645,-1.2581326,-0.5898882,0.37780687,0.20812322,0.8692169,-0.46051407,1.3550105,-2.7896981,0.2833992,-2.6651995,0.26053238,-0.3561821,0.8785438,0.65316445,-0.036109004,0.044833526,0.75502473,0.34532458,-0.4619722,-0.932111,1.0,0.0,0.0,0.0,0.0,0.0,0.0,-1.5192169,0.060514063,-0.8050105,-0.24883747,-0.011968613,0.6083727,-0.25417805,-1.9831777,0.44457912,-0.071686506
6.568205,30.697573,14.220675,13.754877,-0.0006695986,-0.1523282,0.082812905,0.7038244,-0.8057824,-0.5841017,-0.7145044,-0.4148806,0.55866516,0.2857459,1.1853237,-0.61952424,-1.630873,-1.5597155,2.4567327,1.6085957,-0.8935587,1.1275622,-0.55327785,-1.5826538,-1.5008974,2.4922585,1.5565344,-0.920059,1.261979,-1.4343604,-1.0214182,-1.2647092,-0.59892607,0.3809051,0.20728022,0.841341,-0.45768356,1.3276421,-2.7869089,0.28311586,-2.7607205,0.26405716,-0.3606949,0.86911565,0.648453,-0.029161002,0.042319983,0.75951785,0.35989317,-0.43949202,-0.95125425,1.0,0.0,0.0,0.0,0.0,0.0,0.0,-1.491341,0.057683557,-0.7776421,-0.06906986,-0.45132637,-0.98667145,-0.5237818,-1.0454893,0.21495819,-0.031077862
6.88602,32.293976,15.136973,13.59133,-0.12599474,-0.079803884,0.09192309,0.6965249,-0.80306506,-0.5691026,-0.7199639,-0.45284763,0.56088006,0.28585687,1.1972146,-0.6335844,-1.639564,-1.5728939,2.4469738,1.6126224,-0.89147335,1.1401354,-0.5676335,-1.592881,-1.5136118,2.4861283,1.5603644,-0.9179924,1.2562646,-1.4362054,-1.0237399,-1.2731566,-0.61790437,0.38350472,0.2066076,0.8134937,-0.45485306,1.2993191,-2.7841225,0.2828328,-2.856146,0.2677288,-0.3649559,0.85950387,0.643574,-0.022140063,0.039899882,0.7640224,0.37444913,-0.41225657,-0.9691158,1.0,0.0,0.0,0.0,0.0,0.0,0.0,-1.4634937,0.054853052,-0.74931914,-0.40855408,-0.24921894,-0.40404797,-0.71029663,-2.0383954,0.16494393,-0.01809895
7.0974264,33.89243,16.114693,14.166344,-0.24446595,0.02160898,0.08389577,0.6990648,-0.802256,-0.5691749,-0.70581937,-0.5124262,0.5816152,0.28596368,1.2100419,-0.6478591,-1.6497984,-1.5841937,2.4348857,1.6185259,-0.8893961,1.1526705,-0.5819968,-1.6031196,-1.5263281,2.4796548,1.5642325,-0.9159325,1.252968,-1.4365892,-1.0244203,-1.270802,-0.65753347,0.38771126,0.20594887,0.78567314,-0.45202637,1.2700427,-2.781339,0.28255004,-2.9514763,0.2715416,-0.36889648,0.84974754,0.63852835,-0.015116678,0.037654657,0.7685279,0.38812903,-0.38039896,-0.98230934,1.0,0.0,0.0,0.0,0.0,0.0,0.0,-1.4356731,0.05202636,-0.72004265,-0.17726421,-0.10099411,-0.22494793,0.36571026,-4.1062117,0.33217072,-0.026863813
6.017254,33.18827,15.297764,14.436441,-0.16206962,0.027263312,0.043321237,0.69942313,-0.80262494,-0.59659123,-0.7011369,-0.5311119,0.57819074,0.292804,1.2226129,-0.6622593,-1.6627787,-1.5964417,2.4265437,1.6220516,-0.88665205,1.1651865,-0.5963601,-1.6134822,-1.5389776,2.4727616,1.5681368,-0.9138735,1.2514654,-1.4364206,-1.0407484,-1.2625445,-0.7000367,0.39116997,0.20599659,0.75788116,-0.4492035,1.2398136,-2.7785583,0.28226754,-3.0467112,0.27548218,-0.37257385,0.8398515,0.6333522,-0.00809947,0.03562651,0.77300066,0.39981422,-0.35292843,-0.996218,1.0,0.0,0.0,0.0,0.0,0.0,0.0,-1.4078811,0.049203485,-0.68981355,-0.0077724457,-0.05083084,-1.767993,0.96657276,-4.4044733,0.25154352,0.03681183
5.078704,32.235306,14.769534,14.336421,-0.036141276,0.061649438,0.03604161,0.6920106,-0.8112936,-0.5973007,-0.7054155,-0.5282247,0.5648412,0.27711612,1.2343876,-0.67748946,-1.6732123,-1.6095191,2.419939,1.6246209,-0.88616186,1.1776606,-0.6107596,-1.6240089,-1.5515642,2.465529,1.5720621,-0.911825,1.2466462,-1.4414351,-1.0570952,-1.2567748,-0.7318246,0.39271876,0.20463447,0.7301159,-0.44638062,1.2086328,-2.7757804,0.2819853,-3.1418507,0.2795143,-0.37599182,0.82980376,0.62806714,-0.0010575006,0.033763696,0.7774255,0.40845814,-0.32951945,-1.0116677,1.0,0.0,0.0,0.0,0.0,0.0,0.0,-1.3801159,0.04638061,-0.6586328,-0.34136772,-0.5723238,-1.7677307,0.7298231,-3.3391356,0.056433678,-0.09666979
3.366468,31.362848,14.145933,14.6577835,0.10105395,0.14450839,0.01003091,0.6756238,-0.8168304,-0.60206574,-0.7028002,-0.5433296,0.5556404,0.2671513,1.2452229,-0.69244266,-1.6842154,-1.6218443,2.411196,1.6276262,-0.8851099,1.1900164,-0.6252364,-1.6346881,-1.5640974,2.4580216,1.5759932,-0.90979654,1.232348,-1.4499439,-1.0721093,-1.251583,-0.75797224,0.39286733,0.20228559,0.7023792,-0.44356537,1.1765014,-2.773005,0.28170338,-3.2368953,0.28359795,-0.3792076,0.8195974,0.62269837,0.0060291826,0.03201588,0.7817834,0.41211936,-0.31006345,-1.0274748,1.0,0.0,0.0,0.0,0.0,0.0,0.0,-1.3523792,0.043565363,-0.6265014,-1.2796879,-0.92504025,-1.6376019,0.68449974,-2.7825117,-0.08100271,-0.19492507
3.1369753,32.379776,14.686036,14.456963,0.102422714,0.21612243,0.024153903,0.6645222,-0.8160336,-0.602415,-0.7060253,-0.5455903,0.550907,0.28871143,1.2564687,-0.70683974,-1.6949296,-1.6347,2.4034626,1.6310838,-0.8809254,1.2021891,-0.6397847,-1.645478,-1.5766096,2.4503121,1.5799185,-0.90777475,1.2126812,-1.4566679,-1.0816908,-1.2505805,-0.7755334,0.39227653,0.20227541,0.67466927,-0.44075012,1.1434202,-2.7702324,0.28142175,-3.3318448,0.28770828,-0.38223648,0.8092379,0.61724323,0.013172895,0.030348394,0.7860765,0.41385317,-0.28960732,-1.0425022,1.0,0.0,0.0,0.0,0.0,0.0,0.0,-1.3246692,0.040750116,-0.5934202,-1.8064976,-0.7446289,-1.1035681,0.26845932,-1.9258857,-0.15234947,0.04287958
1.7832212,32.715263,14.638558,15.010218,0.18403798,0.31852978,-0.008728437,0.6467773,-0.8179466,-0.61103565,-0.6969652,-0.5577445,0.5515522,0.27217102,1.2668668,-0.7215794,-1.7065816,-1.6463062,2.3945377,1.6350737,-0.88055766,1.2141119,-0.65438926,-1.6563632,-1.5890837,2.44245,1.58384,-0.90576345,1.1861267,-1.4618994,-1.0912805,-1.2457392,-0.79033357,0.39177004,0.2008558,0.6469879,-0.4379387,1.1093904,-2.7674627,0.2811404,-3.4266994,0.29180527,-0.385067,0.7987426,0.6117269,0.020363433,0.028739186,0.7902845,0.411267,-0.2710977,-1.0554086,1.0,0.0,0.0,0.0,0.0,0.0,0.0,-1.2969879,0.037938684,-0.55939037,-2.4888754,-0.5968571,-1.1006594,0.6569147,-1.6568542,-0.13411641,-0.10109544
1.3818736,33.307434,14.993803,14.711118,0.19127631,0.38390464,0.003987193,0.62823606,-0.8227603,-0.6074752,-0.7042478,-0.55599546,0.53266984,0.27961734,1.2769356,-0.7366653,-1.7171108,-1.6595085,2.3868506,1.637107,-0.8778017,1.2257315,-0.6690501,-1.6672981,-1.6015482,2.4344888,1.5877424,-0.90376073,1.1544527,-1.4676193,-1.0948542,-1.2461421,-0.79877365,0.38946095,0.20032194,0.6193352,-0.43513107,1.0744126,-2.764696,0.2808593,-3.521459,0.2958641,-0.38770294,0.7881187,0.6061487,0.02760946,0.027157772,0.79440784,0.4067735,-0.25221583,-1.0680892,1.0,0.0,0.0,0.0,0.0,0.0,0.0,-1.2693352,0.035131067,-0.5244126,-2.9949188,-0.64394474,-0.5074501,0.13663769,-1.0212064,-0.3139615,-0.0077039003
-5.0398326,29.48046,11.310751,15.77899,0.5737284,0.49750775,-0.1493167,0.5672508,-0.8267422,-0.64689857,-0.70864666,-0.5722335,0.5105397,0.22096351,1.2824565,-0.7517243,-1.731988,-1.6724129,2.3772655,1.6387964,-0.8816644,1.2368151,-0.68377197,-1.6784313,-1.6140451,2.4264245,1.5916048,-0.90180665,1.0937872,-1.4739962,-1.1198397,-1.2502563,-0.80968475,0.3850102,0.19383653,0.59170914,-0.43232346,1.038488,-2.761932,0.2805785,-3.6161242,0.2997856,-0.39027786,0.7773185,0.6006493,0.03498196,0.025615158,0.798336,0.39007843,-0.24793993,-1.0871707,1.0,0.0,0.0,0.0,0.0,0.0,0.0,-1.2417091,0.03232345,-0.48848802,-5.8561087,-0.7233381,-2.6597738,-0.197196,-1.2931943,-0.5265176,-0.62595606
-9.589506,28.310373,9.533702,16.45847,0.75096273,0.6516987,-0.24956778,0.5099725,-0.82385457,-0.6621367,-0.71694136,-0.59453475,0.50043964,0.17093499,1.2878124,-0.76615745,-1.7446449,-1.6857393,2.366971,1.6416488,-0.8847132,1.2471052,-0.6985301,-1.6898715,-1.6266241,2.4182038,1.5954195,-0.8999546,1.0082941,-1.4766757,-1.1527777,-1.2596619,-0.82693595,0.3798254,0.18228379,0.5641098,-0.42951965,1.0016174,-2.7591705,0.28029796,-3.7106946,0.30347633,-0.39284515,0.76630735,0.59536856,0.042526502,0.024151811,0.8019628,0.36394715,-0.24996959,-1.1088219,1.0,0.0,0.0,0.0,0.0,0.0,0.0,-1.2141098,0.029519647,-0.45161742,-8.303332,-0.36108494,-3.4719467,-0.7037401,-1.9470572,-0.5995512,-1.1531174
-21.426561,24.611889,4.953707,19.560823,1.3170712,1.0550858,-0.4985897,0.37655035,-0.8204973,-0.69143224,-0.72598153,-0.6399862,0.50083023,0.06595558,1.2847602,-0.7805798,-1.7590147,-1.6992222,2.3542051,1.6455026,-0.89335907,1.2560602,-0.7132844,-1.7017295,-1.639327,2.4096932,1.5991865,-0.89829427,0.8590391,-1.4753637,-1.1974485,-1.2730465,-0.8600708,0.37538984,0.16046664,0.5365391,-0.42671967,0.9637939,-2.7564118,0.28001773,-3.8062358,0.306715,-0.3955841,0.7550558,0.5905753,0.050272472,0.022842128,0.8050911,0.31240207,-0.2702185,-1.1334976,1.0,0.0,0.0,0.0,0.0,0.0,0.0,-1.186539,0.02671966,-0.41379386,-14.592827,0.014042854,-4.6823263,-1.0480165,-3.5945892,-0.51038265,-2.22767
-66.0419,7.346817,-12.392731,32.631905,3.926577,2.6011016,-1.3322562,-0.065140344,-0.8289809,-0.70709604,-0.7419121,-0.6310885,0.46558124,-0.18365589,1.2495462,-0.79618245,-1.7724391,-1.7135183,2.3465843,1.6457447,-0.91665983,1.2616755,-0.7280606,-1.7140338,-1.6522093,2.4009004,1.6028906,-0.8970335,0.464695,-1.4791161,-1.2426058,-1.2915016,-0.8874535,0.368871,0.11401516,0.50899506,-0.42391968,0.9250156,-2.753656,0.27973777,-3.9016814,0.30869102,-0.39909363,0.74353427,0.58715147,0.058277845,0.02160963,0.8070872,0.1606225,-0.36868474,-1.161035,1.0,0.0,0.0,0.0,0.0,0.0,0.0,-1.158995,0.023919672,-0.37501562,-38.782364,-0.59502125,-4.876232,-1.3534307,-3.238988,-0.64222217,-4.8081727
-113.669716,-7.0435863,-29.507444,46.569794,6.6594386,4.3283453,-2.1618533,-0.54933,-0.80862916,-0.74367654,-0.75621206,-0.59755176,0.4980119,-0.2639127,1.2067425,-0.80892354,-1.7884015,-1.7278305,2.3411453,1.6526918,-0.9234248,1.2614485,-0.74278915,-1.7268608,-1.6652918,2.3919778,1.6065527,-0.8962801,-0.18175483,-1.4721016,-1.2976491,-1.3112462,-0.89648736,0.36521053,0.061617263,0.48147964,-0.42112732,0.88528365,-2.750903,0.2794581,-3.9970317,0.3083439,-0.4042015,0.7317389,0.5861741,0.066592366,0.020298857,0.8071885,-0.09948278,-0.5471358,-1.1882124,1.0,0.0,0.0,0.0,0.0,0.0,0.0,-1.1314796,0.021127313,-0.33528364,-63.615406,0.30047894,-6.030464,-1.1512041,-1.7234802,-0.46311617,-5.4823174
-112.624146,-2.474441,-26.808455,44.68548,6.485562,4.4972515,-2.0645812,-0.70835704,-0.8057139,-0.7507794,-0.7797781,-0.57301,0.4947092,-0.3575903,1.1906128,-0.82336056,-1.8019387,-1.7432696,2.3346767,1.6560236,-0.93203914,1.2548891,-0.7574328,-1.7401531,-1.6786261,2.3830934,1.610169,-0.8960722,-0.8104734,-1.4635749,-1.3416945,-1.3375254,-0.88887036,0.35904476,0.006741391,0.45399094,-0.41833496,0.8445988,-2.7481527,0.2791787,-4.0922866,0.30537987,-0.41099548,0.71968526,0.58782387,0.07522728,0.018755155,0.8052652,-0.3634436,-0.7138888,-1.2134655,1.0,0.0,0.0,0.0,0.0,0.0,0.0,-1.1039909,0.018334955,-0.29459882,-61.82022,0.34503937,-4.9509525,-1.6124249,-0.1660347,-1.0212302,-5.6316915
-84.074554,14.004557,-11.661712,36.146797,5.031418,3.943656,-1.4864516,-0.7740796,-0.7958052,-0.72044027,-0.77724814,-0.38509476,0.4967601,-0.4376996,1.1774812,-0.83701336,-1.8121971,-1.7563509,2.344584,1.6598451,-0.93984216,1.2432562,-0.7719563,-1.7536018,-1.6921644,2.3748841,1.6137244,-0.8964079,-1.2782426,-1.4501121,-1.3471923,-1.3562417,-0.80109113,0.3525254,-0.047010854,0.42652893,-0.4155426,0.80296224,-2.745405,0.27889958,-4.187446,0.3001728,-0.4190445,0.70749295,0.5915292,0.084119014,0.016634692,0.8017109,-0.576988,-0.8247137,-1.2231895,1.0,0.0,0.0,0.0,0.0,0.0,0.0,-1.0765289,0.015542597,-0.25296223,-45.97151,0.88083744,-0.9683132,-0.9585619,7.986784,-1.1731088,-5.346046
-47.80564,28.590492,3.7845182,25.18783,3.244987,2.9231138,-0.8206011,-0.7909731,-0.8009669,-0.7254324,-0.76734513,-0.21821253,0.475757,-0.47624463,1.1641589,-0.85205305,-1.826145,-1.768899,2.3530629,1.6613001,-0.9440324,1.2285105,-0.78638446,-1.7669971,-1.7057905,2.3680596,1.6172072,-0.8972462,-1.5383742,-1.4413651,-1.3377081,-1.3627294,-0.644793,0.34538716,-0.09554109,0.39909554,-0.41275787,0.7603747,-2.74266,0.27862075,-4.2825103,0.2933979,-0.42778397,0.69525534,0.59648174,0.09321547,0.013588847,0.79707944,-0.71750796,-0.8767869,-1.2256459,1.0,0.0,0.0,0.0,0.0,0.0,0.0,-1.0490955,0.012757868,-0.21037471,-25.552296,0.55787563,0.7105589,-0.012898445,15.124691,-1.1520147,-4.7018347
-18.238302,38.966732,15.472971,16.498348,1.9057002,2.010181,-0.31228143,-0.8037319,-0.80068624,-0.72882754,-0.75852954,-0.0024162508,0.45039305,-0.5051062,1.1481373,-0.8664531,-1.8398799,-1.7816435,2.367818,1.6622465,-0.9477568,1.2124239,-0.8007468,-1.7802646,-1.7194033,2.363318,1.6206137,-0.8985298,-1.6316634,-1.4351165,-1.32331,-1.3594611,-0.41832334,0.33815855,-0.13862082,0.37168884,-0.40997314,0.7168373,-2.739918,0.2783422,-4.377479,0.28569412,-0.43674088,0.6830182,0.6019944,0.102505594,0.00931198,0.79183865,-0.79603225,-0.88804924,-1.2245636,0.0,1.0,0.0,0.0,0.0,0.0,0.0,-1.0216888,0.009973139,-0.16683728,-9.144187,0.4613638,1.3582468,0.6728649,22.422277,-1.0022342,-4.0966945
0.04786724,43.91426,21.611414,10.966198,1.1058613,1.3440027,-0.022986442,-0.808179,-0.7989118,-0.74324906,-0.7512063,0.1933111,0.42158398,-0.50577337,1.131606,-0.880638,-1.8545895,-1.794524,2.3826492,1.662772,-0.94910717,1.1961383,-0.8149883,-1.7939509,-1.7332575,2.3598902,1.6237831,-0.89973557,-1.6353862,-1.4086121,-1.4707199,-1.4492923,-0.531529,0.23315385,-0.0693588,0.35006905,-0.4108925,0.69085217,-1.1987704,-0.7141865,1.3127365,0.2776184,-0.44552994,0.67055696,0.60742855,0.11221397,0.004283151,0.78639686,-0.7936731,-0.8423816,-1.295057,0.0,1.0,0.0,0.0,0.0,0.0,0.0,-1.000069,0.010892481,-0.14085215,-1.847744,4.7352552,-29.914497,-18.712307,-49.45814,-20.370632,17.669334
81.132126,176.0,110.0,86.7079,-7.563084,8.615037,-0.032286793,-0.6608365,0.48915157,0.72087365,0.7355239,-0.27564412,0.6359244,-0.32864225,1.1300546,-0.76607317,-1.7218635,-1.6597052,2.3323257,1.6873755,-0.9325998,1.1850952,-0.82593906,-1.809293,-1.7372506,2.3454537,1.6352463,-0.89796704,-0.93065435,-0.98995703,-1.5446876,-0.053341903,-1.7361091,1.4607716,0.25487912,0.3382492,-0.41812134,0.70413136,-1.1975718,-0.71347237,1.2121726,0.26994514,-0.452137,0.66177744,0.6127469,0.11329835,0.0049491264,0.7820998,-0.7665856,-0.585446,-0.7374421,1.0,0.0,0.0,0.0,0.0,0.0,0.0,-0.9882492,0.018121332,-0.15413135,69.36764,42.173923,-5.1382303,137.81506,-119.211105,124.71038,31.28427
32.53889,166.45758,110.0,89.21585,-1.4998114,6.9306684,-0.16629235,-0.7625868,-0.44938156,0.569538,0.7966238,-0.6243463,0.5455903,-0.44041547,1.1088365,-0.8708772,-1.7523392,-1.6575882,2.283019,1.6898053,-0.9420086,1.1768535,-0.8338021,-1.8196194,-1.730262,2.326693,1.6509743,-0.89494485,-0.78956157,-0.71949935,-0.858363,0.9475466,-1.925784,1.6155828,0.31765547,0.3262825,-0.425251,0.7154996,-1.1963744,-0.7127591,1.1117096,0.26224518,-0.45723343,0.6587174,0.61850035,0.105956726,0.008351265,0.77856314,-0.7744191,-0.4741271,-0.164687,1.0,0.0,0.0,0.0,0.0,0.0,0.0,-0.9762825,0.025251001,-0.16549957,13.856066,26.723362,69.71823,99.44725,-19.92898,17.104816,6.1392307
-1.9118513,130.53137,79.83063,72.66019,1.2578214,5.302772,-0.62218934,-0.75741297,-0.29611096,0.16045442,0.7787198,-0.65993106,0.61032254,-0.336746,1.1011122,-0.8634132,-1.803574,-1.65239,2.2607,1.7120066,-0.92861944,1.168322,-0.8395318,-1.8234189,-1.7160847,2.3084168,1.6664276,-0.8921868,-0.87314475,-0.5253949,-0.21998788,1.5745984,-1.7994871,1.5251081,0.2628871,0.31432724,-0.43237305,0.7258639,-1.1951783,-0.7120465,1.0113469,0.2540779,-0.4617157,0.6601999,0.625033,0.09386868,0.012319597,0.7748359,-0.83161354,-0.43306062,0.24775647,1.0,0.0,0.0,0.0,0.0,0.0,0.0,-0.9643272,0.03237304,-0.17586386,-8.028423,19.00097,63.941742,62.772274,11.200333,-8.119941,-5.174315
-2.492299,146.84224,79.32092,50.625305,-0.47678697,4.5484657,-0.49992767,-0.77027005,0.14931394,0.31084052,0.7889767,-0.6624995,0.60627615,-0.21419764,1.091295,-0.8246004,-1.7923348,-1.637187,2.242167,1.7270552,-0.9136066,1.1581577,-0.8420428,-1.8214676,-1.6984704,2.2923036,1.6805153,-0.8900277,-1.0630348,-0.16110411,0.3322918,1.8240614,-1.5531248,1.3725159,0.20047428,0.30238342,-0.43948746,0.73522234,-1.1939833,-0.71133465,0.9106909,0.24547386,-0.46522522,0.66523796,0.63215476,0.079134166,0.01674361,0.77060866,-0.87230945,-0.31665125,0.5833453,1.0,0.0,0.0,0.0,0.0,0.0,0.0,-0.9523834,0.03948745,-0.18522233,-18.681097,36.004883,54.881268,25.05133,23.205257,-14.520454,-6.1850815
-37.8375,56.31583,13.61122,27.274689,2.4932551,1.5727369,-0.9901829,-0.797013,-0.088674456,-0.21200554,0.77508056,-0.6757507,0.6251303,-0.273935,1.0784564,-0.85091025,-1.8426682,-1.6209623,2.2247286,1.7430283,-0.9174212,1.1460403,-0.84256923,-1.8181584,-1.6803143,2.278582,1.6931038,-0.88850945,-1.2609261,-0.016795054,0.3293106,1.8131603,-1.3125004,1.2221125,0.13588431,0.29045296,-0.44659424,0.74357504,-1.1927896,-0.7106235,0.8101355,0.23617554,-0.46862411,0.67130697,0.6401216,0.06455304,0.021224678,0.76526254,-0.9525419,-0.34132254,0.6095337,1.0,0.0,0.0,0.0,0.0,0.0,0.0,-0.94045293,0.046594232,-0.19357502,-19.624687,14.349349,-0.6473124,-0.9907484,23.941494,-14.649773,-6.4015536
-43.87379,10.16043,-15.835825,12.075525,3.0949364,-0.14306748,-0.9749533,-0.80428815,-0.12578952,-0.30714795,0.77021223,-0.6471914,0.6075323,-0.3253646,1.0656115,-0.8551482,-1.8488731,-1.6032931,2.213863,1.753857,-0.9210459,1.1323322,-0.8426646,-1.816827,-1.6631978,2.2669168,1.7043076,-0.8876149,-1.4071453,-0.006931686,0.06696394,1.6778458,-1.1166883,1.0870633,0.074025184,0.27853394,-0.4536934,0.7509229,-1.191597,-0.7099131,0.7096807,0.22612381,-0.47270203,0.6764938,0.6490343,0.051978815,0.025419896,0.7585554,-1.0261168,-0.4208579,0.4843124,1.0,0.0,0.0,0.0,0.0,0.0,0.0,-0.9285339,0.053693384,-0.2009229,-14.550304,1.0458734,-26.44735,-13.539481,19.894814,-13.318396,-6.194395
-35.548027,-1.8843303,-20.353853,6.3174734,2.6003444,-0.7766596,-0.76880884,-0.8027684,-0.10688532,-0.32136062,0.790001,-0.6414995,0.6338799,-0.33992147,1.0520554,-0.85335314,-1.8489631,-1.5841976,2.202767,1.7676955,-0.9216071,1.1176838,-0.8430928,-1.818538,-1.6474831,2.2567239,1.7143307,-0.887283,-1.4839377,-0.054641955,-0.25105977,1.5362631,-0.9859326,0.9743822,0.019521622,0.26662636,-0.46078873,0.757267,-1.1904056,-0.70920336,0.6093263,0.2155037,-0.47759247,0.68017375,0.65871716,0.041858006,0.029313395,0.7506532,-1.0779364,-0.50249827,0.32624894,1.0,0.0,0.0,0.0,0.0,0.0,0.0,-0.91662633,0.06078872,-0.20726699,-7.596326,-4.7032967,-31.942772,-14.134765,13.356519,-11.214888,-5.4891186
-24.655245,1.8957016,-13.844766,5.5131783,1.9252385,-0.7318416,-0.52820987,-0.81279474,-0.12096775,-0.33913687,0.785483,-0.6135132,0.6512436,-0.40826795,1.0364043,-0.85518956,-1.8524517,-1.5689348,2.1953726,1.7794551,-0.9281098,1.1026367,-0.84418,-1.8229916,-1.63293,2.2474809,1.7233849,-0.88748044,-1.5112059,-0.12660198,-0.51033676,1.4287685,-0.9031108,0.88224506,-0.032984447,0.25473213,-0.46787643,0.7626083,-1.1892154,-0.70849425,0.50907224,0.20449638,-0.48315048,0.6824264,0.66891664,0.033884067,0.032951478,0.74183327,-1.1124274,-0.5637623,0.18959904,1.0,0.0,0.0,0.0,0.0,0.0,0.0,-0.9047321,0.06787643,-0.21260828,-2.6326895,-7.163498,-26.006699,-10.673833,8.410704,-9.226429,-5.2904196
-9.707436,20.041544,2.330441,7.4152446,0.94554687,-0.2340064,-0.19985165,-0.8051364,-0.12483473,-0.2728319,0.79142565,-0.59577096,0.6692143,-0.42570198,1.0221231,-0.85666347,-1.8502748,-1.5537875,2.187904,1.7903063,-0.9300506,1.0875973,-0.84592044,-1.8289235,-1.619056,2.2387986,1.7316551,-0.8881566,-1.5013994,-0.1899318,-0.6205608,1.3738078,-0.85661185,0.8088133,-0.07937833,0.24284935,-0.4749565,0.7669478,-1.1880264,-0.70778584,0.40891835,0.19330406,-0.48899078,0.6837783,0.67928183,0.027298342,0.036392644,0.7324661,-1.12567,-0.581073,0.11545046,1.0,0.0,0.0,0.0,0.0,0.0,0.0,-0.8928493,0.07495651,-0.2169478,1.0121822,-6.360087,-10.989105,-5.445862,4.561925,-7.324648,-4.689081
-1.9184434,30.852861,12.806185,9.64359,0.5673741,0.23069066,0.010286752,-0.80998844,-0.17551067,-0.22867775,0.7866775,-0.5624367,0.6697752,-0.45563543,1.0065984,-0.8634715,-1.8517913,-1.5403882,2.182555,1.7986326,-0.9337201,1.0727352,-0.8483609,-1.8350251,-1.6054509,2.2304788,1.739296,-0.88926286,-1.4811403,-0.26222318,-0.6062984,1.356309,-0.82465124,0.7493908,-0.12118479,0.23097801,-0.48202896,0.7702865,-1.1868386,-0.70707816,0.3088646,0.18203545,-0.494812,0.6847172,0.68954086,0.021388069,0.039571565,0.7228486,-1.1317911,-0.5731682,0.08521508,1.0,0.0,0.0,0.0,0.0,0.0,0.0,-0.880978,0.082028955,-0.22028649,2.0106792,-7.2914987,1.5486479,-1.7226696,2.9823184,-5.8888197,-4.2164207
9.190477,48.85465,27.266134,11.18755,-0.18505245,0.74803036,0.28387603,-0.79726267,-0.18430154,-0.07834979,0.7851491,-0.5690266,0.6723328,-0.45152897,0.9930089,-0.86679107,-1.8428601,-1.5269359,2.173576,1.8065293,-0.93441576,1.0581287,-0.8513955,-1.839885,-1.5918534,2.2223306,1.7464314,-0.8907344,-1.4539846,-0.31756175,-0.44532248,1.3608403,-0.81273806,0.70207125,-0.15600395,0.21911812,-0.48909378,0.77262545,-1.185652,-0.7063712,0.20891087,0.17083359,-0.5002594,0.68576366,0.69939774,0.015444498,0.0424801,0.7133019,-1.1204959,-0.5251984,0.10948856,1.0,0.0,0.0,0.0,0.0,0.0,0.0,-0.8691181,0.089093775,-0.22262543,2.6212215,-5.6382475,16.322798,0.40199757,0.80839396,-4.5931697,-3.5305738
13.454837,56.37428,34.18417,12.57461,-0.3634858,1.0765327,0.42703855,-0.7974368,-0.23570488,0.06646663,0.7902343,-0.5714762,0.66693175,-0.45902535,0.97838503,-0.87496597,-1.8332384,-1.5128299,2.165183,1.8131245,-0.9366369,1.0437473,-0.8550414,-1.8424122,-1.5781167,2.2142167,1.7531567,-0.89251393,-1.4331572,-0.3807012,-0.18756796,1.377849,-0.81288165,0.66343135,-0.18542227,0.20726967,-0.49615097,0.77396554,-1.1844666,-0.70566493,0.109057106,0.15978241,-0.5050926,0.6872653,0.7086576,0.008947834,0.045051232,0.70405585,-1.1045892,-0.46029022,0.16195346,1.0,0.0,0.0,0.0,0.0,0.0,0.0,-0.85726964,0.096150964,-0.22396553,1.9872665,-6.4364614,26.034842,1.6381979,-0.48888922,-3.68402,-2.974105
16.254482,50.930344,33.225716,10.711875,-0.40220368,0.9642384,0.5474446,-0.7647588,-0.33322868,0.18066202,0.78360647,-0.62559813,0.6712119,-0.43627805,0.96727145,-0.88836426,-1.8243461,-1.499756,2.1516569,1.8202778,-0.9361417,1.0296634,-0.85962,-1.8421528,-1.5642369,2.2059007,1.7595539,-0.89453095,-1.4005312,-0.48380423,0.098062865,1.3911332,-0.8395473,0.6323669,-0.20720099,0.19543457,-0.50320053,0.7743163,-1.1832824,-0.7049594,0.0104263825,0.14892006,-0.5092926,0.6892285,0.71718925,0.0017008625,0.047170855,0.695278,-1.0835687,-0.39732298,0.20578913,1.0,0.0,0.0,0.0,0.0,0.0,0.0,-0.84543455,0.103200525,-0.2243163,3.1990528,-10.414457,28.821014,1.2808084,-3.146124,-2.917552,-2.179575
12.653811,40.428085,25.400454,9.202957,-0.113210976,0.56917006,0.45634723,-0.73532474,-0.39276028,0.18400414,0.77944267,-0.6569571,0.67565924,-0.40699002,0.956131,-0.898896,-1.8237524,-1.4862926,2.140205,1.8271198,-0.93522996,1.0159858,-0.8653449,-1.8396351,-1.5502789,2.1972184,1.765686,-0.896712,-1.356923,-0.60240495,0.30353457,1.3972996,-0.87880224,0.60719347,-0.22163796,0.18361092,-0.5102463,0.7736815,-1.1820993,-0.70425457,-0.08810573,0.13824272,-0.51301575,0.6913872,0.72505003,-0.006099144,0.04883451,0.6869355,-1.0666636,-0.3560561,0.21681623,1.0,0.0,0.0,0.0,0.0,0.0,0.0,-0.8336109,0.11024627,-0.22368151,4.3435097,-11.9341135,20.747292,0.6047249,-4.311502,-2.355826,-1.4281482
6.0632496,33.073055,16.866535,8.699811,0.17959687,0.17393467,0.26865774,-0.7163824,-0.4098579,0.14313161,0.77234334,-0.6754086,0.66804695,-0.33554924,0.9443476,-0.90633065,-1.8253219,-1.4730445,2.1296775,1.8324907,-0.9302669,1.0027546,-0.8720912,-1.8359902,-1.5363286,2.1881394,1.771595,-0.89895886,-1.3117262,-0.6987846,0.3851619,1.3943777,-0.9184216,0.58575,-0.22569259,0.1717987,-0.5172844,0.7720622,-1.1809175,-0.70355046,-0.18653932,0.1276741,-0.5164833,0.69341755,0.73243415,-0.014036746,0.050199993,0.6788395,-1.0572705,-0.3370947,0.19585599,1.0,0.0,0.0,0.0,0.0,0.0,0.0,-0.8217987,0.11728439,-0.22206217,4.518676,-9.68678,8.28833,-0.26876926,-4.210639,-1.9917846,-0.39246976
1.3217316,27.25819,10.358376,8.647843,0.47949448,-0.16410351,0.11936452,-0.68453467,-0.45389855,0.11461477,0.7744481,-0.6796521,0.66307884,-0.29040697,0.9343011,-0.917481,-1.8245287,-1.4588838,2.1201742,1.8379029,-0.92799956,0.99001825,-0.8797053,-1.8322575,-1.5224164,2.1787324,1.7773113,-0.9011952,-1.2608647,-0.78236854,0.3694854,1.3903667,-0.94840056,0.56740326,-0.22296417,0.15999794,-0.5243149,0.7694461,-1.1797369,-0.70284706,-0.286632,0.11715317,-0.5199089,0.69505286,0.73953056,-0.021735286,0.051396433,0.67080575,-1.0540947,-0.33799577,0.14992057,1.0,0.0,0.0,0.0,0.0,0.0,0.0,-0.8099979,0.124314874,-0.21944606,5.083084,-8.387793,-1.4849186,-0.34451485,-3.137219,-1.6940355,0.28672218
-7.024379,21.703396,3.8585722,9.79723,0.92321664,-0.29586327,-0.07067069,-0.68734735,-0.4860206,0.050382968,0.7706259,-0.66381603,0.6458502,-0.2566309,0.9212835,-0.92830735,-1.8272192,-1.4453537,2.1123507,1.8418963,-0.9268583,0.9776615,-0.8880366,-1.829282,-1.5085576,2.1691651,1.7828541,-0.90337247,-1.2271565,-0.8501445,0.2735156,1.3847871,-0.95978695,0.5502723,-0.2158613,0.14820862,-0.53133774,0.7658298,-1.1785574,-0.7021444,-0.38662463,0.1065464,-0.5234833,0.69609016,0.74655133,-0.028876096,0.05249505,0.66262466,-1.0666127,-0.35662827,0.085263945,1.0,0.0,0.0,0.0,0.0,0.0,0.0,-0.7982086,0.13133773,-0.21582979,3.3903599,-6.793654,-9.583301,-0.44617653,-1.1623979,-1.5921474,0.7334024
-8.944253,24.963224,4.1709704,10.813162,0.96084607,-0.26880813,-0.14000724,-0.672013,-0.494691,0.025157958,0.77484125,-0.6583147,0.6460585,-0.26188487,0.9104602,-0.9375057,-1.8267663,-1.4310734,2.1033337,1.8474599,-0.92956096,0.9655851,-0.89685905,-1.8274109,-1.4947217,2.1595674,1.7882462,-0.9054839,-1.2010854,-0.89308935,0.15848914,1.3834326,-0.9596666,0.5358198,-0.2095248,0.13643265,-0.53835297,0.7612143,-1.1773791,-0.7014424,-0.48651728,0.09579277,-0.5272293,0.69651324,0.75360894,-0.035357352,0.053580593,0.6541808,-1.0821571,-0.37395936,0.024802124,1.0,0.0,0.0,0.0,0.0,0.0,0.0,-0.7864326,0.13835296,-0.2112143,2.6369095,-4.3228984,-11.511275,0.0017404556,0.0005364418,-1.3303161,0.64643025
-9.3280735,23.544046,3.0265155,10.230563,0.9831755,-0.33246046,-0.15224855,-0.64857125,-0.53539073,-0.040797267,0.7683875,-0.64991355,0.65122217,-0.2584512,0.900728,-0.95039815,-1.8314906,-1.4178829,2.094576,1.8533684,-0.931329,0.9537796,-0.90611446,-1.8267987,-1.4809163,2.1500306,1.7935143,-0.90753525,-1.1736491,-0.9364134,0.028762352,1.3800863,-0.95157325,0.52402484,-0.20364869,0.12466812,-0.54536057,0.75560063,-1.1762019,-0.7007412,-0.5863101,0.084877014,-0.5311661,0.6962917,0.76073563,-0.0411235,0.05465494,0.6454478,-1.0985949,-0.39379337,-0.041129097,1.0,0.0,0.0,0.0,0.0,0.0,0.0,-0.7746681,0.14536056,-0.20560062,2.7733326,-4.364872,-12.979969,-0.1802206,0.81050396,-1.095593,0.60087144
-9.003958,31.835432,7.7142835,11.547763,0.8872153,-0.0849725,-0.13474354,-0.6566375,-0.53103644,-0.033073712,0.7714888,-0.63639945,0.6425038,-0.27989706,0.8881158,-0.9592181,-1.830106,-1.4037673,2.0863907,1.8577646,-0.93552494,0.9421371,-0.915655,-1.8271573,-1.4671242,2.1406198,1.7986736,-0.9095513,-1.1609298,-0.96012634,-0.057379615,1.3794701,-0.9378886,0.5134831,-0.2009277,0.11291504,-0.55236435,0.74898976,-1.1750259,-0.7000405,-0.6860031,0.0737896,-0.535202,0.6955669,0.7679157,-0.04630682,0.055730734,0.6364394,-1.115326,-0.39954242,-0.08645154,1.0,0.0,0.0,0.0,0.0,0.0,0.0,-0.762915,0.15236434,-0.19898975,1.315403,-2.4335384,-8.611643,0.09174347,1.302743,-0.97101927,0.27437806
-8.333736,35.761482,10.405446,11.720932,0.8416592,0.06285247,-0.0998285,-0.65461457,-0.55132604,-0.04761144,0.76468045,-0.6161422,0.63932735,-0.29549313,0.87667567,-0.97078764,-1.8319184,-1.3906562,2.0790055,1.8626064,-0.9391006,0.93056047,-0.9254149,-1.8281147,-1.4533627,2.1313882,1.8037376,-0.9115588,-1.1564027,-0.98153245,-0.108358316,1.3756104,-0.9182826,0.5042719,-0.20058346,0.1011734,-0.5593605,0.7413827,-1.1738511,-0.6993406,-0.7855964,0.06253433,-0.53922653,0.6944666,0.77510816,-0.051055606,0.056774538,0.62719786,-1.1321222,-0.3968101,-0.12141492,0.0,1.0,0.0,0.0,0.0,0.0,0.0,-0.7511734,0.1593605,-0.1913827,0.4985094,-2.2192597,-5.07683,-0.23827553,1.8475771,-0.8484125,0.03722608
-0.09211731,35.685684,12.728912,8.381805,0.53643376,-0.08067846,0.06055409,-0.6022916,-0.6033427,-0.046107993,0.7484978,-0.5979446,0.6311666,-0.29424742,0.8703313,-0.9857492,-1.8327255,-1.378513,2.0715938,1.8668543,-0.94098353,0.91922987,-0.93555725,-1.8293145,-1.4397137,2.1223779,1.8087139,-0.9135644,-1.1254044,-1.0254563,-0.12369948,1.3616934,-0.8954743,0.49562505,-0.2005053,0.08944321,-0.566349,0.73278046,-1.1726775,-0.69864136,-0.8850901,0.05122757,-0.5431938,0.6930105,0.7821787,-0.055476785,0.0576345,0.61789733,-1.1333972,-0.38993093,-0.15736149,0.0,1.0,0.0,0.0,0.0,0.0,0.0,-0.7394432,0.16634902,-0.18278044,3.093338,-4.4697285,-1.4414325,-1.2850285,2.1127582,-0.8074641,0.019538403
7.024461,38.388954,14.981808,6.059363,0.19214617,-0.27196527,0.16868529,-0.5576395,-0.61099565,-0.07218911,0.7437455,-0.58818024,0.62265545,-0.24972159,0.8634659,-0.99665684,-1.8365334,-1.3653392,2.0635598,1.8709794,-0.9385365,0.9084071,-0.94610864,-1.8307408,-1.4262769,2.1135304,1.8132087,-0.91555697,-1.0668334,-1.0629526,-0.17356384,1.325156,-0.8853638,0.38080466,-0.2006015,0.07637215,-0.5717201,0.7270014,-1.4733279,-0.24709964,0.38706306,0.040086746,-0.5471382,0.6911719,0.78903306,-0.059357215,0.058306873,0.60869026,-1.1021802,-0.3973223,-0.20499583,0.0,1.0,0.0,0.0,0.0,0.0,0.0,-0.7263721,0.17172012,-0.17700142,6.0474396,-3.473711,-8.811918,-5.6191683,-0.31427145,-22.091562,-0.44761896
-1.9822266,128.7477,51.45738,24.532192,-0.83613604,1.2395914,-0.08826154,-0.7375248,-0.03956492,0.025168689,0.79476744,-0.5821387,0.61253774,-0.22177383,0.8346546,-0.95006514,-1.828224,-1.3468002,2.0553164,1.8744625,-0.93773437,0.89725673,-0.9542759,-1.8320397,-1.4128873,2.1047947,1.8169681,-0.9175263,-1.1309674,-0.73559755,-0.11516841,1.3429959,-0.87119514,0.3753556,-0.19680597,0.06165123,-0.57419205,0.730117,-1.4718548,-0.24685258,0.28639686,0.029291153,-0.5503006,0.69024736,0.7957909,-0.06308428,0.060148276,0.5992657,-1.0743676,-0.28204018,-0.058764327,0.0,1.0,0.0,0.0,0.0,0.0,0.0,-0.7116512,0.17419204,-0.18011701,-6.389642,32.443665,5.907339,1.6731739,0.8759618,-0.24250746,0.056520104
-12.592394,122.345795,47.413925,27.51268,-0.050801754,1.4721913,-0.23759314,-0.7678916,-0.111162454,0.022312153,0.7774929,-0.5173094,0.63022876,-0.3337194,0.8204676,-0.9653922,-1.8298085,-1.3351381,2.0530639,1.8799909,-0.95089823,0.8851899,-0.95939714,-1.8327092,-1.3993413,2.0963643,1.8207313,-0.91953856,-1.2318085,-0.4385818,-0.050648805,1.3584489,-0.8350617,0.3772272,-0.20344336,0.046943665,-0.57665634,0.7322267,-1.4703832,-0.24660578,0.18583131,0.018573761,-0.552372,0.69073474,0.8025429,-0.0673607,0.06335083,0.5893843,-1.0735137,-0.17575684,0.08173965,0.0,1.0,0.0,0.0,0.0,0.0,0.0,-0.69694364,0.17665634,-0.18222672,-10.055518,29.419739,6.5162144,1.5338421,3.1250834,0.37308335,-0.8941442
-26.59698,80.24542,25.036762,25.129223,1.0173852,1.0311694,-0.42893785,-0.7910563,-0.18668865,-0.15938291,0.7678637,-0.52739704,0.6125427,-0.34387496,0.8060843,-0.978066,-1.8486475,-1.322555,2.0436246,1.8819855,-0.953926,0.87209404,-0.9625233,-1.8336228,-1.3856676,2.088258,1.8245708,-0.9216204,-1.3352674,-0.271254,-0.10491865,1.3707806,-0.8032375,0.38636225,-0.21022427,0.03224945,-0.57912064,0.7333315,-1.4689131,-0.24635923,0.08536631,0.0075683594,-0.55379486,0.69196165,0.809479,-0.07172001,0.067507446,0.57882863,-1.110979,-0.123163514,0.1344527,0.0,1.0,0.0,0.0,0.0,0.0,0.0,-0.6822494,0.17912063,-0.18333149,-10.277677,16.547638,-5.4407506,1.3471603,2.974224,0.97537637,-0.79274476
-14.790392,79.613686,28.167603,21.260612,0.74535316,0.8305701,-0.22419564,-0.7749585,-0.07983487,-0.040261477,0.7778669,-0.49159053,0.5989267,-0.32492855,0.79459816,-0.9705068,-1.837649,-1.3078809,2.039099,1.8844634,-0.9541133,0.85827625,-0.9642742,-1.8346795,-1.3718679,2.0805104,1.8284885,-0.92375094,-1.3972629,-0.1437185,-0.1056004,1.3832656,-0.7663232,0.3936855,-0.21441464,0.017570496,-0.58158493,0.73343235,-1.4674445,-0.24611291,-0.014998245,-0.0036582947,-0.55467224,0.693719,0.8164824,-0.076134495,0.072286084,0.5677453,-1.1281265,-0.06824685,0.18795633,0.0,1.0,0.0,0.0,0.0,0.0,0.0,-0.6675705,0.18158492,-0.18343234,-6.1986923,12.572631,0.033390522,1.3007641,3.4106493,0.7545948,-0.53082705
-8.922222,56.485565,20.900066,15.853413,1.0103331,0.50818735,-0.0997541,-0.7741115,-0.1591286,0.0012554461,0.77905667,-0.46834078,0.60194606,-0.36549166,0.7808651,-0.98018706,-1.834554,-1.2939622,2.0336764,1.8886831,-0.9603001,0.844115,-0.9656389,-1.8355196,-1.3579876,2.0731862,1.8324299,-0.9259424,-1.4221684,-0.13393438,-0.08304502,1.3863703,-0.7153321,0.38823417,-0.22036201,0.003030777,-0.5836296,0.73368055,-1.435891,-0.13165838,0.2619803,-0.015075684,-0.5551872,0.6956974,0.82341623,-0.080606826,0.07711709,0.55636424,-1.1464951,-0.041125502,0.19781162,0.0,1.0,0.0,0.0,0.0,0.0,0.0,-0.65303075,0.1836296,-0.18368053,-2.4350882,0.9613514,1.2308314,-0.2019167,6.201446,-1.7231047,-0.57767034
5.50511,80.75937,34.694744,14.522052,0.23565817,0.59451264,0.12863871,-0.77767223,0.0060641267,0.1273954,0.7723687,-0.4482548,0.589016,-0.3530994,0.76634777,-0.96503246,-1.82278,-1.2807508,2.0283606,1.8913314,-0.96125233,0.82987285,-0.9664943,-1.8355008,-1.3441479,2.0663383,1.8363069,-0.92817885,-1.4252126,-0.07008798,0.03109393,1.3830554,-0.6757386,0.38746578,-0.225143,-0.011236191,-0.5845871,0.73683363,-1.4232751,-0.082724765,0.33248508,-0.026395798,-0.5552139,0.6981185,0.8300724,-0.08536206,0.08192981,0.5449593,-1.127484,0.019580234,0.25579152,0.0,1.0,0.0,0.0,0.0,0.0,0.0,-0.6387638,0.18458709,-0.18683362,-0.39265156,6.2184706,11.6840925,-0.370121,3.610599,0.0032305717,-0.59766173
1.234231,62.174717,25.564438,12.699026,0.7566806,0.35517055,0.06118714,-0.7972239,-0.06572689,0.08072879,0.7589613,-0.3442256,0.5623099,-0.35968697,0.75015044,-0.973067,-1.827428,-1.2682518,2.0319157,1.892538,-0.96414757,0.81560016,-0.96714854,-1.8346101,-1.3304188,2.0601013,1.8401624,-0.9304591,-1.4281182,-0.06420014,0.10915728,1.36937,-0.60705835,0.38473183,-0.22926901,-0.025428772,-0.5851555,0.740377,-1.4178582,-0.047122944,0.3609385,-0.03765869,-0.55480194,0.7008415,0.8364483,-0.0903894,0.08649563,0.5335751,-1.1255184,0.056081578,0.27684674,0.0,1.0,0.0,0.0,0.0,0.0,0.0,-0.6245712,0.18515548,-0.190377,-0.33814907,0.47663152,8.013739,-1.3814688,6.5956116,-0.26416183,-0.4893154
4.2482224,70.8548,29.004942,12.855524,0.4362629,0.31096572,0.10271464,-0.7940158,0.014494312,0.12392185,0.7578947,-0.3588208,0.5402118,-0.34284127,0.73619854,-0.96569914,-1.822218,-1.2546294,2.0242193,1.8941836,-0.9647432,0.80133414,-0.9675014,-1.8329641,-1.3168234,2.0544186,1.8439795,-0.9327641,-1.4263402,-0.026103247,0.18380658,1.3561144,-0.5563459,0.38075277,-0.2312017,-0.039531708,-0.5853157,0.7443089,-1.4075058,-0.005054077,0.40348122,-0.0487957,-0.55397415,0.7038689,0.84253556,-0.09564909,0.09089779,0.5222285,-1.1101559,0.1013618,0.31029573,0.0,1.0,0.0,0.0,0.0,0.0,0.0,-0.61046827,0.1853157,-0.19430888,0.11284351,3.6831222,7.6866627,-1.3479471,4.7783017,-0.35548806,-0.2878636
-1.1130809,54.63228,20.61848,12.15753,0.8334459,0.12885797,0.012298193,-0.7989917,-0.04687416,0.102461405,0.7535483,-0.30382973,0.542456,-0.3597366,0.72143495,-0.97218883,-1.8227179,-1.2414685,2.0240357,1.8982251,-0.9687378,0.78707194,-0.9678123,-1.8308948,-1.303348,2.0492725,1.8477676,-0.93509537,-1.42627,-0.033059075,0.21501401,1.3447286,-0.5013608,0.3782178,-0.23393707,-0.05357361,-0.58514404,0.74839455,-1.4032251,0.025364554,0.40940145,-0.059913635,-0.5528221,0.7069943,0.8484052,-0.10098746,0.09505899,0.5108561,-1.1118128,0.12667224,0.3121913,0.0,1.0,0.0,0.0,0.0,0.0,0.0,-0.59642637,0.18514404,-0.19839454,-0.01938343,-0.7779844,3.27605,-1.1409521,5.3100467,-0.209409,-0.34038424
-0.404006,57.11909,21.077116,11.987507,0.6724294,0.06635013,0.03430388,-0.7961325,-0.0075172316,0.12224236,0.74218714,-0.29424495,0.5372542,-0.32627955,0.7074587,-0.96856403,-1.8186706,-1.2291292,2.019848,1.9014931,-0.9677233,0.7728212,-0.9680879,-1.8286211,-1.2900041,2.0445945,1.851531,-0.93742615,-1.4247178,-0.025995033,0.23206332,1.3308474,-0.45737496,0.37588376,-0.23300417,-0.067560196,-0.58465576,0.7525428,-1.3968196,0.057624016,0.41646552,-0.071006775,-0.5514183,0.7101468,0.85407543,-0.10631487,0.09903489,0.49944413,-1.1078715,0.15407804,0.31522146,0.0,1.0,0.0,0.0,0.0,0.0,0.0,-0.5824398,0.18465576,-0.20254278,0.121974945,0.6205834,1.858741,-1.3934374,4.2195377,-0.17592311,0.021266937
-3.4541926,48.009132,16.763603,11.960344,1.0066855,-0.01949215,-0.026409598,-0.7972078,-0.05261951,0.124274276,0.74362653,-0.21969165,0.52442855,-0.3352928,0.6931004,-0.97334987,-1.8161937,-1.2156415,2.0226254,1.9039739,-0.97095543,0.7585809,-0.9685142,-1.8262751,-1.2767576,2.0404627,1.8552679,-0.93975025,-1.4237536,-0.048414476,0.23586021,1.3224518,-0.3991733,0.37297013,-0.23236725,-0.08151245,-0.5838852,0.7566221,-1.3946905,0.08350835,0.40484628,-0.082157135,-0.54982376,0.71321756,0.85959125,-0.111574456,0.102716796,0.4879583,-1.1166062,0.1704064,0.3032652,0.0,1.0,0.0,0.0,0.0,0.0,0.0,-0.5684875,0.18388519,-0.20662206,0.08766651,-2.3054242,0.50173104,-0.8317232,5.689287,-0.25058985,0.013533235
-1.4500304,55.087982,19.161608,12.300505,0.6354899,-0.07344335,0.015226435,-0.78763163,-0.0046039284,0.11442692,0.7480617,-0.28158802,0.5234095,-0.2992271,0.67981774,-0.9689746,-1.8148324,-1.2019514,2.0123038,1.9076089,-0.969673,0.74439216,-0.96894914,-1.8239919,-1.2635417,2.0366364,1.858978,-0.942042,-1.4173219,-0.042194325,0.22609028,1.3212279,-0.37765917,0.37037578,-0.22824699,-0.095407486,-0.5828209,0.76066494,-1.3877923,0.11468677,0.40433687,-0.093299866,-0.5480118,0.7162383,0.86493886,-0.11673388,0.10631272,0.4763943,-1.1124524,0.19346242,0.30049357,0.0,1.0,0.0,0.0,0.0,0.0,0.0,-0.5545925,0.18282089,-0.21066493,0.62208176,0.5420215,-0.84088147,-0.115299225,2.0095527,-0.20248294,0.34732223
-6.4342895,42.24862,12.541089,11.973835,0.8803674,-0.1929329,-0.05232781,-0.7936116,-0.0647822,0.05728929,0.7450292,-0.251645,0.5181556,-0.29233658,0.665031,-0.9754274,-1.8182629,-1.1890388,2.0114717,1.9107935,-0.9712756,0.7302387,-0.96956426,-1.8220901,-1.2503237,2.0329921,1.8626658,-0.94428706,-1.4147484,-0.068091705,0.17843941,1.3221058,-0.3604758,0.3683134,-0.2233988,-0.10927391,-0.58151627,0.7644854,-1.3863944,0.13581136,0.37527466,-0.10450745,-0.5460701,0.7190482,0.87017244,-0.12164064,0.10984632,0.46469042,-1.1226507,0.20234829,0.27342403,0.0,1.0,0.0,0.0,0.0,0.0,0.0,-0.54072607,0.18151626,-0.2144854,0.26500225,-2.6403189,-4.685405,0.11048317,1.6466618,-0.15311837,0.4429698
-3.8237247,54.068947,16.784546,12.7440815,0.4845982,-0.23980075,-0.0067751594,-0.7836466,0.009152839,0.030806677,0.7526116,-0.2887704,0.4979789,-0.24806704,0.651874,-0.96864897,-1.8190094,-1.1750625,2.004115,1.9124637,-0.96909374,0.7161424,-0.9700906,-1.8207759,-1.2370561,2.029353,1.8663169,-0.9464548,-1.407959,-0.04773587,0.116031244,1.3283709,-0.36517286,0.3642888,-0.21476896,-0.12308121,-0.579937,0.7681683,-1.3786374,0.16532695,0.36639923,-0.11569786,-0.543972,0.721716,0.8752801,-0.12622754,0.113564014,0.45282942,-1.1168383,0.22090751,0.26357636,0.0,1.0,0.0,0.0,0.0,0.0,0.0,-0.52691877,0.17993698,-0.21816826,0.6636381,1.9541286,-6.1328173,0.64189434,-0.5807936,-0.3338158,0.7914305
-11.172115,35.197826,7.1358643,12.17277,0.8980775,-0.42301428,-0.12440741,-0.79181725,-0.06894804,-0.092949875,0.74853027,-0.2267308,0.46701524,-0.2584805,0.6369607,-0.97698545,-1.8300709,-1.1622031,2.0066798,1.9130185,-0.97230285,0.70206904,-0.9707306,-1.8205602,-1.2237389,2.0257974,1.8699158,-0.948549,-1.4071409,-0.069570035,-0.009932849,1.3329355,-0.3521569,0.3584866,-0.20774455,-0.13687897,-0.57818604,0.7714421,-1.3802867,0.17836261,0.31503198,-0.12701035,-0.5418472,0.72401947,0.88035953,-0.13024814,0.11739913,0.44070372,-1.1343348,0.21783543,0.21833415,0.0,1.0,0.0,0.0,0.0,0.0,0.0,-0.513121,0.17818603,-0.2214421,0.10943413,-2.222219,-12.586175,0.4951954,1.2999237,-0.53617954,0.6624013
-15.455063,36.108646,4.8762827,13.309117,0.7325295,-0.5654912,-0.16822788,-0.79871637,-0.009674695,-0.25202918,0.75594825,-0.25452152,0.41462415,-0.18884273,0.6221974,-0.97169805,-1.8457631,-1.1481441,2.0003452,1.9113783,-0.9674333,0.6879556,-0.97133523,-1.8221966,-1.2103529,2.0222876,1.8734233,-0.95052993,-1.4125024,-0.057599742,-0.21512945,1.3406513,-0.3502738,0.34814173,-0.19506095,-0.15069771,-0.57632446,0.7741536,-1.3823156,0.18913148,0.25749576,-0.1384983,-0.53977966,0.72583187,0.88549864,-0.13336891,0.12154911,0.4281713,-1.1523184,0.21157199,0.1680357,0.0,1.0,0.0,0.0,0.0,0.0,0.0,-0.49930227,0.17632446,-0.22415358,-0.4938364,1.1466287,-20.56756,0.82497597,0.22746325,-0.9987116,1.2102991
-14.640293,40.665512,7.0699773,14.022949,0.7860023,-0.5407187,-0.16970833,-0.7949833,-0.002916562,-0.29260376,0.76869893,-0.21523812,0.37879968,-0.1982438,0.60845727,-0.9716269,-1.851457,-1.133483,2.000764,1.9113033,-0.9703543,0.67380023,-0.9717606,-1.8257878,-1.1968448,2.0188997,1.8768003,-0.9523991,-1.4163316,-0.037688278,-0.40710127,1.3543289,-0.334778,0.3340606,-0.18438406,-0.16452599,-0.57432556,0.776365,-1.3827268,0.20420007,0.2106674,-0.15015984,-0.5377426,0.7272174,0.8906982,-0.13555714,0.12606406,0.41519737,-1.169232,0.20990074,0.12828547,0.0,1.0,0.0,0.0,0.0,0.0,0.0,-0.485474,0.17432556,-0.22636497,-0.34165382,1.9130014,-19.198244,1.4154673,1.5327275,-1.4296412,0.99098086
-15.6812725,37.124153,5.570884,13.726969,0.73205376,-0.5380402,-0.13780764,-0.79843676,-0.02565156,-0.39661837,0.7747638,-0.27106923,0.3465947,-0.1393015,0.59395653,-0.9743257,-1.8654497,-1.1193684,1.9917928,1.9114598,-0.9663292,0.6596019,-0.97210294,-1.8312975,-1.1831881,2.0154886,1.8800224,-0.9541294,-1.4207796,-0.03331246,-0.5989101,1.3695859,-0.34329933,0.31801566,-0.16952144,-0.17835999,-0.57218933,0.77805865,-1.3834444,0.21736646,0.15766712,-0.16200256,-0.5357361,0.72815883,0.8959315,-0.13678853,0.13096623,0.40180033,-1.1879288,0.20706917,0.082562685,0.0,1.0,0.0,0.0,0.0,0.0,0.0,-0.47164,0.17218933,-0.22805864,-0.38883686,0.35273805,-19.167603,1.5829563,-0.88292956,-1.6471982,1.3990492
-16.522348,26.719477,2.2187085,12.281673,0.95278776,-0.5547266,-0.11013775,-0.7996049,-0.090241045,-0.4703911,0.770531,-0.23939991,0.24453503,-0.07691426,0.57964146,-0.981127,-1.8783367,-1.106135,1.9915487,1.9044759,-0.96182084,0.64536643,-0.9727506,-1.8385525,-1.169426,2.012051,1.883025,-0.95567656,-1.424263,-0.07547566,-0.76774544,1.378615,-0.34405267,0.293977,-0.14987877,-0.19223404,-0.5699806,0.77907765,-1.3886789,0.22296672,0.08598884,-0.17411613,-0.5338135,0.7285302,0.9011831,-0.13703914,0.13603881,0.38804975,-1.2176397,0.19732212,0.022052234,0.0,1.0,0.0,0.0,0.0,0.0,0.0,-0.45776594,0.16998062,-0.22907764,-0.2675295,-4.28548,-16.869091,0.9964466,-0.104016066,-2.4709702,1.8999606
