Afshin1997/kuka_rl_ros2/src/catch_and_throw/input_files/idealpd/recorded_trajectories/env_96_data.csv
torque0,torque1,torque2,torque3,torque4,torque5,torque6,action0,action1,action2,action3,action4,action5,action6,set_target_0,set_target_1,set_target_2,set_target_3,set_target_4,set_target_5,set_target_6,joint_pos_0,joint_pos_1,joint_pos_2,joint_pos_3,joint_pos_4,joint_pos_5,joint_pos_6,joint_vel_0,joint_vel_1,joint_vel_2,joint_vel_3,joint_vel_4,joint_vel_5,joint_vel_6,tennisball_pos_0,tennisball_pos_1,tennisball_pos_2,tennisball_lin_vel_0,tennisball_lin_vel_1,tennisball_lin_vel_2,end_effector_pos_0,end_effector_pos_1,end_effector_pos_2,end_effector_rot_0,end_effector_rot_1,end_effector_rot_2,end_effector_rot_3,end_effector_lin_vel_0,end_effector_lin_vel_1,end_effector_lin_vel_2,obs_task_0,obs_task_1,obs_task_2,obs_task_3,obs_task_4,obs_task_5,obs_task_6,to_final_target_0,to_final_target_1,to_final_target_2,joint_acc_0,joint_acc_1,joint_acc_2,joint_acc_3,joint_acc_4,joint_acc_5,joint_acc_6
0.0,0.0,0.0,0.0,0.0,0.0,0.0,0.0,0.0,0.0,0.0,0.0,0.0,0.0,1.7802359,-1.0646509,-1.8151424,-1.1170107,1.9373155,1.1170107,-0.91629785,1.7802359,-1.0646509,-1.8151424,-1.1170107,1.9373155,1.1170107,-0.91629785,0.0,0.0,0.0,0.0,0.0,0.0,0.0,3.1098862,-0.45646095,0.3477322,-2.8955617,0.0071261297,5.5472517,0.5304184,-0.45449638,0.693097,0.5745483,0.17512383,0.15255436,0.7848268,0.0,0.0,0.0,1.0,0.0,0.0,0.0,0.0,0.0,0.0,-3.7598863,0.056460947,0.20226783,0.0,0.0,0.0,0.0,0.0,0.0,0.0
0.0,0.0,0.0,0.0,0.0,0.0,0.0,0.0,0.0,0.0,0.0,0.0,0.0,0.0,1.7802359,-1.0646509,-1.8151424,-1.1170107,1.9373155,1.1170107,-0.91629785,1.7802359,-1.0646509,-1.8151424,-1.1170107,1.9373155,1.1170107,-0.91629785,0.0,0.0,0.0,0.0,0.0,0.0,0.0,3.1098862,-0.45646095,0.3477322,-2.8955617,0.0071261297,5.5472517,0.5304184,-0.45449638,0.693097,0.5745483,0.17512383,0.15255436,0.7848268,0.0,0.0,0.0,1.0,0.0,0.0,0.0,0.0,0.0,0.0,-3.7598863,0.056460947,0.20226783,0.0,0.0,0.0,0.0,0.0,0.0,0.0
0.0,0.0,0.0,0.0,0.0,0.0,0.0,0.0,0.0,0.0,0.0,0.0,0.0,0.0,1.7802359,-1.0646509,-1.8151424,-1.1170107,1.9373155,1.1170107,-0.91629785,1.7802359,-1.0646509,-1.8151424,-1.1170107,1.9373155,1.1170107,-0.91629785,0.0,0.0,0.0,0.0,0.0,0.0,0.0,3.1098862,-0.45646095,0.3477322,-2.8955617,0.0071261297,5.5472517,0.5304184,-0.45449638,0.693097,0.5745483,0.17512383,0.15255436,0.7848268,0.0,0.0,0.0,1.0,0.0,0.0,0.0,0.0,0.0,0.0,-3.7598863,0.056460947,0.20226783,0.0,0.0,0.0,0.0,0.0,0.0,0.0
-176.0,73.9496,-3.3947506,110.0,11.349803,5.099847,-3.705147,-0.82561666,0.36728308,-0.51153064,0.72530824,0.44561607,0.64271086,-0.60773724,1.6976743,-1.0279226,-1.8662955,-1.0444798,1.9818771,1.1812818,-0.9770716,1.7787672,-1.0623583,-1.8206184,-1.1127268,1.9440236,1.1223971,-0.919094,-0.195723,0.3050516,-0.7294908,0.57158226,0.8932273,0.71604496,-0.37211698,3.0809555,-0.45638847,0.40242666,-2.8926666,0.007119005,5.4435196,0.5281906,-0.45773125,0.6939771,0.57852924,0.17370959,0.15040052,0.78262925,-0.29663056,-0.43165818,0.11716705,1.0,0.0,0.0,0.0,0.0,0.0,0.0,-3.7309556,0.056388468,0.14757335,-19.522438,30.313274,-72.741394,57.22834,89.0269,70.98252,-37.011517
-176.0,-6.376361,-36.531902,110.0,11.978582,2.2368507,-3.1037803,-0.7999131,-0.04603503,-0.53349316,0.69514656,0.5145432,0.64029676,-0.6181079,1.6987759,-1.0669618,-1.8739676,-1.0432122,1.9954779,1.1864268,-0.9809048,1.7767473,-1.0588049,-1.835017,-1.1001822,1.9575372,1.1358782,-0.9222879,-0.20201582,0.3705386,-1.6780524,1.4846936,1.5035478,1.5523481,-0.29806238,3.0520477,-0.456316,0.45608458,-2.8897743,0.0071118874,5.339891,0.523262,-0.4659443,0.69514537,0.5871651,0.17035608,0.1455579,0.777836,-0.560225,-0.9500165,0.117058545,1.0,0.0,0.0,0.0,0.0,0.0,0.0,-3.7020478,0.05631599,0.09391543,-0.0096052885,6.060153,-95.250275,92.10114,60.846256,81.64401,8.524895
-160.05978,123.8089,33.91142,96.87136,8.105517,7.906671,-1.9154011,-0.7740537,0.3408492,0.070594035,0.6354573,0.526652,0.67590916,-0.5719137,1.699342,-1.02472,-1.8279575,-1.0366365,2.0102024,1.2034692,-0.97947925,1.7714792,-1.0541548,-1.8499267,-1.0834662,1.9726739,1.1512266,-0.9254274,-0.63551503,0.49317163,-1.4217364,1.7348844,1.5126092,1.5211458,-0.32137313,3.0231705,-0.45624352,0.508707,-2.886885,0.007104777,5.236366,0.5153618,-0.47694778,0.69809395,0.59872586,0.16530591,0.1393684,0.77121824,-0.87409323,-1.1443048,0.3580395,1.0,0.0,0.0,0.0,0.0,0.0,0.0,-3.6731706,0.05624351,0.041293025,-43.458385,11.252445,27.668476,25.320768,-0.44867992,-5.4287195,-2.9599488
-101.46297,124.00094,45.20696,61.785484,4.778347,7.855784,-0.512049,-0.7779932,0.22203296,0.14433455,0.62906134,0.5449455,0.6449593,-0.5901892,1.6936799,-1.0319514,-1.8354932,-1.02056,2.0271685,1.2157226,-0.9844463,1.7619883,-1.0491518,-1.8595722,-1.0664545,1.986527,1.1654383,-0.9287805,-1.0547718,0.5002456,-0.804534,1.69018,1.3382503,1.383547,-0.34284046,2.9943237,-0.45617104,0.5602949,-2.8839986,0.0070976736,5.1329446,0.5048561,-0.48864937,0.7031956,0.6113423,0.15872502,0.13231093,0.7639115,-1.1214561,-1.167556,0.56544226,1.0,0.0,0.0,0.0,0.0,0.0,0.0,-3.6443238,0.05617103,-0.010294914,-42.29301,-0.021409988,64.00913,-4.3444395,-18.80927,-15.06238,-2.993375
-41.930798,141.15198,56.320778,34.544556,1.6840172,7.225877,0.24495403,-0.79612935,0.34540668,0.17996757,0.6183685,0.5889324,0.6462781,-0.5860361,1.6823753,-1.0146111,-1.8415754,-1.0046177,2.0454202,1.2300661,-0.9873841,1.7490679,-1.0437788,-1.8627594,-1.0510489,1.998446,1.1781164,-0.9323539,-1.3724304,0.5479597,-0.1503025,1.4903501,1.1396904,1.2275087,-0.3652047,2.9655075,-0.45609856,0.61084944,-2.8811154,0.0070905774,5.0296264,0.49250793,-0.4996071,0.7102398,0.62377626,0.15072979,0.12474912,0.7567174,-1.2846127,-1.0583271,0.7532204,1.0,0.0,0.0,0.0,0.0,0.0,0.0,-3.6155076,0.05609855,-0.06084943,-32.209373,4.232502,67.40381,-20.101143,-20.864319,-16.147877,-3.147632
-2.3651252,132.16472,51.197628,15.856157,-0.4090222,5.1342373,0.37979487,-0.8096671,0.42662817,0.12318384,0.61281335,0.5948594,0.63498724,-0.6001856,1.6681012,-1.0011159,-1.850441,-0.98976755,2.057932,1.2416152,-0.99237245,1.7340208,-1.0376314,-1.8610904,-1.0377489,2.008689,1.1893717,-0.93612856,-1.5498325,0.6359018,0.27705452,1.2761577,0.9844552,1.0912086,-0.38398919,2.936718,-0.45602608,0.6603715,-2.878235,0.007083488,4.926411,0.47917938,-0.5091648,0.7186924,0.6355546,0.14175482,0.117288165,0.7498129,-1.3608519,-0.9067476,0.87587893,1.0,0.0,0.0,0.0,0.0,0.0,0.0,-3.586718,0.05602607,-0.11037147,-18.092896,8.434999,44.00827,-21.592093,-16.031933,-13.677907,-2.5874913
21.733807,130.08095,47.464977,6.8985004,-1.6014699,3.5996628,0.26454777,-0.81930774,0.5393543,0.11359013,0.59255487,0.6192414,0.628611,-0.5921041,1.6520901,-0.983696,-1.8497314,-0.97849345,2.0706131,1.2522328,-0.995339,1.7180582,-1.0301679,-1.8569076,-1.0262629,2.0178747,1.1994292,-0.9400558,-1.6126907,0.78226894,0.46796724,1.1056426,0.8960567,0.9777979,-0.39756766,2.9079552,-0.4559536,0.7088622,-2.8753576,0.0070764064,4.8233,0.46552658,-0.51711655,0.72812426,0.6466483,0.13221979,0.11048551,0.7430725,-1.3769277,-0.7436496,0.9636545,1.0,0.0,0.0,0.0,0.0,0.0,0.0,-3.5579553,0.055953592,-0.15886217,-6.585145,14.368761,19.926435,-17.211842,-9.05807,-11.183107,-1.930201
32.065548,120.99863,42.00294,3.292163,-1.9359243,2.448002,0.14535253,-0.82229453,0.60019547,0.1393284,0.5720951,0.6300872,0.6251903,-0.58476084,1.6358287,-0.9701484,-1.8429748,-0.9690534,2.0808835,1.2619482,-0.9985319,1.7020136,-1.0211557,-1.8519847,-1.0160223,2.0265722,1.2085024,-0.94408697,-1.602445,0.94028246,0.50245255,0.99625206,0.86027735,0.8844682,-0.40648487,2.8792229,-0.45588112,0.75632256,-2.872483,0.007069331,4.7202916,0.45195007,-0.52355576,0.7382313,0.65717334,0.12242237,0.10459946,0.7363388,-1.3590275,-0.59488285,1.0237566,1.0,0.0,0.0,0.0,0.0,0.0,0.0,-3.529223,0.055881113,-0.20632255,0.7786989,15.605677,4.0296974,-11.07831,-3.6649227,-9.124863,-1.3478279
32.900833,110.69758,37.05447,3.4628425,-1.7208123,1.7875663,0.05746098,-0.8187633,0.6489496,0.16228598,0.5626048,0.6390148,0.63331133,-0.5748008,1.6201373,-0.95626074,-1.8357562,-0.95976186,2.0904737,1.2718335,-1.001567,1.6863314,-1.0106767,-1.8472755,-1.0064455,2.035159,1.2167727,-0.9481792,-1.5574206,1.0832064,0.46182272,0.9445318,0.8582823,0.8083228,-0.41147295,2.850521,-0.45580864,0.80275357,-2.8696113,0.0070622633,4.6173863,0.43861008,-0.5286827,0.74881697,0.66726327,0.11252005,0.09961432,0.72950387,-1.3300949,-0.47003013,1.0672729,1.0,0.0,0.0,0.0,0.0,0.0,0.0,-3.5005212,0.055808634,-0.25275356,4.309368,14.147186,-3.6299407,-5.299711,-0.22903681,-7.4464083,-0.87100863
29.140707,98.07829,31.777714,4.4011183,-1.3380718,1.3297765,0.013879961,-0.808469,0.685105,0.15620233,0.5518179,0.6458393,0.6388623,-0.5617916,1.6054845,-0.9421662,-1.8316553,-0.9512637,2.0997431,1.280659,-1.0043583,1.6711718,-0.9990055,-1.8431995,-0.99710965,2.0438528,1.2243868,-0.9522981,-1.502702,1.1948906,0.39057916,0.92951906,0.8730375,0.7460232,-0.41319257,2.8218498,-0.45573807,0.8481564,-2.8667424,0.0070552025,4.514584,0.42556763,-0.5327511,0.75971115,0.6770215,0.10261144,0.095380686,0.7225063,-1.3006911,-0.37037322,1.0939044,1.0,0.0,0.0,0.0,0.0,0.0,0.0,-3.47185,0.05573806,-0.29815638,5.3179264,11.060643,-6.7832766,-1.6430974,1.4774799,-6.110811,-0.49000978
20.893261,84.12615,26.003124,6.019334,-0.8517668,1.0100868,-0.016282678,-0.81206405,0.7089581,0.13274193,0.5338981,0.6567032,0.63591313,-0.5551669,1.5899653,-0.9281097,-1.8299253,-0.94371986,2.109523,1.2879782,-1.0078148,1.656449,-0.98648757,-1.8398921,-0.98783517,2.0527525,1.2314574,-0.9564218,-1.462717,1.2704542,0.31152907,0.92625916,0.89555407,0.6943202,-0.41297644,2.7932014,-0.4556694,0.89253193,-2.8638763,0.0070481487,4.411884,0.41275406,-0.5360184,0.7707315,0.6865252,0.09279493,0.091725916,0.7153031,-1.2791932,-0.29659462,1.1017483,1.0,0.0,0.0,0.0,0.0,0.0,0.0,-3.4432015,0.055669397,-0.34253192,3.864479,7.4798107,-7.6271415,-0.49544573,2.2829652,-5.086398,-0.25255084
15.344953,73.5243,22.20596,6.9128013,-0.47332478,0.8549437,0.011044923,-0.80593663,0.71988684,0.1281886,0.5235689,0.66456074,0.6424958,-0.5468705,1.5758553,-0.91449887,-1.8270733,-0.93547827,2.1192086,1.295707,-1.0111089,1.642018,-0.97347564,-1.8372314,-0.97857976,2.0618773,1.2380835,-0.9605331,-1.4371078,1.3113105,0.25168172,0.924721,0.91832185,0.6522994,-0.41141126,2.7645836,-0.45560074,0.9358812,-2.8610132,0.0070411023,4.3092866,0.40007782,-0.5386791,0.7817371,0.6957947,0.083119765,0.088458896,0.70790946,-1.26492,-0.23950076,1.0972599,1.0,0.0,0.0,0.0,0.0,0.0,0.0,-3.4145837,0.055600733,-0.3858812,2.435708,4.028654,-5.719429,-0.34857988,2.3161888,-4.134822,-0.10191202
11.549444,65.48246,19.23661,7.0295906,-0.2760741,0.7166475,0.03781286,-0.8035278,0.7293921,0.10522844,0.50453347,0.6720796,0.6515594,-0.5482256,1.5616652,-0.9005364,-1.8267086,-0.9281264,2.1290853,1.3032395,-1.0153556,1.6277395,-0.960231,-1.8350761,-0.96941304,2.0712118,1.2443529,-0.9646291,-1.42529,1.3286339,0.2043409,0.9131998,0.9384126,0.61891717,-0.40980563,2.7359962,-0.45553207,0.97820526,-2.8581529,0.0070340624,4.206792,0.38751984,-0.54083633,0.79261196,0.7048247,0.07362182,0.08545053,0.7003571,-1.2544652,-0.19262643,1.0814033,1.0,0.0,0.0,0.0,0.0,0.0,0.0,-3.3859963,0.055532068,-0.42820525,1.0556936,1.6916513,-4.4742913,-1.3702512,2.0558,-3.2592773,-0.08588433
11.779181,65.183136,19.672886,6.944248,-0.22176528,0.8099256,0.112417445,-0.7997157,0.7403205,0.12585059,0.48652884,0.67548543,0.6558709,-0.54404676,1.547768,-0.88619894,-1.822491,-0.92076015,2.1387603,1.30994,-1.0190338,1.6135203,-0.94689196,-1.8331249,-0.9604409,2.0807104,1.2503382,-0.968708,-1.4213964,1.3354783,0.19303843,0.8910784,0.95339984,0.59213847,-0.40810513,2.7074394,-0.4554634,1.0195053,-2.8552954,0.00702703,4.1043997,0.3750534,-0.542511,0.80334467,0.71356624,0.06425628,0.08259371,0.6927284,-1.2457713,-0.14336637,1.0677336,1.0,0.0,0.0,0.0,0.0,0.0,0.0,-3.3574395,0.055463403,-0.46950525,0.254035,0.64206123,-0.8192003,-2.4317265,1.5285134,-2.6044965,-0.09016991
12.667517,63.37396,19.086317,5.979969,-0.29527748,0.73230994,0.16087182,-0.79738784,0.74476236,0.11247629,0.45802057,0.6810145,0.65699625,-0.53742105,1.5337815,-0.8724157,-1.8218772,-0.9146388,2.1488118,1.3160378,-1.0224501,1.5993105,-0.9335243,-1.8312175,-0.95180154,2.0903273,1.2560965,-0.97276586,-1.4214436,1.3370255,0.19118966,0.85415894,0.9647277,0.5707626,-0.40596777,2.6789055,-0.45539474,1.059782,-2.8524408,0.007020004,4.00211,0.36268997,-0.5436821,0.81390727,0.72197115,0.055010457,0.079855025,0.68509454,-1.2336025,-0.09291569,1.049699,1.0,0.0,0.0,0.0,0.0,0.0,0.0,-3.3289056,0.05539474,-0.509782,-0.1455307,0.11956692,0.13803244,-3.9200664,1.1627674,-2.0349383,-0.045758486
15.82271,64.305786,19.604395,4.248194,-0.50187397,0.6842903,0.23757127,-0.79677004,0.75283,0.12145407,0.41083735,0.68568945,0.65755546,-0.53704405,1.5196335,-0.8582413,-1.8190721,-0.9107178,2.1588962,1.321852,-1.0264703,1.5850855,-0.920129,-1.829232,-0.943701,2.1000395,1.2616736,-0.9768056,-1.4232743,1.3403537,0.20235278,0.79451114,0.9732789,0.5538312,-0.4040959,2.650402,-0.45532608,1.0990367,-2.849589,0.0070129856,3.899923,0.3504982,-0.5442982,0.8242774,0.7299765,0.045885865,0.077236384,0.67754215,-1.2141446,-0.035653338,1.0299633,1.0,0.0,0.0,0.0,0.0,0.0,0.0,-3.3004022,0.055326074,-0.5490367,-0.33390522,0.3020525,1.4648408,-6.197858,0.87959766,-1.5499592,-0.07607341
18.591839,64.83487,19.841272,2.7129326,-0.69405097,0.5966057,0.2976906,-0.7973398,0.7584396,0.1300962,0.36210376,0.687554,0.6556727,-0.5297931,1.5053515,-0.844285,-1.8162223,-0.9074907,2.1687949,1.3272408,-1.0297849,1.5708376,-0.90668124,-1.8270805,-0.93633866,2.1098166,1.2671057,-0.98082346,-1.4258344,1.3462604,0.22051123,0.7160546,0.97928077,0.54029286,-0.40178344,2.6219292,-0.45525742,1.1372702,-2.8467402,0.007005974,3.7978382,0.3385582,-0.5443001,0.8344349,0.7375232,0.03689161,0.07476291,0.6701559,-1.1869651,0.026190972,1.0079457,1.0,0.0,0.0,0.0,0.0,0.0,0.0,-3.2719293,0.05525741,-0.5872702,-0.4108429,0.56734085,2.1701038,-8.078897,0.6262541,-1.1707425,-0.027549267
21.901506,65.19728,20.024227,1.0487065,-0.8943366,0.46893108,0.3568226,-0.79263335,0.76434726,0.13845317,0.30858544,0.69177514,0.6574214,-0.51032645,1.4915743,-0.8302465,-1.8132352,-0.90548015,2.1789942,1.3328478,-1.0318561,1.5565897,-0.8931524,-1.8247306,-0.9298699,2.119647,1.2724253,-0.9848041,-1.4248711,1.3550045,0.24100311,0.62305224,0.9844154,0.5299155,-0.39772752,2.593483,-0.45518875,1.1744837,-2.8438942,0.0069989697,3.6958554,0.32695007,-0.5436535,0.84435606,0.7445635,0.028046664,0.07246352,0.66301394,-1.1506389,0.09146042,0.9835329,1.0,0.0,0.0,0.0,0.0,0.0,0.0,-3.243483,0.055188745,-0.62448364,-0.05378723,0.8624792,2.3881645,-9.5294,0.5508661,-0.8101821,0.15624762
24.683384,66.09368,20.426521,-0.123708725,-1.0534184,0.37453127,0.4031197,-0.7894556,0.7716975,0.15866332,0.25072902,0.69038737,0.6562999,-0.50719285,1.4776442,-0.81598264,-1.8088644,-0.90479696,2.1886857,1.3380553,-1.0355234,1.5423743,-0.8795149,-1.8221252,-0.92440724,2.1295118,1.2776572,-0.9887447,-1.4210302,1.3666221,0.26809034,0.51985586,0.98732543,0.5218021,-0.39358816,2.5650635,-0.4551201,1.210678,-2.841051,0.006991972,3.5939746,0.31575394,-0.5423279,0.8540325,0.7510621,0.019357082,0.07035761,0.6561865,-1.106725,0.159539,0.9588122,1.0,0.0,0.0,0.0,0.0,0.0,0.0,-3.2150636,0.05512008,-0.66067797,0.24290085,1.1613846,3.0249357,-10.536122,0.34303665,-0.5496502,0.17755628
26.602755,65.71211,20.378254,-1.3457036,-1.1738286,0.25719875,0.45646277,-0.79220426,0.7762925,0.18526886,0.17586933,0.69284004,0.652525,-0.5035486,1.4631538,-0.8018856,-1.8035983,-0.9068203,2.1987958,1.3429097,-1.0390996,1.5281836,-0.86576,-1.8191783,-0.9200928,2.1393995,1.2828184,-0.99264425,-1.4188201,1.3784089,0.3045908,0.40128163,0.989888,0.51526237,-0.38947484,2.5366745,-0.45505142,1.2458543,-2.8382108,0.0069849817,3.4921956,0.30504608,-0.5403099,0.8634443,0.7569853,0.0108436085,0.06845195,0.649746,-1.0561358,0.22844392,0.9315387,1.0,0.0,0.0,0.0,0.0,0.0,0.0,-3.1866746,0.055051416,-0.69585425,0.08842945,1.1918306,3.9390147,-12.060976,0.32485723,-0.3552556,0.1938641
31.985596,65.227684,20.76029,-4.9244184,-1.4805822,0.07535261,0.6066898,-0.79142064,0.77828974,0.23730226,0.05727212,0.6992182,0.65009534,-0.4929278,1.4490415,-0.7879311,-1.7954481,-0.9143656,2.2093213,1.3478279,-1.041937,1.5140101,-0.851906,-1.8156917,-0.91725564,2.1493292,1.2879263,-0.99649805,-1.4171255,1.3878092,0.36444628,0.24396415,0.9941634,0.5105091,-0.38473195,2.508316,-0.45498276,1.2800136,-2.8353734,0.006977998,3.3905184,0.29493713,-0.53755,0.87253463,0.7622307,0.0025640517,0.066728294,0.64385176,-0.9911464,0.30301037,0.8975667,1.0,0.0,0.0,0.0,0.0,0.0,0.0,-3.1583161,0.05498275,-0.73001355,0.049734116,0.9702921,6.2526226,-15.919301,0.50845146,-0.09709597,0.27621388
32.487106,63.99819,20.24256,-5.3976226,-1.5308682,-0.07235539,0.6221009,-0.79116917,0.78525513,0.2584333,-0.015286201,0.69600284,0.64981,-0.4714461,1.4348931,-0.7733805,-1.7898483,-0.91878426,2.2189295,1.3529073,-1.0436426,1.4998499,-0.8379547,-1.8115985,-0.91602826,2.1592894,1.2929941,-1.0002918,-1.4158871,1.3976394,0.42480013,0.08177397,0.99688804,0.5069827,-0.37812877,2.4799805,-0.4549141,1.3131568,-2.8325386,0.0069710216,3.2889428,0.28551483,-0.53406525,0.8812706,0.7667723,-0.005443701,0.06519698,0.6385765,-0.9215132,0.37405595,0.8612225,1.0,0.0,0.0,0.0,0.0,0.0,0.0,-3.1299806,0.054914087,-0.76315683,0.029277802,1.031518,6.2269745,-16.378508,0.39129257,0.051486492,0.4993677
32.200264,62.678,19.88792,-4.864848,-1.4401505,-0.16904573,0.6190869,-0.784514,0.784667,0.2989337,-0.07970922,0.69958556,0.65058506,-0.45307234,1.4213985,-0.759488,-1.7817051,-0.9239992,2.2292478,1.3580526,-1.0455991,1.4857317,-0.8239338,-1.8068588,-0.91633534,2.16928,1.2980334,-1.0040092,-1.4107594,1.4038054,0.49070662,-0.06867201,1.0003058,0.5043395,-0.37011483,2.4516754,-0.45484543,1.3452852,-2.8297064,0.006964052,3.1874688,0.2767868,-0.5299053,0.8896546,0.77063054,-0.013183363,0.06383258,0.63394004,-0.85167927,0.4394281,0.8261037,1.0,0.0,0.0,0.0,0.0,0.0,0.0,-3.1016755,0.054845423,-0.79528517,0.45099258,0.68256855,6.695896,-15.174368,0.5044341,0.14468431,0.6706178
33.249264,59.841167,18.966549,-5.9664874,-1.5101595,-0.3819933,0.6454406,-0.7780155,0.78404814,0.3292822,-0.17853235,0.69840133,0.6426911,-0.42297423,1.4079301,-0.74552894,-1.7739305,-0.9341886,2.2391202,1.3623024,-1.0463066,1.4716917,-0.8098795,-1.801482,-0.9181864,2.1792936,1.3030459,-1.0076294,-1.4017159,1.4063364,0.553625,-0.22431076,1.002664,0.50175804,-0.3597101,2.4234009,-0.45477676,1.3763995,-2.826877,0.0069570895,3.086096,0.268795,-0.5251179,0.89765036,0.77380985,-0.02061306,0.06263591,0.6299762,-0.7757189,0.4999893,0.78587043,1.0,0.0,0.0,0.0,0.0,0.0,0.0,-3.073401,0.054776758,-0.8263995,0.87451935,0.33471584,6.324947,-15.671555,0.42569637,0.17898083,0.9404242
31.689049,60.70856,19.33871,-4.266161,-1.3609662,-0.35190803,0.6280041,-0.7760745,0.789416,0.38245386,-0.2374049,0.69740236,0.6457827,-0.37899077,1.3940842,-0.7309379,-1.7632365,-0.9419269,2.249034,1.3676242,-1.0455284,1.4577414,-0.7957918,-1.7953994,-0.9214661,2.1893263,1.3080374,-1.0111198,-1.3926959,1.4099314,0.6263507,-0.36271715,1.0042647,0.49973232,-0.34579164,2.395153,-0.4547081,1.4065009,-2.8240507,0.006950134,2.984825,0.26151657,-0.51974297,0.9052927,0.77633125,-0.027766025,0.061580785,0.626695,-0.70429754,0.5575028,0.7517998,1.0,0.0,0.0,0.0,0.0,0.0,0.0,-3.0451531,0.054708093,-0.8565009,0.8950949,0.45568943,7.2267294,-13.917011,0.40006638,0.21810532,1.3192356
27.726261,62.140556,19.775476,-0.3905487,-1.0155478,-0.22382061,0.539592,-0.76867837,0.79406583,0.42575806,-0.25568944,0.7007179,0.64378977,-0.34157336,1.3808736,-0.71638525,-1.7528236,-0.9470351,2.259398,1.3724164,-1.0452771,1.4438978,-0.7816536,-1.7885578,-0.92580914,2.1993818,1.313008,-1.0144539,-1.3816411,1.4154258,0.7030015,-0.45831072,1.0071476,0.4974643,-0.3294034,2.366932,-0.45463943,1.4355903,-2.821227,0.0069431853,2.8836548,0.25487137,-0.51382446,0.9126855,0.7782711,-0.03474975,0.0606111,0.6240295,-0.64547306,0.60953915,0.7295563,1.0,0.0,0.0,0.0,0.0,0.0,0.0,-3.016932,0.05463943,-0.88559026,1.1131763,0.6617546,7.5356007,-9.616375,0.58846474,0.15130043,1.5839219
21.63353,59.63089,18.712553,3.661138,-0.59880626,-0.15117958,0.42747968,-0.7704827,0.786778,0.46335202,-0.27014652,0.68922174,0.6414634,-0.28515932,1.3668495,-0.7029758,-1.7422225,-0.9528238,2.268304,1.3771544,-1.0429698,1.4301325,-0.7675039,-1.7809627,-0.93080163,2.2094336,1.3179537,-1.0175953,-1.3748922,1.4152943,0.7779899,-0.5130249,1.0052342,0.49478954,-0.30920768,2.3387413,-0.45457077,1.4636687,-2.8184063,0.0069362433,2.7825859,0.24868774,-0.50746155,0.91990584,0.7797344,-0.041656453,0.05967497,0.62186646,-0.6018609,0.6512376,0.7137762,1.0,0.0,0.0,0.0,0.0,0.0,0.0,-2.9887414,0.054570764,-0.9136687,0.6783724,0.10881424,7.3242426,-5.5375996,0.14286041,0.063329935,1.9702971
17.070503,58.114796,17.771952,6.539262,-0.34962,-0.13315022,0.32426158,-0.77181756,0.7938691,0.48101553,-0.28834748,0.6935129,0.63800865,-0.24479166,1.3529508,-0.688117,-1.7328612,-0.9596364,2.2787848,1.3817545,-1.0420744,1.4163996,-0.7533342,-1.7727325,-0.9361479,2.2194738,1.3228709,-1.0205212,-1.3728503,1.4178945,0.83730507,-0.5419804,1.0045009,0.49171224,-0.2871264,2.3105812,-0.4545021,1.4907372,-2.8155885,0.0069293086,2.681618,0.24285507,-0.5007324,0.9269993,0.78082275,-0.04853188,0.058774922,0.6200855,-0.56815696,0.6858186,0.70175236,1.0,0.0,0.0,0.0,0.0,0.0,0.0,-2.9605813,0.0545021,-0.9407372,0.19404888,0.3887415,5.743253,-2.9703617,0.27167797,-0.012230873,2.168578
12.865568,54.661858,16.248922,8.95275,-0.11125058,-0.17089196,0.22230504,-0.7693926,0.7902617,0.494396,-0.2817553,0.6850388,0.63534504,-0.19792387,1.3394604,-0.67430806,-1.723293,-0.96432346,2.2879777,1.3864053,-1.0403136,1.4026762,-0.7391588,-1.7640445,-0.9415829,2.2294798,1.3277556,-1.0232124,-1.3721559,1.4178833,0.8785783,-0.54429597,1.0004461,0.48840448,-0.26309946,2.282444,-0.45443344,1.5167968,-2.8127735,0.0069223805,2.5807512,0.23730469,-0.49372292,0.93398243,0.78163576,-0.055395633,0.057929534,0.6185637,-0.54299295,0.71136695,0.6908728,1.0,0.0,0.0,0.0,0.0,0.0,0.0,-2.932444,0.054433435,-0.9667968,0.046610832,0.13189316,3.935957,-0.32769442,-0.06418228,-0.06649494,2.3633122
8.325538,50.771317,14.460868,11.179025,0.12483853,-0.21359465,0.11717343,-0.7774936,0.7894068,0.4972794,-0.2720743,0.6862725,0.6398056,-0.1682453,1.3249269,-0.6602181,-1.7143166,-0.96879035,2.2981071,1.3917361,-1.0400369,1.3889128,-0.72499293,-1.7550972,-0.9469044,2.2394514,1.3326136,-1.0256634,-1.3779203,1.4166342,0.8996553,-0.5284444,0.9970524,0.48558968,-0.23916191,2.2543373,-0.45436478,1.5418485,-2.8099613,0.00691546,2.4799852,0.23194122,-0.48652458,0.9408543,0.782272,-0.062247854,0.057157468,0.6171781,-0.52650964,0.72764826,0.6795532,1.0,0.0,0.0,0.0,0.0,0.0,0.0,-2.9043374,0.05436477,-0.9918485,-0.6253481,0.0077724457,1.939702,1.4622569,-0.0135064125,-0.052583218,2.3536742
6.2250447,48.79486,13.591758,12.362188,0.22689575,-0.25006387,0.056613483,-0.78072685,0.79109913,0.50325036,-0.26037642,0.68431103,0.63952136,-0.14797686,1.3108401,-0.645883,-1.7047721,-0.97294205,2.3078825,1.3965657,-1.0404611,1.3750731,-0.7108328,-1.7460296,-0.95198846,2.2493925,1.3374449,-1.0278854,-1.3861871,1.4162409,0.908595,-0.5022974,0.9937431,0.48300323,-0.21649587,2.2262611,-0.4542961,1.5658933,-2.807152,0.0069085457,2.37932,0.22669983,-0.47919655,0.94761646,0.78280133,-0.06908826,0.056476552,0.6158402,-0.5139208,0.7397243,0.66859674,1.0,0.0,0.0,0.0,0.0,0.0,0.0,-2.8762612,0.054296106,-1.0158932,-0.890398,0.09324551,0.7412076,2.4798393,-0.014555454,-0.049489737,2.227065
7.2085085,45.47716,12.463722,10.653983,0.11469823,-0.43833977,0.085714065,-0.7839079,0.7861369,0.50432754,-0.28295863,0.68754846,0.6394885,-0.11576356,1.2966822,-0.6322191,-1.6955968,-0.98028433,2.3181474,1.4013938,-1.0394619,1.3611456,-0.69669837,-1.7369335,-0.95694757,2.2593145,1.3422552,-1.0298805,-1.3950194,1.4130063,0.90941995,-0.49425876,0.99234414,0.48088965,-0.19396402,2.1982079,-0.45422745,1.5889322,-2.8043456,0.0069016386,2.2787552,0.22164154,-0.4717636,0.9542114,0.7832244,-0.07584994,0.055914782,0.61455667,-0.4950081,0.74887115,0.6499245,1.0,0.0,0.0,0.0,0.0,0.0,0.0,-2.848208,0.05422744,-1.0389321,-0.944829,-0.19819736,-0.04143715,0.6668687,0.14141798,0.008058548,2.215737
5.2361197,44.9334,12.293948,12.417578,0.26164365,-0.39188808,0.048774578,-0.79169184,0.7873902,0.5088387,-0.24394694,0.6825893,0.6420793,-0.043949645,1.2819765,-0.6179594,-1.6860496,-0.98134226,2.3275735,1.4064631,-1.0342755,1.3471133,-0.6825878,-1.7278392,-0.9617064,2.2692137,1.3470465,-1.03162,-1.4061958,1.410779,0.90889,-0.47023144,0.98993087,0.47917324,-0.16749549,2.170185,-0.45415878,1.6109662,-2.801542,0.0068947384,2.178291,0.21673203,-0.46425056,0.96065307,0.7835602,-0.08254807,0.055472925,0.613304,-0.4821909,0.75607556,0.6356437,1.0,0.0,0.0,0.0,0.0,0.0,0.0,-2.8201852,0.054158777,-1.0609663,-1.1942148,-0.09496212,-0.17405748,2.257514,0.05108118,0.023937225,2.6069732
3.7890406,44.668983,12.43096,14.277253,0.4294876,-0.32369822,0.027445063,-0.79385346,0.783911,0.51664895,-0.20263468,0.67810374,0.6399516,0.040556177,1.2677279,-0.6041967,-1.6761743,-0.9819699,2.337024,1.4110416,-1.0275644,1.3329817,-0.66850966,-1.7187221,-0.96606374,2.2790785,1.3518187,-1.0330563,-1.4157243,1.4073026,0.9121828,-0.42482004,0.9864362,0.47732234,-0.13584684,2.1421928,-0.45409012,1.6319964,-2.7987409,0.0068878448,2.0779276,0.21187973,-0.45667648,0.9669966,0.78382814,-0.08925195,0.055118885,0.61205345,-0.47586745,0.76230675,0.62726116,1.0,0.0,0.0,0.0,0.0,0.0,0.0,-2.792193,0.054090112,-1.0819964,-1.0365963,-0.21736622,0.20216703,4.389673,-0.039625168,-0.011146069,3.1168075
5.092091,43.901257,12.455819,13.4616585,0.36556447,-0.3906759,0.06630535,-0.7951923,0.7799637,0.52270114,-0.20178574,0.6804242,0.64430565,0.08248269,1.2534624,-0.5905133,-1.6664519,-0.9862423,2.347121,1.4162493,-1.024808,1.3187758,-0.65447825,-1.709544,-0.97001576,2.2889204,1.3565775,-1.034172,-1.4223243,1.4021603,0.9193901,-0.38580114,0.98440593,0.47623113,-0.10360059,2.1142235,-0.45402145,1.6520236,-2.7959425,0.0068809586,1.9776642,0.20713043,-0.44902802,0.97324353,0.7840046,-0.09597112,0.054833036,0.610835,-0.46612632,0.7694709,0.6173204,1.0,0.0,0.0,0.0,0.0,0.0,0.0,-2.7642236,0.054021448,-1.1020236,-0.73435307,-0.38723946,0.59987307,3.7592173,0.09584427,0.07067323,3.1756787
7.399544,44.419178,13.029244,12.278266,0.23429543,-0.45093974,0.13145337,-0.7914085,0.7781667,0.53553027,-0.19221446,0.67793936,0.6489456,0.15156297,1.2396349,-0.5766616,-1.655991,-0.9892372,2.3567142,1.4214721,-1.0190158,1.3045489,-0.64049834,-1.700238,-0.97363687,2.2987394,1.3613344,-1.0349445,-1.4229015,1.3969979,0.9338173,-0.35466433,0.9822562,0.4759817,-0.06871157,2.0862846,-0.4539528,1.6710489,-2.793147,0.006874079,1.877501,0.20251083,-0.44128418,0.97938627,0.7840338,-0.10270441,0.054610223,0.60972166,-0.45078966,0.7800677,0.60660183,1.0,0.0,0.0,0.0,0.0,0.0,0.0,-2.7362847,0.053952783,-1.1210489,-0.113391876,-0.39236546,1.3220072,2.9899538,0.074994564,0.16607046,3.4392774
6.1783934,42.44976,12.375311,12.979027,0.32482678,-0.47756118,0.11856836,-0.79828006,0.7727716,0.5338181,-0.16051196,0.6773174,0.6494788,0.2290769,1.2247208,-0.56322116,-1.6468562,-0.98968804,2.3664713,1.4262823,-1.0120368,1.2903048,-0.6265833,-1.6908119,-0.9769051,2.3085394,1.3660876,-1.0353432,-1.4252568,1.3900858,0.9451446,-0.3179695,0.9804659,0.4758519,-0.030597037,2.0583763,-0.45388412,1.6890733,-2.7903545,0.006867206,1.7774379,0.19803238,-0.4334545,0.9854228,0.7839098,-0.109450795,0.05444441,0.6087213,-0.4383368,0.7877629,0.59607965,1.0,0.0,0.0,0.0,0.0,0.0,0.0,-2.7083764,0.05388412,-1.1390734,-0.29990673,-0.568676,1.0225892,3.5388112,0.10739565,0.16605854,3.7599568
8.016121,40.651604,11.845749,10.855448,0.15226704,-0.64331275,0.16748163,-0.7972522,0.7670786,0.53862685,-0.1773581,0.67626333,0.65538573,0.25569636,1.2105795,-0.54987544,-1.6369492,-0.99464095,2.3761656,1.4316261,-1.0097735,1.2760473,-0.6127512,-1.6812828,-0.9799712,2.318324,1.3708464,-1.0353775,-1.42609,1.3813452,0.95518667,-0.3032707,0.9785903,0.47652045,0.0053881803,2.0304909,-0.45381546,1.7060978,-2.7875648,0.0068603405,1.6774749,0.19373322,-0.42555046,0.99130386,0.7836104,-0.11615407,0.054354288,0.6078721,-0.41758573,0.7949237,0.5788638,1.0,0.0,0.0,0.0,0.0,0.0,0.0,-2.680491,0.053815454,-1.1560979,-0.1331091,-0.7587671,0.9121895,1.3508499,0.06830692,0.26411414,3.5504966
10.508993,40.53458,11.859305,8.564533,-0.089310706,-0.8064878,0.22204807,-0.79357064,0.7678392,0.54215735,-0.19483846,0.6742003,0.65092087,0.28661653,1.1966903,-0.5359673,-1.627067,-0.99945503,2.385744,1.4359385,-1.0067159,1.2618052,-0.5989868,-1.6716678,-0.98306394,2.328086,1.375609,-1.0350685,-1.4238355,1.3752915,0.9633581,-0.31163663,0.976152,0.476993,0.03927616,2.002636,-0.4537468,1.7221236,-2.7847779,0.0068534813,1.5776117,0.18972778,-0.41756058,0.9969719,0.7830985,-0.12273398,0.054387167,0.6072355,-0.38655135,0.80378485,0.5562311,1.0,0.0,0.0,0.0,0.0,0.0,0.0,-2.652636,0.05374679,-1.1721237,0.19416809,-0.49586296,0.7378936,-0.934571,-0.015282631,0.26407838,3.3478618
11.890282,39.717484,11.531867,6.8712344,-0.2509241,-0.9568969,0.25862968,-0.79415846,0.7665164,0.54263455,-0.21430646,0.67440426,0.64417344,0.3313575,1.1823894,-0.5223352,-1.6174043,-1.0044945,2.3955264,1.4400264,-1.0019327,1.2475859,-0.58526725,-1.6619956,-0.98638463,2.3378286,1.3803717,-1.0344257,-1.4213732,1.3712767,0.9683343,-0.33910775,0.97400254,0.47683275,0.07258385,1.9748116,-0.45367813,1.7371514,-2.7819939,0.006846629,1.4778484,0.1860733,-0.40948296,1.0023775,0.7823504,-0.12911385,0.05458773,0.6068587,-0.34802976,0.8121966,0.52876693,1.0,0.0,0.0,0.0,0.0,0.0,0.0,-2.6248116,0.053678125,-1.1871514,0.22563934,-0.29571056,0.42948723,-2.8313756,-0.008583069,0.21260977,3.2978156
9.474171,37.23341,10.802699,9.044695,0.012628615,-0.9174386,0.19988032,-0.78925776,0.75494325,0.54576993,-0.17618136,0.67526346,0.6468771,0.3713159,1.1686602,-0.5097729,-1.6074187,-1.0040028,2.405355,1.4450594,-0.9972941,1.2334105,-0.571624,-1.6522834,-0.98979497,2.347556,1.3851343,-1.0334568,-1.4164526,1.3624628,0.9720922,-0.34199584,0.9730012,0.47665235,0.1049894,1.94701,-0.45360947,1.7511823,-2.7792122,0.006839784,1.3781848,0.18273926,-0.40135384,1.0075439,0.7813968,-0.1353242,0.054920692,0.6067043,-0.31851566,0.8155498,0.50614434,1.0,0.0,0.0,0.0,0.0,0.0,0.0,-2.5970101,0.05360946,-1.2011824,0.46429634,-0.769186,0.29022694,-0.39118528,0.12243986,0.18623471,3.2024205
11.307561,36.67066,10.628449,6.89896,-0.18314832,-1.0739634,0.24529168,-0.78802806,0.7544316,0.5511242,-0.22902499,0.6760348,0.6424843,0.37192342,1.1546077,-0.49618083,-1.5971711,-1.0126975,2.4151597,1.4493828,-0.99626446,1.2192847,-0.5580599,-1.6425216,-0.99342084,2.3572798,1.3898913,-1.032198,-1.4113858,1.3548403,0.97730565,-0.36973158,0.9725747,0.4761808,0.1328341,1.919239,-0.4535408,1.7642174,-2.7764335,0.006832945,1.2786208,0.17977905,-0.39318848,1.0124416,0.78022885,-0.14131531,0.05539388,0.6067984,-0.28003824,0.81925607,0.4778182,1.0,0.0,0.0,0.0,0.0,0.0,0.0,-2.5692391,0.053540796,-1.2142174,0.4967451,-0.6557226,0.4469514,-2.855879,0.15304089,0.17150044,2.7545347
9.479668,34.92167,10.075684,8.634055,-0.0005505085,-1.0502834,0.1939745,-0.7815443,0.747875,0.54636955,-0.20296001,0.6741445,0.6428073,0.41465586,1.1411302,-0.48327237,-1.5878847,-1.0137168,2.4246943,1.454172,-0.9907324,1.2052275,-0.5445816,-1.6327407,-0.99717927,2.3669958,1.3946444,-1.0306625,-1.4038802,1.345843,0.97802967,-0.37816808,0.97194844,0.4755493,0.16032535,1.8914986,-0.45347214,1.7762575,-2.7736576,0.006826114,1.1791565,0.17714691,-0.38500595,1.0170876,0.7788723,-0.14710575,0.055994987,0.60710984,-0.24808685,0.819597,0.45364925,1.0,0.0,0.0,0.0,0.0,0.0,0.0,-2.5414987,0.05347213,-1.2262576,0.73263645,-0.7878542,-0.01360178,-0.93905926,0.14594793,0.1355648,2.7168303
10.865791,33.554337,9.392694,5.963834,-0.23106453,-1.2444596,0.23374096,-0.78994256,0.74640554,0.54747117,-0.27337167,0.67414325,0.6448849,0.40134394,1.1262332,-0.46994102,-1.5779936,-1.0245165,2.43441,1.4591329,-0.99052817,1.1911932,-0.53118056,-1.622958,-1.001295,2.3767042,1.3993937,-1.0288925,-1.4032692,1.3386027,0.97800654,-0.4228708,0.9710264,0.47533664,0.18251963,1.863781,-0.45340347,1.7873038,-2.7708845,0.006819289,1.0797917,0.1749115,-0.37682343,1.0214238,0.7773285,-0.15260759,0.056764156,0.60765874,-0.20572604,0.81865484,0.4205272,1.0,0.0,0.0,0.0,0.0,0.0,0.0,-2.513781,0.053403467,-1.2373037,0.052070618,-0.62162876,-0.058305264,-4.5460224,0.076150894,0.18997192,2.1993847
11.450772,33.66161,9.504602,5.489872,-0.2949964,-1.3013961,0.24799153,-0.7841076,0.745059,0.55258894,-0.29024705,0.6719742,0.64289,0.42454156,1.1127825,-0.45667467,-1.5676991,-1.0303197,2.4439015,1.4636827,-0.98643833,1.1771761,-0.51783484,-1.613158,-1.0059012,2.3864012,1.4041392,-1.0269108,-1.4013001,1.3335371,0.98043865,-0.47334486,0.9694068,0.4749546,0.2031883,1.8360939,-0.4533348,1.7973571,-2.7681143,0.0068124714,0.9805261,0.17313004,-0.36864662,1.0254256,0.77559,-0.15777485,0.057724647,0.6084695,-0.1603775,0.8182853,0.38700262,1.0,0.0,0.0,0.0,0.0,0.0,0.0,-2.486094,0.053334802,-1.2473571,0.19905567,-0.4028082,0.17962456,-5.1098404,0.0019550323,0.1697123,2.0530164
10.554394,30.907507,8.556577,5.656492,-0.20940065,-1.3667475,0.23211055,-0.7806417,0.73408246,0.54885775,-0.30784664,0.6683571,0.6416822,0.44896027,1.0991119,-0.4444266,-1.5582722,-1.0366858,2.4532368,1.4683074,-0.9820148,1.1631895,-0.50457114,-1.6033523,-1.0109996,2.3960714,1.4088808,-1.0247307,-1.3978906,1.3243173,0.9804072,-0.5223719,0.9664944,0.47441766,0.2229662,1.8084335,-0.45326614,1.8064185,-2.7653468,0.00680566,0.8813598,0.17178345,-0.36050797,1.0290843,0.77367175,-0.16259211,0.058868803,0.6095329,-0.11636007,0.8132675,0.3524411,1.0,0.0,0.0,0.0,0.0,0.0,0.0,-2.4584336,0.053266138,-1.2564185,0.3504038,-0.81789494,-0.07318258,-4.9712477,-0.1333952,0.14439821,1.9628614
9.979133,29.104263,7.950806,5.7171483,-0.15293294,-1.4199052,0.22249925,-0.77955514,0.7283362,0.5490227,-0.33784094,0.671182,0.6382091,0.45950368,1.085234,-0.4317375,-1.54845,-1.0447837,2.4631896,1.4727018,-0.9787803,1.1492373,-0.49141234,-1.5935504,-1.0166014,2.4057226,1.413613,-1.0223675,-1.3943509,1.3134435,0.9798449,-0.57297754,0.96497107,0.47349876,0.24082147,1.7807999,-0.45319748,1.8144891,-2.7625818,0.006798856,0.7822926,0.17087555,-0.35243416,1.0323921,0.77158785,-0.16703871,0.06018167,0.6108423,-0.07295424,0.8052356,0.31724483,1.0,0.0,0.0,0.0,0.0,0.0,0.0,-2.4308,0.053197473,-1.2644892,0.36830902,-0.9830713,-0.12954473,-5.1294565,-0.0007390976,0.09624958,1.7727911
9.509056,27.517899,7.2988133,5.568778,-0.14813235,-1.4848263,0.20376864,-0.77798617,0.72431546,0.5415984,-0.37145174,0.66467303,0.6429748,0.46011174,1.0714387,-0.41898078,-1.5393906,-1.0537466,2.47219,1.4779104,-0.9763563,1.1353194,-0.4783594,-1.5837924,-1.0227374,2.4153433,1.4183394,-1.019846,-1.3908417,1.3029178,0.974453,-0.6273418,0.9614814,0.47301167,0.2559553,1.7531967,-0.4531288,1.8215698,-2.7598197,0.0067920582,0.68332446,0.17041779,-0.34445763,1.035337,0.7693633,-0.17109019,0.061671074,0.6123764,-0.028754938,0.7946597,0.28063363,1.0,0.0,0.0,0.0,0.0,0.0,0.0,-2.4031968,0.05312881,-1.2715697,0.37066936,-0.94914436,-0.6113529,-5.5032253,-0.20842552,0.12843013,1.5034556
9.723593,26.68952,6.9572544,4.9237533,-0.1913296,-1.5666033,0.20687519,-0.7739398,0.7205374,0.5374547,-0.41332516,0.66402847,0.63889694,0.46025133,1.0579253,-0.40630567,-1.5300469,-1.0640699,2.4817462,1.4822291,-0.9738208,1.1214472,-0.4654023,-1.574105,-1.0294799,2.4249296,1.42306,-1.0171909,-1.3858339,1.2936903,0.9665505,-0.6901392,0.95814157,0.4721862,0.2685541,1.7256165,-0.45306015,1.8276615,-2.7570605,0.0067852675,0.5844553,0.17041397,-0.33659363,1.0378999,0.7670084,-0.1747105,0.06335023,0.61413425,0.018427962,0.7825949,0.2419564,1.0,0.0,0.0,0.0,0.0,0.0,0.0,-2.3756166,0.053060144,-1.2776616,0.5373955,-0.820446,-0.8677721,-6.3354373,-0.20623207,0.08686185,1.254487
6.8704133,25.699495,6.9502673,8.9654255,0.1497274,-1.3683974,0.11559945,-0.7670523,0.71492475,0.5349105,-0.37416112,0.6581289,0.6413371,0.48118746,1.044742,-0.3939098,-1.520614,-1.066896,2.4907424,1.4871938,-0.96907216,1.1076456,-0.45253485,-1.5644977,-1.0365294,2.434474,1.4277731,-1.0144138,-1.3782128,1.2847975,0.9585247,-0.7101383,0.9537918,0.47140297,0.28092036,1.6980667,-0.4529915,1.8327652,-2.7543042,0.0067784837,0.485685,0.17077255,-0.3288479,1.0401634,0.76456934,-0.1780087,0.06517203,0.61603504,0.050718073,0.7707827,0.21496049,1.0,0.0,0.0,0.0,0.0,0.0,0.0,-2.3480668,0.05299148,-1.2827652,0.74932575,-0.7731199,-0.88683367,-2.0930886,-0.25776625,0.06145239,1.2233853
5.6725154,23.675035,6.0611515,9.498736,0.2143994,-1.3975776,0.06846286,-0.7681161,0.71197665,0.51535773,-0.4050048,0.65285265,0.64536387,0.47068322,1.030834,-0.3813372,-1.512962,-1.07703,2.4997592,1.4923095,-0.96734554,1.0939032,-0.4397456,-1.5550411,-1.043764,2.443965,1.4324824,-1.0115337,-1.3730181,1.2773974,0.9409616,-0.72827375,0.948192,0.47095308,0.2903406,1.6705437,-0.45292282,1.836882,-2.7515504,0.0067717065,0.38701344,0.17145538,-0.32123566,1.0421559,0.7620957,-0.18101864,0.06713354,0.61800915,0.08111022,0.7560134,0.18779732,1.0,0.0,0.0,0.0,0.0,0.0,0.0,-2.3205438,0.052922815,-1.2868819,0.49057007,-0.6256819,-1.8192172,-1.9156098,-0.3930211,0.07894635,0.92797875
5.5477543,21.422815,5.168521,8.335616,0.20743287,-1.5031576,0.08138133,-0.772871,0.7033229,0.51344013,-0.4537714,0.66253966,0.6414657,0.45291457,1.0166161,-0.36941332,-1.503697,-1.0891411,2.5102189,1.4966289,-0.96624225,1.0801722,-0.42704743,-1.5457485,-1.0513266,2.4534369,1.4371821,-1.008585,-1.3731472,1.2676458,0.9251655,-0.76603717,0.9473681,0.4701558,0.29629692,1.6430473,-0.45285416,1.8400128,-2.7487993,0.0067649363,0.28844056,0.17245102,-0.3138008,1.0438379,0.75960565,-0.18367197,0.0692298,0.62005734,0.11450837,0.7370802,0.15552276,1.0,0.0,0.0,0.0,0.0,0.0,0.0,-2.2930474,0.05285415,-1.2900128,-0.030350685,-0.8687496,-1.6264677,-3.868246,0.056874752,0.03684163,0.58500767
5.4459157,21.085361,5.1025953,8.384764,0.19599685,-1.5148685,0.07968997,-0.77150375,0.7019615,0.5080488,-0.46886036,0.65413535,0.6431638,0.45658508,1.0030218,-0.35685128,-1.4949436,-1.0982127,2.5188503,1.5014985,-0.96292645,1.0664316,-0.4144327,-1.5365989,-1.0592898,2.4628859,1.441876,-1.0055847,-1.3744994,1.259782,0.91131294,-0.8066974,0.9446586,0.4694828,0.30118766,1.6155815,-0.4527855,1.8421586,-2.746051,0.0067581725,0.18996623,0.17378616,-0.30654907,1.0451962,0.75710183,-0.18594569,0.07146602,0.62218446,0.14846775,0.7185471,0.123237304,1.0,0.0,0.0,0.0,0.0,0.0,0.0,-2.2655816,0.052785486,-1.2921586,-0.15385151,-0.67973137,-1.4281154,-4.152286,-0.13376474,0.03813505,0.4807353
3.0244932,17.05228,3.5479922,10.015443,0.43185487,-1.4937177,0.007991471,-0.773676,0.69109696,0.48183134,-0.46489125,0.6489434,0.6467942,0.4606147,0.98906404,-0.345323,-1.4884158,-1.1057789,2.5277803,1.5065554,-0.95952326,1.0526625,-0.40192384,-1.5276687,-1.0675563,2.4722967,1.4465662,-1.0025406,-1.3779128,1.2482951,0.8870744,-0.8336885,0.9403854,0.469096,0.30541164,1.5881386,-0.45271683,1.8433204,-2.7433057,0.006751416,0.09159036,0.17541504,-0.29953003,1.0462463,0.75463754,-0.18785755,0.07382935,0.6243244,0.17470264,0.693919,0.09294603,1.0,0.0,0.0,0.0,0.0,0.0,0.0,-2.2381387,0.05271682,-1.2933204,-0.39064884,-1.0439634,-2.4407744,-2.8150082,-0.2925396,0.044459105,0.40456653
4.013868,17.285437,3.9423847,9.241916,0.34360662,-1.5199244,0.059925422,-0.76713485,0.6830323,0.49152458,-0.50232965,0.6302873,0.64901614,0.47733802,0.975949,-0.3336206,-1.4785162,-1.1177893,2.5353255,1.5114678,-0.9548068,1.0388952,-0.38954562,-1.5188987,-1.0761622,2.4816122,1.4512545,-0.99944687,-1.376533,1.2346851,0.87359405,-0.86986,0.9292801,0.4690084,0.310601,1.5607262,-0.45264816,1.8434992,-2.740563,0.0067446656,-0.0066871606,0.17733002,-0.29273605,1.046982,0.7521919,-0.18940556,0.07632105,0.6265045,0.20477502,0.6714734,0.061214697,1.0,0.0,0.0,0.0,0.0,0.0,0.0,-2.2107263,0.052648157,-1.2934992,0.12538433,-1.2564421,-1.3957262,-3.7132382,-0.9771228,0.07286668,0.5028844
3.78035,15.851714,3.2364352,8.514395,0.33731917,-1.596204,0.05374765,-0.77263474,0.67916775,0.47179854,-0.53986293,0.6383091,0.6513498,0.45196715,0.9616318,-0.32162884,-1.4717189,-1.1301485,2.545443,1.5163895,-0.95425016,1.0251223,-0.37729377,-1.5102966,-1.085224,2.4908514,1.4559447,-0.9963255,-1.3774375,1.2223135,0.8555349,-0.91876155,0.9222238,0.46909395,0.3126571,1.5333405,-0.4525795,1.842696,-2.7378228,0.0067379223,-0.10486642,0.17956543,-0.2861824,1.0473745,0.74976885,-0.19054319,0.07894067,0.62873554,0.23697144,0.6459054,0.025988065,1.0,0.0,0.0,0.0,0.0,0.0,0.0,-2.1833405,0.052579492,-1.292696,-0.08831024,-1.1376381,-1.8461347,-4.9750805,-0.59524775,0.077587366,0.19239783
4.242065,14.727179,3.236465,7.9892225,0.35944837,-1.6150749,0.10477579,-0.76097226,0.6606504,0.48189354,-0.5697712,0.6273906,0.6473094,0.46168998,0.94902503,-0.31122872,-1.4621072,-1.1422012,2.5535905,1.5206757,-0.9501565,1.011397,-0.36521834,-1.5017898,-1.0948256,2.5000029,1.460631,-0.9931812,-1.370608,1.2029296,0.848909,-0.97433877,0.91347986,0.46877676,0.31497103,1.5059814,-0.45251083,1.8409116,-2.7350855,0.0067311856,-0.20294753,0.18214035,-0.27989578,1.0474029,0.74733603,-0.19124131,0.08165729,0.63106865,0.2702885,0.61970526,-0.010720041,1.0,0.0,0.0,0.0,0.0,0.0,0.0,-2.1559815,0.052510828,-1.2909117,0.7357359,-1.8399239,-0.7510662,-5.629456,-0.7633805,0.033307076,0.2171278
2.2464616,10.133761,1.9140851,9.725086,0.6138196,-1.5396836,0.07915889,-0.74764365,0.6330974,0.4716859,-0.56652725,0.58886266,0.6545218,0.49595714,0.93663263,-0.3019086,-1.4546212,-1.1514783,2.5588892,1.5260832,-0.9435855,0.9978037,-0.35343283,-1.4933536,-1.1048526,2.5089712,1.4653212,-0.98999214,-1.3551761,1.1707249,0.841532,-1.0122304,0.8915912,0.4690238,0.3201371,1.478653,-0.45244217,1.8381472,-2.732351,0.006724456,-0.30093056,0.18497467,-0.27389717,1.0470859,0.7448864,-0.19154826,0.08442753,0.6335026,0.29488027,0.58906066,-0.044353914,1.0,0.0,0.0,0.0,0.0,0.0,0.0,-2.128653,0.052442163,-1.2881472,1.6026497,-3.124261,-0.85036755,-3.8909435,-2.064824,0.0751853,0.48514605
0.81558454,6.3697205,0.7346668,10.447847,0.8016887,-1.5187112,0.06714193,-0.7401615,0.6079378,0.46775228,-0.5930836,0.5753784,0.64822805,0.49124005,0.92378753,-0.29263905,-1.4465784,-1.164161,2.566509,1.530144,-0.94086814,0.9843893,-0.34204167,-1.4849842,-1.11524,2.5176992,1.4700056,-0.9867573,-1.336614,1.1289098,0.83490586,-1.0479556,0.8667376,0.46855354,0.32442185,1.4513474,-0.4523735,1.8344036,-2.7296193,0.0067177326,-0.39881563,0.18802643,-0.26823997,1.0464348,0.7424295,-0.19148202,0.08720798,0.636025,0.31425902,0.5538186,-0.07767624,1.0,0.0,0.0,0.0,0.0,0.0,0.0,-2.1013474,0.0523735,-1.2844036,1.9274712,-4.091382,-0.7876396,-3.6872625,-2.3641229,-0.011986494,0.3891945
-1.2727365,2.2166069,-0.61610067,12.165583,1.0160424,-1.4429717,0.028905738,-0.72763675,0.5770667,0.4569714,-0.5954051,0.5288744,0.6458641,0.5205932,0.9116256,-0.284335,-1.4392871,-1.1747805,2.5705867,1.534592,-0.934698,0.97118473,-0.33113688,-1.4767139,-1.1258849,2.5260763,1.4746844,-0.9834633,-1.3149999,1.0778972,0.82405365,-1.0705132,0.82846,0.46761838,0.33087698,1.4240723,-0.45230484,1.829682,-2.72689,0.0067110164,-0.49660283,0.19121933,-0.26296234,1.0454711,0.7399886,-0.1910821,0.08998721,0.63859737,0.32564008,0.51498926,-0.10802423,1.0,0.0,0.0,0.0,0.0,0.0,0.0,-2.0740724,0.052304834,-1.2796819,2.216506,-5.0162315,-1.2054801,-2.397561,-3.7013888,-0.0772953,0.59336424
-2.8799925,-1.5169965,-1.7362459,13.395638,1.2351853,-1.3802134,0.010576034,-0.7128446,0.53943914,0.45356977,-0.6059589,0.50411475,0.642449,0.5214369,0.89990026,-0.27719298,-1.4313569,-1.1864808,2.5764878,1.5389292,-0.9313196,0.9582176,-0.32081574,-1.4685504,-1.136711,2.534049,1.4793497,-0.9801092,-1.2904422,1.0171058,0.81338286,-1.0872147,0.7870234,0.46627384,0.33670712,1.3968239,-0.45223618,1.8239833,-2.7241638,0.0067043067,-0.59429234,0.19446564,-0.2581005,1.0442177,0.7375787,-0.19037972,0.09272516,0.6411982,0.3300531,0.47244954,-0.13628806,1.0,0.0,0.0,0.0,0.0,0.0,0.0,-2.046824,0.05223617,-1.2739832,2.506566,-6.000519,-1.1897326,-1.8285751,-4.0157795,-0.13421178,0.524348
-4.418272,-5.323666,-3.354348,13.212586,1.3324177,-1.4100578,-0.005655829,-0.71176094,0.501353,0.44255874,-0.6418283,0.46583545,0.6356826,0.5259355,0.8870415,-0.27068043,-1.4242946,-1.2008939,2.5806327,1.542918,-0.9275157,0.94544697,-0.31115407,-1.4605186,-1.1478041,2.541564,1.483998,-0.9766998,-1.2724497,0.94939715,0.7994206,-1.1172975,0.73980796,0.4641051,0.34210923,1.3696022,-0.4521675,1.8173083,-2.7214403,0.006697604,-0.69188416,0.1977539,-0.25370407,1.0426534,0.73522484,-0.18933843,0.0954198,0.6438093,0.33231133,0.4242546,-0.16798027,1.0,0.0,0.0,0.0,0.0,0.0,0.0,-2.0196023,0.052167505,-1.2673082,1.8597364,-6.706023,-1.5063763,-3.1642914,-4.6230316,-0.2405107,0.47655106
-4.8593845,-6.5967927,-3.6783743,13.750532,1.3953415,-1.3819375,-0.007994067,-0.6853349,0.4639447,0.42787477,-0.6494315,0.42739236,0.62218636,0.526228,0.8769135,-0.2647596,-1.4177312,-1.2127473,2.5843031,1.5462166,-0.92407703,0.93291855,-0.3021919,-1.452668,-1.1591872,2.5485716,1.4886156,-0.97324276,-1.2460581,0.87869734,0.77979493,-1.1457628,0.68852127,0.4606454,0.34669372,1.342411,-0.45209885,1.8096582,-2.7187192,0.0066909078,-0.78937846,0.20105362,-0.24979591,1.0407782,0.73293495,-0.18794917,0.09807246,0.6464234,0.33262312,0.37572053,-0.19843602,1.0,0.0,0.0,0.0,0.0,0.0,0.0,-1.992411,0.05209884,-1.2596581,2.7185678,-7.009101,-2.0945191,-2.9999495,-5.031705,-0.38378835,0.39400458
-6.946066,-12.071752,-5.80725,14.332961,1.5630152,-1.3781914,-0.040827025,-0.65992695,0.4039472,0.39926162,-0.66302043,0.34251672,0.60894984,0.5322062,0.86692584,-0.2617972,-1.4127418,-1.2254893,2.5828233,1.5495106,-0.92002213,0.9207239,-0.29404563,-1.4451149,-1.1708487,2.5549078,1.4931875,-0.9697418,-1.2102593,0.7934345,0.74658716,-1.1734624,0.6158957,0.45587996,0.3509207,1.3152428,-0.45203018,1.8010339,-2.716001,0.006684218,-0.88677526,0.204319,-0.24642754,1.0385867,0.73073643,-0.18620755,0.10070034,0.64900726,0.32781819,0.32040796,-0.23007579,1.0,0.0,0.0,0.0,0.0,0.0,0.0,-1.9652427,0.052030176,-1.2510338,3.6992073,-8.480131,-3.4826756,-2.9322386,-7.186234,-0.53791404,0.3399074
-19.692833,-47.770473,-19.891443,15.723183,3.1321483,-1.5239491,-0.1846432,-0.5825212,0.19551985,0.3031118,-0.6781691,0.21756007,0.5894367,0.5380652,0.8624718,-0.27449363,-1.4148036,-1.2386656,2.5766637,1.5521312,-0.9159353,0.90919876,-0.2875492,-1.4383075,-1.1827849,2.5602484,1.4976984,-0.9662037,-1.13196,0.6015587,0.65775925,-1.2012538,0.50641,0.44880074,0.3541049,1.288105,-0.45196152,1.7914363,-2.7132857,0.0066775354,-0.98407465,0.20726013,-0.24407196,1.0359925,0.72876066,-0.1840099,0.103067435,0.6514793,0.2847554,0.2036137,-0.27281496,1.0,0.0,0.0,0.0,0.0,0.0,0.0,-1.938105,0.05196151,-1.2414362,8.208799,-19.224476,-9.230959,-3.0186653,-10.980821,-0.8496702,0.1388073
-42.85536,-108.91041,-43.87402,20.403479,5.9454703,-1.5650895,-0.47650936,-0.4870297,-0.14709236,0.17249705,-0.6698309,-0.010467556,0.54432625,0.5145663,0.8604958,-0.30225843,-1.4210578,-1.249768,2.5592017,1.552131,-0.91474706,0.8988304,-0.2843706,-1.4329307,-1.1948928,2.563941,1.5020987,-0.96266365,-1.0028898,0.22267044,0.49591213,-1.2148292,0.32299793,0.43600357,0.35292813,1.2609901,-0.45189667,1.7808665,-2.710573,0.006670859,-1.0812767,0.20921707,-0.2436428,1.0328767,0.7272777,-0.1812216,0.10468587,0.6536563,0.16671972,-0.013425348,-0.32703462,1.0,0.0,0.0,0.0,0.0,0.0,0.0,-1.9109901,0.05189666,-1.2308664,13.562751,-38.069607,-16.711975,-1.6713381,-18.524324,-1.6082466,-0.4401505
-51.043743,-135.48045,-53.5141,22.752878,6.807458,-1.5237433,-0.5280885,-0.24736634,-0.41056684,-0.0087288795,-0.6248127,-0.41471893,0.5059457,0.5206506,0.8740938,-0.3254273,-1.4338036,-1.257374,2.522469,1.5526932,-0.9105986,0.8907013,-0.28578633,-1.4298255,-1.2068442,2.5647955,1.5063406,-0.959136,-0.7473192,-0.26382142,0.24683964,-1.1890765,0.0054556667,0.4186289,0.35156068,1.2339058,-0.45183182,1.7693254,-2.7078629,0.0066641895,-1.1783817,0.20980453,-0.24564362,1.0291907,0.7263877,-0.17790379,0.105445854,0.65543294,0.023360772,-0.26300383,-0.38377014,1.0,0.0,0.0,0.0,0.0,0.0,0.0,-1.8839058,0.05183181,-1.2193253,26.227104,-48.898407,-25.439644,2.419281,-31.966022,-2.2280872,-0.49509406
-38.676807,-114.96043,-40.989037,22.692764,6.0818496,-1.04688,-0.07180828,-0.017574726,-0.6030565,0.01572891,-0.59859025,-0.51389635,0.5672802,0.4858202,0.88894385,-0.346092,-1.4282527,-1.2667032,2.5134058,1.5630686,-0.910554,0.88587475,-0.29209727,-1.4287021,-1.2183589,2.5625296,1.5104662,-0.95563793,-0.39415112,-0.75422174,0.06729446,-1.1386039,-0.30420998,0.40901318,0.34862068,1.2068481,-0.45176697,1.7568139,-2.7051556,0.006657527,-1.2753896,0.20911026,-0.24977303,1.0250282,0.72567755,-0.1743591,0.10516519,0.6572147,-0.10195974,-0.46188378,-0.4275327,1.0,0.0,0.0,0.0,0.0,0.0,0.0,-1.8568481,0.05176696,-1.2068138,35.43418,-49.263,-18.06861,5.1237345,-31.036646,-1.4470875,-0.4675746
-15.637935,-67.51046,-20.47332,16.27977,3.8537579,-1.1237411,0.37037963,0.29143742,-0.68901056,-0.12909576,-0.58385795,-0.5669765,0.62298894,0.40513209,0.9150185,-0.36099833,-1.4416116,-1.2767447,2.505832,1.5727651,-0.9151247,0.88539124,-0.30250615,-1.4294136,-1.2293395,2.5576086,1.5145594,-0.952219,0.06415183,-1.1369431,-0.11476361,-1.0840112,-0.5547804,0.4080431,0.33962578,1.1798172,-0.45170212,1.7433331,-2.702451,0.0066508707,-1.3723004,0.207695,-0.25533104,1.020461,0.72463983,-0.17080316,0.103887096,0.6594928,-0.15647364,-0.58435243,-0.46723872,1.0,0.0,0.0,0.0,0.0,0.0,0.0,-1.8298172,0.051702112,-1.1933331,44.98733,-38.43688,-17.469217,5.5747747,-25.038265,-0.49765706,-0.8923948
-0.43193388,-26.28127,-5.7739706,12.475533,2.011388,-1.2959163,0.406205,0.42989665,-0.72664225,-0.26888627,-0.555961,-0.5726107,0.64835083,0.32268596,0.9283809,-0.37517038,-1.4563022,-1.2849356,2.5003476,1.5793945,-0.9199504,0.8892498,-0.31563205,-1.4320571,-1.2397593,2.5508184,1.5186793,-0.948946,0.48861146,-1.3715549,-0.31012878,-1.0278587,-0.7205489,0.41231894,0.3234859,1.152813,-0.45163727,1.728884,-2.699749,0.006644221,-1.4691144,0.2061348,-0.26169777,1.0155424,0.7231298,-0.16729116,0.10191912,0.6623515,-0.15569448,-0.6504406,-0.50217223,1.0,0.0,0.0,0.0,0.0,0.0,0.0,-1.8028129,0.051637262,-1.178884,41.12693,-23.597908,-18.328753,5.6723356,-16.586327,0.13509989,-1.5354693
4.6506205,-4.2612314,-1.9829891,7.0862007,0.9337337,-1.8236614,0.17218855,0.49729678,-0.751202,-0.45194548,-0.6057782,-0.5189951,0.6387962,0.21534473,0.9389795,-0.39075226,-1.4772516,-1.3003372,2.498919,1.5825589,-0.92741156,0.89653397,-0.3301422,-1.4370353,-1.2499942,2.543086,1.5228392,-0.9459076,0.8043426,-1.4779531,-0.55660844,-1.0219303,-0.7910787,0.41615352,0.29749072,1.1258354,-0.45157242,1.7134674,-2.6970499,0.006637578,-1.5658317,0.2048378,-0.2686329,1.0101783,0.72138697,-0.16353856,0.09963157,0.66552943,-0.11784318,-0.70488536,-0.551385,1.0,0.0,0.0,0.0,0.0,0.0,0.0,-1.7758354,0.051572412,-1.1634674,30.371798,-10.76417,-23.532127,0.6107569,-7.1148515,0.09742379,-2.53973
7.699922,9.809384,0.8459314,3.8824568,0.4552849,-2.0856085,0.053096052,0.57500726,-0.7756835,-0.54931456,-0.64471287,-0.4000338,0.60561806,0.12789106,0.9540347,-0.40771055,-1.4919667,-1.3144654,2.5030828,1.583401,-0.93311846,0.9062176,-0.3451168,-1.4444454,-1.2604998,2.5353994,1.5270106,-0.9431801,1.020269,-1.5043159,-0.8000295,-1.0601269,-0.7617493,0.41645616,0.26480624,1.0988846,-0.45150757,1.6970843,-2.6943533,0.0066309418,-1.6624521,0.20404053,-0.27605438,1.0042703,0.71962774,-0.1592244,0.0971473,0.66883916,-0.06280238,-0.752079,-0.6089464,1.0,0.0,0.0,0.0,0.0,0.0,0.0,-1.7488846,0.051507562,-1.1470842,20.752525,-2.7369738,-23.597706,-3.8180351,2.8659105,-0.24060011,-3.205341
11.888054,24.581234,7.4325905,4.258242,0.038294733,-1.8205113,0.11109235,0.61379606,-0.77956706,-0.5307733,-0.664268,-0.31619832,0.6098275,0.095701374,0.9675972,-0.4230735,-1.4975227,-1.3269266,2.5037796,1.5879933,-0.93360996,0.917366,-0.36000842,-1.453614,-1.27153,2.5284529,1.5311877,-0.9407768,1.1451079,-1.4843241,-0.95487595,-1.1171792,-0.67246854,0.41741952,0.23245953,1.0719604,-0.45144272,1.6797358,-2.6916595,0.006624312,-1.758976,0.2038002,-0.2837429,0.9978464,0.7178408,-0.15428983,0.09443829,0.6722951,-0.0033871299,-0.7713367,-0.65951866,1.0,0.0,0.0,0.0,0.0,0.0,0.0,-1.7219604,0.051442713,-1.1297357,12.100792,1.9318819,-15.213358,-5.7195663,8.865892,-0.09613633,-3.1434803
12.3362,30.563242,10.887151,6.6323466,0.03700322,-1.4704713,0.12968208,0.6356577,-0.78204465,-0.54604304,-0.6801283,-0.23866422,0.59340006,0.088646315,0.9809318,-0.43821287,-1.5082183,-1.3395429,2.5045865,1.5905277,-0.9319122,0.9292526,-0.37458915,-1.4637802,-1.2831324,2.5226202,1.5353647,-0.9386692,1.2029879,-1.4494884,-1.0372689,-1.1745044,-0.55362415,0.4172128,0.20388615,1.0450668,-0.45137787,1.6614227,-2.6889684,0.006617689,-1.8554034,0.20409393,-0.2915001,0.99099576,0.7159715,-0.14881173,0.09142647,0.6759297,0.047028676,-0.7744142,-0.7001886,1.0,0.0,0.0,0.0,0.0,0.0,0.0,-1.6950668,0.051377863,-1.1114228,5.7408094,3.430152,-8.280206,-5.7311535,11.80737,-0.15143156,-2.7519197
12.267688,33.114685,13.482884,9.669313,0.44407457,-1.1425679,0.19214755,0.6694059,-0.7795617,-0.55473423,-0.68740565,-0.02967006,0.55807096,0.13930404,0.99619323,-0.45254532,-1.5192536,-1.351873,2.519653,1.5911719,-0.9247388,0.94149876,-0.3888318,-1.4743545,-1.295204,2.518447,1.5395132,-0.93677425,1.2321334,-1.4160043,-1.0647012,-1.2179052,-0.37196317,0.41401553,0.18527015,1.0181961,-0.45131302,1.6421461,-2.68628,0.006611073,-1.9517343,0.20478058,-0.29925728,0.98383963,0.71392995,-0.14288603,0.087825835,0.67983395,0.08223115,-0.77183354,-0.7275651,1.0,0.0,0.0,0.0,0.0,0.0,0.0,-1.6681961,0.051313013,-1.0921462,3.0114174,3.2952547,-2.8999329,-4.327655,18.085463,-0.38957,-1.7192006
10.571015,32.795,14.1550865,11.818186,0.5513363,-0.87872136,0.21321021,0.65522593,-0.7745266,-0.5444368,-0.71307814,0.020020977,0.53031516,0.2440091,1.0070213,-0.46628445,-1.5287982,-1.3665118,2.520449,1.5925448,-0.91237336,0.9537821,-0.4027974,-1.4848983,-1.3076762,2.5160093,1.5436102,-0.9349556,1.2277889,-1.3902636,-1.0517347,-1.2570448,-0.20167956,0.40833002,0.18116404,0.9913559,-0.45124817,1.621907,-2.6835942,0.0066044633,-2.0479689,0.20572662,-0.3069458,0.97645247,0.71165454,-0.13659582,0.083551005,0.68403846,0.10737363,-0.7642004,-0.74935836,1.0,0.0,0.0,0.0,0.0,0.0,0.0,-1.6413559,0.051248163,-1.071907,-0.21688938,2.5200605,1.0451555,-3.8742065,16.945261,-0.61054826,-0.27593374
8.278273,32.739155,14.241569,13.897556,-0.19374022,-0.5997034,0.12144537,0.6287679,-0.7682475,-0.5362494,-0.71176654,-0.30935863,0.5362045,0.26812506,1.0166589,-0.47962216,-1.5385233,-1.3788528,2.4850736,1.5972307,-0.9081431,0.9658079,-0.41656512,-1.4951694,-1.3204097,2.5139341,1.5476595,-0.93314266,1.1951189,-1.3724095,-1.0199846,-1.2786987,-0.20974348,0.40372816,0.18141307,0.9645386,-0.45118332,1.6007062,-2.6809113,0.0065978603,-2.144107,0.20695496,-0.31441307,0.96886027,0.70919216,-0.13012594,0.07921575,0.6883593,0.13488536,-0.7362405,-0.7692465,1.0,0.0,0.0,0.0,0.0,0.0,0.0,-1.6145386,0.051183313,-1.0507061,-2.9702425,1.7335892,2.8620481,-2.101779,-0.8989394,-0.49346685,0.058749318
7.461683,30.63402,13.308927,14.589525,-0.47776043,-0.5650648,0.07015975,0.66937894,-0.77374476,-0.57326293,-0.6992651,-0.41933772,0.54561615,0.24851987,1.0327458,-0.4939396,-1.5524957,-1.3903362,2.4720004,1.6022211,-0.9082907,0.97768307,-0.43025273,-1.5053012,-1.3331965,2.5110846,1.5516745,-0.9313364,1.1855688,-1.3677621,-1.0114949,-1.2784207,-0.31045023,0.4006006,0.18033125,0.93775177,-0.45111847,1.5785447,-2.6782308,0.0065912637,-2.240149,0.20847702,-0.32157898,0.961068,0.7066009,-0.12361596,0.07530132,0.6926499,0.16486976,-0.704815,-0.7889149,1.0,0.0,0.0,0.0,0.0,0.0,0.0,-1.5877517,0.051118463,-1.0285447,-0.7544756,0.40552616,0.630188,0.10120869,-10.168695,-0.36526918,-0.11624694
3.9963737,22.776829,8.894516,14.992614,-0.050071657,-0.68899256,-0.03302411,0.69180024,-0.7891259,-0.64459574,-0.6914892,-0.39420673,0.5536512,0.23897588,1.0468631,-0.50916535,-1.5697608,-1.4023454,2.471664,1.6070396,-0.9074388,0.9896307,-0.44401902,-1.5157478,-1.3458747,2.507228,1.5556666,-0.92954826,1.198169,-1.3799108,-1.0559475,-1.2637401,-0.41159332,0.39843458,0.17830256,0.91098785,-0.45105362,1.5554236,-2.675553,0.0065846737,-2.336095,0.21024704,-0.32858467,0.95303696,0.70398295,-0.11704621,0.07185987,0.69681007,0.18753055,-0.6939549,-0.8139045,1.0,0.0,0.0,0.0,0.0,0.0,0.0,-1.5609878,0.051053613,-1.0054235,1.3729572,-1.2997389,-4.545617,1.5812874,-10.248846,-0.32031536,-0.2166897
3.5449371,22.054749,8.62953,15.387999,0.09948832,-0.64709496,-0.04133652,0.6908336,-0.79240465,-0.64388674,-0.68277985,-0.41757488,0.5647381,0.22469077,1.058714,-0.52325946,-1.5801364,-1.4141526,2.4654703,1.6121404,-0.90707916,1.0017378,-0.45794362,-1.5266712,-1.3583487,2.502448,1.5596491,-0.9277897,1.21523,-1.3969859,-1.1045489,-1.2416469,-0.5004991,0.39782706,0.17501478,0.88425446,-0.45098877,1.5313437,-2.6728783,0.00657809,-2.4319453,0.21221161,-0.33551216,0.9447608,0.70137286,-0.11041297,0.06881597,0.7008205,0.20667312,-0.68664885,-0.83830756,1.0,0.0,0.0,0.0,0.0,0.0,0.0,-1.5342544,0.050988764,-0.9813437,1.7981291,-1.7995834,-4.9328804,2.3326874,-9.037095,-0.16794205,-0.33490062
4.8273416,23.568054,9.397264,13.78043,0.039083064,-0.67117006,0.017094068,0.6889741,-0.79700935,-0.6463954,-0.70695955,-0.436227,0.555176,0.21838835,1.0706352,-0.53764457,-1.5913107,-1.4290447,2.4588253,1.6151667,-0.90595084,1.0139887,-0.47203988,-1.5380104,-1.3707427,2.4969358,1.5636202,-0.9260664,1.2286855,-1.4141221,-1.144019,-1.2384237,-0.56859577,0.3963947,0.17155938,0.85754395,-0.45092392,1.506306,-2.6702058,0.006571513,-2.5276997,0.21440506,-0.34235764,0.93620676,0.69873047,-0.10365955,0.06608064,0.70474374,0.2289071,-0.67828864,-0.8673553,1.0,0.0,0.0,0.0,0.0,0.0,0.0,-1.5075439,0.050923914,-0.95630604,1.4469147,-1.7992735,-4.051733,0.45063496,-6.950867,-0.2696395,-0.33087134
6.6151223,26.918222,11.257159,12.808594,-0.057269752,-0.6232443,0.07929298,0.6907488,-0.79850864,-0.6479313,-0.7153805,-0.44270808,0.5576195,0.21320824,1.0830636,-0.55189073,-1.6028035,-1.4422808,2.452665,1.6193821,-0.9047456,1.0263407,-0.4862725,-1.549628,-1.3831996,2.4909163,1.567578,-0.9243765,1.2378408,-1.4265648,-1.1681098,-1.2476652,-0.61334735,0.39533436,0.16819002,0.83086395,-0.45085907,1.4803115,-2.6675363,0.006564943,-2.6233582,0.2168312,-0.34908867,0.9273585,0.69598997,-0.096744485,0.063565224,0.7086592,0.253371,-0.6643738,-0.8968671,1.0,0.0,0.0,0.0,0.0,0.0,0.0,-1.4808639,0.050859064,-0.9303115,1.0341406,-1.3208628,-2.5491476,-0.80165863,-4.608774,-0.23356676,-0.3026247
7.7963037,30.027895,13.128689,12.559467,-0.10203773,-0.5202648,0.13020083,0.6867885,-0.801954,-0.6412498,-0.72203654,-0.44058865,0.5570351,0.22102715,1.0950196,-0.5664679,-1.613753,-1.4554032,2.4468575,1.6232815,-0.9022738,1.0387309,-0.5006005,-1.5613468,-1.3958014,2.4846106,1.5715281,-0.9227104,1.2397306,-1.4350746,-1.1738096,-1.2639205,-0.63669914,0.3944714,0.16624919,0.80420685,-0.45079422,1.4533612,-2.6648693,0.0065583796,-2.7189212,0.21949005,-0.35563278,0.91823155,0.69308776,-0.089668095,0.061176147,0.71263343,0.27725425,-0.64476436,-0.9242098,1.0,0.0,0.0,0.0,0.0,0.0,0.0,-1.4542068,0.050794214,-0.90336114,0.3316641,-0.9197235,-0.74408054,-1.5081406,-2.465105,-0.20484924,-0.14311671
8.879696,32.797882,14.772091,12.352512,-0.18848991,-0.42968947,0.17544389,0.6872044,-0.8040552,-0.6375832,-0.73183984,-0.45367107,0.5600916,0.25154218,1.1074513,-0.58100605,-1.6251051,-1.4689854,2.4392436,1.6275373,-0.8975562,1.0511153,-0.5149867,-1.5730331,-1.408594,2.4781408,1.5754725,-0.9210377,1.2384634,-1.440051,-1.1676793,-1.2841457,-0.6510307,0.39416414,0.16790512,0.77758026,-0.45072937,1.4254559,-2.662205,0.0065518226,-2.8143888,0.22239304,-0.361948,0.90884733,0.68996775,-0.08244436,0.05886543,0.71671623,0.30134162,-0.6194431,-0.949464,1.0,0.0,0.0,0.0,0.0,0.0,0.0,-1.4275802,0.050729364,-0.8754559,0.028014183,-0.5589962,0.41816235,-1.9098043,-1.5586019,-0.14349222,0.22635758
8.628826,35.364174,16.274254,13.799265,-0.21435875,-0.24060774,0.15874934,0.6794933,-0.8020603,-0.62726605,-0.718794,-0.48734802,0.58598614,0.24849416,1.1190646,-0.59519273,-1.6357597,-1.4804734,2.429406,1.6340711,-0.89618826,1.0634406,-0.5293881,-1.584584,-1.4214915,2.471488,1.579436,-0.91934776,1.2311885,-1.440422,-1.1515688,-1.2912003,-0.67091835,0.39682984,0.16949746,0.75097656,-0.45066452,1.3965967,-2.6595433,0.006545272,-2.9097605,0.22550964,-0.3679695,0.8992648,0.6866187,-0.07515696,0.056646433,0.7209003,0.32105997,-0.58822596,-0.9671339,1.0,0.0,0.0,0.0,0.0,0.0,0.0,-1.4009765,0.050664514,-0.84659666,-0.55806637,-0.09639263,1.4155388,-0.59854984,-2.1237373,0.18105507,0.2133578
8.535655,35.848392,16.501354,13.962088,-0.23942143,-0.19664179,0.14484982,0.6845209,-0.80619854,-0.6333411,-0.7228022,-0.51792717,0.5886079,0.23661698,1.1318927,-0.610008,-1.6479181,-1.4937717,2.4196954,1.6382967,-0.8956861,1.0757182,-0.54379815,-1.5960109,-1.4344271,2.4645758,1.583428,-0.91765213,1.2271451,-1.4413418,-1.1402565,-1.2940344,-0.69846064,0.39982617,0.16975498,0.7244034,-0.45059967,1.3667845,-2.6568842,0.0065387283,-3.005037,0.22882462,-0.3736725,0.88951224,0.68305075,-0.067848474,0.05455157,0.72516364,0.34008092,-0.55638117,-0.983697,1.0,0.0,0.0,0.0,0.0,0.0,0.0,-1.3744034,0.050599664,-0.81678444,-0.24609566,-0.1511097,0.949049,-0.1716137,-2.8911114,0.2128601,0.07689297
7.942254,36.337524,16.854618,14.461117,-0.15476274,-0.10159194,0.14713582,0.67493874,-0.80818486,-0.6195681,-0.72478276,-0.50768745,0.5974636,0.26814747,1.1432121,-0.6246166,-1.6579677,-1.5069054,2.413807,1.6431744,-0.8908374,1.0879252,-0.5582215,-1.6072948,-1.4473723,2.4574537,1.5874563,-0.9159317,1.2192297,-1.4429709,-1.1250621,-1.2943808,-0.71684545,0.4035201,0.17295364,0.6978531,-0.45053482,1.3360201,-2.654228,0.006532191,-3.1002185,0.23229599,-0.37906265,0.8796113,0.6792615,-0.060541477,0.052550405,0.7295045,0.35521454,-0.5249367,-0.9977823,1.0,0.0,0.0,0.0,0.0,0.0,0.0,-1.3478531,0.050534815,-0.7860201,-0.6285429,-0.22227764,1.3385773,0.08254051,-1.9822717,0.2904892,0.37603378
6.6160846,37.092407,17.199701,15.792571,-0.05718708,0.04613714,0.107710384,0.66197234,-0.80582404,-0.60901904,-0.7096735,-0.5237171,0.62613285,0.2620627,1.1541225,-0.6388039,-1.6681967,-1.5183396,2.405082,1.6500696,-0.88972545,1.1000063,-0.5726487,-1.6184089,-1.4602412,2.4501562,1.59154,-0.9141846,1.2049583,-1.4428449,-1.1075131,-1.2839243,-0.7344952,0.40988722,0.17538725,0.6713333,-0.45046997,1.3043047,-2.6515741,0.00652566,-3.1953046,0.23587799,-0.3841381,0.8696068,0.6752766,-0.05328913,0.050619796,0.7338932,0.36443684,-0.49358943,-1.0065601,1.0,0.0,0.0,0.0,0.0,0.0,0.0,-1.3213333,0.050469965,-0.7543047,-1.2562513,-0.04887581,1.5841007,1.1651993,-1.9206285,0.5785525,0.29408634
6.9703336,37.235428,17.203787,15.081535,-0.10071051,0.021682344,0.1222864,0.6658465,-0.8084649,-0.61120236,-0.71755713,-0.5432685,0.61611897,0.28524795,1.166591,-0.6534952,-1.6795292,-1.531997,2.3958294,1.6531519,-0.88565975,1.1119807,-0.5870835,-1.6293952,-1.4730395,2.442668,1.595677,-0.91239834,1.1954558,-1.4438877,-1.0962763,-1.277989,-0.7540573,0.4146167,0.17980257,0.6448364,-0.45040512,1.2716392,-2.6489232,0.0065191356,-3.2902958,0.23955917,-0.3889122,0.85949665,0.67109567,-0.04608368,0.048767984,0.7383281,0.37531278,-0.46282682,-1.017419,1.0,0.0,0.0,0.0,0.0,0.0,0.0,-1.2948364,0.050405115,-0.7216392,-0.79159737,-0.16429424,0.9587288,0.72038174,-2.1088004,0.4021883,0.49492717
6.225263,36.521236,16.570478,14.877136,-0.032838643,0.02339214,0.10464761,0.66019714,-0.81060857,-0.61778,-0.71556026,-0.5467798,0.6226638,0.29645076,1.1780005,-0.66814435,-1.6911732,-1.5445955,2.38799,1.6579434,-0.88275325,1.1238654,-0.6015374,-1.6403434,-1.4857882,2.4350119,1.5998598,-0.9105625,1.1867774,-1.4461637,-1.0949968,-1.2733529,-0.77016366,0.41913185,0.18495004,0.61836624,-0.45034027,1.2380245,-2.6462748,0.0065126177,-3.385192,0.24335098,-0.39340782,0.8492609,0.6667306,-0.038890004,0.046985943,0.7427988,0.384697,-0.4354828,-1.0302968,1.0,0.0,0.0,0.0,0.0,0.0,0.0,-1.2683662,0.050340265,-0.68802446,-0.7142782,-0.29027462,-0.027608871,0.6026983,-1.7688394,0.37148595,0.5685866
3.1178641,35.852623,15.892523,16.374926,0.17328209,0.18807834,0.025993057,0.62680024,-0.81179136,-0.6050832,-0.7015266,-0.55359775,0.6265615,0.2482539,1.1865454,-0.68271655,-1.7008518,-1.5559409,2.379652,1.662516,-0.8857371,1.1355364,-0.61601895,-1.6512535,-1.4984435,2.4272146,1.6040846,-0.9087162,1.1611995,-1.4489601,-1.0902681,-1.2622961,-0.78380483,0.42349187,0.1846303,0.59192276,-0.45027542,1.2034615,-2.643629,0.0065061064,-3.479993,0.2471695,-0.39765358,0.83891994,0.6622517,-0.031722486,0.045253694,0.7472405,0.38492897,-0.41206965,-1.0397661,1.0,0.0,0.0,0.0,0.0,0.0,0.0,-1.2419227,0.050275415,-0.6534615,-2.3806334,-0.3471136,0.31585693,1.2567282,-1.5373468,0.37630796,0.013482571
2.3191142,34.21232,14.561406,14.9906025,0.23398566,0.11318668,0.029429913,0.61864704,-0.81624085,-0.6237417,-0.7252361,-0.5384286,0.59958786,0.2810435,1.1974012,-0.69764304,-1.7136276,-1.5709671,2.3733718,1.6640434,-0.88061184,1.1469386,-0.63054436,-1.662215,-1.5111102,2.4193602,1.6083266,-0.9068537,1.1337198,-1.453896,-1.0986389,-1.2675736,-0.7866704,0.4242477,0.1869399,0.565506,-0.45021057,1.1679512,-2.640986,0.0064996015,-3.5746996,0.25099564,-0.4017105,0.8284233,0.65768296,-0.024493856,0.04353753,0.7516366,0.3854307,-0.39383176,-1.0571623,1.0,0.0,0.0,0.0,0.0,0.0,0.0,-1.215506,0.050210565,-0.6179512,-2.5651932,-0.56364536,-1.0046005,-0.35467148,-0.45927763,-0.010544062,0.2813846
-1.2531962,34.003674,13.848234,16.408257,0.3583687,0.28982282,-0.029507034,0.57344073,-0.8161127,-0.6190696,-0.71634066,-0.57923216,0.6080149,0.3070465,1.2042826,-0.71215564,-1.7241219,-1.5827442,2.3614368,1.6691281,-0.876149,1.1579096,-0.6451108,-1.673249,-1.5238112,2.4113836,1.61258,-0.9049511,1.0857704,-1.4578396,-1.1055218,-1.2703987,-0.80211914,0.42536473,0.19150886,0.5391159,-0.45014572,1.1314865,-2.6383455,0.006493103,-3.6703768,0.25475693,-0.4056015,0.8177637,0.6530742,-0.01719243,0.04187184,0.75593996,0.3772549,-0.3777087,-1.0728897,1.0,0.0,0.0,0.0,0.0,0.0,0.0,-1.1891159,0.050145715,-0.5814865,-4.5814514,-0.46987534,-0.8657217,-0.0931263,-1.7388701,0.0359118,0.48849583
-9.786495,28.666695,9.063332,17.900469,0.81908274,0.4253632,-0.23065451,0.49611238,-0.8198493,-0.6594461,-0.7289364,-0.5915305,0.58178884,0.2052165,1.2075208,-0.7270957,-1.7391937,-1.5967048,2.3522305,1.6707588,-0.88442945,1.168114,-0.65972394,-1.6845272,-1.5365943,2.4032278,1.6168219,-0.9030819,0.9995013,-1.4627777,-1.1360152,-1.2801762,-0.82126635,0.42355168,0.18535177,0.51275253,-0.45008087,1.0940658,-2.6357076,0.0064866114,-3.7659583,0.25831604,-0.40945053,0.8068878,0.64861625,-0.009740098,0.040298287,0.7599856,0.3525882,-0.3777675,-1.0963292,1.0,0.0,0.0,0.0,0.0,0.0,0.0,-1.1627525,0.050080866,-0.5440658,-8.353699,-0.5886555,-3.2447577,-0.73640347,-2.1472216,-0.2640605,-0.61591864
-22.626501,23.649687,3.902132,20.929382,1.3967067,0.82199126,-0.5061284,0.35645133,-0.8177355,-0.67054635,-0.750571,-0.62691516,0.5745919,0.027756711,1.2037591,-0.7414975,-1.7515818,-1.6116514,2.3405364,1.6742811,-0.9003062,1.1769202,-0.67436665,-1.6961467,-1.5495642,2.3947935,1.6210409,-0.9014139,0.8421718,-1.4652181,-1.1714401,-1.3016368,-0.8517838,0.4209527,0.16042022,0.48641586,-0.45001602,1.0556899,-2.6330724,0.006480126,-3.8614445,0.26143265,-0.41341782,0.7957452,0.6446101,-0.0020678332,0.038880546,0.7635193,0.30018127,-0.39312297,-1.1239297,1.0,0.0,0.0,0.0,0.0,0.0,0.0,-1.1364158,0.050016016,-0.5056899,-15.345823,-0.36447048,-3.7916422,-1.8410206,-3.3483267,-0.33396482,-2.543089
-60.53982,7.829777,-11.223816,32.401287,3.4827137,1.9879955,-1.2214615,-0.008119462,-0.81944525,-0.693668,-0.76424456,-0.63521665,0.5721392,-0.15649652,1.1761082,-0.7563112,-1.7655135,-1.6259887,2.331272,1.6782548,-0.9170636,1.1826594,-0.6890351,-1.7081707,-1.5627822,2.3860579,1.6252333,-0.90013504,0.48686168,-1.4680384,-1.2139249,-1.326893,-0.882638,0.41864526,0.116502725,0.4601059,-0.44995117,1.0163599,-2.63044,0.0064736474,-3.9568348,0.26337433,-0.41794395,0.7843045,0.6417667,0.005888914,0.03761816,0.76595396,0.16202264,-0.46241692,-1.1542863,1.0,0.0,0.0,0.0,0.0,0.0,0.0,-1.1101059,0.049951166,-0.4663599,-34.840183,-0.49676895,-4.6138525,-2.0325184,-3.5866976,-0.26817322,-4.55126
-106.99667,-9.156054,-28.85443,46.34913,6.1041307,3.4273715,-1.9861976,-0.46660045,-0.8105478,-0.726134,-0.78403795,-0.59055763,0.5283806,-0.1214722,1.1359993,-0.7700899,-1.780784,-1.641186,2.327002,1.6780714,-0.9122823,1.1830828,-0.70369023,-1.7206886,-1.5762824,2.3771887,1.6293684,-0.899251,-0.102152176,-1.4660065,-1.2662371,-1.354806,-0.8909911,0.41130957,0.078234725,0.43382263,-0.44988632,0.97607684,-2.62781,0.006467175,-4.0521297,0.26315308,-0.42365646,0.7725475,0.64097327,0.01423205,0.036407813,0.7665671,-0.08207987,-0.5979329,-1.1860877,1.0,0.0,0.0,0.0,0.0,0.0,0.0,-1.0838226,0.049886316,-0.42607683,-57.81974,-0.18510818,-5.7466745,-1.9808054,-1.6541243,-0.86992383,-4.070103
-105.22683,-4.166961,-25.580873,45.258194,6.0211782,3.599762,-1.7784613,-0.59770125,-0.81382525,-0.7240112,-0.7908744,-0.55787927,0.49585035,0.11306981,1.1233127,-0.78507274,-1.7930897,-1.6553699,2.3214006,1.6789534,-0.887944,1.1778071,-0.71833867,-1.7336147,-1.590021,2.368392,1.6333987,-0.89852524,-0.6657697,-1.4659595,-1.3031328,-1.3769208,-0.8786382,0.3988585,0.07013816,0.40756226,-0.44982147,0.9348415,-2.6251829,0.0064607095,-4.1473293,0.26049042,-0.43065453,0.76051354,0.64227587,0.022963405,0.035063934,0.7653267,-0.32866076,-0.7240575,-1.2122314,1.0,0.0,0.0,0.0,0.0,0.0,0.0,-1.0575622,0.049821466,-0.3848415,-55.282223,-0.46627522,-4.213333,-1.2613535,0.33465624,-1.6074836,-0.9534389
-83.868546,8.129081,-14.718205,38.35316,4.9078584,3.2040224,-1.3033273,-0.68707013,-0.821351,-0.7275114,-0.7837236,-0.5111824,0.4349715,0.19107467,1.1091001,-0.80047375,-1.8063658,-1.6683934,2.3172739,1.6768959,-0.8794178,1.1678603,-0.7330243,-1.7467926,-1.6038741,2.3598928,1.6372572,-0.8977728,-1.1012461,-1.4708761,-1.3240275,-1.3851132,-0.84285474,0.38005573,0.076924264,0.3813324,-0.44975662,0.8926549,-2.622558,0.0064542503,-4.2424335,0.25568008,-0.43864822,0.7482737,0.6451937,0.032018702,0.03337554,0.76261777,-0.53459704,-0.81356704,-1.230777,1.0,0.0,0.0,0.0,0.0,0.0,0.0,-1.0313324,0.049756616,-0.34265488,-42.674564,-0.94094276,-2.525115,0.088477135,2.7784705,-2.3513794,0.6656796
-55.485943,21.49929,-2.2392807,29.134682,3.532247,2.532949,-0.8402289,-0.7434104,-0.8254662,-0.74644125,-0.77793366,-0.39723125,0.4161559,0.026103156,1.0935192,-0.81557095,-1.8214366,-1.6816674,2.3201697,1.6788728,-0.89516246,1.1547778,-0.7477748,-1.7601535,-1.6177291,2.352088,1.640927,-0.89705276,-1.3753452,-1.4775795,-1.3410933,-1.3832012,-0.7613957,0.36116904,0.070711315,0.35512543,-0.44969177,0.84951794,-2.6199362,0.006447797,-4.3374424,0.24925995,-0.44724655,0.7358787,0.6491765,0.041339915,0.031090135,0.7588769,-0.6834496,-0.86264205,-1.2451037,1.0,0.0,0.0,0.0,0.0,0.0,0.0,-1.0051254,0.049691767,-0.29951793,-26.825546,-1.0171175,-2.0058632,0.9132147,7.559395,-2.3285568,-0.5242303
-29.427454,33.57688,9.247559,21.239784,2.3893795,1.9287745,-0.49231666,-0.77620363,-0.82520866,-0.7503273,-0.76732314,-0.2171542,0.4142971,-0.25186098,1.0771574,-0.8302956,-1.8351862,-1.6944613,2.3303726,1.6823567,-0.9222389,1.140013,-0.76257485,-1.7736309,-1.6314963,2.3455877,1.6444308,-0.8966017,-1.5091344,-1.4815779,-1.3503715,-1.3730705,-0.61386776,0.34563094,0.037222635,0.32894516,-0.44962692,0.8054316,-2.6173167,0.0064413506,-4.432357,0.24175262,-0.45609665,0.72338516,0.65379024,0.050866675,0.027902715,0.75444835,-0.7803218,-0.87880605,-1.2533838,1.0,0.0,0.0,0.0,0.0,0.0,0.0,-0.97894514,0.049626917,-0.2554316,-13.063192,-0.6221771,-1.0869741,1.4932394,14.4057865,-1.8816769,-3.1742983
-10.696444,42.781837,17.714304,16.347013,1.549622,1.5217766,-0.26692164,-0.79061913,-0.81820333,-0.75734437,-0.74144024,-0.06981155,0.44484422,-0.40330824,1.0609511,-0.84439516,-1.8493652,-1.7056403,2.3386066,1.6889151,-0.9369325,1.124655,-0.7773606,-1.7871788,-1.6450518,2.340869,1.6478258,-0.89659405,-1.5441006,-1.4779305,-1.3564292,-1.3487694,-0.42493543,0.33701652,-0.010629536,0.3027916,-0.44956207,0.76039684,-2.6147,0.0064349105,-4.527176,0.23355865,-0.46495628,0.7108652,0.6587402,0.06050155,0.023618687,0.74956185,-0.83903855,-0.87262994,-1.2540028,1.0,0.0,0.0,0.0,0.0,0.0,0.0,-0.9527916,0.049562067,-0.21039683,-3.3726692,0.24216175,-0.6450176,2.7027369,18.741411,-1.0671973,-4.585269
0.19131686,47.72759,22.467808,13.087719,1.050797,1.2678555,-0.1263875,-0.7993956,-0.81500494,-0.75637007,-0.7330134,0.092102945,0.43214396,-0.48471004,1.0447154,-0.8588611,-1.8628157,-1.7183532,2.3500793,1.6910403,-0.945065,1.1093447,-0.7920787,-1.8007495,-1.6583537,2.338256,1.6511484,-0.89709663,-1.5266627,-1.4699658,-1.3572073,-1.3234831,-0.20661011,0.33023724,-0.062731385,0.27666473,-0.44949722,0.7144146,-2.6120858,0.006428477,-4.6219006,0.22495651,-0.47366524,0.69836,0.6638379,0.07018503,0.01812573,0.74435526,-0.87455,-0.8545771,-1.2518245,0.0,1.0,0.0,0.0,0.0,0.0,0.0,-0.9266647,0.049497217,-0.16441458,1.7688274,0.7320404,-0.056695938,2.6798725,21.801847,-0.8052349,-5.0020294
5.428364,50.19943,24.653276,10.987709,0.5313,1.1517197,-0.043302722,-0.7988573,-0.81088805,-0.75873715,-0.72612435,0.13789128,0.43194756,-0.495532,1.029459,-0.87316746,-1.8766233,-1.7309661,2.352045,1.6943432,-0.94664985,1.0943288,-0.8065648,-1.815655,-1.6722797,2.3351784,1.6552125,-0.89738387,-1.4938053,-1.4481027,-1.4938722,-1.3928424,-0.28003207,0.39439863,-0.04345836,0.26378632,-0.45614815,0.7214997,-1.2300011,-0.6895176,1.089192,0.2162323,-0.48184395,0.68529636,0.6686704,0.08004399,0.012768632,0.73912776,-0.88007325,-0.79640424,-1.3110427,0.0,1.0,0.0,0.0,0.0,0.0,0.0,-0.9137863,0.05614814,-0.17149967,3.1329393,-0.2790451,2.8146505,2.4400234,18.39012,-3.6697805,-6.6732063
85.77297,176.0,110.0,93.2599,-7.536188,8.682364,-0.02589316,-0.6482033,0.46524993,0.72971696,0.74424374,-0.32050127,0.6337527,-0.30078724,1.0295085,-0.7600398,-1.7426833,-1.5978553,2.3031282,1.7185878,-0.9274626,1.0851544,-0.8187375,-1.8314688,-1.6748546,2.321907,1.669037,-0.8955547,-0.72943366,-1.1394293,-1.6028095,0.11535646,-1.6718013,1.7188901,0.25351718,0.25149536,-0.4630394,0.73163605,-1.2287713,-0.6888283,0.9884582,0.20785904,-0.48792458,0.6761662,0.67351395,0.08032856,0.012837053,0.7346846,-0.829199,-0.5295532,-0.7808836,1.0,0.0,0.0,0.0,0.0,0.0,0.0,-0.90149534,0.06303939,-0.18163604,75.19739,31.139397,-8.586144,149.13028,-137.78687,134.59819,28.221708
26.79307,176.0,110.0,95.63554,-0.78105485,6.8141394,-0.30623275,-0.7602429,-0.48199612,0.5202716,0.7934349,-0.6391122,0.5549063,-0.35650155,1.0091301,-0.8669371,-1.7794417,-1.5955112,2.2579958,1.7245276,-0.93120486,1.0787762,-0.8283038,-1.8425753,-1.6660179,2.3034592,1.687565,-0.89253634,-0.60787535,-0.89705944,-0.9426156,1.1380306,-1.9059213,1.9036433,0.31687003,0.23921585,-0.46992302,0.7407658,-1.2275428,-0.68813956,0.8878251,0.19941711,-0.49240875,0.6725408,0.67872375,0.07207312,0.016356809,0.73066545,-0.84988207,-0.41084915,-0.22658335,1.0,0.0,0.0,0.0,0.0,0.0,0.0,-0.8892158,0.06992301,-0.1907658,11.960864,23.82481,67.18049,101.72649,-24.450706,20.280003,6.004286
-9.086937,142.22354,80.811165,74.427055,1.4115559,5.0493712,-0.6527212,-0.7440066,-0.3627149,0.1564074,0.76311857,-0.66096765,0.6264137,-0.27638486,1.0043756,-0.8645753,-1.8269346,-1.5897061,2.2373624,1.7502064,-0.92017484,1.071639,-0.8358035,-1.8471091,-1.6503814,2.2851295,1.7056714,-0.8897545,-0.74768484,-0.7024436,-0.28985828,1.705834,-1.8134949,1.7833773,0.2658903,0.2269516,-0.476799,0.74889,-1.2263155,-0.68745154,0.78729254,0.19042206,-0.49606705,0.6732839,0.6845695,0.05925735,0.020787392,0.72623765,-0.9161244,-0.34334862,0.16839056,1.0,0.0,0.0,0.0,0.0,0.0,0.0,-0.8769516,0.076799005,-0.19888997,-13.570213,18.988682,65.42011,56.861923,7.7307463,-10.927081,-4.935628
-9.5861225,156.53293,80.50917,52.03184,-0.12367585,4.4050426,-0.4069682,-0.76327324,0.011075598,0.34547794,0.78315234,-0.6660859,0.61064786,-0.16461301,0.9953116,-0.83469594,-1.8125613,-1.5720662,2.2185209,1.7667363,-0.9062158,1.0622777,-0.8402877,-1.8454878,-1.6319679,2.2687988,1.7220575,-0.8875305,-0.9975957,-0.36527243,0.31180957,1.8867025,-1.5780705,1.5934173,0.20790243,0.21469498,-0.48366737,0.7560096,-1.2250894,-0.68676424,0.68686056,0.18095398,-0.49855804,0.67744446,0.6907879,0.04403853,0.025670493,0.72125834,-0.9581852,-0.21057782,0.4913442,1.0,0.0,0.0,0.0,0.0,0.0,0.0,-0.86469495,0.08366737,-0.20600957,-24.599731,33.258812,59.864002,18.16616,22.037077,-18.112255,-5.8018355
-33.058987,77.46008,28.30146,28.137482,1.7036216,1.9959886,-0.62218314,-0.786425,-0.18426895,0.0666906,0.7733614,-0.6539704,0.6173916,-0.27006462,0.9836352,-0.8587146,-1.8388188,-1.5546317,2.2034018,1.7837967,-0.91453695,1.0504979,-0.8428426,-1.8408835,-1.6135753,2.2548866,1.7365743,-0.885935,-1.237349,-0.21942137,0.5087736,1.8236499,-1.3303394,1.4059169,0.14371967,0.20245361,-0.49053,0.7621257,-1.2238646,-0.68607765,0.58652896,0.17087173,-0.5004654,0.6829644,0.6974125,0.028721033,0.030405402,0.7154484,-1.0278267,-0.1772765,0.5656189,1.0,0.0,0.0,0.0,0.0,0.0,0.0,-0.8524536,0.09053001,-0.21212566,-23.778461,14.436415,19.35423,-6.2059164,24.342896,-18.272663,-6.3248453
-25.66213,47.27279,10.802015,12.377227,1.23765,0.47858065,-0.4336735,-0.770381,-0.1348106,0.08496451,0.76508796,-0.6408618,0.6117743,-0.26111788,0.9734598,-0.85632366,-1.8323871,-1.5370666,2.1908004,1.7977517,-0.9120468,1.036971,-0.8444934,-1.8358328,-1.5965904,2.243084,1.749384,-0.8849203,-1.3912787,-0.14710496,0.5033118,1.656902,-1.1303096,1.2405456,0.08742883,0.1902237,-0.49738693,0.7672392,-1.222641,-0.68539166,0.48629767,0.16033173,-0.5022354,0.6884032,0.704349,0.014698532,0.03477492,0.7088492,-1.0650624,-0.16820215,0.53129846,1.0,0.0,0.0,0.0,0.0,0.0,0.0,-0.84022367,0.09738693,-0.2172392,-15.400863,7.192764,-0.7297754,-16.70811,19.877792,-16.20195,-5.6265297
-18.420816,28.57449,2.275885,6.533393,1.0483395,-0.34641927,-0.29985532,-0.78149676,-0.13997109,0.0994398,0.77772576,-0.641154,0.6112515,-0.2440252,0.9588213,-0.8584905,-1.8258889,-1.5188178,2.1789687,1.8105092,-0.9093228,1.0224847,-0.84594965,-1.8315451,-1.5812076,2.2327805,1.7607328,-0.884391,-1.4679058,-0.14506747,0.40351352,1.4984508,-0.99727404,1.1003499,0.041425675,0.17800522,-0.5042362,0.77135116,-1.2214186,-0.6847064,0.38616654,0.14957428,-0.5040741,0.69314533,0.711474,0.0023857495,0.038793426,0.7016367,-1.0823586,-0.1806005,0.4508472,1.0,0.0,0.0,0.0,0.0,0.0,0.0,-0.8280052,0.104236215,-0.22135115,-7.7108383,0.21246374,-10.061169,-15.912843,13.265395,-13.7842655,-4.626086
-12.196533,16.095722,-1.5335919,4.90108,1.0490352,-0.7584883,-0.20084819,-0.7808351,-0.19743823,0.08262003,0.77002925,-0.6372047,0.6172863,-0.28590307,0.94440114,-0.86569345,-1.8232831,-1.5042048,2.16906,1.8224614,-0.91298133,1.0076951,-0.84789133,-1.8284495,-1.5670742,2.2233772,1.7708589,-0.8842909,-1.4827,-0.21038693,0.27816916,1.3846402,-0.92166054,0.98389244,-0.0005334893,0.165802,-0.5110779,0.7744625,-1.2201974,-0.68402183,0.28613552,0.13871002,-0.50616074,0.6969502,0.7187084,-0.008262549,0.042438112,0.69396603,-1.0898818,-0.20935017,0.35357308,1.0,0.0,0.0,0.0,0.0,0.0,0.0,-0.815802,0.111077875,-0.22446251,-1.5009165,-6.502524,-12.5575485,-11.431098,7.532394,-11.493158,-4.2158766
-6.934023,14.989721,0.89375913,6.721343,1.0120287,-0.7391805,-0.12271599,-0.77542657,-0.23778923,0.09222109,0.77685153,-0.636378,0.6232814,-0.29884124,0.9301524,-0.87167025,-1.8192273,-1.4893891,2.1597395,1.833187,-0.914175,0.9930371,-0.8507266,-1.826361,-1.5536255,2.2144127,1.779976,-0.8845684,-1.4601902,-0.30783132,0.1858913,1.3316336,-0.88808197,0.8881329,-0.036804054,0.15360641,-0.5179119,0.7765827,-1.2189775,-0.683338,0.18732777,0.12779617,-0.5085411,0.69989175,0.7259825,-0.017594786,0.045707174,0.6859669,-1.0935221,-0.23906137,0.27158192,1.0,0.0,0.0,0.0,0.0,0.0,0.0,-0.8036064,0.117911905,-0.2265827,2.2637367,-9.724379,-9.214952,-5.3050756,3.292644,-9.464693,-3.6312397
-3.3095708,19.917242,5.363781,9.223945,0.908731,-0.5721688,-0.06986356,-0.76401305,-0.27087158,0.09036009,0.78002226,-0.64467245,0.6278436,-0.30090925,0.9166358,-0.87781376,-1.8173249,-1.4756233,2.1499455,1.8427603,-0.9146593,0.9787377,-0.85456514,-1.8248885,-1.5403618,2.2055702,1.7882673,-0.88516444,-1.4197891,-0.40916437,0.13447139,1.324698,-0.8834629,0.8099252,-0.06718313,0.14142609,-0.5247402,0.7777156,-1.2177588,-0.68265474,0.0886188,0.11686325,-0.511158,0.70217896,0.7332369,-0.026019324,0.048658255,0.6777307,-1.0951215,-0.26127836,0.21189436,1.0,0.0,0.0,0.0,0.0,0.0,0.0,-0.79142606,0.12474021,-0.22771561,4.0670156,-10.133428,-5.099347,-0.6622076,0.35547018,-7.7159524,-3.034971
-4.1242647,22.512142,6.958204,11.361522,0.9762242,-0.40088016,-0.08555136,-0.75873625,-0.31602874,0.061539333,0.78122836,-0.64865357,0.6315175,-0.30345333,0.9028641,-0.886168,-1.8187345,-1.4622389,2.1407049,1.851419,-0.91550976,0.96483314,-0.85939455,-1.8238013,-1.5269798,2.1966705,1.7958852,-0.88602656,-1.3805337,-0.5075888,0.10033481,1.3428488,-0.89278656,0.7461642,-0.09241225,0.1292572,-0.5315628,0.7778622,-1.2165413,-0.6819722,-0.00999149,0.10588455,-0.51397514,0.7039576,0.74046755,-0.03380504,0.051355828,0.6692739,-1.1020793,-0.2802187,0.1640416,1.0,0.0,0.0,0.0,0.0,0.0,0.0,-0.7792572,0.1315628,-0.22786218,3.9685965,-9.857136,-3.365837,1.8827915,-1.04388,-6.2788844,-2.509472
0.01373148,32.4917,13.584504,12.192011,0.6961199,-0.15931112,0.019121168,-0.7397547,-0.34803408,0.11971275,0.77644426,-0.6464311,0.6409767,-0.31163102,0.8908577,-0.89419794,-1.81183,-1.4493353,2.1320274,1.8599828,-0.91718966,0.9513148,-0.86509657,-1.8226187,-1.51339,2.1876526,1.8029615,-0.8871128,-1.3421305,-0.59118724,0.1245154,1.3644302,-0.9054572,0.69513315,-0.11403183,0.11709976,-0.53837776,0.7770102,-1.215325,-0.6812904,-0.1102607,0.094875336,-0.5168419,0.70542467,0.7475869,-0.041243453,0.05382733,0.66069317,-1.1030772,-0.28093427,0.13833702,1.0,0.0,0.0,0.0,0.0,0.0,0.0,-0.76709974,0.13837776,-0.22701019,3.866768,-8.403254,2.5058956,2.2201777,-1.459229,-4.9859405,-2.153182
-0.44573498,31.25402,12.995925,11.66901,0.7407992,-0.13158786,0.04146056,-0.7217261,-0.41268227,0.10556438,0.772347,-0.6453744,0.63443017,-0.29594803,0.87914217,-0.9063648,-1.8120623,-1.4361552,2.123115,1.8664045,-0.9167076,0.93816173,-0.8716779,-1.8211596,-1.499636,2.1785202,1.8095914,-0.88837546,-1.3062785,-0.6805227,0.15337333,1.3794266,-0.91608596,0.65277475,-0.13023278,0.10495758,-0.5451851,0.77515626,-1.2141099,-0.6806093,-0.21042967,0.0838356,-0.51971245,0.7066103,0.75455004,-0.048435252,0.056032106,0.6520495,-1.1066202,-0.2817999,0.109332085,1.0,0.0,0.0,0.0,0.0,0.0,0.0,-0.75495756,0.14518508,-0.22515625,3.6116362,-8.978534,2.9778152,1.5730143,-1.2523293,-4.1297197,-1.5988141
2.4055128,33.266647,13.792507,10.148539,0.5155743,-0.22755104,0.09822275,-0.68356687,-0.44265395,0.09411301,0.76796514,-0.6556136,0.6269864,-0.25827193,0.86980504,-0.91594326,-1.8117483,-1.4228395,2.112959,1.87229,-0.91420263,0.92544353,-0.8790641,-1.8194888,-1.4858059,2.1692772,1.8158494,-0.88974875,-1.2603506,-0.75809014,0.17188282,1.3843023,-0.9275908,0.61733395,-0.1396461,0.09282303,-0.5519848,0.77230144,-1.212896,-0.6799288,-0.31049848,0.07282257,-0.52256584,0.7074924,0.7613153,-0.05537417,0.05799017,0.64340484,-1.1024022,-0.27932397,0.07822136,1.0,0.0,0.0,0.0,0.0,0.0,0.0,-0.742823,0.15198478,-0.22230142,4.593611,-7.8062534,1.9583821,0.5502939,-1.3479352,-3.4311533,-0.9314388
2.998633,34.640438,14.0999775,9.491678,0.4738813,-0.25006187,0.1063012,-0.66391283,-0.47745344,0.10281874,0.7622537,-0.6388264,0.62170726,-0.2644724,0.85905224,-0.92680943,-1.8092068,-1.4095805,2.1053946,1.8780202,-0.916196,0.91318023,-0.8871579,-1.8176653,-1.4719986,2.1599922,1.8217965,-0.89120215,-1.2150185,-0.826681,0.18615367,1.3798811,-0.92919886,0.587586,-0.14722921,0.080703735,-0.55878067,0.7684466,-1.2116834,-0.679249,-0.41046727,0.061862946,-0.5253868,0.7080585,0.76786935,-0.06204757,0.05970197,0.6347931,-1.0967336,-0.27559367,0.04636242,1.0,0.0,0.0,0.0,0.0,0.0,0.0,-0.7307037,0.15878066,-0.21844661,4.5244694,-6.913817,1.5351951,-0.3781557,-0.35951138,-2.8657079,-0.7491559
6.6189966,34.579926,13.841613,7.636552,0.2722597,-0.44787967,0.14683849,-0.61009216,-0.51383567,0.07860979,0.7594745,-0.652416,0.624855,-0.24950774,0.852171,-0.9385415,-1.8098043,-1.3960512,2.0947506,1.884282,-0.91615295,0.9015063,-0.89589643,-1.8158667,-1.4582676,2.1506767,1.8274881,-0.89270896,-1.151576,-0.8898327,0.17809883,1.3709526,-0.933106,0.56333,-0.1518818,0.068595886,-0.5655689,0.7635929,-1.210472,-0.6785699,-0.5103361,0.05103302,-0.528183,0.7082609,0.7741931,-0.068408124,0.061191764,0.6262594,-1.0817806,-0.273781,0.008290891,1.0,0.0,0.0,0.0,0.0,0.0,0.0,-0.71859586,0.16556892,-0.21359289,6.3048124,-6.369531,-0.675267,-0.8390188,-0.58436394,-2.320528,-0.46613216
9.94005,36.473354,15.23312,6.4389906,0.1328555,-0.51920795,0.21560702,-0.5715502,-0.54873997,0.1001385,0.74961466,-0.6419513,0.6150209,-0.19483496,0.8443513,-0.95077044,-1.8058529,-1.3833061,2.0864816,1.8889902,-0.91219246,0.8905276,-0.9052453,-1.8140872,-1.4446682,2.1413612,1.8329622,-0.8942129,-1.0801644,-0.9501085,0.17840162,1.3565708,-0.931892,0.54237694,-0.14998125,0.05649948,-0.57234955,0.7577412,-1.2092618,-0.67789143,-0.61010504,0.040390015,-0.530941,0.7080953,0.780235,-0.074466884,0.062443495,0.61789066,-1.060252,-0.27021912,-0.028149785,0.0,1.0,0.0,0.0,0.0,0.0,0.0,-0.70649946,0.17234954,-0.2077412,7.081938,-6.089735,0.1852274,-1.3937473,-0.09518862,-1.9980073,0.18771887
8.942802,33.482784,11.492986,5.9099436,0.14522457,-0.7958992,0.13394304,-0.520709,-0.559768,-0.01489131,0.75311196,-0.6406868,0.61280257,-0.17884232,0.8384567,-0.9612221,-1.8155763,-1.369357,2.0772924,1.8942424,-0.91209716,0.8803462,-0.9150796,-1.8128378,-1.4311737,2.1320724,1.8382493,-0.89568156,-0.9977133,-0.9946289,0.10744133,1.3472644,-0.9286098,0.52466977,-0.14586699,0.044418335,-0.57912254,0.7508926,-1.2080528,-0.67721367,-0.70977426,0.029975891,-0.53375053,0.70746326,0.78606397,-0.08005782,0.06355011,0.60963553,-1.0376604,-0.27858523,-0.07835521,0.0,1.0,0.0,0.0,0.0,0.0,0.0,-0.6944183,0.17912254,-0.20089257,8.175135,-4.5060396,-6.9643006,-0.86455345,0.18362999,-1.6854644,0.3989041
3.189138,34.735043,9.319049,7.8368,0.27233773,-0.8085957,0.016978282,-0.50962114,-0.54592645,-0.096315555,0.7558103,-0.63779354,0.61126953,-0.12645885,0.8293841,-0.96967226,-1.8224694,-1.3555926,2.068293,1.8993763,-0.90832746,0.8708785,-0.92511415,-1.8129154,-1.4178872,2.1230521,1.8425465,-0.8969039,-0.93045175,-1.00642,-0.04617502,1.3225081,-0.8891836,0.4178877,-0.1195892,0.029865265,-0.5821247,0.7518783,-1.4432333,-0.2461629,0.3778443,0.019817352,-0.536829,0.70624715,0.79182,-0.08445137,0.06460918,0.60142714,-1.0144433,-0.30967787,-0.13991041,0.0,1.0,0.0,0.0,0.0,0.0,0.0,-0.67986524,0.1821247,-0.20187831,6.4695,-1.5096784,-12.152972,-0.15969276,0.2694726,-1.4043748,0.84728
-9.196281,129.39998,46.947628,27.427975,-0.7823645,0.7067074,-0.2120786,-0.70017284,0.024692535,0.0011718465,0.78192407,-0.5865655,0.60206,-0.0800584,0.80086124,-0.9226449,-1.8127983,-1.3396949,2.0643957,1.9027525,-0.90490973,0.86096793,-0.93249464,-1.8137013,-1.4045415,2.1143317,1.8466377,-0.89801395,-1.0110332,-0.6494271,-0.08966357,1.3384986,-0.86767673,0.4072444,-0.10934885,0.0154418945,-0.5845852,0.75490177,-1.4417902,-0.2459168,0.27718732,0.009880066,-0.53920937,0.70581603,0.79763836,-0.08863958,0.06698821,0.5928142,-0.9891236,-0.20820521,-0.0143531365,0.0,1.0,0.0,0.0,0.0,0.0,0.0,-0.6654419,0.18458518,-0.20490175,-7.9911113,35.433125,-4.3976083,1.5656948,1.739502,-0.73744655,0.6930366
-40.199944,89.278694,23.594006,31.996166,1.1664711,0.9156867,-0.6950252,-0.774133,-0.16757706,-0.22059867,0.7744558,-0.52792877,0.5889894,-0.25451615,0.7835546,-0.94925237,-1.8357612,-1.3270959,2.061539,1.9055367,-0.92346555,0.8497222,-0.93715143,-1.8156182,-1.391007,2.1059585,1.8507061,-0.89917076,-1.1619132,-0.40503138,-0.22628677,1.3589629,-0.8276105,0.40702462,-0.118452065,0.001033783,-0.58704185,0.7569194,-1.4403486,-0.24567093,0.17663097,-0.00038528442,-0.54094124,0.7061396,0.8038853,-0.09255494,0.07079755,0.5832578,-1.0403032,-0.15542288,0.04526747,0.0,1.0,0.0,0.0,0.0,0.0,0.0,-0.65103376,0.18704185,-0.20691937,-14.929867,24.230755,-13.810283,2.2002697,3.8497448,0.09316802,-1.0898888
-36.70638,84.55787,23.115314,29.826277,1.0916022,0.8722585,-0.57729924,-0.7732827,-0.08511206,-0.22130083,0.773691,-0.54736495,0.57668453,-0.22815739,0.77239394,-0.9456626,-1.8377483,-1.3136379,2.0512218,1.9083745,-0.9219865,0.83708507,-0.93967485,-1.8187119,-1.3772893,2.0978637,1.8547783,-0.9004096,-1.2973448,-0.20213123,-0.33736783,1.3765229,-0.8042467,0.40742555,-0.12628755,-0.01335907,-0.5894966,0.7579322,-1.4389085,-0.2454253,0.076175176,-0.0111198425,-0.54214096,0.7069944,0.8105654,-0.09611101,0.075800724,0.5727134,-1.0861148,-0.10194631,0.09702759,0.0,1.0,0.0,0.0,0.0,0.0,0.0,-0.6366409,0.1894966,-0.20793217,-13.443494,20.068047,-11.139351,1.8755913,2.1204948,0.05144477,-0.9532824
-24.043354,76.98253,24.547962,24.781622,0.99932396,0.7185633,-0.36142987,-0.7723755,-0.06103958,-0.15891032,0.7839764,-0.51218385,0.58772594,-0.29741904,0.7598475,-0.9457788,-1.834603,-1.2988917,2.0466454,1.9135509,-0.93015146,0.82344466,-0.9407706,-1.8223225,-1.3633981,2.0900283,1.8588619,-0.9017714,-1.3862116,-0.07935265,-0.36841798,1.3933574,-0.77713656,0.40860626,-0.13996743,-0.027736664,-0.59194946,0.75794125,-1.4374698,-0.24517994,-0.02418019,-0.022212982,-0.54284286,0.70830137,0.81745267,-0.09950758,0.081574135,0.56144017,-1.116999,-0.051864296,0.14074486,0.0,1.0,0.0,0.0,0.0,0.0,0.0,-0.6222633,0.19194946,-0.20794123,-8.860183,12.073099,-2.9934168,1.7493963,2.428925,0.06431937,-1.503861
-12.584156,62.41515,22.987612,18.794434,1.0536537,0.53996885,-0.14387222,-0.7807023,-0.10799002,-0.09322655,0.78124183,-0.4797642,0.5794486,-0.32174847,0.74537444,-0.9515696,-1.8316451,-1.2852739,2.0420518,1.9168068,-0.93394625,0.80923986,-0.9414152,-1.8256218,-1.349403,2.0825074,1.8629423,-0.9032733,-1.4307315,-0.05936985,-0.32663956,1.3941677,-0.73332053,0.35879454,-0.13321996,-0.042129517,-0.59435844,0.7570001,-1.6082069,0.0017230364,0.25036946,-0.03353882,-0.5431347,0.70989126,0.8243091,-0.10297043,0.08749442,0.5497784,-1.134448,-0.021881355,0.16203266,0.0,1.0,0.0,0.0,0.0,0.0,0.0,-0.60787046,0.19435844,-0.20700008,-4.340267,1.9156121,3.3471048,-0.64308643,5.2500486,-10.046077,2.704388
-7.929451,69.01278,23.722063,16.874588,0.5678022,0.1884161,-0.09179111,-0.8038399,0.052667137,-0.24248135,0.7704713,-0.44544855,0.5095427,-0.2411807,0.72885585,-0.93614846,-1.84987,-1.2723559,2.0379624,1.9138966,-0.92739135,0.7947421,-0.9414791,-1.8290956,-1.3355176,2.0755727,1.8665323,-0.90467066,-1.4562986,0.010724691,-0.35379317,1.3865514,-0.681224,0.3588851,-0.14236726,-0.05771637,-0.59439087,0.75980574,-1.5421525,-0.0045798593,0.28993443,-0.04491043,-0.5431347,0.71166426,0.83106595,-0.106031515,0.09350353,0.5379068,-1.1385489,0.015895912,0.18170714,0.0,1.0,0.0,0.0,0.0,0.0,0.0,-0.5922836,0.19439086,-0.20980573,-2.6031017,6.8555226,-2.5387168,-0.77819824,4.9665093,-0.04811883,-1.0531545
-7.5470343,55.866035,17.185806,14.19142,0.80077624,-0.12824428,-0.11705037,-0.806777,0.023240035,-0.30454174,0.763204,-0.34271553,0.45953268,-0.2538041,0.7140644,-0.9391551,-1.8595498,-1.2591972,2.0413013,1.9124856,-0.9300511,0.7801242,-0.9410976,-1.8332078,-1.3217657,2.0693812,1.8700721,-0.9061461,-1.4637477,0.046941377,-0.4300522,1.3714353,-0.5991786,0.3519831,-0.149718,-0.07277298,-0.5944691,0.7627141,-1.4935533,-0.009039935,0.29086134,-0.056373596,-0.5429096,0.7134261,0.83778006,-0.10872755,0.09950732,0.5257386,-1.1473594,0.033157513,0.17384863,0.0,1.0,0.0,0.0,0.0,0.0,0.0,-0.577227,0.19446906,-0.21271408,-0.7753849,3.5095088,-7.49498,-1.5336514,8.027816,-0.75823665,-0.8586377
-2.9628167,59.164555,19.380806,13.4964905,0.5050533,-0.14047253,-0.04700027,-0.79807204,0.055291507,-0.29409164,0.7721301,-0.38647133,0.48062107,-0.26145166,0.70031697,-0.93556845,-1.862617,-1.2445526,2.030734,1.9181342,-0.93229127,0.7655492,-0.9403566,-1.8379877,-1.3080957,2.0637465,1.8735731,-0.90769416,-1.4555888,0.08278205,-0.49332392,1.3653139,-0.552721,0.34829536,-0.1564333,-0.08751297,-0.59444046,0.7656606,-1.4724951,0.010891665,0.2952416,-0.0678215,-0.54248047,0.7151469,0.84439987,-0.11106177,0.105552934,0.51333475,-1.143741,0.05499629,0.17135452,0.0,1.0,0.0,0.0,0.0,0.0,0.0,-0.562487,0.19444045,-0.21566057,0.7698536,3.463836,-6.143242,-0.6590128,4.321444,-0.71867704,-0.645566
-5.100081,44.70155,13.5976715,12.27263,0.7831376,-0.19296807,-0.059171863,-0.7992513,-0.012808113,-0.3225841,0.7711185,-0.37079483,0.49143004,-0.2844316,0.68562406,-0.9416374,-1.870246,-1.2309839,2.0266669,1.922716,-0.9361373,0.7510831,-0.93969285,-1.8433605,-1.2944505,2.05844,1.8770291,-0.90930295,-1.4435782,0.060716912,-0.5514262,1.364117,-0.5237115,0.3443999,-0.16264746,-0.10222244,-0.594162,0.76842374,-1.4702454,0.03356773,0.27042475,-0.079322815,-0.5419407,0.71667653,0.8509108,-0.11302536,0.11153228,0.5007361,-1.1516733,0.06351164,0.14686634,0.0,1.0,0.0,0.0,0.0,0.0,0.0,-0.54777753,0.19416198,-0.21842372,1.1835575,-2.2917242,-5.654204,-0.13287067,2.7562141,-0.44277906,-0.7221252
-5.0349245,47.243805,14.5484,12.749854,0.685305,-0.16778165,-0.025170997,-0.79937905,0.015822887,-0.3499857,0.772195,-0.3802182,0.47642288,-0.24531399,0.6711452,-0.9381106,-1.8783591,-1.217231,2.0204182,1.9246713,-0.9338344,0.7367255,-0.9392094,-1.8492675,-1.2807919,2.053282,1.8804371,-0.91093594,-1.4332031,0.043852516,-0.6032355,1.3663279,-0.51345384,0.33933765,-0.16388169,-0.11688995,-0.5936394,0.7709762,-1.4657612,0.058810238,0.25131634,-0.09088135,-0.54128075,0.71799374,0.85728973,-0.11462805,0.117480814,0.4879682,-1.1567119,0.07588977,0.12670557,0.0,1.0,0.0,0.0,0.0,0.0,0.0,-0.53311,0.19363937,-0.22097617,1.0143518,-1.783713,-5.002141,0.2081871,0.8622527,-0.5641639,-0.23109019
-5.9996595,45.242752,13.977705,13.1439495,0.82421625,-0.121223986,-0.017450556,-0.7967242,-0.012246306,-0.35719863,0.7797917,-0.36282137,0.48171678,-0.20919317,0.6570531,-0.94043404,-1.8849874,-1.2028127,2.017,1.9286088,-0.93185526,0.7224557,-0.9390063,-1.8555691,-1.2670683,2.0482082,1.883802,-0.9125468,-1.4249164,0.012122332,-0.6385865,1.374345,-0.5055756,0.33528143,-0.16043133,-0.13151932,-0.5928669,0.7733225,-1.461771,0.083897114,0.2303911,-0.10253143,-0.54050064,0.71910405,0.86351717,-0.11592492,0.12337196,0.47505662,-1.1664335,0.08806174,0.10590701,0.0,1.0,0.0,0.0,0.0,0.0,0.0,-0.51848066,0.19286689,-0.22332251,0.81219673,-3.2722263,-3.340757,0.80697536,0.6190896,-0.47520995,0.24819076
-7.24823,44.758423,13.357648,13.380945,0.8525857,-0.11496669,-0.015966065,-0.79690707,-0.024079757,-0.38983828,0.77896816,-0.36207905,0.4578393,-0.19146925,0.642765,-0.9414143,-1.894553,-1.1891714,2.0120003,1.9295859,-0.93169373,0.70823926,-0.93912935,-1.862237,-1.2532704,2.0431848,1.8871135,-0.9141066,-1.4205054,-0.020741185,-0.6755575,1.3815035,-0.5016421,0.3294635,-0.15477437,-0.14610672,-0.59184456,0.77544343,-1.4574866,0.10874838,0.20737407,-0.114284515,-0.53959656,0.7199963,0.8695911,-0.116911955,0.12919952,0.46200672,-1.17784,0.10062316,0.08381334,0.0,1.0,0.0,0.0,0.0,0.0,0.0,-0.50389326,0.19184455,-0.22544342,0.4287243,-3.3897724,-3.4992695,0.7317066,0.21909475,-0.6571293,0.46986043
-7.0612955,42.98059,12.991325,12.943494,0.98862123,-0.0950644,-0.0070556104,-0.79311335,-0.059708454,-0.38660118,0.7751014,-0.31460243,0.44816822,-0.17985792,0.62892795,-0.9451002,-1.9008971,-1.1757603,2.0117245,1.9319303,-0.9320924,0.694062,-0.93967396,-1.8691546,-1.239436,2.0383236,1.8903646,-0.9156025,-1.4168175,-0.06604718,-0.6964229,1.3841292,-0.4814695,0.32324302,-0.1480924,-0.16065598,-0.5905838,0.77729875,-1.4536188,0.13240643,0.17997436,-0.12618256,-0.5385704,0.72065485,0.8755069,-0.117624074,0.13484427,0.44885314,-1.1924732,0.11288937,0.06002563,0.0,1.0,0.0,0.0,0.0,0.0,0.0,-0.489344,0.1905838,-0.22729874,0.35471916,-4.631714,-1.8740177,0.28734207,1.8347025,-0.71101785,0.5869329
-10.6305065,35.440784,8.628457,12.476501,1.0241542,-0.17771292,-0.020657118,-0.79564637,-0.09898994,-0.4597549,0.77529794,-0.3397526,0.4087266,-0.12089544,0.61449736,-0.949573,-1.91513,-1.1619062,2.0043483,1.9312373,-0.92769206,0.679898,-0.94076973,-1.876526,-1.2255884,2.0335681,1.8935355,-0.9169943,-1.4162693,-0.124394625,-0.7501907,1.3850632,-0.47409433,0.31466714,-0.13634181,-0.17518997,-0.58913994,0.7787394,-1.4529601,0.14923245,0.13398518,-0.13827896,-0.5374737,0.72095895,0.8812942,-0.11793433,0.14029375,0.43557978,-1.2142359,0.11817493,0.02058124,0.0,1.0,0.0,0.0,0.0,0.0,0.0,-0.47481,0.18913993,-0.22873938,0.0743866,-5.922094,-5.219245,0.15776157,0.60455203,-0.9380698,1.1055142
-7.891468,48.746456,13.716349,13.596375,0.7960248,-0.14389282,0.041725695,-0.7911636,-0.05335687,-0.4684939,0.77824455,-0.32262444,0.3730466,-0.017310916,0.6007817,-0.9461054,-1.9233754,-1.147764,2.0013056,1.9308401,-0.9187254,0.6657474,-0.9421259,-1.8844124,-1.2117349,2.0289202,1.8965921,-0.9181966,-1.4146712,-0.1398026,-0.80074,1.3855803,-0.46237534,0.3021728,-0.1151489,-0.18966293,-0.58745956,0.7798942,-1.4447991,0.17527007,0.111483015,-0.1504898,-0.53624535,0.72101927,0.88691616,-0.1178221,0.1456918,0.42222202,-1.2227896,0.13449708,0.001240357,0.0,1.0,0.0,0.0,0.0,0.0,0.0,-0.46033704,0.18745956,-0.22989416,0.13899803,-1.6670138,-4.830134,0.069880486,0.9593189,-1.3532639,2.013257
-11.008589,42.21762,10.186754,13.350943,0.919423,-0.20903325,-0.0013291165,-0.79577416,-0.10752305,-0.52836907,0.77688146,-0.31101817,0.31380692,-0.035238158,0.58616996,-0.95287824,-1.9372493,-1.1340468,1.9978184,1.9279728,-0.92172045,0.65158916,-0.9437453,-1.8929645,-1.1978813,2.0243902,1.8994921,-0.9192119,-1.41616,-0.16971062,-0.87274647,1.3854562,-0.4503242,0.2854256,-0.09727615,-0.20407867,-0.58556366,0.7807059,-1.4402791,0.19527896,0.073536515,-0.16284943,-0.53490067,0.720797,0.8923986,-0.117198095,0.15104297,0.4087485,-1.2395647,0.14476202,-0.03004023,0.0,1.0,0.0,0.0,0.0,0.0,0.0,-0.4459213,0.18556365,-0.23070592,-0.14166832,-3.1071305,-7.0148826,0.040864944,1.0262728,-1.7891407,1.6956792
-11.842611,42.92061,9.938887,13.563048,0.85470235,-0.20493782,0.02451337,-0.7976865,-0.11672199,-0.56765914,0.7787023,-0.33395213,0.27810633,0.05003535,0.5718205,-0.9554175,-1.9497304,-1.1200111,1.990995,1.9273028,-0.9142084,0.6374042,-0.94563854,-1.9022833,-1.184022,2.01989,1.9022092,-0.92000484,-1.4192995,-0.19635543,-0.9511776,1.3863217,-0.45046625,0.2665852,-0.07358666,-0.21844482,-0.5834675,0.78113395,-1.4345855,0.21548463,0.03551433,-0.17537308,-0.53344154,0.7202596,0.8977418,-0.11598718,0.15639181,0.39515582,-1.2554594,0.15650587,-0.06160982,0.0,1.0,0.0,0.0,0.0,0.0,0.0,-0.43155515,0.18346748,-0.23113394,-0.30536652,-2.7908058,-7.645595,0.14643669,-0.20927787,-2.0054162,2.2660522
-12.916702,44.884758,9.962211,14.0360155,0.72034013,-0.21026945,0.052677393,-0.8027424,-0.11806266,-0.62029177,0.78176063,-0.38593188,0.202101,0.119125634,0.55713,-0.9574448,-1.9643124,-1.1058459,1.9812969,1.9224193,-0.90809226,0.62316585,-0.9477366,-1.91246,-1.1701397,2.0152073,1.9046954,-0.9205297,-1.4253372,-0.21477689,-1.0391093,1.3890606,-0.47451085,0.24215056,-0.045777768,-0.2327385,-0.5811615,0.7812,-1.4265755,0.23666823,3.4369234e-05,-0.18803406,-0.5318527,0.71941465,0.9029264,-0.11409773,0.16187643,0.38144678,-1.268242,0.17019366,-0.09202532,0.0,1.0,0.0,0.0,0.0,0.0,0.0,-0.41726148,0.1811615,-0.23119998,-0.59571266,-1.9839883,-8.576393,0.33638477,-2.6296616,-2.5703282,2.6577764
-13.431355,34.10765,5.851163,11.870186,0.6706064,-0.30627126,0.09927638,-0.79790825,-0.19206351,-0.6675561,0.7744641,-0.43479252,0.1101837,0.18506365,0.543375,-0.96694297,-1.9792156,-1.0926932,1.9717281,1.9157138,-0.9020234,0.60889775,-0.9502934,-1.9235331,-1.1562576,2.0101166,1.9068978,-0.92075324,-1.4271706,-0.26964033,-1.129468,1.3880496,-0.5207703,0.21248654,-0.014817347,-0.24698257,-0.57871246,0.78074104,-1.4226638,0.24879724,-0.057881135,-0.20086288,-0.53019524,0.71812207,0.9079439,-0.11140955,0.16746452,0.36767006,-1.2858835,0.17528734,-0.14151579,0.0,1.0,0.0,0.0,0.0,0.0,0.0,-0.4030174,0.17871246,-0.23074102,-0.147748,-5.6007442,-8.859754,0.012278557,-4.8098507,-3.0699878,2.9955375
