Afshin1997/kuka_rl_ros2/src/catch_and_throw/input_files/idealpd/recorded_trajectories/env_326_data.csv
torque0,torque1,torque2,torque3,torque4,torque5,torque6,action0,action1,action2,action3,action4,action5,action6,set_target_0,set_target_1,set_target_2,set_target_3,set_target_4,set_target_5,set_target_6,joint_pos_0,joint_pos_1,joint_pos_2,joint_pos_3,joint_pos_4,joint_pos_5,joint_pos_6,joint_vel_0,joint_vel_1,joint_vel_2,joint_vel_3,joint_vel_4,joint_vel_5,joint_vel_6,tennisball_pos_0,tennisball_pos_1,tennisball_pos_2,tennisball_lin_vel_0,tennisball_lin_vel_1,tennisball_lin_vel_2,end_effector_pos_0,end_effector_pos_1,end_effector_pos_2,end_effector_rot_0,end_effector_rot_1,end_effector_rot_2,end_effector_rot_3,end_effector_lin_vel_0,end_effector_lin_vel_1,end_effector_lin_vel_2,obs_task_0,obs_task_1,obs_task_2,obs_task_3,obs_task_4,obs_task_5,obs_task_6,to_final_target_0,to_final_target_1,to_final_target_2,joint_acc_0,joint_acc_1,joint_acc_2,joint_acc_3,joint_acc_4,joint_acc_5,joint_acc_6
0.0,0.0,0.0,0.0,0.0,0.0,0.0,0.0,0.0,0.0,0.0,0.0,0.0,0.0,1.7802359,-1.0646509,-1.8151424,-1.1170107,1.9373155,1.1170107,-0.91629785,1.7802359,-1.0646509,-1.8151424,-1.1170107,1.9373155,1.1170107,-0.91629785,0.0,0.0,0.0,0.0,0.0,0.0,0.0,3.217701,-0.6926193,0.1339814,-3.985838,0.3368148,5.2815976,0.5304146,-0.45449448,0.693097,0.5745483,0.17512383,0.15255436,0.7848268,0.0,0.0,0.0,1.0,0.0,0.0,0.0,0.0,0.0,0.0,-3.867701,0.29261932,0.4160186,0.0,0.0,0.0,0.0,0.0,0.0,0.0
0.0,0.0,0.0,0.0,0.0,0.0,0.0,0.0,0.0,0.0,0.0,0.0,0.0,0.0,1.7802359,-1.0646509,-1.8151424,-1.1170107,1.9373155,1.1170107,-0.91629785,1.7802359,-1.0646509,-1.8151424,-1.1170107,1.9373155,1.1170107,-0.91629785,0.0,0.0,0.0,0.0,0.0,0.0,0.0,3.217701,-0.6926193,0.1339814,-3.985838,0.3368148,5.2815976,0.5304146,-0.45449448,0.693097,0.5745483,0.17512383,0.15255436,0.7848268,0.0,0.0,0.0,1.0,0.0,0.0,0.0,0.0,0.0,0.0,-3.867701,0.29261932,0.4160186,0.0,0.0,0.0,0.0,0.0,0.0,0.0
0.0,0.0,0.0,0.0,0.0,0.0,0.0,0.0,0.0,0.0,0.0,0.0,0.0,0.0,1.7802359,-1.0646509,-1.8151424,-1.1170107,1.9373155,1.1170107,-0.91629785,1.7802359,-1.0646509,-1.8151424,-1.1170107,1.9373155,1.1170107,-0.91629785,0.0,0.0,0.0,0.0,0.0,0.0,0.0,3.217701,-0.6926193,0.1339814,-3.985838,0.3368148,5.2815976,0.5304146,-0.45449448,0.693097,0.5745483,0.17512383,0.15255436,0.7848268,0.0,0.0,0.0,1.0,0.0,0.0,0.0,0.0,0.0,0.0,-3.867701,0.29261932,0.4160186,0.0,0.0,0.0,0.0,0.0,0.0,0.0
-176.0,59.856148,-10.360559,110.0,11.292978,4.423533,-3.7893417,-0.8201392,0.32130864,-0.5837778,0.740389,0.36439836,0.63584644,-0.5735591,1.6982219,-1.03252,-1.8735201,-1.0429718,1.9737554,1.1805954,-0.9736538,1.7790228,-1.0625261,-1.8211906,-1.1123644,1.9433961,1.1224676,-0.9179105,-0.16154885,0.28266066,-0.8058871,0.61999786,0.8097085,0.7254185,-0.21443404,3.1778736,-0.68925476,0.1860213,-3.981853,0.33647805,5.1781306,0.5283165,-0.45780563,0.69375044,0.57821333,0.17382826,0.15064178,0.78279,-0.279458,-0.44128942,0.08690894,1.0,0.0,0.0,0.0,0.0,0.0,0.0,-3.8278737,0.28925475,0.3639787,-16.077686,28.068464,-80.42307,62.09566,80.69928,71.95416,-21.241804
-176.0,-18.863535,-42.140095,110.0,12.381937,1.9283464,-3.4226837,-0.81419796,-0.104631454,-0.5348566,0.7029794,0.46696812,0.6166178,-0.55222607,1.697603,-1.0729892,-1.8746762,-1.0420665,1.9900929,1.1841295,-0.97313315,1.7774836,-1.0595487,-1.8362644,-1.0992151,1.9562478,1.1360976,-0.9198074,-0.15483503,0.29043618,-1.7104231,1.5465567,1.4267296,1.5403866,-0.18822949,3.1380844,-0.6858902,0.23702732,-3.977872,0.33614165,5.0747676,0.5235977,-0.4662094,0.6944964,0.58647394,0.17067195,0.14592749,0.7782188,-0.5368163,-0.9705882,0.073953785,1.0,0.0,0.0,0.0,0.0,0.0,0.0,-3.7880845,0.2858902,0.3129727,-0.37076473,-2.954942,-81.25994,92.61487,56.626034,70.93864,0.5801141
-162.02068,120.99117,30.803162,95.85751,7.764214,7.65343,-2.2446253,-0.76904774,0.36485657,-0.072920635,0.60311013,0.47390434,0.677052,-0.53071225,1.7005788,-1.0230631,-1.8435564,-1.0389042,2.0036383,1.2038027,-0.9728786,1.7726465,-1.0555433,-1.8520229,-1.0821291,1.9705873,1.151322,-0.9219417,-0.593688,0.4338032,-1.5244259,1.763632,1.4317896,1.5091614,-0.22389996,3.0983353,-0.68253326,0.28700048,-3.9738948,0.33580557,4.9715075,0.5159912,-0.47739792,0.6968455,0.5977313,0.16602653,0.14007033,0.7717077,-0.84292006,-1.162243,0.29255694,1.0,0.0,0.0,0.0,0.0,0.0,0.0,-3.7483354,0.28253326,0.26299953,-43.94744,13.311148,20.572018,21.987747,-0.8954525,-5.346513,-4.18334
-107.80278,120.32187,41.048615,62.012276,4.551427,7.593572,-0.7776472,-0.7787227,0.22800319,-0.026332071,0.6105685,0.4838424,0.63913566,-0.55833775,1.6947743,-1.032743,-1.8546561,-1.0210723,2.0189714,1.2152356,-0.97777545,1.7634455,-1.0509561,-1.8633182,-1.0650774,1.983582,1.1653925,-0.9244308,-1.0301228,0.46450552,-0.9904758,1.6859158,1.2505597,1.3688974,-0.2600231,3.0586262,-0.67917633,0.33594182,-3.9699218,0.33546984,4.8683505,0.5058212,-0.48931885,0.70111954,0.6101841,0.16007812,0.13374028,0.76430607,-1.0873214,-1.1916147,0.47725236,1.0,0.0,0.0,0.0,0.0,0.0,0.0,-3.7086263,0.27917632,0.21405819,-44.00077,2.3151934,55.66192,-7.6750994,-19.592834,-15.330124,-4.4246016
-51.08134,134.55077,50.29375,36.257843,1.5450335,6.8218436,-0.059654318,-0.79014736,0.34461722,-0.05095309,0.6304554,0.4939709,0.65099627,-0.54110897,1.6844307,-1.0164944,-1.8684136,-1.0020319,2.032979,1.2304921,-0.9785417,1.7506872,-1.0457758,-1.8692272,-1.0497557,1.9945035,1.177939,-0.9272451,-1.3592054,0.53415596,-0.45145246,1.4804164,1.0357529,1.2144103,-0.29135528,3.0189552,-0.675827,0.38385236,-3.9659526,0.33513442,4.7652965,0.49383736,-0.50064087,0.7070855,0.6227012,0.15296675,0.12737185,0.756717,-1.2479525,-1.0997853,0.63966006,1.0,0.0,0.0,0.0,0.0,0.0,0.0,-3.6689553,0.27582702,0.16614765,-33.35936,6.4131737,55.822857,-20.695734,-22.549034,-16.060352,-3.9824963
-12.726529,122.73323,44.050686,18.340492,-0.42368966,4.616307,0.056140453,-0.8036042,0.4246179,-0.16534263,0.636426,0.49918848,0.6350318,-0.54292727,1.6703268,-1.003314,-1.8857614,-0.9861131,2.0444224,1.2414422,-0.9815378,1.735726,-1.0396646,-1.8714912,-1.0364558,2.0036016,1.1890723,-0.9303264,-1.543174,0.6354589,-0.14729749,1.2790788,0.8659121,1.0790163,-0.31587335,2.9793262,-0.6724777,0.43073314,-3.9619875,0.33479935,4.6623464,0.48088837,-0.5108032,0.7141992,0.6348667,0.14514859,0.12156222,0.7490652,-1.3223444,-0.973272,0.7362964,1.0,0.0,0.0,0.0,0.0,0.0,0.0,-3.6293263,0.27247772,0.11926687,-18.770386,9.778476,31.623634,-20.356941,-17.53273,-13.697314,-3.0993104
9.4616165,119.47179,40.148365,10.770152,-1.4044114,3.1337023,-0.083761424,-0.82149315,0.53532064,-0.21905425,0.6322875,0.52604306,0.63181925,-0.54450804,1.6535767,-0.98613256,-1.8933966,-0.973227,2.0562057,1.2522541,-0.9847772,1.7197767,-1.0321726,-1.8723991,-1.024737,2.0115285,1.1990172,-0.9336147,-1.6133158,0.7861728,-0.06946033,1.1353832,0.76782227,0.96614236,-0.33486286,2.9397354,-0.66913223,0.47658518,-3.9580264,0.33446464,4.5594983,0.46759415,-0.51966095,0.72205555,0.64668226,0.13703223,0.116785035,0.7412054,-1.3414662,-0.84179795,0.8018346,1.0,0.0,0.0,0.0,0.0,0.0,0.0,-3.5897355,0.26913223,0.07341483,-7.3376894,14.817333,8.571397,-14.624858,-10.0663185,-11.295498,-2.431184
21.739374,109.91593,35.405857,6.485519,-1.6765231,2.0388565,-0.12773211,-0.8246925,0.5886223,-0.22432598,0.60811263,0.551149,0.6266992,-0.5441665,1.6373075,-0.97331035,-1.8948317,-0.9639257,2.0666435,1.261687,-0.9880313,1.7036921,-1.0231642,-1.8735225,-1.0140387,2.0189443,1.2079798,-0.9370603,-1.6078812,0.9383707,-0.12480048,1.0470308,0.7322561,0.87299633,-0.34928676,2.9001846,-0.66579056,0.5214095,-3.9540691,0.33413023,4.4567533,0.4543476,-0.527298,0.7303792,0.6582092,0.12890033,0.11316601,0.73303396,-1.3271153,-0.7227166,0.84198344,1.0,0.0,0.0,0.0,0.0,0.0,0.0,-3.5501847,0.26579055,0.0285905,0.26695728,15.040768,-4.977481,-9.12149,-3.6766648,-9.278321,-1.8938959
28.593216,104.15524,33.916622,5.015726,-1.5338213,1.6460195,-0.05152873,-0.8169747,0.6309656,-0.180327,0.58641446,0.5637203,0.63443184,-0.54391265,1.6219946,-0.9600676,-1.8915552,-0.95539725,2.0753162,1.271423,-0.99145156,1.6879565,-1.0127958,-1.8753517,-1.0039126,2.0262876,1.2161394,-0.94062704,-1.5627177,1.0690804,-0.20078228,1.0002643,0.73496455,0.7970145,-0.3604724,2.860674,-0.6624489,0.5652071,-3.9501157,0.33379617,4.354111,0.44132805,-0.5338211,0.7390648,0.66944665,0.12082336,0.110521965,0.7245879,-1.299674,-0.61392,0.8769175,1.0,0.0,0.0,0.0,0.0,0.0,0.0,-3.510674,0.26244888,-0.015207112,4.272437,12.930393,-7.11056,-4.982066,0.19171238,-7.5874805,-1.5374303
26.140226,96.52507,31.469618,6.531179,-1.0573087,1.5180119,-0.0171682,-0.81751966,0.6627937,-0.16523817,0.5785364,0.56694424,0.6476657,-0.54871684,1.6062045,-0.94651645,-1.8918755,-0.9460589,2.082982,1.280906,-0.9954987,1.6727091,-1.0013689,-1.877816,-0.994022,2.0337796,1.2236487,-0.94429106,-1.5128387,1.1668025,-0.26008934,0.98442596,0.7534452,0.7355289,-0.3695926,2.8212013,-0.65911484,0.6079791,-3.9461665,0.33346245,4.2515717,0.4285431,-0.53939056,0.7480697,0.6804061,0.112773515,0.10856091,0.71592194,-1.2763318,-0.5227655,0.9080797,1.0,0.0,0.0,0.0,0.0,0.0,0.0,-3.4712014,0.25911483,-0.057979107,4.7757626,9.651399,-5.4743557,-1.8753529,1.7825484,-6.1964035,-1.2950838
22.235752,87.978966,28.942806,7.345886,-0.5708923,1.4701678,0.0931649,-0.8189601,0.6786686,-0.13750651,0.54861236,0.6005943,0.6466209,-0.5519314,1.5908132,-0.933502,-1.8915666,-0.93916076,2.0938392,1.2883108,-0.9994842,1.6578623,-0.9892467,-1.8805568,-0.9842783,2.0415692,1.2306257,-0.9480342,-1.4759576,1.2270144,-0.27722853,0.9700185,0.7873723,0.6849093,-0.37711167,2.7817707,-0.6557808,0.6497265,-3.9422212,0.33312905,4.1491346,0.4159279,-0.5441513,0.757333,0.69105583,0.10472732,0.10695036,0.707132,-1.2609248,-0.44570625,0.9322478,1.0,0.0,0.0,0.0,0.0,0.0,0.0,-3.4317708,0.2557808,-0.0997265,3.4880161,5.9173107,-1.2450755,-1.7214656,3.3208132,-5.137229,-1.1110485
19.432795,83.807045,27.921219,8.207855,-0.262608,1.5473735,0.17895716,-0.81432754,0.69889206,-0.1030057,0.5302318,0.6107831,0.64931023,-0.551465,1.5764296,-0.91935754,-1.8908573,-0.93125516,2.1026475,1.2955568,-1.0031807,1.6432768,-0.97670496,-1.8831394,-0.9747025,2.0496984,1.237166,-0.95184225,-1.4532738,1.2628826,-0.2502075,0.95252013,0.821099,0.64353013,-0.3831772,2.7423782,-0.6524544,0.69045025,-3.9382796,0.332796,4.0468,0.40340614,-0.5481949,0.7668273,0.7013493,0.09663127,0.10543349,0.69832313,-1.2524831,-0.3744266,0.95487,1.0,0.0,0.0,0.0,0.0,0.0,0.0,-3.3923783,0.25245437,-0.14045024,2.068162,3.4898043,3.207153,-2.015257,3.2891393,-4.22678,-0.95938444
16.626637,80.65866,26.928808,9.223207,-0.045959592,1.6075189,0.21678974,-0.81177694,0.71041137,-0.06807363,0.52188843,0.6109779,0.6602121,-0.5519676,1.5620991,-0.90566385,-1.8899467,-0.9225136,2.1107962,1.3031873,-1.0070391,1.6288248,-0.9639324,-1.8852146,-0.96530116,2.0581021,1.2433573,-0.9557027,-1.442979,1.2816752,-0.19150487,0.9351523,0.84654653,0.6106766,-0.38812947,2.703024,-0.64912796,0.7301514,-3.9343421,0.33246326,3.9445684,0.39092064,-0.5515518,0.7765384,0.7112636,0.08841748,0.10386102,0.6895646,-1.2498631,-0.30729204,0.9760039,1.0,0.0,0.0,0.0,0.0,0.0,0.0,-3.353024,0.24912795,-0.1801514,0.8329153,1.7880201,6.3922763,-1.9818068,2.4588108,-3.3756256,-0.8401811
15.694303,77.234436,25.454924,8.766951,-0.046819866,1.509524,0.24800912,-0.8099561,0.721442,-0.05014683,0.4938183,0.6224532,0.66097784,-0.5506862,1.5478293,-0.8917882,-1.8902292,-0.9159193,2.1203475,1.309455,-1.0107714,1.6144167,-0.95103014,-1.8866603,-0.95616114,2.0667272,1.2492682,-0.9596042,-1.4406654,1.292798,-0.12723589,0.90615845,0.86718243,0.584377,-0.39195615,2.6637115,-0.64580536,0.7688311,-3.9304087,0.33213088,3.8424387,0.37845993,-0.5542488,0.7864069,0.7207769,0.08008228,0.102189936,0.6808998,-1.2464037,-0.24169204,0.98966956,1.0,0.0,0.0,0.0,0.0,0.0,0.0,-3.3137116,0.24580535,-0.21883106,0.037431717,1.0331631,6.939602,-3.1401873,1.9886374,-2.6836991,-0.7161498
14.321199,74.57523,24.104872,9.052852,0.0014744401,1.406749,0.24091879,-0.8089196,0.7271344,-0.0256553,0.48441684,0.6347501,0.6537619,-0.54223394,1.5335248,-0.8783167,-1.8892258,-0.90771943,2.1302023,1.3146443,-1.0138276,1.6000029,-0.9380506,-1.8874824,-0.9473082,2.0755353,1.2549483,-0.96353143,-1.4422773,1.2995065,-0.065719634,0.87750304,0.88523257,0.56244826,-0.39407036,2.6244373,-0.6424866,0.8064902,-3.926479,0.33179882,3.740411,0.36603165,-0.55631256,0.7963795,0.72989404,0.0716368,0.100419104,0.6723383,-1.2429814,-0.17992271,0.99853593,1.0,0.0,0.0,0.0,0.0,0.0,0.0,-3.2744374,0.24248657,-0.25649017,-0.34515858,0.6021261,6.634544,-3.095901,1.7492175,-2.22584,-0.52874684
13.572735,72.42497,22.692343,8.853514,-0.07499194,1.2610224,0.21377894,-0.8106414,0.7376078,-0.017349103,0.4620917,0.6378145,0.66163033,-0.53813726,1.5189388,-0.8642899,-1.8892173,-0.901099,2.1393168,1.3211113,-1.0173452,1.5855528,-0.92498815,-1.8878181,-0.9387785,2.0844884,1.2604452,-0.967472,-1.4464408,1.3083304,-0.021408461,0.84406585,0.89852405,0.5455492,-0.3950415,2.5852013,-0.6391716,0.84312975,-3.9225533,0.3314671,3.6384854,0.35365295,-0.55778503,0.80639553,0.7386349,0.0631125,0.09860774,0.6638612,-1.2368078,-0.12011066,1.0010015,1.0,0.0,0.0,0.0,0.0,0.0,0.0,-3.2352014,0.2391716,-0.29312974,-0.5943775,0.8244276,4.8778205,-3.5716653,1.2950063,-1.6909122,-0.39571524
14.286985,71.16865,21.88077,8.022791,-0.19760793,1.1302111,0.22748858,-0.81406295,0.74612206,0.0027242594,0.4275285,0.6477718,0.6615184,-0.5317698,1.5041466,-0.85037595,-1.8875457,-0.89602566,2.1492655,1.3265971,-1.020649,1.5710474,-0.91181695,-1.8877819,-0.9306704,2.0935674,1.2657992,-0.97141355,-1.4525434,1.3198836,0.013407298,0.7990483,0.91082823,0.53225243,-0.3949151,2.5460052,-0.63586044,0.87875086,-3.9186316,0.3311357,3.5366619,0.34136772,-0.55864334,0.81639796,0.7469955,0.054548856,0.09681562,0.6554761,-1.225767,-0.05975428,0.9980535,1.0,0.0,0.0,0.0,0.0,0.0,0.0,-3.1960053,0.23586044,-0.32875085,-0.78840256,1.1084318,3.9074414,-4.732394,1.2122393,-1.292336,-0.2732873
19.285536,70.12506,21.640863,4.863148,-0.5617503,0.91882443,0.31670272,-0.80829424,0.75481576,0.0219386,0.36568063,0.6516793,0.6607409,-0.5308012,1.490218,-0.83633536,-1.885588,-0.89410233,2.1587353,1.3318733,-1.0244937,1.5565172,-0.89851034,-1.8874347,-0.9232174,2.1027493,1.2710444,-0.9753522,-1.4537936,1.3341373,0.043094337,0.72654665,0.92076147,0.5222519,-0.39449224,2.5068493,-0.6325493,0.9133545,-3.9147139,0.33080462,3.43494,0.3292923,-0.55885315,0.82630956,0.75491494,0.0460067,0.09511116,0.6472562,-1.2006367,0.0065912222,0.9865497,1.0,0.0,0.0,0.0,0.0,0.0,0.0,-3.1568494,0.23254928,-0.3633545,-0.30534267,1.3955355,3.3832264,-7.495427,0.9877205,-0.88163614,-0.23940802
22.50906,66.85318,20.540506,2.296104,-0.80546194,0.65271854,0.38187337,-0.8052864,0.7563579,0.03119777,0.3098618,0.6568515,0.66382134,-0.5221313,1.4759886,-0.82287455,-1.8843149,-0.8922312,2.1684344,1.3374265,-1.0275654,1.5420042,-0.88508165,-1.8868473,-0.9166409,2.112019,1.2762095,-0.9792804,-1.4511323,1.3457708,0.06514191,0.63382787,0.9294762,0.5153216,-0.3930694,2.4677315,-0.62924576,0.9469417,-3.9108,0.3304739,3.3333201,0.31755066,-0.558403,0.83603245,0.76233864,0.037569173,0.09354713,0.6392787,-1.1638335,0.0724751,0.96493655,1.0,0.0,0.0,0.0,0.0,0.0,0.0,-3.1177316,0.22924575,-0.39694166,0.09534359,1.1556625,2.5783756,-9.525824,0.88967085,-0.4987955,-0.123262405
20.691288,62.934612,18.687595,2.6470575,-0.7478296,0.44514748,0.33642286,-0.8082022,0.7583503,0.023864448,0.2808147,0.661865,0.66473943,-0.5159267,1.461184,-0.8092466,-1.8844608,-0.8885594,2.1782055,1.3426834,-1.0308731,1.5275103,-0.87156236,-1.8861606,-0.910956,2.1213727,1.2813174,-0.98318857,-1.4492439,1.3540796,0.07105126,0.5459539,0.9376153,0.5101948,-0.39081788,2.4286518,-0.62594223,0.9795134,-3.90689,0.33014348,3.2318017,0.30617905,-0.557354,0.8454994,0.76929647,0.029296855,0.092154905,0.6315315,-1.1259996,0.1291522,0.93784803,1.0,0.0,0.0,0.0,0.0,0.0,0.0,-3.078652,0.22594222,-0.4295134,0.036120415,0.8402109,0.8972198,-9.034896,0.8623004,-0.2998829,-0.010484457
20.45311,61.79162,18.135334,2.726241,-0.7441652,0.33886343,0.3338403,-0.80982375,0.7647884,0.03721071,0.22919543,0.6653175,0.6585759,-0.5135069,1.446528,-0.7950835,-1.8824395,-0.8880365,2.1879044,1.3471749,-1.0345392,1.513024,-0.85796106,-1.8854148,-0.90616095,2.1307988,1.2863814,-0.9870729,-1.4488795,1.3622552,0.076542735,0.4565826,0.9448638,0.50570863,-0.3883342,2.3896122,-0.6226425,1.0110707,-3.9029837,0.32981342,3.130385,0.29519463,-0.5557518,0.85468876,0.7758144,0.021211313,0.09094711,0.6240117,-1.08618,0.18238145,0.9095959,1.0,0.0,0.0,0.0,0.0,0.0,0.0,-3.0396123,0.22264251,-0.46107072,-0.1073122,0.8385658,0.8204326,-9.176004,0.79159737,-0.22277832,0.031030178
20.734789,61.436375,18.162868,3.043026,-0.6881708,0.29256827,0.3508598,-0.8074426,0.7651639,0.061588887,0.18608682,0.67053616,0.65868074,-0.5055459,1.4322797,-0.78144467,-1.8792559,-0.88755226,2.1978524,1.3522494,-1.0376275,1.4985472,-0.8442997,-1.8845279,-0.90222704,2.1403012,1.2914053,-0.9909286,-1.4475713,1.3675965,0.09347527,0.37161875,0.95207447,0.50209934,-0.38526383,2.3506126,-0.6193466,1.0416147,-3.8990815,0.32948366,3.0290694,0.28461075,-0.5536423,0.86361074,0.7818994,0.013302291,0.089887865,0.6167467,-1.04563,0.23321965,0.88323087,1.0,0.0,0.0,0.0,0.0,0.0,0.0,-3.0006127,0.21934661,-0.49161464,-0.000667572,0.56545734,1.9319445,-8.7215185,0.8100867,-0.1291275,0.10134578
18.179401,61.795513,18.16945,5.1619406,-0.47709435,0.34318992,0.3149731,-0.81520563,0.7666797,0.08753657,0.16179301,0.66638607,0.6510702,-0.4931419,1.4170266,-0.7676317,-1.8757743,-0.8860477,2.20694,1.3565123,-1.0402428,1.4840456,-0.8305992,-1.8833663,-0.89902174,2.1498494,1.2963911,-0.99474615,-1.4513184,1.3710515,0.124276,0.30281654,0.9557978,0.49806792,-0.3811993,2.3116512,-0.61605453,1.0711461,-3.8951833,0.32915425,2.927855,0.27437592,-0.55104065,0.87231576,0.7875849,0.0055136443,0.08893189,0.60973,-1.0113425,0.2801258,0.8628349,1.0,0.0,0.0,0.0,0.0,0.0,0.0,-2.9616513,0.21605453,-0.5211461,-0.49993992,0.38058758,3.2907872,-7.0854483,0.48149824,-0.19937754,0.21418333
18.45493,61.70821,18.171476,5.299662,-0.4696334,0.29596317,0.32667667,-0.8151084,0.7705888,0.104411595,0.11431614,0.672878,0.655408,-0.48459333,1.4025347,-0.7535403,-1.8729252,-0.8875901,2.2171373,1.3619319,-1.0432055,1.4695059,-0.81686056,-1.8818576,-0.89650023,2.1594357,1.3013445,-0.9985189,-1.4552579,1.3749301,0.1603945,0.23460746,0.96015763,0.49512693,-0.37658423,2.272728,-0.61276627,1.0996662,-3.891289,0.32882515,2.8267422,0.26449776,-0.54797745,0.88082445,0.79288334,-0.0021769605,0.08805758,0.60297346,-0.9758166,0.326089,0.84325385,1.0,0.0,0.0,0.0,0.0,0.0,0.0,-2.922728,0.21276626,-0.5496662,-0.51116943,0.43127537,3.7937193,-7.013935,0.56278706,-0.08105636,0.282979
18.169214,59.86672,17.579632,5.427825,-0.43047187,0.19738695,0.32549062,-0.815289,0.76655984,0.12419136,0.080002315,0.67286783,0.6493987,-0.47627014,1.387977,-0.7402046,-1.8694385,-0.8885,2.2267225,1.3662844,-1.0461459,1.4549319,-0.8031124,-1.8799694,-0.8946301,2.1690602,1.3062674,-1.0022428,-1.4583114,1.3750151,0.19888172,0.17054738,0.96342796,0.49223745,-0.37157294,2.2338428,-0.609478,1.1271759,-3.8873985,0.3284964,2.7257304,0.25497437,-0.5444679,0.8891304,0.7978055,-0.009767071,0.08724516,0.5964891,-0.9396608,0.3681304,0.8225687,1.0,0.0,0.0,0.0,0.0,0.0,0.0,-2.883843,0.20947799,-0.5771759,-0.40962696,0.061249733,3.9927483,-6.5899997,0.47365427,-0.0643909,0.3365934
14.915586,58.89792,16.939014,7.8303213,-0.191077,0.1993058,0.24575877,-0.81866676,0.76563525,0.1389067,0.08225391,0.6732532,0.64826834,-0.46263236,1.3730652,-0.72654885,-1.8660787,-0.8864047,2.2363856,1.3710942,-1.048506,1.4403216,-0.7893766,-1.8777206,-0.89321005,2.1787076,1.3111635,-1.0059106,-1.4620562,1.3732222,0.23402517,0.13193366,0.9660014,0.4893656,-0.36574855,2.1949997,-0.60619736,1.1536764,-3.8835118,0.32816795,2.6248193,0.2457428,-0.540596,0.8972659,0.8024096,-0.017296758,0.08647541,0.5902216,-0.9112838,0.40387467,0.806543,1.0,0.0,0.0,0.0,0.0,0.0,0.0,-2.8449998,0.20619735,-0.6036764,-0.47039986,-0.12304783,3.6195068,-4.035008,0.42577982,-0.095266104,0.4297495
13.354633,60.218815,17.02576,9.533722,-0.122056305,0.22530381,0.1806535,-0.8200737,0.77594656,0.1472559,0.07157916,0.6676737,0.65222085,-0.4510718,1.3583142,-0.711782,-1.862995,-0.88605213,2.245475,1.3763857,-1.0510178,1.425677,-0.77561414,-1.87518,-0.89205515,2.1883588,1.3160368,-1.0095174,-1.4654621,1.3775649,0.26086703,0.10955239,0.96542966,0.48709738,-0.35937455,2.1561947,-0.6029167,1.1791685,-3.879629,0.32783985,2.5240092,0.23677635,-0.5363617,0.90528053,0.80675375,-0.02481243,0.08576757,0.5841033,-0.88627934,0.43900803,0.79556483,1.0,0.0,0.0,0.0,0.0,0.0,0.0,-2.8061948,0.20291671,-0.62916845,-0.43489933,0.49300194,2.7659893,-2.4013371,0.1268506,-0.056952238,0.49555898
10.4872265,57.860497,15.860897,11.064264,0.032367587,0.16411933,0.108923666,-0.8248131,0.77190614,0.14900346,0.0721667,0.66611886,0.6495882,-0.43269625,1.3431957,-0.6984235,-1.8602797,-0.88483846,2.2549706,1.3809956,-1.0527871,1.4109865,-0.76182306,-1.8724582,-0.89100325,2.1979947,1.3208872,-1.0130517,-1.4705526,1.3798333,0.276003,0.10327442,0.9636601,0.484728,-0.35189533,2.1174278,-0.5996437,1.2036532,-3.87575,0.3275121,2.4233,0.22800636,-0.5318146,0.91318876,0.8108966,-0.032329507,0.08514012,0.5780593,-0.86659616,0.4680186,0.7849388,1.0,0.0,0.0,0.0,0.0,0.0,0.0,-2.767428,0.1996437,-0.6536532,-0.6025076,0.28727055,1.5773237,-0.7930055,0.013518333,-0.088214874,0.61383843
11.96423,55.749382,15.318897,9.604614,-0.09531337,0.018278494,0.15226787,-0.8254683,0.7698355,0.16421846,0.03591509,0.66514397,0.64734316,-0.4201272,1.3284397,-0.6848395,-1.8560364,-0.8874117,2.2645092,1.3856215,-1.0550644,1.3962523,-0.7480253,-1.8695915,-0.8901144,2.2076077,1.3257147,-1.0165079,-1.4747978,1.3799236,0.29038733,0.083624765,0.9613522,0.48274148,-0.3439548,2.078699,-0.5963707,1.2271316,-3.8718753,0.32718465,2.3226914,0.21948814,-0.526989,0.92095256,0.8148329,-0.039806806,0.084609516,0.5721049,-0.84098494,0.49595127,0.76903504,1.0,0.0,0.0,0.0,0.0,0.0,0.0,-2.7286992,0.19637069,-0.6771316,-0.5126476,0.07455349,1.4973581,-2.1295831,-0.044810772,-0.02118349,0.66747665
9.831115,54.989048,14.875398,11.3609295,0.057777405,0.024391845,0.088452205,-0.8269619,0.7694585,0.16839983,0.062031582,0.65717447,0.6499116,-0.4111663,1.3135561,-0.67107946,-1.8527515,-0.88391125,2.2733252,1.3907058,-1.0576245,1.3814799,-0.7342361,-1.8666103,-0.88927233,2.2171826,1.330525,-1.0198858,-1.4783584,1.3787878,0.3008749,0.083919436,0.9563971,0.4810699,-0.33613014,2.0400085,-0.5931015,1.2496046,-3.8680043,0.3268575,2.2221835,0.21117592,-0.5219002,0.9285858,0.8185942,-0.047266837,0.08417126,0.5662018,-0.82097435,0.5205883,0.75691104,1.0,0.0,0.0,0.0,0.0,0.0,0.0,-2.6900086,0.1931015,-0.6996046,-0.44260025,-0.046896935,1.0907233,-0.13358444,-0.2984047,-0.016021729,0.6583452
11.401802,52.74167,14.138178,9.435589,-0.1264652,-0.16231744,0.13120368,-0.8307244,0.77170753,0.16249983,0.018405886,0.6616173,0.6443626,-0.39940757,1.2984074,-0.6570654,-1.8503603,-0.88743174,2.2833443,1.3949614,-1.0598265,1.3666655,-0.7204498,-1.863591,-0.88858855,2.2267232,1.3353201,-1.0231836,-1.4827191,1.3788632,0.30264273,0.062645294,0.9537378,0.4794922,-0.32812703,2.0013561,-0.5898361,1.2710733,-3.8641372,0.32653072,2.121776,0.20312119,-0.5165825,0.9360435,0.82217526,-0.054651573,0.08386067,0.5603645,-0.79317504,0.5436198,0.73749584,1.0,0.0,0.0,0.0,0.0,0.0,0.0,-2.6513562,0.18983611,-0.7210733,-0.5210161,0.078201294,0.22272468,-2.2915215,-0.08131266,0.026208162,0.6873071
15.641882,52.88446,14.7088995,6.5944924,-0.4221145,-0.2988444,0.24706492,-0.8287249,0.773179,0.18787217,-0.030150749,0.65695685,0.64411557,-0.38669994,1.283793,-0.6431319,-1.8448037,-0.89160365,2.292419,1.3997316,-1.0618535,1.3518282,-0.706653,-1.8604629,-0.888332,2.2362332,1.3401037,-1.0264013,-1.484384,1.3802246,0.31625286,0.012792137,0.9502434,0.4786287,-0.3198795,1.9627438,-0.58657074,1.2915388,-3.8602738,0.32620424,2.0214689,0.19543266,-0.5110054,0.94326925,0.8255103,-0.061892692,0.083697185,0.55470425,-0.75282365,0.5701078,0.71294326,1.0,0.0,0.0,0.0,0.0,0.0,0.0,-2.6127439,0.18657073,-0.7415388,-0.24032593,0.21345615,1.405704,-5.136185,-0.16913414,0.14724135,0.7205725
14.835091,51.523285,14.056807,7.0553994,-0.3912824,-0.38762596,0.21214847,-0.826784,0.77528447,0.16988946,-0.0270575,0.65627515,0.65000826,-0.36212745,1.2691498,-0.6291245,-1.8434739,-0.89103776,2.3018608,1.4051045,-1.0626141,1.3369948,-0.6928314,-1.8572948,-0.888518,2.245709,1.3448836,-1.0295255,-1.4832951,1.3830627,0.31703085,-0.029579973,0.94752717,0.4785114,-0.31022897,1.9241714,-0.583313,1.311002,-3.8564143,0.3258781,1.9212618,0.18814468,-0.505188,0.9502498,0.8286068,-0.06896797,0.08370664,0.54922426,-0.7130019,0.5925962,0.68838257,1.0,0.0,0.0,0.0,0.0,0.0,0.0,-2.5741715,0.18331298,-0.761002,0.042176247,0.36725998,0.09663105,-4.3876514,-0.08263588,0.21572709,0.8710146
12.976153,50.753384,13.696908,8.571812,-0.23474288,-0.38881975,0.16713388,-0.82935894,0.774453,0.17591439,-0.027026098,0.6560815,0.642554,-0.35069427,1.2540588,-0.6153861,-1.8397033,-0.89122057,2.3113172,1.4091389,-1.064595,1.3221651,-0.67898786,-1.8541191,-0.8890158,2.2551656,1.3496557,-1.0325525,-1.4830304,1.3850381,0.3176262,-0.056982484,0.94570476,0.47757798,-0.30055475,1.8856373,-0.58005524,1.3294638,-3.8525586,0.32555228,1.8211548,0.1812191,-0.49916077,0.95701283,0.8315016,-0.07590256,0.08387183,0.5438835,-0.67850167,0.61211,0.6674565,1.0,0.0,0.0,0.0,0.0,0.0,0.0,-2.5356374,0.18005523,-0.7794638,-0.041913986,0.28355122,0.063836575,-2.8912656,0.018072128,0.11057854,0.8766115
7.135001,49.40734,12.621456,13.08088,0.19107175,-0.29245642,-0.0015842207,-0.8316395,0.7744654,0.15311873,0.023165483,0.65028584,0.6397786,-0.3305872,1.2390012,-0.60154134,-1.8388072,-0.88669926,2.3201942,1.4136336,-1.0656112,1.3073279,-0.6651319,-1.8510559,-0.8894373,2.2645955,1.3544146,-1.0354784,-1.4844882,1.3861347,0.3024412,-0.037703015,0.94272166,0.4757026,-0.29026473,1.8471413,-0.5768051,1.3469253,-3.8487067,0.3252268,1.721148,0.17450333,-0.49298477,0.9636375,0.8342941,-0.08278634,0.084172785,0.53853005,-0.66104466,0.62566906,0.65599877,1.0,0.0,0.0,0.0,0.0,0.0,0.0,-2.4971414,0.17680511,-0.79692525,-0.23057461,0.19390583,-1.5275061,1.759252,-0.07869005,-0.055742264,0.93199015
4.6402087,49.96898,12.685483,15.838394,0.43253458,-0.1827204,-0.07700257,-0.8298585,0.7756331,0.15385585,0.052383237,0.64993095,0.64336246,-0.32067838,1.224342,-0.58756864,-1.8356702,-0.884199,2.3295887,1.4187509,-1.0675462,1.2924811,-0.65126455,-1.8481433,-0.88944685,2.2739987,1.3591543,-1.038305,-1.485072,1.3871497,0.2874707,0.010711312,0.9402375,0.47383177,-0.28043935,1.8086834,-0.573555,1.3633873,-3.8448586,0.32490164,1.6212412,0.16789055,-0.48666382,0.97020864,0.8370482,-0.08972248,0.08457654,0.5330543,-0.65320647,0.6395704,0.65266865,1.0,0.0,0.0,0.0,0.0,0.0,0.0,-2.4586835,0.17355499,-0.81338733,-0.15366077,0.18146038,-1.5044689,4.668743,-0.018644333,-0.10136366,0.8765578
3.3041492,46.9228,11.613692,16.09176,0.49976027,-0.25482106,-0.102048166,-0.8345943,0.7690707,0.13972801,0.05922504,0.6453148,0.6393598,-0.3131661,1.2090217,-0.5743575,-1.8341706,-0.88352436,2.3385303,1.4230903,-1.0696217,1.2776076,-0.63742197,-1.8454158,-0.8889605,2.2833714,1.3638731,-1.0410383,-1.4884076,1.3835864,0.26776174,0.060655963,0.936541,0.47165522,-0.27129656,1.7702637,-0.5703087,1.3788512,-3.8410144,0.32457682,1.5214343,0.16133499,-0.48023605,0.9767295,0.8397874,-0.0967223,0.085070014,0.5274134,-0.64759547,0.64977765,0.647048,1.0,0.0,0.0,0.0,0.0,0.0,0.0,-2.4202638,0.17030868,-0.82885116,-0.43468475,-0.28057098,-1.9634366,4.814422,-0.15180111,-0.14083982,0.805825
3.1384773,46.03696,11.127756,16.011408,0.44517112,-0.32160193,-0.12280609,-0.83400404,0.7752599,0.10805064,0.07957997,0.64325464,0.6422717,-0.2941748,1.1942072,-0.559896,-1.8346108,-0.8810025,2.347697,1.4281003,-1.0704558,1.2627054,-0.6235889,-1.8429935,-0.88798773,2.2927022,1.3685747,-1.0436761,-1.4910864,1.3834546,0.23366347,0.108877055,0.9326713,0.4699798,-0.26162398,1.7318821,-0.5670662,1.3933177,-3.837174,0.3242523,1.4217272,0.15485191,-0.47370148,0.9831838,0.8425267,-0.10376251,0.08569384,0.5215731,-0.6405436,0.6592907,0.64009625,1.0,0.0,0.0,0.0,0.0,0.0,0.0,-2.3818822,0.16706619,-0.8433177,-0.37343502,0.05903244,-3.3893406,4.6397076,-0.17938614,-0.096178055,0.85982084
0.22467041,43.998466,10.057743,17.862835,0.6102854,-0.3209515,-0.20775956,-0.84020036,0.7730297,0.07413267,0.13480467,0.6348923,0.634293,-0.26920283,1.1786854,-0.5462859,-1.8355802,-0.87450725,2.3561914,1.4320041,-1.0705965,1.2477537,-0.6097616,-1.8410232,-0.88640463,2.3019757,1.3732535,-1.0462072,-1.4968672,1.3827224,0.18499756,0.17411904,0.9262906,0.4674322,-0.25081033,1.6935387,-0.5638237,1.4067879,-3.8333375,0.32392812,1.3221198,0.14838028,-0.46710968,0.98958486,0.8453097,-0.11085306,0.08647621,0.5154463,-0.64080477,0.6657913,0.63537574,1.0,0.0,0.0,0.0,0.0,0.0,0.0,-2.3435388,0.1638237,-0.85678786,-0.69987774,-0.008320808,-4.8312902,6.328252,-0.43320656,-0.21998286,0.9680927
4.028226,42.76698,10.326681,14.714174,0.3668412,-0.4672819,-0.07835768,-0.83683854,0.7651442,0.08174433,0.1122223,0.6394233,0.6382639,-0.2667937,1.1640699,-0.5332472,-1.8328488,-0.8751824,2.3659182,1.4370799,-1.0728866,1.2327677,-0.5959753,-1.839423,-0.8844029,2.3112073,1.377915,-1.048639,-1.4993765,1.3774006,0.15192778,0.20836426,0.9226897,0.46598807,-0.24105974,1.6552334,-0.56058884,1.4192626,-3.8295052,0.32360426,1.2226119,0.14199066,-0.46043777,0.9958844,0.84808445,-0.117944136,0.087400295,0.50912,-0.6294443,0.6731426,0.62345463,1.0,0.0,0.0,0.0,0.0,0.0,0.0,-2.3052335,0.16058883,-0.86926264,-0.355649,-0.46658516,-3.2568483,3.2429516,-0.17697811,-0.06272793,0.86288154
4.7565265,39.72143,9.150845,12.597,0.16330987,-0.674924,-0.054225296,-0.8465524,0.7677416,0.032068692,0.102814235,0.6319333,0.62996686,-0.24740292,1.1481124,-0.5192011,-1.8362161,-0.8741214,2.3744006,1.4409118,-1.0733794,1.2177244,-0.582229,-1.8382671,-0.8822619,2.320393,1.3825594,-1.0509698,-1.5062507,1.3739122,0.10380518,0.215321,0.91748315,0.464344,-0.23075165,1.6169662,-0.557354,1.4307432,-3.8256767,0.32328072,1.1232035,0.1357708,-0.4537239,1.0019987,0.8508294,-0.1249185,0.08851888,0.50264204,-0.6103777,0.6758065,0.60284823,1.0,0.0,0.0,0.0,0.0,0.0,0.0,-2.2669663,0.15735397,-0.8807432,-0.7949114,-0.2821684,-4.745494,0.5096406,-0.3592968,-0.051772594,0.92945695
4.966461,36.8067,8.083957,11.55356,0.09294307,-0.840474,-0.056522176,-0.8423659,0.76451325,-0.017194614,0.11342135,0.6327383,0.6319775,-0.21974558,1.1334878,-0.5057777,-1.8399866,-0.87091976,2.383667,1.4457572,-1.0729444,1.202643,-0.56852186,-1.8377254,-0.8801123,2.329537,1.3871905,-1.0531862,-1.5091788,1.3698721,0.03772107,0.21420619,0.91370654,0.46328193,-0.21900243,1.5787373,-0.5541229,1.4412303,-3.821852,0.32295752,1.0238945,0.12977219,-0.4470253,1.007873,0.85355335,-0.13169093,0.089881495,0.49600935,-0.5879637,0.67304575,0.5778229,1.0,0.0,0.0,0.0,0.0,0.0,0.0,-2.2287374,0.15412292,-0.8912303,-0.3874302,-0.33402443,-6.554831,-0.30222833,-0.22383928,0.02014041,1.0798603
5.4193845,36.049614,7.9636025,11.311134,0.083896995,-0.8957081,-0.036190152,-0.83993804,0.7611158,-0.042948823,0.11884125,0.632714,0.6340929,-0.1840426,1.1186492,-0.49241027,-1.8420203,-0.86822814,2.3928082,1.4505998,-1.0715904,1.1875597,-0.5548605,-1.8378494,-0.8779856,2.3386502,1.3918158,-1.0552709,-1.5085139,1.3651173,-0.028931133,0.21161719,0.9111964,0.46267197,-0.20511204,1.5405464,-0.5508957,1.4507251,-3.818031,0.3226346,0.9246849,0.12400627,-0.44036484,1.013497,0.8562515,-0.13824204,0.09149029,0.4892361,-0.5644103,0.66914845,0.55300784,1.0,0.0,0.0,0.0,0.0,0.0,0.0,-2.1905465,0.15089568,-0.90072507,-0.020837784,-0.4045725,-6.6153297,-0.44849813,-0.09858608,0.06479025,1.2925386
0.73260784,34.145588,6.7065544,15.088365,0.43287736,-0.81475425,-0.1769048,-0.8443733,0.75908315,-0.11221792,0.18005393,0.6251631,0.63345224,-0.12110956,1.1031224,-0.47895217,-1.8490711,-0.8599802,2.4011664,1.455161,-1.0673819,1.1724707,-0.5412468,-1.838803,-0.87560046,2.3477254,1.3964335,-1.0571802,-1.509529,1.360356,-0.11731428,0.24673547,0.90698063,0.46150017,-0.18666044,1.5023937,-0.5476723,1.4592285,-3.814214,0.32231206,0.8255744,0.118356705,-0.43375397,1.018931,0.8589813,-0.14463755,0.093352675,0.48219946,-0.5559235,0.66264355,0.53609055,1.0,0.0,0.0,0.0,0.0,0.0,0.0,-2.1523938,0.14767227,-0.9092285,-0.213027,-0.41542053,-8.782893,3.2972455,-0.25601387,-0.060415268,1.735875
-1.4768381,34.37875,6.6227245,17.678867,0.6550385,-0.6981511,-0.22909755,-0.845971,0.7560249,-0.15055375,0.21741389,0.6209135,0.63615054,-0.05885104,1.0878736,-0.46564427,-1.8538585,-0.85385907,2.4098167,1.4600486,-1.0630653,1.1573626,-0.5276836,-1.8406436,-0.87268317,2.356751,1.4010378,-1.0588739,-1.5117096,1.3551563,-0.20608816,0.3058941,0.9019807,0.46017346,-0.16397913,1.4642792,-0.54445267,1.4667416,-3.8104007,0.3219898,0.726563,0.11272812,-0.4271965,1.0242493,0.86177355,-0.15096873,0.09545689,0.474808,-0.5566748,0.6589321,0.52647644,1.0,0.0,0.0,0.0,0.0,0.0,0.0,-2.1142793,0.14445266,-0.91674155,-0.35278797,-0.47187805,-8.796242,5.6903896,-0.3294587,-0.12666583,2.142042
-3.0338173,33.82861,6.5468807,19.65956,0.8503909,-0.59191024,-0.23584998,-0.8463712,0.7439512,-0.18203078,0.26492834,0.60305846,0.64048284,0.04500615,1.0727254,-0.4532885,-1.8588467,-0.84619033,2.4170568,1.4650861,-1.0543733,1.1422316,-0.5142168,-1.8433006,-0.8690201,2.365685,1.4056307,-1.0602815,-1.5140871,1.3439441,-0.28523377,0.38567117,0.8909352,0.45901805,-0.13352486,1.4262028,-0.54123306,1.4732653,-3.8065913,0.32166788,0.62765056,0.10703468,-0.42065048,1.0295112,0.86461526,-0.1573282,0.09777376,0.46704224,-0.5649982,0.65812,0.52239406,1.0,0.0,0.0,0.0,0.0,0.0,0.0,-2.0762029,0.14123306,-0.9232653,-0.38690567,-1.0864258,-7.808724,7.749307,-0.9323478,-0.14637113,2.9016047
-2.557684,30.60918,5.592674,18.203197,0.76583195,-0.72874856,-0.1964579,-0.8439353,0.73366,-0.24644524,0.2723115,0.59693354,0.64353204,0.123453006,1.0578381,-0.4408508,-1.8679451,-0.84178895,2.4253783,1.4699839,-1.0479362,1.1270949,-0.5008968,-1.8468196,-0.8646647,2.3745008,1.4102179,-1.0613477,-1.5140835,1.3280625,-0.37367263,0.45148093,0.8787419,0.45858493,-0.09817905,1.3881645,-0.5380211,1.4788007,-3.8027856,0.32134628,0.528837,0.10128403,-0.4141426,1.0346885,0.8674854,-0.16368115,0.10031919,0.45892656,-0.56959295,0.65319467,0.5126703,1.0,0.0,0.0,0.0,0.0,0.0,0.0,-2.0381646,0.13802108,-0.92880064,-0.1294136,-1.5537739,-8.747011,6.357324,-1.0569215,-0.050789118,3.3949227
0.17588234,27.971397,5.365104,14.675123,0.5001609,-0.9096247,-0.055572264,-0.85091597,0.71577877,-0.25928023,0.24868853,0.57252663,0.6377037,0.18789238,1.0420033,-0.42931893,-1.8727477,-0.8397958,2.4317534,1.4739883,-1.0425584,1.1119314,-0.48779428,-1.8510673,-0.8599564,2.3831372,1.4148012,-1.062042,-1.5174564,1.3044536,-0.44141936,0.4766193,0.85907346,0.45839784,-0.060275655,1.3501644,-0.5348091,1.4833486,-3.7989838,0.32102498,0.43012235,0.09557915,-0.4077263,1.0396938,0.8703236,-0.16991316,0.10310898,0.4505939,-0.5625811,0.64457095,0.49319065,1.0,0.0,0.0,0.0,0.0,0.0,0.0,-2.0001645,0.1348091,-0.9333486,-0.4482031,-2.3185968,-6.6651106,2.3100436,-1.8331647,0.040769577,3.6608987
6.5546956,27.458605,6.264574,8.378063,-0.057391286,-1.1925237,0.20344299,-0.84652585,0.70321447,-0.26102823,0.17854246,0.55511826,0.64347184,0.28162506,1.0272789,-0.41747284,-1.8771701,-0.8421021,2.438649,1.4791484,-1.0338795,1.0967585,-0.47494686,-1.8557746,-0.85550463,2.3915486,1.4193941,-1.0623224,-1.5174215,1.2783768,-0.48017442,0.43404812,0.8354267,0.46005222,-0.017547444,1.3122025,-0.53160095,1.4869101,-3.7951858,0.32070404,0.33150637,0.09012413,-0.40141678,1.0443958,0.87301856,-0.17584278,0.10615629,0.4423219,-0.5312832,0.6318698,0.45949903,1.0,0.0,0.0,0.0,0.0,0.0,0.0,-1.9622024,0.13160095,-0.9369101,-0.060868263,-2.5407553,-3.776151,-4.4243393,-2.264595,0.34301877,4.166489
10.783154,23.727201,5.740468,2.491739,-0.47778094,-1.5778661,0.36854312,-0.8439018,0.6867032,-0.29128072,0.097295456,0.5569559,0.6381601,0.30642393,1.0123683,-0.40627652,-1.8849027,-0.84577507,2.4472442,1.4832101,-1.03168,1.0816084,-0.46237934,-1.8608234,-0.85195124,2.3997655,1.4240042,-1.0621927,-1.5141215,1.2498999,-0.5130163,0.3286681,0.81735265,0.46226215,0.022815624,1.2742786,-0.5283966,1.4894862,-3.7913916,0.3203834,0.23298898,0.085121155,-0.3953247,1.0486443,0.8755085,-0.18123594,0.10946613,0.43434486,-0.48143202,0.6065053,0.41051346,1.0,0.0,0.0,0.0,0.0,0.0,0.0,-1.9242786,0.1283966,-0.9394862,0.33464432,-2.7497292,-3.2534957,-10.673404,-1.7262578,0.5008757,3.9692442
10.378731,21.598192,5.097993,1.8915181,-0.44345272,-1.6941938,0.3743716,-0.85124695,0.67250466,-0.31106892,0.06214962,0.5568725,0.63993114,0.32958236,0.99648374,-0.39512888,-1.8919303,-0.84573627,2.4554527,1.4879973,-1.0292344,1.0664622,-0.45009553,-1.8661735,-0.84954894,2.4078488,1.4286371,-1.0616853,-1.5149255,1.2215428,-0.54237825,0.2104155,0.8054812,0.46448252,0.059810262,1.236393,-0.52519226,1.4910779,-3.787601,0.32006308,0.13457009,0.080616,-0.389534,1.0523896,0.8778022,-0.18599413,0.11301097,0.4267294,-0.4325151,0.574931,0.35998517,1.0,0.0,0.0,0.0,0.0,0.0,0.0,-1.886393,0.12519225,-0.9410779,-0.06070137,-2.731061,-2.9299736,-11.949775,-1.1129379,0.49678683,3.6484792
14.171352,17.691935,4.4372563,-4.0504184,-0.8931721,-2.104462,0.52444786,-0.8446131,0.6575472,-0.33065346,-0.09089195,0.5467438,0.64511627,0.37567818,0.9820008,-0.38434082,-1.8992388,-0.8586381,2.4625232,1.4931488,-1.0241175,1.0513369,-0.4380902,-1.8718269,-0.84880793,2.4158216,1.4332968,-1.0608156,-1.5113581,1.1939652,-0.5731993,0.028422128,0.7948869,0.46778446,0.09612632,1.1985455,-0.52199554,1.4916861,-3.783814,0.3197431,0.036249604,0.07674408,-0.38415146,1.0555117,0.8798964,-0.18990354,0.11680722,0.4196129,-0.36538532,0.5285609,0.29400054,1.0,0.0,0.0,0.0,0.0,0.0,0.0,-1.8485454,0.12199554,-0.9416861,0.47876835,-2.619791,-3.1931162,-18.277777,-0.9973049,0.68327785,3.6309867
17.09267,14.253886,3.5833406,-9.576122,-1.3676581,-2.521986,0.61158377,-0.8449881,0.6533018,-0.36600372,-0.2598786,0.536264,0.6378056,0.35378182,0.96683806,-0.37276003,-1.9084272,-0.8747958,2.4694479,1.4970773,-1.0254374,1.0362517,-0.4263047,-1.8778808,-0.85037386,2.4236836,1.4379851,-1.0596349,-1.5069959,1.1739671,-0.61688966,-0.21835233,0.7836411,0.47045803,0.12546459,1.1607361,-0.5187988,1.4913119,-3.7800307,0.3194234,-0.06197259,0.07367134,-0.37935257,1.0578594,0.8818105,-0.19268528,0.120919235,0.4131116,-0.28125402,0.46632835,0.21293715,1.0,0.0,0.0,0.0,0.0,0.0,0.0,-1.8107361,0.11879882,-0.9413119,0.6739855,-1.831317,-4.612541,-24.702097,-1.0822773,0.6599009,2.9900684
17.727554,12.544345,2.7486954,-12.275784,-1.6610985,-2.7849958,0.5884102,-0.8475398,0.65964097,-0.41962463,-0.41619152,0.52488947,0.64277905,0.29645652,0.9514977,-0.3603406,-1.9198433,-0.89199305,2.4761727,1.502263,-1.0299892,1.021195,-0.4146155,-1.8845489,-0.85470164,2.4314237,1.4427,-1.0582426,-1.5039482,1.1678443,-0.6845502,-0.5042059,0.77066475,0.47291997,0.14434163,1.1229649,-0.51560974,1.4899561,-3.7762513,0.31910405,-0.16009657,0.07151222,-0.37524414,1.0593314,0.88361174,-0.19412096,0.12543312,0.40720245,-0.18920316,0.39322555,0.1233783,1.0,0.0,0.0,0.0,0.0,0.0,0.0,-1.7729648,0.115609735,-0.9399561,0.643301,-0.4267454,-7.1169615,-28.564173,-1.283443,0.6014645,1.9866109
15.186299,8.781048,1.1313771,-11.864109,-1.578405,-2.8984141,0.47268584,-0.84714377,0.65186816,-0.47007972,-0.54622555,0.49203396,0.6383276,0.23009521,0.9364807,-0.34942868,-1.9315568,-0.90932417,2.480627,1.5065328,-1.035233,1.006167,-0.40296638,-1.8920295,-0.86189044,2.4389577,1.4474283,-1.0567434,-1.5012287,1.1645334,-0.77042353,-0.790278,0.7473065,0.47364432,0.15223342,1.0852318,-0.51242065,1.48762,-3.7724757,0.318785,-0.25812244,0.0702343,-0.3719101,1.0598928,0.8853876,-0.19411342,0.13039751,0.40175265,-0.10410718,0.31164956,0.031797145,1.0,0.0,0.0,0.0,0.0,0.0,0.0,-1.7352318,0.11242065,-0.93762,0.6922722,-0.14743805,-9.008539,-28.556515,-2.355957,0.33414364,0.8964926
10.461836,9.163593,0.6265824,-6.291741,-1.0409476,-2.6427565,0.29181954,-0.84422773,0.6491302,-0.50494665,-0.6141784,0.4725718,0.6362418,0.19054472,0.9217443,-0.33805335,-1.9425242,-0.92330825,2.4862149,1.5110525,-1.037689,0.9911686,-0.39133918,-1.9003665,-0.87153494,2.4462209,1.4521528,-1.0552194,-1.4981728,1.162605,-0.8558768,-1.0224854,0.7194143,0.47246748,0.15267925,1.0475368,-0.5092354,1.4843042,-3.768704,0.31846628,-0.3560503,0.06964493,-0.369339,1.0596397,0.887208,-0.19279571,0.1357687,0.39655837,-0.041451514,0.23677723,-0.046450567,1.0,0.0,0.0,0.0,0.0,0.0,0.0,-1.6975368,0.109235376,-0.9343042,0.6767273,-0.03631115,-8.895695,-23.204327,-2.8271675,0.00756979,0.105929375
5.393638,14.230656,1.3529048,2.3483152,-0.24229519,-2.1490297,0.06044347,-0.83834314,0.6602145,-0.5460616,-0.6430768,0.5090807,0.63065237,0.08187113,0.9073343,-0.32531774,-1.9549727,-0.93584263,2.497129,1.5152181,-1.0470324,0.97621214,-0.37967098,-1.9095256,-0.8828913,2.4533582,1.4568526,-1.053787,-1.4942522,1.1686245,-0.93651885,-1.1736145,0.7118639,0.46925947,0.1400332,1.0098782,-0.5060539,1.4800099,-3.764936,0.31814787,-0.45388028,0.06948662,-0.36737442,1.0587856,0.88912517,-0.19048817,0.14138836,0.39138195,-0.007838543,0.18040055,-0.10078485,1.0,0.0,0.0,0.0,0.0,0.0,0.0,-1.6598781,0.10605392,-0.9300099,0.58145523,0.7208586,-8.208429,-15.197158,-0.7972598,-0.3281355,-1.2718022
-0.34421083,18.41528,1.521801,11.418847,0.51342446,-1.6318369,-0.17933169,-0.8422734,0.66759413,-0.59325755,-0.6418993,0.49159303,0.6232178,0.04618992,0.8919848,-0.31291157,-1.9688513,-0.9470812,2.5025175,1.5191743,-1.049168,0.96125567,-0.36790502,-1.9194725,-0.8951155,2.4604268,1.4615103,-1.0525167,-1.4964094,1.179516,-1.0135357,-1.239337,0.7046347,0.46431112,0.12247298,0.9722557,-0.50287247,1.4747381,-3.7611718,0.3178298,-0.55161244,0.06945801,-0.3658142,1.0575706,0.8911846,-0.18755536,0.14715695,0.38595054,-0.002361604,0.14401226,-0.13087332,1.0,0.0,0.0,0.0,0.0,0.0,0.0,-1.6222557,0.10287246,-0.9247381,-0.28522015,1.1576891,-7.5318933,-6.7851067,-0.792861,-0.61015487,-1.8619194
-2.7462845,21.881378,2.2714853,16.929924,0.98651755,-1.2627686,-0.27251667,-0.8415318,0.6696394,-0.6089941,-0.6542937,0.4836953,0.62491834,0.019029278,0.8771025,-0.30094108,-1.9803718,-0.9605449,2.5087965,1.5240021,-1.0506138,0.9462601,-0.35603225,-1.9300373,-0.9076096,2.4674268,1.4661204,-1.0514333,-1.5014236,1.1899709,-1.0696365,-1.2536516,0.69790167,0.45940694,0.10294221,0.9346714,-0.49969864,1.4684898,-3.7574115,0.317512,-0.64924693,0.069381714,-0.36450577,1.0561758,0.8933841,-0.18428563,0.15299466,0.38012668,-0.01198035,0.12290008,-0.14482725,1.0,0.0,0.0,0.0,0.0,0.0,0.0,-1.5846714,0.09969863,-0.91848975,-0.75604916,1.0864258,-5.2432775,-1.7206192,-0.7314801,-0.6549001,-2.1144972
-3.229366,20.587505,2.2088585,18.142262,1.156364,-1.1627995,-0.23512131,-0.8376135,0.6566187,-0.61668074,-0.67738074,0.44454986,0.6250733,0.07035351,0.86249876,-0.29037037,-1.9917053,-0.97534764,2.5118818,1.5286276,-1.044398,0.93123114,-0.34414232,-1.9409912,-0.92012656,2.474255,1.4706866,-1.0504911,-1.5043917,1.1887671,-1.102693,-1.2520537,0.6777134,0.45512265,0.09064735,0.89712524,-0.4965248,1.4612658,-3.753655,0.31719455,-0.7467838,0.06918335,-0.36338806,1.0546677,0.8956836,-0.18080993,0.15885322,0.373931,-0.026049506,0.104841195,-0.15528114,1.0,0.0,0.0,0.0,0.0,0.0,0.0,-1.5471252,0.096524805,-0.9112658,-0.59149265,-0.08914471,-2.91183,-0.13267994,-2.0500302,-0.5922973,-1.4107943
-2.841857,22.665686,3.1546764,19.822277,1.3328251,-0.9986178,-0.1993646,-0.8412006,0.6594308,-0.61257994,-0.67234915,0.45887998,0.62542206,0.060788702,0.8471111,-0.27819923,-2.0022492,-0.9873615,2.520143,1.5332288,-1.0444123,0.9161612,-0.33227956,-1.95209,-0.9325348,2.4809384,1.4752165,-1.0496595,-1.5090327,1.18554,-1.1109082,-1.2379824,0.66544443,0.45148662,0.08001652,0.85961723,-0.4933548,1.4530672,-3.7499022,0.31687742,-0.84422314,0.06882286,-0.36240005,1.0530992,0.8980363,-0.17723231,0.16465281,0.36743543,-0.042993106,0.094282724,-0.15956245,1.0,0.0,0.0,0.0,0.0,0.0,0.0,-1.5096172,0.09335479,-0.9030672,-0.83851814,-0.29559135,-0.36313534,1.1029482,-1.2325644,-0.5337417,-1.2469143
-2.4906778,20.855476,2.875907,19.203423,1.3126354,-1.0287043,-0.15656024,-0.838873,0.6505327,-0.62430286,-0.6815545,0.4285926,0.62302774,0.072904445,0.8322739,-0.26722628,-2.0145204,-1.0006902,2.5237978,1.5375193,-1.042369,0.9010664,-0.320495,-1.963227,-0.94483817,2.4874463,1.4797121,-1.0489118,-1.51082,1.1761581,-1.1131078,-1.2286465,0.6459343,0.44830862,0.072637975,0.82214737,-0.4901886,1.4438949,-3.746153,0.3165606,-0.9415651,0.068302155,-0.36151505,1.0514709,0.9004147,-0.1735665,0.17036954,0.36069664,-0.058550857,0.08186342,-0.16593598,1.0,0.0,0.0,0.0,0.0,0.0,0.0,-1.4721473,0.09018859,-0.89389485,-0.52986145,-0.910306,0.21080971,0.6510496,-1.9505858,-0.4801631,-0.9178877
-2.9905407,13.94102,1.1325791,16.810564,1.2599602,-1.2147422,-0.085655525,-0.8390936,0.62066376,-0.6235686,-0.7020013,0.36913568,0.6204557,0.13590203,0.81715703,-0.25842863,-2.025584,-1.0150383,2.52436,1.5417577,-1.0353216,0.8859688,-0.30893743,-1.9743488,-0.9571692,2.4936109,1.4841791,-1.0481775,-1.5102448,1.1490461,-1.1108463,-1.2353566,0.60666484,0.4455984,0.07317888,0.78471565,-0.4870224,1.4337498,-3.7424076,0.3162441,-1.0388098,0.06762886,-0.3608551,1.0497109,0.90279937,-0.16972324,0.17601763,0.35378674,-0.07424109,0.058401357,-0.18126878,1.0,0.0,0.0,0.0,0.0,0.0,0.0,-1.4347156,0.087022394,-0.8837498,-0.18692017,-2.6846647,0.54996014,-0.89969635,-3.9306045,-0.41225553,-0.1210019
-4.1780615,5.0719805,-1.2610042,14.001462,1.2739847,-1.4575068,-0.02557858,-0.8381446,0.58176005,-0.62106055,-0.7266398,0.3211763,0.60777694,0.16992985,0.80215436,-0.25076142,-2.036455,-1.0298332,2.5257285,1.5449568,-1.0311846,0.870895,-0.2978133,-1.9854324,-0.96970713,2.4992757,1.4886118,-1.0474031,-1.506845,1.1002965,-1.1069865,-1.2605255,0.55301034,0.44225588,0.078358315,0.74731827,-0.48386383,1.4226329,-3.7386658,0.31592792,-1.1359572,0.06677246,-0.3605423,1.0477172,0.9051869,-0.16556634,0.18158065,0.34677503,-0.09359994,0.020462051,-0.20716542,1.0,0.0,0.0,0.0,0.0,0.0,0.0,-1.3973182,0.083863825,-0.8726329,0.23190975,-4.8544407,0.5796671,-2.684474,-5.3812385,-0.46100616,0.3477037
-5.1683464,2.821672,-2.2484467,13.873555,1.1614113,-1.4762065,-0.038796842,-0.837758,0.5626811,-0.632082,-0.7279012,0.21086171,0.6128352,0.20359056,0.7871192,-0.24154519,-2.0486405,-1.0424973,2.520362,1.5498953,-1.027044,0.8558575,-0.287207,-1.9965332,-0.98249495,2.5041432,1.4930197,-1.0465505,-1.5029442,1.047453,-1.1105127,-1.2853668,0.4646125,0.43975896,0.08683672,0.70995903,-0.48070526,1.4105455,-3.734928,0.31561205,-1.2330076,0.065727234,-0.36061096,1.045442,0.9075728,-0.16102746,0.18716621,0.33963278,-0.11277342,-0.018834652,-0.2359345,1.0,0.0,0.0,0.0,0.0,0.0,0.0,-1.359959,0.080705255,-0.86054546,0.2978325,-5.2752495,-0.15487671,-2.637124,-8.879298,-0.38404465,0.65169483
-7.581296,0.021930695,-3.979097,14.663417,1.2568767,-1.484272,-0.11595908,-0.84594274,0.5370156,-0.657451,-0.73262614,0.1452191,0.6045521,0.18747789,0.77126324,-0.23350544,-2.0622783,-1.0557575,2.518665,1.5534749,-1.0278027,0.8408123,-0.27713716,-2.0077915,-0.99549925,2.5080304,1.4973971,-1.0456331,-1.5053917,0.99345535,-1.1301965,-1.3059158,0.36328876,0.43648738,0.09275732,0.67263794,-0.47755432,1.3974881,-3.7311938,0.3152965,-1.3299608,0.06444168,-0.36109543,1.0428735,0.909977,-0.15606569,0.19286433,0.3322479,-0.1389496,-0.05971817,-0.2653167,1.0,0.0,0.0,0.0,0.0,0.0,0.0,-1.3226379,0.077554315,-0.8474881,-0.3770113,-5.419123,-1.6667604,-2.2078753,-10.2394285,-0.50585866,0.3568396
-9.379462,-5.412943,-6.0791864,13.707464,0.919871,-1.5779777,-0.15784821,-0.83750343,0.4838099,-0.6762103,-0.7404082,-0.13697204,0.60986716,0.20739222,0.75706196,-0.22875617,-2.0754125,-1.06954,2.4943333,1.5583838,-1.0248939,0.82577765,-0.26772106,-2.0193386,-1.0086771,2.5102239,1.5017477,-1.0446527,-1.5030311,0.92416984,-1.1616704,-1.3221979,0.17127624,0.4342816,0.09894817,0.635355,-0.47440338,1.3834621,-3.7274635,0.31498128,-1.426817,0.06292343,-0.36203003,1.039952,0.91239,-0.15058695,0.19896415,0.32447085,-0.16200076,-0.10620824,-0.3024773,1.0,0.0,0.0,0.0,0.0,0.0,0.0,-1.285355,0.074403375,-0.83346206,0.18391609,-6.9637775,-2.9123306,-1.7427444,-19.32389,-0.3823042,0.31988472
-10.024044,-4.849657,-6.391177,14.478869,0.58883256,-1.4874438,-0.17926854,-0.8431478,0.45200622,-0.6847565,-0.73778707,-0.40031296,0.6214671,0.24382135,0.7414629,-0.22252044,-2.0878143,-1.0824559,2.4701927,1.5638944,-1.0202706,0.81074107,-0.25900733,-2.0311947,-1.0219485,2.5099149,1.5060908,-1.0435922,-1.5042046,0.85364676,-1.1925564,-1.3290904,-0.09873866,0.43378732,0.10725574,0.5981083,-0.47125626,1.3684682,-3.7237368,0.31466636,-1.5235765,0.061222076,-0.36340332,1.0366434,0.91475695,-0.14453398,0.20581724,0.3161784,-0.17894185,-0.14854693,-0.34169698,1.0,0.0,0.0,0.0,0.0,0.0,0.0,-1.2481083,0.07125625,-0.81846815,-0.19693375,-7.1010947,-2.8122187,-0.7862091,-27.139748,-0.200665,0.46824366
-11.646307,-8.854822,-7.716486,14.750814,0.69897735,-1.4767727,-0.1383662,-0.8513109,0.38713637,-0.67255306,-0.7307567,-0.5885037,0.6357331,0.29838875,0.72560996,-0.2202937,-2.09845,-1.0950241,2.4510646,1.5696641,-1.0137533,0.7956511,-0.25113237,-2.0432262,-1.0352083,2.5066953,1.5104433,-1.0424154,-1.5108213,0.7652546,-1.2056856,-1.3251336,-0.3965468,0.43515617,0.11978668,0.5608978,-0.46811295,1.3525074,-3.7200136,0.31435177,-1.6202393,0.059309006,-0.3652153,1.0329292,0.91701484,-0.13788497,0.21353418,0.30736738,-0.20224628,-0.19294393,-0.38272458,1.0,0.0,0.0,0.0,0.0,0.0,0.0,-1.2108978,0.06811294,-0.80250734,-0.7386923,-8.908629,-1.0345459,0.33698082,-29.918953,-0.009948015,0.85392445
-12.575819,-11.216096,-8.381541,15.286107,1.118766,-1.457408,-0.07501747,-0.84570724,0.3301969,-0.6770571,-0.7234813,-0.65576106,0.6512309,0.32086277,0.7110804,-0.21811268,-2.1109319,-1.1075565,2.4411192,1.5755664,-1.0103291,0.78052294,-0.24422419,-2.0553303,-1.048369,2.5008245,1.5148207,-1.041105,-1.5137237,0.66569924,-1.2109659,-1.3130811,-0.65109664,0.43800715,0.13359103,0.5237255,-0.46496964,1.3355807,-3.7162943,0.31403747,-1.7168053,0.057073593,-0.36748123,1.0288215,0.9191225,-0.13066843,0.22191504,0.2981495,-0.2377634,-0.23813558,-0.42166466,1.0,0.0,0.0,0.0,0.0,0.0,0.0,-1.1737255,0.06496963,-0.7855807,-0.3529787,-10.040987,-0.26464462,1.1746168,-25.589884,0.11897683,0.99502504
-17.87344,-28.323957,-13.940919,12.336512,1.9665816,-1.8499031,-0.029392838,-0.8474167,0.21248792,-0.6937155,-0.7381858,-0.6671085,0.65325254,0.30146646,0.6957813,-0.2229754,-2.1247017,-1.1221876,2.4341135,1.580146,-1.0109584,0.7653824,-0.23864567,-2.0675259,-1.0614763,2.4929852,1.5192229,-1.0396821,-1.5137196,0.52149034,-1.2222997,-1.3097178,-0.8286143,0.44026414,0.14389281,0.48659134,-0.46183395,1.3176891,-3.7125788,0.3137235,-1.8132749,0.05422592,-0.37036896,1.0242586,0.92112297,-0.122823305,0.2304682,0.28867167,-0.30819115,-0.30583534,-0.46955904,1.0,0.0,0.0,0.0,0.0,0.0,0.0,-1.1365913,0.061833948,-0.76768905,0.14801025,-14.550662,-1.0479927,0.3961563,-17.883932,-0.00846982,0.6508231
-29.160812,-67.61106,-26.292608,4.488756,3.281462,-2.783955,0.0490041,-0.8407694,-0.016013894,-0.7010763,-0.7588367,-0.65573,0.65704036,0.2829948,0.68130547,-0.24024706,-2.1376336,-1.13736,2.4274123,1.5849268,-1.0113827,0.7503077,-0.2353307,-2.079874,-1.0746619,2.4839635,1.5236422,-1.0381849,-1.5031041,0.2674648,-1.240549,-1.3205982,-0.9266177,0.44125816,0.15038374,0.4494934,-0.45869827,1.2988335,-3.708867,0.31340984,-1.909648,0.050189972,-0.3743248,1.0190328,0.92315644,-0.11415294,0.23840299,0.27913308,-0.44388288,-0.42371157,-0.5419529,1.0,0.0,0.0,0.0,0.0,0.0,0.0,-1.0994934,0.058698267,-0.7488335,1.7206907,-25.61661,-2.223444,-0.814867,-9.861898,-0.2667308,0.25972724
-38.594086,-102.05757,-36.63102,-2.803984,4.3853626,-3.531884,0.21183984,-0.8324288,-0.26155716,-0.67373943,-0.77286726,-0.63702226,0.66172343,0.33987558,0.6670648,-0.2614864,-2.147248,-1.1519486,2.4202614,1.5898145,-1.0041974,0.73540556,-0.23536217,-2.0922794,-1.0880228,2.4744382,1.5280634,-1.0365884,-1.4822901,-0.0943433,-1.2432895,-1.3394129,-0.96113235,0.44047016,0.161588,0.41243172,-0.4555664,1.2790148,-3.705159,0.3130965,-2.0059247,0.04437065,-0.37976074,1.0129137,0.9253641,-0.104487434,0.24489681,0.26983184,-0.6371643,-0.57908547,-0.6370502,1.0,0.0,0.0,0.0,0.0,0.0,0.0,-1.0624317,0.0555664,-0.7290148,3.1944275,-36.480892,-1.1481524,-1.3383627,-3.422618,-0.6393671,0.79072714
-37.962185,-104.720474,-36.1619,-4.4759374,4.6963706,-3.415497,0.44105044,-0.81951815,-0.4330525,-0.6135104,-0.7823013,-0.5788519,0.66891056,0.44189095,0.65345377,-0.27866742,-2.1536305,-1.166253,2.416553,1.5949545,-0.99239933,0.72075903,-0.23922265,-2.1043987,-1.101586,2.4649892,1.5324732,-1.0348012,-1.4548044,-0.4843923,-1.2049526,-1.3595778,-0.93881047,0.43872994,0.18384212,0.37540817,-0.45243835,1.2582341,-3.7014544,0.31278345,-2.102105,0.03653717,-0.38669586,1.0058128,0.92778367,-0.093873605,0.24941908,0.26114228,-0.84084505,-0.7259568,-0.73687965,1.0,0.0,0.0,0.0,0.0,0.0,0.0,-1.0254081,0.05243835,-0.70823413,3.950429,-39.33367,2.7727127,-1.293397,2.311623,-0.8829117,2.085617
-27.043903,-75.126205,-24.620527,0.046289206,4.423249,-2.433547,0.65471214,-0.80840516,-0.5296386,-0.50845695,-0.7874698,-0.41355467,0.6519711,0.44735652,0.6399185,-0.2921865,-2.1552444,-1.180333,2.4236338,1.5976703,-0.9900656,0.7063824,-0.24655521,-2.1156254,-1.1153303,2.456368,1.5368544,-1.0327852,-1.4287215,-0.817128,-1.0983694,-1.3770399,-0.8360611,0.4358275,0.20807241,0.33842278,-0.4493103,1.2364924,-3.6977537,0.31247073,-2.198189,0.026948929,-0.39474106,0.9978567,0.9303614,-0.08265481,0.25170794,0.25345382,-1.0080583,-0.8223363,-0.818765,1.0,0.0,0.0,0.0,0.0,0.0,0.0,-0.98842275,0.049310297,-0.6864924,3.57759,-33.54777,9.660339,-1.0450363,10.382581,-0.948441,2.5684743
-18.990986,-49.010525,-15.416095,4.929649,4.2715893,-1.5519437,0.7036784,-0.8075904,-0.64990985,-0.43130335,-0.78848,-0.22092345,0.6267851,0.40413487,0.62562335,-0.3115462,-2.1587558,-1.1941783,2.4342756,1.5995328,-0.9923717,0.69219744,-0.25677145,-2.1254978,-1.1292025,2.4493375,1.5411955,-1.0305688,-1.4122642,-1.0905256,-0.95357585,-1.3886372,-0.6584374,0.43185633,0.22741233,0.3014717,-0.44618988,1.2137905,-3.6940567,0.31215832,-2.294177,0.01589775,-0.40345764,0.98922956,0.9330677,-0.07122847,0.25162482,0.24697413,-1.1456405,-0.87539494,-0.8823527,1.0,0.0,0.0,0.0,0.0,0.0,0.0,-0.9514717,0.046189874,-0.6637905,2.4942875,-27.565706,13.48691,-0.5177021,17.87498,-0.93011856,2.2953777
-11.492675,-17.70885,-5.9218082,12.109006,4.139382,-0.57155347,0.59377074,-0.7971238,-0.70450276,-0.39551798,-0.7783267,0.04122259,0.6119577,0.35221738,0.61248505,-0.32722172,-2.1650496,-1.2070352,2.4534597,1.6023912,-0.9953471,0.6781517,-0.2690624,-2.1339893,-1.1431013,2.444695,1.5455004,-1.0282133,-1.399404,-1.2758465,-0.8177595,-1.3886881,-0.39912617,0.4292538,0.23982617,0.2645588,-0.44306946,1.1901295,-3.6903636,0.31184623,-2.390069,0.0037002563,-0.41236496,0.980172,0.93590343,-0.05999178,0.24916221,0.2416687,-1.2511309,-0.8816715,-0.91979957,1.0,0.0,0.0,0.0,0.0,0.0,0.0,-0.91455877,0.043069452,-0.6401295,2.063942,-18.691635,12.583876,0.52177906,26.054882,-0.55069923,1.7560124
-9.425592,3.4871082,-1.6689781,17.30605,3.8564966,0.023215413,0.33376208,-0.7921454,-0.7383747,-0.42846859,-0.78274727,0.20534427,0.58351654,0.32522684,0.5989372,-0.34289986,-2.1768363,-1.2213761,2.4652295,1.603852,-0.9956906,0.66420996,-0.28260696,-2.141634,-1.1569906,2.442803,1.5497729,-1.0257757,-1.3897672,-1.3810825,-0.750144,-1.3875415,-0.11907092,0.426088,0.2467583,0.22768402,-0.43995285,1.1655103,-3.6866739,0.31153443,-2.485865,-0.009407043,-0.42113495,0.9708497,0.93888557,-0.04912508,0.2445632,0.23721178,-1.3364892,-0.86012423,-0.9433423,1.0,0.0,0.0,0.0,0.0,0.0,0.0,-0.877684,0.039952844,-0.6155103,1.7781734,-10.651422,5.7469845,0.58932304,28.103876,-0.4361987,1.21485
-8.14259,21.180641,1.3025229,21.145332,2.5974584,0.51610017,0.03744506,-0.78446215,-0.74916154,-0.46921548,-0.7646822,-0.051999535,0.5991672,0.32709473,0.58576375,-0.3575231,-2.1885555,-1.2334589,2.437603,1.6096896,-0.9930662,0.6503626,-0.296708,-2.1491566,-1.1707808,2.4424329,1.5540377,-1.0232923,-1.3804014,-1.4201592,-0.7558504,-1.3747115,-0.009018321,0.426693,0.24993002,0.19084358,-0.43684006,1.1399338,-3.682988,0.31122297,-2.5815654,-0.02309227,-0.4295578,0.961303,0.94190663,-0.038527276,0.23877276,0.23305604,-1.3834141,-0.8193922,-0.96580684,1.0,0.0,0.0,0.0,0.0,0.0,0.0,-0.84084356,0.03684005,-0.5899338,1.7310619,-4.007411,-1.5354156,1.7027617,11.093285,0.11012554,0.64124167
-7.9968386,31.200884,2.245376,22.233398,1.1321303,0.7496896,-0.18718286,-0.771806,-0.7499999,-0.5359403,-0.75932014,-0.39990044,0.63190496,0.327925,0.573182,-0.37170798,-2.2027507,-1.2467128,2.402443,1.6172282,-0.9904998,0.63663733,-0.31087482,-2.1572628,-1.1844202,2.4415402,1.5583407,-1.0207975,-1.3675268,-1.4158411,-0.8316195,-1.3592463,-0.11569383,0.43176758,0.24949555,0.15404129,-0.43372726,1.113401,-3.6793058,0.3109118,-2.67717,-0.036981583,-0.43753433,0.95146275,0.9447925,-0.02789535,0.23301868,0.22867256,-1.3940591,-0.7725441,-0.9977109,1.0,0.0,0.0,0.0,0.0,0.0,0.0,-0.80404127,0.03372726,-0.56340104,2.0063639,0.3361225,-8.413517,1.9279718,-10.631153,0.6311536,0.026288629
-8.519721,36.428616,2.560303,22.533852,0.6425055,0.8592851,-0.26520568,-0.7770579,-0.74026275,-0.5778794,-0.770514,-0.4460783,0.6219736,0.31813797,0.5589315,-0.3849011,-2.2150507,-1.2614716,2.3969324,1.620538,-0.9889837,0.6229893,-0.32480752,-2.1663494,-1.1979872,2.4391217,1.5626875,-1.0183256,-1.3617179,-1.3860849,-0.93682367,-1.3544201,-0.28413653,0.4358976,0.24642974,0.117277145,-0.4306221,1.085913,-3.6756272,0.31060097,-2.772679,-0.050886154,-0.44501495,0.9412784,0.9474579,-0.016991861,0.22791919,0.22380276,-1.3929086,-0.7226161,-1.0327964,1.0,0.0,0.0,0.0,0.0,0.0,0.0,-0.7672771,0.030622095,-0.53591293,1.253128,2.8676748,-11.254013,0.8473635,-16.878054,0.5308032,-0.33976436
-10.615841,34.561085,1.3683128,22.390108,1.0186472,0.83687186,-0.2671017,-0.7858449,-0.7530514,-0.60320616,-0.7682765,-0.36269474,0.5992574,0.25958088,0.5444048,-0.40011266,-2.22667,-1.2748148,2.4028523,1.6226133,-0.9923675,0.60932505,-0.33848608,-2.1764507,-1.2115313,2.4353757,1.5670496,-1.0159261,-1.3658252,-1.3622656,-1.0368776,-1.353226,-0.40498662,0.4365824,0.23764211,0.08054733,-0.42751694,1.0574704,-3.6719522,0.31029043,-2.8680928,-0.06488228,-0.45199585,0.9307525,0.9499266,-0.005774793,0.22337767,0.21842234,-1.4039762,-0.6731229,-1.0666214,1.0,0.0,0.0,0.0,0.0,0.0,0.0,-0.7305473,0.027516931,-0.5074704,0.24766922,2.2495747,-10.686326,0.50911903,-12.162763,0.12207627,-0.8848071
-8.690199,39.403267,3.9532294,23.51381,1.2454143,1.0753862,-0.17434344,-0.79242873,-0.7419705,-0.5893061,-0.7535282,-0.36221266,0.6142379,0.24993917,0.53008217,-0.41268313,-2.2353814,-1.2868841,2.3991544,1.6284734,-0.9909322,0.59556353,-0.35193574,-2.1872272,-1.2250162,2.4307446,1.571427,-1.0136163,-1.3776039,-1.3395891,-1.0932537,-1.34581,-0.48276028,0.43843362,0.22874235,0.043855667,-0.4244156,1.0280746,-3.668281,0.3099802,-2.963411,-0.07896042,-0.45843124,0.91996187,0.9522128,0.0056188786,0.21915196,0.21267727,-1.411871,-0.61555386,-1.0904692,1.0,0.0,0.0,0.0,0.0,0.0,0.0,-0.69385564,0.024415582,-0.4780746,-0.603652,2.1481752,-6.2529325,1.0858536,-7.842499,0.26643872,-0.84546506
-9.777155,34.55779,2.5471554,21.741207,1.2434099,0.9387537,-0.16500053,-0.78104293,-0.7588406,-0.65209,-0.7526505,-0.47772342,0.6153933,0.15446725,0.5174592,-0.42781982,-2.2524362,-1.3002813,2.3829722,1.6329663,-0.9981696,0.58174,-0.36530483,-2.1985912,-1.2384268,2.4252667,1.5758196,-1.011461,-1.3822973,-1.3365154,-1.1526114,-1.33837,-0.56966525,0.4395296,0.211211,0.007200241,-0.42131805,0.99772626,-3.6646137,0.3096703,-3.058634,-0.09315872,-0.46434402,0.90888137,0.95431924,0.017183935,0.2151474,0.20661828,-1.4242958,-0.5646069,-1.1210253,1.0,0.0,0.0,0.0,0.0,0.0,0.0,-0.6572002,0.021318048,-0.44772625,0.04591942,0.17170906,-6.4781427,1.1163235,-8.7672825,0.12502074,-1.720345
-8.080662,34.68642,3.8100455,20.632061,1.2016747,0.98085785,-0.06606958,-0.78277373,-0.76475227,-0.6485048,-0.7522447,-0.5207722,0.61857796,0.13169034,0.5034627,-0.44178006,-2.2634418,-1.3136513,2.3731894,1.6376774,-0.99829197,0.56788313,-0.37873113,-2.210352,-1.2517782,2.4189763,1.5802237,-1.0094869,-1.3853843,-1.345077,-1.185587,-1.3329012,-0.6488924,0.4406224,0.19289465,-0.029418945,-0.41822433,0.9664264,-3.6609497,0.30936068,-3.1537616,-0.1074543,-0.46975327,0.8974867,0.9562353,0.028903056,0.21126744,0.2003615,-1.4323243,-0.5141634,-1.1525531,1.0,0.0,0.0,0.0,0.0,0.0,0.0,-0.62058103,0.018224329,-0.41642636,0.13558865,-0.9847164,-3.7900686,0.90396404,-7.9895735,0.11348128,-1.7768443
-8.501125,34.334625,3.752914,20.467113,1.328389,1.010447,-0.07563034,-0.78694034,-0.772027,-0.67115486,-0.7408469,-0.53988266,0.60881865,0.017280094,0.4891891,-0.45593384,-2.2774675,-1.3258629,2.364988,1.6411055,-1.0077589,0.55399096,-0.39229858,-2.2223911,-1.265042,2.4120183,1.5846277,-1.0077646,-1.3891851,-1.3610381,-1.2118865,-1.3228397,-0.71200264,0.44036785,0.16551751,-0.065999985,-0.41513443,0.9341759,-3.6572895,0.3090514,-3.2487943,-0.12184906,-0.4746437,0.88578427,0.9579724,0.040728398,0.207401,0.19394557,-1.4427805,-0.46336988,-1.1829462,1.0,0.0,0.0,0.0,0.0,0.0,0.0,-0.584,0.015134424,-0.3841759,0.036859512,-1.7278671,-3.0959845,1.3707399,-6.374216,-0.037378073,-2.661872
-8.229025,34.710354,4.1412125,20.032389,1.3958385,1.0497601,-0.074547954,-0.78573316,-0.78223044,-0.68527955,-0.73674613,-0.55107117,0.6049397,-0.09840334,0.47541764,-0.47052163,-2.290919,-1.3387165,2.3569112,1.6451217,-1.017605,0.54007304,-0.4060582,-2.2346554,-1.2782007,2.4045644,1.5890261,-1.0063837,-1.3914247,-1.3813695,-1.232799,-1.3123037,-0.75679076,0.43942887,0.12934276,-0.10254669,-0.41204453,0.9009758,-3.653633,0.3087424,-3.3437319,-0.13635445,-0.47903824,0.8737811,0.9595473,0.052613378,0.2034475,0.18737617,-1.4532539,-0.41211846,-1.2127961,0.0,1.0,0.0,0.0,0.0,0.0,0.0,-0.5474533,0.012044519,-0.3509758,0.1572609,-2.1645308,-2.524805,1.4164925,-4.537916,-0.1198113,-3.5191953
-8.508139,37.516434,4.7145634,21.001633,1.4801869,1.1858525,-0.10250196,-0.7871623,-0.7840945,-0.7045119,-0.7150342,-0.57546073,0.6107054,-0.14647667,0.46135682,-0.48446766,-2.3051066,-1.3497041,2.3470182,1.6500967,-1.0210314,0.52642673,-0.4200183,-2.248103,-1.291648,2.3972747,1.5967513,-1.0050138,-1.3546132,-1.4016384,-1.3808397,-1.3527647,-0.73091406,0.86915195,0.12995157,-0.12110901,-0.4112091,0.90048504,-1.3780531,0.05698791,0.9875206,-0.1510868,-0.48248672,0.86122257,0.96090806,0.063354515,0.19968015,0.18102379,-1.4758942,-0.30493614,-1.2760651,0.0,1.0,0.0,0.0,0.0,0.0,0.0,-0.52889097,0.0112091005,-0.35048503,0.5120039,-1.9491673,-3.1689405,2.807355,-3.4363747,-0.68472624,-3.4826608
96.085236,176.0,110.0,110.0,2.1217985,14.530856,-0.86845684,-0.8184639,0.34436914,0.65762,0.71415734,-0.40683538,0.6713005,-0.36477712,0.44458035,-0.38558137,-2.1823409,-1.2202322,2.3565912,1.6638814,-1.0414915,0.5156979,-0.43647254,-2.2540538,-1.2950355,2.3867462,1.614875,-1.0076479,-0.9550165,-1.6762147,-0.42245087,-0.031407997,-1.1002206,2.145539,-0.35859564,-0.13488007,-0.4106369,0.9096164,-1.3766754,0.056930937,0.88834727,-0.16312027,-0.48312378,0.85210484,0.96184534,0.06357054,0.19955805,0.17603657,-1.1087061,0.03770474,-0.79580015,1.0,0.0,0.0,0.0,0.0,0.0,0.0,-0.5151199,0.010636896,-0.3596164,47.152542,-12.319112,69.06796,122.95551,-18.907906,133.23152,-38.049747
-1.0355666,176.0,47.75823,110.0,6.516424,6.4714384,-1.8908298,-0.81672496,-0.55484825,-0.23782693,0.76862097,-0.6407467,0.6857243,-0.2711924,0.4340254,-0.49195737,-2.2778366,-1.2181734,2.3226714,1.6834474,-1.0347672,0.5051541,-0.45222104,-2.2547596,-1.2892066,2.37592,1.636077,-1.0122751,-1.0823812,-1.5406077,0.0411608,0.7885422,-1.0761282,2.1213474,-0.4945649,-0.14863586,-0.4100647,0.91775674,-1.375299,0.05687402,0.7892731,-0.17370796,-0.4813156,0.84725803,0.9628118,0.057021003,0.20187896,0.17025499,-1.0386838,0.23841847,-0.38589177,1.0,0.0,0.0,0.0,0.0,0.0,0.0,-0.5013641,0.010064691,-0.36775672,-11.210537,13.700628,44.672943,82.28106,2.5119066,0.47574043,-12.701714
-32.833622,138.86078,17.31004,91.36076,5.9504533,3.4407105,-1.8038553,-0.7889276,-0.54594237,-0.35916102,0.7039809,-0.7098487,0.6609741,0.3176399,0.4262613,-0.50681525,-2.2906756,-1.2188085,2.3049352,1.7021744,-0.9805111,0.49352974,-0.46586955,-2.2545688,-1.2771007,2.3652732,1.6559802,-1.0166792,-1.183673,-1.3064183,0.0052748797,1.3536235,-1.0590494,1.9531921,-0.42130235,-0.16237831,-0.4094963,0.9249071,-1.3739239,0.056817155,0.69029796,-0.18427086,-0.47789383,0.8455187,0.963789,0.048194967,0.20591314,0.16244283,-1.0603385,0.38315284,-0.10865482,1.0,0.0,0.0,0.0,0.0,0.0,0.0,-0.48762167,0.009496301,-0.37490708,-8.503056,23.366283,-5.556164,57.165,2.3207664,-14.841247,7.711607
-28.212042,103.431564,10.285485,63.08006,4.115595,1.5785441,-1.02532,-0.7718683,-0.58204186,-0.097719304,0.7744471,-0.684316,0.6529251,0.25466144,0.4163429,-0.5240737,-2.2643406,-1.199656,2.2968416,1.7212727,-0.991213,0.4808969,-0.47753537,-2.2548587,-1.2614413,2.354924,1.6738311,-1.0201982,-1.2861942,-1.1204596,-0.04492279,1.6385622,-1.0256505,1.7331558,-0.32823583,-0.1761074,-0.40893173,0.9310684,-1.3725502,0.056760352,0.5914218,-0.19502258,-0.4734459,0.8456314,0.9646363,0.039029725,0.21105352,0.15300296,-1.078947,0.47190112,0.045219555,1.0,0.0,0.0,0.0,0.0,0.0,0.0,-0.47389257,0.008931726,-0.3810684,-9.166241,18.446754,-6.4032273,28.99239,3.7240982,-20.821762,9.489012
-14.517576,62.221657,6.750682,33.02717,1.9615728,0.0017387271,-0.11096,-0.74768525,-0.6329891,-0.01757682,0.75256556,-0.7090878,0.6783159,0.2873916,0.40612835,-0.5408343,-2.2566164,-1.1861848,2.2840152,1.7416627,-0.9914591,0.46760362,-0.48812973,-2.255469,-1.2446948,2.3447807,1.6896106,-1.0227922,-1.3421704,-1.0395279,-0.0685776,1.6874627,-1.0103918,1.5282111,-0.23633279,-0.18982124,-0.40836716,0.93623376,-1.371178,0.0567036,0.4915793,-0.20585823,-0.46858978,0.8463728,0.9652785,0.030606937,0.21651514,0.14290445,-1.0831349,0.49812922,0.07770134,1.0,0.0,0.0,0.0,0.0,0.0,0.0,-0.46017873,0.008367151,-0.38623375,-5.1496744,7.9759836,-2.9681928,5.1237345,1.5841961,-19.876076,9.228733
1.6296029,42.667137,10.004487,15.246049,0.47461012,-0.6694259,0.55709213,-0.7369872,-0.6370376,0.07731688,0.75013554,-0.71532947,0.6625757,0.31834918,0.3939049,-0.5518335,-2.2477374,-1.1696813,2.2732477,1.7558682,-0.9909573,0.45404428,-0.49845278,-2.255717,-1.2284137,2.3346908,1.7035323,-1.0245413,-1.3604219,-1.0301449,-0.010058155,1.6084135,-1.0092306,1.3479453,-0.15441725,-0.20352364,-0.40780258,0.94040143,-1.3698071,0.05664691,0.39183664,-0.2165432,-0.46374512,0.8469901,0.96570486,0.023317082,0.22172597,0.13307121,-1.060964,0.4870585,0.050939884,1.0,0.0,0.0,0.0,0.0,0.0,0.0,-0.44647634,0.007802576,-0.39040142,-1.8030405,0.859046,5.8526163,-7.87704,-0.15485287,-17.659737,8.1595
11.263785,33.878227,12.588471,7.634837,-0.14519137,-0.92606246,0.8363016,-0.72014475,-0.64536583,0.12873946,0.75104016,-0.71873474,0.6685868,0.30549872,0.3820298,-0.56298935,-2.2428432,-1.1533097,2.2628174,1.770391,-0.9939914,0.4405455,-0.5090014,-2.255038,-1.2132083,2.3245513,1.7158653,-1.0255789,-1.3468693,-1.063311,0.094687216,1.4911469,-1.0167787,1.196039,-0.08691017,-0.21721077,-0.407238,0.9435724,-1.3684375,0.056590274,0.2921937,-0.22690964,-0.4591446,0.84717643,0.96595436,0.017114088,0.22638978,0.124044225,-1.0262215,0.45771733,0.0030216859,1.0,0.0,0.0,0.0,0.0,0.0,0.0,-0.4327892,0.0072380006,-0.3935724,1.1931896,-3.3801079,10.763066,-11.772275,-1.183939,-14.95235,6.7084894
10.281251,27.204058,10.539309,6.356516,-0.021737427,-1.0542517,0.77407914,-0.7161065,-0.6658934,0.1272779,0.73947746,-0.72312254,0.6638921,0.2853289,0.36893484,-0.5755907,-2.2423103,-1.1392605,2.252239,1.7822545,-0.997046,0.4272732,-0.52004874,-2.2534168,-1.1991054,2.3143165,1.7268687,-1.0260442,-1.3211578,-1.1187457,0.18540318,1.383361,-1.0270936,1.0689846,-0.033008303,-0.23088455,-0.40667343,0.94574773,-1.3670694,0.056533694,0.19265041,-0.23700905,-0.45487976,0.8468329,0.96609354,0.011869436,0.23041584,0.11589122,-1.0029081,0.4243357,-0.050993763,1.0,0.0,0.0,0.0,0.0,0.0,0.0,-0.41911542,0.0066734254,-0.39574772,2.4405956,-5.6013823,9.318545,-10.783124,-1.4110804,-12.540007,5.382617
7.905139,24.493158,8.825829,7.6852727,0.2733222,-1.0650612,0.6364215,-0.6963621,-0.6972239,0.14417738,0.72813886,-0.72684157,0.66162616,0.27903584,0.357637,-0.58977115,-2.2389991,-1.1262915,2.2416325,1.7930313,-0.9981407,0.4143371,-0.5317379,-2.2510593,-1.1858474,2.3039787,1.7367641,-1.0260481,-1.2846491,-1.1858797,0.2534465,1.3067477,-1.0368361,0.9635917,0.010606652,-0.24454498,-0.40610886,0.9469284,-1.3657026,0.056477174,0.09320664,-0.2469616,-0.45091248,0.84597117,0.966179,0.0074228137,0.23382294,0.10848845,-0.9911677,0.39316392,-0.10155579,1.0,0.0,0.0,0.0,0.0,0.0,0.0,-0.405455,0.0061088502,-0.39692837,3.5773516,-6.772661,6.973758,-7.6056957,-1.2853146,-10.413218,4.3939686
-0.7064228,15.9859705,2.5002804,8.797771,0.72646296,-1.2538891,0.36547285,-0.6678753,-0.7392047,0.057192575,0.71279263,-0.7177951,0.6599621,0.24936122,0.34754956,-0.6056584,-2.24534,-1.1145681,2.2321992,1.8027602,-1.001112,0.4018454,-0.5441643,-2.2486866,-1.1731349,2.2936027,1.745742,-1.0256971,-1.2372893,-1.261687,0.23228522,1.2601138,-1.0384892,0.8762271,0.04355015,-0.25819206,-0.40554428,0.9471153,-1.3643372,0.056420706,-0.006137709,-0.2570114,-0.447258,0.84454864,0.96626663,0.003774273,0.23666567,0.101507284,-1.0084505,0.36356696,-0.159073,1.0,0.0,0.0,0.0,0.0,0.0,0.0,-0.3918079,0.005544275,-0.3971153,4.759407,-7.6294184,-2.131462,-4.509878,-0.2947569,-8.655298,3.3655643
-14.340386,13.0289135,-4.687172,13.251273,1.3415914,-1.2378175,-0.028976439,-0.6713799,-0.74694824,-0.072257854,0.7205759,-0.7223547,0.663522,0.20395899,0.3347074,-0.6188591,-2.2559123,-1.1010773,2.2213671,1.8120942,-1.0053012,0.38973135,-0.5572163,-2.2473361,-1.1606227,2.2832267,1.7539665,-1.0250982,-1.2021197,-1.3197974,0.10129198,1.2492802,-1.0365832,0.8050252,0.0657856,-0.2718258,-0.4049797,0.9463095,-1.3629731,0.056364298,-0.105382726,-0.26745987,-0.44378662,0.84255636,0.9663831,0.0010471923,0.2391435,0.09440829,-1.056295,0.3474726,-0.21599385,1.0,0.0,0.0,0.0,0.0,0.0,0.0,-0.3781742,0.0049797,-0.3963095,3.7168026,-5.852461,-13.430105,-0.7940769,0.3121376,-7.013166,2.3289495
-31.40689,5.3041263,-14.698645,16.118874,1.8461622,-1.3555989,-0.414844,-0.67397374,-0.7574776,-0.30644503,0.7167292,-0.7244883,0.6538665,0.20563212,0.32233396,-0.632964,-2.2779806,-1.0889498,2.210778,1.8193531,-1.004535,0.37785,-0.57070506,-2.2484157,-1.1480838,2.272889,1.7615691,-1.0243124,-1.1821283,-1.3587064,-0.18021925,1.2567917,-1.0314903,0.7457566,0.083309665,-0.28544426,-0.40441513,0.944512,-1.3616104,0.056307945,-0.2045285,-0.27867126,-0.44039917,0.839903,0.9665325,-0.00041370682,0.24150024,0.08655728,-1.1421559,0.34283882,-0.28546527,1.0,0.0,0.0,0.0,0.0,0.0,0.0,-0.36455572,0.0044151247,-0.394512,2.3989916,-3.9339304,-28.844818,1.2059212,0.927639,-5.81795,1.8664553
-43.768803,3.138224,-20.753891,18.79649,2.1440878,-1.2709162,-0.65466875,-0.68824375,-0.75987166,-0.51138216,0.72123796,-0.72656345,0.670246,0.21691562,0.30902562,-0.6466922,-2.2995539,-1.07596,2.2002325,1.8285937,-1.0026208,0.36601156,-0.58443224,-2.2530162,-1.1353904,2.2626045,1.7686702,-1.0233682,-1.1825027,-1.3776209,-0.55654705,1.2755872,-1.0255315,0.6985672,0.09835846,-0.29905128,-0.40385056,0.9417238,-1.3602492,0.05625165,-0.30357516,-0.29091072,-0.43695068,0.8365087,0.9666856,-0.00028780184,0.24395746,0.07748242,-1.2489173,0.35297003,-0.3614552,1.0,0.0,0.0,0.0,0.0,0.0,0.0,-0.3509487,0.0038505495,-0.3917238,0.5402088,-1.9742966,-38.580906,2.4799824,1.1816978,-4.6252847,1.6007915
-37.485954,15.283442,-14.880693,19.691143,1.84234,-0.89094794,-0.50539374,-0.66586906,-0.7555416,-0.5862248,0.72712624,-0.71733373,0.68867904,0.29690567,0.29942465,-0.6599864,-2.3116388,-1.0626777,2.190871,1.8375381,-0.9936777,0.3542089,-0.59821665,-2.2610843,-1.122491,2.2523925,1.7753783,-1.0222372,-1.1779135,-1.3791492,-0.8924266,1.2966963,-1.0186589,0.6616665,0.118141584,-0.31264305,-0.40328598,0.9379459,-1.3588891,0.056195408,-0.4025228,-0.30401993,-0.43334198,0.83245134,0.9667737,0.0013732422,0.24662268,0.06725996,-1.3288671,0.37173125,-0.42504567,1.0,0.0,0.0,0.0,0.0,0.0,0.0,-0.33735693,0.0032859743,-0.3879459,0.9499788,-0.29530525,-34.322952,2.6683092,1.0985374,-3.627503,2.001515
-28.799799,27.883106,-7.5553546,20.142843,1.6154069,-0.48402053,-0.3148654,-0.6635101,-0.75740266,-0.6480167,0.73295075,-0.68952763,0.6845949,0.3085237,0.2878579,-0.67395693,-2.325886,-1.0491959,2.1834397,1.8438379,-0.9913848,0.34244484,-0.61196387,-2.2718608,-1.109399,2.2423065,1.7817641,-1.0209173,-1.174741,-1.3738966,-1.1407309,1.31506,-1.0044379,0.63111424,0.1364353,-0.32622147,-0.4027214,0.93317926,-1.3575305,0.056139223,-0.5013715,-0.3177185,-0.42949295,0.827881,0.96673983,0.004292497,0.24947159,0.056208666,-1.3793176,0.397536,-0.47263756,1.0,0.0,0.0,0.0,0.0,0.0,0.0,-0.3237785,0.002721399,-0.38317925,0.6703377,0.34370422,-25.273561,2.2961855,1.6019583,-3.023553,1.8029302
-15.58247,38.980343,0.90140015,18.516191,1.146713,-0.19715613,-0.050502427,-0.63701534,-0.7634722,-0.6887749,0.7283822,-0.69326264,0.6783993,0.29240924,0.2787433,-0.6883111,-2.3407383,-1.0365608,2.1729803,1.8496041,-0.9916764,0.33081573,-0.625672,-2.2843807,-1.0962058,2.2323234,1.787881,-1.0194505,-1.1585473,-1.3704797,-1.2892306,1.3217264,-0.9963092,0.605225,0.1500048,-0.33978653,-0.40215683,0.92742187,-1.3561733,0.056083098,-0.6005151,-0.33166695,-0.42541885,0.82292265,0.9665459,0.008144623,0.2524282,0.04475177,-1.3941307,0.41986817,-0.5087465,1.0,0.0,0.0,0.0,0.0,0.0,0.0,-0.31021345,0.0021568239,-0.37742186,1.7446041,0.1563549,-14.905024,0.96349716,0.7331729,-2.5822997,1.2770414
2.1203036,49.84817,10.621029,15.814579,0.5375506,-0.019830704,0.2589728,-0.5783333,-0.76890624,-0.6885768,0.7299984,-0.69761187,0.6765737,0.3133787,0.2729824,-0.70256263,-2.3532383,-1.023206,2.1625621,1.8555384,-0.9881127,0.31959862,-0.63938105,-2.297652,-1.0829993,2.2223709,1.7937709,-1.0178541,-1.1099977,-1.3714913,-1.3382539,1.3204659,-0.99610484,0.5835453,0.16249414,-0.35333824,-0.40159988,0.92067385,-1.3548174,0.056027025,-0.69955957,-0.3454628,-0.4212265,0.8176924,0.966173,0.012572352,0.2554131,0.033402167,-1.3687639,0.4289872,-0.5329135,1.0,0.0,0.0,0.0,0.0,0.0,0.0,-0.29666173,0.0015998781,-0.37067384,4.6838045,-0.25913715,-4.5036077,-0.04851818,-0.32684803,-2.1756053,1.1150241
10.010799,54.077564,14.781211,14.62328,0.3920448,0.035680532,0.3708359,-0.55516857,-0.7768339,-0.6980606,0.7307023,-0.6748883,0.6557885,0.27716342,0.26408175,-0.71706444,-2.367458,-1.0099292,2.154882,1.8593497,-0.99013776,0.30893415,-0.6531464,-2.310992,-1.0698329,2.2124603,1.7994567,-1.0161737,-1.0528449,-1.3786514,-1.3303084,1.3152078,-0.9908887,0.5633843,0.1692559,-0.3668766,-0.40104294,0.91293615,-1.3534628,0.05597101,-0.798505,-0.35890007,-0.41698837,0.8122675,0.96563995,0.017306594,0.25833207,0.02245788,-1.3287334,0.4311169,-0.55071265,1.0,0.0,0.0,0.0,0.0,0.0,0.0,-0.28312337,0.0010429323,-0.36293614,5.4291725,-0.8564234,1.380682,-0.5381346,0.05441904,-2.041483,0.54051876
22.209093,55.833927,19.25386,11.018855,-0.0906831,-0.09465957,0.5437476,-0.47489825,-0.78733367,-0.69969016,0.7149632,-0.67042166,0.6371238,0.2685468,0.26144433,-0.7318798,-2.380961,-0.9983366,2.1454182,1.8631691,-0.989319,0.2991013,-0.66703,-2.3240497,-1.0568019,2.202603,1.8049499,-1.0144476,-0.961581,-1.3920212,-1.2948629,1.2983831,-0.9858696,0.54422504,0.17301074,-0.3803997,-0.400486,0.90420973,-1.3521097,0.05591505,-0.8973515,-0.37179565,-0.41286469,0.8066531,0.9649788,0.022190843,0.2611034,0.012183121,-1.2703968,0.41437215,-0.5701215,1.0,0.0,0.0,0.0,0.0,0.0,0.0,-0.26960027,0.00048598647,-0.35420972,8.676505,-1.4455557,4.352379,-1.8210888,-0.077950954,-1.9726038,0.21153986
47.111023,62.379795,28.925768,5.5449934,-0.98294085,-0.31543833,0.8481429,-0.31268832,-0.794181,-0.6533127,0.70749843,-0.64350027,0.629033,0.29262534,0.26783246,-0.7464481,-2.389381,-0.9860521,2.138253,1.8678532,-0.985185,0.29077953,-0.68106234,-2.336497,-1.0439788,2.1928566,1.8102618,-1.0126795,-0.7916006,-1.4072667,-1.2234013,1.2757924,-0.9735989,0.52653795,0.17720188,-0.39391136,-0.39992905,0.89449555,-1.3507578,0.05585915,-0.99609923,-0.3838215,-0.40917587,0.8008748,0.96423376,0.026996125,0.2636575,0.003023768,-1.1739736,0.36161542,-0.5851787,1.0,0.0,0.0,0.0,0.0,0.0,0.0,-0.2560886,-7.095933e-05,-0.34449553,16.215944,-1.5898943,8.41732,-2.6480913,0.41401386,-1.8829346,0.18244684
32.109734,56.016068,22.0038,8.407604,-0.32083893,-0.35014278,0.64301234,-0.36272138,-0.8035399,-0.6616228,0.6935174,-0.63544166,0.5867748,0.31452113,0.2545074,-0.7614163,-2.4026594,-0.9746271,2.1293123,1.8689393,-0.98122734,0.28371805,-0.69526255,-2.348357,-1.0313998,2.1832511,1.8153869,-1.010856,-0.67935413,-1.4245634,-1.1705132,1.2512213,-0.9580567,0.50725996,0.18358369,-0.40740776,-0.3993721,0.8837946,-1.3494073,0.0558033,-1.0947484,-0.39512062,-0.4058838,0.79491353,0.9634463,0.03175015,0.2659638,-0.005139396,-1.1090945,0.32449064,-0.6045506,1.0,0.0,0.0,0.0,0.0,0.0,0.0,-0.24259222,-0.00062790513,-0.3337946,10.70677,-1.8294573,6.2114716,-2.6445627,0.8976102,-2.0470977,0.4767418
40.25312,59.363674,24.973312,7.372507,-0.53320074,-0.44408816,0.70441103,-0.2375645,-0.8045705,-0.6253677,0.687686,-0.61371315,0.58037853,0.3430701,0.2599616,-0.7757196,-2.4108937,-0.9626312,2.1218798,1.8734248,-0.976549,0.2779655,-0.709602,-2.3596752,-1.0190421,2.1738403,1.8203307,-1.0089525,-0.54256016,-1.437292,-1.1150529,1.2297158,-0.9376909,0.48955563,0.19192189,-0.42089272,-0.39881516,0.8721079,-1.3480582,0.05574751,-1.1932988,-0.40568542,-0.40304565,0.7887887,0.962644,0.03641828,0.26802775,-0.012303857,-1.0336385,0.27529874,-0.61969763,1.0,0.0,0.0,0.0,0.0,0.0,0.0,-0.22910726,-0.0011848509,-0.3221079,13.082719,-1.372385,6.59709,-2.3949146,1.3046026,-1.9216955,0.64963996
33.21988,57.59768,21.932962,9.456823,-0.10253525,-0.4696066,0.54889333,-0.21016102,-0.81459063,-0.60501736,0.685137,-0.5799643,0.54327136,0.28681847,0.2569494,-0.79106104,-2.420177,-0.95052844,2.1158438,1.8746579,-0.9802706,0.2733845,-0.72407115,-2.3705013,-1.0068427,2.164708,1.8250896,-1.0070127,-0.4315182,-1.4505872,-1.0690337,1.2161435,-0.9070134,0.4707071,0.19420895,-0.4343624,-0.3982582,0.85943645,-1.3467104,0.05569177,-1.2917508,-0.41561317,-0.40063477,0.78252596,0.9618527,0.04097113,0.2698413,-0.018606732,-0.97413766,0.23453446,-0.633143,1.0,0.0,0.0,0.0,0.0,0.0,0.0,-0.21563756,-0.0017417967,-0.30943644,10.630524,-1.4471531,5.494237,-1.503706,2.414155,-2.0403326,0.088602304
40.733402,61.26536,24.90236,8.705752,-0.22742867,-0.5070058,0.6071359,-0.11039141,-0.8175066,-0.54749274,0.6743067,-0.546437,0.5283937,0.32205376,0.26234537,-0.8058218,-2.4252505,-0.93941206,2.1100643,1.877929,-0.9748073,0.2700352,-0.7386509,-2.380736,-0.99477494,2.1559417,1.8296672,-1.0050329,-0.30453417,-1.4608556,-1.0048294,1.2031159,-0.8692585,0.45262083,0.19871102,-0.44782066,-0.39770126,0.84578127,-1.345364,0.055636093,-1.3901043,-0.42487144,-0.39868546,0.77617073,0.9611039,0.04530486,0.27138513,-0.02401571,-0.9046783,0.18435845,-0.6407467,1.0,0.0,0.0,0.0,0.0,0.0,0.0,-0.20217931,-0.0022987425,-0.29578125,12.164527,-1.1471272,7.4326754,-1.4924526,3.035128,-1.992178,0.29864013
36.98214,62.849995,24.014132,10.639091,0.17878622,-0.42796788,0.49046648,-0.08404681,-0.81847984,-0.4890641,0.66813207,-0.48372766,0.501341,0.25754887,0.26163054,-0.8204989,-2.4296424,-0.9279617,2.107569,1.8798013,-0.979278,0.26777548,-0.7533051,-2.390189,-0.9828216,2.147683,1.8340617,-1.0030588,-0.20130575,-1.4672985,-0.92213565,1.1922843,-0.8140607,0.4344788,0.19653265,-0.46126366,-0.39714432,0.8311517,-1.3440189,0.055580467,-1.4872361,-0.43348694,-0.39717865,0.76979774,0.9604343,0.049284223,0.272615,-0.028600961,-0.84237605,0.14261411,-0.6404464,0.0,1.0,0.0,0.0,0.0,0.0,0.0,-0.18873632,-0.0028556883,-0.2811517,9.867323,-0.7753849,9.202266,-1.2217045,4.797375,-1.9907951,-0.33360124
19.99118,57.52635,17.167059,13.271206,0.7259684,-0.35851276,0.29613543,-0.11249619,-0.82349026,-0.48338154,0.6387838,-0.47814143,0.49251068,0.21001084,0.25652584,-0.8356541,-2.438527,-0.9189432,2.0998688,1.8833128,-0.9820577,0.26610997,-0.76801413,-2.3990643,-0.9711686,2.1400812,1.8382347,-1.0011019,-0.15413558,-1.471958,-0.89741915,1.1369289,-0.6914516,0.40020803,0.20417438,-0.47297478,-0.3963623,0.82046515,-0.64367247,0.040263075,0.03791967,-0.4417057,-0.395916,0.76333916,0.9598716,0.053058106,0.27343422,-0.03263282,-0.8202613,0.12153758,-0.65744585,0.0,1.0,0.0,0.0,0.0,0.0,0.0,-0.1770252,-0.0036377013,-0.27046514,4.7444673,-0.49304962,-0.6774545,-8.753085,19.084263,-5.380827,2.1684499
12.417871,94.90703,28.900774,30.465157,4.0155873,1.1788173,-0.1313549,-0.30779475,-0.8209361,0.2739816,0.6814515,-0.078656435,0.50654125,-0.18338291,0.23533049,-0.8501077,-2.3716662,-0.9030234,2.1322155,1.8888888,-1.0194402,0.2637172,-0.7827417,-2.4042408,-0.95974356,2.1346262,1.84216,-0.999394,-0.2678232,-1.473415,-0.38910964,1.1444744,-0.49980786,0.39019844,0.16033942,-0.47940826,-0.39595795,0.8201051,-0.6430289,0.04022282,-0.060639933,-0.44958115,-0.39429855,0.757542,0.9597477,0.054982435,0.27303562,-0.036232036,-0.77188194,0.17657812,-0.55782264,0.0,1.0,0.0,0.0,0.0,0.0,0.0,-0.17059171,-0.004042059,-0.27010506,-11.40753,-0.27253628,51.443523,0.75912476,18.3361,-0.92597604,-4.1961284
40.282944,73.67304,32.246,9.445803,2.7190838,0.5001442,0.46774298,-0.18753797,-0.8406727,0.32806447,0.31497994,0.3597814,0.34873867,-0.19517384,0.24496341,-0.866809,-2.3714345,-0.92824554,2.1706042,1.8770338,-1.0189114,0.26058915,-0.7975609,-2.4042294,-0.94988734,2.132261,1.845885,-0.9981323,-0.32830265,-1.4851509,0.13352954,0.93231994,-0.15174717,0.36650282,0.11534868,-0.48583412,-0.3955536,0.818747,-0.642386,0.040182605,-0.16085851,-0.45687866,-0.39248657,0.7523132,0.9603762,0.054395672,0.27057508,-0.03882818,-0.7124348,0.18377371,-0.514909,0.0,1.0,0.0,0.0,0.0,0.0,0.0,-0.16416585,-0.004446417,-0.26874697,-6.203699,-1.2881756,52.95707,-21.32827,33.930542,-2.3918152,-4.3347745
4.678887,59.036404,16.804926,13.94243,3.366334,0.3817197,0.1295405,-0.3334708,-0.8347197,0.28157213,0.30172583,0.43817583,0.38461584,-0.039970335,0.22724207,-0.8810328,-2.3760722,-0.91971475,2.1760786,1.8843466,-1.0021293,0.25638106,-0.81246394,-2.400224,-0.9421435,2.1331918,1.8494327,-0.99717385,-0.45100573,-1.4922596,0.4892305,0.72208923,0.17429735,0.35137504,0.0902857,-0.49225235,-0.39514923,0.8163875,-0.6417438,0.04014243,-0.26097688,-0.4640026,-0.39033508,0.7472982,0.9617401,0.05186012,0.26590782,-0.04073821,-0.71002156,0.22796097,-0.5003481,0.0,1.0,0.0,0.0,0.0,0.0,0.0,-0.15774763,-0.004850775,-0.26638746,-12.074762,-0.8007288,35.4283,-20.915508,32.41717,-1.3819814,-2.2426157
32.30849,62.978714,22.915518,9.106907,1.7159284,-0.31731087,0.33595368,-0.115044676,-0.8212643,0.2820817,0.3302304,0.52351487,0.3171461,0.16281544,0.2448766,-0.8945904,-2.3720157,-0.90912044,2.1855433,1.8811473,-0.9808923,0.2521496,-0.8273527,-2.3940022,-0.935957,2.1369874,1.8527992,-0.9962736,-0.41409096,-1.4881053,0.6675221,0.5844681,0.4472153,0.3320859,0.09041715,-0.49866486,-0.39474487,0.81302756,-0.64110214,0.0401023,-0.36099517,-0.47086906,-0.3881874,0.74236465,0.9636291,0.047947202,0.2595328,-0.0419823,-0.6774353,0.21430244,-0.49401742,1.0,0.0,0.0,0.0,0.0,0.0,0.0,-0.15133512,-0.005255133,-0.26302755,3.6223888,0.28989315,18.077421,-13.668144,27.042192,-1.8202603,0.14668405
38.242386,66.07227,23.202135,11.212856,1.0425436,-0.72750354,0.17608437,-0.043122496,-0.8246794,0.27694735,0.3877461,0.5539342,0.29234403,0.05777991,0.24783736,-0.9098206,-2.3663075,-0.8971824,2.192381,1.8820336,-0.99049556,0.24890426,-0.8421938,-2.3870633,-0.93031985,2.1429155,1.855973,-0.99542195,-0.29514778,-1.4831647,0.70398235,0.5573245,0.640512,0.3127325,0.08369439,-0.50507164,-0.39434052,0.8086682,-0.64046115,0.040062204,-0.46091345,-0.47737885,-0.38633728,0.73749936,0.96578646,0.04311831,0.25213292,-0.042735305,-0.6412992,0.17688261,-0.48688972,1.0,0.0,0.0,0.0,0.0,0.0,0.0,-0.14492834,-0.005659491,-0.25866818,11.75223,0.36652088,4.014051,-2.5623322,19.1391,-1.8331468,-0.59272647
35.390472,59.56129,19.621296,8.842653,0.27764148,-0.9405194,0.24078633,-0.04103162,-0.8230521,0.29200432,0.2863208,0.5356107,0.26161787,0.0646362,0.24480109,-0.924499,-2.357863,-0.90168774,2.1964765,1.8821348,-0.9889583,0.24686459,-0.85698146,-2.3802693,-0.92501837,2.1501215,1.8589466,-0.9946266,-0.17406547,-1.4777228,0.6718273,0.5216103,0.7467748,0.29247704,0.078367114,-0.5114708,-0.3939438,0.80331033,-0.6398208,0.04002215,-0.5607318,-0.48353767,-0.384964,0.73253596,0.9680359,0.037930574,0.24415116,-0.043102674,-0.6073835,0.12820315,-0.5027237,1.0,0.0,0.0,0.0,0.0,0.0,0.0,-0.13852918,-0.0060562193,-0.25331032,11.9676,0.41499138,-2.8916001,-3.3888102,10.492552,-1.9591987,-0.46034157
11.00844,54.19483,11.17894,13.754903,0.6926588,-0.8430542,0.04558058,-0.08742107,-0.8220231,0.25025117,0.2848592,0.5280275,0.23754227,0.15321922,0.23812248,-0.9391838,-2.3552442,-0.8965325,2.2029243,1.8827008,-0.9793047,0.2455664,-0.8717205,-2.3742,-0.9199353,2.1579301,1.8617198,-0.99381024,-0.11504415,-1.4728825,0.5851749,0.5047061,0.7925238,0.27247328,0.08317783,-0.5178642,-0.39354706,0.79695505,-0.63918114,0.039982136,-0.6604504,-0.48957634,-0.38386154,0.7273402,0.97025055,0.032891482,0.23590316,-0.043379467,-0.60157686,0.10654619,-0.52851087,1.0,0.0,0.0,0.0,0.0,0.0,0.0,-0.13213575,-0.006452948,-0.24695504,5.90629,0.39730072,-8.671451,-1.4585614,4.6669126,-1.9378126,0.6171733
26.564142,49.677814,13.507781,5.885256,-0.52304876,-1.1284924,0.3504898,0.038513325,-0.81666404,0.21229719,0.18450616,0.52401066,0.14531223,0.17307687,0.24941774,-0.9533869,-2.3529704,-0.90148467,2.2103312,1.8762511,-0.97650254,0.24512723,-0.88640136,-2.3691304,-0.9154044,2.1659105,1.8642414,-0.9929281,-0.020552797,-1.4668964,0.48179254,0.4365331,0.7995834,0.24538375,0.09026765,-0.52425194,-0.39315033,0.78960335,-0.6385421,0.03994216,-0.7600693,-0.49539757,-0.38321304,0.72173196,0.97240233,0.028356442,0.22747904,-0.043390054,-0.574919,0.052393135,-0.5749166,1.0,0.0,0.0,0.0,0.0,0.0,0.0,-0.12574804,-0.0068496764,-0.23960334,9.349577,0.47869682,-10.153633,-6.6153765,0.6684303,-2.7139516,0.7965356
-7.5162807,43.597588,3.5066342,12.94507,0.5628023,-0.78164136,0.03250107,-0.090720885,-0.82165545,0.16184339,0.17039788,0.49328783,0.13709903,0.1389202,0.23605514,-0.9685669,-2.352946,-0.8983646,2.2152393,1.8779513,-0.9790361,0.24484232,-0.90105647,-2.3651593,-0.9115611,2.1737535,1.8665073,-0.99199826,-0.030804863,-1.4652348,0.36814553,0.36771238,0.77977943,0.22039723,0.094469994,-0.530632,-0.3927536,0.7812562,-0.6379037,0.039902225,-0.85958856,-0.5012398,-0.38274002,0.7156142,0.97445995,0.024589244,0.21894743,-0.04341718,-0.5862998,0.04590914,-0.6275132,1.0,0.0,0.0,0.0,0.0,0.0,0.0,-0.11936796,-0.007246405,-0.23125619,-0.92645884,0.096321106,-11.591148,-6.6279354,-1.7877221,-2.493033,0.59479475
-3.3567278,48.943054,5.807849,14.049967,0.4495106,-0.7404388,0.039789725,-0.015641347,-0.816261,0.11226018,0.19052213,0.46777079,0.11428188,0.20079648,0.24327819,-0.9826826,-2.3539333,-0.89250886,2.2205305,1.8779355,-0.9719186,0.2445803,-0.9156849,-2.3622906,-0.9081679,2.1812837,1.8685329,-0.9909883,-0.024431119,-1.4623003,0.259302,0.33068773,0.7445307,0.19648306,0.10359495,-0.5370064,-0.39235687,0.7719146,-0.6372659,0.03986233,-0.95900834,-0.5071354,-0.38237762,0.70904845,0.9763951,0.021601783,0.2104487,-0.04355647,-0.5889811,0.03553436,-0.6697008,0.0,1.0,0.0,0.0,0.0,0.0,0.0,-0.1129936,-0.0076431334,-0.22191459,0.7130377,0.21777153,-11.031217,-3.4594,-3.376627,-2.405295,1.0530009
-26.90988,48.39947,-0.6192962,21.24733,1.1581292,-0.5169947,-0.27660155,-0.08143598,-0.8123922,-0.03677321,0.22859594,0.3708534,0.14025794,0.15438844,0.2364367,-0.9969241,-2.365968,-0.8853083,2.218369,1.8825587,-0.97554946,0.24403766,-0.9302713,-2.3609288,-0.9047833,2.1882036,1.870364,-0.9899269,-0.06368055,-1.4576768,0.0941661,0.3420343,0.6754055,0.17864564,0.107592605,-0.543375,-0.39196014,0.7615796,-0.6366288,0.039822478,-1.0583287,-0.5132446,-0.38187408,0.70207727,0.9781357,0.01956529,0.20228106,-0.044158693,-0.61592525,0.056307796,-0.70962816,0.0,1.0,0.0,0.0,0.0,0.0,0.0,-0.10662496,-0.008039862,-0.21157956,-3.7592628,0.40428638,-16.821974,1.4285505,-6.6614747,-1.8093586,0.5587578
-3.5920773,46.077156,3.8776598,12.409741,-0.21424252,-0.8741216,0.07827614,0.022077769,-0.8068436,-0.13800044,0.14216661,0.29952586,0.0022635532,0.238128,0.24624543,-1.0109557,-2.374729,-0.89056665,2.218156,1.8705903,-0.96611404,0.24357536,-0.94479483,-2.3613904,-0.90157515,2.1942766,1.8719356,-0.9887739,-0.040294144,-1.4508653,-0.093153544,0.31461683,0.5849231,0.14962628,0.118086316,-0.549736,-0.39156342,0.75025207,-0.6359923,0.039782666,-1.1575497,-0.5194092,-0.38148117,0.6945927,0.9796852,0.018722601,0.19452822,-0.0449998,-0.6141023,0.03527199,-0.7646218,0.0,1.0,0.0,0.0,0.0,0.0,0.0,-0.10026395,-0.00843659,-0.20025206,2.3788087,0.58903694,-18.793076,-2.4975061,-8.959508,-3.00425,1.1286288
-48.555042,44.63996,-7.5037575,25.228685,1.2420335,-0.37681866,-0.40675238,-0.16955745,-0.8050823,-0.28933293,0.23006108,0.087526254,-0.010562089,0.22038606,0.22661962,-1.0253031,-2.3903236,-0.87856907,2.2030292,1.8708794,-0.9667353,0.24253109,-0.95925254,-2.364053,-0.8982201,2.198942,1.8732269,-0.9875341,-0.12505057,-1.4444515,-0.32495028,0.34374046,0.4279335,0.12204569,0.12630635,-0.5560913,-0.3911667,0.7379331,-0.6353564,0.03974289,-1.2566715,-0.52588654,-0.38082504,0.68659127,0.9809652,0.019409586,0.1875292,-0.04651163,-0.65591645,0.07607947,-0.81519854,0.0,1.0,0.0,0.0,0.0,0.0,0.0,-0.09390867,-0.008833319,-0.18793309,-8.254268,0.54688454,-23.50687,3.2874227,-15.49387,-2.8629289,0.9239808
-14.347195,56.924915,4.2728443,20.446268,0.23439121,-0.5335977,-0.07052219,-0.028422607,-0.8099282,-0.2558552,0.27398267,-0.011272173,-0.17741333,0.30626455,0.23968883,-1.0402453,-2.3896384,-0.87082183,2.1978147,1.8554856,-0.95690763,0.24127176,-0.97368735,-2.3683789,-0.8943282,2.2019098,1.8741443,-0.9861627,-0.12604734,-1.443424,-0.46857753,0.4051349,0.2531991,0.081420675,0.1407275,-0.5624409,-0.39076996,0.7246236,-0.6347212,0.039703157,-1.3556943,-0.5324688,-0.3800888,0.6782604,0.98198116,0.021403762,0.18140297,-0.04845343,-0.654894,0.07423135,-0.8420678,0.0,1.0,0.0,0.0,0.0,0.0,0.0,-0.087559104,-0.009230047,-0.17462361,-0.041499734,-0.0066280365,-14.351219,6.3797235,-17.469036,-4.1692166,1.4272809
-35.542866,64.69057,2.740093,29.975166,1.6419061,0.09374164,-0.3578587,-0.17766836,-0.826792,-0.20869476,0.3619525,-0.1305207,-0.077873096,0.22986816,0.22350493,-1.0563666,-2.3892484,-0.8581329,2.1888578,1.866357,-0.9631759,0.23946208,-0.9882055,-2.3734133,-0.88950163,2.2031417,1.8747852,-0.98471266,-0.19870165,-1.4549037,-0.51743025,0.50771624,0.08279639,0.057883363,0.14663623,-0.56847954,-0.39056015,0.71340436,-0.57571065,0.0089973025,-0.94414586,-0.5391884,-0.37903214,0.6698416,0.9827485,0.024214787,0.17614572,-0.050908115,-0.6737383,0.11752209,-0.84552,0.0,1.0,0.0,0.0,0.0,0.0,0.0,-0.08152044,-0.009439856,-0.16340435,-7.144597,-1.3185263,-4.0751276,11.38373,-17.641283,-3.1561532,0.77816546
-6.7592335,97.0037,20.321852,34.04326,2.4274366,0.6546992,-0.2348192,-0.13961396,-0.8142598,0.12748213,0.46384355,0.024124168,-0.034063168,0.27597114,0.22550069,-1.0696315,-2.360665,-0.8431173,2.205554,1.8713789,-0.95711553,0.23715404,-1.0027871,-2.3768735,-0.88328594,2.2034752,1.8751861,-0.9831627,-0.24145307,-1.4595475,-0.2877845,0.6598004,0.015186169,0.035055447,0.15755023,-0.5735607,-0.39037323,0.7043872,-0.49364054,0.02124591,-0.8860413,-0.5458336,-0.37757492,0.6619819,0.983397,0.026458856,0.1713359,-0.053612478,-0.65730953,0.15746479,-0.7690612,0.0,1.0,0.0,0.0,0.0,0.0,0.0,-0.07643926,-0.009626776,-0.15438718,-4.2638483,-0.5570173,23.240345,15.284801,-7.266723,-1.9145459,1.0059386
-8.785962,82.37106,16.868889,26.27164,2.613589,0.4925917,-0.13423203,-0.2259358,-0.82232606,0.11002539,0.29403025,0.20321393,-0.19956096,0.18535386,0.21456045,-1.0850197,-2.365871,-0.8538829,2.2237966,1.85523,-0.9646273,0.23416096,-1.0174298,-2.377934,-0.87658656,2.2039938,1.8753076,-0.98158884,-0.31831178,-1.4661739,-0.044796117,0.6738384,0.06323193,0.004419787,0.15763798,-0.5782738,-0.39013672,0.69578415,-0.46365365,0.025053045,-0.8534918,-0.55242157,-0.37567902,0.65463954,0.98408943,0.027664846,0.16620749,-0.0563698,-0.6548997,0.20134988,-0.7253895,0.0,1.0,0.0,0.0,0.0,0.0,0.0,-0.0717262,-0.009863287,-0.14578414,-7.599628,-0.7524967,24.39922,1.5527844,4.609093,-3.084651,0.10174811
38.699883,62.62792,20.84457,2.618905,-0.40997815,-0.42621785,0.62930655,-0.054662623,-0.80989,-0.009542038,0.11956494,0.18321308,-0.17851204,0.35138607,0.22869469,-1.0984188,-2.3788881,-0.86463004,2.222315,1.8574563,-0.94645023,0.23132287,-1.0320649,-2.377522,-0.8709278,2.2051318,1.8751681,-0.9799083,-0.27264792,-1.4629582,0.07118888,0.53004867,0.1295932,-0.020127751,0.17152783,-0.582634,-0.39003372,0.6871598,-0.42773932,0.005522782,-0.867841,-0.5586281,-0.3740158,0.6472495,0.9849246,0.028358616,0.16031694,-0.05846218,-0.6063319,0.1563214,-0.7462376,0.0,1.0,0.0,0.0,0.0,0.0,0.0,-0.067366004,-0.009966284,-0.13715976,4.460579,0.21824837,11.920428,-14.335227,6.32928,-2.5188816,1.3907671
38.544598,69.8524,22.559206,5.4686384,-0.2682588,-0.2277407,0.5734765,-0.09729643,-0.80595773,0.16710764,0.18817788,0.14173222,-0.07685989,0.32531852,0.22159323,-1.1126606,-2.3608112,-0.85211,2.219305,1.8674821,-0.94737643,0.2289237,-1.0466313,-2.3757596,-0.8665134,2.206777,1.8748891,-0.9781095,-0.2292189,-1.455108,0.21227476,0.41224915,0.1752868,-0.030638011,0.18278767,-0.58659935,-0.39012527,0.6785276,-0.3869989,-0.013670376,-0.8645349,-0.5643215,-0.37278366,0.6397632,0.985895,0.028581114,0.1537233,-0.05969246,-0.5535548,0.115177184,-0.75212497,0.0,1.0,0.0,0.0,0.0,0.0,0.0,-0.063400626,-0.009874731,-0.12852758,4.2777596,0.6849766,14.347264,-11.7087,4.3360233,-1.0716077,1.1550963
57.91878,70.64378,27.108662,-0.18078423,-0.86309904,-0.37676063,0.7570592,-0.025409244,-0.8043572,0.2865671,0.08195071,0.27302945,-0.057329264,0.31137216,0.22638276,-1.1270671,-2.3471029,-0.8583183,2.23408,1.8691562,-0.94697225,0.22725417,-1.0611157,-2.372414,-0.86350095,2.2091503,1.8745496,-0.97621965,-0.14648232,-1.4466661,0.37646708,0.26458627,0.25722727,-0.035196953,0.19119966,-0.5901203,-0.39046478,0.6699597,-0.34103715,-0.04040033,-0.8571712,-0.5693531,-0.37213898,0.63220674,0.9870261,0.028124541,0.14630188,-0.05986734,-0.48403916,0.049033284,-0.7592227,0.0,1.0,0.0,0.0,0.0,0.0,0.0,-0.05987966,-0.009535223,-0.11995971,8.189741,0.72762966,16.679293,-14.67551,8.031977,-0.5788572,0.89829266
51.44212,61.092342,23.957956,-4.2468505,-0.6552912,-0.24428825,0.8314701,-0.07599846,-0.8053579,0.40702578,-0.14909014,0.43515885,0.053228334,0.30816662,0.21965432,-1.1416515,-2.3317115,-0.87841,2.2526662,1.8798724,-0.945403,0.22606401,-1.0755391,-2.3672225,-0.86271363,2.2127206,1.874262,-0.9742562,-0.1098417,-1.4413755,0.56675106,0.017401477,0.39001185,-0.02663883,0.19849087,-0.59324837,-0.39103317,0.66127765,-0.3038659,-0.0619719,-0.87465423,-0.57375145,-0.37205887,0.6244115,0.98836905,0.026868524,0.13762747,-0.05884907,-0.42223287,-0.0046494007,-0.788612,0.0,1.0,0.0,0.0,0.0,0.0,0.0,-0.05675161,-0.008966833,-0.11127764,3.67053,0.40223598,19.035017,-24.542747,13.226759,0.74325055,0.88520646
38.88422,58.321476,21.076588,-3.525309,-0.09201868,0.03838241,0.77994066,-0.115943424,-0.7973563,0.52830416,-0.31496552,0.58347684,0.19627382,0.34096786,0.21446967,-1.1552747,-2.314392,-0.89421016,2.2710683,1.8938893,-0.94015944,0.22486685,-1.0898938,-2.35999,-0.8648014,2.2179143,1.8741739,-0.9721999,-0.12262444,-1.4339583,0.77456504,-0.2833058,0.5627289,-0.0028469628,0.20888343,-0.59605217,-0.39175797,0.6523408,-0.27321765,-0.07573075,-0.9025629,-0.57761383,-0.37234116,0.6162654,0.9899276,0.024693863,0.1273678,-0.056665435,-0.3712396,-0.03469015,-0.82533693,0.0,1.0,0.0,0.0,0.0,0.0,0.0,-0.053947806,-0.008242041,-0.10234082,-1.1655897,0.6175041,20.469093,-29.81377,17.442024,2.4211624,1.3006002
37.981895,62.42995,21.178238,-1.2818251,-0.14540222,0.021559894,0.67625344,-0.05908581,-0.7857082,0.5422321,-0.36877763,0.6499607,0.23890343,0.37119633,0.21895827,-1.1684647,-2.3057666,-0.90167916,2.2829103,1.8980643,-0.9350803,0.22368532,-1.104136,-2.3511057,-0.8695612,2.2247891,1.8743533,-0.97002125,-0.11611681,-1.4212295,0.9246705,-0.53910226,0.7303337,0.025004394,0.22195229,-0.5985565,-0.3926201,0.6431719,-0.24276409,-0.08937539,-0.9236933,-0.58096886,-0.372921,0.6077923,0.99161553,0.021665694,0.11563939,-0.05344804,-0.32093897,-0.06578973,-0.85626996,0.0,1.0,0.0,0.0,0.0,0.0,0.0,-0.051443458,-0.0073799193,-0.093171895,0.81516653,1.1649132,14.53718,-25.249268,17.117393,2.8694732,1.6468257
26.24879,66.715706,19.097132,5.4605823,0.24118567,0.054801673,0.39725667,-0.04869469,-0.79022944,0.54820085,-0.367776,0.6852193,0.248969,0.40727767,0.21881585,-1.1831589,-2.2962856,-0.9063388,2.293311,1.8992501,-0.92929345,0.2226215,-1.1182866,-2.3412333,-0.8761193,2.233107,1.8747988,-0.9676933,-0.10247273,-1.413206,1.0060298,-0.693575,0.8670884,0.05141019,0.23759548,-0.6007881,-0.3935814,0.63385165,-0.21683219,-0.09866113,-0.93559307,-0.5839367,-0.3737297,0.59909165,0.993301,0.017962828,0.102843605,-0.049534474,-0.28507847,-0.084234595,-0.876037,0.0,1.0,0.0,0.0,0.0,0.0,0.0,-0.04921186,-0.0064186156,-0.083851635,1.5666246,0.7464409,7.575834,-15.100182,14.124739,2.7738168,1.93775
12.018671,78.30815,18.418863,15.562718,0.806495,0.2569617,0.061188407,-0.044593886,-0.77403784,0.5594896,-0.31937805,0.68811446,0.32139573,0.42599005,0.21816212,-1.1956904,-2.2852843,-0.9080571,2.3019185,1.9069383,-0.9250943,0.22171083,-1.1323056,-2.3309374,-0.88329947,2.2424476,1.8755349,-0.96520895,-0.08650958,-1.3981773,1.0355428,-0.72509587,0.9585648,0.08174234,0.2532622,-0.6027775,-0.3945961,0.6245983,-0.19335012,-0.10211738,-0.92184764,-0.58664894,-0.3745842,0.5903892,0.99485284,0.013705487,0.08956275,-0.04536846,-0.2629723,-0.083536565,-0.8692952,0.0,1.0,0.0,0.0,0.0,0.0,0.0,-0.047222495,-0.005403906,-0.07459831,1.8247917,1.5284061,2.3311615,-2.8497577,9.731603,3.262292,1.9310445
16.787958,85.824776,20.706469,18.466772,0.47157502,0.1752183,-0.0309764,0.027574789,-0.7626716,0.54755956,-0.28013986,0.67467403,0.37461096,0.43011668,0.2244683,-1.2085727,-2.2761815,-0.9113135,2.309915,1.9129959,-0.9221973,0.22126666,-1.1461453,-2.3206606,-0.89014155,2.2523658,1.8765899,-0.9625825,-0.029682208,-1.3788714,1.0233092,-0.66959405,1.0049225,0.11425311,0.26691726,-0.6045246,-0.39566422,0.61561835,-0.16883281,-0.10799726,-0.88964736,-0.58911324,-0.37549973,0.5818729,0.9961921,0.009002036,0.0763242,-0.04116708,-0.23704559,-0.09370911,-0.84655154,0.0,1.0,0.0,0.0,0.0,0.0,0.0,-0.045475364,-0.004335791,-0.065618336,5.899178,1.9901037,-1.7680407,5.841911,5.246985,3.354405,1.7080605
-2.915793,91.54253,17.857117,26.692038,1.1330404,0.3979214,-0.30477306,-0.009971639,-0.74092996,0.51834214,-0.21459049,0.6629949,0.3989777,0.44485572,0.22026949,-1.2202383,-2.2688265,-0.9116006,2.3186653,1.9164877,-0.91809696,0.22117463,-1.15972,-2.3107538,-0.8959623,2.262491,1.8779557,-0.9598269,-0.0016537261,-1.3501223,0.97783655,-0.5520961,1.0171324,0.14490591,0.2794145,-0.606081,-0.3967247,0.60705215,-0.15158552,-0.10526438,-0.8451258,-0.5914593,-0.3763275,0.57369274,0.99727553,0.003989279,0.06354251,-0.037254784,-0.23051615,-0.07788572,-0.80968505,0.0,1.0,0.0,0.0,0.0,0.0,0.0,-0.043918967,-0.003275305,-0.057052135,3.0179107,2.9824495,-5.0946116,11.97933,1.8547535,3.324473,1.5426219
-16.350567,98.40193,16.574667,33.260696,1.562331,0.5434494,-0.50397676,-0.008881666,-0.7065104,0.46825367,-0.11524683,0.6477523,0.39755547,0.46162182,0.22028646,-1.230371,-2.2639284,-0.907487,2.3272662,1.9177113,-0.9136647,0.22124544,-1.1728921,-2.3015337,-0.90023434,2.2725668,1.8795923,-0.95695144,0.010682103,-1.305864,0.9017183,-0.38497713,1.0065705,0.1708019,0.29112098,-0.6075058,-0.3977089,0.5990525,-0.1398089,-0.09632922,-0.78507894,-0.59383965,-0.3768654,0.565996,0.99809223,-0.0012072063,0.05155913,-0.03394279,-0.23753808,-0.044758182,-0.75756747,0.0,1.0,0.0,0.0,0.0,0.0,0.0,-0.042494178,-0.0022911131,-0.049052477,1.4396852,4.5619726,-8.12875,16.891665,-0.49886703,2.9864163,1.4079094
