Afshin1997/kuka_rl_ros2/src/catch_and_throw/input_files/idealpd/recorded_trajectories/env_366_data.csv
torque0,torque1,torque2,torque3,torque4,torque5,torque6,action0,action1,action2,action3,action4,action5,action6,set_target_0,set_target_1,set_target_2,set_target_3,set_target_4,set_target_5,set_target_6,joint_pos_0,joint_pos_1,joint_pos_2,joint_pos_3,joint_pos_4,joint_pos_5,joint_pos_6,joint_vel_0,joint_vel_1,joint_vel_2,joint_vel_3,joint_vel_4,joint_vel_5,joint_vel_6,tennisball_pos_0,tennisball_pos_1,tennisball_pos_2,tennisball_lin_vel_0,tennisball_lin_vel_1,tennisball_lin_vel_2,end_effector_pos_0,end_effector_pos_1,end_effector_pos_2,end_effector_rot_0,end_effector_rot_1,end_effector_rot_2,end_effector_rot_3,end_effector_lin_vel_0,end_effector_lin_vel_1,end_effector_lin_vel_2,obs_task_0,obs_task_1,obs_task_2,obs_task_3,obs_task_4,obs_task_5,obs_task_6,to_final_target_0,to_final_target_1,to_final_target_2,joint_acc_0,joint_acc_1,joint_acc_2,joint_acc_3,joint_acc_4,joint_acc_5,joint_acc_6
0.0,0.0,0.0,0.0,0.0,0.0,0.0,0.0,0.0,0.0,0.0,0.0,0.0,0.0,1.7802359,-1.0646509,-1.8151424,-1.1170107,1.9373155,1.1170107,-0.91629785,1.7802359,-1.0646509,-1.8151424,-1.1170107,1.9373155,1.1170107,-0.91629785,0.0,0.0,0.0,0.0,0.0,0.0,0.0,3.034233,-0.5518303,0.11356683,-3.2234964,0.20297334,5.514064,0.5304184,-0.45449638,0.693097,0.5745483,0.17512383,0.15255436,0.7848268,0.0,0.0,0.0,1.0,0.0,0.0,0.0,0.0,0.0,0.0,-3.6842332,0.15183029,0.4364332,0.0,0.0,0.0,0.0,0.0,0.0,0.0
0.0,0.0,0.0,0.0,0.0,0.0,0.0,0.0,0.0,0.0,0.0,0.0,0.0,0.0,1.7802359,-1.0646509,-1.8151424,-1.1170107,1.9373155,1.1170107,-0.91629785,1.7802359,-1.0646509,-1.8151424,-1.1170107,1.9373155,1.1170107,-0.91629785,0.0,0.0,0.0,0.0,0.0,0.0,0.0,3.034233,-0.5518303,0.11356683,-3.2234964,0.20297334,5.514064,0.5304184,-0.45449638,0.693097,0.5745483,0.17512383,0.15255436,0.7848268,0.0,0.0,0.0,1.0,0.0,0.0,0.0,0.0,0.0,0.0,-3.6842332,0.15183029,0.4364332,0.0,0.0,0.0,0.0,0.0,0.0,0.0
0.0,0.0,0.0,0.0,0.0,0.0,0.0,0.0,0.0,0.0,0.0,0.0,0.0,0.0,1.7802359,-1.0646509,-1.8151424,-1.1170107,1.9373155,1.1170107,-0.91629785,1.7802359,-1.0646509,-1.8151424,-1.1170107,1.9373155,1.1170107,-0.91629785,0.0,0.0,0.0,0.0,0.0,0.0,0.0,3.034233,-0.5518303,0.11356683,-3.2234964,0.20297334,5.514064,0.5304184,-0.45449638,0.693097,0.5745483,0.17512383,0.15255436,0.7848268,0.0,0.0,0.0,1.0,0.0,0.0,0.0,0.0,0.0,0.0,-3.6842332,0.15183029,0.4364332,0.0,0.0,0.0,0.0,0.0,0.0,0.0
-176.0,65.94177,-7.542921,110.0,11.393677,4.7057257,-3.7585707,-0.82516444,0.34488004,-0.56052846,0.73539126,0.42523327,0.6313793,-0.5926604,1.6977195,-1.0301629,-1.8711952,-1.0434716,1.9798388,1.1801486,-0.9755639,1.7788836,-1.062383,-1.8211696,-1.1120287,1.9439645,1.1226813,-0.91843504,-0.18018492,0.30188257,-0.8029243,0.6645023,0.885577,0.7538672,-0.28423673,3.0020218,-0.5498009,0.16792965,-3.2202737,0.2027704,5.4103646,0.52812576,-0.45801353,0.6939527,0.57857895,0.17366834,0.15037072,0.78260744,-0.30515262,-0.46910825,0.11396791,1.0,0.0,0.0,0.0,0.0,0.0,0.0,-3.652022,0.14980087,0.38207036,-17.94157,29.983088,-80.11928,66.5519,88.26583,74.724495,-28.192421
-176.0,-29.45846,-44.19165,109.0387,11.697649,1.3742279,-3.0359046,-0.81120735,-0.17141202,-0.5378385,0.6990024,0.48726466,0.62271446,-0.58591485,1.6977628,-1.0795243,-1.8749535,-1.0421284,1.9926909,1.1849527,-0.9770265,1.7771803,-1.0596861,-1.8360794,-1.0974585,1.9555632,1.1360861,-0.91948026,-0.1665348,0.253471,-1.7104232,1.723492,1.2456876,1.5187508,-0.044923037,2.969841,-0.54777527,0.22125626,-3.2170541,0.20256767,5.306769,0.52316284,-0.46690178,0.6949104,0.58713347,0.1702858,0.14581317,0.7778275,-0.56174207,-1.027094,0.09137791,1.0,0.0,0.0,0.0,0.0,0.0,0.0,-3.619841,0.14777526,0.32874376,1.4829963,-6.4932704,-87.77311,106.59754,34.271095,71.312546,23.839245
-151.14018,109.11334,28.340807,87.25554,7.414532,7.1570406,-1.800899,-0.776772,0.29799464,0.034943875,0.60707676,0.5302968,0.66907024,-0.5594136,1.6995031,-1.0298866,-1.832585,-1.0367508,2.0085928,1.2029932,-0.9754216,1.7722269,-1.0563978,-1.85134,-1.0786673,1.9681422,1.151076,-0.92014116,-0.6049238,0.35082042,-1.4584894,1.9320568,1.2572407,1.4854412,-0.07485958,2.9376945,-0.5457516,0.27354768,-3.2138376,0.20236515,5.203277,0.5152855,-0.4786415,0.69740176,0.5984536,0.16537662,0.14004815,0.7712913,-0.87045056,-1.2156875,0.30561748,1.0,0.0,0.0,0.0,0.0,0.0,0.0,-3.5876946,0.14575157,0.27645233,-43.859077,8.78706,27.090883,21.213936,-0.26595592,-5.3842783,-3.4844525
-96.49692,96.336395,34.80994,51.568943,4.511121,6.748109,-0.26997152,-0.7772404,0.06971409,0.13566825,0.62940484,0.52812725,0.6479589,-0.58512026,1.6945028,-1.0494264,-1.8377732,-1.0157268,2.0209548,1.2158718,-0.9786532,1.7629668,-1.0533022,-1.8612659,-1.0602137,1.9797846,1.1649557,-0.92123693,-1.034002,0.2938331,-0.8301419,1.8171142,1.1280653,1.3518562,-0.12306538,2.9055824,-0.5437298,0.32480496,-3.2106245,0.20216282,5.0998883,0.5048828,-0.4911232,0.7016015,0.61063164,0.15926975,0.13320637,0.7642108,-1.110117,-1.2469031,0.46275282,1.0,0.0,0.0,0.0,0.0,0.0,0.0,-3.5555825,0.14372978,0.22519505,-43.19619,-6.311381,64.990875,-11.323023,-14.46538,-14.397645,-5.379191
-41.239666,104.958084,42.406353,25.120913,1.8135827,5.8929906,0.526591,-0.7929994,0.13511944,0.1727465,0.61522895,0.59782326,0.65488905,-0.5754866,1.6836668,-1.0397903,-1.8439913,-0.9986908,2.039567,1.2304447,-0.9787856,1.7501913,-1.0506147,-1.864661,-1.0440985,1.9901587,1.1773726,-0.9228496,-1.359867,0.25906384,-0.1701318,1.5426769,1.0033242,1.2040031,-0.17613883,2.8735008,-0.5417099,0.37502915,-3.2074146,0.2019607,4.9966035,0.49272537,-0.5030403,0.7071438,0.62241524,0.1522141,0.1254197,0.75742984,-1.2639662,-1.1597825,0.58685255,1.0,0.0,0.0,0.0,0.0,0.0,0.0,-3.523501,0.1417099,0.17497087,-32.945107,-3.8880944,67.78329,-27.563,-13.619709,-15.1014805,-5.918461
-2.1179123,112.691696,44.04645,10.95411,-0.11100504,4.535562,0.58329856,-0.80323696,0.2478422,0.15935715,0.6168631,0.60796404,0.65057594,-0.5709443,1.6698676,-1.0258305,-1.8487253,-0.9824122,2.050955,1.2424302,-0.97994405,1.7352434,-1.0476907,-1.8629501,-1.0306345,1.999539,1.1884447,-0.92494386,-1.540799,0.30255324,0.28865108,1.2802278,0.91432005,1.0751998,-0.22243582,2.8414497,-0.5396919,0.42422125,-3.204208,0.20175877,4.8934216,0.47961807,-0.5136967,0.71374625,0.6333978,0.14445445,0.117260955,0.7511257,-1.3380947,-1.0208207,0.6840553,1.0,0.0,0.0,0.0,0.0,0.0,0.0,-3.4914498,0.13969192,0.12577876,-18.393494,4.0423393,47.05261,-26.450157,-9.498119,-12.802863,-5.2134724
18.553785,126.91296,44.120586,6.793417,-1.5062981,3.3764386,0.1515399,-0.8102525,0.4298334,0.036894526,0.60501945,0.60079503,0.6394961,-0.5652021,1.6542182,-1.0047075,-1.8592607,-0.9701326,2.0596185,1.2523943,-0.9814641,1.7193762,-1.0433687,-1.8589637,-1.0192362,2.0082939,1.198382,-0.9274406,-1.602779,0.47456205,0.43766662,1.0926129,0.8619932,0.96736795,-0.26059905,2.8094292,-0.53767586,0.4723823,-3.2010043,0.20155706,4.790343,0.46619797,-0.5228195,0.72125614,0.643773,0.13623352,0.10969094,0.7449594,-1.3545363,-0.8629692,0.7712242,1.0,0.0,0.0,0.0,0.0,0.0,0.0,-3.4594293,0.13767585,0.077617705,-6.4687014,16.94209,15.6147,-18.92848,-5.4273963,-10.546196,-4.361138
24.267673,124.53263,39.285194,6.315777,-1.9336709,2.330638,-0.19103263,-0.82219297,0.5208777,-0.022542521,0.58230174,0.6134062,0.6286622,-0.5718937,1.637157,-0.9912809,-1.861218,-0.96100605,2.0696344,1.2612482,-0.9846299,1.703406,-1.0369581,-1.8551204,-1.0091215,2.0167816,1.2073752,-0.9302682,-1.5958915,0.69580656,0.3681611,0.9839764,0.84435904,0.8771986,-0.29166374,2.777443,-0.5356617,0.51951337,-3.197804,0.20135555,4.687367,0.45281982,-0.5304756,0.7294885,0.6538671,0.1278139,0.1033684,0.7385366,-1.3396418,-0.72056204,0.8381789,1.0,0.0,0.0,0.0,0.0,0.0,0.0,-3.427443,0.13566169,0.030486643,0.4471779,21.926785,-6.5032063,-10.99242,-1.7794371,-8.788085,-3.5450041
25.18144,119.39205,36.178078,7.217016,-1.829066,1.8554443,-0.3124634,-0.82443523,0.59447396,-0.014994207,0.56076026,0.61998934,0.62803805,-0.57539797,1.6209625,-0.9775107,-1.8566198,-0.9530455,2.0787804,1.270179,-0.98780805,1.6877371,-1.028356,-1.8525379,-0.9996517,2.0252502,1.2155787,-0.93336385,-1.5579717,0.91445637,0.22290555,0.934087,0.8473172,0.80184954,-0.31681392,2.745491,-0.53364944,0.5656154,-3.1946068,0.20115423,4.584494,0.43967056,-0.53684807,0.73833007,0.6638776,0.1193221,0.09844186,0.7316679,-1.3146718,-0.5955932,0.89732033,1.0,0.0,0.0,0.0,0.0,0.0,0.0,-3.3954911,0.13364944,-0.015615404,3.576231,21.702158,-14.162546,-5.12625,0.31900406,-7.4068904,-2.8898776
23.750208,107.02941,32.04572,7.1699014,-1.4718745,1.5021825,-0.259631,-0.8176628,0.6390424,-0.016552277,0.5354735,0.63459575,0.63361293,-0.5762858,1.6059709,-0.96445173,-1.8541931,-0.9461043,2.0887098,1.27894,-0.9909924,1.6725069,-1.0179037,-1.8513782,-0.9904659,2.0338447,1.223128,-0.936675,-1.5119632,1.0881802,0.08142989,0.91291285,0.8636624,0.73945826,-0.3370141,2.7135696,-0.5316391,0.6106895,-3.1914127,0.20095311,4.4817243,0.426754,-0.5421238,0.7476494,0.6738399,0.11081702,0.09471112,0.7243542,-1.2886007,-0.49083436,0.94157004,1.0,0.0,0.0,0.0,0.0,0.0,0.0,-3.3635697,0.1316391,-0.06068951,4.4104576,17.242313,-13.812245,-2.295053,1.6587615,-6.193006,-2.3552
21.308773,94.190605,28.560041,6.870998,-1.0473818,1.331747,-0.1235654,-0.8125523,0.66975564,-0.00462774,0.5105124,0.6414923,0.6401668,-0.5794539,1.5912517,-0.9509281,-1.851841,-0.9394146,2.0979939,1.2871447,-0.9946204,1.657683,-1.0061449,-1.8512466,-0.9814403,2.04263,1.2301394,-0.94016165,-1.4731464,1.2046586,-0.008325577,0.8983731,0.88323617,0.68838567,-0.35361648,2.6816788,-0.52963066,0.6547367,-3.188222,0.2007522,4.3790574,0.4140625,-0.5464802,0.75730664,0.6836865,0.10231556,0.09181166,0.7167111,-1.2671027,-0.4025836,0.97226447,1.0,0.0,0.0,0.0,0.0,0.0,0.0,-3.3316789,0.12963066,-0.104736686,3.7077665,11.5448475,-8.628353,-1.6644478,1.971209,-5.100417,-1.9799769
16.270761,83.99069,25.894497,8.124296,-0.52702975,1.3351686,-0.022342108,-0.81467026,0.6922808,0.01584141,0.5075059,0.6422831,0.64885926,-0.57476014,1.576216,-0.9369168,-1.8496624,-0.9306897,2.1068583,1.2950253,-0.9976376,1.6431242,-0.9936003,-1.8515403,-0.9724996,2.051583,1.236714,-0.9437875,-1.4508883,1.2706054,-0.035196275,0.8918836,0.8994896,0.64694047,-0.36664355,2.6498184,-0.52762413,0.69775796,-3.1850345,0.2005515,4.276493,0.40148926,-0.55007553,0.7672155,0.69335234,0.09377343,0.089373305,0.70885926,-1.2570678,-0.3303228,0.99565876,1.0,0.0,0.0,0.0,0.0,0.0,0.0,-3.2998185,0.12762412,-0.14775795,2.064085,6.506729,-2.3123338,-0.8604884,1.6254425,-4.1778326,-1.6135275
14.88533,74.68159,23.280819,7.2925987,-0.30080777,1.1916853,0.087955296,-0.8052739,0.70499676,0.017739344,0.4851122,0.65799093,0.65325844,-0.5820398,1.5625968,-0.92310065,-1.8497664,-0.9239884,2.117382,1.3020399,-1.0019915,1.6287237,-0.9806799,-1.8518245,-0.96368766,2.0607078,1.2429339,-0.9475307,-1.4369015,1.2989793,-0.024833841,0.8768894,0.91668445,0.61375797,-0.37788802,2.6179886,-0.5256214,0.7397544,-3.1818502,0.20035098,4.1740313,0.3889923,-0.55301666,0.7772613,0.702759,0.08519304,0.087121285,0.700915,-1.2491403,-0.26708552,1.0062298,1.0,0.0,0.0,0.0,0.0,0.0,0.0,-3.2679887,0.12562141,-0.18975437,1.2445927,2.7704716,1.416811,-1.7224193,1.7183065,-3.3222675,-1.4293075
11.96204,68.044426,20.772964,7.561041,-0.14187282,1.0463594,0.10166381,-0.80397755,0.7180233,0.004272964,0.478407,0.6571676,0.6512917,-0.57117754,1.548326,-0.9088776,-1.8513973,-0.91584694,2.1264246,1.308063,-1.0046484,1.6144015,-0.9676203,-1.851958,-0.955035,2.069966,1.2488676,-0.95136255,-1.4312938,1.3081384,-0.008218307,0.86066353,0.9289719,0.5866774,-0.38594872,2.586197,-0.5236187,0.78072697,-3.178669,0.20015067,4.071672,0.37655258,-0.55539894,0.7873379,0.71188265,0.076600604,0.08494528,0.6929211,-1.2437522,-0.2131954,1.0066221,1.0,0.0,0.0,0.0,0.0,0.0,0.0,-3.236197,0.12361869,-0.23072696,0.41565895,0.8635998,2.0202947,-1.8468022,1.2394667,-2.6937366,-1.0946095
11.852153,63.66307,19.174982,6.431062,-0.16713205,0.89854634,0.1578775,-0.8057898,0.7224452,0.01242461,0.4414552,0.67008966,0.65551114,-0.5696771,1.5338225,-0.8953758,-1.8507155,-0.91088945,2.136975,1.3144188,-1.0083302,1.600083,-0.95454544,-1.8518894,-0.9466846,2.0793502,1.2545725,-0.9552612,-1.4323798,1.3070487,0.013102536,0.82574224,0.94167125,0.5654514,-0.39212507,2.5544357,-0.5216198,0.82067674,-3.175491,0.19995056,3.9694152,0.36418533,-0.5572548,0.797346,0.72068524,0.06804414,0.08280178,0.6849282,-1.2354333,-0.16147135,0.9971473,1.0,0.0,0.0,0.0,0.0,0.0,0.0,-3.2044358,0.12161979,-0.27067673,-0.25570393,-0.14724731,2.485233,-3.7270546,1.2855649,-2.0618558,-0.8954525
16.691841,64.71036,19.798021,3.8009186,-0.47570437,0.816365,0.26530805,-0.7988211,0.7363479,0.03575967,0.3840767,0.67418975,0.6620102,-0.5673937,1.5202008,-0.88091063,-1.8483135,-0.9082769,2.1467693,1.3207735,-1.0120006,1.5857664,-0.9414534,-1.8515365,-0.9389112,2.088845,1.2601057,-0.9592113,-1.4319613,1.3098661,0.043946844,0.7604172,0.9522602,0.5495462,-0.39690784,2.522705,-0.5196209,0.85960466,-3.1723163,0.19975065,3.8672607,0.35198593,-0.55851746,0.8072326,0.72907203,0.059548784,0.080708414,0.6770481,-1.215619,-0.09977623,0.98389846,1.0,0.0,0.0,0.0,0.0,0.0,0.0,-3.1727052,0.11962089,-0.30960464,-0.116586685,0.25258064,3.458962,-6.7792416,1.0735273,-1.4634848,-0.76150894
18.901676,64.524025,19.494425,2.5894399,-0.65498525,0.67535895,0.2904746,-0.7943089,0.74551696,0.0311907,0.34752765,0.68089855,0.6642295,-0.56472635,1.5063355,-0.8669017,-1.8484174,-0.9041584,2.156935,1.3265287,-1.0156839,1.5714728,-0.92829365,-1.850951,-0.9318826,2.098439,1.2655073,-0.96319956,-1.4288257,1.317995,0.06461776,0.68282527,0.9621768,0.5374987,-0.40039998,2.491005,-0.5176258,0.89751184,-3.1691446,0.19955094,3.7652082,0.34003067,-0.5591469,0.8169582,0.7370021,0.0511467,0.07872187,0.6693391,-1.1875712,-0.036169637,0.9666344,1.0,0.0,0.0,0.0,0.0,0.0,0.0,-3.141005,0.1176258,-0.34751183,0.15809536,0.7952213,2.4175196,-8.006727,1.0233879,-1.0348439,-0.619781
20.44373,62.244854,18.269835,0.7972088,-0.8679299,0.43929452,0.31984583,-0.7976832,0.7531804,0.01775714,0.27676114,0.68993515,0.6627314,-0.55273634,1.4917045,-0.8529756,-1.8491752,-0.9042065,2.1674325,1.3317804,-1.0184731,1.5571963,-0.91501945,-1.8502967,-0.9258106,2.1081398,1.2708079,-0.9672069,-1.4278586,1.3304917,0.066590846,0.5811089,0.9727912,0.52830887,-0.4017755,2.4593353,-0.5156307,0.9343992,-3.1659763,0.19935143,3.6632578,0.32843018,-0.55913544,0.82644176,0.74445164,0.042924732,0.076925986,0.66183954,-1.1496722,0.026891414,0.9396848,1.0,0.0,0.0,0.0,0.0,0.0,0.0,-3.1093354,0.115630716,-0.38439918,-0.05815029,1.2499332,0.51228553,-10.428429,1.111269,-0.6890774,-0.38425326
24.833502,61.553444,18.161238,-2.0848727,-1.1964997,0.24278235,0.41052952,-0.7947344,0.7609536,0.034211118,0.18325669,0.68478405,0.6629715,-0.5498651,1.4777228,-0.8389241,-1.8468757,-0.9074849,2.176618,1.337105,-1.0221934,1.5429369,-0.90160125,-1.8496082,-0.9209993,2.117913,1.276034,-0.9712228,-1.4258302,1.3456672,0.0705231,0.44697475,0.97869986,0.5217529,-0.40223226,2.4276962,-0.51363945,0.97026783,-3.1628108,0.19915213,3.5614095,0.31731415,-0.5584545,0.8356016,0.751358,0.03496667,0.07539661,0.6546402,-1.0974171,0.094914876,0.90542704,1.0,0.0,0.0,0.0,0.0,0.0,0.0,-3.0776963,0.113639444,-0.42026782,0.049877167,1.5370369,0.68999976,-13.675284,0.6537795,-0.34959316,-0.27779937
30.930355,60.041656,17.970972,-6.438398,-1.6301165,-0.031496644,0.5581532,-0.7933593,0.76963836,0.047861334,0.049821123,0.6898892,0.6629625,-0.53827006,1.463601,-0.8246374,-1.844822,-0.9160172,2.186902,1.3423302,-1.0250498,1.5286986,-0.888019,-1.8488357,-0.91790366,2.1277397,1.2812105,-0.9752311,-1.4234654,1.3625299,0.08030467,0.2629085,0.9838343,0.51765543,-0.4010901,2.3960953,-0.5116482,1.0051187,-3.1596487,0.19895302,3.4596632,0.30685806,-0.55703926,0.84433264,0.75760746,0.027385442,0.07419719,0.647901,-1.0255181,0.1689473,0.859494,1.0,0.0,0.0,0.0,0.0,0.0,0.0,-3.0460954,0.11164817,-0.45511872,0.09112358,1.7323256,1.2467712,-18.670422,0.59349537,-0.00020265579,-0.09453297
39.098312,59.453926,18.640959,-11.5972805,-2.0997295,-0.28661373,0.7686296,-0.788077,0.7749085,0.0937588,-0.11045151,0.6956426,0.6557778,-0.53118944,1.4498909,-0.81052816,-1.8394598,-0.9289488,2.197304,1.3467883,-1.0283501,1.514506,-0.8742804,-1.8477619,-0.9170673,2.1376197,1.2863547,-0.97922033,-1.418138,1.3779606,0.11705271,0.02303713,0.9895341,0.5150199,-0.39887133,2.3645248,-0.5096607,1.0389531,-3.1564896,0.1987541,3.3580184,0.297287,-0.5548096,0.85253155,0.7630369,0.020292537,0.073338225,0.6418601,-0.9310223,0.25139523,0.8035236,1.0,0.0,0.0,0.0,0.0,0.0,0.0,-3.014525,0.109660715,-0.48895305,0.4133463,1.6207695,3.8913937,-24.227856,0.67920685,0.2586484,0.04618168
43.276543,58.620235,19.011671,-13.979823,-2.2854662,-0.45725188,0.88528556,-0.78257906,0.77724946,0.14000721,-0.24407107,0.69359434,0.65837854,-0.5226606,1.4362481,-0.79655546,-1.8337611,-0.9414744,2.2069793,1.3521925,-1.0314864,1.5003916,-0.8604178,-1.846133,-0.918803,2.1475418,1.2914816,-0.98318094,-1.4096226,1.3893957,0.17869006,-0.2397688,0.99347967,0.51388204,-0.3955241,2.332985,-0.50767326,1.0717715,-3.1533337,0.1985554,3.2564752,0.28874207,-0.55173874,0.8601433,0.76754355,0.013743939,0.072788954,0.6367021,-0.824605,0.33459145,0.7435708,1.0,0.0,0.0,0.0,0.0,0.0,0.0,-2.982985,0.10767326,-0.5217715,0.7804632,1.249671,6.2725725,-26.469486,0.5599499,0.46111345,0.20824671
44.933586,59.557228,20.004734,-13.846592,-2.2231178,-0.48060417,0.9408608,-0.77179617,0.77901965,0.20817304,-0.35905302,0.6970757,0.65262353,-0.51428914,1.4232119,-0.7825158,-1.8253157,-0.9547083,2.2172494,1.3567439,-1.0346098,1.4864031,-0.8464722,-1.8436534,-0.92310977,2.1575058,1.2965971,-0.9871015,-1.395384,1.3967094,0.27092022,-0.49468347,0.99819726,0.5127252,-0.39122978,2.3014755,-0.5056896,1.1035755,-3.150181,0.19835688,3.1550336,0.28126144,-0.5478344,0.8671986,0.7710934,0.007704365,0.07245798,0.6325388,-0.71617556,0.4160628,0.6888549,1.0,0.0,0.0,0.0,0.0,0.0,0.0,-2.9514756,0.105689615,-0.55357546,1.4110088,0.86226463,9.186056,-25.613516,0.7250786,0.46766996,0.35304427
41.17411,62.344822,21.160679,-9.481068,-1.8074889,-0.29848072,0.8597231,-0.7611929,0.78464305,0.2762936,-0.4186615,0.6941211,0.6485992,-0.48423856,1.4102838,-0.7680079,-1.8160241,-0.9649759,2.2269177,1.361457,-1.0355253,1.4725882,-0.8324589,-1.8400848,-0.9295671,2.167504,1.3016974,-0.9909591,-1.3768268,1.403387,0.38475382,-0.69628143,1.001634,0.51089686,-0.38408953,2.2699966,-0.5037079,1.1343657,-3.1470315,0.19815856,3.0536933,0.27477646,-0.5431576,0.8738381,0.7737574,0.0020250264,0.0722299,0.62934744,-0.62190425,0.49107194,0.6510465,1.0,0.0,0.0,0.0,0.0,0.0,0.0,-2.9199967,0.10370788,-0.58436567,1.8852949,0.81744194,11.192674,-20.228148,0.70546865,0.34796,0.67471266
35.891872,64.62683,21.884283,-4.5713277,-1.3611906,-0.0969911,0.7397413,-0.75411767,0.7914173,0.34258902,-0.4758861,0.6970319,0.65006286,-0.47096208,1.3971764,-0.7533172,-1.805826,-0.9771557,2.2372072,1.3667036,-1.0380553,1.4589602,-0.8183674,-1.8352954,-0.9376323,2.1775405,1.3067786,-0.9947395,-1.3580438,1.4115425,0.50911105,-0.84334314,1.0059227,0.5088614,-0.37604854,2.2385483,-0.50172806,1.1641433,-3.1438851,0.19796045,2.9524546,0.2690773,-0.5377674,0.88022345,0.77565545,-0.0034643176,0.07200927,0.6270257,-0.54479414,0.5593709,0.6291807,1.0,0.0,0.0,0.0,0.0,0.0,0.0,-2.8885484,0.10172805,-0.6141433,1.9284964,0.9799719,12.132502,-14.744293,0.8778572,0.27472973,0.7897854
34.69747,65.91467,22.723627,-2.4436817,-1.1668674,-0.020779312,0.7067679,-0.7336049,0.79237026,0.42460632,-0.5450332,0.7034607,0.6333705,-0.46289054,1.3855997,-0.7391304,-1.7928348,-0.99213564,2.2478867,1.3701156,-1.0410285,1.4455725,-0.80420727,-1.829171,-0.9469259,2.1876342,1.3118292,-0.9984397,-1.332189,1.4180894,0.6455575,-0.9580555,1.0125067,0.50534576,-0.36796266,2.2071304,-0.49975014,1.1929092,-3.1407418,0.19776253,2.851317,0.264122,-0.5317097,0.88646054,0.7768485,-0.00888001,0.071717,0.625527,-0.47408548,0.625664,0.6163251,1.0,0.0,0.0,0.0,0.0,0.0,0.0,-2.8571305,0.09975013,-0.6429092,2.6679754,0.8354664,13.237286,-11.480379,1.1767864,0.12366772,0.81605315
26.06327,65.09621,21.848413,3.4149094,-0.64343196,0.15581495,0.5135263,-0.73550975,0.7970618,0.475226,-0.5410614,0.69473314,0.63992935,-0.42994225,1.3720216,-0.7245011,-1.7816484,-1.001032,2.2571075,1.3758222,-1.0414339,1.4323832,-0.7899794,-1.8217666,-0.9569261,2.1977623,1.3168474,-1.0020435,-1.3142622,1.424901,0.7706493,-1.014149,1.014771,0.5020545,-0.35773414,2.175743,-0.49777412,1.2206645,-3.1376016,0.19756481,2.7502804,0.25968933,-0.5250721,0.8926606,0.7774827,-0.014345471,0.07132315,0.62468207,-0.42584425,0.68049496,0.6151437,1.0,0.0,0.0,0.0,0.0,0.0,0.0,-2.8257432,0.09777412,-0.6706645,1.8554449,0.86865425,12.076485,-5.6331515,0.76994896,0.07600784,1.032579
19.972652,61.359562,19.810345,6.6757493,-0.34186703,0.104926765,0.35133556,-0.72501934,0.802104,0.4916772,-0.55032974,0.70141184,0.63992697,-0.39895666,1.3598813,-0.709769,-1.7725989,-1.0119591,2.2679033,1.3808402,-1.0419391,1.4193579,-0.77567905,-1.8133838,-0.96721053,2.2079208,1.3218333,-1.0055301,-1.2983825,1.4324696,0.859546,-1.0333099,1.0177429,0.49869794,-0.3456127,2.144394,-0.49580002,1.2474103,-3.1344647,0.1973673,2.649345,0.25564194,-0.51797867,0.89885604,0.77771634,-0.019893397,0.07086356,0.6242915,-0.38970813,0.7225613,0.6146952,1.0,0.0,0.0,0.0,0.0,0.0,0.0,-2.794394,0.09580001,-0.6974103,1.6313314,0.94497204,8.483458,-1.9669056,0.8053541,0.020384789,1.2201846
14.638077,57.585835,18.003263,9.570874,-0.061546385,0.075045764,0.22125058,-0.71807605,0.801863,0.52364093,-0.53739035,0.6946245,0.6324799,-0.35536444,1.3475503,-0.69549274,-1.7610197,-1.0209496,2.2773833,1.3850813,-1.0410665,1.4064718,-0.76132053,-1.8042953,-0.97744155,2.2180793,1.3267828,-1.0088737,-1.2853525,1.4375095,0.92396075,-1.0199713,1.0167136,0.49459806,-0.33063036,2.1130753,-0.49382782,1.2731473,-3.131331,0.19716996,2.5485103,0.25188065,-0.51054573,0.9050579,0.7776774,-0.025537172,0.07037937,0.6241893,-0.36476594,0.75357246,0.61530244,1.0,0.0,0.0,0.0,0.0,0.0,0.0,-2.7630754,0.093827814,-0.72314733,1.3217211,0.69110394,6.069505,1.2508392,0.37310123,-0.09896159,1.4962733
8.698716,52.00723,15.419951,12.123039,0.2382319,0.003961712,0.09078653,-0.7208583,0.79873896,0.53282875,-0.5151585,0.6938142,0.63554037,-0.3154912,1.334386,-0.6814466,-1.7510124,-1.0289574,2.2874608,1.3903369,-1.0404228,1.3936583,-0.74694675,-1.7947738,-0.9873626,2.228215,1.3316923,-1.0120513,-1.2801867,1.4379826,0.96053,-0.9832277,1.0139704,0.49073607,-0.31346875,2.081787,-0.49185753,1.2978768,-3.1282003,0.19697283,2.4477766,0.24827957,-0.5029049,0.91124696,0.7774894,-0.031258956,0.06990386,0.6242166,-0.3511853,0.77112526,0.6132851,1.0,0.0,0.0,0.0,0.0,0.0,0.0,-2.7317872,0.09185752,-0.7478768,0.49686432,0.22649765,3.3513427,3.547597,0.14824867,-0.12708902,1.7004609
1.0518312,47.568577,13.093661,15.996374,0.6463065,0.0513428,-0.065851614,-0.7394925,0.7995336,0.5378045,-0.46782097,0.6898821,0.64063936,-0.2693688,1.3197091,-0.6669934,-1.7409934,-1.0341448,2.2972033,1.3957562,-1.0389882,1.3807684,-0.73257965,-1.7850444,-0.9967115,2.2383087,1.3365675,-1.0150383,-1.2921652,1.4368532,0.9762498,-0.9192609,1.0092939,0.4872254,-0.29382908,2.0505295,-0.48988914,1.3215997,-3.1250727,0.1967759,2.3471434,0.24468613,-0.49518204,0.9174312,0.77729297,-0.03706966,0.06945929,0.62419295,-0.35468942,0.7760018,0.6131608,1.0,0.0,0.0,0.0,0.0,0.0,0.0,-2.7005296,0.08988914,-0.7715997,-1.2800217,0.05993843,1.3406157,6.22077,-0.08137226,-0.15828013,1.9365966
-3.1499176,42.59535,10.843284,17.235672,0.83180535,-0.025578499,-0.14548573,-0.75718427,0.79586166,0.5326999,-0.44814366,0.69174254,0.64206105,-0.24442957,1.30505,-0.6529935,-1.7317744,-1.0415258,2.307483,1.4007736,-1.0394812,1.3676554,-0.7182459,-1.7752922,-1.0054102,2.2483642,1.3414122,-1.0178268,-1.3181555,1.4327657,0.97436213,-0.8541508,1.0055345,0.48400912,-0.27407005,2.0193024,-0.48792267,1.3443171,-3.1219482,0.19657916,2.2466109,0.2409935,-0.48748398,0.9235786,0.77718276,-0.04293262,0.069068454,0.6239977,-0.36501554,0.7714377,0.6082317,1.0,0.0,0.0,0.0,0.0,0.0,0.0,-2.6693025,0.08792266,-0.79431707,-2.7228832,-0.24871826,-0.34667253,6.3046813,-0.036931038,-0.16936064,1.9428432
-0.85269547,41.859707,10.792958,15.582296,0.6427039,-0.15233417,-0.09980118,-0.7574188,0.7993888,0.53567183,-0.4425935,0.6877032,0.6370917,-0.20378254,1.2919135,-0.63830703,-1.721725,-1.0496695,2.3171346,1.4051213,-1.038205,1.3543001,-0.7039351,-1.7655971,-1.0135813,2.2583778,1.3462263,-1.0204074,-1.3415316,1.4310426,0.9672611,-0.8054539,1.0011085,0.48086023,-0.25285786,1.9881058,-0.4859581,1.3660299,-3.1188269,0.19638263,2.146179,0.23726654,-0.47981453,0.92964244,0.7771489,-0.048791133,0.06877325,0.62364185,-0.36727417,0.76922256,0.5987505,1.0,0.0,0.0,0.0,0.0,0.0,0.0,-2.6381059,0.08595809,-0.81602985,-2.4523497,-0.019598007,-0.8477926,4.678154,-0.12693405,-0.15411973,2.092439
0.55122375,38.31595,9.730952,13.695385,0.532719,-0.33431357,-0.058651168,-0.76857316,0.7885757,0.53001505,-0.43716758,0.687795,0.6444049,-0.18732645,1.2774428,-0.6250775,-1.7125956,-1.0572981,2.3271573,1.4106668,-1.0391401,1.3407179,-0.6896834,-1.756007,-1.021411,2.2683532,1.3510176,-1.022784,-1.3639817,1.4236141,0.9561137,-0.7761198,0.9974309,0.47894523,-0.23279715,1.9569397,-0.48399544,1.3867391,-3.1157086,0.19618627,2.0458474,0.23356247,-0.47218323,0.9355473,0.7771579,-0.054566346,0.068593085,0.6231718,-0.3627868,0.7643777,0.58075446,1.0,0.0,0.0,0.0,0.0,0.0,0.0,-2.6069398,0.08399543,-0.8367391,-2.3510218,-0.6015539,-1.2238741,2.7423263,-0.08845329,-0.02322793,1.9744217
2.6167574,37.306084,9.540847,12.042983,0.3676117,-0.47428423,-0.022434391,-0.77700394,0.78926665,0.5193489,-0.43432015,0.68687254,0.64036906,-0.17725037,1.2630175,-0.6107567,-1.7040721,-1.0648429,2.3370404,1.4150546,-1.040509,1.3269373,-0.6754975,-1.7465618,-1.0290709,2.2782981,1.3557898,-1.0249755,-1.3831007,1.4173609,0.9404478,-0.7633502,0.9943359,0.47715864,-0.21459596,1.9258041,-0.48203468,1.4064459,-3.1125937,0.19599013,1.945616,0.22996902,-0.46459198,0.9412359,0.7771811,-0.06019174,0.06855301,0.622629,-0.35055494,0.76045287,0.55794364,1.0,0.0,0.0,0.0,0.0,0.0,0.0,-2.5758042,0.08203468,-0.85644585,-2.0057201,-0.48966408,-1.6616464,1.0982633,-0.053179264,-0.00020265579,1.7924935
3.1379461,37.09101,9.774819,12.328114,0.38894928,-0.4824236,-0.011523467,-0.78282535,0.7846341,0.5192681,-0.40529454,0.6840542,0.64575833,-0.13233985,1.2486548,-0.59703404,-1.6946349,-1.0696003,2.3467035,1.4203656,-1.0382096,1.3129984,-0.66138023,-1.7372444,-1.0365572,2.2882125,1.3605486,-1.0269725,-1.3978614,1.4102876,0.92835575,-0.74436617,0.99124396,0.47619182,-0.19480541,1.8946991,-0.48007584,1.425151,-3.1094816,0.19579418,1.8454847,0.22649002,-0.45703697,0.9467143,0.7772035,-0.06567616,0.06864321,0.6220364,-0.3383036,0.7568626,0.53758633,1.0,0.0,0.0,0.0,0.0,0.0,0.0,-2.5446992,0.08007583,-0.875151,-1.5646696,-0.5709171,-1.3095021,1.7220974,-0.047302246,0.077331066,1.9471884
3.9153156,36.51663,9.772309,11.849118,0.34608787,-0.5367178,0.0061939396,-0.7930351,0.7816676,0.5141591,-0.40660453,0.6877943,0.64704424,-0.12404721,1.2336949,-0.58321345,-1.6858284,-1.0772177,2.356992,1.425253,-1.0393772,1.2989146,-0.6473307,-1.7280338,-1.0439043,2.2981117,1.3653017,-1.0287845,-1.4120339,1.4036344,0.9182426,-0.7320743,0.9904164,0.47561708,-0.17676364,1.8636246,-0.4781189,1.4428556,-3.1063728,0.19559842,1.7454536,0.22315216,-0.44951057,0.9519811,0.7772128,-0.07101735,0.06885445,0.6214144,-0.32350647,0.7537608,0.51623285,1.0,0.0,0.0,0.0,0.0,0.0,0.0,-2.5136247,0.07811889,-0.8928556,-1.503253,-0.5316496,-1.1021137,1.0597467,0.169909,0.11579394,1.7738104
4.702703,36.567455,10.110083,11.89619,0.32848775,-0.55175966,0.02216942,-0.7953122,0.7775677,0.5144064,-0.39236197,0.68207663,0.6458391,-0.093531884,1.2193834,-0.56957394,-1.6765932,-1.0831405,2.3663194,1.4298856,-1.0381377,1.2847201,-0.6333489,-1.71889,-1.0511065,2.3079917,1.3700491,-1.0304134,-1.4220139,1.3968319,0.91268927,-0.71689135,0.9882129,0.47510773,-0.15841484,1.8325806,-0.47616577,1.4595605,-3.103267,0.19540286,1.6455225,0.2199707,-0.44200325,0.95704895,0.7771941,-0.07623008,0.06917609,0.6207841,-0.30745375,0.75199145,0.49677554,1.0,0.0,0.0,0.0,0.0,0.0,0.0,-2.4825807,0.076165766,-0.9095605,-1.0765553,-0.545454,-0.65317154,1.3553143,0.03745556,0.12179613,1.8029273
6.2319574,35.614388,9.944722,10.552177,0.21089143,-0.6660969,0.06566678,-0.798264,0.7739764,0.5055939,-0.40698323,0.68392676,0.65257204,-0.058655787,1.2048937,-0.55595124,-1.6683306,-1.0918047,2.3763845,1.4353063,-1.036279,1.2704512,-0.6194348,-1.7098148,-1.0582628,2.3178604,1.3747984,-1.0318534,-1.4286221,1.390115,0.9054412,-0.7156059,0.98701334,0.47543505,-0.13914989,1.8015747,-0.47421265,1.4752669,-3.1001644,0.19520749,1.5456913,0.21699524,-0.4345131,0.96189064,0.7771179,-0.08128205,0.06961541,0.62018925,-0.285318,0.75054014,0.47326565,1.0,0.0,0.0,0.0,0.0,0.0,0.0,-2.4515748,0.07421264,-0.9252669,-0.72512627,-0.54073334,-0.81551075,-0.023007393,0.121068954,0.21340847,1.8971205
6.8316174,36.602253,10.631297,10.917181,0.19841468,-0.6397424,0.09571807,-0.801142,0.7740433,0.51362646,-0.3929975,0.68039405,0.654414,0.01918463,1.190337,-0.54203045,-1.6584522,-1.0975626,2.3858998,1.4402398,-1.029935,1.2561327,-0.6055693,-1.7007568,-1.0653772,2.32771,1.3795534,-1.0330608,-1.4331437,1.3858396,0.9054862,-0.71055996,0.985068,0.4759964,-0.11466658,1.7705994,-0.47226334,1.4899758,-3.0970647,0.19501233,1.4459599,0.21424103,-0.42700768,0.96652335,0.7769523,-0.08619111,0.07017295,0.61967087,-0.26295123,0.7519997,0.4532312,1.0,0.0,0.0,0.0,0.0,0.0,0.0,-2.4205995,0.07226333,-0.9399758,-0.515151,-0.2935171,-0.092840195,0.3623247,0.059449673,0.23328662,2.420035
8.022071,35.703518,10.458332,9.758024,0.093605936,-0.74332297,0.13460715,-0.8015518,0.7704093,0.50864446,-0.41074902,0.67895764,0.6559351,0.056799755,1.1759776,-0.5285284,-1.6498923,-1.1064521,2.3956056,1.4451469,-1.0273808,1.2417876,-0.5917458,-1.6917045,-1.0725355,2.3375366,1.3843142,-1.0340145,-1.4351842,1.3816348,0.90486807,-0.7181002,0.9827229,0.4767508,-0.08904862,1.7396545,-0.47031403,1.5036881,-3.0939684,0.19481735,1.3463283,0.21175385,-0.4194889,0.97092783,0.7766682,-0.09092992,0.0708624,0.6192712,-0.23519436,0.7536051,0.42948022,1.0,0.0,0.0,0.0,0.0,0.0,0.0,-2.3896546,0.07031402,-0.9536881,-0.25379658,-0.2891302,-0.1545906,-0.88523626,0.004565716,0.25895238,2.5368645
9.443371,36.380913,11.033603,8.942675,-0.018750787,-0.7833415,0.19868968,-0.8029535,0.77084666,0.5216096,-0.42551777,0.67499864,0.65298474,0.1447115,1.1614922,-0.51466113,-1.6395435,-1.1150873,2.4050364,1.4496126,-1.0195433,1.227429,-0.57794994,-1.6825931,-1.0798502,2.3473327,1.3890806,-1.0346706,-1.4362613,1.3794109,0.91292685,-0.73616236,0.9793463,0.47719496,-0.05786714,1.7087402,-0.46836853,1.5164047,-3.090875,0.19462258,1.2467963,0.20957947,-0.41192627,0.9750879,0.7762148,-0.095474906,0.07169681,0.6190595,-0.20282948,0.7585028,0.40487647,1.0,0.0,0.0,0.0,0.0,0.0,0.0,-2.3587403,0.068368524,-0.96640474,-0.14717579,-0.09043217,0.710237,-1.9197702,-0.09716749,0.23386478,3.098458
9.106184,34.69887,10.417542,8.843977,-0.009772241,-0.84766674,0.19886236,-0.80377275,0.7674601,0.51423645,-0.43089232,0.66931504,0.65876514,0.2026566,1.1470518,-0.50120395,-1.6311694,-1.1229395,2.4142642,1.4549571,-1.0144049,1.2130629,-0.5641808,-1.673434,-1.0873575,2.357083,1.3938547,-1.0349987,-1.4369,1.3765265,0.9166456,-0.7560556,0.9742299,0.47807366,-0.02446718,1.6778564,-0.46642303,1.528127,-3.0877848,0.194428,1.1473637,0.20772934,-0.4043293,0.97898936,0.775583,-0.0998061,0.07269203,0.6190522,-0.16977279,0.7609427,0.37850186,1.0,0.0,0.0,0.0,0.0,0.0,0.0,-2.3278565,0.06642303,-0.97812694,-0.1019001,-0.15764236,0.2829671,-2.1036863,-0.2821684,0.27036667,3.3209865
10.291595,32.342396,9.52332,6.5848765,-0.16181508,-1.0421759,0.23661602,-0.80445063,0.7623686,0.5120049,-0.48323354,0.6676562,0.65348864,0.20131712,1.1326178,-0.48794392,-1.6222335,-1.1356809,2.4238486,1.4592036,-1.014867,1.198691,-0.5504574,-1.6642635,-1.0952673,2.36678,1.3986326,-1.0350254,-1.4372407,1.3713579,0.9169894,-0.8030323,0.9689541,0.47843498,0.0046641994,1.6470032,-0.46448135,1.5388556,-3.0846975,0.19423361,1.0480305,0.20627594,-0.3967228,0.98255754,0.7747602,-0.10382656,0.073877536,0.6192808,-0.12826662,0.76051,0.3428248,1.0,0.0,0.0,0.0,0.0,0.0,0.0,-2.2970033,0.06448135,-0.98885554,-0.046777725,-0.3930092,-0.045645237,-4.7965765,-0.33347607,0.22697449,2.9003847
10.388498,31.414654,9.374135,6.3850737,-0.15863663,-1.0797893,0.24743769,-0.8043892,0.75845516,0.5235299,-0.501091,0.66571593,0.65451616,0.22231722,1.118252,-0.4746119,-1.6119105,-1.1453764,2.4333515,1.4640843,-1.0127937,1.1843191,-0.536797,-1.6550472,-1.1036806,2.3764312,1.4034144,-1.0347793,-1.4371843,1.3646817,0.92281044,-0.8543547,0.9641567,0.4787349,0.03129405,1.6161804,-0.46253967,1.5485915,-3.0816135,0.19403942,0.9487967,0.20524979,-0.38913155,0.98576283,0.7737364,-0.107497275,0.07524718,0.61976933,-0.08588638,0.75923926,0.3062749,1.0,0.0,0.0,0.0,0.0,0.0,0.0,-2.2661805,0.06253967,-0.9985915,0.0019311905,-0.5432844,0.4963398,-5.224097,-0.28867722,0.2139926,2.653045
9.855493,31.23476,9.41212,7.130104,-0.11195323,-1.0622888,0.23233533,-0.80509526,0.7594774,0.5268079,-0.5141632,0.6611805,0.6541201,0.26222917,1.1038096,-0.46084926,-1.6023664,-1.1550969,2.4425492,1.4688264,-1.0085564,1.1699454,-0.52318615,-1.6457603,-1.1125631,2.386029,1.408198,-1.0342681,-1.4374322,1.3602843,0.93026507,-0.899748,0.95911264,0.47881237,0.057686236,1.5853882,-0.4606018,1.5573359,-3.0785325,0.19384542,0.8496621,0.20462418,-0.3815403,0.9886213,0.7725213,-0.11083221,0.07679745,0.6205072,-0.04541988,0.7580683,0.27219442,1.0,0.0,0.0,0.0,0.0,0.0,0.0,-2.2353883,0.0606018,-1.0073359,-0.035071373,-0.31154156,0.6583452,-4.6301603,-0.30639172,0.17763972,2.6320615
8.150129,28.869501,8.455502,8.210418,0.03583485,-1.0663754,0.18103147,-0.8073057,0.7532777,0.52075636,-0.5271612,0.65842694,0.65567327,0.2754539,1.0892148,-0.44785836,-1.5936847,-1.1652793,2.4518716,1.4737654,-1.0067228,1.1555582,-0.5096316,-1.636441,-1.1218271,2.395581,1.4129816,-1.0335109,-1.4391993,1.354214,0.93244827,-0.9357788,0.95420146,0.4787926,0.08151796,1.5546265,-0.45866394,1.5650897,-3.0754547,0.19365162,0.7506266,0.20437622,-0.37400055,0.99114895,0.77115506,-0.11384467,0.07851257,0.62144595,-0.009687908,0.7524004,0.23935862,1.0,0.0,0.0,0.0,0.0,0.0,0.0,-2.2046266,0.058663934,-1.0150898,-0.20105839,-0.47886372,0.14256239,-3.70785,-0.29814243,0.14691949,2.3731291
8.311739,27.446096,7.9244637,7.507262,0.0027979612,-1.1518487,0.18136461,-0.8055561,0.7499065,0.52052075,-0.56885743,0.65600663,0.6550028,0.26860356,1.0750027,-0.4346409,-1.584389,-1.1787128,2.4611816,1.4784819,-1.0066506,1.1411635,-0.4961409,-1.6271179,-1.131526,2.4050872,1.4177653,-1.0325496,-1.4396466,1.3477467,0.9320115,-0.981356,0.94965494,0.47862664,0.10095334,1.5238953,-0.4567299,1.5718539,-3.0723798,0.193458,0.6516901,0.2045021,-0.36651993,0.993322,0.76965475,-0.11650086,0.08039436,0.62257195,0.028824676,0.74465483,0.2030694,1.0,0.0,0.0,0.0,0.0,0.0,0.0,-2.1738954,0.056729883,-1.0218539,-0.05338192,-0.5210161,-0.119650364,-4.653573,-0.27823448,0.1259923,1.9363612
8.004526,27.246462,8.028118,8.306947,0.05814278,-1.1278603,0.16493237,-0.80064833,0.74909323,0.52343047,-0.5760018,0.65277123,0.6543925,0.28683072,1.0610986,-0.42123157,-1.5747749,-1.1891261,2.4703643,1.4832045,-1.0038666,1.1267897,-0.4827041,-1.6177928,-1.141612,2.4145477,1.422547,-1.0314071,-1.4365647,1.3427836,0.9321752,-1.0180491,0.94518834,0.47829178,0.11874249,1.4931946,-0.45479584,1.5776294,-3.069308,0.19326459,0.5528526,0.20500946,-0.35912132,0.99515563,0.7680334,-0.118815996,0.08243341,0.6238687,0.06540202,0.73719525,0.16978957,1.0,0.0,0.0,0.0,0.0,0.0,0.0,-2.1431947,0.05479583,-1.0276294,0.29881,-0.36621094,-0.06788969,-3.765583,-0.26129484,0.09709597,1.7721369
5.715261,23.970137,6.9282837,10.124326,0.3238219,-1.0701237,0.11920807,-0.80350906,0.734487,0.52558875,-0.57310337,0.65222865,0.6566141,0.31605938,1.0464388,-0.4092554,-1.565234,-1.1989224,2.4797707,1.4882084,-0.99980116,1.112435,-0.4693684,-1.6084564,-1.1519384,2.42397,1.4273249,-1.0300853,-1.4352301,1.3309224,0.9336563,-1.0379649,0.9418606,0.47797513,0.13647938,1.4625244,-0.4528656,1.5824174,-3.0662394,0.19307137,0.45411384,0.20581055,-0.35182762,0.9966849,0.7663198,-0.120832354,0.0845778,0.62529993,0.09311949,0.7243679,0.14019994,1.0,0.0,0.0,0.0,0.0,0.0,0.0,-2.1125245,0.052865595,-1.0324173,0.10108948,-1.0564804,0.07404089,-2.1135092,-0.14029741,0.077432394,1.7576933
5.6494675,23.632025,7.1241565,10.856031,0.372927,-1.0338458,0.12441363,-0.7939107,0.7300671,0.53109354,-0.5809568,0.64332145,0.66186863,0.3531792,1.0330439,-0.39636168,-1.555347,-1.2100341,2.4883022,1.4935118,-0.9947674,1.0981337,-0.45615762,-1.5990818,-1.1624002,2.4333427,1.4321028,-1.0285785,-1.4285837,1.3182187,0.9383693,-1.0492383,0.93637717,0.47815448,0.15535688,1.4318848,-0.45093536,1.5862187,-3.0631738,0.19287834,0.35547388,0.20686722,-0.34465027,0.99794066,0.7645163,-0.12259396,0.086796515,0.6268587,0.11917007,0.71260613,0.11372316,1.0,0.0,0.0,0.0,0.0,0.0,0.0,-2.0818849,0.050935358,-1.0362186,0.636816,-1.1372805,0.38318634,-1.2494802,-0.3434658,0.120437145,1.8701494
3.3578262,20.169964,5.345112,11.808425,0.5279922,-1.0699549,0.03839963,-0.7988322,0.7252052,0.50167245,-0.58495134,0.6378288,0.6628522,0.3401167,1.0182505,-0.3836371,-1.5489146,-1.2208954,2.4971256,1.498388,-0.99456686,1.0838686,-0.44307035,-1.5897987,-1.1729307,2.4426506,1.4368845,-1.0269115,-1.4259557,1.30595,0.92470104,-1.0547951,0.9295098,0.47823137,0.17035013,1.4012756,-0.44900894,1.5890344,-3.0601113,0.1926855,0.25693253,0.20816803,-0.33764648,0.9989269,0.7626853,-0.12409879,0.08910069,0.62846774,0.1404349,0.6938436,0.08663513,1.0,0.0,0.0,0.0,0.0,0.0,0.0,-2.0512757,0.049008936,-1.0390344,0.20723343,-1.1001587,-1.4139414,-0.6977558,-0.50741434,0.08397102,1.4768064
2.4357207,18.70283,4.5133615,11.91423,0.577461,-1.1080843,-0.0011103442,-0.80528325,0.72441185,0.49096993,-0.6023625,0.6481473,0.6628637,0.32017636,1.0033402,-0.37062916,-1.5407017,-1.2331669,2.5074654,1.5031708,-0.99489385,1.0695845,-0.4300775,-1.5807121,-1.1835642,2.451928,1.4416643,-1.02513,-1.4294311,1.2975066,0.90337944,-1.0664957,0.9279605,0.47813234,0.18078698,1.370697,-0.44708252,1.5908655,-3.0570517,0.19249284,0.1584897,0.20967484,-0.3308506,0.9996289,0.7608833,-0.12530904,0.09150003,0.630065,0.16077115,0.6720023,0.057963267,1.0,0.0,0.0,0.0,0.0,0.0,0.0,-2.020697,0.047082514,-1.0408654,-0.42357445,-0.72271824,-2.142191,-1.3123751,0.0042915344,0.047791004,1.024726
2.684533,18.197,4.4296308,11.614244,0.55076796,-1.137042,0.01085316,-0.8015222,0.71861506,0.4882231,-0.616088,0.6413758,0.660749,0.33125085,0.9894323,-0.358216,-1.5318898,-1.245173,2.5160656,1.5077392,-0.99200493,1.0552756,-0.4171638,-1.5718277,-1.1943579,2.4611862,1.4464403,-1.0232532,-1.4317145,1.2897478,0.8835266,-1.0842706,0.9254692,0.4777062,0.1901049,1.3401489,-0.4451599,1.5917128,-3.0539954,0.1923004,0.060145304,0.21139145,-0.32427025,1.0000353,0.7591156,-0.1262022,0.09399523,0.6316498,0.1828844,0.650273,0.028057475,1.0,0.0,0.0,0.0,0.0,0.0,0.0,-1.9901489,0.045159906,-1.0417128,-0.29375553,-0.65557957,-1.9972563,-1.9098282,-0.095164776,0.007838011,0.91475546
1.8141959,16.42453,3.9245267,12.537837,0.67492193,-1.1005347,0.0010499726,-0.800109,0.7080958,0.4788659,-0.6090536,0.6357918,0.6645321,0.3660441,0.97526467,-0.34635422,-1.523941,-1.2552632,2.5247653,1.5128936,-0.9866488,1.0409552,-0.40435213,-1.563132,-1.2052698,2.4704063,1.4512163,-1.0212677,-1.4325216,1.2787155,0.8647201,-1.0941339,0.9216602,0.47757587,0.20125291,1.3096313,-0.4432373,1.5915774,-3.050942,0.19210812,-0.038100775,0.2132988,-0.31791496,1.0001602,0.7573831,-0.12679826,0.09656997,0.63321966,0.20108014,0.6267131,0.000501256,1.0,0.0,0.0,0.0,0.0,0.0,0.0,-1.9596313,0.0432373,-1.0415773,-0.1538992,-0.98314285,-1.8908143,-1.1277199,-0.22102594,0.02540946,1.0934591
1.0372167,15.232214,3.4388137,13.3927,0.7695886,-1.0834726,-0.027897144,-0.79867935,0.7062315,0.45688388,-0.60625446,0.63777184,0.66363955,0.3791596,0.9610872,-0.33372897,-1.5174437,-1.2658952,2.5341835,1.5175803,-0.9833517,1.0266386,-0.3916387,-1.5546749,-1.2162275,2.4795997,1.4559885,-1.0191715,-1.4317054,1.269282,0.8393891,-1.0967094,0.91916317,0.47727206,0.21236426,1.2791443,-0.4413185,1.5904602,-3.0478916,0.19191606,-0.13624863,0.21538162,-0.31180954,1.0000248,0.7557085,-0.12711498,0.09920821,0.63474727,0.2164246,0.6015044,-0.024781939,1.0,0.0,0.0,0.0,0.0,0.0,0.0,-1.9291443,0.041318506,-1.0404601,-0.005674362,-0.82383156,-2.5294065,-0.4059553,-0.091552734,-0.0067055225,1.0887295
1.2005006,13.825394,2.7977076,12.281379,0.740892,-1.1779095,-0.015696533,-0.7977766,0.6995852,0.44080374,-0.639224,0.64537334,0.65550005,0.3559497,0.94686097,-0.3216802,-1.5105945,-1.2801499,2.544137,1.5215385,-0.98357654,1.0123373,-0.37902397,-1.5464962,-1.2273321,2.4888008,1.4607512,-1.0169914,-1.4295976,1.2592039,0.81053865,-1.1155876,0.9205483,0.47608548,0.21966706,1.2486877,-0.43939972,1.5883623,-3.0448444,0.19172418,-0.23429835,0.21763611,-0.30597496,0.99959886,0.75409865,-0.12710126,0.10190062,0.63623637,0.23504725,0.5733617,-0.05510141,1.0,0.0,0.0,0.0,0.0,0.0,0.0,-1.8986877,0.039399713,-1.0383623,0.1557827,-0.89433193,-2.8891802,-2.0198345,0.27376413,-0.10279417,0.7111788
1.2094033,12.830672,2.5611534,12.024161,0.71936643,-1.1877697,0.0013129087,-0.79525757,0.69057745,0.43273675,-0.6515931,0.6267489,0.65959996,0.37443414,0.93281156,-0.3099662,-1.5032225,-1.2924914,2.5514758,1.5267112,-0.979548,0.99807036,-0.36652702,-1.5385826,-1.2386713,2.4979637,1.4655062,-1.0147369,-1.4258659,1.246912,0.7848753,-1.1405101,0.915193,0.47528765,0.22725521,1.2182617,-0.43748474,1.5852846,-3.0418,0.19153251,-0.33225006,0.22008896,-0.30042076,0.9988559,0.752543,-0.12672862,0.10465732,0.6377034,0.25460926,0.54523396,-0.08708705,1.0,0.0,0.0,0.0,0.0,0.0,0.0,-1.8682617,0.037484735,-1.0352845,0.33609867,-1.1178017,-2.5819778,-2.6159286,-0.404346,-0.07258654,0.7382542
0.70922446,11.3040085,2.1666522,12.415732,0.7800918,-1.1592144,0.005525901,-0.79239625,0.67889535,0.42305467,-0.6586457,0.61570364,0.6619689,0.3905567,0.91883075,-0.29863748,-1.4962771,-1.3045359,2.559534,1.5317031,-0.97568125,0.9838501,-0.35418218,-1.5308979,-1.2502546,2.5070388,1.4702555,-1.0124023,-1.4208254,1.2307576,0.76283634,-1.1647053,0.90523595,0.4747606,0.23525576,1.1878662,-0.43556976,1.5812281,-3.038759,0.19134101,-0.4301038,0.22272873,-0.29514885,0.9977958,0.75103337,-0.12600417,0.10747315,0.63915664,0.27211973,0.516356,-0.11859359,1.0,0.0,0.0,0.0,0.0,0.0,0.0,-1.8378662,0.035569757,-1.0312281,0.47197342,-1.505518,-2.226448,-2.5438547,-0.8617282,-0.05671978,0.77721477
0.7011123,10.944206,2.3070557,12.75195,0.76210773,-1.1148032,0.017008333,-0.7895431,0.6705746,0.41876373,-0.6716149,0.5904796,0.6623604,0.40443224,0.9048958,-0.28712472,-1.4890215,-1.3174161,2.5660868,1.5364915,-0.97195905,0.96968424,-0.34200662,-1.5233848,-1.2620783,2.5159461,1.4749991,-1.0099857,-1.4152192,1.2135305,0.7473629,-1.1887556,0.88632756,0.4742995,0.24358907,1.1575012,-0.4336586,1.5761939,-3.0357208,0.19114971,-0.52785975,0.22553635,-0.2901497,0.9964265,0.74955666,-0.12494806,0.11036251,0.6406035,0.2892772,0.48979598,-0.14923695,1.0,0.0,0.0,0.0,0.0,0.0,0.0,-1.8075012,0.033658594,-1.0261939,0.5265236,-1.6121387,-1.5728116,-2.5256157,-1.7500162,-0.059342384,0.8093864
0.560122,10.380705,2.3787093,13.320206,0.7965281,-1.0648093,0.02608259,-0.78390986,0.66005886,0.41360736,-0.680362,0.5769217,0.6566175,0.42165956,0.8912933,-0.27600074,-1.4820241,-1.3301145,2.5736384,1.5406609,-0.96781975,0.95558894,-0.33001274,-1.5159919,-1.2741194,2.5246398,1.479735,-1.0074813,-1.4077797,1.1950638,0.736661,-1.2097267,0.8645426,0.4732646,0.25252432,1.1271667,-0.43174744,1.5701828,-3.0326858,0.1909586,-0.625518,0.228508,-0.2854042,0.9947635,0.74809796,-0.12358575,0.1133246,0.6420541,0.30487964,0.46461254,-0.17806111,1.0,0.0,0.0,0.0,0.0,0.0,0.0,-1.7771667,0.03174743,-1.0201828,0.70414543,-1.7351627,-1.0970592,-2.2176266,-2.0290732,-0.12586117,0.870052
-0.14520681,8.280127,1.9250789,13.993713,0.89016914,-0.9969177,0.037599884,-0.78050816,0.63776207,0.41804042,-0.6893388,0.5468902,0.6615902,0.44160116,0.87753814,-0.26623654,-1.4741879,-1.3430532,2.5793288,1.545894,-0.9633212,0.941569,-0.31826395,-1.5086391,-1.2863493,2.5330627,1.4844633,-1.0048816,-1.400134,1.1685666,0.734661,-1.2279483,0.83552384,0.472724,0.2622639,1.0968628,-0.4298401,1.5631958,-3.0296538,0.19076768,-0.7230786,0.23161697,-0.2809105,0.99282134,0.74664044,-0.1219459,0.11633775,0.64352375,0.31677547,0.43901202,-0.20557046,1.0,0.0,0.0,0.0,0.0,0.0,0.0,-1.7468628,0.029840082,-1.0131958,0.7225752,-2.5401592,-0.23418665,-1.9479513,-2.744794,-0.08585453,0.94679
-2.079155,4.79572,-0.027030706,14.28484,1.0648804,-1.0354218,-0.020857103,-0.78215885,0.6264703,0.38315278,-0.7056597,0.5450661,0.6580653,0.4389963,0.8633531,-0.2556169,-1.4703238,-1.3569152,2.5875692,1.5502698,-0.96098197,0.92759955,-0.30678552,-1.501437,-1.2987833,2.5412376,1.489184,-1.0021961,-1.396056,1.1412663,0.7153334,-1.2488356,0.8114456,0.4716843,0.27047148,1.0665894,-0.42793274,1.555234,-3.0266247,0.19057696,-0.8205417,0.2348175,-0.2767372,0.9905882,0.74522907,-0.119998604,0.119384654,0.644966,0.32422036,0.40556717,-0.23497774,1.0,0.0,0.0,0.0,0.0,0.0,0.0,-1.7165893,0.027932733,-1.005234,0.3587246,-2.6309013,-1.939261,-2.2221327,-2.2821426,-0.16208887,0.7898569
-4.588229,-0.443537,-2.7899146,14.255675,1.292778,-1.1073177,-0.07846683,-0.78049,0.60082084,0.34941158,-0.72654927,0.5277201,0.6405289,0.43851975,0.84955055,-0.24670345,-1.4664958,-1.3714383,2.5940096,1.553237,-0.9583441,0.9136597,-0.2956366,-1.4945762,-1.3114748,2.5491683,1.4938818,-0.9994404,-1.3932803,1.1063583,0.67628825,-1.2762341,0.78761727,0.46872583,0.2771955,1.0363464,-0.4260292,1.5462983,-3.0235987,0.19038641,-0.9179073,0.23804855,-0.27297783,0.98803043,0.74393517,-0.1176746,0.122450344,0.6463118,0.32619378,0.3606027,-0.2682318,1.0,0.0,0.0,0.0,0.0,0.0,0.0,-1.6863464,0.0260292,-0.99629825,0.2571106,-3.4071684,-3.9137125,-2.8797626,-2.2969842,-0.3823638,0.63123107
-5.184188,-1.7518091,-3.2285492,14.768904,1.3695154,-1.0614398,-0.08843772,-0.7768259,0.58234954,0.34103322,-0.7376356,0.5070983,0.63773406,0.43394002,0.8359771,-0.23740163,-1.460473,-1.3852384,2.599878,1.5576552,-0.95604634,0.8997513,-0.28485245,-1.4881046,-1.3244371,2.5568511,1.4985472,-0.99662894,-1.389989,1.0693291,0.6372803,-1.3034012,0.76246053,0.46544155,0.2822695,1.006134,-0.42412567,1.5363896,-3.0205758,0.19019607,-1.0151756,0.2412796,-0.2696743,0.98514754,0.74278134,-0.11496032,0.12551309,0.6475388,0.325234,0.3150179,-0.30035222,1.0,0.0,0.0,0.0,0.0,0.0,0.0,-1.656134,0.024125665,-0.9863896,0.30744076,-3.6231518,-3.9095402,-2.854967,-2.432239,-0.43173432,0.46619773
-8.109398,-7.87654,-6.1784906,15.454409,1.6573125,-1.0648057,-0.1447429,-0.7700538,0.54181653,0.292196,-0.7484408,0.4649352,0.63126534,0.4514841,0.8227459,-0.2306708,-1.458885,-1.3992813,2.6033447,1.5616738,-0.9514805,0.885903,-0.27454323,-1.4821651,-1.3376551,2.5642097,1.5031763,-0.9937622,-1.3830957,1.0183345,0.57941574,-1.3284295,0.7269797,0.46154875,0.2879589,0.97595215,-0.42222595,1.525509,-3.0175557,0.19000591,-1.1123466,0.24444962,-0.26691246,0.981933,0.74181527,-0.11184116,0.1285528,0.6485952,0.31559873,0.2585123,-0.3335334,1.0,0.0,0.0,0.0,0.0,0.0,0.0,-1.6259521,0.022225946,-0.975509,0.70734024,-5.036092,-5.823064,-2.6532173,-3.494382,-0.5222678,0.5109012
-9.369639,-9.176996,-7.0572596,16.531021,1.6736702,-0.99864614,-0.20780718,-0.77320933,0.5262736,0.25109407,-0.7521512,0.39240417,0.6318441,0.45568636,0.80858207,-0.22191587,-1.4570557,-1.4128702,2.60345,1.5663607,-0.94819355,0.87209857,-0.26472133,-1.4768932,-1.3510695,2.5710456,1.5077673,-0.99084204,-1.3795892,0.9703245,0.50982726,-1.3463249,0.66929716,0.45793402,0.2931737,0.9458008,-0.42032623,1.5136575,-3.0145388,0.18981594,-1.2094206,0.24749374,-0.26470757,0.9784007,0.7410917,-0.10834236,0.13165022,0.64939445,0.3025758,0.20248847,-0.3645039,1.0,0.0,0.0,0.0,0.0,0.0,0.0,-1.5958008,0.020326227,-0.96365744,0.3366232,-4.7443986,-6.9603324,-1.942873,-5.7279468,-0.5194068,0.45003295
-16.255392,-20.727245,-14.18372,17.454294,2.329566,-1.1399963,-0.42128852,-0.7713063,0.48212832,0.10808906,-0.7611675,0.37764096,0.6193696,0.45263976,0.79496795,-0.21650851,-1.4660842,-1.4271863,2.6088097,1.5697043,-0.9455781,0.85832655,-0.25546402,-1.4728477,-1.3646383,2.5773246,1.5123144,-0.987879,-1.3762338,0.91095805,0.36932844,-1.3610907,0.6138095,0.45288998,0.29697093,0.91567993,-0.41843033,1.5008359,-3.011525,0.18962617,-1.3063974,0.2502823,-0.2632904,0.97452664,0.7407996,-0.10438549,0.13480431,0.64972866,0.27174875,0.116965294,-0.3994117,1.0,0.0,0.0,0.0,0.0,0.0,0.0,-1.5656799,0.018430322,-0.9508359,0.3969431,-5.9187293,-14.066845,-1.6479254,-5.607271,-0.73275566,0.27179122
-32.485756,-51.789047,-31.566986,17.980003,3.8327763,-1.4837102,-0.8021501,-0.7522678,0.3485368,-0.14442228,-0.78224033,0.2550733,0.6024548,0.44155508,0.7830998,-0.22061034,-1.4872899,-1.4428624,2.6028318,1.57256,-0.94372344,0.8446852,-0.24730277,-1.4712303,-1.3784018,2.5827796,1.5167948,-0.98489684,-1.358628,0.78423816,0.09160006,-1.3822099,0.5219181,0.44531104,0.29793236,0.8855896,-0.41653442,1.4870452,-3.008514,0.18943658,-1.4032773,0.25245285,-0.26325607,0.9701828,0.74132293,-0.099729665,0.13794035,0.6492047,0.19861475,-0.039333023,-0.4498094,1.0,0.0,0.0,0.0,0.0,0.0,0.0,-1.5355896,0.016534418,-0.93704516,2.209711,-12.7452965,-28.067291,-2.289176,-9.449636,-1.1259913,-0.11524558
-54.041397,-96.69971,-53.32786,20.698767,5.9284415,-1.5027629,-1.1266042,-0.745556,0.08769609,-0.34879765,-0.7890754,-0.036993507,0.5959798,0.44870916,0.7701296,-0.23853317,-1.5061101,-1.4573092,2.5790803,1.5763928,-0.9400259,0.83127177,-0.24148989,-1.4730518,-1.3923635,2.5865486,1.5211912,-0.98190993,-1.3321714,0.5129839,-0.2761033,-1.4012085,0.32705364,0.43597353,0.29768416,0.8555298,-0.41464233,1.4722865,-3.005506,0.18924718,-1.5000603,0.25337982,-0.2653904,0.9652413,0.7430286,-0.09420385,0.14088413,0.6474455,0.056252453,-0.27531627,-0.511658,1.0,0.0,0.0,0.0,0.0,0.0,0.0,-1.5055298,0.014642328,-0.92228645,3.6724806,-27.32513,-37.58159,-1.9786596,-19.922363,-1.4775634,-0.37924647
-67.43854,-128.07565,-65.671745,24.186892,7.3208537,-1.0766187,-1.1459348,-0.7306837,-0.19938615,-0.45592153,-0.7858078,-0.37966663,0.5925436,0.47180498,0.7582034,-0.2614285,-1.518644,-1.4709443,2.5485818,1.5804456,-0.93472946,0.81818163,-0.23945284,-1.4784381,-1.406434,2.5875099,1.5254942,-0.9789135,-1.2962247,0.099612914,-0.6306894,-1.4083306,0.01773885,0.4260182,0.29889137,0.8255005,-0.41275024,1.4565607,-3.0025012,0.18905798,-1.5967466,0.25247955,-0.27015305,0.959672,0.7459929,-0.08785859,0.14343077,0.64436245,-0.14264975,-0.54547596,-0.5735673,1.0,0.0,0.0,0.0,0.0,0.0,0.0,-1.4755005,0.012750238,-0.9065607,5.096817,-41.64179,-36.761303,-0.48847198,-31.413885,-1.6643643,-0.30781627
-58.680824,-120.91532,-54.294415,27.11402,7.0593605,-0.027182698,-0.5222654,-0.7055835,-0.45312458,-0.3004541,-0.7756006,-0.5240552,0.6172609,0.50170493,0.74762326,-0.2847653,-1.5084835,-1.4839941,2.5351043,1.5872203,-0.928743,0.80550635,-0.24212337,-1.4857452,-1.4204607,2.5853088,1.5297285,-0.9758732,-1.2530624,-0.39035702,-0.7687755,-1.3987603,-0.30031037,0.42087352,0.30473286,0.7954979,-0.41086197,1.4398687,-2.9994993,0.18886895,-1.6933361,0.24956131,-0.27719688,0.9536379,0.74968684,-0.08107868,0.14515282,0.64056724,-0.34891894,-0.7571768,-0.6141819,1.0,0.0,0.0,0.0,0.0,0.0,0.0,-1.4454979,0.010861963,-0.8898687,5.76787,-49.322437,-15.214086,1.5178204,-32.107185,-1.0710418,0.31046867
-40.17708,-91.324554,-34.19605,25.86701,5.692882,0.6844983,0.1453391,-0.6654834,-0.62942284,-0.19998494,-0.79288185,-0.54056895,0.62298787,0.53253436,0.738958,-0.30506566,-1.5057437,-1.499749,2.531252,1.5920273,-0.92261976,0.79335177,-0.2495265,-1.4930198,-1.4344378,2.5804756,1.5339361,-0.97274035,-1.198994,-0.85793877,-0.717796,-1.3948642,-0.5448492,0.41953894,0.31602448,0.765522,-0.4089737,1.4222115,-2.9965003,0.18868011,-1.7898291,0.24485016,-0.28575897,0.9473033,0.7534157,-0.07423797,0.14566459,0.63689506,-0.5187013,-0.8859571,-0.641135,1.0,0.0,0.0,0.0,0.0,0.0,0.0,-1.415522,0.008973688,-0.8722115,6.573868,-47.04274,3.8447142,1.0823965,-24.603903,-0.4995525,1.0967731
-7.52584,-33.87739,-1.7138505,20.378405,2.5917518,1.0320498,0.9174941,-0.5110775,-0.68789643,-0.090972915,-0.8108781,-0.5502764,0.60542953,0.55139107,0.742244,-0.31831616,-1.5021172,-1.5155256,2.5254478,1.5944791,-0.9176012,0.78231585,-0.26063684,-1.49874,-1.4484816,2.5738418,1.5381438,-0.969474,-1.0704055,-1.1958942,-0.52569336,-1.4061084,-0.70276934,0.42131492,0.330761,0.7355766,-0.40708923,1.4035902,-2.9935045,0.18849148,-1.8862256,0.23918152,-0.29471397,0.94079,0.7564047,-0.06765643,0.1449884,0.63423413,-0.5889603,-0.8927537,-0.6572118,1.0,0.0,0.0,0.0,0.0,0.0,0.0,-1.3855766,0.0070892274,-0.8535902,13.280034,-33.941246,18.53645,-0.6677151,-15.741909,0.20109415,1.6581118
18.07418,12.329361,21.375322,14.400831,-0.040653437,0.73131233,1.2974744,-0.24588421,-0.7280722,-0.17270145,-0.7990104,-0.5957185,0.5874645,0.52198535,0.75772744,-0.33344406,-1.51601,-1.5283825,2.51427,1.5968902,-0.9172755,0.773625,-0.27406648,-1.5028884,-1.4626112,2.5660484,1.5423723,-0.9660894,-0.8037761,-1.3920393,-0.37710434,-1.4150003,-0.8040852,0.4241378,0.34179166,0.7056618,-0.40520477,1.3840057,-2.9905117,0.18830302,-1.9825257,0.2335167,-0.30318832,0.93414533,0.75815886,-0.061494052,0.14347947,0.6331091,-0.5631797,-0.8244945,-0.67012304,1.0,0.0,0.0,0.0,0.0,0.0,0.0,-1.3556617,0.005204767,-0.83400565,26.137901,-19.63439,15.0577545,-0.76577663,-9.968054,0.55375695,1.3505816
28.953733,33.317295,27.79469,8.649835,-1.2776346,-0.14970094,1.2299502,0.05635074,-0.7627124,-0.41404304,-0.79295003,-0.61020607,0.5941213,0.48775983,0.7792601,-0.3503377,-1.5442927,-1.5419062,2.5050278,1.6017845,-0.91731346,0.7686802,-0.28864387,-1.5070446,-1.4767962,2.5575798,1.5466295,-0.9626381,-0.3960342,-1.4795675,-0.42481276,-1.419842,-0.8609592,0.42690584,0.34686434,0.67577744,-0.40332413,1.3634589,-2.9875216,0.18811475,-2.0787294,0.22854233,-0.31095505,0.9272785,0.7586451,-0.05560005,0.14152607,0.63351125,-0.47903183,-0.7523269,-0.69561595,1.0,0.0,0.0,0.0,0.0,0.0,0.0,-1.3257774,0.0033241212,-0.81345886,39.38902,-8.723116,-3.6758304,-0.5681038,-5.5372596,0.4784286,0.7040322
27.196075,37.263565,24.700808,7.7010813,-1.2898016,-0.6828668,0.88326204,0.15008815,-0.7756043,-0.49971923,-0.78961647,-0.59095675,0.5829482,0.47576392,0.783689,-0.3662043,-1.5570165,-1.5557578,2.4984841,1.6049243,-0.9150617,0.76763785,-0.30354932,-1.51249,-1.4909925,2.5488365,1.5508963,-0.95916194,-0.011401113,-1.4941937,-0.580527,-1.4198792,-0.8786717,0.4269318,0.34821594,0.6459236,-0.40144348,1.3419508,-2.9845347,0.18792668,-2.1748369,0.22444153,-0.3181553,0.92010933,0.7581537,-0.049732815,0.13940428,0.635056,-0.38661036,-0.70155954,-0.7278571,1.0,0.0,0.0,0.0,0.0,0.0,0.0,-1.2959236,0.0014434755,-0.79195076,37.11992,-1.4558315,-14.421558,-0.11575222,-1.7191172,0.073093176,0.261122
14.649893,26.650074,13.585941,10.137357,-0.2979662,-0.9066832,0.32256204,0.14106427,-0.78330344,-0.58137304,-0.793394,-0.5587984,0.55334824,0.4248607,0.7817443,-0.38187966,-1.5706273,-1.5703319,2.4929566,1.6062311,-0.91667587,0.76944697,-0.3183389,-1.5198982,-1.5051851,2.5401466,1.5551325,-0.955723,0.24263905,-1.4740815,-0.79183537,-1.4191912,-0.8660841,0.42232323,0.34261507,0.6161003,-0.39956665,1.3194823,-2.981551,0.18773879,-2.2708483,0.2210083,-0.32514954,0.9125819,0.75720483,-0.043633863,0.1372377,0.63710487,-0.32828176,-0.6922639,-0.7655091,1.0,0.0,0.0,0.0,0.0,0.0,0.0,-1.2661003,-0.00043335557,-0.7694823,24.679262,1.9552708,-20.46479,0.07207394,1.1656523,-0.5165577,-0.5150616
2.5692706,17.104479,5.2770452,14.413132,0.6387397,-0.66513735,-0.10568149,0.08733708,-0.7809891,-0.5912388,-0.79140157,-0.55146915,0.5538904,0.39848328,0.77818066,-0.39643782,-1.579022,-1.5843253,2.4849997,1.6105216,-0.91587466,0.7725569,-0.33283332,-1.5291564,-1.5193529,2.531659,1.559321,-0.95236605,0.33384734,-1.4415536,-0.9703329,-1.4156104,-0.84405726,0.4173639,0.33333787,0.5863075,-0.39768982,1.2960545,-2.97857,0.18755108,-2.3667636,0.21783066,-0.33221436,0.90470994,0.7562576,-0.037188806,0.13507669,0.6390975,-0.31100613,-0.70520854,-0.7994944,1.0,0.0,0.0,0.0,0.0,0.0,0.0,-1.2363075,-0.0023101866,-0.7460545,9.130943,3.1455517,-17.800117,0.48627853,1.9919515,-0.57890415,-0.9472072
-2.295115,14.802448,3.941797,17.412643,0.97426486,-0.23787417,-0.20878561,0.07152785,-0.78081936,-0.5648507,-0.7915774,-0.5606247,0.5670836,0.41733572,0.7797097,-0.41091526,-1.5856415,-1.5985106,2.4755964,1.6160294,-0.9106325,0.77577746,-0.34703258,-1.5395801,-1.5334845,2.5233467,1.5634733,-0.94908446,0.31957543,-1.4131774,-1.067372,-1.4117193,-0.8276333,0.41439638,0.32625824,0.55654526,-0.3958168,1.2716682,-2.975592,0.18736358,-2.462583,0.21466064,-0.33937836,0.8965654,0.75548375,-0.030457504,0.1329313,0.6408166,-0.31560817,-0.71416175,-0.8248612,1.0,0.0,0.0,0.0,0.0,0.0,0.0,-1.2065452,-0.004183203,-0.7216682,-0.99633336,2.7105331,-10.028243,0.5727291,1.3870478,-0.35606623,-0.749284
-5.2506022,13.673883,4.011618,19.379131,1.2018023,0.15411729,-0.21698646,0.025388878,-0.7827046,-0.54237795,-0.7989754,-0.5420507,0.55601335,0.42427212,0.7783163,-0.42530304,-1.593818,-1.613382,2.4691415,1.6190747,-0.9066572,0.77830946,-0.36103538,-1.5503948,-1.547616,2.5152137,1.5675951,-0.9458601,0.23329373,-1.3964287,-1.0878044,-1.4129543,-0.8096589,0.41122591,0.3210588,0.5268135,-0.3939438,1.2463244,-2.972617,0.18717626,-2.5583067,0.21133041,-0.34658432,0.8882248,0.75490665,-0.023537748,0.13073622,0.6422382,-0.3359727,-0.7165367,-0.8427074,1.0,0.0,0.0,0.0,0.0,0.0,0.0,-1.1768135,-0.0060562193,-0.6963244,-7.961729,1.5363216,-2.5877476,0.096678734,1.5200615,-0.35353303,-0.55990815
-11.805145,8.835844,0.89297247,21.922441,1.7266965,0.49786967,-0.34453142,-0.092115246,-0.78422374,-0.5387794,-0.8006843,-0.52132136,0.5450439,0.42227587,0.7690979,-0.43945774,-1.6042727,-1.6276845,2.4630816,1.6220995,-0.9036325,0.77941096,-0.37495664,-1.5611007,-1.5617743,2.507283,1.5716807,-0.9426815,0.072068825,-1.3912199,-1.0672,-1.4158032,-0.7887898,0.40750036,0.31663957,0.49711227,-0.39207458,1.2200241,-2.969645,0.18698911,-2.6539347,0.20761108,-0.35385323,0.87974286,0.75462294,-0.016482823,0.12840964,0.64326006,-0.38181737,-0.72407323,-0.8554672,1.0,0.0,0.0,0.0,0.0,0.0,0.0,-1.1471123,-0.007925421,-0.6700241,-15.219408,0.35665035,1.315403,0.007557869,1.7611384,-0.40632486,-0.49214363
-17.179852,5.168829,-1.9547338,23.687551,2.0996244,0.72184795,-0.46997073,-0.19335657,-0.78403234,-0.5526473,-0.79550683,-0.5310014,0.5450887,0.407708,0.76007533,-0.45335987,-1.6163654,-1.641325,2.4541829,1.6261896,-0.90191066,0.7786118,-0.3888779,-1.5715663,-1.5759344,2.4994895,1.57573,-0.9395525,-0.12726228,-1.3929987,-1.042404,-1.4148053,-0.77719027,0.40408218,0.31150776,0.46744156,-0.39020538,1.1927682,-2.966676,0.18680216,-2.7494671,0.20329666,-0.3612442,0.87114555,0.75475574,-0.009317741,0.1259264,0.6437386,-0.44646892,-0.7371409,-0.8662753,1.0,0.0,0.0,0.0,0.0,0.0,0.0,-1.1174415,-0.009794623,-0.6427682,-18.92359,-0.36497116,1.6516685,0.45323372,0.79666376,-0.38888454,-0.5737066
-13.180862,8.972928,0.58841276,21.383535,1.6996878,0.6063242,-0.3430587,-0.1707503,-0.78089595,-0.5984773,-0.8010342,-0.55199325,0.5406485,0.42203575,0.7615368,-0.4669675,-1.631414,-1.6560378,2.4442902,1.6297948,-0.8973489,0.7762886,-0.40282252,-1.5820186,-1.5901041,2.4917114,1.5797468,-0.93645686,-0.26476723,-1.3955138,-1.048146,-1.4166443,-0.7792434,0.40054148,0.30870658,0.43779373,-0.38834,1.1645577,-2.9637098,0.18661541,-2.8449042,0.19844437,-0.3687172,0.86239594,0.7552383,-0.0020254452,0.12331972,0.6437416,-0.49621785,-0.7436245,-0.8827338,1.0,0.0,0.0,0.0,0.0,0.0,0.0,-1.0877937,-0.01166001,-0.6145577,-12.978708,-0.42250156,-1.2112617,0.13768673,-0.5280018,-0.42071342,-0.32128692
-12.851929,9.127183,0.4486525,20.248367,1.625159,0.5475222,-0.32403266,-0.2303362,-0.78788376,-0.6302259,-0.8024927,-0.5666303,0.5266142,0.40820625,0.753255,-0.4816109,-1.6450412,-1.6703534,2.4350483,1.6324083,-0.89563626,0.77280486,-0.41682485,-1.5927341,-1.6042967,2.4838378,1.5837198,-0.93339366,-0.37407357,-1.4023905,-1.0812342,-1.4192576,-0.7909194,0.3958223,0.30532107,0.40817642,-0.3864746,1.1353935,-2.9607465,0.18642883,-2.9402454,0.19312286,-0.37627983,0.853441,0.7560216,0.005440394,0.120614566,0.6433146,-0.5433662,-0.75159353,-0.9045857,1.0,0.0,0.0,0.0,0.0,0.0,0.0,-1.0581764,-0.013525397,-0.5853935,-10.267532,-0.85783005,-3.8554668,0.06735325,-1.4826179,-0.5676627,-0.3738284
-14.152572,9.0409155,-0.14118838,20.074877,1.7233973,0.6039407,-0.3505985,-0.31374472,-0.78934747,-0.6490699,-0.8036656,-0.54832685,0.5289225,0.39712352,0.7414304,-0.4957596,-1.657641,-1.6846633,2.4290051,1.636612,-0.8936813,0.7682358,-0.43089727,-1.603873,-1.6185198,2.4758995,1.587649,-0.93036956,-0.48231268,-1.4094555,-1.1263875,-1.4220533,-0.7958136,0.39153308,0.30138192,0.37858963,-0.38461304,1.1052766,-2.9577866,0.18624243,-3.0354917,0.18730164,-0.3839302,0.84424996,0.7571226,0.013116015,0.117775254,0.64243466,-0.59545875,-0.7612456,-0.9285285,1.0,0.0,0.0,0.0,0.0,0.0,0.0,-1.0285896,-0.015386969,-0.5552766,-10.175199,-0.8855343,-5.044532,0.070786476,-0.81573725,-0.5511403,-0.42474866
-15.309849,9.980005,0.15201283,20.341288,1.8148332,0.75442535,-0.36149356,-0.39550808,-0.7918518,-0.6507879,-0.8045508,-0.52468914,0.5136671,0.3902589,0.728685,-0.5100824,-1.6689517,-1.6989748,2.4234304,1.6390157,-0.89134365,0.7625071,-0.4450374,-1.615401,-1.6327677,2.468003,1.5915266,-0.9273855,-0.6008874,-1.4161623,-1.1634912,-1.4244213,-0.78868204,0.3862348,0.29735497,0.34903336,-0.38275146,1.0742079,-2.9548295,0.18605623,-3.1306427,0.18091202,-0.3916645,0.8348327,0.75855535,0.020997223,0.114730395,0.6410849,-0.65340084,-0.7684364,-0.9507412,1.0,0.0,0.0,0.0,0.0,0.0,0.0,-0.99903333,-0.017248541,-0.5242079,-11.194468,-0.85902214,-4.249072,0.13151169,0.37704706,-0.6628692,-0.42371154
-17.482016,10.042379,-0.076063395,20.94777,1.9689797,0.9572942,-0.3981891,-0.48504037,-0.80072176,-0.6550902,-0.80423206,-0.5092902,0.51031303,0.35478532,0.714003,-0.5251096,-1.6809101,-1.7131909,2.417074,1.642558,-0.891907,0.7554594,-0.4592686,-1.6272113,-1.647027,2.4602363,1.5953547,-0.92446345,-0.7370902,-1.4261053,-1.188739,-1.425211,-0.7737263,0.38109863,0.29048043,0.3195076,-0.3808937,1.0421884,-2.9518752,0.18587022,-3.2256985,0.17387772,-0.39946365,0.8252115,0.7603492,0.029051688,0.1114038,0.6392294,-0.7206272,-0.7734663,-0.9705612,1.0,0.0,0.0,0.0,0.0,0.0,0.0,-0.9695076,-0.019106299,-0.4921884,-12.922978,-1.1969328,-3.0913353,0.32043457,1.1448383,-0.65938234,-0.6981194
-18.68837,11.915432,0.65122247,21.398567,1.999452,1.1597972,-0.4293963,-0.5707968,-0.7988055,-0.65922654,-0.8020446,-0.4933998,0.50173575,0.31013837,0.69837976,-0.53914917,-1.693134,-1.7272315,2.4108963,1.6455282,-0.8934496,0.74695265,-0.47357324,-1.6391914,-1.6612768,2.4526565,1.5991293,-0.92163867,-0.88614905,-1.4325838,-1.2030292,-1.4236073,-0.7536745,0.3757881,0.2798201,0.29001236,-0.37903595,1.009219,-2.9489238,0.18568438,-3.3206592,0.1661377,-0.40727806,0.81541866,0.7625303,0.037238058,0.1077545,0.6368279,-0.7930653,-0.77271926,-0.986741,1.0,0.0,0.0,0.0,0.0,0.0,0.0,-0.94001234,-0.020964056,-0.45921904,-14.193511,-0.86057186,-2.003622,0.57554245,1.646769,-0.6815672,-1.0703504
-20.798765,12.160486,0.3010373,21.934868,2.1335297,1.3313391,-0.5080527,-0.6573752,-0.807074,-0.67509943,-0.79416966,-0.47451636,0.4955212,0.17506135,0.6812151,-0.55428064,-1.7067013,-1.7406938,2.4052048,1.6486814,-0.90413254,0.73689616,-0.48795798,-1.6513145,-1.6754694,2.4453056,1.6028506,-0.91901416,-1.0431008,-1.4411805,-1.217346,-1.4163713,-0.72977865,0.37038,0.25667456,0.26054764,-0.3771801,0.9753009,-2.9459753,0.18549873,-3.415525,0.15761566,-0.4150753,0.8054786,0.76515716,0.045515347,0.10373984,0.6337988,-0.8736002,-0.7702192,-1.0008332,1.0,0.0,0.0,0.0,0.0,0.0,0.0,-0.9105476,-0.022819906,-0.4253009,-14.977431,-1.0859728,-2.0052433,1.1697292,2.0244002,-0.70927143,-2.309364
-20.170801,14.498594,1.7129412,21.809702,2.1151621,1.4478018,-0.5614626,-0.71718913,-0.81151426,-0.68405855,-0.78273135,-0.42508873,0.48792312,-0.0863256,0.6651772,-0.56910944,-1.7197204,-1.7537426,2.4027967,1.6516429,-0.9276467,0.72537005,-0.50243,-1.6635749,-1.689538,2.4383056,1.6065184,-0.91680545,-1.1869817,-1.4499747,-1.2307483,-1.40237,-0.69111615,0.36497205,0.20903037,0.23111343,-0.37532616,0.9404348,-2.94303,0.18531327,-3.5102959,0.14829636,-0.42281723,0.79542106,0.7682831,0.053825445,0.09928704,0.6300681,-0.95406985,-0.762663,-1.0117148,1.0,0.0,0.0,0.0,0.0,0.0,0.0,-0.8811134,-0.02467385,-0.3904348,-13.732028,-1.1047125,-1.8568516,1.8413067,3.525126,-0.7088542,-4.7385454
-16.698029,19.071438,5.125056,21.11119,2.041028,1.5348517,-0.5269542,-0.7565995,-0.81083983,-0.67814916,-0.771313,-0.2858183,0.50358164,-0.30344433,0.6497101,-0.583514,-1.7313899,-1.7666693,2.4097238,1.6568766,-0.9471499,0.71262133,-0.516965,-1.6759002,-1.7034311,2.4320648,1.61015,-0.91521186,-1.3024138,-1.4553818,-1.2344009,-1.3837335,-0.60259455,0.36206874,0.14298664,0.20170212,-0.37347412,0.9046217,-2.9400878,0.185128,-3.6049721,0.13820648,-0.4304409,0.78529763,0.7719036,0.062084913,0.0942091,0.6256476,-1.0282394,-0.74800295,-1.0167217,1.0,0.0,0.0,0.0,0.0,0.0,0.0,-0.8517021,-0.026525885,-0.3546217,-11.003351,-0.7497072,-0.7771492,2.2548914,8.568705,-0.43990016,-6.535718
-10.713187,26.099133,10.349474,20.175032,1.8653903,1.5751736,-0.41098496,-0.77238995,-0.7995093,-0.66521984,-0.7580758,-0.088627465,0.52671117,-0.42322323,0.63538235,-0.5969159,-1.7424222,-1.7792387,2.423202,1.662821,-0.9575342,0.69902194,-0.53147703,-1.6881568,-1.7171144,2.4272316,1.6137778,-0.9143221,-1.3778415,-1.4503345,-1.2237328,-1.3621042,-0.4442171,0.36261111,0.071336195,0.17232132,-0.371624,0.8678546,-2.9371483,0.18494292,-3.700619,0.12748718,-0.4378624,0.7751844,0.77594066,0.07019021,0.08824404,0.6206468,-1.088963,-0.724723,-1.013562,1.0,0.0,0.0,0.0,0.0,0.0,0.0,-0.8223213,-0.028376013,-0.31785458,-7.159233,0.32753944,0.7982254,2.4599552,15.637886,-0.057059526,-7.049249
-7.0046563,29.977211,13.1957445,19.27314,1.5998833,1.5694667,-0.33573627,-0.79156554,-0.7963172,-0.67094815,-0.73765284,-0.014564476,0.5433711,-0.47032738,0.61986536,-0.6111088,-1.7552516,-1.7908797,2.425775,1.6681149,-0.9613548,0.68489325,-0.5459052,-1.7003124,-1.7305346,2.4240463,1.6174303,-0.91411895,-1.4235572,-1.4408437,-1.2133629,-1.3344257,-0.27687308,0.36564097,0.003681609,0.14297104,-0.36977577,0.8301317,-2.9342117,0.18475801,-3.7961702,0.116249084,-0.44500542,0.7651259,0.7803079,0.07806117,0.081323616,0.61515236,-1.1380886,-0.6956822,-1.0071933,1.0,0.0,0.0,0.0,0.0,0.0,0.0,-0.792971,-0.030224234,-0.2801317,-4.2973995,0.7965088,0.86984634,3.0072927,16.598827,0.22340417,-6.6466794
-3.5520105,33.040283,15.201966,17.198677,1.1180888,1.4735883,-0.2471911,-0.80016017,-0.7868639,-0.6801898,-0.73754007,0.013669165,0.5412323,-0.47829184,0.60487723,-0.6245916,-1.7683314,-1.8042885,2.4254131,1.6715536,-0.96194816,0.67048705,-0.56019884,-1.7124221,-1.7437353,2.4223258,1.6211115,-0.9145252,-1.4456644,-1.426018,-1.2105718,-1.31445,-0.1372763,0.36874402,-0.055066157,0.113651276,-0.36792946,0.791454,-2.931278,0.18457328,-3.891626,0.10463333,-0.45181656,0.7550988,0.784894,0.085704036,0.073580675,0.6092472,-1.1714597,-0.6598757,-1.005045,0.0,1.0,0.0,0.0,0.0,0.0,0.0,-0.76365125,-0.032070547,-0.241454,-2.0157814,1.3526678,0.17237663,2.1937847,13.866133,0.25473237,-5.7764263
-1.2455099,34.940697,16.344276,15.299488,0.3181572,1.4105635,-0.19354284,-0.8061413,-0.7817159,-0.6930388,-0.7266704,-0.16017292,0.5652379,-0.5019062,0.5898729,-0.63837045,-1.781726,-1.8164023,2.4063087,1.6776353,-0.96471584,0.65628856,-0.5742554,-1.7258735,-1.7572534,2.4191043,1.6294533,-0.9148196,-1.4130235,-1.400118,-1.3787284,-1.3576757,-0.36661428,0.9298514,-0.036637355,0.0963707,-0.3695202,0.7917525,-1.5158329,-0.19894129,0.9450612,0.092601776,-0.4575901,0.74469817,0.7893948,0.0914466,0.06645903,0.6033876,-1.211071,-0.539911,-1.0514051,0.0,1.0,0.0,0.0,0.0,0.0,0.0,-0.7463707,-0.030479819,-0.2417525,-0.32794476,1.4340639,-1.679039,2.3515463,2.5445402,0.43102503,-4.667615
75.876656,176.0,110.0,93.34224,-6.6193643,8.113898,-0.5028616,-0.80224216,0.4113409,0.6392954,0.761637,-0.29695192,0.6233405,-0.4595235,0.57606435,-0.53312135,-1.6619439,-1.6810898,2.389409,1.6917874,-0.9607719,0.6467871,-0.584681,-1.7396331,-1.7612913,2.4088962,1.645002,-0.91446483,-0.801012,-0.92295367,-1.3654996,-0.091099575,-1.2352546,1.7707777,0.054438185,0.081222534,-0.37150764,0.8004516,-1.5143174,-0.19874239,0.8448652,0.082099915,-0.4608841,0.7382232,0.7938165,0.08982429,0.065183654,0.5979447,-0.9963264,-0.24364197,-0.5146625,1.0,0.0,0.0,0.0,0.0,0.0,0.0,-0.7312225,-0.028492361,-0.25045156,59.638203,47.85136,4.141903,125.03279,-85.784615,86.40111,7.5702057
15.496786,121.20729,76.45414,95.15448,0.5739738,5.7051654,-0.93644375,-0.8202002,-0.42538258,0.116537556,0.7861961,-0.5956687,0.54370046,-0.25310448,0.56476706,-0.62721926,-1.7279793,-1.6826717,2.3493292,1.699372,-0.9397753,0.6386656,-0.5922312,-1.7491755,-1.7549837,2.3954074,1.6623207,-0.91409194,-0.8154618,-0.7001511,-0.81494147,0.87066954,-1.3887438,1.7243966,0.030288054,0.06608963,-0.3734932,0.80814946,-1.5128033,-0.19854368,0.74476933,0.0724144,-0.4624939,0.73672676,0.7987076,0.08208116,0.067877784,0.5922174,-0.95912266,-0.12365814,-0.03145231,1.0,0.0,0.0,0.0,0.0,0.0,0.0,-0.7160896,-0.026506811,-0.25814945,-1.3225555,21.950674,55.74044,95.90525,-15.901971,-3.0192614,-2.7751272
-17.647394,91.04698,39.19221,74.73516,2.5340254,3.4593792,-1.5021399,-0.807736,-0.12707447,-0.43075943,0.7532993,-0.64750814,0.59361446,0.1741149,0.557892,-0.6049387,-1.7922515,-1.6796538,2.3306565,1.7216822,-0.8966805,0.6292538,-0.5971083,-1.7557502,-1.741678,2.3816974,1.6784168,-0.9137,-0.98076266,-0.4180934,-0.6061515,1.4844682,-1.3662201,1.5743871,0.041607328,0.050971985,-0.37547684,0.8148472,-1.5112909,-0.19834518,0.64477354,0.062454224,-0.46343422,0.7386755,0.8045509,0.07152185,0.07269677,0.58506215,-1.0069269,-0.07747055,0.26534745,1.0,0.0,0.0,0.0,0.0,0.0,0.0,-0.70097196,-0.024523169,-0.26484716,-15.831268,27.865093,20.514465,61.55207,1.799655,-14.137459,0.94074833
-35.653534,49.75184,9.051249,49.631912,3.4767838,1.7060118,-1.4392378,-0.79858506,-0.13755225,-0.5365361,0.80062425,-0.66739523,0.59998536,0.06880919,0.5493953,-0.6108635,-1.8094038,-1.6616156,2.3149579,1.7384154,-0.90681905,0.61786693,-0.59996456,-1.7618499,-1.7247236,2.3688648,1.6928059,-0.91326797,-1.1892893,-0.24216056,-0.61286956,1.7664461,-1.2561554,1.395017,0.04347508,0.0358696,-0.37745857,0.8205457,-1.5097799,-0.19814688,0.54487777,0.051647186,-0.46429062,0.7422363,0.81139684,0.060496885,0.078518435,0.5760296,-1.1051878,-0.08071849,0.38115653,1.0,0.0,0.0,0.0,0.0,0.0,0.0,-0.6858696,-0.022541434,-0.27054566,-20.218325,17.359287,-1.2174368,28.441954,10.909009,-17.588829,0.10750964
-42.337208,10.947442,-12.962969,27.028954,3.632245,0.38543895,-1.0961416,-0.81491,-0.23027864,-0.6135549,0.79309165,-0.67557085,0.634512,-0.043204054,0.53637594,-0.6229924,-1.8232054,-1.6454144,2.3013077,1.756257,-0.91758835,0.60464805,-0.60219043,-1.7691474,-1.7068231,2.357165,1.7055413,-0.91289985,-1.364523,-0.21641624,-0.7701098,1.7986227,-1.1405479,1.2331902,0.03453892,0.02078247,-0.3794384,0.8252459,-1.5082704,-0.19794877,0.44508183,0.03968811,-0.46545792,0.74584544,0.8190352,0.050548106,0.08433502,0.5652556,-1.226484,-0.11944747,0.34961262,1.0,0.0,0.0,0.0,0.0,0.0,0.0,-0.67078245,-0.020561606,-0.2752459,-17.05587,2.4739714,-16.122341,3.4469128,11.721683,-16.138315,-0.92666817
-35.44367,-5.518372,-17.664665,12.829566,2.8902795,-0.23425138,-0.59436256,-0.81523144,-0.27940032,-0.6206832,0.7945819,-0.67331177,0.62336135,-0.07866813,0.52312493,-0.63013047,-1.8312157,-1.6273649,2.289834,1.7678773,-0.92076665,0.59018654,-0.60491604,-1.7781653,-1.6895521,2.346442,1.7168251,-0.91264904,-1.4723456,-0.29145607,-0.9466021,1.7039115,-1.0490613,1.0932511,0.021899587,0.005710602,-0.38141632,0.828949,-1.5067625,-0.19775087,0.34538567,0.026649475,-0.4670601,0.7486298,0.8271092,0.04232824,0.089552626,0.553244,-1.3295767,-0.16188277,0.25086948,1.0,0.0,0.0,0.0,0.0,0.0,0.0,-0.6557106,-0.018583685,-0.27894896,-10.46679,-7.5389805,-17.86623,-9.25312,9.264421,-14.045072,-1.2719728
-24.419136,-4.783177,-12.40234,7.160481,1.9847206,-0.30720735,-0.20299052,-0.819068,-0.30551946,-0.61533505,0.8021433,-0.65913856,0.6130086,-0.1065946,0.50827974,-0.635468,-1.8396988,-1.6093377,2.280528,1.778126,-0.9233085,0.5751032,-0.6086802,-1.7886043,-1.6734407,2.3364322,1.7268769,-0.91253746,-1.5196936,-0.40481454,-1.0765046,1.580712,-0.98507166,0.97566336,0.0075801676,-0.009346008,-0.38339233,0.8316558,-1.505256,-0.19755316,0.24578917,0.0128211975,-0.4689865,0.75036645,0.83528805,0.03581405,0.093989566,0.5405342,-1.4006102,-0.19008893,0.1445994,1.0,0.0,0.0,0.0,0.0,0.0,0.0,-0.64065397,-0.016607672,-0.2816558,-4.5446873,-11.363501,-13.075519,-12.112832,6.3732147,-11.793745,-1.4266331
-16.236609,-0.8016944,-6.504143,6.468535,1.4637587,-0.18603498,0.018008929,-0.8164291,-0.3653625,-0.6317549,0.8040516,-0.6517402,0.6091436,-0.13596302,0.4934603,-0.64521646,-1.8517797,-1.5930356,2.271258,1.7877913,-0.92613375,0.5598816,-0.613728,-1.7999625,-1.6583879,2.3268764,1.7359043,-0.9125775,-1.5226723,-0.5381686,-1.1555729,1.4807835,-0.94637764,0.87847567,-0.007816967,-0.02438736,-0.38536644,0.8333645,-1.503751,-0.19735564,0.14589854,-0.0015449524,-0.4711094,0.75113726,0.8433615,0.030684048,0.09764659,0.5275082,-1.4498243,-0.20588621,0.051296793,1.0,0.0,0.0,0.0,0.0,0.0,0.0,-0.6256126,-0.014633566,-0.28336447,-0.18537045,-13.371396,-7.9039335,-9.781623,3.755796,-9.713804,-1.5157869
-10.963808,4.259166,-1.3194063,7.9297676,1.1845028,0.024273634,0.12795748,-0.8097901,-0.4332092,-0.6379444,0.8031614,-0.6526851,0.62225634,-0.14101408,0.4789026,-0.6570489,-1.863757,-1.5780717,2.261608,1.7981299,-0.9266789,0.54482216,-0.6201548,-1.8117652,-1.6440332,2.3175495,1.7441021,-0.9127606,-1.500212,-0.6777458,-1.188159,1.420932,-0.9285277,0.8002907,-0.021650719,-0.039413452,-0.38733864,0.834075,-1.5022477,-0.19715834,0.046107773,-0.016296387,-0.47330666,0.7511236,0.85121846,0.026545415,0.10060354,0.5143941,-1.4854028,-0.21034884,-0.022418343,1.0,0.0,0.0,0.0,0.0,0.0,0.0,-0.6105865,-0.012661368,-0.28407496,2.3109198,-14.010799,-3.1935215,-5.7702303,1.625371,-7.7745795,-1.3476074
-8.134478,10.930032,3.0099082,10.077011,1.0146526,0.25081927,0.11693396,-0.8062921,-0.48176673,-0.6381756,0.799944,-0.64849824,0.6316561,-0.23364863,0.46419293,-0.66833144,-1.8755827,-1.5640388,2.2526996,1.8072678,-0.93612546,0.5300383,-0.62787,-1.8236499,-1.6300142,2.308314,1.7516342,-0.9131354,-1.4709452,-0.80299675,-1.1883943,1.3960311,-0.92206573,0.73767596,-0.04271808,-0.054424286,-0.38930893,0.8337883,-1.5007458,-0.19696121,-0.053583223,-0.031333923,-0.47546768,0.7505236,0.8588352,0.02305932,0.10299369,0.50126094,-1.511669,-0.20363331,-0.0764798,1.0,0.0,0.0,0.0,0.0,0.0,0.0,-0.5955757,-0.0106910765,-0.28378826,2.969408,-12.603891,0.07414818,-2.2846699,0.45425892,-6.192243,-2.0788743
-5.4027233,19.703772,7.612743,11.968155,0.75568354,0.45386472,0.10414705,-0.79552007,-0.5108847,-0.6254815,0.8021348,-0.6598651,0.63881016,-0.26902694,0.4504863,-0.6789585,-1.886198,-1.5498008,2.2423277,1.8155153,-0.9400381,0.5155539,-0.6366133,-1.835361,-1.6160543,2.2990634,1.7586342,-0.9137343,-1.4408399,-0.89845693,-1.1648886,1.3965622,-0.9269582,0.68773556,-0.06564061,-0.06941986,-0.3912773,0.83250546,-1.4992453,-0.19676429,-0.15317456,-0.04655075,-0.4774723,0.74952877,0.8662044,0.019977022,0.10501639,0.48812136,-1.5252247,-0.18486054,-0.11150512,1.0,0.0,0.0,0.0,0.0,0.0,0.0,-0.5805801,-0.008722693,-0.28250545,3.0312061,-9.652901,2.4744034,0.22115707,-0.718832,-4.8930407,-2.2951932
-4.0855174,28.503859,11.058551,13.459841,0.52475965,0.59779537,0.07087869,-0.790086,-0.5180264,-0.6236547,0.8037239,-0.66778606,0.6350698,-0.2535293,0.43654528,-0.68841594,-1.8977265,-1.535682,2.2322848,1.8221412,-0.9390873,0.5013241,-0.646007,-1.846807,-1.6019952,2.2897213,1.7652031,-0.9145335,-1.4170265,-0.9535551,-1.137377,1.4094108,-0.9378765,0.6469394,-0.08479145,-0.08440018,-0.3932438,0.8302275,-1.4977463,-0.19656757,-0.25266632,-0.06180954,-0.4792137,0.7482948,0.8733259,0.0171703,0.10690471,0.47495103,-1.5281204,-0.1563011,-0.1321891,1.0,0.0,0.0,0.0,0.0,0.0,0.0,-0.5655998,-0.0067562163,-0.28022748,2.3977995,-5.6440353,2.875185,1.4101982,-1.3494015,-3.9603353,-1.9631639
-2.6619363,34.594948,13.308621,13.866444,0.33313632,0.6505728,0.06550256,-0.77275133,-0.5300334,-0.6212081,0.8046773,-0.67261547,0.654129,-0.2435919,0.424049,-0.6990104,-1.9089278,-1.5215275,2.2224598,1.830616,-0.93889266,0.4873338,-0.6557402,-1.8580108,-1.5877912,2.2802532,1.7714344,-0.9154948,-1.3930119,-0.98030835,-1.1143538,1.4245539,-0.95043564,0.6156017,-0.10013098,-0.099365234,-0.39520836,0.8269553,-1.496249,-0.19637103,-0.35205862,-0.077041626,-0.48062706,0.7469083,0.88019305,0.014592717,0.108827524,0.4617398,-1.521917,-0.122517936,-0.14576083,1.0,0.0,0.0,0.0,0.0,0.0,0.0,-0.55063474,-0.004791647,-0.2769553,2.402711,-2.8231025,2.4325132,1.6025066,-1.5268564,-3.005302,-1.6134113
-6.0535326,31.091606,10.084124,13.499017,0.5445368,0.57768416,0.018088356,-0.7707907,-0.5738846,-0.6500852,0.799476,-0.6727375,0.6458997,-0.21161461,0.41025472,-0.7131287,-1.9230193,-1.5078436,2.2129793,1.8360244,-0.93665624,0.47352794,-0.66577476,-1.8691936,-1.5734823,2.270682,1.7773892,-0.9165629,-1.3763009,-1.0116552,-1.119065,1.4334387,-0.9600325,0.5891005,-0.10934225,-0.11431503,-0.39717102,0.82268995,-1.494753,-0.19617471,-0.45135155,-0.0922966,-0.48173904,0.7453115,0.8868386,0.012311917,0.11078053,0.44843417,-1.5266114,-0.09365604,-0.1694112,1.0,0.0,0.0,0.0,0.0,0.0,0.0,-0.53568494,-0.0028289855,-0.27268994,1.7107487,-3.2777548,-0.38137436,1.0231018,-1.1861563,-2.5599718,-0.9872988
-3.9893253,32.95106,11.065715,12.426693,0.35426614,0.5307258,0.08060826,-0.742061,-0.5852536,-0.6424626,0.7991996,-0.69476086,0.6618802,-0.17203477,0.39932182,-0.72430015,-1.9334399,-1.4935623,2.201206,1.8435771,-0.93376637,0.45995906,-0.67608684,-1.8804488,-1.5591238,2.2609737,1.7831284,-0.9176768,-1.3503629,-1.0381982,-1.1272305,1.4368553,-0.9749496,0.568974,-0.11240735,-0.12924957,-0.39913177,0.8174324,-1.4932585,-0.19597857,-0.55054516,-0.107536316,-0.4825573,0.74346554,0.89323896,0.010359346,0.11277906,0.43508354,-1.5233344,-0.06430114,-0.1948965,1.0,0.0,0.0,0.0,0.0,0.0,0.0,-0.5207504,-0.00086823106,-0.2674324,2.5987387,-2.794838,-0.7007122,0.45411587,-1.7220378,-1.918602,-0.38080513
-4.4936333,32.36825,10.373798,12.0217,0.3812254,0.50244623,0.074536055,-0.7326809,-0.6062971,-0.65080124,0.8013349,-0.70367473,0.67053485,-0.19434075,0.38669097,-0.73671657,-1.945529,-1.4789903,2.190606,1.8501818,-0.9371109,0.4466453,-0.6866841,-1.89183,-1.5447481,2.2511127,1.7886997,-0.91882694,-1.3249995,-1.0673293,-1.1413573,1.4380589,-0.99042785,0.5534431,-0.116163164,-0.14416885,-0.4010887,0.8111837,-1.4917656,-0.19578263,-0.64963955,-0.12275314,-0.48309135,0.7413394,0.89939064,0.008748189,0.114817224,0.42170718,-1.5213566,-0.036352653,-0.22380514,1.0,0.0,0.0,0.0,0.0,0.0,0.0,-0.5058311,0.0010887086,-0.26118368,2.5431871,-3.0520916,-1.2983084,0.24526119,-1.7665267,-1.4742851,-0.4444629
-3.4634376,28.029263,8.861955,9.862736,0.37213916,0.36864725,0.14792098,-0.7024258,-0.65523565,-0.66063964,0.7891125,-0.70322675,0.6713772,-0.1408277,0.3764027,-0.75220764,-1.957894,-1.4658368,2.18079,1.8558375,-0.9329097,0.43366387,-0.6977276,-1.903379,-1.5304315,2.2411296,1.7941395,-0.9199685,-1.2892597,-1.1171353,-1.1589532,1.4300498,-1.0016354,0.5408252,-0.11362065,-0.15907288,-0.40304565,0.8039532,-1.4902742,-0.19558689,-0.74751174,-0.13797379,-0.483387,0.7388431,0.9052768,0.0075026294,0.11678419,0.40838587,-1.5203072,-0.014203117,-0.26359054,1.0,0.0,0.0,0.0,0.0,0.0,0.0,-0.4909271,0.0030456483,-0.25395316,3.5570621,-5.099821,-1.6309261,-0.6598711,-1.3152599,-1.202941,0.21687299
-0.75284386,28.368155,9.5737,8.530028,0.25406724,0.27503085,0.19884194,-0.66644096,-0.67688555,-0.668345,0.78571177,-0.7005898,0.68169296,-0.14615029,0.36701977,-0.76541615,-1.9702134,-1.4518603,2.1710706,1.8623087,-0.93458354,0.42113927,-0.7092957,-1.9151053,-1.516216,2.231074,1.7994763,-0.9210843,-1.2403426,-1.1704091,-1.1766762,1.4191649,-1.0075307,0.53152096,-0.111032054,-0.17396164,-0.40499878,0.79574466,-1.4887842,-0.19539134,-0.8452861,-0.15312576,-0.48348808,0.73592776,0.91087806,0.0066184085,0.11860707,0.3952082,-1.5132053,0.0047605243,-0.3064082,1.0,0.0,0.0,0.0,0.0,0.0,0.0,-0.47603834,0.0049987733,-0.24574465,4.8363924,-5.438447,-1.615262,-0.9624958,-0.7853031,-0.8796096,0.23055673
0.6961231,27.303955,9.566928,7.190188,0.22623402,0.21113807,0.23367512,-0.6425343,-0.71670145,-0.6656305,0.7695355,-0.6860741,0.67796797,-0.17404287,0.35688585,-0.7809658,-1.9816684,-1.4392625,2.1624668,1.8672731,-0.93848854,0.40912822,-0.7214655,-1.9269519,-1.5021684,2.22103,1.8047291,-0.9221953,-1.1883171,-1.2328713,-1.18671,1.4002622,-1.0042197,0.5235456,-0.11116397,-0.18883514,-0.4069519,0.78655916,-1.4872956,-0.19519599,-0.94296265,-0.16820908,-0.4834137,0.7325524,0.91619253,0.0060745296,0.12019074,0.38224146,-1.5042557,0.020951627,-0.35369173,1.0,0.0,0.0,0.0,0.0,0.0,0.0,-0.46116483,0.0069518983,-0.23655915,5.127239,-6.349921,-0.83436966,-1.762104,0.13394356,-0.76203346,-0.019864738
1.8220387,28.460014,9.924773,6.6152587,0.19080782,0.1455946,0.24230374,-0.6120941,-0.7421768,-0.6829458,0.75608873,-0.672506,0.67782325,-0.18078366,0.3479188,-0.7956832,-1.9952464,-1.4265596,2.1537795,1.8725114,-0.9402737,0.39765933,-0.7342419,-1.938932,-1.4883478,2.2110736,1.8099133,-0.9233159,-1.1333729,-1.2929133,-1.2013148,1.3764956,-0.9934799,0.51685023,-0.11231502,-0.20369339,-0.4089012,0.7763845,-1.4858087,-0.19500083,-1.0422992,-0.18317795,-0.48319435,0.7286849,0.92122966,0.0058724876,0.12148129,0.36951807,-1.4928793,0.034872025,-0.40372607,1.0,0.0,0.0,0.0,0.0,0.0,0.0,-0.4463066,0.008901209,-0.22638446,5.407357,-6.1097145,-1.2868643,-2.2485256,0.87502,-0.6500006,-0.116965175
14.436826,35.045326,15.895144,3.5467005,-0.4346494,-0.09553087,0.4400083,-0.501686,-0.76180506,-0.66878396,0.74809307,-0.660953,0.66900206,-0.14619015,0.34749073,-0.8104224,-2.0058103,-1.4135385,2.1449783,1.8768135,-0.9379349,0.38711503,-0.7475514,-1.950954,-1.4747636,2.2012546,1.8150345,-0.9244231,-1.0288954,-1.3439864,-1.2016468,1.3523626,-0.9789589,0.5107094,-0.11028258,-0.218544,-0.41085052,0.7652171,-1.4843233,-0.19480588,-1.1415362,-0.19779587,-0.4828949,0.72436273,0.9259177,0.0059456406,0.12248429,0.3572655,-1.449787,0.039858386,-0.4480137,0.0,1.0,0.0,0.0,0.0,0.0,0.0,-0.43145597,0.010850519,-0.21521711,10.210991,-5.195546,0.26233196,-2.4098158,1.2024045,-0.56967735,0.18389523
21.547344,40.03409,19.242048,2.168435,-0.83994704,-0.26850253,0.5572028,-0.43074447,-0.7718933,-0.68080825,0.7399688,-0.6767376,0.66244686,-0.029169247,0.34404057,-0.8247407,-2.0190349,-1.4007667,2.133581,1.8812792,-0.92734003,0.3778024,-0.76126045,-1.9629989,-1.4614027,2.1915119,1.8200985,-0.9254235,-0.89974093,-1.3801244,-1.2042624,1.3304324,-0.97348493,0.5049407,-0.0967544,-0.23337936,-0.41279602,0.7530582,-1.4828392,-0.1946111,-1.240674,-0.21185303,-0.48260117,0.71963185,0.93019265,0.006269154,0.12329102,0.34569007,-1.3879249,0.037096992,-0.48779362,0.0,1.0,0.0,0.0,0.0,0.0,0.0,-0.4166206,0.012796015,-0.20305818,12.610245,-3.7011623,0.09036064,-2.2562265,0.27137995,-0.5265355,1.3057873
31.470558,43.930367,22.60758,-0.75601006,-1.3900328,-0.5751885,0.68355864,-0.31740186,-0.7821295,-0.70315677,0.7165888,-0.68821687,0.65520245,-0.03196193,0.3460622,-0.8394734,-2.0333145,-1.3897438,2.1226902,1.8856188,-0.9286197,0.37015685,-0.7752455,-1.9754033,-1.4484277,2.1818717,1.8256836,-0.9264674,-0.7216046,-1.4047939,-1.2497278,1.2870175,-0.9576031,0.57794046,-0.101753175,-0.24793243,-0.41207886,0.74979615,-1.4140677,0.10887352,-0.09887532,-0.22512436,-0.482378,0.71439654,0.9340254,0.0067013158,0.124003455,0.33492506,-1.3050319,0.027940368,-0.5410987,0.0,1.0,0.0,0.0,0.0,0.0,0.0,-0.40206754,0.012078851,-0.19979614,16.258835,-2.4505615,-1.083684,-2.9881,-0.40557384,-0.5796194,1.2582868
-5.08012,60.813194,19.766733,18.145447,0.31519377,0.8307407,0.09533235,-0.568525,-0.66897506,-0.61713606,0.7970215,-0.73910844,0.6438636,0.24825287,0.31330436,-0.842143,-2.037117,-1.3687255,2.1079607,1.89007,-0.90164214,0.36272296,-0.788842,-1.9876237,-1.4353261,2.172106,1.831419,-0.9271951,-0.750492,-1.3453544,-1.2121743,1.3180019,-0.98405606,0.5722585,-0.06369247,-0.2620659,-0.41099167,0.748056,-1.412654,0.10876466,-0.19905567,-0.23802567,-0.48184586,0.7091945,0.9375702,0.0071945447,0.1250879,0.32444304,-1.2810067,0.06988712,-0.5196887,0.0,1.0,0.0,0.0,0.0,0.0,0.0,-0.3879341,0.010991663,-0.19805598,-2.8393626,5.71723,3.9181232,3.151536,-3.0190468,-0.49124956,3.6234646
-20.898531,69.23156,18.11485,25.826233,1.0024674,1.3118975,-0.1501702,-0.5893751,-0.6131575,-0.647493,0.8072649,-0.748213,0.6499612,0.37615183,0.30378544,-0.8501578,-2.052373,-1.3545996,2.0972848,1.8964151,-0.8895799,0.35447177,-0.80151254,-1.9995198,-1.421763,2.1620276,1.8370476,-0.927444,-0.849315,-1.2419696,-1.1817579,1.3695475,-1.017246,0.559886,-0.012848293,-0.27618408,-0.40990448,0.7453148,-1.4112418,0.10865592,-0.2991359,-0.25086594,-0.48072243,0.7043822,0.9409515,0.007818513,0.12691385,0.31375462,-1.2817371,0.13495718,-0.47457042,0.0,1.0,0.0,0.0,0.0,0.0,0.0,-0.3738159,0.009904474,-0.19531476,-9.688473,10.051894,3.1292677,5.2729845,-3.7176967,-1.1604071,4.8413734
-30.934065,66.78005,13.429527,27.634438,1.4206369,1.3906,-0.29686925,-0.62225336,-0.58271986,-0.7004035,0.8001671,-0.7415275,0.6440744,0.38858634,0.29224643,-0.85978454,-2.0695603,-1.3417462,2.087875,1.901455,-0.8885853,0.34502515,-0.8131102,-2.0114067,-1.4077458,2.1516669,1.8425293,-0.9272084,-0.9755662,-1.1333321,-1.1913021,1.412958,-1.0437843,0.54427975,0.03484576,-0.29028702,-0.4088173,0.7415735,-1.4098309,0.10854729,-0.39911604,-0.26387405,-0.4788971,0.699962,0.94423866,0.008745603,0.12952901,0.3025874,-1.3029647,0.20667498,-0.43686113,0.0,1.0,0.0,0.0,0.0,0.0,0.0,-0.35971296,0.008817285,-0.1915735,-12.37837,10.560107,-0.91228485,4.533386,-3.00982,-1.5375257,4.527223
-27.484447,59.329407,11.130346,23.457426,1.2731069,1.1269603,-0.19422011,-0.6212576,-0.5828039,-0.71549785,0.79149264,-0.7378991,0.64032084,0.41372386,0.28289938,-0.8713906,-2.0829566,-1.3285966,2.077877,1.9065614,-0.88583606,0.33453235,-0.82386285,-2.0235488,-1.3934579,2.1411192,1.8478603,-0.9265256,-1.0732898,-1.0568593,-1.2212183,1.4348351,-1.059752,0.5292833,0.078797005,-0.3043747,-0.40773392,0.73683316,-1.4084213,0.10843877,-0.4989962,-0.27707672,-0.47643852,0.69574887,0.94742113,0.0101237325,0.13273697,0.29098353,-1.3222442,0.26817307,-0.4209134,0.0,1.0,0.0,0.0,0.0,0.0,0.0,-0.34562528,0.0077339113,-0.18683314,-9.595561,7.373905,-2.9095173,2.3851156,-1.920867,-1.5280366,4.1928716
-22.767302,56.993126,11.108932,20.19441,1.03814,0.9550586,-0.09337241,-0.6461505,-0.54528916,-0.73343194,0.7891135,-0.7354681,0.64099294,0.44329056,0.2699173,-0.87839174,-2.096892,-1.3145466,2.0675724,1.9119596,-0.88219655,0.3232561,-0.8339556,-2.0360687,-1.3790822,2.1304762,1.853056,-0.9254308,-1.1454097,-0.9942874,-1.2621711,1.4390033,-1.0668048,0.516125,0.11902979,-0.3184471,-0.40665054,0.7310948,-1.407013,0.10833035,-0.59877646,-0.2904091,-0.4734249,0.69160616,0.95045835,0.012025442,0.13636416,0.2790859,-1.3327906,0.32228616,-0.41653487,0.0,1.0,0.0,0.0,0.0,0.0,0.0,-0.33155286,0.0066505373,-0.18109477,-7.10299,6.0044765,-3.9644241,0.58140755,-1.0285854,-1.373744,3.8286686
-15.268798,49.8422,10.317238,15.283689,0.71321654,0.63686836,0.05274851,-0.64199346,-0.5562968,-0.75911015,0.78154755,-0.7471787,0.61525923,0.45002952,0.25905675,-0.88958526,-2.1119797,-1.3009274,2.0557585,1.9145819,-0.88042784,0.31155583,-0.84369534,-2.0490737,-1.3647825,2.1198072,1.858147,-0.92396134,-1.1760902,-0.96814555,-1.3187524,1.4244846,-1.0542058,0.52211875,0.1590633,-0.3323555,-0.40529633,0.7251496,-1.3268844,0.1894325,-0.3493746,-0.30379105,-0.46998024,0.6873478,0.95330924,0.0144987935,0.14019176,0.2670906,-1.3369014,0.36344528,-0.43502852,0.0,1.0,0.0,0.0,0.0,0.0,0.0,-0.31764448,0.0052963197,-0.17514956,-2.736473,2.3641229,-6.3798666,-1.7349243,2.8442621,2.501738,4.3459744
-13.835165,48.98486,10.670999,14.2878475,0.7256069,0.64533895,0.08879262,-0.68187827,-0.5419803,-0.7508529,0.77815664,-0.73435444,0.5978623,0.45623687,0.243368,-0.89789337,-2.124159,-1.2869668,2.0463717,1.9179332,-0.8783377,0.29956433,-0.8532788,-2.0624976,-1.3506643,2.1093252,1.8633296,-0.9221378,-1.206819,-0.9557097,-1.3499038,1.4078858,-1.0474296,0.51590407,0.1896522,-0.3454361,-0.40343666,0.7215306,-1.3037715,0.18926127,-0.36591783,-0.3171959,-0.46612358,0.6828936,0.9559643,0.01741058,0.14403065,0.25511584,-1.337018,0.4032011,-0.45270476,0.0,1.0,0.0,0.0,0.0,0.0,0.0,-0.30456388,0.0034366548,-0.1715306,-3.053236,1.0430574,-2.910161,-1.5230417,0.26602745,-0.9372473,2.9036908
-7.1798663,51.871,13.580631,12.873482,0.49480468,0.5827047,0.17593336,-0.66752595,-0.52804506,-0.752056,0.78050935,-0.7383172,0.61154896,0.48459825,0.23281173,-0.90608335,-2.1377032,-1.2726133,2.0354934,1.9244845,-0.87367797,0.28744116,-0.8627648,-2.0761085,-1.3366854,2.0988991,1.8684524,-0.92002547,-1.2143155,-0.9467995,-1.3642582,1.3947555,-1.0421221,0.5108614,0.21797484,-0.3583145,-0.40146065,0.71777517,-1.2820921,0.20014894,-0.37799242,-0.33049393,-0.4619236,0.6782928,0.9583951,0.020733505,0.14788006,0.24326994,-1.3231881,0.4367285,-0.4660797,0.0,1.0,0.0,0.0,0.0,0.0,0.0,-0.29168546,0.0014606416,-0.16777515,-0.79746246,0.70739985,-1.172924,-1.2388706,0.19538403,-0.59759617,2.6873918
-1.9980218,50.709404,14.729748,11.096323,0.3485515,0.45358026,0.24565558,-0.6546036,-0.5465872,-0.7486785,0.7742473,-0.73433644,0.58768713,0.48966968,0.22198081,-0.9174235,-2.1509764,-1.2592607,2.0254655,1.9272212,-0.8710585,0.2753776,-0.8722872,-2.0897346,-1.3228208,2.088497,1.8734969,-0.9176623,-1.2039859,-0.9547081,-1.36145,1.3838265,-1.040305,0.50206846,0.24210832,-0.37096786,-0.3994007,0.7138708,-1.2590415,0.20782088,-0.39351445,-0.34361267,-0.45744324,0.67354184,0.9605853,0.024386689,0.15167926,0.23167744,-1.3020968,0.46199912,-0.48158267,0.0,1.0,0.0,0.0,0.0,0.0,0.0,-0.2790321,-0.0005992949,-0.16387081,0.9458065,-0.9510398,0.5763531,-1.0460138,-0.15907288,-0.9644151,2.2865148
-1.3376896,50.08211,14.553784,10.746435,0.34911388,0.41647255,0.2577293,-0.6589107,-0.55182654,-0.7525077,0.76944953,-0.741859,0.56917626,0.52194947,0.20948653,-0.92746985,-2.1649854,-1.2458758,2.014311,1.9304146,-0.86546737,0.2634313,-0.8819393,-2.1033032,-1.3090514,2.078082,1.878442,-0.91506284,-1.1918162,-0.9692338,-1.3543768,1.3748451,-1.0431228,0.49182293,0.26545945,-0.38339233,-0.39727592,0.709788,-1.2361236,0.214109,-0.41187024,-0.3565178,-0.4527321,0.66862303,0.96253914,0.02834505,0.15538816,0.22038451,-1.280656,0.48477107,-0.4985941,0.0,1.0,0.0,0.0,0.0,0.0,0.0,-0.26660764,-0.0027240813,-0.15978801,1.1263609,-1.6061306,1.0078907,-0.8470535,-0.62060356,-1.1127472,2.217549
0.0032463074,46.75689,13.715093,9.678216,0.36308664,0.32333028,0.27236962,-0.644786,-0.58095944,-0.74772453,0.76802397,-0.7380747,0.55574256,0.53342485,0.1989527,-0.9400352,-2.1780756,-1.232249,2.0042746,1.9340163,-0.8617204,0.2516562,-0.89186317,-2.1167724,-1.2953469,2.06764,1.883278,-0.9122487,-1.172989,-1.0005196,-1.3436584,1.3692222,-1.0453331,0.48061997,0.28652984,-0.39560318,-0.39510345,0.70545584,-1.2153215,0.21834368,-0.4382722,-0.36921692,-0.44782257,0.66348845,0.9642721,0.032584146,0.15893887,0.20941825,-1.2611048,0.5028757,-0.52161056,0.0,1.0,0.0,0.0,0.0,0.0,0.0,-0.2543968,-0.0048965514,-0.15545583,1.7915249,-3.2661557,1.3641357,-0.49521923,-0.53470135,-1.2132347,2.0177543
4.173889,48.663322,15.182991,8.910082,0.21988267,0.24789506,0.305472,-0.6138489,-0.5843244,-0.7442307,0.7698898,-0.74484295,0.55679876,0.54642284,0.19027132,-0.9502956,-2.1911955,-1.2183579,1.9931557,1.9389579,-0.8576064,0.24018249,-0.90208083,-2.1301348,-1.2816671,2.0571601,1.8880146,-0.9092373,-1.1392286,-1.029288,-1.3326163,1.3677148,-1.0494729,0.47104573,0.3056628,-0.40758514,-0.3929062,0.7008756,-1.1915946,0.22022334,-0.46272942,-0.38167572,-0.44277763,0.65813744,0.96578526,0.037073627,0.1623303,0.19882935,-1.2341363,0.51490915,-0.5427704,0.0,1.0,0.0,0.0,0.0,0.0,0.0,-0.24241483,-0.007093817,-0.15087557,3.2555342,-3.006339,1.4211893,-0.11956692,-0.73759556,-1.0449708,1.8140137
3.1235356,49.37587,14.74872,9.103079,0.24832487,0.24880946,0.2914204,-0.6132034,-0.5924881,-0.7458995,0.7604481,-0.750719,0.52501476,0.5632781,0.17886215,-0.96132964,-2.2047248,-1.2056223,1.9820882,1.940516,-0.8529095,0.2290044,-0.91255313,-2.1434171,-1.2680293,2.0466301,1.8926388,-0.9060451,-1.1110071,-1.0536857,-1.3261161,1.362661,-1.0553435,0.4593415,0.323392,-0.41932678,-0.39069366,0.69603896,-1.1678295,0.22154616,-0.48822844,-0.3938675,-0.43761063,0.6525733,0.9670888,0.041830376,0.1655728,0.18861349,-1.208075,0.5269683,-0.56432265,0.0,1.0,0.0,0.0,0.0,0.0,0.0,-0.2306732,-0.009306341,-0.14603895,2.7088642,-2.5735855,0.96378326,-0.4667759,-0.918746,-1.2677431,1.66955
3.306572,48.592373,14.287925,8.761301,0.26235378,0.2164169,0.29083735,-0.59614044,-0.61475533,-0.7417496,0.7583178,-0.7527684,0.5106135,0.5764104,0.16939035,-0.97402865,-2.217592,-1.1921976,1.9713533,1.9437002,-0.84840405,0.2181093,-0.9232963,-2.156646,-1.254445,2.0360394,1.8971411,-0.9026866,-1.0826861,-1.081675,-1.3207215,1.3572667,-1.0611392,0.4470622,0.33966175,-0.43083572,-0.38847542,0.6909223,-1.1448299,0.22179772,-0.5172387,-0.4058075,-0.43232918,0.64677554,0.96819615,0.04687083,0.16864966,0.17876387,-1.1829898,0.5372293,-0.58819187,0.0,1.0,0.0,0.0,0.0,0.0,0.0,-0.21916425,-0.011524588,-0.14092231,2.7212143,-2.9292345,0.8494854,-0.49273968,-0.90613365,-1.3338804,1.5312076
1.9737353,47.44335,13.333567,8.840569,0.35425895,0.20823485,0.2650015,-0.58688253,-0.6357644,-0.740154,0.75754005,-0.7483468,0.49021164,0.57620674,0.15942104,-0.98687273,-2.2306614,-1.1786909,1.9612046,1.9461622,-0.84506595,0.20746379,-0.93435127,-2.1698332,-1.2409045,2.0254104,1.9015136,-0.8991852,-1.058838,-1.1138781,-1.3171403,1.353138,-1.0640979,0.43363243,0.35336098,-0.44213486,-0.38625717,0.68548113,-1.1236869,0.22174627,-0.550575,-0.41752243,-0.42694283,0.6407215,0.9691282,0.052191895,0.17152354,0.16925186,-1.1618402,0.5479001,-0.6144263,0.0,1.0,0.0,0.0,0.0,0.0,0.0,-0.20786512,-0.013742834,-0.13548112,2.2869587,-3.3507824,0.65624714,-0.3432989,-0.611186,-1.4629006,1.2886584
2.9861164,49.66637,13.984508,8.968745,0.33214825,0.20865294,0.26599315,-0.5668372,-0.64019114,-0.74099636,0.7568474,-0.7532434,0.47968432,0.5932259,0.15078007,-0.9983704,-2.2439327,-1.1652197,1.9500861,1.949482,-0.8398626,0.19707578,-0.94567806,-2.1830046,-1.2273945,2.0147507,1.9057546,-0.8955519,-1.0324643,-1.1393934,-1.3158902,1.3502669,-1.0671947,0.42065948,0.36639875,-0.45320892,-0.38404846,0.67972285,-1.1008137,0.22056705,-0.5817373,-0.42900467,-0.42145538,0.6344254,0.96989137,0.05779316,0.17420797,0.1600692,-1.1379037,0.55712956,-0.63793916,0.0,1.0,0.0,0.0,0.0,0.0,0.0,-0.19679105,-0.015951544,-0.12972283,2.529788,-2.684641,0.43866634,-0.23291111,-0.6394625,-1.4226556,1.2113154
18.797955,54.892555,20.0181,6.066296,-0.065289795,0.022015035,0.40406334,-0.47681296,-0.65584624,-0.6953535,0.76469564,-0.72044635,0.49676713,0.6074995,0.14939448,-1.0112627,-2.2525399,-1.1509249,1.9427061,1.9554312,-0.834802,0.18730313,-0.95724994,-2.1959586,-1.2138748,2.0041814,1.9099002,-0.89179003,-0.9595588,-1.1634886,-1.2870476,1.3523059,-1.0547614,0.41234154,0.37916872,-0.46398163,-0.3819046,0.6737405,-1.0681146,0.21205503,-0.60079175,-0.44008255,-0.41602516,0.62797,0.9704761,0.0634907,0.17669398,0.15140739,-1.0914364,0.5461377,-0.65142393,0.0,1.0,0.0,0.0,0.0,0.0,0.0,-0.18601835,-0.018095404,-0.123740494,7.0778966,-2.5135994,3.2974958,0.11968613,0.849247,-0.9414315,1.166892
27.522673,60.22207,24.041262,5.166605,-0.23201036,-0.04300481,0.46625283,-0.43033722,-0.65850693,-0.6574771,0.7647128,-0.70844305,0.5015472,0.6162317,0.1442694,-1.0231006,-2.2617064,-1.1374035,1.9333371,1.9600549,-0.8301669,0.1784074,-0.969004,-2.208451,-1.2003305,1.9937867,1.9139849,-0.8879051,-0.8671244,-1.1796577,-1.2348328,1.3544774,-1.0357788,0.40689856,0.39113012,-0.47436905,-0.3798828,0.66766196,-1.0277265,0.19868538,-0.6075646,-0.4506073,-0.41078377,0.62145925,0.970882,0.06909994,0.17900296,0.14342679,-1.0319039,0.52365947,-0.6542334,0.0,1.0,0.0,0.0,0.0,0.0,0.0,-0.17563093,-0.020117193,-0.11766195,8.975113,-1.7131805,5.7044744,0.05338192,1.4421701,-0.648129,1.0720253
46.457363,70.33337,32.571453,2.8000264,-0.6469764,-0.18343985,0.6169124,-0.3245283,-0.6511657,-0.56340975,0.7646466,-0.68200755,0.52250123,0.62171495,0.14595456,-1.0341206,-2.264792,-1.1238658,1.925586,1.966235,-0.8257336,0.17076553,-0.98082,-2.2200356,-1.1867785,1.9836588,1.9180508,-0.8839067,-0.73112994,-1.1825116,-1.1308925,1.3543578,-1.006889,0.40631273,0.4022209,-0.48423004,-0.37806702,0.66171014,-0.9710867,0.17547233,-0.5885153,-0.4603157,-0.40594864,0.61507654,0.97110546,0.07432648,0.1811885,0.136383,-0.94356793,0.47719556,-0.6361548,0.0,1.0,0.0,0.0,0.0,0.0,0.0,-0.16576993,-0.02193299,-0.11171013,13.215756,-0.3660202,11.024642,-0.33500195,2.2911787,-0.14540553,0.9522438
52.381878,70.12307,34.352856,1.820807,-0.61756086,-0.30856138,0.6247972,-0.26426405,-0.67963,-0.48288044,0.7652244,-0.6512022,0.4778123,0.5785703,0.14433913,-1.048783,-2.2683237,-1.1102561,1.9185386,1.965832,-0.8260497,0.16453561,-0.9927503,-2.2303233,-1.1732306,1.973879,1.9220841,-0.8798415,-0.5882064,-1.196768,-0.99269384,1.3538152,-0.9703788,0.40199292,0.40757102,-0.49349976,-0.37651634,0.65598816,-0.9116779,0.14791232,-0.5648581,-0.4691162,-0.40164185,0.60890406,0.9711854,0.07894081,0.18321225,0.13038638,-0.85346735,0.4201052,-0.61413586,0.0,1.0,0.0,0.0,0.0,0.0,0.0,-0.15650022,-0.023483664,-0.105988145,13.904405,-1.5060663,14.481508,-0.36320686,3.0098438,-0.53001046,0.41658282
40.186363,65.94182,29.46284,4.369216,-0.13658774,-0.253812,0.47484455,-0.26205036,-0.69125396,-0.44628388,0.75661165,-0.6343996,0.38798416,0.55790246,0.13833058,-1.0618757,-2.2749517,-1.0975695,1.910439,1.9608825,-0.82405126,0.15942079,-1.0048627,-2.239299,-1.1597227,1.9644485,1.9259981,-0.87575233,-0.48687014,-1.216324,-0.86395943,1.3490875,-0.935816,0.38760626,0.40915462,-0.5022354,-0.3752098,0.65043193,-0.86065143,0.12448915,-0.5512092,-0.47718048,-0.39779854,0.60290366,0.9711821,0.082980216,0.18501092,0.12526172,-0.78557545,0.37603873,-0.5984491,0.0,1.0,0.0,0.0,0.0,0.0,0.0,-0.14776456,-0.024790198,-0.10043192,9.84438,-2.0576954,13.44533,-0.6469965,2.8687716,-1.5506089,0.086569786
26.499096,64.60088,25.114985,8.0702715,0.41856945,-0.0978263,0.30037698,-0.2531486,-0.6942792,-0.38897845,0.7598737,-0.6106005,0.3589735,0.5414604,0.13410594,-1.0742906,-2.2781968,-1.0837353,1.9033884,1.9618955,-0.8216063,0.15499453,-1.0171555,-2.247062,-1.1462396,1.9553524,1.9297421,-0.87166834,-0.4285192,-1.2339389,-0.7454463,1.3476864,-0.90244275,0.36963928,0.4080712,-0.5105171,-0.37409592,0.6449729,-0.8168849,0.1066509,-0.54352,-0.48472214,-0.3942566,0.59705305,0.97114676,0.08652994,0.18657151,0.12073759,-0.7388257,0.3501953,-0.58360326,0.0,1.0,0.0,0.0,0.0,0.0,0.0,-0.13948286,-0.02590409,-0.09497291,5.637437,-1.8811464,12.333715,-0.20639896,2.8128147,-1.901871,-0.14742613
33.474792,74.04136,31.136507,9.087059,0.6457078,0.100521386,0.3020395,-0.19819437,-0.7020203,-0.16129552,0.7606694,-0.5699927,0.40015092,0.519082,0.1351751,-1.0873575,-2.2631915,-1.0701727,1.8983531,1.9697572,-0.81976014,0.15111643,-1.0296124,-2.2529175,-1.1327622,1.9466481,1.9333508,-0.8676092,-0.3749693,-1.2501236,-0.5303465,1.3474901,-0.8619254,0.3576943,0.40518,-0.5182762,-0.37318802,0.63978237,-0.761903,0.08530467,-0.51063776,-0.49169922,-0.39097977,0.59155643,0.97112507,0.08922587,0.1879023,0.11682243,-0.6797094,0.32273272,-0.541344,0.0,1.0,0.0,0.0,0.0,0.0,0.0,-0.13172376,-0.026811987,-0.08978236,5.1349163,-1.7477751,22.097599,-0.12271404,3.3809423,-1.2792528,-0.30596256
