Afshin1997/kuka_rl_ros2/src/catch_and_throw/input_files/idealpd/recorded_trajectories/env_39_data.csv
torque0,torque1,torque2,torque3,torque4,torque5,torque6,action0,action1,action2,action3,action4,action5,action6,set_target_0,set_target_1,set_target_2,set_target_3,set_target_4,set_target_5,set_target_6,joint_pos_0,joint_pos_1,joint_pos_2,joint_pos_3,joint_pos_4,joint_pos_5,joint_pos_6,joint_vel_0,joint_vel_1,joint_vel_2,joint_vel_3,joint_vel_4,joint_vel_5,joint_vel_6,tennisball_pos_0,tennisball_pos_1,tennisball_pos_2,tennisball_lin_vel_0,tennisball_lin_vel_1,tennisball_lin_vel_2,end_effector_pos_0,end_effector_pos_1,end_effector_pos_2,end_effector_rot_0,end_effector_rot_1,end_effector_rot_2,end_effector_rot_3,end_effector_lin_vel_0,end_effector_lin_vel_1,end_effector_lin_vel_2,obs_task_0,obs_task_1,obs_task_2,obs_task_3,obs_task_4,obs_task_5,obs_task_6,to_final_target_0,to_final_target_1,to_final_target_2,joint_acc_0,joint_acc_1,joint_acc_2,joint_acc_3,joint_acc_4,joint_acc_5,joint_acc_6
0.0,0.0,0.0,0.0,0.0,0.0,0.0,0.0,0.0,0.0,0.0,0.0,0.0,0.0,1.7802359,-1.0646509,-1.8151424,-1.1170107,1.9373155,1.1170107,-0.91629785,1.7802359,-1.0646509,-1.8151424,-1.1170107,1.9373155,1.1170107,-0.91629785,0.0,0.0,0.0,0.0,0.0,0.0,0.0,2.945778,-0.5563164,0.21720964,-3.1724737,-0.14167386,5.235937,0.5304184,-0.45449448,0.693097,0.5745483,0.17512383,0.15255436,0.7848268,0.0,0.0,0.0,1.0,0.0,0.0,0.0,0.0,0.0,0.0,-3.595778,0.15631637,0.33279037,0.0,0.0,0.0,0.0,0.0,0.0,0.0
0.0,0.0,0.0,0.0,0.0,0.0,0.0,0.0,0.0,0.0,0.0,0.0,0.0,0.0,1.7802359,-1.0646509,-1.8151424,-1.1170107,1.9373155,1.1170107,-0.91629785,1.7802359,-1.0646509,-1.8151424,-1.1170107,1.9373155,1.1170107,-0.91629785,0.0,0.0,0.0,0.0,0.0,0.0,0.0,2.945778,-0.5563164,0.21720964,-3.1724737,-0.14167386,5.235937,0.5304184,-0.45449448,0.693097,0.5745483,0.17512383,0.15255436,0.7848268,0.0,0.0,0.0,1.0,0.0,0.0,0.0,0.0,0.0,0.0,-3.595778,0.15631637,0.33279037,0.0,0.0,0.0,0.0,0.0,0.0,0.0
0.0,0.0,0.0,0.0,0.0,0.0,0.0,0.0,0.0,0.0,0.0,0.0,0.0,0.0,1.7802359,-1.0646509,-1.8151424,-1.1170107,1.9373155,1.1170107,-0.91629785,1.7802359,-1.0646509,-1.8151424,-1.1170107,1.9373155,1.1170107,-0.91629785,0.0,0.0,0.0,0.0,0.0,0.0,0.0,2.945778,-0.5563164,0.21720964,-3.1724737,-0.14167386,5.235937,0.5304184,-0.45449448,0.693097,0.5745483,0.17512383,0.15255436,0.7848268,0.0,0.0,0.0,1.0,0.0,0.0,0.0,0.0,0.0,0.0,-3.595778,0.15631637,0.33279037,0.0,0.0,0.0,0.0,0.0,0.0,0.0
-176.0,48.760624,-13.79208,110.0,10.695993,4.0673885,-3.8112507,-0.7962136,0.24211867,-0.54444057,0.74523765,0.08343103,0.68896717,-0.5934832,1.7006146,-1.040439,-1.8695865,-1.0424869,1.9456586,1.1859075,-0.9756462,1.7790552,-1.0627664,-1.8212078,-1.1117674,1.9417462,1.1223017,-0.9180297,-0.15716684,0.25054827,-0.80831367,0.6997299,0.5901336,0.70368725,-0.230369,2.9140778,-0.55773544,0.26879328,-3.169302,-0.14153221,5.132516,0.5283432,-0.45786285,0.69370127,0.57856244,0.17362553,0.15126298,0.7824571,-0.2760445,-0.44967073,0.080333844,1.0,0.0,0.0,0.0,0.0,0.0,0.0,-3.5640779,0.15773544,0.28120673,-15.614361,24.855814,-80.71575,70.10802,58.792843,69.87355,-22.866005
-176.0,-52.618755,-53.89895,108.97229,11.804521,0.60915804,-2.993323,-0.7867602,-0.28168708,-0.55220336,0.71890825,0.14727043,0.6671004,-0.5701852,1.7003793,-1.0909351,-1.8764281,-1.0398766,1.9564732,1.1890117,-0.97504824,1.7779204,-1.0611356,-1.8362815,-1.0964781,1.9494042,1.1354357,-0.91851324,-0.10175657,0.12143584,-1.7104234,1.8062887,0.80874664,1.4826883,0.0048320307,2.8824081,-0.5591469,0.31934348,-3.1661334,-0.14139071,5.029198,0.5238342,-0.46657562,0.69404817,0.5871071,0.17009889,0.1481552,0.7774455,-0.5095084,-1.0086006,0.022911338,1.0,0.0,0.0,0.0,0.0,0.0,0.0,-3.5324082,0.15914688,0.23065653,4.6555877,-16.658167,-81.234024,110.946724,17.206705,67.764755,21.25892
-147.66583,97.88943,29.209368,88.54846,8.146669,7.537401,-1.4542296,-0.735376,0.12729107,0.24228947,0.6801663,0.28688806,0.7030351,-0.46576732,1.7043828,-1.0484066,-1.8120526,-1.0284615,1.978093,1.2057393,-0.96509,1.7737681,-1.0598673,-1.850558,-1.0765749,1.9573369,1.1501471,-0.9186372,-0.51961976,0.1255497,-1.3267791,2.0533304,0.78238577,1.4617985,-0.01896074,2.850769,-0.5605583,0.3688613,-3.162968,-0.14124934,4.925984,0.51651,-0.4781723,0.69586164,0.5982489,0.16490282,0.14353561,0.7709104,-0.81384546,-1.2024863,0.2378464,1.0,0.0,0.0,0.0,0.0,0.0,0.0,-3.5007691,0.16055831,0.18113872,-41.740376,-0.5331814,40.34109,25.256516,-4.3325067,-3.774023,-2.6251535
-100.37994,72.152275,29.337934,51.64123,5.6512513,6.6413274,0.08342934,-0.75678676,-0.18152127,0.31378162,0.6829682,0.34568843,0.6813822,-0.5524074,1.6980894,-1.0780194,-1.8191799,-1.0082781,1.9919057,1.2182853,-0.97387797,1.7653166,-1.0599169,-1.8582962,-1.0568358,1.9644971,1.1638533,-0.9191856,-0.95408946,-0.050190847,-0.58275926,1.9487257,0.6879629,1.3374424,-0.06711981,2.8191605,-0.56196976,0.41734773,-3.1598055,-0.14110813,4.8228726,0.5066452,-0.49077606,0.69917834,0.61002165,0.15856765,0.13704748,0.76416475,-1.0578257,-1.2687823,0.36624688,1.0,0.0,0.0,0.0,0.0,0.0,0.0,-3.4691606,0.16196975,0.13265228,-43.563618,-18.09252,76.42146,-10.086036,-11.258471,-13.267446,-4.9087467
-44.042473,114.24701,48.56572,29.349747,2.7081974,6.8492675,0.65404534,-0.7729229,0.023775643,0.36606526,0.68463504,0.47405744,0.6947518,-0.5527202,1.6880243,-1.0575393,-1.8216896,-0.98837227,2.0119028,1.2333285,-0.9744576,1.7532316,-1.0606645,-1.8585708,-1.0393664,1.9710603,1.1761824,-0.92026895,-1.2940949,-0.084504336,0.16364242,1.6795305,0.64072704,1.196638,-0.12333861,2.7875824,-0.5633812,0.46480384,-3.1566463,-0.14096704,4.7198644,0.49482727,-0.50297546,0.7039905,0.6213136,0.15120502,0.12891044,0.75795025,-1.2326808,-1.1923852,0.5195158,1.0,0.0,0.0,0.0,0.0,0.0,0.0,-3.4375825,0.16338119,0.08519617,-34.224415,-3.9090872,76.42757,-26.960636,-6.180978,-14.4824505,-6.019236
-12.514481,103.40468,40.641884,13.680857,0.7641882,4.5672445,0.5741973,-0.7924121,0.04299396,0.27229407,0.678264,0.5127596,0.6722202,-0.59925276,1.6739905,-1.0563651,-1.8313414,-0.97154,2.0223362,1.2434044,-0.9801942,1.7387873,-1.0613111,-1.8535793,-1.0245787,1.9774632,1.1872126,-0.9219007,-1.4951178,-0.058992244,0.61426383,1.4115809,0.6379005,1.0719173,-0.17765003,2.7560349,-0.56479263,0.51123065,-3.1534903,-0.1408261,4.616959,0.48190308,-0.5142174,0.7098203,0.6318506,0.14326489,0.11989103,0.7522408,-1.3252152,-1.089047,0.60139966,1.0,0.0,0.0,0.0,0.0,0.0,0.0,-3.406035,0.16479263,0.038769364,-20.258118,2.2397592,46.02335,-26.888824,-1.00559,-12.44719,-5.7620974
9.524051,139.7964,47.660957,11.729851,-1.1983571,3.9650645,-0.045996577,-0.8089504,0.3485352,0.119028255,0.6643469,0.49806622,0.6778375,-0.5864451,1.6578922,-1.0264575,-1.8416765,-0.958144,2.0272698,1.2549963,-0.9805452,1.7232062,-1.0600885,-1.8467777,-1.0119368,1.9839444,1.1971556,-0.9240169,-1.5798464,0.18171334,0.704147,1.215156,0.65069103,0.96916664,-0.22457628,2.7245178,-0.56619644,0.5566292,-3.1503375,-0.1406853,4.514157,0.46847534,-0.52407074,0.7166539,0.6419607,0.13492249,0.11139213,0.746508,-1.3624038,-0.93936896,0.7070201,1.0,0.0,0.0,0.0,0.0,0.0,0.0,-3.374518,0.16619644,-0.006629169,-8.683538,23.737698,9.580887,-19.659328,1.0363579,-10.037875,-5.156329
16.785053,134.19887,40.478687,9.602441,-2.1113641,2.5177176,-0.49110645,-0.8131021,0.44546756,-0.027617948,0.6500673,0.46923152,0.6636663,-0.5902577,1.641896,-1.0155418,-1.8495395,-0.94693005,2.0308676,1.2635223,-0.98304266,1.7073752,-1.0560259,-1.8411605,-1.0006205,1.9905133,1.2061983,-0.9265451,-1.5848331,0.48021013,0.5155176,1.1037519,0.65879124,0.8834698,-0.2635176,2.6930313,-0.56760025,0.6010004,-3.1471877,-0.14054465,4.4114575,0.45496368,-0.53250504,0.7242933,0.6520585,0.12645182,0.10450892,0.74020773,-1.3554282,-0.799758,0.7794924,1.0,0.0,0.0,0.0,0.0,0.0,0.0,-3.3430314,0.16760024,-0.051000416,-0.733757,29.591919,-18.524706,-11.148906,0.7994175,-8.303726,-4.287627
17.281067,128.05522,36.12742,10.506781,-2.1819127,1.8444111,-0.69568366,-0.8198134,0.55704546,-0.110579565,0.6426608,0.48320034,0.6635632,-0.5816288,1.6253939,-1.0003213,-1.8522185,-0.9363544,2.0388334,1.2725546,-0.98470795,1.6917635,-1.0489439,-1.8382957,-0.9898926,1.997189,1.2144896,-0.9294023,-1.5541719,0.78335184,0.21108916,1.0621808,0.6707565,0.81148684,-0.2943386,2.661583,-0.56900406,0.64434546,-3.1440413,-0.14040413,4.308861,0.44164276,-0.5396805,0.7325595,0.66240853,0.11804257,0.09965773,0.73304105,-1.3330216,-0.678004,0.8396672,1.0,0.0,0.0,0.0,0.0,0.0,0.0,-3.311583,0.16900405,-0.09434545,2.8368235,30.090786,-30.1673,-4.2291164,1.2257934,-7.082355,-3.43073
16.546099,111.42454,30.797956,9.690542,-1.7536372,1.3635106,-0.5942172,-0.8165117,0.6112669,-0.15274887,0.6202485,0.52348435,0.6589168,-0.5746767,1.6101123,-0.98781717,-1.8535706,-0.92786777,2.0495374,1.2803812,-0.98686993,1.6765391,-1.0393213,-1.8383605,-0.97934306,2.0040898,1.2221457,-0.93251795,-1.5124952,1.0213355,-0.07808286,1.0518564,0.6961877,0.75021553,-0.3183985,2.6301727,-0.57040787,0.6866653,-3.1408978,-0.14026377,4.2063665,0.42855072,-0.5458298,0.7412697,0.67302936,0.10980267,0.09661253,0.7250109,-1.3076332,-0.57983714,0.8798104,1.0,0.0,0.0,0.0,0.0,0.0,0.0,-3.2801728,0.17040786,-0.13666528,3.9595127,23.612106,-28.630287,-1.2177229,2.545607,-6.154394,-2.7297497
15.613037,97.77004,27.998533,9.24696,-1.1801348,1.2923474,-0.3839307,-0.8099619,0.65451,-0.15906578,0.609047,0.5336608,0.6602914,-0.57400435,1.5955429,-0.9738703,-1.8542671,-0.9184384,2.057456,1.2881749,-0.98991835,1.6617056,-1.0279058,-1.8406188,-0.96879923,2.01125,1.2292639,-0.9358396,-1.4742758,1.1808977,-0.27407134,1.0544274,0.72228765,0.6986553,-0.3377985,2.598793,-0.5718117,0.72796094,-3.1377575,-0.14012353,4.103975,0.4156494,-0.5511246,0.75030744,0.68378687,0.10170776,0.09485168,0.716306,-1.2887422,-0.4980794,0.9108442,1.0,0.0,0.0,0.0,0.0,0.0,0.0,-3.2487931,0.17181167,-0.17796093,3.626728,15.794206,-19.235712,0.0027656555,2.5652766,-5.2785516,-2.2695482
14.07814,83.88452,24.732592,8.346859,-0.70868754,1.1876637,-0.18797763,-0.80264825,0.68328315,-0.19191875,0.5948576,0.54322,0.6715747,-0.57141614,1.5814408,-0.9595775,-1.8598107,-0.9093135,2.065572,1.2964214,-0.9929812,1.6471869,-1.015426,-1.8442218,-0.95825064,2.0186505,1.2359415,-0.9393262,-1.4449756,1.269799,-0.38746774,1.0540196,0.7457089,0.6569441,-0.3533501,2.5674438,-0.57321167,0.7682335,-3.1346204,-0.13998343,4.0016856,0.40289307,-0.55571365,0.75954425,0.69452,0.0937204,0.093870156,0.7071399,-1.275705,-0.43041852,0.9278755,1.0,0.0,0.0,0.0,0.0,0.0,0.0,-3.217444,0.17321166,-0.21823347,2.7412891,8.756709,-10.9206085,-0.32978058,2.2735357,-4.3111205,-1.890409
12.33818,74.53802,22.665163,7.93556,-0.34160557,1.1786463,-0.03304301,-0.8009512,0.7029141,-0.20090398,0.57954425,0.55217505,0.67618734,-0.5773173,1.5670917,-0.94513464,-1.8643122,-0.9002962,2.073868,1.3035603,-0.997058,1.6328665,-1.0024351,-1.8484218,-0.9477774,2.026257,1.2422625,-0.94295114,-1.4283152,1.3084358,-0.42916605,1.0441743,0.7652345,0.62333065,-0.36662263,2.5361252,-0.57460785,0.8074839,-3.1314864,-0.13984348,3.8994992,0.390213,-0.5596924,0.7688825,0.7050905,0.08579856,0.093271345,0.6977008,-1.2687845,-0.371664,0.936048,1.0,0.0,0.0,0.0,0.0,0.0,0.0,-3.1861253,0.17460784,-0.2574839,1.4760494,3.7525654,-3.6981225,-1.2799025,1.8604279,-3.491056,-1.665163
11.553887,68.71055,21.348705,7.6468725,-0.11295843,1.1624453,0.07386108,-0.7956593,0.7126501,-0.2012559,0.56904584,0.563439,0.6805803,-0.57288307,1.5533006,-0.9311701,-1.8685474,-0.89087284,2.0826008,1.3103205,-1.0002395,1.6186548,-0.98929155,-1.8526847,-0.93745196,2.0340428,1.2482973,-0.94668764,-1.4193566,1.3160704,-0.4237082,1.0276462,0.78245,0.5965525,-0.3771439,2.504837,-0.576004,0.8457132,-3.1283555,-0.13970366,3.7974148,0.3775711,-0.5631294,0.77825844,0.71540046,0.07790164,0.09278719,0.68813086,-1.2650945,-0.31798342,0.9384575,1.0,0.0,0.0,0.0,0.0,0.0,0.0,-3.1548371,0.17600402,-0.2957132,0.70648193,0.6688833,1.0480642,-1.9435167,1.6200542,-2.785039,-1.3900757
11.455382,67.51801,21.17181,7.6979017,-0.043995857,1.2014489,0.12850103,-0.7941411,0.7244932,-0.19103567,0.5545132,0.5624217,0.6850755,-0.57394695,1.5392407,-0.9168422,-1.8717883,-0.8820006,2.090285,1.3168049,-1.0040823,1.604489,-0.9761499,-1.8566864,-0.92734015,2.0419507,1.2541052,-0.9505157,-1.4164456,1.3132657,-0.39063978,1.004751,0.79333436,0.57532585,-0.3858592,2.4735794,-0.5774002,0.8829224,-3.1252277,-0.13956398,3.6954324,0.36494446,-0.56601715,0.7876564,0.7253916,0.0699798,0.09229703,0.6785213,-1.2624514,-0.26373842,0.94037884,1.0,0.0,0.0,0.0,0.0,0.0,0.0,-3.1235795,0.1774002,-0.3329224,0.09641647,-0.370121,3.84174,-2.572441,0.9713173,-2.2192597,-1.2107074
11.77294,67.30347,21.032154,7.6560116,-0.035921693,1.1972163,0.1615909,-0.79345226,0.7298503,-0.17716867,0.53643954,0.5726784,0.6902144,-0.57184464,1.5251437,-0.90316486,-1.8744032,-0.8736962,2.0992186,1.3231267,-1.0077002,1.5903269,-0.9630512,-1.860276,-0.917503,2.0499616,1.2597376,-0.95441717,-1.4169308,1.308527,-0.34661368,0.9757963,0.8033006,0.558785,-0.3927848,2.4423523,-0.5787964,0.91911256,-3.1221032,-0.13942444,3.593552,0.3523636,-0.5683594,0.79707015,0.7350313,0.062001195,0.091752745,0.6689292,-1.2588441,-0.20833445,0.94160867,1.0,0.0,0.0,0.0,0.0,0.0,0.0,-3.0923524,0.17879638,-0.36911255,-0.24535656,-0.55778027,4.946518,-3.172171,0.87976456,-1.7340899,-1.0282695
10.63946,67.8855,20.733587,8.679928,0.0049067736,1.1850147,0.13169624,-0.7938247,0.7372921,-0.17315862,0.53472316,0.5747481,0.69236445,-0.5614613,1.5109445,-0.889322,-1.8775918,-0.86403066,2.1074364,1.328974,-1.0105633,1.5761458,-0.9499639,-1.8634765,-0.9079071,2.0580525,1.2652289,-0.9583711,-1.4192055,1.3085063,-0.30935943,0.9533827,0.81076187,0.54558694,-0.3973197,2.4111557,-0.58019257,0.95428467,-3.1189816,-0.13928504,3.4917734,0.3398056,-0.5701561,0.8065073,0.7443373,0.05394434,0.091172636,0.65934783,-1.2561053,-0.15416743,0.94407773,1.0,0.0,0.0,0.0,0.0,0.0,0.0,-3.0611558,0.18019256,-0.40428466,-0.41980743,-0.08611679,4.2563796,-2.5045276,0.63824654,-1.4047861,-0.78000426
14.681935,71.08732,22.128212,7.2368402,-0.16230762,1.2294147,0.22792895,-0.7931327,0.7437533,-0.11740773,0.4871714,0.5955247,0.6914394,-0.56386375,1.4968325,-0.8755886,-1.8752173,-0.85919,2.117605,1.3343728,-1.0147575,1.5619437,-0.93683565,-1.8661487,-0.89868605,2.066258,1.2706076,-0.96236414,-1.4213378,1.3140618,-0.25123486,0.9108308,0.82347417,0.5350488,-0.40119046,2.3799896,-0.5815811,0.98843974,-3.1158633,-0.13914578,3.3900967,0.3273239,-0.571331,0.8159909,0.75324684,0.045778863,0.090533376,0.64986706,-1.2464637,-0.09034072,0.94905293,1.0,0.0,0.0,0.0,0.0,0.0,0.0,-3.0299897,0.18158111,-0.43843973,-0.42116642,0.47502518,6.3881516,-4.5215845,1.146102,-1.1090875,-0.72413087
17.060974,71.840385,22.293941,6.3787985,-0.2818554,1.1600494,0.26645303,-0.7890764,0.7490034,-0.09419842,0.46251667,0.60562557,0.6934008,-0.55319715,1.483036,-0.8619353,-1.8755685,-0.8524344,2.1268206,1.3399477,-1.0176839,1.5477434,-0.92362344,-1.8682334,-0.8899418,2.0746083,1.2758986,-0.9663829,-1.4202293,1.3233976,-0.19237275,0.8613732,0.83812064,0.52702624,-0.4032334,2.348854,-0.58296967,1.0215789,-3.1127481,-0.13900666,3.2885215,0.3149643,-0.571846,0.82551914,0.7617128,0.037497412,0.089830354,0.6405606,-1.2306042,-0.023482693,0.95292723,1.0,0.0,0.0,0.0,0.0,0.0,0.0,-2.9988542,0.18296966,-0.4715789,-0.093364716,0.8627653,6.4472857,-5.2064896,1.3536811,-0.8229494,-0.53557754
16.793385,70.44024,21.265118,6.4311724,-0.34243953,1.016583,0.23544757,-0.7882749,0.75603426,-0.09233033,0.44577935,0.6020628,0.6928455,-0.5446199,1.4689159,-0.84802,-1.8774664,-0.84536386,2.1348145,1.3451831,-1.0208449,1.5335642,-0.91029394,-1.8698623,-0.8816725,2.0830693,1.2811209,-0.97041124,-1.4177585,1.3358123,-0.15136217,0.81466186,0.8484254,0.5208166,-0.4036971,2.317749,-0.5843582,1.053703,-3.109636,-0.13886768,3.187048,0.3028183,-0.5717087,0.8350605,0.7697519,0.029124383,0.089127764,0.631419,-1.211209,0.040500805,0.9528645,1.0,0.0,0.0,0.0,0.0,0.0,0.0,-2.967749,0.18435821,-0.50370294,0.05557537,1.1825085,4.6098084,-4.923177,0.94890594,-0.6120682,-0.35657287
20.0466,69.43042,20.926527,4.2648745,-0.56848043,0.8575125,0.30733377,-0.78706443,0.7627697,-0.05866309,0.3818474,0.61687165,0.69274795,-0.5378588,1.4548578,-0.834017,-1.8757286,-0.84348774,2.1447566,1.3503957,-1.0241971,1.5194155,-0.8968309,-1.8710773,-0.874045,2.0916486,1.2862955,-0.97443575,-1.4145944,1.3496633,-0.11000469,0.7446341,0.86073244,0.51647604,-0.4030855,2.2866745,-0.58574677,1.0848131,-3.106527,-0.13872883,3.0856757,0.2909088,-0.5709152,0.84455436,0.7773258,0.020712202,0.08846143,0.62250316,-1.1814641,0.10734731,0.94630545,1.0,0.0,0.0,0.0,0.0,0.0,0.0,-2.9366746,0.18574676,-0.5348131,0.12514591,1.3424635,4.6313076,-7.2598696,1.1630774,-0.35989285,-0.24176836
23.868164,66.996445,20.17589,1.2172861,-0.84828097,0.62056565,0.40478718,-0.7869643,0.76854306,-0.033270195,0.3012209,0.6347217,0.6882542,-0.5249803,1.4407191,-0.8199766,-1.8744043,-0.8439229,2.1551208,1.3551209,-1.0269338,1.5052916,-0.8832325,-1.8718822,-0.8673712,2.1003804,1.2914339,-0.9784431,-1.4120675,1.3632678,-0.06906849,0.64076,0.8773144,0.5135736,-0.40092626,2.2556305,-0.5871353,1.1149102,-3.1034212,-0.13859013,2.984405,0.27938843,-0.5694275,0.8539069,0.7843598,0.012356922,0.08785804,0.61392814,-1.1383871,0.17537384,0.929315,1.0,0.0,0.0,0.0,0.0,0.0,0.0,-2.9056306,0.18713531,-0.56491023,0.06484985,1.3428926,4.5556827,-10.652542,1.6141295,-0.123369694,-0.06991625
32.815193,67.12865,21.16891,-4.1495214,-1.331053,0.43310472,0.6304233,-0.78115004,0.7731465,0.045744218,0.17473288,0.65196544,0.6852188,-0.51337844,1.4271766,-0.8059178,-1.8673078,-0.8498979,2.165577,1.3599558,-1.029781,1.4912134,-0.8695091,-1.8720176,-0.8621603,2.1093068,1.2965533,-0.98242086,-1.4069182,1.3753697,0.006666341,0.48032907,0.8976431,0.512338,-0.3976322,2.224617,-0.58852005,1.1439955,-3.1003184,-0.13845156,2.8832355,0.26846313,-0.5671921,0.8630273,0.7906895,0.0041422634,0.08728691,0.6059488,-1.073083,0.25325102,0.90358204,1.0,0.0,0.0,0.0,0.0,0.0,0.0,-2.874617,0.18852004,-0.5939955,0.3326893,1.2219191,8.025867,-16.305262,2.0053148,0.17336607,0.05224943
45.378494,65.18944,21.610054,-12.922958,-2.168415,0.038429856,0.9375458,-0.7778067,0.78033453,0.11676128,-0.030303981,0.66487837,0.6782235,-0.5041925,1.4134327,-0.79147565,-1.8603415,-0.86519074,2.1757946,1.3643756,-1.0328401,1.4771982,-0.8556646,-1.8711727,-0.859264,2.1184468,1.3016688,-0.9863586,-1.4002863,1.3876624,0.111784354,0.22531036,0.919234,0.51301116,-0.39334503,2.193634,-0.589901,1.1720699,-3.0972188,-0.13831313,2.782167,0.25846863,-0.5640793,0.8717433,0.7960746,-0.0037555909,0.08676348,0.59893495,-0.9716882,0.3424366,0.85790014,1.0,0.0,0.0,0.0,0.0,0.0,0.0,-2.8436341,0.18990096,-0.6220699,0.5068064,1.28479,10.899825,-25.74669,2.169466,0.5739093,0.19196868
51.123856,63.477715,21.515038,-16.684507,-2.5198193,-0.26269752,1.0696454,-0.76644295,0.78638035,0.17456807,-0.16537626,0.6737212,0.66635954,-0.46656278,1.400554,-0.7770266,-1.8537159,-0.8758016,2.185819,1.3683047,-1.0330149,1.4632937,-0.841699,-1.8691909,-0.8591629,2.1277928,1.30679,-0.99022573,-1.38744,1.3997233,0.22782873,-0.062223893,0.9398533,0.51382476,-0.3851044,2.1626816,-0.5912819,1.1991343,-3.0941222,-0.13817485,2.6811996,0.24960327,-0.5600662,0.8799426,0.8003912,-0.0112113,0.086313374,0.5931257,-0.851928,0.43062982,0.8035943,1.0,0.0,0.0,0.0,0.0,0.0,0.0,-2.8126817,0.19128188,-0.64913434,1.1992216,1.2977839,11.81638,-28.929398,2.1674752,0.6927967,0.66096187
47.842648,64.0964,21.603834,-13.73909,-2.216114,-0.26109296,1.0107807,-0.76272374,0.79208636,0.2505093,-0.24189867,0.6782393,0.65520084,-0.42469338,1.3870213,-0.7624904,-1.84414,-0.8833528,2.1956167,1.37231,-1.032695,1.4495226,-0.827618,-1.865958,-0.8616835,2.1373181,1.3119112,-0.9939813,-1.3737934,1.411336,0.354984,-0.31573847,0.9575089,0.5133033,-0.3726878,2.1317596,-0.5926628,1.2251898,-3.0910287,-0.1380367,2.5803332,0.24186707,-0.55522156,0.88767,0.8036841,-0.01826397,0.0859004,0.58854,-0.7406616,0.51048404,0.7581835,1.0,0.0,0.0,0.0,0.0,0.0,0.0,-2.7817597,0.1926628,-0.6751898,1.3466358,1.2753963,12.724638,-25.44525,1.9936562,0.5306363,1.1486709
39.51162,67.806725,22.4454,-6.109501,-1.5064905,0.014803987,0.82721025,-0.75343287,0.7997664,0.33581147,-0.26014322,0.66957724,0.6490908,-0.35112715,1.3741794,-0.7476414,-1.8323768,-0.8876978,2.2042758,1.3768203,-1.029094,1.4359041,-0.8134159,-1.8613632,-0.8660885,2.1469579,1.3170153,-0.99756426,-1.3577871,1.4236891,0.4937847,-0.4822553,0.96730864,0.511153,-0.35365745,2.1008682,-0.59404373,1.2502373,-3.0879383,-0.13789868,2.4795675,0.2350769,-0.54963684,0.89512444,0.8061144,-0.025121912,0.08544362,0.5850195,-0.6557705,0.5817394,0.7364421,1.0,0.0,0.0,0.0,0.0,0.0,0.0,-2.7508683,0.19404373,-0.70023733,1.624608,1.3673067,13.702363,-16.690033,1.3471723,0.27278662,1.8487573
26.136984,70.75711,22.723537,5.087306,-0.41597927,0.42915827,0.5315135,-0.74374837,0.80060035,0.4112075,-0.20354281,0.66622776,0.64413154,-0.26240537,1.3615294,-0.7333559,-1.8202424,-0.8864428,2.2135806,1.3814285,-1.0238048,1.4224554,-0.79911554,-1.8553607,-0.8712059,2.1566548,1.3220869,-1.0009025,-1.3403847,1.4326625,0.6346549,-0.5216183,0.9718654,0.5071168,-0.32745382,2.0700073,-0.59542465,1.2742779,-3.084851,-0.13776082,2.3789027,0.22878265,-0.5434189,0.902594,0.8079277,-0.03211046,0.084813215,0.58226144,-0.6129633,0.6397249,0.74514455,1.0,0.0,0.0,0.0,0.0,0.0,0.0,-2.7200074,0.19542465,-0.7242779,1.7655134,1.0428905,13.784683,-3.973508,0.93587637,-0.055241585,2.5639296
16.610062,67.95746,21.135311,11.542694,0.23936343,0.5324153,0.3191729,-0.7349536,0.79654753,0.45315403,-0.18624571,0.6660241,0.6474867,-0.19023018,1.34896,-0.7194608,-1.8100454,-0.88983047,2.2232573,1.3868356,-1.0199256,1.4091822,-0.7847761,-1.8481128,-0.87614214,2.1663747,1.3271185,-1.0039448,-1.3229234,1.4349043,0.75379854,-0.48444638,0.97326875,0.50280297,-0.29662377,2.039177,-0.59679794,1.2973126,-3.0817668,-0.13762309,2.2783384,0.22272491,-0.5367317,0.91023314,0.8093316,-0.039419033,0.083948635,0.5799836,-0.5959074,0.6840446,0.76444227,1.0,0.0,0.0,0.0,0.0,0.0,0.0,-2.689177,0.19679794,-0.7473126,1.7616034,0.37345886,11.585653,3.656453,0.6348252,-0.16772747,3.0163407
-1.4447699,65.60875,18.820261,23.768415,1.4216992,0.8800937,-0.06977883,-0.7461993,0.79655457,0.47447696,-0.027245278,0.6514092,0.64627343,-0.066997595,1.3345623,-0.7051206,-1.8006651,-0.8788667,2.2315156,1.3917458,-1.0106446,1.3959833,-0.7704395,-1.8399436,-0.87977755,2.1760488,1.3321005,-1.0066131,-1.3190496,1.4337721,0.83709204,-0.32359418,0.9674295,0.49705213,-0.2571973,2.008377,-0.59817123,1.3193425,-3.0786858,-0.13748549,2.1778748,0.21646118,-0.5297508,0.9182337,0.81062126,-0.04727627,0.08282323,0.5777529,-0.628162,0.7088373,0.80591625,1.0,0.0,0.0,0.0,0.0,0.0,0.0,-2.6583772,0.19817123,-0.7693425,0.34105778,0.041675568,8.01078,15.961629,-0.0680089,-0.48731565,3.8500667
-21.207497,61.130272,15.465075,36.647156,2.6688852,1.2223853,-0.5317357,-0.76255196,0.79359365,0.45663598,0.18875073,0.64066315,0.6623841,-0.011928555,1.3197281,-0.69108015,-1.79428,-0.8609025,2.2401152,1.3983389,-1.007806,1.3826967,-0.7561382,-1.8313491,-0.88084185,2.1856313,1.337031,-1.0088791,-1.3321968,1.4294204,0.8658879,-0.034691766,0.9566313,0.4913084,-0.21656568,1.9776077,-0.5995445,1.3403684,-3.0756075,-0.13734804,2.0775115,0.20948029,-0.522686,0.9267996,0.8121683,-0.055933665,0.08142072,0.5749998,-0.71380585,0.7122533,0.8671287,1.0,0.0,0.0,0.0,0.0,0.0,0.0,-2.6276078,0.19954452,-0.7903684,-1.4266729,-0.28061867,2.5862575,28.70678,-0.5657315,-0.70123076,3.9536982
-32.243546,54.635777,12.181948,42.366013,3.2367244,1.312228,-0.7929418,-0.7866445,0.7852172,0.44078973,0.34014404,0.6275255,0.67453957,-0.021077404,1.3040323,-0.6776165,-1.7872702,-0.84682745,2.2483838,1.404485,-1.0109868,1.369145,-0.7419199,-1.8227813,-0.87864935,2.1950727,1.3419119,-1.0107826,-1.3632184,1.4197441,0.8528132,0.3032766,0.9416133,0.48599824,-0.18189222,1.9468689,-0.6009178,1.3603915,-3.0725327,-0.13721071,1.9772485,0.2014389,-0.5156746,0.93598306,0.81422114,-0.065486096,0.07977996,0.57130593,-0.8263723,0.70397085,0.928821,1.0,0.0,0.0,0.0,0.0,0.0,0.0,-2.596869,0.20091781,-0.8103915,-3.2349586,-0.83224773,-1.573062,33.612003,-1.0128975,-0.80281496,3.3693433
-25.977676,49.331104,10.630735,35.686924,2.5690475,0.95408064,-0.6835732,-0.7946296,0.7823044,0.42742196,0.3675265,0.63319427,0.6653439,-0.105108894,1.289682,-0.66368943,-1.7800391,-0.8418967,2.258392,1.4084463,-1.0212935,1.355271,-0.72780454,-1.8145168,-0.8736216,2.2043958,1.3467394,-1.012442,-1.3959303,1.4091171,0.8172658,0.56874466,0.9305106,0.48090726,-0.16095819,1.9161606,-0.6022911,1.3794128,-3.0694606,-0.13707353,1.8770858,0.19245148,-0.508728,0.9455966,0.81674886,-0.075747065,0.07800705,0.56665564,-0.9148432,0.70083886,0.9653491,1.0,0.0,0.0,0.0,0.0,0.0,0.0,-2.5661607,0.2022911,-0.82941276,-3.380394,-0.96399784,-3.7441015,26.400978,-0.7141471,-0.7362783,2.0140946
-12.527954,47.10436,10.593462,24.449362,1.3987646,0.47029886,-0.4139558,-0.7986328,0.785726,0.41093343,0.36323994,0.6365843,0.6682812,-0.18287487,1.2754077,-0.6492319,-1.7734234,-0.83729756,2.2680542,1.4135675,-1.0307295,1.3411204,-0.7137598,-1.80667,-0.8668133,2.2136388,1.3515307,-1.0139889,-1.4217814,1.4031377,0.7737479,0.71773446,0.92348903,0.47829205,-0.15284286,1.8854828,-0.6036606,1.3974332,-3.066392,-0.13693649,1.7770232,0.18293762,-0.5017204,0.9553479,0.8195482,-0.08639505,0.07625839,0.56130326,-0.9579757,0.71026707,0.9713087,1.0,0.0,0.0,0.0,0.0,0.0,0.0,-2.535483,0.20366058,-0.84743315,-2.6854753,-0.5387783,-4.401922,14.773285,-0.4299879,-0.33786893,0.7259369
2.3237715,44.266552,10.424959,11.762848,0.14920425,-0.12988752,-0.079678155,-0.8036461,0.78434926,0.38851586,0.31253788,0.6473622,0.66817415,-0.21610698,1.2607558,-0.63532484,-1.7678183,-0.8355595,2.278375,1.4183481,-1.0355996,1.3267714,-0.699756,-1.7992733,-0.85949767,2.2228665,1.3563105,-1.0155052,-1.439577,1.3996261,0.72842366,0.73563975,0.9227983,0.4785354,-0.15159824,1.8548355,-0.60502625,1.4144536,-3.0633261,-0.13679957,1.6770605,0.17334747,-0.4945717,0.96491176,0.8223598,-0.09704889,0.074685104,0.5556329,-0.9493575,0.7278511,0.94431674,1.0,0.0,0.0,0.0,0.0,0.0,0.0,-2.5048356,0.20502624,-0.8644536,-1.8889427,-0.31950474,-4.4244885,1.6494751,0.07292032,0.16124249,0.020483136
14.286165,43.307293,10.836093,2.0202913,-0.8023261,-0.5928545,0.2083461,-0.80807066,0.78223693,0.38632175,0.25151074,0.6483222,0.66968334,-0.22535065,1.2459643,-0.6215323,-1.7606411,-0.8343466,2.2876987,1.4232788,-1.0380403,1.3122965,-0.685779,-1.7922275,-0.8527571,2.232102,1.3611075,-1.0170292,-1.4504331,1.3971398,0.6974653,0.653056,0.9237449,0.4811677,-0.15296516,1.8242188,-0.6063919,1.4304751,-3.0602634,-0.13666281,1.5771978,0.16416931,-0.4872017,0.9740425,0.8249577,-0.1074049,0.0733965,0.55001974,-0.8995629,0.7505434,0.89564604,1.0,0.0,0.0,0.0,0.0,0.0,0.0,-2.4742188,0.2063919,-0.8804751,-1.1924028,-0.22923946,-2.8769612,-8.402193,0.13685226,0.5730808,-0.2524048
21.64412,45.08049,11.940328,-2.9015737,-1.3061969,-0.8326036,0.38920754,-0.8049508,0.78443545,0.39203873,0.20556316,0.64804286,0.6666029,-0.19864541,1.2318014,-0.60733545,-1.7530236,-0.83220077,2.2969062,1.4277678,-1.0368937,1.2977816,-0.67180574,-1.7853439,-0.84718955,2.241345,1.365935,-1.0185493,-1.4521013,1.3974464,0.68612844,0.52430815,0.92455125,0.48442474,-0.1521076,1.7936325,-0.60775757,1.4454988,-3.0572038,-0.13652617,1.477435,0.1556549,-0.47956848,0.9826412,0.8271904,-0.11732369,0.07242825,0.5447434,-0.8266081,0.7768567,0.8411448,1.0,0.0,0.0,0.0,0.0,0.0,0.0,-2.4436326,0.20775756,-0.8954988,-0.24421215,0.048685074,-0.8860588,-12.987947,0.07675886,0.71186423,-0.028291345
22.096,45.47261,12.303783,-2.4894133,-1.2331305,-0.87551594,0.427432,-0.80320525,0.7780503,0.39905325,0.19076604,0.64154494,0.6696202,-0.12005967,1.2174611,-0.5940007,-1.7454386,-0.82811296,2.3054993,1.432897,-1.0305552,1.2832915,-0.6578516,-1.7784526,-0.8428265,2.2505765,1.370793,-1.0200008,-1.447923,1.3948029,0.6909394,0.40673253,0.9227376,0.48758137,-0.14324032,1.7630768,-0.60912323,1.4595257,-3.054147,-0.13638967,1.3777719,0.14788055,-0.47168732,0.9907317,0.8290116,-0.12681967,0.07174542,0.5399157,-0.75414354,0.80113745,0.7917505,1.0,0.0,0.0,0.0,0.0,0.0,0.0,-2.4130769,0.20912322,-0.9095257,0.3751278,-0.23553371,0.6764293,-11.841989,-0.16605854,0.6844163,0.7831931
17.65187,49.83325,13.648346,3.3436165,-0.72416306,-0.60697675,0.338561,-0.7976342,0.7863065,0.40879405,0.23235561,0.6447009,0.6610911,0.0045167645,1.203528,-0.57922095,-1.7375733,-0.8195909,2.3150465,1.436902,-1.0195491,1.2688833,-0.64388406,-1.7714279,-0.8391348,2.2598004,1.3756682,-1.0212711,-1.4386977,1.397562,0.7067059,0.35650736,0.92267716,0.4883487,-0.121999696,1.7325516,-0.6104889,1.4725566,-3.0510936,-0.13625331,1.2782084,0.14064789,-0.4635315,0.99848616,0.83045644,-0.1360922,0.07125942,0.53548384,-0.70267624,0.82848924,0.76353073,1.0,0.0,0.0,0.0,0.0,0.0,0.0,-2.3825517,0.21048889,-0.9225566,0.8959055,0.3157854,1.6912341,-5.077428,0.07966757,0.33344626,2.02395
11.421742,48.936577,13.226089,8.870974,-0.1714235,-0.41277632,0.23745698,-0.7981228,0.77726084,0.41455087,0.26523137,0.6224629,0.66818774,0.18625696,1.189071,-0.566158,-1.7299728,-0.8126117,2.3220468,1.442487,-1.0026454,1.2545553,-0.6299261,-1.7642238,-0.83547556,2.2689633,1.3805491,-1.0222,-1.4307024,1.3954517,0.7251867,0.36889583,0.9146896,0.48850334,-0.083619505,1.7020569,-0.61185074,1.4845927,-3.048043,-0.13611709,1.1787444,0.13376617,-0.45511246,1.0060594,0.831588,-0.14534323,0.070903584,0.531328,-0.6743571,0.85337526,0.7486639,1.0,0.0,0.0,0.0,0.0,0.0,0.0,-2.352057,0.21185073,-0.93459266,0.7671356,-0.15945435,1.9010186,1.1745751,-0.64827204,0.1823008,3.7357569
4.5238442,44.390583,11.366043,13.792641,0.3383746,-0.33958182,0.06404253,-0.79357594,0.766144,0.38641635,0.32224038,0.5993334,0.66568255,0.26193553,1.1751977,-0.5533117,-1.7255821,-0.8032515,2.3288968,1.4471173,-0.9960064,1.2403075,-0.61604345,-1.7570045,-0.8312508,2.2779813,1.3854243,-1.0227073,-1.4228601,1.3860428,0.72082585,0.4400996,0.89820504,0.4874399,-0.040234704,1.6715927,-0.6132088,1.4956348,-3.0449955,-0.135981,1.0793799,0.12698364,-0.44649887,1.0135388,0.8325198,-0.15470392,0.07066206,0.5272422,-0.66790444,0.8704313,0.7410618,1.0,0.0,0.0,0.0,0.0,0.0,0.0,-2.3215928,0.21320876,-0.9456348,0.73947906,-0.8776188,-0.4415989,7.024699,-1.4440298,-0.012028217,4.237294
3.4838881,39.15522,9.644181,13.26433,0.35118234,-0.49317026,0.047365956,-0.7866445,0.7509933,0.37711197,0.31955206,0.572934,0.6626871,0.32953006,1.161643,-0.5409441,-1.7192934,-0.7992956,2.3352747,1.4516929,-0.9897543,1.2261511,-0.60232294,-1.7499206,-0.8263184,2.2867665,1.3902861,-1.0227665,-1.4134192,1.3675008,0.7043263,0.51062304,0.8727396,0.48610735,0.0051562795,1.641159,-0.6145668,1.505684,-3.0419512,-0.13584504,0.9801148,0.120285034,-0.43777084,1.0208995,0.83330274,-0.16415885,0.070564,0.5231435,-0.6614338,0.88041884,0.7276852,1.0,0.0,0.0,0.0,0.0,0.0,0.0,-2.2911592,0.2145668,-0.955684,0.90646744,-1.790762,-1.6605139,6.943512,-2.3556113,-0.027298927,4.4419103
3.8936377,31.737267,6.925968,10.010441,0.09249967,-0.84814876,0.046898734,-0.78774387,0.73686826,0.32927066,0.2935936,0.541241,0.6600127,0.35465962,1.1473768,-0.5286361,-1.7169936,-0.79695904,2.3408906,1.4562874,-0.9873005,1.2120615,-0.5888351,-1.7432296,-0.82095206,2.2952313,1.3951365,-1.0223964,-1.4074752,1.3427696,0.6574565,0.54491204,0.8384213,0.4852624,0.047321405,1.6107559,-0.61592484,1.5147414,-3.0389097,-0.13570923,0.8809489,0.11374664,-0.4290352,1.0280133,0.8339758,-0.17353272,0.07072334,0.5190077,-0.64373356,0.87812173,0.699292,1.0,0.0,0.0,0.0,0.0,0.0,0.0,-2.260756,0.21592483,-0.9647414,0.55634975,-2.4094343,-4.6914577,3.2987118,-3.265059,0.08934736,4.1367416
8.671927,27.992252,5.7776823,4.0320435,-0.44453898,-1.2430891,0.17974496,-0.78328025,0.723103,0.31476235,0.2262028,0.5107271,0.6540698,0.3959169,1.1337335,-0.5165248,-1.7117534,-0.7983318,2.346304,1.4605434,-0.9828048,1.1980292,-0.57561624,-1.7370384,-0.8157431,2.3033109,1.3999792,-1.0216202,-1.4017407,1.3150485,0.60663784,0.51241314,0.7978044,0.48502722,0.087435424,1.5803833,-0.61728287,1.522808,-3.0358715,-0.13557354,0.78188217,0.107551575,-0.42036438,1.034722,0.83450824,-0.18258688,0.07125728,0.5149567,-0.6018657,0.8684858,0.65491295,1.0,0.0,0.0,0.0,0.0,0.0,0.0,-2.2303834,0.21728286,-0.97280794,0.5560398,-2.7143955,-5.0492406,-3.3700705,-3.9567947,0.25180578,3.9428382
12.632046,23.837196,4.426866,-1.2431765,-0.92078674,-1.6451607,0.27966034,-0.77314377,0.7038944,0.27682507,0.16324013,0.460219,0.6491176,0.4419669,1.1207148,-0.5052268,-1.7093558,-0.79941905,2.3493328,1.464891,-0.9774235,1.1840864,-0.56270444,-1.7314289,-0.8112675,2.3108945,1.404822,-1.0204529,-1.3916341,1.2834809,0.54584175,0.42550924,0.745501,0.4853088,0.12625983,1.5500412,-0.6186409,1.5298845,-3.0328362,-0.135438,0.68291444,0.10192108,-0.41187286,1.0408822,0.8348712,-0.19109032,0.072290026,0.5111248,-0.5382979,0.848965,0.59702975,1.0,0.0,0.0,0.0,0.0,0.0,0.0,-2.2000413,0.2186409,-0.97988445,1.030469,-3.0973673,-6.049609,-8.7973175,-5.172193,0.3876388,3.8285985
14.792887,19.33654,3.022293,-4.9826527,-1.1835483,-1.9787861,0.34497857,-0.7684032,0.6793743,0.24301735,0.08749175,0.4206891,0.6496945,0.46723017,1.1072462,-0.494767,-1.7071271,-0.8025183,2.3529634,1.4697914,-0.97372985,1.1702543,-0.5501522,-1.7264545,-0.80797446,2.3179173,1.4096724,-1.0189213,-1.3801972,1.246051,0.48122427,0.2969119,0.6878573,0.48622158,0.16199997,1.5197296,-0.6199913,1.5359721,-3.029804,-0.13530259,0.58404565,0.09705353,-0.40364456,1.0463878,0.83506113,-0.19885506,0.07388999,0.5076119,-0.4611269,0.81816095,0.5294652,1.0,0.0,0.0,0.0,0.0,0.0,0.0,-2.1697297,0.2199913,-0.9859721,1.200223,-3.6783457,-6.450754,-12.952852,-5.7391286,0.495708,3.5327883
13.957787,20.097393,3.3197222,-4.072025,-1.0759724,-1.9801211,0.34236223,-0.7721248,0.66652405,0.23348191,0.045271315,0.39689043,0.6441016,0.5000582,1.0930419,-0.48349977,-1.7031063,-0.8034473,2.3576064,1.4740826,-0.96891546,1.1564966,-0.53795373,-1.722018,-0.8059727,2.3243985,1.4145247,-1.0170482,-1.3742236,1.2113577,0.4309287,0.16774485,0.6346108,0.4861466,0.1955145,1.4894485,-0.6213417,1.5410718,-3.026775,-0.13516732,0.48527578,0.092926025,-0.39572906,1.0512527,0.8350883,-0.2058555,0.07603383,0.5044499,-0.38763556,0.7868655,0.4671691,1.0,0.0,0.0,0.0,0.0,0.0,0.0,-2.1394486,0.2213417,-0.99107176,0.6535053,-3.4023762,-5.027282,-12.995392,-5.297613,0.35179257,3.3126683
13.339994,21.771784,4.0617504,-2.8294482,-0.87823683,-1.9302396,0.35344154,-0.7723503,0.65113926,0.2321691,-0.016041206,0.40152004,0.64427084,0.51826596,1.0792617,-0.4728398,-1.698801,-0.80757684,2.3645506,1.4789518,-0.96522164,1.1427675,-0.52607954,-1.7179248,-0.80523837,2.3304753,1.4193751,-1.0148643,-1.3722726,1.1796564,0.40194294,0.0418,0.5989986,0.48552477,0.22570811,1.459198,-0.6226921,1.5451844,-3.0237486,-0.13503218,0.38660464,0.08948517,-0.38809967,1.0555408,0.83494824,-0.21214291,0.07861122,0.50167435,-0.32022002,0.756928,0.4114609,1.0,0.0,0.0,0.0,0.0,0.0,0.0,-2.109198,0.2226921,-0.99518436,0.24983883,-3.1005383,-2.9068887,-12.65844,-3.527248,0.24917126,2.9821305
8.138581,25.142752,5.3124075,4.538788,-0.20254081,-1.5548382,0.1976531,-0.75921386,0.63681096,0.22218542,0.041403696,0.3809991,0.6394792,0.54166627,1.0668461,-0.46239844,-1.6957062,-0.801098,2.3685753,1.483323,-0.9606977,1.1290976,-0.5144962,-1.71403,-0.80515635,2.3362546,1.4242083,-1.0124,-1.3651007,1.1514533,0.38513437,-0.0033028498,0.57109034,0.48339212,0.25330415,1.428978,-0.6240425,1.5483111,-3.0207255,-0.13489717,0.28803217,0.086509705,-0.38069916,1.0594361,0.8346833,-0.21797118,0.08146109,0.49915558,-0.2818925,0.7366227,0.37800276,1.0,0.0,0.0,0.0,0.0,0.0,0.0,-2.078978,0.2240425,-0.9983111,0.73292255,-2.7435303,-1.7303169,-4.6004767,-2.68296,-0.0045001507,2.712214
2.0906663,20.639244,3.9303603,10.162455,0.39231497,-1.3970437,0.0037220977,-0.74464023,0.6023804,0.17685384,0.082864776,0.32408458,0.6424976,0.5581646,1.0546336,-0.45425817,-1.6963446,-0.7968699,2.368663,1.488458,-0.95658356,1.1155592,-0.50327146,-1.710427,-0.8050009,2.3416715,1.4290205,-1.0096802,-1.3500625,1.1131217,0.35164222,0.02138338,0.532238,0.48102808,0.27800712,1.3987885,-0.6253929,1.5504528,-3.0177054,-0.1347623,0.18955825,0.083740234,-0.37350845,1.0630794,0.83439535,-0.22356749,0.08450064,0.49665043,-0.26909944,0.71367586,0.35575783,1.0,0.0,0.0,0.0,0.0,0.0,0.0,-2.0487885,0.22539291,-1.0004528,1.4951944,-3.7520885,-3.4355521,2.3297398,-3.7278175,-0.084757805,2.4070263
-1.8391356,16.952421,2.4895353,12.749778,0.66098696,-1.381469,-0.119545996,-0.7542955,0.5851372,0.13135947,0.07803723,0.30444998,0.6351854,0.5581879,1.0401297,-0.44475773,-1.6972911,-0.79719716,2.3721166,1.492539,-0.95386136,1.1021086,-0.49243438,-1.70732,-0.8044516,2.3466992,1.4338042,-1.0067428,-1.3435024,1.0741475,0.2968734,0.06561216,0.49394083,0.47789422,0.29874584,1.3686295,-0.6267395,1.5516105,-3.0146883,-0.13462757,0.09118279,0.08098602,-0.3665886,1.0665205,0.8341894,-0.22899286,0.08773437,0.49395636,-0.26860076,0.6869282,0.33652958,1.0,0.0,0.0,0.0,0.0,0.0,0.0,-2.0186296,0.2267395,-1.0016105,0.6099701,-3.8209438,-5.5421057,4.2569594,-3.665328,-0.19014478,2.0068407
2.623028,9.542429,0.52644646,5.2991476,0.19929212,-1.8587748,0.05652055,-0.743536,0.53752506,0.1287133,-0.048750687,0.26452324,0.6363599,0.56397635,1.027755,-0.43868187,-1.6944486,-0.80932665,2.3731515,1.4974401,-0.9503452,1.0887438,-0.4821161,-1.7046955,-0.80407107,2.3512998,1.4385649,-1.0036205,-1.3339516,1.0179433,0.25050902,0.028485585,0.4490706,0.47591463,0.31662497,1.338501,-0.6280823,1.5517851,-3.0116742,-0.13449296,-0.0070943246,0.078430176,-0.36006546,1.069611,0.83404213,-0.23401608,0.091180235,0.49121913,-0.2440559,0.6421102,0.29645386,1.0,0.0,0.0,0.0,0.0,0.0,0.0,-1.988501,0.22808227,-1.001785,0.99630356,-5.546093,-4.717988,-3.8326123,-4.39859,-0.0008583069,1.7335534
3.7578206,2.8366933,-0.9122174,2.1888623,0.18186438,-2.0776567,0.15947604,-0.73599416,0.47963873,0.14868973,-0.08294547,0.2115881,0.63917726,0.5797002,1.0151443,-0.43415225,-1.6898265,-0.8123656,2.3724585,1.5024827,-0.94565046,1.0754896,-0.47252977,-1.7023132,-0.8043238,2.3553739,1.4433104,-1.0003303,-1.322231,0.9390994,0.23380105,-0.043581095,0.393553,0.47480273,0.33301702,1.308403,-0.62942505,1.5509778,-3.0086632,-0.1343585,-0.10527318,0.076164246,-0.3540764,1.0722281,0.83389986,-0.23847084,0.09478278,0.48862943,-0.21468312,0.58453137,0.24708751,1.0,0.0,0.0,0.0,0.0,0.0,0.0,-1.958403,0.22942504,-1.0009778,1.2657404,-7.8128576,-1.7712653,-7.3051596,-5.5008354,0.10296106,1.5844285
-4.220988,-12.377384,-5.098264,6.98465,1.213103,-2.0856552,-0.020889409,-0.71760905,0.39021778,0.102488644,0.004168815,0.21282068,0.6421686,0.57964015,1.0037287,-0.43350798,-1.6920643,-0.8039069,2.3766558,1.5075272,-0.9423663,1.0624167,-0.46401536,-1.7001903,-0.80484736,2.3589864,1.4480463,-0.99689615,-1.3019351,0.82247996,0.20462155,-0.05578549,0.35072944,0.4737862,0.34663424,1.2783356,-0.6307678,1.5491894,-3.005655,-0.13422416,-0.20335388,0.073905945,-0.34882355,1.0743781,0.8338357,-0.24241708,0.09831063,0.48609355,-0.22250614,0.50618684,0.20169316,1.0,0.0,0.0,0.0,0.0,0.0,0.0,-1.9283355,0.23076782,-0.99918944,2.1317005,-11.594952,-3.0667572,-1.3685949,-4.2079806,0.058096647,1.291424
-12.091573,-37.385155,-13.412542,6.6356525,1.6949918,-2.606226,-0.25789893,-0.69453186,0.2844816,-0.06162099,-0.014174748,0.12676397,0.6358758,0.5690716,0.9929635,-0.4355672,-1.7063524,-0.8062648,2.3716629,1.5116339,-0.939989,1.0496298,-0.45697105,-1.6990669,-0.80541384,2.362019,1.4527689,-0.9933523,-1.2703608,0.66530305,0.080743276,-0.057488848,0.287863,0.472199,0.35672656,1.2482986,-0.6321106,1.5464209,-3.00265,-0.13408996,-0.30133653,0.07144928,-0.34467697,1.0759493,0.8340852,-0.24568783,0.10175908,0.4833055,-0.24871506,0.38456383,0.14022562,1.0,0.0,0.0,0.0,0.0,0.0,0.0,-1.8982986,0.23211059,-0.9964209,3.3319235,-15.659881,-12.597092,-0.3385134,-6.2482176,-0.016236305,0.9265125
-21.440754,-81.680336,-26.3932,2.2468271,2.5450594,-3.4630435,-0.39352992,-0.65907854,0.057305,-0.15166308,-0.06714984,-0.0130263185,0.63849777,0.5468708,0.983722,-0.45124054,-1.7142332,-0.81212884,2.3607163,1.5166187,-0.9386652,1.0372874,-0.4522828,-1.6995456,-0.80617106,2.364102,1.4574763,-0.9897388,-1.2210101,0.403494,-0.091746375,-0.0822133,0.18128408,0.47065046,0.36253372,1.2182922,-0.63345337,1.5426733,-2.999648,-0.1339559,-0.3992212,0.06855011,-0.34231186,1.0766357,0.8348908,-0.24789415,0.10503282,0.48007703,-0.30100533,0.18747371,0.043526642,1.0,0.0,0.0,0.0,0.0,0.0,0.0,-1.8682922,0.23345336,-0.99267334,5.305314,-26.139414,-17.600323,-2.5798485,-10.692033,-0.050652027,0.48947334
-21.658716,-116.14702,-36.058594,-10.620656,2.4202642,-4.491507,-0.1892495,-0.64862335,-0.16595833,-0.17637832,-0.29802018,-0.16044495,0.6231768,0.48861605,0.97242504,-0.46887863,-1.7171835,-0.8359731,2.3480575,1.519794,-0.9408772,1.0254198,-0.45087516,-1.7015998,-0.8082377,2.3647885,1.4621512,-0.98612344,-1.1734651,0.053191047,-0.24468884,-0.24797085,0.030165166,0.4662018,0.36095902,1.1883163,-0.6347885,1.5379477,-2.996649,-0.13382196,-0.49700803,0.065223694,-0.3424263,1.0759735,0.83633363,-0.24839982,0.10801946,0.4766291,-0.34024727,-0.07742254,-0.103274934,1.0,0.0,0.0,0.0,0.0,0.0,0.0,-1.8383163,0.2347885,-0.98794764,5.291581,-35.02952,-15.644807,-16.507574,-15.327636,-0.5004406,-0.2565682
-12.072533,-129.04568,-35.813374,-23.099651,2.275664,-4.734711,0.48367527,-0.6074652,-0.46477705,0.15564683,-0.52900285,-0.39402983,0.6375464,0.45272577,0.9646733,-0.49735287,-1.6860352,-0.861138,2.3253856,1.5259058,-0.94085085,1.0141016,-0.45375812,-1.7031963,-0.81298697,2.3634534,1.4667727,-0.98255956,-1.1161338,-0.40242615,-0.1316965,-0.5499448,-0.18953297,0.45942253,0.35443145,1.158371,-0.63612366,1.5322449,-2.9936528,-0.13368817,-0.5946971,0.061668396,-0.34534073,1.0735959,0.8380374,-0.2469099,0.11022824,0.47389716,-0.35992795,-0.36168948,-0.2826632,1.0,0.0,0.0,0.0,0.0,0.0,0.0,-1.808371,0.23612365,-0.9822449,6.230879,-45.66243,11.183175,-29.983116,-22.35982,-1.1384487,-0.79386234
0.70052207,-108.500755,-26.475603,-26.029999,1.9635036,-4.1602764,0.9835763,-0.48967922,-0.6704253,0.3636578,-0.61460537,-0.5325835,0.6563768,0.45137247,0.9651337,-0.52080065,-1.6668305,-0.8744475,2.310195,1.5324104,-0.93742234,1.0037676,-0.4613055,-1.7022598,-0.82081854,2.359799,1.4713255,-0.9790634,-1.0052849,-0.87291354,0.16954786,-0.8604994,-0.4251339,0.45071837,0.34749797,1.1284561,-0.6374588,1.5255659,-2.99066,-0.1335545,-0.6922885,0.05809021,-0.35077667,1.0694963,0.83947414,-0.24371566,0.11113251,0.47279522,-0.36059317,-0.6030432,-0.45285758,1.0,0.0,0.0,0.0,0.0,0.0,0.0,-1.7784561,0.2374588,-0.97556585,11.233211,-47.266747,30.323505,-30.934155,-23.905224,-1.7653883,-0.85396767
33.50421,-38.315582,-2.6337106,-28.594326,0.1174438,-3.219961,1.5069181,-0.08835863,-0.73667794,0.4263242,-0.58468103,-0.57937014,0.6529511,0.33712196,0.99493176,-0.53497326,-1.6596273,-0.87928665,2.301862,1.5366206,-0.9453512,0.9962373,-0.47273862,-1.6981189,-0.83093226,2.3540921,1.4757982,-0.9757112,-0.67138755,-1.2339996,0.49736944,-1.0625907,-0.61857957,0.44347012,0.33088708,1.0985718,-0.63879395,1.5179117,-2.98767,-0.13342097,-0.78978235,0.055099487,-0.35782242,1.0640974,0.83999527,-0.23963624,0.1104609,0.4741104,-0.28088734,-0.733921,-0.57031167,1.0,0.0,0.0,0.0,0.0,0.0,0.0,-1.7485718,0.23879394,-0.96791166,32.681454,-36.264565,33.331932,-20.503521,-19.25919,-1.5219808,-1.7081022
50.59375,16.46809,12.89324,-23.984426,-1.3016129,-2.531148,1.3852993,0.18910782,-0.7680442,0.2992696,-0.5261656,-0.59939414,0.65790707,0.17754476,1.015148,-0.549543,-1.6681919,-0.8835488,2.2941527,1.5415889,-0.95795673,0.9930577,-0.48670137,-1.6919448,-0.8419949,2.3468862,1.4802252,-0.9726347,-0.20437875,-1.4506269,0.66044337,-1.1226411,-0.7535452,0.44085,0.29996446,1.068718,-0.6401291,1.5092833,-2.9846828,-0.13328758,-0.8871787,0.05328369,-0.3655548,1.0579185,0.8393661,-0.23539591,0.108461715,0.47779632,-0.15086168,-0.78265876,-0.6357571,1.0,0.0,0.0,0.0,0.0,0.0,0.0,-1.7187179,0.24012908,-0.9592833,45.40661,-21.740198,17.197096,-6.5420866,-13.249672,-0.7458985,-3.051412
45.658314,40.462772,16.423437,-13.443714,-1.5843129,-2.090756,0.827122,0.276467,-0.7864944,0.15415964,-0.5082495,-0.5622718,0.6500611,0.07972355,1.0207044,-0.56535083,-1.6765289,-0.8928198,2.290659,1.5452313,-0.9646623,0.99422693,-0.5018953,-1.685662,-0.8529688,2.3388677,1.4846407,-0.9699253,0.22002198,-1.5424653,0.6208217,-1.0904169,-0.8177622,0.44107687,0.2614387,1.0388947,-0.64146423,1.4996817,-2.9816988,-0.13315432,-0.9844777,0.052711487,-0.37353134,1.0513316,0.83786565,-0.23126943,0.10569341,0.4830366,-0.026141508,-0.795046,-0.66869557,1.0,0.0,0.0,0.0,0.0,0.0,0.0,-1.6888946,0.24146423,-0.9496817,41.238926,-9.231305,-3.051424,2.8050423,-6.325257,-0.21108985,-3.7781239
32.05199,38.86963,11.23696,-5.7816215,-1.4134537,-2.1506603,0.21498626,0.34938115,-0.7981249,-0.06520617,-0.5294084,-0.5019373,0.65775967,0.022799322,1.029165,-0.5817078,-1.6921827,-0.90590966,2.2886739,1.5504167,-0.96764535,0.99885607,-0.51739824,-1.6813362,-0.8634592,2.3306928,1.4890715,-0.9676193,0.5408318,-1.5531824,0.3725138,-1.0359652,-0.81813776,0.44323373,0.22028813,1.0091019,-0.64279175,1.4891078,-2.9787178,-0.13302119,-1.0816795,0.05319214,-0.38167953,1.0444374,0.83603007,-0.2270528,0.1027644,0.4888152,0.07532285,-0.81596684,-0.69918936,1.0,0.0,0.0,0.0,0.0,0.0,0.0,-1.6591018,0.24279174,-0.93910784,31.192661,-1.1348009,-23.959743,5.2520275,-0.1644373,0.034207106,-4.108882
21.911854,27.381388,3.814786,-4.051726,-1.3905784,-2.5558813,-0.18641464,0.47236085,-0.80364066,-0.33359584,-0.55247164,-0.47535345,0.66277117,0.014320943,1.0460922,-0.5977623,-1.7146957,-0.9187064,2.2831573,1.5553486,-0.9661872,1.0061383,-0.5327133,-1.6807811,-0.87353003,2.3227544,1.4935251,-0.9656986,0.7884003,-1.524581,-0.04728582,-0.9976026,-0.78649956,0.44499093,0.18229526,0.9793396,-0.64411926,1.4775627,-2.9757397,-0.1328882,-1.178784,0.054603577,-0.39025497,1.0371151,0.8343576,-0.22228317,0.10020206,0.49436516,0.16581006,-0.864672,-0.7466236,1.0,0.0,0.0,0.0,0.0,0.0,0.0,-1.6293396,0.24411926,-0.92756265,24.079954,2.7644873,-41.104595,3.7866116,2.9008746,-0.111848116,-3.9030254
16.220638,21.679293,0.43855476,-3.0109358,-1.3490046,-2.6256719,-0.31180963,0.56302625,-0.80375075,-0.49253914,-0.5585221,-0.49432692,0.6561858,0.041847806,1.062441,-0.61308837,-1.7300351,-0.92938226,2.2733216,1.5591438,-0.9615138,1.0154252,-0.54766214,-1.6846664,-0.8833691,2.3151097,1.4979845,-0.9640964,0.9738769,-1.4852512,-0.49999514,-0.9791586,-0.7578875,0.44522813,0.15233646,0.94960785,-0.6454468,1.4650471,-2.9727645,-0.13275534,-1.2757915,0.05682373,-0.39937973,1.0292413,0.83309454,-0.21664758,0.09831418,0.4993512,0.2486053,-0.92214155,-0.80533224,1.0,0.0,0.0,0.0,0.0,0.0,0.0,-1.5996078,0.24544677,-0.9150471,18.10558,3.8364887,-44.605816,1.8739223,2.6155949,-0.32975078,-3.1372309
14.868797,21.427635,0.577754,-3.180924,-1.2972808,-2.4566987,-0.21606904,0.62466705,-0.8044778,-0.5929198,-0.5917949,-0.490835,0.6421801,0.053615484,1.077892,-0.62810993,-1.7439584,-0.9425486,2.2660263,1.5622026,-0.95873487,1.0261693,-0.56226957,-1.6925724,-0.8932873,2.3077168,1.5024325,-0.96274316,1.1069815,-1.4527715,-0.88628376,-0.9959166,-0.7336377,0.44335172,0.1292268,0.9199066,-0.6467743,1.4515624,-2.9697921,-0.1326226,-1.372702,0.0598526,-0.40903473,1.0207388,0.8322284,-0.21004154,0.09713919,0.50382763,0.32730514,-0.9742412,-0.87086767,1.0,0.0,0.0,0.0,0.0,0.0,0.0,-1.5699066,0.24677429,-0.9015624,13.065147,3.1706572,-38.25054,-1.6177654,2.2634387,-0.5821347,-2.4268417
10.788406,24.134983,2.666384,1.1867366,-0.7983451,-1.8828807,-0.16156596,0.6508009,-0.81178707,-0.6493011,-0.56489134,-0.5034047,0.65730894,0.025735624,1.0912493,-0.6434483,-1.7575024,-0.9497764,2.2573764,1.5681634,-0.9601696,1.037848,-0.5766815,-1.7034519,-0.9033066,2.300469,1.5068766,-0.9616064,1.187895,-1.4375576,-1.1545973,-1.0036905,-0.72221744,0.44360992,0.108353905,0.8902359,-0.6481018,1.4371092,-2.966823,-0.13249001,-1.4695156,0.06347656,-0.419075,1.01165,0.83165073,-0.20263775,0.09652672,0.50791484,0.38338536,-1.0077829,-0.9283595,1.0,0.0,0.0,0.0,0.0,0.0,0.0,-1.5402359,0.2481018,-0.8871092,8.010077,1.4572144,-26.676868,-0.6911278,1.0207415,-0.30059218,-2.1478727
3.9800043,33.510693,7.190235,10.462526,-0.1069476,-0.95231247,-0.1915691,0.6454308,-0.8062648,-0.6514065,-0.4757737,-0.5801422,0.67751956,0.028333565,1.1023911,-0.657308,-1.7685925,-0.950884,2.2424548,1.5746286,-0.958773,1.0499349,-0.5910057,-1.7159755,-0.9129664,2.2930532,1.5113493,-0.96064794,1.2156345,-1.4308535,-1.2847165,-0.9530385,-0.7487292,0.44806013,0.09159873,0.8605957,-0.6494255,1.4216886,-2.963857,-0.13235754,-1.5662323,0.06741333,-0.4291954,1.0021963,0.83125085,-0.19489688,0.096339405,0.5116208,0.40511283,-1.0071826,-0.95853233,1.0,0.0,0.0,0.0,0.0,0.0,0.0,-1.5105957,0.2494255,-0.87168854,2.811265,0.6058693,-12.981725,5.147302,-2.7927876,0.31808615,-1.6998217
-0.15230465,39.053253,10.081425,16.03378,0.42552054,-0.3988949,-0.19188644,0.6481013,-0.80996954,-0.669809,-0.42836657,-0.5943721,0.66975033,0.01266162,1.114745,-0.6720026,-1.7829564,-0.95580304,2.2336159,1.5783243,-0.95938176,1.0620675,-0.6053318,-1.7291057,-0.9218699,2.2852979,1.5158659,-0.959844,1.2127784,-1.4334036,-1.3226335,-0.86924815,-0.78523284,0.45298034,0.07665914,0.830986,-0.6507454,1.4053016,-2.9608936,-0.13222522,-1.6628524,0.071388245,-0.43917847,0.9925817,0.8309469,-0.18720067,0.09642403,0.5149616,0.4039853,-0.988853,-0.9703385,1.0,0.0,0.0,0.0,0.0,0.0,0.0,-1.480986,0.2507454,-0.85530156,-0.2033472,-0.32875538,-3.8002968,8.458567,-3.8176775,0.48427582,-1.485069
-0.7010727,41.351967,11.436806,16.696241,0.5940976,-0.21215561,-0.11128071,0.6383565,-0.8147651,-0.67707604,-0.43161157,-0.5833479,0.66698515,0.028401596,1.1259031,-0.6868083,-1.7968134,-0.965031,2.226963,1.5825645,-0.95700383,1.0740209,-0.61972845,-1.7422206,-0.9300448,2.277245,1.5204283,-0.95915735,1.1898305,-1.4420187,-1.307981,-0.79999477,-0.81272024,0.4573569,0.066121854,0.80139923,-0.6520653,1.387949,-2.9579332,-0.13209301,-1.7593759,0.07530975,-0.44893646,0.98287666,0.8306601,-0.17968282,0.096636936,0.5180532,0.39734116,-0.9652955,-0.97844684,1.0,0.0,0.0,0.0,0.0,0.0,0.0,-1.4513992,0.25206527,-0.837949,-2.183795,-0.93479156,1.4126062,7.0127845,-2.9266953,0.44386983,-1.0141432
2.6585627,42.43379,12.054522,13.352106,0.32757348,-0.29869297,0.025460519,0.6324067,-0.81552374,-0.6833359,-0.46329233,-0.58647066,0.65886325,0.044289604,1.1372615,-0.70128083,-1.8105543,-0.97637403,2.218598,1.5863147,-0.95472836,1.0857053,-0.6342138,-1.7550628,-0.93787444,2.2689786,1.5250212,-0.958547,1.161625,-1.4508897,-1.2766109,-0.77701646,-0.83164865,0.45971444,0.05952067,0.7718353,-0.65338516,1.369632,-2.9549758,-0.13196094,-1.8558029,0.07926941,-0.45846558,0.9730327,0.8303054,-0.17226544,0.09691693,0.5210802,0.4027064,-0.9421901,-0.9940682,1.0,0.0,0.0,0.0,0.0,0.0,0.0,-1.4218353,0.25338516,-0.819632,-2.7030945,-0.9452343,3.024292,2.385044,-2.0412803,0.18339753,-0.60367733
5.9646435,46.076324,13.528925,11.531393,0.07792795,-0.29396084,0.12181448,0.6317644,-0.8102163,-0.67294914,-0.45304275,-0.6060813,0.67195684,0.09391254,1.1488817,-0.7152354,-1.8223578,-0.98317873,2.2083704,1.5922168,-0.94915575,1.0971494,-0.64874303,-1.7675483,-0.9456192,2.260529,1.5296427,-0.95795286,1.1391467,-1.4538176,-1.2396137,-0.77334625,-0.8498013,0.46259758,0.059601475,0.74230194,-0.65470505,1.3503515,-2.9520216,-0.13182901,-1.9521335,0.083343506,-0.46772385,0.9630236,0.8298043,-0.16489531,0.09727008,0.52418786,0.41800067,-0.914256,-1.0106335,1.0,0.0,0.0,0.0,0.0,0.0,0.0,-1.3923019,0.25470504,-0.80035144,-2.1450043,-0.33533573,3.5539627,0.43299198,-1.9351244,0.2219379,0.07262826
5.743742,45.836792,13.294448,11.211355,0.07698619,-0.3003815,0.12422547,0.61517984,-0.8129922,-0.6747401,-0.4453365,-0.607725,0.6776226,0.10284013,1.1586673,-0.7300423,-1.8350223,-0.9901529,2.1997566,1.597405,-0.94766885,1.1083627,-0.66329134,-1.7797439,-0.9533812,2.2519383,1.5342928,-0.95734346,1.1158091,-1.455379,-1.2133027,-0.77679527,-0.8626727,0.4654692,0.061608054,0.7127991,-0.65602493,1.3301083,-2.9490702,-0.13169721,-2.0483677,0.08757782,-0.47672272,0.95283127,0.82914156,-0.15753043,0.097706005,0.52741045,0.4333865,-0.88805515,-1.0293585,1.0,0.0,0.0,0.0,0.0,0.0,0.0,-1.362799,0.25602493,-0.7801083,-2.2216082,-0.19900799,2.4834156,-0.2642274,-1.4114976,0.20589828,0.26345253
6.227536,45.97599,13.216246,10.546494,-0.011055768,-0.31988785,0.14447652,0.60618204,-0.81250966,-0.67414165,-0.45117083,-0.62912357,0.6779031,0.1548748,1.1689808,-0.7445423,-1.8471581,-0.99849826,2.1890259,1.6020831,-0.94185597,1.1193643,-0.6778425,-1.7917659,-0.9612261,2.2431912,1.5389677,-0.956673,1.095262,-1.4550883,-1.1991038,-0.7867733,-0.878978,0.46777725,0.068957165,0.6833267,-0.657341,1.3089036,-2.9461217,-0.13156554,-2.1445055,0.09199524,-0.48546982,0.9424311,0.8283115,-0.15012076,0.09826481,0.5307616,0.45168498,-0.8625831,-1.0506647,1.0,0.0,0.0,0.0,0.0,0.0,0.0,-1.3333267,0.257341,-0.75890356,-1.9422531,-0.012254715,1.2719393,-0.90841055,-1.7551064,0.13051629,0.7907748
10.113466,45.715263,13.495093,7.4419346,-0.20471561,-0.43432108,0.24096036,0.6107965,-0.81629294,-0.6644052,-0.4965952,-0.59409404,0.6737072,0.16029924,1.1804439,-0.7594718,-1.8582065,-1.0108856,2.1837819,1.6063385,-0.9406431,1.1302419,-0.69240224,-1.8036792,-0.96937907,2.2344213,1.5436579,-0.9559263,1.0855268,-1.4563833,-1.1892817,-0.82452595,-0.87694824,0.46875322,0.07683457,0.6538849,-0.65865326,1.2867382,-2.943176,-0.131434,-2.2405472,0.09667206,-0.4939804,0.93175966,0.8272601,-0.14257593,0.09889517,0.53435236,0.48012963,-0.8391182,-1.0794948,1.0,0.0,0.0,0.0,0.0,0.0,0.0,-1.3038849,0.25865325,-0.73673815,-0.8760929,-0.15969276,0.80268383,-3.684473,0.11515617,-0.053942204,0.8657843
8.724258,46.627728,13.764292,8.475758,-0.11071181,-0.31930035,0.23394924,0.59198606,-0.8156655,-0.65315557,-0.49153647,-0.6107539,0.679003,0.22898552,1.1894405,-0.7739688,-1.8689948,-1.0185328,2.1733458,1.6115582,-0.93302774,1.1409898,-0.7069715,-1.8154857,-0.97786295,2.2256513,1.5483576,-0.9550556,1.0715632,-1.4571903,-1.1785283,-0.85610497,-0.87730026,0.47007108,0.09069926,0.6244736,-0.6599655,1.263613,-2.9402335,-0.1313026,-2.3364928,0.10160828,-0.5022316,0.920816,0.8259668,-0.13488935,0.099583715,0.53820705,0.5038727,-0.81336087,-1.1061753,1.0,0.0,0.0,0.0,0.0,0.0,0.0,-1.2744735,0.2599655,-0.713613,-1.2871742,-0.11117458,0.8932829,-3.0565262,-0.13245344,-0.0041544437,1.4654353
4.6650734,48.35668,14.003075,11.586222,0.15235388,-0.11649114,0.142006,0.5693532,-0.8106753,-0.6487048,-0.47138414,-0.6254495,0.68159676,0.2299757,1.1979251,-0.7880391,-1.8803562,-1.0250014,2.1631062,1.6165173,-0.93205804,1.1515241,-0.72152364,-1.8271911,-0.986488,2.2168355,1.5530745,-0.9540552,1.0479559,-1.4546484,-1.168548,-0.86422664,-0.88318926,0.47192335,0.103445485,0.5950928,-0.6612778,1.2395291,-2.937294,-0.13117132,-2.4323425,0.106674194,-0.5102272,0.90966123,0.8244758,-0.12713552,0.1003543,0.5422225,0.5153918,-0.7849633,-1.1251898,1.0,0.0,0.0,0.0,0.0,0.0,0.0,-1.2450927,0.26127777,-0.6895291,-2.2353172,0.21672249,0.8409023,-0.7029176,-0.7159114,0.09788871,1.3421595
-2.1584587,48.102005,13.172094,15.452491,0.56113106,0.09256691,0.012121208,0.52933216,-0.80915105,-0.6476856,-0.45602167,-0.63279563,0.6878602,0.21993977,1.2044573,-0.80243874,-1.8919597,-1.0320902,2.1535559,1.6218605,-0.9320612,1.1616712,-0.7360414,-1.8388183,-0.99503386,2.2079358,1.5578142,-0.952948,1.0041962,-1.450965,-1.1613351,-0.85090417,-0.8925423,0.4747229,0.11326308,0.5657425,-0.66259,1.2144876,-2.9343574,-0.13104017,-2.5280964,0.11174011,-0.5179367,0.89836067,0.8228772,-0.11938674,0.101229765,0.54623467,0.50875276,-0.7580169,-1.1381098,1.0,0.0,0.0,0.0,0.0,0.0,0.0,-1.2157425,0.26259002,-0.66448754,-4.2184114,0.3164053,0.5973816,1.4674425,-1.115036,0.23807883,1.0325418
-3.8245926,47.914135,12.797819,15.621624,0.6091602,0.13285473,-0.00051417947,0.50382984,-0.80502445,-0.64756334,-0.48016614,-0.63227147,0.68243545,0.22045243,1.2120541,-0.8165439,-1.9035747,-1.0430505,2.1447086,1.6260577,-0.9309027,1.1713185,-0.7505077,-1.8504016,-1.0035216,2.198956,1.5625769,-0.9517559,0.95212835,-1.4453404,-1.1575835,-0.8475784,-0.9005373,0.47662538,0.12124844,0.5364227,-0.6639023,1.1884891,-2.9314237,-0.13090916,-2.6237547,0.11670685,-0.5253906,0.8869165,0.82121056,-0.11162839,0.10222195,0.5501844,0.49934715,-0.73231983,-1.1527236,1.0,0.0,0.0,0.0,0.0,0.0,0.0,-1.1864227,0.26390228,-0.63848907,-5.033767,0.5069256,0.2510786,0.48321486,-0.9930849,0.13712049,0.84284544
-6.069053,41.342777,9.995438,12.988127,0.5693239,0.022303224,0.03983569,0.44548827,-0.8165666,-0.6517739,-0.56251997,-0.6182862,0.6661139,0.18155451,1.2158674,-0.83216435,-1.9155791,-1.0597736,2.1371274,1.6291883,-0.9336004,1.1802754,-0.7649816,-1.8619888,-1.0123812,2.1899533,1.5673395,-0.95052564,0.87767214,-1.4482354,-1.1595693,-0.8978021,-0.90071297,0.4756206,0.12385669,0.5071335,-0.6652069,1.1615348,-2.9284928,-0.13077827,-2.7193172,0.12158966,-0.5326576,0.875187,0.81947803,-0.10367271,0.10330442,0.5541081,0.489998,-0.7149303,-1.1856263,1.0,0.0,0.0,0.0,0.0,0.0,0.0,-1.1571335,0.2652069,-0.6115348,-7.220304,-0.3553629,-0.359869,-4.802525,-0.22416115,-0.24906397,0.30604005
-17.518827,37.903255,7.126616,15.856108,0.9575502,0.28097102,-0.03606911,0.3247629,-0.8094501,-0.6423803,-0.6088455,-0.6413264,0.6668023,0.23153187,1.2127517,-0.84592664,-1.9262269,-1.0732658,2.1258206,1.6340197,-0.92737246,1.1880574,-0.7794651,-1.8735645,-1.0219694,2.1808934,1.5720888,-0.94924104,0.74625266,-1.4487222,-1.1573802,-0.9782234,-0.90869015,0.47419003,0.12999564,0.47787476,-0.66651154,1.1336255,-2.9255648,-0.13064753,-2.8147843,0.12621307,-0.5397606,0.8630818,0.8177365,-0.095379695,0.10451014,0.55793136,0.45822504,-0.6998629,-1.2247167,1.0,0.0,0.0,0.0,0.0,0.0,0.0,-1.1278747,0.26651153,-0.5836255,-12.816763,-0.1380682,0.04117489,-7.743287,-1.0873914,-0.3098905,0.6318867
-56.232704,26.546104,-2.059917,28.83619,2.7738166,1.0641321,-0.41603106,0.018314982,-0.81171256,-0.61224985,-0.68280876,-0.6177455,0.6537187,0.276689,1.189889,-0.86063635,-1.9347894,-1.0902503,2.119119,1.6374607,-0.92157215,1.1932836,-0.79396665,-1.8849723,-1.0325991,2.1718144,1.5768152,-0.94786775,0.45004502,-1.4513773,-1.1357775,-1.0895497,-0.90953994,0.47151843,0.1396148,0.44864655,-0.66781616,1.1047623,-2.9226396,-0.1305169,-2.910156,0.12989807,-0.5468445,0.85055244,0.81627005,-0.08662584,0.10582425,0.56124896,0.34076136,-0.70171577,-1.2680608,1.0,0.0,0.0,0.0,0.0,0.0,0.0,-1.0986465,0.26781616,-0.5547623,-29.038256,-0.4567623,2.026844,-10.603738,-0.66993237,-0.4285574,0.9293437
-84.97889,26.690062,-5.3097615,40.57034,4.273614,1.9804747,-0.6402819,-0.24043615,-0.80490017,-0.51324123,-0.7351407,-0.6120284,0.65282315,0.38728073,1.16924,-0.87445664,-1.9362965,-1.1061132,2.1106117,1.6420976,-0.9091397,1.1946511,-0.80846536,-1.895705,-1.0443865,2.162747,1.5815169,-0.946319,0.03484842,-1.4503052,-1.052728,-1.2063974,-0.9086077,0.46921048,0.15993936,0.41944885,-0.6691208,1.0749462,-2.9197176,-0.13038641,-3.0054324,0.13188171,-0.55394745,0.8377041,0.81530875,-0.07748392,0.107131496,0.5637293,0.15411158,-0.7036887,-1.2958955,1.0,0.0,0.0,0.0,0.0,0.0,0.0,-1.0694488,0.26912078,-0.52494615,-40.776867,-0.17015934,8.167553,-10.987735,-0.70359707,-0.3677845,2.0344436
-74.938545,42.207703,2.9096787,40.103695,4.2236223,2.3511,-0.4311481,-0.31535915,-0.79641163,-0.3793932,-0.76206625,-0.54918855,0.6418975,0.46918303,1.1631153,-0.8881065,-1.9336443,-1.1205931,2.1078281,1.6457067,-0.8994007,1.1921811,-0.8229059,-1.90503,-1.0572001,2.1538892,1.5861937,-0.94450605,-0.338678,-1.4428139,-0.8935157,-1.3043079,-0.88028896,0.4670629,0.18904126,0.39026642,-0.6704254,1.0441779,-2.9167986,-0.13025606,-3.1006134,0.13209534,-0.56090164,0.82479817,0.81473583,-0.06827238,0.10811858,0.565557,-0.022951744,-0.68314433,-1.2938633,1.0,0.0,0.0,0.0,0.0,0.0,0.0,-1.0402664,0.2704254,-0.49417788,-36.70625,0.5199909,15.621746,-9.162736,2.2055507,-0.26065707,3.085384
-57.09849,57.543217,11.998446,37.114033,3.634006,2.4688303,-0.2265385,-0.4000366,-0.791652,-0.26459882,-0.7600456,-0.5803742,0.65621215,0.5183392,1.1521775,-0.9020711,-1.93149,-1.1332046,2.0958517,1.6518149,-0.8926721,1.186585,-0.83724535,-1.9124115,-1.0706869,2.1452298,1.5908705,-0.94237745,-0.631541,-1.4314331,-0.6879573,-1.3618379,-0.86184984,0.46823543,0.22190972,0.3611145,-0.67173004,1.0124586,-2.9138825,-0.13012582,-3.195699,0.13077545,-0.56747437,0.8121154,0.8143362,-0.0593749,0.108599685,0.5670426,-0.16796446,-0.6397514,-1.2638637,1.0,0.0,0.0,0.0,0.0,0.0,0.0,-1.0111145,0.27173004,-0.46245855,-28.786827,1.0103226,20.080353,-5.2654505,1.5096307,0.22439957,3.5857737
-38.69654,47.63557,8.521713,26.805622,2.3693147,1.2936975,-0.20245501,-0.4044324,-0.7895145,-0.4843431,-0.77179724,-0.6131454,0.63842547,0.5242763,1.1461418,-0.9161968,-1.9608457,-1.1478666,2.0839152,1.654713,-0.8899498,1.1790414,-0.8514751,-1.9191272,-1.0845362,2.1366162,1.5955397,-0.9399475,-0.79434615,-1.4205767,-0.66712207,-1.3911737,-0.86193365,0.4662717,0.25067404,0.3319931,-0.67302704,0.9797891,-2.9109693,-0.12999572,-3.2906897,0.12844849,-0.57379913,0.79945976,0.8140651,-0.050540596,0.10885859,0.5682372,-0.2575463,-0.61935526,-1.2693825,1.0,0.0,0.0,0.0,0.0,0.0,0.0,-0.9819931,0.27302703,-0.42978907,-15.932596,0.9750366,1.7978787,-2.4838686,-0.29557943,-0.25943518,3.0712843
-23.494219,33.490402,3.009242,16.866463,1.2702338,0.11491579,-0.19853325,-0.39671817,-0.7981699,-0.66595787,-0.7729304,-0.63825345,0.61322784,0.5071729,1.1393696,-0.9312921,-1.985723,-1.1618292,2.0727909,1.6568625,-0.8892302,1.1707177,-0.86566484,-1.9269836,-1.0985075,2.1278844,1.6001593,-0.93728197,-0.84414315,-1.4188286,-0.8252552,-1.3977911,-0.8781601,0.45963985,0.2719354,0.30290222,-0.67432404,0.94617045,-2.908059,-0.12986575,-3.3855855,0.12556458,-0.5801201,0.78640896,0.81394434,-0.041244786,0.109278925,0.5690795,-0.30054262,-0.6258647,-1.3196903,1.0,0.0,0.0,0.0,0.0,0.0,0.0,-0.9529022,0.27432403,-0.39617044,-4.7547817,0.048184395,-15.842295,-0.2259016,-1.9644976,-0.9417355,2.1805704
-35.38174,23.084318,-3.5681083,18.946955,1.757916,0.02348429,-0.3991157,-0.5357018,-0.80929846,-0.7249825,-0.76887625,-0.63222086,0.58569926,0.45855314,1.1171476,-0.9465947,-1.9994818,-1.1753951,2.0646622,1.6587292,-0.8914267,1.1617589,-0.8799223,-1.9368656,-1.1124254,2.1189885,1.6046835,-0.9344753,-0.91220754,-1.4287748,-1.0420609,-1.3878391,-0.89485854,0.44866458,0.28367212,0.27384186,-0.67562103,0.9116035,-2.9051514,-0.1297359,-3.4803865,0.1220932,-0.5866432,0.77270997,0.81411695,-0.031170132,0.10999126,0.5693363,-0.36692178,-0.6508358,-1.3894874,1.0,0.0,0.0,0.0,0.0,0.0,0.0,-0.92384183,0.27562103,-0.3616035,-6.5375686,-1.2107849,-21.559452,1.5663862,-2.1732807,-1.5476704,1.1813343
-49.648865,24.69703,-4.905097,24.38781,2.5939863,0.5612608,-0.54146826,-0.66351104,-0.80277,-0.7426184,-0.7666786,-0.58069706,0.5846366,0.42545736,1.0954078,-0.9601993,-2.0111275,-1.1890934,2.0609188,1.6631472,-0.89192957,1.1517282,-0.8942627,-1.9486969,-1.1261946,2.1101003,1.609099,-0.93159807,-1.0322405,-1.4368229,-1.2293948,-1.3711472,-0.88889134,0.43763828,0.28918317,0.24481201,-0.676918,0.87608933,-2.9022467,-0.1296062,-3.5750926,0.11767578,-0.5934105,0.75837916,0.814715,-0.020318385,0.11085587,0.56880355,-0.47054553,-0.6735149,-1.4509584,1.0,0.0,0.0,0.0,0.0,0.0,0.0,-0.894812,0.27691802,-0.32608932,-11.673462,-1.0983467,-18.556858,2.3499727,-0.033903122,-1.6193867,0.59161186
-54.01622,33.067276,-1.5536048,27.63125,3.1372783,1.1396861,-0.55725527,-0.73543185,-0.7995254,-0.75407815,-0.7501794,-0.49933523,0.5846599,0.3798994,1.078185,-0.9742152,-2.0241046,-1.2012125,2.0601668,1.667565,-0.89360815,1.1403279,-0.9086517,-1.9619224,-1.139733,2.1015477,1.6134154,-0.92871034,-1.1750367,-1.440711,-1.3529935,-1.3459213,-0.845921,0.42815632,0.28900632,0.21581268,-0.678215,0.83962876,-2.899345,-0.12947662,-3.669704,0.112083435,-0.6003151,0.74359596,0.8157675,-0.008901634,0.111573204,0.5674464,-0.5942004,-0.6831035,-1.4912258,1.0,0.0,0.0,0.0,0.0,0.0,0.0,-0.86581266,0.27821502,-0.28962874,-13.953972,-0.70557594,-12.184978,3.2126188,3.651929,-1.4469147,0.09955168
-49.394836,43.07917,3.9821,27.77813,3.2569838,1.5586691,-0.48397166,-0.7826063,-0.79951024,-0.75921005,-0.7311077,-0.41356125,0.59033597,0.31703997,1.0620673,-0.98860276,-2.0378435,-1.2128438,2.0601916,1.672449,-0.89700633,1.1275563,-0.92305696,-1.9758976,-1.1529719,2.0936856,1.6176573,-0.9258741,-1.3103503,-1.4413948,-1.4119897,-1.3147166,-0.7679864,0.42146036,0.28244847,0.18684387,-0.679512,0.8022228,-2.896446,-0.12934716,-3.764221,0.10523987,-0.607193,0.72857654,0.8172239,0.0027990334,0.11181641,0.5653621,-0.71750575,-0.6762491,-1.5094755,1.0,0.0,0.0,0.0,0.0,0.0,0.0,-0.83684385,0.27951202,-0.25222278,-13.260818,-0.35567284,-5.76725,3.737235,7.235503,-1.1007726,-0.45749545
-37.630898,51.36238,9.970155,24.717545,3.273745,1.673147,-0.37992656,-0.8047347,-0.7972905,-0.76523435,-0.73071694,-0.15505026,0.5401397,0.111980796,1.0470829,-1.002786,-2.052421,-1.2260436,2.0781806,1.6716713,-0.914676,1.1136842,-0.9374422,-1.9901283,-1.1659666,2.087319,1.6218096,-0.92325246,-1.4123505,-1.4383166,-1.4265777,-1.2926544,-0.5944654,0.41186145,0.25644156,0.15790558,-0.6808014,0.7638724,-2.89355,-0.12921785,-3.858643,0.09728241,-0.613945,0.7134948,0.81902456,0.01456398,0.11108066,0.56271464,-0.8279194,-0.65983504,-1.5115494,1.0,0.0,0.0,0.0,0.0,0.0,0.0,-0.80790555,0.2808014,-0.21387237,-10.008359,0.08790493,-1.3892889,2.6920557,16.954052,-1.3195157,-2.2895038
-29.714752,58.11979,14.627607,24.520626,3.7585814,1.7365961,-0.419726,-0.8219987,-0.79677963,-0.77353567,-0.67355144,0.2087623,0.5271007,-0.13069236,1.0314844,-1.0171201,-2.0674818,-1.2333218,2.108195,1.6745197,-0.9363217,1.0990663,-0.95178735,-2.0043464,-1.178557,2.0836415,1.6258646,-0.9210619,-1.4779165,-1.4338398,-1.4200968,-1.2465886,-0.2932696,0.40252417,0.20799217,0.1289978,-0.68209076,0.72457045,-2.8906572,-0.12908866,-3.9540362,0.08821869,-0.6205597,0.6985321,0.8212267,0.026158817,0.108736426,0.5595344,-0.9383735,-0.6456417,-1.4947677,0.0,1.0,0.0,0.0,0.0,0.0,0.0,-0.7789978,0.28209075,-0.17457044,-6.442404,0.27885437,0.7200718,4.9676657,29.87426,-1.2416959,-4.429695
-21.851776,62.04328,17.545654,22.74556,3.5365136,1.693636,-0.44836825,-0.83382213,-0.79135644,-0.7840054,-0.6385284,0.36068556,0.4866445,-0.3245395,1.015684,-1.030923,-2.082747,-1.2424098,2.11971,1.6745291,-0.9535158,1.0839013,-0.9659215,-2.0195491,-1.1913657,2.0844357,1.6285444,-0.919814,-1.5266091,-1.4094273,-1.5394143,-1.2803332,0.17749256,0.22023624,0.10940856,0.11154175,-0.6830406,0.7183639,-1.5902792,-0.039508637,0.07320571,0.07813263,-0.6273842,0.6833675,0.8240548,0.038620006,0.1041106,0.55552065,-1.036347,-0.67443395,-1.5230534,0.0,1.0,0.0,0.0,0.0,0.0,0.0,-0.7615417,0.2830406,-0.16836387,-3.080058,0.446558,1.0483742,6.7976475,31.197123,-2.6738465,-5.7575045
39.69274,176.0,110.0,110.0,3.3475668,12.272054,-1.5453016,-0.74685615,0.55356514,0.7141533,0.6829121,-0.3852267,0.6987958,-0.34099263,1.0092157,-0.910565,-1.9481338,-1.1230745,2.045913,1.698424,-0.9539133,1.0722569,-0.9826833,-2.0268772,-1.1896396,2.0758183,1.6397063,-0.9179419,-1.0271484,-1.676215,-0.6092807,0.61941344,-1.0758206,1.4753059,0.24916673,0.09564972,-0.68343735,0.71835095,-1.5886893,-0.039469138,-0.026118638,0.067108154,-0.6323128,0.6727254,0.82729816,0.040358998,0.102515504,0.5508533,-1.1269432,-0.41418642,-0.9154984,1.0,0.0,0.0,0.0,0.0,0.0,0.0,-0.7456497,0.28343734,-0.16835093,54.870106,-0.000166893,49.42019,178.72508,-85.5775,143.62207,24.782333
-14.46796,176.0,85.96663,89.76385,5.8113484,6.211583,-1.5312369,-0.79365885,-0.66919374,0.3233884,0.73243487,-0.46320388,0.61896586,-0.36163184,0.992891,-1.0496026,-1.9945383,-1.1163961,2.0294979,1.7016028,-0.95410514,1.0621365,-0.9994451,-2.026469,-1.1764216,2.0626423,1.6544062,-0.91605747,-1.0058471,-1.6762152,0.25924695,1.5564386,-1.4009796,1.4741117,0.17030379,0.07977295,-0.6838341,0.7173455,-1.587101,-0.039429676,-0.12534368,0.05505371,-0.6357689,0.6671697,0.8314742,0.034209803,0.10272079,0.5449117,-1.233615,-0.31052816,-0.4394599,1.0,0.0,0.0,0.0,0.0,0.0,0.0,-0.7297729,0.28383407,-0.16734546,2.4908066,-4.7683716e-05,87.39522,93.815544,-33.253624,1.6132593,-7.263121
-43.223587,150.16861,44.860302,61.014847,3.9829707,3.198081,-1.3492492,-0.782022,-0.55599356,-0.19632244,0.6435305,-0.5234466,0.6405066,-0.1743999,0.98393434,-1.0550444,-2.0461013,-1.1120687,2.0102978,1.7184569,-0.9334974,1.0514935,-1.0144291,-2.0228717,-1.1582675,2.0488484,1.6684977,-0.9146718,-1.0823569,-1.4401392,0.39344174,1.9034795,-1.3743316,1.3906049,0.1281094,0.06391144,-0.6842308,0.71534854,-1.5855142,-0.039390255,-0.22446951,0.04196167,-0.63848495,0.66454697,0.8365898,0.025505438,0.10391061,0.5372798,-1.3352349,-0.24958128,-0.20999114,1.0,0.0,0.0,0.0,0.0,0.0,0.0,-0.7139114,0.2842308,-0.16534853,-7.1817875,23.2929,13.467735,35.23729,2.1248817,-7.4585915,-4.1557164
-25.358583,140.77788,44.455605,38.580418,2.409981,2.651347,-0.5421555,-0.77388847,-0.5496876,0.33766723,0.7383924,-0.53886443,0.59507704,-0.23937437,0.9741047,-1.0693978,-1.989105,-1.0844283,1.994962,1.7280054,-0.93860924,1.0397099,-1.0270233,-2.0174587,-1.1392322,2.036218,1.681336,-0.913762,-1.2096207,-1.2002143,0.590889,1.9044654,-1.2283614,1.2503798,0.07862694,0.048065186,-0.68462753,0.7123611,-1.5839291,-0.039350875,-0.32349628,0.028297424,-0.64038086,0.66377795,0.84213364,0.016070783,0.105417445,0.5286205,-1.3790556,-0.1604901,-0.040118847,1.0,0.0,0.0,0.0,0.0,0.0,0.0,-0.69806516,0.28462753,-0.16236109,-12.50658,23.668575,19.820875,0.32069683,13.837075,-13.390613,-4.966541
-15.50348,96.17816,27.093563,16.73813,0.98816717,1.2761769,-0.058542173,-0.7809346,-0.56904846,0.29663554,0.6843407,-0.4978885,0.61915404,-0.26198977,0.96161646,-1.0839281,-1.9877951,-1.070798,1.9864291,1.7432514,-0.93996096,1.0267476,-1.0377674,-2.011111,-1.1217437,2.0253193,1.6928431,-0.9133128,-1.3251247,-1.0331755,0.6494097,1.6970478,-1.0450805,1.1190143,0.033379674,0.032234192,-0.68502426,0.70838416,-1.5823455,-0.039311532,-0.42242402,0.014472961,-0.6415634,0.6637648,0.8476991,0.007012268,0.10668076,0.5195924,-1.3870388,-0.095467396,0.0046366984,0.0,1.0,0.0,0.0,0.0,0.0,0.0,-0.68223417,0.28502426,-0.15838414,-11.543536,16.52348,5.763018,-20.704699,17.929436,-12.710667,-4.6001673
-1.1801047,77.16766,22.390186,6.816898,0.15201956,0.563624,0.18418604,-0.76632935,-0.53288066,0.34778795,0.69513583,-0.49501446,0.6037932,-0.28106502,0.95011467,-1.0910555,-1.9763322,-1.0522301,1.9758179,1.7532223,-0.9414193,1.0129937,-1.0472965,-2.0044086,-1.1065135,2.016019,1.7031523,-0.9132813,-1.392542,-0.92670554,0.67738616,1.4648188,-0.89291614,1.0026731,-0.007154989,0.016426086,-0.6854172,0.7034186,-1.5807635,-0.039272226,-0.5212528,0.00078582764,-0.6422119,0.6638676,0.85307777,-0.0012362902,0.10751898,0.5105845,-1.3639828,-0.04541338,0.006397751,0.0,1.0,0.0,0.0,0.0,0.0,0.0,-0.66642606,0.28541717,-0.1534186,-6.8313837,10.513878,2.812612,-23.258305,14.850771,-11.309457,-4.1341715
6.631281,57.217518,16.38984,1.8739475,-0.113860905,-0.09083712,0.2328942,-0.7505647,-0.5404974,0.33706814,0.6824449,-0.4591119,0.60261005,-0.2894818,0.9379372,-1.1013463,-1.9707018,-1.038269,1.9701079,1.7634133,-0.9422295,0.99894965,-1.0562755,-1.9978025,-1.0933098,2.0079494,1.7121398,-0.9135258,-1.4091163,-0.8863939,0.630333,1.2583641,-0.7464115,0.8472238,-0.03101458,-0.00017547607,-0.6847763,0.7002656,-1.5322349,0.17427568,0.4839639,-0.012550354,-0.6426048,0.6636827,0.85820496,-0.008386306,0.10788755,0.50177103,-1.3280892,-0.03414711,-0.03950383,0.0,1.0,0.0,0.0,0.0,0.0,0.0,-0.6498245,0.2847763,-0.15026557,-1.7739296,4.23398,-8.252025,-22.725344,17.134237,-20.98651,-1.357212
7.507602,119.14198,38.191032,17.602877,0.19871143,0.97381127,-0.03283024,-0.7882961,-0.20384334,0.40443832,0.7145973,-0.3780077,0.6171829,-0.33763778,0.92012006,-1.0766598,-1.9573587,-1.02185,1.9701486,1.7738582,-0.9472896,0.9847714,-1.0636016,-1.9913557,-1.0813717,2.001285,1.7200096,-0.91409135,-1.4210151,-0.68206745,0.65016574,1.1725802,-0.64121795,0.7684643,-0.06535661,-0.015487671,-0.6830368,0.70435715,-1.530703,0.17410144,0.38422886,-0.025512695,-0.64247894,0.6640167,0.8631968,-0.015011486,0.10825199,0.492897,-1.2881273,0.03604041,0.054024078,0.0,1.0,0.0,0.0,0.0,0.0,0.0,-0.6345123,0.2830368,-0.15435714,-1.2513399,20.248913,2.1559,-8.506107,10.106158,-7.4762583,-3.552781
4.6279984,106.21221,33.658367,18.119762,0.6943395,0.7420703,-0.10616397,-0.7849208,-0.2595757,0.39733794,0.68357635,-0.27463478,0.60480547,-0.3353918,0.90627927,-1.0895592,-1.9516219,-1.0130141,1.9738216,1.7804902,-0.9476305,0.9705664,-1.0692893,-1.9847181,-1.0699028,1.9957279,1.7272174,-0.91496587,-1.4203084,-0.5315139,0.66886276,1.138766,-0.5283106,0.70572263,-0.094919436,-0.030784607,-0.6812973,0.70745206,-1.5291725,0.17392738,0.28459355,-0.038215637,-0.6417885,0.66516024,0.8681074,-0.021679051,0.10876619,0.48382792,-1.2652026,0.08909655,0.13154171,0.0,1.0,0.0,0.0,0.0,0.0,0.0,-0.61921537,0.2812973,-0.15745205,0.043439865,14.903534,2.034998,-3.2658815,10.958517,-5.999148,-3.0061617
1.7175155,104.13242,32.296257,19.91687,0.7734996,0.7114396,-0.16588137,-0.7854586,-0.18944162,0.37383622,0.6781637,-0.28420272,0.6073775,-0.32198015,0.8920205,-1.0882335,-1.9473344,-1.0020864,1.9673076,1.7879552,-0.9471639,0.9564024,-1.0735751,-1.9779603,-1.0584625,1.9909786,1.7339141,-0.9160912,-1.4150243,-0.39490646,0.6784518,1.1462157,-0.45807427,0.65848875,-0.11849644,-0.046066284,-0.6795578,0.7095485,-1.5276437,0.1737535,0.18466412,-0.050735474,-0.6405792,0.6670641,0.87296486,-0.028474927,0.10952747,0.47447363,-1.2477946,0.13963191,0.20730758,0.0,1.0,0.0,0.0,0.0,0.0,0.0,-0.6039337,0.2795578,-0.15954846,0.52280426,13.516068,1.1246324,0.8954048,6.7424536,-4.4879556,-2.3940966
0.3761158,85.83843,25.683714,17.308178,0.75105965,0.3956288,-0.15646687,-0.7724555,-0.19248462,0.3631399,0.683173,-0.2949285,0.61364204,-0.3275226,0.8791569,-1.0928236,-1.9416463,-0.9901452,1.9614857,1.7952783,-0.9488435,0.9423605,-1.0769397,-1.9712102,-1.0468029,1.9866699,1.7402103,-0.91742253,-1.400562,-0.31724158,0.67453516,1.17309,-0.4226204,0.6205272,-0.1380996,-0.061332703,-0.6778183,0.71064633,-1.5261164,0.17357978,0.084834605,-0.06311798,-0.6389847,0.66947484,0.8777702,-0.03532711,0.11055078,0.4648117,-1.236101,0.17475955,0.25005856,0.0,1.0,0.0,0.0,0.0,0.0,0.0,-0.5886673,0.2778183,-0.16064632,1.4524221,7.652426,-0.2406478,2.8253317,3.3138454,-3.6219716,-1.978913
-4.1574125,70.466194,19.277449,15.823509,0.76989865,0.17434949,-0.17262024,-0.7762655,-0.17815131,0.3245815,0.6903243,-0.3029134,0.61775404,-0.3317845,0.864734,-1.0947548,-1.938752,-0.97777045,1.9563786,1.8019857,-0.950601,0.92843693,-1.0798254,-1.9647433,-1.0348495,1.9825312,1.7460829,-0.9188985,-1.3893106,-0.27874476,0.6300319,1.1988416,-0.4085296,0.55500907,-0.14467764,-0.07682037,-0.6756058,0.7116946,-1.5988733,0.34258983,0.34331843,-0.07544708,-0.6371422,0.6720799,0.8825357,-0.042000666,0.11182541,0.45482045,-1.2307725,0.19095303,0.25934687,0.0,1.0,0.0,0.0,0.0,0.0,0.0,-0.5731796,0.27560577,-0.16169459,1.1920452,3.8297296,-5.527699,2.0540237,1.621592,-9.88977,0.3152728
-9.526627,103.97798,28.527636,23.368263,0.85761195,0.6204941,-0.27115494,-0.8062068,0.065490544,0.25504127,0.6993133,-0.1978067,0.5914259,-0.30063877,0.8478162,-1.0732764,-1.9392391,-0.9649182,1.9627506,1.8052255,-0.9489624,0.9144501,-1.0814276,-1.9590591,-1.0226568,1.9788362,1.7514186,-0.9204312,-1.4017934,-0.12113729,0.5483002,1.2266177,-0.35780007,0.5254407,-0.15573569,-0.09244537,-0.6720543,0.7156176,-1.5574412,0.36559728,0.40929356,-0.08772278,-0.63492966,0.6751916,0.8872838,-0.048400614,0.113664314,0.4443705,-1.2259305,0.24007091,0.32630366,0.0,1.0,0.0,0.0,0.0,0.0,0.0,-0.5575546,0.27205428,-0.16561759,-1.2438536,15.603786,-8.044207,2.9632807,4.6776476,-3.182006,-0.99824965
-14.337222,94.80981,23.957119,22.94681,0.97974813,0.45860094,-0.32366145,-0.81070584,0.068754345,0.16535269,0.7131372,-0.14480403,0.58337,-0.35191128,0.8333795,-1.0745522,-1.9425238,-0.95134306,1.9643558,1.8097556,-0.9556223,0.900287,-1.081563,-1.9545327,-1.0101979,1.9757426,1.7564628,-0.9220834,-1.4212445,0.021749288,0.42100075,1.2527858,-0.2935261,0.4975076,-0.16846322,-0.1078949,-0.66815186,0.7200467,-1.5404613,0.40009832,0.4549626,-0.10001373,-0.63228226,0.67882544,0.89205223,-0.054546308,0.116171874,0.4333262,-1.2294012,0.28128907,0.37374005,0.0,1.0,0.0,0.0,0.0,0.0,0.0,-0.5421051,0.26815185,-0.17004669,-1.957655,14.144405,-12.641424,2.7740002,6.3016415,-2.709812,-1.3039231
-15.487448,98.654594,24.510603,23.587835,0.95258,0.49285704,-0.33126807,-0.82202196,0.16784523,0.08387525,0.7199972,-0.08553351,0.5776056,-0.35566902,0.8180848,-1.0647784,-1.9461452,-0.93819815,1.9671892,1.8142234,-0.9576503,0.8858911,-1.0801458,-1.9514558,-0.9975106,1.9733808,1.7612752,-0.92385954,-1.4458504,0.1813717,0.27050972,1.2743628,-0.21735781,0.47571462,-0.18085603,-0.123168945,-0.6638756,0.7249809,-1.5219903,0.43831673,0.5068742,-0.112327576,-0.62919617,0.682959,0.8968405,-0.06036438,0.11938778,0.42163926,-1.2312068,0.32711354,0.42515087,0.0,1.0,0.0,0.0,0.0,0.0,0.0,-0.52683103,0.26387557,-0.17498088,-2.5037289,15.790977,-14.901561,2.2785664,7.4610415,-2.1672606,-1.2961239
-14.476047,88.39334,20.992508,21.041607,0.87862366,0.30965257,-0.29586396,-0.8242255,0.20096779,-0.0033204153,0.72769094,-0.03546451,0.55849487,-0.36744446,0.8034685,-1.060049,-1.9517878,-0.9247415,1.9698343,1.8171246,-0.96060395,0.8712846,-1.0773592,-1.9499795,-0.98464257,1.9717994,1.7658889,-0.9257575,-1.4658473,0.3103944,0.10700608,1.2910705,-0.13871667,0.45638543,-0.19300477,-0.13826752,-0.65924454,0.7302854,-1.5052881,0.47253445,0.5389549,-0.124687195,-0.6257057,0.68745893,0.9016277,-0.06576799,0.123237655,0.40933403,-1.2328577,0.36517593,0.45695937,0.0,1.0,0.0,0.0,0.0,0.0,0.0,-0.51173246,0.25924453,-0.1802854,-2.060938,12.740305,-16.175653,1.7225981,7.7058406,-1.9756377,-1.2927294
-18.920193,64.472565,10.612298,17.593288,0.42860883,-0.16226435,-0.3025033,-0.83043253,0.22063391,-0.2531909,0.74065137,-0.113303065,0.53301066,-0.3643424,0.7882413,-1.0552958,-1.9752986,-0.9105774,1.960469,1.81919,-0.96219176,0.8565103,-1.0735961,-1.950925,-0.9716027,1.9706025,1.7703316,-0.9277651,-1.4813517,0.39775762,-0.1616372,1.3081969,-0.11318059,0.4401624,-0.20367248,-0.15324402,-0.65437317,0.73550946,-1.4953133,0.4923183,0.5191228,-0.1370697,-0.6220093,0.69189084,0.9064277,-0.07029865,0.1279055,0.3963421,-1.2366792,0.3811506,0.43774542,0.0,1.0,0.0,0.0,0.0,0.0,0.0,-0.49675596,0.25437316,-0.18550944,-1.5870094,8.625585,-26.849974,1.7015934,2.5457501,-1.604408,-1.1701673
-20.674477,27.82819,-1.873874,11.473037,0.1559963,-0.6710757,-0.24705742,-0.82452786,0.13298464,-0.4055174,0.7566321,-0.19558625,0.5110197,-0.3402637,0.7740575,-1.0602976,-1.9914768,-0.89593947,1.9510438,1.8214335,-0.96179146,0.84166825,-1.069728,-1.9548408,-0.9583559,1.9692254,1.7746365,-0.92985195,-1.4850416,0.38311198,-0.46885642,1.329994,-0.14524569,0.42749596,-0.21072213,-0.16820526,-0.6494446,0.74001944,-1.4964889,0.49288255,0.43023053,-0.14956665,-0.6183891,0.695636,0.9112479,-0.07349509,0.13339017,0.38266522,-1.2507042,0.36641505,0.3533543,0.0,1.0,0.0,0.0,0.0,0.0,0.0,-0.48179471,0.24944457,-0.19001943,-0.32720566,-1.4895856,-30.903328,2.142644,-3.0402124,-1.1551499,-0.81742406
-18.456532,12.020857,-5.59326,7.970175,0.06447306,-0.7630838,-0.1387254,-0.8228043,0.08603671,-0.46946606,0.7680371,-0.26100895,0.5143215,-0.2649958,0.75938785,-1.0611243,-2.0017874,-0.8815522,1.9431245,1.8260686,-0.9563515,0.82684433,-1.0664817,-1.9614917,-0.94487953,1.9672551,1.7788346,-0.9319424,-1.4813168,0.30520654,-0.73119855,1.3534907,-0.21380551,0.4178708,-0.20884809,-0.18315887,-0.6445198,0.74357957,-1.4949927,0.49238977,0.3312787,-0.1622467,-0.6149826,0.69836766,0.9160372,-0.07525932,0.13951944,0.3684373,-1.2686322,0.34209213,0.2470188,0.0,1.0,0.0,0.0,0.0,0.0,0.0,-0.4668411,0.2445198,-0.19357955,0.46083927,-7.7866673,-26.442814,2.348113,-6.6568704,-0.8392036,0.07418096
-14.857177,5.1969376,-6.2587085,5.360383,-0.08820963,-0.75492203,-0.012489378,-0.8177081,0.02850477,-0.5475917,0.7713186,-0.3659611,0.516855,-0.19615708,0.74507356,-1.0636312,-2.0162508,-0.86774766,1.930659,1.83052,-0.9515581,0.8120996,-1.0643111,-1.9703513,-0.9312048,1.9643216,1.7829545,-0.9339537,-1.4718488,0.18777421,-0.93810767,1.3722873,-0.3193761,0.4105631,-0.1989831,-0.19809723,-0.63959885,0.74615085,-1.493498,0.4918975,0.23242582,-0.17506409,-0.6118469,0.6999656,0.9207101,-0.07565309,0.14615747,0.35384682,-1.2838899,0.31537357,0.13183983,0.0,1.0,0.0,0.0,0.0,0.0,0.0,-0.45190275,0.23959884,-0.19615084,1.0541201,-11.728096,-20.872284,1.9273996,-10.368973,-0.5976975,0.87058246
-14.054123,3.2299275,-5.585989,4.7237997,0.075501084,-0.6459077,0.06881841,-0.82333857,-0.045586668,-0.6018026,0.77549505,-0.4100224,0.5033187,-0.11326101,0.7297657,-1.0688698,-2.0305316,-0.8536553,1.9233193,1.8332863,-0.9452798,0.7974187,-1.0634986,-1.9808131,-0.9173794,1.9603219,1.787,-0.9358029,-1.4664643,0.045733966,-1.0825586,1.3863356,-0.42637092,0.40301374,-0.18055484,-0.21302032,-0.6346855,0.74773437,-1.4920049,0.4914057,0.13367176,-0.18806458,-0.60894394,0.7004193,0.9252036,-0.07481563,0.15309492,0.33906165,-1.303913,0.29141673,0.017887915,0.0,1.0,0.0,0.0,0.0,0.0,0.0,-0.43697965,0.23468551,-0.19773436,0.6529093,-14.194775,-14.567566,1.5205383,-10.555231,-0.66384673,1.7488122
-5.567592,33.79799,5.602374,7.4164944,0.06579925,-0.28070694,0.17531943,-0.8082934,-0.0045596906,-0.61274177,0.7759944,-0.43612355,0.5095655,-0.030677859,0.7165894,-1.0639546,-2.0420873,-0.8397799,1.9167095,1.8379564,-0.93887067,0.7828342,-1.063636,-1.9921695,-0.9034691,1.955359,1.7909787,-0.9374184,-1.4558142,-0.03396924,-1.1525478,1.3926477,-0.5204115,0.39578477,-0.15574059,-0.22792816,-0.629776,0.74831796,-1.4905132,0.49091437,0.033258915,-0.20111084,-0.6061096,0.700128,0.9294114,-0.073107325,0.16030744,0.32427037,-1.3008236,0.29207265,-0.043564133,0.0,1.0,0.0,0.0,0.0,0.0,0.0,-0.4220718,0.229776,-0.19831795,1.0427237,-8.05649,-6.723404,0.63648224,-9.619504,-0.77519417,2.3117929
-8.556151,21.912415,2.1651487,6.084018,0.3714363,-0.3291216,0.18300462,-0.8202497,-0.14223294,-0.663385,0.7683709,-0.44527692,0.48448288,-0.008932924,0.7008092,-1.0778593,-2.058508,-0.826632,1.9108313,1.839427,-0.9383117,0.7682859,-1.0648586,-2.0040498,-0.88956547,1.949656,1.7948735,-0.9387831,-1.4544029,-0.15187716,-1.1990335,1.3898085,-0.5874369,0.3870601,-0.13037978,-0.24282074,-0.6248703,0.7478981,-1.489023,0.49042356,-0.06705354,-0.21424103,-0.6033058,0.6990901,0.93333465,-0.07063319,0.16753425,0.3095635,-1.3135092,0.28665632,-0.12252711,0.0,1.0,0.0,0.0,0.0,0.0,0.0,-0.40717924,0.2248703,-0.19789809,0.16596317,-11.845909,-4.465866,-0.18975735,-6.8377137,-0.92966557,2.4330287
-9.8269205,17.24856,0.7367325,5.452795,0.4497287,-0.35213828,0.23114891,-0.81992,-0.2180127,-0.70054984,0.7692704,-0.49438858,0.45378298,0.14202088,0.68629384,-1.0866598,-2.0741048,-0.8126384,1.9002172,1.8402518,-0.92458105,0.753729,-1.0673648,-2.016337,-0.8757067,1.9433389,1.7986634,-0.93980354,-1.4558994,-0.28382808,-1.2378908,1.3851691,-0.646811,0.3760961,-0.092851914,-0.25769806,-0.6199722,0.74647593,-1.4875342,0.48993325,-0.1672657,-0.22754669,-0.6005707,0.6972088,0.936986,-0.06737213,0.17459096,0.2950187,-1.3323648,0.27965692,-0.20896062,0.0,1.0,0.0,0.0,0.0,0.0,0.0,-0.39230192,0.21997222,-0.19647592,-0.099134445,-13.242901,-3.7486076,-0.30908585,-6.040561,-1.1664867,3.6865935
-9.932842,13.78445,-0.18643141,4.7035604,0.4742049,-0.3707596,0.2603008,-0.81542367,-0.29692507,-0.718931,0.77258635,-0.53531206,0.43356445,0.22598012,0.6721866,-1.0970573,-2.0882301,-0.798448,1.8898077,1.8420198,-0.9172055,0.7391702,-1.0712768,-2.0289598,-0.8618736,1.9364629,1.8023369,-0.94041103,-1.4556503,-0.42706764,-1.2702944,1.3833879,-0.7015244,0.3641311,-0.05012749,-0.27256012,-0.61507416,0.7440524,-1.486047,0.48944342,-0.26737767,-0.24105835,-0.5979233,0.69442296,0.9403742,-0.06331331,0.18137366,0.28069806,-1.3546107,0.27173093,-0.3010146,0.0,1.0,0.0,0.0,0.0,0.0,0.0,-0.37743986,0.21507415,-0.1940524,0.095677376,-14.367169,-3.142929,0.031757355,-5.5437922,-1.2847006,4.2408137
-10.518894,14.452346,-0.104020834,4.726577,0.5046554,-0.3303336,0.28382462,-0.81906885,-0.36434224,-0.7386773,0.7672359,-0.55737025,0.411866,0.31755134,0.6572633,-1.107711,-2.1028275,-0.78515005,1.8807259,1.8435235,-0.9086559,0.724599,-1.0766002,-2.0418954,-0.84807014,1.9291005,1.8058827,-0.9405579,-1.4573225,-0.5676206,-1.3007673,1.3801916,-0.7480186,0.35113597,-0.0029044969,-0.28740692,-0.6101837,0.7406285,-1.4845613,0.48895407,-0.36738953,-0.25480652,-0.59532547,0.6907212,0.9435066,-0.058451004,0.18782763,0.2666447,-1.3781426,0.26671538,-0.39274034,0.0,1.0,0.0,0.0,0.0,0.0,0.0,-0.36259305,0.21018371,-0.19062847,-0.09083748,-14.109219,-2.946782,-0.07395744,-4.7371387,-1.4234364,4.7106495
-7.9151735,22.014206,2.50419,5.2377586,0.5752834,-0.2000317,0.29000568,-0.81060857,-0.4170037,-0.7327318,0.769763,-0.549371,0.44883224,0.3527431,0.6435381,-1.1183006,-2.1151686,-0.77109385,1.8741634,1.850766,-0.9052836,0.71004975,-1.0832072,-2.0550103,-0.83428097,1.9214101,1.8093369,-0.94024986,-1.4540102,-0.6921176,-1.3147634,1.3792084,-0.776608,0.34296167,0.041995257,-0.30223846,-0.6052971,0.73620516,-1.483077,0.4884652,-0.46730143,-0.2687378,-0.59272385,0.68620306,0.94638443,-0.052911304,0.19390403,0.25289923,-1.3961804,0.26913998,-0.47165656,0.0,1.0,0.0,0.0,0.0,0.0,0.0,-0.3477615,0.20529708,-0.18620515,0.37050247,-12.526798,-1.1981249,0.1203537,-3.040564,-0.9946704,4.4764423
-6.041127,32.591866,5.5214624,6.4764676,0.56365645,-0.05273807,0.29990754,-0.8095538,-0.45253623,-0.7365796,0.76707035,-0.58245647,0.44651538,0.40141198,0.62909436,-1.1284609,-2.1286683,-0.75757396,1.8631644,1.8539884,-0.90010864,0.69553864,-1.0908576,-2.0681996,-0.8205104,1.9134319,1.812723,-0.9395082,-1.4501016,-0.7896144,-1.321414,1.3753277,-0.80382365,0.33908716,0.08327433,-0.31706238,-0.6004181,0.7308512,-1.4831393,0.48618242,-0.487058,-0.2827835,-0.5900421,0.68101823,0.9489951,-0.046802863,0.19965854,0.23948744,-1.4047985,0.28006458,-0.5351846,0.0,1.0,0.0,0.0,0.0,0.0,0.0,-0.3329376,0.20041808,-0.18085116,0.380373,-9.846187,-0.5832195,-0.3946066,-2.803576,-0.29281974,3.914866
-6.358817,37.134857,6.6962223,7.4190674,0.70806503,0.059862256,0.27615926,-0.812746,-0.50825715,-0.73109335,0.7674694,-0.5709195,0.46559677,0.42012724,0.614264,-1.1416833,-2.141309,-0.74376345,1.8563399,1.8592827,-0.89749545,0.6810466,-1.0994083,-2.0813901,-0.806779,1.9052973,1.8160919,-0.93838596,-1.4490744,-0.8772447,-1.3167794,1.3729495,-0.8175351,0.33508825,0.12184012,-0.33184814,-0.5955162,0.72555107,-1.4741439,0.49262354,-0.5427018,-0.2969284,-0.5872078,0.6752561,0.95135003,-0.04023243,0.20507506,0.2264039,-1.4131044,0.29665378,-0.5903236,0.0,1.0,0.0,0.0,0.0,0.0,0.0,-0.31815183,0.1955162,-0.17555106,0.07805824,-8.889162,0.8657932,-0.074863434,-1.6971111,-0.7012546,3.8473368
-6.403293,45.809883,8.700647,9.0203,0.750831,0.19132626,0.2637257,-0.81555575,-0.52920693,-0.7324898,0.7656153,-0.59763503,0.46684894,0.4529652,0.599491,-1.152329,-2.1546392,-0.7302175,1.8455337,1.8627768,-0.8930894,0.6665393,-1.1086608,-2.0945199,-0.7930783,1.8970165,1.819419,-0.9368965,-1.4514487,-0.94171554,-1.3099002,1.3694427,-0.8330672,0.33109897,0.1577668,-0.3464508,-0.5904999,0.71978545,-1.4554719,0.50462157,-0.586216,-0.31111145,-0.5841522,0.669043,0.95344937,-0.033257976,0.21020971,0.21363516,-1.4154685,0.32007587,-0.6324729,0.0,1.0,0.0,0.0,0.0,0.0,0.0,-0.30354917,0.19049987,-0.16978544,-0.2978325,-6.59883,1.2083054,-0.23667812,-2.0586967,-0.6516099,3.5197794
-3.7303586,48.683655,9.664224,8.617601,0.7609694,0.20576572,0.27512228,-0.8054152,-0.5703435,-0.7236016,0.76118803,-0.5761227,0.44317725,0.49090517,0.5859978,-1.1656952,-2.1668801,-0.7169595,1.8394042,1.8637367,-0.887806,0.6520492,-1.1185143,-2.107535,-0.77942514,1.8886795,1.8226886,-0.9350588,-1.4483868,-1.0003966,-1.2971067,1.3641566,-0.83552986,0.32471234,0.19223718,-0.36084747,-0.5853615,0.7136035,-1.4337865,0.5171925,-0.62629026,-0.32525635,-0.58086395,0.6624447,0.95530206,-0.025938952,0.21503942,0.20120396,-1.4131026,0.34394708,-0.6700456,0.0,1.0,0.0,0.0,0.0,0.0,0.0,-0.2891525,0.18536147,-0.16360348,0.2213955,-6.0204506,1.8511295,-0.44829845,-0.80121756,-0.9076774,3.3724217
-6.786952,51.27446,9.352138,9.700119,0.7468163,0.24923438,0.26746637,-0.8238263,-0.58809465,-0.7451301,0.7443456,-0.6107152,0.38568598,0.514273,0.56966656,-1.1773238,-2.1820478,-0.70499057,1.827608,1.8612572,-0.88363147,0.6375085,-1.128854,-2.1205425,-0.76589614,1.8802445,1.8258569,-0.9328979,-1.4562491,-1.0457307,-1.2998399,1.3494576,-0.8479555,0.31317958,0.22369783,-0.37501526,-0.580101,0.7070458,-1.4110278,0.5289992,-0.6646023,-0.33940887,-0.5773201,0.65547985,0.95691174,-0.018206052,0.21962124,0.18908946,-1.4101313,0.37051907,-0.7063896,0.0,1.0,0.0,0.0,0.0,0.0,0.0,-0.27498472,0.180101,-0.15704578,-0.8663893,-4.6979427,0.31380653,-1.3830185,-1.8380761,-1.435256,3.0571163
-3.2724009,54.93466,10.716931,9.450605,0.80579144,0.29016083,0.26754367,-0.80906075,-0.6149671,-0.7171804,0.7484296,-0.58271134,0.39648786,0.5398676,0.5566024,-1.1903508,-2.1922605,-0.69105315,1.8219733,1.8655057,-0.87891114,0.6229516,-1.1396153,-2.1334736,-0.7524853,1.8717823,1.8289225,-0.9304397,-1.4558011,-1.0868207,-1.2886671,1.3384273,-0.84745985,0.30338353,0.25285602,-0.3889389,-0.5747223,0.70013726,-1.38459,0.54053354,-0.6971857,-0.35350037,-0.5735092,0.6482049,0.958289,-0.010130992,0.22392642,0.17730336,-1.401946,0.39795992,-0.73576146,0.0,1.0,0.0,0.0,0.0,0.0,0.0,-0.26106107,0.17472228,-0.15013725,-0.06802082,-4.272461,1.7783403,-1.0625601,-0.60693026,-1.2697935,2.8185396
-2.131058,54.260548,10.488001,8.601456,0.7955561,0.2872557,0.28371,-0.8131402,-0.6425827,-0.7142413,0.7234245,-0.5622569,0.35543132,0.5557516,0.5416376,-1.2038735,-2.2048979,-0.6801428,1.8155566,1.8644656,-0.8748646,0.60839283,-1.1507885,-2.1462789,-0.73926896,1.8634073,1.8318715,-0.92771244,-1.4561667,-1.1280619,-1.2758576,1.3161108,-0.83632445,0.29092848,0.27909824,-0.4025879,-0.56924057,0.69288063,-1.3584414,0.5503929,-0.733063,-0.36747742,-0.56941605,0.6406232,0.9594555,-0.0017567251,0.22787368,0.16587862,-1.3919611,0.42434797,-0.7671327,0.0,1.0,0.0,0.0,0.0,0.0,0.0,-0.24741209,0.16924056,-0.14288062,-0.15256405,-4.2778015,1.9375563,-2.199626,0.45006275,-1.5355825,2.532667
0.22584105,56.285088,11.143118,8.1818285,0.8494474,0.26989233,0.28701282,-0.8087169,-0.65886843,-0.7009261,0.7076476,-0.5209154,0.26435915,0.5717079,0.52752113,-1.2166754,-2.2163715,-0.6685042,1.8113158,1.8583075,-0.87054163,0.593855,-1.1623394,-2.1589158,-0.72632056,1.855272,1.8346374,-0.92474174,-1.4533784,-1.1646744,-1.2571832,1.2877268,-0.80798185,0.27074182,0.30280373,-0.41596985,-0.5636711,0.68527323,-1.3304974,0.55911744,-0.7670885,-0.38134003,-0.5650749,0.6327559,0.960441,0.0068783406,0.23136769,0.15483762,-1.3789725,0.44962436,-0.79465824,0.0,1.0,0.0,0.0,0.0,0.0,0.0,-0.23403013,0.1636711,-0.13527322,0.14481544,-3.8089514,2.5583029,-2.83916,2.1336794,-2.3214698,2.2844374
2.3155594,61.861046,12.443621,8.786458,0.92485595,0.25912797,0.2765735,-0.8022467,-0.6586738,-0.69607794,0.6951394,-0.48358622,0.14846642,0.5950942,0.51363033,-1.2282069,-2.2285235,-0.65680665,1.8069134,1.8494841,-0.86523235,0.5793754,-1.1741478,-2.1713738,-0.7136669,1.8475167,1.8371266,-0.9215459,-1.4467753,-1.1867937,-1.239482,1.2576746,-0.7670602,0.24055725,0.32492507,-0.429039,-0.55801773,0.6773899,-1.298288,0.5668653,-0.7930228,-0.39505005,-0.5604782,0.6246852,0.961269,0.01573091,0.23436534,0.14417805,-1.3614557,0.47430927,-0.8126741,0.0,1.0,0.0,0.0,0.0,0.0,0.0,-0.22096097,0.15801772,-0.12738991,0.49591064,-2.3641825,2.541256,-3.059411,3.3131719,-3.337282,2.110511
4.388769,62.090042,12.50582,7.821388,0.97696984,0.11145753,0.29458454,-0.8021177,-0.67165077,-0.6900773,0.64731956,-0.3883669,-0.15991898,0.6062813,0.49916363,-1.241313,-2.2403815,-0.64893496,1.8086799,1.8211347,-0.8609178,0.56495583,-1.1861374,-2.1836681,-0.7014691,1.840404,1.8391044,-0.9181463,-1.4409074,-1.2036602,-1.2239215,1.2068651,-0.69514984,0.18230265,0.34468487,-0.44179535,-0.55231094,0.6692324,-1.2668691,0.57175285,-0.8211842,-0.40857697,-0.55568314,0.61644316,0.9619889,0.024826566,0.23670416,0.13391013,-1.343663,0.49384332,-0.8297034,0.0,1.0,0.0,0.0,0.0,0.0,0.0,-0.20820463,0.15231094,-0.119232416,0.41503906,-1.8238068,2.3201466,-5.1654577,6.3981175,-6.156701,1.8897891
9.606569,60.83468,12.746447,5.3327265,1.0230496,-0.029229522,0.33744687,-0.7904741,-0.6793876,-0.68845654,0.5766924,-0.2000929,-0.3939642,0.6157107,0.48590842,-1.2540762,-2.252514,-0.6437999,1.8203948,1.799708,-0.85657525,0.55063355,-1.1982644,-2.1958477,-0.69003516,1.8344924,1.8403541,-0.91456646,-1.4299496,-1.216069,-1.2137364,1.1217787,-0.5588078,0.104638375,0.3622036,-0.45424652,-0.54657745,0.6607529,-1.2371613,0.5738516,-0.8541985,-0.42192078,-0.55072784,0.60801953,0.96268266,0.034132753,0.23806968,0.12409635,-1.3242124,0.50714654,-0.8480595,0.0,1.0,0.0,0.0,0.0,0.0,0.0,-0.19575346,0.14657745,-0.11075288,0.90994835,-1.3493776,1.7509222,-8.64892,12.862849,-8.121635,1.6904473
7.655381,65.58115,13.631787,7.826434,1.3785145,0.08154869,0.2350594,-0.78973544,-0.68432325,-0.64968103,0.5872074,-0.15268531,-0.41715264,0.60538715,0.47166002,-1.2666967,-2.2608159,-0.6313144,1.8192239,1.7986388,-0.85402775,0.53640854,-1.2104905,-2.2077868,-0.6792831,1.8299519,1.8408616,-0.9108407,-1.4206221,-1.2253042,-1.1849564,1.0591873,-0.4214169,0.03162296,0.37598047,-0.46639252,-0.5408211,0.65200377,-1.2060118,0.57619923,-0.8790556,-0.43508148,-0.5456009,0.59949946,0.9633948,0.043485228,0.23839492,0.11466168,-1.3087221,0.5263621,-0.8548161,0.0,1.0,0.0,0.0,0.0,0.0,0.0,-0.18360746,0.14082107,-0.10200375,0.7472038,-1.0398388,3.6534786,-6.390643,12.952942,-7.6744037,1.3313293
9.741428,71.82657,15.355453,9.24688,1.6835822,0.18350631,0.16431218,-0.77392393,-0.67825603,-0.61544335,0.5651706,-0.014092186,-0.44589892,0.60412335,0.45901614,-1.278316,-2.2693312,-0.622766,1.8285427,1.7962717,-0.85042834,0.52232456,-1.2227452,-2.2193067,-0.66906327,1.8269538,1.8406923,-0.9069958,-1.4050391,-1.2259448,-1.1385645,1.0089672,-0.26184005,-0.034334764,0.3871867,-0.4781952,-0.5350418,0.64309144,-1.1708196,0.5786092,-0.89328045,-0.44810486,-0.5402527,0.5910166,0.964163,0.05263932,0.23765852,0.10553239,-1.2918644,0.5487735,-0.84753656,0.0,1.0,0.0,0.0,0.0,0.0,0.0,-0.17180479,0.1350418,-0.09309143,1.3491154,-0.17971992,5.4866314,-5.197668,15.138602,-6.974068,1.06439
11.741344,74.39247,15.529583,8.730921,1.3330799,0.24379933,0.22353068,-0.77290064,-0.66310096,-0.6109976,0.49577424,-0.042268023,-0.5188965,0.60336554,0.4450345,-1.2890552,-2.2804065,-0.61948586,1.822727,1.7888026,-0.84665924,0.5083751,-1.2349083,-2.2304068,-0.6594938,1.8251854,1.8398911,-0.9030571,-1.3922935,-1.2135414,-1.0980544,0.9388657,-0.15096687,-0.09661549,0.39581773,-0.48960876,-0.52926254,0.6340685,-1.1301847,0.5773902,-0.9027877,-0.46085358,-0.53470993,0.5825989,0.964953,0.061615385,0.23602971,0.096742325,-1.263516,0.5668509,-0.8412593,0.0,1.0,0.0,0.0,0.0,0.0,0.0,-0.16039121,0.12926254,-0.08406848,1.0575771,1.13585,4.909444,-7.2203636,10.255369,-6.552699,0.75357556
21.013744,72.468,16.412638,4.8552766,1.2752967,0.24205565,0.306093,-0.7486662,-0.6634049,-0.56440294,0.39695448,0.21890305,-0.5394741,0.60025346,0.4335085,-1.3012488,-2.286847,-0.61979836,1.8470757,1.7859436,-0.84303176,0.49462885,-1.24694,-2.2409995,-0.65095156,1.824991,1.8385236,-0.899047,-1.3694808,-1.1999106,-1.0435948,0.8250241,0.021971751,-0.15110773,0.40245774,-0.5006027,-0.5235176,0.62493366,-1.088616,0.5731684,-0.915049,-0.4732666,-0.5290375,0.5742272,0.9658172,0.070248984,0.23332553,0.0884384,-1.227365,0.5780779,-0.8370683,0.0,1.0,0.0,0.0,0.0,0.0,0.0,-0.14939725,0.1235176,-0.07493365,2.0502806,1.3010979,6.2500715,-11.664427,16.534286,-5.740607,0.5600929
19.91392,68.41981,14.820895,3.3292391,0.84778255,0.28310406,0.39190862,-0.7649503,-0.65521634,-0.5518416,0.30113995,0.17150521,-0.58532137,0.5777727,0.41813383,-1.3124616,-2.2961836,-0.62083757,1.8421415,1.7799915,-0.84126973,0.4810013,-1.258819,-2.2511039,-0.6438227,1.8261285,1.8366468,-0.894997,-1.361152,-1.1841835,-0.9970943,0.6746705,0.14229055,-0.20066395,0.40546307,-0.5111847,-0.5178337,0.6156267,-1.0478653,0.566335,-0.9342467,-0.48527527,-0.5232773,0.56579775,0.9667424,0.07861459,0.22958851,0.08073332,-1.185375,0.58524156,-0.84628946,0.0,1.0,0.0,0.0,0.0,0.0,0.0,-0.13881528,0.117833704,-0.06562668,0.6427765,1.5296936,5.320096,-15.270817,11.37889,-5.1838665,0.20076036
26.041496,73.863464,16.723843,2.782556,0.7764547,0.37358737,0.4289681,-0.7433467,-0.6288475,-0.4800884,0.22252172,0.24628903,-0.5899667,0.5789703,0.4066666,-1.3217037,-2.2991128,-0.6215706,1.8507574,1.7776501,-0.83709997,0.46750447,-1.2704519,-2.260548,-0.6383009,1.8283788,1.8343335,-0.8909248,-1.3464875,-1.1563215,-0.9245934,0.5104849,0.2506285,-0.24210094,0.40747747,-0.52130127,-0.5122452,0.6062237,-0.999971,0.5553931,-0.94174457,-0.4967804,-0.51748276,0.55734473,0.96772057,0.08663862,0.22489175,0.07371846,-1.1324999,0.5875689,-0.84622383,0.0,1.0,0.0,0.0,0.0,0.0,0.0,-0.1286987,0.11224517,-0.05622369,1.2696266,2.7704477,7.8761816,-16.706049,10.249511,-4.302141,0.07947087
26.411135,72.26218,16.737843,2.6251237,0.90603137,0.4321432,0.4080072,-0.74334323,-0.63638246,-0.39449,0.1437732,0.3212612,-0.5981749,0.56485,0.39317015,-1.3340901,-2.299997,-0.6239236,1.8605049,1.7745161,-0.8344398,0.4541253,-1.2818807,-2.269001,-0.6344155,1.8316605,1.831654,-0.8868452,-1.3355837,-1.1383485,-0.8171122,0.3471144,0.35273567,-0.2768807,0.40784368,-0.5309601,-0.5067749,0.59673595,-0.9538781,0.54353136,-0.9500139,-0.5077591,-0.5116539,0.54889613,0.9687839,0.09414637,0.21920267,0.0674123,-1.0819662,0.5901853,-0.8457204,0.0,1.0,0.0,0.0,0.0,0.0,0.0,-0.11903989,0.1067749,-0.046735942,0.9324074,1.798892,11.22582,-16.573738,9.787071,-3.5827875,-0.04913211
35.913723,70.210266,17.896406,-1.5887568,0.65636456,0.48286662,0.5488476,-0.7339344,-0.6237386,-0.28041276,-0.03289307,0.4147151,-0.6054287,0.57003784,0.38073185,-1.3442546,-2.2970424,-0.6377048,1.873132,1.7711111,-0.8298414,0.44086635,-1.2931341,-2.2760272,-0.63257,1.8360236,1.8286729,-0.88275874,-1.3231078,-1.1207128,-0.6635226,0.12958829,0.46353176,-0.30529168,0.40870434,-0.54013824,-0.5014496,0.5871719,-0.9051604,0.5281,-0.9572675,-0.51815796,-0.50587463,0.5404318,0.9699882,0.100926295,0.21235028,0.062000457,-1.0188557,0.58357376,-0.84812456,0.0,1.0,0.0,0.0,0.0,0.0,0.0,-0.10986173,0.10144958,-0.0371719,1.1158466,1.8033266,15.644562,-21.992987,10.837621,-2.8422832,0.024563074
30.619423,97.22611,23.902216,8.939891,2.0472488,0.89210933,0.25987205,-0.7405727,-0.5668091,-0.04656287,-0.0059660436,0.46718782,-0.59090626,0.5942105,0.36680907,-1.349815,-2.2806835,-0.6331666,1.8827424,1.7695823,-0.8233377,0.4276714,-1.3039964,-2.2807045,-0.6323498,1.8414642,1.8254566,-0.87864494,-1.3186502,-1.0745744,-0.401755,-0.014668539,0.5707129,-0.3271096,0.4122121,-0.5487213,-0.49628448,0.5779052,-0.84315705,0.5128873,-0.91732186,-0.527977,-0.4999962,0.53240496,0.97139794,0.10641245,0.20439741,0.05730729,-0.96440834,0.5965522,-0.78915477,0.0,1.0,0.0,0.0,0.0,0.0,0.0,-0.10127866,0.09628448,-0.027905166,0.3336668,4.6629667,26.337416,-14.682472,10.665762,-2.133131,0.2945602
43.32548,103.81518,28.228712,6.3558407,2.2404804,1.0878594,0.36817786,-0.7337478,-0.55074936,0.23625979,-0.199437,0.5778464,-0.59143406,0.6111559,0.35429662,-1.3590714,-2.2570784,-0.6522935,1.8992488,1.7663132,-0.8175293,0.41452488,-1.3143667,-2.2818377,-0.6339444,1.8481135,1.8220663,-0.8744823,-1.3135363,-1.0242187,-0.017616464,-0.2084651,0.69736797,-0.3426075,0.4176259,-0.5566406,-0.4913292,0.5691925,-0.7739494,0.49037144,-0.85684943,-0.5371475,-0.49403,0.5251212,0.97312224,0.1099685,0.19514939,0.053448744,-0.8962109,0.6033478,-0.70976275,0.0,1.0,0.0,0.0,0.0,0.0,0.0,-0.09335935,0.09132919,-0.019192517,0.45759678,5.117178,38.232376,-19.61219,12.994278,-1.3489902,0.5277157
