Afshin1997/kuka_rl_ros2/src/catch_and_throw/input_files/idealpd/recorded_trajectories/env_229_data.csv
torque0,torque1,torque2,torque3,torque4,torque5,torque6,action0,action1,action2,action3,action4,action5,action6,set_target_0,set_target_1,set_target_2,set_target_3,set_target_4,set_target_5,set_target_6,joint_pos_0,joint_pos_1,joint_pos_2,joint_pos_3,joint_pos_4,joint_pos_5,joint_pos_6,joint_vel_0,joint_vel_1,joint_vel_2,joint_vel_3,joint_vel_4,joint_vel_5,joint_vel_6,tennisball_pos_0,tennisball_pos_1,tennisball_pos_2,tennisball_lin_vel_0,tennisball_lin_vel_1,tennisball_lin_vel_2,end_effector_pos_0,end_effector_pos_1,end_effector_pos_2,end_effector_rot_0,end_effector_rot_1,end_effector_rot_2,end_effector_rot_3,end_effector_lin_vel_0,end_effector_lin_vel_1,end_effector_lin_vel_2,obs_task_0,obs_task_1,obs_task_2,obs_task_3,obs_task_4,obs_task_5,obs_task_6,to_final_target_0,to_final_target_1,to_final_target_2,joint_acc_0,joint_acc_1,joint_acc_2,joint_acc_3,joint_acc_4,joint_acc_5,joint_acc_6
0.0,0.0,0.0,0.0,0.0,0.0,0.0,0.0,0.0,0.0,0.0,0.0,0.0,0.0,1.7802359,-1.0646509,-1.8151424,-1.1170107,1.9373155,1.1170107,-0.91629785,1.7802359,-1.0646509,-1.8151424,-1.1170107,1.9373155,1.1170107,-0.91629785,0.0,0.0,0.0,0.0,0.0,0.0,0.0,2.9323454,-0.4746561,0.05037424,-3.8157208,-0.17644003,5.295918,0.530416,-0.45449448,0.693097,0.5745483,0.17512383,0.15255436,0.7848268,0.0,0.0,0.0,1.0,0.0,0.0,0.0,0.0,0.0,0.0,-3.5823455,0.0746561,0.49962577,0.0,0.0,0.0,0.0,0.0,0.0,0.0
0.0,0.0,0.0,0.0,0.0,0.0,0.0,0.0,0.0,0.0,0.0,0.0,0.0,0.0,1.7802359,-1.0646509,-1.8151424,-1.1170107,1.9373155,1.1170107,-0.91629785,1.7802359,-1.0646509,-1.8151424,-1.1170107,1.9373155,1.1170107,-0.91629785,0.0,0.0,0.0,0.0,0.0,0.0,0.0,2.9323454,-0.4746561,0.05037424,-3.8157208,-0.17644003,5.295918,0.530416,-0.45449448,0.693097,0.5745483,0.17512383,0.15255436,0.7848268,0.0,0.0,0.0,1.0,0.0,0.0,0.0,0.0,0.0,0.0,-3.5823455,0.0746561,0.49962577,0.0,0.0,0.0,0.0,0.0,0.0,0.0
0.0,0.0,0.0,0.0,0.0,0.0,0.0,0.0,0.0,0.0,0.0,0.0,0.0,0.0,1.7802359,-1.0646509,-1.8151424,-1.1170107,1.9373155,1.1170107,-0.91629785,1.7802359,-1.0646509,-1.8151424,-1.1170107,1.9373155,1.1170107,-0.91629785,0.0,0.0,0.0,0.0,0.0,0.0,0.0,2.9323454,-0.4746561,0.05037424,-3.8157208,-0.17644003,5.295918,0.530416,-0.45449448,0.693097,0.5745483,0.17512383,0.15255436,0.7848268,0.0,0.0,0.0,1.0,0.0,0.0,0.0,0.0,0.0,0.0,-3.5823455,0.0746561,0.49962577,0.0,0.0,0.0,0.0,0.0,0.0,0.0
-176.0,56.28908,-11.847889,110.0,10.210851,4.263756,-4.022626,-0.80616236,0.2934484,-0.5776124,0.74959826,-0.104397565,0.6666042,-0.5579336,1.6996197,-1.0353061,-1.8729036,-1.0420508,1.9268757,1.1836711,-0.9720912,1.7790323,-1.0626386,-1.8211372,-1.112084,1.9416299,1.1223074,-0.91771024,-0.16019411,0.26760328,-0.798912,0.6574204,0.57433623,0.7044519,-0.18784021,2.8942175,-0.47641945,0.10255725,-3.8119056,-0.17626362,5.1924367,0.5283799,-0.45768833,0.6937163,0.57833636,0.17361823,0.15136026,0.7826071,-0.27121386,-0.42590642,0.08230569,1.0,0.0,0.0,0.0,0.0,0.0,0.0,-3.5442176,0.07641944,0.44744277,-15.932037,26.56402,-79.756386,65.851265,57.21454,69.96376,-18.644178
-176.0,-56.00351,-57.618465,110.0,11.153973,0.49273342,-3.5643883,-0.7983888,-0.28696558,-0.5668083,0.7171062,-0.1721506,0.65689987,-0.56721926,1.6991935,-1.0913352,-1.877818,-1.0403734,1.9244149,1.1879975,-0.9744322,1.7780558,-1.0608515,-1.8363407,-1.0971266,1.9486127,1.1357143,-0.9180116,-0.08364054,0.12955715,-1.7104232,1.7739639,0.7135467,1.5012422,0.0077826036,2.8561277,-0.4781809,0.15370622,-3.8080943,-0.17608738,5.0890594,0.5240059,-0.46605396,0.69401896,0.5867065,0.16991092,0.14866449,0.77769184,-0.49309665,-0.97054696,0.018044632,1.0,0.0,0.0,0.0,0.0,0.0,0.0,-3.5061278,0.07818088,0.3962938,5.6404514,-19.627432,-76.018814,111.29036,6.1313868,64.158104,15.173639
-163.51068,70.424225,13.389863,89.47158,7.5552154,6.140155,-2.033076,-0.7511545,0.055899143,0.0560266,0.67131525,-0.10649946,0.682068,-0.4515282,1.7029403,-1.0552615,-1.830738,-1.0299951,1.9379628,1.2039211,-0.96316445,1.7740237,-1.0598634,-1.8515308,-1.0775,1.9544492,1.1506126,-0.9181232,-0.5091851,0.08578228,-1.4499176,2.028075,0.5354991,1.4814764,-0.017853769,2.8180761,-0.4799404,0.2038222,-3.8042867,-0.17591132,4.985785,0.5169773,-0.4774599,0.6952264,0.5979244,0.1647669,0.14521721,0.7708763,-0.7798886,-1.1903757,0.1587807,1.0,0.0,0.0,0.0,0.0,0.0,0.0,-3.4680762,0.07994041,0.34617782,-42.370533,-5.2016215,27.601456,26.115536,-19.261955,-3.330493,-2.687768
-107.169235,68.246056,25.775541,52.883755,5.145751,6.309287,-0.1659708,-0.75675124,-0.17876442,0.237473,0.6726196,0.0039356677,0.65703136,-0.5118294,1.6983485,-1.0777398,-1.8277835,-1.010238,1.9548427,1.2163157,-0.9693061,1.7656351,-1.0603403,-1.8608291,-1.0579726,1.9582582,1.1644752,-0.91864675,-0.949014,-0.09368058,-0.7498218,1.9290829,0.32296684,1.3522676,-0.064002246,2.7800627,-0.48169804,0.2529062,-3.800483,-0.17573544,4.8826137,0.5074997,-0.48993492,0.6976116,0.6099549,0.15860164,0.14063361,0.7635593,-1.0143807,-1.2549953,0.26876348,1.0,0.0,0.0,0.0,0.0,0.0,0.0,-3.4300628,0.08169803,0.2970938,-44.0835,-18.461542,71.95065,-9.477615,-23.106676,-13.613081,-4.6593504
-49.046276,120.04026,48.71839,31.58929,2.004834,6.8347774,0.3527849,-0.77768046,0.038223714,0.24839075,0.6955573,-0.06868557,0.6675514,-0.51939607,1.687867,-1.056518,-1.8359901,-0.9884168,1.9513896,1.2312304,-0.97058636,1.7535444,-1.0613836,-1.8630855,-1.0405756,1.9599729,1.1769149,-0.919671,-1.2964379,-0.10939458,-0.044946518,1.6764795,0.11571087,1.206472,-0.11634228,2.7420855,-0.48345375,0.30095926,-3.796683,-0.17555974,4.779546,0.49619293,-0.50191593,0.7014315,0.6217176,0.15133788,0.13526782,0.7564831,-1.1805991,-1.1671646,0.4203712,1.0,0.0,0.0,0.0,0.0,0.0,0.0,-3.3920856,0.083453745,0.24904075,-34.990074,-2.0730348,72.27756,-25.291872,-22.353687,-14.94832,-5.5631385
-15.229316,122.09717,44.71782,16.897816,-0.13828543,4.817335,0.18487316,-0.7988717,0.13089462,0.06365935,0.6883386,-0.080145605,0.65728366,-0.5256075,1.6736573,-1.0482942,-1.8567196,-0.9717418,1.9519583,1.2426434,-0.97223175,1.7390276,-1.0617574,-1.8607452,-1.0257155,1.9600434,1.1880138,-0.9211797,-1.5043008,-0.014557281,0.33044204,1.4221097,-0.03209942,1.0775805,-0.1634247,2.7041464,-0.4852085,0.3479824,-3.792887,-0.17538422,4.6765814,0.4838438,-0.5127239,0.70639443,0.6330012,0.14336137,0.1300909,0.7495554,-1.2640302,-1.040397,0.5198295,1.0,0.0,0.0,0.0,0.0,0.0,0.0,-3.3541465,0.085208505,0.2020176,-21.001911,9.116351,38.553326,-25.54183,-15.683341,-12.914586,-5.0245404
1.6007531,131.96062,40.007286,12.4329605,-1.9877295,3.0513697,-0.5360999,-0.8151099,0.35250223,-0.22667696,0.68250257,-0.1847896,0.6422914,-0.52263796,1.6575166,-1.0265073,-1.8834128,-0.95746523,1.9415644,1.2522429,-0.9734435,1.7233244,-1.0599931,-1.8578861,-1.0128676,1.9587884,1.1979702,-0.92310804,-1.5930815,0.23926477,0.27273774,1.2387419,-0.15777378,0.96911365,-0.20394768,2.6662455,-0.48696136,0.3939767,-3.7890947,-0.17520888,4.5737195,0.47114706,-0.52216244,0.7121086,0.64416814,0.13518791,0.12656446,0.74212736,-1.2811605,-0.9002579,0.58625436,1.0,0.0,0.0,0.0,0.0,0.0,0.0,-3.3162456,0.08696136,0.15602332,-9.128761,25.079414,-5.26973,-18.433975,-12.937546,-10.672462,-4.440716
6.153789,125.65564,33.432415,12.411737,-1.9268479,1.7182167,-0.8011625,-0.8310485,0.4640409,-0.36541632,0.67798126,0.022479372,0.60854524,-0.5025402,1.6402196,-1.013589,-1.8944277,-0.94506943,1.9610363,1.2588247,-0.9733621,1.707297,-1.0553373,-1.8574722,-1.0012099,1.9572549,1.2069538,-0.925374,-1.6068817,0.5399819,-0.034629546,1.1409096,-0.15257752,0.87504303,-0.23527683,2.6283827,-0.4887123,0.43894315,-3.7853062,-0.17503372,4.47096,0.45849133,-0.53044224,0.7182936,0.6555402,0.1273093,0.12521428,0.73374426,-1.2682146,-0.7921704,0.6272089,1.0,0.0,0.0,0.0,0.0,0.0,0.0,-3.2783828,0.088712305,0.111056864,-1.628089,29.831291,-30.4444,-9.922552,0.33334196,-9.334588,-3.4835517
11.454573,119.58789,31.779894,12.11009,-1.3535773,1.3011111,-0.6739198,-0.8318954,0.5464883,-0.39101648,0.65212506,0.1844022,0.60571516,-0.5049925,1.6241075,-1.0006884,-1.8965738,-0.93599737,1.9756951,1.2675253,-0.97587323,1.6914393,-1.047851,-1.8603847,-0.9901299,1.9565358,1.2151039,-0.9279098,-1.5796187,0.8175811,-0.37575862,1.0961859,-0.045650043,0.7945709,-0.26072216,2.590558,-0.49046135,0.48288277,-3.7815216,-0.17485873,4.368304,0.4460106,-0.5378094,0.72486293,0.6671502,0.11993606,0.12568124,0.7243826,-1.2474259,-0.70562226,0.6659104,1.0,0.0,0.0,0.0,0.0,0.0,0.0,-3.2405581,0.09046134,0.067117244,2.4854422,27.539957,-33.785263,-4.726982,10.482788,-8.188093,-2.874887
17.19389,114.76229,33.1802,11.366783,-0.6455263,1.4697063,-0.34748766,-0.822618,0.61320496,-0.3732482,0.624337,0.31094167,0.61724484,-0.5177943,1.6091775,-0.9865305,-1.8977095,-0.92769617,1.98763,1.2768283,-0.97968924,1.6759802,-1.0380338,-1.865977,-0.97932,1.9573216,1.2225521,-0.93067354,-1.5353472,1.0357428,-0.6187433,1.074783,0.118999176,0.7269694,-0.2825748,2.5527716,-0.49220848,0.5257966,-3.7777407,-0.1746839,4.2657504,0.43369722,-0.54438114,0.73188895,0.67882717,0.11298138,0.12722579,0.71431255,-1.2309397,-0.6277436,0.71498185,1.0,0.0,0.0,0.0,0.0,0.0,0.0,-3.2027717,0.092208475,0.02420342,4.1728497,21.604717,-23.829454,-2.491188,16.180492,-7.0928693,-2.5057852
22.653683,110.170944,35.33541,10.095923,-0.13129902,1.8644708,-0.00071135396,-0.80979353,0.6570158,-0.31958297,0.5991445,0.36471277,0.6315208,-0.53531057,1.5950009,-0.97233224,-1.8979354,-0.9194055,1.9937929,1.2857041,-0.9842046,1.6609789,-1.0265726,-1.8728645,-0.96869224,1.9597421,1.2294185,-0.9336404,-1.4893316,1.1823478,-0.7099836,1.0574826,0.2817823,0.6715988,-0.30251244,2.5150232,-0.4939537,0.56768566,-3.7739637,-0.17450924,4.163299,0.4214959,-0.5501604,0.73948383,0.69032925,0.10618612,0.12911385,0.7039173,-1.2208729,-0.54714674,0.7754329,1.0,0.0,0.0,0.0,0.0,0.0,0.0,-3.1650233,0.0939537,-0.017685652,4.314637,14.463067,-8.480061,-2.1179676,15.934956,-5.957341,-2.3280203
23.223186,102.77176,35.051064,9.609207,0.26577276,2.102441,0.22150181,-0.8064928,0.6877643,-0.28136125,0.5785773,0.4071959,0.64191854,-0.54910487,1.5803297,-0.95779616,-1.9010006,-0.9108345,2.0004616,1.2936103,-0.9885509,1.6463476,-1.0141119,-1.8797767,-0.9582619,1.9636006,1.235812,-0.9367942,-1.4553429,1.2668037,-0.6824636,1.0369923,0.41930553,0.62711865,-0.32077459,2.4773111,-0.49569702,0.60855097,-3.7701905,-0.17433476,4.0609503,0.4093356,-0.5551405,0.7476831,0.7014806,0.099315554,0.13082623,0.69350255,-1.2182549,-0.4674295,0.8362166,1.0,0.0,0.0,0.0,0.0,0.0,0.0,-3.1273112,0.095697016,-0.058550954,3.0984163,8.269787,3.5022259,-2.4157763,13.398176,-4.8657775,-2.1737635
21.006033,92.565506,32.40957,9.301217,0.5347648,2.0846963,0.33505973,-0.803543,0.69970703,-0.24453121,0.56295407,0.44954914,0.65475124,-0.5548455,1.5659933,-0.94414115,-1.9042299,-0.9019665,2.0085557,1.301287,-0.99227875,1.631951,-1.00118,-1.8858993,-0.9480595,1.9686189,1.2418334,-0.94011396,-1.4353747,1.3014698,-0.5864578,1.0135266,0.52831703,0.5926792,-0.33681434,2.4396372,-0.49743938,0.6483936,-3.766421,-0.17416047,3.958704,0.3971572,-0.55937576,0.7564103,0.7121911,0.092246436,0.13206173,0.6832526,-1.2209681,-0.39404795,0.88630664,1.0,0.0,0.0,0.0,0.0,0.0,0.0,-3.0896373,0.09743938,-0.09839356,1.7122507,3.3198833,10.364628,-2.6721716,10.580772,-3.7997842,-1.954174
17.06334,85.55054,29.754892,10.219549,0.67590827,2.0186768,0.3222168,-0.80287564,0.71346456,-0.2042271,0.56250095,0.46024466,0.6587238,-0.5445108,1.5516634,-0.9298336,-1.906322,-0.8918094,2.0146434,1.3077059,-0.994565,1.6176611,-0.9880984,-1.890868,-0.9380402,1.9744592,1.247565,-0.94356626,-1.427676,1.3099208,-0.46468657,0.99712604,0.6017032,0.5657955,-0.34917673,2.4020014,-0.49917984,0.6872145,-3.7626555,-0.17398635,3.8565605,0.384912,-0.56292534,0.7655742,0.72246003,0.08491121,0.13274644,0.673216,-1.2284052,-0.32713073,0.92740655,1.0,0.0,0.0,0.0,0.0,0.0,0.0,-3.0520015,0.099179834,-0.13721448,0.5117655,0.7148504,12.912666,-1.9221187,7.0575833,-2.9898405,-1.5807271
14.297426,78.64766,26.422804,10.335449,0.59885824,1.7664194,0.2523491,-0.79537934,0.7210572,-0.1898643,0.5602193,0.46362552,0.663379,-0.5353159,1.5381231,-0.9159927,-1.9098544,-0.88201827,2.0208218,1.313903,-0.99709785,1.6034228,-0.97501874,-1.8947647,-0.92813534,1.980803,1.2530754,-0.94711775,-1.4231619,1.3068357,-0.36242265,0.9875095,0.64453924,0.5453124,-0.35817817,2.3644037,-0.5009184,0.72501475,-3.7588937,-0.1738124,3.754519,0.3725977,-0.5658579,0.7750481,0.73233306,0.077321805,0.13298741,0.663343,-1.2342491,-0.26666448,0.9544194,1.0,0.0,0.0,0.0,0.0,0.0,0.0,-3.0144038,0.10091838,-0.17501473,0.22740364,-0.41840076,10.878431,-1.2207866,4.062009,-2.2761583,-1.2299597
9.978796,76.37846,24.491257,12.227656,0.6537355,1.6760743,0.14340131,-0.79950666,0.73113424,-0.1577953,0.57308275,0.46984455,0.6663417,-0.522823,1.5234721,-0.9019053,-1.9105442,-0.8708271,2.0277874,1.3197095,-0.9994,1.5891844,-0.96196294,-1.8977935,-0.91821617,1.9874234,1.2584121,-0.95073503,-1.4247556,1.3048266,-0.28101736,0.9926227,0.66710985,0.5292891,-0.3638998,2.3268423,-0.502655,0.76179534,-3.7551358,-0.17363863,3.6525795,0.36019325,-0.5682287,0.7847642,0.74188614,0.0694841,0.13292246,0.65353537,-1.2438318,-0.21191797,0.97728914,1.0,0.0,0.0,0.0,0.0,0.0,0.0,-2.9768424,0.10265502,-0.21179533,-0.36242008,-0.30887127,8.742124,0.280118,2.063775,-1.8190742,-0.88220835
9.433819,74.99513,23.28399,12.105548,0.5529841,1.5574616,0.11509104,-0.79953206,0.73762614,-0.12809682,0.5605486,0.49121872,0.6679346,-0.5244809,1.5092312,-0.88820034,-1.9106032,-0.8621613,2.0365453,1.3252056,-1.0031831,1.5749155,-0.9488957,-1.9001529,-0.9082741,1.9942288,1.2636173,-0.9544,-1.4281045,1.3070146,-0.218848,0.9939548,0.68429977,0.5168308,-0.36831313,2.289319,-0.50438976,0.7975573,-3.7513814,-0.17346501,3.550742,0.34770823,-0.57005405,0.79466885,0.7511522,0.06142036,0.13265899,0.6437386,-1.2508063,-0.15708391,0.9943067,1.0,0.0,0.0,0.0,0.0,0.0,0.0,-2.9393191,0.10438976,-0.24755728,-0.5316496,0.11742115,6.791225,-0.09334087,1.5436411,-1.4311194,-0.74155927
9.49312,73.848045,22.211494,11.905987,0.41267055,1.4282033,0.07763385,-0.7963946,0.74315953,-0.11420462,0.5623527,0.48553875,0.6748273,-0.51651883,1.4952761,-0.8745797,-1.9115734,-0.85203886,2.0427828,1.3311,-1.0060519,1.5606295,-0.9357741,-1.9020526,-0.89831394,2.0011322,1.2687213,-0.9580955,-1.4294206,1.3135619,-0.17869118,0.99593735,0.6916706,0.507794,-0.37093696,2.251834,-0.50612354,0.8323017,-3.7476306,-0.17329158,3.449006,0.33518124,-0.5713291,0.8047083,0.760146,0.053160276,0.13231349,0.63391244,-1.2536559,-0.1020096,1.0061153,1.0,0.0,0.0,0.0,0.0,0.0,0.0,-2.901834,0.10612354,-0.28230166,-0.32117367,0.559783,4.558456,-0.025939941,0.5820155,-1.0581613,-0.55426955
10.937895,72.87312,21.516603,10.907316,0.25166065,1.3043151,0.09243219,-0.79512215,0.7486241,-0.09755991,0.5496158,0.49340248,0.67861277,-0.50867593,1.4811172,-0.86091167,-1.9118086,-0.8433524,2.0504725,1.3365827,-1.0089631,1.5463434,-0.92256474,-1.903651,-0.88839954,2.008094,1.2737529,-0.96180624,-1.4288784,1.3232038,-0.15167806,0.9890982,0.6971073,0.50133723,-0.3720925,2.214385,-0.5078554,0.86602944,-3.7438836,-0.17311832,3.347372,0.32266712,-0.5720415,0.81482714,0.76885706,0.044741604,0.13196881,0.6240523,-1.2504606,-0.045107856,1.0125234,1.0,0.0,0.0,0.0,0.0,0.0,0.0,-2.8643851,0.10785541,-0.31602943,-0.13577938,0.8771181,3.2327204,-0.914073,0.39889812,-0.76373816,-0.40483475
10.114554,69.91531,19.947866,10.756327,0.19595289,1.1327814,0.06452809,-0.7964906,0.7493873,-0.10019081,0.5506812,0.4898392,0.67709416,-0.5032207,1.4666944,-0.84762603,-1.9136701,-0.8333314,2.057078,1.3414624,-1.0121284,1.5320612,-0.9092686,-1.905112,-0.8785538,2.0150788,1.2787311,-0.9655208,-1.4285173,1.3315232,-0.14276594,0.98227215,0.69859177,0.49643266,-0.37217113,2.1769743,-0.5095854,0.8987416,-3.7401404,-0.17294525,3.2458396,0.31019878,-0.5722122,0.82496285,0.77729386,0.03621167,0.131692,0.6141336,-1.2446458,0.007927215,1.0122546,1.0,0.0,0.0,0.0,0.0,0.0,0.0,-2.8269744,0.109585375,-0.3487416,-0.14648438,0.7551193,1.3858438,-0.91462135,0.025343895,-0.5791724,-0.2854526
10.001273,68.64856,19.300428,10.626052,0.20524633,1.0538906,0.080850475,-0.8000986,0.7521744,-0.08475775,0.5409704,0.5049552,0.6765329,-0.4963858,1.4520514,-0.8340512,-1.9135878,-0.82445675,2.0655744,1.3463844,-1.0151594,1.5177656,-0.89589906,-1.906491,-0.8688101,2.0221093,1.2836673,-0.96922964,-1.4304264,1.338567,-0.13476689,0.9709701,0.7045137,0.4926095,-0.371323,2.1396008,-0.51131344,0.9304392,-3.736401,-0.17277235,3.1444087,0.29779482,-0.5718622,0.8350772,0.78545403,0.027601894,0.13148764,0.6041614,-1.2375264,0.05957441,1.0093023,1.0,0.0,0.0,0.0,0.0,0.0,0.0,-2.7896008,0.11131343,-0.38043916,-0.37498474,0.6328821,1.2933046,-1.3630629,0.4713416,-0.4584372,-0.18872023
12.647493,67.28471,19.019436,8.940853,0.057940125,0.9502425,0.15211056,-0.7980495,0.7516804,-0.06482928,0.5122613,0.5052012,0.67885375,-0.49329984,1.4379607,-0.82073104,-1.912974,-0.817584,2.0726295,1.3515527,-1.0185596,1.5034605,-0.88248277,-1.9077327,-0.85929626,2.029197,1.2885768,-0.97292703,-1.4312223,1.342371,-0.11901889,0.94404465,0.70987976,0.49020517,-0.37015778,2.1022644,-0.5130396,0.9611232,-3.7326655,-0.1725996,3.0430791,0.28551292,-0.5709801,0.8451276,0.79329175,0.01893674,0.13134308,0.594204,-1.2231307,0.11337582,1.0014522,1.0,0.0,0.0,0.0,0.0,0.0,0.0,-2.7522645,0.11303958,-0.41112322,-0.26705265,0.31955242,2.07801,-2.9337287,0.41429996,-0.27235746,-0.16024113
14.793699,67.63274,19.3768,8.202472,0.024422824,0.9224099,0.21388882,-0.7963359,0.7525908,-0.034936205,0.49594238,0.51638305,0.6777309,-0.48950782,1.4238269,-0.8072237,-1.9112264,-0.80970204,2.0808353,1.35635,-1.0218778,1.4891592,-0.8690436,-1.9086978,-0.85010093,2.0363648,1.2934654,-0.9766111,-1.4304785,1.3442293,-0.087316975,0.91054904,0.71836674,0.4884587,-0.36872625,2.0649662,-0.51476383,0.9907947,-3.7289338,-0.17242703,2.941851,0.2734022,-0.56954384,0.8551033,0.80076224,0.010211866,0.13121232,0.58434486,-1.2045947,0.1692002,0.99386543,1.0,0.0,0.0,0.0,0.0,0.0,0.0,-2.7149663,0.114763826,-0.4407947,-0.11284351,0.13051033,3.6874578,-3.5850406,0.7193446,-0.18808842,-0.1347661
16.80774,70.60779,20.511986,7.926337,-0.008687079,0.98359394,0.27753794,-0.801257,0.7625887,0.007679578,0.4665571,0.52688706,0.6705721,-0.48530942,1.4090335,-0.7927847,-1.9079299,-0.8034452,2.0890534,1.3605226,-1.0251421,1.4748446,-0.855551,-1.9091823,-0.8413176,2.0436356,1.2983348,-0.98027986,-1.432557,1.3506914,-0.033430424,0.8668672,0.72927,0.48641983,-0.36707377,2.0277042,-0.5164871,1.0194547,-3.7252054,-0.17225464,2.8407238,0.26149702,-0.5675039,0.86503375,0.8078224,0.0013918731,0.13104922,0.57467115,-1.182717,0.23057607,0.9901854,1.0,0.0,0.0,0.0,0.0,0.0,0.0,-2.6777043,0.116487116,-0.4694547,-0.40316582,0.58989525,5.9416423,-4.5902967,0.9429693,-0.21210313,-0.113749504
16.178917,69.160835,19.817337,7.923858,0.029860735,0.89783645,0.2956883,-0.80950636,0.76213783,0.028858857,0.43954074,0.5447382,0.6683851,-0.47373685,1.393894,-0.7793372,-1.9062964,-0.7973635,2.0981095,1.3651733,-1.0276536,1.4604689,-0.84200215,-1.9091022,-0.83301395,2.0510514,1.3031871,-0.9839229,-1.4398764,1.3561666,0.023756338,0.8175543,0.7452458,0.48467878,-0.3643357,1.9904804,-0.5182085,1.0471041,-3.7214808,-0.17208242,2.7396977,0.24980879,-0.564867,0.87491006,0.81445986,-0.007517368,0.1308224,0.5652293,-1.1603923,0.289224,0.98384583,1.0,0.0,0.0,0.0,0.0,0.0,0.0,-2.6404805,0.1182085,-0.4971041,-0.9224653,0.50070286,6.2463126,-5.1430464,1.4681101,-0.15966296,0.009781122
19.437752,70.817024,20.667665,6.8523192,-0.06999445,0.88421446,0.37126976,-0.8043966,0.76711106,0.08521105,0.40402964,0.5544029,0.6681913,-0.4631916,1.3800292,-0.76529104,-1.9005811,-0.792611,2.1064916,1.3700063,-1.0302421,1.4460474,-0.82838845,-1.9083126,-0.8252606,2.058635,1.3080223,-0.98753256,-1.4434493,1.3629456,0.09932019,0.7606544,0.76222444,0.4834781,-0.36075515,1.9532928,-0.519928,1.073744,-3.71776,-0.17191038,2.6387727,0.23838711,-0.5616083,0.88473636,0.82063675,-0.016531086,0.13049464,0.55610543,-1.1315647,0.35216823,0.9788206,1.0,0.0,0.0,0.0,0.0,0.0,0.0,-2.603293,0.11992797,-0.52374405,-0.53925514,0.6374359,8.08247,-5.883217,1.5711427,-0.076049566,0.09782314
17.78167,68.66273,19.616325,7.740443,0.010607302,0.7745781,0.32567582,-0.80569035,0.76516706,0.10558538,0.4011712,0.55353606,0.67473894,-0.44323078,1.3654784,-0.75187176,-1.8977541,-0.78514344,2.1139886,1.3754961,-1.0318556,1.4316031,-0.8147309,-1.9068229,-0.81796306,2.066356,1.3128536,-0.9910936,-1.4454615,1.3666452,0.16716495,0.71896446,0.77517116,0.4832772,-0.3553643,1.9161434,-0.52164555,1.0993755,-3.7140431,-0.17173849,2.5379488,0.2272377,-0.5577612,0.8945068,0.8263737,-0.025662364,0.13006909,0.5472932,-1.1046858,0.40946355,0.9726934,1.0,0.0,0.0,0.0,0.0,0.0,0.0,-2.5661435,0.12164554,-0.5493755,-0.3600359,0.33988953,7.241887,-4.3418884,1.2061238,0.034832954,0.30082464
20.840233,67.48105,19.531994,5.524396,-0.161542,0.6509888,0.42870533,-0.80993396,0.7660771,0.16813624,0.33253157,0.57416636,0.66456944,-0.43418673,1.3506097,-0.7381232,-1.8900093,-0.78470993,2.1237726,1.3793105,-1.0345123,1.4171301,-0.8010485,-1.9045475,-0.81125873,2.0742333,1.3176811,-0.9945974,-1.4484435,1.3687605,0.24914342,0.65373886,0.7917438,0.48290607,-0.34948248,1.8790302,-0.52336216,1.1239995,-3.71033,-0.17156678,2.4372256,0.21641636,-0.55332565,0.9041776,0.8316341,-0.034877066,0.12952702,0.53887933,-1.0689775,0.46784467,0.96109,1.0,0.0,0.0,0.0,0.0,0.0,0.0,-2.5290303,0.123362154,-0.57399946,-0.4490137,0.192976,8.643147,-6.685257,1.5767455,0.07887483,0.35927296
18.941433,66.68999,18.823938,6.9656286,-0.07510805,0.5717982,0.35758352,-0.80604035,0.76977915,0.18812436,0.34158882,0.5687387,0.66658896,-0.40898272,1.336526,-0.7240706,-1.885735,-0.77709985,2.131107,1.3843399,-1.0354956,1.4026514,-0.7873385,-1.9015453,-0.80504364,2.0822327,1.3225048,-0.99802774,-1.447943,1.3717338,0.31836334,0.61037964,0.8026946,0.48274818,-0.34157872,1.8419552,-0.52507687,1.147617,-3.7066205,-0.17139526,2.3366032,0.20592594,-0.54833794,0.91375035,0.83644795,-0.044181064,0.12889445,0.530838,-1.0362282,0.5215555,0.9513749,1.0,0.0,0.0,0.0,0.0,0.0,0.0,-2.4919553,0.12507686,-0.597617,-0.07610321,0.28657913,7.2929325,-4.4739842,1.0550022,0.096309185,0.5849123
18.346014,65.18666,17.99296,6.976535,-0.12029737,0.442802,0.33386603,-0.80714124,0.77410305,0.21185468,0.31182143,0.5738302,0.6627606,-0.39100668,1.3219373,-0.7099282,-1.8803598,-0.77386147,2.1396158,1.3887808,-1.0371284,1.3881823,-0.7735846,-1.897948,-0.79924434,2.0903275,1.3273265,-1.0013711,-1.4469974,1.3766268,0.37441567,0.56930333,0.8115627,0.4824589,-0.33253026,1.8049164,-0.52678967,1.1702291,-3.7029145,-0.17122391,2.2360814,0.19577217,-0.54283524,0.9232101,0.8408486,-0.053555615,0.12822066,0.52312976,-1.001812,0.5717935,0.93916476,1.0,0.0,0.0,0.0,0.0,0.0,0.0,-2.4549165,0.12678966,-0.62022907,-0.018525124,0.48696995,5.927247,-4.233396,0.87338686,0.103366375,0.7186055
11.141886,60.51605,15.462616,10.550619,0.19610935,0.30800557,0.13741446,-0.81227463,0.7702859,0.1931248,0.34916395,0.57195973,0.67012864,-0.37992686,1.3069549,-0.69655603,-1.8786355,-0.76432794,2.1475234,1.3943394,-1.0393639,1.3737017,-0.7598059,-1.8940742,-0.7935528,2.0984833,1.3321502,-1.0046213,-1.4489434,1.3782697,0.39238748,0.56867677,0.81679976,0.48255795,-0.3231736,1.7679148,-0.52850056,1.1918367,-3.6992123,-0.17105271,2.13566,0.18585348,-0.53692245,0.9325526,0.844955,-0.06299042,0.12756926,0.515567,-0.98149264,0.60901827,0.9273648,1.0,0.0,0.0,0.0,0.0,0.0,0.0,-2.4179149,0.12850055,-0.6418367,-0.29611588,0.17223358,2.025658,-0.18993616,0.5643368,0.102335215,0.7764876
6.5990224,57.05513,13.739847,12.639226,0.3463891,0.21698111,0.020880066,-0.81882495,0.7669381,0.19566666,0.36169,0.54853386,0.6712099,-0.35240003,1.2918192,-0.6831121,-1.8745075,-0.7573838,2.1533368,1.3992712,-1.0398613,1.3591677,-0.7460377,-1.890168,-0.7877001,2.106601,1.3369739,-1.0077665,-1.4553212,1.3763248,0.3907303,0.59037215,0.8102429,0.48255438,-0.31217286,1.7309504,-0.53020954,1.2124408,-3.695514,-0.17088169,2.0353389,0.17607546,-0.5306902,0.9417744,0.84886724,-0.07247959,0.12701392,0.5079748,-0.9691501,0.6392592,0.91496557,1.0,0.0,0.0,0.0,0.0,0.0,0.0,-2.3809505,0.13020954,-0.66244084,-0.7396698,-0.18258095,0.023823977,2.0362616,-0.5904794,0.06865263,0.95372796
2.651764,52.599854,11.553941,13.94141,0.42772508,0.03392318,-0.10754818,-0.82183135,0.7684904,0.14519618,0.38012227,0.5583564,0.66794497,-0.36132628,1.2769846,-0.6691887,-1.8756484,-0.7496879,2.1624367,1.4037684,-1.043899,1.3445574,-0.7322886,-1.8865879,-0.7815165,2.114673,1.3417957,-1.0108182,-1.4632094,1.3745298,0.34740308,0.62718636,0.80616444,0.48207617,-0.30323502,1.6940231,-0.5319166,1.2320426,-3.6918192,-0.17071085,1.935118,0.16637802,-0.5242224,0.95084375,0.8526769,-0.08197108,0.12663439,0.5001865,-0.9620827,0.6601544,0.89868605,1.0,0.0,0.0,0.0,0.0,0.0,0.0,-2.3440232,0.13191661,-0.68204254,-0.8938074,-0.16274452,-4.1881266,3.5309792,-0.31729937,0.009381771,0.7616341
5.5945473,52.78379,12.003528,12.324427,0.21996808,0.0015028417,-0.029614978,-0.8199217,0.7632833,0.1743359,0.36995783,0.51689386,0.6754538,-0.316,1.2625653,-0.65596026,-1.8691542,-0.7445207,2.1663623,1.4093411,-1.0424182,1.3298918,-0.7185786,-1.883313,-0.7750544,2.1225846,1.3466175,-1.0137575,-1.4680098,1.3698002,0.32154772,0.65206367,0.786311,0.4825592,-0.29132664,1.6571331,-0.53362274,1.2506428,-3.688128,-0.17054017,1.8349972,0.15681076,-0.5175142,0.95973843,0.8563613,-0.09144912,0.12647924,0.49222472,-0.9467156,0.6850978,0.8807983,1.0,0.0,0.0,0.0,0.0,0.0,0.0,-2.3071332,0.13362274,-0.70064276,-0.58238506,-0.46081543,-2.4024487,2.3432374,-1.9214511,0.1267016,1.048559
8.364496,51.34872,11.720559,9.808702,-0.05794525,-0.13896024,0.055161253,-0.82632506,0.7625389,0.16028053,0.3439621,0.50131035,0.67517585,-0.28896365,1.2472593,-0.6423247,-1.8672849,-0.74065816,2.1727157,1.4141351,-1.0426538,1.3151671,-0.70491433,-1.8802745,-0.76855224,2.1302598,1.3514488,-1.016567,-1.4741925,1.3652829,0.29861468,0.64907235,0.76131135,0.48351657,-0.27803487,1.6202793,-0.53532696,1.2682425,-3.6844406,-0.17036965,1.7349765,0.14747715,-0.5105562,0.9684039,0.85986644,-0.10085711,0.12659463,0.48418117,-0.92039216,0.7099466,0.85622454,1.0,0.0,0.0,0.0,0.0,0.0,0.0,-2.2702794,0.13532695,-0.71824247,-0.72550774,-0.4384756,-2.0816505,-0.44733286,-2.4565816,0.22182465,1.1859298
13.296467,49.843395,11.655285,5.6679068,-0.44943392,-0.33963692,0.20622315,-0.8294439,0.7613224,0.15644589,0.2877245,0.49602163,0.67429644,-0.2668589,1.2322227,-0.6287821,-1.86463,-0.7397798,2.179862,1.4188784,-1.0432528,1.3003813,-0.6912911,-1.8774021,-0.76241726,2.1377022,1.3562915,-1.0192392,-1.4803803,1.3614367,0.28425315,0.60117877,0.7384407,0.48516366,-0.2641104,1.5834627,-0.53702927,1.2848427,-3.680757,-0.17019932,1.6350559,0.13853264,-0.503355,0.9767528,0.8631163,-0.11008193,0.12701333,0.47621387,-0.8771563,0.73399013,0.8223051,1.0,0.0,0.0,0.0,0.0,0.0,0.0,-2.2334628,0.13702926,-0.7348427,-0.7251501,-0.36494732,-1.1964262,-4.938185,-2.2689462,0.36848187,1.2503147
18.573757,47.66934,11.426376,1.0167847,-0.85983586,-0.5972464,0.37681922,-0.8317514,0.75906074,0.15558362,0.21067463,0.49325213,0.6677109,-0.22950026,1.2172061,-0.615385,-1.8618437,-0.7413498,2.1870275,1.4230626,-1.0421892,1.2855383,-0.6777041,-1.8746154,-0.75713295,2.144954,1.3611476,-1.0217588,-1.485821,1.3579087,0.27764174,0.5037778,0.7209675,0.48691228,-0.24820486,1.5466833,-0.53872967,1.3004445,-3.677077,-0.17002916,1.5352352,0.13015652,-0.49593353,0.98468363,0.86603034,-0.11898342,0.12775493,0.46852213,-0.8155177,0.7543821,0.7779363,1.0,0.0,0.0,0.0,0.0,0.0,0.0,-2.1966834,0.13872966,-0.7504445,-0.6385088,-0.3200531,-0.42088032,-9.884012,-1.7416954,0.46761632,1.4577746
21.205507,50.402763,12.694897,0.5357752,-0.85580844,-0.5908793,0.5001925,-0.8246545,0.75909454,0.18743668,0.18933553,0.4859369,0.669827,-0.058368955,1.2030729,-0.60179466,-1.8558718,-0.7381994,2.1935477,1.4281304,-1.0275956,1.2706934,-0.66414094,-1.8717029,-0.75282425,2.1520607,1.3660228,-1.0240037,-1.484423,1.3559004,0.29647258,0.40622318,0.7072048,0.4886964,-0.21708626,1.5099401,-0.5404291,1.3150489,-3.6734006,-0.16985917,1.4355143,0.12242365,-0.4882822,0.9922109,0.8685338,-0.12756822,0.12876575,0.4612968,-0.7501451,0.77737343,0.73900497,1.0,0.0,0.0,0.0,0.0,0.0,0.0,-2.1599402,0.14042911,-0.7650489,0.07183552,-0.16152859,2.0955622,-9.866595,-1.3590813,0.46873093,2.98672
12.550333,52.52137,12.6502285,8.467264,-0.077577114,-0.3567725,0.3076202,-0.828398,0.75699943,0.17611954,0.27875125,0.4680926,0.66859585,0.15388556,1.1878536,-0.588441,-1.8540909,-0.7249491,2.19887,1.4328824,-1.0086151,1.2558581,-0.65059876,-1.8686359,-0.7488474,2.1590188,1.3709056,-1.0257967,-1.483414,1.3538336,0.31053385,0.39436877,0.6923094,0.48879522,-0.16690333,1.4732332,-0.54212666,1.3286568,-3.669728,-0.16968934,1.3358932,0.11511326,-0.4803915,0.9995042,0.8706922,-0.13602729,0.12997662,0.45442018,-0.71515924,0.800782,0.72075826,1.0,0.0,0.0,0.0,0.0,0.0,0.0,-2.1232333,0.14212665,-0.7786568,0.02758503,-0.16901493,1.5485108,-1.292932,-1.406014,0.16201735,4.8974724
2.2651386,49.706787,10.875593,16.204607,0.53776646,-0.21520504,0.009885222,-0.8282202,0.7410934,0.14368975,0.37339196,0.36153755,0.6780012,0.31047556,1.1730361,-0.57648945,-1.8542669,-0.7115082,2.1951725,1.4387058,-0.99474907,1.2410342,-0.6371453,-1.8656166,-0.7442917,2.165542,1.3757885,-1.0269983,-1.4823335,1.342623,0.29929546,0.47558266,0.6394177,0.48840982,-0.104979604,1.4365635,-0.5438223,1.3412693,-3.6660593,-0.1695197,1.2363715,0.10793352,-0.47228432,1.0067178,0.8726502,-0.14456087,0.13145609,0.44755208,-0.70935494,0.82124835,0.7161172,1.0,0.0,0.0,0.0,0.0,0.0,0.0,-2.0865636,0.14382228,-0.79126924,0.024032593,-1.0870934,-1.0440528,7.9909744,-5.1493764,-0.0021517277,6.068659
-5.2858515,37.82176,6.424177,18.52916,0.5356991,-0.46666476,-0.24407518,-0.8283334,0.70871735,0.0650124,0.42534113,0.17817219,0.67154515,0.42717487,1.1582009,-0.56627357,-1.8591154,-0.7017576,2.1833591,1.442943,-0.9842808,1.2262179,-0.62395024,-1.8631237,-0.7385954,2.1710198,1.3806636,-1.02754,-1.4815559,1.3119589,0.23265783,0.6004893,0.51778966,0.48733428,-0.03762333,1.399931,-0.545516,1.3528873,-3.6623938,-0.1693502,1.1369494,0.100737095,-0.4640875,1.013824,0.8745681,-0.15314977,0.13349783,0.4402885,-0.7131708,0.8262489,0.70333344,1.0,0.0,0.0,0.0,0.0,0.0,0.0,-2.049931,0.14551601,-0.80288726,0.0041246414,-3.0277252,-6.666264,12.321663,-11.980236,-0.064349174,6.621933
-2.7037563,30.885386,4.7525854,14.523033,0.1793198,-0.76573616,-0.16898769,-0.8212168,0.68312824,0.054028872,0.40468967,0.109030634,0.6549543,0.4726889,1.1440961,-0.5556374,-1.8577207,-0.69812644,2.181923,1.4461591,-0.9802711,1.2114416,-0.6111586,-1.8613365,-0.7318978,2.1751664,1.3855197,-1.027437,-1.4764215,1.2684346,0.16074792,0.6922822,0.38046026,0.48544216,0.026085628,1.3633347,-0.54720783,1.3635118,-3.6587322,-0.16918088,1.0376266,0.09360075,-0.45591736,1.0206999,0.8764642,-0.16163976,0.13624524,0.432574,-0.7039195,0.8215369,0.67699605,1.0,0.0,0.0,0.0,0.0,0.0,0.0,-2.0133348,0.14720783,-0.8135118,0.47121048,-4.310775,-7.2026043,9.016668,-13.576115,-0.061410666,6.263448
2.7790928,30.544018,5.29346,10.174683,-0.42569935,-0.8752289,-0.033299193,-0.81564254,0.6584929,0.08017701,0.40257826,-0.094404906,0.66035914,0.51103467,1.1298773,-0.5453093,-1.8533188,-0.69163996,2.165726,1.4515556,-0.9763335,1.1967417,-0.5988505,-1.8600032,-0.7245907,2.177543,1.3903644,-1.026737,-1.46785,1.2185049,0.12426514,0.7431498,0.19032052,0.48495716,0.08436242,1.3267746,-0.5488987,1.3731438,-3.6550744,-0.16901174,0.93840325,0.08672285,-0.44777393,1.0272484,0.87826693,-0.16992411,0.13984731,0.42451826,-0.67250454,0.81898564,0.6423547,1.0,0.0,0.0,0.0,0.0,0.0,0.0,-1.9767746,0.14889869,-0.8231438,0.83720684,-4.956627,-3.595288,4.956496,-18.931252,0.15511513,5.7167983
5.383962,28.03588,4.712249,7.074313,-0.8395121,-1.0674802,0.01851014,-0.8123422,0.6311183,0.047690745,0.40795198,-0.25877547,0.65818906,0.5237177,1.1155075,-0.53573865,-1.8552341,-0.6837955,2.1516654,1.4561833,-0.97436523,1.1821333,-0.5870631,-1.8590019,-0.7170109,2.1778023,1.3952091,-1.0255105,-1.4584795,1.1656008,0.09240081,0.76246697,-0.028644802,0.4851121,0.13487236,1.2902508,-0.55058765,1.3817843,-3.6514199,-0.16884276,0.83927906,0.08026838,-0.4396944,1.0333874,0.8799408,-0.17788772,0.14444786,0.41616696,-0.6266508,0.81122845,0.59950066,1.0,0.0,0.0,0.0,0.0,0.0,0.0,-1.9402508,0.15058765,-0.8317843,0.9310484,-5.2524805,-3.1122253,1.8159628,-21.853827,0.27765632,4.940246
6.555938,24.350237,3.5442286,4.5333652,-1.0108443,-1.3413157,0.054887656,-0.80771464,0.608081,-0.014859429,0.39191833,-0.3281527,0.64842594,0.5399008,1.1013619,-0.52625495,-1.8604878,-0.6778191,2.144987,1.4600517,-0.9715205,1.1676203,-0.5757859,-1.8584945,-0.709474,2.1760361,1.4000499,-1.0238321,-1.4488014,1.115291,0.037157595,0.75042474,-0.22578512,0.48483875,0.17858092,1.2537642,-0.5522747,1.3894343,-3.6477692,-0.16867395,0.7402539,0.07432604,-0.4317732,1.03904,0.8814909,-0.18536381,0.15007168,0.40754455,-0.5736404,0.7920191,0.5492566,1.0,0.0,0.0,0.0,0.0,0.0,0.0,-1.9037641,0.1522747,-0.8394343,0.9704828,-4.986024,-5.4683504,-1.3203263,-19.674896,0.27279854,4.255769
5.943571,18.245525,1.777065,2.8410182,-0.97126853,-1.6250198,0.07178397,-0.80710924,0.5724638,-0.06518808,0.36984888,-0.39785197,0.6428819,0.5508856,1.0869094,-0.5185395,-1.8650134,-0.67248917,2.136251,1.4643381,-0.9687435,1.1531836,-0.5650408,-1.858691,-0.7022328,2.1725342,1.404885,-1.0217626,-1.4418321,1.0610663,-0.038387254,0.7149597,-0.39122087,0.4842691,0.21589833,1.2173138,-0.55395985,1.3960948,-3.6441224,-0.16850531,0.6413278,0.068911076,-0.42415047,1.0441389,0.8829397,-0.1921905,0.15664469,0.39867616,-0.52146614,0.7576465,0.4924434,1.0,0.0,0.0,0.0,0.0,0.0,0.0,-1.8673137,0.15395984,-0.8460948,0.711298,-5.3652763,-7.545956,-3.6705136,-16.47874,0.267756,3.606954
8.010143,18.09073,2.2957585,1.2713537,-0.8640231,-1.7081684,0.19201283,-0.80284655,0.5415714,-0.04937282,0.3262577,-0.449069,0.645419,0.5609317,1.0728989,-0.5108837,-1.8636283,-0.669607,2.1276274,1.469427,-0.96566945,1.1388117,-0.5548489,-1.8594368,-0.69553894,2.1676476,1.4097164,-1.0193594,-1.4354805,1.0054063,-0.08646461,0.65389407,-0.52078056,0.48378912,0.24778943,1.1808996,-0.55564404,1.4017668,-3.6404788,-0.16833684,0.5425006,0.06402588,-0.41689396,1.0486692,0.8842539,-0.19830903,0.16397062,0.3897206,-0.46853167,0.71934414,0.43594858,1.0,0.0,0.0,0.0,0.0,0.0,0.0,-1.8308996,0.15564403,-0.85176677,0.6551504,-5.507064,-4.7713504,-6.216216,-12.930637,0.25328994,3.0564337
6.1573715,16.329105,1.7976475,2.355579,-0.52268374,-1.7841136,0.17564225,-0.8032194,0.5127864,-0.09629762,0.31267506,-0.464063,0.64486116,0.5620866,1.0584898,-0.50357026,-1.8690665,-0.6642714,2.1212413,1.4742025,-0.9631507,1.1244818,-0.54520917,-1.8606994,-0.68944114,2.1617882,1.414542,-1.0166795,-1.4320397,0.95038265,-0.13945028,0.5946829,-0.60762453,0.4829626,0.27428317,1.1445217,-0.5573263,1.4064512,-3.6368392,-0.16816853,0.4437723,0.059591293,-0.41005516,1.0526584,0.8854408,-0.20371313,0.17184386,0.38074267,-0.42650452,0.6752906,0.38298586,1.0,0.0,0.0,0.0,0.0,0.0,0.0,-1.7945217,0.15732631,-0.8564512,0.3631115,-5.443108,-5.284458,-6.0312033,-8.650565,0.17974973,2.5162458
4.4772687,15.270478,1.6840031,3.9020805,-0.1300095,-1.7957819,0.16024439,-0.7988723,0.4774106,-0.11472011,0.2998834,-0.47519675,0.64712536,0.5603861,1.0445945,-0.4974681,-1.8721714,-0.6594528,2.1142685,1.4792545,-0.9606409,1.11019,-0.5361397,-1.8624351,-0.68385166,2.1553185,1.4193599,-1.0137708,-1.428113,0.8925857,-0.18488766,0.54668725,-0.6601255,0.48199046,0.29597276,1.108181,-0.5590067,1.4101491,-3.633203,-0.1680004,0.34514266,0.055490017,-0.40366936,1.0561581,0.88651735,-0.20844658,0.18005595,0.37177536,-0.3968169,0.62903374,0.3356996,1.0,0.0,0.0,0.0,0.0,0.0,0.0,-1.758181,0.15900669,-0.8601491,0.41546822,-5.7225466,-4.5468836,-4.9047112,-5.215776,0.120806694,2.0426571
1.5159135,20.030022,2.6632035,8.154618,0.30283982,-1.6181564,0.06061227,-0.8019611,0.4640757,-0.14364025,0.3179988,-0.48962063,0.65090925,0.5650982,1.0299939,-0.48973215,-1.8767991,-0.6520518,2.1063564,1.4844508,-0.95726097,1.0959116,-0.52756715,-1.8646228,-0.6785006,2.1484826,1.4241664,-1.0106714,-1.4278933,0.8455969,-0.22995578,0.53089917,-0.69140375,0.4808136,0.31436685,1.0718765,-0.56068516,1.4128615,-3.6295705,-0.16783243,0.24661164,0.051580906,-0.39766884,1.0592829,0.88750917,-0.21263567,0.18847845,0.3627525,-0.38166127,0.5925159,0.30180693,1.0,0.0,0.0,0.0,0.0,0.0,0.0,-1.7218765,0.16068515,-0.86286145,0.013756752,-4.6599865,-4.475224,-1.6817808,-3.1190276,0.032269955,1.7260015
2.636067,13.629121,1.6945642,5.7713175,0.38214934,-1.7905253,0.16543263,-0.79257303,0.40226847,-0.12829663,0.25982007,-0.5026948,0.65466297,0.5726904,1.0166544,-0.4873403,-1.8774525,-0.6525186,2.0982132,1.4896327,-0.95340234,1.0816694,-0.51960397,-1.867068,-0.6734461,2.1414254,1.4289672,-1.007406,-1.4227366,0.7800637,-0.2493469,0.4966895,-0.7106727,0.4802193,0.3303555,1.0356083,-0.5623617,1.4145893,-3.6259418,-0.16766463,0.14817913,0.047813416,-0.39210892,1.0620245,0.888405,-0.21628736,0.19694987,0.3537893,-0.36806065,0.54553264,0.26236317,1.0,0.0,0.0,0.0,0.0,0.0,0.0,-1.6856083,0.16236171,-0.8645893,0.5477905,-6.5018415,-1.9549996,-3.5091043,-1.9040108,0.0992775,1.4904082
2.352311,11.607806,2.2379947,6.7373047,0.87760085,-1.6929914,0.23645365,-0.7881593,0.34053513,-0.04153233,0.26750705,-0.5028054,0.6641988,0.5769063,1.0028535,-0.48555046,-1.8712213,-0.64669544,2.0911448,1.4953871,-0.9497154,1.0674978,-0.5124552,-1.8691814,-0.6686339,2.134246,1.4337661,-1.0039957,-1.4150943,0.6933201,-0.19874883,0.47589546,-0.7199058,0.48035824,0.3443976,0.9993758,-0.5640373,1.4153335,-3.6223164,-0.16749701,0.049845036,0.044086933,-0.38699627,1.0644133,0.88916725,-0.2195278,0.20518716,0.34509042,-0.36783612,0.5012248,0.22877,1.0,0.0,0.0,0.0,0.0,0.0,0.0,-1.6493758,0.16403732,-0.8653335,0.81562996,-8.62459,5.0378857,-2.141142,-0.91774464,0.13296008,1.3279676
-1.817029,-4.3050194,-1.2082515,6.587886,1.3773594,-1.9500246,0.20594561,-0.7776033,0.23755065,-0.025808038,0.28150305,-0.50468177,0.6687912,0.5762773,0.9897375,-0.48870015,-1.8717622,-0.64048356,2.083778,1.5006453,-0.9463679,1.0534464,-0.50649667,-1.8706558,-0.66388553,2.127025,1.4385726,-1.0004613,-1.401355,0.5636893,-0.13079087,0.4744007,-0.7228509,0.48113054,0.35622084,0.9631796,-0.565711,1.4150951,-3.6186948,-0.16732953,-0.04839075,0.040198326,-0.38247204,1.0664207,0.8898348,-0.22241148,0.21291377,0.33674157,-0.39012364,0.4371921,0.18950222,1.0,0.0,0.0,0.0,0.0,0.0,0.0,-1.6131796,0.16571102,-0.8650951,1.5017748,-12.898672,6.627092,-0.19454956,-0.20352602,0.20431876,1.1250675
-6.054535,-22.273193,-5.0563774,5.679024,1.8507316,-2.2509365,0.20369166,-0.77075416,0.116547786,0.03049047,0.2809802,-0.49560052,0.6670491,0.5784057,0.976371,-0.4948419,-1.8676068,-0.6357875,2.0774648,1.5052775,-0.94262075,1.0395495,-0.502187,-1.8712814,-0.6590895,2.1198304,1.4433849,-0.9968219,-1.3850108,0.3870883,-0.040701795,0.48126867,-0.7179789,0.4817165,0.3664665,0.9270196,-0.5673828,1.4138751,-3.6150768,-0.16716224,-0.14652832,0.03591633,-0.37875843,1.0679716,0.89047974,-0.22491924,0.21985961,0.32881424,-0.43580255,0.3507889,0.1421263,1.0,0.0,0.0,0.0,0.0,0.0,0.0,-1.5770196,0.1673828,-0.8638751,1.8413305,-17.580933,8.698044,0.66239834,0.65670013,0.18011332,0.9927571
-13.8498745,-72.1726,-15.930013,-1.1021612,2.384736,-3.2071006,0.26317134,-0.7486158,-0.15117653,0.12848975,0.26213378,-0.551752,0.67146075,0.5756914,0.9646879,-0.51730466,-1.8584324,-0.63287616,2.064655,1.510531,-0.93925273,1.0258986,-0.500582,-1.8707321,-0.6542954,2.1125329,1.4482048,-0.993093,-1.3571578,0.08535882,0.08486973,0.47877833,-0.7323243,0.48267168,0.37489647,0.89089584,-0.56905365,1.4116745,-3.6114624,-0.16699512,-0.24456775,0.030880451,-0.3764372,1.068778,0.8912363,-0.22683093,0.22560342,0.32147878,-0.5225004,0.19417165,0.059003178,1.0,0.0,0.0,0.0,0.0,0.0,0.0,-1.5408958,0.16905364,-0.8616745,3.1795263,-30.040062,11.908421,-0.25556684,-1.0555863,0.21829009,0.831455
-20.401443,-94.16648,-20.931173,-0.881371,2.853502,-3.5344448,0.14719957,-0.7142811,-0.33270374,0.16989087,0.32092,-0.5979221,0.6751247,0.54983807,0.95447046,-0.53385234,-1.853743,-0.6222034,2.0527406,1.5157173,-0.9381092,1.012652,-0.5024121,-1.8689601,-0.64926,2.104953,1.4530303,-0.9893079,-1.3124318,-0.2720302,0.20505916,0.51196843,-0.76510197,0.482659,0.37998223,0.85480833,-0.5707226,1.4084942,-3.6078517,-0.16682816,-0.34250918,0.024752617,-0.3758688,1.0686809,0.892242,-0.22806177,0.2298913,0.3147094,-0.6408176,0.013030179,-0.03334003,1.0,0.0,0.0,0.0,0.0,0.0,0.0,-1.5048083,0.17072257,-0.8584942,4.9480915,-35.598503,11.218988,3.372258,-2.8167725,-0.00795126,0.56957006
-19.670746,-90.80077,-19.819117,-0.031716228,2.8701723,-3.3782692,0.12668721,-0.6667515,-0.47735065,0.23444875,0.3435273,-0.62337977,0.688475,0.52348924,0.9459769,-0.5501472,-1.8455153,-0.61490726,2.0426152,1.5218779,-0.93695897,1.0000082,-0.50778604,-1.8659904,-0.6437821,2.096988,1.4578598,-0.98549604,-1.2468592,-0.62533206,0.32507685,0.5601392,-0.8058243,0.4824234,0.38210738,0.81875706,-0.5723896,1.4043353,-3.6042445,-0.16666137,-0.44035268,0.017439842,-0.3770399,1.0676819,0.8935348,-0.22869137,0.23267832,0.3084746,-0.761044,-0.15748678,-0.12262624,1.0,0.0,0.0,0.0,0.0,0.0,0.0,-1.468757,0.1723896,-0.85433525,7.0071697,-35.207687,11.265999,4.947841,-3.671968,-0.1798451,0.36574602
-15.992637,-75.71942,-16.0589,1.2282459,2.6628888,-2.9957988,0.11599439,-0.61580396,-0.6169716,0.30462784,0.3644845,-0.6580929,0.69835484,0.44788998,0.9384278,-0.5694832,-1.8355277,-0.60733366,2.0311787,1.5276952,-0.940707,0.98814833,-0.51644635,-1.8618057,-0.6377844,2.088565,1.4626892,-0.9817214,-1.164452,-0.94596213,0.447885,0.6135853,-0.85381526,0.48210296,0.37665844,0.782742,-0.5740547,1.3991987,-3.600641,-0.16649474,-0.5380984,0.009032249,-0.37972927,1.0658514,0.8950851,-0.22887513,0.23403884,0.30276144,-0.8686609,-0.30204496,-0.20406581,1.0,0.0,0.0,0.0,0.0,0.0,0.0,-1.432742,0.17405471,-0.84919864,8.6045265,-31.97099,11.72123,5.536878,-4.523909,-0.29185414,-0.31487346
-9.406194,-48.311825,-9.796462,2.859096,2.1698618,-2.4325817,0.0926372,-0.5583665,-0.7083584,0.34804767,0.38124755,-0.6886324,0.7050381,0.30722523,0.93231165,-0.5872822,-1.8270009,-0.5996597,2.019702,1.533193,-0.9509989,0.97721636,-0.5278132,-1.856488,-0.63128895,2.0796425,1.4675186,-0.9781079,-1.0686437,-1.2001517,0.55876327,0.66229004,-0.9052252,0.48223725,0.35704768,0.7467623,-0.5757179,1.3930852,-3.5970411,-0.16632828,-0.6357464,-0.00022554398,-0.38356972,1.0633167,0.8968256,-0.22880079,0.23418494,0.29750842,-0.94712555,-0.40692645,-0.27170667,1.0,0.0,0.0,0.0,0.0,0.0,0.0,-1.3967623,0.17571792,-0.8430852,9.803915,-25.375725,10.818005,5.0890803,-5.06171,-0.2660632,-1.7038047
-2.946899,-14.624093,-2.746849,5.6969495,1.5870991,-1.8280247,0.02727915,-0.4997905,-0.74921554,0.338019,0.4098945,-0.698031,0.70145553,0.21102221,0.92723733,-0.60273474,-1.8226861,-0.5902995,2.0098395,1.5376642,-0.9570057,0.9673058,-0.541054,-1.8504131,-0.6243071,2.0702584,1.4723518,-0.9747596,-0.9649122,-1.3654277,0.6235799,0.7109452,-0.9495654,0.48277324,0.3281692,0.71081877,-0.5773802,1.3859961,-3.5934448,-0.16616198,-0.7332968,-0.009999275,-0.38812828,1.0602576,0.8986808,-0.228637,0.2334704,0.29255685,-0.99079597,-0.46699595,-0.3198798,1.0,0.0,0.0,0.0,0.0,0.0,0.0,-1.3608187,0.17738017,-0.8359961,10.471082,-16.542578,6.4884663,5.107498,-4.550886,-0.15257001,-2.6479065
12.921272,16.46085,4.5228934,1.173699,0.45233327,-1.5191307,0.2022776,-0.34843573,-0.7780689,0.3117367,0.40137428,-0.6996486,0.69050217,0.16437094,0.9324622,-0.6188609,-1.8192394,-0.5841697,2.0002935,1.541402,-0.95832247,0.95888007,-0.5553763,-1.8440769,-0.6170172,2.0605156,1.4771831,-0.971725,-0.8026792,-1.454747,0.63920015,0.7353631,-0.98435944,0.4824327,0.2956127,0.6749115,-0.5790405,1.3779322,-3.589852,-0.16599585,-0.83074963,-0.01976633,-0.3930807,1.056812,0.90052015,-0.22847572,0.23221739,0.28798836,-0.975521,-0.49929762,-0.3561207,1.0,0.0,0.0,0.0,0.0,0.0,0.0,-1.3249115,0.17904052,-0.8279322,15.959525,-9.021401,2.2597432,2.534914,-3.9746284,-0.21986365,-3.1434178
14.037846,31.751188,6.446383,2.584522,-0.060704827,-1.4092312,0.07600152,-0.31315917,-0.7891813,0.2169408,0.41730085,-0.7002647,0.68591005,0.06277274,0.92756414,-0.6342944,-1.8223828,-0.5752871,1.9904891,1.5457741,-0.9654477,0.95197356,-0.5701535,-1.838227,-0.60953563,2.0505173,1.4820087,-0.9690671,-0.654301,-1.4857713,0.5693003,0.75289506,-1.0067141,0.48227552,0.25595146,0.6390395,-0.58069897,1.3688945,-3.586263,-0.1658299,-0.92810506,-0.029239178,-0.3982582,1.0530651,0.9023302,-0.22824976,0.23079816,0.28360948,-0.9410109,-0.5191956,-0.38476303,1.0,0.0,0.0,0.0,0.0,0.0,0.0,-1.2890395,0.18069896,-0.81889445,14.558959,-3.2272816,-6.267488,1.864624,-2.7531505,-0.13251305,-3.9175808
20.980618,46.81293,9.666218,1.0299432,-0.50965667,-1.2866282,0.1476972,-0.19741859,-0.79140604,0.1929545,0.43274733,-0.7017766,0.6876809,0.06300143,0.9322317,-0.6492941,-1.8189316,-0.5662609,1.9803396,1.5507768,-0.96276695,0.9466969,-0.5849688,-1.8332431,-0.60189,2.040355,1.4868362,-0.9667764,-0.4867147,-1.4807241,0.47795197,0.76863146,-1.0213721,0.4823699,0.2200662,0.6032038,-0.58235645,1.3588839,-3.5826774,-0.16566409,-1.0253631,-0.038184166,-0.4035368,1.0491029,0.9040681,-0.22796428,0.22942038,0.279391,-0.88157326,-0.52684546,-0.40418795,1.0,0.0,0.0,0.0,0.0,0.0,0.0,-1.2532037,0.18235645,-0.80888385,16.364294,0.3408432,-8.143431,1.6185045,-2.1571398,-0.102847815,-3.6029072
11.386534,36.960403,5.011497,3.4060218,-0.7111133,-1.6324894,-0.1063294,-0.194546,-0.79612833,-0.03217189,0.43486816,-0.70175666,0.6862485,-0.0075018005,0.9272423,-0.66458166,-1.8364604,-0.5584032,1.9701793,1.555461,-0.96752656,0.9427191,-0.5996363,-1.8301246,-0.59412235,2.0301201,1.4916637,-0.96486044,-0.36878878,-1.4624975,0.25838244,0.7798806,-1.025604,0.48267144,0.18198265,0.5674038,-0.58401203,1.3479015,-3.5790954,-0.16549847,-1.1225239,-0.046643257,-0.40903664,1.0448687,0.9058502,-0.22730882,0.22841702,0.27493936,-0.83543867,-0.55436504,-0.4341645,1.0,0.0,0.0,0.0,0.0,0.0,0.0,-1.2174038,0.18401203,-0.79790145,11.570496,1.6797543,-21.420025,1.2597561,-0.7881403,-0.05480647,-3.8627057
6.83432,30.68991,2.5540032,3.6470046,-0.8287333,-1.8041514,-0.16214398,-0.16575244,-0.7972798,-0.1435662,0.40913782,-0.69625413,0.68498516,-0.07238804,0.9261439,-0.6793643,-1.8444812,-0.5532086,1.9604948,1.5601622,-0.97209924,0.939633,-0.61411595,-1.8295085,-0.5864052,2.0199006,1.4964931,-0.96333647,-0.28893337,-1.4435426,-0.002893846,0.76945573,-1.0214044,0.4827139,0.14222087,0.5316396,-0.5856657,1.3359482,-3.575517,-0.165333,-1.2195876,-0.054694653,-0.41489315,1.0402702,0.9077703,-0.2259891,0.22800075,0.26999566,-0.7959682,-0.5932991,-0.4728824,1.0,0.0,0.0,0.0,0.0,0.0,0.0,-1.1816396,0.1856657,-0.7859482,7.8617454,1.764369,-25.83293,-0.89221,0.21753311,-0.09174347,-4.063818
8.178974,27.322006,1.8848481,1.334804,-0.96958816,-1.8757467,-0.051631153,-0.11240746,-0.80467826,-0.22121747,0.37385538,-0.69496304,0.6891525,-0.09895202,0.9283923,-0.6945838,-1.8516303,-0.5490197,1.9504043,1.5654083,-0.9732317,0.93725455,-0.62847924,-1.8313797,-0.5789923,2.009742,1.5013225,-0.96219206,-0.22122362,-1.434317,-0.24752669,0.7321806,-1.0144967,0.48269376,0.10477101,0.49591112,-0.58731747,1.3230251,-3.571942,-0.1651677,-1.3165542,-0.062342167,-0.4211893,1.035232,0.90982664,-0.22387278,0.22818007,0.26463223,-0.7542782,-0.6395015,-0.51873666,1.0,0.0,0.0,0.0,0.0,0.0,0.0,-1.1459111,0.18731746,-0.7730251,6.645167,0.79898834,-24.183825,-3.6294103,0.5029917,-0.14684796,-3.8612947
0.33337617,22.334982,0.29641467,4.366474,-0.6299371,-1.8224838,-0.08522773,-0.15367362,-0.8072357,-0.32561958,0.34441632,-0.6928886,0.6812158,-0.101649486,0.92188716,-0.7092028,-1.8639417,-0.54455066,1.9404532,1.5694441,-0.97235703,0.9351355,-0.64281106,-1.8355415,-0.57207245,1.9996598,1.5061462,-0.96138144,-0.20873797,-1.433162,-0.47237784,0.67912173,-1.0062921,0.48186794,0.07280235,0.46021843,-0.5889683,1.309133,-3.5683708,-0.16500257,-1.4134239,-0.06972504,-0.42795277,1.0297041,0.91203314,-0.2208666,0.22894774,0.2588365,-0.73215103,-0.6857858,-0.5688336,1.0,0.0,0.0,0.0,0.0,0.0,0.0,-1.1102184,0.18896827,-0.75913304,1.3007015,0.003004074,-22.464746,-5.122924,0.7209778,-0.22711158,-3.28632
-4.6717205,27.174053,1.7393494,8.630578,-0.0042728037,-1.4897295,-0.07907228,-0.17167975,-0.80532855,-0.3413132,0.33753058,-0.6862486,0.6810859,-0.09530711,0.9179675,-0.7233439,-1.8696728,-0.5383194,1.9310349,1.5742548,-0.97091216,0.9328762,-0.6571524,-1.8413742,-0.56563324,1.9896634,1.5109622,-0.96084356,-0.2311876,-1.4349926,-0.62024856,0.63299,-0.9980738,0.4811639,0.04736517,0.4245615,-0.5906172,1.294273,-3.5648031,-0.1648376,-1.5101967,-0.07701635,-0.4350376,1.0237405,0.9143585,-0.21709606,0.23018324,0.25265297,-0.7271166,-0.7136782,-0.610401,1.0,0.0,0.0,0.0,0.0,0.0,0.0,-1.0745615,0.19061717,-0.744273,-2.0841866,-0.30534267,-14.796888,-4.371834,0.6277323,-0.20299554,-2.5748887
-15.970153,28.22988,1.6803048,14.986843,0.76290774,-1.2000408,-0.145989,-0.26721317,-0.8046058,-0.37581873,0.2948093,-0.6651938,0.6695318,-0.0855979,0.90615493,-0.73761296,-1.8789561,-0.5361523,1.923144,1.5779154,-0.9694033,0.92988646,-0.67151856,-1.848254,-0.5597195,1.9797928,1.515765,-0.96051455,-0.3203867,-1.4376191,-0.7112017,0.5787724,-0.9840021,0.47968376,0.02829557,0.38894033,-0.5922642,1.278446,-3.561239,-0.16467279,-1.6068728,-0.084469795,-0.44228554,1.0173981,0.91679406,-0.21266459,0.23177324,0.24605568,-0.7504198,-0.725683,-0.64717466,1.0,0.0,0.0,0.0,0.0,0.0,0.0,-1.0389403,0.19226417,-0.72844595,-8.555353,-0.39904118,-9.277094,-5.0446033,1.1687636,-0.25197268,-1.8661306
-14.508571,32.136196,3.040835,14.251884,0.8631885,-1.0183966,0.015275627,-0.2872206,-0.80938387,-0.37406066,0.22882535,-0.67133564,0.67010033,-0.012896373,0.9011644,-0.75245696,-1.88566,-0.536837,1.9126593,1.582775,-0.9618042,0.9259459,-0.68593144,-1.8555915,-0.5545334,1.9700234,1.5205543,-0.96029234,-0.41744903,-1.442923,-0.7415734,0.49980748,-0.975836,0.47821656,0.020471565,0.35335445,-0.59390926,1.2616528,-3.5576785,-0.16450815,-1.7034522,-0.092140675,-0.44959927,1.0106952,0.91928,-0.20765513,0.23360199,0.23923554,-0.7716299,-0.729563,-0.68297005,1.0,0.0,0.0,0.0,0.0,0.0,0.0,-1.0033544,0.19390926,-0.7116528,-9.3683605,-0.6687641,-3.120923,-7.5524807,0.47260523,-0.26714802,-0.7273987
-13.203511,35.591335,4.0275974,13.408079,0.8826507,-0.8910241,0.14235447,-0.33730382,-0.8082844,-0.3765409,0.15964961,-0.6646057,0.6657388,0.03372882,0.8922155,-0.7667599,-1.8932456,-0.53856844,1.9035628,1.5871282,-0.95691943,0.9209906,-0.70038533,-1.8629673,-0.5503239,1.9603264,1.5253265,-0.9600911,-0.52048796,-1.446647,-0.7362851,0.3956927,-0.96910155,0.47639096,0.020291245,0.31780434,-0.5955534,1.2438946,-3.5541215,-0.16434368,-1.7999351,-0.099993706,-0.45691586,1.0036355,0.92175484,-0.2021163,0.23558368,0.23241633,-0.78927416,-0.72815645,-0.7187203,1.0,0.0,0.0,0.0,0.0,0.0,0.0,-0.9678043,0.19555339,-0.69389457,-9.990549,-0.5080223,0.49974918,-10.098511,0.26897192,-0.3152132,0.042977557
-0.5257441,32.99198,3.9672265,3.4735186,-0.024094343,-1.0752152,0.5365162,-0.35886028,-0.81571925,-0.3899363,-0.029685477,-0.6412755,0.65514976,0.09214271,0.88510454,-0.78195727,-1.9019608,-0.55329245,1.8961989,1.5908414,-0.95087683,0.91514647,-0.7148974,-1.8702285,-0.54786056,1.9507439,1.5300701,-0.9598403,-0.6052049,-1.4529988,-0.7223491,0.19707465,-0.9559414,0.47284842,0.026751151,0.28228998,-0.5971956,1.2251723,-3.550568,-0.16417937,-1.8963215,-0.107776165,-0.46436214,0.99608356,0.9241446,-0.19589536,0.23765717,0.22605492,-0.77476376,-0.7454271,-0.77246255,1.0,0.0,0.0,0.0,0.0,0.0,0.0,-0.93228996,0.19719562,-0.67517227,-8.307123,-0.73218346,1.4636755,-19.713133,0.90367794,-0.572747,0.63908213
21.539736,31.853477,4.711386,-11.86821,-1.4644228,-1.3016115,1.1260525,-0.358125,-0.81576717,-0.3621091,-0.30199334,-0.6202575,0.6440781,0.15186083,0.879334,-0.7964741,-1.9064394,-0.5780599,1.8887181,1.5944779,-0.9446542,0.90871394,-0.7294581,-1.8772056,-0.5484156,1.9413426,1.534766,-0.9594817,-0.6560718,-1.4572835,-0.6888032,-0.14002448,-0.93608814,0.46721935,0.03852645,0.24681091,-0.59883595,1.2054869,-3.5470183,-0.16401523,-1.9926116,-0.11500168,-0.4721756,0.9878171,0.92633593,-0.18875016,0.23974192,0.2209046,-0.70582956,-0.78807855,-0.84996367,1.0,0.0,0.0,0.0,0.0,0.0,0.0,-0.8968109,0.19883594,-0.6554869,-5.1351547,-0.4590273,3.5124183,-33.809357,1.6054273,-0.905174,1.082366
29.239012,36.273857,6.296089,-15.715352,-1.7133329,-1.183516,1.3497294,-0.3910581,-0.8102915,-0.30271882,-0.4632122,-0.6063925,0.6427855,0.25631213,0.8696081,-0.8104873,-1.9074775,-0.5947368,1.8807033,1.5990446,-0.9338505,0.9018513,-0.7440188,-1.8836067,-0.5526404,1.9321644,1.5394046,-0.95893145,-0.69654226,-1.4557256,-0.62396896,-0.51701957,-0.912421,0.461505,0.06034851,0.21136713,-0.60047436,1.1848392,-3.543472,-0.16385125,-2.0888052,-0.12141037,-0.48040295,0.9787594,0.9282509,-0.18066408,0.24172343,0.21744046,-0.6202827,-0.82868004,-0.929931,1.0,0.0,0.0,0.0,0.0,0.0,0.0,-0.8613671,0.20047435,-0.63483924,-4.109335,0.16410351,6.458664,-37.82637,2.1366477,-0.95169544,2.1308384
17.650303,39.15768,6.42394,-7.6323757,-0.88402593,-0.91901237,1.096628,-0.45711005,-0.8075093,-0.30222258,-0.5352349,-0.59375924,0.6514527,0.31606737,0.8561403,-0.82476974,-1.913829,-0.60616386,1.8727885,1.6045499,-0.9273247,0.8944365,-0.7585385,-1.8894451,-0.56017154,1.9232304,1.5439994,-0.9581256,-0.7561231,-1.4508091,-0.5714129,-0.83159065,-0.88747436,0.45772028,0.08745958,0.17595911,-0.6021118,1.1632304,-3.5399292,-0.16368744,-2.1849024,-0.12717104,-0.48890305,0.96898234,0.9299087,-0.17177601,0.24356139,0.21550068,-0.56300735,-0.8505963,-0.9995033,1.0,0.0,0.0,0.0,0.0,0.0,0.0,-0.8259591,0.20211181,-0.6132304,-5.863619,0.49200058,4.9672365,-31.407154,2.397871,-0.721401,2.7589307
8.719679,40.595173,6.341319,-0.7972491,-0.19761437,-0.7613025,0.8136273,-0.46677157,-0.8108755,-0.33082762,-0.6018555,-0.5744747,0.6506414,0.3678846,0.8477593,-0.839626,-1.9225278,-0.6203571,1.865783,1.6090636,-0.9213371,0.88649714,-0.77302575,-1.8950489,-0.5701918,1.9145596,1.5485637,-0.9570279,-0.80604404,-1.4480313,-0.5579449,-1.0583268,-0.86021096,0.4552751,0.117425114,0.14058638,-0.60374737,1.1406614,-3.53639,-0.16352378,-2.2809038,-0.13254118,-0.49753284,0.9585835,0.93135774,-0.16223805,0.2452558,0.21471196,-0.53008294,-0.85972357,-1.0594692,1.0,0.0,0.0,0.0,0.0,0.0,0.0,-0.79058635,0.20374736,-0.59066135,-4.8339605,0.274992,0.9539366,-22.522736,2.7173877,-0.52740574,3.0937462
-10.465818,46.978153,7.003566,12.547445,1.1918902,-0.3539297,0.36564434,-0.54256356,-0.80250627,-0.2971323,-0.61357796,-0.565283,0.65763026,0.39221567,0.83224076,-0.8532764,-1.9247621,-0.6315496,1.8580313,1.6143267,-0.9178063,0.87785304,-0.78745866,-1.9005115,-0.58165973,1.9061406,1.5531242,-0.95563745,-0.88286203,-1.4416995,-0.5439742,-1.175297,-0.8359034,0.45570463,0.14687195,0.10524893,-0.605381,1.1171329,-3.5328543,-0.1633603,-2.3768091,-0.13791656,-0.506032,0.94775754,0.9326657,-0.15231693,0.24679312,0.21453951,-0.5419841,-0.838239,-1.0965621,1.0,0.0,0.0,0.0,0.0,0.0,0.0,-0.7552489,0.205381,-0.5671329,-7.409513,0.606513,0.9180069,-11.410832,2.444172,-0.085288286,3.114769
-27.46808,42.709904,4.3618984,20.94554,1.8095324,-0.36968738,-0.0044996813,-0.6067444,-0.7965015,-0.4336529,-0.6444491,-0.5260044,0.6490397,0.40369278,0.8171786,-0.8671088,-1.9438767,-0.64610463,1.8535402,1.6180282,-0.9152682,0.8682829,-0.8018105,-1.9065235,-0.5937819,1.8980114,1.5576828,-0.95397615,-0.9806235,-1.4333417,-0.62102133,-1.223151,-0.8060765,0.45530185,0.17303933,0.069946766,-0.6070137,1.0926462,-3.5293221,-0.16319697,-2.4726186,-0.14367342,-0.5142946,0.9365718,0.93392926,-0.14198016,0.2483093,0.21438314,-0.5890491,-0.81307846,-1.1322364,1.0,0.0,0.0,0.0,0.0,0.0,0.0,-0.71994674,0.2070137,-0.5426462,-9.422994,0.75001717,-7.931781,-4.370713,2.7147412,-0.20956397,2.7571588
-39.202435,39.11206,2.1857543,26.048185,2.164775,-0.3985262,-0.22466803,-0.6678327,-0.7889538,-0.5405432,-0.66361415,-0.48924097,0.6437209,0.4382414,0.80149966,-0.8807059,-1.9605777,-0.6601433,1.8490874,1.6220548,-0.910152,0.8576361,-0.8160603,-1.9138305,-0.6060881,1.8902256,1.5622299,-0.9520602,-1.091461,-1.4227712,-0.7671621,-1.2314193,-0.7713756,0.4535907,0.19821921,0.03467989,-0.6086445,1.0672021,-3.5257936,-0.16303381,-2.5683322,-0.15007353,-0.5223036,0.9250105,0.93521935,-0.1310713,0.24994382,0.21380627,-0.65981466,-0.7872119,-1.1705942,1.0,0.0,0.0,0.0,0.0,0.0,0.0,-0.68467987,0.20864448,-0.5172021,-10.686898,0.9114504,-14.577031,-0.3227949,2.923584,-0.42464137,2.624044
-44.36535,33.26105,0.18323654,26.745407,2.3448305,-0.49343807,-0.2699821,-0.7256233,-0.79224616,-0.63903004,-0.69948137,-0.3852055,0.60649484,0.44293284,0.78507376,-0.8952849,-1.9777335,-0.67603624,1.8517051,1.6228794,-0.90776694,0.84585345,-0.83024526,-1.9229057,-0.61846966,1.8830235,1.5667236,-0.94991636,-1.2057934,-1.4177126,-0.9532867,-1.238471,-0.7056451,0.44672275,0.22012478,-0.0005517006,-0.61027336,1.0408016,-3.5222685,-0.16287081,-2.6639502,-0.15728903,-0.53009987,0.9129981,0.93658334,-0.11943788,0.25164452,0.21265276,-0.7453502,-0.7662758,-1.2181145,1.0,0.0,0.0,0.0,0.0,0.0,0.0,-0.6494483,0.21027336,-0.49080163,-11.0149145,0.29904842,-18.343246,-0.12731552,5.7786703,-1.0879815,2.2987962
-42.715176,32.729984,0.3922633,25.52393,2.592637,-0.45486957,-0.22903405,-0.76095635,-0.7939406,-0.70756555,-0.71436,-0.22968173,0.5874698,0.41210264,0.7697578,-0.9096393,-1.9936622,-0.68990564,1.8600553,1.6254705,-0.90870607,0.83304274,-0.84441495,-1.9338176,-0.63094276,1.8768723,1.5711334,-0.94760084,-1.3048042,-1.4175112,-1.1361777,-1.2483559,-0.5877679,0.43742487,0.23591055,-0.035748005,-0.6119003,1.0134456,-3.518747,-0.16270797,-2.7594726,-0.16539192,-0.53767776,0.90050083,0.93804544,-0.10710991,0.2531365,0.21099807,-0.8358835,-0.7435731,-1.2674302,1.0,0.0,0.0,0.0,0.0,0.0,0.0,-0.614252,0.21190032,-0.4634456,-9.510589,-0.20875931,-17.948532,-0.40810108,10.947573,-1.4018834,1.736322
-37.021317,37.4619,2.8720691,23.98732,3.2977366,-0.30546284,-0.14009434,-0.78538156,-0.79319876,-0.74210644,-0.7298978,0.12487835,0.5311091,0.3531967,0.75450456,-0.92373484,-2.0080283,-0.7039325,1.8893602,1.6242443,-0.91228116,0.81942236,-0.85859513,-1.9462612,-0.6435713,1.8728478,1.5754135,-0.94518805,-1.3799739,-1.4189554,-1.279461,-1.2659388,-0.3430875,0.4234044,0.24407935,-0.07090902,-0.61352634,0.98513514,-3.515229,-0.1625453,-2.8548996,-0.17444038,-0.5449629,0.8875947,0.9396567,-0.094388485,0.2537851,0.20911513,-0.9324585,-0.7107087,-1.3059046,1.0,0.0,0.0,0.0,0.0,0.0,0.0,-0.57909095,0.21352634,-0.43513513,-7.191038,-0.35665035,-14.058948,-1.2404203,23.760796,-1.8598676,1.1180282
-31.989494,45.952618,6.2382445,23.851362,3.9828598,-0.07209253,-0.14187935,-0.81067866,-0.78828496,-0.7579386,-0.7291244,0.42966184,0.4373124,0.21102515,0.7383545,-0.93742365,-2.0220551,-0.7164838,1.9158139,1.6191447,-0.92408556,0.8051983,-0.8727696,-1.9597347,-0.65635246,1.8719742,1.5794971,-0.9428115,-1.4357204,-1.4175217,-1.3694997,-1.2807617,-0.0038576585,0.40189946,0.23686907,-0.106034756,-0.61515045,0.9558711,-3.5117145,-0.16238278,-2.9502313,-0.18446636,-0.55181694,0.8744396,0.9414906,-0.08168879,0.25295475,0.20721033,-1.030933,-0.6633306,-1.3264253,1.0,0.0,0.0,0.0,0.0,0.0,0.0,-0.5439652,0.21515045,-0.4058711,-5.3235054,-0.034308434,-8.8505745,-1.0577917,33.42659,-2.5384247,-0.2982527
-25.127403,57.439026,9.894859,23.279495,3.9457726,0.22027755,-0.17049134,-0.821979,-0.77201223,-0.77148545,-0.7232265,0.53000104,0.40383467,0.097008444,0.7230004,-0.94997084,-2.036883,-0.7286751,1.9249743,1.6198806,-0.93311065,0.7905718,-0.88684773,-1.9737766,-0.6692204,1.8743584,1.5833576,-0.94060373,-1.4710878,-1.4049321,-1.4158099,-1.2878975,0.31864908,0.38007805,0.21673271,-0.14112568,-0.6167736,0.9256545,-3.5082035,-0.16222043,-3.0454676,-0.19533777,-0.5581198,0.86119485,0.94355506,-0.06930519,0.25048533,0.20532337,-1.1109382,-0.60435075,-1.3315407,1.0,0.0,0.0,0.0,0.0,0.0,0.0,-0.5088743,0.2167736,-0.37565446,-3.3751726,1.1433601,-4.6192884,-0.4340887,32.030552,-2.4504006,-1.6102016
-18.919752,63.77857,11.752763,21.883816,3.284669,0.37104827,-0.22090808,-0.8222076,-0.76787394,-0.7922933,-0.70273376,0.46768832,0.35153428,0.008247828,0.708351,-0.96363515,-2.053006,-0.7394938,1.9211272,1.618511,-0.9397789,0.77574503,-0.90077996,-1.9881141,-0.6820292,1.8791325,1.5869873,-0.93866587,-1.4861555,-1.3894708,-1.4400141,-1.2779672,0.53008205,0.35662758,0.18702805,-0.17618132,-0.61839485,0.8944862,-3.504696,-0.16205825,-3.1406085,-0.20681286,-0.56383514,0.84792364,0.9457845,-0.057284918,0.2467011,0.20334372,-1.1643379,-0.54515207,-1.3331617,0.0,1.0,0.0,0.0,0.0,0.0,0.0,-0.47381866,0.21839485,-0.34448618,-1.4137506,1.4791965,-2.5021315,1.1633158,21.138405,-2.529496,-2.6904492
-11.951526,65.23627,12.295456,18.751816,2.2151706,0.45626956,-0.19974421,-0.8156484,-0.76996046,-0.80388755,-0.6972843,0.3138188,0.38206026,-0.03050265,0.6941802,-0.977776,-2.068503,-0.7517576,1.9105144,1.6251932,-0.94171613,0.7608629,-0.91456884,-2.0030792,-0.694835,1.8854365,1.5901359,-0.93720794,-1.495363,-1.371773,-1.5961771,-1.3070657,0.7305723,0.23655003,0.11907274,-0.20400047,-0.61880493,0.87276095,-1.4798801,0.3341095,-0.0063998085,-0.21868849,-0.5691166,0.8345034,0.9481408,-0.04526031,0.24199212,0.2010477,-1.212025,-0.5282917,-1.3653405,0.0,1.0,0.0,0.0,0.0,0.0,0.0,-0.4459995,0.21880493,-0.32276094,-2.0601273,2.3940086,-30.158043,-7.2873354,34.231316,-22.473478,-10.19315
-11.58791,176.0,62.840893,68.54293,9.001701,5.040539,-1.1969352,-0.8290251,-0.5100489,0.42287952,-0.09360304,0.50442874,0.6333249,-0.4071243,0.6779604,-0.9655737,-1.9607912,-0.7041953,1.9358795,1.6534684,-0.97792035,0.7456222,-0.9306163,-2.0038383,-0.70247775,1.8838897,1.590485,-0.93644404,-1.533864,-1.6762143,0.4060967,-0.5874735,-0.42246062,-0.021507172,0.06290889,-0.21878815,-0.6154661,0.8719605,-1.4784006,0.33377543,-0.10457936,-0.23084974,-0.57243633,0.82347524,0.95054543,-0.03695748,0.2361969,0.19826393,-1.2204231,-0.25163448,-1.0218772,0.0,1.0,0.0,0.0,0.0,0.0,0.0,-0.43121183,0.21546611,-0.3219605,-3.9339542,-28.563261,192.76651,70.7172,-107.09585,-22.510498,-5.3969917
-38.098892,164.0482,42.38421,70.05272,8.495577,3.2500446,-1.888704,-0.7608955,-0.74809545,-0.027026065,0.26835948,0.33948678,0.67244303,-0.5006882,0.66953266,-1.0054258,-2.006541,-0.6756418,1.9178383,1.6577293,-0.98651284,0.73064667,-0.9472522,-1.9960431,-0.70371467,1.8794227,1.590504,-0.93631244,-1.4839318,-1.6584928,0.8998571,0.032124706,-0.45050946,0.013888442,-0.0016051176,-0.23356104,-0.6121311,0.87017906,-1.4769225,0.33344173,-0.20266074,-0.2437129,-0.5735054,0.81521595,0.9531258,-0.03303457,0.2297785,0.19406617,-1.308456,-0.045244876,-0.764054,1.0,0.0,0.0,0.0,0.0,0.0,0.0,-0.41643894,0.21213111,-0.32017905,5.449462,2.0377874,48.069584,62.319843,-1.534915,4.724531,-5.8759837
-46.37606,126.32184,22.143332,60.19975,4.2744417,1.1926754,-2.143684,-0.6778577,-0.72637826,-0.4431589,0.5232805,-0.38870108,0.68823457,-0.44376138,0.6628609,-1.0198901,-2.040359,-0.6513866,1.8405526,1.6593275,-0.9806886,0.71664864,-0.96302503,-1.9889401,-0.6988986,1.8740954,1.5911487,-0.9367244,-1.3705498,-1.549876,0.6458844,0.63384986,-0.5586802,0.082929455,-0.053333208,-0.24831915,-0.60879993,0.8674175,-1.4754459,0.33310837,-0.30064404,-0.25729084,-0.573246,0.8085786,0.95579964,-0.030856691,0.22462441,0.18718657,-1.374425,0.061273836,-0.63259965,1.0,0.0,0.0,0.0,0.0,0.0,0.0,-0.40168083,0.20879993,-0.3174175,11.695313,10.95202,-25.739813,60.886826,-10.41441,7.3843675,-4.8858542
-39.273396,93.87188,11.376118,44.17683,1.7647266,0.21352464,-1.6564612,-0.67356557,-0.7544637,-0.30325532,0.62874025,-0.6417681,0.707381,-0.2983246,0.6492921,-1.0384715,-2.0192657,-0.6360246,1.8099186,1.6618868,-0.9665569,0.70372826,-0.9776973,-1.9859551,-0.6892541,1.8675303,1.5925125,-0.93748546,-1.2651103,-1.4401144,0.18242455,1.076861,-0.6884344,0.1546017,-0.08333272,-0.26306248,-0.60547066,0.8636769,-1.4739707,0.33277532,-0.39852938,-0.2712989,-0.5723381,0.8025999,0.9583788,-0.02861159,0.22170615,0.17758851,-1.4099653,0.11160826,-0.5896345,1.0,0.0,0.0,0.0,0.0,0.0,0.0,-0.3869375,0.20547065,-0.3136769,10.76808,10.876799,-46.44381,44.977985,-12.794197,7.262425,-2.9063435
-34.215992,77.796074,7.0417256,32.973873,0.57802963,-0.031029463,-1.0888497,-0.69842315,-0.7132944,-0.35875404,0.67999995,-0.6550108,0.71982324,-0.17399043,0.6338859,-1.0490267,-2.0218306,-0.6212541,1.8020293,1.6644948,-0.9548845,0.691485,-0.99131197,-1.9876813,-0.67653686,1.8598056,1.5945286,-0.9384029,-1.2101796,-1.3359592,-0.29103452,1.3383145,-0.80013865,0.21721824,-0.09480455,-0.27779102,-0.6021452,0.8589581,-1.472497,0.3324426,-0.49631688,-0.28550673,-0.5710716,0.7967081,0.9607225,-0.0254453,0.2210225,0.1658725,-1.4237349,0.14194934,-0.59305257,1.0,0.0,0.0,0.0,0.0,0.0,0.0,-0.37220895,0.20214519,-0.3089581,5.6428194,10.203981,-47.403828,26.652264,-11.073959,6.205493,-1.2247071
-18.754736,71.306656,8.063875,21.454899,0.005621031,0.06292969,-0.42115164,-0.6776313,-0.6933364,-0.38548803,0.7044343,-0.64839596,0.7250089,0.009990836,0.62372184,-1.0606456,-2.02623,-0.6060934,1.794966,1.6670295,-0.9374038,0.6795984,-1.0040833,-1.9931687,-0.66237193,1.8512282,1.5970958,-0.93926597,-1.1813174,-1.2582818,-0.63358414,1.4433508,-0.87792844,0.26929143,-0.08407227,-0.29250526,-0.59882355,0.8532622,-1.4710249,0.33211023,-0.5940066,-0.2996564,-0.5695648,0.79064274,0.96272457,-0.021216394,0.22206777,0.15296105,-1.4098823,0.16417749,-0.61492366,1.0,0.0,0.0,0.0,0.0,0.0,0.0,-0.3574947,0.19882354,-0.30326217,2.902627,7.5140476,-33.970486,10.744357,-8.031535,5.052704,0.87551475
9.544665,64.07946,10.94003,7.0048647,-0.5535941,0.06160146,0.2366907,-0.594868,-0.72252005,-0.3584858,0.71398103,-0.6596408,0.72728586,0.1273136,0.6201116,-1.0763353,-2.0290172,-0.59097385,1.7852641,1.6698245,-0.9265346,0.668202,-1.0164906,-2.000693,-0.64793235,1.8420615,1.6001133,-0.9399183,-1.126282,-1.2354865,-0.7895067,1.4440255,-0.93187267,0.31176978,-0.05972396,-0.30720425,-0.5955057,0.8465821,-1.4695542,0.3317782,-0.69266385,-0.31341028,-0.5679693,0.7842616,0.9643377,-0.01623478,0.22408383,0.13991323,-1.3608137,0.16843967,-0.64919096,1.0,0.0,0.0,0.0,0.0,0.0,0.0,-0.34279573,0.19550571,-0.2965821,5.3352356,2.064252,-14.8268585,0.031852722,-6.0662866,4.024619,2.2026048
28.002928,50.685715,10.467765,-3.737622,-1.0147752,-0.1770181,0.6381864,-0.53546363,-0.7543733,-0.42084068,0.70228976,-0.65658087,0.7040572,0.20328486,0.6146556,-1.0919279,-2.042777,-0.57770336,1.7764034,1.670519,-0.9195898,0.65753704,-1.0290371,-2.0090778,-0.6339267,1.83254,1.6034797,-0.940274,-1.0473437,-1.261388,-0.851831,1.3855643,-0.96135193,0.3440088,-0.028300436,-0.32188892,-0.5921898,0.8389162,-1.4680849,0.33144647,-0.7912225,-0.32656288,-0.5665026,0.7773834,0.9655861,-0.0107256835,0.22644335,0.12748237,-1.2965826,0.14979064,-0.7036553,1.0,0.0,0.0,0.0,0.0,0.0,0.0,-0.32811105,0.19218978,-0.28891617,7.651758,-2.7321577,-5.376911,-5.997157,-3.6857367,2.9810727,2.9380198
35.109642,46.239845,10.5450945,-7.052824,-1.0129621,-0.27727497,0.76723015,-0.48830417,-0.7690438,-0.45778206,0.709936,-0.6660795,0.69664776,0.295673,0.60870665,-1.1059415,-2.054856,-0.5629331,1.7659321,1.6731446,-0.9107067,0.6477533,-1.0420033,-2.017722,-0.6205428,1.8228183,1.6071132,-0.9402673,-0.9562365,-1.3089395,-0.86563754,1.3221291,-0.9784395,0.36892778,0.00977951,-0.33655882,-0.5888777,0.83026546,-1.4666171,0.3311151,-0.88968265,-0.33906174,-0.565279,0.76993686,0.9665239,-0.0048412904,0.22880282,0.11600527,-1.2305868,0.12268143,-0.761387,1.0,0.0,0.0,0.0,0.0,0.0,0.0,-0.31344116,0.18887767,-0.28026545,8.853841,-4.8710585,-0.4946351,-6.508708,-2.4778724,2.2212625,3.649321
33.541294,50.098877,11.647698,-4.909332,-0.5386548,-0.18662715,0.7286012,-0.4571917,-0.7791539,-0.4371344,0.7111259,-0.66047937,0.6861725,0.36243388,0.60203415,-1.1199187,-2.0614352,-0.54943025,1.7567704,1.6757305,-0.90402395,0.6388355,-1.0554577,-2.0261753,-0.60767204,1.8130126,1.6109508,-0.9398582,-0.8711619,-1.358076,-0.8356775,1.2749527,-0.9843588,0.38760018,0.050870385,-0.35121393,-0.5855694,0.82063085,-1.4651507,0.33078405,-0.9880443,-0.35095644,-0.56426907,0.76200527,0.96721643,0.0012223993,0.23097953,0.10554252,-1.1717689,0.10230719,-0.8068501,1.0,0.0,0.0,0.0,0.0,0.0,0.0,-0.29878604,0.18556938,-0.27063084,8.262992,-5.043459,3.9566398,-4.850459,-1.4605284,1.5652657,4.0094743
30.818083,57.48561,12.947718,-1.9581977,-0.17713,-0.06675255,0.6505858,-0.42310944,-0.7803581,-0.42539313,0.69359964,-0.6630523,0.67929083,0.392637,0.59652454,-1.1334935,-2.0687146,-0.5383121,1.7467073,1.6788799,-0.9005945,0.63069683,-1.0693012,-2.0342014,-0.5951913,1.8031745,1.614941,-0.93905425,-0.7955673,-1.3935223,-0.78838235,1.2387195,-0.98689675,0.40171093,0.09002215,-0.36585474,-0.58226395,0.81001335,-1.4636858,0.33045334,-1.0863075,-0.3622856,-0.5633993,0.75372756,0.96771073,0.0073269024,0.23293869,0.09603057,-1.1159141,0.08962404,-0.8378761,1.0,0.0,0.0,0.0,0.0,0.0,0.0,-0.28414524,0.18226394,-0.26001334,7.3210597,-3.698945,5.7824254,-3.743124,-1.2405157,1.0956585,3.8366616
21.335445,60.972557,12.7853775,2.5862093,0.38442153,0.028184414,0.52573174,-0.41725653,-0.7954303,-0.39746523,0.6765191,-0.64459723,0.6635507,0.42179298,0.5889712,-1.1488442,-2.073948,-0.5275394,1.7387148,1.6812961,-0.89687496,0.6231161,-1.0834404,-2.0416782,-0.58301383,1.7933822,1.6190399,-0.9378774,-0.74607104,-1.4214697,-0.7306402,1.2105261,-0.9798909,0.4114161,0.12685536,-0.38048077,-0.5789614,0.798414,-1.4622225,0.33012295,-1.1844726,-0.3731699,-0.56256485,0.74521,0.968056,0.013393174,0.23465359,0.087325856,-1.0751157,0.08869965,-0.85967237,0.0,1.0,0.0,0.0,0.0,0.0,0.0,-0.2695192,0.17896137,-0.24841398,4.766333,-2.9663324,6.794572,-2.8637648,-0.30355453,0.65793395,3.6534457
15.763643,65.78159,13.236931,5.7128334,0.82364774,0.1253826,0.44606847,-0.4021878,-0.8007762,-0.35372165,0.65482694,-0.6097067,0.64186937,0.4475546,0.5828973,-1.1635181,-2.0770504,-0.51753116,1.7324115,1.6832268,-0.89312196,0.61589867,-1.0977837,-2.0484836,-0.57111675,1.7837691,1.6232036,-0.9363525,-0.7141534,-1.439269,-0.6603484,1.1827685,-0.9585553,0.41687986,0.16100086,-0.395092,-0.5756626,0.7858337,-1.4607606,0.3297929,-1.2825395,-0.38370657,-0.5616646,0.7365498,0.9683008,0.019338217,0.23606747,0.0793201,-1.0423995,0.09716413,-0.87129796,0.0,1.0,0.0,0.0,0.0,0.0,0.0,-0.25490797,0.1756626,-0.2358337,3.0358076,-1.9645452,8.066761,-2.7863503,1.0774016,0.24029016,3.4179301
8.530739,67.21056,12.750912,8.327204,1.2133288,0.17391509,0.3828115,-0.41108447,-0.8063323,-0.31623372,0.6139803,-0.55588186,0.606123,0.4473116,0.57479024,-1.178417,-2.080107,-0.5097187,1.7281809,1.683816,-0.89162135,0.6088148,-1.1122547,-2.0545604,-0.5596059,1.7745242,1.6273826,-0.9345243,-0.7068806,-1.4501978,-0.58659375,1.1405773,-0.9166861,0.41740036,0.19021198,-0.40968895,-0.57236767,0.77227354,-1.4593002,0.32946318,-1.3805084,-0.394001,-0.5606165,0.72779936,0.9684945,0.025119241,0.23709552,0.0719239,-1.0206482,0.11392732,-0.8793656,0.0,1.0,0.0,0.0,0.0,0.0,0.0,-0.24031103,0.17236766,-0.22227353,0.6154537,-1.278162,8.339941,-4.1819096,3.1608582,-0.2384901,2.9613109
-14.192096,67.69081,10.169978,16.815536,1.7746557,0.21565539,0.11789145,-0.46612933,-0.80001295,-0.36283454,0.63450956,-0.59197474,0.6154237,0.46742415,0.56220186,-1.192256,-2.090844,-0.49615493,1.7153268,1.688925,-0.88778186,0.6014431,-1.1267494,-2.0606382,-0.5484669,1.7657822,1.6314778,-0.93235487,-0.74716824,-1.4499291,-0.6107462,1.1069666,-0.85709333,0.40743116,0.2242647,-0.42236423,-0.5677061,0.766127,-1.1791823,0.47557607,-0.42918405,-0.4043169,-0.55931664,0.7188901,0.96863884,0.03106556,0.23784716,0.06482505,-1.031787,0.14300342,-0.8969073,0.0,1.0,0.0,0.0,0.0,0.0,0.0,-0.22763574,0.1677061,-0.21612698,-3.8538456,-0.20670891,2.4424672,-1.5779018,1.6823292,-0.27486682,2.7020068
-54.027737,93.14155,13.16254,37.866615,4.2727137,0.95434356,-0.4239482,-0.6041496,-0.75591844,-0.15456815,0.7135316,-0.6041317,0.60673445,0.4344792,0.54102814,-1.2023412,-2.076095,-0.47711375,1.7053691,1.6921513,-0.88890696,0.593005,-1.1410049,-2.0658338,-0.5370562,1.7572926,1.6355596,-0.92996496,-0.8755705,-1.4184699,-0.48667192,1.15366,-0.8495434,0.407664,0.2445329,-0.43414688,-0.56295395,0.761094,-1.1780033,0.4751006,-0.5280061,-0.4150858,-0.5571594,0.7103075,0.96877444,0.03672466,0.23840119,0.05737757,-1.087443,0.24630731,-0.8485782,0.0,1.0,0.0,0.0,0.0,0.0,0.0,-0.2158531,0.16295394,-0.21109396,-12.714159,2.8868675,13.200569,5.0391436,-0.23754835,-0.19099712,2.2200704
-50.501957,93.3798,13.372024,36.257217,4.182326,0.9732214,-0.40818238,-0.6046195,-0.7627491,-0.13438547,0.6849995,-0.5774103,0.6041863,0.42116243,0.53254306,-1.2172798,-2.0792723,-0.46855626,1.6995516,1.6959782,-0.88784873,0.5833557,-1.1549724,-2.0696943,-0.52521443,1.7488526,1.6396489,-0.9274177,-0.9943057,-1.3903599,-0.3497033,1.1955056,-0.8455018,0.40865162,0.2589176,-0.44591808,-0.55820656,0.7550734,-1.1768255,0.47462562,-0.62672937,-0.42636156,-0.5539875,0.7022021,0.96891046,0.041917756,0.23877087,0.049434543,-1.1363474,0.3480358,-0.8007429,0.0,1.0,0.0,0.0,0.0,0.0,0.0,-0.2040819,0.15820655,-0.20507342,-11.758804,2.560854,14.516955,4.5517445,-0.6010294,-0.1320064,1.6483843
-47.43753,82.08123,9.89522,31.575367,3.2238271,0.63140666,-0.32047844,-0.64401734,-0.7545671,-0.26515713,0.6624375,-0.5630182,0.5657227,0.42590114,0.518954,-1.2304292,-2.09621,-0.45897067,1.6925508,1.6962212,-0.88482755,0.5726145,-1.1686825,-2.0730436,-0.5131314,1.7404565,1.6437211,-0.92474836,-1.1002969,-1.3652349,-0.32796395,1.21376,-0.8399937,0.4058991,0.27005738,-0.45767784,-0.55346394,0.74806345,-1.1756489,0.4741511,-0.72574764,-0.43807125,-0.5499525,0.6943435,0.96898925,0.047033343,0.2390937,0.041008737,-1.1777747,0.42912915,-0.78364545,0.0,1.0,0.0,0.0,0.0,0.0,0.0,-0.19232213,0.15346393,-0.19806343,-10.480428,2.2889614,2.734667,2.1951199,-0.178051,-0.5143881,1.2549937
-37.73492,68.69308,6.5006824,24.151115,1.9577115,0.24680105,-0.14339864,-0.66469055,-0.74896353,-0.39848688,0.6495297,-0.53422475,0.55588543,0.47925952,0.5061454,-1.2435788,-2.1128924,-0.4481784,1.687034,1.6993096,-0.8768224,0.56103307,-1.1821903,-2.0771596,-0.5010426,1.7322034,1.647757,-0.9219493,-1.177163,-1.3464404,-0.43818012,1.2083063,-0.8220979,0.4018872,0.283304,-0.4694252,-0.5487261,0.740064,-1.1744735,0.47367707,-0.82466686,-0.45008373,-0.54533386,0.68639165,0.96892124,0.052627098,0.23955196,0.032198276,-1.2041532,0.4814042,-0.8016226,0.0,1.0,0.0,0.0,0.0,0.0,0.0,-0.18057477,0.14872608,-0.19006401,-7.6025248,1.6804695,-10.649395,-0.23062229,1.2848377,-0.6580055,1.3587415
-31.205076,70.10492,6.211149,21.556835,1.390994,0.1332081,-0.05948749,-0.6909653,-0.7110932,-0.50739115,0.657639,-0.48087373,0.52211326,0.5413827,0.49193653,-1.2532996,-2.1278987,-0.4352787,1.684116,1.6999683,-0.8678111,0.5488432,-1.1953987,-2.0830152,-0.48903817,1.7242764,1.6517282,-0.9189891,-1.2328225,-1.3131171,-0.6333837,1.1985687,-0.78472954,0.39438823,0.3000686,-0.48116112,-0.543993,0.7310761,-1.1732993,0.4732035,-0.92348725,-0.46226215,-0.54028606,0.67821676,0.9686255,0.05904508,0.24030276,0.023082497,-1.2169898,0.5208792,-0.8254149,0.0,1.0,0.0,0.0,0.0,0.0,0.0,-0.16883886,0.14399299,-0.18107611,-5.5408,3.1208277,-19.053005,-0.74937344,3.1665564,-1.0430217,1.6102076
-15.274783,73.0943,7.9848385,16.322912,1.0988853,0.15179175,0.10542741,-0.6847821,-0.69997036,-0.52160984,0.63771266,-0.3989973,0.47957274,0.57318777,0.48036498,-1.2653958,-2.1351762,-0.4252669,1.6843767,1.6996855,-0.8616704,0.5363415,-1.2082752,-2.0906713,-0.47723454,1.7169255,1.6555924,-0.91585344,-1.2562189,-1.2798984,-0.8073422,1.1744976,-0.72146344,0.382719,0.31767526,-0.4928856,-0.5392647,0.7211008,-1.1721263,0.47273043,-1.0222088,-0.4744239,-0.53494644,0.6698377,0.968101,0.06623053,0.24124892,0.013883947,-1.2098148,0.54766506,-0.8443463,0.0,1.0,0.0,0.0,0.0,0.0,0.0,-0.15711439,0.13926467,-0.1711008,-2.415061,3.1128883,-16.602207,-2.3502111,5.4701924,-1.5036702,1.6415954
-0.32727718,78.50161,10.960355,12.509069,1.3629245,0.29897696,0.22064558,-0.6775464,-0.6973685,-0.45439896,0.61994314,-0.3087462,0.420698,0.5765782,0.46858686,-1.278012,-2.1361113,-0.41524023,1.6860509,1.6976622,-0.8581956,0.52379495,-1.2208866,-2.0992773,-0.4657399,1.7103909,1.6593022,-0.9125547,-1.2547241,-1.2553903,-0.8744292,1.1407444,-0.634783,0.36575067,0.33356762,-0.50459766,-0.53454113,0.710139,-1.1709545,0.4722578,-1.1208317,-0.48641062,-0.5293608,0.661392,0.9674408,0.07374877,0.24206549,0.004875902,-1.1883833,0.5709529,-0.84632045,0.0,1.0,0.0,0.0,0.0,0.0,0.0,-0.14540231,0.13454112,-0.16013896,-0.018429756,2.2567034,-5.5199146,-3.4710646,7.456243,-2.0664334,1.4919817
12.021011,79.15444,13.177302,8.575012,1.8616613,0.4237064,0.33321714,-0.672153,-0.7071818,-0.3587661,0.5705355,-0.13267167,0.3735898,0.56929594,0.45657966,-1.2916048,-2.1351538,-0.40868637,1.6971238,1.6966612,-0.8556251,0.5113676,-1.2333835,-2.10762,-0.45476598,1.7051209,1.6628175,-0.9091167,-1.2394183,-1.2483016,-0.8164588,1.0823168,-0.4958489,0.34547344,0.34713075,-0.5162983,-0.5298214,0.69819164,-1.1697837,0.4717856,-1.2193562,-0.49814272,-0.5235424,0.65301996,0.96682614,0.08097454,0.242233,-0.003664886,-1.1612706,0.5945614,-0.83555233,0.0,1.0,0.0,0.0,0.0,0.0,0.0,-0.13370168,0.12982139,-0.14819163,1.3153076,0.54790974,7.2112083,-6.0210705,12.478626,-2.4070919,1.3474643
25.2186,75.73552,14.049429,2.996376,1.9666697,0.36648846,0.49290583,-0.6517189,-0.7086996,-0.31845722,0.4818733,0.10788618,0.23682982,0.5776483,0.44619572,-1.3042535,-2.1394658,-0.40657866,1.7159095,1.6865004,-0.85135186,0.4991943,-1.2458879,-2.1151,-0.4447598,1.7019283,1.6659912,-0.905531,-1.2106445,-1.2514567,-0.7175944,0.9734769,-0.26751497,0.30785462,0.36201954,-0.52688074,-0.52490616,0.68879604,-1.0408083,0.49295738,-0.91262275,-0.5095744,-0.51756954,0.64473236,0.9664583,0.08749316,0.2411892,-0.011447591,-1.1297512,0.607189,-0.82712436,0.0,1.0,0.0,0.0,0.0,0.0,0.0,-0.123119235,0.12490615,-0.13879603,2.6967525,-0.4081726,12.633538,-10.7123375,20.181465,-3.6746323,1.3506472
26.283253,84.146614,15.748923,4.2118187,2.4201403,0.4703098,0.48705205,-0.6627209,-0.6752547,-0.21782735,0.40849525,0.2376562,0.07810118,0.5859291,0.43292218,-1.3134134,-2.1368825,-0.40391025,1.7256938,1.6738013,-0.8469381,0.4872305,-1.2582952,-2.1210656,-0.43601343,1.7010312,1.6687342,-0.9018222,-1.1923648,-1.2373359,-0.5518046,0.8408149,-0.035073128,0.26222917,0.37407896,-0.53702974,-0.5199518,0.6797327,-1.0054864,0.49620637,-0.90149665,-0.5206599,-0.51142025,0.63668567,0.9664563,0.09295518,0.23871173,-0.018386634,-1.0945582,0.6259087,-0.7982437,0.0,1.0,0.0,0.0,0.0,0.0,0.0,-0.11297023,0.119951814,-0.12973267,1.5995741,1.2991905,18.036234,-13.509154,21.793243,-4.8540773,1.2808144
25.145126,92.386505,17.068367,6.4250317,2.7786036,0.49865136,0.4231546,-0.6654824,-0.65222543,-0.08847943,0.33901983,0.33041778,-0.1830381,0.5752253,0.42068225,-1.3235177,-2.1299136,-0.40211144,1.734073,1.6504304,-0.8442997,0.4753716,-1.2704488,-2.1250021,-0.42866567,1.7022929,1.6708606,-0.89801383,-1.1843867,-1.2085235,-0.33678347,0.6987081,0.17495559,0.19530925,0.3834099,-0.54684734,-0.5148964,0.67094374,-0.9754235,0.51163226,-0.8676141,-0.53139114,-0.50505924,0.6290521,0.9668753,0.09718885,0.23474373,-0.024529656,-1.0594661,0.6473386,-0.75314623,0.0,1.0,0.0,0.0,0.0,0.0,0.0,-0.10315263,0.11489639,-0.120943725,0.60350895,2.7750015,22.885592,-14.430416,19.39452,-6.958026,1.0525525
23.25542,102.49837,18.522549,10.116143,3.1000931,0.5799439,0.26652798,-0.64931273,-0.62571853,0.059959773,0.32657954,0.36102292,-0.31437722,0.58903414,0.41044033,-1.3330207,-2.1190062,-0.39600772,1.7383952,1.6394229,-0.83911043,0.46361518,-1.2822171,-2.1265051,-0.4224612,1.7053121,1.6722736,-0.8941203,-1.1732217,-1.1666408,-0.084260985,0.5939122,0.34028813,0.12286061,0.3915593,-0.55618525,-0.5098858,0.6625386,-0.9196562,0.49713182,-0.8305291,-0.54177046,-0.49844265,0.62202436,0.96770465,0.10006855,0.2294148,-0.030044848,-1.0248686,0.67376924,-0.687403,0.0,1.0,0.0,0.0,0.0,0.0,0.0,-0.09381473,0.10988578,-0.112538576,0.9683132,4.076481,26.505476,-10.602844,15.3392315,-7.4785204,0.9069681
15.153138,102.309845,17.592426,13.382096,3.2066464,0.528309,0.12359372,-0.65728223,-0.61732775,0.1646586,0.29906648,0.40415964,-0.40885043,0.59887433,0.39788696,-1.3439499,-2.1100392,-0.39255455,1.7457281,1.6313885,-0.83423287,0.45190978,-1.2935945,-2.1255407,-0.41705978,1.7096682,1.6729577,-0.8901478,-1.1699103,-1.1283872,0.15984374,0.5222571,0.46429965,0.04989354,0.39946678,-0.56499434,-0.50501347,0.6545099,-0.8681905,0.4837473,-0.7936673,-0.551878,-0.49152184,0.61564624,0.9688863,0.10164377,0.22291781,-0.03514988,-1.0004957,0.7053706,-0.62278146,0.0,1.0,0.0,0.0,0.0,0.0,0.0,-0.08500564,0.10501346,-0.10450989,0.26123524,3.7146807,25.3735,-7.1578264,11.487693,-7.4293146,0.8841753
22.164198,110.649956,18.956015,13.119647,2.9858947,0.6083948,0.09601173,-0.6183481,-0.5734388,0.31280065,0.2677415,0.4218238,-0.43473607,0.6096332,0.39007497,-1.3509383,-2.0942607,-0.39028564,1.7518505,1.629484,-0.8291845,0.4403937,-1.3044854,-2.1220925,-0.41221908,1.714963,1.6729692,-0.88609856,-1.145604,-1.0763209,0.4097535,0.47157663,0.5483658,-0.015146911,0.4069598,-0.5732136,-0.5003271,0.6470033,-0.80724883,0.46370533,-0.73731834,-0.5616455,-0.48434544,0.6099998,0.97035044,0.10191935,0.21549822,-0.039911516,-0.9640352,0.72841793,-0.5469773,0.0,1.0,0.0,0.0,0.0,0.0,0.0,-0.0767864,0.100327104,-0.09700328,2.3890018,5.0875664,25.89913,-4.99835,7.583165,-6.528424,0.82117915
35.40972,112.584236,19.510565,8.921688,2.4177718,0.5659757,0.18994734,-0.5664301,-0.5449509,0.42135042,0.2201035,0.5038518,-0.42470106,0.62357396,0.38375068,-1.3589805,-2.0799575,-0.39020872,1.7653482,1.6304991,-0.8237412,0.42935202,-1.3148252,-2.116291,-0.4078938,1.7210759,1.672418,-0.8819731,-1.0904036,-1.0203164,0.6400377,0.42003778,0.6295662,-0.06822282,0.41457507,-0.5807662,-0.49590778,0.64014107,-0.7392085,0.4352391,-0.67144614,-0.57093763,-0.47708225,0.60509324,0.9720522,0.10088205,0.20731898,-0.044226784,-0.9133918,0.7321621,-0.47387174,0.0,1.0,0.0,0.0,0.0,0.0,0.0,-0.069233775,0.09590778,-0.09014106,5.50406,5.4671764,23.899387,-5.006647,7.3584914,-5.2558103,0.8358598
57.43503,110.0619,19.326326,-0.70520043,1.120538,0.45131516,0.5028498,-0.50839835,-0.49158743,0.46726862,0.074202605,0.6011569,-0.42087448,0.6034718,0.37851217,-1.3639839,-2.069564,-0.40047354,1.7811916,1.6303306,-0.8216259,0.41908473,-1.324484,-2.10863,-0.40461624,1.7281141,1.6714184,-0.8777979,-1.0055207,-0.9482424,0.81071997,0.29772788,0.72609454,-0.109911114,0.4187221,-0.58756495,-0.49187088,0.63398165,-0.66187847,0.3940053,-0.6008513,-0.5795126,-0.47006035,0.60080886,0.97395474,0.09866288,0.19848862,-0.047748584,-0.83548415,0.6982838,-0.41555884,0.0,1.0,0.0,0.0,0.0,0.0,0.0,-0.06243503,0.091870874,-0.08398163,8.477664,7.052374,17.86238,-12.021923,8.981335,-3.9677396,0.48479438
69.92584,106.622185,18.422546,-7.8605433,0.006090842,0.3713069,0.8040407,-0.48215705,-0.4331075,0.51577675,-0.10006547,0.6499854,-0.37736076,0.5936307,0.370869,-1.3677948,-2.0570524,-0.41462278,1.7931126,1.6336824,-0.81843483,0.40966666,-1.333294,-2.0996745,-0.40323788,1.7361157,1.6701018,-0.87359786,-0.92048615,-0.85894,0.92554283,0.08557109,0.82360846,-0.13779041,0.42080426,-0.5935583,-0.488307,0.6285158,-0.5805485,0.3448704,-0.53270817,-0.58716106,-0.463583,0.59698176,0.9760147,0.095500685,0.18912038,-0.05008322,-0.73857975,0.6360393,-0.37392813,0.0,1.0,0.0,0.0,0.0,0.0,0.0,-0.056441665,0.08830699,-0.07851577,8.527994,8.774853,11.909735,-20.925785,9.439945,-2.429953,0.30745864
83.53389,90.8854,16.197975,-17.809868,-1.1835003,0.18605408,1.149573,-0.43961024,-0.4220979,0.599259,-0.30532563,0.6953655,-0.3026692,0.57823265,0.36570564,-1.3755038,-2.0397487,-0.43377045,1.8056523,1.6398349,-0.8157746,0.4010974,-1.3413357,-2.089686,-0.40466243,1.745059,1.6686175,-0.8693932,-0.8354808,-0.78637165,1.0232263,-0.21725588,0.9181568,-0.15041013,0.4208756,-0.5987606,-0.4852705,0.6235784,-0.5022042,0.29100478,-0.48533654,-0.5937371,-0.45794868,0.5933256,0.97822803,0.091581486,0.17917055,-0.050800525,-0.6288139,0.54392236,-0.3650045,0.0,1.0,0.0,0.0,0.0,0.0,0.0,-0.05123937,0.085270494,-0.07357842,8.568978,7.1217537,9.698879,-29.933878,9.622812,-0.780645,0.16286373
73.97366,65.10356,11.675298,-20.24611,-1.5154318,-0.08211738,1.1758533,-0.43129942,-0.46185625,0.64266187,-0.42702577,0.7367359,-0.18949479,0.5642506,0.35796744,-1.3875213,-2.0254197,-0.44736502,1.8187326,1.649668,-0.8129682,0.39319715,-1.3490585,-2.0788643,-0.40918288,1.7548667,1.6671256,-0.8651979,-0.77446824,-0.76789474,1.1005045,-0.529053,1.003396,-0.1473405,0.41986483,-0.6033325,-0.48270512,0.6187756,-0.44389844,0.24610984,-0.4827902,-0.59936666,-0.45321655,0.5894322,0.98057884,0.08710254,0.16851589,-0.049805373,-0.53967494,0.45301962,-0.399197,0.0,1.0,0.0,0.0,0.0,0.0,0.0,-0.046667457,0.08270511,-0.068775594,6.2134266,1.749754,7.2172165,-30.80858,9.074223,0.7206917,0.12979507
61.20182,48.18848,8.464145,-18.665216,-1.4718194,-0.20791294,1.0268213,-0.4058284,-0.49149853,0.66404176,-0.5119693,0.7553197,0.0040533906,0.5401753,0.3526143,-1.3982084,-2.0124602,-0.4603798,1.8303987,1.6675309,-0.81118035,0.38580537,-1.3569359,-2.0674334,-0.4164816,1.7653743,1.6658245,-0.8610277,-0.72693706,-0.7944972,1.1548095,-0.7955783,1.0687292,-0.123178884,0.41705218,-0.6074481,-0.48051453,0.6137462,-0.40232888,0.20999229,-0.51271135,-0.6042576,-0.44930172,0.58499104,0.9830099,0.082214795,0.15715158,-0.047281105,-0.47111088,0.37326518,-0.46037298,0.0,1.0,0.0,0.0,0.0,0.0,0.0,-0.042551875,0.08051452,-0.063746214,4.888475,-2.7316332,4.735327,-26.279617,7.223654,2.7311742,0.017094612
46.848072,49.31808,7.997978,-12.017082,-0.9824092,-0.10276352,0.7133336,-0.36973545,-0.49621814,0.66696364,-0.5330061,0.7562549,0.2537897,0.53440356,0.34883183,-1.4065577,-2.000737,-0.46978223,1.8409998,1.6912035,-0.8075874,0.37888455,-1.3651813,-2.0556726,-0.42573133,1.776352,1.6649489,-0.8568877,-0.67989665,-0.83467376,1.1804037,-0.9667943,1.110183,-0.07487402,0.41412532,-0.61120796,-0.4786129,0.6083767,-0.36760652,0.18407802,-0.546542,-0.608583,-0.44603252,0.57996356,0.9854226,0.07698302,0.14530614,-0.043611787,-0.4183524,0.3138224,-0.51764613,0.0,1.0,0.0,0.0,0.0,0.0,0.0,-0.038792014,0.078612894,-0.05837667,4.8734426,-4.0384054,1.6856432,-16.73801,5.002618,5.091329,0.052434206
37.883034,56.270927,8.867269,-5.8020306,-0.4985754,-0.009866983,0.39840624,-0.31761956,-0.5115957,0.6801309,-0.5175277,0.7437422,0.37861115,0.52802324,0.3471226,-1.416341,-1.9876596,-0.4774841,1.8507262,1.70281,-0.8040854,0.37254643,-1.3738579,-2.0437593,-0.4358918,1.7875601,1.6646327,-0.8527782,-0.6178049,-0.8784598,1.1913637,-1.0312135,1.1276917,-0.016613815,0.41102952,-0.6146617,-0.47694778,0.6027248,-0.33680326,0.16242614,-0.57177806,-0.6124649,-0.44323826,0.57447237,0.987727,0.071403384,0.13325974,-0.039225902,-0.37664968,0.269662,-0.55992013,0.0,1.0,0.0,0.0,0.0,0.0,0.0,-0.035338283,0.07694778,-0.05272478,6.4070582,-4.3406487,0.09071827,-6.0595036,2.754879,6.0651937,0.034469366
41.749474,63.09132,10.1834755,-4.72994,-0.5694984,-0.032181084,0.25028017,-0.23910533,-0.5254772,0.66571957,-0.51203245,0.7479203,0.42315277,0.5115091,0.3486359,-1.4264055,-1.9771874,-0.48709506,1.8623521,1.7069479,-0.8016273,0.36707437,-1.3829386,-2.0318954,-0.4461586,1.7988628,1.6648929,-0.8487084,-0.5229703,-0.9176332,1.1809276,-1.0238955,1.1347601,0.04213678,0.406821,-0.61781025,-0.47551632,0.596901,-0.3107195,0.13356379,-0.5850862,-0.6159153,-0.44091797,0.5686517,0.9898636,0.06549791,0.121234715,-0.03438398,-0.33288905,0.22130725,-0.589603,0.0,1.0,0.0,0.0,0.0,0.0,0.0,-0.032189727,0.07551631,-0.046900988,9.698666,-3.8387537,-2.0854473,1.1246443,1.7918348,6.272504,-0.073605776
36.68506,73.82773,11.774261,-0.38923946,-0.30538148,0.023014724,0.0823951,-0.19710265,-0.5210655,0.65082943,-0.4812862,0.7380261,0.43098968,0.5151096,0.3473641,-1.4350451,-1.9668125,-0.4942872,1.8726654,1.7079918,-0.79719746,0.36259544,-1.392275,-2.020256,-0.45596898,1.8101614,1.6656789,-0.84467643,-0.42207322,-0.93859714,1.1546221,-0.9654083,1.1321602,0.092145704,0.40311208,-0.6206627,-0.47431183,0.59104514,-0.276973,0.11560097,-0.584356,-0.61896324,-0.43902397,0.5626755,0.99179053,0.05931427,0.10942489,-0.029315831,-0.29373747,0.18008615,-0.6003356,0.0,1.0,0.0,0.0,0.0,0.0,0.0,-0.029337287,0.07431182,-0.04104513,10.324097,-1.9797444,-3.7408829,6.2568426,0.9319067,5.4647264,-0.034374
36.977795,89.08603,14.417236,2.453848,-0.20838588,0.10288723,-0.0055589005,-0.13044481,-0.49420506,0.63568825,-0.4345888,0.73061264,0.42039928,0.52720565,0.34955096,-1.4416955,-1.9566872,-0.49942786,1.8832226,1.7077187,-0.7919559,0.35921168,-1.4015877,-2.0089488,-0.46494788,1.8214009,1.6669077,-0.8406674,-0.30960822,-0.9283049,1.1185831,-0.8739068,1.1258167,0.13516666,0.40128827,-0.6232004,-0.4733324,0.58538294,-0.24751876,0.09042529,-0.55865175,-0.6215954,-0.43753433,0.5567886,0.99348503,0.052873176,0.098019265,-0.024168989,-0.25145778,0.14006025,-0.58505356,0.0,1.0,0.0,0.0,0.0,0.0,0.0,-0.02679956,0.0733324,-0.035382926,11.508381,1.1781931,-4.810858,9.5945835,0.7035732,4.81942,0.14048815
33.04564,99.6913,16.011663,4.7781763,-0.1575633,0.15885395,-0.008664083,-0.09791685,-0.4594462,0.6043454,-0.4368427,0.73258764,0.3746501,0.5289986,0.34942,-1.4475323,-1.9485142,-0.5086321,1.8946596,1.7043726,-0.7877676,0.35684514,-1.4105675,-1.9980981,-0.47314167,1.8325886,1.6684707,-0.8366725,-0.21145597,-0.88729525,1.0699258,-0.7996249,1.1209561,0.16510642,0.39991578,-0.6254215,-0.47257137,0.58007914,-0.21325226,0.07175988,-0.5192359,-0.6237979,-0.4364195,0.5511778,0.9949419,0.046247825,0.08712771,-0.018985743,-0.20860341,0.10306994,-0.55334246,0.0,1.0,0.0,0.0,0.0,0.0,0.0,-0.024578452,0.07257137,-0.030079126,10.088581,4.2554736,-6.107354,7.8982353,0.8986473,3.5364926,0.17743707
30.820946,121.28779,19.713713,8.676929,-0.022553954,0.34860724,-0.04889486,-0.04412012,-0.37751657,0.5813171,-0.38548613,0.7170578,0.35617897,0.5336272,0.35243312,-1.4483192,-1.9399664,-0.51169026,1.9042944,1.7040887,-0.78330976,0.3554257,-1.4187577,-1.9877713,-0.48057064,1.843708,1.6702799,-0.832686,-0.117767334,-0.7956013,1.0153337,-0.72231936,1.1145988,0.19012791,0.39952645,-0.62729836,-0.4720173,0.57543445,-0.18579544,0.04068407,-0.44445685,-0.6255288,-0.43564034,0.54615736,0.9961589,0.039455745,0.07694105,-0.013807665,-0.16023529,0.07104705,-0.48550338,0.0,1.0,0.0,0.0,0.0,0.0,0.0,-0.022701621,0.07201728,-0.025434434,9.672406,9.35595,-6.8696737,8.23617,0.9864092,3.2978864,0.28508306
39.912086,125.30531,21.040464,5.6942186,-0.42455757,0.2709238,0.034100294,0.043549113,-0.34431446,0.57150596,-0.34361133,0.70806867,0.34975776,0.5261654,0.3597806,-1.4531891,-1.9306207,-0.5149318,1.9145149,1.7052556,-0.7800695,0.3550867,-1.4259636,-1.9779135,-0.48723623,1.8547454,1.6722775,-0.82871205,-0.0049144453,-0.6950356,0.9716367,-0.64622796,1.1053021,0.20488827,0.39758503,-0.62881994,-0.47168922,0.5715964,-0.13895284,0.030267961,-0.36225283,-0.62671566,-0.43527603,0.54187536,0.99715185,0.032485057,0.067523755,-0.008565822,-0.10425026,0.025743272,-0.40979257,0.0,1.0,0.0,0.0,0.0,0.0,0.0,-0.021180034,0.07168922,-0.021596372,11.581161,10.222471,-5.64301,8.120977,0.5844116,2.1873145,0.10046363
38.8485,129.19539,21.920084,6.0020323,-0.45967755,0.2969834,0.05959621,0.0871476,-0.28310272,0.55546725,-0.31692293,0.7046184,0.3792934,0.51817536,0.36380148,-1.4542739,-1.9223667,-0.5189285,1.9252073,1.7102067,-0.7768945,0.35583112,-1.4320843,-1.9684278,-0.49321806,1.8656913,1.674443,-0.824759,0.10189106,-0.58397335,0.9369808,-0.5804841,1.0957035,0.22219656,0.39545056,-0.62999964,-0.47157574,0.56863016,-0.10955561,0.006316193,-0.2733519,-0.627336,-0.4353466,0.5384061,0.99793833,0.025318494,0.058886245,-0.0032107444,-0.04781363,-0.017471647,-0.32674244,0.0,1.0,0.0,0.0,0.0,0.0,0.0,-0.020000339,0.07157573,-0.018630147,10.970025,11.255634,-4.643488,7.0863605,0.43377876,2.2172003,0.0513494
6.948243,138.97008,22.279472,18.203024,0.5618632,0.536146,-0.19407967,0.040049013,-0.18030782,0.478376,-0.2662287,0.68931615,0.31528625,0.5009939,0.359836,-1.4501151,-1.9205902,-0.51984096,1.9346229,1.7059716,-0.77465963,0.35713863,-1.4368699,-1.9595313,-0.49850944,1.8765037,1.6766999,-0.8208412,0.1412705,-0.44285145,0.8698669,-0.51050436,1.0812299,0.2286521,0.39145094,-0.6309142,-0.47157097,0.56662524,-0.085484415,-0.0013250165,-0.17443106,-0.62758636,-0.43555164,0.53589225,0.9985245,0.018091664,0.051162627,0.0019865925,-0.017671032,-0.020720806,-0.22718577,0.0,1.0,0.0,0.0,0.0,0.0,0.0,-0.019085765,0.07157096,-0.016625226,4.2084575,14.287204,-7.938266,7.4552655,-0.021362305,1.18424,-0.15392303
1.4998517,139.4303,22.429188,20.171007,0.73260355,0.5279769,-0.2442979,0.091406085,-0.120083034,0.4635785,-0.2000869,0.68006265,0.29676855,0.5194999,0.36627924,-1.4488782,-1.9131734,-0.51851815,1.94451,1.7063768,-0.7688912,0.3587947,-1.4402478,-1.9512701,-0.5029733,1.8871541,1.6789851,-0.81694824,0.17451626,-0.30222672,0.8080967,-0.42371437,1.0638378,0.23005034,0.38932723,-0.63161993,-0.47161102,0.5656317,-0.06566014,-0.0047143167,-0.07278462,-0.6275935,-0.43572617,0.534396,0.9989311,0.010854848,0.044400893,0.006874397,0.0046955836,-0.016371826,-0.12469404,0.0,0.0,1.0,0.0,0.0,0.0,0.0,-0.018380046,0.07161102,-0.015631676,3.5642624,14.221072,-7.243705,9.088749,-0.47049522,0.6056458,-0.0014662743
-21.526018,124.0542,17.911875,25.578697,0.998796,0.36886522,-0.41597685,0.05194793,-0.069975436,0.27202272,-0.15207633,0.6692749,0.26466367,0.5171391,0.36398947,-1.4472454,-1.9240679,-0.51818097,1.9540815,1.7054515,-0.76523435,0.36044693,-1.4423363,-1.9443425,-0.50653136,1.8975968,1.6812456,-0.81307447,0.16265494,-0.17720433,0.6514288,-0.332175,1.041088,0.22584926,0.38726658,-0.6322088,-0.4716282,0.5654124,-0.056717273,-0.00047376356,-0.0040087537,-0.6275468,-0.43572617,0.5337099,0.9991807,0.004000399,0.038674068,0.011230923,0.004167373,0.0056511415,-0.05092264,0.0,0.0,1.0,0.0,0.0,0.0,0.0,-0.017791152,0.07162818,-0.01541239,-1.0235101,12.6378565,-16.468716,9.440624,-1.3054609,-0.10160804,-0.04543066
-21.805252,99.8476,12.431981,22.94655,0.39360556,-0.09843938,-0.5182866,0.10768692,-0.05628058,0.056187205,-0.018233033,0.6298913,0.27028525,0.51343787,0.3712156,-1.4479644,-1.9387238,-0.50835466,1.960586,1.7082741,-0.7617307,0.36214638,-1.4434826,-1.9397933,-0.50876766,1.9077017,1.6834657,-0.80922353,0.17263693,-0.093359254,0.38808817,-0.18691911,1.0019674,0.22124557,0.38477165,-0.6327534,-0.47161865,0.56554693,-0.05374448,0.0015241122,0.019853711,-0.6275573,-0.43561363,0.53344434,0.9993061,-0.001911721,0.034102034,0.014858505,-0.0031517032,0.013032734,-0.019272236,0.0,0.0,1.0,0.0,0.0,0.0,0.0,-0.017246604,0.07161865,-0.015546918,1.0771841,8.4696665,-26.731682,14.680478,-3.3843994,-0.3070891,-0.15283823
-28.20544,84.04852,8.913164,22.93982,0.31355026,-0.25928193,-0.57213455,0.09143961,-0.02979077,-0.08000814,0.046824433,0.57722586,0.2888733,0.524002,0.37129033,-1.4464617,-1.9477942,-0.50408524,1.9654243,1.712353,-0.7568233,0.36386776,-1.4440053,-1.9381436,-0.5094877,1.9172807,1.6856537,-0.8053888,0.17206697,-0.038566027,0.089911945,-0.03362415,0.9441517,0.21814415,0.3831647,-0.6333022,-0.47157955,0.5657186,-0.055301215,0.004814132,0.0161918,-0.6277032,-0.43541622,0.5333019,0.99935055,-0.0065398314,0.03072541,0.017650723,-0.018662004,0.021879476,-0.013536104,0.0,0.0,1.0,0.0,0.0,0.0,0.0,-0.016697764,0.071579546,-0.01571858,-0.033524632,5.5147014,-29.979097,15.374197,-5.513537,-0.27109087,-0.13120174
-17.40649,83.556305,9.268139,17.603456,-0.2427175,-0.2879365,-0.34708673,0.09378793,0.027633566,-0.1720531,0.019041343,0.5346165,0.28116658,0.5296551,0.37324655,-1.4412419,-1.955349,-0.50758356,1.9707423,1.7137704,-0.7524233,0.36558056,-1.4439614,-1.9392767,-0.5091558,1.9262261,1.687807,-0.80156744,0.17100231,0.018732335,-0.18108545,0.055322513,0.8783751,0.21429321,0.3817036,-0.63383055,-0.47153473,0.565856,-0.05205943,0.004375251,0.0126211215,-0.6278839,-0.43524265,0.53320664,0.99934953,-0.009845737,0.02847106,0.019824466,-0.017927885,0.015735526,-0.008769074,0.0,0.0,1.0,0.0,0.0,0.0,0.0,-0.016169429,0.07153472,-0.015855968,-0.11355281,5.725695,-27.112719,8.864765,-6.453109,-0.3911823,-0.17645359
-21.446417,80.2772,9.029538,17.903645,0.043343198,-0.18232837,-0.29222697,0.057725314,0.042859107,-0.250242,0.04601612,0.4933572,0.28632006,0.53329736,0.3713531,-1.4396755,-1.9643009,-0.5045542,1.9755619,1.716439,-0.7482377,0.3671069,-1.4434388,-1.9427176,-0.50820976,1.9344907,1.6899259,-0.7977585,0.14636283,0.06351022,-0.3980292,0.10736322,0.8091889,0.21080337,0.3803604,-0.634336,-0.47147274,0.5659382,-0.05011185,0.006882641,0.0066940226,-0.62808704,-0.43506145,0.53313035,0.9993272,-0.011975163,0.027173286,0.021522872,-0.021159563,0.018934703,-0.0073843,0.0,0.0,1.0,0.0,0.0,0.0,0.0,-0.015663981,0.071472734,-0.015938163,-2.4977386,4.45336,-21.580051,5.107957,-6.924224,-0.3927529,-0.21339655
-22.714973,78.79461,9.2828,17.807272,0.30487055,-0.08626868,-0.24168034,0.036255445,0.056976918,-0.3135446,0.06520463,0.4514621,0.29059383,0.5326816,0.37073246,-1.437741,-1.974072,-0.5016893,1.9796369,1.7189853,-0.7444904,0.36828756,-1.44255,-1.9478884,-0.50693184,1.9420648,1.6920143,-0.79396385,0.10840208,0.09717054,-0.5560794,0.13409954,0.7397536,0.20776168,0.37882635,-0.6348276,-0.4713688,0.5659694,-0.048821464,0.011594171,0.0019640531,-0.6283431,-0.43479633,0.5330646,0.9992978,-0.01314744,0.026646767,0.02282686,-0.027014876,0.029115338,-0.006345211,0.0,0.0,1.0,0.0,0.0,0.0,0.0,-0.015172362,0.07136878,-0.015969396,-3.8497076,3.3306985,-15.585094,2.5352612,-7.0562243,-0.37208498,-0.26738644
-14.244001,72.162476,8.803399,13.875356,0.15268067,-0.1770031,-0.14631487,0.048118122,0.047606412,-0.37032574,0.082881026,0.40444317,0.27346542,0.53218025,0.3730994,-1.4377893,-1.984921,-0.49864373,1.9825091,1.7193608,-0.74074584,0.3691926,-1.4414933,-1.9542971,-0.5054651,1.9489462,1.6940628,-0.79018444,0.084303565,0.10824132,-0.66823626,0.15030189,0.6704381,0.20367312,0.3772827,-0.6352992,-0.47123623,0.5658888,-0.046614274,0.013865873,-0.01135754,-0.6286311,-0.43449497,0.53293675,0.9992671,-0.013541125,0.02669047,0.023862496,-0.029285625,0.030873397,-0.014828252,0.0,0.0,1.0,0.0,0.0,0.0,0.0,-0.01470077,0.07123622,-0.01588881,-2.4719,1.0741472,-10.971856,1.464954,-7.0783615,-0.48104227,-0.27902126
-10.919689,82.570244,11.438868,15.189144,0.41635814,-0.03737332,-0.17435618,0.054751627,0.08150419,-0.37639073,0.15124686,0.36214808,0.27110144,0.5356421,0.37466776,-1.4333428,-1.9919361,-0.4903404,1.9851611,1.7211729,-0.73662025,0.369977,-1.4402649,-1.9614038,-0.5036082,1.9551528,1.6960675,-0.7864175,0.076151356,0.12756427,-0.7237722,0.19688693,0.60337794,0.19896355,0.37585953,-0.63574123,-0.47106647,0.56585056,-0.04338801,0.018017195,-0.0010657816,-0.62893724,-0.4341383,0.5328813,0.9992348,-0.013436974,0.027238958,0.02464293,-0.031025529,0.037362088,-0.0021144017,0.0,0.0,1.0,0.0,0.0,0.0,0.0,-0.014258742,0.07106647,-0.015850544,-0.9039074,1.8892586,-5.22722,4.4580817,-6.915498,-0.57518184,-0.30468106
-4.49047,75.20117,10.793368,12.656445,0.42763528,-0.12320354,-0.16558315,0.073672816,0.04637205,-0.38404477,0.19960436,0.32152885,0.28715545,0.5335755,0.37734428,-1.4356277,-1.9998083,-0.4836478,1.9873056,1.724783,-0.73305994,0.37084055,-1.4390519,-1.9687737,-0.5011059,1.9607123,1.698042,-0.7826648,0.089476906,0.119032346,-0.74040437,0.2673165,0.53929764,0.19664404,0.374572,-0.6361556,-0.47086525,0.5658484,-0.04072778,0.020708725,0.00048185975,-0.629272,-0.43375206,0.53287953,0.9992009,-0.013051823,0.028168181,0.025173446,-0.03406674,0.03931977,0.0008954612,0.0,0.0,1.0,0.0,0.0,0.0,0.0,-0.013844371,0.07086524,-0.015848398,1.2438164,-0.89894235,-1.3383031,6.8585753,-6.6236258,-0.34057796,-0.2840221
