Afshin1997/kuka_rl_ros2/src/catch_and_throw/input_files/idealpd/recorded_trajectories/env_37_data.csv
torque0,torque1,torque2,torque3,torque4,torque5,torque6,action0,action1,action2,action3,action4,action5,action6,set_target_0,set_target_1,set_target_2,set_target_3,set_target_4,set_target_5,set_target_6,joint_pos_0,joint_pos_1,joint_pos_2,joint_pos_3,joint_pos_4,joint_pos_5,joint_pos_6,joint_vel_0,joint_vel_1,joint_vel_2,joint_vel_3,joint_vel_4,joint_vel_5,joint_vel_6,tennisball_pos_0,tennisball_pos_1,tennisball_pos_2,tennisball_lin_vel_0,tennisball_lin_vel_1,tennisball_lin_vel_2,end_effector_pos_0,end_effector_pos_1,end_effector_pos_2,end_effector_rot_0,end_effector_rot_1,end_effector_rot_2,end_effector_rot_3,end_effector_lin_vel_0,end_effector_lin_vel_1,end_effector_lin_vel_2,obs_task_0,obs_task_1,obs_task_2,obs_task_3,obs_task_4,obs_task_5,obs_task_6,to_final_target_0,to_final_target_1,to_final_target_2,joint_acc_0,joint_acc_1,joint_acc_2,joint_acc_3,joint_acc_4,joint_acc_5,joint_acc_6
0.0,0.0,0.0,0.0,0.0,0.0,0.0,0.0,0.0,0.0,0.0,0.0,0.0,0.0,1.7802359,-1.0646509,-1.8151424,-1.1170107,1.9373155,1.1170107,-0.91629785,1.7802359,-1.0646509,-1.8151424,-1.1170107,1.9373155,1.1170107,-0.91629785,0.0,0.0,0.0,0.0,0.0,0.0,0.0,2.8773956,-0.28730392,0.179889,-3.2774453,-0.4718114,5.171695,0.5304184,-0.45449638,0.693097,0.5745483,0.17512383,0.15255436,0.7848268,0.0,0.0,0.0,1.0,0.0,0.0,0.0,0.0,0.0,0.0,-3.5273957,-0.11269608,0.37011102,0.0,0.0,0.0,0.0,0.0,0.0,0.0
0.0,0.0,0.0,0.0,0.0,0.0,0.0,0.0,0.0,0.0,0.0,0.0,0.0,0.0,1.7802359,-1.0646509,-1.8151424,-1.1170107,1.9373155,1.1170107,-0.91629785,1.7802359,-1.0646509,-1.8151424,-1.1170107,1.9373155,1.1170107,-0.91629785,0.0,0.0,0.0,0.0,0.0,0.0,0.0,2.8773956,-0.28730392,0.179889,-3.2774453,-0.4718114,5.171695,0.5304184,-0.45449638,0.693097,0.5745483,0.17512383,0.15255436,0.7848268,0.0,0.0,0.0,1.0,0.0,0.0,0.0,0.0,0.0,0.0,-3.5273957,-0.11269608,0.37011102,0.0,0.0,0.0,0.0,0.0,0.0,0.0
0.0,0.0,0.0,0.0,0.0,0.0,0.0,0.0,0.0,0.0,0.0,0.0,0.0,0.0,1.7802359,-1.0646509,-1.8151424,-1.1170107,1.9373155,1.1170107,-0.91629785,1.7802359,-1.0646509,-1.8151424,-1.1170107,1.9373155,1.1170107,-0.91629785,0.0,0.0,0.0,0.0,0.0,0.0,0.0,2.8773956,-0.28730392,0.179889,-3.2774453,-0.4718114,5.171695,0.5304184,-0.45449638,0.693097,0.5745483,0.17512383,0.15255436,0.7848268,0.0,0.0,0.0,1.0,0.0,0.0,0.0,0.0,0.0,0.0,-3.5273957,-0.11269608,0.37011102,0.0,0.0,0.0,0.0,0.0,0.0,0.0
-176.0,69.95914,-5.3628254,110.0,10.048797,4.766586,-3.9581847,-0.7935814,0.3476792,-0.5403399,0.73773384,-0.04935278,0.67114645,-0.55963075,1.7008778,-1.029883,-1.8691764,-1.0432373,1.9323802,1.1841253,-0.97226095,1.7787215,-1.0624193,-1.8206375,-1.1123549,1.9412942,1.1218172,-0.9180469,-0.20190303,0.29681078,-0.73208845,0.6210673,0.5298354,0.6395126,-0.23287801,2.8446426,-0.2920189,0.2308307,-3.2741685,-0.4713397,5.0683384,0.52832794,-0.4575653,0.6939117,0.57844895,0.17360267,0.15156032,0.78248847,-0.27998516,-0.4092958,0.108399615,1.0,0.0,0.0,0.0,0.0,0.0,0.0,-3.4946427,-0.107981116,0.3191693,-20.126705,29.490154,-73.04575,62.187992,52.769238,63.477367,-23.19064
-176.0,-39.516674,-49.44986,110.0,11.152155,1.0358377,-3.3332746,-0.78878015,-0.21290937,-0.5533449,0.72234756,-0.053033177,0.6587485,-0.58466226,1.6998434,-1.0837102,-1.8759719,-1.0401201,1.9359909,1.187692,-0.97651315,1.7770659,-1.0598539,-1.8352592,-1.0980994,1.948214,1.1345698,-0.91872305,-0.1507001,0.24191487,-1.7081124,1.6972156,0.74718136,1.4829782,-0.009698688,2.8119202,-0.29672813,0.2807396,-3.270895,-0.47086847,4.965085,0.5237503,-0.4656887,0.6946404,0.58694386,0.16988072,0.14914861,0.7774266,-0.5163309,-0.94583815,0.0616663,1.0,0.0,0.0,0.0,0.0,0.0,0.0,-3.4619203,-0.10327187,0.2692604,5.9137015,-5.889779,-98.43318,108.65862,22.131454,83.13787,23.160753
-156.70122,73.13974,16.762363,87.916466,8.136848,6.308672,-1.6949103,-0.7448398,0.06456458,0.13027404,0.666927,0.11950445,0.675288,-0.49904886,1.7025819,-1.0533974,-1.8222318,-1.0314066,1.9601645,1.2020986,-0.9686279,1.7724711,-1.0577596,-1.8502052,-1.0791899,1.9551339,1.1493231,-0.9190063,-0.562042,0.19587627,-1.418011,1.95772,0.668679,1.4679512,-0.034674294,2.7792358,-0.30143356,0.32961676,-3.2676249,-0.4703977,4.8619347,0.51647186,-0.4768715,0.69640905,0.5981748,0.16465127,0.14556107,0.7706418,-0.80617315,-1.1693879,0.21911798,1.0,0.0,0.0,0.0,0.0,0.0,0.0,-3.429236,-0.09856644,0.22038326,-41.01299,-5.427942,30.62892,26.72026,-9.334839,-3.0018568,-2.552883
-103.11505,68.17625,27.531292,53.05288,5.7680635,6.383768,-0.01703373,-0.76268995,-0.1519564,0.29983097,0.6805236,0.21068361,0.6476788,-0.5547411,1.696202,-1.0729553,-1.8202221,-1.0111375,1.9762022,1.214091,-0.9744804,1.7637049,-1.0572122,-1.8590438,-1.060145,1.9609094,1.1631075,-0.9196891,-0.9819555,0.0059562647,-0.6992011,1.8884255,0.54122597,1.3458251,-0.07953011,2.7465897,-0.30613518,0.3774632,-3.2643578,-0.46992743,4.7588873,0.5066986,-0.48921585,0.69948786,0.6101449,0.1583812,0.1402935,0.7635157,-1.0439103,-1.2443383,0.341377,1.0,0.0,0.0,0.0,0.0,0.0,0.0,-3.3965898,-0.09386483,0.17253682,-42.105995,-19.504566,73.832275,-6.4893484,-14.535809,-13.019252,-4.496099
-54.014294,75.778755,33.99026,28.041155,3.4133341,5.540669,0.71998304,-0.79037416,-0.13412955,0.32065657,0.6905286,0.31671527,0.6559653,-0.5646045,1.6846675,-1.0706252,-1.8269782,-0.99109215,1.9925809,1.2287041,-0.97614956,1.7513796,-1.0583471,-1.8605316,-1.0429808,1.9657483,1.17549,-0.9208707,-1.316391,-0.15445547,0.03949093,1.6592138,0.45988533,1.201331,-0.13124737,2.713974,-0.31083107,0.42427993,-3.261094,-0.4694576,4.655943,0.49510956,-0.5015526,0.70356166,0.6216793,0.15138784,0.13322298,0.75686735,-1.2107804,-1.2184772,0.42984444,1.0,0.0,0.0,0.0,0.0,0.0,0.0,-3.363974,-0.089168936,0.12572008,-33.56855,-16.368525,75.37906,-22.810055,-9.549302,-14.774656,-5.225915
-16.744022,93.766304,37.945145,14.816885,1.347149,4.3788443,0.65229815,-0.808932,-0.008566589,0.27363512,0.6869275,0.39178658,0.64353734,-0.578936,1.6704865,-1.0592037,-1.833168,-0.97428805,2.004927,1.2398437,-0.9787643,1.7367197,-1.0600885,-1.856488,-1.0281721,1.9702668,1.1865355,-0.9225454,-1.5162532,-0.18173724,0.5292101,1.4214206,0.4464465,1.0721343,-0.18020102,2.6813889,-0.31552124,0.47006798,-3.2578337,-0.4689882,4.5531015,0.48236847,-0.51320076,0.70842004,0.6324695,0.14395207,0.12501363,0.75075406,-1.3068633,-1.1349243,0.50214106,1.0,0.0,0.0,0.0,0.0,0.0,0.0,-3.331389,-0.084478766,0.079932034,-20.095085,-3.006661,49.906124,-23.82872,-2.1702409,-12.948227,-5.085251
4.200101,125.040985,42.26406,11.874692,-0.82654864,3.552269,-0.057428397,-0.8274931,0.2256159,0.09272529,0.67914844,0.2556415,0.6389174,-0.57207483,1.6539705,-1.037527,-1.8472154,-0.9602573,1.995831,1.2504272,-0.97975284,1.7209059,-1.0605634,-1.8503463,-1.0152823,1.974463,1.1964461,-0.9246616,-1.6036845,-0.003841957,0.6444308,1.2448169,0.40981385,0.9646638,-0.22325712,2.6488342,-0.3202076,0.5148284,-3.2545767,-0.4685193,4.450363,0.46910095,-0.5236664,0.7140731,0.64285445,0.13620146,0.1172107,0.7446133,-1.3448045,-1.006557,0.58278435,1.0,0.0,0.0,0.0,0.0,0.0,0.0,-3.2988343,-0.07979241,0.035171628,-8.906531,17.50303,12.046135,-17.688107,-3.9821327,-10.520208,-4.6669335
18.955603,150.91098,46.307434,11.15461,-2.3324425,3.0157113,-0.59629357,-0.8247366,0.43895668,-0.052916642,0.6533094,0.21247259,0.65034443,-0.5633919,1.6384323,-1.0166677,-1.855638,-0.94995135,1.9957103,1.2614805,-0.9810008,1.7048384,-1.058103,-1.8451927,-1.0036608,1.9782434,1.2054335,-0.9271545,-1.6085275,0.32851407,0.47381723,1.1346759,0.36692584,0.8775802,-0.25931045,2.6163101,-0.32489014,0.5585622,-3.2513227,-0.46805087,4.347728,0.4557724,-0.5326271,0.72065336,0.6532569,0.12819153,0.11122637,0.7378692,-1.3384964,-0.8479717,0.6800116,1.0,0.0,0.0,0.0,0.0,0.0,0.0,-3.2663102,-0.07510987,-0.008562207,-0.7324219,32.93862,-16.658188,-11.025262,-4.407358,-8.429432,-4.042557
23.081987,150.87851,44.469116,11.534634,-2.3347657,2.4529204,-0.71047455,-0.82359123,0.5444704,-0.11599471,0.64259833,0.32792762,0.62550676,-0.54618984,1.6224793,-1.0036559,-1.8567921,-0.939401,2.0110362,1.2679842,-0.9817735,1.6890303,-1.052154,-1.842591,-0.99268913,1.9820104,1.2136389,-0.9299459,-1.5724373,0.6827052,0.19024435,1.084399,0.37940913,0.8020316,-0.2869716,2.5838165,-0.32956696,0.60127044,-3.2480721,-0.4675829,4.2451944,0.44263458,-0.540102,0.72818035,0.66387844,0.12004825,0.10743628,0.7302816,-1.3146703,-0.70174026,0.7745466,1.0,0.0,0.0,0.0,0.0,0.0,0.0,-3.2338166,-0.07043305,-0.051270425,3.3440828,35.145103,-27.96756,-5.098057,1.1374474,-7.462895,-3.157276
27.348375,143.08888,43.580147,10.532257,-1.7930597,2.307947,-0.47281295,-0.8097783,0.6224153,-0.0842596,0.62042195,0.43200323,0.6150413,-0.5460095,1.6080525,-0.9899124,-1.851017,-0.93064696,2.0252106,1.275143,-0.98454684,1.6737143,-1.0430673,-1.8424118,-0.98199654,1.9862962,1.2211691,-0.9329719,-1.5188482,0.98302186,-0.037802264,1.0636775,0.4444487,0.7361463,-0.30906677,2.5513535,-0.33423996,0.64295405,-3.2448246,-0.46711543,4.142764,0.42972565,-0.54621506,0.73664314,0.6746338,0.11179299,0.105381794,0.7219877,-1.2888281,-0.56858903,0.8686808,1.0,0.0,0.0,0.0,0.0,0.0,0.0,-3.2013535,-0.065760046,-0.09295404,5.0931454,29.774273,-22.308025,-2.2393465,6.313139,-6.7179084,-2.5776088
26.507833,126.00098,39.77365,9.511336,-1.0997765,2.1561623,-0.20495774,-0.8025425,0.6741198,-0.06818995,0.6018059,0.47596535,0.6296959,-0.559517,1.5934601,-0.9756554,-1.8492308,-0.92181593,2.0338926,1.2841387,-0.9889236,1.6588999,-1.03165,-1.8437641,-0.9714308,1.9913659,1.2281271,-0.93619627,-1.4696715,1.1939079,-0.1657923,1.0535058,0.527191,0.6815176,-0.3281063,2.5189362,-0.33890724,0.68361413,-3.2415805,-0.46664843,4.040436,0.41701508,-0.5511608,0.7459314,0.68534195,0.10339662,0.10437006,0.71324784,-1.2696451,-0.45505586,0.9480916,1.0,0.0,0.0,0.0,0.0,0.0,0.0,-3.1689363,-0.061092764,-0.13361412,4.6667337,20.867872,-12.236674,-1.2395382,8.052307,-5.707419,-2.251941
23.804798,105.238815,34.362,8.064097,-0.52106524,1.9190427,0.032353006,-0.79436845,0.69819057,-0.04761464,0.5851948,0.48960927,0.6455457,-0.5553392,1.579463,-0.9618309,-1.8485255,-0.9129113,2.0403268,1.2926817,-0.9917302,1.644488,-1.0188326,-1.8456638,-0.96097183,1.9971986,1.2346236,-0.93958277,-1.4323779,1.3105084,-0.19590028,1.0425014,0.60102594,0.63802326,-0.34337574,2.4865494,-0.3435707,0.72325176,-3.2383397,-0.46618187,3.9382102,0.40444183,-0.5551262,0.7558306,0.69582385,0.0948434,0.10378597,0.70431685,-1.2573227,-0.36165017,1.0034842,1.0,0.0,0.0,0.0,0.0,0.0,0.0,-3.1365495,-0.056429297,-0.17325175,3.501916,11.488748,-2.4265945,-1.3441801,7.175076,-4.583621,-1.868856
17.78349,85.41304,27.956324,7.6824546,-0.039156914,1.584883,0.14084877,-0.7946544,0.7139198,-0.05252759,0.57393444,0.5140847,0.6500367,-0.55577844,1.5650226,-0.94744056,-1.8509165,-0.9035784,2.048607,1.2996272,-0.9951606,1.6303183,-1.0053858,-1.8474853,-0.95064354,2.003678,1.24075,-0.94310087,-1.4125166,1.3558519,-0.17590426,1.0288746,0.6631463,0.603607,-0.3557211,2.454193,-0.34822845,0.7618679,-3.235102,-0.46571577,3.8360872,0.391922,-0.55833244,0.7660773,0.7059865,0.086184226,0.10322688,0.6953413,-1.2526624,-0.2913339,1.0313176,1.0,0.0,0.0,0.0,0.0,0.0,0.0,-3.1041932,-0.05177155,-0.21186787,1.7891884,4.4122934,2.5398195,-1.6087294,6.0476065,-3.6134005,-1.5562534
14.695839,75.21533,24.818785,7.789038,0.22413933,1.4562366,0.203187,-0.7870338,0.7270861,-0.020536436,0.57266885,0.52301186,0.6612149,-0.545468,1.5516149,-0.93267715,-1.8495389,-0.89337665,2.0559793,1.3068714,-0.99764764,1.6162783,-0.99178827,-1.8488147,-0.9404278,2.0106475,1.2465903,-0.9467172,-1.4017795,1.3606781,-0.11691731,1.0182923,0.7077051,0.5772046,-0.36473155,2.4218674,-0.3528824,0.7994635,-3.2318676,-0.46525013,3.7340662,0.3793869,-0.5609226,0.7765115,0.7157858,0.077418074,0.10246751,0.6864091,-1.2529559,-0.23203741,1.0466785,1.0,0.0,0.0,0.0,0.0,0.0,0.0,-3.0718675,-0.04711762,-0.2494635,0.89673996,0.385952,6.4225526,-1.2946844,4.315233,-2.7683258,-1.21755
10.943019,67.710464,21.728706,8.52202,0.34792352,1.2732079,0.16741472,-0.7834926,0.73093724,-0.01742684,0.57860976,0.5186805,0.66640204,-0.536726,1.537929,-0.91869456,-1.8505574,-0.8825668,2.0625155,1.3132305,-1.0003898,1.6023012,-0.978289,-1.8495624,-0.9302559,2.0179145,1.2522131,-0.95040315,-1.397082,1.3460741,-0.059279148,1.0161117,0.7327514,0.55691373,-0.37084746,2.3895721,-0.3575306,0.8360397,-3.2286363,-0.46478498,3.6321473,0.36686707,-0.5629959,0.78701633,0.7252409,0.06855192,0.10147079,0.67751735,-1.2561513,-0.18286292,1.0506413,1.0,0.0,0.0,0.0,0.0,0.0,0.0,-3.0395722,-0.042469412,-0.2860397,0.31530857,-1.5379667,6.232692,-0.4430771,2.398467,-2.1156788,-0.9080887
9.742767,66.322174,20.870445,8.923704,0.36913908,1.2229884,0.15939583,-0.78305024,0.736908,0.008550917,0.5702688,0.53997296,0.66237885,-0.5369245,1.5239962,-0.90459824,-1.8487073,-0.873229,2.0719118,1.318451,-1.0040956,1.5883375,-0.9649471,-1.8497417,-0.9201145,2.0253952,1.2576605,-0.95413965,-1.3966004,1.3299668,-0.0027098672,1.0127605,0.7526508,0.5403717,-0.3755364,2.3573074,-0.362175,0.8715975,-3.2254083,-0.4643203,3.5303302,0.3542633,-0.56458473,0.7975433,0.73436886,0.05958752,0.10025254,0.6686562,-1.2600049,-0.13517715,1.0518126,1.0,0.0,0.0,0.0,0.0,0.0,0.0,-3.0073075,-0.03782502,-0.32159752,-0.101566315,-1.684618,6.118108,-0.54986477,1.8903136,-1.7260432,-0.75644255
9.591709,67.876274,21.00276,9.469025,0.2987395,1.2429379,0.13420442,-0.7812351,0.741348,0.036425278,0.5717973,0.5286049,0.6726859,-0.53124535,1.5102141,-0.8908123,-1.8460991,-0.86293477,2.0782557,1.3249291,-1.0072641,1.57437,-0.95171964,-1.8493774,-0.90998745,2.0329788,1.2629725,-0.95791143,-1.3971708,1.320037,0.05095859,1.0120543,0.7596313,0.52792656,-0.37864116,2.3250732,-0.36681557,0.9061379,-3.2221837,-0.4638561,3.4286149,0.34165192,-0.56567574,0.8080974,0.743183,0.050490346,0.09888057,0.6598122,-1.2630286,-0.08438697,1.0547547,1.0,0.0,0.0,0.0,0.0,0.0,0.0,-2.9750733,-0.03318444,-0.35613787,-0.20513535,-1.0706425,5.8323855,-0.27008057,0.5953431,-1.3139606,-0.5921364
10.314792,70.25491,21.603893,9.676599,0.25600618,1.2830906,0.14568941,-0.78227013,0.7436382,0.0738598,0.56582016,0.5432973,0.67520833,-0.5298578,1.496143,-0.8773558,-1.8419914,-0.8534054,2.0873084,1.3304933,-1.0108972,1.5603892,-0.93853986,-1.8484504,-0.8998871,2.040631,1.2681795,-0.961708,-1.3988802,1.3169969,0.10832611,1.0088218,0.76641214,0.5181685,-0.38091463,2.2928696,-0.37145042,0.93966186,-3.2189622,-0.46339232,3.327001,0.32900238,-0.56622314,0.8187051,0.75167763,0.041221444,0.097387575,0.6509971,-1.2648723,-0.029254068,1.0606141,1.0,0.0,0.0,0.0,0.0,0.0,0.0,-2.9428697,-0.028549582,-0.38966185,-0.32145977,-0.38673878,6.22237,-0.50861835,0.56642294,-1.0471106,-0.50893426
12.522739,71.64492,21.743471,8.788724,0.075292945,1.2154443,0.16271102,-0.7771299,0.75054175,0.08833039,0.55270344,0.5498513,0.6808728,-0.5255774,1.4826761,-0.8634857,-1.8396174,-0.8446168,2.095616,1.3362668,-1.0142658,1.5464159,-0.92532766,-1.8470237,-0.88987637,2.0483482,1.2733103,-0.96551985,-1.3972558,1.3222842,0.15573274,0.99793977,0.7728911,0.5111088,-0.38224486,2.260704,-0.37608147,0.9721705,-3.2157438,-0.462929,3.225489,0.316391,-0.5661869,0.82936394,0.7598313,0.031775743,0.095828116,0.6422332,-1.2603136,0.030633826,1.0650432,1.0,0.0,0.0,0.0,0.0,0.0,0.0,-2.9107041,-0.02391854,-0.42217046,0.010704994,0.446558,5.2288113,-1.2688279,0.53271055,-0.75320005,-0.41069984
11.057475,68.621895,19.91178,8.812496,0.023660064,1.0205787,0.116209894,-0.7807719,0.7516954,0.07496769,0.54996,0.5538617,0.6830787,-0.51865864,1.4683387,-0.8501581,-1.839527,-0.83488035,2.1037343,1.3416182,-1.0173857,1.5324465,-0.9120449,-1.8453357,-0.8799801,2.0561302,1.2783839,-0.9693374,-1.3973869,1.3300766,0.17458652,0.9862526,0.7793591,0.50602996,-0.38236058,2.2285767,-0.3807068,1.0036647,-3.2125287,-0.46246618,3.1240783,0.30384064,-0.5655861,0.8400128,0.76767105,0.022212656,0.09428671,0.63348067,-1.2533469,0.08549146,1.0619142,1.0,0.0,0.0,0.0,0.0,0.0,0.0,-2.8785768,-0.019293219,-0.45366472,-0.15952587,0.70843697,2.323094,-1.3519049,0.5626321,-0.5254626,-0.26953816
10.497156,66.1836,18.567009,8.430029,-0.061404705,0.86356175,0.09856766,-0.7848353,0.7541495,0.07829897,0.5349668,0.548544,0.68194854,-0.51658785,1.4539629,-0.8366299,-1.8375058,-0.8264834,2.1109846,1.3465787,-1.0209962,1.5184542,-0.8986801,-1.8435771,-0.87024784,2.0639465,1.2834154,-0.9731521,-1.4003372,1.3383512,0.17781025,0.96826303,0.7820567,0.50220823,-0.3819619,2.1964798,-0.3853283,1.0341456,-3.209317,-0.46200383,3.022769,0.29135895,-0.56445503,0.8505861,0.77521896,0.012593124,0.09284328,0.6247055,-1.2429509,0.13774878,1.0525724,1.0,0.0,0.0,0.0,0.0,0.0,0.0,-2.84648,-0.014671713,-0.48414558,-0.4426241,0.7650137,0.73786974,-1.9890666,0.20273924,-0.36922693,-0.20697117
12.415836,65.808716,18.188122,7.402705,-0.22114164,0.73296887,0.11145382,-0.7778349,0.76324695,0.07535425,0.51888734,0.5512864,0.6842084,-0.5143233,1.4406707,-0.8223554,-1.8360417,-0.81835914,2.119075,1.3518363,-1.0245844,1.5044657,-0.8852085,-1.8418682,-0.8607416,2.0717857,1.2884184,-0.9769601,-1.3990359,1.3499048,0.16994016,0.94418895,0.7841056,0.4996986,-0.38123986,2.1644135,-0.38994598,1.0636141,-3.2061083,-0.4615419,2.9215612,0.2790451,-0.56279373,0.8610445,0.7824691,0.0029569892,0.09155554,0.61591464,-1.2255948,0.19098406,1.0401672,1.0,0.0,0.0,0.0,0.0,0.0,0.0,-2.8144135,-0.010054022,-0.5136141,-0.016474724,1.0992289,-0.3825456,-2.601552,0.14461279,-0.20930171,-0.1712799
11.185987,60.85499,16.006514,6.9804273,-0.2692533,0.49145693,0.07805361,-0.7810476,0.76044154,0.042955063,0.5058578,0.5455127,0.688363,-0.5063184,1.426361,-0.80916435,-1.8375727,-0.8101558,2.126337,1.3572547,-1.027592,1.490481,-0.87165487,-1.840411,-0.85149384,2.079621,1.2934042,-0.9807548,-1.3988848,1.3570024,0.13880387,0.9175677,0.78323865,0.4985774,-0.3796072,2.1323776,-0.39455795,1.0920713,-3.2029028,-0.46108043,2.8204546,0.266922,-0.5606575,0.8713123,0.789447,-0.0066220867,0.09049052,0.60707575,-1.2049986,0.23647112,1.0186996,1.0,0.0,0.0,0.0,0.0,0.0,0.0,-2.7823777,-0.005442053,-0.5420713,-0.12578964,0.6705284,-2.764103,-2.87081,-0.11199713,-0.03182292,-0.06324649
13.994032,61.032646,16.320776,5.177091,-0.38133612,0.4257689,0.18377142,-0.78714937,0.7655262,0.06916494,0.45016274,0.5744392,0.6877909,-0.50415266,1.411766,-0.79510224,-1.8334944,-0.80647755,2.137065,1.3621833,-1.03117,1.4764677,-0.8580345,-1.8391273,-0.8427143,2.087529,1.2983843,-0.98453325,-1.4028162,1.363578,0.12621848,0.86396116,0.79308224,0.49811077,-0.37794402,2.1003723,-0.3991642,1.1195183,-3.1997006,-0.46061945,2.719449,0.2550583,-0.5580368,0.8813478,0.79609865,-0.016098717,0.08961328,0.5982785,-1.1775514,0.28511792,0.9948209,1.0,0.0,0.0,0.0,0.0,0.0,0.0,-2.7503724,-0.00083580613,-0.56951827,-0.5475044,0.6223202,-0.8663207,-5.5779815,0.93654394,0.06468296,-0.0677824
21.23325,65.242905,18.63127,2.0108385,-0.63492846,0.46060938,0.38885906,-0.78295064,0.7708053,0.13558061,0.37950137,0.5886346,0.67999476,-0.4898305,1.3981726,-0.78095394,-1.8255693,-0.80476415,2.1463923,1.3663838,-1.0335163,1.4624335,-0.84434545,-1.8375881,-0.83473396,2.0955741,1.3033568,-0.9882869,-1.404344,1.3705926,0.16476563,0.77532893,0.808317,0.49755195,-0.37528756,2.0683975,-0.40376663,1.1459559,-3.1965015,-0.46015894,2.6185446,0.24356079,-0.5548363,0.89116526,0.8022763,-0.02549101,0.08881906,0.5897576,-1.1368328,0.34585488,0.97364885,1.0,0.0,0.0,0.0,0.0,0.0,0.0,-2.7183976,0.0037666261,-0.5959559,-0.31585693,0.6673813,4.3276787,-9.071552,1.4360547,0.09993315,0.00924468
32.647625,66.23809,19.844397,-4.923981,-1.2778286,0.22282359,0.66969335,-0.77163714,0.7755405,0.17649359,0.2467218,0.60677946,0.6832343,-0.46519595,1.3852698,-0.7667914,-1.8199387,-0.8100618,2.1562521,1.3716801,-1.0348065,1.448443,-0.8305801,-1.8354232,-0.8281393,2.10381,1.308335,-0.9919967,-1.3977275,1.3784193,0.23522425,0.6201395,0.82860667,0.49881148,-0.37046796,2.0364532,-0.40836525,1.1713853,-3.1933055,-0.45969886,2.5177407,0.23268127,-0.55093956,0.9006952,0.8077711,-0.034733057,0.088062406,0.58184564,-1.0669887,0.41773388,0.94206655,1.0,0.0,0.0,0.0,0.0,0.0,0.0,-2.6864533,0.008365244,-0.6213853,0.5056143,0.76749325,7.545537,-15.723562,1.924634,0.42306185,0.22357702
49.131966,66.712906,21.309769,-15.91079,-2.2909298,-0.16615441,1.1050394,-0.7647153,0.7799824,0.26984978,0.01870642,0.62844646,0.6692909,-0.43265095,1.3719715,-0.7525819,-1.8084383,-0.8262687,2.1666548,1.375264,-1.0352618,1.4345576,-0.81673276,-1.8321846,-0.8239536,2.1122863,1.3133265,-0.9956369,-1.3857675,1.3869097,0.35501054,0.3507089,0.853712,0.50105375,-0.36262184,2.0045395,-0.41295815,1.1958073,-3.1901128,-0.45923924,2.4170377,0.2228241,-0.5462036,0.9097681,0.81227803,-0.04363945,0.08733795,0.5750408,-0.9521411,0.5042461,0.8913731,1.0,0.0,0.0,0.0,0.0,0.0,0.0,-2.6545396,0.012958139,-0.6458073,1.0680676,0.86290836,12.471575,-27.118809,2.4065733,0.7479012,0.54715276
65.04445,64.20317,21.280052,-27.804003,-3.4633753,-0.77868015,1.4951156,-0.7524456,0.7904942,0.3322313,-0.25309026,0.6426998,0.661021,-0.4016186,1.359313,-0.73768336,-1.7989614,-0.84926265,2.1765563,1.3794286,-1.0357988,1.4208437,-0.80276906,-1.8276279,-0.823369,2.1210182,1.3183447,-0.99917597,-1.366791,1.3996711,0.4903139,-0.039223332,0.87988544,0.5047855,-0.3515903,1.9726562,-0.41754723,1.2192231,-3.1869235,-0.4587801,2.3164353,0.2144928,-0.540535,0.9181368,0.81550884,-0.05191625,0.08675051,0.5698458,-0.7865204,0.59777194,0.81406504,1.0,0.0,0.0,0.0,0.0,0.0,0.0,-2.6226563,0.01754722,-0.6692231,1.857543,1.3270378,13.866961,-39.08322,2.5858998,1.1354029,0.9500623
64.721855,66.39801,21.923134,-26.366344,-3.3479874,-0.8660129,1.4852413,-0.7330325,0.80350626,0.40548936,-0.34805703,0.65201205,0.6385778,-0.30941102,1.3475405,-0.7224184,-1.787079,-0.85817474,2.1862195,1.3822025,-1.030117,1.4073893,-0.78863657,-1.8216732,-0.82648945,2.1300018,1.323382,-1.0025401,-1.3380972,1.4180315,0.63065386,-0.4027576,0.90481776,0.50588024,-0.33141792,1.9408112,-0.42213058,1.2416337,-3.1837373,-0.45832142,2.2159336,0.2078247,-0.5339565,0.92580056,0.81743366,-0.059524182,0.08632368,0.5663984,-0.62179345,0.68562484,0.74537057,1.0,0.0,0.0,0.0,0.0,0.0,0.0,-2.5908113,0.022130579,-0.69163364,2.9541254,1.9206285,14.055562,-36.3017,2.6401043,0.84905624,1.9737422
48.460903,63.894794,20.04976,-15.198357,-2.2084281,-0.7066101,1.1270108,-0.7298141,0.8033442,0.43955538,-0.3565532,0.66417706,0.6238255,-0.18268004,1.3344079,-0.70830214,-1.7777176,-0.86214477,2.1964195,1.3857646,-1.0208081,1.3941942,-0.7743496,-1.8145149,-0.8323374,2.1392257,1.3284079,-1.0056148,-1.3129857,1.43256,0.7435614,-0.6452368,0.9291562,0.50358707,-0.29958898,1.9090042,-0.42671013,1.26304,-3.1805542,-0.45786318,2.1155324,0.20246124,-0.5266552,0.9329385,0.8183035,-0.066630036,0.08599678,0.56439734,-0.50094026,0.75034773,0.69760156,1.0,0.0,0.0,0.0,0.0,0.0,0.0,-2.5590043,0.026710123,-0.71303993,2.636671,1.5715837,11.054325,-24.16538,2.7524114,0.3545165,3.199321
31.884525,61.222874,18.3083,-3.350357,-1.0420673,-0.45075607,0.7764695,-0.71669155,0.8002859,0.47921214,-0.3495551,0.6429923,0.618094,0.06933167,1.3225251,-0.694321,-1.7665937,-0.8672929,2.203525,1.3902173,-0.9986816,1.3812414,-0.7599758,-1.8064125,-0.83960724,2.1485832,1.3333975,-1.008203,-1.2889822,1.4395591,0.8310342,-0.75419605,0.9390935,0.49905893,-0.24521466,1.8772278,-0.43128586,1.283443,-3.1773744,-0.45740542,2.0152314,0.19793701,-0.51885223,0.93977386,0.81841385,-0.073479414,0.08570974,0.5634299,-0.4269122,0.7953735,0.672755,1.0,0.0,0.0,0.0,0.0,0.0,0.0,-2.5272279,0.031285852,-0.73344296,2.502346,0.84757805,8.383393,-10.86768,1.4260054,-0.0097334385,5.4484577
5.595889,55.46083,14.735512,14.249712,0.64505947,-0.005650118,0.17850865,-0.7328057,0.79497814,0.46770293,-0.21918735,0.60537386,0.639715,0.25903636,1.3079609,-0.680478,-1.7596421,-0.86152595,2.2091205,1.397369,-0.9822994,1.3683783,-0.74559534,-1.7978065,-0.8466482,2.1578758,1.3383509,-1.010139,-1.2855065,1.4380639,0.86939543,-0.68786097,0.92776036,0.4947672,-0.17658938,1.8454819,-0.43585587,1.3028437,-3.1741977,-0.4569481,1.9150305,0.1936264,-0.5107994,0.9465794,0.81819445,-0.080399096,0.085442655,0.562844,-0.4242903,0.8124295,0.6768018,1.0,0.0,0.0,0.0,0.0,0.0,0.0,-2.495482,0.03585586,-0.7528437,0.31163692,0.021076202,3.493631,6.4962745,-0.64946413,-0.19516349,6.817582
-21.641579,49.576294,11.048701,33.28011,2.4763167,0.5154761,-0.5007696,-0.749511,0.7885956,0.42523727,0.008202008,0.5808922,0.651593,0.3691661,1.2934272,-0.66673577,-1.7552828,-0.845828,2.215965,1.4035102,-0.9732224,1.3554007,-0.73128164,-1.7892597,-0.8515959,2.1669586,1.3432623,-1.0113616,-1.3025236,1.4296956,0.84876454,-0.43139634,0.90320545,0.48985022,-0.10443035,1.8137665,-0.44042206,1.3212432,-3.171024,-0.45649123,1.8149297,0.18875885,-0.50278664,0.9536729,0.81816167,-0.08777493,0.085144125,0.5618341,-0.49890667,0.8018157,0.7136089,1.0,0.0,0.0,0.0,0.0,0.0,0.0,-2.4637666,0.040422052,-0.77124316,-1.8949747,-0.65095425,-2.3460388,25.333899,-1.941061,-0.4891634,7.106817
-44.8469,43.779205,7.78832,49.81985,4.055882,1.0237622,-1.1033753,-0.7771794,0.776067,0.37706003,0.2822039,0.5376987,0.6654323,0.43311575,1.2776828,-0.65367496,-1.7515537,-0.82337546,2.2207284,1.4098055,-0.96805,1.342095,-0.7171129,-1.7812774,-0.8527584,2.175679,1.348126,-1.0118823,-1.3408719,1.4132282,0.7803742,-0.012516051,0.863677,0.484357,-0.035152502,1.7820816,-0.44498253,1.3386424,-3.1678538,-0.45603484,1.7149291,0.18264008,-0.49503517,0.96134424,0.81878984,-0.0959822,0.08476268,0.5596301,-0.6415729,0.77105826,0.7784431,1.0,0.0,0.0,0.0,0.0,0.0,0.0,-2.4320817,0.044982523,-0.78864235,-4.1177034,-1.4644146,-7.1251273,41.494267,-3.390956,-0.7917285,6.7981334
-49.172546,40.84143,6.676097,53.196136,4.3192167,1.1409097,-1.2694407,-0.7859286,0.7662544,0.33532315,0.4604264,0.503016,0.67430484,0.45847058,1.2635021,-0.64048743,-1.7477452,-0.8067158,2.2259805,1.4155566,-0.96603525,1.3283983,-0.70313966,-1.774163,-0.8494415,2.1839454,1.3529383,-1.011764,-1.3800364,1.3926041,0.6874219,0.44538918,0.8162175,0.47891298,0.027197985,1.7504272,-0.44953918,1.3550423,-3.1646867,-0.4555789,1.6150285,0.1749878,-0.4875927,0.96968657,0.8202664,-0.10517921,0.08430449,0.5558714,-0.7986181,0.7409513,0.84639555,1.0,0.0,0.0,0.0,0.0,0.0,0.0,-2.4004273,0.04953918,-0.8050423,-4.1337967,-1.9161224,-9.637237,45.489124,-4.1797757,-0.92644095,6.1435647
-34.60714,39.971672,7.588354,41.779068,3.2246065,0.8104261,-0.9079522,-0.79510117,0.7500084,0.34484816,0.48221126,0.4932067,0.6627351,0.42958266,1.2488883,-0.62813884,-1.7396781,-0.8012204,2.233266,1.4192119,-0.9688058,1.3143564,-0.6894134,-1.767781,-0.84243107,2.191777,1.3576971,-1.0111156,-1.4124616,1.3663232,0.6210476,0.7856828,0.77375954,0.47361004,0.07722853,1.7188034,-0.45409203,1.370444,-3.1615226,-0.4551234,1.5152278,0.16609192,-0.48034096,0.9785039,0.82238376,-0.1151852,0.08381359,0.5508109,-0.91236115,0.72842395,0.8870265,1.0,0.0,0.0,0.0,0.0,0.0,0.0,-2.3688035,0.05409202,-0.82044405,-3.3601046,-2.539444,-6.894684,33.855484,-3.804624,-0.84608793,4.934679
-14.135495,40.287594,8.927054,25.178814,1.6647986,0.25600448,-0.37259972,-0.80340064,0.7400541,0.34266594,0.4517101,0.5178106,0.65875065,0.39834324,1.2340164,-0.615408,-1.7335144,-0.79726005,2.243558,1.4235722,-0.97128123,1.3000551,-0.67594755,-1.7618339,-0.83333397,2.1993454,1.362414,-1.010057,-1.4360771,1.3401723,0.5859499,0.95059645,0.7519002,0.47066733,0.1150542,1.6872101,-0.45863914,1.3848486,-3.1583617,-0.45466837,1.4155269,0.15653229,-0.47309113,0.9874445,0.8247497,-0.12560305,0.08334856,0.54503644,-0.96121645,0.73338956,0.88980114,1.0,0.0,0.0,0.0,0.0,0.0,0.0,-2.3372102,0.05863914,-0.8348486,-2.4472475,-2.5755882,-3.5416842,16.36548,-1.9422054,-0.40392876,3.6889567
4.3660827,42.081635,10.2654915,10.40573,0.18038797,-0.2893084,0.084722385,-0.8011422,0.73620397,0.32880032,0.4178337,0.5116897,0.6701625,0.38913655,1.2199409,-0.60232717,-1.7289538,-0.7915506,2.2505143,1.4294302,-0.9711433,1.2856203,-0.66269815,-1.7560985,-0.82371616,2.2067573,1.3671271,-1.0086837,-1.4461894,1.3199477,0.57001334,0.9651041,0.73795545,0.47188863,0.14421664,1.6556473,-0.46318245,1.3982568,-3.1552038,-0.4542138,1.3159257,0.14696503,-0.4657116,0.99618185,0.8270097,-0.13604176,0.08302997,0.53912306,-0.9482819,0.7509075,0.8617504,1.0,0.0,0.0,0.0,0.0,0.0,0.0,-2.3056474,0.06318244,-0.84825677,-1.0957003,-2.0141363,-1.4070749,1.3299108,-1.3332486,0.24099946,2.7861
14.0112705,39.19044,9.230246,0.92063,-0.7301833,-0.840944,0.31706694,-0.8097551,0.7289653,0.27792647,0.3736254,0.5248644,0.66525906,0.38112313,1.2046448,-0.5898016,-1.7283058,-0.78635365,2.2592437,1.433653,-0.9705714,1.271113,-0.6496166,-1.7506435,-0.81470966,2.2141235,1.3718611,-1.0070701,-1.452685,1.3042935,0.5382815,0.87874186,0.7359283,0.475011,0.16679853,1.624115,-0.46772194,1.4106698,-3.1520493,-0.45375967,1.216424,0.1377945,-0.4581852,1.0044597,0.82898664,-0.14614718,0.08299333,0.53341734,-0.89579,0.7641254,0.8099291,1.0,0.0,0.0,0.0,0.0,0.0,0.0,-2.274115,0.06772193,-0.8606698,-0.74191093,-1.5588284,-2.9090047,-8.77769,-0.21423101,0.61140656,2.1258235
20.241558,40.378677,9.873848,-3.572195,-1.2213553,-1.0705776,0.47166446,-0.8012972,0.71760285,0.29276687,0.340032,0.4820898,0.66862077,0.43447632,1.1909833,-0.5778563,-1.7213668,-0.78070647,2.2623324,1.4387232,-0.96362245,1.2566172,-0.63668764,-1.7453792,-0.806859,2.2213714,1.3766333,-1.0052218,-1.4489067,1.2891134,0.5235244,0.7534255,0.7206371,0.47918135,0.1902677,1.5926132,-0.4722557,1.4220884,-3.148898,-0.45330602,1.1170218,0.12934113,-0.45050812,1.0121803,0.83057886,-0.15577374,0.08332407,0.52813864,-0.82174295,0.7785908,0.7531569,1.0,0.0,0.0,0.0,0.0,0.0,0.0,-2.2426133,0.0722557,-0.8720884,0.31678677,-1.5113592,-1.1831164,-12.64689,-1.5942574,0.78096986,2.2152157
20.571396,39.86197,9.591715,-3.8738885,-1.261852,-1.1976235,0.4735442,-0.8013012,0.71003413,0.2776978,0.30365077,0.46883324,0.66532373,0.4655924,1.1764871,-0.5656842,-1.7176094,-0.77649397,2.2682548,1.4431657,-0.9586626,1.2421786,-0.6239008,-1.7402618,-0.80027103,2.2284324,1.3814417,-1.0031409,-1.4423497,1.2751753,0.508677,0.6269774,0.70145977,0.48272428,0.21359192,1.561142,-0.47678566,1.4325137,-3.1457496,-0.4528528,1.017719,0.12164307,-0.44271278,1.0193434,0.8317821,-0.16488832,0.084055476,0.5233402,-0.74485,0.78893256,0.6980643,1.0,0.0,0.0,0.0,0.0,0.0,0.0,-2.211142,0.076785654,-0.8825137,0.61876774,-1.3772249,-1.2409687,-12.739563,-1.9696951,0.7164657,2.2184877
22.175907,39.36542,9.614609,-5.0030146,-1.3634839,-1.327008,0.5226344,-0.7911555,0.6954884,0.29230556,0.22891103,0.42955467,0.6555208,0.50446224,1.163063,-0.5543519,-1.7110312,-0.77737993,2.2713878,1.4469938,-0.9526947,1.2278525,-0.61128175,-1.7351749,-0.79499245,2.2352111,1.3862749,-1.0008216,-1.4294775,1.257578,0.5092178,0.49454775,0.66987216,0.48483682,0.23758265,1.5297012,-0.4813118,1.4419467,-3.1426046,-0.45240003,0.91851556,0.114738464,-0.43481827,1.0259585,0.83258766,-0.17347977,0.085190274,0.5190811,-0.6621602,0.79660386,0.6436827,1.0,0.0,0.0,0.0,0.0,0.0,0.0,-2.1797013,0.08131179,-0.89194673,1.2874842,-1.7338276,0.2558112,-13.310748,-3.2120228,0.5804241,2.2985487
19.359465,36.854008,8.592094,-3.3666902,-1.1617324,-1.4068456,0.44625682,-0.79250205,0.68658394,0.27066854,0.18102966,0.42228958,0.6547842,0.5123184,1.1486022,-0.54262334,-1.7081081,-0.7768895,2.27744,1.4517534,-0.9495897,1.2136332,-0.598842,-1.7301509,-0.79093075,2.2416923,1.3911234,-0.99828196,-1.419353,1.2395219,0.50065386,0.37642825,0.641028,0.48608893,0.2592312,1.4982986,-0.4858322,1.4503886,-3.1394625,-0.45194772,0.8194113,0.10860443,-0.42689896,1.0320519,0.83305186,-0.18154827,0.08671938,0.51531017,-0.58683455,0.79696876,0.5925008,1.0,0.0,0.0,0.0,0.0,0.0,0.0,-2.1482987,0.08583221,-0.90038854,1.0220528,-1.766324,-0.72681904,-11.876112,-2.8965116,0.46496987,2.084905
16.097605,35.060585,7.855657,-0.84648085,-0.9131314,-1.4189947,0.3471208,-0.78594583,0.67619795,0.2561649,0.15115511,0.39243853,0.6530939,0.53138936,1.1350386,-0.5312222,-1.7045344,-0.77581525,2.2809362,1.4564328,-0.94514304,1.1995169,-0.5865873,-1.7252758,-0.78784657,2.2478607,1.3959795,-0.9955363,-1.4090112,1.2209607,0.4834516,0.28545398,0.6085651,0.4864211,0.27950776,1.4669342,-0.49034882,1.4578401,-3.1363237,-0.45149586,0.720406,0.10316467,-0.41899872,1.0376759,0.8332556,-0.18913522,0.08862934,0.51191586,-0.5217247,0.79271334,0.5472527,1.0,0.0,0.0,0.0,0.0,0.0,0.0,-2.1169343,0.09034881,-0.9078401,1.0492802,-1.80552,-1.6550004,-9.163385,-3.2170892,0.33113956,1.9601583
17.377262,35.841923,8.317808,-1.7006688,-0.9499551,-1.4748827,0.40766284,-0.78051454,0.66650045,0.28466195,0.061952762,0.37971142,0.650838,0.5475008,1.1214654,-0.5199373,-1.6968095,-0.7816513,2.285832,1.4610634,-0.94078624,1.1855017,-0.57451665,-1.7204235,-0.7857704,2.2537239,1.4008356,-0.992599,-1.3988551,1.202645,0.48613408,0.18153378,0.5793053,0.48627877,0.2983335,1.4356003,-0.4948597,1.4643023,-3.133188,-0.45104447,0.6214998,0.09838104,-0.41113472,1.0428532,0.83319324,-0.19624858,0.09088087,0.50893635,-0.45324203,0.78860176,0.50308657,1.0,0.0,0.0,0.0,0.0,0.0,0.0,-2.0856004,0.09485969,-0.9143023,1.0462999,-1.7777205,0.32032728,-10.43697,-2.9011369,0.2788663,1.8225431
17.970081,35.693085,8.533323,-1.9673324,-0.9343108,-1.5181818,0.44269982,-0.7689546,0.65104425,0.3055501,0.0051217815,0.34506825,0.6479782,0.57047784,1.1086062,-0.5094122,-1.6898685,-0.78525823,2.2882307,1.4656334,-0.9355512,1.1716181,-0.562652,-1.715409,-0.78474236,2.259259,1.405686,-0.98947763,-1.3848178,1.1812115,0.5066519,0.07650313,0.5450583,0.48566806,0.31661156,1.4042969,-0.49936676,1.4697762,-3.1300554,-0.4505935,0.5226924,0.094314575,-0.40330887,1.0476009,0.8328384,-0.20290208,0.09342666,0.50644094,-0.383911,0.7835645,0.46069363,1.0,0.0,0.0,0.0,0.0,0.0,0.0,-2.054297,0.099366754,-0.91977614,1.4602184,-2.0826817,2.0611823,-10.528988,-3.3889413,0.22312999,1.7775416
14.965702,33.41245,7.9485526,0.6456418,-0.5640537,-1.4978455,0.36463076,-0.75691044,0.63389194,0.30200773,-0.002754633,0.34669065,0.64264846,0.578073,1.095927,-0.4992628,-1.6852083,-0.78501785,2.2939281,1.4699509,-0.9316703,1.1579043,-0.5510334,-1.710202,-0.7845373,2.2645233,1.410525,-0.98618746,-1.3667492,1.1555862,0.5252057,0.001727881,0.52037084,0.48415783,0.3329482,1.373024,-0.50387,1.4742627,-3.126926,-0.450143,0.42398387,0.09082794,-0.39556313,1.0519689,0.8322231,-0.20916064,0.09617437,0.50438756,-0.3278959,0.77420455,0.4243687,1.0,0.0,0.0,0.0,0.0,0.0,0.0,-2.023024,0.103870004,-0.9242627,1.8672228,-2.4932146,1.81005,-7.514307,-2.3966908,0.09518862,1.5879333
4.9810934,26.935951,5.370077,8.159084,0.14764631,-1.378823,0.039894897,-0.7605918,0.6184075,0.23525596,0.06334068,0.30694932,0.6441434,0.57865405,1.081845,-0.48919263,-1.6866764,-0.77820325,2.2952182,1.4749393,-0.9283221,1.1443163,-0.5396894,-1.7051666,-0.78449917,2.2694938,1.4153467,-0.98275423,-1.3562628,1.1275839,0.49608696,0.0041883565,0.48963377,0.48217192,0.3466291,1.3417816,-0.50836754,1.4777629,-3.1237996,-0.44969296,0.32537404,0.08766937,-0.38796234,1.0560545,0.83153737,-0.21514642,0.099121526,0.50242656,-0.30443957,0.7568597,0.39895418,1.0,0.0,0.0,0.0,0.0,0.0,0.0,-1.9917816,0.10836753,-0.9277629,1.0411978,-2.721858,-2.9847026,0.13310541,-2.9354513,-0.024032593,1.3137162
-0.6675086,18.500296,2.4063969,11.235808,0.4561202,-1.4683762,-0.15923299,-0.747392,0.5888888,0.1756435,0.08011774,0.24031244,0.6436815,0.5886322,1.0695771,-0.48080054,-1.6876023,-0.7764874,2.293525,1.4797149,-0.923891,1.1308504,-0.5286983,-1.700753,-0.7841444,2.2740142,1.4201494,-0.9791951,-1.3436317,1.089768,0.4227621,0.04546371,0.44002667,0.48010892,0.35883555,1.3105698,-0.51286125,1.4802778,-3.1206765,-0.44924337,0.22686279,0.084625244,-0.38062668,1.0598892,0.83096147,-0.2208949,0.102345675,0.5002337,-0.29590407,0.7277354,0.37415522,1.0,0.0,0.0,0.0,0.0,0.0,0.0,-1.9605697,0.112861246,-0.93027776,1.2392044,-3.7007093,-7.42625,3.9669476,-4.802984,-0.05147457,1.1562347
0.34400892,11.787716,0.27819574,7.6163583,0.21994466,-1.7785387,-0.09752293,-0.74940115,0.55852884,0.1495742,-0.002724041,0.20903848,0.6396192,0.5944506,1.0559103,-0.47284544,-1.6857955,-0.7844168,2.294918,1.4841113,-0.91975003,1.1174685,-0.5181564,-1.6971481,-0.78372097,2.2780044,1.4249331,-0.9755244,-1.3364152,1.0425223,0.33933586,0.040896554,0.38568607,0.47822016,0.3696459,1.2793884,-0.51734924,1.4818083,-3.1175563,-0.44879422,0.12845004,0.08176422,-0.3736744,1.0633789,0.8305423,-0.2262465,0.10591161,0.49778977,-0.27661714,0.68534327,0.33678696,1.0,0.0,0.0,0.0,0.0,0.0,0.0,-1.9293884,0.11734924,-0.9318083,0.7224798,-4.6503305,-8.419001,-0.60780716,-5.322713,-0.00064373016,1.017499
2.9970787,6.423333,-0.65842336,3.9058604,0.074904084,-1.9890748,0.04266548,-0.73037416,0.5047426,0.16672714,-0.043446843,0.13993847,0.64657825,0.60352725,1.0444311,-0.46768215,-1.6804754,-0.7880657,2.2919981,1.4895909,-0.9151717,1.1042181,-0.50824773,-1.6941345,-0.7836151,2.2813346,1.4297053,-0.9717517,-1.3209606,0.9739813,0.28821427,7.664769e-05,0.31594566,0.47755378,0.3795642,1.2482376,-0.5218334,1.4823554,-3.1144395,-0.4483455,0.030135669,0.07914734,-0.36721992,1.0664238,0.83021945,-0.23107614,0.10978529,0.49526426,-0.24793161,0.63344926,0.29035276,1.0,0.0,0.0,0.0,0.0,0.0,0.0,-1.8982376,0.121833414,-0.93235534,1.6079903,-6.782496,-5.207467,-4.204951,-6.900573,0.14627576,0.92386603
0.27494192,-8.582817,-4.795056,2.4691386,0.36661592,-2.308189,0.031934857,-0.7165371,0.42360058,0.112062596,-0.056298517,0.08902435,0.64792013,0.6125014,1.0325644,-0.46588767,-1.6829282,-0.78924495,2.2902372,1.4944973,-0.91050154,1.091168,-0.49928692,-1.6916797,-0.7839966,2.2839248,1.4344736,-0.9678855,-1.2992841,0.87041754,0.23087771,-0.05128475,0.24045591,0.47732997,0.3886676,1.2171173,-0.5263138,1.4819201,-3.1113257,-0.44789726,-0.06808041,0.076789856,-0.361475,1.0689167,0.83000803,-0.23525813,0.11386514,0.49272206,-0.22725992,0.5557076,0.23272847,1.0,0.0,0.0,0.0,0.0,0.0,0.0,-1.8671173,0.12631378,-0.9319201,2.2810936,-10.287738,-5.8648496,-5.2698927,-7.499859,0.192976,0.82832575
-3.470625,-29.746473,-11.069904,-0.314708,0.49778154,-2.8000157,-0.018709116,-0.6997297,0.31517917,0.037564047,-0.10856058,-0.050138466,0.6509607,0.605629,1.021195,-0.467769,-1.6879233,-0.7948526,2.2789109,1.4995697,-0.9073226,1.0783831,-0.49170378,-1.6899936,-0.7850523,2.2854812,1.4392439,-0.96394587,-1.2710024,0.72113925,0.14740269,-0.12422464,0.1272925,0.47752658,0.39536583,1.1860275,-0.5307903,1.4805033,-3.108215,-0.44744945,-0.16619828,0.07459259,-0.35677338,1.0706877,0.83000827,-0.23856904,0.11815191,0.4901135,-0.21125633,0.44183567,0.15616706,1.0,0.0,0.0,0.0,0.0,0.0,0.0,-1.8360275,0.13079032,-0.9305033,3.011942,-14.87062,-8.505985,-7.4310093,-11.316856,0.22835732,0.55948496
-6.940116,-54.78185,-17.93392,-4.49942,0.5582094,-3.2984354,0.006066555,-0.68790007,0.15407063,0.040346105,-0.19968385,-0.30018926,0.6575167,0.59226996,1.0095931,-0.47629672,-1.685959,-0.8050207,2.2554622,1.5049956,-0.9047189,1.065888,-0.48612145,-1.6889827,-0.7871351,2.2853096,1.444018,-0.95996237,-1.2414491,0.504056,0.08524175,-0.2367405,-0.0659261,0.47792813,0.39888775,1.1549683,-0.53526115,1.4781061,-3.1051075,-0.44700208,-0.26421806,0.07254791,-0.3535061,1.0715034,0.83029884,-0.24074005,0.12269733,0.4874354,-0.19817562,0.28877473,0.055070188,1.0,0.0,0.0,0.0,0.0,0.0,0.0,-1.8049682,0.13526115,-0.9281061,3.227353,-21.679783,-6.3733683,-11.357013,-19.399416,0.19530654,0.18866658
-21.068903,-124.25386,-36.910248,-10.355642,2.0319815,-4.468204,-0.053108916,-0.66631156,-0.20800886,0.021965355,-0.3066419,-0.47810808,0.66531247,0.5479874,0.9992569,-0.5069223,-1.6867862,-0.8177993,2.2374988,1.5105493,-0.90516365,1.0537287,-0.48405007,-1.6884754,-0.7906666,2.2828796,1.4487902,-0.9559903,-1.2059302,0.107986696,0.039057422,-0.39212942,-0.30305353,0.47666517,0.3956474,1.1239395,-0.53972816,1.4747295,-3.102003,-0.44655517,-0.36213985,0.07027435,-0.35260773,1.0708905,0.83104587,-0.24128687,0.12708625,0.48476025,-0.23283248,0.022842374,-0.10092427,1.0,0.0,0.0,0.0,0.0,0.0,0.0,-1.7739395,0.13972816,-0.9247295,3.9984226,-39.668995,-4.7192836,-15.607184,-23.96132,-0.21718144,-0.6178796
-26.732517,-143.42105,-39.022396,-5.7684255,3.89923,-4.1579404,0.072358325,-0.6022726,-0.48195398,0.24518387,-0.2709401,-0.5240414,0.659515,0.47191226,0.9935014,-0.53224546,-1.663957,-0.8177606,2.2304754,1.5147417,-0.9087991,1.0421492,-0.4867027,-1.6872013,-0.79530907,2.278302,1.4535242,-0.9521098,-1.140515,-0.3902053,0.15668091,-0.4880905,-0.5103908,0.47072324,0.3846174,1.0929413,-0.54418945,1.4703745,-3.0989017,-0.4461087,-0.45996374,0.06725311,-0.35448837,1.0687575,0.8321347,-0.24039088,0.1303711,0.4824597,-0.32675344,-0.25823185,-0.25102776,1.0,0.0,0.0,0.0,0.0,0.0,0.0,-1.7429413,0.14418945,-0.92037445,6.988883,-49.975292,11.729664,-9.548926,-21.005589,-1.0965705,-1.3551295
-19.962431,-131.35439,-34.716625,-8.238032,3.7012186,-3.9238172,0.2993389,-0.53137726,-0.6596347,0.2751297,-0.38944378,-0.58383614,0.6652541,0.4179663,0.98901147,-0.5526662,-1.6596882,-0.83425343,2.2199183,1.5200497,-0.9103132,1.0314585,-0.49425152,-1.684468,-0.8010845,2.2719429,1.4581877,-0.9483752,-1.0444492,-0.8771738,0.31284103,-0.6070394,-0.67903274,0.46177974,0.3690848,1.0619736,-0.5486469,1.4650419,-3.0958035,-0.44566268,-0.55768985,0.06336212,-0.35903358,1.0651371,0.8333614,-0.23825026,0.13208519,0.48093545,-0.4095856,-0.5181732,-0.39927417,1.0,0.0,0.0,0.0,0.0,0.0,0.0,-1.7119735,0.14864692,-0.91504186,9.861851,-48.91522,15.807694,-11.811531,-17.195332,-1.763463,-1.7338514
11.903981,-63.911613,-13.413916,-16.303411,1.5754974,-3.1414702,0.92188585,-0.28849614,-0.7287454,0.39930633,-0.47978497,-0.6363764,0.66635704,0.35537568,1.0026089,-0.56712604,-1.6445374,-0.84906304,2.2083051,1.5248234,-0.9128377,1.0226847,-0.5057523,-1.679776,-0.80819225,2.2641952,1.4627653,-0.94482756,-0.8226672,-1.241604,0.52288705,-0.7457177,-0.8071086,0.45371777,0.34972304,1.0310364,-0.5531006,1.4587327,-3.0927083,-0.4452171,-0.65531826,0.05934906,-0.36543465,1.0602827,0.834206,-0.23528583,0.13220164,0.48089865,-0.4018827,-0.67753416,-0.5149371,1.0,0.0,0.0,0.0,0.0,0.0,0.0,-1.6810364,0.15310058,-0.9087327,21.853615,-36.623764,21.512854,-14.001131,-12.989688,-1.6577661,-2.0008564
29.979239,-2.3332832,3.8330894,-14.498691,-0.007879455,-2.2734494,0.9646157,-0.13256805,-0.75657403,0.3699375,-0.45219082,-0.6626554,0.66691446,0.21989504,1.0094279,-0.58140975,-1.6427822,-0.8534113,2.1979296,1.5294567,-0.92283803,1.0166079,-0.51973796,-1.6735008,-0.816267,2.255471,1.4672877,-0.94155645,-0.53819215,-1.4513592,0.66459715,-0.8288873,-0.8945056,0.4499545,0.31967175,1.0001297,-0.55755043,1.451448,-3.0896163,-0.44477198,-0.75284904,0.05583954,-0.3727417,1.0546211,0.8343767,-0.23202161,0.1310818,0.4824925,-0.33614567,-0.7436397,-0.5848627,1.0,0.0,0.0,0.0,0.0,0.0,0.0,-1.6501297,0.15755042,-0.90144795,27.757322,-21.087765,14.794278,-8.59083,-8.785105,-0.9064913,-2.9787242
31.382122,29.30184,10.618033,-8.388177,-0.6551794,-1.82296,0.63259953,-0.05913787,-0.78681165,0.2642389,-0.44498193,-0.63029516,0.6592793,0.080572,1.0106941,-0.59841913,-1.6470768,-0.8607652,2.1924415,1.5332156,-0.9334993,1.0132185,-0.5349233,-1.6668212,-0.82478714,2.2462623,1.471789,-0.9386697,-0.2747141,-1.5412055,0.670882,-0.8603378,-0.93006516,0.4494671,0.2785451,0.96925354,-0.56199455,1.4431887,-3.0865273,-0.4443273,-0.8502823,0.053100586,-0.38038063,1.0484848,0.8339846,-0.22870183,0.12923828,0.4852447,-0.25553486,-0.7648823,-0.6252809,1.0,0.0,0.0,0.0,0.0,0.0,0.0,-1.6192535,0.16199455,-0.89318866,25.678003,-9.0495825,1.1759639,-3.36138,-3.5949826,-0.29674768,-4.051298
32.39877,51.54612,15.513838,-4.7962046,-1.1575937,-1.5329125,0.4500368,0.03411957,-0.79163164,0.23849161,-0.4737664,-0.61282706,0.6489804,0.007513534,1.0166305,-0.6140865,-1.6429721,-0.8721638,2.1849797,1.536687,-0.9379183,1.0122,-0.5503757,-1.6606243,-0.83349895,2.2369545,1.4762961,-0.93621874,-0.04610365,-1.5466586,0.60383165,-0.8752299,-0.93110263,0.45087302,0.23414122,0.9384079,-0.56643486,1.4339558,-3.0834415,-0.44388306,-0.9476182,0.051231384,-0.3880043,1.0420907,0.8331745,-0.22540227,0.12709548,0.48873368,-0.16309851,-0.7554489,-0.6463399,1.0,0.0,0.0,0.0,0.0,0.0,0.0,-1.5884079,0.16643485,-0.8839558,22.316036,-0.567317,-6.3388944,-1.6355395,-0.12052059,0.107085705,-4.3557734
24.80105,49.604103,12.801399,-0.7889067,-1.0232432,-1.606384,0.14100389,0.09593515,-0.8031856,0.108337626,-0.48308247,-0.56815124,0.64600134,-0.08130154,1.0217935,-0.63069427,-1.6497905,-0.8818072,2.1801393,1.5408962,-0.9443489,1.0130602,-0.5656221,-1.6558177,-0.8422804,2.2278717,1.4808165,-0.9342408,0.12880728,-1.5173359,0.4404632,-0.8792767,-0.9013383,0.45252305,0.1858455,0.9075928,-0.57086945,1.4237503,-3.0803585,-0.44343928,-1.0448567,0.050193787,-0.39558983,1.0354922,0.83219486,-0.22199182,0.1249505,0.49250257,-0.08403143,-0.75334394,-0.6668348,1.0,0.0,0.0,0.0,0.0,0.0,0.0,-1.5575927,0.17086944,-0.87375027,17.119532,2.9106617,-16.052198,-0.4429698,2.8982997,0.15659928,-4.7781525
13.873109,30.569057,4.1268353,1.402463,-0.7066785,-2.1176012,-0.22842261,0.16867484,-0.80917037,-0.17303172,-0.4778629,-0.49771056,0.64330447,-0.11529639,1.0299277,-0.64653915,-1.673121,-0.8900667,2.1781006,1.545147,-0.94577044,1.0153929,-0.5805347,-1.6538303,-0.8510227,2.2193077,1.4853445,-0.93273115,0.26704776,-1.4828081,0.11959932,-0.87240404,-0.84207296,0.45237917,0.13917477,0.87680817,-0.5753002,1.4125731,-3.0772789,-0.44299594,-1.1419979,0.04978943,-0.4034443,1.0285516,0.8314247,-0.21808441,0.12307019,0.49600977,-0.024537256,-0.79068774,-0.705838,1.0,0.0,0.0,0.0,0.0,0.0,0.0,-1.5268081,0.17530021,-0.8625731,13.537669,3.3913136,-31.655853,0.74391365,5.703926,-0.16722083,-4.7210245
7.4209433,20.860647,0.1450777,3.978368,-0.4016196,-2.22479,-0.38350895,0.24339572,-0.80985284,-0.32714954,-0.43610856,-0.5082594,0.65651834,-0.047506884,1.0397325,-0.66152,-1.6865453,-0.8946336,2.1684818,1.5509963,-0.9374818,1.0189692,-0.59516025,-1.6554077,-0.85948086,2.2112586,1.4898764,-0.9315896,0.38703993,-1.4560994,-0.24878803,-0.83650213,-0.7937194,0.45273048,0.10554552,0.8460541,-0.5797272,1.4004252,-3.074202,-0.442553,-1.2390422,0.049850464,-0.41178513,1.0211705,0.83108294,-0.21347022,0.121618554,0.4989393,0.018971793,-0.8436135,-0.7522252,1.0,0.0,0.0,0.0,0.0,0.0,0.0,-1.496054,0.17972717,-0.8504252,11.793989,2.5919437,-36.39807,3.6967516,4.573095,-0.18274188,-3.454776
1.603025,16.13853,-1.7035168,6.2059045,-0.30008668,-2.0822182,-0.40142345,0.25056896,-0.80592906,-0.4455473,-0.43906936,-0.5907005,0.66480005,0.0885102,1.044026,-0.6757532,-1.6999624,-0.9033878,2.1521885,1.5563564,-0.9227386,1.0234,-0.6095884,-1.6604908,-0.86760044,2.2033355,1.4944159,-0.93063307,0.46149778,-1.4387274,-0.5937802,-0.8032184,-0.7928753,0.45340186,0.09187542,0.8153305,-0.5841503,1.3873076,-3.0711286,-0.44211057,-1.3359894,0.050247192,-0.4206581,1.0132854,0.83122903,-0.20806453,0.12079691,0.50117403,0.051462207,-0.8971079,-0.8049248,1.0,0.0,0.0,0.0,0.0,0.0,0.0,-1.4653305,0.18415031,-0.83730763,7.3928413,1.6486168,-34.189743,3.4954548,-0.17988682,-0.1922965,-1.482445
-2.5238252,14.74952,-1.9090685,6.637563,-0.2517685,-1.8149116,-0.27325675,0.2103543,-0.8068463,-0.51651424,-0.50830775,-0.62286776,0.65268266,0.17251252,1.0444354,-0.69027305,-1.7121422,-0.9184312,2.1410487,1.5596842,-0.9133818,1.0280691,-0.62392306,-1.6684291,-0.8757839,2.195214,1.4989496,-0.9297118,0.46908218,-1.4320176,-0.86027825,-0.8225632,-0.8193489,0.45234212,0.09181539,0.78463745,-0.58856773,1.3732213,-3.068058,-0.44166854,-1.4328396,0.05092621,-0.43001175,1.0048165,0.83179986,-0.20179148,0.12069821,0.50281316,0.07671862,-0.94357806,-0.86607903,1.0,0.0,0.0,0.0,0.0,0.0,0.0,-1.4346374,0.18856773,-0.82322127,0.88433623,0.5792141,-26.536226,-1.7076135,-2.9174924,-0.41363835,-0.11960566
-0.21243906,29.471455,4.858188,8.230002,-0.17541039,-1.1030124,-0.010321811,0.20698738,-0.7978285,-0.46286947,-0.517766,-0.67110246,0.6753844,0.25587952,1.0487679,-0.7037059,-1.7147161,-0.9275605,2.1281037,1.566488,-0.90412384,1.0325762,-0.6381986,-1.6778705,-0.8842964,2.1866615,1.5034949,-0.9287057,0.44510025,-1.4262798,-0.97246253,-0.8602057,-0.86785823,0.45457342,0.10340451,0.7539749,-0.59298134,1.3581672,-3.0649908,-0.44122696,-1.5295931,0.051826477,-0.4395523,0.9958595,0.8325393,-0.19489993,0.12120471,0.504184,0.098826356,-0.9531006,-0.91161937,1.0,0.0,0.0,0.0,0.0,0.0,0.0,-1.4039749,0.19298133,-0.80816716,-2.227819,0.51300526,-11.299491,-3.590858,-5.045736,0.026166439,1.115334
-2.3934011,34.61501,7.5505223,10.303785,0.10868698,-0.6680295,0.09937741,0.16293293,-0.8006055,-0.48366496,-0.54945475,-0.68643016,0.6661262,0.30464906,1.0488695,-0.71825916,-1.726237,-0.9392419,2.1180184,1.5701075,-0.8982408,1.0365778,-0.65245414,-1.6877868,-0.89331627,2.1776206,1.5080591,-0.9275403,0.38586703,-1.4254787,-0.9987756,-0.9153097,-0.91693115,0.45645407,0.1208434,0.7233429,-0.5973892,1.3421463,-3.0619264,-0.44078583,-1.6262498,0.052864075,-0.44907188,0.98650396,0.833268,-0.1876006,0.12215521,0.5055181,0.10959715,-0.9462198,-0.94997615,1.0,0.0,0.0,0.0,0.0,0.0,0.0,-1.3733429,0.19738922,-0.79214627,-5.6902466,0.026798248,-2.8206468,-5.3261995,-5.102968,0.03938675,1.7490044
-1.8293066,42.916462,11.347187,11.566822,0.29356357,-0.26969004,0.22172682,0.12833786,-0.7928545,-0.45237008,-0.585717,-0.6864162,0.67436117,0.35255328,1.0494117,-0.7317396,-1.7330239,-0.95188797,2.108979,1.5754952,-0.892285,1.039868,-0.6666801,-1.6974323,-0.90297127,2.1681793,1.5126501,-0.9261708,0.31080067,-1.4217018,-0.95392805,-0.9818033,-0.9535107,0.45975152,0.14247556,0.6927414,-0.6017933,1.3251595,-3.058865,-0.4403451,-1.7228099,0.053977966,-0.45838356,0.97684634,0.8338421,-0.18008007,0.12337159,0.5070087,0.11514106,-0.92101306,-0.97758764,1.0,0.0,0.0,0.0,0.0,0.0,0.0,-1.3427414,0.20179328,-0.77515954,-7.2623134,0.34472942,4.194391,-6.489408,-3.8134336,0.25547147,2.2293508
-7.178053,49.27701,14.207275,16.440075,0.8232743,0.2456154,0.20556247,0.04399131,-0.7862258,-0.37630025,-0.5994028,-0.69943714,0.69156253,0.40073746,1.0442672,-0.7453027,-1.7350624,-0.96291155,2.0982356,1.5818064,-0.8860971,1.0421473,-0.68084216,-1.7061508,-0.9132223,2.1584365,1.5172907,-0.92456293,0.2013333,-1.4144131,-0.8458708,-1.038909,-0.98163897,0.46560425,0.16725194,0.6621704,-0.60619354,1.307208,-3.0558069,-0.43990487,-1.8192735,0.054992676,-0.4673195,0.96703076,0.83419216,-0.17257285,0.124690466,0.5087182,0.09994884,-0.878721,-0.9892669,1.0,0.0,0.0,0.0,0.0,0.0,0.0,-1.3121704,0.20619354,-0.75720793,-10.640088,0.70295334,10.419762,-5.5324316,-2.9702663,0.62072873,2.6025474
-11.834134,52.076412,15.698993,20.19912,1.3345697,0.5658266,0.1567616,-0.026034538,-0.7877297,-0.3021242,-0.61489904,-0.6895233,0.68679523,0.40303567,1.0395439,-0.7596151,-1.7363632,-0.9747122,2.0894842,1.5859703,-0.88425934,1.0431925,-0.6949451,-1.713515,-0.9239483,2.1485298,1.5219885,-0.92272425,0.073352695,-1.4090319,-0.7016644,-1.0831966,-0.99436116,0.47144607,0.18996538,0.63162994,-0.61059,1.2882924,-3.0527515,-0.43946505,-1.9156406,0.05570984,-0.4757805,0.95718485,0.8343134,-0.16527055,0.1259436,0.5106319,0.066575006,-0.82910824,-0.9890312,1.0,0.0,0.0,0.0,0.0,0.0,0.0,-1.2816299,0.21058998,-0.7382924,-12.456358,0.5187988,13.962126,-4.223609,-1.4073849,0.70370436,2.4553776
-14.24094,54.04663,16.833715,21.98042,1.6221818,0.75940204,0.1470657,-0.09757901,-0.7885959,-0.21070522,-0.64669704,-0.6866113,0.6901827,0.4248914,1.0334346,-0.77380466,-1.7345855,-0.988618,2.0798686,1.5910068,-0.8802351,1.0428892,-0.70901465,-1.7192581,-0.93510914,2.1385696,1.5267435,-0.9206643,-0.06377338,-1.4062889,-0.5335785,-1.1262631,-0.99701995,0.47749946,0.2120352,0.60112,-0.6149807,1.2684139,-3.0496995,-0.43902567,-2.0119112,0.05606079,-0.48371887,0.9473903,0.8342041,-0.15829259,0.12699756,0.5127558,0.023843221,-0.7752743,-0.9815493,1.0,0.0,0.0,0.0,0.0,0.0,0.0,-1.25112,0.21498069,-0.7184139,-13.352224,0.2686739,16.26972,-4.0783644,-0.35465956,0.7820606,2.4436355
-7.997184,57.09368,18.549095,19.505058,1.4332178,0.64420074,0.2139298,-0.09871286,-0.7878498,-0.15236166,-0.6588322,-0.6750209,0.6877321,0.44038972,1.033018,-0.78779966,-1.7344942,-1.0009923,2.0710676,1.5955167,-0.87662536,1.0415293,-0.723068,-1.7234027,-0.9466343,2.1286552,1.5315539,-0.9183955,-0.15920997,-1.4048591,-0.37662262,-1.1606576,-0.9894574,0.48280162,0.2327188,0.57064056,-0.6193676,1.2475734,-3.0466504,-0.43858674,-2.1080854,0.05605316,-0.49111748,0.93768895,0.8338224,-0.15170132,0.12775823,0.5151744,-0.0060204333,-0.72195727,-0.97082937,1.0,0.0,0.0,0.0,0.0,0.0,0.0,-1.2206405,0.2193676,-0.69757336,-9.262863,0.1660347,15.138287,-3.2480955,0.7674098,0.7371068,2.3359747
-1.9000962,55.967857,18.175978,15.91516,1.0667224,0.33065653,0.24082904,-0.103036284,-0.7876668,-0.14067051,-0.6761172,-0.6770802,0.6851051,0.4495834,1.0312257,-0.8018347,-1.7374698,-1.014246,2.0609472,1.6000644,-0.87343717,1.0395437,-0.7371137,-1.7263458,-0.95847225,2.118821,1.5364062,-0.91593695,-0.21089438,-1.4043442,-0.26859355,-1.1908584,-0.98086923,0.48673397,0.25102603,0.54019165,-0.6237507,1.2257719,-3.0436044,-0.43814823,-2.2041636,0.055900574,-0.4980545,0.92804426,0.8331562,-0.1454299,0.12824146,0.5179334,-0.018467864,-0.67775214,-0.9660726,1.0,0.0,0.0,0.0,0.0,0.0,0.0,-1.1901916,0.22375068,-0.6757719,-4.9620447,0.08804798,10.298002,-2.8512955,0.9066701,0.5703628,2.0808606
10.023237,48.168,14.701776,7.745534,0.23605928,-0.50514674,0.28394902,-0.024676861,-0.79231477,-0.25505164,-0.68886256,-0.6674206,0.6700857,0.45682216,1.0370761,-0.8163452,-1.751851,-1.0273585,2.0520787,1.6034148,-0.87025476,1.0376784,-0.75118136,-1.7291534,-0.9705782,2.1090934,1.5412737,-0.91331625,-0.17807847,-1.4073942,-0.28578842,-1.216699,-0.96996367,0.48682734,0.26619253,0.50977325,-0.62812805,1.2030103,-3.0405614,-0.43771017,-2.3001456,0.055892944,-0.50476456,0.91826224,0.8322288,-0.13918054,0.1285758,0.52104914,0.005092375,-0.6606985,-0.9853555,1.0,0.0,0.0,0.0,0.0,0.0,0.0,-1.1597732,0.22812805,-0.6530103,3.3421545,-0.27797222,-2.0026803,-2.4579048,1.1132121,0.030869246,1.6756237
24.431692,44.95651,13.457622,-0.2612052,-0.6285341,-1.1809772,0.38233215,0.07741666,-0.7945637,-0.33319035,-0.69119513,-0.6669466,0.67355585,0.4616371,1.04542,-0.83063775,-1.7624724,-1.0396976,2.0423987,1.6086293,-0.8671525,1.0367781,-0.765291,-1.732806,-0.9828739,2.0994575,1.5461355,-0.9105649,-0.060979635,-1.412076,-0.39227676,-1.2337056,-0.9609818,0.48554182,0.27848324,0.47938538,-0.6325016,1.1792897,-3.0375214,-0.43727255,-2.3960316,0.056404114,-0.5114212,0.90815204,0.83101237,-0.13268332,0.12889382,0.5245949,0.06704465,-0.66039014,-1.0226253,1.0,0.0,0.0,0.0,0.0,0.0,0.0,-1.1293854,0.2325016,-0.6292897,11.628378,-0.43714046,-10.771984,-1.6403437,0.9347081,-0.22097826,1.3219595
19.023403,38.430202,10.178537,1.6435361,-0.41672546,-1.2782514,0.22576687,0.07138269,-0.8007595,-0.40127873,-0.6704607,-0.66910446,0.6791169,0.45750168,1.0439163,-0.84536695,-1.7729338,-1.04992,2.032547,1.6140473,-0.86481476,1.0369898,-0.77947307,-1.7378738,-0.9951706,2.0898826,1.550984,-0.90771246,0.048377495,-1.4201393,-0.5452459,-1.2279092,-0.9565419,0.48400295,0.28766504,0.44902802,-0.63687134,1.1546109,-3.0344846,-0.43683535,-2.4918218,0.05744171,-0.5181656,0.89760995,0.82959753,-0.12578598,0.12929098,0.52842176,0.117962256,-0.67194927,-1.067942,1.0,0.0,0.0,0.0,0.0,0.0,0.0,-1.099028,0.23687133,-0.60461086,10.877998,-0.80280304,-15.33919,0.68633556,0.41246414,-0.30637383,0.9741545
3.05435,34.92911,7.5038285,8.580245,0.25117433,-0.91877854,-0.0081579015,0.012700477,-0.79189146,-0.4562815,-0.66914576,-0.68029374,0.6882163,0.46762508,1.0382599,-0.8586622,-1.783502,-1.0620852,2.0218532,1.6198057,-0.86094993,1.0377737,-0.79368377,-1.7445076,-1.007349,2.0802925,1.555823,-0.9047761,0.088483624,-1.4215683,-0.70285743,-1.2137568,-0.96031076,0.483404,0.29572713,0.41870117,-0.64123726,1.1289749,-3.0314507,-0.4363986,-2.5875163,0.058746338,-0.52503586,0.8866245,0.8281565,-0.118427604,0.12988117,0.53222406,0.1343073,-0.6837951,-1.1123325,1.0,0.0,0.0,0.0,0.0,0.0,0.0,-1.0687011,0.24123725,-0.5789749,4.073581,-0.17681122,-15.788364,1.6111612,-0.52529573,-0.2182126,0.83551407
-10.074062,34.117653,6.696126,13.685406,0.8691646,-0.44828236,-0.1066871,-0.041900117,-0.7951795,-0.4663098,-0.7039417,-0.665457,0.6672931,0.4582136,1.0335838,-0.8732017,-1.7911385,-1.0777432,2.0137467,1.6225523,-0.8589547,1.0384165,-0.8079078,-1.7523944,-1.0195446,2.0706947,1.5606428,-0.90177584,0.056695312,-1.4228125,-0.8176284,-1.220575,-0.96068287,0.4809147,0.30155435,0.38840485,-0.64559746,1.1023827,-3.0284197,-0.4359623,-2.683115,0.059951782,-0.531971,0.87522024,0.82678986,-0.11061634,0.13064492,0.53583056,0.120335355,-0.689007,-1.1538067,1.0,0.0,0.0,0.0,0.0,0.0,0.0,-1.0384048,0.24559745,-0.55238265,-3.000678,-0.1875639,-11.548317,-0.41136742,-0.26931763,-0.40675998,0.6246269
-28.29001,41.0255,9.491241,23.81864,1.9682242,0.522143,-0.25784004,-0.15685412,-0.791229,-0.3860985,-0.6846977,-0.67802924,0.68715733,0.48656064,1.0227311,-0.8870307,-1.7910043,-1.0880144,2.0028918,1.6293585,-0.8531198,1.038056,-0.8221185,-1.7606456,-1.0317478,2.0610511,1.5654589,-0.89870214,-0.0658524,-1.4207817,-0.8282687,-1.2190702,-0.9663019,0.4818812,0.30956432,0.35813904,-0.64995384,1.0748352,-3.025392,-0.4355264,-2.7786183,0.060699463,-0.5387974,0.8636031,0.8255689,-0.10262269,0.1314723,0.53909135,0.058237337,-0.6720045,-1.1685588,1.0,0.0,0.0,0.0,0.0,0.0,0.0,-1.008139,0.24995384,-0.52483517,-11.96516,0.12075901,-1.2173533,0.46441555,-0.85936785,0.07118583,0.8940995
-33.237373,38.143562,7.8830996,24.245714,2.1363716,0.59222007,-0.2772274,-0.19965701,-0.79701364,-0.45973068,-0.7207216,-0.66068745,0.66047627,0.46633518,1.0180904,-0.9018199,-1.8066187,-1.10382,1.9949824,1.6315066,-0.8520686,1.0363089,-0.836334,-1.7690208,-1.0440979,2.0514038,1.5702654,-0.8955703,-0.20985888,-1.422141,-0.8410024,-1.2388958,-0.965288,0.47987792,0.31479907,0.32790375,-0.6543064,1.0463334,-3.0223672,-0.43509096,-2.874026,0.06072998,-0.5454788,0.8517921,0.8245379,-0.094465695,0.13229078,0.5419525,-0.013062091,-0.65841347,-1.1893092,1.0,0.0,0.0,0.0,0.0,0.0,0.0,-0.9779037,0.2543064,-0.49633342,-14.075878,-0.24228096,-1.4204144,-1.6101122,-0.24855137,-0.28318763,0.62717795
-32.262146,37.501022,7.5467634,22.712643,2.043734,0.5600954,-0.23370868,-0.24381,-0.79935545,-0.49477494,-0.7380539,-0.65704495,0.64878625,0.48437995,1.0119278,-0.91626954,-1.8184983,-1.1179032,1.9856993,1.635144,-0.84713227,1.0331789,-0.85057807,-1.7775905,-1.0567226,2.0417907,1.5750414,-0.89237833,-0.34644097,-1.4254962,-0.8628336,-1.2690848,-0.9615805,0.4763286,0.3209602,0.29769897,-0.65865326,1.0168782,-3.0193455,-0.43465596,-2.9693382,0.06008911,-0.5520325,0.8397344,0.82368594,-0.0860711,0.1330626,0.54445165,-0.08096763,-0.6461983,-1.2152385,1.0,0.0,0.0,0.0,0.0,0.0,0.0,-0.94769895,0.25865325,-0.46687824,-13.342971,-0.44822693,-2.325201,-2.6262522,0.0156641,-0.4817605,0.7309139
-33.41896,37.199898,6.855955,22.456182,1.9912131,0.5525903,-0.25690216,-0.31486788,-0.793554,-0.5384939,-0.7440336,-0.67264485,0.64284146,0.48477903,1.0016922,-0.9299335,-1.8314399,-1.131126,1.9745263,1.6393256,-0.84390044,1.0287119,-0.8648279,-1.7865493,-1.0696392,2.0321624,1.5797755,-0.88913107,-0.47894317,-1.4251819,-0.9073053,-1.2976532,-0.96427906,0.4719207,0.32626444,0.26752472,-0.6629963,0.9864707,-3.016327,-0.4342214,-3.0645554,0.058776855,-0.55848694,0.82738703,0.8230243,-0.077363834,0.13383067,0.5465667,-0.1488363,-0.6354246,-1.2450111,1.0,0.0,0.0,0.0,0.0,0.0,0.0,-0.9175247,0.2629963,-0.4364707,-12.939334,-0.093364716,-4.5552135,-2.4424076,-0.65259933,-0.6085634,0.63369274
-41.925816,29.85446,2.2458172,23.829952,2.222657,0.48245895,-0.3788963,-0.4181844,-0.79835737,-0.63431644,-0.7593346,-0.6676384,0.6255767,0.47908112,0.9868935,-0.9446636,-1.849981,-1.1455727,1.9653986,1.6423331,-0.84122294,1.022803,-0.879092,-1.7963455,-1.0828362,2.0225112,1.5844504,-0.8858428,-0.62722707,-1.4274521,-1.0038023,-1.3251792,-0.9672423,0.4649269,0.32991278,0.23738098,-0.6673355,0.9551117,-3.0133111,-0.43378726,-3.1596773,0.056671143,-0.5649204,0.8146308,0.82264966,-0.06815754,0.13464923,0.54815286,-0.2316278,-0.63677716,-1.2895981,1.0,0.0,0.0,0.0,0.0,0.0,0.0,-0.88738096,0.2673355,-0.40511167,-14.478421,-0.4099846,-9.652889,-2.238965,-0.81033707,-0.99717975,0.44003725
-47.2796,28.073372,0.73934793,25.185425,2.4943204,0.58351445,-0.43938005,-0.5069356,-0.8009529,-0.6781755,-0.76571304,-0.6443189,0.5992581,0.4752416,0.9721094,-0.95918727,-1.864163,-1.1594075,1.9580793,1.6443762,-0.83831865,1.0153452,-0.8933914,-1.8072078,-1.0962582,2.0128982,1.5890356,-0.8825259,-0.7840068,-1.4315568,-1.1134824,-1.3458569,-0.96121216,0.45515996,0.33254793,0.20726776,-0.6716709,0.92280215,-3.0102983,-0.43335357,-3.254704,0.05365753,-0.57138824,0.8014022,0.8226332,-0.058348916,0.1354844,0.5491027,-0.32729045,-0.64052075,-1.3376958,1.0,0.0,0.0,0.0,0.0,0.0,0.0,-0.85726774,0.2716709,-0.37280214,-15.310467,-0.6343126,-10.911226,-1.491952,0.011742115,-1.3494372,0.34809113
-52.87128,27.55755,-0.069975376,27.066788,2.8444266,0.77778894,-0.51565754,-0.60199785,-0.807113,-0.72569925,-0.76167864,-0.62008584,0.59373754,0.42835826,0.9551454,-0.9741027,-1.8797778,-1.172426,1.9508896,1.6484094,-0.8396901,1.0062548,-0.9077594,-1.8191669,-1.1097908,2.0034225,1.5935236,-0.8792205,-0.94959676,-1.4394435,-1.2230141,-1.3535753,-0.94552094,0.44504943,0.33022693,0.17718506,-0.6760006,0.88954306,-3.0072887,-0.4329203,-3.3496356,0.049568176,-0.57790184,0.7876982,0.82302964,-0.047941066,0.13623522,0.5493304,-0.43819296,-0.6437447,-1.3852559,1.0,0.0,0.0,0.0,0.0,0.0,0.0,-0.82718503,0.2760006,-0.33954304,-16.178131,-1.0553122,-10.843062,-0.13360977,0.90966225,-1.4481127,-0.12293458
-54.11878,34.065876,2.5758438,28.661745,3.0343542,1.1039286,-0.55025613,-0.6844639,-0.79742736,-0.75293,-0.74248976,-0.6066833,0.62305284,0.39048496,0.9378084,-0.98750216,-1.8944598,-1.1840398,1.9427541,1.655829,-0.840172,0.99552596,-0.9221523,-1.8320663,-1.1232529,1.9941337,1.597941,-0.8759675,-1.1127545,-1.4401553,-1.3120234,-1.3415146,-0.92552596,0.4392368,0.32404193,0.14713287,-0.68032646,0.85533535,-3.004282,-0.43248746,-3.4444723,0.044319153,-0.58436966,0.77361655,0.8238542,-0.037064318,0.13682912,0.54878795,-0.5555693,-0.6360761,-1.4199345,1.0,0.0,0.0,0.0,0.0,0.0,0.0,-0.79713285,0.28032646,-0.30533534,-15.958405,-0.34880638,-8.769441,1.8352985,1.34058,-1.0096848,-0.48416853
-50.264297,42.62521,6.6435595,28.74731,2.9896166,1.3522624,-0.5483842,-0.74320555,-0.7876004,-0.7774752,-0.7111433,-0.60496855,0.6443797,0.32027718,0.9212054,-1.0009123,-1.9098138,-1.1943672,1.9336369,1.662379,-0.8439398,0.98331606,-0.93648696,-1.8456848,-1.1364193,1.9850242,1.6023299,-0.87282705,-1.256053,-1.4321312,-1.3779896,-1.3066394,-0.9079881,0.43745437,0.31121078,0.117111206,-0.6846485,0.82018,-3.0012782,-0.43205506,-3.5392144,0.037956238,-0.59067535,0.7593062,0.8250845,-0.025911743,0.13723539,0.5474764,-0.66770655,-0.6160923,-1.4389287,1.0,0.0,0.0,0.0,0.0,0.0,0.0,-0.7671112,0.2846485,-0.27018,-14.029765,0.5441904,-6.4661264,4.051876,1.1647701,-0.55502653,-1.1351466
-40.480595,49.74269,10.937963,25.936409,2.67959,1.4165611,-0.4737144,-0.7758087,-0.7859648,-0.7922437,-0.68975645,-0.5874681,0.6354685,0.19609192,0.9057352,-1.0150834,-1.9249091,-1.205395,1.9262774,1.6658767,-0.85321784,0.9699465,-0.9507253,-1.8597858,-1.1491623,1.9761112,1.6067053,-0.8699012,-1.3631495,-1.4217491,-1.4206108,-1.261846,-0.8874037,0.436468,0.28691557,0.087120056,-0.68896484,0.78407794,-2.9982777,-0.4316231,-3.6338615,0.03060913,-0.5967159,0.7448848,0.8266524,-0.014655353,0.13739905,0.5454837,-0.76147246,-0.58648753,-1.4472976,0.0,1.0,0.0,0.0,0.0,0.0,0.0,-0.73712003,0.28896484,-0.23407793,-10.486174,0.8270025,-4.165697,4.9461365,1.5972495,-0.40686727,-2.2673965
-29.030651,53.091312,14.262525,21.685263,2.3982613,1.3596337,-0.37481236,-0.7964864,-0.79822284,-0.78963953,-0.6761565,-0.5146959,0.6037618,-0.0022404005,0.8902979,-1.0305476,-1.9387498,-1.2167779,1.9246416,1.6670815,-0.87012523,0.95562786,-0.9648217,-1.874882,-1.1620119,1.9686707,1.6090482,-0.867917,-1.4524823,-1.4071183,-1.5337656,-1.2875998,-0.715608,0.16348562,0.18641463,0.067611694,-0.68981934,0.7747429,-1.7703946,0.047572855,-0.18574531,0.022483826,-0.60289955,0.73016393,0.8287954,-0.002106393,0.13663144,0.5426099,-0.8310423,-0.61203176,-1.484079,0.0,1.0,0.0,0.0,0.0,0.0,0.0,-0.7176117,0.28981933,-0.22474289,-6.4359426,-0.15044212,-1.4647722,5.1054,3.5416365,-1.5592277,-3.6508262
10.201565,176.0,110.0,110.0,6.6084394,11.091451,-2.034519,-0.7691967,0.5326184,0.7267144,0.6766572,-0.43154797,0.63797426,-0.36370423,0.8787082,-0.9115599,-1.8022106,-1.0943462,1.9255159,1.6728457,-0.9042874,0.94430965,-0.98138416,-1.8810694,-1.1612909,1.9518632,1.6173986,-0.8651895,-1.0185878,-1.6762149,-0.4185858,0.50565106,-1.9042484,1.1164967,0.32379568,0.04991913,-0.6893425,0.7721504,-1.7686245,0.047525294,-0.28374556,0.013031006,-0.6071148,0.71966994,0.83116,0.0012678528,0.1387222,0.53844905,-0.9856444,-0.34266347,-0.90922713,1.0,0.0,0.0,0.0,0.0,0.0,0.0,-0.6999191,0.2893425,-0.22215039,45.299126,-7.973647,80.09816,173.42944,-89.39276,112.56606,20.43592
-61.691452,140.51122,55.665386,89.64018,9.191844,4.042876,-2.4519894,-0.78103393,-0.7067011,-0.25358373,0.69039476,-0.35174084,0.6048694,-0.46177483,0.8662063,-1.0520543,-1.9064277,-1.0922514,1.916689,1.6778855,-0.911367,0.9342465,-0.9977721,-1.8824503,-1.1495931,1.9332932,1.6288236,-0.8624601,-1.0006849,-1.6271778,-0.04291159,1.393184,-1.843812,1.154709,0.25873882,0.03224182,-0.68886757,0.7685786,-1.7668563,0.047477778,-0.38164783,0.0014648438,-0.61032295,0.7131147,0.83485866,-0.0014294768,0.14178582,0.53188884,-1.2128192,-0.30360624,-0.5751598,1.0,0.0,0.0,0.0,0.0,0.0,0.0,-0.6822418,0.28886756,-0.21857858,2.2783756,4.6364784,38.147266,89.38826,5.2960634,4.870224,-5.6614637
-62.31591,135.2147,40.886948,65.428375,6.405499,2.3699074,-1.8243722,-0.7708768,-0.5251775,-0.3548776,0.68989235,-0.4579931,0.5736325,-0.13541013,0.8571588,-1.0502899,-1.9179381,-1.0806038,1.887494,1.6861869,-0.8760011,0.9236235,-1.0121764,-1.8829157,-1.1325853,1.9169854,1.6399473,-0.86024374,-1.0811542,-1.3792429,-0.04751027,1.8053248,-1.5616989,1.0999659,0.21007027,0.014587402,-0.68839455,0.7640205,-1.7650899,0.04743031,-0.48051742,-0.011878967,-0.6131058,0.7089656,0.8399453,-0.005896495,0.14489818,0.5229355,-1.3747368,-0.2619121,-0.36797234,1.0,0.0,0.0,0.0,0.0,0.0,0.0,-0.6645874,0.28839454,-0.21402049,-7.528472,24.437927,-0.3923975,41.84189,27.652216,-4.9872875,-4.642969
-43.056404,104.18616,29.9447,37.768555,4.01764,1.4944663,-0.8807943,-0.74651253,-0.62586397,-0.08056508,0.76680446,-0.5391742,0.59796053,-0.16249268,0.84897226,-1.0747628,-1.8909723,-1.0559049,1.863068,1.6997434,-0.876493,0.9119677,-1.0246161,-1.883404,-1.1139925,1.9036263,1.6501993,-0.8585395,-1.1928576,-1.199932,-0.04932927,1.8784728,-1.2624062,1.0006133,0.15764067,-0.0030517578,-0.6879215,0.75847447,-1.7633251,0.04738289,-0.5792881,-0.026313782,-0.6154442,0.70609283,0.8458206,-0.010578906,0.14765674,0.51251644,-1.4675883,-0.21451844,-0.26738587,0.0,1.0,0.0,0.0,0.0,0.0,0.0,-0.6469482,0.28792152,-0.20847446,-10.905004,17.617178,-0.1588516,7.6570272,29.399824,-9.8453045,-5.1478386
-24.529678,65.462036,15.047257,14.429364,1.7310942,0.44944817,-0.21923399,-0.74550784,-0.64877677,-0.16354367,0.72624564,-0.49072915,0.61844146,-0.28373817,0.8374169,-1.0894938,-1.8997583,-1.0413679,1.8545535,1.7120434,-0.88691336,0.8993353,-1.0358847,-1.8845446,-1.0962636,1.8929414,1.6594995,-0.8573999,-1.2865223,-1.10302,-0.13592535,1.738099,-1.0046924,0.9064624,0.09931691,-0.02066803,-0.6874485,0.7519415,-1.7615621,0.047335517,-0.67796016,-0.041244507,-0.61743927,0.7033779,0.8519856,-0.014507133,0.1497788,0.5014743,-1.5018407,-0.18438321,-0.2791294,0.0,1.0,0.0,0.0,0.0,0.0,0.0,-0.62933195,0.2874485,-0.20194149,-9.319377,9.512472,-8.724098,-13.927054,25.482346,-9.432864,-5.8454695
-2.8058786,66.423645,19.382376,4.620613,0.48052382,0.43793657,0.18174626,-0.7381987,-0.59566534,-0.039011043,0.7415799,-0.51026773,0.6273591,-0.2874295,0.82551545,-1.0954512,-1.8884457,-1.0221057,1.8419145,1.7222354,-0.88614285,0.88606495,-1.0464514,-1.8859484,-1.0802896,1.8841466,1.6679567,-0.8567943,-1.3408825,-1.041627,-0.14115308,1.5502,-0.83940023,0.82566917,0.047464285,-0.038269043,-0.6869755,0.74442255,-1.7598009,0.04728819,-0.7765335,-0.056144714,-0.61904716,0.70050716,0.85807735,-0.017641626,0.15129934,0.49040854,-1.4853002,-0.14093155,-0.29481986,0.0,1.0,0.0,0.0,0.0,0.0,0.0,-0.61173093,0.28697547,-0.19442254,-5.5304527,5.965781,-0.31467676,-18.843842,16.039455,-8.074689,-5.2347636
10.796425,59.16316,18.747303,-0.62227535,-0.13658947,0.13075686,0.3353107,-0.71348447,-0.60219234,-0.044405825,0.7314516,-0.49410886,0.6324092,-0.2868174,0.8147165,-1.1066707,-1.890389,-1.0071445,1.8347356,1.7311976,-0.88547605,0.87260896,-1.0567236,-1.8874227,-1.0661333,1.8763885,1.6751779,-0.8563586,-1.347795,-1.0225306,-0.15028463,1.3695034,-0.75536275,0.6843089,0.042693876,-0.057250977,-0.6848526,0.74251896,-1.9399283,0.2785648,0.06054877,-0.07060242,-0.62038994,0.697318,0.86386144,-0.019770196,0.15233774,0.47973496,-1.4355979,-0.12121915,-0.33153865,0.0,1.0,0.0,0.0,0.0,0.0,0.0,-0.592749,0.2848526,-0.19251895,-0.6583452,1.5334368,1.7482579,-16.516281,9.026909,-6.5636635,-4.4978933
3.4781332,123.22162,38.521732,15.304572,-0.021079361,0.9639953,-0.04008933,-0.77659005,-0.22057116,-0.1662093,0.7758481,-0.50879526,0.6032735,-0.2422544,0.79494995,-1.0787807,-1.9040436,-0.98854846,1.8255091,1.7355053,-0.880584,0.8589676,-1.0652227,-1.8893148,-1.0530012,1.8691235,1.6815923,-0.85618216,-1.3701241,-0.79343635,-0.20048942,1.2938174,-0.71915746,0.6274718,0.008319989,-0.07663727,-0.6820679,0.74237955,-1.9379888,0.2782863,-0.03876292,-0.08454132,-0.62108994,0.6946471,0.8694128,-0.021359466,0.15395662,0.46900162,-1.3796378,-0.041905917,-0.2491366,0.0,1.0,0.0,0.0,0.0,0.0,0.0,-0.5733627,0.28206787,-0.19237953,-2.376318,22.618652,-4.564661,-7.7109337,2.9481292,-5.5623055,-3.7197788
-4.7571516,129.84389,37.758797,21.767786,0.19063511,0.8393563,-0.27146322,-0.7768487,-0.14209326,-0.3198153,0.7898931,-0.5160513,0.58803135,-0.19264823,0.7812827,-1.079432,-1.9212964,-0.97401184,1.8175184,1.7403954,-0.875447,0.84515077,-1.0711412,-1.8924104,-1.0400827,1.8619843,1.6875509,-0.8562966,-1.3858875,-0.5258199,-0.3443101,1.2909505,-0.71425486,0.58552307,-0.019098448,-0.09600067,-0.67928696,0.7412478,-1.9360511,0.27800807,-0.13797534,-0.09799957,-0.62104225,0.6928736,0.87484366,-0.022511085,0.1569064,0.45773587,-1.333843,0.03035602,-0.15599585,0.0,1.0,0.0,0.0,0.0,0.0,0.0,-0.5539993,0.27928695,-0.19124776,-1.6964912,26.449894,-13.935346,-0.38657188,-0.122630596,-4.162431,-3.0630186
-14.851456,117.65936,30.28323,24.32755,0.32435086,0.5161558,-0.36984113,-0.79474896,-0.066422686,-0.4916972,0.78660244,-0.53632975,0.57530546,-0.08211779,0.7656759,-1.0777835,-1.94158,-0.96142244,1.8083513,1.7450814,-0.8645084,0.83114225,-1.0744963,-1.8976442,-1.0269372,1.8547344,1.6931604,-0.8565751,-1.4060091,-0.2729553,-0.58155805,1.3222079,-0.73027426,0.5522867,-0.031907577,-0.115348816,-0.67650986,0.73912466,-1.9341154,0.27773014,-0.23708856,-0.11113739,-0.620409,0.691833,0.8802108,-0.022898214,0.16147882,0.44567826,-1.3061565,0.0847779,-0.08831847,0.0,1.0,0.0,0.0,0.0,0.0,0.0,-0.53465116,0.27650985,-0.18912464,-2.0978928,24.976604,-23.342943,3.060007,-2.1216393,-3.4220219,-1.6130891
-16.91689,93.89,21.750174,21.703562,0.41829875,0.18246955,-0.29686922,-0.79154277,-0.049472466,-0.5714527,0.7926796,-0.55901915,0.5873937,-0.0064316574,0.751988,-1.0794436,-1.9547894,-0.94766927,1.7988325,1.7518998,-0.85721827,0.8169926,-1.0759134,-1.9053766,-1.0134217,1.8474118,1.6984037,-0.8569206,-1.418317,-0.09846671,-0.8405378,1.3591121,-0.7225591,0.50888896,-0.03821348,-0.13372803,-0.67321587,0.7378975,-1.742527,0.3812063,0.04208151,-0.12413788,-0.61940575,0.6911559,0.88551784,-0.022256037,0.1674244,0.43281853,-1.297458,0.11314186,-0.062405214,0.0,1.0,0.0,0.0,0.0,0.0,0.0,-0.51627195,0.27321586,-0.1878975,-1.2692451,17.13296,-24.91461,3.6999464,-3.228271,-3.6058784,0.26722178
-19.203358,74.0291,15.778945,19.262846,0.7685279,0.11522639,-0.22694337,-0.8133086,-0.034770694,-0.6163132,0.7857096,-0.52974325,0.5831141,-0.049264,0.73566175,-1.0793905,-1.9670079,-0.9348507,1.7944374,1.7567152,-0.861847,0.80267125,-1.07619,-1.9153029,-0.9996143,1.8401436,1.7032937,-0.8573076,-1.4368403,-0.004976171,-1.0422015,1.3879162,-0.72969097,0.48151338,-0.039647497,-0.15097809,-0.66921806,0.7383457,-1.7194748,0.4056364,0.044368,-0.13716125,-0.6181812,0.6905278,0.8907398,-0.02057186,0.17425193,0.41927978,-1.3037572,0.13523237,-0.06294403,0.0,1.0,0.0,0.0,0.0,0.0,0.0,-0.4990219,0.26921806,-0.18834567,-1.8897295,9.105541,-19.81728,2.8384209,-1.1161923,-3.00228,-0.3894657
-16.837915,67.45488,14.939405,17.141436,0.8997638,0.22026634,-0.12055683,-0.82224065,0.0037835245,-0.65997547,0.7833994,-0.53150403,0.59812176,-0.041445177,0.7204472,-1.0758116,-1.9813005,-0.92127436,1.7869931,1.7631059,-0.8614521,0.7881592,-1.07586,-1.9267893,-0.9856259,1.8328121,1.707961,-0.8576941,-1.4562023,0.044878144,-1.1826962,1.4022574,-0.73594576,0.46084738,-0.03906069,-0.16799927,-0.66498375,0.7387684,-1.6966358,0.4292055,0.040670104,-0.15027618,-0.61673164,0.6898372,0.89579237,-0.018044377,0.18166727,0.40524986,-1.3127582,0.15869181,-0.07046797,0.0,1.0,0.0,0.0,0.0,0.0,0.0,-0.4820007,0.26498374,-0.18876839,-1.9956589,4.7541466,-13.617063,1.377368,-1.0708451,-2.3637116,-0.1663059
-12.072436,57.63582,13.48009,13.698977,0.98113596,0.24936616,-0.014298119,-0.8211234,-0.021814873,-0.67295986,0.77706975,-0.51925105,0.61297244,-0.10187679,0.7060468,-1.0780416,-1.9940853,-0.90791893,1.780887,1.7692583,-0.8678818,0.7735031,-1.075448,-1.9391623,-0.9715993,1.8254387,1.7124759,-0.8581137,-1.4689767,0.0391804,-1.2537867,1.4026991,-0.7391482,0.44746557,-0.04354205,-0.18480682,-0.6605377,0.739054,-1.675093,0.44969156,0.024075702,-0.16348267,-0.61507034,0.6889773,0.90061945,-0.014893614,0.1892985,0.39093313,-1.3225628,0.17986482,-0.090108275,0.0,1.0,0.0,0.0,0.0,0.0,0.0,-0.46519315,0.2605377,-0.18905401,-1.3513565,-0.76025724,-6.6408873,-0.0049829483,-0.7597327,-1.621896,-0.62791634
-4.458123,68.94505,18.799797,13.140303,0.9835201,0.46745726,0.058828,-0.8128534,0.030586323,-0.6715832,0.7833386,-0.5263136,0.6343127,-0.09832407,0.69221777,-1.0723894,-2.0063205,-0.8932654,1.7728074,1.7759072,-0.8679461,0.75880414,-1.0750074,-1.951827,-0.9575936,1.8180386,1.7168896,-0.8585762,-1.4707128,0.044862323,-1.2685724,1.3994687,-0.7423921,0.4382885,-0.047785264,-0.20129395,-0.65584373,0.7393635,-1.6406945,0.47579503,0.032626048,-0.17668915,-0.6131191,0.688082,0.9051553,-0.011397907,0.19701216,0.3764973,-1.3169523,0.21102285,-0.088126704,0.0,1.0,0.0,0.0,0.0,0.0,0.0,-0.44870603,0.25584373,-0.18936348,-0.32703876,0.358288,-0.83327293,-0.4573822,-0.9158969,-1.2380838,-0.6159775
-4.914772,51.610382,13.472996,10.371089,1.0492404,0.29954475,0.110034354,-0.82000816,-0.05877028,-0.6841403,0.7785134,-0.52634865,0.63352644,-0.09679002,0.67680335,-1.0808845,-2.020241,-0.87974226,1.7654037,1.7802422,-0.8682552,0.74409467,-1.0749483,-1.964465,-0.94364506,1.8106036,1.7212416,-0.859074,-1.4713286,-0.0076248418,-1.2603748,1.3932133,-0.7452881,0.4331918,-0.050886407,-0.21752167,-0.6509514,0.7395147,-1.6165378,0.49363497,0.009728647,-0.18990326,-0.6109371,0.68700737,0.9093991,-0.0076412996,0.20456895,0.36205852,-1.3220359,0.23152691,-0.11253496,0.0,1.0,0.0,0.0,0.0,0.0,0.0,-0.4324783,0.25095138,-0.1895147,-0.16338825,-5.39598,1.3394833,-0.67636967,-0.7392645,-0.76426864,-0.4391685
-1.7516742,53.853138,14.292743,9.606863,0.9269859,0.29636228,0.17549814,-0.8106341,-0.049922664,-0.69470626,0.77567035,-0.5450476,0.6371192,-0.0043853885,0.6630313,-1.0799406,-2.0339355,-0.866078,1.7560989,1.7849535,-0.8595125,0.72943306,-1.0753813,-1.9769942,-0.9297672,1.8030938,1.7255577,-0.85953,-1.4647487,-0.055554986,-1.2484789,1.3856388,-0.75439465,0.43012607,-0.044318818,-0.23347473,-0.64588356,0.7394593,-1.5878342,0.5110977,-0.010142177,-0.203125,-0.6085434,0.6857047,0.9133293,-0.0036422543,0.21192074,0.34771514,-1.3195286,0.252535,-0.13483432,0.0,1.0,0.0,0.0,0.0,0.0,0.0,-0.41652524,0.24588355,-0.18945926,0.5391121,-4.9378304,1.7350197,-0.8312464,-1.3833046,-0.5505979,0.51952374
-3.3720279,39.752865,9.562023,7.672443,0.9185162,0.11073685,0.21665527,-0.8109922,-0.13503106,-0.69470876,0.7731805,-0.5430432,0.62429035,0.052632645,0.64833385,-1.0888844,-2.046465,-0.8524491,1.7487894,1.7879868,-0.8542667,0.71484184,-1.0765905,-1.9894089,-0.91595495,1.7954959,1.7298511,-0.8598733,-1.4574403,-0.1429453,-1.2379562,1.3797654,-0.7625605,0.42823,-0.031235537,-0.24921417,-0.6407051,0.7389958,-1.5695195,0.5215281,-0.057074577,-0.21640015,-0.60601234,0.6840101,0.9169593,0.0006481105,0.21894081,0.33354184,-1.3272254,0.26425475,-0.17987423,0.0,1.0,0.0,0.0,0.0,0.0,0.0,-0.4007858,0.2407051,-0.18899578,0.6692648,-8.8401,1.4597178,-0.5769253,-1.1499524,-0.41864514,1.2286756
-5.939463,31.044975,6.3482375,7.011765,0.9199095,0.007839501,0.2397167,-0.812178,-0.19866319,-0.69744086,0.77690214,-0.5569165,0.6148619,0.14002924,0.633624,-1.0964569,-2.0591528,-0.8382647,1.7398043,1.7913374,-0.8458704,0.70030785,-1.0788412,-2.0017605,-0.90215915,1.7877854,1.734128,-0.86002374,-1.4520847,-0.25272188,-1.2332834,1.3797203,-0.7748671,0.42677137,-0.009731291,-0.26483154,-0.63544846,0.7379451,-1.5587817,0.527813,-0.121390335,-0.22981262,-0.60339737,0.6817591,0.92031544,0.0053037005,0.22552897,0.31957474,-1.3433748,0.271526,-0.23931618,0.0,1.0,0.0,0.0,0.0,0.0,0.0,-0.38516843,0.23544845,-0.18794507,0.5189657,-11.058911,0.7784605,0.07996559,-1.4780402,-0.34443736,2.1077015
-6.1400194,31.605705,6.3118544,7.229793,0.96451086,0.00949347,0.24542606,-0.80548084,-0.23857367,-0.69497234,0.7814831,-0.5452724,0.6049659,0.19654146,0.61975974,-1.1026986,-2.0712578,-0.82401085,1.7332581,1.7946246,-0.8403696,0.6858406,-1.0821733,-2.0140855,-0.88832414,1.7800033,1.7383852,-0.8599275,-1.4449553,-0.3603348,-1.2310854,1.3850574,-0.78017086,0.4245809,0.01600953,-0.2803421,-0.6301327,0.7362416,-1.5483246,0.5336766,-0.18624653,-0.24338531,-0.6007004,0.67892206,0.92341524,0.010339016,0.23165503,0.30583203,-1.3604236,0.27999222,-0.2978468,0.0,1.0,0.0,0.0,0.0,0.0,0.0,-0.36965787,0.23013267,-0.18624157,0.70102215,-10.848564,0.528574,0.6387472,-0.78674555,-0.42242408,2.5458229
-7.176758,28.978008,5.1200867,6.835175,0.91885257,-0.0074736476,0.2703183,-0.80464095,-0.30352473,-0.7029663,0.7791595,-0.5520613,0.6080648,0.2735962,0.6053765,-1.1125258,-2.084382,-0.8104082,1.7247971,1.7991917,-0.8325679,0.6714344,-1.0866137,-2.026441,-0.87443954,1.7721678,1.7426254,-0.8595357,-1.4391274,-0.47208187,-1.2362063,1.3900062,-0.7853526,0.42315197,0.046864085,-0.29576874,-0.6247673,0.7338375,-1.5405545,0.5380908,-0.25786442,-0.257164,-0.5979233,0.6754583,0.9262695,0.015785806,0.2373043,0.29233915,-1.3793404,0.28849065,-0.36211473,0.0,1.0,0.0,0.0,0.0,0.0,0.0,-0.35423124,0.2247673,-0.18383747,0.5879879,-11.25958,-0.23870468,0.6371021,-0.7496834,-0.3451407,3.0757613
-10.062387,22.406322,2.5982695,6.090603,0.8671259,-0.038343906,0.29052353,-0.8127328,-0.38614455,-0.7121711,0.77192944,-0.5580789,0.6017108,0.3224159,0.59016114,-1.1252282,-2.0976582,-0.7972466,1.7163599,1.8027965,-0.8272941,0.6570339,-1.0922728,-2.038899,-0.8605443,1.7642723,1.746852,-0.85882425,-1.4403108,-0.59753495,-1.2483003,1.3900306,-0.7914263,0.42180187,0.07934786,-0.31115723,-0.61937714,0.7306047,-1.5380702,0.5398166,-0.34428295,-0.2711563,-0.59506416,0.6712617,0.9288973,0.021713728,0.24243042,0.27911615,-1.4043729,0.29653734,-0.43880275,0.0,1.0,0.0,0.0,0.0,0.0,0.0,-0.33884275,0.21937713,-0.1806047,-0.075507164,-12.619532,-1.0173798,0.21600723,-0.77245235,-0.33128262,3.2773228
-8.645596,30.20811,4.935784,6.963696,0.90616643,0.105686426,0.2954969,-0.80528516,-0.41318786,-0.70749336,0.78058386,-0.55355585,0.616196,0.4045238,0.5765054,-1.1335915,-2.1096482,-0.78248596,1.7089168,1.8084717,-0.8183719,0.6426382,-1.0990245,-2.0514457,-0.8466254,1.7563434,1.751073,-0.85775644,-1.4392835,-0.70133597,-1.2560029,1.393202,-0.7942945,0.42143026,0.11599512,-0.3264923,-0.613945,0.7266327,-1.5319257,0.5445037,-0.4151509,-0.28536224,-0.59207535,0.66639835,0.9312963,0.028088503,0.24707246,0.26618302,-1.4222493,0.31137025,-0.502428,0.0,1.0,0.0,0.0,0.0,0.0,0.0,-0.32350767,0.213945,-0.1766327,0.114011765,-10.479641,-0.49078465,0.50292015,-0.5150318,-0.23824573,3.6716132
-6.750972,41.44576,8.404751,8.504471,1.0674169,0.291165,0.27822262,-0.8033984,-0.44133782,-0.6845751,0.7858573,-0.5459738,0.61222494,0.4465293,0.56229836,-1.1431583,-2.1199033,-0.76803964,1.701746,1.8122954,-0.8131035,0.62825775,-1.1066272,-2.0639348,-0.8326568,1.7484272,1.7552828,-0.8563232,-1.4377574,-0.7803656,-1.2450575,1.3984739,-0.7918538,0.41990706,0.15244703,-0.34169006,-0.6084442,0.7220741,-1.5146958,0.5522629,-0.4680088,-0.29968262,-0.58888054,0.6610447,0.933463,0.034788623,0.25129443,0.25355026,-1.4316554,0.33436492,-0.5468482,0.0,1.0,0.0,0.0,0.0,0.0,0.0,-0.3083099,0.20844421,-0.17207408,0.11508465,-8.034409,1.524806,0.656867,-0.15926361,-0.38775206,3.6412597
-4.2612705,48.705627,10.623206,8.907348,1.1271955,0.395828,0.27784315,-0.79920465,-0.4749014,-0.67405903,0.78118473,-0.53097606,0.6036474,0.47214517,0.5483373,-1.1541173,-2.1313407,-0.7545383,1.6953295,1.8156475,-0.8091087,0.61390877,-1.1148918,-2.0762408,-0.8186682,1.740595,1.7594692,-0.85454386,-1.4341546,-0.84225774,-1.223908,1.399304,-0.78217083,0.41722876,0.18640916,-0.35665894,-0.6028595,0.71707535,-1.4905753,0.56052047,-0.50975966,-0.3140335,-0.58542633,0.6553344,0.93540245,0.04171073,0.25512096,0.24123794,-1.4329228,0.36127952,-0.5797598,0.0,1.0,0.0,0.0,0.0,0.0,0.0,-0.29334104,0.20285949,-0.16707534,0.28455257,-6.334996,2.645135,0.16040802,0.46032667,-0.5192101,3.3783464
-8.05868,36.833145,6.3853407,7.26861,0.9617444,0.24561518,0.3063684,-0.8118346,-0.56655383,-0.69920504,0.7701383,-0.53995675,0.56304085,0.5126502,0.53272533,-1.1715472,-2.1461613,-0.74165434,1.6865993,1.8157732,-0.80327886,0.59953594,-1.1239803,-2.0884702,-0.80472726,1.7328176,1.7636039,-0.852433,-1.4383292,-0.9314266,-1.2212095,1.3929476,-0.7774251,0.41135588,0.21948588,-0.37147522,-0.59721565,0.71146095,-1.4785266,0.56568825,-0.5776692,-0.32847595,-0.5817375,0.64911586,0.93714005,0.048961833,0.258484,0.22925344,-1.4435843,0.38323766,-0.6366992,0.0,1.0,0.0,0.0,0.0,0.0,0.0,-0.27852476,0.19721565,-0.16146094,-0.42815208,-9.036482,0.63319206,-0.45318604,0.11520386,-0.82135797,3.3337684
-4.774268,46.060837,8.877178,7.8042507,0.86866707,0.34908742,0.31854537,-0.7992328,-0.56335443,-0.6956642,0.7722553,-0.56637484,0.5635993,0.56407946,0.51961267,-1.1803157,-2.1580367,-0.72750175,1.6761801,1.8199638,-0.7960251,0.5851698,-1.1337726,-2.1007001,-0.7908502,1.7249984,1.7676802,-0.8499908,-1.4361956,-0.9956076,-1.2222023,1.3862779,-0.78491914,0.4055402,0.2524283,-0.38610077,-0.5915203,0.70528024,-1.4566782,0.5707644,-0.6304956,-0.3429184,-0.5778179,0.6424191,0.93865585,0.05657724,0.26147747,0.21760921,-1.4412469,0.40790063,-0.6818294,0.0,1.0,0.0,0.0,0.0,0.0,0.0,-0.2638992,0.1915203,-0.15528023,0.15554428,-6.5572143,0.38027763,-0.5549431,-1.2222528,-0.8217335,3.2672434
0.46749592,52.29455,11.351474,7.3648615,0.9174018,0.44603527,0.33239847,-0.7863183,-0.5958629,-0.64919734,0.77004963,-0.55776983,0.56727135,0.59319556,0.506538,-1.1933589,-2.1656199,-0.71384525,1.6692214,1.8244073,-0.7906712,0.5708904,-1.1441429,-2.112743,-0.7770428,1.7171241,1.7717044,-0.8472317,-1.425631,-1.0512987,-1.1961403,1.3790804,-0.79011625,0.4004347,0.28369898,-0.40044403,-0.58577156,0.6986548,-1.426543,0.5758601,-0.6721365,-0.35729218,-0.57364464,0.63535875,0.93994606,0.0644326,0.2641307,0.20636095,-1.4282689,0.43353516,-0.7153581,0.0,1.0,0.0,0.0,0.0,0.0,0.0,-0.24955595,0.18577155,-0.14865476,0.95050335,-5.71239,3.2075405,-0.6735563,-1.1067152,-0.7571101,3.0913174
3.6443248,54.856544,12.515388,6.808673,1.0722792,0.47210312,0.3271966,-0.7796956,-0.6302639,-0.6228111,0.75661117,-0.48984647,0.52878666,0.5959109,0.49292088,-1.2071693,-2.175024,-0.7013817,1.6681395,1.824583,-0.7876406,0.5567436,-1.1550472,-2.1244,-0.7633555,1.7094094,1.7756531,-0.84419155,-1.4113855,-1.103814,-1.1532209,1.3653454,-0.76716423,0.3922113,0.31078,-0.4144745,-0.57998466,0.69162863,-1.3946338,0.57954854,-0.71063334,-0.37149048,-0.56921005,0.62801224,0.9410578,0.07237245,0.26633158,0.19555013,-1.411947,0.45907074,-0.7422974,0.0,1.0,0.0,0.0,0.0,0.0,0.0,-0.23552549,0.17998466,-0.14162862,1.2960196,-5.390477,4.943514,-1.3610601,1.6563416,-1.085937,2.6969075
3.6690826,59.703327,13.509839,7.829674,1.2526006,0.51898265,0.28933346,-0.77789074,-0.6416015,-0.61157376,0.74933326,-0.4519022,0.48982224,0.6054314,0.47895455,-1.2192073,-2.1855574,-0.68842214,1.6642191,1.8246354,-0.78364843,0.5427246,-1.1663768,-2.1356225,-0.74982274,1.7020512,1.7794952,-0.8409062,-1.3991842,-1.1432823,-1.109524,1.3492043,-0.7277232,0.380512,0.3344995,-0.42816162,-0.57416344,0.684266,-1.3603957,0.583072,-0.7435728,-0.38552094,-0.5645008,0.6204638,0.9420343,0.08030454,0.26802877,0.1851567,-1.3941988,0.48660463,-0.7605911,0.0,1.0,0.0,0.0,0.0,0.0,0.0,-0.22183836,0.17416343,-0.13426596,1.0777235,-4.0953875,5.0759077,-1.6243219,3.2413125,-1.4472544,2.3619115
12.147924,65.69022,16.579977,6.394203,1.5579915,0.5670763,0.29680908,-0.7505919,-0.6601538,-0.52788275,0.7200227,-0.29496413,0.43926227,0.6112391,0.46766543,-1.2323922,-2.1884108,-0.67782044,1.6725547,1.8234215,-0.7797823,0.5289182,-1.1780498,-2.1461122,-0.7365635,1.6955259,1.7831886,-0.83740723,-1.3751189,-1.1755518,-1.0262387,1.3178765,-0.6298999,0.36457297,0.35522282,-0.4414673,-0.5683174,0.67663676,-1.3194662,0.584591,-0.76656574,-0.39931488,-0.55953026,0.61285263,0.94296724,0.08794689,0.2690087,0.17524959,-1.3676249,0.51273763,-0.7627232,0.0,1.0,0.0,0.0,0.0,0.0,0.0,-0.20853269,0.1683174,-0.12663674,2.2080898,-3.3658743,9.161329,-3.2367706,8.9666605,-1.8880069,2.0958424
9.052265,65.468704,16.399145,6.9526834,2.2277195,0.5908967,0.24178977,-0.77117836,-0.6782197,-0.48629647,0.6580639,0.0055437125,0.3288322,0.6060583,0.45180038,-1.2458718,-2.194742,-0.6707571,1.6960802,1.8160717,-0.7768014,0.51522344,-1.1900165,-2.1556902,-0.7238651,1.6907928,1.7866496,-0.83372545,-1.3681673,-1.2041613,-0.93221676,1.253579,-0.42350844,0.3386937,0.37300187,-0.45443726,-0.5624447,0.6687282,-1.2881968,0.58836085,-0.7966165,-0.4129486,-0.5542431,0.6052735,0.9440345,0.094992556,0.26883683,0.16583684,-1.3544,0.5457814,-0.75784796,0.0,1.0,0.0,0.0,0.0,0.0,0.0,-0.19556272,0.16244468,-0.11872816,0.5193472,-2.9923677,10.187268,-6.5108776,19.85969,-2.9269576,1.9034564
14.849927,76.22457,20.001783,6.863783,2.6549213,0.6970253,0.23614782,-0.7630211,-0.6539867,-0.39150792,0.5793941,0.22788043,0.17286587,0.6004708,0.43892133,-1.2554152,-2.194841,-0.6659257,1.7135808,1.8039361,-0.77367836,0.5015792,-1.2020652,-2.1640742,-0.71211284,1.6886209,1.7897489,-0.8298915,-1.3640177,-1.2055584,-0.8040879,1.1484593,-0.15122999,0.2991828,0.38740227,-0.4670334,-0.5565491,0.6606387,-1.2486677,0.5905562,-0.81072146,-0.4263687,-0.5486088,0.5979131,0.9453801,0.101114884,0.26719716,0.15696475,-1.3321384,0.58106804,-0.7303029,0.0,1.0,0.0,0.0,0.0,0.0,0.0,-0.18296659,0.15654907,-0.11063868,0.19285679,-0.26698112,13.720333,-10.69479,26.333328,-4.2808475,1.5725315
30.288244,81.269394,23.806206,1.934257,2.5749855,0.7039255,0.36383379,-0.74499977,-0.6582324,-0.21133657,0.4435847,0.4027363,-0.10178423,0.5690758,0.42707926,-1.2678884,-2.1852078,-0.66775435,1.7288946,1.7795705,-0.7729839,0.48802856,-1.2140682,-2.1705737,-0.70190835,1.6893343,1.7922767,-0.82595783,-1.3529947,-1.1989324,-0.59527004,0.976704,0.14257799,0.2364898,0.39576417,-0.4791336,-0.5506706,0.65251213,-1.1961435,0.5865781,-0.81096154,-0.43939972,-0.542696,0.5909232,0.9471127,0.10595567,0.26380655,0.14885221,-1.286694,0.605369,-0.6901209,0.0,1.0,0.0,0.0,0.0,0.0,0.0,-0.17086637,0.15067062,-0.10251212,0.83179474,0.5741358,21.868849,-17.481232,28.428331,-6.495696,0.9476781
30.087906,66.48917,18.47106,-3.1832976,1.4668727,0.3091519,0.5504575,-0.75890166,-0.66394776,-0.28084144,0.28584376,0.4792396,-0.43071738,0.5590177,0.4121384,-1.280463,-2.1986578,-0.673324,1.7372582,1.749205,-0.77005607,0.47451356,-1.2260082,-2.1756356,-0.69390506,1.6926814,1.7939805,-0.82197165,-1.351639,-1.1926378,-0.4744936,0.74074405,0.39679024,0.14809336,0.39979127,-0.49077606,-0.5448704,0.6441988,-1.1525059,0.5776337,-0.8374665,-0.4519577,-0.5366802,0.58402747,0.9491864,0.109904714,0.25865924,0.1416384,-1.2374029,0.61047536,-0.69114393,0.0,1.0,0.0,0.0,0.0,0.0,0.0,-0.15922391,0.14487037,-0.09419876,-0.05493164,0.57952404,12.690025,-23.81791,24.787933,-8.945298,0.47344565
29.582329,75.80216,19.548458,0.18980491,1.2420334,0.24258035,0.45673236,-0.7339416,-0.6255895,-0.22579277,0.27457902,0.46396208,-0.53151906,0.5857364,0.4011194,-1.2885671,-2.1982148,-0.66644716,1.7390777,1.7408285,-0.763398,0.46110633,-1.2377174,-2.17974,-0.6879083,1.6979417,1.7947893,-0.8179397,-1.3376473,-1.1639674,-0.3871986,0.552011,0.56750685,0.05818746,0.404298,-0.5018997,-0.5391941,0.6357552,-1.0988573,0.56408304,-0.8462133,-0.4639511,-0.5306606,0.57719123,0.95146513,0.11330871,0.25217935,0.13520603,-1.1826648,0.6091518,-0.68294996,0.0,1.0,0.0,0.0,0.0,0.0,0.0,-0.14810026,0.1391941,-0.08575517,1.2392759,2.8167486,9.233994,-19.065237,16.59023,-9.022304,0.44543743
30.166279,69.9844,17.543264,-1.5318614,0.67171764,0.1504724,0.5185768,-0.73063254,-0.6328377,-0.18458776,0.143365,0.50016505,-0.5728434,0.5884603,0.38804308,-1.3010012,-2.1981988,-0.67357177,1.7479582,1.737505,-0.75909364,0.4478474,-1.2491901,-2.1831627,-0.6838323,1.7044729,1.7947572,-0.81386846,-1.3223869,-1.1418462,-0.3261232,0.35905197,0.6805491,-0.023593258,0.40806097,-0.51249695,-0.53367615,0.62717754,-1.0464458,0.5480023,-0.8622646,-0.47538757,-0.5247135,0.5703094,0.9538387,0.11640938,0.24466488,0.12953652,-1.1242182,0.5989836,-0.69180894,0.0,1.0,0.0,0.0,0.0,0.0,0.0,-0.13750303,0.13367614,-0.077177525,1.4110327,2.1811485,6.4255056,-19.428944,11.007547,-8.154136,0.36460757
23.297195,77.94737,18.474758,3.320078,1.0298876,0.300521,0.38251737,-0.74208343,-0.60334724,-0.10784396,0.08659541,0.5320787,-0.5876378,0.5962899,0.37363905,-1.3095248,-2.193947,-0.67517275,1.7576808,1.7359935,-0.7542395,0.43466142,-1.2603633,-2.185875,-0.6814233,1.7118359,1.793989,-0.8097572,-1.3176289,-1.1093205,-0.25217795,0.2012038,0.7543285,-0.09450536,0.4121232,-0.5225601,-0.5283165,0.6185324,-0.99272054,0.53203005,-0.8654727,-0.48628235,-0.5187988,0.563449,0.9562516,0.119226694,0.2363607,0.12450421,-1.0727729,0.59701014,-0.6860401,0.0,1.0,0.0,0.0,0.0,0.0,0.0,-0.12743986,0.12831649,-0.06853241,0.40285587,3.2264233,7.5982513,-15.867024,7.215047,-7.04855,0.3964126
31.37346,83.7544,22.267307,2.1292295,1.3677759,0.5558635,0.41084215,-0.7358253,-0.60460556,0.12367143,-0.046090767,0.595645,-0.5954592,0.6045911,0.3610789,-1.3208239,-2.1735077,-0.68603235,1.7714003,1.7344431,-0.7492981,0.42151406,-1.2712791,-2.1869547,-0.68071306,1.7198821,1.7925942,-0.8056018,-1.3139635,-1.0855725,-0.05950396,0.027291724,0.82114273,-0.15408982,0.41673502,-0.53201294,-0.52313995,0.60999936,-0.9303221,0.5136276,-0.85062677,-0.49658966,-0.5128937,0.5567953,0.9587561,0.121316954,0.22720702,0.12019127,-1.0118288,0.5959853,-0.6602849,0.0,1.0,0.0,0.0,0.0,0.0,0.0,-0.11798704,0.12313995,-0.059999347,0.31125546,2.3771048,19.3382,-17.490627,6.688738,-5.815539,0.4515171
34.472446,81.884705,21.999619,-0.6130216,1.0167501,0.5883754,0.5442191,-0.74547106,-0.5754315,0.15554053,-0.22477344,0.65656275,-0.61812186,0.6054376,0.34696695,-1.3288223,-2.1714008,-0.7031904,1.7855384,1.730782,-0.745058,0.4083414,-1.2818992,-2.1861537,-0.6821388,1.7286143,1.7906697,-0.8014036,-1.3183974,-1.0539342,0.12582946,-0.19927157,0.89128566,-0.20478067,0.42101982,-0.5408478,-0.5181675,0.6015913,-0.86737084,0.49270272,-0.8377819,-0.5062332,-0.5070324,0.55033916,0.9613524,0.12254812,0.21713261,0.11677705,-0.9433194,0.58928114,-0.6425249,0.0,1.0,0.0,0.0,0.0,0.0,0.0,-0.1091522,0.11816749,-0.051591277,-0.45073032,3.179741,18.364338,-22.695805,7.238972,-4.8476753,0.45605302
35.199318,88.88782,23.25788,0.3289771,0.9187506,0.64889383,0.5555218,-0.7437635,-0.5213487,0.20353317,-0.339489,0.7010163,-0.6021663,0.59474474,0.33396506,-1.3340341,-2.1658003,-0.7160877,1.798716,1.730453,-0.7419291,0.3951249,-1.2920139,-2.183724,-0.6859194,1.7380595,1.7883179,-0.7971749,-1.3225561,-0.9972436,0.28081694,-0.43761298,0.9636387,-0.24430585,0.4237594,-0.54901123,-0.51343346,0.5934088,-0.80073255,0.4683713,-0.8133968,-0.5151291,-0.50126076,0.54411644,0.9639898,0.12296237,0.20624459,0.114311084,-0.8698698,0.57989544,-0.6172579,0.0,1.0,0.0,0.0,0.0,0.0,0.0,-0.100988746,0.11343345,-0.04340881,-0.36773682,5.710256,15.058878,-23.817045,7.7376246,-3.638175,0.32960176
30.424099,91.22784,22.489685,2.9240746,0.8140139,0.57584953,0.47178274,-0.7382077,-0.48707545,0.20801514,-0.40585548,0.7125854,-0.5906479,0.58496404,0.32130414,-1.3407214,-2.1629224,-0.7265049,1.8093181,1.7292532,-0.73867846,0.3819027,-1.3014781,-2.1802258,-0.69183034,1.7481247,1.7856379,-0.7929298,-1.3218209,-0.9292125,0.37080348,-0.64193666,1.0230329,-0.27485898,0.4251315,-0.55654144,-0.50894547,0.5854781,-0.73725235,0.44306725,-0.78706187,-0.5233536,-0.49558258,0.53813624,0.9665895,0.12275297,0.19478658,0.11267026,-0.80264,0.5691811,-0.5930612,0.0,1.0,0.0,0.0,0.0,0.0,0.0,-0.09345853,0.10894546,-0.035478115,0.17478466,6.8703413,8.363438,-20.343231,6.6468954,-2.6979327,0.22901893
25.763166,104.25247,25.646338,9.490486,1.5041428,0.71896815,0.22426072,-0.72649276,-0.45028886,0.3504717,-0.3985823,0.7144196,-0.55952144,0.57525694,0.30925342,-1.3465071,-2.1451788,-0.73168856,1.8195667,1.7296857,-0.73540413,0.36875665,-1.3102195,-2.1756034,-0.6991339,1.7586579,1.7827182,-0.7886798,-1.3117278,-0.85534453,0.48981878,-0.7595439,1.0664039,-0.2964018,0.42526755,-0.5634155,-0.50471115,0.5780122,-0.6715867,0.4180101,-0.73480785,-0.530983,-0.48994255,0.5326253,0.96913123,0.12180626,0.1830235,0.11158003,-0.7465989,0.56707984,-0.5383785,0.0,1.0,0.0,0.0,0.0,0.0,0.0,-0.08658445,0.104711145,-0.028012216,1.1597157,7.5057507,11.051494,-11.666166,5.3188324,-1.7337441,0.09609461
22.745773,98.14734,24.439611,10.288768,1.6019106,0.6511379,0.13532476,-0.7169688,-0.46059096,0.4267338,-0.43836063,0.7287388,-0.53421897,0.5835188,0.29705977,-1.3562787,-2.13293,-0.74296993,1.8315318,1.7292963,-0.7303279,0.35575855,-1.3184402,-2.1697142,-0.70723855,1.769527,1.7796359,-0.78442425,-1.2952583,-0.81060123,0.6190299,-0.8270604,1.0972043,-0.31080407,0.42598587,-0.5696945,-0.50071144,0.5710218,-0.61417234,0.39411077,-0.688083,-0.53813934,-0.48430824,0.5276141,0.97161967,0.12002568,0.17105116,0.11086254,-0.7029229,0.56637913,-0.4896749,0.0,1.0,0.0,0.0,0.0,0.0,0.0,-0.08030546,0.100711435,-0.021021783,1.8198252,4.6001315,12.027729,-6.6264987,4.107785,-1.041323,0.16977787
22.625599,97.08071,24.287397,10.814152,1.4980942,0.6111568,0.09154567,-0.69360626,-0.43236876,0.463457,-0.4592173,0.73201895,-0.46019152,0.59676874,0.28639793,-1.361677,-2.1233685,-0.7531603,1.8427289,1.7336167,-0.72474736,0.34301555,-1.3262699,-2.162657,-0.71575016,1.780615,1.7764907,-0.7801518,-1.2666858,-0.773384,0.7316078,-0.8586778,1.116105,-0.3143348,0.428011,-0.5754242,-0.49695587,0.5645172,-0.55996096,0.3695777,-0.6389978,-0.54489136,-0.47869682,0.52307636,0.9740312,0.1174281,0.15899263,0.11043175,-0.6627525,0.5632795,-0.44266734,0.0,1.0,0.0,0.0,0.0,0.0,0.0,-0.07457578,0.096955866,-0.014517188,3.0467272,3.8595915,10.343254,-3.0169845,2.955389,0.063341856,0.31105876
17.691778,111.0325,26.857037,15.943704,1.7312245,0.7734407,-0.02661976,-0.684292,-0.34940812,0.49121785,-0.4493302,0.7287309,-0.37246865,0.599392,0.27458635,-1.3612107,-2.1135352,-0.7606832,1.8534881,1.7392439,-0.7202126,0.33056486,-1.3334739,-2.1546886,-0.72432196,1.7918221,1.77339,-0.7758563,-1.2371434,-0.7021417,0.8154043,-0.8560827,1.126095,-0.3069034,0.43049565,-0.5805893,-0.4934578,0.55869716,-0.5033224,0.3438143,-0.56532913,-0.5512619,-0.47307014,0.5191766,0.976322,0.11407292,0.14714238,0.11014493,-0.6251727,0.5660971,-0.37290156,0.0,1.0,0.0,0.0,0.0,0.0,0.0,-0.06941068,0.09345779,-0.008697152,3.1759024,7.2989106,7.370293,0.43085814,2.186489,1.221472,0.37225485
37.557503,87.73423,24.547567,4.9714327,0.7641667,0.45947236,0.17378303,-0.59236646,-0.43663427,0.60044044,-0.45953965,0.7440972,-0.13501939,0.5937428,0.2713282,-1.3771373,-2.0946445,-0.77027595,1.8662318,1.7598882,-0.71648204,0.31877172,-1.3404796,-2.1456592,-0.73280704,1.8031139,1.7705538,-0.77154654,-1.1594175,-0.69957405,0.92949927,-0.84548223,1.1332488,-0.27414286,0.4315068,-0.58522797,-0.49024773,0.5534148,-0.4516777,0.31385478,-0.51713836,-0.5571747,-0.4676094,0.5156996,0.97849584,0.1098299,0.13543297,0.110186316,-0.5755072,0.5427282,-0.33974907,0.0,1.0,0.0,0.0,0.0,0.0,0.0,-0.06477201,0.09024772,-0.0034148097,7.9614162,0.38423538,10.604405,1.2091517,1.689887,3.7341893,0.21726489
40.949165,80.0945,23.295439,3.2047422,0.48032194,0.37441537,0.15591541,-0.5388849,-0.44268706,0.63065785,-0.39645636,0.7243099,0.13973361,0.601497,0.26488322,-1.3847483,-2.0825934,-0.77245265,1.8755449,1.7845272,-0.7113968,0.3079294,-1.3476532,-2.1355772,-0.74087334,1.8143779,1.7682478,-0.76722354,-1.0585848,-0.7228596,1.0323368,-0.7931212,1.1268266,-0.21464366,0.4329564,-0.589386,-0.4873352,0.5485595,-0.40502948,0.28417042,-0.47683227,-0.56256866,-0.4624176,0.5124604,0.98054224,0.10463702,0.12390943,0.11060939,-0.5276827,0.51362413,-0.31893373,0.0,1.0,0.0,0.0,0.0,0.0,0.0,-0.06061399,0.0873352,0.001440525,10.26392,-2.2192955,9.620344,5.395615,0.1868248,6.379828,0.28101206
53.930107,96.37939,28.569313,2.776782,0.07130842,0.39859146,0.18369381,-0.4381718,-0.36448014,0.65378195,-0.3593546,0.72220135,0.33591285,0.586549,0.2641122,-1.3841012,-2.070199,-0.7768088,1.886598,1.8018391,-0.70856863,0.298396,-1.3547447,-2.124648,-0.7482645,1.8255732,1.7666587,-0.7629002,-0.9175548,-0.7040208,1.1111535,-0.7204166,1.1200039,-0.1385506,0.43268043,-0.5930023,-0.48478317,0.54435885,-0.34888542,0.24609272,-0.40319848,-0.5673599,-0.4576435,0.5096243,0.98241603,0.09848289,0.112864636,0.11145136,-0.46126482,0.4680998,-0.27202657,0.0,1.0,0.0,0.0,0.0,0.0,0.0,-0.056997657,0.08478317,0.0056411624,14.310908,2.0070195,7.2173834,7.4819207,0.21469593,8.171293,0.12091398
95.08083,71.38192,26.985233,-15.678331,-1.9213877,-0.4654709,0.5811498,-0.22558612,-0.467419,0.6839265,-0.35314536,0.7318024,0.37609836,0.57911164,0.2758374,-1.4014865,-2.0562553,-0.78357905,1.8987534,1.8042685,-0.704989,0.29101646,-1.3620899,-2.1130362,-0.7550052,1.8367196,1.765816,-0.75859445,-0.6775987,-0.74472135,1.1774133,-0.6578502,1.1141895,-0.0643461,0.4302749,-0.59604645,-0.4827156,0.5406473,-0.29080853,0.19422847,-0.36221436,-0.5712204,-0.4537983,0.5069123,0.98407125,0.091442816,0.10219005,0.11313301,-0.36072326,0.35905522,-0.27128378,0.0,1.0,0.0,0.0,0.0,0.0,0.0,-0.05395353,0.0827156,0.009352684,24.140299,-4.053986,6.41644,6.4851284,-0.14233589,7.9476132,-0.11128783
82.06991,82.36244,27.49873,-10.191672,-1.6530514,-0.36316574,0.48922423,-0.2000423,-0.3945427,0.66241175,-0.33565775,0.72837657,0.4114411,0.56327033,0.27101222,-1.4015441,-2.046795,-0.78857094,1.9095573,1.8069601,-0.7022674,0.28581417,-1.3695228,-2.101085,-0.7612117,1.8478059,1.765662,-0.7543214,-0.4672153,-0.7427308,1.2001038,-0.607062,1.1082445,0.0025801328,0.42695555,-0.5985565,-0.4811287,0.5373949,-0.23757178,0.14718612,-0.31417418,-0.57414246,-0.45094872,0.5043164,0.9854724,0.083737604,0.09194454,0.11566487,-0.26939553,0.2621132,-0.25608683,0.0,1.0,0.0,0.0,0.0,0.0,0.0,-0.051443458,0.08112869,0.012605131,21.211016,0.21498203,2.0220041,5.407119,-0.14383793,7.196974,-0.14650822
75.42486,80.86677,26.178701,-8.185057,-1.5074033,-0.48597986,0.40257084,-0.09024346,-0.41230112,0.6742847,-0.2657599,0.72622013,0.40714544,0.5481348,0.2767898,-1.4107529,-2.0336566,-0.7877877,1.9204279,1.8063765,-0.6995079,0.28266466,-1.3769538,-2.0890229,-0.76675045,1.858821,1.7660931,-0.7500899,-0.26363555,-0.7431103,1.2076286,-0.53493184,1.1004655,0.05800853,0.4225261,-0.60058594,-0.47997856,0.53454685,-0.19238739,0.104601376,-0.27524298,-0.57624817,-0.44903183,0.5018556,0.98661464,0.07554277,0.08216308,0.11888697,-0.1902121,0.16948673,-0.24324347,0.0,1.0,0.0,0.0,0.0,0.0,0.0,-0.04941404,0.079978555,0.01545316,20.527464,-0.036799908,0.58882236,7.576537,-0.42421818,5.9645286,-0.24281144
