Afshin1997/kuka_rl_ros2/src/catch_and_throw/input_files/idealpd/recorded_trajectories/env_398_data.csv
torque0,torque1,torque2,torque3,torque4,torque5,torque6,action0,action1,action2,action3,action4,action5,action6,set_target_0,set_target_1,set_target_2,set_target_3,set_target_4,set_target_5,set_target_6,joint_pos_0,joint_pos_1,joint_pos_2,joint_pos_3,joint_pos_4,joint_pos_5,joint_pos_6,joint_vel_0,joint_vel_1,joint_vel_2,joint_vel_3,joint_vel_4,joint_vel_5,joint_vel_6,tennisball_pos_0,tennisball_pos_1,tennisball_pos_2,tennisball_lin_vel_0,tennisball_lin_vel_1,tennisball_lin_vel_2,end_effector_pos_0,end_effector_pos_1,end_effector_pos_2,end_effector_rot_0,end_effector_rot_1,end_effector_rot_2,end_effector_rot_3,end_effector_lin_vel_0,end_effector_lin_vel_1,end_effector_lin_vel_2,obs_task_0,obs_task_1,obs_task_2,obs_task_3,obs_task_4,obs_task_5,obs_task_6,to_final_target_0,to_final_target_1,to_final_target_2,joint_acc_0,joint_acc_1,joint_acc_2,joint_acc_3,joint_acc_4,joint_acc_5,joint_acc_6
0.0,0.0,0.0,0.0,0.0,0.0,0.0,0.0,0.0,0.0,0.0,0.0,0.0,0.0,1.7802359,-1.0646509,-1.8151424,-1.1170107,1.9373155,1.1170107,-0.91629785,1.7802359,-1.0646509,-1.8151424,-1.1170107,1.9373155,1.1170107,-0.91629785,0.0,0.0,0.0,0.0,0.0,0.0,0.0,2.7409286,-0.21645737,0.33607513,-2.7892804,-0.1980072,5.3546414,0.5304184,-0.45449448,0.693097,0.5745483,0.17512383,0.15255436,0.7848268,0.0,0.0,0.0,1.0,0.0,0.0,0.0,0.0,0.0,0.0,-3.3909287,-0.18354264,0.21392488,0.0,0.0,0.0,0.0,0.0,0.0,0.0
0.0,0.0,0.0,0.0,0.0,0.0,0.0,0.0,0.0,0.0,0.0,0.0,0.0,0.0,1.7802359,-1.0646509,-1.8151424,-1.1170107,1.9373155,1.1170107,-0.91629785,1.7802359,-1.0646509,-1.8151424,-1.1170107,1.9373155,1.1170107,-0.91629785,0.0,0.0,0.0,0.0,0.0,0.0,0.0,2.7409286,-0.21645737,0.33607513,-2.7892804,-0.1980072,5.3546414,0.5304184,-0.45449448,0.693097,0.5745483,0.17512383,0.15255436,0.7848268,0.0,0.0,0.0,1.0,0.0,0.0,0.0,0.0,0.0,0.0,-3.3909287,-0.18354264,0.21392488,0.0,0.0,0.0,0.0,0.0,0.0,0.0
0.0,0.0,0.0,0.0,0.0,0.0,0.0,0.0,0.0,0.0,0.0,0.0,0.0,0.0,1.7802359,-1.0646509,-1.8151424,-1.1170107,1.9373155,1.1170107,-0.91629785,1.7802359,-1.0646509,-1.8151424,-1.1170107,1.9373155,1.1170107,-0.91629785,0.0,0.0,0.0,0.0,0.0,0.0,0.0,2.7409286,-0.21645737,0.33607513,-2.7892804,-0.1980072,5.3546414,0.5304184,-0.45449448,0.693097,0.5745483,0.17512383,0.15255436,0.7848268,0.0,0.0,0.0,1.0,0.0,0.0,0.0,0.0,0.0,0.0,-3.3909287,-0.18354264,0.21392488,0.0,0.0,0.0,0.0,0.0,0.0,0.0
-176.0,91.26416,3.4056387,110.0,11.046435,5.6678433,-3.7978346,-0.82367915,0.4565658,-0.5153898,0.72583675,0.42028242,0.6250877,-0.57981277,1.697868,-1.0189943,-1.8666813,-1.044427,1.9793437,1.1795195,-0.9742791,1.7783037,-1.0614408,-1.8210552,-1.1128966,1.9420323,1.1212412,-0.91655344,-0.25747108,0.42733422,-0.7874661,0.5483828,0.62790424,0.5617531,-0.034025952,2.7130585,-0.21843338,0.38884494,-2.7864916,-0.19780923,5.251102,0.5282326,-0.45746613,0.6941482,0.5779148,0.17400505,0.15165415,0.78277564,-0.29097587,-0.396326,0.13989002,1.0,0.0,0.0,0.0,0.0,0.0,0.0,-3.3630586,-0.18156663,0.16115507,-25.72654,42.49191,-78.44748,54.852093,62.508648,55.534725,-3.375366
-176.0,30.83769,-19.427155,110.0,12.463522,3.8854725,-3.80393,-0.81845534,0.17695338,-0.567918,0.6987968,0.51954955,0.61636865,-0.6214356,1.6964582,-1.0437455,-1.877847,-1.0430169,1.9939873,1.182878,-0.978697,1.7748419,-1.0557016,-1.8353851,-1.1016108,1.953013,1.1322638,-0.917077,-0.37411,0.62073755,-1.648009,1.3238417,1.2534558,1.2757089,-0.056422725,2.685215,-0.2204094,0.44058013,-2.7837057,-0.19761147,5.1476655,0.5231743,-0.46500397,0.69602305,0.585905,0.17113975,0.14884162,0.77799267,-0.5788401,-0.87201333,0.20420133,1.0,0.0,0.0,0.0,0.0,0.0,0.0,-3.335215,-0.17959061,0.10941988,-11.207658,18.687344,-85.99122,78.08264,62.13379,69.356064,-1.6243465
-150.41469,101.09168,24.476147,88.83982,8.376989,7.3214407,-2.295316,-0.78698194,0.41344416,-0.1812983,0.5628019,0.54300785,0.64228153,-0.57751787,1.6961437,-1.0143572,-1.8535149,-1.0453306,2.0073137,1.196492,-0.9748288,1.7679106,-1.0484499,-1.8510635,-1.0868002,1.9661145,1.1449362,-0.9180612,-0.7998918,0.7566448,-1.5347469,1.5342833,1.3243129,1.2565967,-0.1138662,2.6573982,-0.2223854,0.49128175,-2.7809227,-0.19741389,5.044333,0.51522446,-0.47533417,0.69948125,0.5969785,0.1669969,0.14495994,0.7711779,-0.8741389,-1.0809271,0.39769745,1.0,0.0,0.0,0.0,0.0,0.0,0.0,-3.3073983,-0.1776146,0.058718264,-42.729473,12.5818615,13.271689,21.317791,5.6709766,-4.2980433,-6.1671824
-89.08685,115.10088,40.81746,57.26729,4.6711397,7.771105,-0.8869387,-0.79254335,0.42134434,-0.10742374,0.58172333,0.51318514,0.6210191,-0.58686286,1.6886562,-1.0063155,-1.8618059,-1.0286279,2.017433,1.2070382,-0.9767475,1.7570826,-1.0404562,-1.8630378,-1.0716921,1.9785218,1.1567312,-0.9196138,-1.1788527,0.8111862,-1.0772619,1.503171,1.2086793,1.148419,-0.17166314,2.629612,-0.2243576,0.5409508,-2.7781425,-0.19721653,4.9411035,0.5048599,-0.4864273,0.70484525,0.60935885,0.16160713,0.14051357,0.763427,-1.1018596,-1.1073667,0.5889428,1.0,0.0,0.0,0.0,0.0,0.0,0.0,-3.279612,-0.1756424,0.009049237,-38.37173,4.6667576,48.039246,-3.0739307,-12.895012,-12.387633,-6.5496116
-29.934196,125.54712,51.233253,29.922941,1.5507663,7.178585,0.154663,-0.811174,0.49057317,-0.01651471,0.55441904,0.5784333,0.60056823,-0.57735926,1.6759652,-0.9913989,-1.8646894,-1.0162503,2.036365,1.216788,-0.9773497,1.743281,-1.0319742,-1.8696678,-1.0579611,1.9895444,1.1672941,-0.9216928,-1.4491327,0.8585479,-0.51804733,1.3291574,1.0634153,1.0231546,-0.22278039,2.6018486,-0.22632599,0.5895883,-2.7753649,-0.19701935,4.837977,0.49286652,-0.4968109,0.7119865,0.62174463,0.15494922,0.13566133,0.7556588,-1.2439294,-1.0022007,0.76041204,1.0,0.0,0.0,0.0,0.0,0.0,0.0,-3.2518487,-0.17367402,-0.039588273,-27.614952,4.19662,57.986877,-17.61074,-15.492773,-13.289499,-5.966359
9.742685,118.79335,49.989716,12.09948,-0.36635083,5.515254,0.56997764,-0.8198738,0.53111154,0.03737318,0.5514487,0.6054818,0.6003588,-0.5847755,1.6612936,-0.97886306,-1.8659304,-1.0028162,2.0500925,1.22733,-0.98017037,1.7277647,-1.0230154,-1.871455,-1.046065,1.9993634,1.1767241,-0.9242229,-1.5873373,0.9072758,-0.06071966,1.1422046,0.9528246,0.9156213,-0.26547366,2.5741158,-0.22829437,0.63719535,-2.77259,-0.19682238,4.7349534,0.4800415,-0.5057945,0.7205117,0.6334814,0.14725806,0.13059933,0.7483049,-1.3066623,-0.84809476,0.88537943,1.0,0.0,0.0,0.0,0.0,0.0,0.0,-3.2241158,-0.17170563,-0.08719534,-14.29534,4.531598,47.210033,-18.972015,-11.584592,-10.968483,-5.0029664
30.89181,114.41725,47.413403,4.4522285,-1.2635508,4.199516,0.5975141,-0.82317555,0.5904301,0.115454085,0.55337644,0.62432307,0.5984759,-0.5774404,1.6454471,-0.9639724,-1.8599095,-0.9907273,2.0617957,1.2365717,-0.9819669,1.7116381,-1.0134138,-1.8697269,-1.0356642,2.0084348,1.1852175,-0.9271135,-1.6222254,0.9769792,0.2538863,1.0049853,0.8911929,0.8274848,-0.2989997,2.5464134,-0.23026276,0.6837729,-2.7698178,-0.19662559,4.632033,0.46694565,-0.51317596,0.7300991,0.6444102,0.13877425,0.1255342,0.7414299,-1.3188782,-0.6855915,0.9830015,1.0,0.0,0.0,0.0,0.0,0.0,0.0,-3.1964135,-0.16973725,-0.13377291,-3.8336754,6.727135,32.494564,-13.966227,-6.424284,-8.794332,-3.973955
36.476463,109.51098,43.460102,3.6442475,-1.4174297,3.2758462,0.41578755,-0.8226211,0.64518416,0.17977333,0.5615582,0.62891585,0.60433286,-0.57107544,1.6293759,-0.9488954,-1.8517495,-0.9795084,2.0713263,1.2456508,-0.98422104,1.6956202,-1.0029806,-1.8658397,-1.0261122,2.0171666,1.1929575,-0.93028253,-1.5956566,1.0647547,0.43613887,0.9378912,0.86650866,0.75631094,-0.32454863,2.518734,-0.23222733,0.7293221,-2.7670486,-0.196429,4.5292153,0.4538803,-0.5190468,0.7405445,0.6546466,0.12966894,0.12063739,0.7348949,-1.3081596,-0.5388169,1.0635045,1.0,0.0,0.0,0.0,0.0,0.0,0.0,-3.168734,-0.16777268,-0.17932206,2.4213076,8.5876465,18.956005,-6.8749666,-2.5892258,-7.045579,-3.0667067
33.627365,100.28148,37.553837,4.6732287,-1.268924,2.484146,0.20988478,-0.81454223,0.68544364,0.20241296,0.5595213,0.6334445,0.61104405,-0.5595668,1.6141659,-0.9344362,-1.8455985,-0.97016007,2.080511,1.2540619,-0.9862392,1.6800715,-0.9916481,-1.8609569,-1.0168463,2.0258222,1.2000872,-0.9336557,-1.541968,1.1556307,0.5073654,0.92234784,0.86530995,0.6988738,-0.34294957,2.491085,-0.23418808,0.7738438,-2.7642822,-0.19623262,4.426501,0.44098663,-0.5236397,0.7516383,0.66438144,0.12011908,0.11604576,0.728493,-1.2890956,-0.41745305,1.1222726,1.0,0.0,0.0,0.0,0.0,0.0,0.0,-3.1410851,-0.16581193,-0.22384381,5.2040815,8.940911,7.6403675,-1.67135,-0.16793013,-5.675328,-2.2513986
25.004444,85.54838,29.845655,6.1212335,-0.88690853,1.7797414,0.05839681,-0.8151682,0.7000943,0.20600581,0.5497892,0.6400252,0.62000626,-0.5457655,1.5985546,-0.92163867,-1.8403563,-0.9618674,2.0898247,1.2620878,-0.98823225,1.6650301,-0.9795536,-1.8559196,-1.0075594,2.0345616,1.2067286,-0.937169,-1.4921001,1.2269893,0.503741,0.93039566,0.87677073,0.6528202,-0.3552377,2.4634628,-0.23614883,0.8173392,-2.7615187,-0.19603643,4.3238893,0.42824554,-0.527256,0.76310706,0.67378396,0.11033809,0.111804515,0.722039,-1.2723117,-0.32755822,1.152076,1.0,0.0,0.0,0.0,0.0,0.0,0.0,-3.113463,-0.16385117,-0.26733917,4.8597097,7.0323944,0.0027179718,0.6845832,1.1487126,-4.5420885,-1.5532732
17.615347,72.98333,23.621473,6.8872843,-0.60376203,1.2651138,-0.031587973,-0.80807257,0.7180705,0.18856952,0.5404804,0.6449243,0.6300629,-0.54064375,1.5842229,-0.90774655,-1.8370626,-0.95351136,2.099054,1.2697349,-0.9912334,1.650397,-0.96689546,-1.8512657,-0.9981619,2.043446,1.2129828,-0.94077677,-1.4541041,1.2784427,0.45344025,0.94232136,0.89274615,0.61639977,-0.36363298,2.4358673,-0.23810959,0.85980916,-2.7587576,-0.19584043,4.2213798,0.41564178,-0.53014755,0.77469444,0.6829649,0.10051492,0.107929155,0.71540684,-1.258752,-0.26102802,1.1575484,1.0,0.0,0.0,0.0,0.0,0.0,0.0,-3.0858674,-0.16189042,-0.30980915,3.684187,5.0756693,-4.7585964,1.0408044,1.6407251,-3.570068,-1.1098862
11.278009,64.71215,20.00825,7.8666835,-0.2817523,1.0887177,-0.02855207,-0.81438535,0.7257943,0.20330694,0.5271963,0.65371454,0.62904936,-0.5358163,1.5689584,-0.894316,-1.830935,-0.94544226,2.1088176,1.2758877,-0.9943584,1.6359812,-0.9538864,-1.8470886,-0.9887148,2.0525022,1.2189223,-0.94444937,-1.4378593,1.3082252,0.40678015,0.94494605,0.9100476,0.5866456,-0.36935395,2.4083023,-0.24006653,0.9012549,-2.7559993,-0.19564463,4.1189733,0.40312576,-0.53248596,0.7862392,0.69196033,0.09075493,0.10434626,0.70856637,-1.252691,-0.2091518,1.1502239,1.0,0.0,0.0,0.0,0.0,0.0,0.0,-3.0583024,-0.15993348,-0.35125488,1.5044212,2.9259205,-4.4115186,0.08451939,1.7879605,-2.910316,-0.81887245
9.266667,60.450436,18.318493,7.9193993,-0.18005097,0.9823203,-0.003327068,-0.80554855,0.7362371,0.19312471,0.52317053,0.65500593,0.63427347,-0.52830076,1.5554264,-0.8802627,-1.8277761,-0.9363978,2.1180027,1.2823496,-0.99727947,1.6216608,-0.940678,-1.8433235,-0.97928965,2.0617032,1.22461,-0.9481639,-1.4304154,1.3248926,0.36722183,0.9410059,0.9238672,0.56287754,-0.37296662,2.3807602,-0.24201965,0.9416773,-2.753244,-0.19544902,4.016669,0.39063644,-0.534359,0.7976631,0.70076555,0.08108667,0.10099457,0.701536,-1.2482396,-0.16260926,1.1364006,1.0,0.0,0.0,0.0,0.0,0.0,0.0,-3.0307603,-0.15798035,-0.39167726,0.62065125,1.6231775,-3.6973476,-0.589478,1.4450192,-2.3076534,-0.60406923
9.762335,59.062668,18.15804,7.3324385,-0.17483956,0.97817266,0.07776316,-0.80334985,0.7396406,0.20553625,0.5055655,0.65963703,0.6323843,-0.5261492,1.5413258,-0.86671394,-1.8227699,-0.9287331,2.127667,1.2878484,-1.0007788,1.6073672,-0.92737997,-1.8397701,-0.9699999,2.0710225,1.2300917,-0.9519071,-1.4292885,1.3314162,0.35249522,0.92423195,0.9346187,0.5434148,-0.37557134,2.3532486,-0.24397278,0.9810774,-2.7504914,-0.19525363,3.914467,0.37820435,-0.5357361,0.80893546,0.7093287,0.071501635,0.097802415,0.69438815,-1.2430342,-0.11449938,1.1209233,1.0,0.0,0.0,0.0,0.0,0.0,0.0,-3.0032487,-0.15602723,-0.43107736,-0.01900196,0.61023235,-1.17625,-1.882267,1.1260629,-1.8685818,-0.51413774
13.550413,59.576824,18.91745,5.24909,-0.3821908,0.9598894,0.21428642,-0.7998231,0.7430215,0.2265938,0.46476954,0.6633149,0.63637686,-0.52356046,1.5273849,-0.8530778,-1.8171107,-0.92352295,2.137354,1.2937294,-1.0042632,1.5930773,-0.91405237,-1.8361537,-0.961064,2.0804257,1.2354094,-0.9556703,-1.4294081,1.3330734,0.36588547,0.88264036,0.94259137,0.52827317,-0.37752813,2.3257637,-0.2459259,1.0194561,-2.7477415,-0.1950584,3.8123677,0.3658676,-0.53657913,0.82004195,0.7175443,0.061978403,0.09471922,0.68725324,-1.2306683,-0.057866964,1.1038151,1.0,0.0,0.0,0.0,0.0,0.0,0.0,-2.9757638,-0.1540741,-0.46945614,-0.15494823,0.12333393,1.6887367,-4.372859,0.82873106,-1.3970733,-0.4677832
15.616098,61.456093,19.722942,4.643384,-0.49478683,0.96253425,0.27368215,-0.79818,0.7532635,0.2352206,0.44307715,0.6691276,0.6317745,-0.51009417,1.5132593,-0.83872604,-1.8126317,-0.9167563,2.1473384,1.2985868,-1.0066798,1.5787874,-0.90068376,-1.8323066,-0.95260966,2.0899053,1.2405955,-0.9594411,-1.4294491,1.3379996,0.39223012,0.83233255,0.9495667,0.51571184,-0.37779173,2.2983055,-0.24787521,1.0568148,-2.7449942,-0.1948634,3.7103705,0.3536911,-0.5368118,0.83099556,0.7253485,0.052489895,0.09172351,0.6802214,-1.2140105,0.0036710124,1.0889832,1.0,0.0,0.0,0.0,0.0,0.0,0.0,-2.9483056,-0.15212479,-0.5068148,-0.14846325,0.4508257,2.9994428,-5.234444,0.7277489,-1.1236191,-0.30094385
15.519594,62.14068,19.793335,5.2694254,-0.473886,0.9385853,0.25857002,-0.79618853,0.75836027,0.2409707,0.4353628,0.66921896,0.6339822,-0.50669855,1.4991686,-0.82484776,-1.8082095,-0.90907335,2.1568272,1.3039937,-1.010111,1.5645052,-0.88724935,-1.8281868,-0.9446007,2.0994344,1.2456728,-0.96321005,-1.4282869,1.3451192,0.41977528,0.78975856,0.95434594,0.5056327,-0.37737152,2.2708778,-0.24982071,1.0931542,-2.7422497,-0.19466856,3.608475,0.3416748,-0.53643036,0.84182256,0.73274726,0.043002542,0.088819236,0.6733077,-1.1967763,0.06426812,1.0767598,1.0,0.0,0.0,0.0,0.0,0.0,0.0,-2.920878,-0.1501793,-0.5431542,-0.018978119,0.6744385,3.1004846,-4.4440866,0.51972866,-0.87902546,-0.22258162
16.485847,60.200363,18.727356,4.1171494,-0.6192632,0.7262807,0.27232128,-0.79537725,0.7635263,0.23073523,0.39005,0.6767233,0.6420209,-0.49554786,1.4849675,-0.8108967,-1.8051132,-0.9055957,2.1671066,1.3098749,-1.0127648,1.5502383,-0.8737291,-1.8239009,-0.93710387,2.109017,1.250672,-0.9669637,-1.4266001,1.3541428,0.43259698,0.73567355,0.9601141,0.49860132,-0.3756029,2.243473,-0.2517662,1.1284754,-2.7395082,-0.19447394,3.5066814,0.32987595,-0.5354576,0.85247844,0.7397393,0.033554334,0.0860498,0.6665247,-1.1728892,0.12360469,1.0577708,1.0,0.0,0.0,0.0,0.0,0.0,0.0,-2.8934731,-0.1482338,-0.5784754,0.035262108,0.8758545,1.6033411,-5.5999994,0.6309271,-0.5341053,-0.071680546
18.998543,60.74116,18.966755,2.6735363,-0.8130014,0.6256328,0.34000227,-0.7950792,0.77102894,0.2572567,0.33817405,0.6776208,0.6426959,-0.48910552,1.4707303,-0.7966262,-1.7981752,-0.90328646,2.176779,1.3149415,-1.0158743,1.5359865,-0.8601011,-1.8194339,-0.9302746,2.1186528,1.2556158,-0.9706964,-1.424995,1.365611,0.45247576,0.66480315,0.96486884,0.49354166,-0.37319908,2.2160988,-0.2537117,1.1627796,-2.7367692,-0.19427949,3.4049897,0.31835938,-0.5338478,0.8629304,0.7462853,0.024175597,0.083443336,0.6599325,-1.1413842,0.18689792,1.0367532,1.0,0.0,0.0,0.0,0.0,0.0,0.0,-2.8660989,-0.1462883,-0.61277956,0.026965141,1.1262894,2.311653,-7.273817,0.5309105,-0.29886365,-0.0026524067
21.09343,58.25177,17.999807,0.6944089,-1.0056804,0.37615946,0.4000755,-0.79293656,0.7718624,0.26089817,0.27906325,0.6803341,0.6431095,-0.47483945,1.4566929,-0.7829149,-1.7933441,-0.9023683,2.1866863,1.3199267,-1.0181804,1.5217577,-0.8463758,-1.8147972,-0.924296,2.1283307,1.2605196,-0.97439474,-1.4225181,1.374738,0.46857834,0.57487744,0.9693121,0.49019045,-0.36947235,2.1887512,-0.25565338,1.1960676,-2.7340329,-0.19408526,3.3033996,0.30723572,-0.5316124,0.8731136,0.7523429,0.01492948,0.08103368,0.65359825,-1.1002761,0.24911106,1.0077002,1.0,0.0,0.0,0.0,0.0,0.0,0.0,-2.8387513,-0.14434662,-0.64606756,0.120687485,0.90641975,1.9096434,-9.183132,0.5093813,-0.07100105,0.14517903
24.086704,57.584137,17.922667,-1.518281,-1.2314558,0.20047039,0.5001138,-0.79457617,0.7764439,0.2898677,0.19968954,0.68490475,0.63993734,-0.47114965,1.4423001,-0.7687314,-1.7858104,-0.9043271,2.1968212,1.3245133,-1.0215096,1.5075442,-0.8325666,-1.8099105,-0.91941416,2.1380582,1.2653967,-0.97805494,-1.4215381,1.3830744,0.4963239,0.45878106,0.97416645,0.4878674,-0.36558867,2.1614304,-0.25759125,1.2283404,-2.7312994,-0.19389121,3.201911,0.2965889,-0.5287323,0.88296896,0.7578479,0.0058772415,0.07883241,0.64762443,-1.0489798,0.31371763,0.9735497,1.0,0.0,0.0,0.0,0.0,0.0,0.0,-2.8114305,-0.14240876,-0.6783404,-0.0228405,0.8391857,3.0617476,-11.793268,0.5580902,0.088465214,0.17437339
31.246021,56.164436,17.800343,-6.8181643,-1.779979,-0.15865234,0.69803023,-0.7868126,0.77993834,0.31644627,0.06696801,0.6899947,0.63748044,-0.4662471,1.4288629,-0.7545728,-1.778266,-0.91271734,2.2070577,1.3291447,-1.0246797,1.4933707,-0.8186821,-1.8046672,-0.91609156,2.147839,1.2702585,-0.98167604,-1.4163327,1.3903395,0.534603,0.28959924,0.979864,0.48700562,-0.3615824,2.13414,-0.2595291,1.259599,-2.7285688,-0.19369736,3.100524,0.28661728,-0.5251541,0.8923884,0.76267314,-0.0028638046,0.076880455,0.6421922,-0.97492176,0.3847964,0.92657024,1.0,0.0,0.0,0.0,0.0,0.0,0.0,-2.78414,-0.14047089,-0.70959896,0.41692257,0.74710846,4.101515,-17.093159,0.6405473,0.34861565,0.20443201
32.822807,54.943825,17.329062,-8.252212,-1.9306784,-0.37105,0.75028086,-0.78775877,0.7850746,0.33653548,-0.021270197,0.6890895,0.63600487,-0.4505107,1.4145948,-0.7401746,-1.7710137,-0.91821855,2.216748,1.3338591,-1.0267271,1.4792429,-0.80472124,-1.7990158,-0.91458476,2.1576657,1.2751147,-0.9852485,-1.4119714,1.3980658,0.5759873,0.1039572,0.98410314,0.48676708,-0.35623947,2.1068726,-0.26146698,1.2898445,-2.7258408,-0.19350371,2.9992383,0.27745056,-0.5208664,0.90130776,0.76676655,-0.0112136025,0.07521144,0.6374061,-0.8924407,0.45344505,0.8753675,1.0,0.0,0.0,0.0,0.0,0.0,0.0,-2.7568727,-0.13853303,-0.7398445,0.36041737,0.8121252,4.3417335,-18.70963,0.52404404,0.4495859,0.3766954
34.9177,52.916775,16.550907,-10.408302,-2.1511703,-0.653345,0.81603116,-0.7862477,0.7895735,0.3544458,-0.14611953,0.68854517,0.6327983,-0.42429867,1.4006182,-0.7257639,-1.7635711,-0.9291967,2.2265203,1.3383945,-1.0276784,1.4651572,-0.79068124,-1.7929637,-0.9151083,2.1675267,1.2799689,-0.98874944,-1.4077286,1.4061526,0.6153444,-0.10481792,0.9868779,0.48687842,-0.3484819,2.0796356,-0.26340103,1.319078,-2.7231154,-0.19331025,2.898054,0.2691841,-0.5159035,0.9096619,0.7701016,-0.01908219,0.07387286,0.633342,-0.79888695,0.5194652,0.8168609,1.0,0.0,0.0,0.0,0.0,0.0,0.0,-2.7296357,-0.13659897,-0.76907796,0.38216114,0.86688995,4.06543,-20.991386,0.40254593,0.529027,0.66180825
32.489307,50.447163,15.622785,-8.901237,-1.9126351,-0.7643729,0.76995796,-0.7823302,0.78523874,0.37985036,-0.21706013,0.6937515,0.6318041,-0.3944507,1.3869241,-0.71215737,-1.7549787,-0.9368143,2.2369018,1.3431493,-1.0281945,1.451121,-0.7765993,-1.7865112,-0.9175736,2.177422,1.284825,-0.992155,-1.4022791,1.4090669,0.6552699,-0.29409015,0.9908959,0.48675042,-0.33815676,2.0524254,-0.26533127,1.3473003,-2.720393,-0.19311698,2.7969706,0.26181793,-0.5103531,0.9174482,0.7727203,-0.026456095,0.07284371,0.6299978,-0.7097122,0.57504624,0.76037174,1.0,0.0,0.0,0.0,0.0,0.0,0.0,-2.7024255,-0.13466874,-0.7973003,0.5384922,0.3704548,4.0201426,-19.013262,0.57115555,0.48154593,0.95539093
27.594831,53.32416,16.740381,-3.6738482,-1.388165,-0.49504542,0.65715915,-0.7784132,0.791383,0.43268245,-0.23929837,0.68877035,0.6304878,-0.33396894,1.3732797,-0.697461,-1.743243,-0.9415034,2.246299,1.3478737,-1.0255519,1.4371477,-0.7624792,-1.7795227,-0.92150176,2.1873364,1.2896734,-0.99541944,-1.3956722,1.4132769,0.71309483,-0.42591712,0.99282193,0.48580077,-0.32269233,2.0252419,-0.2672615,1.3745126,-2.7176733,-0.1929239,2.6959884,0.25519943,-0.50427246,0.92481256,0.7747166,-0.03348346,0.07202849,0.6272997,-0.6389281,0.6253431,0.7228037,1.0,0.0,0.0,0.0,0.0,0.0,0.0,-2.675242,-0.1327385,-0.82451254,0.67169666,0.52273273,5.70029,-13.241493,0.448215,0.32616258,1.4883399
23.914177,53.310295,16.723177,-0.3857913,-1.0482566,-0.40260303,0.5647436,-0.7735061,0.7923227,0.4595286,-0.2868792,0.68463296,0.6320325,-0.28560513,1.3597971,-0.6832469,-1.7335697,-0.95018965,2.2557998,1.3528767,-1.0239799,1.4232508,-0.74832284,-1.771939,-0.92646086,2.1972547,1.2945124,-0.9985027,-1.3876443,1.4167693,0.77296805,-0.519446,0.992628,0.48458776,-0.30366954,1.998085,-0.26919174,1.4007158,-2.714956,-0.19273101,2.5951073,0.2491951,-0.49773788,0.9318725,0.7761791,-0.04028952,0.07135945,0.6251644,-0.5796609,0.66969514,0.6944464,1.0,0.0,0.0,0.0,0.0,0.0,0.0,-2.648085,-0.13080826,-0.8507158,0.8225441,0.4673481,5.834353,-9.40463,0.28601885,0.2597928,1.858145
21.83031,51.180714,15.855712,0.6594963,-0.9234345,-0.48191285,0.51301986,-0.77188987,0.7925288,0.47741976,-0.35074073,0.6845259,0.6272943,-0.25616097,1.3460618,-0.66906995,-1.724197,-0.9615349,2.2657073,1.3572419,-1.0241188,1.4094244,-0.73414075,-1.7638137,-0.9322716,2.207169,1.2993361,-1.0013876,-1.3807656,1.4191349,0.824978,-0.6016757,0.99193925,0.48286566,-0.2836076,1.9709549,-0.27111435,1.4259111,-2.7122416,-0.19253832,2.4943268,0.24375534,-0.49079514,0.9386493,0.77716714,-0.046891883,0.07083032,0.6235345,-0.5237643,0.7081282,0.6659213,1.0,0.0,0.0,0.0,0.0,0.0,0.0,-2.620955,-0.12888566,-0.87591106,0.7117748,0.36258698,5.0198674,-8.274185,0.2449274,0.19405484,1.9762278
18.795925,48.414608,14.726631,2.3970985,-0.69701695,-0.5418901,0.4368328,-0.76817214,0.7908447,0.49170083,-0.37656808,0.689006,0.62776357,-0.20722634,1.3326073,-0.6550563,-1.7146436,-0.9699284,2.2760696,1.3621124,-1.0221102,1.3956648,-0.719952,-1.7552593,-0.9387547,2.217091,1.3041426,-1.004056,-1.3742741,1.4192485,0.8649132,-0.6640884,0.9929707,0.48106843,-0.2611925,1.9438553,-0.27303696,1.4500992,-2.70953,-0.19234581,2.3936472,0.23882675,-0.4835167,0.94515,0.77774775,-0.053292263,0.070434615,0.6223401,-0.47443998,0.7383132,0.63838553,1.0,0.0,0.0,0.0,0.0,0.0,0.0,-2.5938554,-0.12696305,-0.9000992,0.66878796,0.14429092,3.7955642,-6.3052177,0.4205227,0.1603365,2.217704
16.065155,46.254047,13.755882,3.8851638,-0.5263521,-0.5923683,0.3654409,-0.7688746,0.7934458,0.50167,-0.40273115,0.6930592,0.62454206,-0.16191047,1.3187773,-0.6406074,-1.7050923,-0.9790278,2.286397,1.3665968,-1.020247,1.3819472,-0.7057556,-1.7463996,-0.9457613,2.2270322,1.3089281,-1.0064859,-1.3708125,1.4201378,0.8921089,-0.71316415,0.9957071,0.47892156,-0.23701331,1.9167786,-0.27495956,1.4732813,-2.706821,-0.19215351,2.2930682,0.2343483,-0.47598267,0.9513825,0.7779871,-0.05948737,0.07018065,0.6215077,-0.43052557,0.7621246,0.611566,1.0,0.0,0.0,0.0,0.0,0.0,0.0,-2.5667787,-0.12504044,-0.92328125,0.35362244,0.22699833,2.5207996,-4.983616,0.5887151,0.100666285,2.4006069
13.845429,44.691936,13.128458,5.2598033,-0.38872772,-0.60685825,0.30993816,-0.76994854,0.7939935,0.51669663,-0.4208259,0.68712735,0.62318134,-0.112781614,1.3049523,-0.62635624,-1.6947299,-0.98784393,2.295745,1.3712462,-1.0177641,1.368241,-0.69154966,-1.737313,-0.9531685,2.236981,1.3136946,-1.0086603,-1.37049,1.4211773,0.9136954,-0.75012434,0.9958774,0.4766533,-0.21097317,1.8897324,-0.27688217,1.4954584,-2.7041147,-0.1919614,2.1925898,0.2302742,-0.46824265,0.95735896,0.7779393,-0.0654863,0.07007888,0.62097573,-0.39147034,0.781784,0.5863623,1.0,0.0,0.0,0.0,0.0,0.0,0.0,-2.5397325,-0.123117834,-0.94545835,0.026488304,0.24619102,1.961875,-3.7830234,0.33408403,0.065368414,2.589479
12.929791,43.18233,12.594835,5.7056794,-0.34264857,-0.6660434,0.28427482,-0.7680817,0.79438156,0.5251301,-0.44283774,0.6854285,0.62466455,-0.07110402,1.2914327,-0.6121115,-1.6848,-0.99745226,2.3055239,1.3761611,-1.0157707,1.3545347,-0.6773342,-1.728049,-0.96091044,2.2469258,1.3184382,-1.0105696,-1.370509,1.4222094,0.92992085,-0.78256136,0.9947736,0.47471187,-0.1841245,1.862709,-0.27879715,1.5166314,-2.7014112,-0.19176948,2.092212,0.22657776,-0.46033096,0.96308184,0.77763593,-0.07128575,0.07013943,0.62071013,-0.35350809,0.7986053,0.5607992,1.0,0.0,0.0,0.0,0.0,0.0,0.0,-2.5127091,-0.12120286,-0.96663135,-0.011777878,0.24724007,1.4307618,-3.3353567,0.20033121,0.08593798,2.6723952
10.914521,39.876305,11.3417015,6.3437967,-0.20931304,-0.7523792,0.24539627,-0.7747236,0.78963965,0.5262797,-0.4606478,0.6892934,0.6222381,-0.026873931,1.2770624,-0.5983702,-1.6754211,-1.0069752,2.3158553,1.380662,-1.0132569,1.3407942,-0.663133,-1.7186763,-0.9689566,2.256867,1.3231627,-1.0122023,-1.3752294,1.419925,0.9391433,-0.8122792,0.99482596,0.47261068,-0.15647997,1.8357162,-0.28071213,1.5368013,-2.6987102,-0.19157775,1.9919343,0.22323608,-0.45228195,0.96853256,0.77711135,-0.07686224,0.0703675,0.62067574,-0.31872192,0.80893326,0.53293383,1.0,0.0,0.0,0.0,0.0,0.0,0.0,-2.4857163,-0.11928788,-0.9868013,-0.49700737,-0.08625984,0.75273514,-3.0804634,0.29799938,0.05096197,2.75099
8.467326,38.248905,10.798091,8.185076,-0.0058849454,-0.7138611,0.18981923,-0.77985054,0.7878376,0.5338389,-0.45210624,0.6819702,0.62660325,0.042232934,1.2628092,-0.5843493,-1.6652924,-1.0141672,2.325064,1.385823,-1.0079789,1.3269831,-0.64896524,-1.7092235,-0.9771725,2.2667851,1.3278719,-1.0135374,-1.3833742,1.4162112,0.9469773,-0.8251346,0.9921217,0.47100094,-0.12572172,1.8087502,-0.2826271,1.5559692,-2.696012,-0.19138621,1.8917568,0.22018814,-0.4441681,0.9737314,0.776412,-0.08224005,0.070753425,0.62081796,-0.2911119,0.8152949,0.50857997,1.0,0.0,0.0,0.0,0.0,0.0,0.0,-2.4587502,-0.1173729,-1.0059693,-0.8615732,-0.22599697,0.6232619,-1.4135242,0.028645992,0.07287264,3.0572891
5.800876,36.552162,10.328029,10.499496,0.2710942,-0.64013785,0.1283479,-0.7844305,0.78235036,0.54066396,-0.43142647,0.68176776,0.6322351,0.10848399,1.24854,-0.5707302,-1.6551571,-1.0203152,2.334962,1.3910954,-1.002689,1.3130747,-0.6348566,-1.6996887,-0.98534167,2.2766805,1.3325697,-1.0145426,-1.3934262,1.4096055,0.9553436,-0.81466174,0.98957217,0.46993917,-0.09233659,1.7818108,-0.28454208,1.5741361,-2.6933167,-0.19119486,1.7916794,0.21734619,-0.43601608,0.9787265,0.7755827,-0.0874794,0.07125496,0.6210809,-0.27287823,0.81732124,0.48953316,1.0,0.0,0.0,0.0,0.0,0.0,0.0,-2.4318109,-0.11545792,-1.0241361,-1.0770082,-0.51140785,0.683558,0.8948326,0.05661249,0.098890066,3.310153
4.562043,35.064255,9.917799,11.590847,0.39723003,-0.6328278,0.10490847,-0.7884968,0.7778552,0.5422019,-0.4224946,0.6752941,0.63891345,0.18958871,1.234225,-0.5570711,-1.6454685,-1.0275911,2.34421,1.396461,-0.9955837,1.2990652,-0.6208261,-1.6900814,-0.9933201,2.2865338,1.3372618,-1.0151854,-1.4036729,1.4013586,0.96197075,-0.7927838,0.9850774,0.46960047,-0.05508186,1.7548981,-0.28644943,1.591303,-2.6906238,-0.1910037,1.6917021,0.21465683,-0.42786407,0.98354846,0.77464795,-0.09262105,0.07185504,0.6214327,-0.25860938,0.81688434,0.47272977,1.0,0.0,0.0,0.0,0.0,0.0,0.0,-2.4048982,-0.11355057,-1.0413029,-1.1089325,-0.67543983,0.51984787,2.0234585,-0.13796091,0.15501976,3.6915808
2.2417684,33.498604,9.420058,13.707383,0.613246,-0.5639049,0.03201509,-0.7963668,0.772861,0.54013056,-0.38553593,0.6657587,0.6542179,0.24519633,1.2194285,-0.54354,-1.6360683,-1.0318737,2.3531096,1.4026836,-0.99066573,1.2849413,-0.60688627,-1.6804378,-1.0009199,2.2963185,1.3419615,-1.0154505,-1.4156984,1.3920783,0.9645758,-0.7496597,0.9774898,0.4706929,-0.016985063,1.7280121,-0.28835678,1.6074709,-2.6879337,-0.19081274,1.5918248,0.21205139,-0.41973877,0.9882388,0.7736539,-0.09772253,0.072538935,0.6218103,-0.25236812,0.8132844,0.4607577,1.0,0.0,0.0,0.0,0.0,0.0,0.0,-2.3780122,-0.111643225,-1.0574708,-1.3133049,-0.7769108,0.1318574,4.1264057,-0.43952465,0.2719283,3.767583
2.7600946,33.905144,9.842647,14.042737,0.62070185,-0.55431014,0.040072642,-0.7961896,0.77097005,0.5487481,-0.36687094,0.6686213,0.6544112,0.28724045,1.2053224,-0.52978927,-1.625563,-1.0376071,2.3631806,1.4074026,-0.9867264,1.2707239,-0.5930275,-1.6707485,-1.0080515,2.306046,1.3466727,-1.0153399,-1.4240409,1.3843555,0.9700132,-0.70146024,0.97226256,0.47184896,0.020236282,1.7011528,-0.29026413,1.6226407,-2.6852465,-0.19062196,1.4920472,0.20950317,-0.41163254,0.9928298,0.7726058,-0.10282379,0.073287904,0.62220293,-0.24617296,0.8115586,0.4516152,1.0,0.0,0.0,0.0,0.0,0.0,0.0,-2.351153,-0.10973588,-1.0726407,-0.9416342,-0.6207943,0.41315556,4.642689,-0.1999855,0.27468204,3.6802363
2.232419,33.859226,10.142467,15.404523,0.74253845,-0.48614782,0.015539333,-0.7964686,0.76545084,0.5557864,-0.31878972,0.6661023,0.660592,0.3280348,1.1910771,-0.5164824,-1.6151699,-1.0399305,2.3726563,1.4127319,-0.9825364,1.2564512,-0.57924783,-1.6609809,-1.0145746,2.3157277,1.3513991,-1.0148668,-1.4286096,1.3763809,0.97853464,-0.636489,0.9680897,0.47338957,0.05619335,1.6743202,-0.29217148,1.6368135,-2.6825616,-0.19043137,1.3923695,0.20698166,-0.40353012,0.9973692,0.7715091,-0.107987665,0.0740659,0.6225966,-0.24440655,0.8104956,0.4478264,1.0,0.0,0.0,0.0,0.0,0.0,0.0,-2.3243203,-0.10782853,-1.0868134,-0.57001114,-0.64327717,0.7167816,6.317222,-0.081038475,0.30053258,3.5490246
3.5309129,32.783924,9.868905,14.116074,0.63168645,-0.61376953,0.05080022,-0.7964296,0.76036406,0.55331784,-0.31366926,0.671243,0.6622568,0.35104397,1.1768082,-0.50321144,-1.6056491,-1.0459416,2.382852,1.4176247,-0.97976243,1.2421595,-0.56555116,-1.6511505,-1.0205446,2.3253942,1.3561407,-1.0140562,-1.4296997,1.3679885,0.9840274,-0.58454597,0.96731156,0.4750019,0.08921444,1.6475143,-0.2940712,1.6499903,-2.6798797,-0.19024098,1.2927915,0.204525,-0.3954544,1.0018414,0.7703479,-0.113193214,0.07486604,0.6230139,-0.2370271,0.8092358,0.44011,1.0,0.0,0.0,0.0,0.0,0.0,0.0,-2.2975144,-0.10592881,-1.0999904,-0.20372868,-0.692606,0.42535067,5.0306797,0.23177862,0.31459332,3.258276
5.7930193,32.732826,9.878449,11.744972,0.36461592,-0.7845137,0.116432816,-0.7992474,0.76077265,0.5566212,-0.32479724,0.6725905,0.6617649,0.36481342,1.1622348,-0.48947388,-1.5954883,-1.0530244,2.3926532,1.4223173,-0.9775749,1.2278582,-0.5519155,-1.6412685,-1.0262057,2.3350682,1.3608977,-1.0129423,-1.4303907,1.3625263,0.98903227,-0.56056166,0.9680235,0.47651818,0.11861707,1.6207352,-0.29597092,1.6621721,-2.6772003,-0.19005077,1.1933129,0.2022171,-0.3873558,1.0061862,0.76908445,-0.11835938,0.07572442,0.623511,-0.2191959,0.81017303,0.42569745,1.0,0.0,0.0,0.0,0.0,0.0,0.0,-2.2707353,-0.10402909,-1.1121721,-0.14145374,-0.40912628,0.39491653,2.2641778,0.34754276,0.32182336,2.9051468
6.5004067,31.818005,9.571982,10.8688965,0.26810133,-0.8917908,0.1358326,-0.7972458,0.75703317,0.5548275,-0.3086985,0.6668357,0.6587913,0.4034465,1.1481336,-0.4762122,-1.5857857,-1.0570755,2.4017518,1.4267768,-0.97259766,1.2135664,-0.53833044,-1.6313636,-1.0316969,2.3447309,1.365666,-1.0115404,-1.4290503,1.3575859,0.9907954,-0.5457721,0.9666804,0.47754946,0.14716262,1.5939827,-0.29787064,1.6733599,-2.6745236,-0.18986076,1.0939338,0.20012283,-0.37926102,1.010364,0.76770097,-0.12343195,0.07667925,0.6241153,-0.19697656,0.81064343,0.4083892,1.0,0.0,0.0,0.0,0.0,0.0,0.0,-2.2439828,-0.10212937,-1.1233599,0.07293224,-0.36137104,0.07892847,1.3550282,0.12385845,0.27581453,2.8217614
7.252613,30.695213,9.244927,9.88115,0.19005257,-1.0029508,0.16365573,-0.79397875,0.75173163,0.5573574,-0.30855903,0.6674979,0.65582204,0.42567512,1.1341685,-0.46315727,-1.5756279,-1.0625528,2.4114807,1.4312482,-0.9689729,1.1993071,-0.5248045,-1.6214416,-1.0371214,2.354382,1.3704401,-1.0098696,-1.4251679,1.3514235,0.9923702,-0.54160017,0.96521443,0.4781114,0.1736832,1.5672569,-0.29977036,1.6835545,-2.6718497,-0.18967094,0.9946542,0.19828033,-0.37117004,1.0143448,0.7661826,-0.12836778,0.07773946,0.624854,-0.17044982,0.8101636,0.3878921,1.0,0.0,0.0,0.0,0.0,0.0,0.0,-2.217257,-0.10022965,-1.1335545,0.34370422,-0.48799515,0.063323975,0.30423403,0.09391308,0.2327323,2.6210518
3.4751437,28.237206,8.574512,14.270434,0.65571404,-0.8143855,0.022650339,-0.7847807,0.74306494,0.5455799,-0.21560964,0.65600634,0.6581448,0.47063756,1.120829,-0.45049798,-1.5668836,-1.0586823,2.4199827,1.4362546,-0.9628058,1.185124,-0.51136625,-1.6115654,-1.042113,2.3639874,1.37522,-1.0079298,-1.4162734,1.3417376,0.98565865,-0.4857176,0.9598983,0.47835383,0.20051129,1.5405579,-0.30166245,1.6927571,-2.6691782,-0.1894813,0.8954737,0.19657898,-0.3631096,1.0182136,0.7645973,-0.13328047,0.07885757,0.6256267,-0.1609865,0.80493456,0.37976044,1.0,0.0,0.0,0.0,0.0,0.0,0.0,-2.190558,-0.09833756,-1.1427572,0.80451965,-0.82786083,-0.7778406,5.4311156,-0.24867058,0.16121268,2.6384563
3.6500578,27.346788,8.316838,13.898724,0.6233681,-0.8713869,0.026334386,-0.784615,0.7403237,0.5461399,-0.2238812,0.65813404,0.6555273,0.4695964,1.1066625,-0.43733388,-1.5569514,-1.064501,2.4298007,1.4407727,-0.96097016,1.171023,-0.49802324,-1.6017578,-1.0466028,2.373551,1.3799998,-1.0057516,-1.4084011,1.3323574,0.9788417,-0.43726102,0.9556049,0.47822136,0.22349356,1.5138855,-0.30355453,1.7009686,-2.6665096,-0.18929186,0.79639244,0.19498062,-0.35510635,1.0219889,0.7629689,-0.1381901,0.08001744,0.62640166,-0.14974912,0.79956853,0.37017557,1.0,0.0,0.0,0.0,0.0,0.0,0.0,-2.1638856,-0.09644547,-1.1509686,0.70319176,-0.80230236,-0.77393055,4.696727,-0.16144514,0.120574236,2.256757
3.8233545,26.721382,8.239121,13.719027,0.6235467,-0.9037086,0.04197834,-0.7818549,0.73554856,0.5485027,-0.2085557,0.6652318,0.65385276,0.4863322,1.0928376,-0.4244684,-1.5469075,-1.0674584,2.440074,1.445385,-0.9571184,1.1569926,-0.4847729,-1.591996,-1.0506502,2.383099,1.3847758,-1.0033579,-1.4014789,1.3230263,0.9752202,-0.39430434,0.9553601,0.47781312,0.24439788,1.4872398,-0.30544662,1.7081902,-2.6638436,-0.1891026,0.69741017,0.19350815,-0.34714508,1.0256643,0.7612893,-0.14308165,0.081209354,0.62719315,-0.13773933,0.79431605,0.36012194,1.0,0.0,0.0,0.0,0.0,0.0,0.0,-2.13724,-0.09455338,-1.1581903,0.60765743,-0.8010626,-0.44283867,4.1544256,0.23597479,0.09021759,2.0508707
3.499836,24.006905,6.979269,12.541259,0.5526671,-1.053972,0.034962565,-0.7874172,0.72819227,0.5326881,-0.2111451,0.6541198,0.65457314,0.48919848,1.0782509,-0.41195366,-1.5387272,-1.0717647,2.4485111,1.4502331,-0.95443803,1.142985,-0.471626,-1.5823238,-1.0544115,2.3926167,1.389548,-1.0007772,-1.4009298,1.3123335,0.96442896,-0.370494,0.95152223,0.4774898,0.2622894,1.4606209,-0.3073387,1.7144226,-2.6611803,-0.18891354,0.5985269,0.19218445,-0.33927917,1.0291897,0.7595714,-0.14788616,0.082465075,0.6279973,-0.121753715,0.7848935,0.34360352,1.0,0.0,0.0,0.0,0.0,0.0,0.0,-2.110621,-0.09266129,-1.1644225,-0.03232956,-0.94685555,-1.1288047,2.2427976,-0.15577078,0.10001063,1.7541468
3.2868922,22.078093,6.104711,11.968302,0.53496146,-1.1659901,0.02282948,-0.7833533,0.7230514,0.51522684,-0.19931936,0.65294135,0.6539277,0.5003944,1.0646497,-0.39932087,-1.530801,-1.0743434,2.4579108,1.4549407,-0.95073783,1.1289831,-0.45858642,-1.572829,-1.0579954,2.4020963,1.3943182,-0.9980335,-1.4002606,1.3016186,0.94444656,-0.35475537,0.947448,0.47714207,0.27829707,1.4340286,-0.30922318,1.719667,-2.6585197,-0.18872467,0.4997425,0.19104004,-0.3315239,1.0325263,0.7578376,-0.15254568,0.08381235,0.6287985,-0.10353147,0.7720687,0.32407942,1.0,0.0,0.0,0.0,0.0,0.0,0.0,-2.0840287,-0.09077683,-1.169667,-0.01540184,-0.9542227,-2.036059,1.4381468,-0.19879341,0.095927715,1.5678346
4.7053986,23.700378,6.8328905,11.076725,0.36967963,-1.2100142,0.0659957,-0.7800564,0.7256724,0.5189852,-0.20187984,0.6527008,0.656251,0.5076007,1.0509775,-0.38601917,-1.5209305,-1.0781834,2.4673665,1.4599433,-0.94727343,1.1149985,-0.44561407,-1.5634925,-1.0615088,2.4115376,1.3990866,-0.9951439,-1.3982087,1.2961398,0.9299762,-0.35039485,0.944059,0.47711328,0.29245698,1.4074631,-0.31110764,1.7239243,-2.6558616,-0.18853597,0.40105695,0.19011307,-0.3238678,1.0356606,0.7560692,-0.15703407,0.08527646,0.62962484,-0.07986294,0.763528,0.30378422,1.0,0.0,0.0,0.0,0.0,0.0,0.0,-2.0574632,-0.08889237,-1.1739242,0.13504028,-0.43284893,-1.4823914,0.32392144,-0.13792515,0.13068318,1.3884723
3.6954043,20.25849,5.329632,10.685869,0.43392402,-1.3301358,0.036479488,-0.7829971,0.7140172,0.49261093,-0.20373029,0.6481004,0.65790063,0.51074207,1.0366987,-0.37421235,-1.5142314,-1.0818818,2.4763477,1.4648767,-0.9440697,1.1010195,-0.43272325,-1.5543773,-1.0650336,2.4209409,1.403855,-0.9921274,-1.3981779,1.2870787,0.9053586,-0.3534663,0.9396687,0.47723642,0.30464768,1.3809242,-0.3129921,1.7271955,-2.6532063,-0.18834747,0.30247003,0.18942642,-0.3163376,1.038563,0.7542865,-0.16130488,0.08686699,0.6304654,-0.05600937,0.74840474,0.27966562,1.0,0.0,0.0,0.0,0.0,0.0,0.0,-2.0309243,-0.08700791,-1.1771955,-0.065517426,-0.7962465,-2.4844646,-0.42603612,-0.2612114,0.14141202,1.1926413
5.677834,18.967497,4.4184265,6.527309,0.10113698,-1.6613759,0.1270873,-0.7849026,0.70991933,0.47718975,-0.28011805,0.6486183,0.65043145,0.5029387,1.0225292,-0.36173132,-1.5066583,-1.0930454,2.4858027,1.468898,-0.94183356,1.0870291,-0.41992542,-1.5455387,-1.0689627,2.430306,1.4086214,-0.98900986,-1.399288,1.2776493,0.8766781,-0.4063518,0.9358938,0.47687516,0.31409374,1.3544121,-0.31487656,1.7294816,-2.6505537,-0.18815917,0.20398167,0.18910599,-0.30898666,1.0411184,0.7524738,-0.16518918,0.088639304,0.6313784,-0.016389316,0.7291224,0.2415414,1.0,0.0,0.0,0.0,0.0,0.0,0.0,-2.0044122,-0.08512345,-1.1794815,-0.11484623,-0.8489847,-2.8874397,-5.3676605,-0.2659917,0.115829706,0.92678666
7.660299,19.841217,4.657598,3.815216,-0.16856146,-1.8425719,0.21585505,-0.7827059,0.7092196,0.47512382,-0.33304223,0.6487076,0.6526946,0.5056207,1.0087585,-0.34900346,-1.4980263,-1.1022669,2.4951768,1.4738909,-0.9384478,1.0730406,-0.40720436,-1.5369403,-1.0736624,2.4396405,1.413386,-0.9858084,-1.3986382,1.2705745,0.8542634,-0.49150315,0.9328724,0.47684184,0.3220993,1.3279266,-0.3167572,1.7307835,-2.6479037,-0.18797104,0.10559179,0.18925476,-0.30182648,1.0432358,0.750582,-0.16855183,0.090634234,0.6324574,0.03462655,0.7105985,0.195959,1.0,0.0,0.0,0.0,0.0,0.0,0.0,-1.9779266,-0.083242804,-1.1807835,0.119400024,-0.61957836,-2.2795796,-8.55341,-0.22602081,0.15739202,0.7913649
6.7019367,17.857534,4.007497,4.561363,-0.025214583,-1.8500059,0.18849534,-0.7757666,0.69910294,0.45610958,-0.34239775,0.6439963,0.65288466,0.50900155,0.99546397,-0.33729407,-1.4913294,-1.1079022,2.5040402,1.4786744,-0.9349082,1.0590941,-0.39457676,-1.5285823,-1.0791537,2.4489408,1.4181505,-0.98253536,-1.3931038,1.2604619,0.8294161,-0.56840056,0.92907166,0.4766736,0.32897928,1.3014679,-0.31863403,1.7311021,-2.6452563,-0.1877831,0.0073002675,0.18989944,-0.29487228,1.0449095,0.748615,-0.171379,0.0928346,0.63370854,0.0820563,0.6886027,0.15214369,1.0,0.0,0.0,0.0,0.0,0.0,0.0,-1.9514679,-0.08136597,-1.181102,0.6219864,-0.920105,-2.5454879,-7.7335477,-0.30053854,0.12406111,0.6769657
5.328452,13.610029,1.6191276,2.9481697,-0.01949194,-2.0863082,0.1356009,-0.7880973,0.6953082,0.40723154,-0.42558432,0.64819086,0.6585022,0.48051506,0.98028433,-0.32504594,-1.4878591,-1.1217121,2.5137599,1.4840008,-0.9344839,1.0451456,-0.38204834,-1.5206382,-1.0856005,2.4582143,1.4229151,-0.97922325,-1.3950626,1.2505429,0.7826122,-0.67023224,0.92721635,0.47692183,0.33184916,1.2750359,-0.32051086,1.7304386,-2.6426115,-0.18759537,-0.09089298,0.19104767,-0.28821945,1.0460755,0.74664104,-0.17355987,0.09527143,0.63508064,0.13312642,0.65541166,0.099061035,1.0,0.0,0.0,0.0,0.0,0.0,0.0,-1.9250358,-0.07948914,-1.1804385,-0.0998497,-0.91278553,-4.722953,-10.218596,-0.16485453,0.14679432,0.2799213
4.2663198,11.55708,0.8682231,3.5240698,0.12024248,-2.092262,0.1083329,-0.78415513,0.68629825,0.39231938,-0.46511474,0.64618653,0.65866,0.47781622,0.9667301,-0.3134185,-1.4814063,-1.132112,2.5228329,1.4887811,-0.9314416,1.0311857,-0.36963722,-1.513169,-1.093043,2.4674726,1.4276816,-0.975893,-1.3958857,1.238264,0.7347727,-0.76908875,0.9254762,0.4769437,0.33339885,1.2486305,-0.3223877,1.7287939,-2.6399696,-0.1874078,-0.18898804,0.19268036,-0.2819214,1.0467157,0.74469954,-0.1750574,0.09793003,0.63654315,0.1806719,0.6185023,0.046751063,1.0,0.0,0.0,0.0,0.0,0.0,0.0,-1.8986305,-0.07761231,-1.1787939,0.026988983,-1.1485338,-4.8390985,-9.923756,-0.15816689,0.097727776,0.14510751
3.5505877,10.721373,0.6645508,4.2655544,0.19498181,-2.0501347,0.0901835,-0.785357,0.68083614,0.37552005,-0.5120364,0.63201594,0.66205096,0.48184127,0.95265007,-0.3015536,-1.475617,-1.1442466,2.5306742,1.4938867,-0.92770886,1.0172125,-0.35734817,-1.50615,-1.1014429,2.4766774,1.4324518,-0.9725485,-1.3973889,1.2260592,0.6908674,-0.8638321,0.91886103,0.47706553,0.33476081,1.2222481,-0.3242607,1.726169,-2.63733,-0.18722042,-0.28698507,0.19477081,-0.2759819,1.046845,0.7428072,-0.17589024,0.10080113,0.6380746,0.22523332,0.5815018,-0.0038253816,1.0,0.0,0.0,0.0,0.0,0.0,0.0,-1.872248,-0.075739294,-1.1761689,-0.041413307,-1.1392355,-4.450798,-9.513545,-0.64150095,0.08157492,0.123769045
2.9596057,9.1103735,0.72048354,5.543936,0.38918,-1.9343045,0.118704826,-0.7729183,0.65832293,0.37605906,-0.54797244,0.6173108,0.664862,0.5040189,0.93992066,-0.2915159,-1.4685441,-1.1562402,2.5384085,1.4989381,-0.9221466,1.003287,-0.34525558,-1.4994438,-1.1106993,2.4857755,1.4372221,-0.9691763,-1.3905118,1.2039273,0.6634664,-0.94627464,0.9070777,0.47729677,0.33798864,1.1958961,-0.3261299,1.7225648,-2.6346934,-0.18703325,-0.3848841,0.19726181,-0.27040482,1.0464987,0.74093413,-0.17611896,0.103822954,0.63970256,0.26346016,0.5448793,-0.05033161,1.0,0.0,0.0,0.0,0.0,0.0,0.0,-1.8458961,-0.07387009,-1.1725647,0.81641674,-2.1279573,-2.8456807,-8.292448,-1.1301041,0.07583499,0.3020227
2.3474975,7.280014,0.7324661,6.6104374,0.5451966,-1.8114628,0.15315056,-0.7674348,0.6323559,0.38634646,-0.5906573,0.58704025,0.6656063,0.512303,0.9265435,-0.28201997,-1.4608091,-1.169765,2.5444796,1.5037827,-0.917946,0.9894602,-0.3334739,-1.4928463,-1.1207281,2.494679,1.4419962,-0.9657669,-1.3796256,1.1698495,0.65788084,-1.0219646,0.884963,0.47741798,0.34175742,1.1695671,-0.32799911,1.7179824,-2.632059,-0.18684626,-0.4826852,0.20009613,-0.26519775,1.0457084,0.73903424,-0.17581098,0.1069273,0.6414713,0.2959572,0.5093365,-0.09402483,1.0,0.0,0.0,0.0,0.0,0.0,0.0,-1.8195671,-0.07200089,-1.1679823,1.2279987,-3.3213377,-0.700593,-7.625735,-2.1353364,0.04977584,0.34905076
1.9984512,7.1288548,1.0762768,7.610561,0.61072546,-1.7002068,0.15850976,-0.76701784,0.61925733,0.38902417,-0.630899,0.56957465,0.66801953,0.5077323,0.9127584,-0.27154815,-1.4539438,-1.183818,2.5516365,1.5087981,-0.9149937,0.9757301,-0.32204267,-1.4862106,-1.131478,2.5033307,1.4467722,-0.962327,-1.3703601,1.134482,0.66492975,-1.0928797,0.85905373,0.47761402,0.34467018,1.1432686,-0.32986832,1.7124227,-2.6294277,-0.18665944,-0.58038867,0.20323563,-0.26031113,1.0445015,0.73708475,-0.17501684,0.1100846,0.6433946,0.3248032,0.47690707,-0.13490227,1.0,0.0,0.0,0.0,0.0,0.0,0.0,-1.7932686,-0.07013169,-1.1624227,1.0439396,-3.448248,0.56489706,-7.1534395,-2.494657,0.038820505,0.26415586
1.2257795,6.3318796,1.0870714,9.001872,0.74209374,-1.5901334,0.13846126,-0.76313347,0.60063463,0.3922675,-0.65830326,0.55487084,0.658692,0.5029655,0.8994168,-0.26197922,-1.4469838,-1.1973083,2.5588179,1.5126414,-0.91203046,0.962084,-0.310971,-1.4794605,-1.1428629,2.511723,1.4515406,-0.95886517,-1.3624827,1.0983679,0.6779734,-1.1540254,0.8328885,0.47663996,0.3465595,1.116993,-0.3317337,1.7058867,-2.6267986,-0.18647282,-0.6779944,0.20662308,-0.25572968,1.042914,0.73508507,-0.17378296,0.113264486,0.64546156,0.34833664,0.44593546,-0.17196624,1.0,0.0,0.0,0.0,0.0,0.0,0.0,-1.7669929,-0.0682663,-1.1558867,0.8685589,-3.521824,1.1814475,-6.190753,-2.5024533,-0.09825826,0.1611054
0.47868156,4.8024178,1.1390204,10.646134,0.91916084,-1.4341569,0.14548916,-0.75293726,0.5684472,0.41598943,-0.67739636,0.52317685,0.65808564,0.51384115,0.8867903,-0.25412628,-1.4378616,-1.2106025,2.5640407,1.5173491,-0.9074811,0.94853705,-0.3003194,-1.4724777,-1.154761,2.5198102,1.4562975,-0.95538044,-1.3518882,1.054421,0.7044578,-1.2020645,0.80140513,0.47546843,0.3490615,1.090744,-0.33359528,1.6983753,-2.6241724,-0.18628639,-0.7755025,0.21020508,-0.25146103,1.0409911,0.73301715,-0.17218158,0.11642173,0.64767677,0.3649096,0.41691142,-0.20426889,1.0,0.0,0.0,0.0,0.0,0.0,0.0,-1.740744,-0.06640473,-1.1483753,1.1126041,-4.3034554,2.5214314,-4.8998594,-3.0031443,-0.13052821,0.219208
-0.8657964,3.2271235,0.4280703,12.045698,1.0860863,-1.3701122,0.07979504,-0.7545707,0.55437785,0.40505996,-0.6971305,0.52001745,0.6503227,0.50830084,0.87307996,-0.24488162,-1.4319717,-1.224474,2.571812,1.5213298,-0.9045504,0.93506354,-0.29007885,-1.4653099,-1.1670672,2.5276303,1.4610373,-0.95187664,-1.3458176,1.0142287,0.7206694,-1.240394,0.77586275,0.4733968,0.35067654,1.0645218,-0.33545685,1.6898897,-2.6215487,-0.18610014,-0.8729131,0.21390533,-0.2474823,1.0387677,0.73091465,-0.17024654,0.119530514,0.6499941,0.37581557,0.38619182,-0.23335467,1.0,0.0,0.0,0.0,0.0,0.0,0.0,-1.7145218,-0.06454316,-1.1398897,0.60305595,-3.931737,1.5515447,-3.9478302,-2.4146914,-0.24488568,0.12949109
-2.2048292,-0.63731956,-0.5938771,13.335269,1.3271856,-1.2758648,0.076757826,-0.7320368,0.507284,0.41989243,-0.7077535,0.47296345,0.64586306,0.5209658,0.86185986,-0.23935045,-1.4233207,-1.2378426,2.5749266,1.5256236,-0.89978004,0.9217312,-0.2803509,-1.4579723,-1.1796728,2.5351186,1.4657542,-0.9483509,-1.328955,0.95925623,0.73764974,-1.2676166,0.7401709,0.47093618,0.35311964,1.0383263,-0.33731842,1.6804307,-2.6189277,-0.18591407,-0.9702264,0.21766663,-0.24383926,1.0362737,0.7287836,-0.16802278,0.122550376,0.6523988,0.37938967,0.35232764,-0.25963554,1.0,0.0,0.0,0.0,0.0,0.0,0.0,-1.6883262,-0.062681586,-1.1304307,1.6995192,-5.4148555,1.5936852,-2.8584242,-3.416729,-0.29531717,0.20129085
-5.2468543,-7.2869606,-3.3875828,14.619347,1.7400978,-1.2604865,-2.7384609e-05,-0.72555304,0.46297988,0.4010167,-0.7201754,0.45963046,0.6332735,0.52227974,0.8491759,-0.2340529,-1.4178706,-1.2516904,2.5810816,1.5290815,-0.89612293,0.90857905,-0.27127334,-1.4506023,-1.1925017,2.5422635,1.4704386,-0.94480133,-1.3106114,0.89079165,0.7365355,-1.2885892,0.706328,0.4671499,0.35525897,1.0121574,-0.33917618,1.6699991,-2.6163092,-0.18572819,-1.0674423,0.22138977,-0.24062347,1.033523,0.7266746,-0.1655129,0.12541813,0.6548432,0.37222388,0.3068801,-0.2849028,1.0,0.0,0.0,0.0,0.0,0.0,0.0,-1.6621574,-0.060823828,-1.1199992,1.8470049,-6.783104,-0.19692183,-2.260828,-3.2610416,-0.45963526,0.15473366
-11.649514,-23.853136,-10.079554,15.850264,2.5455844,-1.29317,-0.09111247,-0.69160306,0.3514679,0.36749208,-0.73120123,0.35994315,0.6225281,0.5434666,0.83941877,-0.23612656,-1.413853,-1.2656218,2.5782578,1.5326914,-0.89045465,0.8957388,-0.26327106,-1.4434497,-1.2055174,2.54884,1.4750754,-0.94122124,-1.2746983,0.7701156,0.70756686,-1.3064345,0.6413181,0.4620957,0.35866734,0.9860115,-0.34103012,1.6585963,-2.6136935,-0.18554251,-1.1645612,0.22488403,-0.23806763,1.0304914,0.72467494,-0.16268155,0.12804067,0.6572567,0.34469596,0.23341992,-0.31353202,1.0,0.0,0.0,0.0,0.0,0.0,0.0,-1.6360115,-0.058969885,-1.1085963,3.7324429,-12.050163,-3.0774713,-1.9944668,-6.435728,-0.6389141,0.22704005
-29.245626,-65.64327,-28.039381,19.43248,4.908781,-1.4304427,-0.42602473,-0.6517169,0.12751639,0.23663844,-0.72514987,0.28383312,0.6060161,0.5490785,0.8305671,-0.25051942,-1.4197859,-1.2780324,2.5772233,1.535677,-0.8863134,0.8834087,-0.25736067,-1.4372146,-1.2186285,2.5546002,1.4796454,-0.9376106,-1.2178028,0.53101385,0.5944903,-1.3136595,0.55375284,0.45433134,0.3611182,0.9598961,-0.34288406,1.646223,-2.6110802,-0.185357,-1.2615829,0.22767258,-0.23685837,1.0271254,0.72305906,-0.15941079,0.13007757,0.65943426,0.25885594,0.080503374,-0.34791115,1.0,0.0,0.0,0.0,0.0,0.0,0.0,-1.6098961,-0.057115942,-1.0962229,6.066346,-24.015093,-11.60611,-1.0298252,-8.863127,-1.0626256,0.011122227
-62.258595,-144.87886,-62.386444,24.10205,9.100372,-1.7256652,-0.9993984,-0.58387,-0.314918,0.0058146287,-0.741017,0.023070185,0.5751045,0.54002905,0.82502174,-0.28885245,-1.4366331,-1.2927302,2.5569072,1.5371559,-0.88360775,0.8719103,-0.25564453,-1.43315,-1.2318388,2.558804,1.484099,-0.9339943,-1.1241692,0.050656468,0.341804,-1.3243246,0.37454456,0.4403179,0.3602114,0.93380356,-0.344738,1.6328801,-2.6084697,-0.18517168,-1.3585075,0.22883606,-0.23828888,1.0232584,0.7223565,-0.15542236,0.13093635,0.6609846,0.06807386,-0.22043988,-0.40195265,1.0,0.0,0.0,0.0,0.0,0.0,0.0,-1.5838035,-0.055262,-1.08288,10.264468,-48.377926,-25.86149,-1.380539,-18.351006,-2.0721555,-0.5334556
-72.52185,-163.05396,-71.96207,26.759039,9.465618,-1.598195,-1.3646353,-0.5625723,-0.5047911,-0.17602988,-0.72793746,-0.43712837,0.5798451,0.55886847,0.815653,-0.30612364,-1.4507531,-1.3046325,2.5150912,1.5420835,-0.8781074,0.8613216,-0.25907776,-1.432225,-1.2450472,2.5600019,1.4884115,-0.93037796,-1.0335288,-0.47603327,0.007208061,-1.31966,0.032644108,0.42488804,0.36039543,0.90773773,-0.34658813,1.6185688,-2.6058617,-0.18498653,-1.4553354,0.22791672,-0.24290085,1.0187806,0.72296494,-0.15067148,0.13088769,0.6614289,-0.1465568,-0.5415707,-0.46417284,1.0,0.0,0.0,0.0,0.0,0.0,0.0,-1.5577377,-0.05341187,-1.0685687,10.119677,-53.099705,-34.08741,0.53372383,-34.76419,-2.500075,-0.475204
-49.706467,-117.68592,-47.87926,23.914118,6.9189696,-0.78815377,-0.5729641,-0.43696836,-0.64249104,-0.026397143,-0.75256896,-0.5752584,0.6048874,0.52690387,0.8176248,-0.32332686,-1.4348648,-1.3203042,2.502476,1.5489002,-0.8776876,0.85199946,-0.26731703,-1.4333751,-1.2582842,2.5577054,1.4926115,-0.9267721,-0.8957843,-0.9410174,-0.157841,-1.3235141,-0.31840715,0.41562197,0.3597403,0.8816986,-0.34843445,1.60329,-2.6032565,-0.1848016,-1.5520664,0.22527313,-0.24990463,1.0137424,0.72434646,-0.14547479,0.13018757,0.6612189,-0.30679613,-0.7516787,-0.51785624,1.0,0.0,0.0,0.0,0.0,0.0,0.0,-1.5316986,-0.051565558,-1.0532899,14.600288,-46.83291,-17.12653,0.022387505,-35.42747,-1.6847432,-0.3332019
-11.5348835,-39.5835,-7.0832,19.779932,2.8549142,0.31315833,0.6189851,-0.35722303,-0.70081246,0.2723121,-0.76949984,-0.59666723,0.6081215,0.5144922,0.81627715,-0.3373983,-1.4061439,-1.3352342,2.4980388,1.5534236,-0.8753229,0.844165,-0.27911875,-1.4339454,-1.2716414,2.5524793,1.4967638,-0.9231653,-0.74491054,-1.260339,-0.025267068,-1.3386251,-0.5903655,0.41451234,0.3612417,0.8556862,-0.35028076,1.5870445,-2.6006536,-0.18461683,-1.6487007,0.22175217,-0.25772095,1.0083704,0.7253776,-0.14040354,0.12893537,0.6614302,-0.37102562,-0.7866368,-0.5453972,1.0,0.0,0.0,0.0,0.0,0.0,0.0,-1.5056862,-0.049719244,-1.0370445,15.427065,-32.079243,12.741384,-1.1641264,-27.169205,-0.28577447,0.21374822
14.092507,18.127733,20.301922,17.451645,-0.034930244,0.7490503,1.1289159,-0.27851373,-0.7172061,0.33211127,-0.7471666,-0.59954894,0.61447483,0.45916566,0.8163136,-0.35083938,-1.4007343,-1.3463581,2.4925244,1.5582113,-0.87724876,0.8378641,-0.29292127,-1.4323642,-1.2850481,2.5452657,1.5009428,-0.9195757,-0.59144515,-1.420254,0.2178812,-1.3407264,-0.7644024,0.4199837,0.35902554,0.82970047,-0.35212708,1.5698333,-2.5980537,-0.18443225,-1.7452383,0.21813583,-0.26504898,1.0029209,0.72535175,-0.13590316,0.12731835,0.6627104,-0.36088616,-0.7096376,-0.5471884,1.0,0.0,0.0,0.0,0.0,0.0,0.0,-1.4797004,-0.04787293,-1.0198333,15.460753,-15.996218,23.857475,-0.05812645,-17.25179,0.80964565,0.014293194
16.846823,31.504925,22.245527,16.092392,-0.45266718,0.23196793,0.81913507,-0.18318076,-0.75421834,0.14908952,-0.7320189,-0.54580235,0.6044527,0.37267345,0.81954604,-0.3683431,-1.4174553,-1.35825,2.4906855,1.5613881,-0.88230836,0.8331472,-0.30756018,-1.4293487,-1.2983748,2.5370831,1.5051752,-0.9160757,-0.43190882,-1.4784018,0.32886937,-1.3298266,-0.83601457,0.4252248,0.34769383,0.80373764,-0.35396957,1.5516574,-2.5954561,-0.18424785,-1.8416795,0.2147789,-0.27164078,0.9974802,0.72437644,-0.13195264,0.12547737,0.664923,-0.32933936,-0.6355924,-0.5453137,1.0,0.0,0.0,0.0,0.0,0.0,0.0,-1.4537376,-0.046030432,-1.0016575,15.926188,-5.799818,10.895336,1.1748314,-7.1178675,0.79918504,-0.9306252
16.466957,33.442207,17.613213,11.332009,-0.5538578,-0.8145734,0.49894053,0.020275217,-0.75548166,-0.08698381,-0.74074274,-0.509212,0.5981691,0.38502133,0.83517474,-0.38310835,-1.438047,-1.372449,2.486162,1.5649922,-0.87757355,0.8305513,-0.3222625,-1.4268634,-1.3116251,2.528706,1.5094458,-0.9126835,-0.20387378,-1.4674932,0.22320339,-1.3233836,-0.8383722,0.42804378,0.33674178,0.7778015,-0.35580826,1.5325179,-2.5928612,-0.18406363,-1.9380242,0.21189117,-0.27775192,0.99193275,0.72281235,-0.12818152,0.12354998,0.6677179,-0.2753924,-0.59691316,-0.5598622,1.0,0.0,0.0,0.0,0.0,0.0,0.0,-1.4278015,-0.044191748,-0.9825179,22.279465,1.0865688,-10.150343,0.655365,-0.2938509,0.41689873,-0.99331737
9.467903,19.289133,4.8278522,6.285156,0.095237315,-2.0466995,0.064506166,0.21746303,-0.7688505,-0.40134448,-0.75653243,-0.48666003,0.5853332,0.3875894,0.8522976,-0.39914754,-1.4669979,-1.3872783,2.48004,1.5679791,-0.87392455,0.83072203,-0.3367016,-1.4272563,-1.324906,2.5205731,1.5137144,-0.9093952,0.0875624,-1.436262,-0.12357529,-1.3298818,-0.8055303,0.4261154,0.326086,0.7518921,-0.35764694,1.5124156,-2.5902689,-0.18387961,-2.0342724,0.20957947,-0.28399277,0.98601216,0.7211323,-0.12402541,0.12163264,0.67066485,-0.21642195,-0.6261169,-0.6050155,1.0,0.0,0.0,0.0,0.0,0.0,0.0,-1.4018921,-0.042353064,-0.96241564,28.181627,3.0590057,-33.706112,-0.66530704,3.1319022,-0.3285885,-1.0793746
7.3706093,12.272505,-0.545156,3.3323603,0.4591001,-2.5741556,-0.015236579,0.36933482,-0.7838941,-0.5434874,-0.7714491,-0.44270107,0.5693606,0.40120476,0.8676555,-0.415091,-1.481605,-1.4020509,2.476303,1.5706505,-0.86927474,0.8339588,-0.35088322,-1.4316413,-1.3383433,2.5129437,1.517943,-0.9061918,0.39893776,-1.4124064,-0.5400292,-1.3483535,-0.7495366,0.42065367,0.3183198,0.72600937,-0.35948563,1.4913517,-2.5876791,-0.18369578,-2.1304245,0.20786285,-0.29074478,0.9795158,0.7195522,-0.119109936,0.1196677,0.6736,-0.15547025,-0.68571436,-0.66753334,1.0,0.0,0.0,0.0,0.0,0.0,0.0,-1.3760093,-0.04051438,-0.9413517,30.102331,2.302432,-40.6151,-1.8603086,5.459404,-0.82306266,-0.78715086
8.351204,14.529658,1.5329866,3.9883738,0.28694665,-2.3074107,0.056881577,0.43179497,-0.779934,-0.57188433,-0.77639705,-0.4777591,0.5760584,0.40631244,0.8771383,-0.4288766,-1.4888297,-1.415983,2.4651678,1.5755489,-0.8655606,0.8398897,-0.36487648,-1.4395835,-1.3519789,2.5057187,1.522122,-0.90304947,0.65532947,-1.3952053,-0.87679714,-1.3685994,-0.7140377,0.41602352,0.3129082,0.70015335,-0.3613243,1.4693271,-2.585092,-0.18351212,-2.2264802,0.20672989,-0.29798126,0.97241515,0.7180341,-0.11341981,0.11766254,0.67654896,-0.096188396,-0.7319982,-0.7286156,1.0,0.0,0.0,0.0,0.0,0.0,0.0,-1.3501533,-0.038675696,-0.9193271,24.886143,1.6458035,-32.97882,-2.0124435,3.4471512,-0.72816014,-0.51237345
9.975059,19.353811,5.887539,5.954299,0.016507506,-1.792843,0.16321087,0.48785436,-0.7768357,-0.6038126,-0.78188694,-0.50649345,0.56635433,0.39016253,0.88867515,-0.44256005,-1.4999648,-1.4301676,2.4550693,1.5787574,-0.8640332,0.84785765,-0.37875053,-1.4500129,-1.3658015,2.498654,1.5262533,-0.89996433,0.8423978,-1.3849912,-1.0970745,-1.3866543,-0.7039098,0.41155264,0.3073363,0.6743202,-0.36315536,1.4463426,-2.5825074,-0.18332864,-2.32244,0.20615768,-0.3054886,0.9647822,0.71644926,-0.10712285,0.11566581,0.67959297,-0.041247543,-0.75292265,-0.78028786,1.0,0.0,0.0,0.0,0.0,0.0,0.0,-1.3243202,-0.03684464,-0.8963426,18.249786,0.95632076,-21.658957,-1.7784357,0.93280077,-0.6570518,-0.50049424
8.607273,21.54229,9.01837,10.124275,0.066109896,-1.1031305,0.17053267,0.492344,-0.7793973,-0.6124865,-0.7725033,-0.52526987,0.5803377,0.38211432,0.89709204,-0.45669025,-1.5112616,-1.4430518,2.446127,1.5842872,-0.8617529,0.8570263,-0.39258453,-1.461766,-1.379706,2.491551,1.5303618,-0.8969345,0.9412493,-1.3830678,-1.2011968,-1.3916047,-0.7129165,0.40992308,0.3017215,0.6485138,-0.36498642,1.4223992,-2.5799255,-0.18314534,-2.4183037,0.20599747,-0.31305695,0.95675665,0.7147191,-0.100472875,0.11369731,0.6827552,-0.0029199643,-0.7522859,-0.8162095,1.0,0.0,0.0,0.0,0.0,0.0,0.0,-1.2985138,-0.035013586,-0.87239915,9.75585,0.11768341,-10.336947,-0.43821335,-1.0105252,-0.29928684,-0.51163435
7.7094955,22.927896,11.249421,12.745525,0.19027913,-0.63727,0.20020583,0.5163932,-0.78685594,-0.6230224,-0.7754614,-0.5039788,0.5709372,0.3719029,0.9086656,-0.47127014,-1.5240682,-1.4572521,2.441153,1.5874555,-0.8597442,0.86676997,-0.40646574,-1.4739654,-1.393624,2.484387,1.534453,-0.89396286,0.9856088,-1.3900442,-1.2264136,-1.3916879,-0.71810174,0.40849635,0.295908,0.62273407,-0.36681747,1.3974978,-2.577346,-0.18296222,-2.5140717,0.20612335,-0.32051468,0.9484579,0.71278805,-0.09365902,0.11170031,0.6860643,0.023020638,-0.73918873,-0.8410084,1.0,0.0,0.0,0.0,0.0,0.0,0.0,-1.272734,-0.03318253,-0.84749776,4.4843316,-0.77877045,-2.6029348,0.06585121,-0.6490946,-0.2320826,-0.52704215
5.395521,22.82789,11.826807,15.289726,0.39574373,-0.2792386,0.14495882,0.5056927,-0.788875,-0.6250597,-0.76971716,-0.4999713,0.5773244,0.36005127,0.91733927,-0.48535323,-1.5364714,-1.4705957,2.4343898,1.5921855,-0.8579577,0.87660044,-0.42043707,-1.4860847,-1.4074942,2.4771886,1.5385386,-0.89105225,0.98276144,-1.3997844,-1.2076607,-1.3850679,-0.7209773,0.40838948,0.289531,0.59698105,-0.36864853,1.3716394,-2.5747693,-0.18277931,-2.6097438,0.20640564,-0.32780838,0.93997586,0.7106664,-0.08680982,0.109628186,0.6894917,0.035900835,-0.72105324,-0.85717326,1.0,0.0,0.0,0.0,0.0,0.0,0.0,-1.246981,-0.031351477,-0.82163936,-0.08575916,-1.0652304,1.6854048,0.7603884,-0.453794,-0.064241886,-0.5962014
2.3919847,20.898317,10.639013,16.559301,0.748602,-0.13043198,0.06987583,0.48084354,-0.79236746,-0.6298423,-0.77881813,-0.4377801,0.5556935,0.3549412,0.9246848,-0.4996738,-1.5490689,-1.485376,2.4334106,1.5941079,-0.85555816,0.8861391,-0.43450996,-1.4979236,-1.4213339,2.470162,1.5426089,-0.8882036,0.94532436,-1.4101498,-1.1769801,-1.3833463,-0.6975724,0.4064008,0.2834021,0.57125473,-0.37047195,1.3448251,-2.572195,-0.18259658,-2.7053204,0.20672226,-0.33496475,0.9313463,0.7084202,-0.07993641,0.107380964,0.6929793,0.03677035,-0.708763,-0.87150013,1.0,0.0,0.0,0.0,0.0,0.0,0.0,-1.2212547,-0.029528052,-0.79482514,-3.4378648,-1.1372805,2.8078794,0.3026724,2.1442533,-0.24829507,-0.57519674
-0.41153288,19.538837,9.703716,17.740276,1.0027143,0.030812565,-0.00567466,0.4374999,-0.797174,-0.61011624,-0.7818621,-0.4081041,0.5501186,0.34424213,0.9298891,-0.5142274,-1.5589353,-1.4995201,2.4293516,1.5976207,-0.85377944,0.8950817,-0.44868585,-1.5093868,-1.4351813,2.4634633,1.5466563,-0.8854189,0.87859875,-1.4204353,-1.1373255,-1.3849138,-0.6615817,0.4040164,0.27697837,0.5455513,-0.37229538,1.3170558,-2.5696232,-0.18241403,-2.8008013,0.20698166,-0.3420334,0.9225836,0.70612353,-0.0730275,0.10488768,0.69645894,0.027336126,-0.7001067,-0.88424575,1.0,0.0,0.0,0.0,0.0,0.0,0.0,-1.1955513,-0.027704626,-0.7670558,-6.2829733,-1.1363506,3.6504745,0.0018119812,3.3792734,-0.27980804,-0.61190724
-2.0796971,19.893044,9.792656,18.466908,1.0390513,0.20024045,-0.043848276,0.3843279,-0.8003096,-0.573577,-0.7874128,-0.40925416,0.54597604,0.34216514,0.9335145,-0.5287168,-1.5667444,-1.5139226,2.4225378,1.6012539,-0.85120237,0.90318793,-0.46295235,-1.5203598,-1.4490801,2.4570813,1.5506788,-0.8826933,0.7894309,-1.4291264,-1.0851125,-1.3908509,-0.630953,0.4015513,0.27113324,0.5198746,-0.3741188,1.2883323,-2.5670543,-0.18223165,-2.8961868,0.20710373,-0.34899902,0.91370237,0.70381945,-0.066093564,0.102160275,0.6998807,0.0122898845,-0.6894725,-0.8954079,1.0,0.0,0.0,0.0,0.0,0.0,0.0,-1.1698745,-0.025881201,-0.73833233,-8.4697485,-0.97699165,4.8599243,-0.41851997,2.8347492,-0.27608275,-0.5624473
-6.298719,16.685337,6.990835,19.358755,1.3284473,0.23385075,-0.18743925,0.31809938,-0.8016654,-0.59157515,-0.7904193,-0.3908768,0.52090025,0.3401158,0.93499786,-0.5431189,-1.5795172,-1.5281221,2.4179935,1.6027689,-0.8486817,0.91025084,-0.47728607,-1.5309932,-1.4630476,2.4509892,1.5546595,-0.880023,0.6802543,-1.4351983,-1.0574529,-1.3979924,-0.6024873,0.3967218,0.26576272,0.49422455,-0.37594223,1.2586557,-2.5644877,-0.18204945,-2.991477,0.20700073,-0.35594177,0.9046841,0.701625,-0.05908311,0.09923268,0.70312476,-0.012793506,-0.68934655,-0.90972793,1.0,0.0,0.0,0.0,0.0,0.0,0.0,-1.1442245,-0.024057776,-0.70865566,-10.418677,-0.7289171,2.3894548,-0.49841404,2.586627,-0.5304575,-0.537163
-9.477549,14.602697,5.0288925,19.78934,1.4481828,0.2836433,-0.29336816,0.24937816,-0.80563486,-0.5928637,-0.797244,-0.41090602,0.5025762,0.31976336,0.93518865,-0.5578495,-1.5902796,-1.542772,2.4098988,1.604917,-0.84804666,0.9161207,-0.49167606,-1.5414855,-1.4771029,2.4450574,1.5585791,-0.87741566,0.5576823,-1.4406877,-1.0478373,-1.407263,-0.59114146,0.390195,0.25901186,0.4685974,-0.37775803,1.2280269,-2.5619237,-0.18186744,-3.0866718,0.206604,-0.36292648,0.89549273,0.6996549,-0.05193611,0.096180685,0.70607007,-0.04435775,-0.69492143,-0.9277985,1.0,0.0,0.0,0.0,0.0,0.0,0.0,-1.1185974,-0.02224198,-0.67802685,-11.730337,-0.68130493,0.5768299,-0.6781101,0.85093975,-0.7219076,-0.6947994
-13.470018,12.717665,3.1669593,20.98898,1.6069146,0.42717963,-0.41877404,0.1562688,-0.8060339,-0.5935394,-0.7964819,-0.4429172,0.49142867,0.30813706,0.9317476,-0.57227945,-1.6008395,-1.556751,2.4007657,1.6077219,-0.84660196,0.9206049,-0.5061061,-1.551974,-1.4912287,2.4390798,1.56243,-0.87487984,0.41392,-1.4442315,-1.0506943,-1.413286,-0.6010593,0.38299835,0.2516412,0.44299698,-0.37957382,1.1964469,-2.5593624,-0.1816856,-3.1817715,0.2058258,-0.37000656,0.88611037,0.69802403,-0.044630494,0.09311176,0.7085907,-0.085683115,-0.7046801,-0.9469584,1.0,0.0,0.0,0.0,0.0,0.0,0.0,-1.092997,-0.020426184,-0.6464469,-13.801109,-0.5023241,-0.68740845,-0.31666756,-1.3094187,-0.8039415,-0.78341365
-22.116375,6.6120133,-1.7205431,23.532751,2.2259321,0.64084655,-0.6625037,0.01210564,-0.81020415,-0.6195199,-0.79765874,-0.44496864,0.46087927,0.29703015,0.92181545,-0.5871265,-1.613926,-1.5709946,2.394583,1.608518,-0.8451768,0.92329425,-0.5205781,-1.5626552,-1.5053908,2.4329572,1.5661894,-0.8724203,0.22302245,-1.4488071,-1.0752221,-1.4161505,-0.6170664,0.37321562,0.2437248,0.41742325,-0.38138962,1.1639166,-2.5568035,-0.18150394,-3.276776,0.20445633,-0.37729645,0.87651294,0.69694436,-0.037109926,0.09007532,0.7104771,-0.150639,-0.73029345,-0.9691816,1.0,0.0,0.0,0.0,0.0,0.0,0.0,-1.0674232,-0.018610388,-0.6139166,-18.394073,-0.64468384,-2.9041767,0.08151531,-1.9971848,-1.1020243,-0.8745134
-34.242584,-1.6103897,-8.083931,27.161919,3.1873062,0.9916736,-0.96846855,-0.18446796,-0.8179425,-0.6383595,-0.8043197,-0.41364837,0.39409897,0.27313206,0.90484744,-0.60237235,-1.6264912,-1.5858227,2.3915923,1.6055993,-0.8451071,0.9235279,-0.5351245,-1.573674,-1.5195891,2.4267735,1.5698057,-0.8700514,-0.040283475,-1.4574444,-1.1126245,-1.4194616,-0.6204018,0.35703844,0.23416407,0.3918724,-0.3832054,1.1304369,-2.5542471,-0.18132246,-3.3716857,0.20218277,-0.38500595,0.86666924,0.696703,-0.029280592,0.08701019,0.711461,-0.25114065,-0.77697027,-0.9944953,1.0,0.0,0.0,0.0,0.0,0.0,0.0,-1.0418724,-0.016794592,-0.5804369,-25.440416,-1.1129856,-4.2889595,0.16143322,-0.8447051,-1.8105328,-1.0723144
-38.4318,-1.5842409,-8.582386,28.749159,3.513404,1.3151376,-1.0363328,-0.32060924,-0.8163251,-0.6382818,-0.8013802,-0.37928766,0.37634605,0.26701882,0.891467,-0.616757,-1.6375022,-1.599727,2.3888447,1.6074404,-0.8433495,0.9209644,-0.5497405,-1.5850189,-1.533795,2.420689,1.5732542,-0.867774,-0.32524365,-1.463948,-1.1435223,-1.4191161,-0.6063927,0.33992627,0.22524549,0.36634827,-0.3850174,1.0960088,-2.5516934,-0.18114118,-3.4665005,0.1987915,-0.3931923,0.8565945,0.6974259,-0.021134403,0.083810344,0.7114255,-0.36767656,-0.8242379,-1.0167005,1.0,0.0,0.0,0.0,0.0,0.0,0.0,-1.0163482,-0.014982611,-0.54600877,-27.545109,-0.93369484,-3.6680222,0.5821705,0.84307194,-1.9500136,-1.0011107
-39.234932,-0.102761745,-8.127655,28.522676,3.4853437,1.4757164,-1.0376054,-0.43718326,-0.81977654,-0.6746897,-0.796578,-0.39765018,0.3985422,0.23783813,0.8772461,-0.63171816,-1.6524879,-1.6134528,2.380924,1.6131084,-0.8439902,0.9156477,-0.56441945,-1.5967529,-1.5479628,2.4147,1.5765597,-0.8655968,-0.5973549,-1.4702168,-1.185115,-1.414146,-0.5981559,0.3265003,0.21491787,0.34085083,-0.38682556,1.0606334,-2.5491421,-0.18096009,-3.5612204,0.19421005,-0.40182114,0.8462903,0.69911975,-0.012699826,0.0804432,0.71035135,-0.48822555,-0.8674095,-1.0399753,1.0,0.0,0.0,0.0,0.0,0.0,0.0,-0.9908508,-0.013174444,-0.5106334,-26.28523,-0.9307146,-4.714012,1.0801554,0.25185347,-1.6367793,-1.1304647
-35.81747,4.6376433,-5.211432,26.718386,3.10088,1.556843,-0.93742067,-0.53494936,-0.8206209,-0.6993052,-0.795339,-0.4073408,0.43306577,0.16836412,0.86215276,-0.6464815,-1.6666834,-1.6274967,2.373966,1.6198663,-0.84876037,0.90788096,-0.57914704,-1.6089294,-1.5620753,2.4087453,1.5797735,-0.8635626,-0.83361137,-1.4745362,-1.2300972,-1.4082377,-0.5962674,0.31868133,0.19930603,0.31537628,-0.38863373,1.0243115,-2.5465934,-0.18077917,-3.6558456,0.18849564,-0.41079712,0.8357482,0.7016965,-0.0040233918,0.07690572,0.70830166,-0.60093606,-0.89760983,-1.0638051,1.0,0.0,0.0,0.0,0.0,0.0,0.0,-0.96537626,-0.011366278,-0.47431153,-22.794544,-0.73115826,-4.9958706,1.1636972,-0.35287142,-1.0972738,-1.6332984
-32.120716,10.202707,-1.588444,25.213861,2.7869823,1.6837254,-0.8649313,-0.63955975,-0.8181159,-0.70758957,-0.7925594,-0.3615655,0.45202008,-0.018627103,0.843925,-0.66095865,-1.6796883,-1.6413312,2.3725886,1.6249756,-0.8654253,0.8979799,-0.593888,-1.6214893,-1.5761267,2.4029279,1.5829378,-0.86181164,-1.0398269,-1.4749907,-1.2660435,-1.4022158,-0.57830036,0.31480068,0.16686533,0.28992844,-0.3904419,0.9870441,-2.5440474,-0.18059844,-3.7503765,0.18171692,-0.41998672,0.824991,0.7050661,0.0048267283,0.07312561,0.7053447,-0.7067433,-0.91407347,-1.0845731,1.0,0.0,0.0,0.0,0.0,0.0,0.0,-0.9399284,-0.009558111,-0.43704408,-19.8851,-0.3345251,-4.033637,1.1462688,1.2987137,-0.7007897,-3.2807322
-26.549305,17.253717,3.7624183,24.139215,2.4970825,1.8445938,-0.744619,-0.71356136,-0.8222907,-0.6895583,-0.7787989,-0.26834616,0.47740564,-0.25365978,0.8266238,-0.67611706,-1.6904451,-1.6540066,2.3760931,1.6306784,-0.8871776,0.886306,-0.6086394,-1.6342037,-1.5900694,2.3975682,1.5860945,-0.8605423,-1.2078801,-1.4761031,-1.27441,-1.3901799,-0.5231917,0.31522083,0.11360108,0.2645073,-0.39224625,0.948824,-2.5415037,-0.18041788,-3.845878,0.17395401,-0.4292221,0.81409436,0.7091154,0.01371826,0.068913035,0.70158255,-0.80326617,-0.91480505,-1.0961626,1.0,0.0,0.0,0.0,0.0,0.0,0.0,-0.91450727,-0.0077537596,-0.39882398,-16.202879,-0.37498474,-1.1940479,1.6826868,5.0947666,-0.22370219,-5.3061023
-19.05381,23.763227,8.773827,21.844421,2.2801719,1.7806354,-0.5571892,-0.7419832,-0.81952953,-0.6957241,-0.77033937,-0.07630479,0.4872025,-0.37516603,0.8121077,-0.69059235,-1.7037761,-1.6671033,2.3899376,1.6348147,-0.8980589,0.87337035,-0.6233832,-1.6469257,-1.6038748,2.3933148,1.5892721,-0.8598633,-1.3206981,-1.4745829,-1.2720845,-1.3759402,-0.39402252,0.31770697,0.052963514,0.23910904,-0.39404678,0.9096496,-2.5389626,-0.1802375,-3.941284,0.16534424,-0.4384117,0.80312407,0.7136845,0.022560777,0.06393884,0.697178,-0.88538325,-0.9066685,-1.1019777,1.0,0.0,0.0,0.0,0.0,0.0,0.0,-0.889109,-0.0059532225,-0.3596496,-10.8498335,-0.06761551,-0.012302399,1.8082142,12.611336,0.021642447,-5.971838
-12.581377,28.314161,12.402258,19.643864,2.0890055,1.6548768,-0.3972065,-0.7593736,-0.8205076,-0.7036637,-0.75911283,0.09678607,0.4992542,-0.45473644,0.797433,-0.70543396,-1.7172921,-1.6797861,2.4029934,1.6391976,-0.9053369,0.8596832,-0.63811177,-1.6596153,-1.6175162,2.390778,1.592486,-0.8597975,-1.3837799,-1.4728907,-1.268314,-1.3592956,-0.20742309,0.32182643,-0.008305288,0.21373749,-0.39584732,0.8695219,-2.5364242,-0.1800573,-4.0365944,0.15601349,-0.44749832,0.79211223,0.7186215,0.031302582,0.057904806,0.6922791,-0.9538933,-0.8938067,-1.1054631,1.0,0.0,0.0,0.0,0.0,0.0,0.0,-0.86373746,-0.0041526854,-0.3195219,-6.0207844,-0.008749962,0.23229122,1.967907,18.45913,0.2171278,-5.984263
-9.146081,31.1395,13.990258,17.74643,1.8935173,1.5362015,-0.33099556,-0.7877328,-0.81023765,-0.7223283,-0.7586864,0.24036258,0.501541,-0.50842834,0.78090996,-0.7191355,-1.7318481,-1.6933848,2.4148142,1.6426401,-0.9106403,0.8455593,-0.6527764,-1.6723487,-1.6310278,2.3903089,1.59574,-0.86032104,-1.4211493,-1.4648087,-1.2753887,-1.3476018,0.006159506,0.3258879,-0.06647728,0.18839264,-0.39764786,0.8284418,-2.533888,-0.17987728,-4.131809,0.14606857,-0.45643616,0.78104436,0.7238357,0.039953593,0.05067079,0.6869483,-1.013159,-0.87835777,-1.1117808,1.0,0.0,0.0,0.0,0.0,0.0,0.0,-0.8383926,-0.0023521483,-0.2784418,-3.5217524,0.6539345,-0.7964611,1.4313459,21.215513,0.21235943,-5.660362
-4.933924,34.89771,16.439732,15.690647,1.1966424,1.4805655,-0.24029414,-0.79341817,-0.8027986,-0.7238066,-0.75065005,0.22473267,0.5250595,-0.52037466,0.76621747,-0.7330563,-1.7447294,-1.7060928,2.4127822,1.6482459,-0.9123585,0.83125883,-0.66729313,-1.685521,-1.644586,2.3908498,1.5998435,-0.8611337,-1.4246916,-1.4398922,-1.4124793,-1.3926672,-0.09963925,0.5892153,-0.053097386,0.16630936,-0.40023422,0.8012603,-1.5684009,-0.3344838,1.168162,0.13565063,-0.46500778,0.76977515,0.7291522,0.04825734,0.042793546,0.6813053,-1.0545871,-0.8128539,-1.1668283,0.0,1.0,0.0,0.0,0.0,0.0,0.0,-0.81630933,0.00023421645,-0.25126028,0.9689331,3.6092281,-26.593304,-9.849048,-37.223278,51.88143,7.9058995
71.333496,176.0,110.0,92.245735,-8.726725,9.675787,-0.42998266,-0.79032224,0.5203968,0.64380974,0.7319722,-0.26335782,0.68520594,-0.48051965,0.7522266,-0.61525345,-1.62114,-1.5713887,2.364514,1.668364,-0.90918565,0.82255465,-0.67849404,-1.7008504,-1.6475023,2.3798711,1.6143241,-0.8597766,-0.6906898,-1.012936,-1.5649023,0.06981446,-1.4260192,1.7426845,0.19315006,0.15063477,-0.4035759,0.81218874,-1.5668328,-0.3341494,1.0677428,0.12599945,-0.47061157,0.76211864,0.7342655,0.047604963,0.042216834,0.67587394,-0.93932503,-0.4612888,-0.6346177,1.0,0.0,0.0,0.0,0.0,0.0,0.0,-0.80063474,0.0035758913,-0.26218873,71.88768,42.840958,-12.750483,144.56648,-131.26285,117.816475,22.984339
7.1238847,141.48839,88.36139,94.751274,-0.51238877,6.8952074,-1.1030409,-0.80818284,-0.36171076,0.1070908,0.7969192,-0.63185215,0.5428098,-0.29514503,0.74173635,-0.7146651,-1.6901413,-1.5678104,2.316686,1.6686051,-0.8892911,0.8156195,-0.68653446,-1.7124966,-1.639522,2.3635519,1.6318088,-0.857998,-0.69402605,-0.7362023,-1.0285659,1.0397242,-1.7038016,1.7558686,0.17122981,0.13497543,-0.40691757,0.8221137,-1.5652663,-0.3338153,0.96742415,0.11647797,-0.4740181,0.7595524,0.7399201,0.040053457,0.04617093,0.6699121,-0.95600593,-0.29072934,-0.1349652,1.0,0.0,0.0,0.0,0.0,0.0,0.0,-0.7849754,0.006917566,-0.27211368,-0.20756721,27.147366,54.461716,96.72425,-28.785442,2.9676914,-2.6370616
-20.208107,119.46898,57.559532,75.3598,1.4007403,4.457746,-1.655876,-0.79950374,-0.003046603,-0.4475602,0.7649016,-0.65775174,0.5976155,0.09992314,0.73566914,-0.6868391,-1.7572527,-1.5630318,2.2977767,1.6915703,-0.8480057,0.8072482,-0.69099766,-1.7208661,-1.6247667,2.3467977,1.6483378,-0.85636055,-0.88278043,-0.35146892,-0.77349675,1.6211501,-1.669307,1.621581,0.16032425,0.11933136,-0.41025162,0.8310362,-1.5637013,-0.33348155,0.86720574,0.10648346,-0.47623825,0.76073813,0.74665624,0.029458912,0.05251054,0.66247964,-1.0131882,-0.19200039,0.19732907,1.0,0.0,0.0,0.0,0.0,0.0,0.0,-0.76933134,0.0102516115,-0.2810362,-18.245173,37.935402,25.323832,58.279587,2.4360657,-12.528968,-1.3617277
-32.316868,85.80869,30.73986,50.110806,2.0935726,2.4692655,-1.5524367,-0.8075015,0.089628294,-0.55164707,0.7883014,-0.64833945,0.586671,0.012315346,0.726498,-0.68203485,-1.7760308,-1.5459366,2.2819638,1.7070049,-0.855129,0.7964774,-0.6920019,-1.7281483,-1.6069502,2.3315618,1.6631713,-0.8549377,-1.1403736,-0.018176842,-0.7144988,1.835585,-1.477254,1.43866,0.13554709,0.103702545,-0.41358566,0.8389573,-1.5621378,-0.33314815,0.7670876,0.09583664,-0.47782898,0.76395243,0.75449824,0.01836955,0.06018236,0.65327865,-1.0809361,-0.14026228,0.3571132,1.0,0.0,0.0,0.0,0.0,0.0,0.0,-0.7537025,0.013585657,-0.2889573,-25.32096,32.91748,5.504012,21.560265,18.60776,-17.933416,-2.6905208
-34.066986,46.422173,7.2246933,27.294664,2.195668,0.7594666,-1.1962118,-0.82048947,0.063800044,-0.64083093,0.77423525,-0.6646704,0.6575414,-0.16051574,0.7144284,-0.68562186,-1.7922314,-1.5295266,2.2650948,1.7289255,-0.87098926,0.783434,-0.69072396,-1.7361115,-1.588838,2.3183057,1.6763148,-0.8538753,-1.3583443,0.17558639,-0.8244543,1.8030208,-1.2756752,1.2731004,0.09578066,0.088092804,-0.41691208,0.845878,-1.5605761,-0.33281505,0.6670695,0.084545135,-0.47927094,0.76762515,0.7632111,0.008437921,0.06832767,0.642471,-1.1443616,-0.13540405,0.36621922,1.0,0.0,0.0,0.0,0.0,0.0,0.0,-0.7380928,0.016912073,-0.295878,-21.611809,19.147617,-11.245834,-3.246975,19.943953,-16.508411,-4.1769013
-28.894812,15.10923,-5.7952137,12.930555,2.1744719,-0.23375952,-0.66684043,-0.82562256,-0.01769409,-0.64928055,0.77272946,-0.66537875,0.6761838,-0.2202704,0.7008717,-0.6924934,-1.8010396,-1.5115651,2.2517679,1.7439332,-0.8759023,0.7688132,-0.6887918,-1.7454919,-1.5718645,2.306751,1.6879897,-0.85322773,-1.4963453,0.19879034,-0.9760907,1.6622524,-1.1156162,1.1321284,0.053940896,0.072502136,-0.4202385,0.85179925,-1.5590158,-0.3324823,0.5671514,0.07267761,-0.4809227,0.7707303,0.77242297,0.00035793034,0.07622051,0.630518,-1.2013777,-0.1637787,0.2890999,1.0,0.0,0.0,0.0,0.0,0.0,0.0,-0.7225021,0.020238489,-0.30179924,-13.695669,2.2369206,-15.250683,-14.079118,15.91835,-14.156723,-4.309281
-19.800655,2.3949022,-7.635657,6.8540545,1.8502966,-0.6190548,-0.22063491,-0.8185118,-0.06224174,-0.6524453,0.7783712,-0.66495746,0.676619,-0.20176388,0.686962,-0.69501597,-1.8107364,-1.4940274,2.2402554,1.7556516,-0.87340415,0.7534419,-0.6874319,-1.7562207,-1.5563463,2.2963827,1.6984344,-0.85294354,-1.5504607,0.114944875,-1.104999,1.5151665,-1.0108823,1.0150498,0.019717438,0.056926727,-0.4235611,0.85671914,-1.5574571,-0.3321499,0.46693948,0.060333252,-0.48294067,0.7728707,0.7817733,-0.005887084,0.08345321,0.617925,-1.2448269,-0.20157987,0.1873514,1.0,0.0,0.0,0.0,0.0,0.0,0.0,-0.7069267,0.02356109,-0.30671912,-5.317712,-8.400515,-12.891412,-14.661217,10.381985,-11.755371,-3.4844096
-9.312047,9.215704,-0.44184136,6.674699,1.1777601,-0.52795136,0.05449567,-0.8101652,-0.047500048,-0.65423936,0.78317696,-0.6536779,0.6784227,-0.16933884,0.6724253,-0.6921819,-1.8216447,-1.4780287,2.231015,1.7662766,-0.8698774,0.737979,-0.68701416,-1.7678689,-1.5419763,2.2867353,1.7078662,-0.85293305,-1.5447078,0.017311614,-1.184597,1.410981,-0.95001173,0.9191959,-0.005343846,0.041366577,-0.42687988,0.86063766,-1.5559,-0.3318178,0.3668277,0.047725677,-0.48521423,0.77414817,0.79099685,-0.010679408,0.09003436,0.6050649,-1.2649441,-0.22356975,0.10664845,1.0,0.0,0.0,0.0,0.0,0.0,0.0,-0.69136655,0.026879877,-0.31063765,0.61297417,-9.789468,-7.87735,-10.3678465,5.925226,-9.591257,-2.560368
-6.612195,12.422515,3.2250178,9.412654,1.1592023,-0.26630026,0.10797764,-0.8185623,-0.10271949,-0.66068405,0.78459847,-0.64442176,0.68120116,-0.20690276,0.65612274,-0.6972861,-1.8339373,-1.4635165,2.2222931,1.7759863,-0.8736233,0.7227307,-0.68768173,-1.7799882,-1.5282568,2.2774732,1.7164721,-0.85316193,-1.5179998,-0.095012695,-1.2206275,1.3590453,-0.91890377,0.84104,-0.028860033,0.025821686,-0.43019485,0.8635558,-1.5543444,-0.33148608,0.26681602,0.034950256,-0.487648,0.77477616,0.7999962,-0.014455689,0.096040644,0.59209216,-1.2838331,-0.23707472,0.04706784,1.0,0.0,0.0,0.0,0.0,0.0,0.0,-0.67582166,0.030194849,-0.31355578,2.7016401,-11.279293,-3.480482,-5.10118,2.9271483,-7.806742,-2.3843315
-7.8927774,10.3516445,3.4109855,12.039782,1.4917789,-0.042539775,0.09743519,-0.81498903,-0.2012916,-0.65922165,0.7887686,-0.6410573,0.683899,-0.22697301,0.6412318,-0.7078109,-1.8459103,-1.4493799,2.2133675,1.784862,-0.87585926,0.70779234,-0.68968827,-1.7922181,-1.5147337,2.2683828,1.7244048,-0.85361016,-1.4855926,-0.23607828,-1.2234776,1.350644,-0.90652657,0.777389,-0.050145607,0.010292053,-0.433506,0.8654746,-1.5527904,-0.33115464,0.16690437,0.021896362,-0.49020386,0.7748895,0.8087611,-0.017571215,0.10144642,0.57905537,-1.3136625,-0.24959253,-0.0017298344,1.0,0.0,0.0,0.0,0.0,0.0,0.0,-0.660292,0.033506006,-0.31547457,3.2975435,-14.164948,-0.152874,-0.6742716,1.0676861,-6.3542128,-2.1199987
-6.811347,13.5805025,5.9148693,13.492186,1.4823644,0.16375911,0.12583178,-0.79938036,-0.2644597,-0.63183516,0.7905192,-0.6334858,0.67397904,-0.22907475,0.6278543,-0.71613425,-1.8554016,-1.4356817,2.2050343,1.7918028,-0.87651765,0.69319445,-0.6931177,-1.8042248,-1.5011133,2.2593534,1.7317805,-0.8542472,-1.4510938,-0.37883058,-1.1923751,1.3662893,-0.90220636,0.7244237,-0.06813864,-0.0052223206,-0.43681717,0.86639494,-1.551238,-0.33082357,0.067092605,0.008548737,-0.49282455,0.7746111,0.81727356,-0.020299831,0.10626019,0.5660041,-1.3428934,-0.25336498,-0.03805325,1.0,0.0,0.0,0.0,0.0,0.0,0.0,-0.64477766,0.036817163,-0.31639493,3.4912348,-14.353305,3.2780886,1.7487288,0.23480654,-5.2766204,-1.7751045
-8.807825,16.400219,6.5606794,15.067204,1.5563459,0.34529167,0.06065728,-0.80493355,-0.31615728,-0.62668335,0.7983964,-0.6293005,0.66233844,-0.23385267,0.6127011,-0.7247334,-1.8668932,-1.4212737,2.1964233,1.7980144,-0.8776325,0.678835,-0.697867,-1.8158673,-1.4872488,2.250347,1.738689,-0.8550445,-1.4307113,-0.5072731,-1.1542631,1.39397,-0.90117514,0.67964154,-0.08357055,-0.020721436,-0.4401207,0.866318,-1.549687,-0.3304928,-0.032619376,-0.0051231384,-0.49543,0.7740257,0.82555944,-0.022782773,0.11055018,0.55291146,-1.3764708,-0.25039044,-0.06725005,1.0,0.0,0.0,0.0,0.0,0.0,0.0,-0.62927854,0.04012069,-0.31631798,2.0997524,-12.947268,3.9719582,2.9756308,-0.10716915,-4.4679165,-1.5213549
-9.19437,22.154566,8.199831,15.517319,1.3548269,0.47241652,0.034484453,-0.8057555,-0.34357926,-0.62229854,0.79766434,-0.633489,0.6534183,-0.20125951,0.59825945,-0.7322249,-1.8780972,-1.4074824,2.186998,1.8040308,-0.8751704,0.6645861,-0.70365673,-1.8271664,-1.4731363,2.2413213,1.7452006,-0.8559543,-1.4227523,-0.60329956,-1.1212686,1.4176364,-0.9037955,0.64179146,-0.09340138,-0.03620529,-0.44342422,0.8652447,-1.5481377,-0.33016238,-0.13223167,-0.019088745,-0.49793243,0.7731939,0.8336397,-0.025048409,0.11447167,0.5397347,-1.4054863,-0.2374101,-0.09102111,1.0,0.0,0.0,0.0,0.0,0.0,0.0,-0.6137947,0.04342422,-0.31524467,0.85794926,-9.730911,3.4565926,2.558732,-0.49693584,-3.7733555,-0.9913221
-8.546125,24.527569,8.565971,14.612915,1.1434469,0.4556371,0.053724878,-0.790821,-0.39145756,-0.62432724,0.79751074,-0.645555,0.6560338,-0.16539563,0.58550406,-0.7428025,-1.8895992,-1.3933852,2.176766,1.810804,-0.87249386,0.65042406,-0.71028477,-1.8382424,-1.4588541,2.232231,1.7513862,-0.8569194,-1.4138893,-0.6830917,-1.102347,1.4325396,-0.91187334,0.6108078,-0.09756771,-0.05167389,-0.44672394,0.863176,-1.5465899,-0.3298323,-0.23174436,-0.033317566,-0.5002785,0.77210605,0.84150535,-0.027058292,0.1181396,0.52647835,-1.4288557,-0.220806,-0.11748601,1.0,0.0,0.0,0.0,0.0,0.0,0.0,-0.5983261,0.046723932,-0.31317598,0.9397507,-8.111691,2.0446777,1.6699553,-1.0405421,-3.0816436,-0.44144392
-5.471987,29.902807,11.010321,13.52401,0.7957984,0.46320653,0.11733428,-0.77471125,-0.4152403,-0.6054808,0.7958389,-0.64596593,0.66320497,-0.14471301,0.5729529,-0.7518088,-1.8987905,-1.3792702,2.1676342,1.8177067,-0.8713907,0.63639456,-0.71754986,-1.8491277,-1.4444956,2.2230566,1.7573104,-0.8578998,-1.3992372,-0.7414011,-1.083391,1.4372649,-0.91986704,0.58624595,-0.09833382,-0.06712723,-0.45001984,0.86011285,-1.5450436,-0.32950252,-0.33115757,-0.04767227,-0.5024071,0.7707776,0.8491156,-0.028805947,0.12164911,0.51320016,-1.4394754,-0.19746898,-0.14120948,1.0,0.0,0.0,0.0,0.0,0.0,0.0,-0.58287275,0.05001983,-0.31011283,1.4778852,-5.9706807,2.075863,0.6066799,-1.0598421,-2.4256468,-0.12550205
-7.0515895,28.000177,9.178924,12.993713,0.8524632,0.40446883,0.087112844,-0.77309763,-0.45944113,-0.62453496,0.80098265,-0.64931524,0.65347683,-0.12057466,0.5590848,-0.76349396,-1.9115812,-1.3643973,2.158125,1.8226581,-0.86995727,0.6224976,-0.72538525,-1.8599728,-1.4301084,2.2138097,1.7630134,-0.85886395,-1.386421,-0.7979522,-1.0844539,1.4394807,-0.92708635,0.5651363,-0.09587702,-0.08256531,-0.45331192,0.8560648,-1.5434989,-0.3291731,-0.42934817,-0.06216812,-0.50432205,0.7691683,0.856483,-0.030238092,0.12502281,0.49989185,-1.4537201,-0.17709076,-0.17098832,1.0,0.0,0.0,0.0,0.0,0.0,0.0,-0.56743467,0.053311914,-0.30606478,1.313591,-5.790758,0.044488907,0.37732124,-0.95208883,-2.09558,0.20141304
-7.4379516,26.633694,8.228415,12.311967,0.89622843,0.3632186,0.08485168,-0.763715,-0.502714,-0.62307656,0.7995598,-0.6426657,0.6536113,-0.12997346,0.5461261,-0.77565664,-1.9222806,-1.3501525,2.149543,1.8283745,-0.8718613,0.608738,-0.73382145,-1.8708733,-1.415727,2.2045286,1.7685313,-0.8598081,-1.372345,-0.8592033,-1.0913684,1.4382981,-0.9291487,0.54757875,-0.09402354,-0.09798813,-0.4566002,0.85103554,-1.5419557,-0.32884398,-0.5274406,-0.07682419,-0.5060539,0.7672246,0.863624,-0.031324487,0.128222,0.48655045,-1.469764,-0.15838034,-0.20577152,1.0,0.0,0.0,0.0,0.0,0.0,0.0,-0.55201185,0.056600183,-0.30103552,1.4430523,-6.2560916,-0.5491018,0.053572655,-0.42130947,-1.7535925,0.15422553
-3.9715352,30.625877,10.356975,11.389519,0.6196074,0.3294158,0.14155929,-0.73572433,-0.51666903,-0.6189844,0.80058813,-0.6537742,0.65916085,-0.124162786,0.53516555,-0.78548837,-1.9327718,-1.3356682,2.139151,1.8344474,-0.8722244,0.59521395,-0.74278504,-1.881831,-1.4013628,2.1952093,1.7739024,-0.86073124,-1.3458422,-0.9092381,-1.0967511,1.436378,-0.93385214,0.5337847,-0.091979645,-0.11339569,-0.45988846,0.84502614,-1.5404141,-0.3285152,-0.625435,-0.09154129,-0.5075722,0.7649563,0.87051123,-0.03208513,0.13127705,0.47323036,-1.4741217,-0.13682036,-0.2376847,1.0,0.0,0.0,0.0,0.0,0.0,0.0,-0.5366043,0.059888452,-0.29502612,2.6429653,-5.1368833,-0.35800934,-0.05824566,-0.7076144,-1.3674617,0.15775263
-4.81333,26.789349,8.424499,10.317442,0.7075894,0.24539906,0.17084964,-0.72914594,-0.5797852,-0.62603176,0.78631413,-0.6578252,0.66380346,-0.094551496,0.52229935,-0.80076355,-1.9444342,-1.3227314,2.1294267,1.8402828,-0.8701864,0.58195025,-0.7523866,-1.8928632,-1.3870806,2.1858366,1.7791591,-0.8616134,-1.3199341,-0.9775758,-1.1047525,1.426106,-0.9389591,0.522908,-0.086984165,-0.128788,-0.4631691,0.8380243,-1.538874,-0.32818675,-0.72508883,-0.106365204,-0.50891113,0.76228917,0.87713635,-0.03249992,0.13412915,0.45998344,-1.4829003,-0.1200548,-0.28036937,1.0,0.0,0.0,0.0,0.0,0.0,0.0,-0.521212,0.06316909,-0.2880243,2.5935411,-6.955719,-0.63471794,-0.8566141,-0.7220745,-1.0905504,0.4815951
1.5156631,32.003403,11.881719,8.833999,0.30292243,0.1752466,0.27274707,-0.6783425,-0.5947443,-0.6120989,0.78989565,-0.671636,0.6809372,-0.09940808,0.514116,-0.81186104,-1.9540731,-1.3080909,2.1186728,1.8472528,-0.8715542,0.5691176,-0.76260334,-1.9038914,-1.3728842,2.176376,1.7843375,-0.8624526,-1.2712522,-1.0367845,-1.1013513,1.4180412,-0.9488996,0.5159923,-0.08295117,-0.14416504,-0.46644974,0.8300267,-1.5373354,-0.32785863,-0.8246431,-0.12111664,-0.5100708,0.7592365,0.88344955,-0.032621417,0.13679533,0.4469224,-1.4734137,-0.101582885,-0.3178161,1.0,0.0,0.0,0.0,0.0,0.0,0.0,-0.50583494,0.06644973,-0.28002667,4.79753,-6.041074,0.57513714,-0.6993294,-1.2424111,-0.67659616,0.36903173
-5.1548204,23.839157,6.5098734,9.014999,0.73297316,0.10475969,0.18060988,-0.69600743,-0.6582718,-0.6572251,0.77838,-0.6574118,0.65387857,-0.03979341,0.49951684,-0.82843053,-1.9696139,-1.2950462,2.1106348,1.8497254,-0.86643195,0.5566254,-0.773542,-1.9150819,-1.3587946,2.1668775,1.789434,-0.86320794,-1.24191,-1.1133,-1.1244768,1.4066696,-0.9509475,0.50752217,-0.07312978,-0.15952682,-0.46972656,0.82103425,-1.5357984,-0.32753083,-0.9240978,-0.13593674,-0.51109314,0.75569844,0.8895053,-0.03236659,0.13919874,0.4340005,-1.4847378,-0.09048396,-0.3703469,1.0,0.0,0.0,0.0,0.0,0.0,0.0,-0.49047315,0.06972656,-0.27103424,2.9449224,-7.7651978,-2.1697998,-0.928092,-0.38175583,-0.8780122,0.99126995
-0.17241669,28.67883,9.238356,7.997208,0.41138238,0.04558009,0.23088622,-0.6399159,-0.6717635,-0.6582588,0.782771,-0.66576356,0.6805276,-0.06415044,0.49263382,-0.8407183,-1.9809077,-1.2805175,2.1003013,1.8574867,-0.869623,0.5445729,-0.7851482,-1.9265069,-1.3447794,2.1573484,1.7944751,-0.8638898,-1.1931677,-1.1767495,-1.1478429,1.4005371,-0.95412767,0.50287634,-0.06656731,-0.17487335,-0.47299957,0.8110481,-1.5342629,-0.32720336,-1.0234531,-0.15076828,-0.51200485,0.75167125,0.89530164,-0.03173812,0.14136504,0.42124057,-1.4816144,-0.07826123,-0.41819552,1.0,0.0,0.0,0.0,0.0,0.0,0.0,-0.47512662,0.07299957,-0.26104808,4.8279047,-6.4618826,-2.139759,-0.45540333,-0.51898956,-0.4906416,0.64536035
6.2717757,27.665865,10.168351,4.559433,0.10971087,-0.16593647,0.33310056,-0.580711,-0.73007274,-0.6599187,0.7555179,-0.63498527,0.6834542,-0.13356888,0.48650178,-0.8581555,-1.9924988,-1.2692276,2.09385,1.8628205,-0.8772467,0.5331927,-0.7974716,-1.9381284,-1.3309263,2.147888,1.79948,-0.86456597,-1.12005,-1.2511388,-1.166141,1.3806909,-0.9439165,0.49956933,-0.06795531,-0.19020462,-0.47626877,0.80006903,-1.532729,-0.32687622,-1.122709,-0.16547775,-0.5128403,0.7471101,0.90080696,-0.030765317,0.14320165,0.4087707,-1.4660877,-0.073347986,-0.4737659,1.0,0.0,0.0,0.0,0.0,0.0,0.0,-0.45979536,0.07626876,-0.25006902,7.194352,-7.5324297,-1.5896082,-1.8687963,0.82206726,-0.36817193,-0.13019294
21.7821,34.38099,16.071404,-0.18745995,-0.78712785,-0.48518568,0.60438,-0.46628556,-0.7544499,-0.6525073,0.7424438,-0.64939445,0.68667006,-0.066597596,0.48656413,-0.8729166,-2.003379,-1.2566819,2.0829484,1.868147,-0.8712257,0.5229569,-0.81047684,-1.9498299,-1.3173193,2.1384923,1.80446,-0.8652154,-0.9924609,-1.3171817,-1.1702096,1.3537734,-0.939167,0.49760896,-0.06402913,-0.20552063,-0.47953415,0.78809816,-1.5311966,-0.3265494,-1.2218657,-0.17974854,-0.51368713,0.74202144,0.9059076,-0.02951234,0.14469895,0.3968913,-1.4124506,-0.07696692,-0.52599835,0.0,1.0,0.0,0.0,0.0,0.0,0.0,-0.44447935,0.07953414,-0.23809814,12.475813,-6.6763163,-0.027632713,-2.726674,0.22214651,-0.20965934,0.36994815
30.583693,39.309006,19.36484,-2.662501,-1.3101702,-0.7182564,0.7464491,-0.3862954,-0.769914,-0.6676399,0.72435784,-0.64794606,0.66868144,0.007686681,0.48432738,-0.8874682,-2.016594,-1.2448835,2.0736978,1.8713282,-0.86444676,0.51419073,-0.82402664,-1.9615868,-1.3040289,2.129131,1.8094115,-0.8657733,-0.83918804,-1.367764,-1.1762589,1.3204141,-0.93610907,0.49430826,-0.053126134,-0.22082138,-0.48279953,0.77513653,-1.5296657,-0.32622293,-1.3209232,-0.19332123,-0.5146179,0.736435,0.910527,-0.02799346,0.14591676,0.38583034,-1.3370589,-0.08852912,-0.57517,0.0,1.0,0.0,0.0,0.0,0.0,0.0,-0.4291786,0.082799524,-0.22513652,14.966512,-5.128026,-0.16505718,-3.4523964,0.0197649,-0.3492236,1.0382109
42.913418,45.160614,23.544975,-5.885755,-2.0558488,-1.0669687,0.9406957,-0.2540276,-0.7798397,-0.68970186,0.71139795,-0.67901075,0.6615537,0.1253088,0.48878798,-0.9020106,-2.030557,-1.232889,2.06123,1.8755668,-0.85324246,0.50732267,-0.83794796,-1.9736892,-1.2911884,2.1199274,1.8145036,-0.86614454,-0.63727534,-1.400381,-1.2221096,1.2702228,-0.9065407,0.5239949,-0.030139843,-0.23552322,-0.48289108,0.7706623,-1.3736557,0.063013494,-0.07447007,-0.20595169,-0.5157814,0.7303058,0.91460055,-0.026192268,0.14689398,0.37582144,-1.2371931,-0.112902835,-0.6317987,0.0,1.0,0.0,0.0,0.0,0.0,0.0,-0.41447675,0.08289108,-0.2206623,19.034445,-3.3548355,-1.1686325,-3.551054,-1.3664126,-0.52229166,2.1321807
-13.507825,61.181435,17.927341,20.895233,0.9757644,0.90648353,-0.011079617,-0.5884126,-0.6722069,-0.60450387,0.79310143,-0.7191527,0.6153539,0.2682293,0.4484814,-0.90516865,-2.0341396,-1.2118782,2.0480123,1.8760389,-0.8393216,0.5004972,-0.8515588,-1.9856445,-1.2782508,2.11065,1.8196858,-0.86618745,-0.6973011,-1.348902,-1.1860372,1.3020681,-0.93635076,0.51631004,0.0038727114,-0.24925232,-0.48225784,0.769166,-1.3722823,0.06295049,-0.17467484,-0.21834564,-0.51659393,0.72419673,0.9184163,-0.024299234,0.14815505,0.36602035,-1.2363647,-0.06313818,-0.60987055,0.0,1.0,0.0,0.0,0.0,0.0,0.0,-0.40074766,0.08225784,-0.21916598,-5.9113145,4.8847437,3.839898,3.3218145,-3.42443,-0.7679701,3.2421124
-32.55329,75.41616,19.132153,31.429676,1.9549457,1.736403,-0.33805853,-0.62061644,-0.6071231,-0.58451164,0.80167484,-0.721991,0.63940656,0.30291703,0.43843558,-0.91227114,-2.0440955,-1.1980833,2.038451,1.8836265,-0.8358958,0.49242908,-0.864257,-1.997058,-1.2648326,2.1010256,1.8247956,-0.8658861,-0.8425611,-1.244583,-1.1255844,1.3556199,-0.97278637,0.5092591,0.038145114,-0.26296616,-0.48163223,0.7666684,-1.3709103,0.06288755,-0.2747794,-0.23092651,-0.5166435,0.718586,0.9221514,-0.022397632,0.1501508,0.3557947,-1.2623937,0.021695955,-0.55031747,0.0,1.0,0.0,0.0,0.0,0.0,0.0,-0.38703382,0.08163223,-0.21666837,-14.302015,10.084772,6.2569857,5.5531263,-4.197037,-0.68472624,3.2081864
-38.44505,77.28662,17.796396,33.235577,2.2385893,1.836339,-0.44808036,-0.64018077,-0.5707715,-0.61138,0.79860944,-0.70319986,0.6388934,0.26683673,0.428411,-0.92133415,-2.058196,-1.1849717,2.0307057,1.888685,-0.8392024,0.48280603,-0.8758241,-2.0080302,-1.2509185,2.0911112,1.8298234,-0.8653034,-1.0014961,-1.12859,-1.0870578,1.4041555,-0.9995698,0.5005047,0.06426488,-0.27666473,-0.48100662,0.7631705,-1.3695397,0.062824674,-0.3747839,-0.24384308,-0.5158119,0.7135776,0.9258585,-0.020441512,0.15296252,0.34492132,-1.2970436,0.11231461,-0.48919,0.0,1.0,0.0,0.0,0.0,0.0,0.0,-0.37333524,0.08100662,-0.21317047,-15.665078,11.2344265,4.0655375,5.0819635,-3.2284975,-0.89327097,2.3932948
-37.545494,70.53341,14.536556,30.07962,2.139338,1.5719075,-0.39095688,-0.6777028,-0.5482689,-0.6461744,0.79464144,-0.6922637,0.6202946,0.3148829,0.41503575,-0.930651,-2.0726476,-1.1714543,2.021885,1.8918529,-0.8338151,0.4717415,-0.88636315,-2.018925,-1.236663,2.0810366,1.8347539,-0.8644575,-1.1407745,-1.0302429,-1.0893039,1.4335729,-1.0116055,0.49033755,0.09070498,-0.29034805,-0.480381,0.7586733,-1.3681704,0.062761866,-0.4746884,-0.25710297,-0.51415634,0.7090215,0.92953354,-0.018245326,0.15646105,0.33339837,-1.3327029,0.19344442,-0.448625,0.0,1.0,0.0,0.0,0.0,0.0,0.0,-0.35965192,0.080381006,-0.2086733,-13.738084,9.493399,-0.01912117,3.1894445,-1.692462,-1.0909379,2.4526505
-23.823734,67.068085,15.670951,23.471369,1.4427545,1.1230891,-0.16041626,-0.6645096,-0.5196229,-0.65173525,0.79659957,-0.687923,0.63882715,0.32823318,0.40529054,-0.93832546,-2.0840986,-1.157003,2.0122442,1.8986366,-0.83163416,0.4597481,-0.89608014,-2.0299761,-1.2222396,2.0709162,1.8396043,-0.8633665,-1.2186751,-0.9531015,-1.1096522,1.4458641,-1.0135801,0.48294353,0.11458502,-0.3040161,-0.4797554,0.7531778,-1.3668025,0.06269912,-0.574493,-0.27053833,-0.51182556,0.7047419,0.9330959,-0.015711147,0.16046341,0.3214603,-1.3436935,0.25599575,-0.42473477,0.0,1.0,0.0,0.0,0.0,0.0,0.0,-0.34598386,0.079755396,-0.20317781,-7.729292,7.420838,-1.7477274,1.3782501,-0.66907406,-0.83687305,2.195549
-14.3098545,55.6725,13.211457,16.932392,0.9763175,0.63573325,0.029948503,-0.6667581,-0.5356257,-0.6800807,0.7969961,-0.6911803,0.6362999,0.37379083,0.39307228,-0.9496427,-2.0979843,-1.14254,2.0017982,1.9032342,-0.8259874,0.4473403,-0.905367,-2.041386,-1.2077819,2.0608034,1.8443879,-0.8620285,-1.248134,-0.9212928,-1.1504377,1.4461765,-1.0115062,0.4765135,0.13970764,-0.31767654,-0.4791298,0.746685,-1.365436,0.06263643,-0.6741978,-0.28401566,-0.5090332,0.70048547,0.9364809,-0.012742892,0.16472834,0.3093635,-1.3453704,0.29684526,-0.42914084,0.0,1.0,0.0,0.0,0.0,0.0,0.0,-0.33232343,0.079129785,-0.19668502,-2.9455185,2.9529572,-3.7935734,0.15308857,-0.18026829,-0.7555127,2.3545833
-4.966756,46.635353,12.069429,11.2946415,0.6080599,0.25854766,0.2020666,-0.65538216,-0.55751,-0.68322027,0.79129606,-0.6719502,0.6189277,0.39890784,0.38180208,-0.96111804,-2.1097078,-1.1286523,1.9936084,1.9062806,-0.8221377,0.434933,-0.91465104,-2.053177,-1.1933929,2.0507822,1.8491029,-0.8604435,-1.2384844,-0.93134314,-1.1876765,1.4367254,-0.99984497,0.46943778,0.1643208,-0.33132172,-0.47850418,0.73919594,-1.3640709,0.0625738,-0.7738029,-0.2974472,-0.5059662,0.69602865,0.93964946,-0.0093247285,0.16897887,0.29735175,-1.3382812,0.32002348,-0.45414713,0.0,1.0,0.0,0.0,0.0,0.0,0.0,-0.31867826,0.078504175,-0.18919593,0.91416836,-1.1736751,-3.4361362,-0.85566044,0.8383632,-0.8241117,2.3447871
4.6211867,39.40956,11.934785,6.3290296,0.23916963,-0.03479904,0.3652395,-0.62208474,-0.5968681,-0.6730907,0.7880145,-0.6721824,0.6304285,0.42038098,0.37272453,-0.9743378,-2.1204863,-1.1145915,1.983564,1.9121457,-0.8184054,0.4228975,-0.9243319,-2.0652533,-1.1791608,2.0409038,1.8537191,-0.8586051,-1.191702,-0.980711,-1.2153134,1.4175038,-0.982323,0.45799768,0.19071506,-0.34513092,-0.47643661,0.7334458,-1.3840635,0.303551,-0.39722878,-0.3107376,-0.5028076,0.69118506,0.9425728,-0.0054820175,0.172958,0.28567794,-1.3211656,0.32497066,-0.498018,0.0,1.0,0.0,0.0,0.0,0.0,0.0,-0.30486906,0.07643661,-0.18344581,4.360914,-5.027771,-1.6865969,-1.3071299,1.5309453,-0.122088194,2.3682833
-2.8067575,51.46957,13.957579,11.247616,0.5063188,0.3090657,0.251598,-0.6805808,-0.52086294,-0.69573784,0.7838895,-0.6912051,0.57637125,0.46334013,0.3548394,-0.9764182,-2.1348271,-1.1007719,1.9717833,1.9113562,-0.81227106,0.41104475,-0.9341519,-2.077571,-1.1650922,2.0311682,1.8582811,-0.85650617,-1.1833957,-0.9830455,-1.2360595,1.40339,-0.9720333,0.4550569,0.21584472,-0.35848618,-0.47362137,0.72927225,-1.3191342,0.27348584,-0.42376038,-0.3238716,-0.49944305,0.686087,0.9452599,-0.0012582529,0.17679039,0.27427575,-1.3063142,0.34984812,-0.51663065,0.0,1.0,0.0,0.0,0.0,0.0,0.0,-0.2915138,0.07362136,-0.17927223,0.74789524,-0.41171312,-1.7211676,-1.3548613,0.6440282,-0.43416023,2.382329
-11.844145,48.918606,10.776379,13.567328,0.90168303,0.4217661,0.14276361,-0.7062404,-0.5485906,-0.72785836,0.7792414,-0.6940545,0.51469034,0.49828035,0.3404207,-0.98901093,-2.1503568,-1.0871681,1.9617628,1.9097502,-0.8066781,0.39906037,-0.9440215,-2.0901742,-1.1511416,2.0214891,1.8627684,-0.8541574,-1.2035351,-0.98901093,-1.2671304,1.39286,-0.96767706,0.44617078,0.24091643,-0.37125015,-0.47109222,0.7247615,-1.2615895,0.24538217,-0.45920044,-0.33697128,-0.49578476,0.6807767,0.9477506,0.0034026545,0.18055533,0.26297697,-1.3080286,0.38215238,-0.5386012,0.0,1.0,0.0,0.0,0.0,0.0,0.0,-0.27874982,0.07109222,-0.17476147,-2.033162,-0.79300404,-2.7988195,-0.90749264,0.061261654,-1.056546,2.3937612
-14.4312105,51.697105,11.229407,15.128302,1.1176845,0.57237613,0.10537209,-0.7135741,-0.55298114,-0.71731097,0.7803586,-0.68139386,0.51960665,0.53537935,0.32770294,-0.9993196,-2.1619053,-1.0731058,1.9533497,1.9147291,-0.8006195,0.38679224,-0.9539359,-2.1029685,-1.1372465,2.0118515,1.8671695,-0.85155797,-1.2346078,-0.9930263,-1.2827705,1.3888011,-0.96409446,0.43711078,0.26582047,-0.38349915,-0.4688034,0.7199191,-1.2159166,0.22785972,-0.4896089,-0.35012436,-0.4917488,0.6752995,0.95006174,0.008465563,0.18425559,0.25171584,-1.3119509,0.42102686,-0.5536866,0.0,1.0,0.0,0.0,0.0,0.0,0.0,-0.26650083,0.0688034,-0.16991907,-3.1213284,-0.61569214,-1.2105227,-0.25224686,-0.22319555,-1.2319744,2.3708463
-6.5724072,49.019062,12.182542,11.908795,0.8306351,0.4152189,0.21160653,-0.6775957,-0.59044176,-0.7060069,0.77729934,-0.6798525,0.532443,0.54878324,0.31903267,-1.0129801,-2.1735692,-1.0595165,1.9438663,1.9204139,-0.7966796,0.37441444,-0.96405154,-2.115789,-1.1233778,2.0022101,1.8714703,-0.8487287,-1.2390151,-1.0184088,-1.28073,1.3865201,-0.965189,0.42725748,0.28846863,-0.39552307,-0.46645737,0.7147653,-1.196324,0.23778291,-0.5203326,-0.36323166,-0.48740768,0.66962534,0.95217746,0.013858235,0.18781857,0.24060348,-1.304912,0.44928885,-0.5747479,0.0,1.0,0.0,0.0,0.0,0.0,0.0,-0.2544769,0.06645736,-0.1647653,-0.5033016,-2.7161598,0.5735159,-0.111722946,-0.5064249,-1.1571407,2.182603
3.278575,50.478733,14.800323,9.047714,0.46319133,0.26422524,0.32319507,-0.6448272,-0.60341966,-0.69025725,0.77662265,-0.67860174,0.5331666,0.55861634,0.30993173,-1.0243936,-2.1848147,-1.0457156,1.93435,1.924787,-0.79286706,0.36221772,-0.9744685,-2.1284645,-1.1095262,1.9925572,1.8756852,-0.84569085,-1.2136725,-1.0500565,-1.2617195,1.3849115,-0.96650666,0.41907522,0.30857813,-0.4073105,-0.46403885,0.70931953,-1.1711943,0.24361831,-0.54905206,-0.37614822,-0.48285675,0.66374743,0.9540725,0.019470287,0.1911879,0.22981252,-1.281585,0.46634462,-0.5947916,0.0,1.0,0.0,0.0,0.0,0.0,0.0,-0.24268949,0.06403884,-0.15931952,2.4056911,-3.3152342,2.3276567,-0.12819767,-0.55407286,-0.9656787,1.9129217
4.9890294,45.999493,13.705226,7.4826922,0.4447302,0.14749247,0.34121117,-0.64280736,-0.64476115,-0.6788868,0.77536064,-0.6718726,0.48355412,0.56499314,0.29793698,-1.0389446,-2.1963532,-1.03199,1.9253699,1.9240407,-0.78919154,0.35031244,-0.9853433,-2.1408882,-1.095688,1.9829096,1.8797896,-0.84247077,-1.1832129,-1.1003008,-1.2347275,1.3837737,-0.96528596,0.40711528,0.32627836,-0.41886902,-0.46158218,0.7035169,-1.1490685,0.24676064,-0.587261,-0.38883972,-0.47817993,0.6576107,0.9557624,0.0252494,0.19426577,0.21941155,-1.2601922,0.477648,-0.62262255,0.0,1.0,0.0,0.0,0.0,0.0,0.0,-0.23113096,0.061582178,-0.15351689,2.9237986,-5.155444,3.0999422,-0.06020069,-0.26521683,-1.3531268,1.7119348
19.086971,47.114372,16.508965,2.9932618,-0.25785118,-0.16868347,0.51020044,-0.5586955,-0.658149,-0.68822837,0.7679382,-0.6889068,0.470133,0.5888286,0.2944429,-1.0511582,-2.209711,-1.0188942,1.9140189,1.9268029,-0.78358793,0.3390546,-0.99670154,-2.1531246,-1.0818957,1.9732317,1.8837775,-0.8390795,-1.1073542,-1.1480248,-1.2182963,1.3773974,-0.96966416,0.39566043,0.34306315,-0.43014526,-0.45914078,0.69734275,-1.1191429,0.24315648,-0.6237616,-0.40115738,-0.4735527,0.65116775,0.9572233,0.031201027,0.19704936,0.20957477,-1.2159041,0.46850017,-0.6542826,0.0,1.0,0.0,0.0,0.0,0.0,0.0,-0.21985471,0.05914077,-0.14734274,7.380748,-4.870391,2.0962715,-0.7036209,-0.8403659,-1.2824893,1.5733898
29.410198,50.42,19.63132,0.7166796,-0.5555834,-0.34478617,0.59638447,-0.49762547,-0.6763957,-0.656497,0.7654482,-0.6592983,0.44446588,0.59513015,0.28929207,-1.0643411,-2.2187743,-1.0053508,1.9073019,1.9282241,-0.77956647,0.32876194,-1.0085018,-2.1651099,-1.0681797,1.9636031,1.8876455,-0.8355354,-1.0041518,-1.1909907,-1.1904392,1.3689734,-0.96184945,0.3834615,0.35780272,-0.44107056,-0.45676804,0.69086266,-1.0819482,0.23510534,-0.6524201,-0.41292572,-0.46910477,0.64444906,0.9584456,0.0372359,0.19952077,0.20046686,-1.1570413,0.44581085,-0.68074745,0.0,1.0,0.0,0.0,0.0,0.0,0.0,-0.20892942,0.05676803,-0.14086264,10.051036,-4.3813467,3.3090353,-0.996995,0.32730103,-1.3606727,1.3505399
29.314426,49.299934,18.946741,0.49323082,-0.4922989,-0.41114396,0.57571536,-0.4682856,-0.7036772,-0.65112996,0.752986,-0.6379314,0.39756536,0.588949,0.28193337,-1.0788695,-2.230223,-0.9928811,1.89981,1.927402,-0.77664053,0.31946927,-1.0207317,-2.1768432,-1.0545934,1.9541223,1.8913667,-0.8318664,-0.9051494,-1.2341051,-1.1659231,1.3546222,-0.9448043,0.3678532,0.36955005,-0.45162964,-0.45448685,0.68408453,-1.0458165,0.22566761,-0.6834699,-0.42411804,-0.46490097,0.63744885,0.9594601,0.043328017,0.20163044,0.19210455,-1.1015553,0.420114,-0.70948154,0.0,1.0,0.0,0.0,0.0,0.0,0.0,-0.19837034,0.05448684,-0.13408452,9.645069,-4.3985605,2.9579163,-1.5679598,1.2570858,-1.721704,1.0681212
25.775148,53.15513,19.283293,2.7003646,-0.16747004,-0.30554354,0.49873865,-0.44383547,-0.7101186,-0.61853766,0.74650073,-0.6093669,0.34565768,0.59558886,0.27508572,-1.0917436,-2.238697,-0.9799434,1.8931856,1.9259325,-0.7723075,0.31102875,-1.0333105,-2.1882448,-1.0411617,1.9448858,1.894903,-0.82809085,-0.8244487,-1.2659829,-1.1298401,1.339035,-0.9180487,0.34831095,0.379914,-0.46181488,-0.45228958,0.6770535,-1.0084212,0.21736339,-0.70717704,-0.434803,-0.46090317,0.6302298,0.96030784,0.04942687,0.20336302,0.18441583,-1.0512308,0.4000211,-0.7289674,0.0,1.0,0.0,0.0,0.0,0.0,0.0,-0.1881851,0.052289575,-0.1270535,7.8328967,-3.2955647,4.133153,-1.6690254,2.1846175,-2.1325529,0.9413123
21.611986,57.726788,19.786936,5.25809,0.19074696,-0.13328981,0.4138024,-0.42136797,-0.71629864,-0.5756124,0.73847044,-0.5875972,0.33861908,0.5924509,0.26889196,-1.1049404,-2.245806,-0.9673146,1.8861262,1.9287648,-0.76884574,0.30323955,-1.0461222,-2.1991506,-1.0278901,1.9359508,1.8982506,-0.8242265,-0.7644922,-1.2868725,-1.075761,1.3230876,-0.8870349,0.32972232,0.38834426,-0.47161102,-0.4501648,0.6698528,-0.96927696,0.21067904,-0.72223395,-0.44502258,-0.4570465,0.6228991,0.96102434,0.055437393,0.20474312,0.1773105,-1.0055923,0.38787553,-0.7375424,0.0,1.0,0.0,0.0,0.0,0.0,0.0,-0.17838895,0.05016479,-0.11985278,5.777669,-2.2156477,5.9548855,-1.6840696,2.5663972,-2.044779,0.75868964
