Afshin1997/kuka_rl_ros2/src/catch_and_throw/input_files/idealpd/recorded_trajectories/env_271_data.csv
torque0,torque1,torque2,torque3,torque4,torque5,torque6,action0,action1,action2,action3,action4,action5,action6,set_target_0,set_target_1,set_target_2,set_target_3,set_target_4,set_target_5,set_target_6,joint_pos_0,joint_pos_1,joint_pos_2,joint_pos_3,joint_pos_4,joint_pos_5,joint_pos_6,joint_vel_0,joint_vel_1,joint_vel_2,joint_vel_3,joint_vel_4,joint_vel_5,joint_vel_6,tennisball_pos_0,tennisball_pos_1,tennisball_pos_2,tennisball_lin_vel_0,tennisball_lin_vel_1,tennisball_lin_vel_2,end_effector_pos_0,end_effector_pos_1,end_effector_pos_2,end_effector_rot_0,end_effector_rot_1,end_effector_rot_2,end_effector_rot_3,end_effector_lin_vel_0,end_effector_lin_vel_1,end_effector_lin_vel_2,obs_task_0,obs_task_1,obs_task_2,obs_task_3,obs_task_4,obs_task_5,obs_task_6,to_final_target_0,to_final_target_1,to_final_target_2,joint_acc_0,joint_acc_1,joint_acc_2,joint_acc_3,joint_acc_4,joint_acc_5,joint_acc_6
0.0,0.0,0.0,0.0,0.0,0.0,0.0,0.0,0.0,0.0,0.0,0.0,0.0,0.0,1.7802359,-1.0646509,-1.8151424,-1.1170107,1.9373155,1.1170107,-0.91629785,1.7802359,-1.0646509,-1.8151424,-1.1170107,1.9373155,1.1170107,-0.91629785,0.0,0.0,0.0,0.0,0.0,0.0,0.0,2.8119493,-0.63324165,0.32277828,-3.0440567,0.34169874,4.8308835,0.530416,-0.45449638,0.693097,0.5745483,0.17512383,0.15255436,0.7848268,0.0,0.0,0.0,1.0,0.0,0.0,0.0,0.0,0.0,0.0,-3.4619493,0.23324165,0.22722173,0.0,0.0,0.0,0.0,0.0,0.0,0.0
0.0,0.0,0.0,0.0,0.0,0.0,0.0,0.0,0.0,0.0,0.0,0.0,0.0,0.0,1.7802359,-1.0646509,-1.8151424,-1.1170107,1.9373155,1.1170107,-0.91629785,1.7802359,-1.0646509,-1.8151424,-1.1170107,1.9373155,1.1170107,-0.91629785,0.0,0.0,0.0,0.0,0.0,0.0,0.0,2.8119493,-0.63324165,0.32277828,-3.0440567,0.34169874,4.8308835,0.530416,-0.45449638,0.693097,0.5745483,0.17512383,0.15255436,0.7848268,0.0,0.0,0.0,1.0,0.0,0.0,0.0,0.0,0.0,0.0,-3.4619493,0.23324165,0.22722173,0.0,0.0,0.0,0.0,0.0,0.0,0.0
0.0,0.0,0.0,0.0,0.0,0.0,0.0,0.0,0.0,0.0,0.0,0.0,0.0,0.0,1.7802359,-1.0646509,-1.8151424,-1.1170107,1.9373155,1.1170107,-0.91629785,1.7802359,-1.0646509,-1.8151424,-1.1170107,1.9373155,1.1170107,-0.91629785,0.0,0.0,0.0,0.0,0.0,0.0,0.0,2.8119493,-0.63324165,0.32277828,-3.0440567,0.34169874,4.8308835,0.530416,-0.45449638,0.693097,0.5745483,0.17512383,0.15255436,0.7848268,0.0,0.0,0.0,1.0,0.0,0.0,0.0,0.0,0.0,0.0,-3.4619493,0.23324165,0.22722173,0.0,0.0,0.0,0.0,0.0,0.0,0.0
-176.0,84.635544,0.12879181,110.0,11.418128,5.416933,-3.7625794,-0.83588123,0.43656868,-0.542121,0.7234197,0.5272428,0.615989,-0.584774,1.6966478,-1.0209941,-1.8693545,-1.0446688,1.9900397,1.1786096,-0.97477525,1.7785345,-1.0618185,-1.8209388,-1.1129671,1.9437776,1.1219717,-0.91907495,-0.22668636,0.37692824,-0.7720583,0.53937113,0.860505,0.65926564,-0.3698456,2.7815318,-0.6298275,0.37031445,-3.0410132,0.3413571,4.7278676,0.52818346,-0.45763206,0.69406325,0.57862765,0.17383814,0.15085159,0.782441,-0.2973198,-0.41840217,0.1285959,1.0,0.0,0.0,0.0,0.0,0.0,0.0,-3.431532,0.2298275,0.17968556,-22.635668,37.47739,-76.946884,53.973633,85.74749,65.25602,-36.846474
-176.0,2.441565,-32.01276,110.0,12.628899,2.6791363,-3.0259597,-0.81378543,0.012608207,-0.5510495,0.69019985,0.56639665,0.61895305,-0.59889644,1.697156,-1.0605576,-1.8760438,-1.0439471,2.0004172,1.183867,-0.97896457,1.7759615,-1.0573324,-1.835551,-1.100989,1.957047,1.1346098,-0.9224004,-0.26559752,0.47058675,-1.6916542,1.4196585,1.4816189,1.4582722,-0.31687266,2.751145,-0.62641716,0.4168212,-3.0379727,0.34101585,4.6249547,0.52317905,-0.46566963,0.69547695,0.58743185,0.17070435,0.14664553,0.7773537,-0.56970966,-0.9309975,0.14616595,1.0,0.0,0.0,0.0,0.0,0.0,0.0,-3.401145,0.22641715,0.1331788,-3.3162265,8.819241,-92.21065,88.738144,61.8392,77.82144,6.2712135
-154.49612,112.01839,28.908895,91.64459,8.11578,7.57429,-1.8290509,-0.7832532,0.38524544,-0.07304027,0.5648608,0.5817117,0.67012495,-0.5805629,1.6976362,-1.0188079,-1.8428551,-1.0445029,2.0152183,1.2016224,-0.9804567,1.7700735,-1.0516142,-1.8511894,-1.0851923,1.9721856,1.1490542,-0.9257335,-0.6968512,0.602229,-1.5146614,1.6338116,1.5201632,1.4320302,-0.34069088,2.7207875,-0.6230087,0.46229962,-3.0349355,0.34067488,4.522145,0.5152683,-0.47650337,0.6984943,0.5991445,0.16612463,0.14121573,0.7703807,-0.8725397,-1.1280476,0.35786918,1.0,0.0,0.0,0.0,0.0,0.0,0.0,-3.3707876,0.22300872,0.0877004,-43.249043,12.169027,19.65971,21.683788,2.5538683,-4.9772263,-2.9512584
-96.1787,118.28669,42.502415,58.94091,4.591857,7.791455,-0.55781895,-0.788033,0.30446446,0.012496948,0.5872556,0.55815023,0.64220613,-0.59478796,1.6912702,-1.0211678,-1.8499397,-1.0264667,2.0280006,1.2132748,-0.9852123,1.7600657,-1.045381,-1.8623264,-1.0692431,1.9862084,1.1624571,-0.9292707,-1.1035353,0.62800807,-0.97250277,1.582349,1.3588188,1.3051534,-0.36090326,2.6904607,-0.6196041,0.5067507,-3.0319011,0.34033427,4.419437,0.50485134,-0.4880371,0.7034872,0.61193496,0.16019726,0.1351138,0.76263785,-1.1100458,-1.1511748,0.5519908,1.0,0.0,0.0,0.0,0.0,0.0,0.0,-3.3404608,0.2196041,0.04324931,-41.087414,1.8326879,56.492245,-5.066991,-17.420746,-14.074779,-2.8834581
-37.03392,128.8512,51.723595,31.080318,1.405199,6.995855,0.23403782,-0.8016973,0.389925,0.049506553,0.5651919,0.6080341,0.6388057,-0.58068633,1.679896,-1.0063884,-1.8573757,-1.0127239,2.0470119,1.2263377,-0.9873393,1.7467924,-1.0388006,-1.8676155,-1.0549265,1.9983945,1.174441,-0.93299955,-1.4035481,0.66642904,-0.37453067,1.3809947,1.1688488,1.1609819,-0.37988105,2.6601644,-0.6162033,0.5501755,-3.0288699,0.339994,4.316832,0.4927225,-0.4988594,0.71023136,0.62454826,0.15301012,0.12862764,0.7549717,-1.25978,-1.045622,0.71891767,1.0,0.0,0.0,0.0,0.0,0.0,0.0,-3.3101645,0.2162033,-0.00017547607,-30.502367,3.3307672,61.754395,-20.30146,-19.908142,-14.9700165,-2.7981937
1.9634054,123.812454,49.18213,13.880916,-0.58886456,5.161892,0.41480368,-0.8143032,0.47003374,0.02739817,0.5666299,0.6191073,0.62081885,-0.5794069,1.6653621,-0.9917972,-1.8648757,-0.99826354,2.060305,1.2365229,-0.9909402,1.731547,-1.031587,-1.868243,-1.0426584,2.0089726,1.185103,-0.9368877,-1.5662583,0.73867685,0.04556329,1.1745286,1.019112,1.0344707,-0.39422253,2.6298985,-0.6128063,0.592575,-3.0258417,0.3396541,4.21433,0.4797001,-0.5083008,0.71828735,0.63647485,0.14490125,0.12221221,0.7476413,-1.3273677,-0.8954692,0.83554393,1.0,0.0,0.0,0.0,0.0,0.0,0.0,-3.2798986,0.21280631,-0.042575,-16.674376,6.8902493,43.319958,-20.88015,-15.429926,-12.715507,-2.1674275
23.9966,121.13596,45.853367,5.9868975,-1.6162388,3.7133584,0.33348817,-0.8237996,0.56257683,0.0356519,0.5523072,0.643913,0.62083846,-0.57346725,1.6491671,-0.97532934,-1.8646778,-0.9874277,2.073364,1.2471869,-0.9942344,1.7154909,-1.0233034,-1.8661888,-1.0320936,2.0185285,1.1946589,-0.94088835,-1.6197795,0.85757595,0.26168898,1.0163579,0.9334755,0.92981035,-0.4039748,2.5996628,-0.60941315,0.6339503,-3.0228164,0.3393145,4.1119304,0.46640158,-0.51617813,0.72729284,0.6476685,0.13621151,0.11629271,0.7405727,-1.3399501,-0.7369665,0.9214946,1.0,0.0,0.0,0.0,0.0,0.0,0.0,-3.2496629,0.20941314,-0.08395028,-5.672455,11.650694,22.481266,-16.040802,-8.747303,-10.332001,-1.5713751
33.086376,112.52687,40.461174,2.6231906,-1.9474134,2.5537891,0.21566617,-0.8259142,0.6190283,0.056272205,0.5238734,0.65108806,0.6198436,-0.5659928,1.6328995,-0.96140057,-1.8605615,-0.9797063,2.0836372,1.2566433,-0.9974876,1.699412,-1.0137285,-1.8631141,-1.0227038,2.0275922,1.2033106,-0.9449586,-1.6049172,0.99031764,0.32474396,0.91232914,0.89711607,0.8442268,-0.40963942,2.569457,-0.6060219,0.6743023,-3.0197942,0.33897525,4.009633,0.4532013,-0.5225773,0.73695517,0.6582386,0.12721977,0.11110883,0.7336156,-1.3203901,-0.5924336,0.9794837,1.0,0.0,0.0,0.0,0.0,0.0,0.0,-3.2194571,0.20602188,-0.12430227,1.2334585,13.107085,6.895012,-10.605251,-3.683877,-8.35712,-1.0455728
34.2352,104.11768,36.1574,2.3359528,-1.8193686,1.92245,0.14724144,-0.82447076,0.66440094,0.09471694,0.49558282,0.6549645,0.63737565,-0.559847,1.6169649,-0.9472884,-1.8536425,-0.9731455,2.0930886,1.2670481,-1.0009433,1.6837031,-1.0028929,-1.8599384,-1.0140406,2.0365224,1.2112356,-0.94906515,-1.5602862,1.1144187,0.31651092,0.8503852,0.8915413,0.77573246,-0.4123737,2.5392818,-0.60263443,0.7136321,-3.0167751,0.33863637,3.9074385,0.440269,-0.5276699,0.7470801,0.6682987,0.11808335,0.106676504,0.72667265,-1.2895004,-0.4669083,1.0213805,1.0,0.0,0.0,0.0,0.0,0.0,0.0,-3.189282,0.20263442,-0.1636321,4.259801,12.288451,-0.37944317,-6.3815475,-0.5475998,-6.66337,-0.67358613
30.862814,91.130325,30.627338,2.5248303,-1.4837258,1.385217,0.12016155,-0.8148084,0.6871099,0.10184221,0.46900055,0.66407496,0.64568746,-0.56315815,1.6022222,-0.93418187,-1.8497542,-0.96714056,2.1029298,1.2758044,-1.005381,1.6684939,-0.99104536,-1.857085,-1.0058123,2.045529,1.2185751,-0.9531917,-1.5084162,1.207921,0.2760016,0.81286126,0.9037348,0.7205538,-0.41389075,2.5091367,-0.5992508,0.7519408,-3.013759,0.33829778,3.805346,0.42765093,-0.5316906,0.75747156,0.6779323,0.10892564,0.10287817,0.71969366,-1.2562736,-0.3654261,1.0426824,1.0,0.0,0.0,0.0,0.0,0.0,0.0,-3.1591368,0.19925079,-0.20194077,5.023718,9.269261,-3.7093163,-3.9482594,1.2611747,-5.349016,-0.49051046
26.11832,78.10815,25.342155,2.0579014,-1.208008,0.971704,0.14740239,-0.8139835,0.70511436,0.09700485,0.41488814,0.67424357,0.6497904,-0.562087,1.5870955,-0.9205339,-1.8473845,-0.96432346,2.1129532,1.2835542,-1.0094004,1.6537119,-0.9785074,-1.8546894,-0.9980246,2.0547147,1.2254416,-0.9573278,-1.468834,1.2688808,0.2284089,0.76667243,0.92391956,0.6761015,-0.41439435,2.4790215,-0.595871,0.7892293,-3.0107458,0.33795956,3.7033556,0.4153514,-0.53483963,0.76790947,0.6871598,0.09988197,0.09957585,0.71268475,-1.2240114,-0.28296873,1.0416607,1.0,0.0,0.0,0.0,0.0,0.0,0.0,-3.1290216,0.19587097,-0.23922926,3.8098574,6.0484886,-4.4707956,-4.8425794,2.0769477,-4.262316,-0.34602284
20.21375,68.04231,21.070007,2.702796,-0.91270286,0.70438874,0.13837716,-0.81312543,0.72282475,0.07443104,0.38057613,0.68086886,0.65530825,-0.5590727,1.5723994,-0.9062249,-1.8472463,-0.95996696,2.1228015,1.2909724,-1.0132351,1.639197,-0.96554124,-1.8527915,-0.99074614,2.0641065,1.2319304,-0.96146196,-1.4461224,1.3057327,0.17759886,0.71408534,0.94478416,0.64042854,-0.41398677,2.448937,-0.59249496,0.8254986,-3.0077357,0.3376217,3.6014671,0.4033332,-0.5372906,0.7782194,0.69601077,0.091054395,0.0966677,0.70564395,-1.1961592,-0.21787241,1.0248497,1.0,0.0,0.0,0.0,0.0,0.0,0.0,-3.098937,0.19249496,-0.27549857,2.1312237,3.6618233,-4.832384,-5.499828,2.1602988,-3.3818603,-0.2186656
20.18084,64.048035,19.989357,1.5886393,-0.90318567,0.61867815,0.22292864,-0.80625135,0.7359017,0.09080985,0.32050148,0.68415016,0.6558357,-0.5586255,1.5585718,-0.8919511,-1.8437105,-0.958696,2.1325214,1.297514,-1.0173246,1.6248308,-0.9523262,-1.8512046,-0.984161,2.0736814,1.238114,-0.9655904,-1.4341176,1.326729,0.1532045,0.6392376,0.9619469,0.6117314,-0.41338405,2.418882,-0.58912086,0.86074984,-3.0047286,0.33728412,3.4996808,0.3916011,-0.5390949,0.78831035,0.7044413,0.08247695,0.09406277,0.6986502,-1.1665183,-0.15415826,1.0013825,1.0,0.0,0.0,0.0,0.0,0.0,0.0,-3.068882,0.18912086,-0.31074983,1.0556698,2.090311,-2.1758497,-7.7394724,1.7898321,-2.6549935,-0.19455552
22.46785,61.185787,19.351906,-0.7112322,-1.0673599,0.48103413,0.32881021,-0.8028319,0.74418825,0.09724568,0.24014232,0.6899593,0.6559499,-0.55820686,1.5445477,-0.87790734,-1.84148,-0.9601468,2.1426773,1.303709,-1.0214111,1.6105295,-0.93897474,-1.8497016,-0.97856677,2.0834012,1.2440535,-0.96971315,-1.4293731,1.3380767,0.15035442,0.53187686,0.9756864,0.58892405,-0.41273797,2.3888574,-0.5857506,0.89498395,-3.0017242,0.3369469,3.397996,0.3802142,-0.54023933,0.79810643,0.7123625,0.074182585,0.09171108,0.6918277,-1.1296133,-0.087435655,0.9698749,1.0,0.0,0.0,0.0,0.0,0.0,0.0,-3.0388575,0.18575057,-0.34498394,0.32441616,1.1415482,-0.012105703,-11.002278,1.4490962,-2.007699,-0.1835227
28.18206,57.832462,18.372347,-5.560058,-1.5621787,0.14983997,0.46814415,-0.79871804,0.75413704,0.08394705,0.11317589,0.6895144,0.659956,-0.5469306,1.5306578,-0.86356103,-1.8413069,-0.96724916,2.1523526,1.310049,-1.0244062,1.596255,-0.925527,-1.8482082,-0.97446024,2.0932202,1.2498041,-0.9738206,-1.427288,1.3471762,0.1499757,0.3692536,0.9841682,0.5719493,-0.41091177,2.3588624,-0.5823841,0.928202,-2.9987233,0.33661005,3.296413,0.3693261,-0.5406475,0.8074684,0.71964353,0.066279866,0.08966504,0.68533224,-1.0744764,-0.0126993535,0.9223124,1.0,0.0,0.0,0.0,0.0,0.0,0.0,-3.0088625,0.1823841,-0.37820196,0.056052208,0.9414911,0.22500157,-16.54644,0.9278655,-1.3094425,-0.047028065
42.361916,55.257015,18.45564,-16.21799,-2.6550918,-0.36507314,0.8029109,-0.7981526,0.7642182,0.108368985,-0.13298278,0.69860107,0.65992695,-0.53643054,1.5164397,-0.8491052,-1.8373713,-0.9877585,2.1630805,1.3157969,-1.0274637,1.581988,-0.9119743,-1.8465812,-0.9728743,2.1031194,1.2554232,-0.97790235,-1.4271116,1.3581702,0.16782747,0.087325945,0.9921701,0.5605733,-0.4079083,2.328898,-0.57901955,0.96040493,-2.9957252,0.3362735,3.1949315,0.35926723,-0.540123,0.81615466,0.725988,0.058992308,0.08804296,0.67949224,-0.98127043,0.08608514,0.8478103,1.0,0.0,0.0,0.0,0.0,0.0,0.0,-2.978898,0.17901954,-0.41040492,-0.13420582,1.1678219,2.050817,-28.491064,0.8739948,-0.5325794,0.09877086
53.379112,56.945324,20.217535,-22.342785,-3.3179395,-0.63998806,1.0288832,-0.782812,0.77447164,0.15723427,-0.31049037,0.7001979,0.64988315,-0.52605766,1.5037068,-0.83452713,-1.8308578,-1.0039233,2.173139,1.3204114,-1.0305082,1.5677897,-0.8982872,-1.8445499,-0.974547,2.1130872,1.2609469,-0.98194593,-1.4177036,1.3725684,0.21555904,-0.25283724,0.99854875,0.5520007,-0.40366837,2.298963,-0.5756588,0.99159384,-2.99273,0.3359373,3.0935514,0.35032988,-0.53848076,0.82404035,0.73115444,0.052446526,0.08689412,0.6746198,-0.8615303,0.19996417,0.76556826,1.0,0.0,0.0,0.0,0.0,0.0,0.0,-2.9489632,0.17565879,-0.44159383,0.8464098,1.545167,4.9392195,-34.252148,0.7631302,-0.13797283,0.27591586
53.004406,62.07232,22.888088,-19.027264,-2.9773583,-0.41985026,1.0238285,-0.77031267,0.77869785,0.23799701,-0.38578853,0.7068478,0.6519382,-0.5160508,1.4907584,-0.8204174,-1.8207502,-1.0131259,2.1837718,1.3261406,-1.033551,1.5537459,-0.8844627,-1.841708,-0.9793068,2.1231236,1.2663981,-0.9859409,-1.3999918,1.3862207,0.30725598,-0.5508282,1.0066144,0.5450165,-0.3983875,2.2690582,-0.57230186,1.0217696,-2.9897377,0.33560142,2.9922726,0.34253263,-0.5357189,0.83126,0.73513424,0.046511263,0.08608902,0.6708226,-0.74846053,0.30961487,0.7036414,1.0,0.0,0.0,0.0,0.0,0.0,0.0,-2.9190583,0.17230186,-0.47176963,1.7522335,1.4992476,9.15224,-29.934889,1.0589123,-0.027489662,0.43553114
47.904556,64.860344,24.135529,-13.426139,-2.3975458,-0.18870574,0.91510916,-0.7591333,0.7815473,0.30110353,-0.46461892,0.70966256,0.64854723,-0.50574446,1.4778326,-0.806308,-1.8115976,-1.0257688,2.19409,1.3312528,-1.0365154,1.5399157,-0.87052286,-1.8377655,-0.9865576,2.133244,1.2717825,-0.9898786,-1.3771428,1.3971841,0.4224912,-0.78335243,1.0151045,0.53837514,-0.39231586,2.2391834,-0.56894875,1.0509335,-2.9867487,0.33526587,2.8910952,0.3357401,-0.53193855,0.83801633,0.7380534,0.040985294,0.08545756,0.6680527,-0.6513592,0.4073306,0.6617221,1.0,0.0,0.0,0.0,0.0,0.0,0.0,-2.8891835,0.16894874,-0.50093347,2.3208857,1.254034,11.331707,-23.321365,1.2240171,-0.060391426,0.5589783
43.00587,68.26471,25.621878,-7.6545534,-1.8526434,0.0793284,0.7914792,-0.7382429,0.78769606,0.37669644,-0.52506125,0.70886385,0.6433383,-0.49582735,1.4660914,-0.79175323,-1.8000958,-1.0390637,2.2041304,1.3361163,-1.0394614,1.5263735,-0.85647905,-1.8325374,-0.9956051,2.143437,1.2771021,-0.9937524,-1.3462694,1.4074202,0.55510026,-0.94520336,1.0225025,0.5317414,-0.3858201,2.2093382,-0.56559944,1.0790863,-2.9837625,0.3349307,2.790019,0.32978916,-0.52724457,0.84451723,0.7400648,0.035655268,0.084865674,0.6662061,-0.57089406,0.49559447,0.64104044,1.0,0.0,0.0,0.0,0.0,0.0,0.0,-2.8593383,0.16559944,-0.5290863,3.1605482,1.2048006,12.920105,-16.2148,1.2305975,-0.10942221,0.6258786
37.333385,69.34921,25.95234,-2.5621128,-1.365386,0.2563758,0.6632017,-0.72148424,0.79346883,0.44194016,-0.57127535,0.71521866,0.63829154,-0.4739372,1.4542251,-0.77713215,-1.7883434,-1.0527327,2.2149587,1.3409313,-1.0411462,1.5131632,-0.8423351,-1.8259723,-1.0058323,2.15371,1.2823569,-0.9975509,-1.3122324,1.4173893,0.6890702,-1.0485948,1.0307398,0.5250903,-0.37790152,2.179523,-0.56225204,1.1062292,-2.9807792,0.33459583,2.689044,0.32452154,-0.52173996,0.850923,0.7413161,0.030355847,0.08422193,0.6651583,-0.50606555,0.5733565,0.6347036,1.0,0.0,0.0,0.0,0.0,0.0,0.0,-2.829523,0.16225204,-0.5562292,3.4932852,1.1942863,12.967682,-10.35372,1.3802052,-0.15642643,0.7828176
29.958488,68.35886,25.161297,3.0512953,-0.84234846,0.38317496,0.48426253,-0.7018428,0.79682034,0.49101067,-0.5678344,0.70382017,0.6293388,-0.44396287,1.442979,-0.76265305,-1.7768712,-1.0626158,2.224092,1.3452908,-1.0419472,1.5003096,-0.82810247,-1.8181751,-1.0166069,2.1640134,1.2875429,-1.0012556,-1.2760454,1.4259219,0.80832726,-1.0870835,1.0326128,0.5178546,-0.36799517,2.1497378,-0.55890846,1.1323631,-2.9777992,0.3342613,2.5881696,0.31977034,-0.51556206,0.8573571,0.7419846,0.024953857,0.083496965,0.66472876,-0.45865053,0.6368347,0.64000463,1.0,0.0,0.0,0.0,0.0,0.0,0.0,-2.799738,0.15890846,-0.58236307,3.7035227,1.0611057,11.458742,-3.877306,0.7670641,-0.27464628,0.9793818
22.88129,63.333897,22.429506,6.284634,-0.49265248,0.2897006,0.3326625,-0.69311684,0.8005944,0.50988907,-0.58544034,0.7072173,0.62624,-0.42001066,1.4309978,-0.74804306,-1.7671862,-1.075151,2.234735,1.3501669,-1.0432566,1.4877707,-0.81379354,-1.8094451,-1.0275398,2.1743283,1.2926584,-1.004851,-1.2462584,1.433253,0.893036,-1.0955541,1.0330362,0.51059985,-0.3568212,2.1199822,-0.5555687,1.157489,-2.974822,0.33392712,2.4873962,0.31540632,-0.50886726,0.8638278,0.74223495,0.019440524,0.08272629,0.6647297,-0.42241475,0.6846171,0.64281774,1.0,0.0,0.0,0.0,0.0,0.0,0.0,-2.7699823,0.15556869,-0.60748893,3.0397654,0.9351492,8.049929,-0.90248585,0.56626797,-0.3378868,1.1056125
13.383703,55.060715,18.01322,9.2539835,-0.09086639,0.13351342,0.16500546,-0.706837,0.8000499,0.51333237,-0.59713686,0.70802695,0.62899685,-0.40785813,1.417087,-0.73378855,-1.758112,-1.0872536,2.245131,1.3555582,-1.0456368,1.4753691,-0.7994379,-1.8001716,-1.0384709,2.1846433,1.2977072,-1.0083357,-1.2380973,1.4369737,0.93781537,-1.0926597,1.0319991,0.5037662,-0.345798,2.0902562,-0.55223274,1.1816077,-2.9718478,0.33359325,2.3867235,0.31130648,-0.5018444,0.8702555,0.7422388,0.013902581,0.081982575,0.66495633,-0.39929006,0.7121924,0.6358593,1.0,0.0,0.0,0.0,0.0,0.0,0.0,-2.7402563,0.15223274,-0.6316077,0.8204222,0.5573034,4.1620135,0.18556118,0.32744408,-0.37704706,1.0900021
9.815808,51.489162,16.3337,10.664499,0.08169687,0.061238438,0.100593515,-0.6987109,0.80139464,0.5405109,-0.5901727,0.7054337,0.6236113,-0.37269256,1.405498,-0.7192984,-1.7461206,-1.0974882,2.2551866,1.3600683,-1.045605,1.4630038,-0.7850584,-1.7905643,-1.0492989,2.1949315,1.3026873,-1.0116965,-1.236106,1.4388145,0.9673517,-1.0800911,1.0292631,0.4970404,-0.33284575,2.0605597,-0.5488987,1.2047206,-2.9688764,0.33325973,2.2861514,0.30739784,-0.49460983,0.87659657,0.74209183,0.008386653,0.08131037,0.66529536,-0.38131547,0.7314993,0.62631446,1.0,0.0,0.0,0.0,0.0,0.0,0.0,-2.7105598,0.14889869,-0.6547206,0.18005371,0.36432743,2.679348,1.1310816,0.12328625,-0.40041804,1.2798786
5.6469584,46.011894,13.790486,11.754017,0.27838075,-0.06412044,0.02884357,-0.7059814,0.79604125,0.5408383,-0.58428615,0.7037776,0.6270151,-0.3592587,1.3924056,-0.70545423,-1.7364805,-1.1077275,2.2653093,1.3653888,-1.0476223,1.4505869,-0.7706989,-1.7808006,-1.0599781,2.2051854,1.3076082,-1.0149294,-1.2437706,1.4355619,0.9786726,-1.0642208,1.0253487,0.49119836,-0.3201689,2.0308933,-0.54556847,1.2268286,-2.9659083,0.33292654,2.18568,0.3036294,-0.48726463,0.8827943,0.7418688,0.002946261,0.0807333,0.6656606,-0.36847126,0.7398714,0.61045456,1.0,0.0,0.0,0.0,0.0,0.0,0.0,-2.6808934,0.14556846,-0.67682856,-0.8160353,-0.1562357,0.9184122,1.430273,-0.04656315,-0.35125017,1.2470841
3.4637976,42.85246,12.334533,12.220385,0.3636588,-0.15170084,-0.006507516,-0.71530885,0.79638547,0.5405847,-0.58268297,0.70353335,0.62837595,-0.33557227,1.379056,-0.69106036,-1.7267421,-1.1182464,2.2755387,1.3704458,-1.0484866,1.4380385,-0.7563766,-1.7710102,-1.0705162,2.215405,1.3124777,-1.0180308,-1.258746,1.4316132,0.97859395,-1.0510966,1.0217521,0.48620775,-0.30686298,2.0012565,-0.54224205,1.2479326,-2.962943,0.33259368,2.0853088,0.29997253,-0.47987366,0.88880527,0.74162066,-0.0023711098,0.08027507,0.6659947,-0.3576928,0.7426485,0.59063596,1.0,0.0,0.0,0.0,0.0,0.0,0.0,-2.6512566,0.14224204,-0.69793254,-1.5683889,-0.23345947,-0.17752647,1.1414051,-0.048422813,-0.29101968,1.3103962
2.1312432,40.562504,11.232511,12.301102,0.39622092,-0.23935135,-0.03202325,-0.72880447,0.79843056,0.5319736,-0.58573544,0.7091997,0.62946975,-0.32573357,1.3651581,-0.6765336,-1.7178128,-1.1290898,2.286325,1.3754246,-1.0506041,1.4252898,-0.7420801,-1.7612998,-1.080978,2.2256093,1.3173033,-1.0210062,-1.2805367,1.4295738,0.96807504,-1.0451576,1.0210872,0.48195854,-0.2943263,1.9716492,-0.53891945,1.2680336,-2.9599807,0.33226117,1.9850382,0.2964201,-0.47248268,0.8945896,0.7413805,-0.007516311,0.07996395,0.6662614,-0.34727794,0.74179536,0.5670883,1.0,0.0,0.0,0.0,0.0,0.0,0.0,-2.6216493,0.13891944,-0.7180336,-2.2682905,-0.049376488,-1.1802912,0.41594505,0.21448135,-0.23685694,1.2374222
3.5781856,40.78423,11.785503,12.019365,0.34740835,-0.2567788,5.4147094e-05,-0.73003757,0.7955795,0.5459083,-0.5784017,0.70655197,0.6283934,-0.2929743,1.352286,-0.66252214,-1.706709,-1.1388183,2.2962644,1.3801427,-1.0503037,1.4123522,-0.7278074,-1.7516372,-1.0913826,2.235806,1.3220907,-1.0238444,-1.2984122,1.427064,0.9652713,-1.0394973,1.020399,0.47835127,-0.28037313,1.9420714,-0.53559875,1.2871326,-2.9570212,0.33192897,1.8848675,0.29298735,-0.46507454,0.9001504,0.7411314,-0.012492981,0.07979239,0.66648424,-0.3345531,0.74336237,0.5451316,1.0,0.0,0.0,0.0,0.0,0.0,0.0,-2.5920715,0.13559875,-0.7371326,-1.8688202,-0.095295906,-0.41507483,0.3959179,0.2190113,-0.17039776,1.3774097
5.146492,39.12162,11.423227,10.79947,0.24403208,-0.3847168,0.025921592,-0.7345061,0.78998286,0.5397879,-0.58945113,0.7045122,0.63209015,-0.30089706,1.3389016,-0.64880913,-1.6976584,-1.1503277,2.3062572,1.3852998,-1.0539341,1.3992678,-0.71357954,-1.7420089,-1.1018025,2.245995,1.3268496,-1.0265623,-1.3119408,1.4219062,0.9615264,-1.0433582,1.0191472,0.47577745,-0.2689941,1.9125233,-0.5322819,1.3052307,-2.9540646,0.33159712,1.7847971,0.28972054,-0.45765686,0.9054611,0.7408487,-0.017279975,0.07975768,0.6666957,-0.31660712,0.7452699,0.51903296,1.0,0.0,0.0,0.0,0.0,0.0,0.0,-2.5625234,0.13228187,-0.7552307,-1.4212132,-0.36506653,-0.50144196,-0.5507231,0.14452934,-0.0626266,1.1184812
4.9335213,37.793964,11.010095,10.799059,0.25347275,-0.4356857,0.024180882,-0.7474737,0.7879433,0.53594446,-0.5907601,0.7031689,0.63235617,-0.28406835,1.3245205,-0.6347852,-1.6884145,-1.1608784,2.3163118,1.3900852,-1.0549692,1.3860365,-0.699407,-1.7324245,-1.1122833,2.2561688,1.3315874,-1.0291678,-1.327007,1.4162834,0.9571919,-1.0500475,1.0174782,0.47367227,-0.2578586,1.8830047,-0.5289688,1.3223289,-2.9511113,0.33126557,1.6848266,0.28663492,-0.45022202,0.91050136,0.74053055,-0.021858357,0.07986602,0.6669019,-0.29818076,0.7458547,0.4917828,1.0,0.0,0.0,0.0,0.0,0.0,0.0,-2.5330048,0.1289688,-0.7723289,-1.579237,-0.41399002,-0.5462885,-0.834322,0.09303093,-0.025582314,1.094532
6.624921,38.012627,11.512867,10.155245,0.16311139,-0.4805734,0.060076952,-0.7480745,0.78583723,0.54312444,-0.5987096,0.70237935,0.63371676,-0.26553786,1.3112291,-0.62082326,-1.678112,-1.1721543,2.3264067,1.3949591,-1.0557215,1.3726927,-0.6852888,-1.7228401,-1.1228615,2.2663236,1.3363081,-1.0316607,-1.3371719,1.410923,0.9584682,-1.0610493,1.0157381,0.4721635,-0.24654835,1.8535156,-0.52565765,1.3384281,-2.948161,0.33093438,1.5849562,0.28376102,-0.44275856,0.9152712,0.74015105,-0.026229812,0.08011456,0.6671358,-0.276014,0.7492909,0.4646586,1.0,0.0,0.0,0.0,0.0,0.0,0.0,-2.5035157,0.12565765,-0.7884281,-1.0755062,-0.38657188,0.006699562,-1.2533665,0.088477135,0.039362907,1.1131704
7.2519817,36.55405,10.926954,9.104149,0.06413132,-0.6052667,0.06668487,-0.75814426,0.7849007,0.5324495,-0.62489235,0.7017018,0.6307258,-0.28419316,1.2968783,-0.6067987,-1.6695951,-1.1853508,2.3364937,1.3993807,-1.06008,1.3592383,-0.6712135,-1.7132804,-1.1336571,2.276463,1.3410136,-1.0340677,-1.3484528,1.4068624,0.95480514,-1.0862019,1.0139171,0.47061422,-0.23863588,1.8240561,-0.5223503,1.3535293,-2.9452133,0.3306035,1.4851855,0.28114176,-0.43525887,0.91973275,0.73970115,-0.030348826,0.0805284,0.6674101,-0.24946281,0.7524654,0.43255183,1.0,0.0,0.0,0.0,0.0,0.0,0.0,-2.4740562,0.122350305,-0.8035293,-1.183486,-0.26156902,-0.46765804,-2.6607275,0.05619526,0.031131506,0.7789582
7.913014,36.85169,11.436255,9.608062,0.0982883,-0.6005687,0.078402355,-0.75334525,0.7822676,0.53852963,-0.61516005,0.7057297,0.627949,-0.25051495,1.2839037,-0.59298676,-1.6594275,-1.1951731,2.347036,1.4038085,-1.0591192,1.3457228,-0.6571773,-1.7037303,-1.144632,2.2866025,1.3457018,-1.0363814,-1.352706,1.403112,0.95477873,-1.1018336,1.0143746,0.46901357,-0.22896646,1.7946262,-0.5190468,1.3676336,-2.9422686,0.33027297,1.3855146,0.27878618,-0.42772293,0.9239011,0.7391715,-0.034227192,0.081089646,0.66774124,-0.2229102,0.756177,0.4041606,1.0,0.0,0.0,0.0,0.0,0.0,0.0,-2.4446263,0.11904678,-0.81763357,-0.47183037,-0.22506714,-0.12054443,-1.7053366,0.29695034,0.023716688,0.95249116
5.636094,34.35146,10.234407,10.687147,0.23886192,-0.616606,0.02398473,-0.76939034,0.77927685,0.52568436,-0.6198152,0.7006068,0.638822,-0.2568647,1.2687838,-0.5792496,-1.6511619,-1.2066135,2.3566632,1.409584,-1.0620679,1.3321177,-0.64318025,-1.6942317,-1.1557289,2.2967305,1.3503844,-1.038613,-1.3633455,1.3989575,0.9478965,-1.1129081,1.0130506,0.46844724,-0.22116078,1.7652259,-0.5157471,1.3807418,-2.9393268,0.32994276,1.2859434,0.27666664,-0.4201851,0.9277833,0.7386042,-0.037874468,0.081799224,0.66808546,-0.20042066,0.7545293,0.37534234,1.0,0.0,0.0,0.0,0.0,0.0,0.0,-2.415226,0.115747064,-0.8307418,-1.1336327,-0.2691269,-0.77580214,-1.2640715,0.10237694,0.09975433,0.7648736
7.2035017,35.433193,11.195119,10.642641,0.18568331,-0.6120965,0.0611822,-0.76134616,0.77882296,0.5385626,-0.62489355,0.70180166,0.6304139,-0.22416084,1.2559831,-0.56529796,-1.6403755,-1.2182183,2.3669107,1.4134257,-1.0610291,1.3184592,-0.62921655,-1.6847408,-1.1669136,2.306851,1.3550555,-1.0407511,-1.3666706,1.3959421,0.9491922,-1.1207585,1.0123806,0.46734414,-0.21139884,1.7358546,-0.5124512,1.3928552,-2.936388,0.32961288,1.1864717,0.27478695,-0.4126358,0.93140066,0.737985,-0.041309875,0.08264199,0.66846234,-0.17566696,0.75649214,0.34968963,1.0,0.0,0.0,0.0,0.0,0.0,0.0,-2.3858547,0.112451166,-0.84285516,-0.38723946,-0.14960766,0.0213027,-0.92937946,0.18491745,0.05170107,0.96067786
6.867658,32.904186,10.102725,10.138063,0.18847686,-0.72596836,0.05307905,-0.76647484,0.77378017,0.523662,-0.6432956,0.69992465,0.6329896,-0.23257706,1.2418116,-0.5518385,-1.6323745,-1.2312431,2.3768435,1.4183544,-1.0640088,1.3047701,-0.6152977,-1.6752918,-1.1782318,2.3169599,1.3597189,-1.0428072,-1.3700273,1.391081,0.9431551,-1.1358488,1.0110368,0.46647602,-0.20364559,1.7065129,-0.5091572,1.4039745,-2.9334524,0.32928336,1.0870994,0.27317095,-0.40508842,0.9347275,0.73731285,-0.0445053,0.083623886,0.6688766,-0.1489919,0.754995,0.3195073,1.0,0.0,0.0,0.0,0.0,0.0,0.0,-2.356513,0.109157175,-0.8539745,-0.38683414,-0.34034252,-0.69435835,-1.6545534,0.09276867,0.06426573,0.7591307
8.1039715,34.876663,11.566085,10.764216,0.15878093,-0.64100534,0.094569564,-0.7605123,0.77513033,0.5461931,-0.6349421,0.6951437,0.6314367,-0.17035933,1.2287189,-0.53778464,-1.6206725,-1.241726,2.3864741,1.4228625,-1.0598432,1.2910887,-0.6014112,-1.6657951,-1.1896378,2.327046,1.3643748,-1.0447489,-1.3677161,1.388325,0.9512171,-1.142527,1.0083139,0.4656513,-0.19097963,1.6772003,-0.505867,1.4141009,-2.9305196,0.32895413,0.9878265,0.27182245,-0.39751053,0.9377998,0.7365562,-0.04750272,0.084729835,0.6693649,-0.12235639,0.7588634,0.2955132,1.0,0.0,0.0,0.0,0.0,0.0,0.0,-2.3272004,0.105867,-0.8641009,0.18703938,-0.12040138,0.6904602,-0.80132484,-0.01347065,0.07163286,1.2514442
4.925604,31.250828,9.991678,12.526682,0.43105823,-0.60574424,0.044829257,-0.775831,0.7647417,0.5395818,-0.62554085,0.6956136,0.64176923,-0.13672224,1.2135056,-0.52493703,-1.6118369,-1.2521919,2.3966074,1.4285517,-1.0584211,1.2773634,-0.5875896,-1.6562374,-1.2010323,2.3371053,1.3690287,-1.0465475,-1.3742476,1.3805948,0.9569497,-1.1389004,1.0060047,0.46566176,-0.17617542,1.6479173,-0.50258064,1.4232353,-2.9275897,0.32862526,0.88865286,0.2706809,-0.38995743,0.9406407,0.7357444,-0.05032875,0.0859284,0.66989803,-0.10346786,0.7548962,0.27263957,1.0,0.0,0.0,0.0,0.0,0.0,0.0,-2.2979174,0.10258064,-0.8732353,-0.73103905,-0.6227493,0.49091578,0.20475388,0.018000603,0.12407303,1.4592052
5.6341314,30.072376,9.745038,11.729413,0.36779147,-0.6813078,0.08027945,-0.7731984,0.7593862,0.54653996,-0.64614403,0.6888637,0.6366928,-0.10321533,1.2000436,-0.511651,-1.6015834,-1.2656467,2.4059916,1.432698,-1.056869,1.2635847,-0.57386243,-1.6466014,-1.212463,2.3471265,1.3736807,-1.048184,-1.3792598,1.3706172,0.9653683,-1.1449797,1.0015433,0.46527457,-0.15962386,1.6186633,-0.4992962,1.4313787,-2.9246626,0.3282967,0.7895784,0.26975298,-0.38243484,0.94323003,0.73486453,-0.0529615,0.08721634,0.6704942,-0.08125978,0.7513349,0.24669467,1.0,0.0,0.0,0.0,0.0,0.0,0.0,-2.2686634,0.09929618,-0.8813787,-0.56512356,-0.8509636,0.7601023,-0.7558346,-0.20675659,0.08404255,1.634714
5.009567,29.336435,9.589622,12.56201,0.451415,-0.662045,0.085947976,-0.7757989,0.7575391,0.5489045,-0.63522285,0.69039303,0.63491255,-0.012770222,1.1860049,-0.4981085,-1.591711,-1.2759854,2.4161658,1.4371719,-1.049461,1.2497565,-0.56022584,-1.6368873,-1.2239071,2.3571134,1.3783251,-1.0496031,-1.3844682,1.3617663,0.9732137,-1.144662,0.99847126,0.46462733,-0.13604051,1.5894384,-0.49601555,1.4385321,-2.9217384,0.32796848,0.69060296,0.2690339,-0.37495422,0.94557714,0.7339033,-0.055402115,0.088588715,0.6711695,-0.061189543,0.7465388,0.22313361,1.0,0.0,0.0,0.0,0.0,0.0,0.0,-2.2394385,0.09601554,-0.8885321,-0.5955219,-0.7370472,0.7113695,-0.11897087,-0.065135956,0.046509504,2.338323
4.750533,27.457586,9.022681,12.4868,0.4915645,-0.69620776,0.11600067,-0.77875036,0.74582165,0.5566552,-0.6422779,0.68402314,0.64148,0.07456407,1.1718814,-0.48564368,-1.5812218,-1.2881349,2.4255157,1.442473,-1.0421467,1.2358748,-0.54670846,-1.6270797,-1.2353703,2.3670583,1.3829695,-1.050738,-1.3896015,1.3488611,0.98319924,-1.1474771,0.99385464,0.46460307,-0.10603026,1.5602431,-0.49273872,1.4446965,-2.918817,0.32764056,0.59172654,0.2685151,-0.36753654,0.9476772,0.73283803,-0.057646524,0.09003492,0.67195153,-0.04106911,0.7399318,0.19800189,1.0,0.0,0.0,0.0,0.0,0.0,0.0,-2.2102432,0.09273872,-0.89469653,-0.5831003,-1.1459827,0.9287,-0.43148994,-0.226295,0.10214448,2.978842
3.6146615,26.08144,8.690565,13.822228,0.63946164,-0.6416544,0.12017739,-0.78229916,0.7373773,0.56405884,-0.6243848,0.6786871,0.6391163,0.1959811,1.1576449,-0.47297072,-1.5706738,-1.2978088,2.434927,1.4468812,-1.0311399,1.2219378,-0.53333604,-1.6171558,-1.2467743,2.376946,1.3876101,-1.0515047,-1.3953695,1.3338635,0.99513316,-1.1387361,0.98815095,0.46432516,-0.06696876,1.5310769,-0.4894657,1.449873,-2.915899,0.327313,0.49294895,0.2681651,-0.36019707,0.9495549,0.73165494,-0.05971758,0.09153556,0.6728567,-0.025211327,0.7310505,0.17669451,1.0,0.0,0.0,0.0,0.0,0.0,0.0,-2.181077,0.08946571,-0.89987296,-0.661993,-1.3537407,1.1294127,0.7146597,-0.32658577,0.063699484,3.8812683
3.4641817,25.2255,8.417023,14.021273,0.6484169,-0.662562,0.11560171,-0.7838599,0.7323053,0.5648234,-0.62531006,0.67214525,0.6385575,0.23736395,1.1435518,-0.4601055,-1.5606735,-1.3093053,2.4441605,1.4514658,-1.0277684,1.2079493,-0.5201057,-1.6071346,-1.2580906,2.3867688,1.3922487,-1.0518805,-1.4002583,1.3198572,1.0043484,-1.1298767,0.98095196,0.46392077,-0.02775409,1.5019398,-0.4861946,1.4540623,-2.912984,0.32698575,0.39427018,0.26797676,-0.35294914,0.95121914,0.73035604,-0.061621547,0.0930914,0.6738819,-0.009061468,0.72169524,0.15548961,1.0,0.0,0.0,0.0,0.0,0.0,0.0,-2.1519399,0.086194605,-0.90406233,-0.5756855,-1.2556791,0.86512566,0.7293701,-0.4815817,0.04348755,3.8979576
4.27649,24.168829,8.18638,13.143505,0.5713001,-0.7444916,0.14536068,-0.7790657,0.72021174,0.5712729,-0.6365338,0.65970814,0.63556534,0.28234366,1.1300427,-0.44808453,-1.5500073,-1.321744,2.4527397,1.4558053,-1.0236461,1.1939512,-0.50703466,-1.5970199,-1.2693859,2.3964925,1.3968798,-1.051869,-1.399952,1.3033313,1.01341,-1.1299795,0.9702681,0.4632915,0.010783334,1.4728317,-0.48292732,1.4572656,-2.9100716,0.32665884,0.29569003,0.2679801,-0.34578896,0.95264655,0.72892076,-0.06333264,0.09471923,0.6750494,0.010906246,0.7127733,0.1309881,1.0,0.0,0.0,0.0,0.0,0.0,0.0,-2.1228318,0.08292732,-0.9072656,-0.0300169,-1.5111208,0.8386612,-0.15463829,-0.8415699,0.022542477,3.8300128
3.576261,22.999876,7.7112494,13.649792,0.642541,-0.74385595,0.11951691,-0.78454214,0.71407795,0.5723662,-0.6302653,0.66405886,0.63845783,0.29419127,1.115497,-0.43562686,-1.5397832,-1.3324125,2.4628983,1.4607255,-1.0224499,1.1799418,-0.4941205,-1.5868347,-1.2806755,2.406136,1.401507,-1.0515047,-1.4013766,1.2879287,1.0199037,-1.1292413,0.96307164,0.4628565,0.04503975,1.4437528,-0.47966385,1.4594839,-2.9071622,0.32633224,0.19720845,0.2681713,-0.33873367,0.9538327,0.7273646,-0.06484076,0.096411996,0.676344,0.029234027,0.7019812,0.10706045,1.0,0.0,0.0,0.0,0.0,0.0,0.0,-2.0937529,0.07966384,-0.90948385,-0.2143383,-1.4003992,0.5972862,-0.071167946,-0.49977303,0.029152632,3.4051125
3.3492053,20.875488,6.6619883,12.963018,0.6492645,-0.8502502,0.10998283,-0.7815006,0.7029277,0.5634875,-0.6442001,0.6612544,0.6360275,0.30203247,1.1017917,-0.42382774,-1.5304859,-1.3450955,2.4722614,1.4651098,-1.0213015,1.1659361,-0.48137084,-1.5766513,-1.29203,2.4157186,1.4061304,-1.0508314,-1.4003936,1.2710639,1.0176145,-1.1378938,0.95729136,0.46220592,0.074645,1.4147029,-0.47640228,1.460718,-2.9042556,0.326006,0.098825336,0.26856375,-0.3318081,0.95474434,0.7257063,-0.06610002,0.098171584,0.6777488,0.049720097,0.68770444,0.07862011,1.0,0.0,0.0,0.0,0.0,0.0,0.0,-2.064703,0.07640228,-0.910718,0.043463707,-1.5533447,-0.2771139,-1.004982,-0.3822446,-0.0010073185,2.940499
4.0877786,20.86006,6.8314047,12.394944,0.57614785,-0.8890656,0.12545481,-0.7766318,0.6967137,0.5686496,-0.6566808,0.6583624,0.6411561,0.31489316,1.0882729,-0.41169947,-1.5197864,-1.3576981,2.4815547,1.4702461,-1.0193421,1.1519667,-0.46877804,-1.5664871,-1.3035294,2.4252515,1.41075,-1.0498892,-1.3957946,1.2557989,1.0160129,-1.154404,0.95254004,0.46210137,0.100618415,1.3856821,-0.47314453,1.4609691,-2.901352,0.32568005,0.0005405821,0.2691822,-0.3250122,0.9553583,0.7239413,-0.06707889,0.1000034,0.67927074,0.07295649,0.6751506,0.04847713,1.0,0.0,0.0,0.0,0.0,0.0,0.0,-2.0356822,0.073144525,-0.9109691,0.42209625,-1.3941526,-0.2150774,-1.7765045,-0.28517246,0.050747395,2.5813432
3.5246913,19.898642,6.37558,12.655437,0.61265075,-0.8982844,0.09500033,-0.7796281,0.69081306,0.56421375,-0.6635466,0.6584763,0.63614166,0.29504448,1.0740039,-0.39969674,-1.5100657,-1.369884,2.491099,1.4743642,-1.0203848,1.1380297,-0.45632258,-1.5563571,-1.31521,2.4347463,1.4153658,-1.0487353,-1.3932899,1.2425855,1.0118532,-1.1729115,0.9494652,0.4614171,0.120301425,1.3566904,-0.4698906,1.460238,-2.898451,0.32535443,-0.09764591,0.2700305,-0.31834412,0.9556674,0.72208977,-0.0677645,0.101910934,0.68088806,0.095460564,0.66128826,0.01800793,1.0,0.0,0.0,0.0,0.0,0.0,0.0,-2.0066905,0.06989059,-0.91023797,0.20358562,-1.1906862,-0.45597553,-1.973939,-0.1254201,-0.02129078,1.9563645
2.8699403,18.81154,5.963305,13.124701,0.66319805,-0.88126117,0.07420217,-0.78150254,0.6827824,0.56351274,-0.67115515,0.6521935,0.6340935,0.30329043,1.0598794,-0.38804433,-1.5000058,-1.3823255,2.4999657,1.4787751,-1.0184063,1.1240965,-0.4439954,-1.5462654,-1.3270718,2.4442067,1.4199721,-1.0474077,-1.3933429,1.229833,1.0080547,-1.1911024,0.94524443,0.46044633,0.13704826,1.3277278,-0.46664047,1.4585258,-2.895553,0.32502913,-0.19573423,0.2710929,-0.3118267,0.9556759,0.7201798,-0.06815346,0.103890896,0.6825707,0.11641534,0.64640516,-0.011944431,1.0,0.0,0.0,0.0,0.0,0.0,0.0,-1.9777278,0.06664047,-0.90852576,-0.06418228,-1.1456251,-0.40650368,-1.9424915,-0.24222136,-0.06441474,1.6647369
2.8087447,17.718033,5.7094917,13.118332,0.68919337,-0.8873083,0.07598162,-0.77606773,0.6711738,0.56555706,-0.6856678,0.6510744,0.63144994,0.29103398,1.0464897,-0.376878,-1.4897096,-1.3956386,2.509314,1.4831171,-1.0183043,1.1101824,-0.43181458,-1.5361946,-1.3391358,2.4536252,1.4245669,-1.0459429,-1.3910197,1.2146195,1.006656,-1.2119728,0.94162637,0.45919564,0.14960238,1.2987938,-0.46339226,1.4558334,-2.892658,0.32470417,-0.29372448,0.27236748,-0.30545425,0.9553795,0.71821487,-0.0682406,0.105932444,0.68431634,0.13733366,0.63094145,-0.04248411,1.0,0.0,0.0,0.0,0.0,0.0,0.0,-1.9487938,0.06339225,-0.9058334,0.18455982,-1.392889,-0.17428398,-2.2056818,-0.18378496,-0.100278854,1.2464076
2.409303,17.05777,5.6091595,13.807228,0.74554574,-0.8462775,0.061938725,-0.7755934,0.66514117,0.5655064,-0.68934464,0.64982337,0.62666714,0.2944451,1.032623,-0.36530048,-1.479644,-1.4080702,2.5186076,1.4872336,-1.0164984,1.0962912,-0.41978064,-1.5261276,-1.351379,2.4630132,1.4291445,-1.0443674,-1.3886443,1.2001387,1.0066309,-1.2288015,0.9385163,0.45749497,0.16008215,1.2698889,-0.46014786,1.4521619,-2.8897657,0.32437953,-0.39161676,0.27383995,-0.29924393,0.954793,0.71620494,-0.068037525,0.10801748,0.6861148,0.15640229,0.61541,-0.07092501,1.0,0.0,0.0,0.0,0.0,0.0,0.0,-1.9198889,0.06014785,-0.9021619,0.17838478,-1.3182163,-0.029659271,-1.8018484,-0.12834072,-0.15680194,1.0416418
2.5600817,16.174276,5.66409,13.978692,0.7465625,-0.8155644,0.085679084,-0.76734376,0.64976585,0.57397103,-0.7000577,0.6321562,0.6281793,0.32110775,1.0195568,-0.35480404,-1.4687304,-1.4213848,2.526229,1.4919624,-1.0122566,1.0824591,-0.40792456,-1.5160167,-1.3637863,2.4723248,1.4337088,-1.0426832,-1.3816195,1.1811839,1.0124258,-1.2452084,0.9295933,0.4560736,0.17128281,1.241013,-0.45690727,1.4475123,-2.8868763,0.32405522,-0.48941118,0.2755022,-0.29317284,0.9539261,0.71413267,-0.06756566,0.11013921,0.68798155,0.17521867,0.6010902,-0.09881326,1.0,0.0,0.0,0.0,0.0,0.0,0.0,-1.891013,0.056907266,-0.89751226,0.65915585,-1.7643929,0.53215027,-1.755619,-0.7017255,-0.13302565,1.1124313
1.2620887,12.846103,4.3122807,14.2434225,0.8958204,-0.81623316,0.07725127,-0.76625484,0.6269858,0.57333374,-0.71347946,0.62597495,0.6221054,0.31564575,1.0058336,-0.345226,-1.4586834,-1.4351343,2.5349224,1.4959193,-1.0111187,1.0686976,-0.39632645,-1.5058506,-1.3763748,2.4815373,1.4382559,-1.0409018,-1.374598,1.1530713,1.0178646,-1.2637858,0.91896147,0.45414504,0.18034838,1.2121658,-0.4536686,1.4418854,-2.88399,0.32373124,-0.58710784,0.27733135,-0.28728104,0.9527677,0.7119987,-0.066812664,0.11226653,0.6899204,0.19093029,0.5816298,-0.12821864,1.0,0.0,0.0,0.0,0.0,0.0,0.0,-1.8621658,0.05366859,-0.89188534,0.6701946,-2.6862383,0.48778057,-1.9784689,-0.8816123,-0.19862652,0.8962095
0.52752864,11.098395,3.635336,14.765259,0.9904256,-0.79794407,0.06901748,-0.7578893,0.61288816,0.5686265,-0.7184197,0.618995,0.6193353,0.3368947,0.99290866,-0.33503765,-1.448988,-1.4482168,2.5434368,1.5001894,-1.0072123,1.0550276,-0.38502923,-1.4956634,-1.3891293,2.4906392,1.442782,-1.039025,-1.364373,1.1223516,1.0187756,-1.2797313,0.9076306,0.45200977,0.19001009,1.1833472,-0.45043373,1.4352822,-2.8811069,0.32340756,-0.68470687,0.2793045,-0.28160286,0.95131993,0.7098144,-0.06577472,0.1143784,0.69192106,0.20448756,0.5597862,-0.15686603,1.0,0.0,0.0,0.0,0.0,0.0,0.0,-1.8333472,0.050433725,-0.8852822,0.99470615,-2.9490948,0.030398369,-1.7175674,-0.9556055,-0.23189187,0.9562373
-0.55348337,8.753105,2.5623963,15.070874,1.1021041,-0.79254067,0.054780893,-0.754223,0.59254384,0.56390715,-0.73150927,0.61126125,0.61699986,0.34621742,0.9796053,-0.32577485,-1.4392726,-1.4622802,2.5517654,1.504482,-1.0044032,1.0414606,-0.37406722,-1.4855049,-1.4020554,2.4996228,1.4472853,-1.0370566,-1.3542947,1.0878929,1.0148106,-1.2975347,0.8958694,0.4497275,0.19924104,1.1545582,-0.44720268,1.4277039,-2.8782265,0.32308424,-0.7822083,0.28139782,-0.27617073,0.94957864,0.7075959,-0.064439565,0.116460264,0.6939688,0.21556558,0.5341595,-0.18633823,1.0,0.0,0.0,0.0,0.0,0.0,0.0,-1.8045582,0.047202677,-0.87770385,0.9828806,-3.328371,-0.45585632,-1.9053698,-1.0098934,-0.262928,0.9139925
-1.9632454,4.7208605,0.94661,15.270517,1.2302082,-0.7852088,0.060897537,-0.7408552,0.5527504,0.5599613,-0.7434645,0.56541395,0.61091506,0.3820538,0.9673751,-0.31879216,-1.4295087,-1.4764018,2.5561643,1.5083768,-0.9988512,1.0280348,-0.36355773,-1.4754112,-1.4151741,2.5083737,1.4517637,-1.0349795,-1.3386885,1.0390148,1.0072517,-1.3170618,0.8687654,0.44698775,0.21062332,1.1257977,-0.44397354,1.4191512,-2.875349,0.3227612,-0.87961227,0.2835822,-0.27103424,0.947526,0.70534116,-0.06279677,0.11850783,0.6960649,0.22354169,0.5034224,-0.21774015,1.0,0.0,0.0,0.0,0.0,0.0,0.0,-1.7757977,0.043973535,-0.8691512,1.573062,-4.7783136,-0.8541107,-2.0837784,-2.5539756,-0.32395124,1.1201173
-5.7506967,-3.4670596,-2.8500373,16.544239,1.7363623,-0.7652484,0.023828141,-0.72224826,0.49447647,0.53027654,-0.74133444,0.5542046,0.6127185,0.4096765,0.95580995,-0.31411007,-1.4223835,-1.4893075,2.5637941,1.5130357,-0.9940118,1.0148283,-0.35372296,-1.4655273,-1.428434,2.5168424,1.4562155,-1.0327765,-1.314632,0.9652784,0.981671,-1.3295116,0.8402308,0.44447085,0.22336975,1.0970659,-0.4407482,1.4096252,-2.8724744,0.3224385,-0.9769189,0.28576803,-0.266325,0.9451556,0.7030852,-0.06082887,0.12043106,0.69818866,0.22079624,0.45599014,-0.24928899,1.0,0.0,0.0,0.0,0.0,0.0,0.0,-1.7470659,0.04074821,-0.85962516,2.4603367,-7.281232,-2.7027726,-1.4023781,-2.7225614,-0.33051968,1.2456715
-12.296063,-16.99798,-9.556322,17.826744,2.5631583,-0.7893728,-0.049885586,-0.70891863,0.40358692,0.4830557,-0.75184304,0.5417788,0.5956609,0.41329336,0.94393647,-0.31336427,-1.4172218,-1.5036184,2.5710201,1.5157816,-0.99144715,1.0018889,-0.34493485,-1.4561069,-1.4418179,2.5250363,1.460631,-1.0304552,-1.2865089,0.8502314,0.9282113,-1.3421185,0.81268436,0.44009838,0.23481429,1.0683627,-0.4375267,1.3991269,-2.8696027,0.32211614,-1.074128,0.28780413,-0.26231956,0.94243854,0.70091975,-0.058461607,0.1220489,0.70028406,0.20118368,0.37899998,-0.28452712,1.0,0.0,0.0,0.0,0.0,0.0,0.0,-1.7183627,0.037526697,-0.8491269,2.9342651,-11.446726,-5.553627,-1.4513016,-2.6787877,-0.56684613,1.1014104
-19.670683,-33.664654,-17.021254,19.201805,3.5269005,-0.72432286,-0.07297873,-0.6877691,0.26362056,0.45175645,-0.7677658,0.49883264,0.58217216,0.43538448,0.93311197,-0.3185728,-1.4109312,-1.5185945,2.5749197,1.5188482,-0.9869168,0.98927844,-0.337778,-1.4473178,-1.4553677,2.5328832,1.4649912,-1.0280176,-1.251721,0.670908,0.8612706,-1.3599384,0.7753612,0.4341503,0.24659407,1.0396881,-0.4343071,1.3876573,-2.8667338,0.3217941,-1.1712401,0.28948784,-0.2593212,0.93933433,0.6989059,-0.05561428,0.123114504,0.7023392,0.15990874,0.27003512,-0.32362616,1.0,0.0,0.0,0.0,0.0,0.0,0.0,-1.6896881,0.034307092,-0.8376573,3.7127256,-17.915905,-7.027304,-1.9928932,-3.7053108,-0.78582764,1.1224926
-41.21441,-80.792305,-39.21157,22.889729,6.242017,-0.6526391,-0.21154091,-0.6475895,-0.0799599,0.34077337,-0.7749067,0.37544,0.55991447,0.45481905,0.9245195,-0.345774,-1.4132406,-1.5328584,2.5704272,1.5209826,-0.9825357,0.9771496,-0.33375588,-1.4396122,-1.4690987,2.5400357,1.4692713,-1.0254618,-1.1982762,0.31234643,0.73797387,-1.3783478,0.69487566,0.4246146,0.2582304,1.0110421,-0.4310913,1.3752173,-2.8638678,0.32147238,-1.2682551,0.2903185,-0.25813103,0.93573153,0.6972154,-0.052124232,0.12306811,0.70429254,0.058920767,0.06593658,-0.37589544,1.0,0.0,0.0,0.0,0.0,0.0,0.0,-1.6610421,0.031091303,-0.8252173,5.8671236,-35.95349,-12.983203,-2.0987034,-8.168566,-1.3331115,1.0629535
-72.80443,-143.2538,-75.38617,24.180454,8.914877,-1.3821261,-0.8197028,-0.49825987,-0.47006226,-0.14757477,-0.770166,-0.25633448,0.4819482,0.49075222,0.92732364,-0.3807621,-1.4543697,-1.5461153,2.5144024,1.5174661,-0.97638655,0.96618426,-0.3347291,-1.4352787,-1.4829422,2.5445447,1.4733816,-1.022782,-1.059721,-0.2347718,0.32898384,-1.3865665,0.36770752,0.40386906,0.27057886,0.98242474,-0.42787933,1.3618078,-2.8610046,0.32115096,-1.3651731,0.2897539,-0.26000977,0.93125415,0.6964373,-0.047676392,0.122004345,0.70556134,-0.09485574,-0.27358305,-0.4733167,1.0,0.0,0.0,0.0,0.0,0.0,0.0,-1.6324247,0.027879328,-0.8118078,14.707303,-54.99383,-41.808,-0.9381056,-33.201153,-2.8751612,1.0037661
-52.230366,-118.72418,-61.05178,16.728506,6.734699,-1.8478632,-0.35968634,-0.0557585,-0.6047481,-0.4015041,-0.7601323,-0.5113165,0.44685492,0.51078665,0.9606084,-0.39520392,-1.475429,-1.5589554,2.493413,1.5180671,-0.9717033,0.9585272,-0.3409795,-1.4359157,-1.4967552,2.5451703,1.4772688,-1.0199705,-0.66654605,-0.7558977,-0.1962361,-1.3786691,-0.040589195,0.3812368,0.28401354,0.95383596,-0.42467117,1.3474299,-2.8581443,0.32082987,-1.4619943,0.28812933,-0.2648239,0.9257146,0.69631386,-0.042291865,0.1203469,0.7063108,-0.18718824,-0.54907477,-0.5811718,1.0,0.0,0.0,0.0,0.0,0.0,0.0,-1.6038359,0.024671167,-0.79742986,39.660217,-52.34998,-52.97433,1.023674,-41.16924,-3.017974,1.1727691
-12.14431,-61.431725,-25.611555,6.9247065,3.0268946,-1.8811393,0.59658,0.36844048,-0.7196652,-0.48030108,-0.7671969,-0.5260971,0.5262937,0.5247679,0.9953713,-0.41294602,-1.4839458,-1.5734749,2.4925606,1.5298982,-0.9674938,0.9564167,-0.35166255,-1.4412334,-1.5104901,2.5422368,1.4810225,-1.017018,-0.06251944,-1.1728418,-0.6410962,-1.3710525,-0.37729806,0.37197772,0.2992104,0.9252758,-0.42146492,1.3320845,-2.8552868,0.3205091,-1.5587187,0.2863021,-0.27135468,0.9191694,0.6958466,-0.036266763,0.11825608,0.7074586,-0.18419977,-0.6843311,-0.67973113,1.0,0.0,0.0,0.0,0.0,0.0,0.0,-1.5752758,0.021464914,-0.7820845,59.39173,-41.816235,-43.780373,1.0154724,-33.66182,-1.3786137,1.5525401
11.242415,-14.864237,-0.9576981,3.233589,0.5470009,-1.6705745,0.9000387,0.46525833,-0.7613031,-0.5474328,-0.77892417,-0.5050518,0.5682748,0.52825385,1.0029426,-0.42779285,-1.4959767,-1.5883825,2.4917316,1.5378499,-0.96419257,0.9599024,-0.36532298,-1.4499805,-1.5242192,2.5368237,1.4847475,-1.0139185,0.48020992,-1.4306917,-0.9485228,-1.3732301,-0.5959021,0.37157282,0.3140903,0.89674425,-0.41826248,1.3157727,-2.8524323,0.32018864,-1.6553463,0.284904,-0.27851295,0.91177964,0.6944584,-0.029835692,0.11588616,0.7095123,-0.12607494,-0.72107923,-0.7615115,1.0,0.0,0.0,0.0,0.0,0.0,0.0,-1.5467442,0.018262476,-0.76577264,52.66323,-25.866795,-29.494942,-0.10318756,-21.754253,-0.34114718,1.6455948
18.508718,14.172726,12.026329,5.454275,-0.3730442,-1.1579304,0.7362574,0.44029656,-0.7733095,-0.5644268,-0.7865625,-0.3952666,0.5891011,0.4335173,1.0039321,-0.44265392,-1.5064232,-1.6028754,2.497297,1.5436577,-0.9705668,0.9672686,-0.38045397,-1.460675,-1.5380322,2.5302968,1.4885031,-1.0107561,0.8184011,-1.5408194,-1.1069689,-1.3837949,-0.67164457,0.37613133,0.3175026,0.8682413,-0.41506195,1.2984952,-2.8495805,0.31986853,-1.7518773,0.28412294,-0.2856598,0.90377516,0.69217885,-0.023126854,0.11331817,0.7123992,-0.060352765,-0.7069554,-0.81829184,1.0,0.0,0.0,0.0,0.0,0.0,0.0,-1.5182413,0.015061945,-0.74849516,32.731354,-11.08768,-15.018916,-1.0293484,-7.5371504,0.25618672,0.5089879
17.610027,29.784908,18.837475,11.005939,-0.44098014,-0.38505092,0.48500988,0.40771917,-0.7855105,-0.5183061,-0.7814144,-0.29530415,0.5937346,0.37578526,1.0080405,-0.45900503,-1.5125057,-1.6161736,2.5007663,1.5478766,-0.9731776,0.9764372,-0.39596167,-1.4718711,-1.5519291,2.5238233,1.4923178,-1.0076224,0.94881415,-1.5543331,-1.1234392,-1.3915278,-0.63896614,0.38289708,0.31248453,0.839767,-0.41186523,1.280253,-2.8467317,0.31954873,-1.8483118,0.28383493,-0.29247093,0.89544475,0.68925214,-0.01629174,0.11051272,0.71585816,-0.014039475,-0.66639936,-0.84415907,1.0,0.0,0.0,0.0,0.0,0.0,0.0,-1.489767,0.011865228,-0.73025304,12.799967,-1.4238834,-1.5091181,-0.7646322,3.2074928,0.6113112,-0.38413405
17.76623,41.441475,25.802881,15.802251,-0.51582843,0.38931066,0.4051672,0.40026224,-0.78439003,-0.408405,-0.7819905,-0.18666087,0.5753808,0.34212974,1.0164634,-0.47440067,-1.5127116,-1.6301281,2.5051572,1.5498558,-0.9734094,0.98588336,-0.41121235,-1.48223,-1.5658852,2.5182385,1.4961878,-1.0045725,0.94440156,-1.5154865,-1.0076903,-1.3968964,-0.5319425,0.3888612,0.30282518,0.81132126,-0.40867233,1.2610472,-2.8438857,0.31922925,-1.9446498,0.28387213,-0.29868507,0.88708586,0.6858054,-0.009525617,0.10734627,0.7197617,0.014730664,-0.59987235,-0.8394801,1.0,0.0,0.0,0.0,0.0,0.0,0.0,-1.4613212,0.008672327,-0.71104723,-0.11663437,3.8308144,11.25021,-0.5496502,10.61368,0.67765117,-0.8811295
17.18933,44.61285,28.832632,19.08735,-0.3140406,0.8332719,0.3950492,0.4346353,-0.79619026,-0.3377759,-0.76967067,-0.07484497,0.5621304,0.2987082,1.029347,-0.49083138,-1.5160075,-1.6428523,2.510754,1.5524008,-0.9747017,0.99498045,-0.42603055,-1.4909732,-1.5798146,2.51405,1.5001074,-1.0016485,0.8997837,-1.4707173,-0.8312757,-1.3916116,-0.3814759,0.39354825,0.28914893,0.78290415,-0.40548325,1.2408789,-2.8410425,0.3189101,-2.0408916,0.2841015,-0.30418205,0.8789213,0.68186456,-0.002991608,0.1036275,0.7240946,0.030687317,-0.52676004,-0.8145301,1.0,0.0,0.0,0.0,0.0,0.0,0.0,-1.4329041,0.00548324,-0.6908789,-3.9973497,4.4341326,17.213964,0.5171299,14.9815445,0.6384373,-1.2850463
12.731587,38.27092,23.906034,20.016182,0.25140202,0.6350538,0.26991037,0.4828068,-0.79531586,-0.39337528,-0.7562929,0.007106887,0.5153355,0.33744812,1.0432612,-0.5055621,-1.5303108,-1.6554438,2.5147607,1.551641,-0.96790373,1.0037808,-0.44046488,-1.4984272,-1.5936104,2.5114255,1.5040308,-0.99882376,0.8745704,-1.4345155,-0.71775645,-1.3754658,-0.2231139,0.3924923,0.28036547,0.7545147,-0.40229607,1.2197489,-2.8382022,0.31859124,-2.137037,0.28444767,-0.30914688,0.8709735,0.6775473,0.003372082,0.09925807,0.7287428,0.040247176,-0.47972172,-0.7929968,1.0,0.0,0.0,0.0,0.0,0.0,0.0,-1.4045147,0.0022960603,-0.66974884,-2.1556854,3.5652876,11.041355,1.6459227,15.774488,0.036609173,-0.8064985
7.021145,27.873888,15.403717,18.744858,0.69344175,0.11412459,0.090700515,0.523311,-0.7994781,-0.48087907,-0.75418985,-0.01685471,0.44289103,0.3694977,1.0561119,-0.5204127,-1.5465151,-1.6690294,2.50974,1.5483199,-0.961874,1.0126023,-0.4546713,-1.5055702,-1.6072384,2.5100179,1.507878,-0.99605143,0.88523895,-1.4162973,-0.71387523,-1.3583862,-0.11372821,0.38241595,0.2763265,0.72615385,-0.3991127,1.1976581,-2.8353648,0.3182727,-2.233086,0.284894,-0.31389618,0.8630795,0.67304593,0.009785931,0.09437446,0.7334894,0.050374538,-0.46680078,-0.79247075,1.0,0.0,0.0,0.0,0.0,0.0,0.0,-1.3761538,-0.00088730454,-0.64765805,1.267612,1.7421722,0.23776293,1.7944574,10.850411,-0.972563,-0.3512025
2.5450735,20.361757,9.172331,17.633871,0.6431135,-0.1964555,-0.07807534,0.53017485,-0.80483925,-0.5269553,-0.7442871,-0.18363366,0.4067315,0.37041345,1.0656198,-0.53515524,-1.5582657,-1.6816671,2.4916544,1.5485511,-0.95901006,1.0216355,-0.4688224,-1.5132263,-1.6206833,2.5088735,1.5115935,-0.9933106,0.9097199,-1.4150558,-0.783178,-1.3393577,-0.115218215,0.36767995,0.27336818,0.6978216,-0.39593315,1.1746075,-2.8325303,0.3179545,-2.3290393,0.28546333,-0.3186283,0.8550509,0.66853344,0.016371757,0.08938961,0.73810863,0.06296131,-0.4694475,-0.81029963,1.0,0.0,0.0,0.0,0.0,0.0,0.0,-1.3478216,-0.0040668547,-0.6246075,2.562642,0.02541542,-7.0063114,2.032423,-0.27178675,-1.5374601,-0.2821505
3.9216175,20.769775,9.219441,15.37251,-0.099662066,-0.28353664,-0.0686814,0.55225605,-0.80523133,-0.5334029,-0.7477272,-0.39624113,0.4617798,0.39602563,1.0768611,-0.5493455,-1.5665666,-1.695456,2.4692492,1.5577714,-0.953708,1.0310082,-0.4830226,-1.5216873,-1.6339966,2.5068212,1.5152079,-0.9905764,0.94682187,-1.4219968,-0.86730194,-1.3282989,-0.23585218,0.3589469,0.2733835,0.6695175,-0.3927555,1.150598,-2.829698,0.3176366,-2.4248965,0.28623724,-0.32328415,0.84676385,0.6640085,0.023073396,0.08483111,0.7425388,0.08623937,-0.45781168,-0.83889467,1.0,0.0,0.0,0.0,0.0,0.0,0.0,-1.3195175,-0.0072444975,-0.60059804,3.7806034,-0.7887602,-8.479727,1.2410164,-12.18901,-0.99473,-0.017875433
4.639307,21.182755,9.54417,14.53521,-0.42359376,-0.24831186,-0.066494375,0.5730305,-0.8114138,-0.5680199,-0.7372572,-0.50737524,0.5254063,0.36368486,1.0883113,-0.564164,-1.5784893,-1.7077223,2.4560835,1.5677485,-0.9542079,1.040793,-0.49733582,-1.531018,-1.6471993,2.5031743,1.5187956,-0.9878632,0.9892901,-1.4347438,-0.9550303,-1.3170328,-0.4083996,0.35816687,0.27046552,0.64124155,-0.38958168,1.1256309,-2.8268688,0.31731904,-2.5206578,0.28726482,-0.32777023,0.8381682,0.6594406,0.029799255,0.08099636,0.74678624,0.11227782,-0.4386364,-0.8704445,1.0,0.0,0.0,0.0,0.0,0.0,0.0,-1.2912415,-0.010418326,-0.57563084,4.296446,-1.3697386,-8.833408,1.2691736,-17.392027,-0.22528768,-0.32541156
4.453147,22.64315,10.395557,14.764655,-0.3507708,-0.103897214,-0.056863293,0.5686274,-0.8069822,-0.5905521,-0.7325135,-0.50485885,0.55838114,0.35793513,1.0976557,-0.57803404,-1.5900732,-1.7204506,2.4526885,1.5746337,-0.95206964,1.0508943,-0.5117431,-1.5411193,-1.6603009,2.4979978,1.52241,-0.98518336,1.0175192,-1.443013,-1.0289524,-1.3073496,-0.55465424,0.36217955,0.26711297,0.6129942,-0.38641167,1.0997066,-2.8240423,0.3170018,-2.6163235,0.28851748,-0.33205605,0.82928175,0.6548258,0.036515847,0.07785531,0.7508717,0.13368,-0.41828048,-0.89883673,1.0,0.0,0.0,0.0,0.0,0.0,0.0,-1.2629942,-0.013588339,-0.54970664,2.91214,-0.9229183,-7.481754,1.1170626,-14.7800865,0.26144385,-0.3641963
0.64507675,20.887333,9.008814,15.693455,0.110952556,0.11495886,-0.10983356,0.5250566,-0.8158506,-0.60656774,-0.7418197,-0.4930741,0.5454318,0.31172922,1.1033999,-0.5933282,-1.6017761,-1.7344828,2.4486904,1.5769532,-0.9540104,1.0609727,-0.52624565,-1.55181,-1.6733757,2.4917302,1.5260588,-0.9825684,1.0050133,-1.4529514,-1.0831548,-1.3070717,-0.6518221,0.3654365,0.25950703,0.584775,-0.38324356,1.0728266,-2.8212187,0.31668484,-2.7118936,0.28987837,-0.33621788,0.8201213,0.65022916,0.0432731,0.07519239,0.75476855,0.1407597,-0.40794802,-0.92596227,1.0,0.0,0.0,0.0,0.0,0.0,0.0,-1.234775,-0.016756445,-0.5228266,-1.0697365,-1.0978699,-5.581641,0.20501614,-9.902132,0.20202994,-0.782156
-1.5306969,22.37384,10.027996,17.290909,0.35580063,0.44456077,-0.1322138,0.4843026,-0.8122619,-0.59475476,-0.7350161,-0.49891073,0.55069524,0.28763333,1.1094029,-0.6074718,-1.6112854,-1.7468773,2.4418392,1.5811284,-0.953805,1.0706544,-0.5408054,-1.5627887,-1.686443,2.4847913,1.5297438,-0.980044,0.9567677,-1.4573677,-1.1035571,-1.3060406,-0.70866007,0.36924583,0.25000456,0.5565839,-0.38007927,1.0449915,-2.818398,0.31636822,-2.8073678,0.29122114,-0.34028435,0.81075746,0.64570737,0.050060198,0.07280618,0.7584558,0.1358496,-0.39834294,-0.94390213,1.0,0.0,0.0,0.0,0.0,0.0,0.0,-1.2065839,-0.019920737,-0.49499148,-4.562509,-0.54683685,-2.2574186,0.28436184,-5.88789,0.29672384,-0.96824765
-5.978544,20.841064,8.346018,18.577759,0.79637,0.6516451,-0.21425727,0.42619944,-0.8141276,-0.6161737,-0.73921967,-0.48933056,0.52753973,0.26342395,1.1132743,-0.62221813,-1.6244061,-1.7603649,2.4358582,1.5824977,-0.9537016,1.0795903,-0.55539376,-1.57392,-1.6995255,2.4775395,1.533446,-0.97762644,0.8736856,-1.4597032,-1.1171693,-1.3083237,-0.7313651,0.3704625,0.23901302,0.5284214,-0.3769169,1.0162024,-2.8155801,0.31605193,-2.9027467,0.2924137,-0.34433937,0.80122644,0.6413597,0.056912147,0.0705257,0.76186925,0.11731655,-0.39991358,-0.9600722,1.0,0.0,0.0,0.0,0.0,0.0,0.0,-1.1784214,-0.02308312,-0.46620244,-7.9786777,-0.34723282,-1.6237974,-0.022220612,-2.500534,0.05750656,-1.1162788
-17.36719,14.8197775,2.6501741,21.738438,1.6381345,1.0512758,-0.4720917,0.27690884,-0.8188105,-0.632864,-0.74390715,-0.51005536,0.5064314,0.18580921,1.1072812,-0.6372748,-1.6372064,-1.7739162,2.426534,1.584089,-0.9590455,1.0871072,-0.57001454,-1.5851943,-1.7126518,2.470139,1.5371424,-0.97536814,0.71264833,-1.4632258,-1.1321315,-1.3131102,-0.74420315,0.3692825,0.22126752,0.5002866,-0.37375832,0.98646027,-2.8127651,0.31573594,-2.9980302,0.29320526,-0.34859848,0.79152644,0.63745874,0.063888125,0.06824817,0.76479197,0.06971257,-0.42612928,-0.9770075,1.0,0.0,0.0,0.0,0.0,0.0,0.0,-1.1502866,-0.02624169,-0.43646026,-15.627897,-0.49202442,-1.8589735,-0.20318031,-1.578474,-0.1604557,-1.8206269
-59.08503,-8.469572,-19.76793,33.489563,4.6441755,2.321421,-1.4251353,-0.21608911,-0.8152122,-0.68475,-0.75702375,-0.5151705,0.48000318,0.08038866,1.0654982,-0.65153575,-1.6536694,-1.7883543,2.418622,1.5851427,-0.96732926,1.0909257,-0.5846515,-1.5968406,-1.7258698,2.4626431,1.5408064,-0.9733616,0.27511087,-1.4646676,-1.1779253,-1.322777,-0.75296086,0.36535212,0.1933052,0.47218037,-0.37060356,0.955766,-2.809953,0.31542027,-3.0932186,0.29276276,-0.35379982,0.7815953,0.6349729,0.07115801,0.065877736,0.7664242,-0.07963138,-0.54307735,-1.0020509,1.0,0.0,0.0,0.0,0.0,0.0,0.0,-1.1221803,-0.029396445,-0.405766,-42.726254,-0.4005432,-5.316925,-0.41286945,-1.4339685,-0.42302012,-2.965933
-79.41398,-18.090254,-29.822216,37.741745,6.0206685,3.005735,-1.862208,-0.4927419,-0.81664085,-0.7194947,-0.78230506,-0.49691156,0.4786353,-0.10496004,1.0416515,-0.6663156,-1.6687901,-1.8041003,2.412952,1.5886699,-0.98385763,1.0894608,-0.59930664,-1.6090801,-1.7392784,2.4551396,1.5444227,-0.9717566,-0.28272468,-1.4670326,-1.242556,-1.344346,-0.75217307,0.35954654,0.14900364,0.4441018,-0.36745262,0.9241206,-2.8071437,0.31510493,-3.1883118,0.29044676,-0.36046028,0.7713474,0.6346122,0.07888062,0.06329064,0.76618505,-0.28096655,-0.69889516,-1.0359278,1.0,0.0,0.0,0.0,0.0,0.0,0.0,-1.0941018,-0.032547385,-0.3741206,-54.463173,-0.60846806,-7.4144125,-1.3667822,-0.67214966,-0.7944703,-4.6234875
-71.813614,-8.390659,-22.225733,34.49579,5.342139,3.1567547,-1.5817364,-0.61819416,-0.80274737,-0.6947546,-0.80215895,-0.41032732,0.518708,-0.05750524,1.0276414,-0.6795814,-1.6785555,-1.8194944,2.4141068,1.5962936,-0.9775071,1.0827966,-0.61391884,-1.6217506,-1.7529713,2.4479222,1.5480047,-0.9705254,-0.79015344,-1.4605532,-1.2783158,-1.3747417,-0.7143019,0.35645393,0.11398381,0.4160514,-0.3643036,0.891525,-2.8043373,0.3147899,-3.28331,0.28619623,-0.3684578,0.7608044,0.6362639,0.08705064,0.06031599,0.7641678,-0.47380286,-0.82376283,-1.0637697,1.0,0.0,0.0,0.0,0.0,0.0,0.0,-1.0660514,-0.035696417,-0.34152496,-49.486946,0.2364397,-4.4894934,-2.2116184,3.0141473,-0.70085526,-3.620839
-56.41584,3.6228123,-11.76722,29.879852,4.248133,2.957085,-1.2395737,-0.7209089,-0.80052817,-0.7115981,-0.79146373,-0.3403525,0.49126026,-0.23035651,1.0107057,-0.69397163,-1.6929104,-1.8321177,2.413887,1.5971308,-0.993561,1.0719495,-0.628449,-1.634692,-1.766872,2.4413,1.5515372,-0.96972716,-1.1794556,-1.4518397,-1.3018419,-1.3925651,-0.6472737,0.35065895,0.06837305,0.3880291,-0.36115837,0.8579801,-2.8015337,0.31447515,-3.378213,0.28026342,-0.3774147,0.75004554,0.63952816,0.09557886,0.056800224,0.7606853,-0.6365555,-0.90874356,-1.0830686,1.0,0.0,0.0,0.0,0.0,0.0,0.0,-1.0380291,-0.038841635,-0.30798006,-37.9351,0.48203468,-3.0670404,-1.0332584,6.026256,-1.035881,-4.5954094
-36.262463,17.431522,1.2256002,25.293789,3.5888271,2.649308,-0.7821021,-0.7742663,-0.79273677,-0.6899809,-0.77888876,0.10244929,0.4994861,-0.41955206,0.99452287,-0.7077227,-1.70369,-1.8447609,2.4515448,1.6014857,-1.0116824,1.0583081,-0.64286286,-1.647641,-1.7808262,2.436627,1.5550219,-0.9694792,-1.423684,-1.4389625,-1.2938067,-1.39466,-0.40898776,0.34653583,0.010719862,0.36003447,-0.35801506,0.8234868,-2.7987325,0.31416073,-3.4730213,0.27298546,-0.38700485,0.73921263,0.64393026,0.10442674,0.05211589,0.7561301,-0.7636345,-0.96282125,-1.0863236,1.0,0.0,0.0,0.0,0.0,0.0,0.0,-1.0100344,-0.041984946,-0.2734868,-23.784447,0.9786606,0.3848791,0.3317356,23.368967,-0.8334398,-5.6535206
-17.50485,28.227245,11.82656,20.630236,2.7153087,2.2311006,-0.38233808,-0.78872776,-0.78967696,-0.68654084,-0.76320267,0.36950946,0.5197982,-0.49439836,0.9794353,-0.72183055,-1.716295,-1.8571465,2.473578,1.6070017,-1.018919,1.0432363,-0.65714985,-1.6604068,-1.7946831,2.4350247,1.5584933,-0.969813,-1.5337838,-1.426025,-1.2714545,-1.3818388,-0.07809783,0.34621206,-0.047536187,0.33206844,-0.35487556,0.7880462,-2.7959342,0.31384665,-3.5677347,0.26473904,-0.39692688,0.72841483,0.6490024,0.11352815,0.045759197,0.750875,-0.85163295,-0.9876392,-1.0806705,1.0,0.0,0.0,0.0,0.0,0.0,0.0,-0.9820684,-0.04512444,-0.23804617,-10.695243,1.0867119,2.0855665,1.6065121,32.879925,-0.34664273,-5.644264
-3.7425447,38.6679,20.38129,17.09228,1.4895245,1.9736431,-0.14602518,-0.8121506,-0.7553888,-0.6724245,-0.7500081,0.45777708,0.5473292,-0.50659466,0.9620212,-0.7326887,-1.7276493,-1.8696839,2.4808025,1.6132262,-1.0204724,1.027678,-0.67117363,-1.6728733,-1.8083473,2.4365964,1.5619951,-0.97068274,-1.5627209,-1.3949074,-1.2382615,-1.3607444,0.23540862,0.35084426,-0.09957171,0.30413008,-0.35173988,0.75165915,-2.7931387,0.31353286,-3.6623535,0.25587797,-0.406847,0.7177346,0.6543849,0.122725986,0.03778081,0.7451787,-0.9050664,-0.97818345,-1.0667993,0.0,1.0,0.0,0.0,0.0,0.0,0.0,-0.95413005,-0.048260123,-0.20165914,-2.7787924,2.986884,3.345561,2.2489548,31.33927,0.30288696,-5.055706
4.5650735,45.699577,25.37938,14.087824,0.24735093,1.7652278,-0.036004722,-0.8256672,-0.7195793,-0.6644606,-0.7472177,0.4424597,0.55040526,-0.5036394,0.9451113,-0.7431316,-1.7393193,-1.8830692,2.4808424,1.6170356,-1.0210466,1.0121284,-0.68466634,-1.6857933,-1.8222548,2.4382906,1.5665222,-0.97134894,-1.5514692,-1.334477,-1.3094754,-1.3988334,0.15442039,0.47193116,-0.0673574,0.28782463,-0.35468102,0.75116843,-1.3462625,-0.41975856,1.1033946,0.24671888,-0.41616058,0.70691895,0.65961546,0.13152711,0.029677194,0.73941004,-0.92524916,-0.9020032,-1.0888829,0.0,1.0,0.0,0.0,0.0,0.0,0.0,-0.9378246,-0.04531899,-0.20116842,1.4677048,4.8763037,2.7217388,2.2336245,21.956865,0.55348873,-4.485213
78.21966,176.0,110.0,88.87912,-10.111166,9.111685,-0.46273667,-0.7775127,0.5420087,0.6671434,0.7094323,-0.13177165,0.66628665,-0.49257958,0.9343771,-0.63046545,-1.619079,-1.7513115,2.4251134,1.6331509,-1.0206069,1.0016837,-0.69362134,-1.7003006,-1.826636,2.4305162,1.579559,-0.9696972,-0.8791268,-0.748526,-1.4895904,-0.12368869,-1.0825223,1.5868407,0.2377338,0.2743721,-0.35887527,0.7614576,-1.3449165,-0.41933888,1.0041054,0.23819733,-0.42287636,0.70011526,0.6651311,0.13156438,0.026952282,0.73455083,-0.83373797,-0.58015245,-0.54519343,1.0,0.0,0.0,0.0,0.0,0.0,0.0,-0.9243721,-0.04112473,-0.21145761,66.06867,58.795143,-15.58404,125.80062,-122.02242,113.29524,28.99892
25.996962,131.88339,99.251755,95.54675,-2.6778135,7.706527,-0.4261535,-0.8089593,-0.4291354,0.44077456,0.7923565,-0.5532996,0.5260334,-0.4075147,0.9207878,-0.7365349,-1.656223,-1.7474003,2.3751862,1.6321623,-1.0104487,0.99317694,-0.6995942,-1.7096943,-1.8205305,2.4176493,1.5954281,-0.9675724,-0.8415164,-0.5478872,-0.753113,0.8538418,-1.3564813,1.5921218,0.20261142,0.2609334,-0.36306572,0.7707547,-1.3435719,-0.41891962,0.9049156,0.2299819,-0.4276638,0.698828,0.6712504,0.123854645,0.02756933,0.7302895,-0.8205652,-0.435571,0.007740135,1.0,0.0,0.0,0.0,0.0,0.0,0.0,-0.9109334,-0.036934286,-0.22075468,3.6572576,19.726479,74.51943,97.30934,-27.922869,2.1464586,-3.9447637
-4.8410106,117.43639,65.37859,74.99766,-0.4808796,5.201252,-1.2422673,-0.814884,0.08182069,-0.20418847,0.7345989,-0.58193654,0.61257774,-0.14719781,0.91168857,-0.69141215,-1.7301131,-1.7470707,2.3594556,1.6566858,-0.9822922,0.983706,-0.702357,-1.7143863,-1.8073965,2.4039316,1.6104809,-0.9658348,-0.9807518,-0.18699351,-0.37522295,1.4667431,-1.3792808,1.4795187,0.16355222,0.24750805,-0.36725235,0.7790606,-1.3422285,-0.41850078,0.8058249,0.22158241,-0.4315071,0.7016724,0.67851627,0.11211658,0.030182755,0.7253513,-0.8482985,-0.3607171,0.37270966,1.0,0.0,0.0,0.0,0.0,0.0,0.0,-0.897508,-0.032747656,-0.22906059,-13.472927,35.72338,37.557716,61.339165,-3.0718565,-10.36346,-4.0973067
-27.881924,77.608086,28.695139,50.44726,1.551641,2.9326484,-1.4976856,-0.82263714,0.14564657,-0.39880028,0.7793578,-0.62278795,0.63177854,-0.32483625,0.9014423,-0.68779236,-1.7542664,-1.7294607,2.3416529,1.6736587,-0.99831843,0.97229433,-0.7019889,-1.717564,-1.7906729,2.390954,1.6241032,-0.96466273,-1.1934688,0.110570356,-0.30021504,1.741499,-1.2715309,1.324455,0.101482,0.23409605,-0.37143517,0.7863763,-1.3408866,-0.41808236,0.7068332,0.21263266,-0.435112,0.7066374,0.6871866,0.09917299,0.0342054,0.7188666,-0.91278964,-0.3532514,0.5334981,1.0,0.0,0.0,0.0,0.0,0.0,0.0,-0.884096,-0.02856484,-0.23637629,-20.901848,29.506418,7.040948,27.618431,10.401964,-15.073538,-6.2787995
-50.999107,3.539884,-19.11273,26.862064,4.5678205,0.5988612,-1.3787229,-0.8330837,-0.1437291,-0.6328465,0.76866287,-0.65579355,0.6764804,-0.37289032,0.888986,-0.71636176,-1.7808486,-1.7138066,2.3253746,1.6917512,-1.0019518,0.95895815,-0.70083207,-1.7223133,-1.7730948,2.3791666,1.636274,-0.964101,-1.3791555,0.11723597,-0.5342412,1.7637297,-1.1465826,1.1814467,0.041167613,0.2206974,-0.37561226,0.7927029,-1.339546,-0.41766435,0.6079405,0.2026496,-0.4395237,0.71149194,0.69718784,0.087313175,0.03842138,0.71051335,-1.0294491,-0.46140632,0.4659726,1.0,0.0,0.0,0.0,0.0,0.0,0.0,-0.8706974,-0.024387747,-0.2427029,-18.217754,0.6492257,-23.684137,2.3833036,12.774682,-14.251876,-6.010727
-47.05334,-21.499481,-30.261696,12.545542,4.5056233,-0.37815964,-0.9246609,-0.8304839,-0.19153233,-0.63925844,0.77353746,-0.6488247,0.67144316,-0.39023438,0.87590975,-0.7199853,-1.7862391,-1.695741,2.314284,1.7034183,-1.0031245,0.94428587,-0.7006518,-1.7298244,-1.7562109,2.368497,1.6471535,-0.96409434,-1.4955219,-0.014873219,-0.8239315,1.6638305,-1.0392259,1.0564321,-0.012736637,0.2073121,-0.37978554,0.7980333,-1.3382066,-0.41724676,0.50808156,0.19156075,-0.44511795,0.71503824,0.7081118,0.07756312,0.04207178,0.7005651,-1.1389002,-0.58173156,0.31494942,1.0,0.0,0.0,0.0,0.0,0.0,0.0,-0.8573121,-0.020214468,-0.24803329,-11.309338,-13.158919,-29.11688,-9.783697,11.051774,-12.611318,-5.3674655
-31.044403,-12.592695,-19.660387,6.910206,2.9806283,-0.38688236,-0.47558093,-0.83071256,-0.15820828,-0.60586596,0.7848989,-0.61696804,0.6745664,-0.42512396,0.86121464,-0.7164726,-1.790411,-1.677721,2.3068001,1.7146101,-1.0066067,0.9289489,-0.7018449,-1.7396587,-1.7404982,2.358739,1.6569382,-0.96458834,-1.5457479,-0.15410301,-1.036872,1.5411987,-0.95476955,0.9521116,-0.061601587,0.19394016,-0.383955,0.8023659,-1.3368688,-0.4168296,0.40832242,0.17965364,-0.45158768,0.7171663,0.7194618,0.06986399,0.045050606,0.6895391,-1.2126714,-0.65704954,0.17670408,1.0,0.0,0.0,0.0,0.0,0.0,0.0,-0.84394014,-0.016045004,-0.2523659,-4.803443,-13.904992,-21.355284,-12.050366,8.53467,-10.543537,-4.8793287
-19.605429,-4.2800217,-9.260363,6.261778,2.039464,-0.05257249,-0.14130782,-0.8395392,-0.2395897,-0.5938411,0.78271276,-0.5842857,0.6705945,-0.4676742,0.84499496,-0.72580385,-1.7990428,-1.6622269,2.3003104,1.7239976,-1.0113558,0.9134145,-0.7045571,-1.7508377,-1.7258383,2.3496752,1.665815,-0.965543,-1.5556345,-0.3103549,-1.1447488,1.4415317,-0.8902425,0.866054,-0.106669515,0.18058157,-0.38812065,0.8057017,-1.3355322,-0.41641283,0.308663,0.1671772,-0.45856476,0.71813834,0.73085326,0.06373856,0.047332548,0.6779015,-1.2652959,-0.6982254,0.06872408,1.0,0.0,0.0,0.0,0.0,0.0,0.0,-0.83058155,-0.011879355,-0.25570166,-0.8606672,-15.640915,-10.76057,-9.751558,6.3755393,-8.665741,-4.4789987
-7.867493,13.162717,4.67577,8.113647,0.9577882,0.42893893,0.0881833,-0.83542377,-0.26005602,-0.55397725,0.7820103,-0.54695565,0.659768,-0.47933707,0.82987213,-0.73056275,-1.8062354,-1.6476372,2.2949796,1.7317917,-1.0134767,0.89796877,-0.7085702,-1.7622932,-1.7118746,2.3411722,1.6739441,-0.9669058,-1.540827,-0.43184233,-1.1455271,1.3815635,-0.8378475,0.7952147,-0.14610116,0.16723633,-0.3922825,0.8080416,-1.3341969,-0.4159965,0.20910323,0.15437126,-0.46564293,0.718396,0.742018,0.058581553,0.049019128,0.6660139,-1.2921089,-0.6980921,0.009088893,1.0,0.0,0.0,0.0,0.0,0.0,0.0,-0.8172363,-0.00771752,-0.25804156,1.4941454,-12.21571,0.037264824,-5.8675528,5.0130725,-7.0515037,-3.9388509
-2.5800524,25.02352,12.856451,10.693491,0.47633332,0.7882559,0.16036409,-0.8384783,-0.2935472,-0.53458333,0.77819943,-0.5071031,0.64850265,-0.47977474,0.81412095,-0.73792493,-1.8157516,-1.6340547,2.290462,1.7387943,-1.0148833,0.88270617,-0.7135579,-1.773312,-1.6982561,2.3331614,1.6814553,-0.9686157,-1.5214605,-0.52144635,-1.0867457,1.3554918,-0.7896237,0.7364906,-0.1793727,0.15390444,-0.3964386,0.8093866,-1.3328631,-0.41558057,0.109643005,0.14138556,-0.47255325,0.7183124,0.7528413,0.053920902,0.050242778,0.6540628,-1.3071666,-0.6761421,-0.016809208,1.0,0.0,0.0,0.0,0.0,0.0,0.0,-0.8039044,-0.0035614073,-0.2593866,1.9058228,-9.063548,6.0316324,-2.535653,4.5319915,-5.7897806,-3.346774
3.4780746,37.90044,21.779907,12.677096,-0.0001205802,1.1429291,0.26236716,-0.83191043,-0.31298646,-0.43832436,0.773038,-0.42739576,0.64927167,-0.478428,0.7995151,-0.74485654,-1.8171444,-1.6209524,2.2904217,1.7463825,-1.0164585,0.8676419,-0.71919316,-1.7832168,-1.6847445,2.3257494,1.688459,-0.9706165,-1.5016128,-0.5779708,-0.9577242,1.3497452,-0.72600096,0.6888758,-0.20704523,0.1405859,-0.4005909,0.8097378,-1.3315305,-0.41516507,0.010282227,0.12835073,-0.4790764,0.7182252,0.7632347,0.04935202,0.051056992,0.6422074,-1.308438,-0.63126135,-0.008893583,1.0,0.0,0.0,0.0,0.0,0.0,0.0,-0.7905859,0.00059089065,-0.2597378,1.9019365,-5.786109,13.096547,-0.58500767,5.9962273,-4.623902,-2.8102188
5.846609,46.910034,26.332481,14.300222,-0.3390027,1.3061341,0.2579232,-0.8283068,-0.30988327,-0.38543284,0.7756039,-0.4311475,0.6465586,-0.46981183,0.78481126,-0.7501815,-1.8217602,-1.607184,2.2826347,1.7531149,-1.0175977,0.85274553,-0.7251231,-1.7916988,-1.671189,2.31886,1.6950527,-0.9728529,-1.4859532,-0.59861577,-0.8110081,1.357273,-0.6778552,0.65005505,-0.22938839,0.12728071,-0.40473938,0.8090961,-1.3301992,-0.41474998,-0.08897921,0.115371704,-0.4850464,0.71835995,0.7731753,0.044619765,0.051632132,0.63051015,-1.300163,-0.57348585,0.017851023,1.0,0.0,0.0,0.0,0.0,0.0,0.0,-0.7772807,0.004739374,-0.2590961,1.4799595,-2.2160888,14.859808,0.70090294,4.431033,-3.70332,-2.3133426
2.3750381,44.46213,23.195982,14.818551,-0.08675873,1.2235458,0.1727563,-0.8307109,-0.3443275,-0.3736638,0.7699007,-0.42383793,0.6443219,-0.46786213,0.7696744,-0.7595559,-1.8290652,-1.594199,2.2764761,1.7594849,-1.0196391,0.8379445,-0.7312514,-1.7989544,-1.6575552,2.3123522,1.7013088,-0.97528,-1.4782635,-0.6180233,-0.69639033,1.3653799,-0.64299446,0.6179353,-0.24743862,0.11398888,-0.40888405,0.8074626,-1.3288692,-0.4143353,-0.1881414,0.10242033,-0.49050522,0.71870154,0.78273064,0.039718732,0.052066613,0.6189057,-1.2987125,-0.5242119,0.036684934,1.0,0.0,0.0,0.0,0.0,0.0,0.0,-0.76398885,0.0088840425,-0.25746256,0.73058605,-2.0828009,11.604273,0.7993221,3.1598926,-3.05053,-1.8782467
4.2397103,47.358425,25.433313,14.824654,-0.21173787,1.2911637,0.22930516,-0.82281214,-0.36024246,-0.25371262,0.76967067,-0.39303225,0.6529176,-0.4778029,0.7556633,-0.7672757,-1.8243257,-1.5805881,2.2730489,1.7666006,-1.0230603,0.8232131,-0.73757046,-1.8048729,-1.6438528,2.3061762,1.7072941,-0.9778711,-1.4715812,-0.63704807,-0.5565602,1.3716788,-0.610589,0.5926755,-0.26317805,0.10071039,-0.4130249,0.8048382,-1.3275406,-0.41392106,-0.28720447,0.08951807,-0.49541664,0.71928173,0.7918865,0.034567393,0.05236234,0.6074364,-1.2920527,-0.46894708,0.062074464,1.0,0.0,0.0,0.0,0.0,0.0,0.0,-0.75071037,0.013024896,-0.25483817,0.62294006,-2.0433903,14.130772,0.60551167,2.9007554,-2.338314,-1.644361
7.0194397,49.17887,27.94807,14.283128,-0.39680648,1.3475562,0.34326375,-0.816396,-0.3917598,-0.120451614,0.76652366,-0.39547014,0.65070117,-0.45861137,0.7415735,-0.77674645,-1.816918,-1.5672004,2.2666292,1.7723643,-1.0237323,0.8085532,-0.7441756,-1.80909,-1.6301237,2.3002367,1.7130619,-0.9805843,-1.4642975,-0.6687698,-0.37625074,1.3731701,-0.5900869,0.5723006,-0.2742515,0.08744526,-0.41716194,0.8012239,-1.3262134,-0.41350722,-0.3861685,0.076737404,-0.49972725,0.720157,0.80055684,0.029021403,0.052481767,0.5962483,-1.2777576,-0.40716213,0.09308837,1.0,0.0,0.0,0.0,0.0,0.0,0.0,-0.73744524,0.017161936,-0.25122386,0.67601204,-3.307736,18.191284,0.11434555,1.686573,-1.8110633,-1.167196
6.3535657,42.626072,25.07615,12.781896,-0.15753528,1.1807436,0.40219355,-0.80817837,-0.4604683,-0.03983812,0.75093496,-0.37523866,0.6318923,-0.42997572,0.7277354,-0.79022247,-1.8130739,-1.5550302,2.262713,1.7762512,-1.0235819,0.7939868,-0.7513682,-1.811478,-1.616469,2.2944918,1.7186409,-0.9833681,-1.4540673,-0.73650014,-0.19252214,1.3628294,-0.5705437,0.5537313,-0.27982125,0.07419348,-0.42129326,0.7966206,-1.3248874,-0.4130938,-0.4850336,0.064068794,-0.50349045,0.72123826,0.8086945,0.02306781,0.052266523,0.58544785,-1.2672722,-0.35508573,0.11017032,1.0,0.0,0.0,0.0,0.0,0.0,0.0,-0.72419345,0.021293253,-0.2466206,0.9953737,-6.8834066,18.517859,-1.0374546,1.6157866,-1.6398311,-0.5779445
5.155278,37.02017,21.906559,11.784001,-0.0575985,0.98775786,0.41868094,-0.7963037,-0.5166076,0.03142002,0.74737185,-0.4382522,0.61352485,-0.38620907,0.7143564,-0.803029,-1.808336,-1.5417318,2.2506666,1.7799934,-1.021989,0.7795615,-0.7594258,-1.8121418,-1.6029402,2.2887049,1.7240425,-0.98616046,-1.4386249,-0.82910395,-0.024033485,1.3496373,-0.5824985,0.5363534,-0.27910018,0.060954094,-0.42542076,0.7910265,-1.3235629,-0.4126808,-0.5841936,0.051487446,-0.50679016,0.7223859,0.8162898,0.016761355,0.051678788,0.57508194,-1.2588711,-0.31152445,0.11319566,1.0,0.0,0.0,0.0,0.0,0.0,0.0,-0.71095407,0.025420755,-0.24102646,1.5459776,-9.351563,16.972607,-1.2917519,-1.4991283,-1.5212655,0.0770092
2.535574,28.614578,16.41163,10.05794,0.058478802,0.7017663,0.40993178,-0.7816537,-0.5895055,0.06731677,0.7300386,-0.53052586,0.61043555,-0.29908773,0.70139617,-0.81837636,-1.8054101,-1.5299363,2.2356522,1.785086,-1.0160692,0.76533556,-0.7685954,-1.8114341,-1.5896021,2.282483,1.7292858,-0.98887175,-1.4170778,-0.94647664,0.10261817,1.3285903,-0.6362733,0.52111,-0.26842555,0.04772806,-0.42954445,0.7844415,-1.3222395,-0.41226822,-0.68325436,0.03895569,-0.50974655,0.7233901,0.8233579,0.010248419,0.050787114,0.5651525,-1.2548646,-0.2805539,0.09287253,1.0,0.0,0.0,0.0,0.0,0.0,0.0,-0.69772804,0.029544443,-0.23444146,2.1783113,-11.806213,12.765382,-2.0399332,-5.625725,-1.3270378,1.1033416
-8.480854,10.895256,1.1578417,8.439984,0.8746004,0.03153795,0.11334261,-0.76293117,-0.650152,-0.110066235,0.7070384,-0.5533134,0.60813767,-0.23764342,0.68904245,-0.8336106,-1.8224407,-1.5188982,2.2271519,1.7900996,-1.0126361,0.7513776,-0.7789933,-1.8107494,-1.5765463,2.2756739,1.734388,-0.9914276,-1.388542,-1.0710305,0.057297636,1.2985696,-0.696135,0.5070971,-0.2510976,0.03451538,-0.43366432,0.7768667,-1.3209176,-0.41185603,-0.78221613,0.026263714,-0.51268196,0.7237891,0.83011854,0.0040595196,0.0496652,0.55535567,-1.2778418,-0.2885367,0.018891592,1.0,0.0,0.0,0.0,0.0,0.0,0.0,-0.68451536,0.033664316,-0.22686666,2.8998137,-12.480283,-4.506307,-2.8379202,-6.0480237,-1.3060808,1.8131435
-17.388216,3.0164757,-8.550119,9.666966,1.5053596,-0.38500732,-0.22240008,-0.74275315,-0.6692413,-0.26566216,0.7284251,-0.56412053,0.6000562,-0.233307,0.67710227,-0.84591746,-1.8373157,-1.5037038,2.219262,1.7943937,-1.0147583,0.7377486,-0.7904336,-1.8116096,-1.5636336,2.2683306,1.7393585,-0.9938156,-1.3540981,-1.1684421,-0.13392842,1.2896559,-0.7466973,0.493719,-0.23438776,0.021316051,-0.43778038,0.768303,-1.3195969,-0.41144425,-0.88107896,0.013179302,-0.515892,0.7232461,0.83687127,-0.0013093224,0.048467543,0.5452482,-1.3223989,-0.32213193,-0.08251271,1.0,0.0,0.0,0.0,0.0,0.0,0.0,-0.671316,0.037780374,-0.21830297,3.5179138,-9.75101,-19.162338,-0.6209135,-4.972875,-1.3217509,1.7612606
-22.654758,-0.8857034,-14.168899,9.365929,1.8820971,-0.59546506,-0.4425213,-0.7311831,-0.6984898,-0.4087802,0.7071834,-0.5066047,0.6242164,-0.31670403,0.6646303,-0.86028254,-1.8524877,-1.4929153,2.2176702,1.8017802,-1.025486,0.7244487,-0.80266255,-1.8150486,-1.5508314,2.2607813,1.7442223,-0.9961149,-1.3215206,-1.2411876,-0.41433182,1.2782053,-0.7570083,0.48389095,-0.22818486,0.008130074,-0.44189072,0.7587514,-1.3182776,-0.4110329,-0.9798429,-0.00045585632,-0.5195255,0.7215478,0.843835,-0.005499596,0.047225416,0.5344922,-1.380797,-0.36763948,-0.20329733,0.0,1.0,0.0,0.0,0.0,0.0,0.0,-0.65813005,0.04189071,-0.20875138,3.359437,-7.2886944,-28.133791,-0.7888317,-0.8684635,-1.053983,0.7084578
-24.941526,3.520359,-12.660497,10.140717,1.948597,-0.35233504,-0.51332617,-0.74701846,-0.72053844,-0.47905034,0.69360226,-0.44778827,0.62730056,-0.39560142,0.64974684,-0.8747164,-1.8629537,-1.4814712,2.2160025,1.8069524,-1.035675,0.71131754,-0.8154513,-1.821217,-1.5381685,2.253415,1.7490021,-0.9984295,-1.3098153,-1.2916008,-0.6849184,1.263744,-0.7291419,0.47563523,-0.23228636,-0.005042553,-0.44599724,0.7482129,-1.3169595,-0.41062194,-1.0785083,-0.014724255,-0.5235462,0.71870077,0.85109246,-0.008447769,0.04587666,0.52293926,-1.4452226,-0.4030662,-0.3167723,0.0,1.0,0.0,0.0,0.0,0.0,0.0,-0.6449574,0.045997232,-0.19821286,1.326251,-5.0919056,-27.187311,-1.0430098,2.9188395,-0.95855,-0.3344983
-18.125904,15.65276,-3.538237,9.70306,1.4185607,0.040664136,-0.3488039,-0.73081416,-0.74257135,-0.47897172,0.6853815,-0.40368557,0.65253633,-0.44549888,0.6382361,-0.88970846,-1.8691142,-1.4696304,2.2130466,1.8142557,-1.0429794,0.69834286,-0.82863647,-1.8295974,-1.5256993,2.2461967,1.7541103,-1.0009849,-1.2930816,-1.3275207,-0.89165264,1.2418848,-0.71348184,0.54860806,-0.2445388,-0.018852234,-0.44872665,0.7447717,-1.2476975,-0.32738563,-0.019847352,-0.029491901,-0.5276928,0.7148664,0.8585558,-0.010527025,0.044498075,0.510677,-1.4930176,-0.40335464,-0.41196552,0.0,1.0,0.0,0.0,0.0,0.0,0.0,-0.63114774,0.048726648,-0.1947717,1.1254549,-3.7880898,-18.057083,-1.2350082,5.231118,-0.44671297,-0.9526521
11.967726,89.950615,45.96052,17.992653,-1.3623483,1.9803907,0.2955049,-0.75297254,-0.55634844,0.056523006,0.7805079,-0.5039173,0.6711827,-0.47256368,0.6230456,-0.8842713,-1.823945,-1.4476485,2.195805,1.8212286,-1.0482413,0.68532616,-0.8411754,-1.8366164,-1.5129563,2.239071,1.759613,-1.0035427,-1.3047765,-1.2301881,-0.63771427,1.2843118,-0.71443754,0.55216473,-0.26013753,-0.031320095,-0.45199776,0.743826,-1.2464501,-0.32705832,-0.119472414,-0.04403162,-0.5310116,0.71155405,0.8656636,-0.013336489,0.04345438,0.49855813,-1.4425771,-0.29555458,-0.31022674,0.0,1.0,0.0,0.0,0.0,0.0,0.0,-0.6186799,0.05199775,-0.19382596,-1.2391806,9.476733,25.66303,4.0282965,-0.66450834,0.69254637,-1.7735064
31.561832,114.981064,66.27848,17.283035,-2.5519085,2.3905163,0.7901569,-0.71633583,-0.5715785,0.279237,0.75940984,-0.5244168,0.65545934,-0.42191705,0.6136926,-0.89833325,-1.8086927,-1.4370153,2.1866293,1.825159,-1.0457344,0.67231804,-0.8527091,-1.839466,-1.4998451,2.2318306,1.7651176,-1.0061939,-1.2999966,-1.1287091,-0.16583836,1.3187487,-0.7302458,0.55143887,-0.26754102,-0.04377508,-0.45526695,0.7418847,-1.2452039,-0.32673132,-0.21899787,-0.05766821,-0.53300095,0.70975125,0.8720058,-0.017829759,0.042833906,0.48729166,-1.3384663,-0.15491492,-0.1422672,0.0,1.0,0.0,0.0,0.0,0.0,0.0,-0.6062249,0.055266947,-0.1918847,0.31375885,9.870148,47.589893,3.0718327,-2.4027586,0.45663118,-0.97424984
29.778452,104.79071,59.2092,14.66551,-2.3980508,1.8290904,0.77797943,-0.7053506,-0.5663637,0.24968402,0.7315386,-0.58783853,0.6272505,-0.30200255,0.601783,-0.9093455,-1.8144976,-1.4266913,2.1730468,1.8278427,-1.0363941,0.65942436,-0.8633712,-1.8380965,-1.4865834,2.224228,1.7705479,-1.008826,-1.2860492,-1.0461559,0.23877554,1.3277423,-0.7730795,0.54178816,-0.26241785,-0.05621767,-0.45853233,0.7389574,-1.243959,-0.32640466,-0.31730062,-0.070278645,-0.5337486,0.7093972,0.87751675,-0.023932781,0.04264481,0.47704598,-1.2364832,-0.037438717,-0.0043897983,0.0,1.0,0.0,0.0,0.0,0.0,0.0,-0.5937823,0.058532327,-0.1889574,1.313734,8.019733,40.75208,0.6835699,-5.01281,-0.48794746,0.33954978
23.726051,85.10964,44.99177,11.905881,-1.7966007,0.97743315,0.61373854,-0.66676337,-0.54969186,0.22962803,0.7312114,-0.61076874,0.6198396,-0.173103,0.59274805,-0.9183404,-1.8151337,-1.4134622,2.163151,1.8325318,-1.0261363,0.6468511,-0.8733905,-1.8338736,-1.4733235,2.2161598,1.7758694,-1.011298,-1.2478888,-0.9877334,0.48394483,1.3250438,-0.8199218,0.53032917,-0.24259199,-0.06864786,-0.4617939,0.7350478,-1.2427152,-0.32607833,-0.41550505,-0.082010746,-0.53360367,0.7099942,0.8823312,-0.031056572,0.04287858,0.4676414,-1.1539161,0.040392324,0.07709344,0.0,1.0,0.0,0.0,0.0,0.0,0.0,-0.5813521,0.061793894,-0.1850478,3.774786,5.6687236,24.71214,-0.34558773,-5.218911,-0.76795816,1.8711239
8.614688,52.62523,22.640732,9.819875,-0.5428617,0.10849756,0.27542374,-0.6528841,-0.58266604,0.13451432,0.72171366,-0.61227834,0.6085013,-0.10900853,0.5815627,-0.9316571,-1.8204222,-1.4011521,2.154932,1.8367195,-1.0221988,0.634727,-0.88320315,-1.8288575,-1.4601812,2.2075675,1.7810427,-1.0137031,-1.2010077,-0.97936034,0.50850385,1.3107601,-0.8715807,0.51627284,-0.23688169,-0.0821743,-0.4625206,0.73434156,-1.3683885,-0.02273066,0.009720439,-0.09324455,-0.53307533,0.7107611,0.886761,-0.03831701,0.043461915,0.4585824,-1.1155276,0.06541503,0.07328163,0.0,1.0,0.0,0.0,0.0,0.0,0.0,-0.5678257,0.06252059,-0.18434155,4.3298006,0.73964596,3.544432,-1.2588739,-3.8039088,-0.5033016,2.6688843
-22.605223,39.010647,4.0142293,17.55759,1.0422591,-0.029402912,-0.44382474,-0.7537954,-0.44788262,-0.09536371,0.74425507,-0.56952286,0.5783581,-0.13591374,0.55934745,-0.9279914,-1.8383939,-1.3857558,2.1506152,1.8388785,-1.0272945,0.62249136,-0.89246714,-1.8253489,-1.4470587,2.198828,1.7861189,-1.0159152,-1.2308043,-0.9088708,0.2977428,1.3135874,-0.8743133,0.5054515,-0.21597329,-0.09589052,-0.46269798,0.73416084,-1.3727831,-0.016296487,-0.029031167,-0.104641914,-0.53245926,0.7112012,0.89127433,-0.04488336,0.044566054,0.4490314,-1.1497014,0.06738,0.03091997,0.0,1.0,0.0,0.0,0.0,0.0,0.0,-0.55410945,0.06269798,-0.18416083,-2.8891563,7.0144653,-21.273357,0.49636364,-0.15436411,-0.836885,2.0865054
-32.71595,41.38748,0.15859532,21.392427,1.3802927,-0.07490331,-0.73012936,-0.76235867,-0.34408954,-0.22354485,0.77105886,-0.56170356,0.55808735,-0.16518936,0.54625547,-0.92687607,-1.8477033,-1.3699528,2.1426575,1.8419276,-1.0324341,0.6098019,-0.90059435,-1.8247603,-1.4337473,2.1901982,1.7910863,-1.0179507,-1.281163,-0.7809554,-0.021622304,1.337734,-0.858612,0.49425033,-0.1996767,-0.109674454,-0.46281242,0.733599,-1.3803473,-0.009975868,-0.06732654,-0.116512775,-0.5318432,0.71120185,0.8961625,-0.050277118,0.04649855,0.4384095,-1.2006052,0.06696372,-0.013590576,0.0,1.0,0.0,0.0,0.0,0.0,0.0,-0.5403255,0.06281242,-0.183599,-4.8945665,12.7369995,-32.211403,2.6753426,1.7623186,-0.91905,1.5720427
-33.808197,41.290314,0.5591351,21.726784,1.5352851,-0.0037068129,-0.71993726,-0.7754237,-0.32782033,-0.28962702,0.776903,-0.51008636,0.53643304,-0.15428789,0.5322595,-0.9333764,-1.853723,-1.356057,2.1391895,1.8447297,-1.0333794,0.5965785,-0.9075123,-1.8272783,-1.4201632,2.1819088,1.7959317,-1.0198381,-1.3354506,-0.6624749,-0.32919678,1.366077,-0.81879765,0.4812626,-0.18535024,-0.12354374,-0.46284866,0.73269576,-1.389239,-0.0016386434,-0.100242406,-0.12893534,-0.53121567,0.7107762,0.9014538,-0.054427717,0.049223054,0.4266097,-1.2564301,0.06975031,-0.05527471,0.0,1.0,0.0,0.0,0.0,0.0,0.0,-0.52645624,0.06284866,-0.18269575,-5.257511,11.754835,-30.991062,3.0843258,4.1068554,-1.2248456,1.344338
-31.16609,43.019367,2.4695027,20.782713,1.3355504,0.038526952,-0.62815297,-0.78761315,-0.2792035,-0.4212736,0.78951454,-0.5161697,0.5272024,-0.12701984,0.51781714,-0.9354327,-1.8694056,-1.3412117,2.130292,1.8486519,-1.0325401,0.58287436,-0.9133183,-1.8327185,-1.4062873,2.1739738,1.8006493,-1.0215795,-1.3814462,-0.5537898,-0.61621475,1.3953311,-0.78498274,0.4682776,-0.17088073,-0.13748932,-0.4627819,0.7315017,-1.396401,0.009267772,-0.12779823,-0.14186811,-0.5305214,0.70996207,0.907066,-0.05737977,0.052685536,0.4137186,-1.3052597,0.07817524,-0.09281199,0.0,1.0,0.0,0.0,0.0,0.0,0.0,-0.51251066,0.0627819,-0.18150169,-4.4288874,10.737205,-28.86246,3.1413794,3.4246206,-1.3190746,1.3199419
-17.521091,56.03358,12.519302,17.84452,0.5225469,0.13721085,-0.31973368,-0.7683465,-0.20684849,-0.45574984,0.792167,-0.5047814,0.532031,-0.046898562,0.50603974,-0.9340031,-1.8782935,-1.3270706,2.1234956,1.8538524,-1.0262693,0.56893736,-0.918018,-1.8403713,-1.3921863,2.1663368,1.8052639,-1.0231266,-1.3975226,-0.44262835,-0.81498003,1.4152502,-0.7569707,0.45892024,-0.15006922,-0.1514368,-0.4625492,0.73022103,-1.3942134,0.027563898,-0.12959902,-0.15502787,-0.5296364,0.708966,0.91277844,-0.059394516,0.056855183,0.40009388,-1.3187162,0.10183515,-0.10398062,0.0,1.0,0.0,0.0,0.0,0.0,0.0,-0.49856317,0.0625492,-0.18022102,-1.533103,10.942531,-19.868542,2.0715952,2.6744962,-0.9861946,1.8954933
-15.933722,43.20033,8.463082,14.742691,0.6931317,0.027866542,-0.19709562,-0.775608,-0.25743484,-0.57729524,0.7922015,-0.5030104,0.5125017,0.013902229,0.49137655,-0.94376147,-1.8981007,-1.3129661,2.1160357,1.8565141,-1.0217364,0.55493075,-0.92213404,-1.8498088,-1.3779613,2.1589134,1.8097731,-1.0244367,-1.4014391,-0.40175736,-0.98654634,1.4252753,-0.73791736,0.44778937,-0.12506372,-0.16538239,-0.46216774,0.72876304,-1.3946462,0.041378886,-0.15187238,-0.16836786,-0.528595,0.7076902,0.9184596,-0.060559794,0.06147251,0.38598642,-1.3381681,0.116150126,-0.1370656,0.0,1.0,0.0,0.0,0.0,0.0,0.0,-0.4846176,0.062167734,-0.17876303,-0.31785965,3.9407194,-17.11074,1.1047602,1.7925024,-1.2083828,2.3527205
-13.565863,40.97737,8.646572,12.938734,0.5157527,0.059060097,-0.06712714,-0.78102607,-0.23651843,-0.6559777,0.78954494,-0.5391134,0.50799215,0.11451183,0.47682813,-0.9457859,-1.9154066,-1.2990068,2.105002,1.8605723,-1.0129856,0.5409203,-0.92603457,-1.8607458,-1.3637077,2.151509,1.8141737,-1.0254401,-1.400815,-0.38654196,-1.1292262,1.4256991,-0.74164397,0.43733695,-0.09261558,-0.17932272,-0.46164894,0.72704786,-1.3937857,0.055388875,-0.17823344,-0.18186378,-0.52739716,0.70604837,0.92401415,-0.060906608,0.066418044,0.37158677,-1.3518957,0.13225359,-0.17444856,0.0,1.0,0.0,0.0,0.0,0.0,0.0,-0.47067726,0.061648935,-0.17704785,0.116062164,1.3756394,-14.17017,0.13673306,-0.5169034,-1.1445701,3.0941024
-10.168154,38.350136,9.102171,10.850125,0.37407115,0.082903564,0.05985495,-0.77295506,-0.2531755,-0.694326,0.78160274,-0.56285286,0.512122,0.16916841,0.4636248,-0.9513521,-1.9301784,-1.2855474,2.0952237,1.8653859,-1.0085232,0.5269699,-0.9300133,-1.8728192,-1.3495189,2.1439521,1.8184853,-1.026101,-1.3930188,-0.402076,-1.2327794,1.4167963,-0.76082367,0.42858705,-0.057792738,-0.19324446,-0.46099854,0.7250339,-1.3915429,0.06909317,-0.20885831,-0.19545221,-0.5260391,0.70400023,0.9293547,-0.060517993,0.0715869,0.35708913,-1.3596088,0.1489173,-0.21589735,0.0,1.0,0.0,0.0,0.0,0.0,0.0,-0.45675552,0.06099853,-0.17503387,0.80542564,-1.6893804,-10.205507,-0.79922676,-2.0831466,-0.98906755,3.341496
-7.5297556,40.1776,11.149727,10.212871,0.23698488,0.17912287,0.15481524,-0.76877475,-0.26088664,-0.71549577,0.7825628,-0.59785604,0.52466995,0.24231362,0.45009243,-0.95610195,-1.9443687,-1.2712626,2.0841665,1.8709522,-1.0018697,0.5131168,-0.93424094,-1.8856306,-1.3354236,2.1360939,1.8227322,-1.0263909,-1.38276,-0.4300287,-1.296591,1.407352,-0.7946728,0.42290628,-0.019814298,-0.2071271,-0.46020126,0.7227421,-1.3869299,0.08440076,-0.23515989,-0.20906639,-0.52448463,0.7015766,0.93441206,-0.05952127,0.076926425,0.34265652,-1.3604126,0.16966459,-0.25206327,0.0,1.0,0.0,0.0,0.0,0.0,0.0,-0.44287288,0.060201257,-0.17274207,1.020956,-2.9361665,-6.172776,-0.8654356,-3.5915375,-0.6853998,3.6586106
-7.2999215,38.107883,10.69578,9.58625,0.2491417,0.20840317,0.19647914,-0.76782846,-0.29322234,-0.747496,0.7757084,-0.6351389,0.51526994,0.29193896,0.43633392,-0.96356314,-1.9603802,-1.2578528,2.0725799,1.8742592,-0.99719703,0.49935424,-0.93887866,-1.8989304,-1.321437,2.1278198,1.8269223,-1.0262992,-1.3740842,-0.47541815,-1.340341,1.3961025,-0.83915955,0.41728538,0.018413886,-0.22096205,-0.45925522,0.7201593,-1.3820901,0.09920414,-0.26502928,-0.22269154,-0.5227184,0.6987682,0.93915814,-0.057979908,0.08238234,0.32837978,-1.3612636,0.19043547,-0.2913969,0.0,1.0,0.0,0.0,0.0,0.0,0.0,-0.42903793,0.059255213,-0.17015928,0.85742474,-4.675418,-4.1468143,-1.0262012,-4.667628,-0.67703724,3.697739
-6.9457083,37.217754,10.729403,9.346711,0.34550136,0.23263437,0.21121705,-0.7627437,-0.32683307,-0.7580778,0.7732153,-0.640444,0.50132036,0.32135183,0.42307988,-0.97156197,-1.9747382,-1.2441155,2.0637753,1.8770543,-0.99416405,0.4856766,-0.9440619,-1.912522,-1.3075496,2.119149,1.8310494,-1.0258415,-1.3657008,-0.53309005,-1.3646696,1.386721,-0.87737644,0.4109404,0.054495864,-0.23474789,-0.4581623,0.7172681,-1.3771209,0.11371822,-0.29607427,-0.23633862,-0.52075005,0.6955654,0.9435906,-0.055951156,0.08785155,0.31430623,-1.3635808,0.21133137,-0.33101276,0.0,1.0,0.0,0.0,0.0,0.0,0.0,-0.4152521,0.0581623,-0.1672681,0.82218647,-5.9018493,-2.1877766,-0.8239746,-4.0542483,-0.7587135,3.5027974
-1.8226275,42.903545,13.99938,8.668385,0.13822603,0.23554146,0.2778384,-0.7349491,-0.33331808,-0.75743973,0.7736635,-0.65487546,0.54634756,0.3886157,0.41218168,-0.9773937,-1.988266,-1.2301832,2.0536613,1.8856843,-0.9869799,0.47218728,-0.9497448,-1.926226,-1.293727,2.1101422,1.8351576,-1.0250102,-1.3435082,-0.58049107,-1.3712757,1.3808649,-0.9095739,0.41052473,0.09212808,-0.24845028,-0.4569168,0.7141296,-1.3675305,0.12929676,-0.31863442,-0.24991989,-0.5185623,0.69203895,0.9476854,-0.053543374,0.09330965,0.30053085,-1.353643,0.23338059,-0.36110923,0.0,1.0,0.0,0.0,0.0,0.0,0.0,-0.4015497,0.056916803,-0.16412961,2.1597624,-4.8773766,-0.37186146,-0.5241394,-3.4865737,-0.16588569,3.645584
-4.9455853,35.747456,10.605245,8.299879,0.43647304,0.20240283,0.2318145,-0.7431296,-0.4052568,-0.7710652,0.765064,-0.6590024,0.51211077,0.37526742,0.39787433,-0.9902705,-2.0033326,-1.2172207,2.044242,1.8863688,-0.9874835,0.45886058,-0.95609534,-1.9399835,-1.2799749,2.1008809,1.8392364,-1.0238534,-1.329159,-0.6536307,-1.3762156,1.3738409,-0.9322604,0.40647998,0.12339968,-0.262084,-0.45553398,0.71066606,-1.3616966,0.14212918,-0.3542966,-0.26349258,-0.51617813,0.6881205,0.9514747,-0.050763216,0.098617755,0.28704238,-1.3557972,0.25198913,-0.40346757,0.0,1.0,0.0,0.0,0.0,0.0,0.0,-0.38791597,0.055533975,-0.16066605,1.4071226,-7.43767,-0.23927689,-0.5723953,-2.5050044,-0.5413294,3.0536623
0.276412,48.754864,16.26005,8.80924,0.1292468,0.27246064,0.27711427,-0.71666193,-0.36674425,-0.7627849,0.7650106,-0.65902185,0.5409752,0.4327424,0.3871944,-0.9927698,-2.016262,-1.2034739,2.0349786,1.8933339,-0.9805792,0.44574988,-0.9628664,-1.95372,-1.266282,2.091466,1.8433064,-1.0223773,-1.3053302,-0.68547136,-1.3718246,1.3679606,-0.9455811,0.40682152,0.15513492,-0.2756009,-0.45399857,0.70700127,-1.34779,0.15841034,-0.36924,-0.2769513,-0.5135689,0.68394023,0.9549513,-0.047685307,0.10383688,0.27388325,-1.3394613,0.2757917,-0.424587,0.0,1.0,0.0,0.0,0.0,0.0,0.0,-0.37439907,0.05399856,-0.15700126,2.296877,-3.3335924,0.7646084,-0.5585909,-1.6473174,-0.11347532,3.053835
-4.973283,42.942265,12.8609915,9.341295,0.42814323,0.30151772,0.20219788,-0.7342419,-0.43299213,-0.7694644,0.7581328,-0.6803779,0.5117036,0.39178047,0.3723257,-1.0061656,-2.0306664,-1.1904687,2.0234282,1.8944768,-0.9831992,0.43275362,-0.97009146,-1.9674298,-1.2526559,2.0819063,1.847354,-1.0206511,-1.2978305,-0.7353325,-1.3698099,1.3610371,-0.9603989,0.40361482,0.17819208,-0.2890067,-0.45231247,0.7031077,-1.3376973,0.17313845,-0.39493692,-0.29034662,-0.5107174,0.67947584,0.9581527,-0.044297304,0.10893465,0.2609872,-1.3361264,0.29957458,-0.45553192,0.0,1.0,0.0,0.0,0.0,0.0,0.0,-0.36099327,0.052312464,-0.1531077,0.70524216,-5.1333427,0.49393177,-0.5877495,-1.7745972,-0.48621893,2.2206216
-2.5224044,50.81784,15.893028,9.840402,0.27712977,0.357373,0.21839646,-0.7159,-0.4156956,-0.76490307,0.7563755,-0.68328696,0.5341608,0.42965338,0.36116362,-1.011661,-2.04392,-1.1770183,2.0135777,1.9007702,-0.97768575,0.41986084,-0.97762454,-1.9811052,-1.2390946,2.0722244,1.8513914,-1.0186985,-1.2866808,-0.7598331,-1.3655186,1.3544674,-0.97207,0.4033688,0.20047112,-0.30227423,-0.45046806,0.69904405,-1.3224,0.18947643,-0.4088415,-0.3036337,-0.5076046,0.67479414,0.9610853,-0.040622126,0.11396429,0.2483485,-1.3223602,0.3263409,-0.47425506,0.0,1.0,0.0,0.0,0.0,0.0,0.0,-0.34772575,0.050468057,-0.14904404,1.0390043,-2.6136756,0.7656336,-0.60892105,-1.5098453,-0.20000935,2.1136105
-2.266522,50.849495,15.653778,9.766193,0.32341522,0.3263057,0.20669666,-0.7070161,-0.44301653,-0.76577634,0.756018,-0.68263525,0.5172805,0.4361548,0.34915924,-1.0219262,-2.0576828,-1.1634928,2.0039608,1.9031194,-0.975083,0.40709108,-0.9854113,-1.9947463,-1.2255849,2.062455,1.8554152,-1.0165462,-1.2740057,-0.7855024,-1.3626689,1.3500427,-0.9793315,0.4015334,0.21991663,-0.31538486,-0.44846725,0.6948308,-1.3065243,0.2046823,-0.4240606,-0.31678534,-0.5042362,0.6699225,0.9637591,-0.03667245,0.11892877,0.2359645,-1.30892,0.35140336,-0.4934763,0.0,1.0,0.0,0.0,0.0,0.0,0.0,-0.3346151,0.04846725,-0.14483076,1.1907578,-2.728331,0.62294006,-0.3919363,-1.0716319,-0.36266446,1.833874
-4.6330338,45.3417,12.930206,9.253788,0.45414823,0.28938824,0.18550286,-0.71108764,-0.48919392,-0.769097,0.7488978,-0.6995888,0.49320406,0.43776065,0.33598232,-1.0343307,-2.071656,-1.1506951,1.992496,1.9047357,-0.9727702,0.39440238,-0.99359,-2.008385,-1.2121322,2.0525925,1.8593986,-1.0142212,-1.2673084,-0.8291399,-1.3631575,1.344014,-0.9898829,0.39658862,0.23644431,-0.32835817,-0.44633102,0.69037825,-1.2936434,0.21770677,-0.450784,-0.3298607,-0.50063324,0.66477895,0.9662015,-0.032406677,0.12375183,0.2238076,-1.3027298,0.37455872,-0.523291,0.0,1.0,0.0,0.0,0.0,0.0,0.0,-0.3216418,0.04633102,-0.14037824,0.618577,-4.5139194,0.25641918,-0.49972534,-1.3692737,-0.67498684,1.5702933
-5.765085,43.678944,11.776324,9.057842,0.50789535,0.27709717,0.17383415,-0.70863736,-0.5106092,-0.77485293,0.74532133,-0.70477855,0.474968,0.45258293,0.32353866,-1.0446509,-2.0858703,-1.1376001,1.9821147,1.9068954,-0.9689629,0.38175994,-1.0022384,-2.022064,-1.1987425,2.0426245,1.8633157,-1.0117399,-1.2633076,-0.8772622,-1.3684627,1.3378136,-1.0000321,0.38952225,0.2516929,-0.3412099,-0.44407272,0.68561786,-1.2816566,0.22958882,-0.4826939,-0.34289503,-0.49679184,0.65930575,0.9684321,-0.027782138,0.12839012,0.21185689,-1.2990454,0.397337,-0.5573873,0.0,1.0,0.0,0.0,0.0,0.0,0.0,-0.3087901,0.044072717,-0.13561785,0.3599882,-4.960215,-0.23870468,-0.49328804,-1.3195634,-0.89506507,1.453656
-5.6084733,49.39743,13.537413,9.890944,0.46311486,0.3483712,0.17956726,-0.70947385,-0.5040424,-0.7697994,0.7419842,-0.7184962,0.43923947,0.4873365,0.31081256,-1.0526426,-2.0990438,-1.1245441,1.9707749,1.9072397,-0.9630062,0.36913225,-1.0112354,-2.03577,-1.1854159,2.0325341,1.8671412,-1.0091001,-1.2627876,-0.90772736,-1.3705206,1.3312019,-1.013229,0.3796954,0.2678631,-0.35391617,-0.44168854,0.68060076,-1.266058,0.24234514,-0.50617397,-0.35585165,-0.4927101,0.65356183,0.97045064,-0.022797903,0.13289487,0.20011158,-1.2897675,0.42304847,-0.58241093,0.0,1.0,0.0,0.0,0.0,0.0,0.0,-0.2960838,0.04168853,-0.13060075,-0.0041246414,-3.2103658,0.12383461,-0.5629301,-1.6749144,-1.178056,1.5246451
-6.7658477,43.06898,10.93768,8.764959,0.55523777,0.2698617,0.1729537,-0.71011597,-0.56579506,-0.7717038,0.735804,-0.7239255,0.37072867,0.47951868,0.29812065,-1.0678148,-2.1129403,-1.1118355,1.9601415,1.9042141,-0.9611482,0.35649458,-1.0207015,-2.0494986,-1.1721638,2.022318,1.8708179,-1.0063195,-1.2641451,-0.9601776,-1.3724355,1.323511,-1.0255845,0.36310402,0.2812805,-0.36649323,-0.43919373,0.67524856,-1.2541146,0.25257805,-0.54276186,-0.36876726,-0.48838615,0.64747965,0.97227573,-0.01741616,0.13718463,0.18856506,-1.2868788,0.44567537,-0.61917454,0.0,1.0,0.0,0.0,0.0,0.0,0.0,-0.28350675,0.03919372,-0.12524855,-0.17006397,-5.3922057,0.100159645,-0.6189108,-1.5518904,-1.8629074,1.2861192
-8.006541,37.61517,8.409382,7.39328,0.5389898,0.19197398,0.18307531,-0.7150031,-0.6081664,-0.7866497,0.71915936,-0.74172515,0.2777373,0.48813912,0.28499427,-1.0815182,-2.1281636,-1.1002479,1.9481454,1.8985916,-0.9575056,0.34381732,-1.0308009,-2.0633073,-1.1590488,2.0119488,1.8742617,-1.0034148,-1.2689263,-1.0267721,-1.3828919,1.3081561,-1.0416002,0.3377069,0.29349792,-0.37897396,-0.43661308,0.66943175,-1.245289,0.2606341,-0.59224653,-0.38168287,-0.4838581,0.6409362,0.9739277,-0.01154115,0.14115456,0.17722034,-1.287626,0.46576947,-0.6683612,0.0,1.0,0.0,0.0,0.0,0.0,0.0,-0.27102602,0.036613077,-0.119431734,-0.49061775,-6.7933917,-0.7974863,-1.3387918,-1.8841267,-2.7483046,1.1900365
-7.9058385,34.866154,7.3253727,6.3544836,0.5294722,0.14865947,0.18915191,-0.7161229,-0.649485,-0.78625053,0.70998245,-0.74662215,0.1846144,0.47652075,0.27220502,-1.0957494,-2.1419322,-1.0880506,1.9372866,1.8927232,-0.9557627,0.33108994,-1.0416347,-2.0772116,-1.1461077,2.001431,1.8773946,-1.000409,-1.2740203,-1.1026832,-1.3923424,1.2899886,-1.0560517,0.30456054,0.30277276,-0.39137888,-0.43396187,0.6630627,-1.2379668,0.26727352,-0.6490718,-0.39461565,-0.47914124,0.63385737,0.9754218,-0.005120231,0.14471576,0.16608228,-1.2893391,0.4843624,-0.72378683,0.0,1.0,0.0,0.0,0.0,0.0,0.0,-0.2586211,0.033961862,-0.11306268,-0.51395893,-7.717061,-0.7170677,-1.592946,-1.7121792,-3.5355568,0.9187579
-4.2074356,37.541092,8.791472,5.6179714,0.41486248,0.17163324,0.21012142,-0.6988074,-0.6758981,-0.7893192,0.7113568,-0.74344426,0.23351392,0.48045063,0.2612092,-1.1092244,-2.1561434,-1.074972,1.9270866,1.900746,-0.95236397,0.318402,-1.0531856,-2.0912035,-1.1333092,1.990812,1.8802582,-0.99732125,-1.2671322,-1.1729165,-1.4007946,1.277168,-1.0647328,0.27958822,0.31078348,-0.40369177,-0.43125153,0.6561405,-1.2280653,0.27303708,-0.70368487,-0.40751553,-0.4742508,0.6262504,0.97675705,0.0017917493,0.14785229,0.15518372,-1.2838845,0.50155705,-0.7758784,0.0,1.0,0.0,0.0,0.0,0.0,0.0,-0.24630821,0.03125152,-0.106140494,0.66099167,-7.146883,-0.59878826,-1.0889769,-1.1388063,-2.723658,0.7864773
4.9002438,45.86826,13.385029,4.8398685,0.17518115,0.20221502,0.2636546,-0.65761715,-0.68974525,-0.77551836,0.7239167,-0.73318374,0.34610552,0.50192213,0.25264028,-1.1221601,-2.1687553,-1.0609176,1.9174936,1.9148687,-0.947129,0.30598605,-1.0653106,-2.1051912,-1.1205395,1.980172,1.8829943,-0.9941467,-1.233355,-1.2260792,-1.3969067,1.2771412,-1.064724,0.27102357,0.31953153,-0.41584873,-0.4284916,0.6487762,-1.2103224,0.27724877,-0.7442817,-0.4202361,-0.4692173,0.61823386,0.97791284,0.009014183,0.15063359,0.14461899,-1.2614449,0.5138337,-0.8132825,0.0,1.0,0.0,0.0,0.0,0.0,0.0,-0.23415124,0.028491586,-0.09877616,3.282833,-5.4365635,0.7091999,0.08075237,-0.30989647,-1.0744989,0.8255482
3.5262456,53.44844,15.389445,6.809094,0.29179177,0.36763883,0.23442091,-0.66884166,-0.69316113,-0.7730084,0.7183343,-0.7277154,0.34613198,0.5172365,0.23910189,-1.1346267,-2.182492,-1.048706,1.9074005,1.9176075,-0.94242305,0.29384518,-1.0777961,-2.119103,-1.1077603,1.9695683,1.8856752,-0.9908834,-1.208061,-1.2565178,-1.3881427,1.2782451,-1.0600828,0.26634932,0.3283975,-0.42780066,-0.42568588,0.64109814,-1.1886625,0.282435,-0.77274996,-0.43271255,-0.4640274,0.609947,0.97888386,0.016437255,0.153152,0.13438971,-1.2359967,0.5313414,-0.8370346,0.0,1.0,0.0,0.0,0.0,0.0,0.0,-0.22219932,0.025685877,-0.09109813,2.42095,-3.1873941,1.2506962,0.16210079,0.08792877,-0.7110059,0.81712604
5.8043065,61.035976,17.936453,7.590956,0.22919303,0.44864747,0.24838237,-0.64852875,-0.6886656,-0.77185225,0.714963,-0.7276439,0.3703886,0.5431127,0.2289923,-1.1466627,-2.196288,-1.0362641,1.8968039,1.922714,-0.93657213,0.28197944,-1.0904151,-2.1329231,-1.0949829,1.9590157,1.8883429,-0.9875219,-1.1798594,-1.2641693,-1.3785393,1.2775397,-1.0549604,0.2662286,0.33834875,-0.43949604,-0.4228344,0.63322526,-1.1615139,0.2867037,-0.7891804,-0.44487238,-0.45866013,0.60151464,0.97966135,0.024009084,0.15551491,0.12450829,-1.2019699,0.5485143,-0.8484566,0.0,1.0,0.0,0.0,0.0,0.0,0.0,-0.21050394,0.02283439,-0.08322525,2.6803732,-0.91946125,1.39184,-0.084757805,0.07574558,-0.26136637,0.88819265
