Afshin1997/kuka_rl_ros2/src/catch_and_throw/input_files/idealpd/recorded_trajectories/env_414_data.csv
torque0,torque1,torque2,torque3,torque4,torque5,torque6,action0,action1,action2,action3,action4,action5,action6,set_target_0,set_target_1,set_target_2,set_target_3,set_target_4,set_target_5,set_target_6,joint_pos_0,joint_pos_1,joint_pos_2,joint_pos_3,joint_pos_4,joint_pos_5,joint_pos_6,joint_vel_0,joint_vel_1,joint_vel_2,joint_vel_3,joint_vel_4,joint_vel_5,joint_vel_6,tennisball_pos_0,tennisball_pos_1,tennisball_pos_2,tennisball_lin_vel_0,tennisball_lin_vel_1,tennisball_lin_vel_2,end_effector_pos_0,end_effector_pos_1,end_effector_pos_2,end_effector_rot_0,end_effector_rot_1,end_effector_rot_2,end_effector_rot_3,end_effector_lin_vel_0,end_effector_lin_vel_1,end_effector_lin_vel_2,obs_task_0,obs_task_1,obs_task_2,obs_task_3,obs_task_4,obs_task_5,obs_task_6,to_final_target_0,to_final_target_1,to_final_target_2,joint_acc_0,joint_acc_1,joint_acc_2,joint_acc_3,joint_acc_4,joint_acc_5,joint_acc_6
0.0,0.0,0.0,0.0,0.0,0.0,0.0,0.0,0.0,0.0,0.0,0.0,0.0,0.0,1.7802359,-1.0646509,-1.8151424,-1.1170107,1.9373155,1.1170107,-0.91629785,1.7802359,-1.0646509,-1.8151424,-1.1170107,1.9373155,1.1170107,-0.91629785,0.0,0.0,0.0,0.0,0.0,0.0,0.0,3.2998543,-0.57684326,0.068348914,-3.8521338,0.16009001,5.6073318,0.5304184,-0.45449448,0.693097,0.5745483,0.17512383,0.15255436,0.7848268,0.0,0.0,0.0,1.0,0.0,0.0,0.0,0.0,0.0,0.0,-3.9498544,0.17684326,0.4816511,0.0,0.0,0.0,0.0,0.0,0.0,0.0
0.0,0.0,0.0,0.0,0.0,0.0,0.0,0.0,0.0,0.0,0.0,0.0,0.0,0.0,1.7802359,-1.0646509,-1.8151424,-1.1170107,1.9373155,1.1170107,-0.91629785,1.7802359,-1.0646509,-1.8151424,-1.1170107,1.9373155,1.1170107,-0.91629785,0.0,0.0,0.0,0.0,0.0,0.0,0.0,3.2998543,-0.57684326,0.068348914,-3.8521338,0.16009001,5.6073318,0.5304184,-0.45449448,0.693097,0.5745483,0.17512383,0.15255436,0.7848268,0.0,0.0,0.0,1.0,0.0,0.0,0.0,0.0,0.0,0.0,-3.9498544,0.17684326,0.4816511,0.0,0.0,0.0,0.0,0.0,0.0,0.0
0.0,0.0,0.0,0.0,0.0,0.0,0.0,0.0,0.0,0.0,0.0,0.0,0.0,0.0,1.7802359,-1.0646509,-1.8151424,-1.1170107,1.9373155,1.1170107,-0.91629785,1.7802359,-1.0646509,-1.8151424,-1.1170107,1.9373155,1.1170107,-0.91629785,0.0,0.0,0.0,0.0,0.0,0.0,0.0,3.2998543,-0.57684326,0.068348914,-3.8521338,0.16009001,5.6073318,0.5304184,-0.45449448,0.693097,0.5745483,0.17512383,0.15255436,0.7848268,0.0,0.0,0.0,1.0,0.0,0.0,0.0,0.0,0.0,0.0,-3.9498544,0.17684326,0.4816511,0.0,0.0,0.0,0.0,0.0,0.0,0.0
-176.0,53.335106,-12.715178,110.0,11.21238,4.203722,-3.7791,-0.81449974,0.28232378,-0.57368684,0.74328923,0.29671785,0.6362741,-0.58086216,1.6987859,-1.0364186,-1.872511,-1.0426818,1.9669873,1.1806381,-0.97438407,1.7791106,-1.0628275,-1.8211219,-1.1116263,1.9413457,1.1221758,-0.9174337,-0.14970304,0.24255371,-0.79692584,0.71816015,0.53654075,0.6871515,-0.15089075,3.2613602,-0.5752411,0.12364372,-3.8482823,0.15992996,5.5035396,0.52838135,-0.45783997,0.69371396,0.5783676,0.1736333,0.1513502,0.7825825,-0.27145347,-0.44638327,0.08202723,1.0,0.0,0.0,0.0,0.0,0.0,0.0,-3.9113603,0.17524108,0.4263563,-14.870602,24.075136,-79.60655,71.94446,53.473568,68.24428,-14.934717
-176.0,-32.898132,-46.239006,110.0,12.877945,1.4228463,-3.096131,-0.8137026,-0.17408632,-0.5546842,0.7060697,0.39531514,0.6301046,-0.563305,1.6977403,-1.0802361,-1.8765904,-1.0410193,1.9808772,1.1851863,-0.9737642,1.7778746,-1.0607313,-1.8361557,-1.0966059,1.9498963,1.1353956,-0.9176473,-0.11782226,0.18712516,-1.7104231,1.763858,0.9469393,1.4998614,0.014853154,3.222908,-0.57364273,0.17790139,-3.8444347,0.15977006,5.399851,0.52378845,-0.46645737,0.69430107,0.5867294,0.17009453,0.14797078,0.77776676,-0.5228797,-0.9976291,0.054307908,1.0,0.0,0.0,0.0,0.0,0.0,0.0,-3.872908,0.17364272,0.37209862,2.3312302,-8.9868965,-82.84216,104.73702,36.735905,71.189644,14.4819145
-158.6162,114.809944,29.704382,91.53782,8.368892,7.820527,-1.8788418,-0.76557416,0.30401874,-0.014697371,0.6388751,0.41548896,0.6794321,-0.51603836,1.7013172,-1.0303295,-1.8376254,-1.0327184,1.9914452,1.2033389,-0.96925116,1.7734038,-1.0579618,-1.8516662,-1.0773684,1.9596906,1.1502615,-0.9177789,-0.5567744,0.3037165,-1.4918233,1.9782186,0.9855036,1.475381,-0.023910074,3.184494,-0.5720482,0.23112294,-3.840591,0.15961032,5.2962656,0.5162926,-0.47795105,0.6964294,0.5979622,0.16506529,0.1433691,0.77112895,-0.8314107,-1.1927384,0.26960903,1.0,0.0,0.0,0.0,0.0,0.0,0.0,-3.834494,0.17204818,0.31887707,-43.877155,10.703391,23.693394,21.7952,2.387941,-4.431391,-4.278727
-103.705536,104.76722,37.332443,55.15616,5.2101803,7.532277,-0.3044984,-0.7709642,0.0814349,0.090444125,0.63465714,0.44697556,0.6394579,-0.55658305,1.6963073,-1.0498183,-1.8426218,-1.0139027,2.004388,1.2142073,-0.9734372,1.7645327,-1.0551256,-1.8621032,-1.0585467,1.9690061,1.1640478,-0.9184274,-0.99828374,0.27477017,-0.88706195,1.8505744,0.9079626,1.34284,-0.08005243,3.1461182,-0.57045364,0.28330943,-3.836751,0.15945074,5.1927843,0.5062332,-0.49024582,0.70032316,0.61012554,0.15892237,0.13765845,0.7638983,-1.0761569,-1.2293283,0.43387517,1.0,0.0,0.0,0.0,0.0,0.0,0.0,-3.7961183,0.17045364,0.26669058,-44.43909,-3.53868,62.665867,-12.61518,-9.435344,-14.365077,-6.085783
-47.704098,125.47023,48.332886,30.60934,2.163217,6.963316,0.34507507,-0.78543895,0.21915114,0.07576833,0.6447949,0.524485,0.6629295,-0.54997563,1.6859888,-1.0332105,-1.8545264,-0.9940672,2.0214546,1.2303408,-0.973425,1.7520224,-1.0521024,-1.8664539,-1.0420767,1.9775395,1.1763846,-0.9196481,-1.3366578,0.30991596,-0.27800992,1.5786725,0.8309266,1.1956886,-0.13804814,3.1077805,-0.5688591,0.33446187,-3.8329148,0.15929131,5.089406,0.494339,-0.5019798,0.7057768,0.622057,0.15183236,0.13109292,0.75683993,-1.2403009,-1.1414253,0.5850429,1.0,0.0,0.0,0.0,0.0,0.0,0.0,-3.7577806,0.1688591,0.21553814,-34.230328,3.0272782,62.7775,-27.340721,-8.950102,-15.217733,-6.41586
-11.261676,117.5,42.57526,14.598031,0.04038489,4.774583,0.32227877,-0.80118537,0.29721797,-0.036243275,0.6456657,0.5235758,0.6439913,-0.5673867,1.6719038,-1.0223806,-1.8700782,-0.97751015,2.0298972,1.2407837,-0.9763868,1.7372137,-1.0483698,-1.8666084,-1.0282141,1.9854321,1.1873709,-0.9214019,-1.5301201,0.39323103,0.07595903,1.321269,0.7732651,1.0662643,-0.18962204,3.069481,-0.56726456,0.3845813,-3.8290825,0.15913205,4.9861317,0.48143768,-0.51257324,0.7123004,0.63342863,0.14419249,0.12439519,0.7500016,-1.3192024,-1.018703,0.6747736,1.0,0.0,0.0,0.0,0.0,0.0,0.0,-3.719481,0.16726455,0.16541871,-19.665766,8.013946,36.52435,-25.951815,-6.3778043,-12.994838,-5.6793303
8.996139,124.17869,40.14329,9.804489,-1.3442733,3.3618283,-0.08861415,-0.8164531,0.4614907,-0.15749162,0.6470328,0.5007778,0.64237225,-0.5570165,1.6555684,-1.0022207,-1.8823576,-0.9635108,2.0355098,1.2516081,-0.9771036,1.7213541,-1.0430807,-1.8654106,-1.0163027,1.9928632,1.1972243,-0.923603,-1.6054342,0.5733339,0.13661851,1.1470542,0.7323533,0.958518,-0.23189992,3.0312195,-0.56567764,0.43366876,-3.825254,0.15897295,4.8829603,0.46816254,-0.5218544,0.7195766,0.6444384,0.1363182,0.118508205,0.7430157,-1.3411808,-0.88442165,0.74402946,1.0,0.0,0.0,0.0,0.0,0.0,0.0,-3.6812196,0.16567764,0.11633125,-7.819748,17.758053,6.7455873,-17.631508,-4.3061733,-10.673475,-4.72126
19.210938,120.92446,36.416676,8.090061,-1.7950852,2.3285646,-0.32452324,-0.8197779,0.545349,-0.19677313,0.6355139,0.5136309,0.6351912,-0.5540972,1.6393763,-0.9885458,-1.8850878,-0.95275134,2.0442262,1.2607434,-0.9790127,1.7053305,-1.0357813,-1.8649032,-1.0055033,2.0000653,1.2061354,-0.9261655,-1.6020734,0.7815687,0.023739152,1.0567952,0.7161244,0.8689084,-0.26587915,2.9929962,-0.5640907,0.4817253,-3.8214293,0.15881401,4.779892,0.4548874,-0.5298729,0.727425,0.655328,0.12841082,0.11396044,0.7355738,-1.3300402,-0.76053375,0.797341,1.0,0.0,0.0,0.0,0.0,0.0,0.0,-3.6429963,0.16409072,0.06827471,0.078606606,20.626963,-10.8208475,-9.246159,-1.6822219,-8.865714,-3.8362622
23.873081,114.62221,34.0875,7.220933,-1.6789589,1.8584223,-0.30390912,-0.824562,0.60407335,-0.18198279,0.5947536,0.5585056,0.62278575,-0.55863416,1.6228743,-0.9753739,-1.8831015,-0.94602793,2.0559158,1.268414,-0.98202896,1.6895949,-1.0265306,-1.865813,-0.99528754,2.00734,1.214255,-0.9290227,-1.5647188,0.97237176,-0.12770589,1.0089636,0.7311062,0.7932064,-0.29369703,2.954811,-0.5625038,0.5287519,-3.8176088,0.15865524,4.6769266,0.44181442,-0.536747,0.73574704,0.66616416,0.12056016,0.11072373,0.7276199,-1.3066243,-0.6490053,0.8429041,1.0,0.0,0.0,0.0,0.0,0.0,0.0,-3.6048112,0.16250381,0.021248102,3.4982204,18.918598,-14.727372,-5.0420523,1.4673352,-7.5469494,-3.1860888
24.088266,104.77376,31.820034,7.294125,-1.245163,1.6959231,-0.18277441,-0.8210364,0.6371617,-0.15351015,0.57530016,0.57035315,0.6332838,-0.5636084,1.6074913,-0.96281445,-1.8811641,-0.9377575,2.0643752,1.2775834,-0.98538357,1.674296,-1.0157427,-1.8679225,-0.9853512,2.014851,1.2217203,-0.9321222,-1.5191884,1.113752,-0.23709896,0.9876982,0.7572473,0.73107064,-0.3167079,2.9166641,-0.5609169,0.57474965,-3.8137922,0.15849662,4.5740643,0.4289589,-0.54262924,0.7444785,0.6768993,0.11274577,0.10846167,0.7192578,-1.2843031,-0.55223125,0.8827913,1.0,0.0,0.0,0.0,0.0,0.0,0.0,-3.5666642,0.1609169,-0.024749637,4.339123,14.003086,-10.515407,-2.404523,2.58013,-6.2582254,-2.6822865
22.676546,96.33392,30.206583,7.70789,-0.7920799,1.6982615,-0.04291876,-0.8126155,0.6691469,-0.13070954,0.5611793,0.58364725,0.6437743,-0.56855446,1.5930345,-0.948828,-1.8809935,-0.92923325,2.0732157,1.2860978,-0.9889776,1.6594168,-1.0039037,-1.8706443,-0.9755398,2.0226445,1.2286555,-0.93542475,-1.4783578,1.2069917,-0.28224596,0.9780442,0.78653,0.68061775,-0.3359919,2.8785553,-0.55933,0.6197195,-3.8099794,0.15833814,4.471305,0.4162712,-0.5476265,0.75358033,0.6874505,0.10488781,0.10677578,0.7106401,-1.2679491,-0.46652842,0.9192381,1.0,0.0,0.0,0.0,0.0,0.0,0.0,-3.5285554,0.15932998,-0.06971949,3.8811445,9.205794,-4.0530624,-1.242125,2.8768182,-5.1348805,-2.3005545
19.148172,90.19708,29.078535,9.163798,-0.3133579,1.8149042,0.059252955,-0.80943894,0.69219077,-0.09254387,0.5600394,0.59127396,0.644712,-0.56814,1.5784729,-0.9346847,-1.8798987,-0.9195359,2.0817719,1.2931267,-0.99223876,1.6448447,-0.9914268,-1.8733203,-0.96575606,2.0307012,1.2351519,-0.93889326,-1.4507595,1.2608954,-0.2610769,0.9776955,0.812062,0.6390254,-0.35178548,2.8404846,-0.5577507,0.66366255,-3.8061705,0.15817983,4.3686485,0.40366364,-0.5518265,0.7630464,0.69774896,0.09688251,0.10531188,0.70190424,-1.2618649,-0.390275,0.9556,1.0,0.0,0.0,0.0,0.0,0.0,0.0,-3.4904847,0.1577507,-0.11366254,2.5650978,5.2793026,2.6248515,-0.28760433,2.4824739,-4.28797,-1.9453168
15.640463,82.26675,26.424156,9.502821,-0.070602655,1.7135725,0.108219944,-0.8060569,0.7047612,-0.08454465,0.54947746,0.58907974,0.6544967,-0.56437516,1.5642389,-0.9209507,-1.8817748,-0.9108083,2.0896091,1.3006016,-0.99533075,1.6304556,-0.97862756,-1.8755882,-0.9559914,2.0389485,1.2412974,-0.94249624,-1.4356244,1.2860216,-0.21349478,0.97525066,0.82886314,0.6060013,-0.36422715,2.802452,-0.5561714,0.7065798,-3.8023653,0.15802169,4.266094,0.39107513,-0.5553436,0.7727987,0.70775634,0.088697955,0.10387529,0.6931259,-1.2606416,-0.32288307,0.9815738,1.0,0.0,0.0,0.0,0.0,0.0,0.0,-3.4524522,0.15617141,-0.15657979,1.329875,2.4164915,5.2645087,-0.48390627,1.6141772,-3.414154,-1.5958905
12.361446,76.68899,24.069653,9.811195,0.07180041,1.5888196,0.12079805,-0.8080864,0.71889067,-0.07589491,0.5365863,0.60349876,0.6577114,-0.56579816,1.549647,-0.9067385,-1.8831776,-0.9023328,2.0992985,1.3070685,-0.99907607,1.6161276,-0.9656776,-1.8773506,-0.94630396,2.0473523,1.2471625,-0.9462051,-1.4324411,1.2977737,-0.16227865,0.96579504,0.84412944,0.5796564,-0.37430176,2.7644577,-0.55459213,0.74847233,-3.7985635,0.15786369,4.163643,0.3784752,-0.55822754,0.78274125,0.7174599,0.08035847,0.102389686,0.68433183,-1.2625272,-0.26239312,0.9978384,1.0,0.0,0.0,0.0,0.0,0.0,0.0,-3.4144578,0.15459213,-0.19847232,0.1411438,1.0915041,5.611187,-1.1771679,1.4676213,-2.7243137,-1.3391554
11.723629,73.06155,22.546005,9.23572,0.061653197,1.455476,0.15153879,-0.80701137,0.725221,-0.05184619,0.5184414,0.61284,0.6561123,-0.56018466,1.5354265,-0.8931555,-1.8825352,-0.89445984,2.1086364,1.3127737,-1.0022235,1.6017882,-0.9526638,-1.878598,-0.93679106,2.0558972,1.2528006,-0.9499969,-1.434968,1.3023181,-0.11044214,0.9456668,0.85786295,0.5584392,-0.3818259,2.7265015,-0.55301285,0.7893411,-3.7947655,0.15770586,4.0612936,0.36585236,-0.56053543,0.7927878,0.7268391,0.07190122,0.100834705,0.6755497,-1.2628083,-0.20397496,1.006017,1.0,0.0,0.0,0.0,0.0,0.0,0.0,-3.3765016,0.15301284,-0.23934108,-0.42722225,0.38237572,5.661182,-2.2444487,1.3218522,-2.1739006,-1.0719657
14.762572,72.267624,22.456734,7.391216,-0.114076495,1.3672118,0.2397136,-0.8039687,0.7299221,-0.0060755583,0.4814571,0.6276057,0.65954095,-0.5598745,1.5213913,-0.8796716,-1.8792056,-0.88864535,2.1186578,1.3187547,-1.0059843,1.587422,-0.9396213,-1.8792446,-0.9276329,2.064591,1.2582613,-0.9538526,-1.4377708,1.3046423,-0.047607753,0.90507174,0.8731531,0.5420556,-0.38787055,2.6885834,-0.55143356,0.8291871,-3.7909713,0.15754819,3.9590473,0.35328674,-0.5622177,0.8028819,0.7358221,0.06334472,0.09918986,0.6668692,-1.2559503,-0.14040843,1.0092546,1.0,0.0,0.0,0.0,0.0,0.0,0.0,-3.3385835,0.15143356,-0.27918708,-0.45893192,0.17178059,6.769583,-4.2967916,1.4809012,-1.6338706,-0.9254992
16.110008,71.46577,21.776802,6.646273,-0.25998962,1.217792,0.24093944,-0.7993642,0.7396003,0.00020804413,0.4647135,0.62999153,0.66277224,-0.5536356,1.5074856,-0.8656613,-1.8792237,-0.8811616,2.1275902,1.3245386,-1.0092162,1.573052,-0.9265264,-1.8793685,-0.91891253,2.0734181,1.2635866,-0.9577541,-1.4372157,1.3108838,0.00078333676,0.86015606,0.88564146,0.529575,-0.39202195,2.6507034,-0.5498619,0.8680115,-3.787181,0.15739067,3.8569033,0.34082794,-0.5632591,0.812979,0.7443868,0.054712158,0.09750182,0.6583222,-1.2429401,-0.076413505,1.0079564,1.0,0.0,0.0,0.0,0.0,0.0,0.0,-3.3007035,0.1498619,-0.31801146,-0.11525154,0.57382584,5.291041,-4.725516,1.2209296,-1.2032151,-0.7223427
18.347195,70.30872,21.173157,4.9636383,-0.46849418,1.0473518,0.28982586,-0.80124944,0.7455026,0.023658156,0.41386315,0.6419367,0.6597899,-0.5456216,1.4929271,-0.85197616,-1.8770027,-0.8775262,2.1376119,1.3295656,-1.0123162,1.5586859,-0.91334856,-1.8790576,-0.9107882,2.082375,1.268807,-0.9616851,-1.4369031,1.3199484,0.042599823,0.7958306,0.89889044,0.51987094,-0.39439568,2.6128616,-0.54829025,0.9058151,-3.7833943,0.15723331,3.7548614,0.32855225,-0.5636406,0.8230146,0.7524998,0.046056233,0.09582648,0.6499539,-1.2214546,-0.010320026,1.0000013,1.0,0.0,0.0,0.0,0.0,0.0,0.0,-3.2628617,0.14829025,-0.3558151,-0.13940334,0.8696079,4.61372,-6.671226,1.3122439,-0.86631775,-0.5332053
19.19669,68.12154,19.995659,3.9516025,-0.61629623,0.8340646,0.293237,-0.8003093,0.7518679,0.026311902,0.373929,0.6464936,0.66159236,-0.535539,1.478655,-0.83816177,-1.8764265,-0.87339526,2.1470244,1.3349663,-1.015239,1.5443293,-0.9000629,-1.8784549,-0.9033781,2.0914502,1.2739474,-0.96562666,-1.4357911,1.3313061,0.0673338,0.7218601,0.91045624,0.5127235,-0.39495116,2.575058,-0.5467186,0.9425991,-3.7796116,0.15707612,3.6529214,0.3165474,-0.56336975,0.8329212,0.76015174,0.037440553,0.09423287,0.6417848,-1.1930461,0.053497385,0.98497856,1.0,0.0,0.0,0.0,0.0,0.0,0.0,-3.225058,0.14671859,-0.3925991,-0.05173683,1.1139154,2.860748,-7.6367617,1.1675477,-0.5626321,-0.3304839
20.970018,66.51138,19.259884,2.6792035,-0.7706884,0.6383078,0.31941,-0.7961616,0.7587459,0.035467587,0.3230641,0.6574585,0.6629197,-0.5267863,1.4647131,-0.82418835,-1.8749082,-0.8710717,2.157196,1.3402393,-1.0183053,1.5300032,-0.88665235,-1.8776805,-0.89679015,2.1006474,1.2790323,-0.9695634,-1.4321351,1.3442116,0.08218297,0.63696164,0.9229994,0.5076465,-0.39409378,2.5372887,-0.54514694,0.97836447,-3.7758327,0.15691908,3.5510836,0.3048668,-0.5624771,0.8426378,0.7673328,0.02892405,0.092772275,0.6338431,-1.1569091,0.11600379,0.96447164,1.0,0.0,0.0,0.0,0.0,0.0,0.0,-3.1872888,0.14514694,-0.42836446,0.21119118,1.284051,1.8336535,-8.729803,1.2877464,-0.30881166,-0.17261505
20.806992,65.335945,18.68178,2.713902,-0.77930045,0.5284276,0.3181156,-0.79767543,0.7639992,0.050874796,0.28157753,0.6588577,0.66541535,-0.5189391,1.4502356,-0.8102524,-1.872593,-0.8686324,2.1665332,1.3455739,-1.0214573,1.5157038,-0.87311685,-1.8767612,-0.8910576,2.1099515,1.2840773,-0.973484,-1.429661,1.3567514,0.09606244,0.5512317,0.9330079,0.50412506,-0.3921591,2.4995575,-0.5435791,1.0131122,-3.7720575,0.15676218,3.4493475,0.29356766,-0.5609665,0.8521397,0.7740504,0.020529479,0.09146325,0.626146,-1.1184386,0.17529638,0.9424108,1.0,0.0,0.0,0.0,0.0,0.0,0.0,-3.1495576,0.1435791,-0.46311218,0.102710724,1.2598515,1.6980336,-8.80363,1.0560513,-0.13507605,-0.045681
25.804905,63.26215,18.355198,-1.1091442,-1.1578623,0.28156698,0.45235538,-0.7983134,0.7686865,0.07730578,0.16558164,0.6706572,0.6639286,-0.522241,1.4358724,-0.7962482,-1.8690306,-0.87449944,2.1770172,1.3504702,-1.0257081,1.5014178,-0.859465,-1.8756263,-0.8865105,2.1193662,1.2890955,-0.97738737,-1.428634,1.3680505,0.12033241,0.42172346,0.94438523,0.50219494,-0.39052138,2.4618645,-0.5420151,1.0468433,-3.7682862,0.15660545,3.347713,0.28276443,-0.5588379,0.861342,0.7802271,0.012343224,0.09032556,0.61881703,-1.064062,0.23833877,0.90961313,1.0,0.0,0.0,0.0,0.0,0.0,0.0,-3.1118646,0.14201507,-0.49684328,-0.040102005,1.1560678,2.7248993,-13.18717,1.1996746,0.12032986,-0.06070733
26.20982,63.00911,18.30832,-0.85074615,-1.1298659,0.19439715,0.4582234,-0.79313624,0.77456826,0.0958625,0.12658468,0.6745452,0.659083,-0.50814563,1.4221041,-0.7820082,-1.8660401,-0.873852,2.1868207,1.3550038,-1.0282019,1.4871603,-0.84570444,-1.8742015,-0.8832165,2.1288838,1.2940966,-0.981265,-1.425094,1.3787985,0.15052329,0.2980081,0.95466983,0.50045055,-0.38753983,2.4242096,-0.54045105,1.0795588,-3.7645187,0.15644889,3.2461803,0.27251434,-0.55609894,0.87023073,0.7858467,0.004379877,0.08934939,0.6119171,-1.0076356,0.2979243,0.8784728,1.0,0.0,0.0,0.0,0.0,0.0,0.0,-3.0742097,0.14045104,-0.52955884,0.23224354,1.115632,3.2566457,-12.585979,1.1249423,0.14926195,0.09624958
27.982872,59.513428,17.2662,-3.042614,-1.3135049,-0.052559048,0.5256094,-0.79883564,0.7746268,0.11580762,0.016915526,0.67878985,0.6559694,-0.5076951,1.4072767,-0.76824176,-1.8626208,-0.8815249,2.1967628,1.3596935,-1.0320345,1.4729086,-0.8318666,-1.872443,-0.8813616,2.138493,1.2990824,-0.9851131,-1.4254328,1.3857005,0.18516229,0.14733611,0.96375465,0.4993807,-0.38452235,2.3865929,-0.538887,1.1112598,-3.760755,0.15629247,3.144749,0.2628975,-0.5527725,0.87873924,0.790885,-0.0032872576,0.08854373,0.6055164,-0.9419297,0.35439184,0.8380258,1.0,0.0,0.0,0.0,0.0,0.0,0.0,-3.036593,0.13888702,-0.5612598,-0.14073849,0.75006485,3.654182,-15.272581,1.0252595,0.2773702,0.12944937
32.57792,58.138783,17.320993,-6.405794,-1.6364812,-0.27450392,0.6593481,-0.7989907,0.7784847,0.16110331,-0.1148817,0.6854762,0.64997715,-0.4956042,1.3930095,-0.7540181,-1.8563327,-0.8928498,2.2070408,1.3640801,-1.0346735,1.4586474,-0.8179687,-1.8702037,-0.88130057,2.1481938,1.3040587,-0.98892397,-1.426632,1.3914077,0.23743707,-0.041593596,0.97285867,0.4987079,-0.38039812,2.3490143,-0.537323,1.1419473,-3.7569952,0.1561362,3.0434191,0.2540474,-0.54886246,0.886786,0.79525995,-0.010566291,0.08791052,0.59976804,-0.8616175,0.41274315,0.7896483,1.0,0.0,0.0,0.0,0.0,0.0,0.0,-2.9990144,0.13732299,-0.59194726,-0.20325184,0.6505966,5.3652077,-19.073483,1.0503411,0.3918171,0.27333498
30.233082,60.302223,18.114332,-3.4938412,-1.3506513,-0.16874331,0.61221856,-0.79809713,0.7829876,0.2115383,-0.14504309,0.6790671,0.64819825,-0.46953323,1.3788377,-0.73967,-1.8490499,-0.8958049,2.2161005,1.3688785,-1.0358773,1.4443785,-0.80401266,-1.8672969,-0.88289034,2.1579518,1.3090273,-0.9926757,-1.4272017,1.3973505,0.30859107,-0.19859162,0.97749823,0.4976802,-0.37389463,2.3114738,-0.5357628,1.1716222,-3.7532392,0.1559801,2.9421904,0.24592209,-0.5443802,0.8944389,0.7989943,-0.017527651,0.087400325,0.5946948,-0.78968877,0.46762064,0.7529316,1.0,0.0,0.0,0.0,0.0,0.0,0.0,-2.961474,0.13576278,-0.62162215,-0.11353493,0.6867647,7.157463,-15.839895,0.6708622,0.31611323,0.5390346
22.58173,59.89894,17.489141,2.6224513,-0.68123853,-0.03977774,0.42688167,-0.79449415,0.7804923,0.22807959,-0.12957983,0.68452686,0.6483655,-0.42786163,1.3649291,-0.7259634,-1.844489,-0.89584833,2.2264044,1.3738638,-1.0354619,1.430123,-0.7900232,-1.8637321,-0.8855063,2.1677594,1.3139826,-0.9963359,-1.4250362,1.3997136,0.37232852,-0.28301966,0.9823735,0.49588302,-0.36369687,2.2739677,-0.5342064,1.2002856,-3.7494867,0.15582415,2.8410633,0.2383461,-0.53944397,0.9018401,0.80223894,-0.024323914,0.08693377,0.59013855,-0.7400554,0.5096481,0.7312341,1.0,0.0,0.0,0.0,0.0,0.0,0.0,-2.9239678,0.13420638,-0.65028554,0.1746893,0.3370285,6.3232303,-8.571732,0.75654984,0.14634728,0.921607
13.607677,58.123093,16.0075,8.538984,-0.07913065,0.060194325,0.20562662,-0.8040521,0.7827991,0.2309868,-0.12527516,0.6799528,0.65504116,-0.41893235,1.3497177,-0.7117433,-1.8406334,-0.8980338,2.2357547,1.3794867,-1.0382291,1.4158465,-0.7760147,-1.8596923,-0.8885132,2.17759,1.3189207,-0.9998931,-1.4287157,1.4014918,0.41420013,-0.30709943,0.9840492,0.4939419,-0.35344252,2.2364998,-0.53265,1.2279384,-3.7457378,0.15566836,2.7400372,0.23109818,-0.53417206,0.909105,0.8051863,-0.03107873,0.08648935,0.5858573,-0.712952,0.5389646,0.71998745,1.0,0.0,0.0,0.0,0.0,0.0,0.0,-2.8865,0.13264999,-0.6779384,-0.42378902,0.27945042,4.1053476,-2.5494516,0.46031475,0.03977418,0.9322405
10.262464,57.183826,15.524248,11.384325,0.21126336,0.09650408,0.10990517,-0.79717124,0.78069067,0.2547582,-0.12298095,0.678573,0.6573215,-0.39301145,1.3361293,-0.6979456,-1.8342165,-0.9008113,2.2454472,1.3846529,-1.0391942,1.4015623,-0.7620081,-1.8552978,-0.891482,2.1874242,1.3238417,-1.0033379,-1.4285488,1.4008105,0.44765097,-0.29388162,0.9839442,0.49201873,-0.3419353,2.19907,-0.5310936,1.2545817,-3.7419927,0.15551272,2.6391118,0.2240448,-0.52864456,0.9163067,0.8079491,-0.037878983,0.08604797,0.58170366,-0.69594395,0.56291306,0.71533734,1.0,0.0,0.0,0.0,0.0,0.0,0.0,-2.84907,0.13109359,-0.7045817,-0.037908554,0.036120415,3.2388508,1.1749685,0.2983451,0.0018239021,1.0546863
7.0378313,55.606316,14.693534,13.269036,0.38638783,0.09852352,0.033057988,-0.80561364,0.78168595,0.26538002,-0.11874696,0.67448515,0.6630576,-0.38399532,1.3210009,-0.6838395,-1.8287598,-0.9033567,2.2548728,1.3901474,-1.0417374,1.3872439,-0.74800813,-1.850642,-0.8941952,2.1972356,1.3287474,-1.0066738,-1.433049,1.4000535,0.47123054,-0.26440057,0.98150194,0.49058026,-0.33097976,2.1616783,-0.5295372,1.2802165,-3.7382514,0.15535724,2.5382874,0.21710205,-0.5229225,0.923478,0.81059885,-0.04476502,0.08562039,0.5775765,-0.68616205,0.5827885,0.71259046,1.0,0.0,0.0,0.0,0.0,0.0,0.0,-2.8116784,0.1295372,-0.73021644,-0.5170822,0.025558472,2.2631526,2.7944505,0.058448315,0.01758337,1.000011
9.563877,55.686054,15.119967,11.699842,0.19445127,0.029536856,0.1047585,-0.8058911,0.7820667,0.30260584,-0.14510697,0.6711235,0.65279174,-0.36413425,1.3066548,-0.6698015,-1.8203814,-0.9087059,2.264348,1.3940265,-1.0430872,1.3728815,-0.7340139,-1.8456676,-0.89674723,2.2070127,1.333634,-1.0098972,-1.4373924,1.3996001,0.50573057,-0.25258413,0.9775306,0.48860815,-0.31956214,2.1243248,-0.5279846,1.3048439,-3.734514,0.15520191,2.437564,0.21031189,-0.51696014,0.9306015,0.8131041,-0.051719803,0.08521352,0.57352024,-0.669081,0.6065515,0.70704097,1.0,0.0,0.0,0.0,0.0,0.0,0.0,-2.774325,0.12798461,-0.7548439,-0.49512386,0.055766106,3.3623755,1.042664,-0.10243654,-0.010222197,1.0519028
8.562967,55.682785,15.093428,12.754746,0.26346695,0.04613221,0.07671645,-0.8078285,0.7839278,0.3137793,-0.112465724,0.66583765,0.6605011,-0.33818543,1.2920986,-0.6556211,-1.8142897,-0.9079938,2.2735965,1.3996842,-1.0437157,1.3584753,-0.720013,-1.8403671,-0.8990952,2.2167401,1.3385073,-1.0129967,-1.4417726,1.4005473,0.53804576,-0.22928067,0.97213864,0.48746955,-0.307074,2.0870094,-0.52643585,1.3284647,-3.7307804,0.15504675,2.336941,0.2036705,-0.51075745,0.9376909,0.81546557,-0.058764353,0.08483551,0.5695309,-0.6549927,0.6300981,0.7042984,1.0,0.0,0.0,0.0,0.0,0.0,0.0,-2.7370095,0.12643585,-0.77846473,-0.5015135,0.19614697,3.1417727,2.1945448,-0.23930073,0.058197975,1.1603713
0.64948845,56.22439,14.838633,19.683998,0.9713234,0.3343292,-0.12237212,-0.81366354,0.7803524,0.32497734,0.017083084,0.6618551,0.6527113,-0.3073102,1.277109,-0.6419778,-1.8078693,-0.89738685,2.2829256,1.4037784,-1.0437276,1.34401,-0.7060188,-1.8347728,-0.90064585,2.2264104,1.3433596,-1.0159607,-1.4485087,1.3994445,0.5660792,-0.13082154,0.96644205,0.48472792,-0.293253,2.0497284,-0.5248871,1.3510802,-3.7270505,0.15489173,2.2364187,0.19695663,-0.5043602,0.94489104,0.81780183,-0.06607526,0.08442096,0.5654266,-0.6680056,0.64838433,0.7198435,1.0,0.0,0.0,0.0,0.0,0.0,0.0,-2.6997285,0.12488708,-0.80108017,-0.76158047,-0.010418892,2.7004719,9.693045,-0.23721457,-0.21089315,1.276964
-5.0720577,56.75796,14.519124,24.721485,1.4195536,0.54283434,-0.29919866,-0.8190898,0.7846754,0.3200717,0.11477601,0.65462327,0.654826,-0.32510185,1.262101,-0.62755126,-1.8027656,-0.88916826,2.2918727,1.4088422,-1.0484709,1.3294626,-0.69201696,-1.8290069,-0.900807,2.236012,1.3481833,-1.0188141,-1.4572927,1.4007398,0.579686,0.021493914,0.9593677,0.48146674,-0.283034,2.0124855,-0.5233383,1.3726912,-3.723324,0.15473686,2.135997,0.18997955,-0.4977951,0.9523413,0.82024705,-0.0738236,0.08393756,0.56098074,-0.7000504,0.66516125,0.7478121,1.0,0.0,0.0,0.0,0.0,0.0,0.0,-2.6624856,0.12333831,-0.82269114,-0.985384,0.22227764,1.2632966,15.073255,-0.36269426,-0.35369992,0.90649724
-6.8900137,53.801296,13.267247,25.65107,1.4902003,0.485951,-0.38084614,-0.8174607,0.7807812,0.29845127,0.1861484,0.6411889,0.65539193,-0.33565706,1.2477165,-0.6139388,-1.7991618,-0.8821922,2.3001308,1.4137225,-1.0523798,1.3148504,-0.6780189,-1.823283,-0.89932024,2.2455144,1.3529764,-1.0215874,-1.4629476,1.3997273,0.5696409,0.19051678,0.94830143,0.4781959,-0.27575362,1.9752808,-0.52178955,1.3932986,-3.7196014,0.15458216,2.0356758,0.1826477,-0.49108887,0.96005917,0.8228718,-0.082048774,0.08341456,0.5560502,-0.73594356,0.67910707,0.7740608,1.0,0.0,0.0,0.0,0.0,0.0,0.0,-2.6252809,0.121789545,-0.8432986,-0.668025,-0.019359589,-1.0878801,16.745138,-0.78451633,-0.38927794,0.6099701
-2.9649181,49.433174,11.812525,20.655613,0.97987425,0.13483566,-0.28964806,-0.8250663,0.781977,0.27472,0.17481825,0.6411748,0.6480788,-0.35871875,1.2323438,-0.5998212,-1.7958109,-0.88183844,2.3096318,1.4177843,-1.0574592,1.3001658,-0.6640285,-1.8178127,-0.89656126,2.2549176,1.3577372,-1.0243149,-1.4704546,1.3990735,0.53930396,0.30384693,0.93853885,0.47522524,-0.27217495,1.9381142,-0.5202446,1.4129037,-3.7158825,0.1544276,1.9354545,0.1750946,-0.48425293,0.9678972,0.82563764,-0.09057963,0.082948565,0.55066985,-0.75294673,0.6920325,0.7812753,1.0,0.0,0.0,0.0,0.0,0.0,0.0,-2.5881143,0.12024459,-0.86290365,-0.84979534,0.0043153763,-3.0627131,11.178836,-0.71635246,-0.29470325,0.2501905
2.5061088,46.669468,11.32251,15.576391,0.4774608,-0.17059264,-0.14919917,-0.818375,0.77751124,0.26547042,0.18941635,0.63539064,0.6535846,-0.34534726,1.2183282,-0.5862774,-1.7912656,-0.8776196,2.3184566,1.4230957,-1.0588496,1.2854563,-0.6500648,-1.8126762,-0.89303267,2.2642217,1.3624789,-1.0270042,-1.471322,1.3956989,0.5050097,0.36869225,0.9287791,0.474006,-0.26833165,1.9009819,-0.51870346,1.4315072,-3.7121675,0.15427321,1.8353335,0.16752625,-0.47727966,0.9756954,0.82844526,-0.0992358,0.0826126,0.5449825,-0.74978995,0.70551074,0.7735521,1.0,0.0,0.0,0.0,0.0,0.0,0.0,-2.550982,0.118703455,-0.8815072,-0.16679764,-0.2739668,-3.4237504,6.337881,-0.76305866,-0.04133582,0.2780497
7.190383,43.106136,10.219919,9.814554,-0.086422145,-0.5519767,-0.0110698715,-0.8305851,0.7796585,0.23656872,0.14958732,0.637798,0.6543232,-0.3544119,1.2023978,-0.572099,-1.7890193,-0.87807393,2.3280015,1.4279112,-1.0624454,1.2706991,-0.63612306,-1.8079498,-0.8893763,2.273457,1.3672167,-1.0296669,-1.4773417,1.3939039,0.46207413,0.36405686,0.92226297,0.47429502,-0.2659089,1.8638878,-0.5171623,1.4491103,-3.7084563,0.15411897,1.7353126,0.16015244,-0.47021103,0.9832729,0.8312032,-0.10778947,0.08249312,0.5391452,-0.7243206,0.71641624,0.7467179,1.0,0.0,0.0,0.0,0.0,0.0,0.0,-2.513888,0.11716232,-0.89911026,-0.68769455,-0.1188755,-4.2342005,-0.61590075,-0.48921108,0.20791888,0.14711022
10.571554,41.101963,9.761511,6.4088736,-0.4140147,-0.8105493,0.0827331,-0.8271434,0.7771183,0.2145344,0.13677278,0.63177246,0.6467445,-0.3386081,1.1879848,-0.55841124,-1.7864964,-0.875699,2.3366344,1.4318912,-1.0635277,1.2559057,-0.6222042,-1.8036659,-0.8860289,2.2826276,1.3719565,-1.0322971,-1.4802041,1.3914913,0.41713986,0.3245127,0.9158712,0.474682,-0.26236606,1.8268318,-0.5156212,1.4657139,-3.7047484,0.15396488,1.6353916,0.1531372,-0.46303177,0.99051225,0.83384764,-0.11608203,0.08264873,0.5332844,-0.6846287,0.7246031,0.7107028,1.0,0.0,0.0,0.0,0.0,0.0,0.0,-2.476832,0.11562118,-0.91571385,-0.35808086,-0.17683506,-4.4258413,-4.1030827,-0.5018234,0.2762854,0.2669394
12.639278,39.992275,9.527313,4.203554,-0.6287408,-0.9855724,0.15472436,-0.832097,0.77715325,0.19745518,0.10047503,0.62747514,0.65095973,-0.31697375,1.172696,-0.54448885,-1.7839204,-0.8759814,2.345375,1.4370525,-1.0639945,1.2410742,-0.6083034,-1.7998035,-0.8832804,2.2917333,1.3767058,-1.0348797,-1.4844306,1.3899071,0.37596172,0.25787508,0.9095385,0.47588465,-0.25696343,1.789814,-0.51408005,1.481319,-3.7010443,0.15381095,1.5355705,0.14659119,-0.4557953,0.9973494,0.836337,-0.124017246,0.08311051,0.52749664,-0.635545,0.73078555,0.6692619,1.0,0.0,0.0,0.0,0.0,0.0,0.0,-2.439814,0.11408004,-0.93131894,-0.48818588,-0.089883804,-4.043269,-6.806028,-0.51101446,0.39125085,0.46169758
10.685875,40.265884,9.57655,6.4925785,-0.39825633,-0.92647076,0.10906717,-0.83195376,0.77662313,0.17622288,0.1237342,0.6237525,0.6484576,-0.2758111,1.1578789,-0.53064114,-1.7821813,-0.87090695,2.3541086,1.4415516,-1.0624608,1.2262102,-0.59441507,-1.7963378,-0.88100684,2.3007817,1.3814627,-1.0373802,-1.4873035,1.388825,0.33677852,0.21659797,0.9037598,0.47636858,-0.24793655,1.7528305,-0.5125427,1.4959267,-3.697344,0.15365717,1.4358492,0.14047241,-0.44849396,1.0038311,0.8386874,-0.13164015,0.08385346,0.521769,-0.5946772,0.73592967,0.6357926,1.0,0.0,0.0,0.0,0.0,0.0,0.0,-2.4028306,0.11254272,-0.9459267,-0.35345554,-0.036144257,-3.866756,-4.2694387,-0.4335761,0.27425885,0.82305074
9.272053,41.16306,10.0054655,8.583445,-0.18349719,-0.82733333,0.09125163,-0.83449006,0.7750578,0.17224585,0.124024615,0.62269324,0.6540437,-0.23376846,1.1427612,-0.5169093,-1.7791133,-0.86860436,2.363051,1.4468671,-1.060757,1.2113158,-0.5805391,-1.7931736,-0.8789879,2.3097844,1.3862253,-1.0397625,-1.4904985,1.3874052,0.30980465,0.19648232,0.8995611,0.47687876,-0.2354505,1.7158852,-0.5110092,1.5095379,-3.6936476,0.15350354,1.3362275,0.13470459,-0.44112015,1.0100368,0.8409106,-0.13904642,0.0848227,0.51608175,-0.5614894,0.7427643,0.610235,1.0,0.0,0.0,0.0,0.0,0.0,0.0,-2.3658853,0.11100921,-0.9595379,-0.39291382,-0.069093704,-2.6524246,-2.1516533,-0.25731325,0.2363205,1.1633039
7.010154,41.31915,10.157225,11.375688,0.120637596,-0.7076425,0.04627602,-0.83466226,0.7706171,0.1635585,0.14737663,0.62237716,0.6521943,-0.18929367,1.1278496,-0.5034774,-1.7768177,-0.86425024,2.3720222,1.4514447,-1.0586919,1.1963965,-0.5666956,-1.7902172,-0.87693655,2.3187566,1.390988,-1.041996,-1.4927617,1.3836367,0.29119298,0.2075385,0.89707536,0.47661486,-0.21977131,1.678978,-0.5094757,1.5221537,-3.6899545,0.15335007,1.2367055,0.12918472,-0.43367386,1.0160527,0.8430234,-0.1463507,0.08594715,0.5103978,-0.5393741,0.7505829,0.5936208,1.0,0.0,0.0,0.0,0.0,0.0,0.0,-2.328978,0.1094757,-0.9721537,-0.30932426,-0.30446053,-1.8262208,0.96085966,-0.06284714,0.11025667,1.4737636
4.2392325,41.555065,10.013395,14.458453,0.3840021,-0.59623873,-0.041265525,-0.83413994,0.7735269,0.13255104,0.18870118,0.61554563,0.6493374,-0.14702393,1.1129825,-0.48934287,-1.776962,-0.85806644,2.3803113,1.4559218,-1.0566984,1.1814638,-0.552873,-1.7875125,-0.8745142,2.3276944,1.395743,-1.0440559,-1.4938037,1.3820863,0.2637117,0.25322688,0.89336133,0.47543475,-0.20161103,1.6421051,-0.5079422,1.5337751,-3.6862652,0.15319675,1.1372831,0.123802185,-0.42613602,1.0219676,0.8450691,-0.15366568,0.087202065,0.5046195,-0.5282777,0.7598341,0.58567536,1.0,0.0,0.0,0.0,0.0,0.0,0.0,-2.2921052,0.107942194,-0.9837751,-0.2045393,-0.08602142,-2.7173698,4.4133186,-0.16384125,-0.036525726,1.7138302
1.6293039,39.78663,9.21195,16.67047,0.6070134,-0.559152,-0.11364634,-0.8334518,0.77011365,0.09697516,0.23285846,0.6099016,0.64976746,-0.0784563,1.0981187,-0.47586164,-1.777815,-0.85122836,2.3886845,1.4607197,-1.0519016,1.1665293,-0.5390724,-1.7851951,-0.87143767,2.3365827,1.4004847,-1.0458984,-1.4936665,1.3794901,0.22125125,0.32523942,0.8883716,0.4738871,-0.17874435,1.6052704,-0.5064087,1.544403,-3.6825798,0.15304358,1.03796,0.118457794,-0.41851044,1.0278367,0.8470918,-0.16106246,0.08859407,0.49864352,-0.5262697,0.76773304,0.5821745,1.0,0.0,0.0,0.0,0.0,0.0,0.0,-2.2552705,0.106408685,-0.99440295,-0.09832382,-0.19521713,-4.218027,7.032007,-0.2791524,-0.11408925,2.1775813
-2.4349194,36.035107,7.644308,19.502327,0.91686094,-0.5169628,-0.22160526,-0.8371615,0.7615026,0.049397826,0.30545276,0.5914328,0.6533096,0.0041158735,1.0828131,-0.46292213,-1.7802553,-0.8408924,2.395726,1.4658157,-1.0454868,1.1515814,-0.52533376,-1.7834575,-0.8673998,2.3453755,1.4052111,-1.0474701,-1.4955633,1.3721786,0.15782484,0.4294018,0.87715274,0.47229847,-0.15011476,1.5684738,-0.5048828,1.5540383,-3.678898,0.15289056,0.9387363,0.11305237,-0.41082764,1.0336996,0.84915113,-0.16860184,0.090141706,0.49233142,-0.53735745,0.77222544,0.5825793,1.0,0.0,0.0,0.0,0.0,0.0,0.0,-2.218474,0.10488281,-1.0040383,-0.319767,-0.6734371,-6.319654,10.223616,-0.88312626,-0.16795993,2.7463765
-3.613778,32.421436,6.232851,19.358734,0.9176604,-0.62071735,-0.24848133,-0.8380694,0.7564093,-0.007927259,0.34061593,0.5779091,0.6542899,0.08702075,1.0677744,-0.44969285,-1.7842503,-0.8333382,2.4031665,1.4706401,-1.038768,1.1366106,-0.5116867,-1.7825229,-0.8623272,2.3540273,1.409926,-1.0487156,-1.497942,1.3623883,0.072111666,0.53256387,0.86190856,0.47096702,-0.11619834,1.5317116,-0.50335693,1.5626822,-3.6752198,0.1527377,0.83961177,0.10751343,-0.40314865,1.039538,0.8512793,-0.1762604,0.091904365,0.48560193,-0.54919565,0.7725742,0.5793612,1.0,0.0,0.0,0.0,0.0,0.0,0.0,-2.1817117,0.10335693,-1.0126822,-0.36578178,-0.92742443,-8.550525,10.116178,-1.2871981,-0.14438033,3.2767222
-1.1651077,27.88554,4.978115,15.1708,0.5836203,-0.91766715,-0.13490538,-0.8386321,0.74224466,-0.05025188,0.3212629,0.56310415,0.65693134,0.19082604,1.0527474,-0.4374622,-1.7875481,-0.8302009,2.4103377,1.4756192,-1.029633,1.1216189,-0.49818757,-1.7824924,-0.8565651,2.3624997,1.4146334,-1.0495701,-1.4998802,1.3459471,-0.019791715,0.59008944,0.84314,0.47089025,-0.07553609,1.4949875,-0.50183105,1.5703355,-3.6715453,0.152585,0.74058634,0.10197067,-0.39551926,1.0452409,0.85344005,-0.18387991,0.09394953,0.47854108,-0.54698,0.7651061,0.5624161,1.0,0.0,0.0,0.0,0.0,0.0,0.0,-2.1449876,0.10183105,-1.0203354,-0.2888918,-1.5890598,-9.17424,5.563593,-1.6682029,0.0592947,3.9644227
-0.587368,23.36914,3.5646482,12.8896675,0.41729558,-1.1423858,-0.093141764,-0.8388073,0.7269594,-0.113500305,0.34067637,0.53440183,0.65145135,0.28351948,1.0377381,-0.42549163,-1.7938424,-0.8224975,2.4159398,1.4797785,-1.0212182,1.1066157,-0.48490003,-1.783467,-0.85040915,2.370728,1.4193388,-1.0499821,-1.5008634,1.3231941,-0.12331271,0.62355894,0.81672287,0.47090688,-0.030054456,1.4582977,-0.5003052,1.5769993,-3.6678746,0.15243244,0.64165986,0.09649277,-0.38802338,1.0507103,0.85561365,-0.19131595,0.096346006,0.47121218,-0.53812224,0.7496232,0.53718823,1.0,0.0,0.0,0.0,0.0,0.0,0.0,-2.1082978,0.10030517,-1.0269992,-0.16682148,-2.2162676,-10.35675,3.1609774,-2.44627,0.11674166,4.4570165
-1.4516649,18.392244,1.8368287,11.692102,0.39711988,-1.337011,-0.10630392,-0.84438777,0.7107194,-0.19224636,0.35325655,0.52398664,0.6472131,0.3359811,1.0221769,-0.41382807,-1.8026917,-0.8150835,2.4231267,1.4840602,-1.016384,1.091582,-0.4718776,-1.785609,-0.8440405,2.378697,1.4240443,-1.0499401,-1.5044363,1.2955077,-0.24465944,0.64071506,0.7911381,0.47088802,0.015320066,1.4216461,-0.4987793,1.5826746,-3.6642075,0.15228005,0.5428323,0.091114044,-0.380764,1.0558804,0.85782415,-0.19845295,0.09913933,0.4636007,-0.52837753,0.7249077,0.50609416,1.0,0.0,0.0,0.0,0.0,0.0,0.0,-2.0716462,0.09877929,-1.0326746,-0.4092455,-2.705574,-12.166199,1.5255451,-2.366674,0.14094114,4.458069
0.41956377,16.165083,1.3577821,8.880097,0.15414482,-1.540915,-0.033021092,-0.84276426,0.6937278,-0.24588956,0.32203564,0.498379,0.64915544,0.39081803,1.0073055,-0.40250483,-1.810198,-0.81183696,2.4285347,1.4889598,-1.0108583,1.0765234,-0.4591556,-1.7889526,-0.8377491,2.3863873,1.4287535,-1.049448,-1.506262,1.264672,-0.36446705,0.624736,0.76190054,0.4716186,0.060082737,1.3850327,-0.49726105,1.5873624,-3.660544,0.1521278,0.44410366,0.08590698,-0.3737793,1.0606847,0.860061,-0.20516893,0.10236323,0.45576587,-0.5087919,0.69454575,0.46801385,1.0,0.0,0.0,0.0,0.0,0.0,0.0,-2.0350327,0.09726104,-1.0373623,-0.20124912,-3.0135393,-12.025714,-1.7715096,-2.7579904,0.26804805,4.4064336
2.0824604,16.119617,1.9287221,7.8000154,0.106263936,-1.5870917,0.047842465,-0.83692485,0.6693128,-0.269912,0.31332976,0.47919905,0.6511307,0.43730474,0.99283093,-0.3922243,-1.8159438,-0.80641615,2.4343073,1.4938666,-1.0057175,1.061484,-0.4467869,-1.7933013,-0.8317133,2.3937764,1.4334723,-1.048523,-1.5031276,1.2278724,-0.4583603,0.596102,0.7319988,0.4726756,0.10310437,1.3484535,-0.4957428,1.5910636,-3.6568842,0.1519757,0.3454737,0.08092499,-0.36709976,1.0651052,0.8622766,-0.2114311,0.10597575,0.4478224,-0.48571202,0.6639869,0.43005016,1.0,0.0,0.0,0.0,0.0,0.0,0.0,-1.9984535,0.09574279,-1.0410635,0.31905174,-3.6079645,-9.428817,-3.01404,-2.8514266,0.31252503,4.22947
4.2899065,16.975807,2.798064,6.2481775,0.006629467,-1.6458937,0.14732414,-0.8354696,0.6471959,-0.28593192,0.2743789,0.4678333,0.6439653,0.45972556,0.97793704,-0.38206732,-1.8218945,-0.80427545,2.4405599,1.4978688,-1.0025504,1.0464903,-0.43481067,-1.7983463,-0.8261248,2.4008908,1.4381968,-1.0471992,-1.4980676,1.187799,-0.51999384,0.54608494,0.7050136,0.47314122,0.14207302,1.3119125,-0.49422455,1.5937793,-3.653228,0.15182376,0.24694236,0.07621765,-0.36073685,1.0691375,0.86441135,-0.2172221,0.109892204,0.4399217,-0.45677263,0.6335799,0.39131495,1.0,0.0,0.0,0.0,0.0,0.0,0.0,-1.9619125,0.09422454,-1.0437794,0.5264044,-3.9315462,-6.182778,-5.1267147,-2.594328,0.2701223,3.8263128
4.4047666,17.275564,2.9434426,6.3134074,0.031315386,-1.6797917,0.15024778,-0.83375114,0.63186336,-0.33568564,0.2528227,0.46436673,0.64286846,0.47399494,0.9631152,-0.37162432,-1.8319149,-0.8008425,2.4473276,1.5024836,-0.9997997,1.03155,-0.42321447,-1.8039768,-0.8210703,2.4077878,1.4429251,-1.0455208,-1.4926045,1.1504976,-0.5774659,0.49160513,0.6849525,0.47322375,0.17640054,1.2754059,-0.4927063,1.5955105,-3.6495755,0.15167196,0.14850952,0.07180405,-0.35466385,1.0727938,0.8664563,-0.22253375,0.114063434,0.43211317,-0.42836508,0.60258925,0.3544464,1.0,0.0,0.0,0.0,0.0,0.0,0.0,-1.9254059,0.09270629,-1.0455105,0.56626797,-3.655386,-5.7598114,-5.5668535,-1.9152522,0.21657944,3.364098
4.731666,17.882874,3.304707,6.488472,0.064017355,-1.6849359,0.16264626,-0.8276227,0.6115245,-0.35757068,0.22546528,0.45422894,0.6479616,0.4842256,0.9487878,-0.362062,-1.8397338,-0.7985238,2.4532106,1.5077213,-0.9970982,1.0166804,-0.41198352,-1.8101013,-0.8165699,2.4145093,1.4476534,-1.0435333,-1.4848981,1.1142077,-0.6241778,0.43576935,0.66841286,0.47359404,0.20615114,1.2389374,-0.49118805,1.5962579,-3.6459267,0.15152031,0.05017509,0.06767273,-0.34889603,1.0760977,0.86840886,-0.22737913,0.11844415,0.4244241,-0.40057394,0.5724413,0.320044,1.0,0.0,0.0,0.0,0.0,0.0,0.0,-1.8889374,0.09118804,-1.046258,0.791955,-3.5552502,-4.6774507,-5.6940136,-1.5748501,0.22993088,2.907002
5.0344133,16.304092,3.0294857,5.550738,0.030199409,-1.7751962,0.19405723,-0.8278454,0.58580637,-0.3714495,0.17243831,0.43275535,0.6498635,0.50665456,0.9338958,-0.35340288,-1.8472462,-0.7993261,2.457785,1.5126398,-0.9928679,1.0018755,-0.40113595,-1.8166053,-0.81273615,2.4210477,1.4523894,-1.0412674,-1.4790535,1.0751945,-0.65916467,0.36562413,0.64924127,0.47419375,0.23324054,1.202507,-0.4896736,1.5960228,-3.6422815,0.15136883,-0.048061024,0.063827515,-0.34345627,1.0790411,0.87026554,-0.2317336,0.12300353,0.41690227,-0.371242,0.5384744,0.28374603,1.0,0.0,0.0,0.0,0.0,0.0,0.0,-1.852507,0.08967361,-1.0460229,0.62031746,-3.822565,-3.5150886,-7.1112633,-1.8514633,0.26091933,2.6497097
7.331627,13.637848,2.5265772,1.41506,-0.34817582,-2.0551615,0.2878975,-0.8244574,0.5621353,-0.38581192,0.0643233,0.3892306,0.65182024,0.5112565,0.9194298,-0.34492242,-1.8551865,-0.8063038,2.4599707,1.5175713,-0.99014175,0.9871286,-0.39069274,-1.8233993,-0.8099638,2.4273,1.4571348,-1.0387573,-1.4729117,1.0343755,-0.68644786,0.24764618,0.61733305,0.47556648,0.25669926,1.166111,-0.488163,1.5948062,-3.63864,0.15121749,-0.14619893,0.060386658,-0.3384285,1.0815417,0.8720258,-0.23544276,0.12777986,0.4096462,-0.32822713,0.49348012,0.23705521,1.0,0.0,0.0,0.0,0.0,0.0,0.0,-1.816111,0.08816299,-1.0448062,0.7147789,-3.982544,-2.8061152,-11.86043,-3.149259,0.39458275,2.313027
7.5410247,10.519164,1.2716968,-1.3850298,-0.58841866,-2.335652,0.29148495,-0.83406764,0.55234295,-0.43908876,-0.039088387,0.38521752,0.6444609,0.4953095,0.90372187,-0.33545846,-1.8673081,-0.81387264,2.4658217,1.5215809,-0.9892264,0.9723829,-0.3806024,-1.8306186,-0.8086792,2.4332585,1.461888,-1.0360546,-1.4746137,1.0009754,-0.7341833,0.08851358,0.58866566,0.47619954,0.27483034,1.1297531,-0.48665237,1.5926088,-3.6350021,0.1510663,-0.2442387,0.057437897,-0.33394623,1.0835105,0.8737399,-0.23830421,0.13283862,0.40267065,-0.278448,0.43551418,0.18197268,1.0,0.0,0.0,0.0,0.0,0.0,0.0,-1.7797531,0.08665237,-1.0426087,-0.02682209,-3.2284498,-4.895413,-15.96201,-2.8535366,0.32897592,1.8010378
12.615535,5.5860353,0.13381982,-11.173446,-1.5054103,-2.9834926,0.48236805,-0.83222306,0.5377269,-0.4703639,-0.28135973,0.3362679,0.64373684,0.47348076,0.8891606,-0.3268297,-1.877655,-0.8368152,2.4668853,1.5262617,-0.9887065,0.9576229,-0.37080577,-1.8383949,-0.8098389,2.4388394,1.4666506,-1.0332088,-1.4752443,0.97308224,-0.79322773,-0.18402378,0.54793155,0.47745556,0.2879384,1.0934296,-0.48514175,1.5894318,-3.6313677,0.15091527,-0.34218046,0.055221558,-0.3302498,1.0847328,0.8754419,-0.23989572,0.13830416,0.3961356,-0.19709356,0.3495624,0.1009948,1.0,0.0,0.0,0.0,0.0,0.0,0.0,-1.7434295,0.08514175,-1.0394318,0.2743721,-2.628529,-6.2176347,-27.216959,-4.1104317,0.47166348,1.3608992
16.056438,2.9515152,-0.42034876,-17.928871,-2.2339997,-3.4234946,0.59669006,-0.83454853,0.5298981,-0.49364376,-0.49575683,0.24957679,0.64526886,0.40168184,0.87416804,-0.31781596,-1.8877592,-0.8594146,2.463797,1.5311775,-0.9930407,0.9428562,-0.3612304,-1.8467681,-0.81433356,2.4438138,1.4714266,-1.0303059,-1.4753972,0.9529907,-0.8538782,-0.53752226,0.48037496,0.47858095,0.2915246,1.0571442,-0.48363113,1.585276,-3.627737,0.15076438,-0.44002432,0.054008484,-0.32754517,1.0850058,0.8771635,-0.2398317,0.14431922,0.3901755,-0.09330549,0.24374564,0.0016526532,1.0,0.0,0.0,0.0,0.0,0.0,0.0,-1.7071441,0.08363113,-1.0352759,0.51846504,-1.8134713,-6.5730333,-35.217865,-6.830353,0.4370451,0.4514575
15.906301,10.620946,1.4850295,-14.837143,-2.2201433,-3.1963592,0.54413086,-0.8310878,0.55115306,-0.51820594,-0.59755945,0.19939509,0.63697,0.37675136,0.8597474,-0.3061151,-1.8985888,-0.8740895,2.4637532,1.5351236,-0.9926307,0.9281076,-0.35167935,-1.8557193,-0.8221985,2.4480443,1.4761988,-1.027401,-1.4728389,0.95644885,-0.9106383,-0.8690348,0.4034961,0.47735038,0.29043496,1.0208931,-0.48212433,1.5801426,-3.6241102,0.15061364,-0.53777033,0.05381775,-0.32579422,1.0843554,0.8789144,-0.23810749,0.15095301,0.38474324,0.0074991537,0.15109818,-0.08857271,1.0,0.0,0.0,0.0,0.0,0.0,0.0,-1.6708931,0.08212432,-1.0301425,0.79307556,0.54051876,-6.2093616,-33.014786,-7.746172,0.057315826,-0.025194883
10.459568,13.898538,1.5031797,-6.554361,-1.6775142,-2.7357976,0.29310685,-0.83216614,0.55385315,-0.56911474,-0.6430378,0.06482669,0.6338507,0.33267185,0.844891,-0.29629403,-1.9126308,-0.88650227,2.454527,1.5395839,-0.9941338,0.91337526,-0.3420253,-1.8653133,-0.83271945,2.4512296,1.4809481,-1.0245514,-1.4720559,0.96896356,-0.97680444,-1.1130185,0.2898036,0.47424787,0.28320238,0.9846802,-0.48062134,1.5740325,-3.6204867,0.15046306,-0.63541865,0.05447769,-0.3248024,1.082942,0.8807333,-0.23498292,0.15829872,0.3795173,0.08399518,0.07834943,-0.16062252,1.0,0.0,0.0,0.0,0.0,0.0,0.0,-1.6346802,0.08062133,-1.0240326,0.48089027,1.4092565,-6.9986463,-24.340702,-11.426174,-0.2716899,-0.72458386
4.2948756,17.006924,1.3663371,3.1438322,-1.1308833,-2.1650345,0.008398689,-0.8337467,0.55608505,-0.6067379,-0.6570764,-0.16441682,0.6301649,0.29194844,0.8300006,-0.2864168,-1.9259871,-0.89842707,2.434788,1.5439646,-0.99535656,0.89862573,-0.33223155,-1.8755786,-0.8448683,2.452744,1.4856592,-1.0218124,-1.475372,0.9832252,-1.0434357,-1.2490762,0.105194986,0.4700636,0.27048928,0.9485016,-0.47911835,1.5669466,-3.616867,0.15031263,-0.73296934,0.055725098,-0.32434464,1.0809721,0.88265175,-0.2308181,0.16655941,0.37404117,0.13578933,0.031128304,-0.21148328,1.0,0.0,0.0,0.0,0.0,0.0,0.0,-1.5985016,0.07911834,-1.0169466,-0.17740726,1.5345693,-6.763673,-13.675094,-18.5255,-0.4600942,-1.4057994
-1.3244599,10.135494,-0.75813615,8.756231,-0.65064424,-1.8724,-0.13692464,-0.8287159,0.5099759,-0.6016395,-0.6734461,-0.47991848,0.6404079,0.33974245,0.8157541,-0.28123397,-1.9357426,-0.9122129,2.4047523,1.5497,-0.9878382,0.8838562,-0.3225408,-1.8863113,-0.8577601,2.4516873,1.4903399,-1.019165,-1.4774227,0.9645249,-1.0828106,-1.3029265,-0.1762358,0.46714503,0.26196706,0.91236115,-0.47761536,1.558886,-3.613251,0.15016235,-0.8304225,0.057338715,-0.32429886,1.078564,0.88464713,-0.2258876,0.17594042,0.36799344,0.1658618,-0.008721383,-0.25338787,1.0,0.0,0.0,0.0,0.0,0.0,0.0,-1.5623611,0.07761535,-1.0088861,-0.182271,-1.8150568,-3.8819313,-5.506706,-28.201351,-0.34384727,-1.1217117
-4.7859035,12.68086,0.041020393,16.71751,0.19201219,-1.3561248,-0.21721518,-0.8288706,0.49755642,-0.5741402,-0.61983484,-0.6119146,0.63919204,0.3714499,0.8009691,-0.27278516,-1.9437253,-0.91974354,2.3904958,1.5542591,-0.98202,0.86905515,-0.31313375,-1.8971183,-0.8705164,2.4477735,1.4949938,-1.016571,-1.4817501,0.93274504,-1.0789317,-1.2672646,-0.46333063,0.4647285,0.25767016,0.87625504,-0.47611237,1.5498515,-3.6096385,0.15001222,-0.92777824,0.059070587,-0.32447433,1.0759009,0.8866279,-0.22055428,0.18638217,0.36125937,0.17135797,-0.026203733,-0.27383998,1.0,0.0,0.0,0.0,0.0,0.0,0.0,-1.526255,0.07611236,-0.9998515,-0.68809986,-3.165543,0.69937706,3.3475637,-28.739155,-0.28643012,-0.7492602
-7.1006804,11.331716,-0.10895538,21.06225,1.0056536,-1.1274557,-0.22201508,-0.8272871,0.46826223,-0.5627401,-0.58206755,-0.68348503,0.6452089,0.41617343,0.78632647,-0.26630753,-1.9533924,-0.92872316,2.379425,1.5595146,-0.9749537,0.85421693,-0.3041568,-1.9077041,-0.88254607,2.4413114,1.4996325,-1.0139732,-1.4857428,0.8859574,-1.0502346,-1.1823735,-0.70702547,0.4634153,0.25925702,0.8401871,-0.4746132,1.5398443,-3.6060295,0.14986224,-1.0250366,0.060707092,-0.32477188,1.0731316,0.88850516,-0.21509348,0.19761619,0.35389414,0.15546635,-0.035898235,-0.28132397,1.0,0.0,0.0,0.0,0.0,0.0,0.0,-1.490187,0.074613184,-0.98984426,-0.7900238,-4.696715,3.3145666,8.233452,-24.401844,-0.16927719,-0.1500547
-9.626824,4.6114388,-1.9992921,22.14038,1.749259,-1.1935599,-0.21863219,-0.827925,0.42440763,-0.5715132,-0.55301636,-0.70625025,0.64808327,0.423864,0.7714244,-0.26171604,-1.9648554,-0.93784773,2.3706863,1.5644408,-0.9715868,0.83934534,-0.2957802,-1.9180229,-0.89362586,2.432942,1.5042616,-1.0113487,-1.4889334,0.82142377,-1.0241129,-1.0839489,-0.880138,0.46260065,0.26259938,0.80415344,-0.47311783,1.5288652,-3.6024241,0.14971241,-1.1221977,0.06201935,-0.32522583,1.0703142,0.89025563,-0.20960118,0.20927091,0.3460027,0.11824758,-0.05303181,-0.28516358,1.0,0.0,0.0,0.0,0.0,0.0,0.0,-1.4541534,0.07311782,-0.9788652,-0.6996155,-6.4982295,3.0875683,9.5992565,-17.37994,-0.13574958,0.046658516
-11.818039,-5.5513363,-4.691212,20.785982,2.3706517,-1.4233137,-0.16980737,-0.82371235,0.36049145,-0.5662231,-0.527086,-0.7072449,0.6564475,0.4424435,0.7569741,-0.25973105,-1.9746451,-0.9463345,2.3622174,1.5699064,-0.9671044,0.82447755,-0.28823617,-1.9281166,-0.9037882,2.4233747,1.5088907,-1.0086746,-1.486943,0.73182327,-1.003404,-0.99424064,-0.9823426,0.46261096,0.26802742,0.76815796,-0.47162247,1.5169152,-3.5988226,0.14956273,-1.2192618,0.062812805,-0.32596207,1.0674356,0.8918936,-0.204054,0.22093566,0.33775014,0.061350875,-0.08584608,-0.29187354,1.0,0.0,0.0,0.0,0.0,0.0,0.0,-1.4181579,0.07162246,-0.9669152,-0.05674362,-9.022474,2.4493217,8.77943,-10.296917,-0.07582903,0.2802074
-13.054723,-19.132349,-8.010159,15.745646,2.6471105,-1.8462869,-0.03992586,-0.8192407,0.27592388,-0.5482595,-0.54911005,-0.70577383,0.67268515,0.45524338,0.7425535,-0.26064378,-1.9829425,-0.9586992,2.3527973,1.5761592,-0.96315026,0.80967176,-0.28182748,-1.9380023,-0.9134003,2.4131932,1.5135294,-1.0059395,-1.4784489,0.6103423,-0.98321193,-0.9505208,-1.0303407,0.46396402,0.2745958,0.7321968,-0.4701271,1.5039952,-3.5952244,0.1494132,-1.3162287,0.062934875,-0.32723236,1.0643809,0.89345604,-0.19828427,0.23222345,0.32938102,-0.008427998,-0.14451689,-0.31278694,1.0,0.0,0.0,0.0,0.0,0.0,0.0,-1.3821968,0.0701271,-0.95399517,0.84774494,-12.214554,2.1587133,4.283154,-4.8564196,0.01655817,0.4147768
-12.588447,-28.442019,-9.705265,10.518015,2.702214,-2.1585016,0.14145228,-0.8172338,0.18806447,-0.49518615,-0.5849059,-0.689356,0.68274146,0.45351657,0.72794837,-0.26302102,-1.9875209,-0.97189087,2.3442576,1.5818036,-0.9605878,0.7949699,-0.2768269,-1.9475086,-0.922979,2.4028363,1.5181872,-1.0031414,-1.4667157,0.46313605,-0.9400277,-0.9602911,-1.0378792,0.46575797,0.2807203,0.69627,-0.46863174,1.4901062,-3.59163,0.14926381,-1.4130988,0.06232071,-0.3292389,1.0610079,0.8949668,-0.19211039,0.2427941,0.32121497,-0.08346664,-0.22178623,-0.34787133,1.0,0.0,0.0,0.0,0.0,0.0,0.0,-1.34627,0.06863174,-0.9401062,1.3831615,-14.782709,4.229367,-0.96663237,-0.7746935,0.0028967857,0.41122437
-24.685001,-80.776184,-24.632988,-0.700481,3.6509802,-3.3578691,0.22283083,-0.8147148,-0.08573107,-0.48846972,-0.64928883,-0.67182547,0.6899852,0.4480062,0.7134984,-0.2854,-1.9963555,-0.9879079,2.3356538,1.5871857,-0.95834076,0.78040826,-0.27428773,-1.9566276,-0.9330908,2.3925862,1.5228564,-1.0002975,-1.4502052,0.18365085,-0.9038999,-1.027302,-1.0211895,0.46613577,0.28450504,0.6603813,-0.4671402,1.4752493,-3.588039,0.14911458,-1.5098721,0.060497284,-0.33259964,1.0569865,0.8966115,-0.18512546,0.25205612,0.3135027,-0.22107483,-0.37690806,-0.422245,1.0,0.0,0.0,0.0,0.0,0.0,0.0,-1.3103813,0.06714019,-0.9252493,2.3974895,-28.100378,3.1282425,-6.465316,1.6521215,-0.3414333,0.08453131
-34.13968,-120.28506,-35.770527,-8.8794155,4.420951,-4.1406627,0.32511517,-0.8046667,-0.33904123,-0.4402763,-0.7080775,-0.64560205,0.69135433,0.43211326,0.6999416,-0.30819187,-2.0006552,-1.0038985,2.328026,1.5919918,-0.9570862,0.7660469,-0.2753668,-1.9652679,-0.9441439,2.3826146,1.5275122,-0.99743575,-1.427776,-0.20600265,-0.8529894,-1.1298167,-0.98958117,0.46308944,0.28564426,0.624527,-0.46565247,1.4594253,-3.5844517,0.1489655,-1.6065485,0.05691147,-0.3379135,1.0519977,0.8985826,-0.17699648,0.2593939,0.30649048,-0.4112062,-0.5825535,-0.5263403,1.0,0.0,0.0,0.0,0.0,0.0,0.0,-1.274527,0.06565246,-0.9094253,3.3154964,-39.23105,4.404831,-9.776187,3.0999541,-1.0175228,-0.19631386
-35.913036,-130.67178,-37.89222,-11.504959,4.765989,-4.1343193,0.49428582,-0.78317297,-0.5525234,-0.34687063,-0.75160867,-0.5855869,0.6819238,0.49752355,0.6877296,-0.33061916,-1.9999549,-1.0193048,2.324056,1.5957046,-0.9476834,0.75197446,-0.28070167,-1.9730632,-0.9562775,2.3731122,1.5321146,-0.99451274,-1.3967144,-0.643796,-0.75730884,-1.238981,-0.93756074,0.45578486,0.2939715,0.588707,-0.46416473,1.4426355,-3.580868,0.14881656,-1.7031283,0.051288605,-0.3453102,1.0458894,0.9009398,-0.16768844,0.26436043,0.30050215,-0.62024444,-0.78982407,-0.64132863,1.0,0.0,0.0,0.0,0.0,0.0,0.0,-1.238707,0.06416473,-0.8926355,4.1873455,-44.13213,8.880734,-10.252905,5.0874352,-1.7646253,0.6534755
-25.872055,-94.572845,-26.19499,-5.547592,4.2705736,-3.0021253,0.6089418,-0.76576996,-0.6438748,-0.22792275,-0.7693339,-0.5165172,0.6569953,0.46664503,0.67539746,-0.34508914,-1.9958555,-1.0332109,2.3214605,1.5978142,-0.94784826,0.7382282,-0.28989127,-1.9794662,-0.969339,2.3642812,1.5366293,-0.99151915,-1.364522,-1.0117644,-0.6033398,-1.3263924,-0.8654804,0.44668823,0.3014164,0.5529251,-0.462677,1.4248806,-3.577288,0.14866777,-1.7996116,0.043891907,-0.35432053,1.038781,0.90356535,-0.15756315,0.26693252,0.29578775,-0.7877629,-0.9313454,-0.737631,1.0,0.0,0.0,0.0,0.0,0.0,0.0,-1.2029251,0.062676996,-0.8748806,4.0246487,-37.122524,14.785492,-8.090854,7.12471,-1.8985987,0.8149922
-7.644788,-36.965553,-6.375838,3.2182903,3.3196578,-1.3456717,0.80628574,-0.7421091,-0.70582604,-0.0035347098,-0.77988183,-0.46366146,0.6422392,0.4586138,0.6640173,-0.36047387,-1.9798197,-1.0473272,2.317915,1.6008532,-0.9456578,0.72482336,-0.30192617,-1.983504,-0.98305094,2.3562398,1.5410696,-0.9884502,-1.3309941,-1.2680435,-0.3395598,-1.3847312,-0.7832811,0.44146588,0.30993375,0.5171814,-0.46118927,1.4061615,-3.5737114,0.14851913,-1.8959982,0.035404205,-0.3640709,1.0309855,0.9061853,-0.14728387,0.26735777,0.2926695,-0.8761863,-0.9802099,-0.79860276,1.0,0.0,0.0,0.0,0.0,0.0,0.0,-1.1671814,0.061189264,-0.85616153,3.8225412,-25.809025,25.686562,-5.4005384,8.356726,-1.0555148,1.2011588
9.751804,22.570627,13.753186,14.086867,2.4413605,0.32825136,0.8933637,-0.746217,-0.7271891,0.24339977,-0.76387924,-0.420649,0.628494,0.4483721,0.6502017,-0.37464508,-1.959164,-1.0594388,2.314175,1.603919,-0.943613,0.71164453,-0.3156028,-1.9841297,-0.99704134,2.3490224,1.5454909,-0.98530024,-1.3123494,-1.4008889,0.026309302,-1.4031718,-0.6998231,0.44290632,0.31844822,0.48147202,-0.45970535,1.3864793,-3.5701385,0.14837064,-1.9922886,0.026626587,-0.37363815,1.0229361,0.908508,-0.1376112,0.266045,0.29136965,-0.8836334,-0.9374066,-0.8128749,1.0,0.0,0.0,0.0,0.0,0.0,0.0,-1.131472,0.059705347,-0.83647925,2.2429943,-13.280082,35.550316,-1.6700506,8.776438,0.28974414,1.4101505
12.005181,47.791256,19.239683,21.133574,2.1458092,0.8580894,0.6058041,-0.73876286,-0.7435467,0.23228489,-0.75755847,-0.31458464,0.6056219,0.38965803,0.63776827,-0.3899575,-1.9609011,-1.0727972,2.317564,1.606053,-0.9463344,0.69860303,-0.32993415,-1.9817798,-1.0110184,2.342793,1.5499331,-0.9821188,-1.2996169,-1.4435991,0.3005635,-1.3952731,-0.59576976,0.4463397,0.31993437,0.44579697,-0.45822525,1.365835,-3.566569,0.1482223,-2.0884826,0.01795578,-0.3825493,1.0149294,0.91049033,-0.1288558,0.26344818,0.29154527,-0.86695665,-0.8636152,-0.8020273,1.0,0.0,0.0,0.0,0.0,0.0,0.0,-1.095797,0.058225244,-0.81583494,1.7888308,-4.190707,26.206089,0.92556477,10.87178,0.81382394,0.7067442
5.8389387,51.01063,15.906972,24.632677,1.8807919,0.7204325,0.18014708,-0.7241864,-0.74578404,0.13865207,-0.74391603,-0.33237344,0.612461,0.3542676,0.6261844,-0.40451255,-1.9679146,-1.08541,2.3095555,1.6111791,-0.94669205,0.6857017,-0.3442717,-1.9780166,-1.0247742,2.3373685,1.5544211,-0.978965,-1.2850122,-1.4301925,0.397883,-1.3683572,-0.52317744,0.45108837,0.3152984,0.41016006,-0.45674515,1.3442293,-3.5630033,0.1480741,-2.1845803,0.009399414,-0.39076996,1.0070473,0.91224617,-0.120854646,0.26015753,0.29243648,-0.85426545,-0.7948613,-0.78816074,1.0,0.0,0.0,0.0,0.0,0.0,0.0,-1.06016,0.05674514,-0.7942293,2.0432472,1.4252186,8.61808,2.9013872,7.6044917,0.9836018,-0.04389882
-10.196778,26.876806,1.5859914,22.876118,1.8945196,-0.23835719,-0.34093896,-0.7010295,-0.7589178,-0.14000642,-0.7530011,-0.34282494,0.61840284,0.36331728,0.6155988,-0.42016348,-1.9920173,-1.1000743,2.303086,1.6162614,-0.9426333,0.6730169,-0.35837033,-1.9753444,-1.0382992,2.332417,1.5589377,-0.9758665,-1.2612334,-1.4031396,0.22177745,-1.3459536,-0.48610362,0.4525026,0.30863094,0.3745575,-0.45526505,1.3216634,-3.5594409,0.14792606,-2.280582,0.00063705444,-0.3986435,0.9990891,0.91403663,-0.11294835,0.25673047,0.29303423,-0.8855476,-0.77405995,-0.8022726,1.0,0.0,0.0,0.0,0.0,0.0,0.0,-1.0245575,0.05526504,-0.77166337,2.9120922,2.683425,-18.235746,2.6135683,3.688246,0.28828382,-0.49495697
-25.453394,-0.51339865,-12.772599,19.38509,2.0890057,-1.1740234,-0.69233465,-0.6923759,-0.77270555,-0.40152693,-0.77004075,-0.3255862,0.58954877,0.42774716,0.6037793,-0.4356409,-2.0154972,-1.1153033,2.2998583,1.6178925,-0.93309176,0.6605743,-0.37226823,-1.9760082,-1.0517288,2.3276982,1.5634218,-0.9727928,-1.2368019,-1.3858742,-0.16329578,-1.3402609,-0.46823564,0.4461044,0.3067971,0.33898926,-0.45378494,1.2981383,-3.5558822,0.14777817,-2.3764875,-0.008808136,-0.40667343,0.9907288,0.91612506,-0.10436509,0.25348908,0.2925166,-0.9658443,-0.8003171,-0.8514191,1.0,0.0,0.0,0.0,0.0,0.0,0.0,-0.98898923,0.053784937,-0.74813825,2.993679,1.5664101,-38.740177,1.1111736,1.4108717,-0.9218395,-0.21545291
-32.096367,-10.680259,-18.298563,17.752209,2.0772705,-1.366643,-0.7703016,-0.7173144,-0.7739106,-0.5246773,-0.7799198,-0.38909897,0.5775203,0.4696104,0.58884287,-0.4496593,-2.028476,-1.1297208,2.2887883,1.6211739,-0.9258318,0.648209,-0.38606647,-1.9808147,-1.0652043,2.3228612,1.5678202,-0.9697048,-1.2340294,-1.3786403,-0.5869047,-1.3476816,-0.49064425,0.43599543,0.3090125,0.30345917,-0.45230484,1.2736547,-3.552327,0.14763042,-2.4722972,-0.019195557,-0.4150467,0.98173326,0.9186027,-0.09465517,0.25059643,0.29053545,-1.0651091,-0.83780783,-0.9204758,1.0,0.0,0.0,0.0,0.0,0.0,0.0,-0.95345914,0.052304834,-0.7236547,0.97973347,0.472641,-42.574207,-0.08585453,-2.782023,-1.5059292,0.09019375
-26.231764,-1.2880869,-12.738327,17.199905,1.9404954,-0.8880743,-0.5211349,-0.7112376,-0.7760124,-0.5315879,-0.78540313,-0.37623596,0.5856743,0.47807917,0.5770852,-0.46366772,-2.0339735,-1.1437446,2.2852376,1.6263876,-0.9218969,0.635836,-0.3998547,-1.9890163,-1.0788056,2.3177953,1.5721289,-0.9665825,-1.2361237,-1.3797235,-0.8988123,-1.3622996,-0.51365584,0.42770523,0.31299546,0.2679634,-0.45083237,1.2482139,-3.5487754,0.14748283,-2.5680113,-0.030441284,-0.42365265,0.9720798,0.9213588,-0.08390358,0.24793525,0.28737804,-1.1474385,-0.8547169,-0.9864961,1.0,0.0,0.0,0.0,0.0,0.0,0.0,-0.9179634,0.05083236,-0.6982139,0.4758358,-0.3554821,-31.483614,-0.84831715,-2.769351,-1.2723088,0.31535625
-20.12622,12.519381,-5.5471077,18.73559,1.9910245,-0.21895874,-0.30401027,-0.7373643,-0.7726708,-0.5444632,-0.7856921,-0.34179276,0.579149,0.44298682,0.5620996,-0.47712177,-2.0434625,-1.1573747,2.283616,1.6300437,-0.92228377,0.6232971,-0.41366294,-1.9993141,-1.092548,2.312634,1.576367,-0.963443,-1.2576586,-1.3819101,-1.0747626,-1.3762449,-0.5183836,0.42142397,0.314273,0.23250198,-0.4493599,1.2218165,-3.5452273,0.14733538,-2.6636295,-0.042366028,-0.43221664,0.96188205,0.92424566,-0.07245339,0.24526353,0.28348926,-1.2110162,-0.84258544,-1.0379778,1.0,0.0,0.0,0.0,0.0,0.0,0.0,-0.88250196,0.049359888,-0.6718165,-1.507926,-0.43525696,-17.991234,-0.8556843,-0.8240819,-0.9281218,0.13919473
-13.400311,26.59014,1.9237189,20.278637,2.0459027,0.401515,-0.09915289,-0.75191236,-0.77122134,-0.5403006,-0.7860945,-0.28819904,0.5772604,0.42665914,0.54810584,-0.49078506,-2.0533442,-1.1711575,2.2838142,1.634093,-0.9207771,0.6104711,-0.42748645,-2.0104644,-1.106403,2.3076406,1.5805575,-0.9603016,-1.2891182,-1.3830475,-1.129736,-1.3871107,-0.4939071,0.417877,0.31453982,0.1970787,-0.44788742,1.1944638,-3.5416827,0.14718807,-2.7591522,-0.05476761,-0.44047546,0.9513066,0.9271393,-0.06070771,0.24232182,0.27929804,-1.2538534,-0.80444163,-1.071758,1.0,0.0,0.0,0.0,0.0,0.0,0.0,-0.8470787,0.047887415,-0.64446384,-2.6095867,-0.28042793,-5.940914,-0.6550789,2.2310615,-0.48975348,0.14472604
-9.566019,33.358498,5.791363,20.752522,1.9539304,0.70135814,-0.012735553,-0.75015545,-0.7804224,-0.5720047,-0.7780967,-0.31127936,0.5724949,0.3842204,0.5354556,-0.5055287,-2.0676649,-1.1842127,2.2765126,1.637807,-0.92187953,0.5973772,-0.44135764,-2.0217597,-1.1202942,2.3028455,1.5847212,-0.9571888,-1.3147218,-1.3889065,-1.1309961,-1.3886856,-0.4751141,0.41575688,0.31071854,0.16168594,-0.44641495,1.1661565,-3.5381417,0.1470409,-2.8545792,-0.067489624,-0.4482689,0.94046056,0.92996275,-0.048929438,0.23900807,0.2750457,-1.2823219,-0.75544214,-1.0967544,1.0,0.0,0.0,0.0,0.0,0.0,0.0,-0.8116859,0.04641494,-0.6161565,-2.1285534,-0.7196188,-0.55418015,0.20925999,1.7511904,-0.25644302,-0.22588968
-6.924446,39.39324,8.539988,21.047997,1.7129774,0.9156219,0.025752973,-0.7575831,-0.77343434,-0.58804655,-0.77603394,-0.35658956,0.59135324,0.37874505,0.52161884,-0.5187011,-2.0805645,-1.1978976,2.2671866,1.6438565,-0.91931427,0.5840639,-0.45524934,-2.0329177,-1.1341645,2.2980695,1.5888869,-0.9541189,-1.3356555,-1.389612,-1.1121771,-1.3855628,-0.4787176,0.41683584,0.30626523,0.12633133,-0.44494247,1.1368958,-3.5346043,0.14689389,-2.9499109,-0.08039093,-0.45552826,0.929402,0.93266183,-0.037234526,0.23539656,0.27082086,-1.2963693,-0.6996647,-1.116645,1.0,0.0,0.0,0.0,0.0,0.0,0.0,-0.7763313,0.04494247,-0.58689576,-1.7346859,-0.17914772,1.480341,0.62594414,-0.4447043,0.12764335,-0.29530525
-7.656909,37.289177,7.3656397,19.930103,1.5286963,0.8078826,-0.01747597,-0.7536359,-0.7815627,-0.6457616,-0.7773741,-0.4027525,0.572875,0.31940323,0.5087003,-0.5334056,-2.097494,-1.2119019,2.2577941,1.6461743,-0.92217857,0.5706285,-0.46917394,-2.0441177,-1.1480004,2.293076,1.5930487,-0.95113677,-1.3450713,-1.3937967,-1.1237836,-1.3818707,-0.50653696,0.41597137,0.2958977,0.09101105,-0.44347763,1.1066823,-3.5310705,0.14674702,-3.0451472,-0.093437195,-0.46227646,0.91809654,0.9352286,-0.02555627,0.23160233,0.266561,-1.3094163,-0.6501699,-1.1426562,1.0,0.0,0.0,0.0,0.0,0.0,0.0,-0.741011,0.043477625,-0.5566823,-0.6155014,-0.5339861,-1.5047789,0.6968498,-2.8851628,-0.1136601,-0.9246707
-9.044805,36.085068,6.33311,19.526146,1.448788,0.78637105,-0.057378024,-0.7626405,-0.78540385,-0.66979927,-0.77323526,-0.4451481,0.576695,0.2846212,0.49436447,-0.54771435,-2.1110976,-1.2253239,2.2485611,1.6507182,-0.92267466,0.557114,-0.48315385,-2.0555809,-1.1617848,2.2876706,1.5972029,-0.94828147,-1.3525114,-1.3997775,-1.1548897,-1.3761163,-0.55209726,0.41509926,0.28237948,0.055725098,-0.4420128,1.0755173,-3.52754,0.1466003,-3.1402886,-0.10662079,-0.46855545,0.9064998,0.9376658,-0.013807225,0.22771926,0.26217562,-1.3236153,-0.60287595,-1.1725891,1.0,0.0,0.0,0.0,0.0,0.0,0.0,-0.7057251,0.04201278,-0.5255173,-0.42493343,-0.72493553,-3.4218073,0.9242296,-4.684067,-0.15096068,-1.2673914
-9.671464,37.30027,6.329477,19.545773,1.3771622,0.8518664,-0.086699165,-0.7711509,-0.7827379,-0.6847394,-0.7689712,-0.48919898,0.5793237,0.22393002,0.47999892,-0.56142765,-2.124055,-1.2386819,2.2387507,1.6551353,-0.9258885,0.5435165,-0.49717286,-2.0674102,-1.1755005,2.2817235,1.6013495,-0.9455988,-1.3611346,-1.4029992,-1.193568,-1.3688625,-0.60934025,0.41442508,0.26382697,0.020477295,-0.44054794,1.0434015,-3.5240133,0.14645374,-3.2353346,-0.1199379,-0.47434998,0.89459854,0.9399691,-0.001944338,0.22381933,0.25760272,-1.3359942,-0.5541621,-1.2030381,1.0,0.0,0.0,0.0,0.0,0.0,0.0,-0.6704773,0.040547937,-0.49340147,-0.5565405,-0.4548788,-4.149604,1.0779381,-5.8678746,-0.14338493,-1.7909348
-9.610956,37.85206,6.5322304,19.24901,1.3480468,0.89782834,-0.08917885,-0.7696545,-0.7900723,-0.70224047,-0.7612118,-0.52412,0.5773515,0.16323547,0.46655107,-0.5761801,-2.1376343,-1.2516217,2.2293115,1.6590847,-0.9292752,0.52985895,-0.5112441,-2.0796402,-1.1891209,2.275185,1.6054884,-0.94313353,-1.3663296,-1.4088844,-1.2336704,-1.3585669,-0.66902256,0.41355821,0.24095945,-0.014736176,-0.4390831,1.0103359,-3.52049,0.14630732,-3.3302858,-0.13337326,-0.47966003,0.8823906,0.9421328,0.010039692,0.2199216,0.2528228,-1.3468889,-0.5051008,-1.2337129,1.0,0.0,0.0,0.0,0.0,0.0,0.0,-0.6352638,0.039083093,-0.4603359,-0.24106503,-0.7227659,-4.262352,1.3818264,-6.113267,-0.1733005,-2.225718
-9.637978,37.0899,6.407684,18.619379,1.3881972,0.90054435,-0.09913917,-0.76793456,-0.8036426,-0.72167766,-0.7551558,-0.5391363,0.5550961,0.039085593,0.45306548,-0.5916084,-2.151808,-1.2646365,2.2212715,1.660998,-0.93922496,0.5161785,-0.52542716,-2.092263,-1.2026287,2.2681203,1.6096026,-0.9409706,-1.3677765,-1.4219147,-1.2728823,-1.3468081,-0.7194965,0.4103523,0.20824051,-0.049915314,-0.43761826,0.9763216,-3.5169702,0.14616105,-3.425142,-0.14693451,-0.48448563,0.8698657,0.9441652,0.022130815,0.21596509,0.24783327,-1.35884,-0.45713547,-1.2656411,1.0,0.0,0.0,0.0,0.0,0.0,0.0,-0.60008466,0.03761825,-0.42632157,0.11098385,-1.4404535,-4.151511,1.5365124,-5.188477,-0.4296422,-3.197363
-9.207233,40.781883,7.8071556,19.371006,1.4698,1.0767488,-0.12056678,-0.7767075,-0.80036914,-0.72249204,-0.74109143,-0.5451401,0.55479586,-0.08490712,0.43850774,-0.6054641,-2.1645122,-1.2767379,2.2136064,1.6650822,-0.94946134,0.502457,-0.5397113,-2.1051795,-1.2159783,2.260655,1.6136862,-0.9392044,-1.3728477,-1.4310206,-1.2983972,-1.3298061,-0.755732,0.40746778,0.16635744,-0.085056305,-0.43616104,0.9413594,-3.513454,0.14601491,-3.5199034,-0.16059494,-0.48879623,0.85706955,0.94607687,0.03425333,0.2118989,0.24261905,-1.3676602,-0.4038967,-1.2909617,1.0,0.0,0.0,0.0,0.0,0.0,0.0,-0.5649437,0.036161035,-0.3913594,-0.2755165,-1.0430336,-2.7635098,2.0400763,-3.7566185,-0.3735006,-4.096088
-10.530401,41.35411,7.5217786,19.971554,1.6299952,1.1298456,-0.16562626,-0.78044045,-0.8100137,-0.75138694,-0.7236302,-0.55034465,0.54885983,-0.19287314,0.42441297,-0.62071264,-2.1803184,-1.2883413,2.2056205,1.6685722,-0.9584917,0.4886731,-0.5541032,-2.1183822,-1.2291046,2.2529225,1.6177393,-0.9379055,-1.3795089,-1.4423324,-1.328012,-1.3056862,-0.779362,0.4041724,0.11803105,-0.12016678,-0.43470383,0.90544236,-3.509941,0.14586893,-3.6156354,-0.17437363,-0.49257278,0.8440346,0.9478875,0.0463537,0.20767333,0.23713373,-1.3803332,-0.34927297,-1.3142245,1.0,0.0,0.0,0.0,0.0,0.0,0.0,-0.5298332,0.03470382,-0.35544235,-0.4400015,-1.2727499,-3.1527996,2.766347,-2.5013804,-0.43132305,-4.730181
-11.033514,43.26732,7.9511147,20.34449,1.7145957,1.2463286,-0.19533555,-0.7882667,-0.8122544,-0.7624941,-0.7100658,-0.5477973,0.55218536,-0.31326935,0.40984643,-0.63532865,-2.1946316,-1.3001112,2.1981428,1.6729579,-0.96923244,0.4747957,-0.5685914,-2.1318557,-1.2419678,2.245049,1.6217657,-0.9371378,-1.389747,-1.4515356,-1.3540884,-1.2786564,-0.7907823,0.4016471,0.063344836,-0.1552391,-0.4332466,0.86856866,-3.5064318,0.14572309,-3.7112718,-0.18828201,-0.4957695,0.83079326,0.94961286,0.058383305,0.20325176,0.23133431,-1.3928813,-0.29149383,-1.3339214,1.0,0.0,0.0,0.0,0.0,0.0,0.0,-0.49476087,0.033246607,-0.31856865,-0.8095503,-1.0648489,-2.7791977,3.0547857,-1.2825727,-0.3535688,-5.3561506
-10.666618,48.491875,9.869616,22.027521,1.8529544,1.4888059,-0.19223826,-0.7966509,-0.80852133,-0.752524,-0.67247564,-0.5360097,0.56418437,-0.30676123,0.3951306,-0.64944357,-2.207108,-1.3092153,2.191448,1.6781842,-0.9678139,0.46092543,-0.58312976,-2.1460316,-1.2546719,2.237692,1.6275449,-0.93663293,-1.3620061,-1.4557158,-1.53755,-1.307471,-0.6456751,0.94283915,0.064628184,-0.18220901,-0.43265152,0.8452941,-1.1417087,-0.07540637,0.75791305,-0.20240402,-0.4981308,0.8172832,0.95123124,0.06961062,0.19870049,0.22545823,-1.4298192,-0.16349542,-1.3936219,0.0,1.0,0.0,0.0,0.0,0.0,0.0,-0.46779096,0.032651514,-0.2952941,7.0919037,-0.67076683,-35.88083,-9.682322,28.804243,108.22697,5.1154346
72.90741,176.0,110.0,110.0,4.63019,12.5881,-1.1156814,-0.7809778,0.14222625,0.7134007,0.72428054,-0.3848527,0.658293,-0.42240462,0.38282764,-0.56890714,-2.0746915,-1.1822438,2.1992068,1.6933742,-0.9788734,0.44959435,-0.59989154,-2.1526692,-1.2567891,2.2265723,1.6434369,-0.93799573,-1.0325656,-1.6762146,-0.49755284,0.11503996,-1.1721009,1.8421582,-0.16058956,-0.19361877,-0.43340683,0.85212314,-1.1405672,-0.07533098,0.6579041,-0.21466827,-0.49760818,0.8075854,0.95240104,0.0705235,0.19823124,0.22059672,-1.1544448,0.14488636,-0.83487886,0.0,1.0,0.0,0.0,0.0,0.0,0.0,-0.4563812,0.033406824,-0.30212313,40.215134,0.00021457672,66.454475,130.76007,-23.992943,101.177956,-9.7392645
29.153692,176.0,83.253136,100.82191,6.355748,6.808142,-1.0593786,-0.735053,-0.6876576,0.42080355,0.75412273,-0.55981946,0.7050581,-0.39928743,0.37608904,-0.6686573,-2.1105888,-1.1813768,2.1705904,1.7139428,-0.97792447,0.43925795,-0.6166533,-2.150903,-1.248473,2.2139227,1.6617284,-0.94023114,-1.0322167,-1.6762156,0.40146676,1.0707562,-1.2986009,1.834062,-0.24140221,-0.20501328,-0.43416214,0.8579528,-1.1394268,-0.07525566,0.55799514,-0.22524261,-0.49488068,0.80291736,0.9535032,0.064005405,0.20050202,0.2157173,-1.0190644,0.32478714,-0.34883428,1.0,0.0,0.0,0.0,0.0,0.0,0.0,-0.4449867,0.034162134,-0.30795276,0.5525589,-0.00030994415,89.89355,95.64739,-13.372564,1.9523621,-7.1555467
26.782288,167.25826,65.036674,68.08962,3.7754219,3.785675,-0.33203617,-0.63136345,-0.7026518,0.46049002,0.6257546,-0.67787445,0.66190654,0.21294668,0.3761216,-0.6869185,-2.1048539,-1.1858976,2.1461353,1.727919,-0.9189365,0.42898306,-0.63231647,-2.142999,-1.2342614,2.201193,1.6789823,-0.94231397,-1.0237648,-1.5303454,0.9192598,1.5389034,-1.2668681,1.6947378,-0.195618,-0.21640015,-0.43491745,0.8627841,-1.1382877,-0.07518042,0.45818612,-0.23452759,-0.49085617,0.80179834,0.9544916,0.05374552,0.20397769,0.21083231,-0.89781016,0.43531656,-0.038499065,1.0,0.0,0.0,0.0,0.0,0.0,0.0,-0.43359983,0.034917444,-0.31278408,1.4896154,14.418602,51.552307,47.11523,2.3160458,-12.210965,5.052704
13.005265,115.30666,39.85389,41.306026,2.4214163,1.4640548,-0.011582769,-0.608476,-0.7341658,0.53837264,0.69255865,-0.6705867,0.62410134,0.25820228,0.36813545,-0.70573306,-2.0891616,-1.1650056,2.1341345,1.7413924,-0.9164937,0.41862997,-0.6466683,-2.1317647,-1.2177953,2.1891463,1.6945271,-0.94382364,-1.0375826,-1.4039516,1.1901367,1.6835521,-1.1856606,1.5113177,-0.13529871,-0.22777176,-0.43566513,0.86661804,-1.1371496,-0.07510525,0.35847685,-0.24298096,-0.48613358,0.80256146,0.9553126,0.042136237,0.20770884,0.20605643,-0.8293782,0.4899625,0.10861634,1.0,0.0,0.0,0.0,0.0,0.0,0.0,-0.42222822,0.035665125,-0.31661803,-0.91342926,12.491608,26.719284,14.758635,7.6361656,-17.28487,6.2794027
9.052785,69.28956,20.935528,18.37677,0.9230882,-0.30146503,0.29086977,-0.55214655,-0.7489632,0.53788596,0.679744,-0.674976,0.6223158,0.28285426,0.36341533,-0.72156465,-2.077976,-1.1498208,2.1216488,1.7567587,-0.9155382,0.408367,-0.6601113,-2.119424,-1.2014989,2.1779273,1.708323,-0.9447382,-1.0222846,-1.3246992,1.247838,1.6121042,-1.101308,1.3379196,-0.0767038,-0.23913574,-0.4364128,0.86945564,-1.1360127,-0.07503016,0.2588673,-0.2509613,-0.4812889,0.8038021,0.95597404,0.030784275,0.21108313,0.20151849,-0.7907896,0.4902517,0.12353571,1.0,0.0,0.0,0.0,0.0,0.0,0.0,-0.41086423,0.036412805,-0.31945562,1.6042709,7.8327656,5.5994034,-7.024455,8.216977,-16.713762,5.9010687
4.7287655,39.973194,8.919943,7.1714916,0.29160392,-1.223137,0.37964755,-0.5321526,-0.7490803,0.53144574,0.669452,-0.66615456,0.6142054,0.27738354,0.35515174,-0.7350193,-2.0662794,-1.1345537,2.111312,1.7697436,-0.9169999,0.39836296,-0.6731051,-2.1074116,-1.1865605,2.1674445,1.7205472,-0.94513494,-0.99347055,-1.2910087,1.1858126,1.4545279,-1.0309589,1.1853249,-0.027390834,-0.25048828,-0.4371605,0.87129796,-1.1348768,-0.07495515,0.15935731,-0.2587433,-0.47665787,0.80466485,0.95652854,0.020553159,0.2138167,0.1972642,-0.7776024,0.46002322,0.06900208,1.0,0.0,0.0,0.0,0.0,0.0,0.0,-0.3995117,0.037160486,-0.32129794,2.784109,3.3172846,-6.287074,-15.716481,6.9762707,-14.867258,4.9062304
-0.8664274,22.84318,1.4560206,4.188855,0.30158085,-1.6247427,0.31221476,-0.51992536,-0.7596708,0.4903825,0.66193885,-0.6610067,0.5950991,0.27656862,0.34637043,-0.7490722,-2.0583735,-1.1203666,2.1013439,1.7800571,-0.9174781,0.38867983,-0.6860484,-2.0965016,-1.1731862,2.1575072,1.7314095,-0.94510156,-0.9602419,-1.2955146,1.0592781,1.298423,-0.98076594,1.0539047,0.013605224,-0.26182938,-0.43790817,0.8721459,-1.1337422,-0.07488021,0.059946828,-0.26657486,-0.47242737,0.804768,0.9570489,0.011759945,0.21585529,0.19319806,-0.7888256,0.4176023,-0.013339959,1.0,0.0,0.0,0.0,0.0,0.0,0.0,-0.3881706,0.037908167,-0.32214588,3.2182574,-0.47869682,-12.750816,-15.547633,5.0580025,-12.894607,4.090061
-1.9075661,20.186718,0.7497437,5.7708244,0.48712307,-1.6037769,0.22175178,-0.49182883,-0.76772755,0.46731585,0.6600361,-0.65841275,0.5933628,0.25952458,0.33949694,-0.76282114,-2.04977,-1.1071826,2.091666,1.7907459,-0.9191491,0.37939486,-0.6991929,-2.086877,-1.1610249,2.1479247,1.741118,-0.9447239,-0.91811234,-1.3208272,0.93000305,1.1892221,-0.9503554,0.94363,0.04593765,-0.27315903,-0.43865585,0.87200046,-1.1326088,-0.07480535,-0.039364263,-0.2745819,-0.46860886,0.8040828,0.95758265,0.004314707,0.21728374,0.18922083,-0.80691653,0.3762268,-0.090421736,1.0,0.0,0.0,0.0,0.0,0.0,0.0,-0.37684095,0.038655847,-0.32200044,4.148686,-2.563858,-13.00652,-10.8018875,3.0600548,-10.8536005,3.2578056
-2.213796,20.227512,0.7878821,7.724419,0.6506852,-1.5817112,0.115999036,-0.4502458,-0.78021353,0.3826311,0.64986014,-0.6495149,0.5909542,0.23251675,0.3343703,-0.7772142,-2.048614,-1.0960389,2.0829732,1.8002133,-0.92147225,0.370643,-0.7126626,-2.0786526,-1.1495904,2.1385596,1.7498631,-0.9440878,-0.86102927,-1.3557739,0.7866793,1.1289254,-0.9317825,0.85176116,0.06971287,-0.28447723,-0.43940353,0.8708597,-1.1314764,-0.07473056,-0.1389698,-0.28280258,-0.46518707,0.80267745,0.95815665,-0.0019530801,0.21823627,0.1852158,-0.8294363,0.33628473,-0.16036902,1.0,0.0,0.0,0.0,0.0,0.0,0.0,-0.36552274,0.039403528,-0.32085967,5.663705,-3.5329342,-14.383054,-5.859852,1.8645525,-9.059418,2.42225
2.1398025,24.003746,3.2005663,8.144484,0.539697,-1.5416105,0.09996697,-0.39204332,-0.7909565,0.3098323,0.63219833,-0.64258534,0.59233,0.21739918,0.33143866,-0.79175824,-2.0476694,-1.0863706,2.074301,1.8090961,-0.9223479,0.3626288,-0.72648036,-2.0718586,-1.138522,2.1293242,1.7578092,-0.9432619,-0.7817802,-1.3905736,0.6438145,1.1001861,-0.9210072,0.7758699,0.08707029,-0.295784,-0.4401512,0.86872363,-1.1303451,-0.074655846,-0.23847575,-0.29119492,-0.46216202,0.8006353,0.9587688,-0.00721322,0.21883917,0.18116188,-0.8432118,0.2955574,-0.22199285,1.0,0.0,0.0,0.0,0.0,0.0,0.0,-0.35421598,0.04015121,-0.31872362,7.8529716,-3.535962,-14.24191,-2.6907206,1.0213971,-7.496989,1.773958
11.040327,32.745934,8.614658,8.009496,0.29990673,-1.4288535,0.14666632,-0.31933683,-0.7993262,0.28183925,0.6297845,-0.6316112,0.60420567,0.1700119,0.3306951,-0.806413,-2.0436747,-1.0755435,2.066163,1.8182297,-0.9262607,0.35560545,-0.74060047,-2.0662472,-1.1275624,2.1201766,1.7651048,-0.9423254,-0.67628914,-1.4195104,0.5339822,1.0951611,-0.9131867,0.7144808,0.09589474,-0.30707932,-0.4408989,0.86559325,-1.129215,-0.074581206,-0.33788222,-0.2995758,-0.45954514,0.79809386,0.9593915,-0.011726684,0.21918947,0.17716213,-0.8362081,0.25421503,-0.26822776,1.0,0.0,0.0,0.0,0.0,0.0,0.0,-0.34292066,0.04089889,-0.31559324,10.42329,-2.9781103,-10.786939,-0.34079552,0.60026646,-6.0668707,0.9048864
15.515971,32.14958,8.786921,5.3105264,-0.030251935,-1.5930456,0.18021043,-0.2490064,-0.8104304,0.15569733,0.591057,-0.60087496,0.5769892,0.12402919,0.3307048,-0.82164353,-2.0506775,-1.0684566,2.060089,1.8228037,-0.9299225,0.34976992,-0.7549714,-2.061948,-1.1167401,2.11117,1.7718492,-0.94135743,-0.55324954,-1.443331,0.39611334,1.0785648,-0.8969055,0.6610671,0.09716869,-0.3183632,-0.44164658,0.86146957,-1.1280861,-0.07450664,-0.4371893,-0.30783463,-0.45741272,0.79503137,0.96002007,-0.015510678,0.21930707,0.17327805,-0.8229582,0.2038335,-0.32233715,1.0,0.0,0.0,0.0,0.0,0.0,0.0,-0.3316368,0.04164657,-0.31146955,12.119425,-2.478981,-13.517868,-1.5164852,1.4262438,-5.3205013,0.122739375
24.174324,38.455048,12.716503,3.6883554,-0.39332366,-1.6045084,0.26257658,-0.15662114,-0.8133392,0.1113029,0.5920181,-0.59643155,0.58093584,0.112638146,0.33410782,-0.8363053,-2.0508177,-1.0575383,2.0515268,1.8299427,-0.93009365,0.34533438,-0.7695159,-2.0589192,-1.1060513,2.10232,1.7781281,-0.9403971,-0.40775236,-1.4586275,0.27313226,1.066011,-0.8821961,0.61685014,0.09546935,-0.32963562,-0.44239426,0.8563536,-1.1269583,-0.07443215,-0.5363971,-0.3158226,-0.4558258,0.79148304,0.9606317,-0.018645853,0.21923311,0.1696345,-0.7908238,0.14784425,-0.3693648,1.0,0.0,0.0,0.0,0.0,0.0,0.0,-0.32036436,0.04239425,-0.30635357,14.305174,-1.6501665,-11.905628,-1.1487961,1.1800885,-4.4332623,-0.2001822
24.992876,40.874374,13.585299,3.461116,-0.40245524,-1.526784,0.27603632,-0.1098884,-0.81905997,0.064112745,0.5685705,-0.56901073,0.57246184,0.091791436,0.33434555,-0.8514219,-2.0525079,-1.0491943,2.045419,1.8353744,-0.93121797,0.34226212,-0.78417575,-2.0569966,-1.0955609,2.0936682,1.7840161,-0.9394739,-0.27443546,-1.4688076,0.16643718,1.0435879,-0.86053854,0.57933104,0.09124634,-0.3408966,-0.44313812,0.85024625,-1.1258315,-0.07435773,-0.6355057,-0.32346725,-0.45476913,0.7874859,0.961222,-0.02121813,0.21896762,0.16629869,-0.7558581,0.09424287,-0.41363788,1.0,0.0,0.0,0.0,0.0,0.0,0.0,-0.30910337,0.043138117,-0.30024624,13.105923,-1.1469364,-10.29276,-2.137971,1.8683791,-3.782165,-0.4482761
9.20449,27.308651,4.1815305,4.0377865,-0.056299746,-1.6409032,0.10153945,-0.11095476,-0.83015317,-0.14345597,0.51632,-0.5303571,0.53960633,0.036334846,0.33116665,-0.8671911,-2.0713422,-1.0439289,2.0406325,1.8379768,-0.9358404,0.34015688,-0.7989415,-2.0567944,-1.0855016,2.0853255,1.7895513,-0.93863183,-0.18962888,-1.4795619,-0.02814884,0.99404955,-0.82544684,0.5448087,0.081756234,-0.35214615,-0.44387817,0.8431485,-1.1247059,-0.07428339,-0.73451513,-0.3310318,-0.454216,0.78284055,0.96185726,-0.022902768,0.21847929,0.16301203,-0.7565766,0.044744976,-0.4854606,1.0,0.0,0.0,0.0,0.0,0.0,0.0,-0.29785383,0.043878168,-0.29314852,8.370736,-1.1757374,-19.34456,-4.763031,3.4475684,-3.5071611,-0.9535402
-6.712571,23.916279,-0.9598087,8.78075,0.53077507,-1.4254432,-0.08618823,-0.120624006,-0.8253037,-0.26312506,0.5247295,-0.5268571,0.54305714,0.07724892,0.32809448,-0.8814719,-2.083107,-1.0330286,2.0326397,1.8438569,-0.93090695,0.3385032,-0.8137616,-2.05882,-1.0758427,2.0773108,1.794785,-0.9378498,-0.1571558,-1.4831542,-0.26084617,0.9576174,-0.7930836,0.5162334,0.07703858,-0.36338425,-0.44461823,0.8350615,-1.1235814,-0.074209124,-0.83342564,-0.33882523,-0.45401764,0.77745557,0.96258664,-0.023454554,0.21784721,0.15943459,-0.7841573,0.013214912,-0.5602084,0.0,1.0,0.0,0.0,0.0,0.0,0.0,-0.28661573,0.04461822,-0.28506148,3.2801123,-0.44970512,-23.361269,-3.362,3.3173442,-2.9023647,-0.4584223
-33.023396,17.30528,-9.146671,16.37352,1.531074,-1.0680759,-0.38241383,-0.20401695,-0.8255313,-0.42651346,0.5249561,-0.522433,0.50984436,0.09474562,0.31810153,-0.89631474,-2.1014714,-1.0233471,2.0250676,1.8457694,-0.92837524,0.33654055,-0.8285912,-2.0634968,-1.0664243,2.0695784,1.799748,-0.93709165,-0.20844847,-1.4832053,-0.5381913,0.9380053,-0.76596785,0.48941106,0.075484216,-0.3746109,-0.44535828,0.8259861,-1.122458,-0.07413493,-0.93223727,-0.34721756,-0.4539032,0.77128595,0.96346146,-0.022638291,0.21719645,0.15509707,-0.85602736,0.01169696,-0.6403114,0.0,1.0,0.0,0.0,0.0,0.0,0.0,-0.27538908,0.04535827,-0.27598608,-4.876107,-0.096964836,-28.103138,-1.5210629,2.9551625,-2.7167797,-0.11512637
-39.873722,19.645113,-9.265618,18.747412,1.8688878,-0.7536736,-0.40156287,-0.23008879,-0.8243606,-0.5106164,0.5018175,-0.47107038,0.45543635,0.15698738,0.31353167,-0.9110273,-2.1145585,-1.0162425,2.0224714,1.8452916,-0.9213929,0.33382782,-0.8434037,-2.07076,-1.0572022,2.0622008,1.8044305,-0.9362963,-0.29115316,-1.4809623,-0.7901331,0.9184183,-0.7281205,0.46094337,0.08104291,-0.3858261,-0.44609833,0.81593174,-1.1213357,-0.07406081,-1.0298269,-0.35638428,-0.45368576,0.7643657,0.96449095,-0.020434981,0.21652348,0.1498573,-0.934002,0.027379368,-0.71381927,0.0,1.0,0.0,0.0,0.0,0.0,0.0,-0.26417387,0.04609832,-0.26593173,-7.9482737,0.09942055,-25.566662,-1.4717817,3.963399,-2.927637,0.595665
-15.829509,31.968971,0.72081965,13.291735,1.1542437,-0.7970413,-0.11499751,-0.1321957,-0.8294936,-0.5452987,0.49692637,-0.38880822,0.41595146,0.17759696,0.32060826,-0.92635304,-2.12529,-1.0075096,2.02332,1.8460256,-0.9185366,0.33081865,-0.85821605,-2.0799973,-1.048146,2.0553772,1.8088254,-0.93542874,-0.302857,-1.481301,-0.97869986,0.89285433,-0.66215545,0.43357593,0.08676466,-0.3970337,-0.4468155,0.80498147,-1.1095401,0.028922724,-0.7085743,-0.36601257,-0.45343018,0.7568408,0.96561426,-0.017192049,0.21569438,0.14411636,-0.9682623,0.026036642,-0.7745488,0.0,1.0,0.0,0.0,0.0,0.0,0.0,-0.25296628,0.046815485,-0.25498146,-0.94769,-0.12860298,-20.00636,-3.2025814,7.084906,-2.6958168,0.38314015
-22.762321,44.65589,4.87549,20.719877,1.9688392,-0.21397209,-0.24935818,-0.22577599,-0.82753086,-0.54103774,0.57496274,-0.39496604,0.41035846,0.2016772,0.30824107,-0.9409691,-2.1341012,-0.99064976,2.0158806,1.8498613,-0.91526103,0.32745314,-0.8730285,-2.090423,-1.0389376,2.0491211,1.8129739,-0.93448746,-0.34726936,-1.4817992,-1.0638123,0.93135643,-0.6142567,0.40803844,0.09678051,-0.40810394,-0.44640732,0.79762113,-1.1064839,0.04442908,-0.7462734,-0.37600708,-0.45298386,0.7489757,0.9667948,-0.013336206,0.21471876,0.1379341,-1.0051451,0.05456403,-0.7952826,0.0,1.0,0.0,0.0,0.0,0.0,0.0,-0.24189603,0.046407312,-0.24762112,-4.278934,-0.22912025,-8.47888,4.1834116,4.6352625,-2.6736557,1.0331929
4.101736,64.22125,17.485613,16.991764,1.1551576,-0.15361366,0.040485922,-0.124279544,-0.818196,-0.49581963,0.601126,-0.4137372,0.45935968,0.2814588,0.31502518,-0.9548481,-2.140005,-0.978825,2.0077474,1.8589098,-0.90634155,0.32418633,-0.88780093,-2.1009648,-1.029197,2.0431876,1.816939,-0.9333952,-0.32005882,-1.4763495,-1.0498092,0.98860484,-0.58692634,0.39239478,0.113370866,-0.4190216,-0.44582367,0.79022294,-1.0829973,0.060622282,-0.7408611,-0.38596725,-0.4523697,0.74112713,0.9679302,-0.009433723,0.21372737,0.13169134,-0.9880171,0.06683097,-0.7861016,0.0,1.0,0.0,0.0,0.0,0.0,0.0,-0.23097837,0.045823663,-0.24022293,2.6546538,0.37174225,1.7527342,5.8324814,2.6275754,-1.6443789,1.6549335
-8.532898,62.27938,14.360585,19.989624,1.6056135,0.09761396,-0.0631724,-0.22807103,-0.822262,-0.5339518,0.58313566,-0.40767395,0.40884203,0.23980914,0.30137923,-0.97002715,-2.15436,-0.9708834,2.0024202,1.8578233,-0.9094143,0.32080272,-0.902539,-2.111238,-1.0190022,2.03744,1.8207327,-0.9321708,-0.34433335,-1.4735574,-1.0187645,1.0303768,-0.57192826,0.37465647,0.12542707,-0.42962265,-0.44511795,0.7827821,-1.052964,0.0740801,-0.74605405,-0.39587784,-0.45152283,0.7333572,0.9690132,-0.00558237,0.21273847,0.12539776,-0.987698,0.094991624,-0.77857536,0.0,1.0,0.0,0.0,0.0,0.0,0.0,-0.22037733,0.045117944,-0.23278207,-2.401626,0.09531975,3.3869982,4.3548107,1.1525035,-1.8651664,1.1983767
-3.5385988,63.660892,15.668737,17.584507,1.2844625,0.10222909,0.049928427,-0.21133792,-0.82046294,-0.51518714,0.57791036,-0.41071486,0.41054076,0.29977834,0.29966894,-0.9845853,-2.1627567,-0.96121114,1.9963685,1.8617868,-0.90219295,0.31722707,-0.9172504,-2.1210835,-1.0085558,2.0317683,1.8243699,-0.93079656,-0.3619725,-1.4709505,-0.97161436,1.0498337,-0.56673396,0.3596715,0.14129515,-0.43989944,-0.4442978,0.7752896,-1.0194912,0.08479078,-0.75098175,-0.40571213,-0.450428,0.7256427,0.9700338,-0.0017743816,0.21174498,0.119143195,-0.9759484,0.11786246,-0.77350336,0.0,1.0,0.0,0.0,0.0,0.0,0.0,-0.21010053,0.044297785,-0.22528958,-1.7746747,0.085902214,5.0398707,2.0806313,0.1381278,-1.5892267,1.5655398
-16.03272,63.675236,12.918208,21.470505,1.7897639,0.32314044,-0.07618053,-0.27949345,-0.811712,-0.50880533,0.607244,-0.4081462,0.41374835,0.32855156,0.28927773,-0.9984216,-2.171964,-0.9478314,1.9909537,1.8657447,-0.8979414,0.31319064,-0.93190455,-2.1304984,-0.99789244,2.026111,1.8278719,-0.9292544,-0.41734028,-1.4641924,-0.9305307,1.0725417,-0.56667846,0.34684694,0.1585229,-0.44988632,-0.4433365,0.7677346,-0.9918759,0.099667154,-0.75792307,-0.41554642,-0.44898605,0.7179913,0.970999,0.0020269307,0.21078126,0.112818524,-0.9808555,0.15711503,-0.7666896,0.0,1.0,0.0,0.0,0.0,0.0,0.0,-0.20011365,0.04333648,-0.21773458,-5.469078,0.49045086,4.351461,2.4825811,-0.34677982,-1.3634086,1.7193675
-6.556165,63.92254,14.839684,17.606554,1.3841574,0.21556789,0.051130317,-0.2505948,-0.81955343,-0.46233156,0.5924594,-0.39129865,0.4001312,0.3428898,0.28813115,-1.0138599,-2.1767316,-0.9386465,1.986981,1.867885,-0.8949654,0.3087832,-0.9465339,-2.1393943,-0.9871398,2.020492,1.8312536,-0.9275461,-0.44855928,-1.463104,-0.8748204,1.076645,-0.56151295,0.33500153,0.17498681,-0.45956802,-0.44226074,0.7600965,-0.9607041,0.10985213,-0.7662182,-0.4253273,-0.44723892,0.71037984,0.97190875,0.005786287,0.20978831,0.10653044,-0.9717263,0.18457854,-0.76354593,0.0,1.0,0.0,0.0,0.0,0.0,0.0,-0.19043195,0.042260736,-0.21009648,-3.1166792,-0.060224533,5.876565,0.561738,0.13231039,-1.2747347,1.6385794
-7.930159,65.51553,14.800354,18.046738,1.4482424,0.26997185,0.03373215,-0.2842826,-0.81024635,-0.43774006,0.59807605,-0.38728654,0.3943122,0.3478879,0.28035495,-1.0275586,-2.1831682,-0.9273322,1.9817634,1.8706849,-0.8927573,0.30402675,-0.9611242,-2.1477294,-0.97637665,2.0149336,1.8345249,-0.92568636,-0.48465556,-1.4581901,-0.8189212,1.0766757,-0.55518425,0.32429323,0.18965581,-0.46894455,-0.44108582,0.7523791,-0.929574,0.11997464,-0.7735102,-0.43502045,-0.44520187,0.7028105,0.9727663,0.0094805,0.20874132,0.10031365,-0.9630628,0.21428534,-0.75884867,0.0,1.0,0.0,0.0,0.0,0.0,0.0,-0.18105543,0.04108581,-0.20237911,-3.599292,0.32348633,5.8900237,0.15583038,0.24930239,-1.1583567,1.4619619
-8.088146,62.92962,13.771976,16.870953,1.4169369,0.22432369,0.05426693,-0.30542538,-0.8173754,-0.41858923,0.5845447,-0.36456946,0.36593035,0.38200134,0.27348423,-1.0428617,-2.1895883,-0.9179222,1.9784766,1.871118,-0.8874862,0.29890743,-0.9757049,-2.1555533,-0.9656985,2.009495,1.8376814,-0.92367184,-0.520955,-1.4585154,-0.7692655,1.0654172,-0.5413437,0.31230366,0.20544674,-0.47803116,-0.43981934,0.74454,-0.9016728,0.1286129,-0.78805476,-0.4446373,-0.44288254,0.69523895,0.97358525,0.013133804,0.20757927,0.094180375,-0.9565743,0.24211536,-0.7604966,0.0,1.0,0.0,0.0,0.0,0.0,0.0,-0.17196882,0.03981933,-0.19453996,-3.6149025,-0.19125938,5.238116,-0.96149445,1.0221481,-1.2949109,1.5889525
-18.102308,60.31933,10.679476,18.929148,1.7855285,0.2975373,-0.043599512,-0.36613518,-0.8139055,-0.42181098,0.5765331,-0.32862383,0.3184792,0.38726318,0.2622939,-1.0570954,-2.1977344,-0.9080452,1.9766326,1.8695294,-0.8849455,0.29323497,-0.9902819,-2.1630423,-0.9551688,2.00428,1.8406905,-0.92151,-0.5824167,-1.4580663,-0.74181867,1.0496641,-0.5159704,0.2966485,0.21989502,-0.4868965,-0.43844986,0.7364819,-0.88161016,0.13990693,-0.8115575,-0.45431137,-0.4402008,0.68761384,0.9743896,0.016835235,0.20624222,0.08800943,-0.9653961,0.28093064,-0.76709235,0.0,1.0,0.0,0.0,0.0,0.0,0.0,-0.16310346,0.038449854,-0.1864819,-6.072366,-0.115036964,2.9214025,-1.3435364,2.238965,-1.6697586,1.4828563
-19.567955,60.6862,10.3069105,18.91031,1.8536475,0.3285914,-0.048718072,-0.39243972,-0.8102369,-0.4005448,0.55926275,-0.2914573,0.28221402,0.41313818,0.253991,-1.0713055,-2.2030969,-0.8992425,1.9751344,1.8689119,-0.88019615,0.28691995,-1.0048406,-2.170291,-0.9448541,1.9994028,1.8435256,-0.9191998,-0.6475948,-1.4556342,-0.719046,1.0262082,-0.47942472,0.27880946,0.23481083,-0.49557114,-0.43696594,0.7281768,-0.86304724,0.15065876,-0.8371448,-0.4640808,-0.43711472,0.67991495,0.97519296,0.020617567,0.20467165,0.08174939,-0.9756059,0.3223003,-0.77458024,0.0,1.0,0.0,0.0,0.0,0.0,0.0,-0.15442884,0.036965936,-0.17817676,-6.441033,0.086045265,2.4401784,-2.1092176,3.3670485,-1.8865108,1.5319973
-15.368485,60.54083,10.901306,16.741886,1.7964644,0.23923278,-0.008822888,-0.40648928,-0.807637,-0.38907257,0.5182613,-0.17455286,0.1822008,0.4111429,0.24627101,-1.0856043,-2.2091982,-0.89302796,1.9819474,1.8617457,-0.87808555,0.28003109,-1.0193632,-2.1773481,-0.9349282,1.9951909,1.8461211,-0.9167576,-0.70246106,-1.4516147,-0.7006101,0.982119,-0.40273386,0.25269303,0.24753875,-0.50406647,-0.43538284,0.71958375,-0.8451665,0.16061802,-0.86650544,-0.47392654,-0.43365097,0.6721215,0.97602594,0.02444689,0.2026899,0.07544867,-0.98291284,0.35870242,-0.7845025,0.0,1.0,0.0,0.0,0.0,0.0,0.0,-0.14593351,0.035382837,-0.16958374,-5.435598,0.25467873,2.0186067,-4.2042375,7.3786497,-2.7378142,1.3244867
-16.711561,60.31629,9.982108,16.852001,1.7745564,0.1569792,-0.036981225,-0.4355401,-0.79949254,-0.42498192,0.5122622,-0.13884939,0.0653662,0.4269847,0.23647708,-1.0993124,-2.2198462,-0.883702,1.981306,1.8526577,-0.87405914,0.2726258,-1.0338113,-2.1844547,-0.9254133,1.9917793,1.8483868,-0.9141932,-0.7529851,-1.4431391,-0.7131141,0.94199103,-0.32143697,0.21729462,0.25955838,-0.51239777,-0.433712,0.7106728,-0.82940215,0.16900487,-0.89897084,-0.48387527,-0.4298401,0.6642052,0.9768946,0.028408388,0.20024763,0.06907052,-0.9928936,0.39383402,-0.7973825,0.0,1.0,0.0,0.0,0.0,0.0,0.0,-0.13760221,0.033712,-0.16067278,-4.9990773,0.7007599,-1.0934353,-3.7986994,7.861948,-3.695044,1.253885
-2.2258391,65.21955,14.001721,13.618986,1.2304761,0.03998816,0.08204206,-0.4037946,-0.79598284,-0.38402328,0.5029314,-0.13933565,0.008169968,0.44101316,0.23224634,-1.1134096,-2.222857,-0.87512016,1.9778458,1.8492037,-0.8700919,0.2650112,-1.048168,-2.1915421,-0.9162474,1.9890516,1.8502812,-0.91151434,-0.7643909,-1.4335893,-0.7061201,0.9084003,-0.2575462,0.17986219,0.27065706,-0.52049637,-0.43200684,0.70152634,-0.80342233,0.17105988,-0.9190438,-0.49375916,-0.42581558,0.6562079,0.9777751,0.032457203,0.19739583,0.06274794,-0.98146236,0.4109698,-0.803758,0.0,1.0,0.0,0.0,0.0,0.0,0.0,-0.12950361,0.03200683,-0.15152633,-1.16992,0.8210659,0.9803057,-3.249693,6.059593,-3.885898,1.1148036
0.41251802,64.80827,14.272361,11.9041,0.99803674,0.026107907,0.14915228,-0.434698,-0.7947306,-0.36607268,0.44798362,-0.12579869,-0.10001206,0.4431037,0.22154139,-1.127641,-2.2281494,-0.87144905,1.9764717,1.84028,-0.86720395,0.2572726,-1.0624425,-2.1984582,-0.907568,1.9868364,1.8517556,-0.90873635,-0.77713287,-1.4257586,-0.68619055,0.85473716,-0.21068281,0.13625231,0.28009847,-0.52832794,-0.43029785,0.6921724,-0.77619797,0.17078812,-0.94019324,-0.50349045,-0.42165756,0.64812154,0.9786561,0.036591534,0.19413704,0.056603003,-0.96416247,0.42284012,-0.8135178,0.0,1.0,0.0,0.0,0.0,0.0,0.0,-0.121672034,0.030297846,-0.1421724,-1.312685,0.65939426,2.2768974,-5.2760005,4.3477564,-4.4992237,0.942117
21.177315,73.03833,20.619736,8.33102,0.4271037,-0.08459455,0.29144827,-0.36042613,-0.7888096,-0.29206768,0.46005738,-0.1189395,-0.105088696,0.47621843,0.22122999,-1.1413234,-2.227665,-0.86156225,1.9749424,1.8412467,-0.8611145,0.24980485,-1.0766332,-2.2048364,-0.89928716,1.9849842,1.8528317,-0.90585434,-0.7370785,-1.4171965,-0.62026757,0.8190699,-0.17802033,0.097833805,0.2907178,-0.53577423,-0.42865753,0.6827824,-0.73389864,0.16172475,-0.93808675,-0.51283646,-0.41755676,0.64005345,0.97952145,0.040605824,0.1905299,0.050863042,-0.91987926,0.41072023,-0.80759513,0.0,1.0,0.0,0.0,0.0,0.0,0.0,-0.114225745,0.028657526,-0.1327824,3.8681507,0.7529259,7.028675,-3.6171436,2.8574915,-3.941928,1.0073304
24.144718,76.82167,22.825428,8.977261,0.7869992,-0.042832077,0.25073755,-0.36563408,-0.7913844,-0.20461611,0.44333234,0.0025824965,-0.2021224,0.4603995,0.21324144,-1.1557716,-2.225298,-0.85495394,1.9852424,1.8326194,-0.8598144,0.242746,-1.0907705,-2.2101922,-0.89131534,1.9837158,1.8534936,-0.9028865,-0.69593537,-1.4130553,-0.50592744,0.7897258,-0.11118935,0.055383064,0.29861277,-0.54278183,-0.42711258,0.67350334,-0.6894589,0.15184166,-0.92435426,-0.52176285,-0.41357422,0.63214314,0.9804099,0.044171825,0.18645732,0.045593496,-0.8775803,0.39954495,-0.7885272,0.0,1.0,0.0,0.0,0.0,0.0,0.0,-0.10721815,0.027112573,-0.12350333,3.975916,0.31540394,11.892295,-2.9952407,6.2621326,-4.340863,0.76048374
50.405113,83.738,30.115831,3.1349783,0.21127212,-0.21789211,0.43891957,-0.26166603,-0.792104,-0.055001818,0.4089528,0.074493155,-0.25135776,0.45349848,0.2165794,-1.1699809,-2.2156923,-0.85042006,1.991165,1.8283578,-0.8575367,0.2365109,-1.1048925,-2.2138467,-0.88370144,1.9832731,1.8537396,-0.89985937,-0.60010284,-1.4121208,-0.31661513,0.7513104,-0.023759104,0.014173769,0.30390942,-0.54922485,-0.42575455,0.6645474,-0.62976974,0.13081652,-0.88636965,-0.530056,-0.40991592,0.62453735,0.9813672,0.046853907,0.18175983,0.04106513,-0.8072108,0.3582254,-0.7540235,0.0,1.0,0.0,0.0,0.0,0.0,0.0,-0.10077512,0.025754541,-0.11454737,9.360099,0.009322166,19.540823,-4.024577,8.238506,-4.17152,0.46452284
71.6977,89.31123,36.65273,-2.0918102,-0.019897804,-0.23826465,0.6075163,-0.19427252,-0.80015326,0.17705405,0.33461815,0.21723695,-0.2620758,0.4222402,0.21708365,-1.1849078,-2.1961412,-0.85023963,2.0049968,1.827532,-0.8576354,0.23144169,-1.1190565,-2.2147927,-0.87674296,1.9840212,1.8536099,-0.8968122,-0.47667143,-1.4181327,-0.018208442,0.6766375,0.10560716,-0.022013698,0.30481264,-0.55498123,-0.42466354,0.6561442,-0.5579552,0.1017321,-0.8256679,-0.5374718,-0.4068222,0.6173939,0.9824686,0.048054483,0.17615241,0.03763502,-0.7161156,0.29697135,-0.7038503,0.0,1.0,0.0,0.0,0.0,0.0,0.0,-0.095018744,0.024663538,-0.10614419,12.095362,-0.6931782,30.54676,-7.6854825,12.351671,-3.6231437,0.026011467
70.24045,79.84766,32.676445,-5.35889,-0.22225672,-0.48574343,0.6481502,-0.15635568,-0.7941159,0.16432828,0.23287855,0.3977522,-0.32442707,0.43530723,0.21580613,-1.1984681,-2.19836,-0.8534551,2.0237963,1.8211672,-0.8532815,0.22757152,-1.1332567,-2.2132635,-0.870904,1.9864239,1.8531182,-0.89375234,-0.35770747,-1.4211059,0.21192938,0.5526629,0.283598,-0.058179665,0.30626187,-0.5600929,-0.4238701,0.6481864,-0.49631354,0.07217631,-0.78777874,-0.5440521,-0.40437698,0.6105689,0.9837554,0.047789812,0.16937743,0.03539176,-0.6355745,0.2299662,-0.6781675,0.0,1.0,0.0,0.0,0.0,0.0,0.0,-0.08990705,0.02387008,-0.09818637,11.7195425,-0.4077673,23.560898,-12.486219,17.349207,-3.6212935,0.122106075
72.20418,80.2419,32.405045,-6.3994126,-0.4317044,-0.5368417,0.6846622,-0.08655575,-0.7808467,0.27899578,0.16920835,0.48858622,-0.2889287,0.46086797,0.21891594,-1.2113414,-2.185364,-0.85398316,2.0352824,1.8242253,-0.84766555,0.22491494,-1.1474149,-2.2096105,-0.86642677,1.9906329,1.8523335,-0.8906604,-0.23539115,-1.4144619,0.4178044,0.4128297,0.46550196,-0.08514982,0.31007305,-0.56459427,-0.4233818,0.64061373,-0.43536726,0.041316964,-0.75007284,-0.54982376,-0.4026413,0.6039715,0.9852093,0.046169918,0.16140069,0.034361187,-0.55359966,0.15794064,-0.6563545,0.0,1.0,0.0,0.0,0.0,0.0,0.0,-0.08540571,0.0233818,-0.09061372,12.108198,0.53908825,21.03039,-13.981951,17.847656,-2.6623414,0.3679335
77.63939,73.850044,30.762098,-12.401679,-1.2672584,-0.59762436,0.9110279,-0.031726506,-0.77304137,0.3814536,-0.030164342,0.5552987,-0.21476707,0.47054967,0.22174229,-1.224719,-2.1714652,-0.8694432,2.0461628,1.8308568,-0.84360546,0.22342603,-1.1614624,-2.2040756,-0.8639808,1.9965199,1.851377,-0.8875244,-0.12030083,-1.4018531,0.6000065,0.18886822,0.6291068,-0.098977685,0.31492504,-0.5685005,-0.4232254,0.63328433,-0.3759967,0.007649724,-0.7300881,-0.5546608,-0.40171814,0.59741515,0.9867861,0.04339549,0.1521871,0.03476965,-0.45877638,0.07226225,-0.6579727,0.0,1.0,0.0,0.0,0.0,0.0,0.0,-0.08149946,0.023225397,-0.08328432,11.435363,1.1187077,18.502474,-22.301609,16.17837,-1.3127267,0.5228102
50.5646,73.87423,25.937773,-6.3222294,-0.5494453,-0.09755477,0.7850777,-0.100468114,-0.74720454,0.4860298,-0.18158276,0.63683015,-0.09641133,0.47765827,0.21337922,-1.2361829,-2.1554725,-0.8821391,2.0602028,1.8417358,-0.8397586,0.22245401,-1.1752716,-2.1967986,-0.86412024,2.0039048,1.8503981,-0.884333,-0.089301184,-1.3742731,0.7698504,-0.080831766,0.775237,-0.09702022,0.32099915,-0.57188797,-0.42330933,0.6260729,-0.32727176,-0.013719277,-0.7209386,-0.55869675,-0.401371,0.59081054,0.98843175,0.039646428,0.14176257,0.036524236,-0.38373855,0.02422697,-0.66390675,0.0,1.0,0.0,0.0,0.0,0.0,0.0,-0.078112006,0.02330932,-0.07607287,3.1613932,2.6474476,16.86623,-26.77288,14.719176,0.35438538,0.74459314
14.85576,75.37487,19.841257,4.517293,0.54553103,0.36431324,0.4715531,-0.16308598,-0.71922106,0.50404245,-0.25938812,0.6774314,-0.022374982,0.4982676,0.2061454,-1.2471937,-2.1463943,-0.89005905,2.071648,1.8481606,-0.8345063,0.2211973,-1.1886994,-2.1882465,-0.86678404,2.012511,1.8495094,-0.8810657,-0.13725057,-1.3324558,0.88210136,-0.32734656,0.89031166,-0.08559675,0.32940426,-0.57489777,-0.42349625,0.61888593,-0.29279506,-0.02007582,-0.7198452,-0.5622406,-0.40114212,0.5841512,0.9900662,0.035209857,0.13036269,0.039177015,-0.34218186,0.022856595,-0.6689361,0.0,1.0,0.0,0.0,0.0,0.0,0.0,-0.07510221,0.02349624,-0.06888592,-4.6278567,4.1353703,10.744333,-24.393242,11.911869,1.3580024,1.0720849
11.690954,70.18101,17.551348,4.1915965,0.323895,0.2548809,0.44410986,-0.1312668,-0.7230068,0.5368982,-0.3802283,0.7072983,-0.052565563,0.4976525,0.20807062,-1.261,-2.1345568,-0.90480685,2.0832407,1.8442528,-0.8313005,0.21947521,-1.2017895,-2.178874,-0.87179697,2.0220432,1.8487158,-0.8777193,-0.18323587,-1.3012007,0.9535578,-0.55823356,0.97550774,-0.07669812,0.33735248,-0.5776062,-0.4237404,0.611615,-0.26370576,-0.025753053,-0.7307263,-0.5653877,-0.4009552,0.577347,0.99161875,0.030364465,0.11815512,0.042539544,-0.30488333,0.019109491,-0.68612295,0.0,1.0,0.0,0.0,0.0,0.0,0.0,-0.072393775,0.023740381,-0.06161499,-4.4129014,3.094554,6.5806627,-22.784603,9.000885,1.0898366,1.0791242
-5.3608656,66.619,13.56611,9.698477,0.82910097,0.31950986,0.21127199,-0.17760964,-0.71939397,0.5223496,-0.42407307,0.7292024,-0.041954253,0.5112268,0.20171425,-1.2737288,-2.1266391,-0.9142043,2.0949636,1.8445203,-0.8265966,0.21715134,-1.2146469,-2.1691895,-0.87866056,2.032221,1.8480078,-0.8742898,-0.24810715,-1.280661,0.9712744,-0.7279504,1.0337936,-0.068439916,0.34588724,-0.580101,-0.42399216,0.6041632,-0.24480721,-0.024781326,-0.7504896,-0.5683441,-0.40065765,0.57032895,0.99303216,0.025368296,0.10535298,0.046307035,-0.28994003,0.03390232,-0.7084442,0.0,1.0,0.0,0.0,0.0,0.0,0.0,-0.06989896,0.023992151,-0.054163218,-6.2889605,2.0618439,1.1520147,-16.656769,6.353569,0.9888679,1.178652
-7.6372986,75.77682,15.710487,15.506069,1.1274807,0.34347004,-0.013344038,-0.15626091,-0.6956997,0.529515,-0.3685895,0.7261203,0.03736749,0.53004724,0.20152526,-1.2842169,-2.1162379,-0.91551954,2.1048331,1.8517445,-0.82128507,0.21440141,-1.2272736,-2.1595154,-0.8863481,2.0427835,1.8474317,-0.87077075,-0.28330883,-1.2565413,0.9641228,-0.7814231,1.065532,-0.05331655,0.3550376,-0.5824089,-0.42422104,0.59668654,-0.22655436,-0.022391126,-0.7466506,-0.57120895,-0.40018845,0.5632541,0.9942572,0.02026189,0.09234967,0.050135847,-0.28303903,0.052722458,-0.70820683,0.0,1.0,0.0,0.0,0.0,0.0,0.0,-0.06759107,0.024221033,-0.04668653,-3.3216178,2.4755716,-1.3167739,-5.061519,3.7479162,1.7168164,1.2256324
-6.8750734,85.15546,18.153769,20.440289,1.2558823,0.302844,-0.22300026,-0.12592301,-0.66777223,0.4866677,-0.28603655,0.7154663,0.15368643,0.5183177,0.20180911,-1.2940508,-2.1108487,-0.9149518,2.11433,1.8628004,-0.818939,0.21159902,-1.2395874,-2.150196,-0.893702,2.0534954,1.8470865,-0.8671792,-0.27862787,-1.222611,0.9192952,-0.71929735,1.0752351,-0.027393108,0.36151972,-0.5845413,-0.42442703,0.5894247,-0.2092676,-0.019745091,-0.71918297,-0.5740471,-0.39953613,0.55634195,0.99526364,0.015042233,0.07961925,0.0537094,-0.2820143,0.070484504,-0.6863198,0.0,1.0,0.0,0.0,0.0,0.0,0.0,-0.065458655,0.024427027,-0.039424717,0.64953566,3.5033464,-4.999447,6.457329,1.5461206,2.8372977,0.92535615
3.1698923,96.13076,22.360323,21.747501,0.87802327,0.16789587,-0.27733737,-0.068600334,-0.6215704,0.44326437,-0.20900242,0.6903665,0.25350666,0.518508,0.20473899,-1.3017445,-2.1058695,-0.9146022,2.1225321,1.8724372,-0.8153284,0.20922294,-1.2514054,-2.141529,-0.89986175,2.0641575,1.8470653,-0.8635334,-0.22338821,-1.1676764,0.8478438,-0.58082676,1.0651671,0.0072280155,0.36632913,-0.586483,-0.42463303,0.58262724,-0.1894524,-0.020568484,-0.66656613,-0.57681274,-0.39881897,0.54981196,0.99604243,0.009723117,0.067592405,0.056887496,-0.27304325,0.07365815,-0.64264643,0.0,1.0,0.0,0.0,0.0,0.0,0.0,-0.063516974,0.02463302,-0.032627225,5.684355,5.620408,-7.5526,14.062977,-0.44517517,3.7549872,0.7107198
