Afshin1997/kuka_rl_ros2/src/catch_and_throw/input_files/idealpd/recorded_trajectories/env_321_data.csv
torque0,torque1,torque2,torque3,torque4,torque5,torque6,action0,action1,action2,action3,action4,action5,action6,set_target_0,set_target_1,set_target_2,set_target_3,set_target_4,set_target_5,set_target_6,joint_pos_0,joint_pos_1,joint_pos_2,joint_pos_3,joint_pos_4,joint_pos_5,joint_pos_6,joint_vel_0,joint_vel_1,joint_vel_2,joint_vel_3,joint_vel_4,joint_vel_5,joint_vel_6,tennisball_pos_0,tennisball_pos_1,tennisball_pos_2,tennisball_lin_vel_0,tennisball_lin_vel_1,tennisball_lin_vel_2,end_effector_pos_0,end_effector_pos_1,end_effector_pos_2,end_effector_rot_0,end_effector_rot_1,end_effector_rot_2,end_effector_rot_3,end_effector_lin_vel_0,end_effector_lin_vel_1,end_effector_lin_vel_2,obs_task_0,obs_task_1,obs_task_2,obs_task_3,obs_task_4,obs_task_5,obs_task_6,to_final_target_0,to_final_target_1,to_final_target_2,joint_acc_0,joint_acc_1,joint_acc_2,joint_acc_3,joint_acc_4,joint_acc_5,joint_acc_6
0.0,0.0,0.0,0.0,0.0,0.0,0.0,0.0,0.0,0.0,0.0,0.0,0.0,0.0,1.7802359,-1.0646509,-1.8151424,-1.1170107,1.9373155,1.1170107,-0.91629785,1.7802359,-1.0646509,-1.8151424,-1.1170107,1.9373155,1.1170107,-0.91629785,0.0,0.0,0.0,0.0,0.0,0.0,0.0,2.8572693,-0.23451042,0.43471494,-3.2538066,-0.21605235,5.1587267,0.5304146,-0.45449638,0.693097,0.5745483,0.17512383,0.15255436,0.7848268,0.0,0.0,0.0,1.0,0.0,0.0,0.0,0.0,0.0,0.0,-3.5072694,-0.16548958,0.11528507,0.0,0.0,0.0,0.0,0.0,0.0,0.0
0.0,0.0,0.0,0.0,0.0,0.0,0.0,0.0,0.0,0.0,0.0,0.0,0.0,0.0,1.7802359,-1.0646509,-1.8151424,-1.1170107,1.9373155,1.1170107,-0.91629785,1.7802359,-1.0646509,-1.8151424,-1.1170107,1.9373155,1.1170107,-0.91629785,0.0,0.0,0.0,0.0,0.0,0.0,0.0,2.8572693,-0.23451042,0.43471494,-3.2538066,-0.21605235,5.1587267,0.5304146,-0.45449638,0.693097,0.5745483,0.17512383,0.15255436,0.7848268,0.0,0.0,0.0,1.0,0.0,0.0,0.0,0.0,0.0,0.0,-3.5072694,-0.16548958,0.11528507,0.0,0.0,0.0,0.0,0.0,0.0,0.0
0.0,0.0,0.0,0.0,0.0,0.0,0.0,0.0,0.0,0.0,0.0,0.0,0.0,0.0,1.7802359,-1.0646509,-1.8151424,-1.1170107,1.9373155,1.1170107,-0.91629785,1.7802359,-1.0646509,-1.8151424,-1.1170107,1.9373155,1.1170107,-0.91629785,0.0,0.0,0.0,0.0,0.0,0.0,0.0,2.8572693,-0.23451042,0.43471494,-3.2538066,-0.21605235,5.1587267,0.5304146,-0.45449638,0.693097,0.5745483,0.17512383,0.15255436,0.7848268,0.0,0.0,0.0,1.0,0.0,0.0,0.0,0.0,0.0,0.0,-3.5072694,-0.16548958,0.11528507,0.0,0.0,0.0,0.0,0.0,0.0,0.0
-176.0,90.881134,2.7035618,110.0,10.842646,5.611723,-3.8780615,-0.82830226,0.46285686,-0.5355451,0.72330755,0.33581907,0.6256269,-0.57479775,1.6974057,-1.0183653,-1.8686969,-1.04468,1.9708973,1.1795734,-0.97377765,1.7784334,-1.0617956,-1.8206794,-1.1127115,1.94175,1.1214014,-0.9177055,-0.24025625,0.37986624,-0.73741287,0.5734016,0.59056485,0.5836529,-0.18740536,2.8247566,-0.23666954,0.48552704,-3.2505534,-0.21583635,5.0553827,0.528244,-0.45746803,0.6941385,0.5783196,0.17376518,0.15162486,0.7825355,-0.289491,-0.39646158,0.13864315,1.0,0.0,0.0,0.0,0.0,0.0,0.0,-3.4747567,-0.16333047,0.06447297,-23.994896,37.780827,-73.51141,57.372902,58.819206,57.797356,-18.685968
-176.0,37.408318,-18.26484,110.0,12.283137,3.996802,-3.5231242,-0.827074,0.19608875,-0.56726587,0.70357406,0.44825813,0.61540705,-0.6050269,1.695726,-1.0421867,-1.877406,-1.0423541,1.9865758,1.1829422,-0.9782082,1.7751833,-1.056434,-1.8345935,-1.1012026,1.9524865,1.1328875,-0.91996664,-0.3516053,0.5864117,-1.6094906,1.3450837,1.2335489,1.3303396,-0.23695277,2.7922745,-0.23882675,0.5353065,-3.2473035,-0.21562055,4.952142,0.52318764,-0.4649639,0.69603014,0.5869131,0.17046973,0.14875819,0.77739567,-0.5789773,-0.8658202,0.20668642,1.0,0.0,0.0,0.0,0.0,0.0,0.0,-3.4422746,-0.16117325,0.014693499,-10.690975,20.06657,-87.23483,77.6793,63.986633,72.68765,-4.314661
-156.03104,117.17252,29.036114,92.72498,8.321071,7.6803646,-2.210082,-0.78533596,0.45437083,-0.16566265,0.6133073,0.44376078,0.63277,-0.5651048,1.6966497,-1.0109969,-1.8511598,-1.0398719,1.9968626,1.1961645,-0.97647715,1.7684523,-1.0492395,-1.8499172,-1.0859953,1.9651551,1.1460825,-0.9226293,-0.78085715,0.76057905,-1.5004604,1.5801724,1.2738819,1.3079582,-0.27764708,2.7598267,-0.24098206,0.58405435,-3.244057,-0.21540497,4.8490047,0.51519203,-0.47518158,0.6996975,0.5986731,0.165724,0.14498797,0.7701328,-0.8804594,-1.067966,0.42456773,1.0,0.0,0.0,0.0,0.0,0.0,0.0,-3.4098268,-0.15901795,-0.03405434,-43.072308,16.433918,12.763405,23.738718,2.7442932,-4.631257,-4.5612693
-94.23589,125.11569,42.542778,59.21561,4.5506353,7.7577415,-0.86977434,-0.7906308,0.45244592,-0.1344219,0.5991664,0.451099,0.6140913,-0.5770253,1.6893892,-1.003995,-1.8633593,-1.0260787,2.010265,1.2074916,-0.98033184,1.7577673,-1.0409597,-1.8617885,-1.0704066,1.9769292,1.1583372,-0.92562956,-1.1658578,0.84801173,-1.0753789,1.5519191,1.141011,1.1926683,-0.3101333,2.7274094,-0.24313354,0.63177156,-3.2408135,-0.2151896,4.7459707,0.5047474,-0.48610878,0.70538515,0.6117616,0.15969464,0.14089401,0.761836,-1.1099128,-1.0899651,0.6229219,1.0,0.0,0.0,0.0,0.0,0.0,0.0,-3.3774095,-0.15686646,-0.08177155,-38.958107,7.979119,44.70105,-2.8101444,-14.545941,-13.090491,-4.0259895
-36.50506,129.45949,50.296234,32.15359,1.6232345,6.9451094,0.050447233,-0.8094662,0.512607,-0.065972745,0.5973138,0.50966704,0.6032217,-0.5716748,1.6768208,-0.989699,-1.8683858,-1.0106752,2.027896,1.2186594,-0.982797,1.7440516,-1.0319914,-1.8687294,-1.0560881,1.9871602,1.1692892,-0.92890924,-1.441773,0.9113095,-0.56041825,1.3910705,0.9806097,1.060197,-0.33658385,2.6950264,-0.24528503,0.6784592,-3.2375734,-0.21497446,4.6430397,0.4926548,-0.49637604,0.71284264,0.62488663,0.15246774,0.13661131,0.7533974,-1.254401,-0.991623,0.7913117,1.0,0.0,0.0,0.0,0.0,0.0,0.0,-3.3450265,-0.15471497,-0.12845922,-28.14758,5.806327,53.468384,-16.268753,-16.986645,-14.0247345,-3.4472048
3.7568812,120.56773,48.188637,14.371986,-0.1991486,5.236065,0.41197944,-0.8173279,0.5627186,-0.035949167,0.60903573,0.53947645,0.60029155,-0.5791586,1.6623188,-0.9757195,-1.8723242,-0.99518454,2.041108,1.2293184,-0.9868251,1.7285849,-1.0224317,-1.8713138,-1.043429,1.9960847,1.1790396,-0.9324178,-1.5832208,0.9698705,-0.15311585,1.2234786,0.86122555,0.9457256,-0.3577828,2.662674,-0.24743271,0.72411835,-3.2343364,-0.21475953,4.5402117,0.4797001,-0.50533676,0.72162926,0.63741994,0.1443188,0.13229522,0.74522865,-1.3200094,-0.84853995,0.91024125,1.0,0.0,0.0,0.0,0.0,0.0,0.0,-3.312674,-0.1525673,-0.17411834,-14.60216,5.524218,42.147198,-17.015099,-12.481821,-11.711418,-2.7951121
27.624832,116.020454,46.139877,5.8478985,-1.1177332,3.9958735,0.48497593,-0.8200259,0.620459,0.04682971,0.610449,0.5483078,0.6071043,-0.5720779,1.6465822,-0.9603858,-1.8666308,-0.9823841,2.0509155,1.23975,-0.9896256,1.7124907,-1.0121912,-1.870753,-1.0321051,2.0041795,1.1877981,-0.936099,-1.6191907,1.0413873,0.12941304,1.1012847,0.7910265,0.85247576,-0.3735243,2.6303558,-0.24957848,0.76874995,-3.2311027,-0.21454482,4.437486,0.46645546,-0.51278496,0.7314218,0.64918065,0.13547455,0.12809123,0.73743045,-1.3341336,-0.6933421,1.0026985,1.0,0.0,0.0,0.0,0.0,0.0,0.0,-3.280356,-0.15042153,-0.21874994,-3.9460897,6.9155455,29.278719,-12.470269,-7.319832,-9.358776,-2.1606684
34.437447,109.57578,41.971706,4.346534,-1.2630677,3.0761611,0.36032462,-0.8216776,0.66710705,0.103482336,0.6205255,0.54704535,0.61090416,-0.55339485,1.6303229,-0.94548047,-1.8604048,-0.97005254,2.058884,1.2488886,-0.9914385,1.6964957,-1.0011686,-1.8682582,-1.0215174,2.011847,1.1957556,-0.9398946,-1.593882,1.1219121,0.29197904,1.0440468,0.7582512,0.77697766,-0.383279,2.5980682,-0.25172234,0.8123551,-3.2278724,-0.21433032,4.334863,0.45323944,-0.5187893,0.74200606,0.6602474,0.12609465,0.12411272,0.7299107,-1.3245609,-0.55326915,1.0759228,1.0,0.0,0.0,0.0,0.0,0.0,0.0,-3.2480683,-0.14827767,-0.2623551,2.2842407,7.8705072,16.99492,-5.9170485,-3.4439683,-7.528198,-1.4641047
31.476662,95.90011,34.715797,4.3422403,-1.0469408,2.1874557,0.23627724,-0.82156223,0.68650216,0.121395424,0.6056147,0.57339525,0.615837,-0.5421807,1.6143395,-0.93251836,-1.8561187,-0.9609559,2.0691864,1.2573392,-0.9941127,1.6809222,-0.98942584,-1.8648899,-1.0112196,2.019446,1.2030665,-0.943757,-1.545833,1.1912388,0.35348263,1.024456,0.760108,0.71608835,-0.38860884,2.565815,-0.2538643,0.8549348,-3.2246451,-0.21411604,4.232343,0.44016647,-0.52361107,0.7531078,0.67076874,0.11640196,0.120396726,0.72251266,-1.3063539,-0.44198644,1.1195397,1.0,0.0,0.0,0.0,0.0,0.0,0.0,-3.215815,-0.14613572,-0.3049348,4.628682,6.801605,6.6722274,-2.128768,0.103998184,-6.043637,-0.9276509
24.734911,84.7312,28.88987,6.019996,-0.6875725,1.671684,0.11508382,-0.81566983,0.70591855,0.13855122,0.6078032,0.5788996,0.626826,-0.5384098,1.5993552,-0.918834,-1.8510348,-0.9504393,2.0773358,1.2657491,-0.997598,1.6658312,-0.97710246,-1.8613403,-1.0009123,2.0271707,1.2098624,-0.9476556,-1.4971659,1.245656,0.3566923,1.0321023,0.7766553,0.66739213,-0.39133584,2.5335922,-0.25600433,0.89649004,-3.221421,-0.21390197,4.1299253,0.42725372,-0.52752113,0.7645025,0.68089384,0.1065603,0.11693479,0.71509063,-1.2906821,-0.3569133,1.1435387,1.0,0.0,0.0,0.0,0.0,0.0,0.0,-3.1835923,-0.14399567,-0.34649003,4.73125,5.3432226,0.71065426,0.6050825,1.6246438,-4.8360467,-0.60117245
18.092335,73.96144,23.66045,6.909544,-0.4022439,1.2664572,0.051771015,-0.8097972,0.7178816,0.13166755,0.5971719,0.5953491,0.6310373,-0.5356795,1.5848515,-0.9053143,-1.8481735,-0.94119513,2.0867057,1.272966,-1.0012236,1.6511446,-0.96436614,-1.8580253,-0.990504,2.035128,1.2162424,-0.95157045,-1.4594387,1.282607,0.32424614,1.0430738,0.80210346,0.6282262,-0.3924501,2.501402,-0.25814056,0.93702185,-3.2182002,-0.2136881,4.02761,0.41445732,-0.5307274,0.7759927,0.6907187,0.096710354,0.11370075,0.7075498,-1.2789356,-0.29233268,1.1480132,1.0,0.0,0.0,0.0,0.0,0.0,0.0,-3.151402,-0.14185944,-0.38702184,3.651762,3.623104,-2.933079,0.92003345,2.5536656,-3.8771033,-0.39711595
13.433508,66.20283,20.277584,6.9961886,-0.22286499,1.0553863,0.06637627,-0.8107484,0.7231197,0.13747537,0.57242346,0.6121989,0.63628477,-0.5330684,1.5700698,-0.8920542,-1.8442777,-0.9332617,2.096348,1.2798709,-1.0048773,1.6367041,-0.9513876,-1.8550556,-0.9801061,2.043364,1.2222887,-0.9554891,-1.439251,1.3026812,0.28893483,1.0379937,0.8309392,0.5969709,-0.39261615,2.469244,-0.2602768,0.97653127,-3.2149827,-0.21347445,3.9253972,0.40174484,-0.533371,0.78742266,0.70026326,0.08695216,0.11064146,0.69987786,-1.2708615,-0.23880179,1.1384975,1.0,0.0,0.0,0.0,0.0,0.0,0.0,-3.119244,-0.13972321,-0.42653126,1.8923998,1.9526958,-3.2353878,-0.7100105,2.9090405,-3.0685544,-0.2829492
10.756193,63.691776,19.206831,7.8015823,-0.097323,1.0481323,0.06885081,-0.8054781,0.7317818,0.14322653,0.57358027,0.6089631,0.6397663,-0.52305585,1.5561563,-0.8782094,-1.8407329,-0.9227481,2.1042604,1.2862654,-1.0077947,1.6223837,-0.93827647,-1.852349,-0.96977973,2.0518327,1.228068,-0.9594011,-1.4299563,1.3137513,0.26554805,1.0300767,0.85199445,0.57179415,-0.39152315,2.4371185,-0.2624092,1.0150193,-3.2117684,-0.21326102,3.8232868,0.38908577,-0.53551674,0.7987425,0.7095344,0.07728759,0.1077127,0.6920877,-1.2665558,-0.18943462,1.1268839,1.0,0.0,0.0,0.0,0.0,0.0,0.0,-3.0871186,-0.1375908,-0.4650193,0.79972744,1.055932,-2.031511,-0.9962559,2.1336317,-2.4701118,-0.15254617
9.67104,63.389378,19.03283,8.085331,-0.05689925,1.0810666,0.09830192,-0.80796766,0.7412512,0.1471543,0.5561741,0.6227882,0.63460624,-0.5144016,1.541587,-0.86415136,-1.8376336,-0.91416234,2.1141114,1.2915286,-1.0108413,1.6080805,-0.92507476,-1.8497665,-0.95961165,2.060492,1.2336279,-0.9632949,-1.430941,1.3222554,0.2569941,1.0116302,0.8707214,0.55074286,-0.38953754,2.4050255,-0.26453972,1.052487,-3.2085571,-0.2130478,3.7212787,0.37644958,-0.53715897,0.80994576,0.7185165,0.06769392,0.10488381,0.6842155,-1.2639413,-0.13940546,1.1152318,1.0,0.0,0.0,0.0,0.0,0.0,0.0,-3.0550256,-0.13546029,-0.502487,-0.23932457,0.7987976,-0.51914454,-2.0505667,1.8945456,-2.0609736,-0.06456971
11.161705,64.76395,19.767761,7.7851534,-0.11141914,1.1331699,0.14728123,-0.8037327,0.74678916,0.1636322,0.5419197,0.6299126,0.63841575,-0.51370096,1.5277072,-0.85039586,-1.8334032,-0.9054197,2.1234832,1.2974695,-1.014665,1.5937544,-0.9117958,-1.847121,-0.9496763,2.0693116,1.2390066,-0.9671697,-1.4335417,1.3295555,0.26830924,0.98682535,0.8856708,0.5338379,-0.38769558,2.372963,-0.26666832,1.0889354,-3.2053492,-0.2128348,3.6193724,0.36384773,-0.5382633,0.8210542,0.7271726,0.058124498,0.10211981,0.6763232,-1.25946,-0.08457093,1.1063266,1.0,0.0,0.0,0.0,0.0,0.0,0.0,-3.022963,-0.13333169,-0.53893536,-0.4065752,0.6759405,1.5032887,-2.6816845,1.5054703,-1.6438842,-0.08930564
12.9793415,65.508606,20.168701,7.085807,-0.21909672,1.1194419,0.19451462,-0.80345,0.75074345,0.17880224,0.5194852,0.630921,0.6348859,-0.50993866,1.5134094,-0.8367214,-1.8292408,-0.8977277,2.1324036,1.3024952,-1.0181636,1.5793997,-0.8984501,-1.8442581,-0.94005275,2.0782418,1.2442385,-0.9710254,-1.4365978,1.3361696,0.2936598,0.9535772,0.8956182,0.5198375,-0.38580194,2.3409348,-0.268795,1.1243654,-3.2021446,-0.21262202,3.5175679,0.35132027,-0.53878593,0.8320761,0.73545986,0.048544288,0.099408,0.66847605,-1.2509925,-0.025344353,1.0977066,1.0,0.0,0.0,0.0,0.0,0.0,0.0,-2.9909348,-0.13120499,-0.57436544,-0.4552126,0.60868263,2.9282749,-3.522396,0.99880695,-1.3348103,-0.08901358
14.365389,65.47749,19.968935,6.538398,-0.332052,1.0231155,0.20467776,-0.7995052,0.75846297,0.17543672,0.5032511,0.6337024,0.64168674,-0.4968929,1.4994491,-0.82260376,-1.8267144,-0.88972765,2.141612,1.3084072,-1.0207146,1.5650393,-0.8850214,-1.8411739,-0.93077636,2.0872483,1.2493559,-0.9748544,-1.4363434,1.3449566,0.31459743,0.9183759,0.90226555,0.5092704,-0.3828414,2.308937,-0.2709198,1.1587783,-3.1989431,-0.21240944,3.4158652,0.33890915,-0.538702,0.84300303,0.74336284,0.03894269,0.09677465,0.660704,-1.2376412,0.035213575,1.0875072,1.0,0.0,0.0,0.0,0.0,0.0,0.0,-2.9589372,-0.1290802,-0.6087783,-0.119781494,0.83117485,2.4763644,-3.7129402,0.676167,-0.9698391,0.023388863
14.843094,64.60313,19.368046,5.87414,-0.42681122,0.9001674,0.22149636,-0.8063668,0.7653609,0.18133861,0.4674186,0.64283955,0.63428706,-0.49307558,1.4844027,-0.80848527,-1.82304,-0.8840345,2.1515322,1.3127847,-1.0241619,1.5506579,-0.8714897,-1.8379104,-0.9219377,2.0963235,1.2543799,-0.9786529,-1.4394103,1.355788,0.33153823,0.8716817,0.9095393,0.5003022,-0.3796919,2.2769718,-0.27304268,1.1921749,-3.1957448,-0.21219707,3.3142643,0.32665443,-0.53801537,0.8538009,0.750872,0.029348662,0.094254896,0.65302825,-1.2199799,0.095689245,1.0734233,1.0,0.0,0.0,0.0,0.0,0.0,0.0,-2.926972,-0.12695733,-0.6421749,-0.45535564,1.0425806,2.0691752,-4.863608,0.7456541,-0.7816434,0.052714348
17.977718,64.07251,19.368586,4.097725,-0.6160575,0.7701191,0.29601046,-0.8009675,0.766628,0.20737454,0.42512718,0.64546376,0.64317,-0.478086,1.4705611,-0.7948269,-1.817173,-0.879425,2.1608698,1.3186969,-1.0264615,1.5362707,-0.8578655,-1.8344123,-0.9136741,2.1054635,1.2593352,-0.9824113,-1.4388604,1.3645918,0.3570198,0.81071275,0.9157273,0.4942898,-0.37544072,2.245039,-0.27516365,1.2245562,-3.1925497,-0.21198492,3.212765,0.31464195,-0.53669167,0.8644319,0.7579378,0.019784385,0.09185393,0.64552426,-1.1937066,0.15929209,1.0557663,1.0,0.0,0.0,0.0,0.0,0.0,0.0,-2.895039,-0.124836355,-0.6745562,-0.089502335,0.848341,2.9244184,-6.2904835,0.63700676,-0.43953657,0.16383529
17.776474,63.717514,19.148752,4.692247,-0.55941,0.7112589,0.28588688,-0.7980093,0.76995116,0.22213645,0.41766173,0.64463544,0.64545655,-0.4615448,1.4564698,-0.7808704,-1.8121986,-0.87190795,2.1699271,1.3238808,-1.0285658,1.5219103,-0.8441641,-1.8306396,-0.9059379,2.114653,1.2642409,-0.9861173,-1.4355785,1.3719407,0.38514864,0.76057065,0.9198068,0.48979113,-0.36988696,2.2131367,-0.2772808,1.2559233,-3.1893578,-0.21177298,3.111367,0.30288124,-0.5347576,0.8749028,0.7645612,0.01023118,0.089557335,0.638217,-1.1671096,0.21997702,1.0399208,1.0,0.0,0.0,0.0,0.0,0.0,0.0,-2.8631368,-0.1227192,-0.70592326,0.19860268,0.7101536,3.158772,-5.190873,0.44060946,-0.2905786,0.305897
18.744953,61.37465,18.327848,3.5026474,-0.6448321,0.5438987,0.32806483,-0.8014178,0.7682981,0.2424614,0.36362123,0.6509327,0.64717364,-0.46514833,1.4417685,-0.7673343,-1.8063935,-0.8695758,2.1797464,1.3289583,-1.0326321,1.507567,-0.8304197,-1.8265522,-0.89880633,2.1238885,1.2691103,-0.9897756,-1.434177,1.3751274,0.41760492,0.69678825,0.9246452,0.48683667,-0.36517054,2.1812668,-0.27939796,1.2862772,-3.186169,-0.21156125,3.0100706,0.2914238,-0.53222275,0.8851755,0.7707277,0.0007169617,0.08735844,0.6311472,-1.1351373,0.2787688,1.0184639,1.0,0.0,0.0,0.0,0.0,0.0,0.0,-2.8312669,-0.12060204,-0.73627716,0.015449524,0.30481815,3.575194,-6.554353,0.52212477,-0.095021725,0.23462176
19.629875,61.260742,18.321737,3.1317735,-0.67589444,0.46489415,0.36138004,-0.80013275,0.77182937,0.272302,0.32724854,0.6574317,0.64114076,-0.4536246,1.4275538,-0.7532368,-1.799322,-0.8660815,2.1896317,1.3332244,-1.035138,1.493239,-0.8166477,-1.8220737,-0.89234424,2.133181,1.2739531,-0.9933824,-1.4328139,1.3778875,0.45891902,0.62888104,0.930768,0.48414573,-0.3599699,2.1494293,-0.2815113,1.3156189,-3.1829834,-0.21134973,2.9088752,0.28030777,-0.5290966,0.8952346,0.7764162,-0.008747176,0.08523857,0.6243683,-1.0999804,0.33704838,0.9969722,1.0,0.0,0.0,0.0,0.0,0.0,0.0,-2.7994294,-0.1184887,-0.76561886,0.020861626,0.2691269,4.4432044,-6.9521785,0.6579995,-0.051546097,0.29423237
20.302967,60.79632,18.055138,2.63095,-0.7363547,0.3531076,0.38246512,-0.8005924,0.7762724,0.29308566,0.28293845,0.66389275,0.63850486,-0.44734418,1.4131798,-0.73902047,-1.7927651,-0.8640504,2.1995704,1.3378036,-1.0381168,1.4789168,-0.80283755,-1.817168,-0.88660884,2.1425462,1.278771,-0.9969377,-1.4322534,1.3820056,0.5019433,0.5545753,0.93832874,0.4819287,-0.3547001,2.1176224,-0.28362274,1.3439493,-3.179801,-0.21113841,2.807781,0.26956558,-0.52539635,0.90506935,0.78161925,-0.018143717,0.08319627,0.6179162,-1.0609694,0.39420408,0.9739725,1.0,0.0,0.0,0.0,0.0,0.0,0.0,-2.7676225,-0.116377264,-0.7939493,-0.050902367,0.41325092,4.587966,-7.5790524,0.8155823,0.01874566,0.31699538
19.972054,60.024868,17.594666,2.8075652,-0.7376391,0.2528419,0.36711347,-0.8001664,0.77928245,0.31127432,0.2494217,0.66414034,0.64106536,-0.448758,1.3989002,-0.7249093,-1.7860405,-0.8616667,2.2089603,1.3428776,-1.0418135,1.4646002,-0.78897876,-1.8118541,-0.8815973,2.1519723,1.2835718,-1.0004462,-1.4318447,1.3871288,0.5422551,0.48290113,0.944562,0.48043963,-0.35014793,2.0858498,-0.28573227,1.3712696,-3.1766217,-0.21092732,2.7067878,0.25922012,-0.52113914,0.9146732,0.7863547,-0.027463727,0.08124874,0.6117929,-1.0205414,0.44840378,0.9506693,1.0,0.0,0.0,0.0,0.0,0.0,0.0,-2.7358499,-0.11426774,-0.8212696,-0.05464554,0.5229473,4.277456,-7.3015156,0.70067644,0.101178885,0.2649367
21.511692,56.89405,16.483284,0.65263844,-0.93131405,0.0057291985,0.42525804,-0.8053373,0.77648973,0.3347379,0.16814263,0.6670646,0.64194524,-0.4408704,1.3840665,-0.71132976,-1.7783804,-0.864783,2.2186787,1.3477664,-1.0445333,1.4502627,-0.77509135,-1.8061378,-0.87749267,2.1614556,1.288365,-1.0039061,-1.434806,1.3892835,0.58204764,0.38587233,0.9499911,0.47997257,-0.34537312,2.0541077,-0.2878399,1.3975807,-3.1734457,-0.21071644,2.6058958,0.24934578,-0.5163498,0.92397887,0.79060143,-0.036633566,0.07942429,0.6060521,-0.97090125,0.49989313,0.9183759,1.0,0.0,0.0,0.0,0.0,0.0,0.0,-2.7041078,-0.11216012,-0.84758073,-0.385499,0.23727417,4.2027593,-9.8363695,0.62612295,0.2619028,0.30774474
27.27981,55.360054,16.165308,-4.067317,-1.4363806,-0.32544902,0.57555354,-0.8019307,0.78003544,0.36594048,0.049267314,0.6671944,0.6374797,-0.4221589,1.3700696,-0.6970878,-1.7695438,-0.8725659,2.2281752,1.352113,-1.0461221,1.4359118,-0.76117915,-1.7999866,-0.8747251,2.170981,1.2931563,-1.0073088,-1.4356601,1.3920466,0.6269244,0.24002473,0.9536844,0.48028618,-0.33922872,2.022396,-0.2899456,1.4228837,-3.1702728,-0.21050577,2.5051048,0.24011993,-0.51102257,0.93287176,0.79426926,-0.045518376,0.07779027,0.60084355,-0.9003688,0.5544202,0.8741221,1.0,0.0,0.0,0.0,0.0,0.0,0.0,-2.6723962,-0.1100544,-0.87288374,-0.15716553,0.3076315,4.6983004,-14.704368,0.4448533,0.43817163,0.46590567
30.549347,53.567886,15.546062,-7.0607576,-1.7598474,-0.61763763,0.659095,-0.8007084,0.78327125,0.38519633,-0.049899623,0.6653143,0.6429859,-0.3943106,1.3558409,-0.682852,-1.761467,-0.8797151,2.2375124,1.3574549,-1.0467399,1.4215628,-0.7472307,-1.7934043,-0.8736408,2.1805253,1.297959,-1.0106353,-1.4347296,1.3959646,0.6692188,0.064195774,0.9551425,0.48186925,-0.33071485,1.9907169,-0.2920494,1.4471796,-3.167103,-0.2102953,2.4044144,0.2317009,-0.50514984,0.94126093,0.7972977,-0.05400298,0.07642069,0.5962884,-0.81540704,0.60736173,0.8215636,1.0,0.0,0.0,0.0,0.0,0.0,0.0,-2.640717,-0.1079506,-0.89717954,0.049710274,0.4365921,4.387188,-17.677732,0.23357868,0.6254554,0.7372856
28.41359,51.424526,14.658709,-5.9255805,-1.59724,-0.73445743,0.62342167,-0.8035189,0.7812527,0.4052792,-0.10442095,0.66777015,0.6392269,-0.34861845,1.3412108,-0.6691054,-1.7528764,-0.88408285,2.2473023,1.3618816,-1.0454971,1.4072157,-0.7332584,-1.7864234,-0.87421775,2.190085,1.302775,-1.0138453,-1.434845,1.3979212,0.7080019,-0.09870457,0.9568029,0.48293176,-0.31820065,1.9590702,-0.2941513,1.4704691,-3.1639366,-0.21008505,2.3038247,0.22410011,-0.4988079,0.94913644,0.79971397,-0.062057536,0.0753247,0.5923956,-0.73371303,0.6518588,0.7704035,1.0,0.0,0.0,0.0,0.0,0.0,0.0,-2.6090703,-0.1058487,-0.9204691,-0.030827522,0.25730133,3.9521098,-16.365038,0.2935648,0.5550802,1.1696637
22.590473,50.979904,14.331308,-1.0881419,-1.0577145,-0.6127186,0.4918208,-0.8043586,0.7804871,0.43010762,-0.11296947,0.669441,0.6387688,-0.29025263,1.3267798,-0.6552097,-1.7434127,-0.8855147,2.257029,1.3666519,-1.0428706,1.3928629,-0.7192785,-1.7790573,-0.8760221,2.1996636,1.3075949,-1.0168971,-1.4354646,1.3983128,0.7463151,-0.20796213,0.95923704,0.4830403,-0.30084172,1.927454,-0.2962494,1.4927536,-3.1607733,-0.209875,2.2033355,0.21717834,-0.49207687,0.9565964,0.80162597,-0.069778025,0.07443789,0.589055,-0.6706003,0.68722993,0.7320293,1.0,0.0,0.0,0.0,0.0,0.0,0.0,-2.577454,-0.10375062,-0.9427536,-0.07288456,0.11911392,3.815353,-10.99436,0.43507814,0.38369894,1.6704619
12.564296,49.98418,13.547823,6.9857883,-0.20615411,-0.34562835,0.23307529,-0.8089568,0.77957106,0.4322779,-0.06572989,0.6640798,0.6381454,-0.2380833,1.3119673,-0.6413214,-1.7358295,-0.88259506,2.2660716,1.3714094,-1.0407054,1.3784796,-0.7053043,-1.771405,-0.87826324,2.2092538,1.312409,-1.0197467,-1.4392757,1.3974751,0.7713398,-0.22983024,0.95979995,0.48173326,-0.2799702,1.8958702,-0.29834747,1.514034,-3.157613,-0.20966516,2.1029468,0.21063805,-0.4850769,0.9638165,0.8032261,-0.077358656,0.0736691,0.58601725,-0.63955086,0.7103367,0.7127075,1.0,0.0,0.0,0.0,0.0,0.0,0.0,-2.5458703,-0.10165253,-0.964034,-0.41737556,0.014019012,2.4174094,-2.2840948,0.31825304,0.12469292,2.0210385
0.93145657,49.221275,12.852986,16.952166,0.81592137,0.04636924,-0.09069034,-0.8092466,0.7770754,0.42490405,0.045269717,0.6529229,0.64254904,-0.18550448,1.297555,-0.6275968,-1.7289146,-0.87373626,2.2745461,1.3766639,-1.038297,1.3640581,-0.6913511,-1.7636402,-0.8798826,2.2188134,1.317206,-1.0223674,-1.4434748,1.3949637,0.77774084,-0.13983075,0.95610887,0.47939023,-0.25627783,1.8643188,-0.30044174,1.5343113,-3.1544561,-0.20945553,2.0026586,0.20411682,-0.47793007,0.97102696,0.804761,-0.08507334,0.07291726,0.5829283,-0.6484014,0.72190243,0.71762216,1.0,0.0,0.0,0.0,0.0,0.0,0.0,-2.514319,-0.099558264,-0.9843113,-0.4969597,-0.13799667,0.50216913,8.855981,-0.03298521,-0.12141466,2.2844493
-6.2470694,48.545063,12.371422,23.149714,1.4297404,0.30300122,-0.3015921,-0.8147111,0.77727485,0.41828552,0.12782332,0.6515393,0.6430078,-0.17391485,1.282587,-0.6136236,-1.7218117,-0.86710024,2.2839673,1.3815068,-1.0397588,1.3495737,-0.6774208,-1.7559192,-0.8801019,2.228335,1.3219744,-1.024763,-1.4503174,1.3927861,0.7698971,0.016835848,0.9518632,0.47614244,-0.23436864,1.832798,-0.302536,1.5535864,-3.1513023,-0.20924613,1.9024704,0.19731331,-0.47070694,0.97839427,0.8064116,-0.09312851,0.07210524,0.5795069,-0.68241274,0.72851753,0.73693115,1.0,0.0,0.0,0.0,0.0,0.0,0.0,-2.482798,-0.097463995,-1.0035863,-0.79078674,-0.103735924,-0.93203783,15.501454,-0.05685091,-0.3142655,2.094072
-10.835511,49.70273,12.695663,27.965298,1.8320091,0.5741186,-0.44905356,-0.8167478,0.7804326,0.41386783,0.24860929,0.6357307,0.6448193,-0.1426492,1.2678989,-0.5993775,-1.7145324,-0.855241,2.291908,1.3864564,-1.0390279,1.3350226,-0.6634914,-1.7483261,-0.878351,2.2377725,1.3267084,-1.0269393,-1.4572136,1.3932436,0.75531894,0.2272954,0.94237494,0.47231442,-0.212601,1.8013077,-0.30462646,1.5718603,-3.1481516,-0.20903693,1.8023822,0.19002533,-0.46340752,0.98605394,0.8082855,-0.101706,0.07119503,0.5755534,-0.73516124,0.7370289,0.7692807,1.0,0.0,0.0,0.0,0.0,0.0,0.0,-2.4513078,-0.09537354,-1.0218604,-0.8074045,0.15244484,-1.6094446,20.887945,-0.559175,-0.47125816,2.0698042
-6.916726,46.94348,11.889,23.9184,1.4126635,0.32152474,-0.36646867,-0.8166722,0.7753954,0.3965361,0.2615485,0.6354655,0.6448706,-0.18172744,1.2533554,-0.58595186,-1.7086724,-0.8521961,2.3013191,1.3911955,-1.045112,1.320418,-0.64957637,-1.7409446,-0.8748014,2.2471185,1.33141,-1.0289534,-1.461648,1.391141,0.731988,0.39706358,0.9331856,0.4692005,-0.19780636,1.7698498,-0.306715,1.5891342,-3.1450043,-0.20882794,1.7023942,0.18233109,-0.4560051,0.9939345,0.81035376,-0.11074482,0.07022845,0.5710781,-0.7721206,0.7480018,0.7878393,1.0,0.0,0.0,0.0,0.0,0.0,0.0,-2.4198499,-0.093284994,-1.0391343,-0.5396366,-0.124812126,-2.430892,16.841942,-0.59649944,-0.3672123,1.375413
0.8659506,45.2968,11.408921,16.167315,0.58141387,-0.105011016,-0.16293328,-0.8222462,0.77898616,0.3838471,0.232514,0.63528436,0.6402639,-0.21134712,1.2381934,-0.57167774,-1.70256,-0.85155,2.310647,1.3954364,-1.0500882,1.3057619,-0.635667,-1.7338188,-0.8702066,2.2563882,1.3360869,-1.0308627,-1.4671128,1.39108,0.70616955,0.47992054,0.92534983,0.46718845,-0.18896562,1.7384243,-0.30880165,1.6054089,-3.1418598,-0.20861916,1.6025062,0.17450714,-0.44846344,1.0018355,0.812483,-0.12000644,0.06932552,0.56627184,-0.77698845,0.7640596,0.784296,1.0,0.0,0.0,0.0,0.0,0.0,0.0,-2.3884244,-0.091198355,-1.055409,-0.6305933,0.055742264,-2.5832534,8.171206,-0.55434704,-0.14743805,0.7833868
8.501632,43.149364,10.951103,8.590979,-0.15025938,-0.5390607,0.06677141,-0.8222985,0.77324635,0.38470626,0.20224613,0.63698196,0.64579993,-0.21024543,1.2235321,-0.5583424,-1.6953481,-0.84998196,2.3200865,1.4006668,-1.0518873,1.2910658,-0.6217825,-1.7268875,-0.86539626,2.2655969,1.340756,-1.0326995,-1.4705508,1.3877947,0.6890801,0.48103252,0.9199283,0.46741754,-0.18227038,1.7070293,-0.31088638,1.6206856,-3.1387186,-0.20841059,1.502718,0.16686058,-0.44075012,1.0095488,0.8145144,-0.12923951,0.06858293,0.5613908,-0.7510592,0.7817327,0.7604478,1.0,0.0,0.0,0.0,0.0,0.0,0.0,-2.3570294,-0.08911362,-1.0706856,-0.40869713,-0.28033257,-1.6327858,0.009578466,-0.39653778,0.20061135,0.5685419
14.089021,42.567123,10.7730255,3.1261568,-0.7180119,-0.8840943,0.23184985,-0.8228007,0.7767448,0.37399554,0.16519788,0.6369187,0.64737624,-0.18873672,1.2087858,-0.54410803,-1.6894879,-0.8488765,2.3292887,1.4054937,-1.0515732,1.2763468,-0.6079132,-1.7201068,-0.86102176,2.2747674,1.3454367,-1.0344638,-1.4723248,1.3868383,0.6746618,0.4225816,0.916081,0.4690567,-0.17482424,1.6756649,-0.3129692,1.634965,-3.1355805,-0.20820223,1.4030296,0.15965271,-0.4328556,1.0169253,0.81632787,-0.13824524,0.06808242,0.5566523,-0.7012981,0.7999803,0.723526,1.0,0.0,0.0,0.0,0.0,0.0,0.0,-2.325665,-0.0870308,-1.084965,-0.22478104,-0.053095818,-1.324153,-5.929184,-0.2931714,0.43202043,0.6518394
21.950321,39.112682,9.573516,-5.785145,-1.5321727,-1.5086986,0.48245698,-0.82361054,0.77303034,0.36000887,0.020583343,0.6501993,0.6483428,-0.16298904,1.1939857,-0.53061014,-1.684106,-0.85896343,2.3397872,1.4102709,-1.0507627,1.2616202,-0.59406394,-1.7134826,-0.85796523,2.2839456,1.3501421,-1.0361403,-1.4727678,1.3844159,0.6586209,0.2664643,0.91847426,0.47240564,-0.16559912,1.644331,-0.31505013,1.6482482,-3.1324456,-0.20799407,1.3034408,0.15321732,-0.42481232,1.0237523,0.81779224,-0.14671817,0.06793703,0.5523351,-0.6146813,0.8121755,0.6626387,1.0,0.0,0.0,0.0,0.0,0.0,0.0,-2.294331,-0.08494988,-1.0982482,-0.04823208,-0.20079613,-1.4557958,-15.670013,0.25252104,0.75297356,0.85521936
26.509083,38.56006,9.442021,-10.581332,-1.9795645,-1.8567127,0.6514214,-0.8258491,0.77361405,0.3724782,-0.09209246,0.6516296,0.6474846,-0.109328456,1.1790353,-0.51670253,-1.6762348,-0.8671745,2.3491085,1.4148905,-1.0470731,1.2468878,-0.58023185,-1.7069232,-0.8568809,2.293158,1.3548819,-1.0376929,-1.4732796,1.3829528,0.6553927,0.055671457,0.92218786,0.47611302,-0.15177687,1.6130314,-0.31712914,1.6605363,-3.1293137,-0.20778613,1.2039516,0.14780617,-0.41666794,1.0298944,0.8188075,-0.15444204,0.06821544,0.5486788,-0.5071601,0.8211105,0.5918708,1.0,0.0,0.0,0.0,0.0,0.0,0.0,-2.2630315,-0.08287087,-1.1105363,-0.0026464462,-0.0985384,-0.20025969,-21.089073,0.35253763,0.84759593,1.3465405
23.950142,38.45385,9.356728,-8.043027,-1.714335,-1.8210635,0.6250996,-0.82504064,0.7760061,0.36524862,-0.11992712,0.64459676,0.6534237,0.06519695,1.1643838,-0.50263125,-1.6703984,-0.8688736,2.3576176,1.4202243,-1.0311732,1.2321573,-0.56639785,-1.7003944,-0.85768867,2.3023858,1.3596579,-1.0389842,-1.4728014,1.3838649,0.6522447,-0.12620395,0.9234143,0.47948423,-0.12160963,1.5817623,-0.31920433,1.6718304,-3.126185,-0.20757839,1.1045619,0.14339828,-0.40844917,1.0353907,0.8193745,-0.16143382,0.06892022,0.54572386,-0.4091084,0.8265351,0.5296373,1.0,0.0,0.0,0.0,0.0,0.0,0.0,-2.2317624,-0.080795676,-1.1218305,0.11751652,0.15714169,-0.27986765,-18.179955,0.1578927,0.7534683,3.0023992
17.316185,37.316967,9.0947695,-1.2105665,-0.9817861,-1.5433673,0.45558646,-0.8205116,0.77108777,0.3595797,-0.10385202,0.6387785,0.6618088,0.1809965,1.1501062,-0.48928908,-1.6644365,-0.8680739,2.3662636,1.4258387,-1.0208845,1.2174536,-0.5525715,-1.6939094,-0.85972285,2.3116097,1.3644644,-1.0398997,-1.469529,1.3825123,0.6470052,-0.22933748,0.92225784,0.48218262,-0.08175059,1.5505238,-0.32127953,1.6821313,-3.1230595,-0.20737085,1.0052716,0.13974953,-0.40018845,1.0404018,0.81958383,-0.16789497,0.0699629,0.54332197,-0.3398809,0.828536,0.4856855,1.0,0.0,0.0,0.0,0.0,0.0,0.0,-2.2005239,-0.07872048,-1.1321313,0.37276745,-0.04825592,-0.57082176,-10.339904,0.0101566315,0.58113337,3.9653168
8.73475,35.253555,8.540467,7.560981,-0.049895108,-1.1538327,0.21053526,-0.8184169,0.7655634,0.3448229,-0.051378958,0.6354278,0.66855705,0.2777644,1.1356119,-0.47601512,-1.6594272,-0.8648608,2.3751526,1.4313201,-1.0121232,1.202788,-0.5387842,-1.6875408,-0.8620498,2.3208108,1.3692957,-1.0403746,-1.4657409,1.3778057,0.63323045,-0.23420873,0.9203035,0.48393607,-0.03620947,1.5193157,-0.3233509,1.69144,-3.119937,-0.20716351,0.9060805,0.13651657,-0.3919239,1.0451356,0.8195792,-0.174112,0.07121647,0.54120517,-0.30828422,0.8277053,0.46345532,1.0,0.0,0.0,0.0,0.0,0.0,0.0,-2.1693158,-0.0766491,-1.1414399,0.35133362,-0.36697388,-1.4624953,-0.5898893,0.02721548,0.3741324,4.5065584
4.008923,31.149624,7.091089,11.210906,0.3705604,-1.0838205,0.055430584,-0.8224081,0.75927985,0.31494945,-0.058893934,0.6296179,0.66736776,0.30177397,1.1205472,-0.46285623,-1.6560458,-0.86793923,2.3837726,1.4360325,-1.0101973,1.18813,-0.5250713,-1.6814373,-0.8641422,2.3299775,1.3741385,-1.0404147,-1.4658494,1.3694576,0.6024489,-0.20133796,0.91634804,0.48467326,0.006306113,1.4881382,-0.3254223,1.6997576,-3.1168177,-0.20695639,0.8069886,0.13347435,-0.38370895,1.0496924,0.81948465,-0.18021771,0.072626896,0.5391583,-0.2932234,0.82091,0.44726983,1.0,0.0,0.0,0.0,0.0,0.0,0.0,-2.1381383,-0.07457772,-1.1497576,-0.08518696,-0.72910786,-3.1506658,3.1356306,-0.15155077,0.22510886,4.190754
2.0685534,29.767672,6.5782704,12.922863,0.5293387,-1.0551018,-0.02741275,-0.82416815,0.75944865,0.29356024,-0.05035197,0.6290295,0.66420275,0.30740198,1.1057132,-0.44912645,-1.6520813,-0.8691774,2.3928804,1.4405588,-1.0096745,1.173453,-0.5114309,-1.6757095,-0.8657892,2.33911,1.3789812,-1.0400733,-1.4686682,1.3625667,0.5625488,-0.15305778,0.91286814,0.48447374,0.04315721,1.456995,-0.32748985,1.7070849,-3.1137016,-0.20674947,0.7079958,0.1305294,-0.3755722,1.0541139,0.81937605,-0.18626043,0.07418396,0.5370535,-0.28491372,0.8129721,0.43471545,1.0,0.0,0.0,0.0,0.0,0.0,0.0,-2.106995,-0.07251015,-1.157085,-0.3837824,-0.58496,-4.045236,4.6590476,-0.097477436,0.10398626,3.6197112
4.6439204,27.098204,5.546257,8.905888,0.17349619,-1.372242,0.04700432,-0.8255739,0.75448525,0.2632574,-0.1125222,0.63276154,0.66875225,0.3241442,1.0908955,-0.4359824,-1.6493838,-0.8770414,2.402386,1.4458565,-1.0076588,1.1587416,-0.49786317,-1.6704547,-0.8673055,2.3482194,1.3838259,-1.0393943,-1.4722258,1.3551004,0.51313645,-0.15154119,0.91125506,0.48498586,0.075763166,1.4258823,-0.3295555,1.7134231,-3.1105886,-0.20654276,0.60910195,0.12779045,-0.36755943,1.0583184,0.81925476,-0.19210902,0.075945854,0.53492785,-0.26042226,0.79907733,0.41018537,1.0,0.0,0.0,0.0,0.0,0.0,0.0,-2.0758824,-0.070444494,-1.1634231,-0.4168749,-0.64997673,-4.9824,0.013270974,0.029921532,0.21683574,3.212291
6.0470853,24.499302,4.692026,6.471729,-0.015600026,-1.5949217,0.09096678,-0.8229872,0.745135,0.2361685,-0.13021117,0.62342197,0.66600007,0.34754512,1.0764428,-0.42334968,-1.646838,-0.8803266,2.4105616,1.4504259,-1.0046397,1.144013,-0.48439538,-1.6657207,-0.86900496,2.3572907,1.3886763,-1.0384139,-1.4731112,1.3443033,0.45987016,-0.17647439,0.9065209,0.48547944,0.10545104,1.3948002,-0.33161926,1.7187731,-3.1074786,-0.20633626,0.51030695,0.12536812,-0.35971832,1.0622241,0.81911033,-0.1976366,0.077956,0.53284234,-0.22654465,0.7795701,0.3786471,1.0,0.0,0.0,0.0,0.0,0.0,0.0,-2.0448003,-0.06838074,-1.1687732,-0.11098385,-0.9852171,-5.375987,-2.6123734,-0.31747818,0.24009943,2.9300065
2.4754686,20.625982,3.1895373,9.209119,0.2832476,-1.5789427,-0.052894384,-0.8234585,0.73992276,0.16667017,-0.07376114,0.611385,0.6730428,0.37379166,1.0616672,-0.4104031,-1.6490537,-0.8763811,2.4184291,1.4559805,-1.0010347,1.1292826,-0.47104108,-1.661721,-0.8707254,2.3662858,1.3935343,-1.0371531,-1.4733988,1.3327982,0.3797767,-0.17110485,0.8977602,0.4862623,0.132911,1.3637486,-0.3336811,1.7231358,-3.1043718,-0.20612997,0.4116108,0.123197556,-0.35211945,1.0658487,0.8190249,-0.20285514,0.08023782,0.5306691,-0.20486034,0.7542152,0.3518499,1.0,0.0,0.0,0.0,0.0,0.0,0.0,-2.0137486,-0.0663189,-1.1731358,-0.08239746,-1.0550976,-8.05406,0.377205,-0.7059574,0.22927523,2.6964636
-1.8970923,15.033321,0.9327651,12.015465,0.647662,-1.6100438,-0.22559473,-0.8289567,0.7338043,0.073486455,-0.0390741,0.61878043,0.66877687,0.39173785,1.046387,-0.39766064,-1.6543723,-0.8746328,2.4281638,1.460412,-0.99797934,1.1145235,-0.45780456,-1.6588218,-0.87218356,2.3752275,1.3983923,-1.0356349,-1.4769343,1.3209299,0.25989118,-0.13814837,0.8930766,0.48611683,0.15784055,1.3327274,-0.33574104,1.7265124,-3.101268,-0.20592389,0.31301335,0.12113953,-0.3448372,1.0692285,0.81913435,-0.20778842,0.08280659,0.52819103,-0.19709301,0.71956146,0.32845297,1.0,0.0,0.0,0.0,0.0,0.0,0.0,-1.9827274,-0.06425896,-1.1765125,-0.44853687,-1.0948896,-12.012053,3.0857892,-0.29412508,0.09356737,2.4329038
-8.840879,8.610924,-1.5336382,18.144775,1.340767,-1.4578645,-0.5040293,-0.82927096,0.7240636,-0.044956673,0.06726536,0.6182504,0.6682918,0.39743665,1.0315964,-0.3853982,-1.6633174,-0.865457,2.4370525,1.4652215,-0.9958912,1.0997263,-0.44470298,-1.6574829,-0.872813,2.3841386,1.4032446,-1.0338935,-1.4813182,1.3068647,0.09185466,-0.038816787,0.89076424,0.48499823,0.17915854,1.3017368,-0.33779907,1.7289038,-3.0981674,-0.205718,0.21451446,0.11894989,-0.3379593,1.072461,0.8196175,-0.21255462,0.08564828,0.52508295,-0.21746403,0.67760354,0.31692338,1.0,0.0,0.0,0.0,0.0,0.0,0.0,-1.9517368,-0.062200934,-1.1789038,-0.6052971,-1.3222456,-16.811365,9.64137,-0.01360178,-0.08615255,2.0440726
-12.592053,3.9394531,-3.174461,21.331196,1.7126079,-1.3867879,-0.6442111,-0.8303647,0.7102272,-0.14970796,0.1343091,0.604206,0.66977835,0.43730766,1.0166899,-0.37368026,-1.6724536,-0.8593821,2.444559,1.4702225,-0.99016273,1.0848871,-0.4317764,-1.6580284,-0.8722055,2.3929963,1.4080855,-1.0319384,-1.4855204,1.2881483,-0.10327449,0.092927575,0.88464075,0.4835433,0.20078057,1.2707767,-0.3398552,1.7303108,-3.09507,-0.20551232,0.11611404,0.11644745,-0.3315258,1.075619,0.82059216,-0.21724726,0.08875891,0.5211084,-0.25310788,0.63205296,0.31129903,1.0,0.0,0.0,0.0,0.0,0.0,0.0,-1.9207767,-0.060144812,-1.1803107,-0.60060024,-1.7994165,-19.537115,12.852189,-0.36524534,-0.16841292,2.0610242
-7.8937044,2.1890926,-3.4499083,14.879975,1.1702516,-1.7464672,-0.43757543,-0.8291425,0.68732315,-0.20585059,0.056482937,0.58885705,0.66772366,0.44717053,1.0019729,-0.36304408,-1.6786134,-0.8665572,2.4518821,1.4748578,-0.98722136,1.070027,-0.41910875,-1.660382,-0.8708589,2.4017472,1.4129149,-1.0297812,-1.4863322,1.2598592,-0.27952603,0.14786826,0.8726447,0.4827864,0.22065675,1.239851,-0.3419075,1.7307346,-3.0919755,-0.20530684,0.017812002,0.11376953,-0.32559776,1.0785935,0.8219925,-0.22169884,0.09217395,0.5164123,-0.26441717,0.58089966,0.28934476,1.0,0.0,0.0,0.0,0.0,0.0,0.0,-1.889851,-0.058092505,-1.1807346,-0.13213158,-2.7541876,-17.716196,5.2569404,-1.0133505,-0.01617074,1.9182801
1.833113,7.61902,-0.9116392,4.74114,0.13037854,-2.1386447,-0.023303658,-0.83064187,0.67229867,-0.19732822,-0.07313534,0.56707627,0.6706904,0.43835506,0.9869628,-0.35187888,-1.6801149,-0.87817246,2.4584548,1.4799839,-0.9859457,1.0551707,-0.4067477,-1.663964,-0.86988807,2.4103189,1.4177443,-1.0274504,-1.485241,1.2284862,-0.3847357,0.07979609,0.8524294,0.4838406,0.23713693,1.2089558,-0.3439598,1.7301761,-3.088884,-0.20510158,-0.08039175,0.11131477,-0.32016182,1.0811883,0.82359177,-0.2256151,0.09592611,0.51146114,-0.23217264,0.5323559,0.24646448,1.0,0.0,0.0,0.0,0.0,0.0,0.0,-1.8589557,-0.056040198,-1.180176,0.19536018,-3.0438662,-10.63841,-6.9149213,-1.9371629,0.2996862,1.6215444
10.26015,15.531107,2.3892112,-2.7116768,-0.7519425,-2.3733785,0.32792622,-0.8231219,0.66554344,-0.19121808,-0.17554803,0.53543895,0.6773342,0.45872587,0.9728585,-0.34019336,-1.6830858,-0.8874429,2.4638627,1.4854777,-0.9815779,1.0403696,-0.39466274,-1.6680954,-0.8702667,2.418612,1.4225966,-1.0249575,-1.4776824,1.2021816,-0.4231808,-0.077086784,0.8219387,0.48659414,0.253175,1.178091,-0.3460083,1.7286363,-3.0857959,-0.20489652,-0.17849731,0.10945511,-0.31515884,1.0832565,0.8251525,-0.22877964,0.10004357,0.50672907,-0.16425264,0.49053982,0.19097479,1.0,0.0,0.0,0.0,0.0,0.0,0.0,-1.828091,-0.053991705,-1.1786363,0.94504356,-2.5138378,-3.997171,-15.689753,-3.0267715,0.5553663,1.6129106
15.086636,19.872746,4.169884,-7.5413017,-1.2774681,-2.5777092,0.539182,-0.822565,0.658425,-0.19532038,-0.29484078,0.5231447,0.676919,0.46504405,0.95811313,-0.32882023,-1.6876274,-0.89975077,2.4709265,1.4902885,-0.97845316,1.0256506,-0.38279283,-1.6723125,-0.87266994,2.4266,1.4274756,-1.0223178,-1.4689881,1.1823739,-0.4219469,-0.29455113,0.79128754,0.48960465,0.26777345,1.1472569,-0.3480568,1.7261162,-3.0827107,-0.20469166,-0.27650478,0.10844231,-0.31056213,1.0847005,0.8265313,-0.2310248,0.104529,0.50254065,-0.07431698,0.4489756,0.12643027,1.0,0.0,0.0,0.0,0.0,0.0,0.0,-1.7972568,-0.051943213,-1.1761162,1.1500597,-1.8424988,-0.10416508,-21.666178,-3.069675,0.60854554,1.5096545
15.962738,24.307106,5.409255,-7.4716063,-1.4081864,-2.5704935,0.54074115,-0.82330537,0.6731737,-0.2244152,-0.3813109,0.5289613,0.67360526,0.4437938,0.9433201,-0.31547546,-1.694754,-0.91080105,2.479496,1.4948361,-0.9779384,1.0110022,-0.3709792,-1.6765106,-0.8772981,2.434359,1.4323794,-1.0195636,-1.4625485,1.181545,-0.42008698,-0.5186131,0.77092427,0.4914535,0.2781333,1.1164532,-0.35010147,1.7226168,-3.0796287,-0.20448701,-0.3744143,0.10836601,-0.3063469,1.0855151,0.82770675,-0.23230365,0.109387286,0.49896976,0.019354505,0.41139808,0.06407748,1.0,0.0,0.0,0.0,0.0,0.0,0.0,-1.7664531,-0.049898535,-1.1726167,0.93803406,0.06530285,-0.08255839,-22.30552,-2.0245552,0.4385233,1.1089146
12.054702,20.268717,3.618391,-4.5887804,-1.0585418,-2.5540152,0.37447715,-0.8225817,0.669936,-0.28409842,-0.44672492,0.51483786,0.6671601,0.44607022,0.928744,-0.3039856,-1.7049204,-0.9219706,2.485843,1.4990953,-0.9749565,0.9963981,-0.35913265,-1.6809471,-0.8839433,2.4419389,1.4372889,-1.0167216,-1.4585862,1.186149,-0.45256513,-0.71299815,0.7534378,0.4914791,0.28646085,1.08568,-0.35214615,1.7181389,-3.0765495,-0.20428257,-0.4722259,0.10911751,-0.30254173,1.0857396,0.828782,-0.23263241,0.11462641,0.49584597,0.09829527,0.3673652,0.0058798823,1.0,0.0,0.0,0.0,0.0,0.0,0.0,-1.73568,-0.047853857,-1.168139,0.68342686,0.6017208,-3.5197496,-19.36921,-1.7389774,0.17285347,0.8928597
8.908038,19.158863,3.2680676,-0.5093534,-0.63953966,-2.3455727,0.25436586,-0.823344,0.6714878,-0.28582585,-0.5061612,0.49923405,0.6635963,0.44520545,0.9140637,-0.29198387,-1.7095296,-0.93455946,2.4918623,1.5036485,-0.97220105,0.9818088,-0.3472184,-1.6857212,-0.8922298,2.4493432,1.4421908,-1.0138091,-1.4583187,1.1935964,-0.4862329,-0.86716187,0.7363489,0.4901114,0.29278004,1.0549374,-0.354187,1.7126838,-3.0734737,-0.20407833,-0.56993973,0.1105423,-0.29914474,1.0854523,0.8298315,-0.23212197,0.120207265,0.49300018,0.15979183,0.3265401,-0.043059792,1.0,0.0,0.0,0.0,0.0,0.0,0.0,-1.7049373,-0.045812994,-1.1626837,0.23825169,0.8767605,-3.5828292,-15.398312,-1.6767621,-0.0382185,0.6655812
4.6702447,16.071003,2.291552,4.749804,-0.046695247,-2.0845923,0.09297945,-0.8194909,0.6688783,-0.31293616,-0.5272843,0.48254594,0.66710836,0.44543716,0.89985967,-0.28033057,-1.7170148,-0.9449582,2.4975977,1.5089016,-0.96926534,0.9672233,-0.33525217,-1.6908901,-0.9016321,2.4565682,1.4470774,-1.010847,-1.4583713,1.1980509,-0.52739656,-0.96477044,0.7177869,0.48837382,0.29734677,1.0242252,-0.35622597,1.7062522,-3.0704007,-0.20387429,-0.6675559,0.11240196,-0.29612923,1.0847664,0.8309216,-0.23095411,0.12605146,0.4902452,0.19773582,0.28852808,-0.08022143,1.0,0.0,0.0,0.0,0.0,0.0,0.0,-1.6742252,-0.04377404,-1.1562521,0.08790493,0.5567312,-4.2219877,-9.827423,-1.8065691,-0.14166236,0.43947697
0.5669145,9.3401,-0.016931534,7.699616,0.47115552,-2.0211096,-0.041878395,-0.8212215,0.65727454,-0.35821053,-0.56999296,0.47461778,0.66133904,0.43065262,0.88510114,-0.2695247,-1.7267112,-0.9586314,2.50403,1.5132113,-0.9677817,0.9526216,-0.32331407,-1.6965892,-0.911782,2.463614,1.4519411,-1.0078601,-1.4605628,1.1926197,-0.58411014,-1.0321616,0.7006306,0.4856635,0.2989663,0.9935436,-0.35826302,1.6988451,-3.067331,-0.20367046,-0.76507455,0.1145134,-0.29354286,1.0837412,0.83213264,-0.22922447,0.13208792,0.48740545,0.21666165,0.2437374,-0.113143936,1.0,0.0,0.0,0.0,0.0,0.0,0.0,-1.6435436,-0.04173699,-1.1488452,-0.18057823,-0.45793056,-5.68403,-6.859505,-1.7005563,-0.29101372,0.098347664
-1.6534077,6.311983,-0.92346907,10.041241,0.75360084,-1.9001272,-0.10882588,-0.82046497,0.6492621,-0.37734297,-0.5944472,0.42707387,0.6627184,0.43391415,0.8705751,-0.25838786,-1.7343235,-0.97122675,2.5063214,1.518213,-0.96446866,0.9379989,-0.3114828,-1.7028377,-0.9224298,2.470385,1.4567782,-1.0048617,-1.4629884,1.180186,-0.6382671,-1.0761493,0.66944724,0.48301792,0.29984686,0.96289253,-0.36029816,1.6904637,-3.0642643,-0.20346683,-0.86249566,0.11673164,-0.29139328,1.0824207,0.8335019,-0.22701238,0.13828467,0.48437306,0.22413848,0.19955303,-0.14155203,1.0,0.0,0.0,0.0,0.0,0.0,0.0,-1.6128925,-0.03970185,-1.1404636,-0.2617836,-1.1754274,-5.3590894,-4.55606,-3.1072497,-0.31493306,-0.012820959
-3.5681171,3.305471,-1.8756753,11.88058,0.9399816,-1.8061402,-0.16692734,-0.8210131,0.6354619,-0.40404433,-0.6061936,0.35534132,0.6594996,0.43203256,0.8558976,-0.24793659,-1.7432421,-0.98304915,2.5059192,1.5227281,-0.9616585,0.92335045,-0.29983413,-1.7096107,-0.933377,2.476664,1.4615885,-1.0018595,-1.4656392,1.1599394,-0.6899572,-1.1015686,0.61453086,0.4801628,0.2998191,0.93227196,-0.3623314,1.6811087,-3.0612006,-0.2032634,-0.9598193,0.11897278,-0.2896843,1.0808387,0.8350501,-0.22438751,0.1446716,0.48105246,0.22322354,0.15589784,-0.16689555,1.0,0.0,0.0,0.0,0.0,0.0,0.0,-1.5822719,-0.037668616,-1.1311088,-0.32975674,-1.9737482,-5.052972,-2.7252913,-5.48774,-0.35815835,-0.14206767
-4.346349,0.032542706,-2.7015028,11.958694,0.97622705,-1.7965693,-0.15474461,-0.81614053,0.6095533,-0.41697535,-0.63221663,0.26252744,0.6610258,0.4404722,0.8417364,-0.2388788,-1.7513082,-0.9965987,2.5029168,1.5276911,-0.9578123,0.9087049,-0.2884816,-1.7168186,-0.94456935,2.4821763,1.466376,-0.99885356,-1.4641852,1.1271435,-0.730777,-1.1256828,0.530178,0.47783533,0.3002731,0.9016819,-0.36436272,1.6707813,-3.05814,-0.20306018,-1.0570457,0.1211853,-0.28842545,1.07899,0.8367662,-0.22136924,0.15128961,0.47741947,0.2201341,0.110290945,-0.19384669,1.0,0.0,0.0,0.0,0.0,0.0,0.0,-1.5516819,-0.03563729,-1.1207812,0.11293888,-3.237939,-3.9936185,-2.5802612,-8.433163,-0.3066063,-0.1159668
-5.1772223,-3.5210671,-3.7909636,11.5019045,0.8172901,-1.8204732,-0.15564594,-0.8140814,0.57835,-0.43401206,-0.65352297,0.08168517,0.6597723,0.44135037,0.82729673,-0.2306466,-1.7602198,-1.0099217,2.4903448,1.5323532,-0.95471853,0.89409363,-0.27755582,-1.7243793,-0.956023,2.486403,1.4711405,-0.9958447,-1.4599833,1.0811441,-0.7643424,-1.1523643,0.38718826,0.47581887,0.30041823,0.87112236,-0.36639214,1.6594822,-3.0550826,-0.20285717,-1.1541748,0.1233902,-0.2876377,1.076838,0.8386393,-0.21793385,0.15829481,0.47342548,0.21922114,0.06252525,-0.2251933,1.0,0.0,0.0,0.0,0.0,0.0,0.0,-1.5211223,-0.03360787,-1.1094823,0.4433155,-4.56748,-3.3138156,-2.8101683,-14.306659,-0.270617,-0.18289685
-7.94364,-11.585665,-6.763483,10.92964,0.53246224,-1.9093595,-0.22871017,-0.8132753,0.5239892,-0.46832246,-0.66270345,-0.25948817,0.6648954,0.44016734,0.8127661,-0.2251569,-1.7712115,-1.0222933,2.4604542,1.5376301,-0.951828,0.87953293,-0.26726854,-1.7323234,-0.9677198,2.488337,1.4758917,-0.99284065,-1.4544309,1.0112971,-0.80465645,-1.1758679,0.12885489,0.47470674,0.29950574,0.84059334,-0.36841965,1.6472127,-3.0520282,-0.20265435,-1.2512069,0.12560654,-0.28738594,1.0743086,0.8406962,-0.2140205,0.16605365,0.46888283,0.2200575,0.0074192407,-0.2650386,1.0,0.0,0.0,0.0,0.0,0.0,0.0,-1.4905933,-0.03158036,-1.0972128,0.6726742,-6.975746,-4.0412426,-2.4586678,-25.878386,-0.17448664,-0.3788352
-12.44818,-31.91528,-11.56968,10.223404,1.1629736,-1.9656316,-0.09087694,-0.79426926,0.35374275,-0.3473295,-0.65802234,-0.57449037,0.6883119,0.48785347,0.800106,-0.23189425,-1.7670563,-1.033522,2.430888,1.5447229,-0.9440553,0.8651172,-0.2583679,-1.7400234,-0.9795568,2.4870172,1.4806525,-0.9898137,-1.4361826,0.84951526,-0.7592836,-1.1863602,-0.21880655,0.47663784,0.3025937,0.81009483,-0.37044525,1.6339736,-3.0489767,-0.20245174,-1.3481419,0.1276722,-0.28783607,1.0713228,0.84283936,-0.20964332,0.17456478,0.46389502,0.19910397,-0.06807315,-0.31254885,1.0,0.0,0.0,0.0,0.0,0.0,0.0,-1.4600948,-0.029554754,-1.0839736,2.1437645,-16.215933,4.2987823,-1.0632515,-34.748734,0.1662612,-0.053697824
-19.81474,-58.47924,-17.960875,11.847055,2.9489377,-1.9557533,0.06400076,-0.78560597,0.13865918,-0.19773023,-0.62400454,-0.64632905,0.70987296,0.49392673,0.7865566,-0.24450198,-1.7597964,-1.0419573,2.4223843,1.5516398,-0.940421,0.850917,-0.25192964,-1.7464759,-0.9912727,2.482493,1.4854494,-0.9867505,-1.413068,0.574875,-0.6083688,-1.1664729,-0.53032213,0.48049358,0.30626392,0.77962685,-0.37246704,1.6197658,-3.0459285,-0.20224933,-1.44498,0.12913895,-0.28925705,1.0678831,0.8449329,-0.20493893,0.18315695,0.45884854,0.12532051,-0.1714418,-0.35695174,1.0,0.0,0.0,0.0,0.0,0.0,0.0,-1.4296268,-0.027532965,-1.0697658,2.7516842,-27.579964,14.7168045,2.0356178,-31.070496,0.3150463,-0.0055611134
-23.51317,-61.96499,-20.26778,13.937531,3.654049,-1.9552387,-0.053483784,-0.8003191,0.07555935,-0.2578708,-0.6245309,-0.6308432,0.7103729,0.3941498,0.77088505,-0.24437371,-1.772263,-1.0537257,2.4194086,1.5564867,-0.9473355,0.83684075,-0.24817145,-1.7517593,-1.0027554,2.4755769,1.4902769,-0.9837264,-1.4044003,0.30895302,-0.50252223,-1.1420237,-0.74548006,0.4830489,0.2999547,0.7491894,-0.37448883,1.6045904,-3.0428832,-0.20204712,-1.5417213,0.12969398,-0.29175758,1.0640417,0.84703535,-0.19993198,0.19136709,0.45380262,0.028723478,-0.28034303,-0.39544636,1.0,0.0,0.0,0.0,0.0,0.0,0.0,-1.3991894,-0.025511175,-1.0545905,1.2883663,-26.746851,10.320067,2.4901628,-21.531116,0.061547756,-0.9719491
-33.496117,-92.15703,-31.314365,9.573836,4.933716,-2.6323211,-0.08895639,-0.7983929,-0.1684988,-0.26789692,-0.6941916,-0.6302323,0.6963111,0.39648256,0.75700146,-0.26502132,-1.778549,-1.0721745,2.4125535,1.559908,-0.94407815,0.82282174,-0.24757469,-1.7563694,-1.0143445,2.467177,1.4951063,-0.98077,-1.398387,-0.024237989,-0.4484438,-1.1640016,-0.8719358,0.4813429,0.292993,0.7187824,-0.3765068,1.5884483,-3.039841,-0.20184511,-1.6383659,0.12895393,-0.2957859,1.0596668,0.84932315,-0.19432953,0.19864365,0.44880614,-0.1130937,-0.44540796,-0.45348135,1.0,0.0,0.0,0.0,0.0,0.0,0.0,-1.3687824,-0.0234932,-1.0384483,1.3905525,-33.566235,4.9620686,-2.017641,-12.787366,-0.60124993,-1.0771453
-31.467503,-91.128365,-29.290154,8.819412,5.380575,-2.417494,0.19387324,-0.7835319,-0.35929826,-0.08116133,-0.71140665,-0.60577404,0.6939623,0.4558947,0.74446857,-0.28350452,-1.7644855,-1.0854851,2.4065995,1.5645026,-0.93518054,0.80890477,-0.25050157,-1.7598789,-1.0262902,2.4580903,1.4999052,-0.97782505,-1.3866464,-0.38304615,-0.32031587,-1.2037839,-0.921187,0.47761583,0.29421753,0.688406,-0.37852478,1.5713404,-3.0368018,-0.2016433,-1.7349138,0.12672615,-0.30141258,1.0547167,0.85172766,-0.18810366,0.20439634,0.44429627,-0.2648262,-0.6020205,-0.5105773,1.0,0.0,0.0,0.0,0.0,0.0,0.0,-1.338406,-0.021475226,-1.0213404,2.0395994,-36.145767,12.196904,-3.6871672,-5.019486,-0.94270706,-0.09191632
-32.136765,-96.71663,-30.792208,5.9890766,5.6582828,-2.5012724,0.3321328,-0.751324,-0.5769921,-0.045360576,-0.7644736,-0.5765734,0.66284627,0.48084214,0.7337724,-0.30820078,-1.7644149,-1.1027375,2.400433,1.5661899,-0.92974085,0.79524434,-0.25720924,-1.7621181,-1.0388482,2.4489083,1.5046335,-0.97483814,-1.3561201,-0.76770514,-0.1940652,-1.2719284,-0.9176408,0.4685632,0.29985285,0.6580601,-0.38053894,1.5532678,-3.0337656,-0.2014417,-1.8313652,0.12290573,-0.3086872,1.049118,0.85420805,-0.1812136,0.2081961,0.44061837,-0.42635727,-0.7667611,-0.5782756,1.0,0.0,0.0,0.0,0.0,0.0,0.0,-1.30806,-0.019461066,-1.0032678,3.9826632,-38.77628,11.945256,-6.4160824,0.22237301,-1.6973615,0.44580698
-17.818329,-64.21804,-16.769983,6.299358,4.6477246,-1.7072859,0.72329754,-0.6863253,-0.70363146,0.16615652,-0.79121506,-0.5414901,0.6134113,0.4840295,0.7266118,-0.3275724,-1.7455025,-1.1179696,2.3947594,1.5659747,-0.9264352,0.7821523,-0.26742834,-1.7623947,-1.0521214,2.4400163,1.5092436,-0.9717778,-1.2914417,-1.1074209,0.025721334,-1.3446534,-0.879409,0.4561691,0.30864373,0.6277447,-0.3825531,1.5342315,-3.0307324,-0.2012403,-1.9277202,0.11781311,-0.31718063,1.0429242,0.85651505,-0.1739055,0.20986229,0.43828818,-0.5425178,-0.8717525,-0.63566566,1.0,0.0,0.0,0.0,0.0,0.0,0.0,-1.2777447,-0.017446905,-0.98423153,7.1065903,-34.2067,21.289564,-6.910467,3.8409233,-1.917851,1.0304093
3.2679737,-8.202198,5.532835,10.405026,2.75851,-0.39360183,1.0589008,-0.646388,-0.7352912,0.41068158,-0.7915252,-0.54974717,0.59754676,0.49373436,0.7175135,-0.34095746,-1.7213265,-1.1312739,2.3850415,1.5689983,-0.92240435,0.76981366,-0.28019184,-1.7596672,-1.0659707,2.4315171,1.5137507,-0.9686135,-1.2134333,-1.3329024,0.35225075,-1.3977729,-0.8394489,0.44824183,0.3204442,0.5974598,-0.38456345,1.5142323,-3.0277023,-0.2010391,-2.0239787,0.112155914,-0.32600403,1.0363753,0.8582569,-0.16673307,0.20964359,0.4377725,-0.57895356,-0.87805027,-0.6645822,1.0,0.0,0.0,0.0,0.0,0.0,0.0,-1.2474598,-0.01543656,-0.96423227,8.173728,-22.615505,31.80694,-5.11415,4.2587996,-0.9671867,1.6003013
12.292272,24.21528,16.349953,15.06292,1.671267,0.24592578,0.92272365,-0.5886271,-0.77304864,0.4342912,-0.76931393,-0.5224302,0.59546375,0.4129471,0.710951,-0.3574967,-1.716238,-1.142902,2.3792741,1.573297,-0.9273188,0.75837433,-0.29445976,-1.7540824,-1.0800622,2.4234414,1.5182081,-0.96539676,-1.1196955,-1.4580003,0.623998,-1.4126316,-0.7960416,0.4456373,0.3236898,0.5672054,-0.38657188,1.4932712,-3.0246751,-0.2008381,-2.1201408,0.1064415,-0.33451843,1.029712,0.8593098,-0.16009411,0.20801628,0.4389597,-0.57317704,-0.8338031,-0.6702062,1.0,0.0,0.0,0.0,0.0,0.0,0.0,-1.2172054,-0.013428122,-0.9432712,9.698987,-12.470746,26.249773,-1.3545036,4.6756983,-0.047510862,0.8109987
15.188947,40.233803,20.23169,17.957273,1.0834168,0.35944653,0.6474809,-0.49637887,-0.7955481,0.39860243,-0.7469345,-0.4623782,0.60202336,0.327582,0.7087364,-0.37401456,-1.7142222,-1.1547556,2.3772037,1.5784105,-0.9326386,0.74810135,-0.30941385,-1.7467296,-1.0940487,2.4158921,1.5226656,-0.9622258,-0.9958876,-1.5075401,0.7699947,-1.3933991,-0.7400768,0.4471823,0.31647676,0.5369816,-0.38857841,1.4713494,-3.0216513,-0.20063731,-2.2162068,0.10092163,-0.34248734,1.0230899,0.85976493,-0.15412883,0.20542672,0.44141617,-0.5473187,-0.77377176,-0.6621697,1.0,0.0,0.0,0.0,0.0,0.0,0.0,-1.1869816,-0.011421591,-0.92134935,12.585342,-4.8598766,13.848281,2.048564,5.8918595,0.5738795,-0.27161837
12.075844,37.98725,16.374847,17.109732,0.79181594,-0.1247623,0.3206389,-0.3947721,-0.81296384,0.27434874,-0.7497115,-0.43697926,0.59310675,0.30099916,0.7086241,-0.39071023,-1.7192948,-1.1690199,2.3721943,1.5819763,-0.93212587,0.7392942,-0.32455105,-1.7392261,-1.1077893,2.4088845,1.5271345,-0.95915973,-0.84244627,-1.5155429,0.74283665,-1.3672655,-0.68749857,0.4477511,0.30433384,0.50678825,-0.39058304,1.4484674,-3.0186303,-0.20043671,-2.3121767,0.09566498,-0.35001755,1.0164931,0.8598431,-0.14864919,0.20227689,0.44458663,-0.51947576,-0.73552316,-0.661006,1.0,0.0,0.0,0.0,0.0,0.0,0.0,-1.1567882,-0.009416968,-0.89846736,15.310597,-0.7305145,-3.014791,2.7545452,5.3890467,0.40034652,-0.9112239
2.605029,24.340366,6.9749393,16.352066,0.9416491,-0.7603677,-0.09805239,-0.35690606,-0.81227005,0.09698522,-0.7507822,-0.4277583,0.5844394,0.31406802,0.70360357,-0.40577805,-1.7295276,-1.1828675,2.3661087,1.5855784,-0.9277529,0.73188984,-0.3395881,-1.7332733,-1.1212971,2.4023042,1.531592,-0.95620906,-0.7067379,-1.4997911,0.5462454,-1.3448151,-0.64813846,0.4454682,0.29237556,0.47662544,-0.39258575,1.4246265,-3.0156121,-0.20023632,-2.4080508,0.090538025,-0.35744095,1.009783,0.8598746,-0.14323471,0.19895528,0.44779047,-0.51149786,-0.73495704,-0.6763582,1.0,0.0,0.0,0.0,0.0,0.0,0.0,-1.1266254,-0.0074142516,-0.87462646,13.481212,1.5749931,-19.628166,2.4522066,3.853476,-0.08189678,-1.0653377
-8.27087,2.1446896,-6.381285,11.964562,1.1104192,-1.8034943,-0.4815194,-0.25487792,-0.80790824,-0.2530167,-0.7767157,-0.41212457,0.5485814,0.37272218,0.70640206,-0.42037892,-1.758575,-1.1989686,2.3610916,1.5864501,-0.91893685,0.7259265,-0.35440487,-1.7309406,-1.1347649,2.3960404,1.5359789,-0.95333374,-0.56034654,-1.4760017,0.13066429,-1.3466154,-0.6203161,0.4357518,0.28563598,0.44649315,-0.39458656,1.3998276,-3.0125973,-0.20003612,-2.503829,0.08530426,-0.36530113,1.0026635,0.86024606,-0.13722262,0.19579,0.4503474,-0.5271788,-0.7937142,-0.72627455,1.0,0.0,0.0,0.0,0.0,0.0,0.0,-1.0964931,-0.005413443,-0.8498276,14.3727665,2.2692919,-41.0258,0.08444786,2.43783,-1.1938334,-0.755918
-0.19339705,5.078388,-4.3313437,4.9290476,0.15002859,-2.245684,-0.23807152,-0.0314997,-0.8082978,-0.4186509,-0.79085106,-0.4821586,0.545936,0.45189935,0.72277653,-0.43523467,-1.7728057,-1.21385,2.3478246,1.5905725,-0.9081438,0.722088,-0.36901182,-1.7331169,-1.1483834,2.3897538,1.5402609,-0.95045745,-0.32706752,-1.4560015,-0.3308048,-1.3665589,-0.6321914,0.42442745,0.2879101,0.41639137,-0.39658546,1.3740717,-3.0095854,-0.19983613,-2.5995114,0.08016205,-0.37382126,0.99489623,0.86094326,-0.13025917,0.19297382,0.4522945,-0.50963527,-0.8634687,-0.7971559,1.0,0.0,0.0,0.0,0.0,0.0,0.0,-1.0663913,-0.0034145415,-0.8240717,22.700441,1.8873215,-45.28289,-1.8458128,-1.5057206,-1.5067875,0.08851886
-2.420323,3.6323214,-4.8400345,6.2310295,0.2900467,-1.9944677,-0.24782589,-0.051121756,-0.8151788,-0.5021112,-0.7862191,-0.5285641,0.53961325,0.40779227,0.7169758,-0.4505297,-1.7833279,-1.2270052,2.3368974,1.5942222,-0.9096782,0.7201282,-0.38351005,-1.7393653,-1.1621869,2.3831468,1.5444323,-0.9475831,-0.15338443,-1.4481719,-0.72101223,-1.3844831,-0.67127895,0.4133309,0.28690904,0.3863163,-0.39858246,1.3473595,-3.0065763,-0.19963634,-2.6950982,0.07512474,-0.38298798,0.98641914,0.8619123,-0.12231393,0.19055581,0.45369032,-0.5006198,-0.9263579,-0.86965007,1.0,0.0,0.0,0.0,0.0,0.0,0.0,-1.0363163,-0.0014175475,-0.7973595,17.052448,0.65529346,-38.48897,-1.590848,-4.2073965,-1.4989376,-0.23240447
-11.055517,1.4611199,-6.239395,12.448967,1.1303842,-1.2812753,-0.36270374,-0.17200175,-0.81998265,-0.52571297,-0.7908912,-0.5241355,0.5158122,0.3861629,0.702928,-0.4655083,-1.7919366,-1.241276,2.3307333,1.5960135,-0.9089668,0.7188102,-0.39800972,-1.748471,-1.1761448,2.376162,1.5484892,-0.9447335,-0.12354037,-1.4510813,-0.9737716,-1.3985952,-0.7084336,0.4019747,0.28402844,0.35627174,-0.40057755,1.3196923,-3.0035703,-0.19943674,-2.7905896,0.06991768,-0.39262772,0.97731054,0.86317956,-0.11352851,0.18844835,0.45444408,-0.52608097,-0.96955156,-0.9309647,1.0,0.0,0.0,0.0,0.0,0.0,0.0,-1.0062717,0.0005775392,-0.76969224,3.2773285,-0.45707226,-25.309063,-1.0634184,-4.0644765,-1.4619827,-0.3925085
-16.482824,4.665013,-4.5062175,18.155766,1.883648,-0.46692234,-0.364402,-0.2617629,-0.8273854,-0.50174814,-0.8039491,-0.47710136,0.46872076,0.35686222,0.6926339,-0.48074827,-1.7986459,-1.2565397,2.3284519,1.5953612,-0.9090473,0.7168981,-0.41260237,-1.7589424,-1.1902535,2.3690171,1.5524145,-0.9419297,-0.21129304,-1.4626555,-1.0732526,-1.4134518,-0.7180533,0.3885346,0.27896306,0.3262577,-0.40257072,1.2910708,-3.0005674,-0.19923735,-2.8859851,0.06425476,-0.40249825,0.96772283,0.864728,-0.1041567,0.18640636,0.4545873,-0.5776979,-0.98543453,-0.97535074,1.0,0.0,0.0,0.0,0.0,0.0,0.0,-0.9762577,0.0025707185,-0.7410708,-8.0559435,-1.3460875,-10.406399,-1.043582,-1.33816,-1.5648484,-0.5429387
-18.460073,12.318298,-0.6531904,22.649723,2.2878842,0.28954586,-0.30082095,-0.34377533,-0.8259166,-0.46596166,-0.8074858,-0.45370457,0.45804298,0.39271754,0.68252057,-0.49519402,-1.8055385,-1.271002,2.3236468,1.5982188,-0.9026579,0.7135669,-0.42730373,-1.7695034,-1.2044842,2.3619218,1.5562159,-0.93914306,-0.37067154,-1.4732633,-1.0528634,-1.4248266,-0.70765674,0.3769242,0.27860475,0.2962742,-0.404562,1.2614962,-2.9975674,-0.19903815,-2.9812853,0.057998657,-0.41231155,0.9578333,0.86648244,-0.094492264,0.18422341,0.45424777,-0.640826,-0.9721283,-1.0012622,1.0,0.0,0.0,0.0,0.0,0.0,0.0,-0.94627416,0.0045619905,-0.7114962,-15.008968,-1.2491226,1.3293982,-0.66695213,0.6706834,-1.254183,0.0007092953
-19.885683,15.444603,0.61587715,24.5543,2.4809315,0.58905154,-0.31165728,-0.39342844,-0.8308226,-0.5038181,-0.8011033,-0.45017356,0.42885208,0.36832294,0.6742241,-0.510386,-1.8198851,-1.2845945,2.3169045,1.5991011,-0.9023108,0.70856583,-0.44211,-1.779681,-1.2187588,2.354979,1.5598952,-0.93637264,-0.5402133,-1.4836963,-1.0086157,-1.4267979,-0.69122744,0.36467814,0.27681223,0.26632118,-0.40655136,1.2309693,-2.9945703,-0.19883914,-3.0764904,0.051071167,-0.42192078,0.9477436,0.868414,-0.08469808,0.1817978,0.45346755,-0.7097463,-0.94855124,-1.019193,1.0,0.0,0.0,0.0,0.0,0.0,0.0,-0.91632116,0.006551355,-0.6809693,-16.017992,-1.232791,3.6868572,0.28734207,1.2872815,-1.2748778,-0.11039376
-19.333109,16.845509,0.89239407,23.707672,2.3769562,0.57262504,-0.31329095,-0.42402253,-0.8323001,-0.5633991,-0.8034844,-0.4490878,0.4231293,0.35058776,0.66616356,-0.52534,-1.8360208,-1.2991073,2.3100703,1.6022081,-0.90131384,0.7020923,-0.45699877,-1.7896678,-1.2330334,2.3481889,1.5634581,-0.9336308,-0.6803596,-1.4912177,-0.9974436,-1.4260706,-0.6756203,0.35335895,0.27355328,0.2363987,-0.40853882,1.199491,-2.9915764,-0.19864035,-3.1716003,0.04348564,-0.43131065,0.9374525,0.8705181,-0.074779674,0.17912666,0.4522387,-0.775518,-0.9259484,-1.0397339,1.0,0.0,0.0,0.0,0.0,0.0,0.0,-0.8863987,0.008538812,-0.649491,-13.193666,-0.93848705,0.4815817,0.5485773,1.2185097,-1.2068093,-0.2547741
-24.134798,13.922356,-1.8868787,24.422667,2.6669993,0.5957693,-0.44261497,-0.53081256,-0.83308464,-0.60009414,-0.8070642,-0.41188955,0.40450817,0.29228216,0.649011,-0.5403072,-1.8496772,-1.3137398,2.307,1.6039089,-0.9044026,0.69415677,-0.47194046,-1.799813,-1.2473042,2.3416352,1.5669028,-0.93096435,-0.82843316,-1.4958671,-1.0223988,-1.4254087,-0.649941,0.34120625,0.26460558,0.20650673,-0.41052246,1.1670623,-2.9885855,-0.19844174,-3.2666152,0.035139084,-0.4405117,0.92692304,0.87286747,-0.06466574,0.17618826,0.45042023,-0.85557663,-0.90777797,-1.0644976,1.0,0.0,0.0,0.0,0.0,0.0,0.0,-0.8565067,0.010522455,-0.6170623,-13.94937,-0.682044,-3.1090736,0.6055832,2.1724343,-1.3591409,-0.83650947
-28.44576,12.078717,-4.154786,25.193325,2.9352484,0.6649263,-0.5737802,-0.6180413,-0.83106774,-0.64581186,-0.80224305,-0.37262782,0.41245216,0.19471303,0.63235265,-0.5550472,-1.8643942,-1.3275285,2.3043725,1.608148,-0.91149306,0.6847192,-0.48689932,-1.8104713,-1.2615407,2.335421,1.5702425,-0.92845714,-0.9793019,-1.4966911,-1.0822034,-1.4211643,-0.6133185,0.33077347,0.24625942,0.17664337,-0.4125061,1.1336842,-2.9855974,-0.19824333,-3.3615348,0.025892258,-0.44955254,0.91611975,0.8755531,-0.05429593,0.1729509,0.44782427,-0.94903195,-0.8912238,-1.0926831,1.0,0.0,0.0,0.0,0.0,0.0,0.0,-0.82664335,0.012506098,-0.58368415,-14.2103195,-0.3314495,-6.5547705,1.0207891,3.2179475,-1.2587607,-1.7866075
-31.171661,12.123701,-5.14851,25.77037,3.1649864,0.7727938,-0.70410126,-0.69273484,-0.82908714,-0.69067067,-0.79462117,-0.30632472,0.3986327,-0.049220476,0.61544573,-0.569808,-1.8795384,-1.3410028,2.3047886,1.6101058,-0.9333792,0.67380536,-0.5018442,-1.8218925,-1.2756989,2.329722,1.5734774,-0.92630756,-1.125836,-1.4946865,-1.1639565,-1.4119315,-0.5570454,0.32000378,0.20471266,0.14680862,-0.41448593,1.0993576,-2.9826124,-0.19804513,-3.4563599,0.015642166,-0.45843124,0.9050262,0.87865853,-0.04365701,0.16933072,0.44427514,-1.0522239,-0.8730599,-1.1219963,1.0,0.0,0.0,0.0,0.0,0.0,0.0,-0.7968086,0.014485925,-0.5493576,-13.791966,-0.074362755,-8.695865,1.5555143,5.158341,-1.3549984,-4.1006894
-28.745169,17.854832,-1.877593,25.868217,3.4188788,1.0353614,-0.6584907,-0.746197,-0.8264788,-0.6836928,-0.78933895,-0.09186616,0.41320193,-0.22776757,0.59918565,-0.5844921,-1.8902618,-1.3546329,2.3205354,1.6147976,-0.94908434,0.66156495,-0.51675206,-1.8339603,-1.2897522,2.3251595,1.5766245,-0.9246863,-1.2542626,-1.4903729,-1.2226839,-1.4010313,-0.42398128,0.31217626,0.14846452,0.117004395,-0.41646576,1.0640836,-2.9796305,-0.19784713,-3.55109,0.004360199,-0.46705818,0.8937027,0.88218683,-0.032897905,0.16499947,0.43981716,-1.1565154,-0.8448515,-1.1429439,1.0,0.0,0.0,0.0,0.0,0.0,0.0,-0.7670044,0.016465753,-0.51408356,-12.086153,0.16477108,-6.323862,1.679039,12.889242,-1.0607243,-5.4881454
-24.120459,24.329504,2.335154,25.371788,3.5977204,1.2413833,-0.5616823,-0.77483094,-0.8252846,-0.6913838,-0.7766079,0.1549769,0.4224729,-0.36344865,0.5840818,-0.59928054,-1.9030987,-1.367413,2.3406572,1.6188718,-0.9610312,0.64828503,-0.5316132,-1.8464477,-1.3036606,2.3225617,1.5797144,-0.9236859,-1.3504988,-1.4855376,-1.2584777,-1.3856989,-0.2057124,0.30691054,0.084662214,0.08723068,-0.41844177,1.0278628,-2.9766514,-0.19764931,-3.6457253,-0.007928848,-0.47535324,0.8822431,0.88609475,-0.022245234,0.15952787,0.43461704,-1.2565355,-0.8081398,-1.1542053,1.0,0.0,0.0,0.0,0.0,0.0,0.0,-0.73723066,0.018441767,-0.47786278,-9.025359,0.2436161,-3.9273977,2.043271,21.501074,-0.78909993,-6.152399
-17.100105,32.832054,7.765723,23.994875,3.2212539,1.4359754,-0.42739758,-0.7880724,-0.817578,-0.6896348,-0.76265246,0.27720588,0.45192176,-0.44066134,0.5694778,-0.61337095,-1.9154112,-1.3799258,2.3502824,1.6249065,-0.96775204,0.63432133,-0.54639703,-1.8591087,-1.3173821,2.3222833,1.5827872,-0.9233235,-1.4103839,-1.4767056,-1.2695029,-1.3664662,0.030790916,0.30655602,0.020916358,0.057487488,-0.4204178,0.99069643,-2.9736753,-0.19745171,-3.740266,-0.02107048,-0.48319817,0.8707286,0.8902827,-0.011906097,0.15274267,0.42886418,-1.3361995,-0.7602075,-1.1578568,1.0,0.0,0.0,0.0,0.0,0.0,0.0,-0.70748746,0.02041778,-0.44069642,-5.570388,0.6911993,-1.3461351,2.3178816,23.446741,-0.22486448,-6.117345
-9.699706,42.83015,13.506792,22.768953,2.080936,1.6775248,-0.32295075,-0.79503936,-0.8015367,-0.68380916,-0.72862047,0.120849326,0.5394234,-0.45327058,0.5548174,-0.6265507,-1.9274896,-1.3902441,2.3343682,1.6367295,-0.9686506,0.61999047,-0.56102735,-1.8717391,-1.3307984,2.3234963,1.5859343,-0.9235476,-1.4398395,-1.4589146,-1.2614067,-1.3323383,0.15093957,0.31729046,-0.036272366,0.027772903,-0.42238998,0.95258534,-2.9707022,-0.1972543,-3.8347125,-0.034715652,-0.49045753,0.85922015,0.89459085,-0.0020069282,0.14509395,0.42267114,-1.3775454,-0.69650793,-1.1556544,1.0,0.0,0.0,0.0,0.0,0.0,0.0,-0.6777729,0.022389978,-0.40258533,-2.6870728,1.6438961,0.6456375,3.6768436,11.936653,1.0377705,-5.5559998
-4.4304543,45.30781,15.167946,18.946352,0.4359026,1.57973,-0.23709026,-0.7951559,-0.80561274,-0.71034914,-0.7237088,-0.26604238,0.55833894,-0.46311158,0.5404749,-0.6415886,-1.942774,-1.4031693,2.2968922,1.6417682,-0.96985877,0.60553944,-0.5755165,-1.8843677,-1.3439019,2.324263,1.5892092,-0.9242915,-1.4462726,-1.4459982,-1.2637142,-1.3021709,0.051770464,0.3311368,-0.08707207,-0.0019130707,-0.42436218,0.9135305,-2.9677322,-0.19705708,-3.9290645,-0.048452377,-0.49705315,0.84762776,0.8988378,0.0076093823,0.13753748,0.41607225,-1.3750954,-0.6291346,-1.1673405,1.0,0.0,0.0,0.0,0.0,0.0,0.0,-0.6480869,0.024362177,-0.36353052,-0.4682541,1.1940479,-0.38368702,3.2320023,-9.953986,1.4477372,-5.0781436
-1.6643884,43.572582,14.785627,15.88027,-0.29710257,1.341207,-0.15220074,-0.78198916,-0.8164685,-0.73979264,-0.71905655,-0.39193773,0.5500103,-0.48150313,0.52734053,-0.6571634,-1.958347,-1.4158075,2.2850692,1.6442102,-0.9724418,0.59117997,-0.58996755,-1.8971641,-1.3567612,2.3233476,1.5926081,-0.9254979,-1.4320872,-1.445093,-1.2853726,-1.2797483,-0.13959482,0.3430824,-0.13202208,-0.031568527,-0.42633057,0.8735249,-2.964765,-0.19686007,-4.0243874,-0.062028885,-0.5030327,0.83581907,0.90291184,0.017168144,0.13063769,0.4091323,-1.353387,-0.56866646,-1.1919086,1.0,0.0,0.0,0.0,0.0,0.0,0.0,-0.61843145,0.02633056,-0.3235249,1.5478134,0.0076055527,-2.307129,2.4607658,-19.182817,1.2557924,-4.548544
-1.7130669,40.67777,13.700004,14.185858,-0.16962686,1.1939267,-0.07718793,-0.7861795,-0.825,-0.74479485,-0.72421193,-0.33855364,0.5134069,-0.5000198,0.51256204,-0.6724675,-1.9716436,-1.4291824,2.2894921,1.6439488,-0.97549987,0.57708764,-0.60447127,-1.9106853,-1.3696735,2.3206482,1.5977724,-0.9268562,-1.3790232,-1.4495021,-1.4667183,-1.3276378,-0.35393614,0.87999344,-0.11159005,-0.056037903,-0.42794037,0.8476718,-1.4374931,0.0071905586,0.8184258,-0.0754776,-0.5082741,0.8235503,0.90670127,0.026220443,0.1245828,0.4020998,-1.3518107,-0.4584262,-1.2773736,0.0,1.0,0.0,0.0,0.0,0.0,0.0,-0.5939621,0.027940363,-0.2976718,9.1652155,-0.028061867,-33.925747,-10.184026,-27.166828,106.79429,7.98374
76.94487,176.0,110.0,110.0,-2.9293137,12.615531,-0.63125587,-0.82334703,0.47388625,0.6544339,0.7383899,-0.26587456,0.6366298,-0.4746925,0.49475294,-0.55708265,-1.8452419,-1.2958345,2.2940607,1.6614354,-0.9743255,0.56955266,-0.6201468,-1.9228389,-1.3693244,2.3063278,1.6159837,-0.9277412,-0.5527203,-1.6058061,-1.1231151,0.48468703,-1.7871298,2.1478903,-0.08416699,-0.070402145,-0.4278679,0.85510546,-1.4360558,0.0071833697,0.7183564,-0.087228775,-0.510273,0.81495,0.90938354,0.024640584,0.12624153,0.39557233,-1.1145909,-0.09749491,-0.72463214,1.0,0.0,0.0,0.0,0.0,0.0,0.0,-0.57959783,0.027867883,-0.30510545,80.31358,-15.28573,36.922028,179.978,-141.99232,130.73734,1.7396182
-18.80327,138.13477,54.800632,97.29616,4.7198944,5.6185207,-1.5457437,-0.8084362,-0.57003015,-0.28488833,0.7677237,-0.65102047,0.60754186,-0.04702818,0.48870903,-0.67714983,-1.9513278,-1.2925521,2.2412257,1.6767379,-0.93244404,0.563967,-0.6350909,-1.9318378,-1.3574646,2.2870255,1.6374815,-0.9284622,-0.55849534,-1.4587221,-0.8244546,1.4212942,-1.9811852,2.1576254,-0.06743974,-0.08475304,-0.4277954,0.8615392,-1.4346199,0.007176188,0.618387,-0.09864807,-0.5101185,0.8106709,0.91203165,0.016835822,0.1322399,0.3878497,-1.1468467,0.062392414,-0.33624685,1.0,0.0,0.0,0.0,0.0,0.0,0.0,-0.56524694,0.027795404,-0.31153917,0.05054474,14.28051,30.204916,94.15082,-20.35184,3.1211853,1.8467337
-41.91618,124.4561,34.380726,76.310005,4.8665915,3.5245643,-1.4832003,-0.7896803,-0.39713988,-0.4777993,0.73860717,-0.6684326,0.5910346,0.33894086,0.48499894,-0.67480487,-1.9796177,-1.2836038,2.2201822,1.6965849,-0.89456815,0.55671334,-0.6474486,-1.9391639,-1.339854,2.2681847,1.6576593,-0.92878264,-0.7772794,-1.1631583,-0.70402503,1.8759862,-1.8538057,1.9758427,-0.020242007,-0.09908867,-0.42772293,0.86697394,-1.4331855,0.007169013,0.51851755,-0.11069107,-0.50857925,0.80930257,0.91509205,0.007226259,0.13986883,0.37814152,-1.2187173,0.18976097,-0.08028596,1.0,0.0,0.0,0.0,0.0,0.0,0.0,-0.5509113,0.027722925,-0.31697392,-20.771587,29.068375,11.402583,46.00687,12.083483,-16.7377,4.721249
-39.950615,114.31702,26.643885,52.704712,3.398148,2.2638686,-0.99310017,-0.78807104,-0.27945098,-0.42102957,0.77869797,-0.66247505,0.55926603,0.30317023,0.47790623,-0.6753937,-1.9812669,-1.2619842,2.2019372,1.7135859,-0.89846563,0.5467484,-0.6564904,-1.9458473,-1.3205497,2.25169,1.6756189,-0.9286844,-1.0671096,-0.8193346,-0.65852994,1.9494884,-1.5833099,1.7387593,0.01900272,-0.11340904,-0.42765045,0.8714108,-1.4317527,0.0071618455,0.418748,-0.12321663,-0.50590706,0.80968606,0.9184626,-0.0021373953,0.14811693,0.3667194,-1.260024,0.29878205,0.06821278,1.0,0.0,0.0,0.0,0.0,0.0,0.0,-0.53659093,0.027650446,-0.32141078,-28.258467,33.925365,3.9078593,7.553792,26.513504,-22.876215,3.697104
-31.951733,88.94306,16.63692,32.34822,1.9120181,0.94653857,-0.55022293,-0.79336095,-0.22334845,-0.52154,0.7872259,-0.6757048,0.5907672,0.2887202,0.4674123,-0.67882526,-1.9980012,-1.2418271,2.1841195,1.7346956,-0.8998124,0.5342753,-0.66250426,-1.9529693,-1.3019893,2.23777,1.6913488,-0.9282524,-1.3065952,-0.5299054,-0.7311802,1.8248225,-1.3296094,1.518842,0.050209254,-0.12771606,-0.42757797,0.8748507,-1.4303213,0.0071546854,0.31907815,-0.13596725,-0.5024624,0.8107954,0.92197675,-0.010063046,0.1565166,0.35406232,-1.2761431,0.36795878,0.11730439,1.0,0.0,0.0,0.0,0.0,0.0,0.0,-0.5222839,0.027577966,-0.32485068,-23.697018,28.593422,-7.586527,-12.484717,24.973679,-21.608591,2.780901
-30.344728,36.621265,-1.6953391,15.648546,1.6859987,-0.5281173,-0.22828941,-0.8078703,-0.34242547,-0.61740685,0.78255194,-0.6693249,0.5963182,0.24593596,0.45348826,-0.6967468,-2.01471,-1.2237341,2.1708376,1.7509806,-0.9036588,0.5200455,-0.6670428,-1.9614322,-1.2851398,2.2259254,1.7051008,-0.92757434,-1.4612517,-0.42902908,-0.88554406,1.6384453,-1.1365801,1.3274813,0.07303759,-0.14200974,-0.4275055,0.87729466,-1.4288914,0.007147532,0.21950798,-0.14910507,-0.498806,0.81160766,0.92556965,-0.015920041,0.16449237,0.34060162,-1.3206373,0.37441382,0.06374698,1.0,0.0,0.0,0.0,0.0,0.0,0.0,-0.50799024,0.027505487,-0.32729465,-15.31415,9.932173,-15.690231,-18.606949,19.15164,-19.064045,2.1117806
-23.9122,7.424418,-9.100857,7.1880856,1.4200515,-1.2460799,0.021683142,-0.80611056,-0.39072534,-0.6659867,0.7836377,-0.682402,0.6175375,0.28868195,0.43943447,-0.7061153,-2.0280309,-1.206776,2.1576853,1.7668545,-0.89870614,0.50493646,-0.67158896,-1.9715507,-1.2699497,2.215435,1.7171838,-0.9266655,-1.5268099,-0.46327227,-1.0546016,1.4797763,-1.0199839,1.168445,0.09667594,-0.15628815,-0.427433,0.87874365,-1.4274629,0.007140386,0.12003737,-0.16275597,-0.49534798,0.81153136,0.9291866,-0.019638246,0.17168868,0.32672563,-1.3750906,0.3469787,-0.03515228,1.0,0.0,0.0,0.0,0.0,0.0,0.0,-0.49371183,0.027433008,-0.32874364,-6.383419,-3.4742415,-17.130066,-15.737581,11.598587,-15.940547,2.3104622
-16.886751,-0.75668097,-8.398002,5.2196403,1.2488406,-1.3169613,0.15874152,-0.80727565,-0.42193154,-0.68225753,0.7810281,-0.68477565,0.6306236,0.2882265,0.42420888,-0.71378213,-2.0397766,-1.1918468,2.1469574,1.7802461,-0.8978428,0.48962808,-0.67700964,-1.9830806,-1.255904,2.2056694,1.7278936,-0.925543,-1.5315884,-0.56837684,-1.186223,1.3802416,-0.9624426,1.0382268,0.11755556,-0.1705513,-0.42736053,0.8791987,-1.4260359,0.0071332473,0.020666199,-0.17692757,-0.49221992,0.81043875,0.9327633,-0.02153614,0.17802568,0.31272304,-1.4257834,0.31297013,-0.13684091,1.0,0.0,0.0,0.0,0.0,0.0,0.0,-0.47944868,0.027360529,-0.32919866,-0.3033638,-10.531771,-13.320184,-9.7368,5.694759,-13.084364,2.1078854
-14.250161,-0.4400382,-6.330298,6.6218247,1.2727884,-1.1060684,0.1748474,-0.817,-0.4676445,-0.71479374,0.7752001,-0.6914729,0.6268532,0.28585437,0.40792808,-0.7237741,-2.05456,-1.178384,2.136522,1.790579,-0.8969576,0.47445703,-0.68369395,-1.9956424,-1.2424419,2.1961746,1.7374742,-0.9242355,-1.511669,-0.7019129,-1.279691,1.3359414,-0.94556665,0.93098366,0.13534665,-0.1848011,-0.42728806,0.87866074,-1.42461,0.0071261153,-0.07860562,-0.19158554,-0.48938942,0.80840796,0.9362611,-0.02199685,0.18357371,0.29871714,-1.4743015,0.28555265,-0.22777037,1.0,0.0,0.0,0.0,0.0,0.0,0.0,-0.46519887,0.02728805,-0.32866073,2.1661758,-13.387478,-9.451127,-4.1344404,1.6232848,-10.794473,1.8389255
-8.407095,13.897219,0.90617293,9.358169,1.0557344,-0.6606897,0.20117202,-0.8053723,-0.48178074,-0.7152347,0.7713134,-0.6901214,0.64097756,0.2674074,0.3939198,-0.731872,-2.0671659,-1.1653105,2.1271625,1.801572,-0.8974948,0.4595878,-0.6915522,-2.00876,-1.229142,2.186695,1.7461374,-0.92278785,-1.4784298,-0.8140937,-1.3223721,1.3288724,-0.94947267,0.8446745,0.14800246,-0.19903755,-0.42721558,0.8771279,-1.4231856,0.0071189906,-0.17817192,-0.20655632,-0.4867077,0.80567527,0.9396225,-0.021424625,0.18852575,0.28479558,-1.5005325,0.27557388,-0.29133084,1.0,0.0,0.0,0.0,0.0,0.0,0.0,-0.45096242,0.02721557,-0.32712787,3.4055471,-11.293709,-4.2063475,-0.45144558,-0.5560994,-8.676529,1.2975127
-6.8489623,19.69405,3.8751016,10.906623,1.080901,-0.3760246,0.18783608,-0.79837614,-0.54715914,-0.714458,0.77212214,-0.6916806,0.6461977,0.22174507,0.3797502,-0.74626815,-2.0802057,-1.1519297,2.117527,1.8107572,-0.9006133,0.4450457,-0.7005082,-2.0220275,-1.2157562,2.1771126,1.7540605,-0.9212677,-1.4459431,-0.9231246,-1.3277239,1.3427777,-0.9620092,0.774779,0.1535674,-0.21325874,-0.4271431,0.8746001,-1.4217626,0.0071118735,-0.27763867,-0.22174263,-0.48404694,0.8024062,0.94281995,-0.020131823,0.1929898,0.2709984,-1.5198938,0.27611914,-0.34193912,1.0,0.0,0.0,0.0,0.0,0.0,0.0,-0.43674123,0.027143091,-0.3246001,3.2982826,-11.000383,-0.40040016,1.6497135,-1.4603734,-7.03032,0.59740543
-2.878977,23.898474,6.572558,10.502532,0.90778303,-0.24236941,0.24880436,-0.7630231,-0.61031926,-0.70790803,0.777496,-0.70549035,0.66579664,0.26110962,0.3687434,-0.7615401,-2.0928183,-1.1380066,2.1065636,1.8206402,-0.89515674,0.43091226,-0.71054274,-2.0351653,-1.2021644,2.1673546,1.7613962,-0.919676,-1.40248,-1.0305669,-1.3087859,1.3654349,-0.9808069,0.719823,0.16110101,-0.22746468,-0.42707062,0.8710784,-1.420341,0.007104763,-0.377006,-0.23703384,-0.48135185,0.79867715,0.94582236,-0.01833041,0.19701767,0.25742555,-1.5279398,0.28037933,-0.3868718,1.0,0.0,0.0,0.0,0.0,0.0,0.0,-0.4225353,0.027070612,-0.32107836,4.340315,-10.844326,2.103591,2.496481,-2.1164417,-5.525422,0.7959753
-0.41704273,28.236301,8.451697,10.221274,0.78313947,-0.1552484,0.27896982,-0.7374538,-0.65261245,-0.70648366,0.78079754,-0.69751436,0.65777415,0.2956663,0.3571669,-0.775804,-2.1058137,-1.1240847,2.097603,1.8271736,-0.89010936,0.41724563,-0.72156245,-2.0480666,-1.1883533,2.1574554,1.768255,-0.9179918,-1.354874,-1.1260992,-1.2832264,1.3868383,-0.99384207,0.67442304,0.1709486,-0.24165726,-0.42699814,0.86656374,-1.4189209,0.0070976596,-0.47627398,-0.25234413,-0.47859573,0.79453176,0.9486162,-0.016136583,0.20063983,0.24415249,-1.5276506,0.28721547,-0.42784938,1.0,0.0,0.0,0.0,0.0,0.0,0.0,-0.40834272,0.026998132,-0.31656373,4.715538,-9.661245,2.8147936,2.3396254,-1.5702486,-4.5719624,1.0177702
5.7866545,32.847115,11.219989,8.08009,0.4189638,-0.1562661,0.3715028,-0.68912506,-0.69257903,-0.6905636,0.7677342,-0.68794906,0.6668705,0.30601516,0.34833312,-0.79082036,-2.117123,-1.1115799,2.0886605,1.8349421,-0.8873903,0.4041698,-0.7334414,-2.0606666,-1.1744487,2.1474876,1.7747285,-0.91621035,-1.2922016,-1.208796,-1.2514178,1.392059,-0.99859875,0.6381868,0.18055369,-0.2558365,-0.42692566,0.86105716,-1.4175022,0.0070905634,-0.5754427,-0.26753426,-0.47578812,0.78998256,0.95118326,-0.013619535,0.20386401,0.23130983,-1.5109689,0.2911937,-0.46840817,1.0,0.0,0.0,0.0,0.0,0.0,0.0,-0.3941635,0.026925653,-0.31105715,6.138468,-8.371687,3.524232,0.64029694,-0.78736544,-3.654182,0.9694904
6.609712,32.257847,10.572144,6.5371947,0.25303403,-0.22687972,0.39030725,-0.66271764,-0.73605597,-0.70517266,0.7529833,-0.68989646,0.6479685,0.31861523,0.33789802,-0.807047,-2.1311839,-1.0991504,2.078498,1.8395253,-0.8843488,0.39172196,-0.74609286,-2.0730834,-1.1606205,2.137497,1.780874,-0.9143345,-1.2294258,-1.2841601,-1.2371784,1.3803042,-1.0000951,0.6065675,0.18996012,-0.27000046,-0.42685318,0.85455966,-1.4160849,0.007083474,-0.6745122,-0.2825451,-0.47297096,0.7849752,0.9535335,-0.010737129,0.20668851,0.21894817,-1.4922299,0.29129246,-0.5161287,1.0,0.0,0.0,0.0,0.0,0.0,0.0,-0.37999952,0.026853174,-0.30455965,6.142521,-7.6361895,1.7521143,-1.0654211,-0.45124292,-3.2105565,0.93821585
17.294174,38.35517,14.663879,3.4724908,-0.3484695,-0.34700572,0.5278204,-0.57334745,-0.75851524,-0.69446105,0.7406613,-0.693275,0.6509866,0.3459267,0.3343872,-0.82194436,-2.1425295,-1.0865543,2.0681694,1.8459727,-0.8797418,0.38015914,-0.7593766,-2.0853782,-1.1469982,2.1274948,1.7867467,-0.9123575,-1.1327851,-1.3433652,-1.225442,1.35628,-1.0016345,0.58068323,0.20015569,-0.28414917,-0.4267807,0.84707224,-1.414669,0.0070763924,-0.7734827,-0.29717636,-0.4702282,0.77950555,0.9556427,-0.007501529,0.20915465,0.20723209,-1.4486791,0.28073978,-0.5622668,1.0,0.0,0.0,0.0,0.0,0.0,0.0,-0.3658508,0.026780695,-0.29707223,9.397578,-6.008363,1.6374111,-2.422452,-0.5156398,-2.6345253,0.9644002
22.532919,42.629917,16.791254,2.3259752,-0.5917828,-0.4206136,0.5649412,-0.51784855,-0.7778767,-0.69223714,0.7243069,-0.67610395,0.62562364,0.3270508,0.3283743,-0.8371643,-2.1546018,-1.0745674,2.0598843,1.8493091,-0.87965244,0.36965537,-0.77314,-2.0975928,-1.1336753,2.117527,1.7923753,-0.91030425,-1.023985,-1.3876485,-1.2181361,1.324072,-0.9960438,0.556718,0.20677933,-0.29828644,-0.42670822,0.83859587,-1.4132546,0.007069317,-0.8723542,-0.31129074,-0.4676304,0.77359754,0.95750684,-0.0039376644,0.21129735,0.1962611,-1.3939072,0.26365235,-0.6054299,1.0,0.0,0.0,0.0,0.0,0.0,0.0,-0.35171354,0.026708215,-0.28859586,10.558748,-4.51777,1.2537241,-3.3044338,0.16076565,-2.4573684,0.57825744
30.873322,44.18365,18.479864,-1.0724483,-1.1261864,-0.65483576,0.6707815,-0.4268698,-0.79616493,-0.71829015,0.6818253,-0.67935467,0.5924625,0.3314794,0.3269684,-0.8527565,-2.169422,-1.0654929,2.0495915,1.8516216,-0.8771563,0.36043,-0.78726584,-2.1098838,-1.1208217,2.1076088,1.7977655,-0.9081947,-0.8900582,-1.421097,-1.230814,1.2717,-0.9916304,0.53301924,0.2119265,-0.31240845,-0.42663574,0.8291315,-1.4118416,0.0070622494,-0.9711269,-0.3247471,-0.46531105,0.76721585,0.9591235,1.0182454e-05,0.21313597,0.1861589,-1.3237624,0.23140898,-0.6544405,1.0,0.0,0.0,0.0,0.0,0.0,0.0,-0.33759153,0.026635736,-0.27913147,12.99547,-3.4210443,-0.6868839,-5.403471,0.024652481,-2.4551272,0.38806796
30.805365,46.01964,18.556847,-0.69608474,-1.1141067,-0.65860206,0.64559305,-0.38222027,-0.8031034,-0.7226195,0.6573231,-0.67127156,0.56092507,0.3277538,0.322208,-0.8675762,-2.1821458,-1.0550894,2.0404816,1.853858,-0.8754193,0.35247636,-0.80163294,-2.1223426,-1.1085289,2.0977516,1.802921,-0.90604514,-0.7650598,-1.442185,-1.2492381,1.2145233,-0.98498476,0.50935787,0.21543796,-0.3265152,-0.42656517,0.8186885,-1.4104301,0.0070551885,-1.0686777,-0.3374977,-0.46331215,0.7603679,0.9605088,0.004373123,0.2147045,0.17693418,-1.2537563,0.19784963,-0.70033586,1.0,0.0,0.0,0.0,0.0,0.0,0.0,-0.32348478,0.026565164,-0.2686885,12.125993,-2.1942616,-1.2849092,-5.8816433,0.24529696,-2.4748921,0.21443367
24.846155,48.773937,17.81219,2.473168,-0.6897983,-0.4973474,0.53507847,-0.36162007,-0.80697507,-0.7119894,0.6390609,-0.6553073,0.5382578,0.31091708,0.31631434,-0.8823304,-2.1935415,-1.0446228,2.0322208,1.8567468,-0.87495345,0.3455379,-0.8161345,-2.1349196,-1.0967662,2.0879974,1.8078477,-0.90387934,-0.6711356,-1.4532368,-1.2589512,1.162929,-0.9733686,0.4866392,0.21653368,-0.3406105,-0.4264965,0.80727077,-1.40902,0.0070481347,-1.1661309,-0.34962845,-0.46157074,0.75312734,0.9616999,0.009109626,0.2160346,0.16846192,-1.194072,0.17377546,-0.7373927,1.0,0.0,0.0,0.0,0.0,0.0,0.0,-0.30938947,0.0264965,-0.25727075,9.098148,-1.213479,-0.47402382,-5.266428,0.74088573,-2.3942888,-0.012472272
20.505426,51.037582,17.44868,5.039271,-0.3059579,-0.35680163,0.45468765,-0.3263913,-0.8133087,-0.7012999,0.62103313,-0.6320338,0.5350632,0.324096,0.31289876,-0.8974654,-2.2050495,-1.034663,2.024794,1.8613541,-0.87146974,0.3393724,-0.8307143,-2.1475043,-1.0854576,2.0784187,1.8125684,-0.9016964,-0.59915173,-1.4599484,-1.2564709,1.1201245,-0.9541796,0.46681017,0.21851341,-0.35469055,-0.42642784,0.7948792,-1.4076113,0.0070410883,-1.2634867,-0.36122513,-0.4600029,0.7455751,0.96273124,0.014130106,0.21713182,0.16063167,-1.1427807,0.15774111,-0.76627326,1.0,0.0,0.0,0.0,0.0,0.0,0.0,-0.29530942,0.026427835,-0.24487919,6.9593906,-0.7940531,0.7090807,-4.344845,1.4963984,-2.1135986,0.09614229
10.557343,52.378815,15.441707,9.052606,0.35598713,-0.16663605,0.31134915,-0.33608687,-0.8162439,-0.6909097,0.59676594,-0.58961296,0.4896345,0.30857968,0.30576372,-0.9123387,-2.2165954,-1.0257809,2.0194573,1.8615319,-0.8708384,0.33361983,-0.8453408,-2.159986,-1.0745456,2.0691376,1.8170812,-0.8995058,-0.56775993,-1.4640087,-1.244191,1.0816243,-0.9207814,0.4455876,0.21902157,-0.36875534,-0.42635918,0.78150165,-1.406204,0.0070340484,-1.3625027,-0.37244606,-0.45848465,0.7377804,0.96365327,0.019361833,0.21795924,0.1532682,-1.1099182,0.15638788,-0.7889435,0.0,1.0,0.0,0.0,0.0,0.0,0.0,-0.28124464,0.02635917,-0.23150164,3.0001402,-0.551033,1.6059875,-3.8235188,2.9309273,-2.2589922,-0.013926625
-4.458849,47.49073,10.082311,11.630108,0.959431,0.011753857,0.17935656,-0.3874341,-0.8195792,-0.7074706,0.52946424,-0.54361755,0.41704884,0.300486,0.29487643,-0.9272987,-2.2307332,-1.0215992,2.0147758,1.8587861,-0.8694572,0.32774472,-0.86000353,-2.1724296,-1.0642097,2.060295,1.821348,-0.8973171,-0.5940773,-1.4675641,-1.2436719,1.0182829,-0.8732695,0.41984776,0.2188633,-0.38280678,-0.4262905,0.76713467,-1.4047982,0.007027016,-1.4614197,-0.3835411,-0.45684242,0.72969794,0.9645294,0.024894418,0.21841045,0.14615066,-1.1032981,0.17250709,-0.8196062,0.0,1.0,0.0,0.0,0.0,0.0,0.0,-0.2671932,0.026290506,-0.21713465,-2.6271582,-0.5153179,0.26230812,-6.1745644,4.4063926,-2.7256548,-0.037890673
-3.5336447,53.087246,12.110951,13.999266,1.1715518,0.14236388,0.13242054,-0.34742782,-0.81976706,-0.68257356,0.56868833,-0.53193396,0.46925414,0.35897818,0.29300195,-0.94198024,-2.240687,-1.0073409,2.0071018,1.8682734,-0.8614193,0.32172415,-0.8746946,-2.1850176,-1.0543296,2.052096,1.8256835,-0.8951517,-0.60449994,-1.4700907,-1.2655785,0.9784165,-0.78662866,0.444511,0.22302508,-0.39442062,-0.4249897,0.7602276,-0.9772405,0.10941055,-0.4092644,-0.3945694,-0.4549923,0.72133195,0.96537304,0.0305719,0.218513,0.13918462,-1.0994451,0.19702353,-0.84671926,0.0,1.0,0.0,0.0,0.0,0.0,0.0,-0.25557935,0.024989694,-0.21022761,-1.5969515,-0.3995657,1.5075207,-2.2912025,4.1095138,-2.0513237,0.58422387
-1.3397418,74.40323,20.753511,22.52768,2.3036206,0.6830895,-0.06741953,-0.35285008,-0.80551046,-0.49971518,0.6752324,-0.3847016,0.5090564,0.33993998,0.28643915,-0.9552456,-2.2349892,-0.9868064,2.0136256,1.8765891,-0.86115766,0.31556246,-0.8893316,-2.196725,-1.044091,2.0449052,1.8300608,-0.89289147,-0.6203223,-1.4622656,-1.1374002,1.0392547,-0.6977951,0.43510547,0.22721139,-0.40418434,-0.42389488,0.75538594,-0.97626346,0.10930116,-0.5091344,-0.4054947,-0.45275497,0.71322805,0.96621734,0.035657316,0.21827567,0.13231853,-1.0841582,0.23839436,-0.8028327,0.0,1.0,0.0,0.0,0.0,0.0,0.0,-0.24581563,0.023894876,-0.20538592,-1.673305,0.59125423,13.303018,6.145358,8.378733,-1.0163128,0.44875145
7.024697,80.51185,25.24735,21.902227,2.349574,0.72384965,-0.04636196,-0.34095392,-0.8161173,-0.39849523,0.65300024,-0.30381685,0.467773,0.22965938,0.28146708,-0.97094333,-2.2365744,-0.97879094,2.0145235,1.8768381,-0.8699255,0.309334,-0.90393233,-2.2066317,-1.0332325,2.03871,1.8343066,-0.89066845,-0.6241585,-1.4599161,-0.9399272,1.1014799,-0.5953597,0.420899,0.22089702,-0.41394043,-0.42280388,0.74954623,-0.9752874,0.10919188,-0.60890454,-0.4161682,-0.4501438,0.70568,0.967092,0.039722774,0.21767557,0.12558818,-1.0555278,0.27442566,-0.74308246,0.0,1.0,0.0,0.0,0.0,0.0,0.0,-0.23605955,0.022803873,-0.19954622,-0.528872,0.05955696,20.33143,6.21686,9.6670265,-1.4660358,-0.5820811
11.024676,73.12144,23.238518,16.22253,1.6968472,0.4748358,0.124398455,-0.3489296,-0.82045376,-0.37350878,0.5680655,-0.27418405,0.37866473,0.2677587,0.27444106,-0.9859777,-2.2439826,-0.9764259,2.0112917,1.8721731,-0.86389256,0.3030679,-0.9185426,-2.2146807,-1.0222423,2.0334191,1.8383387,-0.88849026,-0.6278986,-1.4618949,-0.7584139,1.0980608,-0.5090015,0.3971827,0.21691388,-0.42368507,-0.42171288,0.7427096,-0.97431225,0.10908271,-0.70857495,-0.4264984,-0.44727898,0.69854456,0.96801007,0.042888213,0.21660204,0.119166076,-1.0203375,0.29553056,-0.7079554,0.0,1.0,0.0,0.0,0.0,0.0,0.0,-0.2263149,0.02171287,-0.19270957,-0.5053282,-0.3465414,18.662716,-0.34856796,8.093381,-2.4163604,-0.3647387
6.0045958,73.03706,21.807775,17.422798,1.7940866,0.5860729,0.08168325,-0.38463148,-0.817361,-0.26312098,0.59501547,-0.27726647,0.42815167,0.26678747,0.26460475,-1.0002787,-2.2409928,-0.9627408,2.0056925,1.881154,-0.8618115,0.29661772,-0.9331672,-2.2208757,-1.0113208,2.0287728,1.8421878,-0.8863483,-0.6510164,-1.4631828,-0.57176995,1.0902959,-0.45129097,0.38060525,0.21341322,-0.4334221,-0.42062187,0.734877,-0.9733381,0.10897365,-0.8081457,-0.43650818,-0.44416046,0.69175035,0.96896726,0.045250047,0.21511592,0.11304799,-0.9895388,0.322474,-0.6738684,0.0,1.0,0.0,0.0,0.0,0.0,0.0,-0.21657789,0.020621866,-0.18487698,-2.3834944,-0.27537346,19.093609,-0.732851,5.278343,-1.6665995,-0.30871034
8.789887,70.52778,20.89679,15.409429,1.3362567,0.434704,0.12629832,-0.3625822,-0.8193237,-0.20631745,0.5959853,-0.31576893,0.44833022,0.25174546,0.2603595,-1.0150996,-2.2415075,-0.9517223,1.997196,1.8870208,-0.86117375,0.29004928,-0.9478109,-2.2254267,-1.0005062,2.0244012,1.845909,-0.88424927,-0.6590148,-1.4652632,-0.41501904,1.0786115,-0.43386933,0.3692147,0.208805,-0.44314766,-0.41953278,0.7260495,-0.972365,0.1088647,-0.9076169,-0.4461708,-0.4408493,0.6852148,0.96993023,0.046962183,0.21337806,0.107235976,-0.95331514,0.33909163,-0.65061736,0.0,1.0,0.0,0.0,0.0,0.0,0.0,-0.20685232,0.01953277,-0.17604947,-0.8698821,-0.34508705,16.069168,-1.1169672,1.2947261,-1.1289835,-0.4413128
-3.4949436,56.883183,12.211126,13.966118,0.99492836,0.1551739,0.09526636,-0.39825186,-0.8203408,-0.29579818,0.55486304,-0.3705092,0.39937398,0.29539615,0.2502241,-1.029845,-2.2550066,-0.94501984,1.9873502,1.8858464,-0.8547096,0.2832863,-0.96247554,-2.229329,-0.9899776,2.0199113,1.8494967,-0.88215977,-0.6819859,-1.4673531,-0.3814739,1.0447683,-0.45438644,0.3553054,0.20906572,-0.4528637,-0.4184456,0.716228,-0.97139287,0.108755864,-1.0069886,-0.45562172,-0.43737984,0.67862964,0.9708576,0.0486221,0.21154578,0.10158586,-0.937933,0.35428438,-0.66487944,0.0,1.0,0.0,0.0,0.0,0.0,0.0,-0.19713628,0.018445581,-0.166228,-2.2795796,-0.3339529,3.5111725,-3.2191038,-2.2966146,-1.3985276,0.047069788
-11.667557,52.030903,7.940142,14.696859,1.0337546,0.05243033,0.037392575,-0.41744092,-0.8153521,-0.3159974,0.5533665,-0.35778007,0.3695128,0.3567556,0.2415422,-1.0440108,-2.2609289,-0.93464094,1.9841332,1.886448,-0.8464842,0.27624047,-0.97713304,-2.2334523,-0.9797773,2.0151815,1.8529459,-0.88003844,-0.7109075,-1.4657956,-0.42941964,1.0090531,-0.483344,0.34479296,0.20848109,-0.46253586,-0.41709137,0.70644164,-0.93997735,0.20368643,-0.69477886,-0.46501923,-0.43372917,0.6717863,0.9717268,0.05067481,0.20970832,0.09592428,-0.93561596,0.37202564,-0.6974082,0.0,1.0,0.0,0.0,0.0,0.0,0.0,-0.18746412,0.017091364,-0.15644163,-2.6843429,0.016903877,-5.769849,-3.8739443,-3.7249863,-0.5999863,-0.79440475
-28.080845,53.615604,3.8477588,20.883669,1.5580456,0.18535328,-0.17593229,-0.466616,-0.79726404,-0.38450867,0.61557543,-0.4283682,0.37963915,0.41404787,0.22957887,-1.0568595,-2.2719033,-0.91821975,1.9723448,1.8909098,-0.83863366,0.26872793,-0.9916861,-2.2385411,-0.96955216,2.0100274,1.8563107,-0.8778534,-0.76423216,-1.4522777,-0.5354167,1.0280008,-0.52703816,0.3334003,0.22162664,-0.47172546,-0.41508675,0.69913155,-0.916037,0.20295495,-0.74177974,-0.4745617,-0.42975616,0.66464734,0.9724952,0.05343754,0.2081125,0.08992515,-0.9557344,0.41048765,-0.72289723,0.0,1.0,0.0,0.0,0.0,0.0,0.0,-0.17827451,0.01508674,-0.14913154,-5.1932693,1.2070179,-10.641569,2.2171974,-4.6290874,-1.2206674,1.24138
-13.503804,62.526604,10.242676,19.205204,1.4169995,0.21029043,-0.0728295,-0.4258254,-0.7961062,-0.30210632,0.6161162,-0.37800926,0.3607948,0.430631,0.22614539,-1.0712967,-2.2687519,-0.9079405,1.9722265,1.8923903,-0.8347903,0.26094308,-1.0061017,-2.2442398,-0.9590579,2.0046184,1.859563,-0.8755352,-0.7831154,-1.4383444,-0.5806833,1.0572746,-0.54605687,0.32237038,0.23512824,-0.48070145,-0.41303062,0.69156194,-0.8912946,0.2062247,-0.7619457,-0.48414612,-0.4254818,0.6573974,0.97316307,0.056654766,0.20673788,0.08368617,-0.95426685,0.43773806,-0.728913,0.0,1.0,0.0,0.0,0.0,0.0,0.0,-0.16929853,0.013030618,-0.14156193,-1.8526554,1.2436867,-4.36424,3.145957,-2.115047,-1.1653483,1.3367414
-12.30306,58.55684,9.513936,16.774038,1.5198828,0.11636916,-0.03223732,-0.45560008,-0.8018004,-0.3511203,0.5658952,-0.2561342,0.24008814,0.43337494,0.21538308,-1.0862818,-2.279352,-0.9024684,1.979005,1.8835719,-0.83219767,0.2529513,-1.0204316,-2.250366,-0.9485122,1.9994717,1.8626205,-0.87308633,-0.80440146,-1.4315524,-0.6225168,1.0543094,-0.5050881,0.29972163,0.24821283,-0.48946953,-0.4109459,0.68371516,-0.8715451,0.20922163,-0.79161566,-0.49375725,-0.42094994,0.6500303,0.97378886,0.06016436,0.20527571,0.07731324,-0.9576526,0.46368188,-0.7424916,0.0,1.0,0.0,0.0,0.0,0.0,0.0,-0.16053045,0.010945886,-0.13371515,-2.1009803,0.5364895,-4.02627,-0.08788109,3.8779616,-2.3735404,1.3258487
-8.541637,60.7711,10.968446,15.562936,1.6212695,0.0250355,0.0019138642,-0.46353337,-0.78515244,-0.36809677,0.54691315,-0.14148736,0.0149258785,0.46334237,0.20659795,-1.0989469,-2.2871757,-0.8938209,1.985323,1.8641131,-0.82675207,0.24477972,-1.0346509,-2.2568243,-0.9381582,1.9951284,1.8652927,-0.870498,-0.8214113,-1.419124,-0.6532677,1.0295712,-0.41153884,0.25598547,0.26246318,-0.49803162,-0.408844,0.675595,-0.85082567,0.21032922,-0.81813276,-0.50338745,-0.41618156,0.6425602,0.97443366,0.06386907,0.20341459,0.07086803,-0.9594151,0.48628318,-0.75171703,0.0,1.0,0.0,0.0,0.0,0.0,0.0,-0.15196836,0.008843988,-0.12559497,-1.7031074,1.1043549,-2.8710365,-2.312708,9.087831,-4.509097,1.4468849
1.143148,62.607468,13.459897,12.706128,1.2813686,-0.090367675,0.108458675,-0.44119665,-0.77979875,-0.36637107,0.5279036,-0.10672938,-0.11029859,0.48794475,0.20066005,-1.1126308,-2.2934613,-0.8853679,1.9844555,1.8542628,-0.82170355,0.23659432,-1.0487424,-2.2634692,-0.9281589,1.9917728,1.8674555,-0.86776197,-0.81775874,-1.4062303,-0.6674104,0.99036926,-0.31130618,0.20265263,0.27728882,-0.50634766,-0.4067669,0.66724765,-0.82492846,0.2066807,-0.8395372,-0.5129471,-0.4112873,0.63500816,0.9751164,0.06769021,0.20101471,0.06449068,-0.9487171,0.49562868,-0.7593969,0.0,1.0,0.0,0.0,0.0,0.0,0.0,-0.14365232,0.0067668855,-0.11724764,0.3076911,1.1629343,-1.1255264,-3.8359046,9.698558,-5.4752946,1.4796257
10.294669,67.15911,16.59803,11.21013,0.8976905,-0.119293034,0.20167117,-0.4222334,-0.77125597,-0.33522514,0.5213172,-0.14154397,-0.20948333,0.5081299,0.19437099,-1.125868,-2.2969918,-0.87602717,1.9776183,1.8465072,-0.816949,0.22857937,-1.0626928,-2.2700226,-0.9185362,1.98915,1.8690555,-0.86487746,-0.7964199,-1.3917735,-0.65004176,0.95296305,-0.2472012,0.14531316,0.29199362,-0.51434517,-0.40476608,0.6587727,-0.79077834,0.19757791,-0.84919834,-0.52227783,-0.40639496,0.627433,0.97581434,0.07156204,0.19814473,0.05834274,-0.92235863,0.49200332,-0.75981975,0.0,1.0,0.0,0.0,0.0,0.0,0.0,-0.1356548,0.004766077,-0.108772695,2.0267606,1.3290167,2.1206737,-3.7297368,6.0196457,-5.8571997,1.4261663
45.268654,81.62708,29.448807,5.7284107,0.38151848,-0.104815364,0.45195943,-0.3189056,-0.7752923,-0.08619005,0.50140506,-0.03843766,-0.20036948,0.5085381,0.19668882,-1.140222,-2.2786417,-0.8683957,1.9853063,1.8490186,-0.8140237,0.22125895,-1.0765496,-2.275184,-0.90930176,1.9872825,1.8701541,-0.8618591,-0.711497,-1.3840264,-0.46910036,0.9127955,-0.16868174,0.097812235,0.30478296,-0.52179337,-0.40297127,0.65054494,-0.7293296,0.17330816,-0.81323826,-0.5310154,-0.40180588,0.62012213,0.97657037,0.07477762,0.19473659,0.05288022,-0.85151935,0.4532301,-0.7242872,0.0,1.0,0.0,0.0,0.0,0.0,0.0,-0.12820661,0.0029712617,-0.10054493,8.221828,0.6875992,18.803967,-4.2440414,7.22996,-4.815753,1.1820197
89.632965,99.971275,46.27985,-0.55504704,0.11957157,-0.038426578,0.700136,-0.189411,-0.7931816,0.31120524,0.48116633,0.13645071,-0.12562229,0.45282927,0.20231785,-1.1558678,-2.2440634,-0.86118513,2.0009277,1.8575919,-0.8165762,0.21534453,-1.0904504,-2.2766945,-0.9004781,1.986581,1.8709073,-0.85876656,-0.55277425,-1.3924986,-0.041509546,0.87093055,-0.04034538,0.06785068,0.31026304,-0.5283718,-0.40155983,0.64315796,-0.633898,0.13005683,-0.71321905,-0.5386658,-0.39789963,0.613559,0.97752136,0.07600314,0.19052953,0.048723686,-0.7313844,0.37358814,-0.6362846,0.0,1.0,0.0,0.0,0.0,0.0,0.0,-0.121628165,0.0015598238,-0.09315795,15.464258,-0.9432554,43.875134,-4.589486,11.893492,-2.989714,0.42230487
85.96796,94.295006,44.21418,-1.4876866,0.67429924,-0.09615493,0.6233873,-0.18671946,-0.79979473,0.4188026,0.38863912,0.4090638,-0.18243028,0.3985649,0.19667259,-1.1704298,-2.2348142,-0.8616142,2.0274873,1.8526642,-0.81891006,0.2108542,-1.1044942,-2.2737958,-0.892393,1.9878157,1.8713685,-0.8556744,-0.4153516,-1.408936,0.40345246,0.7870759,0.1751733,0.038806647,0.30869102,-0.5340557,-0.4005642,0.636732,-0.5471368,0.08949923,-0.61987716,-0.54524994,-0.3947277,0.6078276,0.97880274,0.074642174,0.18509889,0.045956433,-0.630397,0.30190456,-0.5547751,0.0,1.0,0.0,0.0,0.0,0.0,0.0,-0.11594427,0.00056418777,-0.08673197,13.470745,-1.7976761,45.474056,-8.575117,20.681885,-2.900354,-0.22175312
72.71455,78.2806,34.802227,-4.0918546,0.2891261,-0.4392929,0.63321525,-0.13970836,-0.7847357,0.36912623,0.26823777,0.53841114,-0.23887877,0.44969782,0.19688337,-1.1829678,-2.2368832,-0.86556923,2.041657,1.8474807,-0.8107046,0.20759422,-1.118622,-2.2676437,-0.88558966,1.99135,1.8715278,-0.8525672,-0.29673454,-1.414627,0.6878959,0.64484245,0.41071713,0.008384408,0.31131113,-0.53902054,-0.39993477,0.6309271,-0.4807226,0.05463972,-0.5698648,-0.55098915,-0.39224243,0.6025611,0.9803993,0.07120356,0.17824845,0.04443861,-0.55283296,0.23340991,-0.5200303,0.0,1.0,0.0,0.0,0.0,0.0,0.0,-0.11097944,-6.5237284e-05,-0.080927074,11.706978,-0.74596405,29.104864,-14.206732,22.969324,-3.0134206,0.23851395
71.94864,72.12297,30.946245,-7.1919093,-0.496881,-0.68069166,0.7430516,-0.050370824,-0.7665408,0.44825006,0.16643181,0.596466,-0.21883392,0.49131832,0.20255713,-1.195276,-2.2228186,-0.8689465,2.0509965,1.8496444,-0.8034354,0.20556723,-1.1326848,-2.2594423,-0.8804847,1.9970138,1.8714291,-0.84940016,-0.17173107,-1.4040529,0.8663062,0.4662459,0.61699444,-0.015751902,0.31847435,-0.5433693,-0.3996563,0.62546927,-0.42086324,0.019458918,-0.5408294,-0.5559368,-0.3905239,0.59743845,0.9822043,0.06633378,0.1700674,0.044175725,-0.47434795,0.1538134,-0.51230943,0.0,1.0,0.0,0.0,0.0,0.0,0.0,-0.10663068,-0.00034371018,-0.075469255,12.391665,0.86762905,18.325674,-17.72623,20.239925,-2.335629,0.7250726
44.52161,65.79742,22.924797,-2.0998907,-0.08264616,-0.43547586,0.57682174,-0.08908966,-0.76245177,0.51399016,0.07615653,0.6373337,-0.13317576,0.48131877,0.19665825,-1.20893,-2.2080433,-0.8728691,2.0607471,1.8581115,-0.8012683,0.20429102,-1.146597,-2.2500129,-0.87724614,2.004382,1.8711783,-0.84616995,-0.11290989,-1.387484,0.969124,0.27717683,0.77637136,-0.0277133,0.324865,-0.547245,-0.39963531,0.6201036,-0.3776507,-0.0032150343,-0.5380959,-0.5602913,-0.38936424,0.5922463,0.98410904,0.06057019,0.16075408,0.04492894,-0.42178813,0.105768174,-0.52436525,0.0,1.0,0.0,0.0,0.0,0.0,0.0,-0.10275495,-0.00036469102,-0.070103586,5.889638,1.5166998,10.376096,-18.687386,15.884792,-1.0671042,0.7485628
10.676366,68.728195,16.945498,8.739051,0.9900142,0.08427273,0.24560754,-0.14189757,-0.74055755,0.55964994,0.045867536,0.6582668,0.03787508,0.48838887,0.19010127,-1.2206528,-2.194048,-0.8726594,2.0702085,1.8749658,-0.79733104,0.20303723,-1.1602556,-2.239893,-0.87559265,2.0129542,1.870959,-0.84287786,-0.12913834,-1.358678,1.0254705,0.1288801,0.8852828,-0.019418564,0.3312383,-0.5507889,-0.39973068,0.6147194,-0.3473051,-0.010823877,-0.54137105,-0.5643444,-0.38832474,0.58696425,0.9860114,0.054260246,0.15066852,0.046218973,-0.39973572,0.105349824,-0.53214467,0.0,1.0,0.0,0.0,0.0,0.0,0.0,-0.0992111,-0.0002693236,-0.06471938,-1.5021592,2.8229475,5.3502083,-14.585853,11.167252,1.0236856,0.83827376
23.424778,62.638756,17.008598,0.630665,-0.25941977,-0.062975645,0.5441098,-0.07818501,-0.727453,0.598458,-0.18796316,0.6811074,0.09674168,0.4714326,0.19521873,-1.2330009,-2.1800473,-0.894389,2.081065,1.8806332,-0.7957346,0.20172165,-1.1736032,-2.2293468,-0.87602574,2.0223355,1.870883,-0.83953756,-0.13204795,-1.3272252,1.0632232,-0.0997349,0.95688576,-0.0031565437,0.33578405,-0.5540066,-0.39993858,0.60919553,-0.31404543,-0.023650978,-0.5588217,-0.5679989,-0.38747597,0.5814294,0.98784107,0.047679044,0.13989964,0.048214696,-0.35352036,0.07961851,-0.56335187,0.0,1.0,0.0,0.0,0.0,0.0,0.0,-0.0959934,-6.142259e-05,-0.05919552,-0.18919408,3.0602694,3.4746885,-22.587496,7.445705,1.8195188,0.68734884
-8.825307,56.74467,9.503628,7.4914346,0.63083655,0.25102472,0.32137045,-0.21223226,-0.715765,0.5694159,-0.29725763,0.7088375,0.0018028916,0.50250846,0.18049842,-1.2451797,-2.1724052,-0.9057515,2.0932193,1.8710632,-0.78928673,0.19974524,-1.1866456,-2.2187495,-0.87884,2.0322576,1.8708855,-0.83613664,-0.21894701,-1.2967592,1.0568391,-0.3409816,1.0053596,0.001862878,0.34262362,-0.55701065,-0.40017128,0.60333264,-0.29638448,-0.022868304,-0.59764993,-0.5714264,-0.3865795,0.5754818,0.98955995,0.04119005,0.12845756,0.050724816,-0.3386471,0.09440453,-0.60751146,0.0,1.0,0.0,0.0,0.0,0.0,0.0,-0.092989326,0.00017127395,-0.053332627,-8.524648,3.0205727,-1.2200594,-23.84437,5.3193808,0.6704146,0.9914577
3.1323035,62.51396,13.34704,6.584402,0.26502666,0.08913398,0.33992374,-0.1487369,-0.7032846,0.6073226,-0.3344658,0.72246,-0.021337219,0.5286483,0.18487155,-1.2569741,-2.1580172,-0.91228664,2.1045036,1.8687518,-0.7832718,0.19721445,-1.1994058,-2.2081525,-0.88369244,2.0425417,1.8709102,-0.8326509,-0.2638734,-1.2692955,1.0588545,-0.53226787,1.0376111,0.003243369,0.35156876,-0.5597992,-0.4004326,0.597204,-0.27332523,-0.027103981,-0.6196288,-0.5746212,-0.385664,0.56919336,0.991129,0.034824185,0.11648175,0.053690035,-0.31253833,0.09201209,-0.6378372,0.0,1.0,0.0,0.0,0.0,0.0,0.0,-0.09020078,0.0004325807,-0.047204018,-4.3193073,2.727747,-0.35221577,-18.819576,3.7095547,0.322337,1.2020826
-9.079483,70.551956,13.796457,15.623911,1.154314,0.2569986,-0.013869114,-0.17635572,-0.69616675,0.5873603,-0.25431737,0.71945745,0.085252866,0.5324225,0.17957889,-1.2690225,-2.1494164,-0.9091242,2.1144874,1.8794354,-0.77940863,0.19427976,-1.2119352,-2.1976469,-0.88946027,2.0530195,1.8710222,-0.8290831,-0.30268353,-1.2473853,1.0458583,-0.590618,1.0530401,0.01443752,0.35956544,-0.5623932,-0.4006939,0.59099746,-0.25511694,-0.02565287,-0.621874,-0.57772446,-0.38461494,0.56278336,0.9925134,0.028475594,0.10433553,0.056747507,-0.30764616,0.11052704,-0.6434138,0.0,1.0,0.0,0.0,0.0,0.0,0.0,-0.08760679,0.0006938875,-0.040997446,-3.6873817,2.2396088,-1.8784523,-5.5552006,2.096486,1.3209933,1.1048436
