Afshin1997/kuka_rl_ros2/src/catch_and_throw/input_files/idealpd/recorded_trajectories/env_292_data.csv
torque0,torque1,torque2,torque3,torque4,torque5,torque6,action0,action1,action2,action3,action4,action5,action6,set_target_0,set_target_1,set_target_2,set_target_3,set_target_4,set_target_5,set_target_6,joint_pos_0,joint_pos_1,joint_pos_2,joint_pos_3,joint_pos_4,joint_pos_5,joint_pos_6,joint_vel_0,joint_vel_1,joint_vel_2,joint_vel_3,joint_vel_4,joint_vel_5,joint_vel_6,tennisball_pos_0,tennisball_pos_1,tennisball_pos_2,tennisball_lin_vel_0,tennisball_lin_vel_1,tennisball_lin_vel_2,end_effector_pos_0,end_effector_pos_1,end_effector_pos_2,end_effector_rot_0,end_effector_rot_1,end_effector_rot_2,end_effector_rot_3,end_effector_lin_vel_0,end_effector_lin_vel_1,end_effector_lin_vel_2,obs_task_0,obs_task_1,obs_task_2,obs_task_3,obs_task_4,obs_task_5,obs_task_6,to_final_target_0,to_final_target_1,to_final_target_2,joint_acc_0,joint_acc_1,joint_acc_2,joint_acc_3,joint_acc_4,joint_acc_5,joint_acc_6
0.0,0.0,0.0,0.0,0.0,0.0,0.0,0.0,0.0,0.0,0.0,0.0,0.0,0.0,1.7802359,-1.0646509,-1.8151424,-1.1170107,1.9373155,1.1170107,-0.91629785,1.7802359,-1.0646509,-1.8151424,-1.1170107,1.9373155,1.1170107,-0.91629785,0.0,0.0,0.0,0.0,0.0,0.0,0.0,2.9957037,-0.6383667,0.40073007,-3.3688366,0.26335305,5.5165195,0.5304165,-0.45449638,0.693097,0.5745483,0.17512383,0.15255436,0.7848268,0.0,0.0,0.0,1.0,0.0,0.0,0.0,0.0,0.0,0.0,-3.6457038,0.2383667,0.14926994,0.0,0.0,0.0,0.0,0.0,0.0,0.0
0.0,0.0,0.0,0.0,0.0,0.0,0.0,0.0,0.0,0.0,0.0,0.0,0.0,0.0,1.7802359,-1.0646509,-1.8151424,-1.1170107,1.9373155,1.1170107,-0.91629785,1.7802359,-1.0646509,-1.8151424,-1.1170107,1.9373155,1.1170107,-0.91629785,0.0,0.0,0.0,0.0,0.0,0.0,0.0,2.9957037,-0.6383667,0.40073007,-3.3688366,0.26335305,5.5165195,0.5304165,-0.45449638,0.693097,0.5745483,0.17512383,0.15255436,0.7848268,0.0,0.0,0.0,1.0,0.0,0.0,0.0,0.0,0.0,0.0,-3.6457038,0.2383667,0.14926994,0.0,0.0,0.0,0.0,0.0,0.0,0.0
0.0,0.0,0.0,0.0,0.0,0.0,0.0,0.0,0.0,0.0,0.0,0.0,0.0,0.0,1.7802359,-1.0646509,-1.8151424,-1.1170107,1.9373155,1.1170107,-0.91629785,1.7802359,-1.0646509,-1.8151424,-1.1170107,1.9373155,1.1170107,-0.91629785,0.0,0.0,0.0,0.0,0.0,0.0,0.0,2.9957037,-0.6383667,0.40073007,-3.3688366,0.26335305,5.5165195,0.5304165,-0.45449638,0.693097,0.5745483,0.17512383,0.15255436,0.7848268,0.0,0.0,0.0,1.0,0.0,0.0,0.0,0.0,0.0,0.0,-3.6457038,0.2383667,0.14926994,0.0,0.0,0.0,0.0,0.0,0.0,0.0
-176.0,90.189514,2.9089766,110.0,11.148174,5.657398,-3.8023214,-0.82674426,0.45113093,-0.51529366,0.73173994,0.43241963,0.6319088,-0.58164346,1.6975615,-1.0195378,-1.8666718,-1.0438367,1.9805574,1.1802015,-0.9744622,1.7784868,-1.061994,-1.8203819,-1.1129767,1.9434419,1.1219126,-0.91866106,-0.23308891,0.3536542,-0.697832,0.5380071,0.81607443,0.6516614,-0.31467164,2.96204,-0.63573456,0.45511743,-3.3654685,0.26308975,5.412818,0.5281553,-0.4575634,0.6941551,0.5784055,0.17373638,0.15076502,0.78264457,-0.3010948,-0.4091409,0.14089525,1.0,0.0,0.0,0.0,0.0,0.0,0.0,-3.61204,0.23573455,0.09488258,-23.281342,35.17464,-69.55164,53.83962,81.33355,64.55296,-31.334385
-176.0,44.00399,-16.320498,110.0,11.591554,3.9892135,-3.4836655,-0.81045127,0.20500052,-0.53557575,0.70101887,0.4847524,0.6268726,-0.56316644,1.6974417,-1.0414939,-1.8739395,-1.0428748,1.9919171,1.1845999,-0.97497773,1.7752348,-1.0568498,-1.8335922,-1.1021105,1.9566712,1.1338488,-0.9223861,-0.3546507,0.56623006,-1.528417,1.2710012,1.4903673,1.3671694,-0.38929015,2.9284105,-0.63310623,0.50846857,-3.3621037,0.2628267,5.3092203,0.522995,-0.46509552,0.6961142,0.5870571,0.17047253,0.14664948,0.77768683,-0.5891598,-0.8667869,0.21481088,1.0,0.0,0.0,0.0,0.0,0.0,0.0,-3.5784106,0.23310623,0.041531444,-11.764717,20.69885,-82.99704,73.75959,67.01679,69.45538,-6.7319927
-166.10983,115.09063,25.583082,97.08846,8.114517,7.079823,-2.395009,-0.7845739,0.43757638,-0.20944358,0.64989626,0.4971176,0.6654277,-0.55227596,1.6967775,-1.0130922,-1.8545365,-1.0371208,2.006383,1.2003915,-0.9776137,1.7684656,-1.0498804,-1.8483989,-1.0873991,1.9717202,1.1473814,-0.92646116,-0.7846646,0.7372797,-1.4589628,1.5387472,1.5061419,1.340412,-0.41519198,2.8948154,-0.6304817,0.5607845,-3.3587422,0.2625639,5.2057257,0.51488113,-0.47546387,0.6997857,0.5989693,0.16582672,0.1416935,0.7704934,-0.8924214,-1.0874351,0.4217955,1.0,0.0,0.0,0.0,0.0,0.0,0.0,-3.5448155,0.23048171,-0.010784507,-43.08566,16.165447,8.627033,27.054214,0.44367313,-5.1158667,-3.0706882
-103.99032,121.50293,39.52515,63.60694,4.6031814,7.2409735,-1.0222342,-0.7927217,0.41179863,-0.12379335,0.63539666,0.5033866,0.63743377,-0.56702083,1.6891935,-1.0087005,-1.8607782,-1.0238595,2.022059,1.2111248,-0.98316324,1.7577387,-1.0419649,-1.8599994,-1.0718809,1.985455,1.1599299,-0.9306764,-1.170051,0.8071452,-1.0536152,1.5565499,1.3257022,1.221192,-0.42624813,2.8612528,-0.6278572,0.61206627,-3.355384,0.26230142,5.102335,0.50428295,-0.48672485,0.70539415,0.61234444,0.15989868,0.13653858,0.7621179,-1.1274607,-1.1288471,0.6127424,1.0,0.0,0.0,0.0,0.0,0.0,0.0,-3.5112529,0.2278572,-0.062066257,-38.911404,6.244874,42.55414,1.8859625,-19.16356,-13.478184,-1.8928111
-43.990845,125.64868,46.876263,34.946064,1.5802072,6.323379,-0.12978904,-0.8068466,0.48732135,-0.11469055,0.62984943,0.53396446,0.63138825,-0.56431276,1.677054,-0.9932327,-1.8714684,-1.008896,2.0388515,1.2230687,-0.9871077,1.7440077,-1.0334657,-1.8670967,-1.0572325,1.9971108,1.1711546,-0.93496317,-1.442199,0.8626512,-0.58891374,1.4339808,1.1094682,1.0871961,-0.43229553,2.8277245,-0.6252365,0.6623149,-3.3520293,0.26203915,4.9990473,0.4920044,-0.49749565,0.712649,0.62588984,0.15278937,0.13144717,0.7534182,-1.2738479,-1.0455079,0.76771396,1.0,0.0,0.0,0.0,0.0,0.0,0.0,-3.4777246,0.2252365,-0.11231488,-27.691437,5.040443,48.271107,-12.382722,-22.453522,-14.136958,-1.4221609
-3.1224527,117.00572,44.436428,16.351562,-0.26171035,4.6224976,0.21952993,-0.81918687,0.5459844,-0.13361956,0.64449775,0.5514942,0.6274482,-0.55905944,1.662089,-0.9788673,-1.8804586,-0.9927827,2.0522602,1.2338995,-0.9908691,1.7285391,-1.0243753,-1.8705013,-1.0439574,2.0069518,1.1811663,-0.9392852,-1.5829087,0.9235632,-0.25336602,1.2911755,0.94057274,0.9715682,-0.43446258,2.7942286,-0.6226196,0.71153146,-3.3486779,0.2617772,4.895863,0.47885132,-0.50709915,0.72107434,0.6389836,0.14483316,0.12668553,0.74476445,-1.340247,-0.9156815,0.86990863,1.0,0.0,0.0,0.0,0.0,0.0,0.0,-3.4442286,0.22261962,-0.16153145,-14.48524,5.7651877,34.848774,-14.521599,-17.36989,-11.801434,-0.8966863
21.06704,108.900406,40.326164,6.371629,-1.2361295,3.164483,0.28112453,-0.8207923,0.60439116,-0.13356265,0.6414661,0.5654459,0.62537515,-0.5537636,1.6464598,-0.9639362,-1.8838575,-0.9798107,2.0634964,1.2437038,-0.99466157,1.7124506,-1.0145487,-1.8717525,-1.0318991,2.015592,1.190169,-0.943613,-1.6186984,1.0016592,-0.07939351,1.1764085,0.8378861,0.8766365,-0.43405464,2.760767,-0.62000275,0.7597169,-3.3453298,0.26151547,4.7927823,0.4654436,-0.5153351,0.730244,0.65144247,0.13639356,0.12247597,0.7362194,-1.350575,-0.77679867,0.9333416,1.0,0.0,0.0,0.0,0.0,0.0,0.0,-3.410767,0.22000274,-0.20971692,-3.9155483,7.593584,18.294031,-11.768675,-10.510683,-9.494675,-0.53130984
29.560768,100.528336,35.997395,3.394652,-1.3746676,2.2534165,0.24499117,-0.8272075,0.6377617,-0.09194273,0.63360745,0.5737772,0.62610817,-0.55024695,1.6297299,-0.95077246,-1.8809468,-0.96853834,2.07297,1.2527798,-0.9986377,1.6964346,-1.0039362,-1.87205,-1.0206648,2.0236182,1.1983553,-0.94792646,-1.596963,1.0805434,-0.011098903,1.1048656,0.7905509,0.799372,-0.43193582,2.7273388,-0.6173897,0.8068723,-3.3419852,0.26125398,4.6898046,0.4521122,-0.5222931,0.7398865,0.6632905,0.1277153,0.1188567,0.7277414,-1.3350799,-0.65184164,0.974269,1.0,0.0,0.0,0.0,0.0,0.0,0.0,-3.377339,0.21738967,-0.2568723,1.9086123,7.7347517,7.482464,-7.4392557,-4.8583746,-7.667029,-0.26872158
30.364775,94.29736,32.713444,3.696855,-1.1748136,1.7814655,0.18909082,-0.82204163,0.66994154,-0.060670763,0.62412816,0.5830959,0.63561237,-0.5481307,1.6142304,-0.93694204,-1.8781171,-0.958252,2.0819278,1.2619165,-1.0027395,1.680823,-0.99257535,-1.8720901,-1.0098711,2.0314536,1.2058798,-0.9522132,-1.5497913,1.1540934,1.41127075e-05,1.070199,0.78115326,0.73703206,-0.42894518,2.693944,-0.6147804,0.85299873,-3.338644,0.2609928,4.58693,0.43897915,-0.5281296,0.7498614,0.6746162,0.11892005,0.115751445,0.7192722,-1.3118348,-0.54451495,1.0044612,1.0,0.0,0.0,0.0,0.0,0.0,0.0,-3.343944,0.21478042,-0.30299872,4.503441,7.233548,1.6286923,-3.7305832,-1.0079384,-6.1899424,-0.11892915
24.656796,85.90986,28.595825,5.7653713,-0.75727755,1.486234,0.11874695,-0.82044506,0.68682283,-0.050731122,0.61895055,0.58703417,0.6397432,-0.53875047,1.5987785,-0.9238931,-1.8771632,-0.94797605,2.090157,1.2698541,-1.0060883,1.6656748,-0.9806058,-1.8722274,-0.99922985,2.0393386,1.2128683,-0.95646185,-1.5037719,1.2109087,-0.01693878,1.0613613,0.79088366,0.68615776,-0.4246918,2.6605825,-0.6121712,0.89809716,-3.3353062,0.26073185,4.4841576,0.42603874,-0.5330658,0.7600595,0.6855254,0.11007824,0.1130389,0.710746,-1.2931019,-0.45956337,1.0239375,1.0,0.0,0.0,0.0,0.0,0.0,0.0,-3.3105826,0.21217117,-0.34809715,4.4269085,5.5820227,-1.2680802,-1.1250734,0.9386301,-5.081153,0.06353259
18.634949,78.59682,25.317022,7.394532,-0.38269472,1.3420451,0.10123225,-0.8201051,0.69830114,-0.036992956,0.6019402,0.60132223,0.6413061,-0.53849393,1.5836643,-0.91077566,-1.8759267,-0.93903583,2.0994709,1.276999,-1.0103112,1.6508814,-0.9682099,-1.8725402,-0.98864025,2.0474029,1.2194163,-0.96066946,-1.4715455,1.2488436,-0.03461703,1.0574006,0.81179875,0.64445454,-0.42047596,2.6272545,-0.60956573,0.94216865,-3.3319716,0.26047117,4.381488,0.4132204,-0.5372658,0.770386,0.6960839,0.10123754,0.11058191,0.7021322,-1.2819284,-0.39074865,1.0344399,1.0,0.0,0.0,0.0,0.0,0.0,0.0,-3.2772546,0.20956573,-0.39216864,3.0624628,3.7078857,-1.371023,-0.6284952,2.06877,-4.189253,0.09340048
13.4072895,74.06564,23.178364,9.194965,-0.09487212,1.3072417,0.071984366,-0.81602323,0.7112449,-0.033050366,0.6019764,0.6029335,0.64545906,-0.53267765,1.5692791,-0.8970854,-1.8758453,-0.9284426,2.1076963,1.2839621,-1.0139372,1.6363093,-0.9555337,-1.8729846,-0.97804874,2.0556731,1.2256056,-0.9648332,-1.4529272,1.2736157,-0.04649928,1.0588987,0.83200747,0.6104065,-0.41603106,2.5939598,-0.6069641,0.98521423,-3.3286405,0.26021075,4.278921,0.40045166,-0.5408554,0.78078824,0.7063391,0.092399836,0.1082789,0.693414,-1.2784679,-0.33263806,1.040874,1.0,0.0,0.0,0.0,0.0,0.0,0.0,-3.24396,0.2069641,-0.43521422,1.7080069,2.3970604,-0.79906654,-0.07236004,2.0012498,-3.4502506,0.13644099
9.231241,69.42548,20.957846,10.077994,0.06573945,1.2247798,0.051094674,-0.81825894,0.7185929,-0.04205589,0.5911238,0.60859936,0.64971703,-0.535236,1.5544834,-0.8836744,-1.8771902,-0.9189364,2.116533,1.2905773,-1.0183568,1.621821,-0.94268674,-1.8735454,-0.9674811,2.0641265,1.231505,-0.96895784,-1.4481324,1.2881366,-0.05792508,1.0554074,0.8495393,0.5829554,-0.41227305,2.5606985,-0.6043625,1.0272349,-3.3253124,0.25995058,4.176457,0.3876753,-0.54393005,0.7912017,0.7163245,0.08358089,0.1060888,0.6845718,-1.2798005,-0.282098,1.0402426,1.0,0.0,0.0,0.0,0.0,0.0,0.0,-3.2106986,0.20436248,-0.4772349,0.32479763,1.3796806,-0.7594682,-0.57275295,1.7409444,-2.7903557,0.083476305
7.86971,68.091644,20.281334,10.36974,0.12127787,1.2203474,0.06561738,-0.81975234,0.72788423,-0.036142047,0.57850313,0.62238705,0.65384835,-0.5358675,1.5398458,-0.8698983,-1.8771596,-0.9096308,2.1263652,1.2968899,-1.0225446,1.6073138,-0.9297244,-1.8741577,-0.9570078,2.0727515,1.2371699,-0.97305006,-1.4520992,1.2986712,-0.060848184,1.0439414,0.8667621,0.5609466,-0.40917835,2.5274706,-0.6017647,1.0682317,-3.3219876,0.2596907,4.0740952,0.3748703,-0.54650116,0.8015943,0.72604275,0.07477847,0.10398097,0.67561674,-1.2828889,-0.23243478,1.0375383,1.0,0.0,0.0,0.0,0.0,0.0,0.0,-3.1774707,0.20176467,-0.5182317,-0.55971146,0.98314285,0.11051595,-1.3721704,1.7041683,-2.2454143,0.019603968
6.4369698,66.12147,19.123537,10.8219595,0.14384514,1.1411979,0.03591773,-0.8203866,0.73375386,-0.05429747,0.5796087,0.62217575,0.658617,-0.5296493,1.5252751,-0.856349,-1.8795874,-0.89904696,2.134969,1.3030316,-1.026015,1.5927416,-0.9166743,-1.8748538,-0.9466376,2.08151,1.2426497,-0.97710985,-1.4593875,1.30695,-0.07116978,1.0339922,0.8788891,0.54352415,-0.4059383,2.494276,-0.5991707,1.1082057,-3.3186662,0.25943106,3.9718359,0.3620262,-0.54859924,0.8119357,0.7355125,0.06599136,0.101968944,0.6665349,-1.2862947,-0.18573524,1.0314697,1.0,0.0,0.0,0.0,0.0,0.0,0.0,-3.1442761,0.19917068,-0.55820566,-0.89058876,0.76260567,-0.6419137,-1.2213707,1.2060404,-1.7818332,0.042390823
8.729085,67.07054,19.514994,10.0606575,0.0061653256,1.1181753,0.0680452,-0.8171042,0.7422937,-0.048564103,0.56437707,0.6210351,0.6577955,-0.5263304,1.5110312,-0.84244496,-1.8797103,-0.89019984,2.1436136,1.3084292,-1.0297428,1.578116,-0.90353173,-1.8756111,-0.9364132,2.0903525,1.2479807,-0.9811391,-1.4640253,1.3165416,-0.07588456,1.0177772,0.88569164,0.5294831,-0.402914,2.461114,-0.5965767,1.1471578,-3.3153481,0.25917166,3.869679,0.34918308,-0.5501938,0.82221884,0.74471587,0.05720302,0.10007581,0.6573514,-1.2846816,-0.13399133,1.0255492,1.0,0.0,0.0,0.0,0.0,0.0,0.0,-3.111114,0.19657668,-0.5971578,-0.6322861,0.8954048,-0.05943626,-1.8529654,0.6670952,-1.4259219,0.012296438
10.664426,65.90003,19.039562,9.051458,-0.11148566,0.991673,0.091377854,-0.8133003,0.74493283,-0.060479503,0.55052984,0.6288379,0.6602049,-0.5237759,1.496786,-0.82903844,-1.881659,-0.88136023,2.1532364,1.3140012,-1.0335168,1.5634791,-0.89030236,-1.8764484,-0.9263901,2.099256,1.2531935,-0.9851398,-1.4640024,1.3247935,-0.085162945,0.9964374,0.89192307,0.51857054,-0.40009534,2.4279852,-0.5939865,1.1850891,-3.3120334,0.25891256,3.7676241,0.3363924,-0.5512619,0.83241594,0.7536287,0.048420407,0.09832378,0.6480985,-1.2770461,-0.081324935,1.0158309,1.0,0.0,0.0,0.0,0.0,0.0,0.0,-3.0779853,0.1939865,-0.6350891,-0.1648426,0.76966286,-0.52150935,-2.3729682,0.614202,-1.0833502,-0.0076830387
11.0545845,65.633606,18.985882,8.988723,-0.10451937,0.9760786,0.12257199,-0.8207657,0.74558735,-0.04440356,0.5349984,0.6332459,0.66345143,-0.5185021,1.4814025,-0.8157436,-1.8808887,-0.8728903,2.1625807,1.3195386,-1.03699,1.548823,-0.8770129,-1.8772876,-0.91661495,2.1082168,1.2583147,-0.98911184,-1.4668193,1.3302479,-0.08208777,0.97051483,0.8975175,0.51013523,-0.3972061,2.3948898,-0.59140015,1.2220006,-3.308722,0.2586537,3.6656713,0.32368755,-0.55179214,0.84251636,0.7622288,0.03963635,0.096689865,0.6388171,-1.2681723,-0.028029887,1.0061414,1.0,0.0,0.0,0.0,0.0,0.0,0.0,-3.04489,0.19140014,-0.6720006,-0.4531145,0.4930973,0.7304311,-2.829492,0.5450964,-0.8286953,-0.0019311905
11.328106,65.38664,18.708712,8.91918,-0.12159991,0.92000175,0.13226247,-0.8238916,0.75209075,-0.04822226,0.5172125,0.643557,0.66732204,-0.518313,1.4664339,-0.8018038,-1.8821099,-0.8648937,2.1725724,1.3250469,-1.0409431,1.534125,-0.86365956,-1.8780925,-0.90712875,2.1172538,1.2633692,-0.9930572,-1.4712133,1.336772,-0.078588314,0.940529,0.90555674,0.503843,-0.39467657,2.361827,-0.5888138,1.2578933,-3.305414,0.25839508,3.5638206,0.31108093,-0.55179596,0.8525146,0.7705088,0.030846367,0.09516165,0.62953067,-1.2572787,0.025069555,0.9954677,1.0,0.0,0.0,0.0,0.0,0.0,0.0,-3.011827,0.18881378,-0.7078933,-0.6132364,0.6043434,0.77343136,-3.2348871,0.79233646,-0.6043434,-0.03377199
16.053322,66.698166,19.829247,7.0205107,-0.29002494,0.89350295,0.24944626,-0.8164003,0.75025105,-0.00458599,0.47959593,0.65036273,0.66580456,-0.51735944,1.452485,-0.7886345,-1.8785511,-0.8591692,2.18229,1.3299496,-1.0447931,1.519425,-0.85026616,-1.8786552,-0.8980536,2.1263785,1.2683703,-0.9969806,-1.4702895,1.3401097,-0.047396574,0.8957215,0.9145652,0.49909022,-0.39260584,2.3287973,-0.58623123,1.2927684,-3.3021092,0.25813675,3.462072,0.29864502,-0.5512161,0.86241,0.7783939,0.022034613,0.09368666,0.62035483,-1.2374893,0.0851432,0.98515445,1.0,0.0,0.0,0.0,0.0,0.0,0.0,-2.9787974,0.18623123,-0.74276835,-0.08456707,0.29239655,3.5776892,-4.7160864,0.873971,-0.4094422,-0.09294748
16.209965,67.48941,19.971527,7.508321,-0.27519935,0.88153297,0.2510434,-0.81901824,0.7560941,0.007995448,0.47001722,0.64920574,0.66547686,-0.50927573,1.4375232,-0.7746568,-1.8778557,-0.85105187,2.1912992,1.3349179,-1.0479082,1.5047327,-0.83682793,-1.8788574,-0.8893942,2.135572,1.2733294,-1.0008806,-1.4694822,1.3448913,-0.009627304,0.85519576,0.92102647,0.4952414,-0.39006063,2.2958012,-0.5836525,1.3266267,-3.2988079,0.25787866,3.3604248,0.28640938,-0.55002594,0.8722219,0.785867,0.013169987,0.09224585,0.6113349,-1.2168095,0.1452244,0.97714204,1.0,0.0,0.0,0.0,0.0,0.0,0.0,-2.9458013,0.18365249,-0.77662665,-0.091171265,0.43957233,4.227167,-4.2726755,0.6246209,-0.31875968,-0.03812909
15.459429,66.68967,19.435284,8.044195,-0.23363936,0.81792563,0.23328102,-0.82097006,0.7577186,0.020574003,0.45496246,0.6516078,0.6670975,-0.50785476,1.4226357,-0.76105607,-1.8768,-0.843898,2.2007327,1.3400391,-1.051666,1.4900404,-0.8233449,-1.8786857,-0.881103,2.1448226,1.2782599,-1.0047563,-1.4697475,1.3493446,0.027275113,0.819773,0.92611885,0.49234396,-0.38757905,2.2628374,-0.58107376,1.3594692,-3.2955098,0.2576208,3.2588792,0.27437305,-0.5482559,0.8819548,0.79294497,0.0042381613,0.09083485,0.6024694,-1.1961564,0.20263736,0.96891904,1.0,0.0,0.0,0.0,0.0,0.0,0.0,-2.9128375,0.18107376,-0.80946916,-0.1903534,0.41248798,4.115604,-3.7499428,0.5006552,-0.21927357,-0.030964613
18.40583,69.21782,20.612959,6.999861,-0.36437532,0.8402488,0.32404932,-0.8237802,0.76455086,0.08253376,0.40602696,0.6562597,0.6620709,-0.5052761,1.4076624,-0.7468898,-1.8704324,-0.8405003,2.2104485,1.3444669,-1.0552839,1.475329,-0.809797,-1.8779476,-0.87328476,2.154119,1.2831618,-1.0086073,-1.4720966,1.3565179,0.090603106,0.7684547,0.9310202,0.489796,-0.38523328,2.229907,-0.57850266,1.391297,-3.2922149,0.25736326,3.1574352,0.26258755,-0.5458603,0.8916215,0.7995822,-0.004779348,0.089430526,0.5938415,-1.169386,0.26683575,0.96258426,1.0,0.0,0.0,0.0,0.0,0.0,0.0,-2.8799071,0.17850265,-0.841297,-0.40478706,0.68633556,6.7901535,-5.3260684,0.46881437,-0.15765429,-0.047940016
20.198967,66.94936,19.870687,5.3848953,-0.50698316,0.65352017,0.37401512,-0.82234126,0.76298183,0.10496051,0.3633254,0.6582803,0.6599611,-0.49224728,1.3930949,-0.7334988,-1.8674515,-0.8369522,2.219947,1.3491578,-1.057832,1.4606024,-0.7961957,-1.8765724,-0.86608356,2.1634612,1.2880427,-1.0124277,-1.4734246,1.3612868,0.15452366,0.7033985,0.93526125,0.4879943,-0.38178787,2.19701,-0.57593155,1.4221113,-3.2889233,0.25710595,3.0560925,0.25112057,-0.54283524,0.9011783,0.8057373,-0.013844955,0.08803307,0.58553034,-1.1348363,0.32924435,0.9497287,1.0,0.0,0.0,0.0,0.0,0.0,0.0,-2.8470101,0.17593154,-0.87211126,-0.29056072,0.46024323,6.81593,-6.6934943,0.41645765,-0.027108192,0.079882145
21.084028,66.16844,19.543348,4.7426085,-0.5831238,0.54364413,0.40098584,-0.82419676,0.7670713,0.14212205,0.32662833,0.65642315,0.6637684,-0.47777915,1.3781828,-0.71948856,-1.8623601,-0.83342075,2.2291036,1.3544195,-1.0602056,1.4458586,-0.78254384,-1.8745334,-0.8595795,2.17283,1.2929121,-1.0162042,-1.475124,1.3664445,0.22149466,0.6321175,0.9376417,0.48729146,-0.37710214,2.1641455,-0.57336044,1.4519128,-3.285635,0.25684887,2.9548514,0.24002743,-0.53918076,0.9105928,0.81139535,-0.022930779,0.08665767,0.577583,-1.0958087,0.3904148,0.9345933,1.0,0.0,0.0,0.0,0.0,0.0,0.0,-2.8141456,0.17336044,-0.90191275,-0.3157854,0.50930977,7.086584,-7.300806,0.2472043,0.11462569,0.22284985
20.349777,64.53588,18.730688,5.052344,-0.5532763,0.41795874,0.37519804,-0.82356375,0.7695337,0.16670601,0.30238095,0.6594796,0.65580225,-0.47334495,1.3635023,-0.7055905,-1.8578628,-0.8293414,2.238778,1.3584924,-1.0635388,1.4311072,-0.7688424,-1.8718822,-0.8537392,2.182222,1.297772,-1.0199331,-1.4757113,1.3713797,0.28094655,0.5674432,0.94022197,0.486203,-0.3722091,2.1313133,-0.57079697,1.4807026,-3.28235,0.2565921,2.8537114,0.2293272,-0.53494644,0.919849,0.8165807,-0.032018982,0.08531783,0.5699926,-1.0561427,0.4466137,0.9182453,1.0,0.0,0.0,0.0,0.0,0.0,0.0,-2.7813134,0.17079696,-0.9307026,-0.18646717,0.4977703,6.276539,-6.624019,0.29349327,0.08782148,0.26795864
19.89754,62.49096,17.722141,4.830089,-0.5874034,0.25775605,0.3555091,-0.8241809,0.7745953,0.18197358,0.26228583,0.66376853,0.6609487,-0.45892638,1.3486891,-0.6913829,-1.8536849,-0.8275106,2.2485988,1.3638669,-1.0658257,1.4163519,-0.7550809,-1.8687408,-0.84855026,2.191648,1.3026263,-1.0236048,-1.4759506,1.3778208,0.32618222,0.50220317,0.94401157,0.48599878,-0.36629292,2.0985146,-0.5682335,1.5084819,-3.2790685,0.25633556,2.7526724,0.21903515,-0.5301819,0.92891794,0.82132405,-0.04107159,0.08404602,0.5627398,-1.014019,0.49792957,0.89850754,1.0,0.0,0.0,0.0,0.0,0.0,0.0,-2.7485147,0.16823348,-0.95848185,-0.13844967,0.65939426,4.8027277,-6.6715717,0.43888092,0.19717813,0.39476156
21.807465,61.459953,17.435656,3.284011,-0.757328,0.099208504,0.40184063,-0.8234173,0.7786628,0.21908386,0.20125148,0.6607725,0.6577092,-0.45061487,1.3340101,-0.6772146,-1.8468324,-0.8284251,2.2577252,1.3683971,-1.0686662,1.4016005,-0.7412488,-1.8651359,-0.8441252,2.2011008,1.3074805,-1.0272173,-1.475321,1.3851744,0.37287635,0.42217052,0.94607925,0.486033,-0.36007679,2.0657482,-0.56567,1.5352515,-3.27579,0.25607926,2.6517346,0.2092228,-0.5249138,0.9377603,0.82561624,-0.05003946,0.08287444,0.55586463,-0.9639479,0.5483124,0.8746178,1.0,0.0,0.0,0.0,0.0,0.0,0.0,-2.7157483,0.16567001,-0.9852515,-0.039172173,0.761199,4.9181995,-8.138943,0.27866364,0.26382208,0.44320226
21.399227,57.57229,16.046947,2.373621,-0.7982035,-0.11162579,0.41059282,-0.8286445,0.7757443,0.23771489,0.14921744,0.66155416,0.6556064,-0.4316067,1.3187361,-0.66367435,-1.8413644,-0.8292035,2.2672563,1.3730412,-1.070378,1.3868319,-0.7273709,-1.8611076,-0.8405728,2.2105727,1.3123366,-1.0307573,-1.4777005,1.3887329,0.4135771,0.332453,0.94768655,0.48626584,-0.3525642,2.0330153,-0.56311417,1.5610125,-3.2725148,0.25582325,2.5508976,0.19992924,-0.5191803,0.9463187,0.8294614,-0.05885338,0.081828065,0.54939425,-0.910426,0.591557,0.84438336,1.0,0.0,0.0,0.0,0.0,0.0,0.0,-2.6830153,0.16311416,-1.0110126,-0.32782555,0.3948927,4.2710304,-9.103966,0.2516389,0.3163278,0.5979836
22.566057,55.99034,15.710153,1.5002589,-0.8506843,-0.2523944,0.4426409,-0.82239985,0.7748442,0.27152324,0.10110286,0.663231,0.6584937,-0.4206491,1.3045919,-0.6498865,-1.8339553,-0.8304625,2.2768958,1.378186,-1.0728222,1.372069,-0.71348065,-1.8566387,-0.8379416,2.2200599,1.3171984,-1.0342191,-1.476069,1.3893726,0.45868072,0.23956965,0.9493984,0.48703736,-0.34464988,2.0003147,-0.5605583,1.5857658,-3.269243,0.2555675,2.4501615,0.19120216,-0.51304245,0.95456064,0.83285695,-0.06747684,0.08090026,0.5433702,-0.8525696,0.63140976,0.8122824,1.0,0.0,0.0,0.0,0.0,0.0,0.0,-2.6503148,0.16055831,-1.0357659,0.09727478,0.114393234,4.661107,-9.404096,0.28042793,0.39471984,0.65710545
20.925179,54.536015,15.012214,2.246101,-0.78147113,-0.33640277,0.40807766,-0.82881683,0.7778299,0.290351,0.06114156,0.6589305,0.65261,-0.40769407,1.2891873,-0.63569766,-1.8276036,-0.8318274,2.2859528,1.3824594,-1.0749886,1.3572966,-0.69958085,-1.8517425,-0.8361973,2.229547,1.3220621,-1.0376009,-1.4777627,1.390363,0.50026494,0.15236168,0.94909877,0.48713708,-0.336299,1.9676466,-0.5580025,1.6095126,-3.2659745,0.25531197,2.349526,0.18303394,-0.50653076,0.96248764,0.83583385,-0.07590036,0.0801005,0.5377777,-0.79684085,0.66650605,0.78073996,1.0,0.0,0.0,0.0,0.0,0.0,0.0,-2.6176467,0.15800247,-1.0595126,-0.22697449,0.15816689,4.2628345,-8.826139,0.10385513,0.32134056,0.72233677
19.713251,54.869896,14.974262,3.5521092,-0.68505865,-0.3475498,0.37180272,-0.8259686,0.78205097,0.31257215,0.035084654,0.656412,0.6561067,-0.3795582,1.2746997,-0.62137574,-1.8204852,-0.83268887,2.2951882,1.3876728,-1.0755568,1.3425204,-0.68565434,-1.8464439,-0.83520454,2.2390227,1.3269278,-1.0408853,-1.4777503,1.3936386,0.53982085,0.08126551,0.9476529,0.48733047,-0.32612783,1.9350109,-0.55545425,1.6322538,-3.2627091,0.2550567,2.248991,0.17539597,-0.4996643,0.9701337,0.83842945,-0.084153116,0.079430744,0.53258336,-0.7445042,0.69976443,0.7536789,1.0,0.0,0.0,0.0,0.0,0.0,0.0,-2.585011,0.15545425,-1.0822537,-0.043916702,0.39482117,4.0106893,-7.200073,0.018203259,0.31256676,0.92008114
14.842524,53.713936,14.248508,7.4913497,-0.29410416,-0.27460042,0.23929298,-0.82367855,0.77800196,0.3229875,0.06140516,0.6475906,0.6560853,-0.35057434,1.2601525,-0.6078541,-1.8141451,-0.829064,2.3037817,1.3925363,-1.0759428,1.3277575,-0.6717164,-1.8408172,-0.83456653,2.2484603,1.3317915,-1.0440553,-1.4759426,1.394126,0.5703854,0.057623845,0.9430669,0.48687637,-0.3141862,1.9024086,-0.55290604,1.6539904,-3.259447,0.25480172,2.1485567,0.16816235,-0.49251747,0.97757846,0.84073025,-0.09233092,0.078865394,0.5276627,-0.70763093,0.72748363,0.7357736,1.0,0.0,0.0,0.0,0.0,0.0,0.0,-2.5524087,0.15290603,-1.1039903,0.13847351,0.123643875,3.0570984,-2.4588547,-0.25686026,0.1855135,1.1015773
10.084822,52.954926,13.532595,11.078285,0.021236181,-0.192283,0.10876007,-0.8297523,0.78106475,0.32685864,0.077583395,0.638553,0.6584692,-0.33362237,1.2447822,-0.5936099,-1.8081313,-0.8268082,2.3123157,1.3976384,-1.0774176,1.3129851,-0.65776604,-1.8349731,-0.8338923,2.2578292,1.3366495,-1.0471014,-1.477956,1.3956208,0.5890959,0.07029407,0.9354184,0.48605564,-0.3019239,1.8698387,-0.5503578,1.6747234,-3.2561884,0.25454697,2.0482228,0.16119099,-0.48510742,0.984901,0.84283173,-0.1005284,0.07839688,0.52286,-0.6846505,0.75197625,0.72528726,1.0,0.0,0.0,0.0,0.0,0.0,0.0,-2.5198388,0.15035781,-1.1247234,-0.2595663,0.22714138,1.8531084,1.1620059,-0.54005384,0.09094477,1.1357546
8.871023,49.10615,12.04425,10.834536,0.016810775,-0.3629828,0.057308815,-0.82891196,0.7793582,0.31000346,0.057749808,0.63939846,0.6486659,-0.345798,1.2300938,-0.5798302,-1.8039727,-0.8281173,2.321769,1.4015161,-1.0816811,1.2981917,-0.6438119,-1.8291061,-0.83309215,2.2671332,1.3414942,-1.0500482,-1.4799292,1.3956653,0.58576584,0.082867965,0.9290731,0.48430848,-0.29242316,1.8373013,-0.54781723,1.6944538,-3.2529328,0.25429246,1.947989,0.15444851,-0.47750282,0.99208415,0.844796,-0.108717166,0.07805785,0.51808035,-0.6613341,0.7698373,0.7101756,1.0,0.0,0.0,0.0,0.0,0.0,0.0,-2.4873013,0.14781722,-1.1444538,-0.2572775,0.08380413,-0.35338402,1.140669,-0.4203081,0.0012278557,0.8671224
6.718646,47.613068,11.463712,12.457617,0.18238503,-0.35539496,0.001947023,-0.8288168,0.7766767,0.3130267,0.09109834,0.6305203,0.65456903,-0.31331626,1.21531,-0.5661442,-1.7978034,-0.8239823,2.3301852,1.4069511,-1.0813799,1.2833811,-0.629873,-1.8233154,-0.83201927,2.2763572,1.3463236,-1.0528883,-1.481568,1.3936034,0.5766643,0.114934646,0.9211668,0.4829393,-0.28145048,1.8047962,-0.54527664,1.7131827,-3.2496805,0.2540382,1.8478553,0.14788914,-0.46973228,0.999141,0.8466634,-0.116915084,0.07785328,0.5132551,-0.6447802,0.78524286,0.698221,1.0,0.0,0.0,0.0,0.0,0.0,0.0,-2.4547963,0.14527664,-1.1631827,-0.2297163,-0.12636185,-0.935936,3.0817986,-0.57008266,0.009816885,1.0114372
6.21938,44.81437,10.492639,12.087141,0.17493379,-0.47876596,-0.016447514,-0.8294334,0.7744882,0.2941403,0.094097726,0.6323778,0.65244675,-0.30950847,1.2004378,-0.55242413,-1.7939013,-0.8226095,2.3395948,1.4115683,-1.0838392,1.2685572,-0.61596555,-1.8177097,-0.830646,2.28552,1.3511378,-1.0556272,-1.4828671,1.3900309,0.555016,0.14440192,0.9157186,0.48156443,-0.27146518,1.7723236,-0.54273605,1.7309109,-3.2464316,0.25378424,1.7478218,0.14150047,-0.46183968,1.0060543,0.8484583,-0.12509933,0.077790245,0.5083476,-0.6274952,0.7963643,0.68307984,1.0,0.0,0.0,0.0,0.0,0.0,0.0,-2.4223237,0.14273605,-1.1809108,-0.19664764,-0.27832985,-2.1851897,2.815208,-0.33489466,0.011372566,0.9151757
6.4878197,43.444866,9.924308,11.108976,0.04393506,-0.59424776,-0.012374893,-0.8384949,0.7785665,0.27732342,0.083362944,0.62362266,0.64923304,-0.30962294,1.1847076,-0.5381089,-1.7899773,-0.8223097,2.3478823,1.416061,-1.0865896,1.2536818,-0.60207146,-1.8123786,-0.8291001,2.2946181,1.3559386,-1.0582746,-1.4893445,1.3895105,0.5257729,0.15760097,0.90886086,0.4801862,-0.2629286,1.7398834,-0.5402031,1.7476395,-3.2431858,0.2535305,1.6478883,0.1353178,-0.4538479,1.0127857,0.85019016,-0.13320966,0.07791642,0.50334954,-0.60560757,0.8059149,0.66399616,1.0,0.0,0.0,0.0,0.0,0.0,0.0,-2.3898835,0.14020309,-1.1976395,-0.7258892,0.023937225,-2.9206634,1.187256,-0.49151182,0.021523237,0.77635646
8.684354,42.423473,9.861547,9.052994,-0.13611764,-0.73675925,0.065146856,-0.83783096,0.77586097,0.27577993,0.06536646,0.6224697,0.64343613,-0.27417654,1.1698986,-0.52448535,-1.7848006,-0.8225634,2.3568652,1.4202821,-1.0856923,1.2387472,-0.5881869,-1.8072994,-0.8275847,2.303659,1.3607241,-1.0608209,-1.4948292,1.3883951,0.50214076,0.1491455,0.9030911,0.4787325,-0.25222558,1.7074757,-0.53767014,1.7633696,-3.2399433,0.253277,1.5480547,0.12941647,-0.44576454,1.0192921,0.8518282,-0.14117941,0.0782517,0.49833074,-0.57515234,0.81437826,0.6403732,1.0,0.0,0.0,0.0,0.0,0.0,0.0,-2.3574758,0.13767013,-1.2133696,-0.6155491,-0.035977364,-2.350247,-0.96738935,-0.39949417,0.042915344,0.9970963
10.632049,43.32337,10.470923,8.062017,-0.2408542,-0.7796505,0.13979091,-0.8351287,0.7762602,0.28087595,0.061066564,0.61803365,0.6500682,-0.21793824,1.1552343,-0.51056087,-1.7792118,-0.821478,2.3654623,1.425731,-1.0826148,1.2237879,-0.5743081,-1.8023593,-0.82621807,2.3126426,1.3655039,-1.0632299,-1.496676,1.3880047,0.49128088,0.13213673,0.89733267,0.47824487,-0.2371802,1.6751003,-0.5351372,1.778102,-3.2367039,0.2530238,1.448321,0.12386131,-0.4375782,1.0255638,0.8533215,-0.1489968,0.07878611,0.49339145,-0.5394035,0.8248979,0.616983,1.0,0.0,0.0,0.0,0.0,0.0,0.0,-2.3251004,0.13513717,-1.228102,-0.23715496,0.037503242,-1.0761917,-1.8052012,-0.40192604,0.15076399,1.4327496
11.207547,41.35466,10.000187,7.058281,-0.2881369,-0.90085757,0.17379348,-0.83809114,0.7717153,0.27070412,0.04323096,0.617736,0.64515287,-0.192153,1.1399788,-0.49713656,-1.7752889,-0.82189494,2.374416,1.4300191,-1.0824453,1.2088114,-0.5604512,-1.797509,-0.82509655,2.3215766,1.3702761,-1.0654787,-1.4982021,1.3851322,0.4828127,0.10510065,0.89299774,0.47762486,-0.22093621,1.6427574,-0.53261185,1.7918379,-3.2334678,0.25277084,1.3486869,0.118683815,-0.42931175,1.0315801,0.8546484,-0.15662824,0.079511136,0.4885913,-0.5003872,0.8319222,0.5907237,1.0,0.0,0.0,0.0,0.0,0.0,0.0,-2.2927575,0.13261184,-1.241838,-0.19488335,-0.2080679,-0.84367394,-2.8028846,-0.26595592,0.15174747,1.5584439
10.106705,40.599186,9.877799,8.256405,-0.15142936,-0.8798194,0.1684792,-0.83728963,0.76716363,0.2723866,0.058845438,0.60690016,0.6492057,-0.11724268,1.1250825,-0.48373485,-1.7702703,-0.819212,2.3822665,1.4351966,-1.0772029,1.1938292,-0.54664296,-1.7927005,-0.82413334,2.3304496,1.3750445,-1.0675234,-1.4983538,1.3796399,0.4801286,0.09301495,0.8860733,0.47729656,-0.19917434,1.6104469,-0.5300865,1.8045782,-3.230235,0.25251812,1.2491525,0.11385918,-0.42097473,1.0373614,0.8558065,-0.16410428,0.08040147,0.48394254,-0.46637192,0.8384756,0.5682535,1.0,0.0,0.0,0.0,0.0,0.0,0.0,-2.260447,0.13008651,-1.2545781,-0.057029724,-0.4674673,-0.2796173,-1.3095707,-0.5109906,0.16105175,2.1078796
9.85946,38.366974,9.160212,7.847659,-0.14347279,-0.99300885,0.16848902,-0.8357148,0.76463145,0.2535135,0.040381122,0.61477184,0.6475093,-0.081683435,1.1102577,-0.4701798,-1.7673491,-0.82009524,2.3919268,1.4397954,-1.0756917,1.1788584,-0.53289574,-1.7879837,-0.8233132,2.3392882,1.379809,-1.0693411,-1.4968389,1.3733567,0.46867797,0.077967525,0.8836552,0.47694802,-0.17606443,1.5781689,-0.5275612,1.8163239,-3.2270055,0.25226563,1.1497177,0.109381676,-0.41259766,1.0429049,0.8568042,-0.17141172,0.081449986,0.47944814,-0.43170187,0.8406985,0.543963,1.0,0.0,0.0,0.0,0.0,0.0,0.0,-2.228169,0.12756118,-1.2663238,0.11770725,-0.5440712,-1.1673987,-1.6058578,-0.06377697,0.16294718,2.2488027
6.8118067,37.11589,8.599277,10.625613,0.123364925,-0.9181175,0.08594303,-0.8369384,0.7605724,0.23943771,0.07986728,0.6052938,0.6497076,-0.019960565,1.0951645,-0.4568385,-1.7640399,-0.81532645,2.3998177,1.4447798,-1.0713371,1.1638972,-0.51921815,-1.7834384,-0.82241863,2.3480887,1.3845717,-1.0709032,-1.4961158,1.3662485,0.44986686,0.09293475,0.8793736,0.47643858,-0.14973865,1.5459232,-0.5250435,1.827076,-3.2237792,0.25201342,1.0503823,0.10516262,-0.4042015,1.048252,0.8576807,-0.17860684,0.08264634,0.4750294,-0.40852246,0.84238136,0.5261687,1.0,0.0,0.0,0.0,0.0,0.0,0.0,-2.1959233,0.12504348,-1.277076,0.015759468,-0.625515,-1.9069016,1.3749554,-0.22853613,0.10300875,2.5630891
5.8933544,35.168514,7.855948,10.880974,0.15455693,-0.9876747,0.06652725,-0.83611333,0.75824344,0.21322927,0.076318905,0.60429215,0.64957005,0.054201733,1.0802858,-0.4433938,-1.7621155,-0.81478673,2.4085178,1.4495287,-1.065483,1.1489435,-0.50560635,-1.7791774,-0.8213534,2.356851,1.3893286,-1.0721697,-1.4953262,1.3598167,0.41790414,0.1106201,0.8756445,0.4758951,-0.1191756,1.51371,-0.5225258,1.8368355,-3.220556,0.25176147,0.95114607,0.10116577,-0.39580727,1.053419,0.8584628,-0.18569742,0.08400856,0.4706385,-0.38673192,0.84119964,0.5079982,1.0,0.0,0.0,0.0,0.0,0.0,0.0,-2.16371,0.12252578,-1.2868354,0.01757145,-0.5581856,-3.2200694,1.6396761,-0.17440319,0.092083216,2.988234
3.150846,33.415386,7.078867,13.121048,0.37355852,-0.9482795,-0.016938992,-0.8396047,0.75476134,0.18315956,0.11598,0.60466415,0.64726454,0.101983905,1.0649831,-0.4301302,-1.7608615,-0.8097554,2.4173176,1.4540551,-1.0619713,1.1339785,-0.49205655,-1.7753322,-0.81994575,2.3655868,1.3940779,-1.0731214,-1.4973541,1.3536243,0.37329024,0.15025426,0.8732662,0.4747766,-0.087496474,1.4815283,-0.5200081,1.8456033,-3.2173362,0.25150976,0.8520091,0.097314835,-0.3874302,1.0584372,0.859193,-0.19271965,0.08554439,0.46618518,-0.37458336,0.8389417,0.4942729,1.0,0.0,0.0,0.0,0.0,0.0,0.0,-2.1315284,0.12000808,-1.2956033,-0.2944231,-0.5361557,-4.472357,3.8110285,-0.026500225,-0.0027179718,3.0928717
2.820716,32.123657,6.546279,13.062845,0.3382479,-1.0133239,-0.0396908,-0.8371578,0.7542539,0.14515291,0.12494627,0.5984828,0.65044856,0.14593884,1.0502627,-0.41663116,-1.7608169,-0.8074511,2.425435,1.4591228,-1.0585276,1.119002,-0.47855443,-1.7720363,-0.8181452,2.374288,1.3988177,-1.0737566,-1.498138,1.3493913,0.31492656,0.18948863,0.86944246,0.4740109,-0.055557214,1.449379,-0.517498,1.8533806,-3.2141194,0.25125828,0.7529713,0.09358978,-0.37909126,1.0633118,0.8599012,-0.19966923,0.08728658,0.46160918,-0.36165324,0.83525145,0.4799067,1.0,0.0,0.0,0.0,0.0,0.0,0.0,-2.099379,0.11749801,-1.3033805,-0.17168522,-0.3427267,-5.8424053,3.768319,-0.17578602,0.027960539,3.1195924
0.5984101,28.426468,5.158959,14.045406,0.44387758,-1.0666028,-0.10899355,-0.84130365,0.7463935,0.09137972,0.16088979,0.580881,0.6492301,0.21453667,1.0348716,-0.40391508,-1.7628983,-0.80205625,2.4323761,1.4637407,-1.052303,1.1039988,-0.46511477,-1.7694671,-0.8158745,2.3829017,1.4035479,-1.0740541,-1.5012829,1.3423877,0.23757802,0.23897995,0.85937905,0.4730718,-0.02120018,1.4172621,-0.51498795,1.8601681,-3.210906,0.25100705,0.65403247,0.089954376,-0.37081528,1.0680422,0.86063063,-0.20653635,0.089287266,0.45682094,-0.35413763,0.82725847,0.46553832,1.0,0.0,0.0,0.0,0.0,0.0,0.0,-2.0672622,0.11498794,-1.310168,-0.4247427,-0.622344,-7.7349215,4.7717094,-0.7951617,-0.005251169,3.3579185
-5.029254,21.588758,2.3999531,17.55678,0.8445075,-1.0809271,-0.31287754,-0.8431827,0.7357508,-0.017406942,0.24824889,0.57511836,0.6435067,0.26767138,1.0196805,-0.3915397,-1.7712078,-0.7910496,2.4404135,1.4678986,-1.047287,1.0889574,-0.45178288,-1.7680366,-0.8128056,2.3914084,1.4082628,-1.0739988,-1.5055662,1.3303579,0.11135938,0.32875186,0.8482913,0.471166,0.013951905,1.3851767,-0.5124779,1.865967,-3.2076957,0.2507561,0.55519253,0.08625889,-0.36268234,1.0726565,0.8614901,-0.21334983,0.09159055,0.4515838,-0.3649016,0.8114583,0.45501688,1.0,0.0,0.0,0.0,0.0,0.0,0.0,-2.0351768,0.11247787,-1.3159671,-0.57492256,-1.1290312,-12.633668,8.74331,-0.8667946,-0.15477538,3.428191
-8.08075,14.871874,0.013456345,18.4823,1.0448782,-1.1953056,-0.4232315,-0.84245294,0.72077745,-0.11819619,0.29411337,0.5748955,0.64030975,0.30840978,1.0047121,-0.37970513,-1.7798562,-0.7833943,2.448898,1.4722939,-1.0431578,1.0738837,-0.4386255,-1.768153,-0.80874866,2.3998237,1.4129568,-1.0735983,-1.5083709,1.3111048,-0.05277942,0.43048906,0.8397552,0.46892655,0.04850328,1.3531237,-0.5099716,1.8707783,-3.2044888,0.25050542,0.4564515,0.08238888,-0.35477257,1.0771523,0.8625728,-0.22008903,0.09422874,0.44570142,-0.384392,0.7867359,0.4429586,1.0,0.0,0.0,0.0,0.0,0.0,0.0,-2.0031238,0.10997161,-1.3207784,-0.41794777,-1.8561125,-16.463957,9.91593,-0.5948305,-0.20273328,3.3702447
-8.245123,11.534631,-0.99552727,17.60849,1.0260471,-1.3100797,-0.42962104,-0.8392739,0.70851266,-0.20933817,0.32253656,0.57726717,0.64695346,0.349577,0.98995626,-0.36777425,-1.7890868,-0.776495,2.4575503,1.4776522,-1.0386406,1.058808,-0.42568988,-1.7700393,-0.8037495,2.4081817,1.4176356,-1.0728563,-1.5074961,1.2878976,-0.2343919,0.5221369,0.83519304,0.46765313,0.08233589,1.3211031,-0.5074692,1.874603,-3.201285,0.25025496,0.35780922,0.07833195,-0.3471508,1.0815008,0.8639035,-0.22669855,0.097219646,0.43912035,-0.40307617,0.75739413,0.4277479,1.0,0.0,0.0,0.0,0.0,0.0,0.0,-1.9711031,0.10746917,-1.3246031,-0.013923645,-2.2570848,-18.250275,8.915949,-0.19568205,-0.09729266,3.3044233
-6.9017487,12.587009,-0.33119345,16.914402,0.9550928,-1.3040289,-0.37390947,-0.84136045,0.697105,-0.270481,0.35490435,0.57852864,0.6422155,0.3620025,0.9746719,-0.35597938,-1.7970874,-0.76825905,2.4660344,1.4818571,-1.036656,1.0437399,-0.41299504,-1.7736213,-0.7979407,2.4165168,1.4223009,-1.0718035,-1.5066817,1.2635559,-0.39985648,0.5996379,0.83353406,0.46618766,0.11257036,1.289114,-0.50496674,1.8774419,-3.198084,0.25000474,0.25926554,0.07411575,-0.33979607,1.0856955,0.8654476,-0.23315968,0.10053772,0.43189007,-0.41827267,0.7315916,0.41271728,1.0,0.0,0.0,0.0,0.0,0.0,0.0,-1.939114,0.10496673,-1.3274419,-0.008654594,-2.3813486,-16.616137,7.522166,0.07637739,-0.11781454,2.9394016
-3.6353273,11.820963,0.10235405,13.178073,0.6731774,-1.4622121,-0.21887471,-0.8409482,0.6731407,-0.32261664,0.33472633,0.56835353,0.64421594,0.3952553,0.9596451,-0.34568095,-1.8058829,-0.764468,2.4733522,1.4867225,-1.032278,1.0286871,-0.40059727,-1.7786396,-0.7916979,2.4248137,1.4269568,-1.0704588,-1.505018,1.2320393,-0.53597295,0.6319839,0.8290018,0.46576178,0.14150254,1.2571573,-0.5024681,1.8792961,-3.1948867,0.24975479,0.1608204,0.06984997,-0.33273315,1.0896782,0.86712915,-0.2393814,0.104154855,0.42418772,-0.42013153,0.7024966,0.38993496,1.0,0.0,0.0,0.0,0.0,0.0,0.0,-1.9071573,0.1024681,-1.3292961,0.12910366,-3.0941725,-13.685787,3.050506,-0.25303364,0.048595667,2.8205395
1.5209389,18.472061,2.9941306,10.382924,0.33085835,-1.436285,-0.004070297,-0.8410623,0.6650719,-0.31769615,0.31449488,0.5681497,0.6456587,0.4040721,0.9445809,-0.33409008,-1.8104092,-0.7602484,2.4816287,1.4915227,-1.0300516,1.0136477,-0.38848943,-1.7845447,-0.78543514,2.433065,1.4316145,-1.0688528,-1.5037404,1.203875,-0.60863495,0.62379867,0.8243052,0.46599132,0.16688895,1.2252321,-0.4999733,1.8801665,-3.1916926,0.24950507,0.062473662,0.065690994,-0.3258934,1.0934219,0.8688185,-0.24533045,0.10800313,0.41629615,-0.4055021,0.6823611,0.36606455,1.0,0.0,0.0,0.0,0.0,0.0,0.0,-1.8752321,0.09997329,-1.3301666,0.08587837,-2.7618885,-7.2392225,-0.9572506,-0.34288168,0.14597774,2.4564533
5.7248874,21.88937,4.7477794,7.1489344,0.0170694,-1.5194244,0.18115428,-0.8388435,0.6489886,-0.32192758,0.27318677,0.5627453,0.64130795,0.42472345,0.9297633,-0.32359058,-1.8167374,-0.7581165,2.4893394,1.4957453,-1.0263804,0.9986273,-0.37666005,-1.790818,-0.7795605,2.441259,1.4362742,-1.0670065,-1.5013916,1.1761413,-0.633258,0.57504267,0.81796986,0.4664227,0.19032386,1.1933393,-0.4974804,1.8800542,-3.1885016,0.24925563,-0.03577475,0.061793327,-0.3192463,1.0968956,0.87040466,-0.2509536,0.112019345,0.4084967,-0.37555346,0.6635922,0.33826905,1.0,0.0,0.0,0.0,0.0,0.0,0.0,-1.8433393,0.09748039,-1.3300543,0.2149105,-2.7100801,-2.3949742,-4.9710393,-0.56170225,0.2158165,2.2686033
9.57305,23.581348,5.938348,3.43566,-0.28053886,-1.6730664,0.3579993,-0.8350339,0.6317288,-0.30656263,0.20408611,0.5640756,0.6470209,0.44266024,0.91512394,-0.31348717,-1.8214742,-0.7591519,2.4976664,1.5009762,-1.0227405,0.98364794,-0.365112,-1.7970321,-0.77449936,2.4494033,1.4409453,-1.0649389,-1.4966111,1.1479379,-0.6174063,0.482893,0.81307054,0.4679886,0.21209551,1.161478,-0.4949894,1.8789604,-3.1853137,0.24900642,-0.13392493,0.058309555,-0.31280708,1.1000471,0.8718052,-0.2561662,0.116138116,0.40105677,-0.33084694,0.64120567,0.3048205,1.0,0.0,0.0,0.0,0.0,0.0,0.0,-1.811478,0.09498939,-1.3289604,0.5096674,-2.7399302,1.6351104,-9.261298,-0.4558921,0.38730502,2.1250038
9.903414,23.723536,6.0464277,3.1074727,-0.2860764,-1.7317712,0.37472218,-0.8325728,0.6210313,-0.31687817,0.17328954,0.57165444,0.6467328,0.45231318,0.9003907,-0.30300888,-1.82872,-0.7571704,2.5065687,1.5056186,-1.0197076,0.9687239,-0.3538229,-1.8030422,-0.7704014,2.4575286,1.4456316,-1.0626711,-1.4907902,1.1228406,-0.595417,0.38520584,0.8128354,0.46945336,0.23155041,1.1296482,-0.4925022,1.8768857,-3.1821291,0.24875747,-0.23197697,0.055282593,-0.3066044,1.1028695,0.873008,-0.26093715,0.1203228,0.39406988,-0.285407,0.61686623,0.27223814,1.0,0.0,0.0,0.0,0.0,0.0,0.0,-1.7796482,0.09250221,-1.3268857,0.6302595,-2.4247885,2.2194028,-9.8032,0.014102459,0.37131906,1.9062221
10.804367,21.218218,5.4356403,0.45846272,-0.46055222,-1.9541477,0.4274481,-0.8343359,0.6056007,-0.3080467,0.07746373,0.5668313,0.6415472,0.46715462,0.8852903,-0.2932628,-1.8338468,-0.762655,2.5142117,1.5097864,-1.0159556,0.95384276,-0.3427822,-1.80881,-0.7675156,2.46565,1.4503294,-1.0602182,-1.4868383,1.0981085,-0.5708435,0.25641683,0.81203914,0.47059166,0.24967849,1.0978508,-0.49001694,1.8738312,-3.1789477,0.24850877,-0.32993102,0.052764893,-0.3007164,1.1053208,0.87403286,-0.2651636,0.124570325,0.38760433,-0.23313408,0.5823091,0.23386313,1.0,0.0,0.0,0.0,0.0,0.0,0.0,-1.7478508,0.09001693,-1.3238311,0.5097151,-2.3720741,2.3917556,-12.882358,-0.04339218,0.3725767,1.8070221
10.3745365,21.075783,5.0821,0.38259768,-0.5246273,-2.0370958,0.39083883,-0.83196676,0.6052087,-0.32275903,0.016966851,0.5661241,0.6410611,0.47537515,0.87064606,-0.28226134,-1.8410859,-0.7658189,2.5222626,1.5144355,-1.0126806,0.9389988,-0.3319227,-1.8144577,-0.76594776,2.4737678,1.4550349,-1.0575994,-1.483152,1.0822341,-0.56307364,0.12354951,0.8116158,0.47131166,0.26591393,1.0660849,-0.48753357,1.8697978,-3.1757693,0.2482603,-0.4277871,0.05077839,-0.29518318,1.1073924,0.8749249,-0.26878282,0.1289234,0.38162938,-0.18015341,0.54486555,0.19609919,1.0,0.0,0.0,0.0,0.0,0.0,0.0,-1.7160848,0.08753356,-1.3197978,0.5014658,-1.4822245,0.665617,-13.289081,0.006723404,0.31336546,1.6322017
8.545235,19.510054,4.039602,1.3278375,-0.48254085,-2.1054926,0.28739834,-0.8311863,0.6061115,-0.36584735,-0.039235916,0.5736751,0.6355414,0.4756521,0.8558802,-0.27131155,-1.8510424,-0.76987135,2.5311353,1.518589,-1.0100342,0.92418444,-0.3211524,-1.8202941,-0.765655,2.4819007,1.4597403,-1.0548376,-1.4804763,1.0756176,-0.5909693,-0.0022093158,0.8144119,0.47097355,0.27958313,1.0343504,-0.48505402,1.8647867,-3.1725943,0.2480121,-0.52554536,0.049295425,-0.29004478,1.1090986,0.87576115,-0.2717615,0.1334493,0.37600455,-0.13169523,0.5041696,0.16015533,1.0,0.0,0.0,0.0,0.0,0.0,0.0,-1.6843504,0.08505401,-1.3147867,0.40009022,-0.55651665,-2.926147,-12.597995,0.33830404,0.17110705,1.380384
10.315315,16.408987,3.1756215,-3.6635013,-0.9367986,-2.467557,0.35844427,-0.8330039,0.60437906,-0.37884513,-0.20754741,0.555915,0.6342366,0.47159013,0.84088403,-0.26071447,-1.8581786,-0.78640974,2.5374923,1.5231639,-1.0076786,0.9093853,-0.31040782,-1.8265102,-0.7670588,2.4900107,1.4644419,-1.0519575,-1.4786781,1.0745293,-0.63287127,-0.18641438,0.81001705,0.47083265,0.29100642,1.0026484,-0.48257637,1.8587987,-3.1694224,0.24776414,-0.6232059,0.048415184,-0.28543854,1.1103541,0.87660176,-0.27388868,0.13823599,0.370736,-0.06809219,0.4460909,0.112147145,1.0,0.0,0.0,0.0,0.0,0.0,0.0,-1.6526483,0.082576364,-1.3087988,0.4677534,0.023436546,-4.4945836,-18.38147,-0.40012598,0.23240447,1.208204
12.361397,12.608483,2.279879,-9.562343,-1.4305341,-2.877468,0.4498697,-0.8349518,0.6059704,-0.39896232,-0.39018306,0.5362405,0.63477373,0.44544235,0.8258901,-0.24981079,-1.8664064,-0.8060771,2.543635,1.5279193,-1.0074133,0.89459956,-0.2996418,-1.8332031,-0.770822,2.498014,1.4691454,-1.0489954,-1.4768062,1.0778856,-0.6832094,-0.43920624,0.79710895,0.4710262,0.2984305,0.9709778,-0.48010063,1.8518349,-3.1662536,0.24751642,-0.7207688,0.04829693,-0.2815609,1.1110194,0.8775,-0.27486342,0.14336814,0.36590895,0.011572271,0.3666935,0.049656812,1.0,0.0,0.0,0.0,0.0,0.0,0.0,-1.6209778,0.080100626,-1.3018348,0.7068634,0.50115585,-5.5855155,-25.147879,-1.273334,0.2912581,0.8752823
11.353055,9.695057,1.2272797,-10.458017,-1.4512246,-3.0218723,0.39582288,-0.83227026,0.61383015,-0.4529509,-0.5072776,0.53854823,0.6332348,0.3953125,0.8113725,-0.23825878,-1.8784982,-0.8215498,2.551869,1.5324689,-1.0094641,0.8798481,-0.28879756,-1.8405597,-0.7772154,2.505899,1.4738451,-1.0460085,-1.4725024,1.0871471,-0.75529426,-0.70549524,0.78556097,0.47050482,0.29932454,0.9393387,-0.4776268,1.8438962,-3.163088,0.24726894,-0.81823415,0.04896736,-0.27854538,1.1110342,0.8785227,-0.2745315,0.1488722,0.36147943,0.08869579,0.277882,-0.01633974,1.0,0.0,0.0,0.0,0.0,0.0,0.0,-1.5893387,0.077626795,-1.2938962,1.0778904,1.1012793,-7.8891635,-26.468313,-1.1581779,0.15471578,0.24265647
9.064289,9.020922,0.7207465,-7.7885504,-1.1642045,-2.9232752,0.2737145,-0.8283339,0.62369514,-0.49622077,-0.6004024,0.5404958,0.6197027,0.30663165,0.7970147,-0.22642805,-1.8901818,-0.83725566,2.5599484,1.5358154,-1.0153453,0.8651539,-0.27782077,-1.8487136,-0.7860903,2.5136962,1.4785258,-1.0430883,-1.4662179,1.1017414,-0.8375586,-0.9476709,0.7776313,0.4676693,0.28994545,0.907732,-0.47515488,1.8349835,-3.1599257,0.24702173,-0.9156021,0.0503273,-0.27638626,1.1104251,0.8797224,-0.27292654,0.15470609,0.357303,0.15298961,0.19231677,-0.07755764,1.0,0.0,0.0,0.0,0.0,0.0,0.0,-1.557732,0.07515487,-1.2849834,1.2735367,1.6269445,-8.889985,-24.084616,-0.81214905,-0.17405152,-0.80443025
5.1134543,8.777101,0.22091758,-1.6642592,-0.5505139,-2.5946074,0.10370226,-0.82818735,0.62791556,-0.5314887,-0.647084,0.52992904,0.6133768,0.26738527,0.78233516,-0.21502921,-1.9018625,-0.8507987,2.566689,1.5398635,-1.0163498,0.8505045,-0.26670045,-1.8576686,-0.79692024,2.5214057,1.4831682,-1.0402998,-1.4630016,1.1159133,-0.9162589,-1.1279762,0.76861256,0.4632886,0.27550834,0.87615585,-0.47268677,1.8250978,-3.1567664,0.24677476,-1.0128726,0.052164078,-0.27496338,1.1092992,0.88112086,-0.2702552,0.1607884,0.3531787,0.1934552,0.1211313,-0.12638074,1.0,0.0,0.0,0.0,0.0,0.0,0.0,-1.5261558,0.07268676,-1.2750978,0.76982975,1.5529156,-8.29649,-17.999958,-0.9393215,-0.42894483,-1.3846278
1.4464686,7.7017746,-0.1873784,4.623684,0.15965469,-2.2231734,-0.026161224,-0.8266278,0.619124,-0.5380433,-0.67693496,0.5120924,0.6076404,0.2338878,0.76784176,-0.20478804,-1.9114729,-0.8646137,2.572615,1.5439323,-1.016911,0.8358666,-0.2555167,-1.8672168,-0.80904716,2.5289931,1.487763,-1.0376772,-1.4634938,1.1195464,-0.9681437,-1.2411987,0.754946,0.45798266,0.25776353,0.8446121,-0.47022057,1.8142402,-3.1536102,0.24652803,-1.1100459,0.054229736,-0.27413368,1.1077882,0.88269925,-0.26680788,0.16699018,0.3489554,0.20899214,0.06616941,-0.16166358,1.0,0.0,0.0,0.0,0.0,0.0,0.0,-1.4946121,0.07022056,-1.2642403,0.13017654,0.45912266,-5.3147316,-11.403751,-1.4022112,-0.58642626,-1.8027604
-1.4980042,6.6717076,-0.7237693,9.579356,0.7580447,-1.9445772,-0.15193415,-0.82719755,0.61756974,-0.5663524,-0.70470434,0.5292391,0.59725994,0.1434466,0.7531468,-0.19375974,-1.9238521,-0.8795176,2.581917,1.547489,-1.0233325,0.8211962,-0.24434322,-1.8771923,-0.8219275,2.536512,1.4922987,-1.0352911,-1.4684917,1.1168083,-1.0066143,-1.3043213,0.7503969,0.4516795,0.23210622,0.81309986,-0.46775627,1.8024117,-3.1504571,0.24628156,-1.2071221,0.0563097,-0.27375793,1.1060086,0.8844483,-0.26283318,0.17317016,0.34450233,0.20439972,0.023641907,-0.18587685,1.0,0.0,0.0,0.0,0.0,0.0,0.0,-1.4630998,0.067756265,-1.2524116,-0.5789995,-0.21531582,-3.6664248,-6.491351,-0.51128864,-0.73779225,-2.6652396
-3.6443295,5.27219,-1.3308668,13.111289,1.2029816,-1.7543188,-0.24172276,-0.8247254,0.6110495,-0.5923065,-0.7174004,0.5348549,0.58166236,0.07394424,0.73872364,-0.18323827,-1.936423,-0.8936675,2.5899973,1.550465,-1.0278966,0.8064743,-0.23324603,-1.8875053,-0.8351626,2.5440269,1.4967619,-1.0331968,-1.4743489,1.1074711,-1.0381249,-1.3306711,0.7513263,0.44414547,0.20129666,0.7816191,-0.4652958,1.789613,-3.1473074,0.24603534,-1.3041012,0.058242798,-0.27373505,1.104049,0.8863626,-0.2585138,0.17921714,0.33972514,0.18518236,-0.010284083,-0.20181969,1.0,0.0,0.0,0.0,0.0,0.0,0.0,-1.431619,0.065295786,-1.239613,-0.8657217,-0.90544224,-2.7283192,-2.883172,0.017225742,-0.8965075,-3.2350242
-5.3847103,0.6064453,-2.5742304,14.303991,1.5399395,-1.712976,-0.2591764,-0.82221156,0.5862758,-0.6021235,-0.73270446,0.52835065,0.5730026,0.06629128,0.7242532,-0.17461845,-1.9477177,-0.908433,2.5968618,1.5540621,-1.0265677,0.7917105,-0.22235674,-1.8980625,-0.848535,2.5515418,1.5011488,-1.0313925,-1.4781212,1.0827602,-1.0598888,-1.340339,0.75142664,0.43640268,0.17273572,0.75016975,-0.46283722,1.7758453,-3.1441607,0.24578935,-1.4009835,0.05989933,-0.27406693,1.1019483,0.8884342,-0.25394294,0.18503909,0.33460158,0.15435012,-0.044597972,-0.21519005,1.0,0.0,0.0,0.0,0.0,0.0,0.0,-1.4001697,0.06283721,-1.2258453,-0.71964264,-2.4675608,-1.6605377,-1.2274265,-0.08131266,-0.9357929,-3.043276
-4.9751205,2.2422323,-1.8509078,15.711668,1.6033148,-1.5548266,-0.19348559,-0.8251515,0.5753741,-0.57867074,-0.7321382,0.48966736,0.5848387,0.14262879,0.7091954,-0.16481933,-1.9559295,-0.9217488,2.6005085,1.5596327,-1.0171295,0.77690375,-0.21174592,-1.9086349,-0.8619084,2.5589461,1.5054766,-1.0297865,-1.4829358,1.0538763,-1.054493,-1.3372978,0.7365944,0.43095645,0.15584578,0.7187519,-0.46038055,1.7611095,-3.1410172,0.2455436,-1.4977686,0.061249733,-0.27467728,1.0997398,0.8906067,-0.2492106,0.1906218,0.32920673,0.12343192,-0.070392996,-0.2248953,1.0,0.0,0.0,0.0,0.0,0.0,0.0,-1.3687519,0.06038055,-1.2111094,-0.9249449,-2.8877735,1.1245251,0.03709793,-1.5315175,-0.697577,-1.8847913
-4.588507,2.049838,-1.6770089,15.700523,1.6668466,-1.5288559,-0.14276786,-0.8214049,0.5590742,-0.57880616,-0.74356836,0.5068881,0.5821755,0.14744097,0.69476324,-0.15583849,-1.9665155,-0.93626523,2.6096349,1.5636941,-1.0150424,0.7620779,-0.20144552,-1.919091,-0.8752684,2.566255,1.5097567,-1.028314,-1.4838969,1.0220872,-1.0408148,-1.3364336,0.7288025,0.4263158,0.1436538,0.6873646,-0.4579277,1.7454066,-3.137877,0.24529812,-1.5944573,0.06229019,-0.2755375,1.0974355,0.8928417,-0.24435177,0.19592845,0.32363227,0.09207105,-0.09513424,-0.23426418,1.0,0.0,0.0,0.0,0.0,0.0,0.0,-1.3373646,0.057927698,-1.1954067,-0.53560734,-3.1777859,1.935935,-0.16467571,-0.8126974,-0.6176233,-1.4021456
-4.9663467,0.0872221,-2.265668,15.349416,1.6812055,-1.5550603,-0.12346478,-0.82157516,0.5373894,-0.58440274,-0.7511093,0.48871112,0.5758243,0.1664253,0.67992043,-0.14770658,-1.9775313,-0.9503793,2.6151261,1.5673391,-1.0116714,0.74725497,-0.19149202,-1.9294345,-0.8886542,2.5734534,1.513991,-1.0269293,-1.4832317,0.986436,-1.0301952,-1.3400744,0.71668786,0.42179137,0.13614693,0.6560097,-0.45547676,1.7287375,-3.1347396,0.24505287,-1.6910491,0.06301117,-0.27666855,1.0950251,0.8951318,-0.23934689,0.20095314,0.3179149,0.059428018,-0.121957295,-0.24508572,1.0,0.0,0.0,0.0,0.0,0.0,0.0,-1.3060097,0.055476755,-1.1787374,-0.35042763,-3.5696268,1.6217947,-0.5978823,-1.2599468,-0.6146014,-0.9350538
-6.4461565,-4.9503045,-3.898989,14.775532,1.7699502,-1.633372,-0.13433933,-0.81872886,0.50355774,-0.5952282,-0.7545319,0.45981947,0.56961036,0.18363176,0.6653821,-0.14113624,-1.9889574,-0.9641074,2.6194353,1.570952,-1.0085661,0.7324587,-0.18197292,-1.9397514,-0.90209526,2.580461,1.5181795,-1.0255941,-1.479642,0.9403451,-1.0305235,-1.3461298,0.6953025,0.41714126,0.1320794,0.6246853,-0.45302773,1.7111032,-3.1316056,0.24480787,-1.7875444,0.063360214,-0.2781105,1.0924866,0.8974911,-0.23415041,0.20570719,0.3120383,0.020831991,-0.15458573,-0.2583747,1.0,0.0,0.0,0.0,0.0,0.0,0.0,-1.2746853,0.05302772,-1.1611032,-0.01077652,-4.6296597,0.5173445,-0.82030296,-2.225566,-0.645417,-0.6082386
-7.1501465,-5.298487,-4.464839,15.264196,1.8335466,-1.6110754,-0.17237535,-0.82219785,0.49173462,-0.6130553,-0.75968516,0.47413212,0.5663955,0.14807513,0.65023893,-0.13279946,-2.001057,-0.97806376,2.6278741,1.5748191,-1.0107867,0.7176796,-0.17287964,-1.9501808,-0.91561455,2.5873199,1.5223204,-1.0243162,-1.4788392,0.8988788,-1.0449823,-1.3545243,0.68229806,0.41250235,0.12561688,0.5933933,-0.4505825,1.6925048,-3.1284747,0.2445631,-1.8839432,0.06330204,-0.27987862,1.0898174,0.8999399,-0.22873874,0.21019155,0.30595127,-0.020906031,-0.18593736,-0.2712667,1.0,0.0,0.0,0.0,0.0,0.0,0.0,-1.2433933,0.0505825,-1.1425047,-0.3418684,-4.180014,-0.7995367,-1.0563612,-1.4318347,-0.6763458,-0.85665584
-9.951101,-13.53341,-7.337995,14.319369,1.9831631,-1.7470229,-0.2231914,-0.8238978,0.44106194,-0.6361357,-0.7690765,0.41809586,0.55325955,0.14497785,0.63528985,-0.12877344,-2.0137944,-0.9925222,2.6291294,1.5776464,-1.0098184,0.7028967,-0.1643259,-1.9608715,-0.9292454,2.5939155,1.5264097,-1.0231031,-1.4793532,0.8406467,-1.0748199,-1.3665675,0.6515385,0.40685076,0.119202174,0.5621319,-0.4481392,1.672943,-3.125347,0.24431859,-1.9802457,0.06274605,-0.282032,1.086987,0.9025161,-0.22304359,0.21442436,0.29956353,-0.07377204,-0.22680946,-0.2882929,1.0,0.0,0.0,0.0,0.0,0.0,0.0,-1.2121319,0.048139185,-1.1229429,-0.40619373,-5.8865666,-2.3381948,-1.3929605,-3.2757401,-0.812906,-0.8881837
-14.190403,-28.852232,-11.846408,12.0127125,2.4206674,-2.0001938,-0.23011434,-0.82157683,0.35177708,-0.63903266,-0.7828146,0.38753107,0.5524569,0.16417564,0.62073904,-0.12914819,-2.0247748,-1.0075269,2.6326685,1.5816554,-1.0066855,0.6881243,-0.15666336,-1.9718502,-0.94303745,2.600141,1.5304438,-1.0219339,-1.4769769,0.7410803,-1.1039891,-1.3837609,0.61216974,0.40140375,0.115212284,0.5309019,-0.44569778,1.6524189,-3.1222222,0.24407433,-2.0764518,0.061491966,-0.28473854,1.0839338,0.90526336,-0.21697061,0.21829258,0.2928657,-0.14963384,-0.28541967,-0.3121114,1.0,0.0,0.0,0.0,0.0,0.0,0.0,-1.1809019,0.04569778,-1.1024189,0.08618832,-10.0634575,-2.4163961,-1.8382788,-4.19209,-0.83233714,-0.6785363
-19.163818,-45.600815,-16.92552,9.892292,2.9183488,-2.2512114,-0.24433088,-0.81742674,0.24575543,-0.65106136,-0.78728896,0.32779282,0.5437489,0.19277151,0.60638165,-0.13208781,-2.0369563,-1.0217663,2.6329203,1.5848187,-1.0026568,0.67340815,-0.15035456,-1.9831188,-0.95698875,2.605844,1.5344206,-1.02078,-1.4695927,0.59359634,-1.1332357,-1.3989879,0.5557401,0.39528748,0.114614934,0.4997034,-0.4432583,1.6309334,-3.1191006,0.24383031,-2.1725614,0.059285164,-0.28816032,1.0805936,0.90822536,-0.21043417,0.22164683,0.2858614,-0.2520283,-0.36084652,-0.34231538,1.0,0.0,0.0,0.0,0.0,0.0,0.0,-1.1497034,0.04325828,-1.0809333,0.81391335,-14.909077,-2.5931358,-1.5562057,-5.951941,-0.9533763,-0.38025528
-32.44253,-90.866806,-30.521782,3.3855343,4.259307,-3.0282094,-0.30990762,-0.814945,-0.0050166096,-0.66298014,-0.7937663,0.23907581,0.5530238,0.23927058,0.59191364,-0.15085623,-2.0494168,-1.0363654,2.6297517,1.589723,-0.99685293,0.65880644,-0.14646882,-1.994683,-0.97106975,2.6107917,1.5383402,-1.0195955,-1.4547842,0.31926146,-1.164623,-1.4104358,0.47288588,0.38927203,0.118378475,0.46853542,-0.4408207,1.6084876,-3.115982,0.24358653,-2.2685752,0.055524826,-0.2927227,1.0768167,0.91152513,-0.20325074,0.22410461,0.2785464,-0.42582268,-0.4860491,-0.39036605,1.0,0.0,0.0,0.0,0.0,0.0,0.0,-1.1185354,0.040820688,-1.0584877,2.1793127,-27.72538,-3.2827616,-0.9599447,-8.724171,-1.1060059,-0.038267672
-44.985806,-135.19966,-43.410896,-3.678268,5.4444323,-3.7474098,-0.26183683,-0.8121435,-0.29972914,-0.6242346,-0.7952992,0.061033636,0.5505491,0.4068495,0.5775921,-0.17644173,-2.0571065,-1.0505997,2.616895,1.5933951,-0.97891057,0.64438593,-0.14635938,-2.0063353,-0.98521274,2.6144805,1.542193,-1.0182489,-1.4331423,-0.09325573,-1.1679643,-1.4139363,0.33282518,0.3814802,0.13863678,0.4373989,-0.43838692,1.5850824,-3.1128666,0.24334298,-2.364493,0.049526215,-0.29888344,1.0724002,0.9152639,-0.1952019,0.22525671,0.2710119,-0.66724193,-0.65554845,-0.4598264,1.0,0.0,0.0,0.0,0.0,0.0,0.0,-1.0873989,0.03838691,-1.0350823,3.565812,-41.680748,-1.1067629,0.16732216,-14.505696,-1.5206218,1.5584141
-43.898975,-140.63608,-42.804787,-6.4533706,5.62696,-3.6620603,0.041654177,-0.78039306,-0.5229901,-0.49319455,-0.8007245,-0.019794654,0.5583829,0.5033083,0.56634665,-0.19865839,-2.0556548,-1.0652852,2.6125011,1.5980314,-0.9679181,0.63031256,-0.15078682,-2.017352,-0.9993691,2.616693,1.5459734,-1.016622,-1.3932388,-0.56073964,-1.0833617,-1.413606,0.18327796,0.37386137,0.16963884,0.40629387,-0.43595505,1.5607188,-3.1097546,0.24309967,-2.4603148,0.041065216,-0.3067379,1.0672103,0.91937333,-0.18630053,0.22475408,0.2636862,-0.91532344,-0.82133526,-0.54076046,1.0,0.0,0.0,0.0,0.0,0.0,0.0,-1.0562938,0.03595504,-1.0107188,5.631542,-47.201633,7.26192,0.8178711,-15.282619,-1.6496956,2.7803838
-33.180706,-112.32263,-32.389484,-4.7897615,4.3939095,-2.9342997,0.31416905,-0.7420393,-0.66608435,-0.3943819,-0.8066026,-0.23754504,0.54015225,0.4827592,0.55610865,-0.21739525,-2.0567904,-1.0800294,2.5929384,1.5999887,-0.968346,0.61675704,-0.15956515,-2.0270338,-1.0135311,2.6170325,1.5496737,-1.0147089,-1.3383718,-0.98481077,-0.9339967,-1.4142908,-0.016065316,0.36600325,0.1979503,0.37521935,-0.4335251,1.5353976,-3.1066453,0.24285664,-2.5560408,0.030548096,-0.315979,1.061188,0.9236572,-0.17668346,0.222751,0.256948,-1.1068836,-0.9485435,-0.62667716,1.0,0.0,0.0,0.0,0.0,0.0,0.0,-1.0252193,0.03352508,-0.98539764,6.8590403,-42.79387,13.736153,0.76465607,-20.052454,-1.6137719,2.6733756
-17.455696,-62.487133,-16.374516,1.1959534,2.7716055,-1.7750586,0.5124838,-0.70866066,-0.72792983,-0.32286286,-0.814418,-0.32162604,0.5427865,0.4684974,0.545891,-0.23235813,-2.05932,-1.0949728,2.5848699,1.6039523,-0.96785915,0.6037947,-0.17167658,-2.0350485,-1.0277408,2.6154456,1.5533205,-1.012546,-1.2791078,-1.2874621,-0.7605743,-1.4210885,-0.20594384,0.36236283,0.22258449,0.3441763,-0.43109894,1.50912,-3.1035395,0.24261384,-2.651671,0.018735886,-0.32605553,1.0543873,0.9278861,-0.16658746,0.2196822,0.25102898,-1.2146509,-1.0154268,-0.70416695,1.0,0.0,0.0,0.0,0.0,0.0,0.0,-0.99417627,0.031098932,-0.95912,6.865692,-30.524849,16.306686,-0.0166893,-18.926495,-0.9020984,2.4754584
-4.0995,-13.55883,-1.9027799,9.162743,1.5934739,-0.63822603,0.5605275,-0.69894683,-0.75289154,-0.2630186,-0.8163486,-0.2883021,0.53145945,0.44613215,0.5339,-0.24696574,-2.0613503,-1.1093757,2.5866153,1.6064665,-0.9679327,0.5913273,-0.18578285,-2.0414038,-1.0420364,2.6124587,1.5569502,-1.0101751,-1.2332253,-1.4521271,-0.5971768,-1.43105,-0.32892415,0.36258715,0.24249044,0.3131647,-0.4286747,1.4818867,-3.1004364,0.24237128,-2.7472057,0.0063648224,-0.33637428,1.0469711,0.93189377,-0.15630682,0.2159252,0.24600483,-1.2516415,-1.023602,-0.76219225,1.0,0.0,0.0,0.0,0.0,0.0,0.0,-0.9631647,0.028674692,-0.93188673,5.3945065,-16.596746,15.238201,-0.54872036,-12.121743,-0.13047457,2.1594465
2.9209528,19.880566,6.805673,16.256844,1.1451632,0.15534401,0.47224304,-0.702638,-0.7675877,-0.22560443,-0.8168918,-0.19123872,0.5197772,0.43332407,0.5210635,-0.26254162,-2.0639641,-1.1237257,2.593335,1.608928,-0.9668427,0.5791527,-0.20072526,-2.0463972,-1.0564293,2.6089416,1.5605932,-1.0076364,-1.2089746,-1.5084196,-0.47115058,-1.4409736,-0.3586759,0.3654261,0.2587536,0.28218365,-0.42625237,1.4536989,-3.0973368,0.24212895,-2.8426447,-0.006108284,-0.34646988,1.0391413,0.93562204,-0.146104,0.21166568,0.24179043,-1.2510669,-0.99065864,-0.7989012,1.0,0.0,0.0,0.0,0.0,0.0,0.0,-0.9321836,0.02625236,-0.90369886,3.3756733,-5.6705,11.262285,-0.6742954,-2.750516,0.43362975,1.9152164
3.2235541,33.994587,8.642466,20.38546,0.8910401,0.45907223,0.2517041,-0.6770855,-0.77825606,-0.27756006,-0.811495,-0.23722367,0.50493014,0.4305009,0.51144415,-0.27855086,-2.0741532,-1.1375787,2.5852191,1.6110862,-0.9645863,0.5672146,-0.2157554,-2.0508146,-1.0708736,2.6052833,1.564263,-1.0049585,-1.1853583,-1.5012467,-0.43608096,-1.4447292,-0.3679702,0.36836654,0.27168092,0.2512331,-0.42383385,1.4245573,-3.09424,0.24188687,-2.9379883,-0.01848793,-0.35611916,1.0310298,0.9390961,-0.13604267,0.20716488,0.23806234,-1.2375877,-0.9420039,-0.8242434,1.0,0.0,0.0,0.0,0.0,0.0,0.0,-0.9012331,0.023833841,-0.8745573,3.385353,0.7067919,2.1269023,-0.078344345,-0.73733926,0.5785465,1.5728831
0.7667115,36.214855,7.213539,21.829472,0.7882677,0.47444892,0.056810632,-0.64619887,-0.7835533,-0.33883208,-0.8086079,-0.30265382,0.51555747,0.44112444,0.5025947,-0.29411075,-2.0846977,-1.1517344,2.575018,1.6158187,-0.96084607,0.5555769,-0.23051947,-2.0555143,-1.0853161,2.6014419,1.567969,-1.0021642,-1.1533365,-1.4681944,-0.48542175,-1.4431239,-0.38932943,0.37216327,0.28264594,0.22031307,-0.42141724,1.3944631,-3.0911465,0.24164502,-3.0332365,-0.030748367,-0.36528015,1.0226821,0.9423669,-0.12604275,0.20269664,0.23446092,-1.2252237,-0.8929447,-0.84701747,1.0,0.0,0.0,0.0,0.0,0.0,0.0,-0.87031305,0.02141723,-0.84446305,4.162574,3.287077,-6.1602235,0.4731655,-2.016884,0.66272616,1.3123333
-3.104134,32.36804,4.2560434,22.04779,0.86475587,0.3774436,-0.09781795,-0.63512826,-0.7835819,-0.3950282,-0.8052406,-0.356776,0.5231406,0.44468844,0.4920641,-0.30887768,-2.0950172,-1.1658401,2.5657642,1.620283,-0.9576954,0.54424727,-0.24493188,-2.0611181,-1.0997127,2.5972457,1.5717112,-0.999277,-1.1230564,-1.4324001,-0.5886185,-1.437264,-0.42923972,0.37564635,0.2912725,0.18942547,-0.41900253,1.363417,-3.0880558,0.24140342,-3.1283898,-0.04296398,-0.37398338,1.0140895,0.94549036,-0.11597738,0.19844133,0.23069066,-1.2231362,-0.8489151,-0.8715723,1.0,0.0,0.0,0.0,0.0,0.0,0.0,-0.83942544,0.019002527,-0.813417,3.952241,3.5301924,-11.4053135,0.9338379,-3.9577842,0.56200624,1.0050058
-7.4435554,23.667559,0.35784692,20.617998,1.1155838,0.15264058,-0.19613752,-0.616972,-0.7936576,-0.46991166,-0.8097263,-0.37590382,0.51130205,0.42827213,0.48255005,-0.32429764,-2.1081092,-1.1806854,2.5596554,1.6228414,-0.9564498,0.53322375,-0.25910556,-2.068019,-1.1140693,2.59263,1.5754687,-0.9963311,-1.0925134,-1.4126923,-0.7271328,-1.4337581,-0.47251573,0.3761425,0.29604423,0.15856838,-0.41658974,1.3314202,-3.0849686,0.24116206,-3.2234478,-0.055300713,-0.38232422,1.0051981,0.9485242,-0.105711676,0.19440384,0.22656997,-1.2391279,-0.81545913,-0.9032566,1.0,0.0,0.0,0.0,0.0,0.0,0.0,-0.80856836,0.016589731,-0.7814202,3.923583,1.8741369,-14.779568,0.750494,-4.380041,0.13390183,0.560379
-11.834316,17.486895,-2.8643384,20.310705,1.5894737,0.07927549,-0.27898258,-0.6390174,-0.7924429,-0.52181643,-0.8140757,-0.3227349,0.5009479,0.38937324,0.469322,-0.33834985,-2.1202006,-1.1954769,2.5603564,1.6255635,-0.95739377,0.5223261,-0.27317083,-2.076312,-1.1284202,2.587812,1.5792166,-0.99337566,-1.085645,-1.4049866,-0.866587,-1.4339432,-0.48517928,0.37412885,0.29554698,0.12774181,-0.41417885,1.2984735,-3.0818841,0.24092096,-3.3184109,-0.067952156,-0.39035225,0.99596244,0.95152605,-0.09518283,0.19041991,0.22198781,-1.2760062,-0.7842332,-0.9386015,1.0,0.0,0.0,0.0,0.0,0.0,0.0,-0.7777418,0.014178842,-0.74847347,1.6465664,0.6289482,-14.890742,0.44474602,-1.3792515,-0.21416545,0.023794174
-13.979219,13.539738,-4.463818,19.679535,1.7744429,0.048024774,-0.30159333,-0.62661743,-0.8044375,-0.58815825,-0.80649334,-0.35454336,0.4869831,0.3417505,0.45966437,-0.35361457,-2.1351278,-1.2090696,2.5523577,1.6279149,-0.9592006,0.5114733,-0.28727996,-2.085967,-1.1427463,2.5828605,1.5829283,-0.9904679,-1.082106,-1.4134133,-1.0014329,-1.430421,-0.49900505,0.36991283,0.28936937,0.09694576,-0.41177177,1.2645779,-3.078803,0.2406801,-3.4132788,-0.081046104,-0.398077,0.98634475,0.95451736,-0.08436451,0.18636908,0.21690017,-1.3223641,-0.75448686,-0.9779388,1.0,0.0,0.0,0.0,0.0,0.0,0.0,-0.74694574,0.011771768,-0.71457785,1.2786865,-1.0120153,-14.365017,0.8527756,-1.5153348,-0.4944384,-0.5571544
-11.862526,17.172663,-2.2335465,19.415762,1.629353,0.20806444,-0.20309542,-0.62572443,-0.8081637,-0.59596545,-0.80601734,-0.3898664,0.48579246,0.31400824,0.44890085,-0.36809635,-2.1455636,-1.223348,2.5438738,1.6315075,-0.9590671,0.5006224,-0.3015188,-2.0966368,-1.1570381,2.5777068,1.586598,-0.9876431,-1.0834519,-1.4278896,-1.0917485,-1.4271061,-0.5210241,0.36587498,0.28046972,0.06618023,-0.4093666,1.2297343,-3.0757248,0.24043947,-3.5080519,-0.09453297,-0.4054737,0.9763372,0.95746124,-0.07329891,0.18220092,0.21141928,-1.3593003,-0.72010165,-1.0170835,1.0,0.0,0.0,0.0,0.0,0.0,0.0,-0.7161802,0.009366602,-0.6797343,0.68786144,-1.60923,-9.846544,0.801754,-2.30788,-0.4612565,-0.8144438
-9.525017,22.27001,0.28119332,19.474277,1.4286482,0.38746667,-0.13509174,-0.62701017,-0.8088091,-0.61891234,-0.8051848,-0.4213494,0.4754939,0.2471056,0.43792138,-0.3823997,-2.158528,-1.2375566,2.5355718,1.6341474,-0.9629326,0.48973474,-0.31589305,-2.1079588,-1.1712993,2.5722709,1.5902258,-0.98495185,-1.0881745,-1.4410968,-1.1480635,-1.4245476,-0.55167204,0.36161909,0.2656746,0.035445213,-0.40696335,1.1939437,-3.0726497,0.24019909,-3.6027303,-0.108304024,-0.41250038,0.9659547,0.9603134,-0.062043972,0.17791097,0.20566098,-1.384259,-0.6807416,-1.0543454,1.0,0.0,0.0,0.0,0.0,0.0,0.0,-0.6854452,0.0069633424,-0.6439437,0.2508402,-1.4684677,-6.3802958,0.68547726,-3.1486511,-0.4534781,-1.3937652
-7.0472255,28.194098,3.080789,20.046164,1.2612584,0.58925116,-0.04974115,-0.63295865,-0.8119925,-0.62033504,-0.8019171,-0.44676057,0.4883168,0.23473462,0.42643887,-0.3970923,-2.1699922,-1.2514911,2.5275948,1.6390575,-0.9614784,0.47876653,-0.33037937,-2.1195822,-1.1855339,2.5664916,1.5938269,-0.98240745,-1.0975376,-1.4515795,-1.1692675,-1.421599,-0.58659554,0.3596292,0.25099504,0.0047426224,-0.4045639,1.157199,-3.0695777,0.23995894,-3.6983795,-0.122237206,-0.41909027,0.95522666,0.9630288,-0.050671484,0.17350985,0.19975534,-1.3968496,-0.63579196,-1.0878791,1.0,0.0,0.0,0.0,0.0,0.0,0.0,-0.6547426,0.004563898,-0.607199,-0.29797554,-1.1784315,-2.821827,0.6795645,-3.5537958,-0.18793344,-1.3648391
-7.4104743,29.068672,3.215725,20.00336,1.317976,0.6348152,-0.078615606,-0.6366532,-0.8213118,-0.6549667,-0.80021113,-0.441062,0.4534747,0.11326015,0.4151012,-0.41251054,-2.1850789,-1.265555,2.5223854,1.6391743,-0.97108144,0.46769533,-0.34497917,-2.131404,-1.1997379,2.5604415,1.597386,-0.9800862,-1.1083286,-1.4631786,-1.1888351,-1.4186484,-0.61136484,0.35459152,0.2261197,-0.025929451,-0.40216637,1.1194985,-3.0665088,0.23971903,-3.793933,-0.13630009,-0.4252262,0.9441681,0.9656053,-0.03921772,0.16895026,0.19371112,-1.4100219,-0.5898606,-1.1208526,1.0,0.0,0.0,0.0,0.0,0.0,0.0,-0.6240705,0.0021663606,-0.5694985,-0.48058033,-1.2933016,-2.6136637,0.6803751,-2.5414944,-0.50822496,-2.3768723
-8.035432,31.561443,3.5862355,20.597437,1.3627931,0.7726211,-0.11820571,-0.65715617,-0.82050115,-0.661044,-0.799022,-0.4494173,0.45729667,0.0022602328,0.4019797,-0.42702928,-2.1975083,-1.2796401,2.5154998,1.6431156,-0.9798602,0.45644102,-0.35966146,-2.1433706,-1.2139133,2.5541892,1.6008993,-0.9780816,-1.1291578,-1.4703745,-1.2015575,-1.4159007,-0.62992114,0.35034305,0.19225535,-0.056571007,-0.39977074,1.0808432,-3.063443,0.23947936,-3.889391,-0.15049553,-0.43087006,0.9327972,0.9680491,-0.027713085,0.16420998,0.18747753,-1.4221876,-0.5393077,-1.1514055,1.0,0.0,0.0,0.0,0.0,0.0,0.0,-0.59342897,-0.00022926927,-0.5308432,-1.4881849,-0.8555174,-1.9200087,0.6590128,-1.9259334,-0.4264593,-3.2714546
-9.357706,33.37898,3.374131,21.366657,1.3725272,0.8904809,-0.18899885,-0.6701295,-0.8206483,-0.68433994,-0.78821355,-0.49279547,0.4586833,-0.11831779,0.38942808,-0.4417263,-2.2118046,-1.2927346,2.5049098,1.6467676,-0.98991334,0.444944,-0.37438667,-2.1555204,-1.2280182,2.5476775,1.6043764,-0.9764832,-1.1546309,-1.4737514,-1.2215927,-1.4074019,-0.6583491,0.34685275,0.1493117,-0.087182045,-0.39737892,1.041234,-3.06038,0.23923993,-3.9847536,-0.16481209,-0.43598557,0.92113775,0.9703616,-0.016167788,0.1593438,0.18095993,-1.433868,-0.48495296,-1.179593,1.0,0.0,0.0,0.0,0.0,0.0,0.0,-0.56281793,-0.0026210845,-0.491234,-1.9661427,-0.4797697,-2.6211977,1.2406111,-2.9233336,-0.34783483,-4.195723
-10.253529,34.17443,3.2580357,21.594162,1.4350431,0.97506785,-0.21040541,-0.6829876,-0.82776016,-0.69399726,-0.78078556,-0.5002601,0.4665571,-0.19746734,0.37664524,-0.45716268,-2.2249203,-1.3060967,2.4976516,1.6510321,-0.99622995,0.4331785,-0.38915813,-2.1678762,-1.2420105,2.5409026,1.6078306,-0.9753398,-1.1820294,-1.4787358,-1.2422194,-1.3952026,-0.68414146,0.34469154,0.102918066,-0.117762566,-0.3949871,1.000672,-3.0573204,0.23900074,-4.08002,-0.17925835,-0.4405346,0.90920377,0.97254115,-0.004600891,0.15436356,0.17411019,-1.4465268,-0.4281601,-1.206542,1.0,0.0,0.0,0.0,0.0,0.0,0.0,-0.5322374,-0.0050128996,-0.45067197,-2.1879435,-0.64549446,-2.643752,1.6167879,-2.6638865,-0.22518635,-4.5401797
-10.55308,34.757446,3.3929377,21.461353,1.4853463,1.0268532,-0.21537146,-0.6922448,-0.83565325,-0.70406103,-0.7723481,-0.49904752,0.4545827,-0.29425684,0.36395404,-0.47272345,-2.2382824,-1.3192453,2.4909978,1.653289,-1.0047655,0.42115697,-0.40400493,-2.1804342,-1.2558597,2.5339293,1.6112562,-0.9746903,-1.2071862,-1.4871716,-1.2622364,-1.3801973,-0.7021735,0.34170023,0.052638873,-0.14831257,-0.3925991,0.95915794,-3.0542636,0.23876178,-4.175192,-0.19383717,-0.44451332,0.8970046,0.97458667,0.0069637075,0.14923227,0.16691889,-1.459493,-0.37037832,-1.232815,1.0,0.0,0.0,0.0,0.0,0.0,0.0,-0.5016874,-0.0074009,-0.40915793,-2.0100594,-0.9926796,-2.5341034,1.8979073,-1.8866658,-0.3225267,-4.921174
-10.268538,37.379658,4.272664,21.849842,1.4982808,1.1522295,-0.19788066,-0.70424795,-0.8353302,-0.7104464,-0.7580681,-0.49799976,0.46392614,-0.3298363,0.35073218,-0.48753795,-2.251479,-1.3316666,2.4841294,1.6576488,-1.007674,0.40889558,-0.4189223,-2.1931677,-1.2695221,2.5268302,1.6146609,-0.9745215,-1.2309492,-1.4937456,-1.278534,-1.3603668,-0.7124061,0.34003562,0.0052829017,-0.17883205,-0.390213,0.9166929,-3.05121,0.23852307,-4.2702684,-0.20852852,-0.44789696,0.88456833,0.97648907,0.018481582,0.14393201,0.15940851,-1.4693321,-0.30963352,-1.2554295,0.0,1.0,0.0,0.0,0.0,0.0,0.0,-0.47116792,-0.009786993,-0.3666929,-1.9202709,-0.8023739,-2.1125555,2.3644447,-1.1055231,-0.1829505,-4.6207285
-8.629702,40.964775,5.893078,21.938484,1.2762315,1.2748828,-0.16533566,-0.70241827,-0.8336872,-0.7241499,-0.74015003,-0.55723286,0.48839962,-0.36683062,0.33865374,-0.502291,-2.2655826,-1.3435371,2.471107,1.6635008,-1.0112046,0.39662197,-0.4338899,-2.2065663,-1.283308,2.5200465,1.6199788,-0.97458524,-1.2040957,-1.4999964,-1.4274102,-1.4330403,-0.6089262,0.84573853,0.005654888,-0.20179176,-0.3888893,0.8932284,-1.1318676,0.027394911,1.0088857,-0.22330666,-0.45044136,0.87172514,0.97820014,0.02924484,0.13864785,0.15180896,-1.484036,-0.18925577,-1.3302981,0.0,1.0,0.0,0.0,0.0,0.0,0.0,-0.4482082,-0.011110693,-0.3432284,7.1928263,-1.1042118,-28.47972,-16.755367,23.451292,101.0056,4.600274
81.33511,176.0,110.0,110.0,-0.52569956,13.688104,-0.17239451,-0.79827076,0.23643175,0.6507028,0.7373691,-0.5585396,0.6700542,-0.41593617,0.3167949,-0.41024673,-2.141496,-1.2095711,2.4641924,1.6869842,-1.0161788,0.384823,-0.45062664,-2.210025,-1.2888451,2.5094388,1.63573,-0.97896516,-1.1478633,-1.6762149,-0.07710146,-0.28508055,-1.1525699,1.8003618,-0.5414116,-0.21219158,-0.38859367,0.90562165,-1.1307361,0.027367521,0.9086261,-0.2350235,-0.45002747,0.8621426,0.979285,0.030090878,0.13760608,0.14546458,-1.0610625,0.13266519,-0.83692056,1.0,0.0,0.0,0.0,0.0,0.0,0.0,-0.4378084,-0.011406332,-0.35562164,13.774061,-1.1072397,104.647736,105.270706,-34.572636,100.720406,-41.30478
-4.1849947,176.0,48.715977,110.0,5.092662,6.7368584,-1.1944475,-0.7879137,-0.63907605,-0.11696669,0.7630556,-0.67526424,0.6966682,-0.29378897,0.3060316,-0.51453424,-2.2217216,-1.2125396,2.4419124,1.7053969,-1.008344,0.3724486,-0.46639898,-2.2072861,-1.2852306,2.4977658,1.6538174,-0.98493993,-1.2620223,-1.5433475,0.38479653,0.57781285,-1.171894,1.8212206,-0.61264586,-0.22348976,-0.38831902,0.91395664,-1.1296055,0.027340159,0.80846643,-0.24497509,-0.44714165,0.856976,0.9801485,0.024641585,0.13958094,0.13863185,-0.96823174,0.35062572,-0.41392824,1.0,0.0,0.0,0.0,0.0,0.0,0.0,-0.4265102,-0.01168099,-0.36395663,-9.8345995,13.557792,44.2851,86.57032,-1.7851114,4.9952984,-6.0761333
-25.598522,141.04279,23.896187,90.85624,4.757961,3.7384136,-1.309552,-0.74693614,-0.58424896,-0.21953844,0.68547755,-0.72822845,0.6755746,0.24763896,0.29775497,-0.5248239,-2.22924,-1.2166829,2.424943,1.7213749,-0.96017605,0.35949484,-0.4801748,-2.203647,-1.2747536,2.4861119,1.6709778,-0.99038637,-1.3018112,-1.3221797,0.35130835,1.2064642,-1.1618296,1.6876837,-0.52009946,-0.2347765,-0.38804436,0.92129076,-1.1284761,0.027312825,0.7084069,-0.25457096,-0.44252014,0.8550918,0.980874,0.016549345,0.14365739,0.13028733,-0.95452565,0.50654656,-0.1170537,1.0,0.0,0.0,0.0,0.0,0.0,0.0,-0.41522348,-0.011955649,-0.37129074,-2.573967,22.167158,-5.0776243,63.511024,1.4315605,-11.389685,9.820545
-14.142147,109.60958,20.109877,62.474247,2.985514,1.7992382,-0.61534816,-0.7102935,-0.60073364,0.080355704,0.7612737,-0.71818155,0.6782605,0.2662586,0.2884655,-0.54024816,-2.1956112,-1.1986262,2.4142938,1.7388039,-0.9637605,0.34643522,-0.49207667,-2.2005227,-1.260046,2.4747975,1.6865208,-0.99473894,-1.3047589,-1.1465473,0.2958035,1.5604337,-1.1204418,1.5136648,-0.40611768,-0.2460537,-0.3877697,0.9276221,-1.127348,0.027285518,0.60805374,-0.2639532,-0.4368477,0.8552706,0.9813808,0.007577791,0.14906187,0.12089144,-0.9315656,0.5941213,0.0580822,1.0,0.0,0.0,0.0,0.0,0.0,0.0,-0.40394628,-0.012230307,-0.37762207,0.491786,17.465782,-6.535143,35.870766,4.306078,-16.234184,11.671156
-4.1993303,67.15801,13.13188,32.713043,1.3068525,0.03733313,0.029375639,-0.6816597,-0.63587415,0.1078345,0.738081,-0.7311068,0.6873173,0.3218569,0.27826923,-0.55566406,-2.1897392,-1.1862379,2.401687,1.7552526,-0.96255326,0.33360448,-0.5029114,-2.1980317,-1.2437229,2.4638493,1.7004006,-0.9979757,-1.2750268,-1.0627959,0.23251048,1.6571416,-1.0866348,1.3479291,-0.2960688,-0.25731945,-0.38749886,0.9329506,-1.1262208,0.027258238,0.50780094,-0.2731428,-0.43081474,0.8562377,0.98164904,-0.0010980304,0.15489107,0.11123266,-0.9131218,0.6136472,0.104474574,1.0,0.0,0.0,0.0,0.0,0.0,0.0,-0.39268053,-0.01250115,-0.3829506,3.2114506,8.273911,-6.661153,9.889197,3.3565044,-15.963054,11.060363
1.9626384,38.366947,8.085049,14.201944,0.30994934,-1.0203618,0.38893935,-0.64750737,-0.63847256,0.063341685,0.73590297,-0.7325118,0.65573865,0.3407833,0.26885375,-0.56675863,-2.1916976,-1.1701326,2.390598,1.7659744,-0.96389735,0.3212439,-0.51341134,-2.1962273,-1.22756,2.4531567,1.7127545,-1.000218,-1.2232591,-1.0459018,0.16305198,1.6027496,-1.0638596,1.1989974,-0.2005173,-0.26857376,-0.387228,0.93727744,-1.1250948,0.027230985,0.40764832,-0.2822113,-0.42490578,0.85707647,0.9817251,-0.008750705,0.16052023,0.10184476,-0.9027086,0.58967453,0.07196557,1.0,0.0,0.0,0.0,0.0,0.0,0.0,-0.38142622,-0.012771994,-0.38727742,5.113983,1.6240358,-6.9169908,-5.3872824,2.155161,-14.5524025,9.5039215
-3.3706803,14.320275,-0.7325231,5.6324816,0.30333844,-1.65606,0.35767135,-0.63337076,-0.6552551,-0.06577525,0.7316436,-0.7301734,0.645398,0.34090865,0.25790682,-0.5789369,-2.2028048,-1.1543957,2.3801394,1.7772943,-0.96612716,0.3094069,-0.5240992,-2.1955597,-1.2123852,2.4426281,1.723779,-1.0016218,-1.1706918,-1.0764583,0.03453332,1.489229,-1.0492396,1.0707821,-0.120590486,-0.27981663,-0.38695717,0.94060344,-1.1239699,0.027203761,0.30759585,-0.2914219,-0.41936684,0.8572339,0.98170096,-0.014954304,0.16563173,0.092767216,-0.9249271,0.5481778,-0.0076105944,1.0,0.0,0.0,0.0,0.0,0.0,0.0,-0.37018335,-0.013042837,-0.39060342,5.1915407,-3.081894,-12.876275,-11.292696,1.45545,-12.638211,7.9456134
-9.236439,1.1308331,-7.0318913,3.60809,0.5312157,-1.9480267,0.18742973,-0.58447653,-0.67478704,-0.22882144,0.7371346,-0.73170006,0.64807487,0.33121684,0.25095925,-0.5915779,-2.218442,-1.1386718,2.3694582,1.7885865,-0.96850014,0.29820457,-0.53527147,-2.196769,-1.1982746,2.4321911,1.7336781,-1.0023371,-1.1034371,-1.1308409,-0.17293571,1.3855845,-1.0411512,0.9632528,-0.055395484,-0.29104805,-0.38668633,0.9429297,-1.1228462,0.027176563,0.20764342,-0.3010502,-0.41427612,0.85645366,0.9816522,-0.019505477,0.17017925,0.08377051,-0.9730228,0.5026571,-0.10550743,1.0,0.0,0.0,0.0,0.0,0.0,0.0,-0.35895193,-0.013313681,-0.39292967,6.7188025,-5.4542065,-20.880205,-10.222006,0.9255886,-10.66947,6.493804
-22.368597,-10.252537,-15.703851,5.2552176,1.1512977,-2.022522,-0.119747944,-0.5833683,-0.70109564,-0.4403637,0.72298527,-0.7381703,0.6607248,0.36503303,0.23986775,-0.605381,-2.2408054,-1.1259761,2.358374,1.7997506,-0.9658338,0.28755298,-0.54706174,-2.2007592,-1.1849976,2.4217923,1.7426484,-1.0024611,-1.0517201,-1.1951683,-0.47589177,1.3094046,-1.0381409,0.87502587,0.0018884935,-0.30226803,-0.38641548,0.94425714,-1.1217237,0.027149392,0.10779092,-0.31143093,-0.4095478,0.8546115,0.9816301,-0.022242086,0.17426802,0.07441971,-1.0571715,0.46881917,-0.21447724,1.0,0.0,0.0,0.0,0.0,0.0,0.0,-0.34773195,-0.013584524,-0.39425713,5.374694,-6.4558506,-30.736816,-7.303405,0.6273985,-8.802485,5.7505603
-19.89099,-4.404827,-13.134488,6.8364162,1.0107594,-1.8001454,-0.12812717,-0.5250634,-0.71742606,-0.5488305,0.70966464,-0.7413982,0.67926013,0.3694954,0.23504664,-0.61880434,-2.2556422,-1.1140311,2.3476524,1.8105744,-0.96551156,0.27752462,-0.55944616,-2.2077935,-1.1722641,2.4113934,1.7508671,-1.0020834,-0.98589194,-1.2531356,-0.78023046,1.2625548,-1.0395664,0.8041053,0.049749088,-0.31347656,-0.38614464,0.9445868,-1.1206021,0.027122248,0.008038247,-0.32257366,-0.4051094,0.8517543,0.98162585,-0.023231238,0.1780412,0.06459244,-1.1298665,0.44082424,-0.31361365,1.0,0.0,0.0,0.0,0.0,0.0,0.0,-0.3365234,-0.013855368,-0.3945868,6.774807,-5.8579206,-30.806314,-4.330373,0.12404919,-7.10814,4.7844048
-23.997639,1.2752559,-12.596731,10.42944,1.3044957,-1.3962355,-0.18852945,-0.5531963,-0.7399622,-0.6474174,0.6927867,-0.7299936,0.67165375,0.4021525,0.22220498,-0.6334424,-2.2725353,-1.1029854,2.3383942,1.8180325,-0.96186817,0.26788393,-0.572357,-2.2176049,-1.1598549,2.401006,1.7584679,-1.0012633,-0.9557509,-1.3040091,-1.049641,1.2351551,-1.0377609,0.7453885,0.09274285,-0.32467365,-0.3858738,0.9439198,-1.1194818,0.027095132,-0.091614686,-0.33444214,-0.40080833,0.8480053,0.98161644,-0.022651507,0.18158682,0.054241642,-1.2019154,0.43244183,-0.39983857,1.0,0.0,0.0,0.0,0.0,0.0,0.0,-0.32532632,-0.014126211,-0.39391977,3.3239484,-5.1927567,-27.395332,-2.303028,0.4189253,-5.8969975,4.3111935
-16.753712,19.400545,-4.3839464,14.18792,1.0775678,-0.8385919,-0.08213835,-0.52520615,-0.74045897,-0.68090683,0.7050845,-0.7388728,0.67827886,0.3743985,0.21536331,-0.6464029,-2.2856956,-1.0893464,2.3271186,1.8262959,-0.96382344,0.25850692,-0.5856245,-2.2294571,-1.1475239,2.3905995,1.7655671,-1.0000883,-0.9309864,-1.3348099,-1.2310137,1.2337276,-1.041504,0.6981681,0.12550135,-0.3358593,-0.38560295,0.9422569,-1.1183625,0.027068041,-0.191168,-0.3467865,-0.39650917,0.8436146,0.981548,-0.020854982,0.18502682,0.043514628,-1.2403424,0.4358101,-0.45694283,1.0,0.0,0.0,0.0,0.0,0.0,0.0,-0.31414068,-0.014397055,-0.39225692,2.681148,-3.2258987,-18.352295,0.22001266,-0.33752918,-4.7207117,3.2419548
-1.4925497,32.7804,5.3594966,12.616146,0.40276015,-0.5776725,0.19550042,-0.45948935,-0.76093405,-0.6865401,0.6813436,-0.72902554,0.6638028,0.35484403,0.21255799,-0.6617179,-2.2981112,-1.0793896,2.317697,1.8319473,-0.9646039,0.24957097,-0.59915715,-2.2424004,-1.1352425,2.380174,1.7722485,-0.998651,-0.88133365,-1.3599193,-1.3147622,1.2269422,-1.0439768,0.6581283,0.14957248,-0.3470354,-0.3853321,0.9396077,-1.1172444,0.027040979,-0.28949854,-0.35921955,-0.39224625,0.8387718,0.98138267,-0.018221905,0.18835741,0.032823607,-1.2384325,0.42992955,-0.49840856,1.0,0.0,0.0,0.0,0.0,0.0,0.0,-0.30296457,-0.014667898,-0.38960767,4.9087763,-2.649951,-8.197403,-0.5025625,-0.44705868,-4.00815,2.3186655
19.425219,46.425804,16.608952,10.004627,-0.4939462,-0.5271299,0.5107826,-0.3423526,-0.7751137,-0.6880972,0.69002837,-0.72801584,0.64569694,0.35315666,0.2153357,-0.6766685,-2.3112102,-1.0662396,2.3073723,1.8368182,-0.96333534,0.24159348,-0.61291295,-2.255626,-1.1229782,2.369714,1.7785695,-0.9970145,-0.7712788,-1.3811562,-1.3231221,1.2258595,-1.0479258,0.62318206,0.16777767,-0.35820007,-0.38506126,0.9359759,-1.1161274,0.027013944,-0.38773078,-0.3712988,-0.38821602,0.8336315,0.981102,-0.015116847,0.19156031,0.022691067,-1.1918279,0.40031204,-0.52449316,1.0,0.0,0.0,0.0,0.0,0.0,0.0,-0.2917999,-0.014938742,-0.3859759,10.59128,-2.2373915,-0.1663208,-0.17864704,-0.8366585,-3.5127282,1.6617566
37.270752,56.6847,25.30336,7.5682783,-1.2358334,-0.58720726,0.73691803,-0.22786441,-0.7797425,-0.68275297,0.69480574,-0.72476506,0.6268186,0.335258,0.21880704,-0.6908872,-2.3239012,-1.0534977,2.2972374,1.8412514,-0.9634887,0.23512352,-0.6268318,-2.2686074,-1.1107006,2.3592198,1.7845681,-0.9952407,-0.6078508,-1.3958378,-1.286151,1.2275575,-1.0519562,0.5918863,0.17982915,-0.3693533,-0.38479042,0.93136257,-1.1150115,0.026986936,-0.48586482,-0.3826599,-0.3846588,0.8283143,0.98071104,-0.011823458,0.19463508,0.013538618,-1.1116953,0.3460783,-0.539322,1.0,0.0,0.0,0.0,0.0,0.0,0.0,-0.28064668,-0.015209585,-0.38136256,15.654146,-1.5650511,4.747534,-0.09469986,-1.035881,-3.1794548,0.98428726
50.48479,59.198936,30.024769,4.008794,-1.7779186,-0.84641474,0.89930654,-0.10958459,-0.79770774,-0.67108554,0.67292976,-0.7089775,0.5714354,0.31025127,0.22416505,-0.7066026,-2.335716,-1.0434077,2.288322,1.8417116,-0.9642156,0.23058307,-0.6409233,-2.2810776,-1.0985069,2.3487332,1.7902462,-0.99338865,-0.40560007,-1.4138653,-1.2298473,1.2152202,-1.0499167,0.5593383,0.18619813,-0.38049507,-0.38451958,0.9257554,-1.1138966,0.026959954,-0.5856582,-0.39309883,-0.3818283,0.82283103,0.980247,-0.008480707,0.1975137,0.0056609386,-1.0158474,0.2668835,-0.5564217,1.0,0.0,0.0,0.0,0.0,0.0,0.0,-0.2695049,-0.015480429,-0.37575537,19.380867,-1.892829,6.89795,-1.5946865,-0.5484581,-3.3806086,0.38677156
57.055447,60.23244,32.058983,2.7148,-1.9288917,-0.9979306,0.91908264,-0.0017244508,-0.80848867,-0.640571,0.6727698,-0.6895861,0.5262213,0.23461823,0.23041062,-0.7217722,-2.3451347,-1.03123,2.2797747,1.8428683,-0.96992683,0.22817314,-0.6552027,-2.2929032,-1.086443,2.3383305,1.7955945,-0.9915452,-0.18904446,-1.4330605,-1.1622723,1.2022384,-1.0398062,0.52607423,0.18296804,-0.3916254,-0.38424873,0.91915107,-1.112783,0.026933,-0.68535185,-0.40254593,-0.37986565,0.8171901,0.97975403,-0.0051919594,0.20013571,-0.0008392825,-0.9157272,0.17526886,-0.5717275,1.0,0.0,0.0,0.0,0.0,0.0,0.0,-0.25837457,-0.015751272,-0.36915106,20.77686,-2.023673,8.100915,-1.6671181,0.19574165,-3.5225987,-0.5721301
52.016933,64.3686,31.154657,6.738536,-1.4208153,-0.8197653,0.759618,0.047523856,-0.80340755,-0.57756925,0.69481415,-0.6830083,0.5413878,0.16903196,0.23292552,-0.73554343,-2.35066,-1.0169616,2.2700298,1.8497332,-0.974642,0.22765982,-0.66960794,-2.3038971,-1.074379,2.328046,1.8006566,-0.98979044,-0.007896156,-1.4433895,-1.0743396,1.2068914,-1.0273753,0.49879023,0.17226967,-0.4027443,-0.3839779,0.9115505,-1.1116704,0.026906073,-0.78494585,-0.4110403,-0.3787136,0.8114965,0.97925043,-0.0021104354,0.20255063,-0.00610238,-0.8228778,0.09682871,-0.57345307,1.0,0.0,0.0,0.0,0.0,0.0,0.0,-0.24725568,-0.016022116,-0.3615505,17.37061,-1.1725426,10.025644,0.18804073,0.42033195,-2.926308,-1.287818
39.286472,60.85831,25.769375,9.837519,-0.6826152,-0.7141026,0.5328454,0.07225205,-0.8124257,-0.5442513,0.6816945,-0.6561458,0.53379023,0.088753834,0.23488502,-0.7508505,-2.3583224,-1.0062095,2.2624316,1.8540356,-0.98091507,0.228526,-0.6841095,-2.3140404,-1.0622883,2.3179524,1.8054745,-0.9881997,0.116390325,-1.4529486,-0.99095875,1.2093401,-1.0054761,0.47556576,0.1541503,-0.4138527,-0.38371086,0.9029548,-1.1105589,0.026879173,-0.88444024,-0.41878605,-0.37817955,0.8057828,0.9787554,0.0007279933,0.20476381,-0.010435519,-0.7542474,0.039218415,-0.575435,1.0,0.0,0.0,0.0,0.0,0.0,0.0,-0.23614728,-0.016289145,-0.3529548,11.909397,-1.1128902,9.291065,0.11301041,1.4765978,-2.499354,-1.9708484
18.642887,50.256886,16.034117,11.974087,0.18920043,-0.6691573,0.25979647,0.048758168,-0.8259676,-0.5447276,0.6393294,-0.63324714,0.49541095,0.014081404,0.23340182,-0.7667063,-2.368513,-0.9983553,2.2546277,1.8550156,-0.98679155,0.2300421,-0.69873697,-2.3235924,-1.0503635,2.3081372,1.8100655,-0.98683405,0.16258453,-1.4664923,-0.94141316,1.187068,-0.97532195,0.4530587,0.13049315,-0.4249506,-0.38344383,0.8933649,-1.1094486,0.026852299,-0.9838351,-0.42613697,-0.37800407,0.7999368,0.9782937,0.0034993459,0.20670137,-0.0142657235,-0.72449803,0.009622036,-0.59228677,1.0,0.0,0.0,0.0,0.0,0.0,0.0,-0.22504938,-0.016556174,-0.3433649,4.3973236,-1.5043736,5.465758,-2.1834612,2.544725,-2.3719072,-2.4485826
3.0046616,46.853695,9.837826,15.351749,0.86342597,-0.5208914,0.0687092,0.03950272,-0.82443905,-0.5410577,0.63842577,-0.62221956,0.5083512,0.05886333,0.23399237,-0.78118086,-2.3776982,-0.98652095,2.2459152,1.8609006,-0.98094773,0.231624,-0.7134674,-2.3328698,-1.0386677,2.2986233,1.8144696,-0.9856515,0.1566515,-1.4756672,-0.9222666,1.1643943,-0.94439363,0.43592638,0.11401241,-0.43603706,-0.3831768,0.88278174,-1.1083393,0.026825452,-1.0831307,-0.43336678,-0.37794304,0.79389817,0.9778621,0.006366859,0.20838238,-0.017942522,-0.7187434,0.0046082977,-0.61227953,1.0,0.0,0.0,0.0,0.0,0.0,0.0,-0.21396291,-0.016823202,-0.33278173,-0.62159,-1.0634184,2.1347404,-2.114153,2.7939916,-1.7685294,-1.6872495
-9.714585,47.14448,5.8189077,19.124332,1.4935832,-0.32714102,-0.095163666,0.003926846,-0.8219089,-0.5212823,0.637216,-0.59293574,0.49313882,0.051358394,0.2320167,-0.7956583,-2.384998,-0.9749461,2.2393298,1.8637835,-0.98051566,0.23281634,-0.72824365,-2.342025,-1.0271568,2.2894528,1.8187172,-0.9846139,0.10714671,-1.478839,-0.9134787,1.1475306,-0.90844965,0.42104325,0.10028838,-0.44711208,-0.38290977,0.8712064,-1.1072311,0.026798632,-1.1823269,-0.44066525,-0.37775612,0.78768694,0.97744787,0.009386649,0.2098457,-0.02173367,-0.7295824,0.022316141,-0.6287064,1.0,0.0,0.0,0.0,0.0,0.0,0.0,-0.2028879,-0.017090231,-0.3212064,-4.8377843,-0.4615307,0.8967042,-1.4575243,3.40631,-1.485157,-1.3750567
-21.75903,43.79493,1.2564819,21.108751,1.952266,-0.22537425,-0.20718941,-0.054837137,-0.8315779,-0.5263295,0.61893016,-0.5841272,0.46729124,0.068698235,0.22733262,-0.8114014,-2.394658,-0.96526384,2.23104,1.8654463,-0.97774404,0.23322713,-0.7430704,-2.3511994,-1.0158348,2.2806103,1.822818,-0.98368025,0.019836463,-1.4844233,-0.919363,1.1280676,-0.87625957,0.40652084,0.09125326,-0.45817566,-0.38264275,0.85863984,-1.1061242,0.02677184,-1.2814239,-0.4482031,-0.37726402,0.78127605,0.97703993,0.012654783,0.21110322,-0.02584818,-0.75784266,0.058009822,-0.6497181,1.0,0.0,0.0,0.0,0.0,0.0,0.0,-0.19182432,-0.01735726,-0.30863982,-8.495886,-0.70011616,-0.76116323,-1.6357183,3.1474948,-1.4172077,-0.8684337
-8.011586,51.29253,7.3366694,19.24426,1.4787439,-0.21435788,-0.023042418,-0.0050138785,-0.82757497,-0.47708407,0.6156643,-0.54126996,0.4761798,0.12291927,0.23272574,-0.8258279,-2.398908,-0.9542684,2.2264833,1.8704361,-0.97138834,0.23309243,-0.75792295,-2.3602211,-1.0046806,2.2721379,1.826793,-0.98278284,-0.02429562,-1.4859513,-0.8961194,1.1120299,-0.83815974,0.39456964,0.08930202,-0.4692278,-0.38237572,0.84508306,-1.1050183,0.026745073,-1.380422,-0.45584488,-0.37654114,0.77472,0.9766425,0.01604912,0.21214628,-0.03009549,-0.7622439,0.07705826,-0.6618117,1.0,0.0,0.0,0.0,0.0,0.0,0.0,-0.18077219,-0.017624289,-0.29508305,-4.3377705,-0.2991438,2.4132729,-1.3942242,3.576517,-1.2122571,-0.19977093
-15.166434,51.0541,4.960545,20.62095,1.7063243,-0.1287393,-0.08303304,-0.08557823,-0.8246939,-0.4932017,0.59644157,-0.53895026,0.4485906,0.13210936,0.2245346,-0.84039235,-2.4095414,-0.9450365,2.218243,1.871652,-0.9695719,0.23234737,-0.7727631,-2.3690865,-0.99372464,2.2639859,1.8306458,-0.9818864,-0.09078159,-1.4839046,-0.8832948,1.0909923,-0.8077164,0.3821147,0.08986523,-0.4802704,-0.3821087,0.8305371,-1.1039134,0.026718333,-1.479321,-0.46359062,-0.37555122,0.76803166,0.97624713,0.019587278,0.213,-0.034478426,-0.7744233,0.106505424,-0.6754161,1.0,0.0,0.0,0.0,0.0,0.0,0.0,-0.16972959,-0.017891318,-0.28053707,-6.508757,0.058865547,1.2700915,-1.8538237,2.871716,-1.2434363,0.06531179
1.7758901,54.27604,10.525743,16.459291,0.98255587,-0.29391083,0.13189994,-0.0207431,-0.82929516,-0.47616187,0.58370763,-0.506403,0.42894146,0.18706332,0.23027305,-0.85569257,-2.4167027,-0.9353539,2.2133455,1.8735399,-0.96318007,0.23137558,-0.7875975,-2.3777726,-0.9829996,2.2561543,1.834369,-0.9809413,-0.09940686,-1.483794,-0.8625084,1.0667653,-0.7760419,0.368799,0.09594651,-0.49130154,-0.38184166,0.81500286,-1.1028098,0.026691621,-1.5781212,-0.47128773,-0.37447166,0.7612056,0.9758646,0.023228578,0.21364777,-0.03877169,-0.76391345,0.10917283,-0.6890936,0.0,1.0,0.0,0.0,0.0,0.0,0.0,-0.15869844,-0.018158346,-0.26500285,-0.89814365,-0.13084412,2.3312926,-2.283454,2.8524995,-1.3963163,0.5674258
3.8425777,55.28954,11.323123,15.980663,0.9495627,-0.28739986,0.1504522,-0.048156723,-0.8311068,-0.45218614,0.5697305,-0.47716564,0.4140281,0.16781057,0.2265599,-0.87070817,-2.4229913,-0.9260266,2.2084377,1.8757718,-0.96416026,0.23035342,-0.8024396,-2.386244,-0.9726041,2.2486854,1.8379222,-0.9799319,-0.10152716,-1.4838626,-0.86936814,1.006644,-0.68954676,0.3376184,0.10972047,-0.50169754,-0.38116264,0.8018634,-0.5967925,0.06233112,-0.111786634,-0.47887325,-0.37339783,0.7542181,0.97551537,0.026962468,0.21402487,-0.042850263,-0.7619512,0.10640427,-0.7148665,0.0,1.0,0.0,0.0,0.0,0.0,0.0,-0.14830244,-0.018837363,-0.25186336,-0.020109117,-0.010061264,-4.148853,-9.282565,13.545191,-4.9916325,2.2989974
-12.300152,81.39481,15.568588,31.125443,2.9623418,0.7960313,-0.16767508,-0.24287221,-0.8150558,-0.061236095,0.65612394,-0.42611083,0.4550252,-0.03795854,0.20606619,-0.88394517,-2.3923676,-0.9069917,2.2060742,1.8834248,-0.98372775,0.22846037,-0.817212,-2.3929312,-0.9622691,2.2421317,1.8412563,-0.9789563,-0.21819346,-1.4754468,-0.6014891,1.0429848,-0.6450713,0.3320735,0.09382699,-0.50766087,-0.38054085,0.7999942,-0.5961959,0.062268805,-0.21195407,-0.486413,-0.37189865,0.7475236,0.9752751,0.02997011,0.21387103,-0.046897635,-0.7468466,0.16568688,-0.6581664,0.0,1.0,0.0,0.0,0.0,0.0,0.0,-0.14233911,-0.019459158,-0.24999416,-11.553204,0.70381165,26.991808,3.801322,3.9983869,-0.4575312,-1.5059218
8.799489,74.51297,19.772192,21.11359,1.9841106,0.3812044,0.1412381,-0.14669023,-0.8315937,-0.043494977,0.5317169,-0.30463618,0.3802138,-0.003180039,0.21379134,-0.9003714,-2.3972807,-0.90909743,2.211668,1.8792776,-0.9792743,0.22585827,-0.8319739,-2.39691,-0.95207244,2.2363105,1.8444911,-0.97812086,-0.2742915,-1.4769,-0.32851908,1.0121189,-0.56291264,0.3206876,0.080339454,-0.51361847,-0.37991905,0.7971241,-0.59559983,0.062206548,-0.31202137,-0.4936762,-0.37008858,0.74123013,0.97518533,0.0318466,0.2131557,-0.050635193,-0.71568984,0.18710053,-0.62329733,0.0,1.0,0.0,0.0,0.0,0.0,0.0,-0.1363815,-0.020080954,-0.24712408,-5.627969,-0.2639532,27.65547,-3.0177593,7.69403,-1.1137068,-1.285027
-2.9188073,61.274548,12.416649,18.52424,2.0289533,0.12790644,0.052321672,-0.21991676,-0.8321063,-0.09467754,0.46417737,-0.20960803,0.32230705,0.014601093,0.2038666,-0.91518456,-2.4063778,-0.9056547,2.2153497,1.8767219,-0.9766607,0.22258598,-0.84677017,-2.3988822,-0.9424804,2.23142,1.8475925,-0.97740084,-0.34456,-1.4809606,-0.15307257,0.9420367,-0.46576777,0.3066143,0.06952574,-0.51957035,-0.37929726,0.7932541,-0.5950044,0.062144354,-0.41198862,-0.50081635,-0.3680191,0.7350613,0.9752791,0.032930143,0.21169896,-0.05412745,-0.7099208,0.21494532,-0.618154,0.0,1.0,0.0,0.0,0.0,0.0,0.0,-0.13042963,-0.02070275,-0.24325407,-6.934327,-0.5101919,17.598537,-6.8522334,9.457368,-1.3778269,-0.9733483
2.8162117,51.49068,9.673572,13.175196,1.1058899,-0.41759706,0.12775257,-0.15419744,-0.82809865,-0.1999549,0.45344573,-0.19294694,0.24736992,0.14907612,0.20716622,-0.92958003,-2.4188776,-0.8971358,2.2121253,1.8723295,-0.96249324,0.21910125,-0.8615922,-2.4003012,-0.9336036,2.2273993,1.8505031,-0.97667605,-0.34973866,-1.4828938,-0.13803878,0.87018627,-0.3814689,0.28586102,0.07360456,-0.52551556,-0.37867546,0.7883851,-0.5944095,0.062082224,-0.5118559,-0.50791645,-0.36587524,0.7287231,0.9755093,0.03383889,0.20960993,-0.05744706,-0.7073682,0.21599987,-0.6421785,1.0,0.0,0.0,0.0,0.0,0.0,0.0,-0.12448442,-0.021324545,-0.23838508,-0.50610304,-0.29876232,1.5775591,-7.0198655,8.276552,-2.1035492,0.4650727
-13.771579,52.827053,4.4595795,19.25717,1.5311213,-0.35813212,-0.1549641,-0.2179351,-0.8190771,-0.22862506,0.5177605,-0.2398646,0.2401383,0.09150984,0.19730774,-0.94349986,-2.4231637,-0.88182753,2.2034128,1.874517,-0.96752506,0.2154463,-0.87638175,-2.402239,-0.92498046,2.2238936,1.8532172,-0.9759417,-0.3703919,-1.4779798,-0.21300493,0.86059046,-0.3402113,0.26653162,0.07368427,-0.53145504,-0.37805367,0.7825182,-0.5938152,0.062020153,-0.61162335,-0.5151253,-0.3635769,0.72217244,0.9757555,0.03500192,0.20726903,-0.060954828,-0.7222161,0.23661143,-0.66244715,1.0,0.0,0.0,0.0,0.0,0.0,0.0,-0.118544936,-0.02194634,-0.2325182,-1.9632101,0.38673878,-7.6074543,-0.7054925,4.1537285,-1.934588,0.081439316
30.140514,61.96917,18.659672,10.166519,0.12908837,-0.626256,0.31718418,-0.05200706,-0.8265517,-0.061837263,0.45617202,-0.10479346,0.17240492,0.16099702,0.2102456,-0.95903695,-2.4084227,-0.87936324,2.2134142,1.8704578,-0.959842,0.2124036,-0.8911513,-2.4042609,-0.9165643,2.221002,1.8557025,-0.9751597,-0.2828606,-1.4769735,-0.19719982,0.83541125,-0.2733247,0.24240875,0.07950437,-0.5373888,-0.37743378,0.77565444,-0.5932215,0.061958145,-0.711291,-0.5220938,-0.3615303,0.7155059,0.976069,0.036125198,0.20461322,-0.06416995,-0.68522716,0.19601062,-0.6710746,1.0,0.0,0.0,0.0,0.0,0.0,0.0,-0.112611175,-0.02256623,-0.22565442,8.559853,-0.017523766,2.0574064,-2.4763584,6.311941,-2.484244,0.5392492
7.7101207,58.025105,11.891237,14.73321,1.0958273,-0.4597834,0.030239234,-0.16700552,-0.827022,-0.11732934,0.44016993,-0.020517047,0.13780156,0.022880495,0.19570304,-0.9738535,-2.4159937,-0.87254727,2.2189505,1.8694826,-0.97287166,0.20975,-0.90592086,-2.4062636,-0.90840274,2.2189345,1.8579437,-0.9744206,-0.25964305,-1.4773166,-0.20091626,0.81019205,-0.18516032,0.2177942,0.072154306,-0.54331684,-0.3768158,0.76779467,-0.59262836,0.0618962,-0.810859,-0.5289154,-0.35962677,0.70872974,0.9764674,0.03712792,0.2015274,-0.067228116,-0.6780426,0.19039509,-0.682825,1.0,0.0,0.0,0.0,0.0,0.0,0.0,-0.106683135,-0.02318421,-0.21779466,2.288729,-0.14452934,-0.19399524,-2.3725033,8.640605,-2.5115788,-0.69547
6.449198,53.033314,9.61108,12.361068,0.6639797,-0.60687125,0.11496125,-0.12893267,-0.8220976,-0.20372902,0.393912,-0.049845748,0.05619215,0.16299851,0.19685674,-0.9881306,-2.4266365,-0.8690115,2.21395,1.8635628,-0.95812076,0.2073465,-0.9206761,-2.4086897,-0.9006551,2.2175345,1.8599006,-0.97365576,-0.23403575,-1.4752742,-0.25607803,0.76342213,-0.12548178,0.18796313,0.077979475,-0.54923916,-0.37619781,0.75894,-0.59203583,0.061834317,-0.9103275,-0.5356798,-0.35782814,0.70171213,0.97692186,0.038320303,0.19805776,-0.07020117,-0.6726413,0.17810394,-0.7110373,1.0,0.0,0.0,0.0,0.0,0.0,0.0,-0.10076082,-0.023802191,-0.20893997,2.5300236,0.09491444,-5.376658,-4.516256,5.8385315,-3.0598938,0.6058961
-3.1285403,57.220753,8.679033,16.326984,1.3753606,-0.3757128,-0.0026334496,-0.16667585,-0.8193273,-0.14058591,0.39367706,0.06525578,-0.0049023405,0.17094131,0.19067891,-1.0026089,-2.4227483,-0.86128736,2.22406,1.8594104,-0.9565616,0.20492297,-0.935398,-2.411379,-0.893308,2.216905,1.861539,-0.97282034,-0.24500479,-1.4714622,-0.27327418,0.725672,-0.04248595,0.15564293,0.08555447,-0.5551548,-0.37557983,0.7490914,-0.5914439,0.061772496,-1.0096966,-0.54246235,-0.35598755,0.6945063,0.9774355,0.039634183,0.19414848,-0.07317942,-0.676428,0.18764059,-0.7267944,1.0,0.0,0.0,0.0,0.0,0.0,0.0,-0.094845176,-0.024420172,-0.19909137,-1.0643184,0.27594566,-1.6639292,-3.5892606,8.2062435,-3.289935,0.8182019
-1.8666148,59.69032,10.109662,16.504183,1.5111241,-0.28070673,0.0105358055,-0.16905661,-0.8242258,-0.082785815,0.36079225,0.122139625,-0.09579275,0.13271248,0.18801731,-1.0178206,-2.4196577,-0.85722876,2.229119,1.8519597,-0.95954907,0.20231324,-0.95010746,-2.4138587,-0.88638526,2.217134,1.8628169,-0.9719401,-0.26618588,-1.4711719,-0.23934661,0.68173087,0.044265967,0.1182735,0.089040674,-0.5610647,-0.37496185,0.73824984,-0.59085256,0.061710738,-1.1089662,-0.54926014,-0.35403252,0.6871883,0.9780325,0.0408658,0.18968908,-0.07615912,-0.6774657,0.1995096,-0.7363941,0.0,1.0,0.0,0.0,0.0,0.0,0.0,-0.088935256,-0.025038153,-0.18824983,-2.0825803,-0.07200241,3.4660668,-4.221213,8.553128,-3.7899585,0.4190266
1.3068397,52.791187,8.548587,12.096344,0.7721316,-0.45377818,0.1512165,-0.15021643,-0.82456213,-0.17298129,0.28648856,0.06629056,-0.14549686,0.20446266,0.1872916,-1.0325637,-2.4311569,-0.8577364,2.223763,1.8482672,-0.95149386,0.19958454,-0.96482456,-2.4163535,-0.8801444,2.2179008,1.8637153,-0.97097975,-0.27505437,-1.4722533,-0.25268936,0.60541344,0.08729203,0.080052204,0.09854257,-0.5669689,-0.37434387,0.72641635,-0.5902618,0.06164904,-1.2081367,-0.55603695,-0.35207558,0.6796087,0.9786954,0.04227301,0.18472528,-0.079024754,-0.6742556,0.19624183,-0.7681175,0.0,1.0,0.0,0.0,0.0,0.0,0.0,-0.08303106,-0.025656134,-0.17641634,-0.86782575,-0.20852089,-1.2715101,-7.4549317,4.2020216,-3.9102912,1.0039225
11.099972,60.292408,12.86701,12.098754,0.49084228,-0.3492347,0.25722227,-0.13358973,-0.820057,-0.08067089,0.2850651,0.051321086,-0.17229342,0.25716037,0.18622556,-1.0468303,-2.4244206,-0.8516379,2.223033,1.846486,-0.94526374,0.19689184,-0.979535,-2.4185965,-0.87456447,2.2188735,1.8642493,-0.9698916,-0.2674243,-1.4709116,-0.21470551,0.542553,0.09961324,0.044373304,0.11236905,-0.5728674,-0.3737278,0.7135919,-0.5896717,0.0615874,-1.307208,-0.56265926,-0.3502388,0.67181545,0.97941357,0.043813854,0.17936552,-0.08159244,-0.6541166,0.1812797,-0.7859931,0.0,1.0,0.0,0.0,0.0,0.0,0.0,-0.07713258,-0.026272207,-0.16359186,0.74095726,0.03809929,3.9584427,-6.1605573,1.0643691,-3.6402776,1.4068991
11.437473,66.20109,15.246238,14.14549,0.92472607,-0.11463919,0.22848156,-0.16769563,-0.82738173,0.051935565,0.25884935,0.12194343,-0.19153838,0.22279586,0.18012229,-1.0622731,-2.413403,-0.84867954,2.231068,1.8450955,-0.94761205,0.19414788,-0.9942635,-2.41984,-0.8695577,2.2200637,1.8644553,-0.9686976,-0.27671728,-1.4738007,-0.0935334,0.48710105,0.12506571,0.012434209,0.12185229,-0.5787592,-0.37311363,0.6997774,-0.5890821,0.061525825,-1.4061801,-0.5690584,-0.34848785,0.6639667,0.9802164,0.04511929,0.17354788,-0.08379287,-0.6317134,0.17507495,-0.7872524,0.0,1.0,0.0,0.0,0.0,0.0,0.0,-0.07124078,-0.026886374,-0.14977741,-0.9285867,-0.37693977,12.25526,-5.42745,2.3729026,-3.2322283,0.99776834
12.565979,58.41859,13.265408,9.781515,0.50360966,-0.23303437,0.32387727,-0.16314512,-0.82716054,0.0052561313,0.14250544,0.1447663,-0.19253314,0.2580014,0.17783338,-1.0769796,-2.4193144,-0.85530716,2.2345402,1.845202,-0.94289744,0.19133249,-1.0090176,-2.4203446,-0.8655862,2.2216399,1.8643318,-0.96738505,-0.28306326,-1.4762605,-0.036338106,0.3677168,0.17152876,-0.022685023,0.13487022,-0.5830803,-0.37304115,0.6913924,-0.35458794,-0.020185335,-0.6445708,-0.57526875,-0.3468628,0.6558796,0.9811281,0.046345226,0.16709131,-0.08555845,-0.6144472,0.16022345,-0.8185378,0.0,1.0,0.0,0.0,0.0,0.0,0.0,-0.066919684,-0.026958853,-0.14139241,-0.73866844,-0.40237904,8.27415,-10.274845,2.8452487,-2.855352,1.2292624
50.617054,87.14636,29.99807,10.867876,0.2260671,0.09793453,0.5425994,-0.04537282,-0.8024144,0.34238362,0.19525422,0.247716,-0.03535798,0.3041706,0.1867952,-1.089259,-2.3861063,-0.8460608,2.2464116,1.8607961,-0.93696797,0.18900505,-1.0236794,-2.4187615,-0.8623075,2.2238371,1.864061,-0.9659326,-0.21628018,-1.4630373,0.22417437,0.3144727,0.23473477,-0.028233059,0.1488153,-0.5866232,-0.37324333,0.6841994,-0.35423344,-0.020165153,-0.7442056,-0.5809183,-0.34563065,0.6480065,0.9822178,0.04659557,0.15999413,-0.086481094,-0.54488224,0.11248689,-0.779571,0.0,1.0,0.0,0.0,0.0,0.0,0.0,-0.063376784,-0.026756674,-0.13419938,6.587431,1.2449026,26.351965,-5.3319216,6.083062,-0.48706084,1.4117926
