Afshin1997/kuka_rl_ros2/src/catch_and_throw/input_files/idealpd/recorded_trajectories/env_184_data.csv
torque0,torque1,torque2,torque3,torque4,torque5,torque6,action0,action1,action2,action3,action4,action5,action6,set_target_0,set_target_1,set_target_2,set_target_3,set_target_4,set_target_5,set_target_6,joint_pos_0,joint_pos_1,joint_pos_2,joint_pos_3,joint_pos_4,joint_pos_5,joint_pos_6,joint_vel_0,joint_vel_1,joint_vel_2,joint_vel_3,joint_vel_4,joint_vel_5,joint_vel_6,tennisball_pos_0,tennisball_pos_1,tennisball_pos_2,tennisball_lin_vel_0,tennisball_lin_vel_1,tennisball_lin_vel_2,end_effector_pos_0,end_effector_pos_1,end_effector_pos_2,end_effector_rot_0,end_effector_rot_1,end_effector_rot_2,end_effector_rot_3,end_effector_lin_vel_0,end_effector_lin_vel_1,end_effector_lin_vel_2,obs_task_0,obs_task_1,obs_task_2,obs_task_3,obs_task_4,obs_task_5,obs_task_6,to_final_target_0,to_final_target_1,to_final_target_2,joint_acc_0,joint_acc_1,joint_acc_2,joint_acc_3,joint_acc_4,joint_acc_5,joint_acc_6
0.0,0.0,0.0,0.0,0.0,0.0,0.0,0.0,0.0,0.0,0.0,0.0,0.0,0.0,1.7802359,-1.0646509,-1.8151424,-1.1170107,1.9373155,1.1170107,-0.91629785,1.7802359,-1.0646509,-1.8151424,-1.1170107,1.9373155,1.1170107,-0.91629785,0.0,0.0,0.0,0.0,0.0,0.0,0.0,2.9219952,-0.44413757,0.43737364,-3.2738144,0.08733807,4.613083,0.5304146,-0.45449638,0.693097,0.5745483,0.17512383,0.15255436,0.7848268,0.0,0.0,0.0,1.0,0.0,0.0,0.0,0.0,0.0,0.0,-3.5719953,0.044137567,0.112626374,0.0,0.0,0.0,0.0,0.0,0.0,0.0
0.0,0.0,0.0,0.0,0.0,0.0,0.0,0.0,0.0,0.0,0.0,0.0,0.0,0.0,1.7802359,-1.0646509,-1.8151424,-1.1170107,1.9373155,1.1170107,-0.91629785,1.7802359,-1.0646509,-1.8151424,-1.1170107,1.9373155,1.1170107,-0.91629785,0.0,0.0,0.0,0.0,0.0,0.0,0.0,2.9219952,-0.44413757,0.43737364,-3.2738144,0.08733807,4.613083,0.5304146,-0.45449638,0.693097,0.5745483,0.17512383,0.15255436,0.7848268,0.0,0.0,0.0,1.0,0.0,0.0,0.0,0.0,0.0,0.0,-3.5719953,0.044137567,0.112626374,0.0,0.0,0.0,0.0,0.0,0.0,0.0
0.0,0.0,0.0,0.0,0.0,0.0,0.0,0.0,0.0,0.0,0.0,0.0,0.0,0.0,1.7802359,-1.0646509,-1.8151424,-1.1170107,1.9373155,1.1170107,-0.91629785,1.7802359,-1.0646509,-1.8151424,-1.1170107,1.9373155,1.1170107,-0.91629785,0.0,0.0,0.0,0.0,0.0,0.0,0.0,2.9219952,-0.44413757,0.43737364,-3.2738144,0.08733807,4.613083,0.5304146,-0.45449638,0.693097,0.5745483,0.17512383,0.15255436,0.7848268,0.0,0.0,0.0,1.0,0.0,0.0,0.0,0.0,0.0,0.0,-3.5719953,0.044137567,0.112626374,0.0,0.0,0.0,0.0,0.0,0.0,0.0
-176.0,85.34062,0.5379009,110.0,11.178717,5.399556,-3.7737741,-0.8283339,0.43880266,-0.5418628,0.7173231,0.4684367,0.6184735,-0.58286846,1.6974025,-1.0207707,-1.8693286,-1.0452784,1.9841591,1.178858,-0.9745847,1.7786223,-1.0620607,-1.8205612,-1.113257,1.9434285,1.1218802,-0.9184713,-0.21521302,0.34478122,-0.7216262,0.5006283,0.8140477,0.6473094,-0.28937438,2.8892803,-0.443264,0.4827334,-3.2705412,0.08725075,4.5102844,0.5282898,-0.45744514,0.6939789,0.5781899,0.17388508,0.15084507,0.7827555,-0.2829517,-0.3937818,0.11745294,1.0,0.0,0.0,0.0,0.0,0.0,0.0,-3.5392804,0.043264,0.06726661,-21.492525,34.285027,-71.92323,50.097637,81.12116,64.13877,-28.806868
-176.0,23.206543,-26.729656,110.0,12.516996,3.3654246,-3.5955768,-0.8179303,0.12233079,-0.5743892,0.6853934,0.5420766,0.6132751,-0.6095423,1.6968292,-1.0498276,-1.8780001,-1.0447177,1.9976362,1.1832076,-0.9794255,1.7760493,-1.0571398,-1.8350952,-1.1027628,1.9582391,1.1349589,-0.92244905,-0.269606,0.539541,-1.697701,1.2341162,1.7016038,1.5209733,-0.43041086,2.8565998,-0.44239235,0.52706593,-3.2672713,0.08716351,4.407589,0.52339745,-0.464983,0.69535756,0.58663046,0.17082721,0.14628358,0.77799994,-0.5598511,-0.8725684,0.14510633,1.0,0.0,0.0,0.0,0.0,0.0,0.0,-3.5066,0.042392343,0.02293408,-4.965198,18.914896,-97.652885,73.862526,88.25047,85.22398,-13.062972
-159.4666,129.87079,34.962036,96.73899,8.120146,8.098292,-2.116422,-0.77771395,0.42684212,-0.045639146,0.520257,0.55986476,0.65700513,-0.57761264,1.6982778,-1.0144556,-1.8396591,-1.0507371,2.0142255,1.2006594,-0.9802103,1.7701193,-1.0504755,-1.8507583,-1.0889612,1.9755845,1.1500269,-0.9269857,-0.70156497,0.705482,-1.5154063,1.4292516,1.741166,1.4937383,-0.4637198,2.8239517,-0.4415226,0.5703723,-3.2640047,0.08707636,4.304996,0.515604,-0.47511673,0.69848245,0.59806675,0.16625279,0.14045931,0.7713282,-0.859556,-1.054398,0.37244612,1.0,0.0,0.0,0.0,0.0,0.0,0.0,-3.4739518,0.041522592,-0.020372272,-43.42914,15.581476,20.328735,19.65251,2.6590824,-5.1710844,-4.0312767
-101.31135,137.6547,49.001133,65.21138,4.5587406,8.324207,-0.8285483,-0.7860193,0.3936438,-0.006182815,0.5369245,0.53737587,0.6345904,-0.5873049,1.6915174,-1.0111111,-1.8513767,-1.0352688,2.0293221,1.213486,-0.98571616,1.7600695,-1.0429071,-1.8620098,-1.074906,1.9914384,1.1639925,-0.93168825,-1.1077232,0.7714954,-0.9873837,1.3976511,1.5296746,1.359044,-0.47580442,2.791336,-0.44065285,0.6126535,-3.2607415,0.0869893,4.2025056,0.5053234,-0.48583412,0.7037807,0.6106931,0.16017666,0.13425028,0.7637894,-1.0951476,-1.0680009,0.5876483,1.0,0.0,0.0,0.0,0.0,0.0,0.0,-3.4413362,0.04065284,-0.06265348,-41.10794,5.828297,55.105495,-3.143239,-22.299194,-14.942956,-2.24365
-38.76949,150.24086,60.51873,37.093575,1.474884,7.7142906,0.1251845,-0.80347985,0.48573944,0.08605542,0.5171424,0.5991776,0.61353666,-0.57422423,1.6797215,-0.99433315,-1.8534042,-1.0231917,2.051356,1.2253462,-0.98911065,1.7467543,-1.0346903,-1.8672683,-1.0621363,2.004849,1.1764265,-0.9364423,-1.4078976,0.8364287,-0.36535734,1.2362283,1.2756804,1.2028623,-0.47865763,2.7587528,-0.4397831,0.6539106,-3.2574813,0.08690233,4.1001177,0.49332047,-0.4957447,0.71112126,0.6232528,0.15259299,0.12793176,0.7562438,-1.2473248,-0.9526983,0.7862466,1.0,0.0,0.0,0.0,0.0,0.0,0.0,-3.408753,0.03978309,-0.103910565,-30.569817,5.956495,64.19296,-16.29522,-26.176762,-16.243244,-1.3218224
3.3915815,141.4668,57.953953,18.461355,-0.37907982,5.8763056,0.45576027,-0.81576,0.54497355,0.12608758,0.5323334,0.6118538,0.61437833,-0.58395654,1.6651783,-0.9801929,-1.8546596,-1.0089029,2.0660343,1.2378644,-0.994838,1.7314688,-1.0257753,-1.8673084,-1.0509764,2.0160909,1.1874396,-0.9412021,-1.5701541,0.9086536,0.12084416,1.0752528,1.0724722,1.0671258,-0.47775522,2.726202,-0.43891335,0.69414455,-3.2542245,0.08681545,3.9978323,0.48037338,-0.50419617,0.7200873,0.6351604,0.1437884,0.12174411,0.74904907,-1.3204193,-0.7945868,0.93424636,1.0,0.0,0.0,0.0,0.0,0.0,0.0,-3.376202,0.03891334,-0.14414454,-16.639114,6.8754077,49.971676,-16.267467,-20.706081,-13.704777,-0.7046342
26.50283,131.52937,52.210392,8.699877,-1.3338382,4.174692,0.45222738,-0.82574403,0.6184043,0.15850835,0.5274903,0.6336676,0.6129817,-0.5746389,1.6488944,-0.9639349,-1.8514576,-0.99822736,2.0794575,1.2487377,-0.998666,1.7153765,-1.0159582,-1.8639324,-1.0411116,2.0258908,1.1972662,-0.9459304,-1.623143,1.0051799,0.4128186,0.9564956,0.9486981,0.95484614,-0.47330776,2.6936855,-0.4380474,0.7333565,-3.2509708,0.086728655,3.8956497,0.4670887,-0.5110512,0.7302234,0.6462971,0.13415626,0.11593259,0.7422006,-1.3386407,-0.6335015,1.0388399,1.0,0.0,0.0,0.0,0.0,0.0,0.0,-3.3436856,0.038047403,-0.18335646,-5.590987,9.414852,30.078756,-12.020672,-12.536133,-11.142659,-0.15496016
36.08338,115.81179,43.759903,3.4030795,-1.7020321,2.6815703,0.3498066,-0.82291174,0.66144603,0.18205826,0.5084122,0.6386042,0.62457097,-0.56700337,1.6330854,-0.9498136,-1.8457265,-0.9902704,2.0897512,1.2597233,-1.0026307,1.6992899,-1.0051531,-1.8589122,-1.0320994,2.0349317,1.2061335,-0.9506025,-1.6045722,1.104982,0.5337758,0.88224477,0.8887609,0.86462003,-0.46667504,2.6611996,-0.43718147,0.7715473,-3.2477205,0.08664194,3.793569,0.4538765,-0.51643753,0.74108964,0.6567337,0.124085516,0.11066822,0.7355652,-1.3218677,-0.49127725,1.1000216,1.0,0.0,0.0,0.0,0.0,0.0,0.0,-3.3111997,0.037181467,-0.2215473,1.6476154,9.822702,12.670177,-7.5614214,-6.041515,-8.836603,0.20433068
36.18782,100.57373,35.73259,1.7680559,-1.649633,1.6289835,0.22560707,-0.8144171,0.6985811,0.18487364,0.49174127,0.64573026,0.6247485,-0.55260336,1.6178482,-0.9352949,-1.8404249,-0.98292524,2.0995047,1.2686083,-1.0058628,1.6836439,-0.99340963,-1.8535755,-1.0235697,2.0436978,1.2142245,-0.9551963,-1.5519474,1.196987,0.53498113,0.8427884,0.87268347,0.7912937,-0.45813373,2.628748,-0.43631554,0.8087181,-3.2444735,0.08655531,3.6915905,0.44094086,-0.52059555,0.7523222,0.666602,0.1138911,0.10603019,0.7289912,-1.2888111,-0.37568697,1.1278242,1.0,0.0,0.0,0.0,0.0,0.0,0.0,-3.278748,0.03631553,-0.25871807,5.103731,9.099865,0.5006075,-4.0933847,-1.594913,-7.119131,0.49200654
32.4824,85.042496,28.592068,0.8617449,-1.4128759,0.91621864,0.18857943,-0.80525935,0.7146242,0.1868594,0.45797086,0.66172874,0.6329479,-0.54826516,1.603118,-0.92194724,-1.8348895,-0.9777726,2.1098707,1.2775192,-1.0100229,1.6685663,-0.9809289,-1.8486545,-1.01537,2.0525098,1.2216898,-0.95970434,-1.4935395,1.2648681,0.4788171,0.81168294,0.8846159,0.732362,-0.44938847,2.5963268,-0.4354496,0.84486985,-3.2412298,0.08646877,3.589714,0.4283676,-0.52379036,0.763623,0.67599255,0.10381111,0.10196891,0.7223985,-1.2502953,-0.28501913,1.1273638,1.0,0.0,0.0,0.0,0.0,0.0,0.0,-3.246327,0.035449594,-0.29486984,5.708146,6.7307234,-5.343437,-3.2964826,1.2391806,-5.6655884,0.5727291
27.768679,74.09947,23.995283,0.52631426,-1.1769032,0.59071606,0.21737117,-0.8036283,0.7280005,0.19655405,0.40887326,0.665283,0.6402207,-0.542954,1.5882035,-0.90812886,-1.8289992,-0.97448266,2.119038,1.2857119,-1.0139997,1.6539637,-0.96795225,-1.8443344,-1.007588,2.0615125,1.2286536,-0.96412843,-1.449492,1.308531,0.41730124,0.76644063,0.90585077,0.6851353,-0.44092005,2.56394,-0.43458557,0.88000363,-3.2379892,0.08638232,3.4879394,0.41616058,-0.52619743,0.77478623,0.6849278,0.09398443,0.09837576,0.7157954,-1.2131673,-0.21019423,1.1092224,1.0,0.0,0.0,0.0,0.0,0.0,0.0,-3.2139401,0.034585565,-0.33000362,4.2762756,4.3354273,-5.9123516,-4.74416,2.1866083,-4.4848084,0.5775988
24.619953,65.75336,20.712257,-0.55799675,-1.07215,0.36570346,0.288791,-0.8024496,0.7377744,0.18969935,0.34187788,0.6777141,0.64148206,-0.5400703,1.5737188,-0.8941748,-1.8253645,-0.97340024,2.129284,1.2928017,-1.0181354,1.6396586,-0.9546857,-1.8405502,-1.000487,2.0707555,1.2352129,-0.9684734,-1.4246842,1.3326993,0.3660414,0.6905604,0.9308694,0.64710295,-0.43319717,2.5315838,-0.43372345,0.91412044,-3.234752,0.08629596,3.3862665,0.40431404,-0.52791405,0.78565615,0.6933781,0.08450899,0.09515683,0.70924616,-1.1760402,-0.14409022,1.0761805,1.0,0.0,0.0,0.0,0.0,0.0,0.0,-3.181584,0.033723444,-0.36412042,2.3441076,2.4065495,-4.8888564,-7.839477,2.5731087,-3.535366,0.523746
26.322666,64.72383,20.826952,-2.3500137,-1.2012069,0.34653866,0.41095605,-0.79496545,0.75405,0.20500188,0.26475757,0.6795599,0.64639235,-0.52964765,1.5601621,-0.8792807,-1.82005,-0.9740112,2.1387115,1.2998521,-1.0214381,1.6255118,-0.9412303,-1.8370502,-0.9943968,2.080216,1.24145,-0.972743,-1.4119263,1.3497734,0.3456799,0.58102626,0.9512848,0.6169449,-0.4256343,2.4992619,-0.43286133,0.9472212,-3.2315178,0.086209685,3.2846951,0.39286995,-0.52893066,0.79617023,0.70126384,0.075404175,0.09225138,0.7028747,-1.1346396,-0.07324957,1.0398163,1.0,0.0,0.0,0.0,0.0,0.0,0.0,-3.149262,0.032861322,-0.3972212,1.1286497,1.7065287,-1.7692089,-11.212481,2.1120906,-2.7130842,0.5095899
29.154778,64.70621,21.161343,-4.274586,-1.4007496,0.27038428,0.5112932,-0.7872888,0.7679626,0.20639786,0.18198924,0.68496287,0.6430654,-0.51450217,1.5467829,-0.86443406,-1.8164104,-0.9761979,2.1487122,1.3057564,-1.0241932,1.6114489,-0.9276147,-1.8336055,-0.9896103,2.089848,1.2474276,-0.9769334,-1.4047884,1.3655208,0.34496814,0.44363934,0.9672436,0.59255725,-0.41762167,2.4669704,-0.4319992,0.97930706,-3.228287,0.08612349,3.1832254,0.38188362,-0.5291939,0.8063007,0.7085038,0.066671416,0.08964265,0.69680804,-1.085854,0.002744039,1.0006423,1.0,0.0,0.0,0.0,0.0,0.0,0.0,-3.1169705,0.0319992,-0.42930704,0.5662203,1.5865803,0.19726157,-13.993645,1.6771913,-2.0930767,0.56475997
31.187292,61.020546,19.767546,-6.9814277,-1.652581,0.009809852,0.5929228,-0.7904705,0.77190495,0.19613983,0.06838595,0.6849443,0.64551795,-0.5034059,1.5324018,-0.8504242,-1.8139915,-0.9827717,2.1583424,1.3119794,-1.027274,1.5974032,-0.91387224,-1.8301437,-0.9864651,2.0995946,1.2532011,-0.98104185,-1.4051249,1.3773249,0.34753627,0.2706314,0.977239,0.5735823,-0.40934193,2.4347115,-0.43113708,1.010379,-3.2250593,0.08603738,3.081857,0.37145424,-0.5286808,0.8159534,0.7150334,0.058380794,0.08737212,0.69114757,-1.0268184,0.079649754,0.94995815,1.0,0.0,0.0,0.0,0.0,0.0,0.0,-3.0847116,0.031137079,-0.46037894,-0.17588139,1.212573,0.49946308,-17.556358,1.0938287,-1.4876246,0.61977506
39.05462,59.53842,19.962269,-12.670881,-2.1895316,-0.28221253,0.8043738,-0.7884537,0.7765805,0.22756183,-0.10140155,0.69532084,0.64388275,-0.50028926,1.5185578,-0.8362142,-1.8073875,-0.9966053,2.1691267,1.3175894,-1.0310708,1.5833422,-0.9000306,-1.826493,-0.98550284,2.1094327,1.2588164,-0.98507303,-1.4069833,1.3866639,0.37147862,0.037276655,0.9866983,0.5591266,-0.401684,2.402485,-0.43027878,1.0404379,-3.221835,0.085951366,2.98059,0.361763,-0.5273094,0.82500833,0.7207052,0.05063646,0.08547459,0.686086,-0.9478922,0.16765106,0.88687986,1.0,0.0,0.0,0.0,0.0,0.0,0.0,-3.052485,0.030278772,-0.49043792,-0.3127575,0.98831654,2.6165962,-23.577496,1.0518074,-0.9321213,0.58324337
46.813236,59.252083,20.727732,-17.26424,-2.6367927,-0.5406469,0.9808494,-0.7774945,0.7790199,0.26650682,-0.25654474,0.69462234,0.6369936,-0.4961195,1.5055927,-0.82212865,-1.7998424,-1.0111573,2.178895,1.3225157,-1.034685,1.5693098,-0.88611555,-1.8224304,-0.9871689,2.119347,1.2643076,-0.98903173,-1.4021238,1.3933381,0.41840842,-0.23512994,0.99304146,0.5476569,-0.3944842,2.3702908,-0.42942047,1.0694851,-3.2186136,0.08586544,2.8794243,0.3529873,-0.52498055,0.8333808,0.72537273,0.043514524,0.08396022,0.6818295,-0.8504439,0.26416045,0.8166096,1.0,0.0,0.0,0.0,0.0,0.0,0.0,-3.0202909,0.029420465,-0.51948506,0.4056692,0.7470608,4.8401413,-27.436876,0.77683926,-0.55367947,0.57549477
49.4948,60.508335,21.773548,-17.352652,-2.6428568,-0.614992,1.0181173,-0.7603879,0.7815223,0.30636805,-0.3607128,0.6980516,0.64067435,-0.4841451,1.493271,-0.8079633,-1.7917936,-1.0232402,2.1891522,1.3283751,-1.0374463,1.5554148,-0.8721471,-1.8177688,-0.99147,2.129315,1.2697035,-0.992917,-1.3853818,1.3983662,0.48229444,-0.49556753,0.9989002,0.538877,-0.38683754,2.338129,-0.42856216,1.0975213,-3.2153957,0.085779585,2.7783597,0.34521675,-0.52168846,0.841092,0.72900087,0.036987048,0.08279055,0.6784801,-0.7480306,0.3592431,0.7513952,1.0,0.0,0.0,0.0,0.0,0.0,0.0,-2.9881291,0.028562158,-0.5475213,1.6592026,0.60868263,6.4012766,-26.174051,0.79921484,-0.27632713,0.6661475
46.50543,65.643616,24.195786,-12.470327,-2.1912076,-0.32427165,0.9502542,-0.74992007,0.78702104,0.38269657,-0.4236554,0.7013574,0.63496,-0.4618127,1.4804227,-0.793445,-1.7794992,-1.0338355,2.1994507,1.3331995,-1.0390983,1.5417315,-0.85812044,-1.812226,-0.9979769,2.13934,1.2750174,-0.9967155,-1.3626059,1.4045256,0.5779257,-0.7026948,1.0050792,0.53079945,-0.3777423,2.3059978,-0.42770386,1.1245476,-3.212181,0.08569382,2.677396,0.33836937,-0.5174751,0.848316,0.73165864,0.03088151,0.08183389,0.67603636,-0.6582449,0.4488549,0.70772845,1.0,0.0,0.0,0.0,0.0,0.0,0.0,-2.955998,0.027703851,-0.5745476,2.311492,0.74834824,9.422278,-20.778381,0.9448767,-0.25424957,0.8472204
45.56482,69.45547,26.206646,-8.899103,-1.8855755,-0.15008065,0.8926737,-0.71799135,0.78984267,0.44603664,-0.4877955,0.70384187,0.62995166,-0.44122967,1.4699323,-0.7791362,-1.7676224,-1.0467565,2.2097242,1.3380126,-1.0408385,1.5283915,-0.8440318,-1.8055923,-1.0061618,2.1494298,1.2802569,-1.0004156,-1.3241771,1.4108478,0.6907316,-0.8572345,1.0117562,0.5234136,-0.3675097,2.273901,-0.42684746,1.150565,-3.2089696,0.08560815,2.5765336,0.33236122,-0.5123844,0.8552348,0.7334228,0.0250114,0.08096605,0.67447007,-0.5761541,0.53496444,0.68100417,1.0,0.0,0.0,0.0,0.0,0.0,0.0,-2.923901,0.026847452,-0.600565,3.926897,0.79140663,10.995399,-15.475523,1.0952473,-0.20059347,0.9837806
37.24423,68.74679,25.345825,-2.9623442,-1.3394072,-0.01960203,0.6961998,-0.7103191,0.7958673,0.4748932,-0.52040917,0.7022614,0.619873,-0.41039973,1.4573596,-0.76444507,-1.758103,-1.0582027,2.219656,1.3422441,-1.0414555,1.5154177,-0.82986593,-1.7979305,-1.0154659,2.1595693,1.2854201,-1.0039976,-1.2883445,1.4190462,0.7900998,-0.95491457,1.0165609,0.5155277,-0.35533765,2.2418346,-0.42599297,1.1755745,-3.2057612,0.08552256,2.4757717,0.3270378,-0.5065403,0.8619739,0.7344539,0.019254498,0.08014407,0.6736346,-0.5115132,0.6060261,0.6653744,1.0,0.0,0.0,0.0,0.0,0.0,0.0,-2.8918347,0.02599296,-0.6255745,3.6689043,0.9935379,9.589613,-9.786499,0.9449959,-0.31530857,1.1960447
30.494091,66.299095,23.80277,1.1561999,-0.969674,-0.0017697513,0.5322269,-0.6961685,0.80118036,0.50261337,-0.55242395,0.6976245,0.6144858,-0.38245457,1.4458009,-0.7497479,-1.7476691,-1.0707083,2.2293317,1.3468686,-1.042243,1.5027758,-0.81560946,-1.7894313,-1.0254565,2.1697316,1.290507,-1.0074499,-1.2557822,1.4284749,0.86845815,-1.0139852,1.0176691,0.50763404,-0.34173724,2.2098007,-0.42513847,1.1995772,-3.2025561,0.08543705,2.3751106,0.32226753,-0.5000782,0.8685906,0.7349177,0.013554703,0.07937786,0.67335826,-0.45888954,0.6643,0.6539296,1.0,0.0,0.0,0.0,0.0,0.0,0.0,-2.8598008,0.025138468,-0.6495772,3.3318996,1.1243105,7.474482,-5.9371114,0.5732775,-0.36747456,1.3488054
23.691809,63.44271,22.190737,5.445306,-0.5508886,0.032695353,0.37268063,-0.67966765,0.80461186,0.52839464,-0.5488598,0.69752336,0.60876596,-0.3415345,1.434809,-0.73514825,-1.7365918,-1.0803425,2.2394838,1.3513836,-1.0416033,1.490439,-0.8012624,-1.780299,-1.0357295,2.179894,1.2955157,-1.0107477,-1.2259367,1.4374069,0.92698634,-1.0319182,1.017253,0.49971086,-0.32577783,2.1777992,-0.42428398,1.2225741,-3.1993542,0.08535163,2.2745502,0.3179245,-0.49313545,0.875131,0.7349636,0.007867353,0.07867594,0.67348105,-0.4193622,0.7090345,0.6473185,1.0,0.0,0.0,0.0,0.0,0.0,0.0,-2.8277993,0.024283975,-0.6725741,3.0389786,1.0807514,5.4959416,-1.8496275,0.411582,-0.42316914,1.5835464
16.468483,57.43436,19.249533,8.60188,-0.15574539,-0.030550689,0.22930712,-0.6769936,0.80160236,0.53894824,-0.5511509,0.7035832,0.60925895,-0.3283154,1.4227397,-0.7211021,-1.7264041,-1.0908446,2.2502522,1.3564415,-1.0435792,1.4783274,-0.78686476,-1.7707489,-1.046014,2.190064,1.30045,-1.013891,-1.2063977,1.4412287,0.96330357,-1.0276486,1.0181707,0.492341,-0.31041697,2.1458282,-0.4234295,1.2445661,-3.1961555,0.0852663,2.1740904,0.31389046,-0.48586464,0.8815878,0.73473114,0.0021986074,0.078036495,0.6738514,-0.39129934,0.73797256,0.63807267,1.0,0.0,0.0,0.0,0.0,0.0,0.0,-2.7958283,0.023429483,-0.6945661,1.9720316,0.56381226,3.3251762,0.33073425,0.4999876,-0.4242301,1.5181303
9.899055,52.260162,16.579025,11.229866,0.1557594,-0.0770641,0.10573378,-0.6827314,0.80388737,0.54185593,-0.5481262,0.7029961,0.6080766,-0.3010289,1.4100542,-0.70647603,-1.7165632,-1.1008266,2.2603636,1.3612577,-1.0439938,1.4662997,-0.7724414,-1.7609851,-1.0561706,2.2002378,1.3053156,-1.016876,-1.2015711,1.4432349,0.9798896,-1.0119668,1.0184269,0.48542356,-0.29453775,2.1138916,-0.4225788,1.2655543,-3.19296,0.08518105,2.073731,0.31006432,-0.47839165,0.88793045,0.7343435,-0.0034176048,0.07748016,0.6743328,-0.373071,0.75412333,0.62578315,1.0,0.0,0.0,0.0,0.0,0.0,0.0,-2.7638917,0.022578806,-0.7155543,0.456357,0.3749609,1.4137506,1.4361382,0.39098263,-0.43148398,1.5683651
6.1606684,48.15204,14.610758,12.444974,0.31298226,-0.15119094,0.032398462,-0.6853512,0.8043515,0.54238653,-0.5449153,0.70158315,0.6108949,-0.28641167,1.3977646,-0.69200623,-1.7067465,-1.1106621,2.270396,1.3664051,-1.0455172,1.4542471,-0.75800943,-1.7511604,-1.0661517,2.2104077,1.3101202,-1.0197065,-1.206557,1.443686,0.98268604,-0.9941106,1.0175586,0.4795,-0.27939105,2.0819855,-0.42172813,1.2855395,-3.1897678,0.08509588,1.9734718,0.30638695,-0.47082138,0.8941232,0.7338836,-0.008943636,0.07703311,0.67483383,-0.3593757,0.76227564,0.60973865,1.0,0.0,0.0,0.0,0.0,0.0,0.0,-2.7319856,0.021728128,-0.7355395,-0.55470467,0.21188259,0.08460283,1.6303301,0.2436161,-0.36520958,1.4936805
7.0661387,46.872032,14.34572,11.757879,0.24150956,-0.24012884,0.05329667,-0.67812485,0.80498767,0.552091,-0.5477049,0.70022774,0.6082942,-0.26243693,1.3864347,-0.6775107,-1.6959512,-1.1209222,2.2804306,1.3709496,-1.0459502,1.4421564,-0.7435765,-1.7413185,-1.0760013,2.2205663,1.3148695,-1.0223844,-1.209931,1.443595,0.98420924,-0.98243815,1.0159023,0.47425583,-0.26407355,2.0501118,-0.42087746,1.3045229,-3.1865788,0.085010804,1.8733126,0.30286598,-0.46316528,0.90013766,0.7333561,-0.014352006,0.07671308,0.67535025,-0.3425104,0.77092683,0.5912622,1.0,0.0,0.0,0.0,0.0,0.0,0.0,-2.7001119,0.02087745,-0.75452286,-0.39024353,0.15394688,-0.029158592,1.0152817,0.15034676,-0.29976964,1.5105605
5.358655,44.894188,13.687115,12.624979,0.35492206,-0.24155647,0.039262537,-0.6885109,0.80172974,0.558899,-0.5342353,0.69930106,0.6099593,-0.22227307,1.3733053,-0.6634036,-1.6854286,-1.1294248,2.2904963,1.3758655,-1.0446117,1.4299895,-0.7291627,-1.7314441,-1.0857173,2.230702,1.319575,-1.0248945,-1.2190906,1.4411373,0.98806393,-0.96858627,1.0139177,0.46984786,-0.24693844,2.0182705,-0.42002678,1.3225056,-3.1833928,0.084925815,1.7732536,0.29948807,-0.45544052,0.9059683,0.7327681,-0.019644119,0.076512694,0.6758778,-0.3289313,0.7763564,0.5728761,1.0,0.0,0.0,0.0,0.0,0.0,0.0,-2.6682706,0.020026773,-0.7725056,-0.9849787,-0.085663795,0.2251029,1.2235641,0.11057854,-0.23500323,1.6898453
2.7292295,40.661285,11.804557,12.87202,0.45295,-0.3306592,0.010716345,-0.71066386,0.79612803,0.551162,-0.5430518,0.6984322,0.60863113,-0.20283084,1.3589231,-0.6495499,-1.676328,-1.1400225,2.3005452,1.3804381,-1.0451776,1.4176375,-0.71480036,-1.7215698,-1.0953723,2.2408185,1.3242384,-1.0272367,-1.2410294,1.4350436,0.98697805,-0.9650133,1.0115997,0.46584272,-0.22999674,1.9864597,-0.419178,1.3394884,-3.18021,0.0848409,1.6732947,0.29623032,-0.44770813,0.91157246,0.7321481,-0.024772177,0.07643721,0.67638946,-0.3175229,0.775642,0.54884803,1.0,0.0,0.0,0.0,0.0,0.0,0.0,-2.6364598,0.019178003,-0.7894884,-2.2898197,-0.45933723,-0.21959543,0.17950535,0.04608631,-0.21897554,1.6712666
2.0926242,38.735634,10.98901,12.63148,0.4455166,-0.40175954,-0.0017336532,-0.7255131,0.79609066,0.54805374,-0.55174035,0.70021224,0.61508787,-0.20597795,1.3450861,-0.6351913,-1.6667644,-1.1505463,2.3108397,1.3857472,-1.0478345,1.4050165,-0.7004943,-1.7117279,-1.1050674,2.250916,1.3288714,-1.0294282,-1.269711,1.4295357,0.98312515,-0.97155374,1.0104313,0.46297833,-0.21567802,1.9546814,-0.41833115,1.3554723,-3.1770306,0.08475608,1.5734357,0.29309273,-0.43999672,0.9169122,0.73151666,-0.029694345,0.07650806,0.6768664,-0.3053587,0.77321076,0.52156734,1.0,0.0,0.0,0.0,0.0,0.0,0.0,-2.6046815,0.01833114,-0.8054723,-2.9773712,-0.40643215,-0.4655242,-0.8328438,0.14021397,-0.11742711,1.4136612
5.468199,38.44882,11.166616,10.271084,0.19048059,-0.57335895,0.06308876,-0.72525924,0.7952247,0.54616255,-0.57838047,0.69685644,0.61248684,-0.19433212,1.3324906,-0.6209718,-1.6571116,-1.1629055,2.3206017,1.39012,-1.0488615,1.3921572,-0.68623495,-1.7019317,-1.1149684,2.2609982,1.3334776,-1.0314863,-1.2915019,1.4252479,0.978107,-0.9966707,1.0082779,0.4605965,-0.20250593,1.9229355,-0.41748428,1.3704584,-3.173854,0.08467134,1.4736766,0.29014778,-0.43227386,0.9219396,0.7308369,-0.034357082,0.07675627,0.6773517,-0.28344524,0.77505577,0.48900434,1.0,0.0,0.0,0.0,0.0,0.0,0.0,-2.5729356,0.017484277,-0.82045835,-2.2627354,-0.2884388,-0.5806446,-2.6694894,0.023388863,-0.0543952,1.3032883
5.971985,38.630886,11.733424,11.1243515,0.26875198,-0.5442464,0.074956045,-0.7290775,0.7894004,0.55561405,-0.5585836,0.6974929,0.6129561,-0.14632976,1.3192494,-0.6072949,-1.6463703,-1.1708268,2.3307476,1.3947732,-1.0461192,1.3791338,-0.6720309,-1.6921337,-1.1250163,2.2710652,1.3380648,-1.0333917,-1.3061867,1.4193468,0.97992784,-1.008006,1.00709,0.45866096,-0.18670806,1.8912201,-0.41663742,1.3844476,-3.170681,0.08458669,1.3740172,0.28740692,-0.42452812,0.9266789,0.73008597,-0.038790874,0.07715647,0.67787653,-0.2628584,0.776935,0.4613788,1.0,0.0,0.0,0.0,0.0,0.0,0.0,-2.5412202,0.016637415,-0.83444756,-1.544261,-0.44381618,0.08262396,-1.2907267,0.137043,-0.013488531,1.5606344
3.6312695,36.781097,11.081917,13.217039,0.4974249,-0.49243277,0.015106047,-0.74435604,0.783491,0.5502479,-0.5398361,0.69609916,0.62024176,-0.12456835,1.3046982,-0.5936818,-1.6371089,-1.1789999,2.340675,1.400089,-1.0458486,1.365954,-0.65790033,-1.6823318,-1.1350356,2.281117,1.3426405,-1.0351369,-1.3222704,1.411408,0.98007697,-1.0005946,1.0058209,0.4576032,-0.17067601,1.8595371,-0.41579056,1.397441,-3.167511,0.084502116,1.2744576,0.2848282,-0.41680145,0.93117553,0.7293036,-0.04304757,0.07766986,0.67840296,-0.24872406,0.77350837,0.43823385,1.0,0.0,0.0,0.0,0.0,0.0,0.0,-2.5095372,0.015790552,-0.847441,-1.7037868,-0.6454706,-0.076675415,0.565815,0.13341904,0.05108714,1.5781194
6.8978386,38.475555,12.240311,11.794282,0.2986313,-0.5697965,0.08999047,-0.73864776,0.78652984,0.55700356,-0.5620922,0.7002634,0.61170447,-0.080859505,1.2920892,-0.57924736,-1.6266315,-1.1912448,2.3511434,1.403811,-1.0432229,1.3526846,-0.64382124,-1.6724975,-1.1450454,2.2911725,1.347201,-1.0367048,-1.3287724,1.4073257,0.9842204,-1.0016985,1.0066824,0.45612252,-0.15236957,1.8278866,-0.4149475,1.4094396,-3.164344,0.08441763,1.1749973,0.28243828,-0.40906143,0.9354396,0.72845083,-0.04713152,0.078292,0.6789759,-0.22742364,0.77627957,0.41496482,1.0,0.0,0.0,0.0,0.0,0.0,0.0,-2.4778867,0.014947504,-0.85943955,-0.718379,-0.25753975,0.3064394,-0.26021004,0.34980774,0.0246346,1.810059
5.149683,37.920002,12.22204,13.744847,0.46233624,-0.4757435,0.06828402,-0.7522353,0.7834835,0.56231713,-0.5354075,0.6926515,0.62064356,0.013098087,1.277461,-0.5654729,-1.6162658,-1.1985861,2.3604376,1.4092654,-1.035395,1.3393255,-0.6297765,-1.6625984,-1.1549503,2.3012204,1.3517538,-1.038038,-1.338522,1.4039495,0.99162906,-0.98722905,1.0050702,0.4555086,-0.12694645,1.7962666,-0.41410446,1.4204443,-3.1611805,0.08433323,1.0756366,0.28021812,-0.40130424,0.93951285,0.7275249,-0.05108854,0.0790124,0.67959875,-0.21196428,0.77725875,0.39716864,1.0,0.0,0.0,0.0,0.0,0.0,0.0,-2.4462667,0.014104456,-0.87044424,-1.0661364,-0.18286705,0.6405592,1.2867689,0.11651516,0.09199977,2.5196166
4.9139657,35.570385,11.334745,13.280055,0.46873719,-0.56001675,0.08829867,-0.7611182,0.7767832,0.56089294,-0.5479396,0.6944442,0.62760824,0.06916849,1.2632138,-0.55209816,-1.6065091,-1.2097442,2.3706648,1.4145147,-1.0311211,1.3258501,-0.61578417,-1.6526382,-1.1647712,2.311257,1.3563067,-1.0390928,-1.3507012,1.3981271,0.99720937,-0.9809295,1.0038992,0.4557407,-0.0984161,1.764677,-0.4132614,1.430456,-3.15802,0.084248915,0.97637516,0.27816582,-0.3935547,0.9433807,0.7265175,-0.054903943,0.07982982,0.6802831,-0.19507349,0.77598596,0.37574115,1.0,0.0,0.0,0.0,0.0,0.0,0.0,-2.4146771,0.013261408,-0.88045603,-1.3107777,-0.4335165,0.477314,0.46949387,0.14331341,0.16983151,2.8298988
6.175189,34.680275,11.166975,12.051872,0.35076547,-0.6614884,0.13493516,-0.7639133,0.77408165,0.5665299,-0.5630047,0.69007075,0.62958217,0.119686745,1.2494588,-0.538376,-1.5959852,-1.2210717,2.380264,1.4192649,-1.027124,1.3122641,-0.60185385,-1.6426132,-1.1746265,2.3212667,1.3608633,-1.03985,-1.361353,1.3917762,1.0041047,-0.98758906,1.0010564,0.4563121,-0.06811045,1.7331219,-0.41241837,1.439476,-3.1548626,0.08416469,0.87721294,0.2763176,-0.38580322,0.94700515,0.72539634,-0.05853646,0.080766276,0.6810657,-0.17334841,0.7761869,0.35045663,1.0,0.0,0.0,0.0,0.0,0.0,0.0,-2.383122,0.0124183595,-0.889476,-1.144433,-0.4904747,0.6148577,-0.81357956,-0.03786087,0.20677447,3.0097008
7.3497677,33.926357,11.149107,11.175556,0.26778668,-0.7407513,0.17118007,-0.76434815,0.76845425,0.57516396,-0.570865,0.68548745,0.628492,0.15075304,1.2358292,-0.52500844,-1.5850968,-1.2317129,2.3898153,1.4237125,-1.0247747,1.2986017,-0.5879998,-1.6324947,-1.1846076,2.3312383,1.3654276,-1.0403097,-1.3680258,1.3837258,1.0142082,-1.0019853,0.9966373,0.45681095,-0.0386152,1.7015972,-0.41157722,1.4475051,-3.1517084,0.08408054,0.7781499,0.27471542,-0.3780403,0.95035964,0.7241264,-0.061960656,0.08182973,0.6819866,-0.147793,0.77759975,0.3228596,1.0,0.0,0.0,0.0,0.0,0.0,0.0,-2.3515973,0.011577219,-0.8975051,-0.7287741,-0.6621361,0.9304762,-1.5759945,-0.20214319,0.20253658,2.9289
6.7466393,32.851948,10.9865,12.030664,0.3672077,-0.71938425,0.17635587,-0.7690436,0.7624368,0.5836642,-0.5612989,0.6856756,0.632997,0.23128323,1.2216973,-0.5117561,-1.5741283,-1.2407376,2.3998058,1.4287273,-1.0171814,1.2848803,-0.5742383,-1.6222522,-1.1946784,2.3411717,1.3699995,-1.0404451,-1.3738049,1.3741044,1.0273412,-1.0092312,0.9931042,0.4576239,-0.005269432,1.6701031,-0.410738,1.4545443,-3.1485572,0.083996475,0.67918587,0.27334976,-0.37026787,0.95345616,0.7226963,-0.06518803,0.08300095,0.68306035,-0.12459882,0.77750695,0.29762807,1.0,0.0,0.0,0.0,0.0,0.0,0.0,-2.3201032,0.010737985,-0.9045443,-0.6439209,-0.81715584,1.2320757,-0.8640051,-0.10752678,0.22492409,3.3127892
5.895528,31.070599,10.398996,12.747883,0.45162904,-0.7261331,0.15554886,-0.7723577,0.75447756,0.5876123,-0.5592027,0.67611474,0.6352551,0.2650477,1.2076445,-0.49879053,-1.563491,-1.2505987,2.4087832,1.4335251,-1.0139403,1.2711054,-0.56059027,-1.6118839,-1.2047797,2.351048,1.3745791,-1.0402544,-1.3790293,1.3621719,1.0397136,-1.0108149,0.98679185,0.45844874,0.027237637,1.6386395,-0.40989876,1.4605945,-3.1454093,0.0839125,0.5803208,0.27219963,-0.3625145,0.9563074,0.7211191,-0.068233475,0.08426808,0.68427354,-0.10320876,0.7749516,0.27336258,1.0,0.0,0.0,0.0,0.0,0.0,0.0,-2.2886395,0.009898752,-0.9105945,-0.5929947,-1.0488987,1.1603355,-0.30326843,-0.3880024,0.2147615,3.2265186
6.601867,30.4744,10.484282,12.514227,0.4199987,-0.76338583,0.1874518,-0.7675278,0.7466242,0.5989935,-0.5659912,0.6671934,0.6329542,0.3303765,1.1943526,-0.48592785,-1.5519845,-1.2613789,2.4177673,1.4378744,-1.0072167,1.2573172,-0.5470748,-1.6013725,-1.214904,2.3608441,1.3791643,-1.0397222,-1.3790021,1.3485723,1.0547423,-1.013422,0.97797966,0.458951,0.06170925,1.6072102,-0.40905952,1.465657,-3.1422646,0.0838286,0.4815546,0.2712803,-0.35477638,0.958915,0.7193769,-0.07110013,0.0856277,0.6856453,-0.07990764,0.77335495,0.24896088,1.0,0.0,0.0,0.0,0.0,0.0,0.0,-2.2572103,0.009059519,-0.915657,-0.051689148,-1.2152195,1.4142513,-0.39744377,-0.63813925,0.18336177,3.4223518
6.7453127,30.367832,10.515143,12.958097,0.4104712,-0.78357124,0.17340532,-0.76128167,0.74628973,0.59467775,-0.5575426,0.6575634,0.63619816,0.38129008,1.1811891,-0.47244582,-1.5419047,-1.2706583,2.4266005,1.4427842,-1.0015932,1.2435709,-0.53366613,-1.5907638,-1.2250072,2.3705335,1.3837553,-1.0388429,-1.3731663,1.3387591,1.0626467,-1.0096428,0.96689874,0.45961657,0.096690945,1.5758114,-0.4082203,1.4697324,-3.139123,0.08374479,0.3828872,0.27060127,-0.34705544,0.9612912,0.71747124,-0.07380161,0.08709975,0.68716955,-0.055980396,0.7721813,0.22627395,1.0,0.0,0.0,0.0,0.0,0.0,0.0,-2.2258115,0.008220285,-0.9197324,0.5325556,-0.8342266,0.69983006,0.2449274,-0.86711645,0.19367933,3.4745007
6.0121098,26.266678,8.676635,11.966318,0.44729072,-0.9312332,0.17943116,-0.76228523,0.7273105,0.59208333,-0.58014244,0.64861065,0.6332155,0.41279706,1.1673424,-0.4609351,-1.5315554,-1.2830215,2.4353945,1.4470769,-0.9975632,1.2298838,-0.520411,-1.5801246,-1.2351714,2.3801045,1.3883501,-1.037626,-1.3673109,1.3216114,1.0640184,-1.0192049,0.95416266,0.45981717,0.1299767,1.5444431,-0.40738487,1.472822,-3.1359844,0.083661065,0.28431845,0.27017784,-0.33938408,0.96338797,0.7154064,-0.076279566,0.08868871,0.6888464,-0.029866584,0.7650568,0.19659062,1.0,0.0,0.0,0.0,0.0,0.0,0.0,-2.1944432,0.0073848665,-0.92282194,0.552392,-1.5788317,0.056147575,-1.0909319,-1.0646939,0.13799071,3.3007355
5.316826,24.150703,7.740255,11.837132,0.47854942,-0.98516357,0.16474883,-0.7621012,0.7187237,0.59179586,-0.5885524,0.63756526,0.6393596,0.43064898,1.1536736,-0.44853863,-1.5209451,-1.2940267,2.443861,1.4522861,-0.99456114,1.2162462,-0.50733995,-1.5694988,-1.2454768,2.3895345,1.3929507,-1.0360982,-1.3627886,1.3027865,1.0619078,-1.0347474,0.9398392,0.46043324,0.16016917,1.5131054,-0.40654945,1.4749266,-3.132849,0.08357742,0.18584825,0.27001953,-0.33180046,0.96516854,0.7131975,-0.07849073,0.09040553,0.6906629,-0.0035757786,0.7551895,0.16441046,1.0,0.0,0.0,0.0,0.0,0.0,0.0,-2.1631055,0.006549448,-0.9249266,0.42095184,-1.7514467,-0.2817154,-1.6880274,-1.2396693,0.16684532,2.9921174
3.8585765,21.056126,6.4088926,12.601492,0.6198255,-1.0122054,0.128389,-0.7545188,0.70292103,0.5812607,-0.5825829,0.61904186,0.64138806,0.46665993,1.1407944,-0.43704784,-1.5113727,-1.3037351,2.4514387,1.4570894,-0.9894323,1.2026716,-0.49449015,-1.5589511,-1.2558929,2.3987927,1.3975588,-1.0342786,-1.3555748,1.2794223,1.052151,-1.0445291,0.9213133,0.46104893,0.18915975,1.481802,-0.40571404,1.4760473,-3.1297169,0.08349386,0.08747649,0.27010345,-0.324358,0.9666273,0.71087706,-0.08042834,0.09224462,0.69258636,0.020209134,0.7399246,0.13220133,1.0,0.0,0.0,0.0,0.0,0.0,0.0,-2.131802,0.005714029,-0.92604727,0.69208145,-2.208972,-1.0456324,-1.1226892,-1.6706228,0.15090704,2.8666496
2.2602348,19.091059,5.478508,13.421199,0.73958766,-0.9939477,0.083469,-0.76341504,0.69361186,0.5771544,-0.59193563,0.61396074,0.64578825,0.4720295,1.1263301,-0.42512897,-1.5012357,-1.3150865,2.4601889,1.4621376,-0.9870757,1.1891161,-0.4818697,-1.5485141,-1.2664138,2.4078794,1.4021746,-1.0321977,-1.355911,1.2566465,1.0405761,-1.055266,0.9046108,0.46183324,0.21435788,1.4505291,-0.40487862,1.476185,-3.1265876,0.08341038,-0.010796916,0.2704029,-0.31708717,0.96776545,0.70848584,-0.082084365,0.09419911,0.69457644,0.040635396,0.721311,0.10037259,1.0,0.0,0.0,0.0,0.0,0.0,0.0,-2.1005292,0.0048786104,-0.92618495,-0.08852482,-2.153635,-1.1992455,-1.2232542,-1.4982343,0.14772415,2.4916291
1.8105426,17.501726,4.436612,12.801197,0.75224304,-1.1001608,0.058440387,-0.7628271,0.68660986,0.55513775,-0.6170468,0.62004447,0.6399979,0.4611384,1.1128334,-0.41320872,-1.4930004,-1.3281184,2.469884,1.4661744,-0.98608387,1.1755415,-0.4694519,-1.5382755,-1.2771312,2.4168477,1.4067923,-1.0299013,-1.3580481,1.2371632,1.0181814,-1.0777475,0.8948763,0.46179107,0.23441517,1.4192867,-0.4040451,1.4753406,-3.1234617,0.08332699,-0.108972065,0.2709236,-0.31002426,0.9685531,0.7060631,-0.08340123,0.096274845,0.69659907,0.0630861,0.69925255,0.064510636,1.0,0.0,0.0,0.0,0.0,0.0,0.0,-2.0692868,0.004045099,-0.9253406,-0.26535988,-1.8318415,-2.2607803,-2.390027,-0.8289933,0.05002618,1.982227
1.28053,16.065313,3.7155466,12.626564,0.7918192,-1.1381156,0.03964572,-0.76610386,0.6749486,0.54475355,-0.6357738,0.6185625,0.6479243,0.44634977,1.0989311,-0.40195704,-1.4838002,-1.3407086,2.478704,1.4715847,-0.98526627,1.161925,-0.4572239,-1.5282791,-1.2881328,2.4257474,1.4114138,-1.0274446,-1.3628953,1.2183701,0.99329466,-1.1082042,0.8892008,0.46229163,0.24935988,1.3880749,-0.4032135,1.4735153,-3.120339,0.08324368,-0.20704907,0.2716713,-0.3032055,0.9689654,0.70363593,-0.08433422,0.09846371,0.69863373,0.08558957,0.67489785,0.026550623,1.0,0.0,0.0,0.0,0.0,0.0,0.0,-2.038075,0.003213495,-0.92351526,-0.536108,-1.7676115,-2.497375,-3.1818867,-0.43878555,0.08879304,1.474446
1.161165,16.096256,4.002145,13.41106,0.8232385,-1.0805465,0.029319284,-0.7658667,0.66632235,0.54007965,-0.63948303,0.6058592,0.65059924,0.4573457,1.0853382,-0.39059165,-1.474271,-1.3520811,2.4863334,1.4764737,-0.98171,1.1482664,-0.44517088,-1.518502,-1.2994052,2.4345822,1.416041,-1.0248525,-1.3670007,1.2013063,0.97243446,-1.1340687,0.8818479,0.46293265,0.26240376,1.3568935,-0.4023819,1.4707098,-3.1172192,0.08316045,-0.30502802,0.2726345,-0.29660797,0.9690201,0.7012141,-0.08489974,0.100754656,0.7006706,0.10646948,0.6520249,-0.008383208,1.0,0.0,0.0,0.0,0.0,0.0,0.0,-2.0068936,0.002381891,-0.9207098,-0.46970844,-1.5917778,-2.094245,-2.7193546,-0.59746504,0.09146929,1.2868166
1.7449123,15.272374,4.050851,13.234172,0.8148687,-1.096497,0.061627068,-0.7522286,0.64813954,0.5309569,-0.6564614,0.5893346,0.6438504,0.47349638,1.0730436,-0.3803569,-1.4654063,-1.3650514,2.4935157,1.4804261,-0.9775029,1.1346442,-0.43332434,-1.5089138,-1.3109409,2.4433064,1.4206682,-1.0221364,-1.3607411,1.1795236,0.953985,-1.1605132,0.8698445,0.46283367,0.27477866,1.3257446,-0.4015503,1.4669254,-3.1141026,0.08307731,-0.402909,0.27381897,-0.29023743,0.9687232,0.698776,-0.08511038,0.103136614,0.70273113,0.12868167,0.62983215,-0.043437812,1.0,0.0,0.0,0.0,0.0,0.0,0.0,-1.9757446,0.001550287,-0.9169254,0.60367584,-2.0632982,-1.889658,-2.7689457,-1.0590792,0.015050173,1.2164176
0.07973528,11.205264,2.13537,13.117302,0.9729434,-1.1449455,0.0369284,-0.7588978,0.6255877,0.5120722,-0.68542325,0.58770883,0.6465119,0.44612756,1.0587543,-0.37076557,-1.4577066,-1.3794832,2.5020773,1.4853194,-0.9775237,1.1210657,-0.4217558,-1.499541,-1.3228065,2.45192,1.4252955,-1.0193288,-1.3570391,1.1496673,0.93141353,-1.1956084,0.8587785,0.4627209,0.28248227,1.2946281,-0.4007187,1.4621629,-3.110989,0.08299425,-0.5006922,0.27521324,-0.28413582,0.9680451,0.6963367,-0.08492558,0.10557898,0.7048091,0.14865495,0.60045284,-0.082395,1.0,0.0,0.0,0.0,0.0,0.0,0.0,-1.9446281,0.000718683,-0.91216284,0.36184788,-2.880931,-2.3012757,-3.6370754,-0.9882808,-0.0074863434,0.7463634
0.7331928,10.603052,2.5516107,12.86051,0.93186337,-1.1085525,0.093357325,-0.7472042,0.6015597,0.5232777,-0.70919085,0.55830735,0.63907063,0.45748365,1.0463454,-0.36159983,-1.4472133,-1.3937255,2.5077507,1.4892025,-0.9735805,1.1075693,-0.4105444,-1.4902961,-1.335065,2.4603581,1.429917,-1.0164506,-1.346933,1.1120253,0.9220293,-1.236219,0.83916324,0.46184197,0.28957048,1.2635422,-0.3998909,1.4564232,-3.1078787,0.082911275,-0.59837765,0.2768116,-0.27830887,0.9669735,0.69386387,-0.08434232,0.108062714,0.7069383,0.16917874,0.57400095,-0.121643685,1.0,0.0,0.0,0.0,0.0,0.0,0.0,-1.9135422,-0.0001091063,-0.90642315,1.0382175,-3.6589146,-1.0248661,-4.1761637,-1.8317819,-0.087696314,0.6838441
-0.81794477,8.034753,1.6307988,14.085129,1.1054924,-1.0312145,0.06337497,-0.7471319,0.5775054,0.5125065,-0.7184986,0.54321986,0.6375725,0.45393944,1.0328561,-0.35279384,-1.4390454,-1.4069148,2.5146801,1.4936743,-0.9710567,1.0941626,-0.3997488,-1.481137,-1.3476859,2.468575,1.434527,-1.0135133,-1.3384258,1.0690489,0.9134752,-1.2711774,0.8166172,0.46063095,0.29500687,1.2324867,-0.3990631,1.4497074,-3.1047714,0.08282838,-0.6959654,0.27858353,-0.27276802,0.965526,0.6913604,-0.08338224,0.110563815,0.7091148,0.18451655,0.54421365,-0.15858853,1.0,0.0,0.0,0.0,0.0,0.0,0.0,-1.8824867,-0.0009368956,-0.8997074,0.86717606,-4.1954517,-0.93963146,-3.6190271,-2.124095,-0.14052987,0.51825047
-1.8543985,7.248516,1.2078123,15.042684,1.2348282,-0.9818538,0.023111565,-0.75164086,0.56490755,0.50017494,-0.73777694,0.557405,0.6237486,0.43543696,1.0189985,-0.34325805,-1.4311196,-1.4214636,2.5243156,1.4969019,-0.96996963,1.0807978,-0.38934898,-1.4720867,-1.3606426,2.4766507,1.4391123,-1.0105436,-1.335915,1.030676,0.90199697,-1.3044311,0.80459315,0.45792624,0.2976929,1.2014618,-0.39823532,1.4420165,-3.1016674,0.08274557,-0.79345554,0.28048325,-0.26753998,0.96372455,0.6888657,-0.08204251,0.11304351,0.71130455,0.19641271,0.51243985,-0.19325674,1.0,0.0,0.0,0.0,0.0,0.0,0.0,-1.8514618,-0.0017646849,-0.8920165,0.23636818,-3.7374496,-1.2005448,-3.4485579,-1.0783076,-0.31034946,0.25274754
-3.1659875,3.114502,-0.022291183,15.742368,1.3937271,-0.9072556,0.04409707,-0.73727274,0.5131362,0.5059723,-0.75406957,0.5020297,0.6226885,0.45886904,1.0070705,-0.33803537,-1.4214895,-1.4360495,2.5268538,1.5013812,-0.9646567,1.0675036,-0.37946606,-1.463103,-1.3739139,2.4844823,1.4436709,-1.0075357,-1.3272125,0.97444355,0.89666295,-1.3352457,0.77665937,0.4551672,0.30180225,1.1704674,-0.39740753,1.4333514,-3.0985663,0.08266284,-0.8908483,0.2824707,-0.26265526,0.9615772,0.6863703,-0.08034542,0.115476586,0.7135163,0.20376116,0.47697783,-0.22755753,1.0,0.0,0.0,0.0,0.0,0.0,0.0,-1.8204674,-0.0025924742,-0.8833514,0.8900404,-5.5289984,-0.6340146,-3.2110214,-2.6644468,-0.32795072,0.3860712
-7.3792,-5.5172915,-4.135638,17.449892,1.8789204,-0.8908081,-0.036396183,-0.721251,0.4563226,0.4625778,-0.75317717,0.46816537,0.6208363,0.4578783,0.9953785,-0.33383378,-1.4168453,-1.4492316,2.5312989,1.5057545,-0.9617479,1.0543619,-0.37030935,-1.4543502,-1.3874027,2.491963,1.4482027,-1.0044916,-1.3096215,0.8963694,0.86766404,-1.3540112,0.73883754,0.45225453,0.30518752,1.1395035,-0.39658165,1.4237131,-3.0954685,0.082580194,-0.9881436,0.28446198,-0.2582531,0.959087,0.68393105,-0.07829617,0.11779769,0.7157036,0.20114258,0.42480382,-0.26146397,1.0,0.0,0.0,0.0,0.0,0.0,0.0,-1.7895035,-0.0034183562,-0.8737131,1.812911,-7.731831,-3.0347943,-2.0319939,-3.6823153,-0.3761232,0.29693246
-13.468044,-18.116709,-10.309336,19.141537,2.582166,-0.90117145,-0.124828905,-0.7053175,0.37334242,0.41025624,-0.7592452,0.42890862,0.61433494,0.48026666,0.9838302,-0.33297512,-1.4133246,-1.4633272,2.5348537,1.5096362,-0.9564649,1.0414549,-0.36218786,-1.4461181,-1.4010268,2.4989972,1.4527022,-1.0014017,-1.2839483,0.78421026,0.8077791,-1.3658062,0.6916435,0.4486065,0.31007808,1.108572,-0.39575768,1.4131025,-3.0923736,0.082497634,-1.0853416,0.28632927,-0.25456238,0.9562387,0.6816439,-0.075858496,0.119899526,0.717796,0.184757,0.3472022,-0.2974202,1.0,0.0,0.0,0.0,0.0,0.0,0.0,-1.758572,-0.004242331,-0.8631025,2.6801586,-11.171818,-6.175077,-1.3602972,-4.6695232,-0.49684048,0.4267633
-24.177866,-41.83954,-21.495077,20.86083,3.8902624,-0.92718565,-0.20869419,-0.68654907,0.21031821,0.3491109,-0.77941644,0.38495848,0.58899516,0.4882338,0.9728,-0.34115604,-1.4112071,-1.4789685,2.537493,1.5116017,-0.9525783,1.0288607,-0.3557644,-1.4387176,-1.4148074,2.5054936,1.4571444,-0.99826205,-1.2504768,0.5949757,0.71643597,-1.3828223,0.63585883,0.44196123,0.31499904,1.077673,-0.3949337,1.4015208,-3.089282,0.08241515,-1.1824424,0.28784752,-0.25200462,0.9529654,0.6796205,-0.0729141,0.12151539,0.7197454,0.14316578,0.22249772,-0.3413082,1.0,0.0,0.0,0.0,0.0,0.0,0.0,-1.7276729,-0.0050663054,-0.85152084,3.6005497,-18.939865,-9.452332,-1.9049406,-5.6114435,-0.88170767,0.40191412
-57.917797,-116.62003,-57.380264,26.073254,7.8964953,-1.0673282,-0.5185166,-0.61868376,-0.2451208,0.14567819,-0.77944964,0.1986149,0.56921756,0.5088801,0.9669923,-0.38027647,-1.4241498,-1.4927524,2.525355,1.5140661,-0.94737405,1.0168787,-0.35310555,-1.433068,-1.4287235,2.5109563,1.461495,-0.9950663,-1.1785216,0.15552695,0.512064,-1.395407,0.51556134,0.4308939,0.3204154,1.0468044,-0.39410973,1.3889688,-3.0861933,0.08233275,-1.2794462,0.28837776,-0.2518158,0.9490483,0.6781849,-0.06916477,0.12190833,0.7214012,0.024172084,-0.051291812,-0.4113694,1.0,0.0,0.0,0.0,0.0,0.0,0.0,-1.6968044,-0.00589028,-0.8389688,7.87642,-44.141407,-21.165169,-1.4907837,-12.307835,-1.6156852,0.3549993
-75.96395,-157.58437,-81.25053,24.827625,8.841718,-1.7774312,-0.9341225,-0.39603686,-0.5376303,-0.29055026,-0.7646294,-0.46943918,0.5406019,0.5492671,0.977275,-0.40686858,-1.462123,-1.5051864,2.4640124,1.5155553,-0.9401396,1.0065867,-0.35577297,-1.4312923,-1.4426414,2.5133138,1.4657027,-0.99179614,-0.9765987,-0.4085437,0.06314784,-1.3903722,0.14076357,0.4145033,0.32824975,1.0159664,-0.39328575,1.3754475,-3.0831077,0.08225043,-1.376353,0.287632,-0.25494003,0.94412893,0.6777482,-0.06441374,0.12135248,0.72234464,-0.10865838,-0.40021166,-0.51997185,1.0,0.0,0.0,0.0,0.0,0.0,0.0,-1.6659664,-0.0067142546,-0.8254475,21.04913,-56.72796,-45.718853,0.55902004,-37.986313,-2.4773479,0.49542785
-53.24126,-124.75493,-62.67615,18.408016,6.740785,-1.8793824,-0.40599263,-0.0747321,-0.6661999,-0.45011264,-0.75362295,-0.5708287,0.5492981,0.52825755,0.99911344,-0.42239296,-1.4763036,-1.5180037,2.4562309,1.5206325,-0.9389704,0.99962485,-0.36369228,-1.4342659,-1.4564067,2.511845,1.4697653,-0.9884621,-0.6019651,-0.92062443,-0.41836858,-1.3704705,-0.243773,0.40104485,0.3346343,0.9851589,-0.39246368,1.3609579,-3.0800252,0.0821682,-1.473163,0.2859478,-0.2610035,0.9381189,0.6779744,-0.058774922,0.120164536,0.72281164,-0.19098206,-0.67317766,-0.62825304,1.0,0.0,0.0,0.0,0.0,0.0,0.0,-1.6351589,-0.007536322,-0.81095785,37.65241,-51.471508,-48.393845,2.370429,-38.771507,-2.110529,0.48089027
-7.1362424,-54.37393,-22.590801,5.0059204,2.475763,-2.0533032,0.66945267,0.34467143,-0.7417241,-0.5509825,-0.77759385,-0.6169131,0.5952153,0.527868,1.034092,-0.4378647,-1.4893641,-1.5341661,2.4501538,1.5292869,-0.93567526,0.9978663,-0.37568045,-1.4414585,-1.4700881,2.5070615,1.4737574,-0.9850594,-0.03765106,-1.2919433,-0.81664234,-1.3665144,-0.5561772,0.3972974,0.34227848,0.95438194,-0.39164352,1.3455008,-3.0769458,0.08208605,-1.5698762,0.28422928,-0.26864624,0.93108207,0.6778475,-0.052518815,0.11858182,0.72367316,-0.16925073,-0.7906873,-0.7303351,1.0,0.0,0.0,0.0,0.0,0.0,0.0,-1.6043819,-0.008356482,-0.7955008,55.291756,-37.24198,-38.99926,0.67305565,-31.194956,-0.8309066,0.83441734
18.705109,0.4063275,6.623502,2.4801347,-0.2951013,-1.5216749,0.9917738,0.39387548,-0.76683646,-0.5422288,-0.7700568,-0.6572893,0.6546519,0.4617088,1.0372539,-0.4523641,-1.4956813,-1.5470937,2.4413326,1.5392226,-0.9388885,1.0010906,-0.39011765,-1.4513328,-1.4837466,2.499844,1.4777838,-0.9816328,0.4375674,-1.494517,-1.0406666,-1.3653545,-0.7766607,0.4037327,0.3433511,0.9236355,-0.39082336,1.3290774,-3.0738695,0.08200398,-1.6664926,0.28307343,-0.2766037,0.9232534,0.67678314,-0.046000563,0.1169109,0.72538286,-0.098686,-0.7916482,-0.80408263,1.0,0.0,0.0,0.0,0.0,0.0,0.0,-1.5736355,-0.009176642,-0.77907735,46.055565,-20.30654,-21.31877,0.17700195,-21.907402,0.40694475,0.2783537
24.455654,26.84564,18.128225,4.955317,-1.0540557,-1.0678701,0.80482864,0.40255806,-0.7898674,-0.59561664,-0.77213734,-0.60074717,0.6564162,0.39067355,1.0413464,-0.46910438,-1.5108944,-1.5609604,2.4397693,1.5434254,-0.9425655,1.0077683,-0.4056201,-1.462611,-1.49743,2.49128,1.4818865,-0.9782578,0.74124306,-1.5690025,-1.1545421,-1.3693008,-0.8826168,0.41215578,0.33613363,0.89291954,-0.3900032,1.3116885,-3.0707963,0.081921995,-1.7630124,0.28263474,-0.28425026,0.91488034,0.67481315,-0.039384514,0.11530649,0.7278602,-0.024513777,-0.7498118,-0.8539909,1.0,0.0,0.0,0.0,0.0,0.0,0.0,-1.5429195,-0.009996802,-0.76168853,29.417933,-7.491684,-10.718656,-0.42021275,-10.544836,0.6881356,-0.5613804
24.010952,42.423424,25.674871,10.746995,-1.1128707,-0.30108312,0.598095,0.3998832,-0.7970123,-0.5406186,-0.7603448,-0.5424755,0.6562167,0.35457194,1.0477566,-0.48532134,-1.5166728,-1.5734644,2.4370325,1.5475081,-0.9428006,1.0161968,-0.42125797,-1.4740932,-1.5111037,2.4823384,1.486077,-0.9749867,0.87578696,-1.5622251,-1.1456952,-1.3669089,-0.89815784,0.42132547,0.32445517,0.8622341,-0.38918304,1.2933352,-3.0677261,0.08184009,-1.8594358,0.28277397,-0.29128265,0.9062504,0.67212594,-0.032834657,0.11374648,0.7309106,0.030976027,-0.6812876,-0.87253135,1.0,0.0,0.0,0.0,0.0,0.0,0.0,-1.5122341,-0.0108169615,-0.7433352,13.200462,0.63517094,1.002574,0.19054413,-1.6069293,0.8878529,-1.0492861
17.883577,46.28141,26.89789,16.752426,-0.7324679,0.35604042,0.33244824,0.37263396,-0.7919091,-0.49648368,-0.7502784,-0.5391244,0.6599978,0.34102488,1.0534602,-0.5004489,-1.5237416,-1.5861316,2.428426,1.5520767,-0.9408842,1.024963,-0.43652487,-1.4849308,-1.5246974,2.4735303,1.490359,-0.9718405,0.87766534,-1.5150534,-1.0640131,-1.356969,-0.875584,0.43073297,0.31146136,0.8315792,-0.3883667,1.2740183,-3.0646589,0.08175827,-1.9557627,0.28326607,-0.2976055,0.89760566,0.66896373,-0.026504697,0.112214,0.73429763,0.05978016,-0.60898453,-0.8682819,1.0,0.0,0.0,0.0,0.0,0.0,0.0,-1.4815792,-0.011633307,-0.7240183,0.45752525,4.6663046,7.8980684,0.98421574,2.1119475,1.0052562,-1.2415946
11.297538,40.03292,21.57281,18.492477,-0.115038276,0.30131966,0.10733829,0.42977446,-0.7939801,-0.57300687,-0.7480422,-0.5222851,0.6486659,0.3012614,1.0679405,-0.5159229,-1.5422314,-1.5995016,2.4213018,1.5552255,-0.94171435,1.0335575,-0.4512949,-1.4952571,-1.5381824,2.465073,1.4947172,-0.968845,0.85468024,-1.4645969,-1.0231986,-1.3453872,-0.8360766,0.43756524,0.29563218,0.8009548,-0.38755035,1.2537389,-3.061595,0.08167653,-2.0519931,0.283947,-0.3033886,0.888984,0.6655769,-0.020339295,0.11068085,0.73779637,0.07562647,-0.56110597,-0.86586946,1.0,0.0,0.0,0.0,0.0,0.0,0.0,-1.4509548,-0.012449652,-0.70373887,-1.957953,4.978633,3.7931442,1.2061834,3.7677765,0.72743297,-1.552403
7.4079475,34.211693,17.137537,18.582829,0.24080867,0.1340161,0.0049639344,0.46376228,-0.7873662,-0.6122194,-0.7420508,-0.5331706,0.64176846,0.32218415,1.0799338,-0.5300315,-1.5564791,-1.6123874,2.411756,1.558894,-0.9366266,1.0419899,-0.46562767,-1.5055263,-1.5515414,2.4569516,1.499127,-0.9659802,0.84055895,-1.423116,-1.0287864,-1.3324976,-0.80476224,0.44199035,0.2835016,0.77036095,-0.386734,1.2324979,-3.058534,0.08159487,-2.1481273,0.28476334,-0.3088398,0.8803286,0.6621152,-0.01421987,0.10914944,0.74127436,0.08745377,-0.53219146,-0.8705656,1.0,0.0,0.0,0.0,0.0,0.0,0.0,-1.4203609,-0.013265997,-0.6824979,-1.1277914,4.068637,-0.78024864,1.3736248,2.9386759,0.44378042,-1.195395
3.2476957,27.310038,12.663617,18.54575,0.5836408,0.046148516,-0.07638827,0.45746413,-0.7912486,-0.6306041,-0.7401815,-0.55364406,0.64876515,0.297196,1.0877364,-0.54475254,-1.5685867,-1.6255596,2.4015872,1.5640036,-0.9362606,1.0502964,-0.47969532,-1.5160701,-1.5647899,2.4490056,1.503575,-0.96324027,0.82811654,-1.4016087,-1.063358,-1.3218273,-0.79156595,0.4456048,0.27090085,0.7397976,-0.38591766,1.2102963,-3.055476,0.08151329,-2.2441654,0.28565407,-0.31412315,0.87155956,0.65867466,-0.008051926,0.10763196,0.7446463,0.09333088,-0.52045757,-0.8836929,1.0,0.0,0.0,0.0,0.0,0.0,0.0,-1.3897976,-0.014082342,-0.66029626,-0.9992242,2.0557642,-3.6391497,1.1934757,1.116693,0.318712,-1.2502611
0.34609795,24.019163,10.810276,18.650284,0.7693695,0.13832268,-0.08535449,0.41959196,-0.78772515,-0.61678606,-0.74674386,-0.5506732,0.6538839,0.33238837,1.0922556,-0.55846786,-1.5777488,-1.6394643,2.3939383,1.5689634,-0.93000144,1.0583454,-0.49364662,-1.5269096,-1.5779945,2.441132,1.5080572,-0.9605862,0.7979174,-1.3932825,-1.0915339,-1.3193783,-0.7866781,0.4488271,0.26362702,0.70926476,-0.38510323,1.187135,-3.052421,0.08143179,-2.3401074,0.28655434,-0.31933975,0.86263055,0.6552884,-0.0017889042,0.10611274,0.7478863,0.092163,-0.51513237,-0.9004664,1.0,0.0,0.0,0.0,0.0,0.0,0.0,-1.3592647,-0.01489678,-0.63713497,-2.7509928,0.7299423,-3.0237198,0.399971,0.2760887,0.26106834,-0.72047114
-13.231009,12.735546,2.5625443,22.449112,1.709644,0.46836692,-0.39408824,0.26955077,-0.79469514,-0.634711,-0.74700195,-0.5662069,0.643433,0.31828895,1.0853006,-0.5731161,-1.5903807,-1.6526947,2.3845115,1.5724006,-0.9287573,1.0654293,-0.5076189,-1.5380504,-1.591199,2.4332204,1.5125605,-0.9580046,0.6803017,-1.3989886,-1.1225307,-1.3199612,-0.793724,0.4503799,0.25623053,0.67876244,-0.3842907,1.163015,-3.0493693,0.08135038,-2.4359536,0.28720856,-0.32472992,0.85350394,0.65221095,0.0046336115,0.10458065,0.7507744,0.05960091,-0.5397928,-0.9211334,1.0,0.0,0.0,0.0,0.0,0.0,0.0,-1.3287624,-0.01570931,-0.613015,-11.297488,-0.7128,-3.429222,0.1969099,-0.99799633,0.08481145,-0.7798016
-40.341213,-5.1067386,-12.105915,30.737133,3.4821448,1.2312487,-1.0476897,-0.057621334,-0.7896122,-0.644481,-0.7596108,-0.573203,0.63645405,0.30402008,1.0596672,-0.5865801,-1.6024985,-1.6671602,2.3759,1.5762058,-0.9276026,1.0698963,-0.5216589,-1.5494831,-1.6044704,2.4251943,1.5170676,-0.9555031,0.37186995,-1.4064183,-1.1522621,-1.328007,-0.80740577,0.45062658,0.24762364,0.64829063,-0.38347816,1.1379373,-3.0463207,0.08126904,-2.531704,0.2870617,-0.33076096,0.84414834,0.6500487,0.011326068,0.10303832,0.7527892,-0.03682009,-0.61704403,-0.94478226,1.0,0.0,0.0,0.0,0.0,0.0,0.0,-1.2982906,-0.016521841,-0.5879373,-29.914099,-0.9676933,-3.600645,-0.35409927,-1.8425822,-0.05940795,-1.004073
-54.15878,-12.905394,-18.662111,33.904896,4.4322815,1.6806362,-1.293876,-0.2584226,-0.7976962,-0.64613533,-0.7855418,-0.5193283,0.5735201,0.30515978,1.044054,-0.6014285,-1.6140966,-1.6830245,2.3732615,1.5744196,-0.92498714,1.070602,-0.5358095,-1.5611503,-1.6179363,2.4171948,1.5215231,-0.95307887,-0.025894642,-1.4188349,-1.174178,-1.3508419,-0.7996334,0.44345152,0.24014223,0.61784935,-0.38266563,1.1119028,-3.0432749,0.08118779,-2.6273584,0.28569221,-0.33775902,0.8345269,0.6491923,0.018423881,0.101374164,0.7536135,-0.16833638,-0.71929663,-0.97222847,1.0,0.0,0.0,0.0,0.0,0.0,0.0,-1.2678493,-0.017334372,-0.5619028,-38.60949,-1.532507,-2.989769,-1.691246,0.1855731,-0.8868277,-0.90462863
-47.462883,-2.230617,-10.847638,31.929256,3.8459888,1.9259872,-1.0239147,-0.35323745,-0.78497326,-0.5994468,-0.7983342,-0.47375152,0.54835874,0.38567477,1.0352783,-0.61430687,-1.621095,-1.6977696,2.3698196,1.576359,-0.9145114,1.0675694,-0.55000687,-1.5727394,-1.631673,2.409432,1.5258871,-0.95065653,-0.39204103,-1.4209472,-1.1564177,-1.3795644,-0.77027977,0.43336585,0.24259116,0.5874386,-0.3818531,1.0849125,-3.0402322,0.08110662,-2.7229176,0.28307915,-0.3455639,0.82469785,0.64949787,0.02589236,0.0994706,0.7533841,-0.29274842,-0.792659,-0.99069595,1.0,0.0,0.0,0.0,0.0,0.0,0.0,-1.2374386,-0.018146902,-0.5349125,-35.520275,-0.502944,1.0050297,-2.3029327,2.3581028,-1.2143791,0.14814734
-36.552635,9.002113,-2.3804603,28.30878,2.8399103,1.9182019,-0.7101682,-0.43791834,-0.7827261,-0.5973105,-0.8017108,-0.53184897,0.548029,0.45748556,1.0237775,-0.62827945,-1.6324704,-1.7118441,2.356247,1.58069,-0.904908,1.0614544,-0.5641842,-1.5840728,-1.6456653,2.4017873,1.5301558,-0.94814456,-0.68157685,-1.41749,-1.127791,-1.4043045,-0.7642149,0.42406476,0.25388494,0.55705833,-0.38104248,1.0569674,-3.0371926,0.081025526,-2.8183808,0.27939415,-0.3538456,0.8147218,0.65062827,0.03360595,0.097371526,0.7523776,-0.39521655,-0.8313331,-1.0038767,1.0,0.0,0.0,0.0,0.0,0.0,0.0,-1.2070583,-0.018957525,-0.50696737,-28.071117,0.0838995,2.2230864,-1.9763947,0.09946823,-1.1282027,1.0780603
-25.793892,18.259544,4.3871183,24.427307,1.9355267,1.7492514,-0.46125987,-0.50816566,-0.7762275,-0.61674315,-0.80535364,-0.56532294,0.5767424,0.47131512,1.0106379,-0.64180696,-1.6457472,-1.7262007,2.345255,1.5878301,-0.901013,1.053085,-0.5782814,-1.5952232,-1.6598579,2.3940587,1.5343653,-0.9455067,-0.8864707,-1.4079071,-1.1124712,-1.422695,-0.7773079,0.41922566,0.26699015,0.5267086,-0.38023376,1.0280683,-3.0341558,0.080944516,-2.9137487,0.27488327,-0.36232185,0.80462015,0.652281,0.041459955,0.09517337,0.75083464,-0.47298992,-0.84295535,-1.0157762,1.0,0.0,0.0,0.0,0.0,0.0,0.0,-1.1767086,-0.019766241,-0.4780683,-19.837452,0.739789,1.0495663,-1.4267683,-1.7307758,-0.65250397,1.2905717
-23.37867,19.651962,5.184508,23.139816,1.8674464,1.646656,-0.4286943,-0.61245084,-0.78076816,-0.64763916,-0.8039728,-0.53775513,0.5742074,0.41728088,0.9918399,-0.65635824,-1.6599871,-1.7402551,2.3402832,1.591786,-0.9037786,1.0429817,-0.592309,-1.6064289,-1.6741592,2.3862538,1.5385329,-0.9427868,-1.0497619,-1.4017649,-1.1245375,-1.4313655,-0.78241056,0.41527936,0.27374592,0.4963894,-0.37942505,0.9982162,-3.0311224,0.08086359,-3.0090213,0.2696476,-0.37091255,0.7943804,0.6543631,0.04944495,0.092848234,0.74882793,-0.54487073,-0.8538634,-1.0298308,1.0,0.0,0.0,0.0,0.0,0.0,0.0,-1.1463894,-0.020574957,-0.4482162,-15.787447,0.40585995,-1.6025543,-0.46362877,-0.9045124,-0.58298707,0.6809175
-21.846075,20.222757,5.459646,21.999584,1.9203792,1.564989,-0.40957347,-0.68729126,-0.784167,-0.6731071,-0.8048847,-0.49180678,0.56315976,0.35796195,0.97425264,-0.6707257,-1.6737396,-1.7546476,2.337073,1.5948489,-0.90699065,1.0314823,-0.60631275,-1.6179187,-1.6884986,2.3785558,1.5426584,-0.94005454,-1.1817071,-1.4004953,-1.1582907,-1.4336004,-0.7665748,0.41078055,0.2731368,0.4661007,-0.37861633,0.9674121,-3.028092,0.08078274,-3.1041985,0.26371384,-0.37963295,0.7839776,0.65685713,0.05759992,0.09027282,0.7463724,-0.6139991,-0.86670625,-1.0466967,1.0,0.0,0.0,0.0,0.0,0.0,0.0,-1.1161007,-0.021383673,-0.4174121,-12.731743,-0.07562637,-3.7077188,0.17955303,1.210463,-0.66661835,-0.027924776
-17.533009,22.718258,7.864727,20.43451,1.7897745,1.4966459,-0.32591575,-0.7190043,-0.7919857,-0.68283886,-0.79828274,-0.4407042,0.537936,0.26276678,0.9595819,-0.68551135,-1.6862026,-1.7683269,2.3344853,1.596452,-0.9137778,1.0189663,-0.62035656,-1.6297748,-1.7028037,2.3711896,1.546723,-0.9374062,-1.2738228,-1.406349,-1.1954197,-1.4282397,-0.7276381,0.40442804,0.26224312,0.4358425,-0.37780762,0.93565696,-3.0250645,0.08070198,-3.1992807,0.25715637,-0.38844872,0.7734112,0.65970063,0.065931976,0.08729885,0.74352324,-0.67536384,-0.8743487,-1.0626377,1.0,0.0,0.0,0.0,0.0,0.0,0.0,-1.0858425,-0.022192389,-0.38565695,-8.852172,-0.767684,-3.968525,0.9055376,3.5739064,-0.84466934,-1.0232747
-14.479414,25.40546,10.006708,19.410244,1.712328,1.4943122,-0.341843,-0.7561612,-0.7934024,-0.69720626,-0.7912772,-0.36507654,0.5257012,-0.008600977,0.9433502,-0.6996968,-1.6994954,-1.7819314,2.334682,1.5992931,-0.9382663,1.0057179,-0.63447094,-1.6419914,-1.7170135,2.3644223,1.5507208,-0.93507063,-1.3409911,-1.4137782,-1.2310051,-1.4174697,-0.6609852,0.39755055,0.22433922,0.40561485,-0.37700272,0.9029517,-3.0220401,0.080621295,-3.294268,0.2500229,-0.39731026,0.762702,0.6628924,0.074417174,0.08377936,0.7402816,-0.73191994,-0.87759316,-1.0762945,1.0,0.0,0.0,0.0,0.0,0.0,0.0,-1.0556148,-0.02299729,-0.3529517,-6.427121,-0.91073513,-3.7567377,1.415968,6.392896,-0.8866668,-3.698656
-12.042235,28.380589,12.433062,19.330538,1.7309612,1.57851,-0.38388678,-0.7838592,-0.79608154,-0.7020783,-0.7712689,-0.2515614,0.52313095,-0.30598316,0.9273319,-0.7140791,-1.7121992,-1.7941403,2.3392663,1.6030339,-0.965669,0.99193156,-0.6486616,-1.6544864,-1.7310325,2.3585935,1.5546557,-0.93332636,-1.390473,-1.4213642,-1.2562284,-1.3957576,-0.55769795,0.39148387,0.15816589,0.3754177,-0.37619781,0.8692973,-3.0190187,0.08054069,-3.3891602,0.24233818,-0.40618896,0.75190675,0.6664794,0.08299331,0.07954951,0.73660654,-0.78644735,-0.8774922,-1.0832577,1.0,0.0,0.0,0.0,0.0,0.0,0.0,-1.0254177,-0.023802191,-0.3192973,-4.7168493,-0.91478825,-2.661562,2.4739265,10.110998,-0.7846713,-6.501049
-9.8642845,32.202797,15.365396,20.542294,1.9012909,1.7325567,-0.39656442,-0.7983996,-0.79183096,-0.70139813,-0.7293131,-0.07385116,0.5444565,-0.45386192,0.9120916,-0.7278447,-1.7246262,-1.8039638,2.3512084,1.6091013,-0.97871256,0.9777714,-0.6628885,-1.6671321,-1.7446643,2.3542066,1.5585543,-0.93232024,-1.423998,-1.4237108,-1.2676002,-1.351674,-0.39945725,0.38871765,0.08186388,0.34525108,-0.3753929,0.8346947,-3.0160003,0.08046016,-3.4839575,0.23410416,-0.41506577,0.74113786,0.6705004,0.09155304,0.074385904,0.73247105,-0.84132177,-0.87684935,-1.0774817,1.0,0.0,0.0,0.0,0.0,0.0,0.0,-0.99525106,-0.024607092,-0.28469467,-3.1801462,-0.3796339,-1.1953354,4.659581,15.673828,-0.43134093,-7.4916034
-8.579637,33.885014,16.021608,19.749731,2.0582335,1.6810734,-0.38301846,-0.80964744,-0.7853921,-0.7279949,-0.7213011,0.13278742,0.5381345,-0.5269574,0.89680666,-0.7414277,-1.7399316,-1.8167944,2.3674853,1.6123677,-0.985016,0.9633633,-0.67708874,-1.6799419,-1.7578708,2.3518262,1.5624262,-0.93206847,-1.446032,-1.4193013,-1.2854333,-1.3094544,-0.18452612,0.3859406,0.0067812353,0.31511497,-0.374588,0.79914474,-3.012985,0.08037972,-3.57866,0.22532654,-0.42396736,0.7304195,0.6749631,0.100108735,0.06805794,0.7278537,-0.8956673,-0.8798328,-1.0726254,1.0,0.0,0.0,0.0,0.0,0.0,0.0,-0.96511495,-0.025411993,-0.24914473,-2.0614147,0.3020048,-1.7996311,4.4533253,21.378786,-0.45788884,-7.3506937
-5.9448485,37.780785,18.088905,17.995987,1.7138991,1.6728278,-0.3332207,-0.81882364,-0.76525474,-0.7342229,-0.7152208,0.24295229,0.5602443,-0.5548745,0.88148093,-0.7536142,-1.7533642,-1.8293929,2.3761215,1.6184506,-0.9875559,0.94878733,-0.6911411,-1.6929176,-1.7707301,2.351624,1.5662905,-0.932511,-1.4609884,-1.4009132,-1.3016059,-1.27737,0.034436602,0.38596642,-0.060867175,0.28500938,-0.37378502,0.7626485,-3.0099726,0.080299355,-3.6732678,0.21605682,-0.4328308,0.71974313,0.6798109,0.10866996,0.060555205,0.7227593,-0.9432899,-0.87339246,-1.0688355,1.0,0.0,0.0,0.0,0.0,0.0,0.0,-0.93500936,-0.026214987,-0.21264851,-1.380682,1.7121792,-1.6052246,3.4011602,21.821999,-0.16860366,-6.624146
-3.9546738,40.515774,19.647356,16.310806,1.0374358,1.6861883,-0.29301298,-0.82758474,-0.75505275,-0.73969275,-0.69938433,0.20130485,0.5598068,-0.55627614,0.86602885,-0.7666464,-1.7668868,-1.8406686,2.3717544,1.6222712,-0.98813856,0.93408245,-0.70493686,-1.7063028,-1.7834171,2.3522491,1.5705596,-0.9332725,-1.4728678,-1.3655574,-1.4161419,-1.2911531,-0.12821227,0.5040336,-0.04165075,0.25955963,-0.3747368,0.7377919,-1.5135432,-0.43927056,1.0320779,0.20638847,-0.44141388,0.7089996,0.6848453,0.11705184,0.052551176,0.71730334,-0.97284967,-0.81670403,-1.1039244,0.0,1.0,0.0,0.0,0.0,0.0,0.0,-0.9095596,-0.02526322,-0.18779188,-1.0854244,4.561472,-21.50979,-5.2738667,-47.21021,23.407246,9.701414
76.205666,176.0,110.0,95.67687,-7.730597,9.852264,-0.8048502,-0.78117526,0.5020977,0.6843464,0.732646,-0.1779451,0.6480882,-0.4363442,0.8559649,-0.6547271,-1.6378682,-1.7101525,2.3344545,1.6353685,-0.9769069,0.92447704,-0.71477306,-1.7220174,-1.786425,2.342083,1.5847713,-0.9314748,-0.7934644,-0.8557564,-1.6155542,0.02410223,-1.3077806,1.7325761,0.24869065,0.24443436,-0.3791256,0.74736845,-1.51203,-0.4388314,0.93286,0.19727135,-0.447546,0.70182943,0.69004405,0.11660248,0.050818373,0.712503,-0.89605135,-0.5309106,-0.5894539,1.0,0.0,0.0,0.0,0.0,0.0,0.0,-0.89443433,-0.02087441,-0.19736844,66.83362,51.117752,-17.623161,129.97058,-116.485596,124.574684,27.566444
21.675463,144.32521,103.934586,98.46916,-0.9576503,7.8999243,-0.7977071,-0.8124374,-0.43198493,0.3995386,0.78997356,-0.56352955,0.5214196,-0.3446212,0.8432333,-0.7579715,-1.6820636,-1.7074276,2.2857301,1.6369132,-0.9659369,0.9165911,-0.7217549,-1.7327424,-1.7791733,2.3271484,1.6021205,-0.9291812,-0.7870878,-0.6469828,-0.888573,0.9575356,-1.558043,1.7411011,0.22161391,0.22932434,-0.3835106,0.7559536,-1.5105183,-0.43839264,0.8337413,0.18837738,-0.45186615,0.6999369,0.6958929,0.1087199,0.052694518,0.7079099,-0.8891308,-0.3886727,-0.05904425,1.0,0.0,0.0,0.0,0.0,0.0,0.0,-0.8793243,-0.016489416,-0.2059536,0.58516264,20.471012,73.568405,92.91138,-25.772213,2.4817944,-3.0975938
-18.533386,113.15418,59.470245,78.28758,1.8292955,4.9968114,-1.6089852,-0.8127002,-0.060405657,-0.34131533,0.7553564,-0.6555308,0.6317242,-0.023866778,0.83532107,-0.7277955,-1.766874,-1.7036376,2.2615952,1.665293,-0.9315679,0.9074587,-0.7259463,-1.739113,-1.765261,2.311699,1.6185561,-0.92717373,-0.95340383,-0.34449244,-0.55390435,1.5359885,-1.5430516,1.6138083,0.19326371,0.21422958,-0.38789177,0.7635483,-1.509008,-0.43795434,0.7347217,0.17907333,-0.45547485,0.7018301,0.70294785,0.097350545,0.056458212,0.7022817,-0.9451665,-0.34464002,0.26707992,1.0,0.0,0.0,0.0,0.0,0.0,0.0,-0.86422956,-0.012108237,-0.2135483,-16.087795,29.847807,33.257317,57.95963,0.7287741,-11.846614,-2.9883087
-38.0567,73.20501,25.051706,52.135582,2.985393,2.7398458,-1.6112821,-0.813379,-0.012918557,-0.46142614,0.7923932,-0.66386044,0.60423774,-0.1626537,0.82612085,-0.7272382,-1.7852556,-1.6860217,2.245313,1.6789799,-0.9434391,0.89620537,-0.72763336,-1.7440206,-1.7480816,2.2973976,1.6333419,-0.9256002,-1.1810702,-0.111011736,-0.47117373,1.7791693,-1.3939096,1.4348743,0.14515035,0.19915009,-0.39226723,0.7701536,-1.5074993,-0.43751648,0.6358012,0.16900063,-0.45902634,0.7055757,0.71132,0.08524498,0.061237987,0.69498706,-1.0296631,-0.35088295,0.40513036,1.0,0.0,0.0,0.0,0.0,0.0,0.0,-0.84915006,-0.007732779,-0.22015357,-22.297192,23.068562,7.8396378,24.501753,14.531708,-17.50021,-4.8797965
-52.457066,14.739508,-12.857401,28.14911,4.2437406,0.67970383,-1.3622551,-0.83781123,-0.18048926,-0.6121869,0.78020823,-0.6624533,0.6470528,-0.300663,0.81242424,-0.7456823,-1.8052393,-1.6700608,2.2311523,1.6980472,-0.9556665,0.88288254,-0.7284936,-1.7499429,-1.7302746,2.2847252,1.6464473,-0.9245759,-1.3814211,-0.0780051,-0.6337889,1.7817594,-1.2247243,1.2692052,0.08809696,0.18408585,-0.39663887,0.77577037,-1.5059922,-0.43707904,0.5369795,0.15785599,-0.4631691,0.70929444,0.72084,0.07435603,0.066001475,0.68593335,-1.144795,-0.4259522,0.35642976,1.0,0.0,0.0,0.0,0.0,0.0,0.0,-0.8340858,-0.0033611357,-0.22577035,-19.669987,3.2144427,-16.567385,0.4579544,17.03906,-16.55531,-5.709183
-42.135494,-4.30621,-19.517395,12.939819,3.4272676,-0.20401525,-0.7875033,-0.82660896,-0.21437341,-0.5909317,0.78926075,-0.6585205,0.6568072,-0.33047423,0.8002216,-0.7499309,-1.809036,-1.6513485,2.218873,1.712128,-0.95762336,0.86816067,-0.72983634,-1.7577688,-1.7132591,2.2735138,1.6580707,-0.9240972,-1.5016929,-0.1531585,-0.8326646,1.6755247,-1.0862188,1.1264021,0.034432527,0.16903687,-0.4010067,0.7803997,-1.5044864,-0.43664205,0.43825668,0.14574242,-0.4680519,0.7120122,0.7310664,0.06544538,0.07018295,0.6755243,-1.2368605,-0.49785507,0.24034685,1.0,0.0,0.0,0.0,0.0,0.0,0.0,-0.81903684,0.0010066926,-0.23039967,-11.778331,-7.533753,-20.028746,-10.437465,13.963294,-14.395952,-5.358692
-26.577744,-2.7558477,-12.461836,6.5432487,2.2742958,-0.30579692,-0.2963281,-0.8255804,-0.23981431,-0.55388683,0.7967099,-0.63440675,0.6505092,-0.36698213,0.7856026,-0.7538178,-1.8131574,-1.6335881,2.2100732,1.7231216,-0.9607954,0.85277885,-0.73226726,-1.7671376,-1.6974357,2.2634125,1.668439,-0.9241229,-1.5499871,-0.27311268,-0.971653,1.5518714,-0.9852234,1.0067714,-0.014905815,0.15400314,-0.4053688,0.7840425,-1.5029823,-0.4362055,0.33963257,0.13295555,-0.47346306,0.71356845,0.74153274,0.058398835,0.07362133,0.66430306,-1.2962818,-0.5428407,0.124710396,1.0,0.0,0.0,0.0,0.0,0.0,0.0,-0.8040031,0.005368799,-0.23404247,-4.6908617,-12.009478,-13.918495,-12.191224,10.061812,-12.058663,-4.908047
-11.657404,12.510009,0.56672907,5.9654255,1.0883828,-0.042997897,0.01067348,-0.8220232,-0.23422502,-0.54043585,0.7974475,-0.62542105,0.6503422,-0.3623188,0.77057654,-0.75568974,-1.8211812,-1.617691,2.2008703,1.7334733,-0.9603548,0.83729213,-0.7357472,-1.7773286,-1.6826404,2.2540321,1.6777717,-0.92458355,-1.5482193,-0.37300867,-1.0346878,1.4557236,-0.92301697,0.9088336,-0.05638337,0.13898468,-0.4097271,0.7866918,-1.5014796,-0.43576938,0.24004184,0.11984062,-0.4790554,0.7142208,0.75190234,0.05274694,0.07647901,0.6526956,-1.3210965,-0.5519245,0.042922337,1.0,0.0,0.0,0.0,0.0,0.0,0.0,-0.78898466,0.009727091,-0.23669177,0.20217896,-10.036159,-6.230688,-9.507489,6.0400486,-9.799803,-4.1506248
-3.8886204,23.016876,9.348398,8.001429,0.62196046,0.28340304,0.14571954,-0.82262206,-0.27535146,-0.5254571,0.79418254,-0.58850676,0.6365318,-0.3767173,0.7550299,-0.76328236,-1.8298743,-1.6032221,2.1951814,1.7414249,-0.9622553,0.8219895,-0.7401341,-1.7876722,-1.6685108,2.245144,1.6862499,-0.92541707,-1.5242796,-0.46079,-1.0337616,1.3988698,-0.87786585,0.8276859,-0.092317,0.123981476,-0.41408157,0.78834593,-1.4999784,-0.4353337,0.14055069,0.1065979,-0.48459244,0.7142959,0.76200706,0.047997512,0.07889504,0.64095014,-1.3302648,-0.54137117,-0.0068884254,1.0,0.0,0.0,0.0,0.0,0.0,0.0,-0.77398145,0.0140815675,-0.23834592,2.3639917,-8.85151,0.22511482,-5.617738,4.2638183,-8.065414,-3.6045327
-0.5718789,33.206867,15.5158205,11.115948,0.36827546,0.5763788,0.13855036,-0.8207159,-0.285751,-0.521683,0.7971724,-0.5833131,0.63711816,-0.38297805,0.7399179,-0.76870924,-1.8398404,-1.5887935,2.1868126,1.7499616,-0.9637149,0.8069634,-0.74517334,-1.7977716,-1.6546692,2.2365723,1.694028,-0.92657006,-1.4956274,-0.51865876,-1.0014849,1.3795546,-0.85115373,0.7614515,-0.123114005,0.10899353,-0.41843224,0.78900594,-1.4984787,-0.43489847,0.041159008,0.093322754,-0.48992348,0.714079,0.7718096,0.043770105,0.081049696,0.62914634,-1.3313484,-0.51712203,-0.029336868,1.0,0.0,0.0,0.0,0.0,0.0,0.0,-0.7589935,0.01843223,-0.23900592,2.8200626,-5.8910313,3.3828497,-1.8955708,2.3894548,-6.541562,-3.1220942
-1.712295,35.61516,16.57598,13.336887,0.4976852,0.7489921,0.091649786,-0.8202036,-0.32780308,-0.5129263,0.7945826,-0.57116646,0.64085895,-0.39740172,0.72494304,-0.7779536,-1.8490642,-1.5752109,2.1794555,1.7581139,-0.9663102,0.7921786,-0.7507514,-1.8074666,-1.6408561,2.2282028,1.7012359,-0.9280025,-1.4728863,-0.5711999,-0.9584333,1.382077,-0.83329594,0.7075605,-0.1501664,0.09402084,-0.42277718,0.78867275,-1.4969805,-0.43446365,-0.0581333,0.08000374,-0.49499512,0.713717,0.7813399,0.03984179,0.08303494,0.6172729,-1.3364483,-0.49112618,-0.041354205,1.0,0.0,0.0,0.0,0.0,0.0,0.0,-0.7440208,0.02277717,-0.23867273,2.2500038,-5.371952,4.457164,0.30374527,1.5120506,-5.308342,-2.7496786
-2.2530658,40.77874,18.164999,14.868696,0.4238913,0.8641318,0.039083328,-0.81421304,-0.32322446,-0.50764626,0.79720455,-0.57854056,0.6507518,-0.3825049,0.71075726,-0.78307384,-1.8582313,-1.5611356,2.1703486,1.766311,-0.966253,0.7775778,-0.75666225,-1.8167726,-1.6269306,2.219925,1.707986,-0.92966187,-1.4559709,-0.5982147,-0.9207327,1.3962374,-0.8272349,0.66450167,-0.17152959,0.079063416,-0.4271183,0.78734744,-1.4954839,-0.43402928,-0.15732634,0.06664467,-0.4997654,0.7133021,0.7906307,0.036101494,0.08499286,0.6052899,-1.3403317,-0.45976552,-0.04447931,1.0,0.0,0.0,0.0,0.0,0.0,0.0,-0.7290634,0.027118295,-0.23734742,1.678443,-2.836275,3.9120913,1.4592409,0.33522844,-4.221964,-2.2073417
-1.0021954,43.948204,20.179897,15.077623,0.31980184,0.97146094,0.0762283,-0.8040605,-0.34684274,-0.45522803,0.7973201,-0.57879186,0.66245484,-0.3987381,0.69717175,-0.79134655,-1.8622954,-1.5471985,2.1620457,1.7742314,-0.9695357,0.76312965,-0.76281345,-1.8255616,-1.6128544,2.2116623,1.7143737,-0.9315177,-1.441272,-0.62118936,-0.8642846,1.4113394,-0.82712436,0.63074666,-0.19063519,0.06412125,-0.4314556,0.7850309,-1.4939886,-0.43359533,-0.25642022,0.05327034,-0.5041771,0.71290517,0.79966336,0.032438133,0.08698969,0.59322757,-1.3403208,-0.42236927,-0.041102722,1.0,0.0,0.0,0.0,0.0,0.0,0.0,-0.7141212,0.031455606,-0.23503089,1.4451027,-2.4382353,5.8011055,1.5402317,-0.27862787,-3.277433,-1.9845366
-0.39650345,43.14639,20.326899,14.617874,0.35000947,0.9927822,0.12728079,-0.7934922,-0.38644734,-0.40902406,0.79920053,-0.57747805,0.6738173,-0.40702584,0.68378043,-0.8014582,-1.866464,-1.5329343,2.1539145,1.7817554,-0.9722203,0.74882835,-0.7692927,-1.8336698,-1.5986484,2.2033844,1.720483,-0.9335462,-1.4264498,-0.6571954,-0.79249513,1.423741,-0.82907146,0.6046195,-0.20721412,0.049194336,-0.4357891,0.7817242,-1.492495,-0.43316182,-0.35541505,0.039899826,-0.5082054,0.7125364,0.8084024,0.028761191,0.08897781,0.581155,-1.3397204,-0.38455698,-0.038528644,1.0,0.0,0.0,0.0,0.0,0.0,0.0,-0.6991943,0.035789102,-0.2317242,1.453495,-3.7344456,7.343936,1.2765408,-0.48640966,-2.506721,-1.7134696
0.020820618,44.387344,20.61612,14.104071,0.30361766,0.96686584,0.15191483,-0.78766644,-0.39260665,-0.3800846,0.79604757,-0.57506484,0.6614169,-0.3866245,0.6700617,-0.8085534,-1.8716782,-1.5190437,2.1458778,1.7866247,-0.9722086,0.7346625,-0.7760972,-1.8410608,-1.5843719,2.1950874,1.7263595,-0.9357053,-1.4133521,-0.68861663,-0.7207628,1.4288499,-0.8304861,0.58237225,-0.21900691,0.03427887,-0.44011688,0.7774283,-1.4910028,-0.43272874,-0.4543109,0.026548386,-0.5118427,0.7121866,0.816828,0.025054442,0.09094241,0.5691166,-1.3364964,-0.34571916,-0.036958996,1.0,0.0,0.0,0.0,0.0,0.0,0.0,-0.68427885,0.040116876,-0.22742832,1.2785435,-3.2740355,7.3335886,0.54244995,-0.43343306,-2.1141648,-1.2340248
-1.3476567,40.101467,17.638954,13.207529,0.432646,0.80480087,0.14920998,-0.77413005,-0.4302225,-0.37705055,0.7960377,-0.58484393,0.66337454,-0.35874432,0.65724945,-0.81911945,-1.8787658,-1.5047681,2.136603,1.792697,-0.97157973,0.72065395,-0.78330505,-1.8478986,-1.5700783,2.1867561,1.7320434,-0.9379426,-1.3967941,-0.7319027,-0.67115545,1.4296796,-0.83497906,0.5641035,-0.22543658,0.019378662,-0.44444084,0.7721442,-1.4895121,-0.4322961,-0.55310786,0.01320076,-0.51515007,0.71176577,0.8249472,0.021381019,0.09284334,0.5571222,-1.3370265,-0.31439877,-0.047044933,1.0,0.0,0.0,0.0,0.0,0.0,0.0,-0.66937864,0.044440836,-0.22214419,1.6386509,-4.444587,5.102861,0.14116764,-0.7004976,-1.7279863,-0.680235
-2.2940025,37.292404,15.308597,12.519711,0.4736668,0.65443635,0.13756682,-0.7589698,-0.4558756,-0.37567836,0.7984062,-0.6091742,0.6691669,-0.33153254,0.644757,-0.8288926,-1.8854665,-1.4902376,2.1258388,1.7989601,-0.97109586,0.70684665,-0.7909802,-1.8544236,-1.5557827,2.1783104,1.7375747,-0.94021046,-1.3754082,-0.77973235,-0.64594024,1.429722,-0.8483196,0.549603,-0.22726195,0.0044937134,-0.448761,0.76587284,-1.4880228,-0.4318639,-0.651806,-0.00016593933,-0.5181885,0.71117336,0.8327765,0.017823532,0.09468666,0.5451605,-1.3392076,-0.28864056,-0.06658251,1.0,0.0,0.0,0.0,0.0,0.0,0.0,-0.6544937,0.04876098,-0.21587282,2.1306753,-4.8885584,2.649331,0.082588196,-1.5498042,-1.358366,-0.21274388
-3.9154909,35.51025,13.237067,12.192459,0.5357616,0.54403126,0.10553288,-0.75060964,-0.47591102,-0.38266823,0.79667044,-0.61999947,0.66376793,-0.3085451,0.6317857,-0.8385713,-1.8926904,-1.4761156,2.1163104,1.8039515,-0.971065,0.6932511,-0.7991208,-1.8608762,-1.5414985,2.169712,1.7429744,-0.94247067,-1.3541808,-0.8259231,-0.6446392,1.4282837,-0.8647523,0.5371392,-0.22568534,-0.010375977,-0.45307732,0.7586152,-1.4865351,-0.43143213,-0.7504055,-0.013578415,-0.5209961,0.710331,0.84034365,0.014473153,0.096492745,0.53319997,-1.3442786,-0.26721856,-0.09353994,1.0,0.0,0.0,0.0,0.0,0.0,0.0,-0.639624,0.05307731,-0.20861518,2.1272182,-4.7207355,0.2397418,-0.045013428,-1.8311024,-1.1673093,0.12986958
-8.634728,25.394838,6.377857,11.182669,0.87902534,0.27532548,0.03954756,-0.73588526,-0.5392955,-0.44631553,0.7928144,-0.6247576,0.6682724,-0.27047324,0.6196625,-0.85305035,-1.9055078,-1.4622171,2.1072364,1.8098016,-0.969518,0.6798863,-0.80789745,-1.8676988,-1.527243,2.1609612,1.7482673,-0.9446813,-1.3304433,-0.89516073,-0.6944676,1.42507,-0.8790281,0.52681476,-0.21957032,-0.025230408,-0.45738792,0.75036937,-1.4850489,-0.43100077,-0.84930015,-0.027154922,-0.52370644,0.7090421,0.8477094,0.011511039,0.09818889,0.52116704,-1.3638906,-0.2608486,-0.14421779,0.0,1.0,0.0,0.0,0.0,0.0,0.0,-0.62476957,0.05738792,-0.20036936,2.4132967,-7.0043087,-4.913056,-0.152421,-1.5298367,-0.9989381,0.6153494
-8.014587,23.182224,4.922901,9.871044,0.8310511,0.13411504,0.052036915,-0.7086809,-0.57227075,-0.47188762,0.7896119,-0.63322914,0.67367125,-0.2568451,0.6090182,-0.8651245,-1.9148875,-1.4482819,2.0976381,1.8156344,-0.9703658,0.6668305,-0.8173989,-1.8751584,-1.5130314,2.1520767,1.7534744,-0.94682133,-1.2971978,-0.96867037,-0.7627943,1.4204258,-0.89221716,0.51869404,-0.21212627,-0.04006958,-0.46169472,0.74113536,-1.4835641,-0.43056986,-0.94809586,-0.04091835,-0.5263767,0.7071832,0.8548914,0.009047553,0.0997291,0.5090509,-1.3826472,-0.25793576,-0.20356582,0.0,1.0,0.0,0.0,0.0,0.0,0.0,-0.6099304,0.06169471,-0.19113535,3.3555746,-7.4267387,-6.760776,-0.27849674,-1.4003992,-0.79802275,0.7560432
-13.690077,15.937101,0.13641953,9.640348,1.2068057,0.11401081,-0.02502866,-0.72132045,-0.63890785,-0.5163759,0.7780135,-0.6070823,0.6627458,-0.28399816,0.5946984,-0.8812897,-1.926796,-1.43523,2.0913684,1.8197489,-0.97522116,0.6540036,-0.8277799,-1.883456,-1.4989196,2.1430874,1.7585939,-0.94900125,-1.2724648,-1.0610324,-0.8703759,1.4044553,-0.9168507,0.5447895,-0.23215683,-0.055566788,-0.46505928,0.7331023,-1.5565863,-0.121319704,0.13328251,-0.05498314,-0.5290642,0.70461,0.86196256,0.007197175,0.10102369,0.49675226,-1.4159137,-0.2580102,-0.28615582,0.0,1.0,0.0,0.0,0.0,0.0,0.0,-0.5944332,0.065059274,-0.18310231,3.2508373,-9.258795,-13.126397,-1.9191742,-5.161965,6.0031295,-4.3972373
-9.68766,62.500984,21.302025,17.65182,0.4183118,1.116275,-0.12680933,-0.77710104,-0.41075757,-0.42897117,0.801811,-0.59010065,0.6287455,-0.3199748,0.5762935,-0.86885566,-1.9263531,-1.4187385,2.0840774,1.8214685,-0.98099875,0.6410651,-0.8378316,-1.8922069,-1.4848453,2.1340008,1.7639688,-0.95133585,-1.3007232,-0.9873052,-0.87636876,1.4086305,-0.90705323,0.5352197,-0.23436983,-0.07111931,-0.46627235,0.7336868,-1.55503,-0.12119841,0.03350436,-0.06913376,-0.531353,0.7018796,0.8689275,0.005561461,0.10266993,0.48414132,-1.4157465,-0.20784613,-0.27323127,0.0,1.0,0.0,0.0,0.0,0.0,0.0,-0.57888067,0.06627235,-0.1836868,-2.7796984,7.162869,-0.5014062,0.46887398,0.6715059,-0.91199875,-0.37644207
-7.325271,76.337,28.318062,20.03961,0.2888861,1.4144926,-0.10869047,-0.7777191,-0.40388185,-0.41219422,0.8068034,-0.5783942,0.61898214,-0.32566318,0.5632932,-0.8782198,-1.9334264,-1.4041649,2.0761614,1.825867,-0.98390216,0.6277795,-0.8468858,-1.9007156,-1.4706832,2.1250668,1.7692503,-0.9536943,-1.3377532,-0.8788318,-0.8419374,1.4186788,-0.890551,0.5260143,-0.23700467,-0.08665657,-0.46748352,0.7332742,-1.5534753,-0.12107723,-0.06617404,-0.08319855,-0.5330429,0.6994964,0.8757295,0.0039593214,0.104837716,0.47126552,-1.4041857,-0.14369342,-0.23103547,0.0,1.0,0.0,0.0,0.0,0.0,0.0,-0.5633434,0.067483515,-0.18327421,-3.693962,10.604298,3.6016345,0.9820938,1.2485385,-0.86438656,-0.4614681
-3.5867786,86.5096,33.246483,20.623785,0.050967634,1.4732375,-0.04090921,-0.7771072,-0.34001487,-0.41706806,0.8000498,-0.582211,0.6282539,-0.27774578,0.55006874,-0.88088727,-1.9424224,-1.3906783,2.0668457,1.8320757,-0.98146886,0.6141534,-0.85464203,-1.9087818,-1.4564449,2.1163006,1.7744211,-0.9560289,-1.3710333,-0.74210864,-0.79413414,1.4251517,-0.8734108,0.5142086,-0.23302673,-0.10217857,-0.46869278,0.7318656,-1.5519221,-0.120956175,-0.16575278,-0.09704018,-0.5340328,0.69765556,0.882306,0.0022980669,0.10765115,0.45819435,-1.3778008,-0.07296158,-0.17222786,0.0,1.0,0.0,0.0,0.0,0.0,0.0,-0.5478214,0.06869277,-0.18186557,-3.37286,13.415182,4.9934387,0.55856705,1.2540817,-1.1193156,0.16378462
-0.46281338,83.264465,32.391083,19.10889,0.014391243,1.2627734,0.048001252,-0.76659805,-0.31960794,-0.4108118,0.80519027,-0.590722,0.6318509,-0.21630573,0.5374936,-0.8866028,-1.949863,-1.3759258,2.0572283,1.8376062,-0.97765946,0.6003337,-0.86119664,-1.9164035,-1.4421417,2.1076488,1.7794851,-0.9582738,-1.3859364,-0.6272972,-0.7505898,1.4317566,-0.863683,0.50394684,-0.22234136,-0.11768532,-0.46990204,0.7294619,-1.5503705,-0.12083524,-0.26523197,-0.11058617,-0.53438187,0.6963434,0.8885976,0.000579494,0.11108177,0.44503325,-1.3465549,-0.010175727,-0.12057084,0.0,1.0,0.0,0.0,0.0,0.0,0.0,-0.53231466,0.06990203,-0.1794619,-1.569128,11.249077,4.5979857,0.5711794,0.53652525,-0.9766221,0.856781
-2.5696354,70.374596,25.171942,16.911007,0.16280258,0.8627951,0.061890054,-0.76309425,-0.30541894,-0.47143546,0.80382013,-0.61268234,0.63319296,-0.13053595,0.52402425,-0.89173853,-1.9635471,-1.3617597,2.0463805,1.8428044,-0.9713274,0.58647203,-0.8668748,-1.923991,-1.4277965,2.098997,1.7844576,-0.960349,-1.3865368,-0.548639,-0.7607959,1.4353719,-0.86638725,0.4951005,-0.2031158,-0.1331768,-0.4711094,0.72606415,-1.5488204,-0.12071443,-0.3646117,-0.12388611,-0.53422546,0.6953261,0.894598,-0.001004282,0.11503886,0.43180928,-1.324868,0.035116687,-0.09797297,0.0,1.0,0.0,0.0,0.0,0.0,0.0,-0.5168232,0.071109384,-0.17606413,-0.11906624,7.6746464,-0.81465244,0.3263712,-0.60396194,-0.8611858,1.7409235
-6.9756465,51.319477,15.581308,14.513357,0.5607172,0.48072046,0.049496375,-0.7607564,-0.33769196,-0.51368636,0.80529815,-0.6088841,0.6315958,-0.088734016,0.5103964,-0.900644,-1.9753596,-1.3472667,2.0381088,1.8476171,-0.9692224,0.5726724,-0.8722302,-1.9320182,-1.4134241,2.0903563,1.7894077,-0.96217275,-1.3762693,-0.53160244,-0.8223129,1.4368701,-0.85689926,0.51229376,-0.17100903,-0.14816666,-0.47213554,0.7225014,-1.3846109,-0.05638362,-0.091297224,-0.13714409,-0.5337601,0.69425637,0.9003393,-0.0022487754,0.11926846,0.41852,-1.3272161,0.06281912,-0.11402858,0.0,1.0,0.0,0.0,0.0,0.0,0.0,-0.5018333,0.07213554,-0.17250139,1.2309313,1.5733242,-6.8813205,0.03786087,2.0006895,4.2130113,4.025352
-6.9515204,45.211807,13.713278,13.150339,0.7148839,0.4501723,0.067901015,-0.76301414,-0.33931375,-0.4803988,0.8010845,-0.5874497,0.6271901,-0.1521941,0.496371,-0.90616155,-1.9800581,-1.3333157,2.0316114,1.8521267,-0.97739214,0.5589748,-0.87765276,-1.9405041,-1.3990675,2.0818188,1.7945087,-0.9637941,-1.36764,-0.54621524,-0.8568823,1.4355189,-0.85273683,0.50937694,-0.15888284,-0.1620903,-0.47263527,0.7215129,-1.3896334,-0.04657992,-0.10375616,-0.15044975,-0.5330334,0.69296664,0.90583724,-0.0032022493,0.12354342,0.40519834,-1.3311379,0.086192355,-0.13589898,0.0,1.0,0.0,0.0,0.0,0.0,0.0,-0.48790967,0.07263526,-0.1715129,0.8512974,-1.5879512,-3.304112,-0.056934357,0.40308237,-0.310874,1.3051331
-4.8137603,47.120316,15.719555,13.016645,0.73904645,0.5293242,0.10525535,-0.75879765,-0.33573842,-0.45063633,0.80495715,-0.57487494,0.6305618,-0.15949404,0.48309505,-0.91122663,-1.9855677,-1.3185718,2.0243313,1.8575649,-0.97974354,0.54536587,-0.883289,-1.9490799,-1.3847147,2.073377,1.7995883,-0.9653065,-1.3587226,-0.56992227,-0.8572582,1.4355974,-0.842128,0.5073631,-0.14898336,-0.17588043,-0.47299194,0.7203922,-1.3757213,-0.031981148,-0.11566877,-0.16377068,-0.5320587,0.6915066,0.9110895,-0.0039279643,0.12776163,0.3918896,-1.3317217,0.112390175,-0.15130268,0.0,1.0,0.0,0.0,0.0,0.0,0.0,-0.47411954,0.07299194,-0.17039222,0.8605957,-2.5007844,0.16518831,0.065374374,0.8305073,-0.23698807,0.91704726
-1.802609,55.2904,19.922956,13.584576,0.6021513,0.63910866,0.1473012,-0.75452197,-0.31053236,-0.43329212,0.802844,-0.5684764,0.62453043,-0.124539725,0.46991366,-0.9143422,-1.9924091,-1.3044304,2.0165293,1.8620414,-0.9777605,0.531838,-0.88902724,-1.9574589,-1.3703676,2.0650418,1.8046336,-0.9667142,-1.3509536,-0.57569206,-0.8305691,1.4344075,-0.831857,0.50347996,-0.13835423,-0.18948746,-0.47318077,0.71925676,-1.3559039,-0.014610368,-0.1132799,-0.17702293,-0.53077316,0.69000375,0.91606957,-0.004550054,0.13195196,0.37866145,-1.3210438,0.1448105,-0.15197031,0.0,1.0,0.0,0.0,0.0,0.0,0.0,-0.46051252,0.073180765,-0.16925675,0.71315765,-0.72396994,2.9208302,-0.1036644,0.73393583,-0.41444302,0.9716004
0.9793043,55.98673,21.124048,12.9906845,0.62504625,0.6010738,0.19912013,-0.7398983,-0.34206355,-0.404806,0.8008646,-0.54818875,0.6277992,-0.104591444,0.45784816,-0.92323357,-1.9979395,-1.2902812,2.010223,1.8674135,-0.9771733,0.51843315,-0.8949152,-1.9654125,-1.3560416,2.056848,1.8096459,-0.96801114,-1.3373128,-0.5936184,-0.78271043,1.4320049,-0.816068,0.5003295,-0.12706017,-0.20288467,-0.47319984,0.7181424,-1.3345082,0.0022770711,-0.111261055,-0.19013596,-0.5291748,0.6885001,0.92075914,-0.005167728,0.13605525,0.36560202,-1.3066422,0.17551874,-0.1518035,0.0,1.0,0.0,0.0,0.0,0.0,0.0,-0.4471153,0.07319984,-0.16814238,1.284051,-1.9321322,5.063176,-0.23374557,1.2677789,-0.33704042,1.0544568
2.1999617,55.52244,21.212225,12.384253,0.64517903,0.5587437,0.2382741,-0.7328022,-0.35873288,-0.37832105,0.7956785,-0.531113,0.6215351,-0.0407731,0.44515294,-0.9307885,-2.0032446,-1.2764738,2.0037367,1.8717993,-0.97208846,0.5051761,-0.901034,-1.9728149,-1.3417612,2.0488412,1.8146238,-0.9691581,-1.322129,-0.61831844,-0.7251061,1.4265499,-0.79630095,0.49690092,-0.11072608,-0.21606636,-0.4730568,0.7170332,-1.3126658,0.018435564,-0.11099308,-0.2030983,-0.5272808,0.68699014,0.9251551,-0.0058318675,0.13999516,0.35278213,-1.2908813,0.20451027,-0.15259987,0.0,1.0,0.0,0.0,0.0,0.0,0.0,-0.43393362,0.07305679,-0.1670332,1.4348269,-2.602172,6.042552,-0.5397558,1.6639471,-0.36055446,1.5720338
10.062819,60.52767,25.441763,11.068768,0.38216072,0.5194291,0.35661876,-0.6966408,-0.3690424,-0.2981022,0.79917836,-0.5405228,0.6341101,0.017181288,0.43551204,-0.9379382,-2.0026252,-1.2618434,1.994789,1.8780348,-0.96744,0.4922058,-0.9074074,-1.9793762,-1.3275172,2.0409791,1.8195852,-0.970107,-1.2890515,-0.6441753,-0.63191044,1.4234684,-0.7840241,0.496072,-0.089884505,-0.22897911,-0.4727478,0.7159986,-1.2841666,0.034904987,-0.10122293,-0.21578026,-0.5251007,0.6855451,0.92921627,-0.006685563,0.14376312,0.3403594,-1.258259,0.23250483,-0.14384781,0.0,1.0,0.0,0.0,0.0,0.0,0.0,-0.42102087,0.0727478,-0.16599858,3.1800032,-2.713585,9.660006,-0.35164356,0.8645654,-0.069862604,2.019021
-3.439412,44.747868,14.767297,11.956495,0.91242206,0.3404799,0.1686484,-0.7309759,-0.4234326,-0.37030137,0.7931938,-0.53093934,0.5997745,0.0072843647,0.4191082,-0.94975066,-2.0164063,-1.2481978,1.9878852,1.8795626,-0.9693786,0.47937077,-0.9142338,-1.9854892,-1.3133131,2.0332277,1.8245006,-0.97087383,-1.2817528,-0.69573045,-0.60378414,1.4196683,-0.7730557,0.48993796,-0.072343946,-0.24171448,-0.4723091,0.71482104,-1.2700795,0.04675514,-0.12352255,-0.22838211,-0.52269936,0.6839595,0.9330331,-0.007523625,0.147292,0.32817295,-1.2590194,0.2523572,-0.16553755,0.0,1.0,0.0,0.0,0.0,0.0,0.0,-0.4082855,0.07230911,-0.16482103,0.7057667,-5.2616596,3.0137658,-0.29654503,0.8737445,-0.6334603,1.7391026
5.18791,45.30913,17.530544,9.060849,0.6266717,0.2524921,0.29075474,-0.67929226,-0.46328494,-0.26742908,0.78531533,-0.5281396,0.6413249,0.0033974166,0.41144153,-0.9605623,-2.012232,-1.2347816,1.9804137,1.888633,-0.9705341,0.4667732,-0.9216944,-1.9910568,-1.2991759,2.025564,1.8293895,-0.9714862,-1.252645,-0.7631423,-0.54030526,1.4118004,-0.76490796,0.4885165,-0.057569936,-0.25427628,-0.4717617,0.7134235,-1.2516812,0.057401054,-0.14513382,-0.24088287,-0.5201206,0.682165,0.93660885,-0.008390202,0.15049145,0.31629992,-1.2446944,0.26879835,-0.18630229,0.0,1.0,0.0,0.0,0.0,0.0,0.0,-0.3957237,0.0717617,-0.16342348,2.8412104,-6.8338633,6.6045165,-0.7443905,0.55246353,-0.14280081,1.4742031
1.9105687,40.410713,14.736892,8.944368,0.7639915,0.21943176,0.2502795,-0.68672144,-0.5107325,-0.24732432,0.78045946,-0.53367174,0.6325722,0.006926274,0.39810106,-0.97276765,-2.0157893,-1.2211299,1.9721968,1.8926467,-0.9707936,0.45439738,-0.92993224,-1.996014,-1.2851282,2.0179422,1.834257,-0.97196704,-1.2326766,-0.844279,-0.48008457,1.4027826,-0.76212424,0.48613375,-0.04487736,-0.2666855,-0.47111702,0.71173656,-1.2372807,0.06673744,-0.17683707,-0.25330734,-0.5173931,0.68009835,0.93996686,-0.009300202,0.15330192,0.30475295,-1.2387923,0.2835732,-0.21578652,0.0,1.0,0.0,0.0,0.0,0.0,0.0,-0.3833145,0.07111701,-0.16173655,1.9572258,-8.1992035,6.243044,-0.8160353,0.04656315,-0.24430156,1.2966499
-3.0203578,38.480934,11.558578,9.615717,0.7895897,0.13357466,0.19394669,-0.685297,-0.52582484,-0.29041746,0.7760708,-0.54425323,0.6135694,0.09657324,0.38586769,-0.98251474,-2.0250556,-1.2075212,1.9635168,1.8956139,-0.9623097,0.44216698,-0.93888533,-2.000716,-1.2711703,2.0102978,1.8390864,-0.97227126,-1.2198478,-0.9126629,-0.4663324,1.3938073,-0.76580864,0.48164186,-0.025552409,-0.27897453,-0.4703865,0.70967394,-1.2260842,0.075082935,-0.21664104,-0.26572227,-0.51452446,0.6776734,0.943143,-0.010080546,0.15579845,0.29343882,-1.2402767,0.29700586,-0.2540212,0.0,1.0,0.0,0.0,0.0,0.0,0.0,-0.37102544,0.0703865,-0.15967393,1.2762547,-6.9254637,1.5341759,-0.7710695,-0.54768324,-0.4588008,1.9567277
9.452353,48.959118,18.0869,7.779271,0.24733669,0.014291525,0.3367263,-0.6153618,-0.5345352,-0.23026402,0.7851024,-0.5714908,0.6261999,0.17206813,0.3806308,-0.99233884,-2.0237424,-1.19266,1.9531487,1.9017065,-0.9550645,0.43033096,-0.9483601,-2.0051563,-1.2572409,2.002531,1.8438896,-0.9723388,-1.1717408,-0.95939064,-0.4358273,1.3926566,-0.7811575,0.4800622,-0.0004831834,-0.2910633,-0.46957207,0.707345,-1.2031378,0.08334568,-0.2386297,-0.27794456,-0.5115547,0.67498213,0.9460872,-0.010768485,0.15812752,0.28248662,-1.2137561,0.30580738,-0.27702108,0.0,1.0,0.0,0.0,0.0,0.0,0.0,-0.35893667,0.06957206,-0.157345,4.729247,-4.770875,3.306973,-0.074863434,-1.8009663,-0.13791323,2.4838443
12.070387,53.406494,20.534822,7.7767286,0.22713691,0.050454617,0.33986524,-0.60782033,-0.56494755,-0.17713511,0.77619153,-0.56726795,0.61737216,0.13027261,0.36954892,-1.0048548,-2.0228698,-1.1796217,1.9458042,1.9056268,-0.95931154,0.41897318,-0.9582573,-2.0091083,-1.243344,1.9946301,1.848677,-0.97220355,-1.1241181,-1.0001785,-0.38091326,1.3888474,-0.79419523,0.47839347,0.018028583,-0.30289268,-0.4686699,0.70485866,-1.1762636,0.092425495,-0.2524899,-0.28985596,-0.5084915,0.6721264,0.94878656,-0.011483566,0.16032532,0.27197054,-1.1809894,0.31521815,-0.29142916,0.0,1.0,0.0,0.0,0.0,0.0,0.0,-0.3471073,0.068669885,-0.15485865,4.6672344,-4.1859746,5.781502,-0.3583908,-1.6172886,-0.14312267,1.8278059
6.4290304,50.500206,17.113752,8.409947,0.32169104,-0.011457145,0.2636881,-0.6071747,-0.5823011,-0.22270216,0.76331675,-0.57880336,0.60229033,0.14004321,0.3582557,-1.0164875,-2.0313785,-1.1670122,1.9367498,1.9089061,-0.9581992,0.40799257,-0.96850646,-2.012797,-1.2295349,1.986589,1.8534342,-0.97190285,-1.0896022,-1.0335349,-0.36407474,1.3784643,-0.80829996,0.47488847,0.03404296,-0.31448174,-0.4676838,0.70216715,-1.1534673,0.10062469,-0.27545804,-0.30151176,-0.50533485,0.66905713,0.9512796,-0.012107895,0.16242588,0.26179832,-1.1578338,0.3237063,-0.3151657,0.0,1.0,0.0,0.0,0.0,0.0,0.0,-0.33551824,0.067683786,-0.15216714,3.3910275,-3.4411907,1.9100666,-0.9735346,-1.6714454,-0.3344953,1.5807751
-5.629618,42.96787,10.383678,10.537409,0.6814478,-0.0650605,0.11271433,-0.6181375,-0.60470146,-0.29462045,0.7668482,-0.573794,0.58012587,0.18848445,0.34617883,-1.0289766,-2.0422592,-1.15285,1.9292096,1.9114468,-0.9530544,0.39718315,-0.9790827,-2.0167835,-1.2157981,1.9784467,1.8581321,-0.9714289,-1.0780606,-1.0660521,-0.40998974,1.3724399,-0.816607,0.46805295,0.05183221,-0.325922,-0.4666233,0.6991099,-1.1409639,0.10783585,-0.31651542,-0.31311798,-0.502079,0.66562945,0.9536367,-0.012371165,0.16445228,0.25175264,-1.1587777,0.33348224,-0.35524213,0.0,1.0,0.0,0.0,0.0,0.0,0.0,-0.32407796,0.0666233,-0.1491099,1.1641264,-3.3519983,-4.48032,-0.44558048,-0.9786248,-0.696069,1.7786965
-7.082729,45.059788,10.72337,11.349386,0.7549044,-0.0108734965,0.088536054,-0.6047356,-0.6156598,-0.27930692,0.7689424,-0.5787556,0.5813377,0.21209612,0.3367096,-1.0406487,-2.0447142,-1.1389039,1.9205712,1.9162658,-0.9502193,0.386453,-0.98994315,-2.0212276,-1.2020884,1.9702368,1.8627651,-0.970777,-1.071278,-1.0931969,-0.4555339,1.3708833,-0.8230193,0.46153873,0.06965011,-0.3372326,-0.4654827,0.69566077,-1.1280094,0.115931675,-0.35522994,-0.32474518,-0.49870682,0.66182745,0.9558831,-0.0122051565,0.16642365,0.2417471,-1.1607583,0.34632403,-0.39182332,0.0,1.0,0.0,0.0,0.0,0.0,0.0,-0.3127674,0.065482706,-0.14566076,0.6945133,-2.824235,-4.436791,0.011301041,-0.8007765,-0.6760895,1.7804756
-12.496815,38.82513,6.8015194,11.312729,0.8935852,-0.048914492,0.053737745,-0.6123017,-0.6505165,-0.3365674,0.7604016,-0.56958693,0.55094343,0.27155426,0.32522282,-1.0549948,-2.0548844,-1.1260482,1.9132781,1.9178594,-0.9436216,0.3757113,-1.0011536,-2.0263164,-1.1884127,1.9620086,1.8673086,-0.9699207,-1.0749577,-1.1306292,-0.5266306,1.3671424,-0.82311654,0.45182803,0.09099267,-0.34846306,-0.46427155,0.6917121,-1.1216928,0.12279388,-0.40841657,-0.3364792,-0.4952011,0.65756404,0.95804477,-0.011503511,0.16828865,0.23172571,-1.1746589,0.3596183,-0.44117814,0.0,1.0,0.0,0.0,0.0,0.0,0.0,-0.30153692,0.06427154,-0.14171207,-0.3191948,-3.8478613,-7.043946,-0.15347004,-0.11409521,-1.0268033,2.1555603
1.8648014,52.017082,15.784241,9.560272,0.59419554,0.034933925,0.18578252,-0.5646047,-0.652562,-0.24111195,0.76730686,-0.5702348,0.5727437,0.25523052,0.31925082,-1.0664098,-2.0504277,-1.1116819,1.9049851,1.924583,-0.9443976,0.36513218,-1.012674,-2.0315464,-1.1747408,1.9537956,1.8717868,-0.9688794,-1.0523711,-1.1595641,-0.5210607,1.3673875,-0.8216134,0.446303,0.1084438,-0.35952377,-0.46298218,0.68743134,-1.1010542,0.13089618,-0.4348817,-0.34814644,-0.49157333,0.65300566,0.96008354,-0.010535112,0.17002614,0.22185504,-1.160127,0.37179336,-0.46408397,0.0,1.0,0.0,0.0,0.0,0.0,0.0,-0.2904762,0.06298217,-0.13743132,2.2201777,-3.015685,0.7868409,0.13256073,-0.11630058,-0.59541464,1.7385914
1.9592981,49.03747,14.371935,8.251358,0.5494611,-0.0277462,0.19778891,-0.5666312,-0.6815311,-0.2897743,0.7485112,-0.55564684,0.55035186,0.2638121,0.30846906,-1.0808271,-2.0605237,-1.0998896,1.8982309,1.9268221,-0.9424982,0.35477242,-1.0245281,-2.03678,-1.1611452,1.945645,1.8761998,-0.9676787,-1.0306658,-1.1942818,-0.52334744,1.35723,-0.81384265,0.43933955,0.12394444,-0.37039566,-0.46162415,0.6828228,-1.082492,0.13735895,-0.46915954,-0.35967827,-0.48784065,0.64816165,0.96199864,-0.0093649095,0.17157708,0.21220799,-1.146983,0.38122475,-0.49448103,0.0,1.0,0.0,0.0,0.0,0.0,0.0,-0.27960432,0.06162414,-0.13282281,2.1341085,-3.5868406,-0.015723705,-0.89797974,0.5279422,-0.75213313,1.5550957
10.517604,54.671722,18.438025,6.551699,0.37746644,-0.067766845,0.277693,-0.53020996,-0.6933171,-0.2463736,0.7457875,-0.5338129,0.53808856,0.29410362,0.30175143,-1.0938599,-2.0614176,-1.0865664,1.8922637,1.9300086,-0.93826836,0.3447555,-1.0367028,-2.0417926,-1.1476679,1.9376359,1.8805431,-0.9663187,-0.99231833,-1.2255489,-0.49309617,1.3448513,-0.7977621,0.43245053,0.13998857,-0.38103104,-0.460207,0.67795604,-1.0570796,0.14294194,-0.4924323,-0.3709755,-0.48405075,0.64309406,0.9637826,-0.008117944,0.1728869,0.20289697,-1.1197348,0.3861179,-0.5142909,0.0,1.0,0.0,0.0,0.0,0.0,0.0,-0.26896894,0.06020698,-0.12795603,3.7519097,-3.2454014,3.314948,-1.1801004,1.2848616,-0.7405102,1.5993774
9.395952,57.033905,19.249897,7.325075,0.56203246,0.0068300962,0.2453056,-0.53340757,-0.70951784,-0.21552218,0.7372756,-0.5045048,0.51124865,0.29859704,0.29141474,-1.1076546,-2.063345,-1.0739403,1.8871855,1.9316679,-0.936459,0.3350498,-1.0491787,-2.0463588,-1.1343336,1.9298601,1.8848035,-0.96481174,-0.96355355,-1.2553114,-0.44345605,1.3298619,-0.77190804,0.42362267,0.15435569,-0.3914051,-0.4587288,0.6728903,-1.0309033,0.14941666,-0.5112046,-0.38201332,-0.48018456,0.63787305,0.965452,-0.006915562,0.17390218,0.1939393,-1.0945728,0.39403784,-0.5280908,0.0,1.0,0.0,0.0,0.0,0.0,0.0,-0.25859487,0.058728784,-0.12289029,2.8020263,-3.100443,5.2621245,-1.4352083,2.2400737,-0.9388268,1.4475673
15.980444,60.067726,21.695786,5.449198,0.4291305,-0.04964471,0.29399043,-0.49668863,-0.72501683,-0.16848083,0.71457076,-0.46878138,0.4968277,0.27848205,0.28538096,-1.1216804,-2.063207,-1.0628766,1.882982,1.9344863,-0.93696356,0.32571283,-1.0619408,-2.0502656,-1.1212279,1.9224215,1.888973,-0.9631915,-0.92411137,-1.2835289,-0.37191916,1.3044058,-0.73571163,0.41450232,0.16457795,-0.40148544,-0.4571972,0.6676805,-1.0002567,0.1545428,-0.52414685,-0.3927269,-0.47627068,0.63255227,0.9670178,-0.005880426,0.17455196,0.18540053,-1.0596564,0.39706537,-0.5368319,0.0,1.0,0.0,0.0,0.0,0.0,0.0,-0.24851453,0.057197183,-0.11768049,3.841281,-2.9449463,7.4940624,-2.521634,3.229797,-0.9613693,1.0312945
9.275906,53.501953,16.9816,5.6226783,0.47649187,-0.12917006,0.23336434,-0.5008464,-0.74455255,-0.21743901,0.6923659,-0.45465827,0.46466774,0.27818638,0.27562818,-1.136396,-2.0720096,-1.0519912,1.8769556,1.9354398,-0.9353729,0.31667057,-1.0749966,-2.0538056,-1.1084391,1.9153376,1.8930316,-0.9614862,-0.8978005,-1.3133051,-0.34718582,1.270797,-0.70028895,0.402653,0.17263694,-0.4113102,-0.45562172,0.6622226,-0.9768108,0.15850778,-0.553219,-0.40317917,-0.47232628,0.62702435,0.9685093,-0.0048648156,0.17481926,0.17721252,-1.0367033,0.39988682,-0.56153685,0.0,1.0,0.0,0.0,0.0,0.0,0.0,-0.23868978,0.055621713,-0.11222261,2.5706172,-3.0904531,2.7182817,-3.2752514,3.2461643,-1.243329,0.8304864
23.16992,58.0316,20.849974,1.9508502,-0.03651604,-0.36022925,0.3712357,-0.422165,-0.75002915,-0.16885899,0.6791397,-0.4442462,0.45144767,0.32047588,0.27445406,-1.1499995,-2.0706916,-1.0405251,1.8709129,1.9381764,-0.92943865,0.30816045,-1.0883023,-2.0570405,-1.0959898,1.9085721,1.8969742,-0.95967984,-0.8357997,-1.3364902,-0.314636,1.2361733,-0.6698186,0.39131263,0.18323325,-0.4208393,-0.4540367,0.6565389,-0.9449432,0.15838529,-0.5735656,-0.41325188,-0.4684677,0.62128824,0.96990913,-0.0038615481,0.17473562,0.16949576,-0.99293053,0.3876738,-0.5810172,0.0,1.0,0.0,0.0,0.0,0.0,0.0,-0.22916067,0.054036707,-0.10653889,6.0794353,-2.4321795,3.5823286,-3.4495115,2.686739,-1.1793911,1.0480464
21.729204,60.42803,21.270239,2.9928014,0.04731947,-0.3216293,0.34267238,-0.41750842,-0.7593481,-0.13682647,0.66680247,-0.4410395,0.4337407,0.33042887,0.2664096,-1.164237,-2.070723,-1.0293096,1.8644681,1.9403483,-0.92663693,0.30021587,-1.1018063,-2.0599015,-1.0838629,1.902046,1.9008003,-0.9577696,-0.78104806,-1.35527,-0.2750468,1.2050649,-0.6480034,0.3796774,0.19361882,-0.43004227,-0.4524498,0.6506862,-0.9121168,0.15870392,-0.5893735,-0.42289734,-0.46471596,0.6153919,0.97121465,-0.0029061872,0.17435728,0.162275,-0.95060253,0.37678257,-0.5956972,0.0,1.0,0.0,0.0,0.0,0.0,0.0,-0.21995771,0.052449793,-0.10068619,5.3693175,-1.9970179,4.283452,-3.0833244,1.8167138,-1.2048423,1.0310203
-3.269236,47.915615,9.957842,8.107123,0.45304805,-0.33298296,0.12467105,-0.46074498,-0.7627478,-0.31882226,0.6620556,-0.4439006,0.36238822,0.38139337,0.25414136,-1.178081,-2.0917838,-1.0176573,1.8576559,1.9370391,-0.9196302,0.29248112,-1.1154457,-2.0633042,-1.0719687,1.8956598,1.9044607,-0.9557306,-0.77091044,-1.3673209,-0.36131012,1.1846907,-0.63609195,0.36118436,0.2073565,-0.4390602,-0.45084572,0.64442915,-0.89841753,0.16097188,-0.6384203,-0.43239594,-0.46097565,0.60912573,0.9724658,-0.0015138213,0.17381667,0.15522775,-0.94582033,0.3783995,-0.6404017,0.0,1.0,0.0,0.0,0.0,0.0,0.0,-0.21093976,0.050845712,-0.094429135,1.022613,-1.3123512,-8.530587,-1.8447876,1.0559678,-1.9212902,1.390928
-7.4028826,55.54634,11.881213,11.446202,0.72936994,-0.16951734,0.050860755,-0.44545993,-0.7498396,-0.28136298,0.6760698,-0.43601793,0.34937876,0.4154691,0.24793513,-1.1904297,-2.0914404,-1.0043617,1.852058,1.9393985,-0.91418374,0.2847721,-1.1290947,-2.067489,-1.060128,1.8893648,1.9079376,-0.95354015,-0.77087224,-1.364552,-0.43718573,1.1842915,-0.62795115,0.34284303,0.2229085,-0.44791985,-0.44919777,0.6377828,-0.88199675,0.16605593,-0.6740368,-0.44186592,-0.45715332,0.60252714,0.9736689,0.00043043238,0.17323896,0.14817904,-0.9432768,0.38870755,-0.6698062,0.0,1.0,0.0,0.0,0.0,0.0,0.0,-0.20208013,0.049197763,-0.0877828,0.022816658,0.15060902,-7.4555454,0.1532793,0.6381154,-1.9163787,1.557827
-4.566332,54.682644,11.88381,9.846036,0.6849133,-0.23207533,0.08323224,-0.4222417,-0.7598695,-0.32247153,0.6502034,-0.36105648,0.31262153,0.44588095,0.24254793,-1.2050817,-2.099736,-0.99510765,1.8532592,1.9391998,-0.90895206,0.27711648,-1.1427284,-2.0724823,-1.0483539,1.8833454,1.9112182,-0.95118463,-0.76383036,-1.3633077,-0.5195766,1.1757271,-0.5938852,0.3227855,0.23969479,-0.45662117,-0.44750977,0.630751,-0.86619234,0.169736,-0.7131083,-0.4513073,-0.45325089,0.5956116,0.9748311,0.0028993445,0.17255194,0.14114438,-0.93933445,0.39597905,-0.7020036,0.0,1.0,0.0,0.0,0.0,0.0,0.0,-0.1933788,0.04750976,-0.080751,0.70858,-0.0011444092,-8.092588,-0.680542,3.2227516,-2.1184504,1.6809285
-16.439278,50.94601,8.071712,11.971897,1.0137602,-0.13320512,0.006555125,-0.47259653,-0.7599964,-0.40554816,0.6248688,-0.31658664,0.14459583,0.47697714,0.22985682,-1.2187281,-2.113037,-0.985867,1.8516867,1.9256778,-0.9034869,0.26928967,-1.1563469,-2.0784867,-1.0367668,1.877776,1.9141861,-0.9486546,-0.7887551,-1.3618608,-0.6268181,1.1538506,-0.54512244,0.2876268,0.25745705,-0.4652214,-0.44576645,0.6232386,-0.8580817,0.1758072,-0.7637708,-0.46082306,-0.44919205,0.58831185,0.9759808,0.0060318545,0.17164038,0.13403188,-0.95097655,0.41431367,-0.74244916,0.0,1.0,0.0,0.0,0.0,0.0,0.0,-0.18477857,0.045766443,-0.07323861,-2.4438143,0.014710426,-10.640383,-1.9523621,4.7315,-3.6691308,1.7983973
-17.422852,53.67774,9.178559,12.589045,1.2943798,-0.08811623,-0.026644394,-0.47996297,-0.7585126,-0.41998404,0.616367,-0.21760167,-0.02855041,0.50304323,0.22129337,-1.2321982,-2.120485,-0.9751301,1.8560158,1.911331,-0.89835024,0.2611653,-1.1699482,-2.0854142,-1.0254219,1.8729292,1.9166901,-0.945945,-0.8201997,-1.3601158,-0.71445554,1.1288698,-0.46509174,0.23743229,0.27560914,-0.47374344,-0.44395638,0.6152492,-0.8500366,0.18282129,-0.80985266,-0.47048378,-0.4449215,0.58066344,0.97714645,0.0097945025,0.17033447,0.12678696,-0.96576905,0.43706134,-0.7755041,0.0,1.0,0.0,0.0,0.0,0.0,0.0,-0.17625654,0.04395637,-0.065249205,-3.1014085,0.03530979,-8.638859,-2.2731304,7.8083572,-5.2128763,1.850146
-10.632783,54.505802,11.187452,9.613107,1.4083929,-0.13955086,0.0191276,-0.47908786,-0.76489353,-0.4299345,0.5588458,-0.020368926,-0.2199566,0.5149212,0.21325651,-1.2464375,-2.1284077,-0.96953726,1.8708923,1.8946944,-0.8944529,0.25277388,-1.1835667,-2.0930011,-1.0145499,1.8693777,1.9185802,-0.94306195,-0.84543526,-1.3628037,-0.7725967,1.0739517,-0.31913987,0.1721563,0.29276377,-0.48217583,-0.44208527,0.6068149,-0.84060353,0.18848263,-0.8536357,-0.48026848,-0.44044495,0.57270825,0.9783714,0.01399314,0.16827978,0.119479835,-0.9766615,0.45673895,-0.8049257,0.0,1.0,0.0,0.0,0.0,0.0,0.0,-0.16782415,0.04208526,-0.05681491,-2.5135756,-0.39892197,-5.6495667,-5.3204536,14.354759,-6.758055,1.7727494
