Afshin1997/kuka_rl_ros2/src/catch_and_throw/input_files/idealpd/recorded_trajectories/env_146_data.csv
torque0,torque1,torque2,torque3,torque4,torque5,torque6,action0,action1,action2,action3,action4,action5,action6,set_target_0,set_target_1,set_target_2,set_target_3,set_target_4,set_target_5,set_target_6,joint_pos_0,joint_pos_1,joint_pos_2,joint_pos_3,joint_pos_4,joint_pos_5,joint_pos_6,joint_vel_0,joint_vel_1,joint_vel_2,joint_vel_3,joint_vel_4,joint_vel_5,joint_vel_6,tennisball_pos_0,tennisball_pos_1,tennisball_pos_2,tennisball_lin_vel_0,tennisball_lin_vel_1,tennisball_lin_vel_2,end_effector_pos_0,end_effector_pos_1,end_effector_pos_2,end_effector_rot_0,end_effector_rot_1,end_effector_rot_2,end_effector_rot_3,end_effector_lin_vel_0,end_effector_lin_vel_1,end_effector_lin_vel_2,obs_task_0,obs_task_1,obs_task_2,obs_task_3,obs_task_4,obs_task_5,obs_task_6,to_final_target_0,to_final_target_1,to_final_target_2,joint_acc_0,joint_acc_1,joint_acc_2,joint_acc_3,joint_acc_4,joint_acc_5,joint_acc_6
0.0,0.0,0.0,0.0,0.0,0.0,0.0,0.0,0.0,0.0,0.0,0.0,0.0,0.0,1.7802359,-1.0646509,-1.8151424,-1.1170107,1.9373155,1.1170107,-0.91629785,1.7802359,-1.0646509,-1.8151424,-1.1170107,1.9373155,1.1170107,-0.91629785,0.0,0.0,0.0,0.0,0.0,0.0,0.0,3.0964928,-0.6867676,0.121829554,-3.1634266,0.06548303,5.588269,0.5304184,-0.45449638,0.693097,0.5745483,0.17512383,0.15255436,0.7848268,0.0,0.0,0.0,1.0,0.0,0.0,0.0,0.0,0.0,0.0,-3.7464929,0.28676757,0.42817044,0.0,0.0,0.0,0.0,0.0,0.0,0.0
0.0,0.0,0.0,0.0,0.0,0.0,0.0,0.0,0.0,0.0,0.0,0.0,0.0,0.0,1.7802359,-1.0646509,-1.8151424,-1.1170107,1.9373155,1.1170107,-0.91629785,1.7802359,-1.0646509,-1.8151424,-1.1170107,1.9373155,1.1170107,-0.91629785,0.0,0.0,0.0,0.0,0.0,0.0,0.0,3.0964928,-0.6867676,0.121829554,-3.1634266,0.06548303,5.588269,0.5304184,-0.45449638,0.693097,0.5745483,0.17512383,0.15255436,0.7848268,0.0,0.0,0.0,1.0,0.0,0.0,0.0,0.0,0.0,0.0,-3.7464929,0.28676757,0.42817044,0.0,0.0,0.0,0.0,0.0,0.0,0.0
0.0,0.0,0.0,0.0,0.0,0.0,0.0,0.0,0.0,0.0,0.0,0.0,0.0,0.0,1.7802359,-1.0646509,-1.8151424,-1.1170107,1.9373155,1.1170107,-0.91629785,1.7802359,-1.0646509,-1.8151424,-1.1170107,1.9373155,1.1170107,-0.91629785,0.0,0.0,0.0,0.0,0.0,0.0,0.0,3.0964928,-0.6867676,0.121829554,-3.1634266,0.06548303,5.588269,0.5304184,-0.45449638,0.693097,0.5745483,0.17512383,0.15255436,0.7848268,0.0,0.0,0.0,1.0,0.0,0.0,0.0,0.0,0.0,0.0,-3.7464929,0.28676757,0.42817044,0.0,0.0,0.0,0.0,0.0,0.0,0.0
-176.0,33.590645,-20.028286,110.0,11.121678,3.5260198,-3.7005446,-0.80134314,0.17190382,-0.55671453,0.73995614,0.18589957,0.67809707,-0.6088184,1.7001016,-1.0474606,-1.8708138,-1.0430151,1.9559054,1.1848204,-0.9771797,1.7793719,-1.0631784,-1.8215587,-1.1110617,1.9420667,1.1228396,-0.91684145,-0.11485465,0.19572178,-0.8552842,0.7938993,0.63269377,0.77568847,-0.071750954,3.0648842,-0.68611336,0.17693388,-3.160264,0.065417565,5.484496,0.52833176,-0.45817757,0.6935648,0.5782422,0.17362522,0.15081522,0.78278023,-0.27801362,-0.49124378,0.062171742,1.0,0.0,0.0,0.0,0.0,0.0,0.0,-3.7148843,0.28611335,0.37306613,-11.3471575,19.382729,-85.481285,79.57908,63.071896,77.06275,-6.9323344
-176.0,-40.60856,-47.84237,106.44343,11.351986,0.96579367,-3.1130276,-0.7810374,-0.2377673,-0.52244294,0.6967909,0.361574,0.66129756,-0.55347246,1.7012681,-1.0869552,-1.873803,-1.0413826,1.978224,1.1889694,-0.9721887,1.778256,-1.061889,-1.8366477,-1.0954462,1.9507108,1.1361643,-0.9158849,-0.1109569,0.099023566,-1.7104235,1.8196414,0.9327244,1.4962881,0.14896527,3.0333061,-0.68546104,0.23100126,-3.1571043,0.065352164,5.3808265,0.523716,-0.46723175,0.6938361,0.5862565,0.170323,0.14695776,0.77826524,-0.523699,-1.0415044,0.017769523,1.0,0.0,0.0,0.0,0.0,0.0,0.0,-3.6833062,0.28546104,0.31899875,0.22155792,-11.962044,-80.61924,103.249695,27.287054,65.48562,21.326204
-150.29608,112.461395,32.94036,88.81037,7.9585414,7.752692,-1.7146976,-0.7584225,0.19761562,0.20286441,0.67248404,0.40403548,0.69888437,-0.48398438,1.7024138,-1.0421275,-1.8163613,-1.0281978,1.9911144,1.2060528,-0.96428335,1.7738177,-1.060407,-1.851012,-1.0756384,1.9601655,1.1509444,-0.9147138,-0.5546892,0.16121583,-1.3383185,2.0360074,0.94396865,1.4657164,0.10532011,3.0017586,-0.68480873,0.2840327,-3.1539478,0.06528682,5.2772603,0.5161629,-0.47908592,0.69576067,0.59692854,0.16536821,0.14161405,0.7721885,-0.84049696,-1.225683,0.25419995,1.0,0.0,0.0,0.0,0.0,0.0,0.0,-3.6517587,0.28480873,0.2659673,-44.365547,5.2452745,39.268303,22.071743,-0.59639215,-4.9144983,-4.741788
-101.632545,79.13258,30.23713,51.215168,5.418101,6.544143,-0.06725987,-0.7679988,-0.13702041,0.2560133,0.675169,0.4349813,0.6841452,-0.5500129,1.6970178,-1.0741091,-1.8254106,-1.0081215,2.0036635,1.2193589,-0.9697151,1.7649561,-1.0598024,-1.8591316,-1.0561968,1.9690061,1.1646696,-0.914175,-0.9971679,0.02512451,-0.6298803,1.9144973,0.85836774,1.3384563,0.036023423,2.9702415,-0.6841564,0.33602926,-3.1507945,0.06522155,5.173798,0.5059929,-0.49186516,0.6992921,0.608368,0.15924516,0.13459618,0.7657762,-1.0874343,-1.283504,0.38944006,1.0,0.0,0.0,0.0,0.0,0.0,0.0,-3.6202416,0.2841564,0.21397075,-44.397808,-14.138749,72.86136,-11.837816,-10.301018,-13.607311,-7.1374507
-39.901714,137.2272,55.998703,30.532562,2.4216714,7.281976,0.5314132,-0.78002346,0.15528958,0.3401439,0.6793335,0.5527272,0.6889265,-0.5542314,1.6869538,-1.0442735,-1.8251172,-0.9882635,2.0242789,1.2335622,-0.9695981,1.7524782,-1.0592397,-1.859967,-1.0390745,1.9771905,1.176993,-0.91437525,-1.3324884,0.06487345,0.104885116,1.6446036,0.80036163,1.1956584,-0.04078261,2.938755,-0.6835041,0.38699198,-3.1476443,0.06515634,5.070439,0.49389267,-0.5039921,0.7046303,0.61946297,0.1518685,0.12624916,0.75977796,-1.2637957,-1.1766798,0.5824229,1.0,0.0,0.0,0.0,0.0,0.0,0.0,-3.5887551,0.2835041,0.16300803,-33.844925,3.4318128,75.412224,-27.102352,-7.2168946,-14.725351,-8.303477
-10.75078,96.86342,37.119125,11.451497,0.5733514,4.0188775,0.52973974,-0.7940975,0.056857638,0.20273785,0.6716597,0.5404674,0.67130077,-0.59995157,1.6730685,-1.0535539,-1.8396932,-0.97190857,2.0312371,1.2441231,-0.9743704,1.7377478,-1.0584959,-1.855788,-1.024592,1.9849267,1.1880137,-0.91529936,-1.5205382,0.076536655,0.5252365,1.3825837,0.762438,1.071015,-0.11081746,2.907299,-0.6828518,0.4369219,-3.1444974,0.06509119,4.9671836,0.48073578,-0.5150604,0.71095896,0.62988925,0.1438747,0.11728002,0.7541782,-1.3449752,-1.0711732,0.6473666,1.0,0.0,0.0,0.0,0.0,0.0,0.0,-3.5572991,0.2828518,0.11307812,-18.993187,0.8937627,42.98008,-26.330853,-4.42636,-12.393618,-7.3745356
17.17416,143.32742,49.378727,9.295469,-1.2943823,3.881285,0.014067352,-0.8001012,0.40837675,0.13807717,0.65085316,0.56789213,0.680323,-0.58518606,1.6577376,-1.0176582,-1.8419802,-0.95950675,2.0417159,1.2560459,-0.97381794,1.7220541,-1.0559801,-1.8496349,-1.0122133,1.9925218,1.197949,-0.91684335,-1.5863609,0.3088293,0.6477616,1.1893182,0.75754976,0.9685379,-0.17065804,2.8758812,-0.6822014,0.48582003,-3.1413536,0.06502612,4.8640313,0.46717072,-0.52462006,0.7183025,0.6398586,0.1353979,0.1088852,0.7485935,-1.3721827,-0.9055064,0.76005334,1.0,0.0,0.0,0.0,0.0,0.0,0.0,-3.5258813,0.28220138,0.06417999,-6.8303823,22.901815,12.95458,-19.39838,-0.7519245,-10.014153,-6.5132976
18.223335,121.81146,35.806313,7.2252874,-1.9006039,1.9913988,-0.4770617,-0.8129873,0.4437406,-0.047214586,0.64205986,0.5399411,0.6622323,-0.60033244,1.6407554,-1.011606,-1.8543563,-0.94800735,2.046516,1.2641723,-0.9768766,1.7062346,-1.0510172,-1.8444583,-1.0011164,2.000092,1.2069842,-0.9189128,-1.5811745,0.5580613,0.475126,1.0830532,0.7566826,0.88279974,-0.22029912,2.8444939,-0.6815529,0.5336874,-3.138213,0.064961106,4.760982,0.45362854,-0.53279305,0.7263034,0.6497715,0.12683585,0.10198919,0.742501,-1.3578213,-0.77561694,0.8101519,1.0,0.0,0.0,0.0,0.0,0.0,0.0,-3.494494,0.28155288,0.0163126,0.29261112,24.713825,-16.946083,-10.688043,-0.088596344,-8.308947,-5.3332834
17.767473,117.79424,32.019222,8.65475,-1.9817679,1.4214237,-0.7142763,-0.81789476,0.5657898,-0.12853949,0.62688035,0.5460105,0.6724098,-0.5832782,1.6244451,-0.9944382,-1.8573123,-0.93842834,2.054693,1.2742251,-0.9772406,1.6906973,-1.0434545,-1.8419139,-0.99060214,2.0077024,1.2152792,-0.9213981,-1.54523,0.8218457,0.1817256,1.0404396,0.7628277,0.8119844,-0.2590888,2.813137,-0.6809044,0.58052504,-3.1350753,0.06489616,4.6580358,0.44031143,-0.53980637,0.73472804,0.659913,0.11843137,0.09699413,0.7355821,-1.3306867,-0.6629904,0.85078377,1.0,0.0,0.0,0.0,0.0,0.0,0.0,-3.4631371,0.28090438,-0.030525029,3.3799648,26.199173,-29.109594,-4.371953,0.6695509,-6.9462895,-4.203582
11.717268,97.500084,24.658997,9.836354,-1.4218833,0.8682871,-0.72618407,-0.8178182,0.5948954,-0.19668254,0.63137215,0.54945,0.66372854,-0.5829242,1.6089154,-0.983965,-1.8615822,-0.9274649,2.0626473,1.2816521,-0.97969055,1.6755549,-1.0337576,-1.8423679,-0.9801613,2.0153928,1.2229449,-0.92421335,-1.5043668,1.0185683,-0.1206062,1.0446715,0.7711588,0.7515499,-0.2899592,2.7818108,-0.6802559,0.626334,-3.1319408,0.06483128,4.5551925,0.42723083,-0.5459614,0.74336404,0.67039126,0.11032117,0.09374895,0.72774714,-1.3060975,-0.58586425,0.8662282,1.0,0.0,0.0,0.0,0.0,0.0,0.0,-3.4318109,0.28025588,-0.076334,3.9187193,19.534184,-30.058992,0.23112297,0.8923292,-6.0444593,-3.3634424
9.521116,86.65634,22.739988,10.193844,-0.8376479,0.9141177,-0.51676875,-0.8167197,0.63461673,-0.20442939,0.6135061,0.56793535,0.6655773,-0.584464,1.5938829,-0.9702959,-1.8628109,-0.9188107,2.0721862,1.2895026,-0.98265976,1.6607538,-1.0225881,-1.845185,-0.96961176,2.023209,1.2300822,-0.9272956,-1.4726163,1.1492053,-0.334719,1.0575402,0.7852926,0.7006509,-0.31526592,2.750515,-0.6796074,0.67111534,-3.1288097,0.06476646,4.452452,0.41431808,-0.5514641,0.7521186,0.681113,0.10247821,0.091777235,0.7191385,-1.2914515,-0.52351165,0.8777918,1.0,0.0,0.0,0.0,0.0,0.0,0.0,-3.400515,0.2796074,-0.12111533,3.0158997,12.9348755,-21.147453,1.0365248,1.4194846,-5.1929355,-2.8228283
8.990096,76.78356,21.186651,9.512338,-0.4164858,0.95803475,-0.28897038,-0.80892116,0.6568784,-0.22976626,0.6011677,0.5704193,0.66943836,-0.5847783,1.5798618,-0.9569003,-1.8681617,-0.909495,2.080251,1.297026,-0.98577344,1.6462027,-1.010568,-1.8494728,-0.9589745,2.031159,1.236777,-0.9305963,-1.4498442,1.2191938,-0.45880836,1.0649642,0.79780006,0.65871453,-0.33613926,2.7192497,-0.6789589,0.71487004,-3.1256814,0.064701706,4.3498144,0.40149307,-0.5564079,0.7609362,0.6919051,0.094827004,0.09058917,0.7099779,-1.2834222,-0.46957827,0.8833033,1.0,0.0,0.0,0.0,0.0,0.0,0.0,-3.3692498,0.2789589,-0.16487002,2.1149635,6.884837,-12.056219,0.4623413,1.2150168,-4.3210387,-2.3990154
8.48752,72.172264,21.088297,9.383925,-0.08793673,1.122031,-0.09580848,-0.8097408,0.67554307,-0.231164,0.589577,0.5749313,0.67484796,-0.58222646,1.5652286,-0.9430137,-1.8725891,-0.9000168,2.0886521,1.3042617,-0.98881894,1.631785,-0.99814737,-1.8543823,-0.9483458,2.0392156,1.2431113,-0.9340772,-1.4396981,1.2493663,-0.5000139,1.0613006,0.808132,0.6245905,-0.35318768,2.688015,-0.6783123,0.7575991,-3.1225564,0.06463702,4.247279,0.38869476,-0.560833,0.7698085,0.7026063,0.08726158,0.08979268,0.7004763,-1.2824336,-0.417778,0.8891971,1.0,0.0,0.0,0.0,0.0,0.0,0.0,-3.338015,0.2783123,-0.2075991,0.8362293,2.9092789,-3.6650896,-0.64988136,0.9496093,-3.5529017,-2.0356178
9.904294,71.04686,21.62122,8.803417,0.031704485,1.2336447,0.048638966,-0.8052444,0.6926063,-0.22942457,0.5742286,0.58591545,0.67478603,-0.5855102,1.5512606,-0.9288868,-1.8773247,-0.8909229,2.0978072,1.3105899,-0.9926282,1.6174246,-0.98556745,-1.8593051,-0.93784773,2.047379,1.2491518,-0.93770975,-1.4356555,1.2604821,-0.48790726,1.0449563,0.81881243,0.59675014,-0.36766163,2.6568108,-0.6776676,0.7993036,-3.1194344,0.064572394,4.1448464,0.37589264,-0.56471443,0.7787502,0.71308523,0.07969066,0.089132555,0.690807,-1.2827629,-0.36279038,0.8965261,1.0,0.0,0.0,0.0,0.0,0.0,0.0,-3.3068109,0.2776676,-0.24930358,0.20911694,1.009059,1.7409623,-1.9195557,0.9529114,-2.9154658,-1.7942667
10.775534,71.64067,22.19526,8.701231,0.09208965,1.3252457,0.1375451,-0.80652755,0.7044524,-0.21305399,0.5588261,0.5941612,0.6797691,-0.57829815,1.5367719,-0.9151222,-1.8806106,-0.8819651,2.106795,1.3171288,-0.99553955,1.6030604,-0.9729265,-1.8638637,-0.92758334,2.0556493,1.2549559,-0.94146246,-1.4372115,1.2650031,-0.44329837,1.0193356,0.8296079,0.5745196,-0.37898567,2.625637,-0.67702293,0.83998454,-3.1163156,0.064507835,4.042516,0.36307907,-0.5680218,0.7877836,0.72325563,0.072044134,0.088469185,0.68109035,-1.2836149,-0.30419803,0.9061506,1.0,0.0,0.0,0.0,0.0,0.0,0.0,-3.2756371,0.27702293,-0.28998452,-0.3631115,0.35157204,5.0419035,-2.8422356,0.945127,-2.3481488,-1.4880002
12.135828,72.57712,22.556948,8.509599,0.07377398,1.3459177,0.18469745,-0.8041274,0.71301025,-0.19227245,0.544514,0.6011383,0.68307686,-0.57915723,1.5226476,-0.90162545,-1.883091,-0.87313193,2.1157632,1.3232635,-0.9993782,1.588677,-0.9602417,-1.8678768,-0.9176079,2.0640264,1.2605711,-0.9453134,-1.4393018,1.2693468,-0.38509727,0.98941,0.8401734,0.5568993,-0.38829213,2.5944939,-0.67637825,0.8796429,-3.1132,0.06444334,3.9402888,0.35026932,-0.5707207,0.7969245,0.7330686,0.06427438,0.087745346,0.67140156,-1.2822696,-0.2422714,0.9169923,1.0,0.0,0.0,0.0,0.0,0.0,0.0,-3.244494,0.27637824,-0.3296429,-0.41968822,0.33853054,6.4150214,-3.266108,0.91941357,-1.8703341,-1.2865365
13.070681,73.19526,22.475742,8.477753,0.034538865,1.3024714,0.19399023,-0.80145556,0.7228016,-0.17812917,0.5313235,0.61375153,0.6853066,-0.5757723,1.5085315,-0.8879615,-1.8856897,-0.86447555,2.1254015,1.3291018,-1.0028906,1.5742861,-0.9474834,-1.8713367,-0.9079319,2.0725255,1.2660376,-0.94924253,-1.4395527,1.2777312,-0.33094156,0.9594899,0.8529108,0.5429612,-0.3955423,2.5633888,-0.67573357,0.91827977,-3.1100874,0.06437891,3.8381634,0.33749008,-0.5727844,0.806174,0.74251026,0.056361273,0.08695838,0.6617704,-1.2779181,-0.1790386,0.92754,1.0,0.0,0.0,0.0,0.0,0.0,0.0,-3.213389,0.27573356,-0.36827976,-0.23212433,0.74813366,5.9975386,-3.2585382,1.1488557,-1.487124,-1.0752261
14.908089,74.48162,22.808184,7.9252057,-0.059854865,1.2835301,0.23709993,-0.8025275,0.73173594,-0.13899979,0.5017417,0.6208006,0.6855746,-0.568356,1.4940333,-0.87430984,-1.8852366,-0.85775775,2.1346056,1.3345951,-1.0060781,1.5598952,-0.9346107,-1.874213,-0.8986174,2.0811505,1.2713877,-0.95322794,-1.4398365,1.2902254,-0.27137792,0.9212342,0.8655277,0.53196305,-0.40068793,2.5323143,-0.6750889,0.95589614,-3.106978,0.064314544,3.73614,0.3247795,-0.5741806,0.81553364,0.7515495,0.04829068,0.0861174,0.6522462,-1.2689509,-0.11157276,0.93816626,1.0,0.0,0.0,0.0,0.0,0.0,0.0,-3.1823144,0.27508888,-0.40589613,-0.23851395,1.1651516,6.543088,-4.0883064,1.1422634,-1.1658549,-0.86364746
16.549133,73.27203,22.054852,6.6968675,-0.22340158,1.1346953,0.2644227,-0.8027762,0.7407095,-0.12519278,0.46263665,0.6298861,0.691445,-0.5671508,1.4796176,-0.8605398,-1.8867322,-0.8523537,2.144139,1.3405322,-1.009943,1.5455004,-0.92158926,-1.8765762,-0.8897902,2.089909,1.2766482,-0.9572553,-1.4399812,1.3059074,-0.22283643,0.86898994,0.87855893,0.52415687,-0.40451726,2.5012703,-0.6744461,0.99249303,-3.1038716,0.064250246,3.6342187,0.3122177,-0.5749016,0.82495433,0.760161,0.040101662,0.08526428,0.6428663,-1.2525171,-0.04298462,0.94236326,1.0,0.0,0.0,0.0,0.0,0.0,0.0,-3.1512704,0.2744461,-0.44249302,-0.22189617,1.4987469,5.4121017,-5.4902434,1.2040615,-0.7940769,-0.71899295
15.876178,70.02361,20.31619,6.515442,-0.2978217,0.92623675,0.22049607,-0.8006725,0.74707806,-0.13204853,0.445613,0.62413615,0.69164014,-0.5553207,1.4654331,-0.84688145,-1.889781,-0.84522885,2.1523228,1.3458122,-1.0127873,1.5311152,-0.9084095,-1.8786438,-0.8814703,2.0987515,1.2818457,-0.9613046,-1.4386512,1.3217341,-0.1997079,0.81878775,0.88614917,0.5183827,-0.40615535,2.4702568,-0.67380524,1.0280715,-3.1007683,0.06418601,3.5323994,0.29984283,-0.57497025,0.8343646,0.7683709,0.031853747,0.0844892,0.6336032,-1.2318641,0.020036519,0.9390646,1.0,0.0,0.0,0.0,0.0,0.0,0.0,-3.120257,0.27380523,-0.4780715,-0.058412552,1.5300751,2.8010666,-5.283129,0.6986022,-0.55224895,-0.47442913
22.024548,68.41409,20.211206,2.470807,-0.6562773,0.7126844,0.38361505,-0.79720426,0.7530803,-0.08741355,0.34987387,0.6490145,0.6937779,-0.55130035,1.4513948,-0.83310145,-1.8873851,-0.84648293,2.163653,1.3512235,-1.0164347,1.5167605,-0.8950819,-1.8804061,-0.87397444,2.10772,1.2870013,-0.96536344,-1.4350808,1.3363568,-0.16663736,0.7256017,0.9000606,0.51514316,-0.406822,2.4392738,-0.67316437,1.0626326,-3.0976682,0.064121835,3.430682,0.2877922,-0.5743599,0.8436648,0.7760879,0.023639487,0.083805814,0.62458414,-1.1941469,0.089017496,0.92532533,1.0,0.0,0.0,0.0,0.0,0.0,0.0,-3.089274,0.27316436,-0.51263255,0.15950203,1.4348507,3.7955256,-9.602046,1.3415933,-0.19208193,-0.37599802
28.923952,68.78566,21.164661,-1.5398989,-0.99661815,0.5879721,0.5951452,-0.7987404,0.75837386,-0.011396761,0.24522528,0.6586104,0.6790272,-0.5429461,1.4368864,-0.8192445,-1.8815458,-0.8494519,2.173581,1.3549039,-1.0196581,1.5024325,-0.8816227,-1.8815582,-0.86776793,2.116837,1.2921263,-0.9694204,-1.4328368,1.3489987,-0.09634228,0.58476555,0.91555876,0.5123855,-0.40635118,2.4083214,-0.6725235,1.0961772,-3.094571,0.06405773,3.3290663,0.27624893,-0.57299423,0.8527853,0.78315336,0.01552045,0.08317045,0.61604595,-1.1391916,0.16644047,0.90551364,1.0,0.0,0.0,0.0,0.0,0.0,0.0,-3.0583215,0.2725235,-0.5461772,0.023531914,1.2619495,7.524195,-14.3677,1.5103579,-0.036478043,-0.25763512
37.48757,63.69617,19.899374,-8.339629,-1.6358062,0.11041814,0.8013719,-0.7908892,0.7647861,-0.0042374646,0.08781471,0.67655754,0.6803101,-0.53761625,1.4233435,-0.8051441,-1.881982,-0.85898644,2.1844928,1.3601573,-1.023182,1.488156,-0.86804426,-1.8820579,-0.86349165,2.126141,1.297238,-0.9734668,-1.4265224,1.360933,-0.0331304,0.37431708,0.93521655,0.5121893,-0.4048885,2.3773994,-0.6718826,1.1287065,-3.0914772,0.063993685,3.2275522,0.26546097,-0.5708294,0.86154246,0.78941286,0.007689362,0.08263042,0.6082273,-1.0548486,0.24590409,0.86325663,1.0,0.0,0.0,0.0,0.0,0.0,0.0,-3.0273995,0.27188262,-0.57870644,0.45354366,1.2369633,6.728844,-21.336674,1.9775629,0.40388107,-0.11828542
44.97768,61.016106,19.604403,-13.8292,-2.154246,-0.24328768,1.0001514,-0.78827477,0.7720763,0.05145329,-0.081378266,0.68368876,0.6773141,-0.5287846,1.4093285,-0.79083663,-1.8769126,-0.8716295,2.19451,1.3649694,-1.0263453,1.47395,-0.8543447,-1.8818309,-0.8617722,2.1356359,1.3023554,-0.9774894,-1.4190975,1.373223,0.042401563,0.10358436,0.9541884,0.5135422,-0.40211067,2.346508,-0.67124176,1.1602213,-3.0883863,0.0639297,3.1261394,0.25569916,-0.5678406,0.8697688,0.79472697,0.000329228,0.08224128,0.60136956,-0.94575405,0.32751536,0.8061913,1.0,0.0,0.0,0.0,0.0,0.0,0.0,-2.9965081,0.27124175,-0.6102213,0.6053448,1.3131618,7.8488917,-27.332848,1.9725919,0.69988966,0.06952286
47.597645,59.60223,19.32823,-15.42551,-2.320784,-0.47075987,1.0552348,-0.77890646,0.7795482,0.09663011,-0.20944114,0.6833003,0.6669993,-0.50658,1.3960594,-0.7763899,-1.872168,-0.8827163,2.203966,1.3690554,-1.0281475,1.4598528,-0.8405174,-1.8808162,-0.8628508,2.1452832,1.3074843,-0.98146623,-1.4069605,1.3863275,0.12161827,-0.17896175,0.96866477,0.5145602,-0.39667583,2.3156471,-0.6706028,1.1907228,-3.0852985,0.06386579,3.0248282,0.24710083,-0.5640564,0.8773976,0.7990561,-0.006475124,0.082037024,0.59559816,-0.8262068,0.40462166,0.7450686,1.0,0.0,0.0,0.0,0.0,0.0,0.0,-2.9656472,0.2706028,-0.6407228,1.1420727,1.426363,8.046039,-28.448841,1.6134739,0.715816,0.40658116
40.537468,61.246147,19.475466,-9.412686,-1.7239739,-0.32684076,0.8834981,-0.7738747,0.78445786,0.1537296,-0.2432127,0.6858531,0.6560102,-0.47594875,1.3824654,-0.7620716,-1.8654432,-0.88717204,2.2138686,1.3730853,-1.0290611,1.4458834,-0.8265661,-1.8789413,-0.8662392,2.155045,1.3126093,-0.98536676,-1.3936577,1.3984039,0.20933734,-0.3924791,0.9799048,0.5134944,-0.38813442,2.2848167,-0.66996574,1.2202119,-3.0822139,0.06380194,2.923618,0.23953629,-0.5595741,0.88455296,0.80253136,-0.012843214,0.081956305,0.5908144,-0.72764605,0.4697456,0.7016686,1.0,0.0,0.0,0.0,0.0,0.0,0.0,-2.9348168,0.26996574,-0.67021185,1.3072491,1.337862,8.721945,-21.482681,1.3990998,0.41520596,0.76871514
30.173485,63.54469,19.684624,-0.76876116,-0.8772913,-0.024028838,0.6329299,-0.76750547,0.7858231,0.21379115,-0.2419583,0.6792236,0.65593606,-0.42718813,1.3691329,-0.7479838,-1.8575622,-0.89043504,2.2229674,1.3782029,-1.0280856,1.4320494,-0.8125223,-1.8761203,-0.87101996,2.1648717,1.3177172,-0.98915094,-1.3800248,1.4069259,0.30575958,-0.50702524,0.9851857,0.5110563,-0.37531862,2.2540169,-0.6693287,1.2486897,-3.0791323,0.063738145,2.8225093,0.23270798,-0.55452156,0.8914627,0.8053641,-0.019028839,0.08187959,0.5867898,-0.661686,0.5227554,0.6830483,1.0,0.0,0.0,0.0,0.0,0.0,0.0,-2.904017,0.26932868,-0.69868964,1.3553143,0.98900795,9.466648,-11.561275,0.90066195,0.15630722,1.2115419
23.403755,66.730255,20.653475,5.343307,-0.28039825,0.28511107,0.50276595,-0.7690546,0.78929275,0.30443162,-0.2718273,0.6771526,0.6522053,-0.38695768,1.3551439,-0.733593,-1.8456771,-0.8982027,2.2325869,1.3829377,-1.0278467,1.4183108,-0.79840887,-1.8721397,-0.87647974,2.1747289,1.3227946,-0.99278444,-1.3718588,1.4133341,0.42799112,-0.5592274,0.9871786,0.50759375,-0.35957316,2.2232475,-0.66869164,1.2761571,-3.0760539,0.06367442,2.7215016,0.22636414,-0.54896164,0.89833915,0.80769366,-0.025275327,0.081680484,0.58336985,-0.6193372,0.5726963,0.68435794,1.0,0.0,0.0,0.0,0.0,0.0,0.0,-2.8732476,0.26869163,-0.7261571,0.80583096,0.7831335,11.975217,-5.310631,0.64718723,-0.017035007,1.5100181
17.568523,68.79724,21.32135,10.861948,0.259771,0.5446125,0.3807936,-0.76161283,0.78805286,0.38388702,-0.24746415,0.675566,0.6502166,-0.3217848,1.3421495,-0.7196036,-1.833751,-0.90122616,2.2422855,1.3878162,-1.0249629,1.4046522,-0.7842611,-1.8668163,-0.8819815,2.1845899,1.3278338,-0.9962253,-1.3637819,1.4157752,0.56622523,-0.5473981,0.98726225,0.50356466,-0.3390614,2.1925087,-0.6680546,1.3026153,-3.0729785,0.06361076,2.6205947,0.22026825,-0.54291916,0.9053612,0.8096207,-0.03180284,0.08124593,0.58043253,-0.598321,0.61950713,0.70300454,1.0,0.0,0.0,0.0,0.0,0.0,0.0,-2.8425088,0.26805457,-0.7526153,0.7966757,0.39072037,13.522225,1.0992527,0.51122904,-0.13424158,1.9805789
8.220864,66.291115,19.63924,16.543697,0.80135834,0.6645205,0.17137285,-0.7735334,0.787989,0.4155591,-0.19657171,0.6735629,0.6509444,-0.2633352,1.3272989,-0.7054622,-1.8252604,-0.9016387,2.2519462,1.3929282,-1.0225588,1.3909937,-0.7701076,-1.8602645,-0.8869492,2.1944394,1.3328329,-0.9994325,-1.3667722,1.4156952,0.68385607,-0.4801956,0.9855195,0.49916953,-0.31491587,2.1618004,-0.6674175,1.3280652,-3.069906,0.063547164,2.519789,0.21421051,-0.5364933,0.9126318,0.8112912,-0.038741067,0.08054817,0.5777694,-0.60130304,0.65566313,0.7296056,1.0,0.0,0.0,0.0,0.0,0.0,0.0,-2.8118005,0.26741752,-0.77806515,-0.33800602,0.13377666,11.4824295,6.616455,0.31250715,-0.2565503,2.3382127
-0.7712383,63.728867,17.73635,22.339634,1.3006797,0.7585428,-0.08754106,-0.7751894,0.790876,0.4272073,-0.09529696,0.6665301,0.65490746,-0.2274725,1.3134748,-0.69102,-1.8175439,-0.8964789,2.2610924,1.3983237,-1.0221797,1.3772742,-0.75595033,-1.8528335,-0.89076006,2.2042432,1.3377901,-1.0023923,-1.3738694,1.4161955,0.7619991,-0.348491,0.98060775,0.4947682,-0.2899822,2.1311226,-0.6667824,1.3525077,-3.0668368,0.063483626,2.4190838,0.20794678,-0.52978134,0.92023206,0.8128976,-0.046190016,0.07962857,0.5750854,-0.6274902,0.68101346,0.7644,1.0,0.0,0.0,0.0,0.0,0.0,0.0,-2.7811227,0.26678237,-0.8025077,-0.7755041,0.18920898,7.5577617,13.040531,-0.028634071,-0.34956336,2.408725
-13.585,57.46718,14.19285,29.557976,2.0090754,0.8422306,-0.4344108,-0.794399,0.7831037,0.41315755,0.053899582,0.6608125,0.66226226,-0.22021674,1.2978343,-0.67763996,-1.8115177,-0.88537014,2.2703245,1.4040164,-1.024414,1.3633906,-0.7418264,-1.8450077,-0.892697,2.213986,1.3427054,-1.0051236,-1.3934406,1.4115517,0.7888303,-0.14270899,0.97331166,0.49031416,-0.2676871,2.1004753,-0.66614914,1.3759439,-3.0637705,0.063420154,2.3184795,0.20116806,-0.52295685,0.9282268,0.8146886,-0.054239344,0.07852423,0.5719917,-0.68592757,0.68879515,0.8051648,1.0,0.0,0.0,0.0,0.0,0.0,0.0,-2.7504754,0.26614913,-0.8259439,-2.069521,-0.33409595,2.473259,20.400995,-0.30874014,-0.48810244,2.1342337
-19.279171,53.606247,12.190191,33.019485,2.325328,0.8523921,-0.63348824,-0.79649395,0.78064567,0.39657298,0.18849617,0.66231406,0.66631496,-0.22669037,1.2837411,-0.66376185,-1.8053503,-0.87384737,2.2802174,1.4093368,-1.0277927,1.3493181,-0.7277616,-1.83722,-0.8922497,2.2236638,1.3475786,-1.0076623,-1.4122167,1.4051144,0.77466244,0.10666813,0.9676156,0.48595694,-0.24945161,2.0698586,-0.6655159,1.3983749,-3.0607076,0.06335675,2.2179759,0.19369888,-0.5161171,0.9366458,0.8168348,-0.06294514,0.07727503,0.5681965,-0.75965077,0.6889544,0.847921,1.0,0.0,0.0,0.0,0.0,0.0,0.0,-2.7198586,0.2655159,-0.8483749,-1.9927979,-0.52599907,-1.6125917,24.757519,-0.17751455,-0.5660355,1.7278731
-15.795325,50.2176,11.149288,29.295753,1.9201096,0.62570614,-0.5776983,-0.8038136,0.78066355,0.38284382,0.2304718,0.65891916,0.67093503,-0.25814795,1.2689368,-0.6496953,-1.7989355,-0.8692025,2.2895558,1.4146721,-1.0334771,1.3350664,-0.71375406,-1.8297412,-0.88960135,2.2332845,1.3524176,-1.0100636,-1.4296942,1.3996136,0.73864204,0.3169117,0.9616823,0.48279464,-0.23740703,2.0392723,-0.66488266,1.4198016,-3.0576475,0.063293405,2.1175725,0.18560028,-0.5092602,0.9453801,0.81932867,-0.072201654,0.07596498,0.5636636,-0.8189448,0.69188315,0.8756597,1.0,0.0,0.0,0.0,0.0,0.0,0.0,-2.6892724,0.26488265,-0.8698016,-1.8492699,-0.4566908,-3.7436724,20.867405,-0.26094913,-0.42984486,1.116094
-4.0291424,47.068344,10.856226,18.815544,0.8695136,0.12957576,-0.2861152,-0.8106264,0.78264636,0.37182054,0.17782286,0.6620761,0.6690497,-0.31708476,1.2540038,-0.6354894,-1.7925591,-0.8718191,2.2994921,1.4193226,-1.0417721,1.3206602,-0.69977796,-1.8226573,-0.8857237,2.2428632,1.3572336,-1.0124097,-1.4447646,1.3971596,0.6982368,0.410918,0.95785224,0.48151013,-0.23387654,2.0087166,-0.6642494,1.4402249,-3.0545905,0.06323012,2.0172696,0.1772232,-0.50231934,0.9541615,0.82198906,-0.081698984,0.07473496,0.55863583,-0.8353243,0.70301646,0.8725981,1.0,0.0,0.0,0.0,0.0,0.0,0.0,-2.6587167,0.2642494,-0.8902249,-1.6025305,-0.17819405,-4.066038,9.256244,-0.14920235,-0.09243488,0.26522875
9.335495,46.539715,11.842255,8.172188,-0.17064214,-0.32144654,0.08731475,-0.8113072,0.7825469,0.38801575,0.116232075,0.66453606,0.6608334,-0.31103018,1.2395295,-0.62152326,-1.7838558,-0.8741005,2.3093169,1.423317,-1.0435127,1.3061472,-0.68581235,-1.8158157,-0.8817717,2.2524228,1.3620459,-1.014729,-1.4538935,1.3964802,0.679923,0.38951677,0.95569927,0.481613,-0.23172824,1.9781914,-0.6636162,1.459646,-3.0515366,0.06316691,1.9170668,0.16902542,-0.4952011,0.9627211,0.8245552,-0.09111797,0.073684916,0.5535131,-0.80651706,0.7236594,0.8441131,1.0,0.0,0.0,0.0,0.0,0.0,0.0,-2.6281915,0.26361617,-0.909646,-0.99897385,-0.01718998,-1.7422438,-2.2715628,-0.07337332,0.21981001,0.11729598
16.227636,45.078266,11.882264,2.2923536,-0.71661466,-0.6501528,0.28988475,-0.8136172,0.7812937,0.377427,0.08505893,0.66902,0.6616962,-0.28205505,1.2247854,-0.607683,-1.778073,-0.8732658,2.3193247,1.4282155,-1.0429345,1.2915732,-0.6718515,-1.8090999,-0.87850153,2.2619786,1.3668658,-1.0170121,-1.4589158,1.396113,0.6691719,0.305698,0.9561132,0.4831335,-0.22741781,1.9476967,-0.66298485,1.4780658,-3.0484855,0.06310376,1.8169641,0.16129684,-0.48786545,0.9708874,0.82686156,-0.100238726,0.072874956,0.5485813,-0.75249916,0.74466467,0.80115783,1.0,0.0,0.0,0.0,0.0,0.0,0.0,-2.5976968,0.26298484,-0.92806584,-0.5740166,0.013637543,-0.95032454,-8.504337,0.14269352,0.46230555,0.33902526
19.231766,46.046974,12.532354,0.7029681,-0.8940819,-0.75953555,0.36734977,-0.80868924,0.78255016,0.38235667,0.0705367,0.661518,0.66006947,-0.26324305,1.2107042,-0.5935965,-1.7708642,-0.87144786,2.3281305,1.4328727,-1.0433364,1.277001,-0.6578859,-1.8024051,-0.87615645,2.271523,1.3717009,-1.0192399,-1.4568459,1.3969547,0.66975534,0.21045278,0.9540679,0.4847764,-0.22155727,1.9172325,-0.6623554,1.4954854,-3.0454378,0.06304067,1.7169616,0.15418625,-0.48031425,0.9786231,0.82883984,-0.109003626,0.07231412,0.54397905,-0.689422,0.76664263,0.7581733,1.0,0.0,0.0,0.0,0.0,0.0,0.0,-2.5672326,0.26235542,-0.9454854,0.16243458,0.14033318,0.16030073,-9.622076,-0.102865696,0.49678683,0.5025685
15.372307,46.65235,12.618095,4.8493185,-0.50139016,-0.6269103,0.263286,-0.8047655,0.77979153,0.37978876,0.11578716,0.6529648,0.6602517,-0.20691079,1.1965245,-0.57990676,-1.7644262,-0.8645777,2.3368194,1.437726,-1.0399309,1.2624842,-0.6439222,-1.7956874,-0.8743721,2.2810216,1.3765494,-1.0213704,-1.4500643,1.3963486,0.6724784,0.16742845,0.9491788,0.4856268,-0.21059322,1.8867989,-0.661726,1.5119057,-3.042393,0.062977634,1.617059,0.14757156,-0.47254944,0.98603004,0.830535,-0.11753649,0.071958706,0.53964686,-0.64222914,0.78639454,0.7286917,1.0,0.0,0.0,0.0,0.0,0.0,0.0,-2.536799,0.261726,-0.96190566,0.64566135,0.00667572,0.30789375,-4.3931365,-0.34029484,0.34614205,1.0158926
14.285297,46.78679,12.646413,5.8086658,-0.41750795,-0.61612463,0.25618583,-0.81108636,0.7821386,0.3900653,0.073592804,0.6518705,0.66237193,-0.17598511,1.1813755,-0.56570834,-1.756681,-0.86701286,2.3462086,1.4427866,-1.0389689,1.2480055,-0.6299547,-1.7888916,-0.8729731,2.2904744,1.3814055,-1.023375,-1.4473473,1.3970773,0.6822542,0.13047256,0.9443071,0.48630202,-0.19728795,1.8563957,-0.6610966,1.5273277,-3.0393512,0.06291467,1.5172563,0.14141083,-0.46458244,0.99316674,0.83197117,-0.12590118,0.071778506,0.53555626,-0.59843457,0.80611306,0.7025236,1.0,0.0,0.0,0.0,0.0,0.0,0.0,-2.5063958,0.26109657,-0.97732764,0.23443699,0.14374256,1.0026336,-3.7802486,-0.325346,0.31079054,1.2561262
13.397062,46.02072,12.472469,6.589094,-0.31927767,-0.63079405,0.27454913,-0.80838823,0.7792938,0.3996936,0.05729504,0.6465571,0.6602175,-0.06362814,1.1671667,-0.5520253,-1.7489222,-0.8672436,2.3551302,1.4474273,-1.0297378,1.2335516,-0.6159929,-1.7819583,-0.87187254,2.29987,1.3862635,-1.0251718,-1.4448454,1.3961366,0.69707143,0.10299229,0.9387399,0.48644754,-0.17411998,1.8260231,-0.66046715,1.5417523,-3.0363126,0.06285177,1.4175533,0.13566208,-0.4564247,1.0000607,0.83314216,-0.13412654,0.07175663,0.5317285,-0.5578453,0.824306,0.6788554,1.0,0.0,0.0,0.0,0.0,0.0,0.0,-2.4760232,0.26046714,-0.9917523,0.21624565,-0.018954277,1.4891624,-2.82941,-0.38036108,0.24468899,2.2449613
11.395643,45.466568,12.398058,8.625597,-0.09207213,-0.57052475,0.27497157,-0.8054828,0.7745486,0.4160089,0.07523205,0.6405853,0.65948623,0.092144646,1.1530033,-0.53853804,-1.7403574,-0.86434937,2.3639286,1.4522121,-1.0159572,1.2191263,-0.60206354,-1.774823,-0.87086165,2.3092046,1.3911196,-1.0266347,-1.4418683,1.3921449,0.71911746,0.100191906,0.93232507,0.4861057,-0.13720736,1.795681,-0.6598377,1.5551808,-3.0332768,0.06278893,1.31795,0.13024902,-0.4480877,1.0067636,0.8340393,-0.14228168,0.071853146,0.5281776,-0.5260515,0.841723,0.6613093,1.0,0.0,0.0,0.0,0.0,0.0,0.0,-2.445681,0.25983772,-1.0051808,0.2631426,-0.3191948,2.1888494,-0.36316365,-0.43934584,0.16490221,3.6163092
4.6927466,42.940853,11.197113,14.359754,0.4828753,-0.40114638,0.097741626,-0.80162334,0.7676304,0.39433923,0.1691646,0.6322284,0.66271096,0.21882318,1.138964,-0.5253005,-1.735389,-0.8539452,2.3724275,1.4573907,-1.0047524,1.2047411,-0.58820474,-1.7676055,-0.8693625,2.3184628,1.3959719,-1.027657,-1.4375807,1.3841131,0.72242475,0.16620742,0.9246478,0.48520553,-0.090672135,1.7653694,-0.6592102,1.567614,-3.030244,0.062726155,1.2184464,0.12495804,-0.43960953,1.0133876,0.8347427,-0.15052389,0.072027326,0.5247468,-0.51940274,0.8548498,0.65652305,1.0,0.0,0.0,0.0,0.0,0.0,0.0,-2.4153695,0.2592102,-1.0176139,0.3707409,-0.7148504,0.27623177,6.4843745,-0.51789284,0.023591518,4.5689807
-1.9847221,38.43647,9.172539,19.22492,0.9631741,-0.31091624,-0.12289342,-0.8015528,0.7587751,0.3544772,0.25586265,0.61814994,0.6574803,0.2539259,1.1245859,-0.51232725,-1.7321578,-0.8437762,2.3802779,1.4617199,-1.0022645,1.1903902,-0.5744585,-1.760596,-0.8667742,2.3276181,1.400807,-1.0282216,-1.4345416,1.3717235,0.6935079,0.28914618,0.913374,0.48306125,-0.045362063,1.7350883,-0.6585846,1.5790528,-3.0272145,0.062663436,1.1190422,0.1195755,-0.4310398,1.0200224,0.83539116,-0.15898187,0.07227167,0.5211748,-0.53496176,0.8616422,0.6594277,1.0,0.0,0.0,0.0,0.0,0.0,0.0,-2.3850884,0.2585846,-1.0290527,0.21691322,-1.1464119,-2.9697657,12.136915,-0.84525347,-0.17504096,4.441872
-3.7772913,36.84758,8.55563,20.704704,1.0611145,-0.27933565,-0.19591218,-0.7973296,0.7525504,0.34135157,0.31268007,0.5948842,0.66029906,0.29172933,1.1106572,-0.49920344,-1.7264609,-0.8355062,2.3871067,1.4668369,-0.99904865,1.1760794,-0.56084764,-1.7539585,-0.86281836,2.3366055,1.4056212,-1.0283494,-1.4302962,1.3578429,0.653558,0.430496,0.89493364,0.480898,-0.0024572415,1.7048378,-0.657959,1.5894984,-3.0241878,0.06260079,1.0197374,0.11399078,-0.42240524,1.0267031,0.83605194,-0.16771895,0.072611526,0.51731527,-0.5564546,0.8689954,0.66461694,1.0,0.0,0.0,0.0,0.0,0.0,0.0,-2.354838,0.25795898,-1.0394983,0.33478737,-1.3025522,-4.0695906,13.977605,-1.5623093,-0.21141768,4.1985245
-1.7569895,30.736462,6.381131,16.160767,0.67123246,-0.6329967,-0.15781832,-0.8004981,0.73950106,0.2898667,0.28936535,0.57486373,0.6649254,0.2727837,1.0960295,-0.48689753,-1.7249718,-0.83388186,2.3940918,1.4721137,-1.001071,1.1617876,-0.5474075,-1.7479064,-0.857844,2.345368,1.4104239,-1.028111,-1.4291253,1.3396583,0.58901393,0.5191308,0.87087846,0.48014656,0.03232257,1.6746178,-0.6573334,1.5989517,-3.0211644,0.06253821,0.92053187,0.108314514,-0.41376877,1.0333004,0.83674467,-0.17656533,0.07314864,0.5131591,-0.5614777,0.86656046,0.65180445,1.0,0.0,0.0,0.0,0.0,0.0,0.0,-2.3246179,0.25733337,-1.0489516,0.038433075,-1.7415762,-6.4991355,8.70434,-2.1737337,0.0017642975,3.4018404
7.1160803,29.959957,6.7387085,6.9461207,-0.15338248,-1.0844712,0.15613115,-0.7993542,0.7297459,0.30721107,0.19308065,0.5650089,0.6463523,0.32806864,1.0818522,-0.47443292,-1.7171854,-0.8385359,2.4018688,1.4750592,-0.9953041,1.1475035,-0.534161,-1.742316,-0.8527924,2.3538938,1.4152132,-1.0275273,-1.4282506,1.3199682,0.54918146,0.5001342,0.84656763,0.47925404,0.06658586,1.6444283,-0.65670776,1.6074136,-3.018144,0.06247568,0.82142556,0.102874756,-0.4051895,1.0396008,0.8373432,-0.18520392,0.07396547,0.5090038,-0.5280946,0.86057264,0.61663693,1.0,0.0,0.0,0.0,0.0,0.0,0.0,-2.2944283,0.25670776,-1.0574136,0.04813671,-1.9067764,-3.9436579,-2.0172238,-2.3019195,0.13025999,3.3558435
13.190716,30.084976,7.2250113,0.8766794,-0.72169524,-1.3945179,0.36949158,-0.79558027,0.7188765,0.3117555,0.13845952,0.53345805,0.6437552,0.36798462,1.0679455,-0.46227333,-1.7111405,-0.8389464,2.4072397,1.4795887,-0.99072886,1.1332442,-0.5211166,-1.7369468,-0.8484522,2.3621259,1.4199969,-1.0266099,-1.4252698,1.2994075,0.5330477,0.41174656,0.81525904,0.47916096,0.09976432,1.6142693,-0.65608215,1.6148852,-3.0151262,0.062413216,0.7224183,0.09797287,-0.39668465,1.0454522,0.8377238,-0.19340083,0.07512309,0.505145,-0.46829095,0.8516121,0.5687318,1.0,0.0,0.0,0.0,0.0,0.0,0.0,-2.2642694,0.25608215,-1.0648851,0.3001213,-1.9988775,-1.5380144,-8.916879,-3.0705094,0.29931664,3.255072
13.1876545,28.056686,6.4993687,0.15005112,-0.75178367,-1.53486,0.3685791,-0.79162717,0.70705837,0.27618042,0.13077961,0.5171514,0.6463712,0.40610218,1.0540814,-0.45041078,-1.7093288,-0.83537424,2.413841,1.4846339,-0.9859997,1.1190325,-0.50828207,-1.7317874,-0.84505236,2.3700452,1.4247843,-1.0253701,-1.4198606,1.2782965,0.51048446,0.3159509,0.78405523,0.4795536,0.13199316,1.5841408,-0.65545845,1.6213676,-3.012112,0.062350817,0.62351006,0.09367752,-0.3883133,1.050812,0.83788013,-0.2010698,0.07664423,0.5016507,-0.40620884,0.8365728,0.51949024,1.0,0.0,0.0,0.0,0.0,0.0,0.0,-2.2341409,0.25545844,-1.0713675,0.5651474,-2.0477295,-2.2162795,-9.648603,-3.0600667,0.35014153,3.1726599
10.199964,23.615208,4.6661444,1.5423646,-0.562713,-1.6408113,0.24670856,-0.78629136,0.6937717,0.21492605,0.11937226,0.5005039,0.6475537,0.42221725,1.0404034,-0.43890488,-1.7102948,-0.83311516,2.4200957,1.4895396,-0.9831484,1.1048933,-0.49566746,-1.7270839,-0.8424765,2.3776631,1.4295756,-1.023829,-1.411918,1.2560538,0.45684296,0.23775865,0.7546474,0.47989392,0.16121913,1.5540428,-0.65483665,1.6268616,-3.0091004,0.062288478,0.5247007,0.089954376,-0.38015366,1.0556892,0.8379005,-0.20818931,0.07854934,0.49840742,-0.35222375,0.8122537,0.47186336,1.0,0.0,0.0,0.0,0.0,0.0,0.0,-2.204043,0.25483665,-1.0768616,0.82478523,-2.1511316,-5.3781986,-7.905486,-2.8581023,0.3182292,2.883613
7.0869465,19.93787,3.4087324,3.5581565,-0.27319962,-1.6525588,0.1640574,-0.7887668,0.6741558,0.19273092,0.0968915,0.4853533,0.6427634,0.4653721,1.0260166,-0.42825186,-1.7078109,-0.83278733,2.4261985,1.4938519,-0.97729176,1.0908095,-0.4833126,-1.7229679,-0.8405434,2.3850064,1.4343649,-1.0219979,-1.4073063,1.228943,0.39647323,0.17823283,0.72812533,0.4793644,0.19021039,1.5239754,-0.65421486,1.6313682,-3.0060918,0.062226202,0.42599016,0.08668518,-0.3722744,1.0601169,0.83786094,-0.2147799,0.08080967,0.4953063,-0.3098914,0.78224206,0.4282167,1.0,0.0,0.0,0.0,0.0,0.0,0.0,-2.1739755,0.25421485,-1.0813682,0.47996044,-2.6328325,-6.071639,-6.058705,-2.5516033,0.1958847,2.8602986
4.7323484,18.755865,3.1343305,6.0813007,-0.024002671,-1.5695643,0.09485404,-0.7845897,0.65595067,0.17722271,0.093196236,0.44650874,0.6413741,0.49384272,1.0123504,-0.41771755,-1.7052456,-0.8312238,2.4296572,1.4985024,-0.97261363,1.0767714,-0.47125578,-1.7194088,-0.83900607,2.392037,1.4391447,-1.0198884,-1.4027462,1.1981645,0.3422586,0.1451134,0.6946952,0.47824955,0.21773617,1.4939384,-0.65359306,1.6348884,-3.0030863,0.06216399,0.3273783,0.08375549,-0.36468315,1.0641611,0.837804,-0.2209279,0.083384864,0.49226242,-0.27856973,0.75310713,0.3918665,1.0,0.0,0.0,0.0,0.0,0.0,0.0,-2.1439385,0.25359306,-1.0848885,0.46198368,-2.998066,-5.4676476,-3.4306943,-3.2240748,0.09652376,2.7071981
2.5243492,18.21605,2.8417678,8.288575,0.19568974,-1.511379,0.0186567,-0.78857553,0.64620227,0.13639954,0.08508687,0.44649312,0.63554597,0.5042433,0.99791384,-0.40663555,-1.7057688,-0.8304974,2.4366863,1.5026994,-0.96946406,1.0627428,-0.45948458,-1.7164295,-0.83766997,2.398789,1.4439074,-1.0175271,-1.4029154,1.1703674,0.28321734,0.12928079,0.66907144,0.4762162,0.24219441,1.463932,-0.65297127,1.6374233,-3.000084,0.062101837,0.22886506,0.08106613,-0.3573761,1.0678835,0.8377746,-0.22670232,0.08624131,0.48918533,-0.25681996,0.72470576,0.3615052,1.0,0.0,0.0,0.0,0.0,0.0,0.0,-2.1139321,0.25297126,-1.0874233,-0.041413307,-2.7014732,-5.938345,-1.7163992,-2.4322152,-0.032794476,2.3973882
3.8637092,14.55025,2.0211723,5.771755,0.10245466,-1.7021937,0.090864755,-0.77819335,0.6137546,0.118339494,0.020151686,0.4200474,0.6363903,0.52299094,0.9849235,-0.3981091,-1.7045956,-0.8356548,2.4407938,1.5075464,-0.965228,1.0487524,-0.4480648,-1.7139804,-0.8366915,2.40527,1.4486529,-1.014935,-1.3976941,1.1327341,0.23212059,0.08691898,0.64136136,0.4746792,0.2646783,1.4339561,-0.6523495,1.6389737,-2.9970844,0.062039748,0.1304503,0.07865524,-0.35041237,1.0712506,0.8377639,-0.23204128,0.08934205,0.48613426,-0.22844271,0.68799156,0.3245289,1.0,0.0,0.0,0.0,0.0,0.0,0.0,-2.0839562,0.25234947,-1.0889738,0.54786205,-3.683591,-5.1707892,-4.349117,-2.6684284,0.04364848,2.2056878
1.4545913,13.803602,1.6395516,8.292056,0.3310805,-1.6281108,0.0025895275,-0.7811937,0.6020484,0.07172195,0.04572065,0.40787488,0.6349724,0.54210013,0.97063303,-0.38785997,-1.7068082,-0.8321194,2.4460576,1.51215,-0.960725,1.0347964,-0.4370017,-1.7121055,-0.83596575,2.4114957,1.4533831,-1.0121312,-1.3949835,1.0977519,0.1722966,0.067404255,0.6167126,0.47285706,0.28547874,1.4040108,-0.6517296,1.6395408,-2.994088,0.06197772,0.032133922,0.07645035,-0.3438034,1.0742956,0.83780503,-0.23697743,0.092666425,0.48305,-0.2107492,0.65249413,0.29420915,1.0,0.0,0.0,0.0,0.0,0.0,0.0,-2.0540109,0.25172958,-1.0895407,0.26636124,-3.421235,-6.0326667,-2.082327,-2.3496032,-0.0246346,2.0320058
-2.7708254,11.94396,1.0558252,13.297626,0.80080926,-1.4237287,-0.15621716,-0.7727306,0.57564354,0.028924458,0.11845353,0.3734269,0.63383675,0.5547633,0.9575233,-0.37943736,-1.709213,-0.8241204,2.4488385,1.5167668,-0.9566549,1.0208956,-0.42632055,-1.7108924,-0.8350016,2.4174275,1.4580923,-1.0091348,-1.3887117,1.0585188,0.104280025,0.10550546,0.5862478,0.47059125,0.30414784,1.3740959,-0.6511116,1.6391253,-2.9910946,0.061915755,-0.066084154,0.07425308,-0.33751106,1.0771283,0.83796084,-0.24168,0.09617696,0.47975233,-0.21435814,0.6214665,0.27638936,1.0,0.0,0.0,0.0,0.0,0.0,0.0,-2.024096,0.2511116,-1.0891254,0.58295727,-3.850913,-6.852889,3.643228,-2.8940916,-0.12722015,1.802671
-7.0848923,2.0674546,-1.9954236,15.160141,1.2511251,-1.4914066,-0.28649405,-0.76440454,0.52336377,-0.03987198,0.14433283,0.3565309,0.63035375,0.55331343,0.94445515,-0.3739842,-1.7148796,-0.8205683,2.4530807,1.5211277,-0.9538034,1.0070883,-0.416183,-1.710532,-0.83347,2.4230618,1.4627768,-1.0059743,-1.3782045,0.9990719,0.012902481,0.16842188,0.5562947,0.46805158,0.3197089,1.344204,-0.6504936,1.6377286,-2.988104,0.061853852,-0.16420403,0.07190704,-0.3316288,1.07978,0.83831304,-0.24620815,0.09980159,0.47608015,-0.23567808,0.57771,0.25845814,1.0,0.0,0.0,0.0,0.0,0.0,0.0,-1.9942039,0.25049362,-1.0877285,1.0298252,-5.8743596,-9.235578,6.104472,-2.8324842,-0.16902685,1.4903367
-6.387652,-2.1639543,-2.7999954,13.140526,1.1883464,-1.607106,-0.2103959,-0.7590942,0.47593975,-0.04109159,0.118153356,0.29210758,0.63651365,0.56433845,0.93117887,-0.368589,-1.7146411,-0.8216547,2.4522727,1.5264281,-0.94954044,0.99339926,-0.40676212,-1.7109191,-0.831493,2.428265,1.4674441,-1.0026708,-1.3657542,0.92333806,-0.05638975,0.20699526,0.5085764,0.46667755,0.33380142,1.3143425,-0.64987564,1.6353513,-2.9851165,0.061792012,-0.2622258,0.06937027,-0.3262291,1.0822042,0.8388555,-0.2505121,0.103510715,0.47207052,-0.2533012,0.52780855,0.23450848,1.0,0.0,0.0,0.0,0.0,0.0,0.0,-1.9643425,0.24987563,-1.0853512,1.2802362,-7.5044274,-7.0598507,3.7068248,-4.631996,-0.027376413,1.3526738
-5.1700106,-12.3833,-5.070006,8.295747,1.159119,-1.9328579,-0.06156397,-0.74389476,0.39139974,-0.039641194,0.067131005,0.24480158,0.63235134,0.56820387,0.9190098,-0.36762214,-1.7148832,-0.8247799,2.4527452,1.5306792,-0.9458504,0.97988665,-0.39835167,-1.7117736,-0.8295151,2.4329076,1.4720999,-0.999238,-1.3459424,0.81386614,-0.095724836,0.1943482,0.44984123,0.4657745,0.34621736,1.2845116,-0.64925766,1.6319945,-2.982132,0.061730232,-0.36014956,0.0667038,-0.32148933,1.0842729,0.83953774,-0.25442174,0.1072104,0.46792284,-0.2650108,0.4569525,0.19548619,1.0,0.0,0.0,0.0,0.0,0.0,0.0,-1.9345115,0.24925765,-1.0819945,2.1296263,-10.870814,-4.1438117,-1.3622254,-5.7771025,0.07289648,1.205802
-3.0027683,-20.795649,-6.628163,2.9291234,1.0447457,-2.2446334,0.12777741,-0.7248554,0.2998438,-0.011570219,-0.0015394918,0.1764004,0.6377144,0.56327236,0.9074011,-0.36836728,-1.7129307,-0.82966906,2.4505477,1.5358714,-0.9429108,0.96663535,-0.39127684,-1.7126949,-0.82809985,2.4368443,1.4767557,-0.9956999,-1.3173833,0.6722878,-0.09187761,0.12374937,0.3752729,0.4659857,0.3563031,1.2547112,-0.6486397,1.6276592,-2.9791505,0.06166851,-0.45797542,0.06399536,-0.31760025,1.0858364,0.84028625,-0.25774217,0.11077506,0.4639147,-0.26777118,0.36711264,0.14167094,1.0,0.0,0.0,0.0,0.0,0.0,0.0,-1.9047111,0.24863967,-1.0776591,3.1027555,-14.078295,0.12144148,-7.1020947,-7.4149847,0.21643043,0.98841786
-8.22165,-63.904907,-19.007318,-8.106275,1.5967709,-3.3675714,0.18943469,-0.69975066,0.08572249,-0.08858843,-0.17381264,0.16908386,0.61831284,0.54462385,0.89666027,-0.3827046,-1.7215537,-0.8454811,2.4537528,1.538587,-0.9412375,0.95375216,-0.38635588,-1.713826,-0.8281952,2.440125,1.4813982,-0.99208736,-1.2769293,0.43226692,-0.1216191,-0.054049622,0.31237546,0.46441713,0.362923,1.2249413,-0.6480236,1.6223464,-2.976172,0.061606858,-0.5557035,0.06116867,-0.3152752,1.0865128,0.84120595,-0.25989726,0.11390354,0.46027377,-0.2837485,0.18900053,0.04187886,1.0,0.0,0.0,0.0,0.0,0.0,0.0,-1.8749412,0.2480236,-1.0723464,4.529667,-23.920935,-3.417276,-17.77229,-6.3578844,0.03604293,0.6638348
-13.688311,-121.64683,-35.566814,-25.33208,1.7036275,-4.914949,0.30289185,-0.6578455,-0.2139362,-0.13295169,-0.4649545,-0.09367988,0.5914725,0.4862702,0.8879676,-0.4077495,-1.7271211,-0.87469065,2.430757,1.5405455,-0.94346035,0.9414135,-0.38489294,-1.7154434,-0.8312813,2.442124,1.485993,-0.9884672,-1.217023,0.05099493,-0.17679076,-0.3930494,0.16134548,0.4578894,0.361519,1.1952019,-0.64740944,1.616057,-2.9731963,0.061545264,-0.6533339,0.058181763,-0.3155899,1.0856673,0.8425136,-0.25994805,0.11642955,0.45721105,-0.301205,-0.104901664,-0.12705237,1.0,0.0,0.0,0.0,0.0,0.0,0.0,-1.8452018,0.24740943,-1.066057,6.7143917,-38.1174,-5.9625444,-33.78679,-15.448114,-0.6924927,-0.2083242
-9.893558,-125.22721,-33.894024,-28.264296,1.7265444,-4.764999,0.63913155,-0.5866014,-0.43267706,0.10980239,-0.57802224,-0.3693096,0.61103845,0.44568905,0.8827534,-0.42816064,-1.7044631,-0.8890835,2.4051929,1.5470968,-0.9438983,0.9299027,-0.38770962,-1.7164028,-0.83788645,2.441918,1.4905154,-0.98490524,-1.1272247,-0.39305583,-0.06954174,-0.749104,-0.08284525,0.44867098,0.3537637,1.165493,-0.6467953,1.6087921,-2.9702237,0.06148373,-0.7508667,0.05505371,-0.31881332,1.0830772,0.8440558,-0.2577556,0.11813664,0.45516557,-0.31747013,-0.39431605,-0.30315563,1.0,0.0,0.0,0.0,0.0,0.0,0.0,-1.815493,0.24679527,-1.0587921,9.52642,-44.540714,10.617487,-35.42049,-24.890518,-1.4539123,-0.96570253
-6.773816,-120.79339,-30.353714,-26.66972,2.113559,-4.309067,0.88362926,-0.4845456,-0.6813682,0.2562814,-0.6825909,-0.50213325,0.62544763,0.47140828,0.8814481,-0.45584643,-1.6907747,-0.9061456,2.3917046,1.55306,-0.9377644,0.9196068,-0.39523315,-1.7154567,-0.8477608,2.4391408,1.4949385,-0.98140717,-0.9963566,-0.87304187,0.15013267,-1.0663117,-0.34416896,0.43659437,0.34758514,1.1358147,-0.6461811,1.6005526,-2.9672542,0.06142226,-0.848302,0.051704407,-0.3247776,1.0787694,0.8455387,-0.25363973,0.11864018,0.454594,-0.34356028,-0.6615815,-0.47392234,1.0,0.0,0.0,0.0,0.0,0.0,0.0,-1.7858146,0.2461811,-1.0505526,13.265681,-48.28863,22.250294,-31.58548,-26.590696,-2.2453368,-0.890404
24.429234,-41.589275,-2.8083286,-23.410364,0.5034087,-2.9615085,1.5410913,-0.082118556,-0.7331561,0.4129174,-0.6524315,-0.56467503,0.6378943,0.4092651,0.91139495,-0.46854877,-1.674165,-0.9130039,2.3826733,1.558728,-0.94048065,0.9122406,-0.40666914,-1.7117412,-0.8597599,2.4340596,1.4992682,-0.97800064,-0.6526272,-1.2343568,0.44716352,-1.245224,-0.5624936,0.42933938,0.33820805,1.1061668,-0.64556694,1.5913395,-2.9642875,0.06136085,-0.94563985,0.04870224,-0.33242226,1.0732175,0.84626573,-0.2485928,0.11766536,0.4562793,-0.28875464,-0.7949238,-0.5841735,1.0,0.0,0.0,0.0,0.0,0.0,0.0,-1.7561668,0.24556693,-1.0413394,33.581734,-36.297966,30.24199,-18.130398,-21.65904,-1.5150964,-0.98137856
38.417534,12.543899,12.244407,-16.403019,-0.80700254,-2.1843035,1.3827714,0.15793031,-0.758029,0.2533987,-0.6196851,-0.59927446,0.6409532,0.27381286,0.92803365,-0.48247203,-1.6864014,-0.92172843,2.3741322,1.5633636,-0.95061934,0.9090897,-0.42059374,-1.7062881,-0.8725468,2.427239,1.5035578,-0.9747782,-0.20719562,-1.4454114,0.5809479,-1.291353,-0.7210282,0.42738333,0.3172429,1.0765495,-0.6449528,1.5811536,-2.9613237,0.061299503,-1.0428803,0.046619415,-0.34077835,1.0669336,0.8459711,-0.24338986,0.11552418,0.46016136,-0.18394631,-0.84355175,-0.6458095,1.0,0.0,0.0,0.0,0.0,0.0,0.0,-1.7265495,0.24495277,-1.0311537,43.171432,-21.167707,14.239979,-5.063939,-15.509712,-0.62853694,-2.017212
41.049385,42.30977,18.484337,-9.3645735,-1.4299604,-1.7952098,0.9976335,0.3183821,-0.7814884,0.12797706,-0.61013347,-0.56747526,0.6442535,0.2156504,0.9409279,-0.49874258,-1.6934904,-0.93356013,2.3704915,1.5679832,-0.95321316,0.91037333,-0.43570948,-1.7008083,-0.88519156,2.4194036,1.5078532,-0.97179794,0.23551343,-1.5336583,0.54034936,-1.2569087,-0.80342114,0.42971817,0.29209343,1.0469551,-0.6443386,1.5699962,-2.9583628,0.061238214,-1.1400237,0.045677185,-0.34930992,1.0602694,0.84478736,-0.23834845,0.11271378,0.4656393,-0.06282808,-0.8495595,-0.6764181,1.0,0.0,0.0,0.0,0.0,0.0,0.0,-1.6969551,0.2443386,-1.0199962,42.853733,-8.83534,-3.0991077,3.0166864,-7.9995155,0.064992905,-2.384907
29.06819,43.53896,14.3853035,-1.3029935,-1.139796,-1.6977646,0.3584021,0.36061776,-0.79173255,-0.0367423,-0.61803883,-0.49164903,0.64998424,0.16007926,0.9464351,-0.51488274,-1.7044826,-0.94699544,2.3702385,1.5728515,-0.95579004,0.915197,-0.4511032,-1.6969688,-0.89731085,2.411324,1.5121847,-0.9690943,0.5614115,-1.54133,0.3344727,-1.1976393,-0.8093219,0.43409422,0.26336005,1.0173912,-0.64372826,1.5578681,-2.9554052,0.061176986,-1.23707,0.045734406,-0.35790443,1.0533657,0.8431425,-0.2333787,0.109700985,0.4718165,0.031022977,-0.8552361,-0.69848883,1.0,0.0,0.0,0.0,0.0,0.0,0.0,-1.6673912,0.24372825,-1.007868,31.606764,-0.7913351,-19.775671,5.719018,-0.60111284,0.3605008,-2.7917266
18.337856,35.12683,8.344841,2.3419216,-0.7945545,-1.8354278,-0.08087847,0.44684154,-0.7979169,-0.21290158,-0.63155496,-0.4300753,0.65906054,0.1273715,0.9598812,-0.5308949,-1.718259,-0.9604663,2.3683164,1.5780908,-0.9563571,0.92253745,-0.46629143,-1.6960266,-0.90892947,2.4035764,1.5165659,-0.96668243,0.78946596,-1.5114776,0.016339295,-1.150187,-0.76382416,0.4389485,0.23392946,0.9878578,-0.6431179,1.5447702,-2.9524505,0.061115824,-1.3340192,0.046527863,-0.36667633,1.0461905,0.84146935,-0.22818558,0.10680681,0.4779676,0.10025067,-0.8786219,-0.7278039,1.0,0.0,0.0,0.0,0.0,0.0,0.0,-1.6378578,0.2431179,-0.9947702,22.171486,2.930832,-31.124454,4.6982527,4.3758273,0.37392974,-2.938342
11.658737,24.52565,2.8509402,1.709404,-0.60719573,-2.0925987,-0.26405737,0.522057,-0.79783225,-0.3877859,-0.6793159,-0.36066282,0.6500975,0.1309436,0.9747431,-0.5460746,-1.7348051,-0.97686106,2.36751,1.5815756,-0.95358807,0.9315945,-0.48110914,-1.6986625,-0.9204308,2.3965383,1.5209776,-0.9645357,0.943168,-1.4721494,-0.35501203,-1.15003,-0.68444943,0.4411094,0.20813403,0.95835495,-0.64250755,1.5307037,-2.9494987,0.06105472,-1.4308714,0.047901154,-0.3758583,1.0385928,0.8400502,-0.22238605,0.10418568,0.4837409,0.15700851,-0.9249148,-0.77507854,1.0,0.0,0.0,0.0,0.0,0.0,0.0,-1.6083549,0.24250755,-0.98070365,14.991224,3.8482904,-36.58185,0.06389618,7.6910973,-0.024622679,-2.6342332
12.848839,25.68782,3.6466699,-0.004421234,-0.7026397,-2.0273001,-0.11296355,0.5983112,-0.7955223,-0.44168282,-0.71584046,-0.3419031,0.63858336,0.16345431,0.99142563,-0.5606614,-1.7428308,-0.9920148,2.3623478,1.584836,-0.9481903,0.9418932,-0.4955759,-1.7045162,-0.93223345,2.390286,1.525395,-0.9625902,1.0579648,-1.4384239,-0.6610825,-1.1902182,-0.606087,0.44086874,0.1900284,0.9288826,-0.6418972,1.5156692,-2.9465497,0.06099368,-1.5276268,0.049869537,-0.38546944,1.030471,0.83887255,-0.21581344,0.101819314,0.48923427,0.21780469,-0.9674408,-0.8300863,1.0,0.0,0.0,0.0,0.0,0.0,0.0,-1.5788826,0.2418972,-0.9656692,11.253452,3.303647,-30.301392,-3.9697647,7.6669335,-0.32182932,-1.831913
11.461315,26.31619,4.426303,1.2738991,-0.6054124,-1.7696688,-0.05823022,0.6338643,-0.7947301,-0.52628404,-0.7186713,-0.35855222,0.63321155,0.14825155,1.0052797,-0.5750489,-1.7571446,-1.0041006,2.3544307,1.5887161,-0.94776505,0.9530617,-0.50979805,-1.7128952,-0.9444815,2.3846211,1.5298029,-0.9608078,1.1362368,-1.4170519,-0.8966352,-1.2360731,-0.5538215,0.4396804,0.17438205,0.89944077,-0.64128685,1.499668,-2.9436035,0.060932696,-1.6242855,0.052391052,-0.3954258,1.0218036,0.8378609,-0.20849489,0.0996852,0.4945522,0.2722081,-0.99991757,-0.8854345,1.0,0.0,0.0,0.0,0.0,0.0,0.0,-1.5494407,0.24128684,-0.949668,7.7348948,2.081108,-23.437023,-4.5157194,5.099988,-0.41678548,-1.5594184
8.857372,27.87731,5.662728,4.3015423,-0.44054282,-1.3753595,-0.03260821,0.6450686,-0.79835117,-0.5790849,-0.71389836,-0.4149593,0.64000285,0.15606506,1.0175686,-0.58963317,-1.7708037,-1.0158713,2.343125,1.5938032,-0.9452013,0.96474516,-0.5239153,-1.7230403,-0.95708525,2.3791432,1.5342051,-0.9591532,1.1790926,-1.4101602,-1.053924,-1.2681793,-0.54588723,0.4395353,0.16245377,0.87002945,-0.6406765,1.4827008,-2.9406607,0.060871772,-1.7208475,0.055374146,-0.4055996,1.0126282,0.83694553,-0.20057623,0.09780999,0.4997243,0.31554523,-1.0170386,-0.93546027,1.0,0.0,0.0,0.0,0.0,0.0,0.0,-1.5200294,0.24067649,-0.9327008,4.2974234,0.64041615,-15.7485485,-3.1192303,0.6900072,-0.26984215,-1.1754066
7.5793314,32.243492,8.094827,7.233489,-0.301586,-0.95332783,0.034388736,0.64870745,-0.80122685,-0.5868861,-0.7156583,-0.4574121,0.640941,0.18344264,1.0296159,-0.604038,-1.781729,-1.0286511,2.333402,1.5982991,-0.9408089,0.9766489,-0.5380411,-1.7341373,-0.9699007,2.3734975,1.538611,-0.9575796,1.194376,-1.4135193,-1.1288168,-1.2858094,-0.5710396,0.44033015,0.15575048,0.84064484,-0.64006996,1.4647688,-2.9377208,0.060810916,-1.817313,0.058734894,-0.41580582,1.0030253,0.8360264,-0.19226676,0.09619125,0.50481737,0.35022512,-1.0156888,-0.9762859,1.0,0.0,0.0,0.0,0.0,0.0,0.0,-1.4906448,0.24006996,-0.91476876,1.5997648,-0.3733158,-7.622218,-1.6728878,-2.585137,-0.10597706,-0.6321162
3.442328,33.584633,8.834479,11.109201,0.007961273,-0.5793395,0.0043032616,0.62588406,-0.80686164,-0.60738015,-0.70328575,-0.49536544,0.65692925,0.21624626,1.0392374,-0.61872727,-1.7948753,-1.0402293,2.323961,1.604304,-0.935955,0.9884678,-0.55225563,-1.7456176,-0.982741,2.3674436,1.5430399,-0.9560356,1.1780831,-1.4241315,-1.1551671,-1.2829965,-0.6168742,0.4434482,0.15408203,0.8112869,-0.6394634,1.4458728,-2.9347837,0.06075012,-1.913682,0.062309265,-0.4259224,0.9930799,0.8350606,-0.18375279,0.094829924,0.5098196,0.36870885,-1.0029211,-1.0085037,1.0,0.0,0.0,0.0,0.0,0.0,0.0,-1.4612869,0.23946342,-0.8958728,-1.4865637,-1.1043549,-2.8155565,0.3973484,-4.6811104,0.18992424,-0.13110638
0.9037399,36.749397,10.2361555,13.72747,0.2008673,-0.2590475,0.031554066,0.5904767,-0.8094797,-0.5829705,-0.70937425,-0.52780503,0.664651,0.27432567,1.0475155,-0.6332036,-1.8039147,-1.0536784,2.3146632,1.609505,-0.92860305,0.99990237,-0.56658554,-1.7570026,-0.995525,2.3608708,1.5475088,-0.9544554,1.132586,-1.4360384,-1.1336346,-1.2764512,-0.6710968,0.4478543,0.15946427,0.78195953,-0.6388569,1.4260138,-2.9318495,0.060689382,-2.0099547,0.06599426,-0.43582535,0.9828705,0.8340053,-0.17518009,0.09370833,0.5147483,0.37678602,-0.97889316,-1.0330702,1.0,0.0,0.0,0.0,0.0,0.0,0.0,-1.4319595,0.23885688,-0.8760138,-4.343295,-1.2295008,1.9036531,0.78339577,-5.5323124,0.37530065,0.5851954
2.4451962,42.21954,12.955116,14.498801,0.24950397,-0.04522276,0.12103782,0.5831267,-0.8135937,-0.537852,-0.7080325,-0.5342996,0.6715271,0.29020393,1.058215,-0.6479449,-1.8107878,-1.0663283,2.3074408,1.6146616,-0.925435,1.0108696,-0.5810299,-1.767863,-1.0082318,2.3538213,1.5520273,-0.95280457,1.0853955,-1.4472436,-1.0710483,-1.2684311,-0.7161095,0.4531675,0.16726589,0.75266266,-0.63825035,1.4051929,-2.9289181,0.060628705,-2.106131,0.069755554,-0.4454155,0.972476,0.8327756,-0.16668302,0.092731506,0.5197137,0.38409856,-0.94417197,-1.0493277,1.0,0.0,0.0,0.0,0.0,0.0,0.0,-1.4026626,0.23825034,-0.85519284,-4.5196533,-1.142478,5.9524775,0.9078026,-4.5745373,0.51998496,0.86956024
2.0466895,44.787643,13.791372,15.262185,0.29068977,0.044026434,0.12316221,0.55769444,-0.808809,-0.5375114,-0.7031438,-0.5492072,0.67707497,0.33625808,1.0666391,-0.6619108,-1.8216141,-1.0785462,2.2989006,1.6197349,-0.9191788,1.0213486,-0.5955324,-1.7781208,-1.0208508,2.3463902,1.5565993,-0.9510441,1.0358847,-1.4513679,-1.0116771,-1.2593038,-0.75263435,0.45870334,0.17920992,0.7233963,-0.6376438,1.3834109,-2.9259896,0.060568087,-2.2022111,0.07358551,-0.4546318,0.9619471,0.8313423,-0.15831369,0.0918621,0.5247553,0.38937032,-0.90636873,-1.0615599,1.0,0.0,0.0,0.0,0.0,0.0,0.0,-1.3733963,0.23764381,-0.8334109,-4.739356,-0.42934418,5.6221485,1.0206461,-3.733933,0.5654752,1.2898505
2.5237985,44.196747,13.377806,14.422155,0.32510352,-0.050308734,0.11238155,0.54939955,-0.8087388,-0.55477357,-0.70834154,-0.5212317,0.6712854,0.3405667,1.0762886,-0.6764063,-1.8335981,-1.0916849,2.2942672,1.6237278,-0.9169874,1.0314137,-0.6100464,-1.7880008,-1.0334221,2.338776,1.561217,-0.94916916,0.9973975,-1.4514778,-0.9811329,-1.2560114,-0.7647091,0.46272367,0.19063391,0.69416046,-0.6370373,1.3606689,-2.9230642,0.06050753,-2.2981951,0.07746887,-0.46352196,0.95127195,0.82972354,-0.15001902,0.091055304,0.5298697,0.3953745,-0.8745906,-1.0766047,1.0,0.0,0.0,0.0,0.0,0.0,0.0,-1.3441604,0.23703727,-0.8106689,-3.651774,-0.03144741,2.771747,0.44896603,-1.2986422,0.39014816,1.2432069
2.524898,45.278473,13.651374,14.1599455,0.30206102,-0.031744808,0.12066741,0.5204121,-0.80409336,-0.53361684,-0.71717405,-0.53129023,0.6765337,0.3742933,1.0834548,-0.69045573,-1.8413625,-1.1051395,2.2856472,1.6288704,-0.9117398,1.0410858,-0.6245241,-1.7976367,-1.046024,2.3310933,1.5658728,-0.9471655,0.9579571,-1.4466256,-0.95849556,-1.261237,-0.77017164,0.46644965,0.2038788,0.66495514,-0.63643265,1.3369677,-2.920142,0.06044703,-2.394083,0.081417084,-0.47209167,0.9404388,0.8279248,-0.14175047,0.09029607,0.53506446,0.40202016,-0.8426905,-1.0923275,1.0,0.0,0.0,0.0,0.0,0.0,0.0,-1.3149551,0.23643264,-0.7869677,-3.7396193,0.46699047,1.9775748,-0.3955841,-0.6421089,0.35378933,1.4252067
2.7240982,42.76336,12.643897,12.888669,0.31151462,-0.14092505,0.123729795,0.5107826,-0.8102719,-0.54645246,-0.72967637,-0.5172398,0.66396576,0.39281726,1.092164,-0.7055513,-1.852282,-1.1189916,2.2793694,1.6322694,-0.90788376,1.050428,-0.6389799,-1.8072021,-1.0587479,2.3234334,1.5705477,-0.94502735,0.9268475,-1.4453095,-0.9568303,-1.2757311,-0.76495534,0.46783867,0.21736664,0.6357727,-0.6358299,1.3123083,-2.9172225,0.060386598,-2.489875,0.085445404,-0.48039627,0.9293984,0.8259547,-0.13342147,0.089556314,0.54034907,0.4097492,-0.8179377,-1.1144009,1.0,0.0,0.0,0.0,0.0,0.0,0.0,-1.2857727,0.23582992,-0.7623083,-2.9201984,0.105929375,-0.09287596,-1.3009548,0.41882992,0.076299906,1.4504731
2.8830223,44.803043,13.634077,13.095061,0.312712,-0.034273922,0.14949879,0.48424575,-0.8070059,-0.5127257,-0.7361232,-0.52321684,0.6699556,0.4198336,1.0988526,-0.7196805,-1.8584747,-1.1323602,2.2711117,1.6375432,-0.903044,1.0594383,-0.6534157,-1.8166587,-1.0716397,2.315823,1.5752398,-0.9427471,0.89293957,-1.4431573,-0.9428386,-1.2932003,-0.76010495,0.46941867,0.23184317,0.6066208,-0.6352272,1.2866918,-2.914306,0.060326226,-2.5855715,0.0895462,-0.48843002,0.9181538,0.8237943,-0.12503162,0.08880845,0.54575,0.41692606,-0.78909975,-1.1340967,1.0,0.0,0.0,0.0,0.0,0.0,0.0,-1.2566208,0.2352272,-0.7366918,-3.1965375,0.19590855,1.1187792,-1.5999556,0.39258003,0.10781288,1.5600532
0.7085409,46.271584,14.0095415,14.692053,0.4245903,0.1199812,0.10755548,0.45240444,-0.80245334,-0.501246,-0.7290045,-0.538913,0.67936975,0.43816322,1.1046788,-0.733661,-1.8667834,-1.1445401,2.261932,1.6431768,-0.8989308,1.0680462,-0.6678152,-1.8259399,-1.0846401,2.308209,1.5799528,-0.9403238,0.85078603,-1.4389175,-0.9241317,-1.3019038,-0.7622668,0.47195992,0.24619716,0.5774994,-0.6346245,1.260119,-2.9113922,0.060265914,-2.6811721,0.093681335,-0.4961548,0.90674645,0.82145447,-0.11663036,0.0880673,0.5512295,0.41770208,-0.7571097,-1.1489187,1.0,0.0,0.0,0.0,0.0,0.0,0.0,-1.2274994,0.23462448,-0.71011895,-4.010439,0.40569305,1.5912652,-0.7191658,-0.31781197,0.23249388,1.5425652
-2.4903846,46.471893,13.866027,16.265312,0.5723883,0.2787546,0.06743754,0.40926012,-0.80419767,-0.47732854,-0.73343766,-0.56289715,0.6808031,0.45718655,1.1089722,-0.748235,-1.8736727,-1.1579839,2.2519193,1.6480331,-0.89460516,1.0761181,-0.6821852,-1.8349521,-1.0977036,2.300488,1.5846926,-0.93775845,0.79348606,-1.4364909,-0.89435965,-1.3073504,-0.7755357,0.4746064,0.260395,0.5484085,-0.63402176,1.2325909,-2.9084814,0.06020566,-2.7766774,0.09776306,-0.50354385,0.8952131,0.818959,-0.10826432,0.08735972,0.5567345,0.4101584,-0.72347975,-1.1604482,1.0,0.0,0.0,0.0,0.0,0.0,0.0,-1.1984085,0.23402175,-0.6825909,-5.504751,0.22222996,2.6897788,-0.3781557,-1.44099,0.2633214,1.5215516
-5.650635,48.558914,14.401478,18.367224,0.75005096,0.48100168,0.017828934,0.36281183,-0.79668385,-0.44767544,-0.72856694,-0.5723887,0.6859882,0.46104193,1.1123993,-0.7618536,-1.8797196,-1.1705602,2.2432492,1.6532915,-0.89165425,1.0835053,-0.69650555,-1.8435714,-1.1107689,2.2926068,1.5894629,-0.9350624,0.7214191,-1.4306077,-0.8523021,-1.3059149,-0.7925833,0.4778937,0.27296865,0.51934814,-0.63341904,1.2041085,-2.9055734,0.060145468,-2.8720872,0.10170746,-0.51057243,0.8836162,0.81633687,-0.10000216,0.086693615,0.5622079,0.39346412,-0.6862541,-1.1648365,1.0,0.0,0.0,0.0,0.0,0.0,0.0,-1.1693481,0.23341903,-0.65410846,-6.9637537,0.5707741,3.9076805,0.3133297,-1.8280387,0.3691435,1.3593853
-8.493214,44.114716,11.883534,18.20021,0.8710644,0.36193937,-0.06673394,0.33751762,-0.79855555,-0.49541065,-0.7326168,-0.5712483,0.6734286,0.45163706,1.117257,-0.7763611,-1.8931125,-1.1840305,2.235482,1.6568058,-0.8898987,1.0901943,-0.71078396,-1.852063,-1.1238228,2.2845807,1.5942503,-0.9322634,0.6522422,-1.4271206,-0.8489082,-1.3044516,-0.8065156,0.4791096,0.28239703,0.49031448,-0.6328163,1.1746727,-2.9026682,0.060085334,-2.9674015,0.10544968,-0.5173111,0.8719145,0.8136623,-0.091766715,0.08609523,0.56755614,0.37203914,-0.66018546,-1.1768438,1.0,0.0,0.0,0.0,0.0,0.0,0.0,-1.1403145,0.23281631,-0.6246727,-6.6806912,0.31199455,0.09975433,0.35176277,-1.5500426,0.11819601,1.0235667
-6.7032943,39.624725,9.971699,15.507617,0.7473847,0.093513876,-0.06285223,0.3366127,-0.8037384,-0.54313713,-0.7469558,-0.5656602,0.65449584,0.45115414,1.1238556,-0.7911578,-1.9063766,-1.1985184,2.2280147,1.6596999,-0.88714796,1.0963665,-0.7250662,-1.8608444,-1.1369263,2.276463,1.5990301,-0.9293852,0.60613143,-1.4287689,-0.8885156,-1.3116317,-0.8138295,0.47720006,0.2898464,0.46130753,-0.6322174,1.1442845,-2.899766,0.06002526,-3.0626206,0.10903168,-0.5238743,0.8599913,0.81097186,-0.08339317,0.08557567,0.5727539,0.35785523,-0.6452888,-1.2021096,1.0,0.0,0.0,0.0,0.0,0.0,0.0,-1.1113075,0.2322174,-0.5942845,-4.4074774,-0.21750927,-4.1428447,-0.48730373,-0.8990884,-0.2748549,0.8147478
-14.555183,33.538498,5.7774158,16.719076,1.0397003,0.0778842,-0.21718727,0.26123452,-0.80223745,-0.5998171,-0.7545555,-0.5797561,0.63424486,0.42655948,1.1224899,-0.8052899,-1.9208261,-1.2123818,2.2184875,1.6624546,-0.88672924,1.1019093,-0.73937035,-1.8703182,-1.1501385,2.2682614,1.6037718,-0.9264641,0.5377232,-1.4313076,-0.9674182,-1.3233167,-0.82346976,0.47245362,0.29295957,0.4323311,-0.6316185,1.1129448,-2.8968668,0.059965245,-3.1577444,0.11236954,-0.53037834,0.8477323,0.8083787,-0.07470763,0.08518857,0.57765514,0.32870305,-0.64203733,-1.238268,1.0,0.0,0.0,0.0,0.0,0.0,0.0,-1.0823311,0.2316185,-0.5629448,-6.5990806,-0.3423214,-8.01276,-0.87320805,-1.2069464,-0.61624646,0.3370583
-20.71266,33.522602,4.9026794,18.62489,1.2633197,0.33035153,-0.25968355,0.18170185,-0.8016623,-0.5898305,-0.7685479,-0.6137121,0.6359904,0.45762524,1.1200795,-0.81953657,-1.9293013,-1.2269933,2.20689,1.6673708,-0.88070154,1.1065308,-0.7536974,-1.8804576,-1.1635166,2.2598767,1.6084677,-0.9234972,0.43811685,-1.4335248,-1.0300004,-1.3416848,-0.8445457,0.46794447,0.29795483,0.40338516,-0.6310196,1.0806546,-2.8939707,0.05990529,-3.252773,0.115306854,-0.5368309,0.83511937,0.805943,-0.06567701,0.084974356,0.58216983,0.28555426,-0.63629913,-1.2735331,1.0,0.0,0.0,0.0,0.0,0.0,0.0,-1.0533851,0.23101959,-0.5306546,-9.677058,-0.32699108,-6.3886285,-1.5088081,-2.3930907,-0.59806705,0.5110681
-45.077297,29.317146,-0.49597073,27.702536,2.507215,0.9965308,-0.5874413,-0.022715032,-0.802282,-0.58888525,-0.76723516,-0.6082002,0.61132,0.43467712,1.1042593,-0.8339256,-1.9393462,-1.2402401,2.1990566,1.6695997,-0.8800295,1.1093727,-0.76804733,-1.8910358,-1.1770378,2.251305,1.6131026,-0.9205036,0.2341203,-1.4360331,-1.0674963,-1.3542727,-0.86265725,0.46176195,0.2997495,0.37446976,-0.6304207,1.0474148,-2.8910775,0.059845395,-3.3477068,0.117378235,-0.54327583,0.82220876,0.803876,-0.056339968,0.08489832,0.58600456,0.18303548,-0.6372262,-1.3014356,1.0,0.0,0.0,0.0,0.0,0.0,0.0,-1.0244697,0.23042068,-0.49741477,-19.982,-0.42288303,-3.8547277,-0.81532,-2.2569299,-0.7406473,0.15734434
-77.55426,21.385267,-8.930587,38.669613,4.150376,1.7653902,-1.0029696,-0.28629896,-0.8101468,-0.5957177,-0.7752532,-0.5982697,0.588748,0.4420083,1.0807428,-0.849062,-1.9506075,-1.2545631,2.1914783,1.6719774,-0.8763028,1.1091877,-0.78245926,-1.9018447,-1.1906697,2.2426114,1.617663,-0.9174919,-0.10060365,-1.4437875,-1.0856054,-1.3640192,-0.87389946,0.4535809,0.30149463,0.34558105,-0.6298218,1.0132264,-2.8881872,0.05978556,-3.4425457,0.11785126,-0.54984283,0.8090454,0.8025187,-0.046711437,0.084871344,0.5887093,0.0029374158,-0.65241176,-1.3256243,1.0,0.0,0.0,0.0,0.0,0.0,0.0,-0.99558103,0.22982177,-0.46322638,-32.878048,-1.0602713,-1.8812895,-0.3265381,-1.7944932,-0.98008513,0.13053417
-84.6326,25.113144,-8.403442,41.547054,4.6277976,2.1608143,-1.0318625,-0.4282393,-0.80551606,-0.57040757,-0.78244895,-0.5564241,0.57624793,0.46540546,1.0663638,-0.8630109,-1.9588856,-1.2689146,2.186969,1.6752878,-0.87095135,1.1054589,-0.7969227,-1.9126022,-1.2043911,2.2339673,1.6221358,-0.914443,-0.4614077,-1.4482828,-1.0728325,-1.3724055,-0.8636209,0.4445257,0.30608046,0.31671906,-0.62922287,0.97809035,-2.8852997,0.059725784,-3.5372896,0.116371155,-0.5565262,0.7957192,0.8019814,-0.03687381,0.08472359,0.59015936,-0.19812663,-0.66323173,-1.3390667,1.0,0.0,0.0,0.0,0.0,0.0,0.0,-0.96671903,0.22922286,-0.42809033,-35.45156,-0.77757835,1.1766672,-0.105166435,0.31089783,-1.1170805,0.48869252
-78.853485,28.480492,-6.6390667,38.98709,4.27574,2.0755568,-0.94675016,-0.52902055,-0.8060502,-0.61851305,-0.7769449,-0.59175825,0.597665,0.48167932,1.0525568,-0.8775277,-1.9744534,-1.2820857,2.1747916,1.6819023,-0.8662751,1.0984436,-0.81141853,-1.9233959,-1.2181412,2.225346,1.6265379,-0.911335,-0.77975386,-1.4510543,-1.0819733,-1.3731338,-0.8637775,0.43778202,0.3125853,0.28788757,-0.6286278,0.94199955,-2.882415,0.059666067,-3.6330042,0.11300278,-0.5632839,0.7822417,0.80221385,-0.026848411,0.08443445,0.590426,-0.3845787,-0.66955656,-1.3544234,1.0,0.0,0.0,0.0,0.0,0.0,0.0,-0.93788755,0.22862777,-0.39199954,-31.255865,-0.6160736,-1.0081053,0.69549084,-0.7053256,-0.9746671,0.72115064
-65.038765,30.26147,-4.5764656,32.584194,3.4819221,1.6511489,-0.8018385,-0.59673846,-0.80417764,-0.70662934,-0.7748387,-0.60460114,0.5822218,0.4513708,1.0387697,-0.8918363,-1.9940588,-1.2956251,2.164886,1.6847601,-0.8661979,1.0888516,-0.8259182,-1.9347064,-1.2318646,2.216679,1.6308657,-0.90818787,-1.0173687,-1.4506862,-1.1474942,-1.3696586,-0.86986905,0.42986608,0.31570226,0.2590866,-0.6280327,0.9049523,-2.8795333,0.05960641,-3.7286232,0.10803604,-0.5700989,0.7685199,0.80310565,-0.016523704,0.0840731,0.58964396,-0.5361209,-0.67356545,-1.3816818,1.0,0.0,0.0,0.0,0.0,0.0,0.0,-0.9090866,0.22803268,-0.35495228,-23.28098,-0.28517246,-6.597328,1.0910511,-1.24048,-1.1790395,0.385952
-55.113705,31.58509,-2.8974776,27.761875,2.9888406,1.4004556,-0.6973901,-0.6905076,-0.80720997,-0.7599189,-0.7754996,-0.5774243,0.56224984,0.37827736,1.0198008,-0.9066392,-2.0106983,-1.3094145,2.1589367,1.6870906,-0.87036014,1.0773026,-0.8404188,-1.9469097,-1.2455498,2.2080312,1.6351038,-0.90506935,-1.1992849,-1.4509571,-1.2446517,-1.365816,-0.86528766,0.42033687,0.31090558,0.23031616,-0.6274376,0.86694956,-2.8766544,0.059546813,-3.8241465,0.10173035,-0.5769386,0.754459,0.8045536,-0.0057910136,0.08361858,0.58793515,-0.66509676,-0.6747812,-1.4177747,1.0,0.0,0.0,0.0,0.0,0.0,0.0,-0.88031614,0.22743759,-0.31694955,-17.783117,-0.33652782,-9.721947,1.1059046,-0.12975931,-1.4024854,-0.39374828
-44.47934,37.900463,1.8159759,24.708166,2.728158,1.3933651,-0.5718148,-0.75862235,-0.8049025,-0.7677856,-0.75916773,-0.4765042,0.55008644,0.28735828,1.0014403,-0.92090905,-2.0236883,-1.3214666,2.1603808,1.6901125,-0.87633353,1.0642887,-0.85490894,-1.9599864,-1.259132,2.1997457,1.6392466,-0.9020672,-1.3344632,-1.4492646,-1.3284845,-1.353592,-0.8181459,0.4108841,0.29708457,0.2015686,-0.6268425,0.8279923,-2.8737783,0.059487276,-3.9195745,0.09427261,-0.5837307,0.74009174,0.80645055,0.0052945893,0.08286312,0.5854428,-0.77669835,-0.66686416,-1.446486,1.0,0.0,0.0,0.0,0.0,0.0,0.0,-0.8515686,0.2268425,-0.2779923,-13.197303,-0.10108948,-8.375502,1.8550634,4.216957,-1.3716221,-1.243937
-32.462532,45.061752,7.6456976,21.598099,2.511067,1.4284182,-0.45176652,-0.7968439,-0.806349,-0.7633472,-0.7494974,-0.33238065,0.53418016,0.08030853,0.98460436,-0.93554384,-2.0363212,-1.3340818,2.1665075,1.6926646,-0.89403635,1.0502526,-0.8693857,-1.973645,-1.2725617,2.1923642,1.6432959,-0.8993511,-1.4259865,-1.4478452,-1.3784152,-1.337926,-0.7125689,0.40175402,0.26377562,0.17285156,-0.6262474,0.7880815,-2.8709052,0.059427798,-4.014907,0.08584595,-0.5903816,0.72552574,0.808698,0.01656775,0.08146778,0.58231944,-0.8697016,-0.6489126,-1.4635481,1.0,0.0,0.0,0.0,0.0,0.0,0.0,-0.82285154,0.2262474,-0.23808151,-8.926797,-0.06835461,-4.997444,2.0726442,10.193502,-1.2750924,-3.1188488
-23.270609,51.43366,12.532279,19.873386,2.329827,1.4857953,-0.3989889,-0.8231471,-0.80504024,-0.76898336,-0.7215814,-0.22351702,0.5093703,-0.1102545,0.9679378,-0.9498897,-2.0505433,-1.3447198,2.1700125,1.694233,-0.91037655,1.0355583,-0.8838415,-1.9875991,-1.2857376,2.186295,1.6472479,-0.89709663,-1.4834836,-1.4454435,-1.4012637,-1.309601,-0.57240885,0.3922404,0.21348819,0.14416504,-0.6256523,0.74721813,-2.8680348,0.05936838,-4.1101437,0.076602936,-0.59679794,0.71088505,0.811242,0.027844474,0.07918803,0.578654,-0.9475514,-0.6231216,-1.4677105,0.0,1.0,0.0,0.0,0.0,0.0,0.0,-0.794165,0.2256523,-0.19721812,-5.6045055,0.083088875,-2.2862911,3.2200098,13.773191,-1.2381673,-4.7782364
-16.147472,57.557415,16.834728,19.270681,2.1211643,1.5788288,-0.380461,-0.83662564,-0.80063844,-0.7655959,-0.67795324,-0.14670919,0.5109873,-0.25742376,0.9518958,-0.96390533,-2.0641587,-1.3535329,2.1716242,1.6983466,-0.922839,1.0204728,-0.89821064,-2.0019646,-1.2986708,2.1816156,1.6510497,-0.8953678,-1.5193332,-1.4265441,-1.5129281,-1.3240818,-0.4597704,0.32832026,0.16688812,0.11979294,-0.62569046,0.7193412,-1.7193444,-0.008317758,0.29134214,0.06669617,-0.60294914,0.69616866,0.8140484,0.039154574,0.076037385,0.5744652,-1.000576,-0.6067415,-1.50253,0.0,1.0,0.0,0.0,0.0,0.0,0.0,-0.7697929,0.22569045,-0.1693412,-4.0107965,3.1542063,-22.297024,-7.5341225,7.7320156,-12.266838,-2.9755087
45.841557,176.0,110.0,110.0,1.597765,11.533399,-1.3177074,-0.77822113,0.5781088,0.6894092,0.70491,-0.33399585,0.6582709,-0.4263022,0.9426507,-0.84039974,-1.9330237,-1.2281798,2.148216,1.7168769,-0.937998,1.0087922,-0.9146873,-2.009964,-1.2980299,2.1669366,1.662757,-0.89378947,-1.0439867,-1.6762148,-0.62803125,0.5085176,-1.7440759,1.4863151,0.17887236,0.10261536,-0.6257744,0.72150797,-1.7176254,-0.008309442,0.19179969,0.056358337,-0.6071472,0.68582344,0.8171995,0.040454064,0.07702132,0.56975096,-1.0490642,-0.34051523,-0.88113785,0.0,1.0,0.0,0.0,0.0,0.0,0.0,-0.75261533,0.22577438,-0.17150795,49.619057,-11.407399,68.76816,177.73903,-110.41343,126.239265,8.411953
-25.27348,176.0,73.02688,92.39366,5.724693,5.3823314,-1.801343,-0.81761116,-0.59584945,0.0028447732,0.7506449,-0.5309481,0.53754544,-0.3046347,0.92703104,-0.97427225,-2.0096796,-1.2229654,2.1138418,1.7165116,-0.9242529,0.9984426,-0.93070805,-2.0120697,-1.2859468,2.1485498,1.6775829,-0.89250296,-1.030901,-1.578286,-0.06903905,1.4424163,-1.8736873,1.4867319,0.1137435,0.08545303,-0.6258583,0.72268003,-1.715908,-0.008301134,0.09235677,0.044921875,-0.6101017,0.6803745,0.82142586,0.034514293,0.08026498,0.563583,-1.1732298,-0.26917487,-0.4368581,1.0,0.0,0.0,0.0,0.0,0.0,0.0,-0.735453,0.2258583,-0.17268002,1.6278744,9.511685,56.629597,93.61682,-14.027166,1.6376257,-5.962533
-46.45823,164.52448,49.07821,70.71782,4.569509,3.4753067,-1.7360944,-0.8037067,-0.37144825,-0.33296102,0.7177096,-0.5890999,0.5944729,-0.03885347,0.9180719,-0.9678529,-2.0453658,-1.2141759,2.08964,1.7370301,-0.8963883,0.98745626,-0.943926,-2.0122223,-1.2683058,2.1310976,1.6917163,-0.89155406,-1.1195205,-1.2375469,0.0025664195,1.8726628,-1.7047348,1.3923004,0.08872989,0.06830597,-0.62594223,0.7228585,-1.7141925,-0.008292834,-0.006986725,0.03230667,-0.61239433,0.678187,0.8268355,0.026128188,0.084640265,0.55542433,-1.2914581,-0.20741571,-0.15290543,1.0,0.0,0.0,0.0,0.0,0.0,0.0,-0.71830595,0.22594222,-0.17285848,-8.374739,33.69126,7.1347055,43.44473,16.226816,-8.417678,-2.4875329
-49.49932,127.65067,28.73927,45.920135,3.246802,1.9293492,-1.2454962,-0.81013966,-0.35076556,-0.31573668,0.775821,-0.56889707,0.5303564,-0.099758245,0.9064423,-0.97900254,-2.043796,-1.1907237,2.0742078,1.7447519,-0.9015299,0.9751949,-0.95375645,-2.0131416,-1.2491026,2.1161935,1.7045032,-0.8908779,-1.2608191,-0.899262,-0.12431738,1.9371157,-1.4198751,1.2426252,0.05987073,0.051174164,-0.62602615,0.7220442,-1.7124786,-0.008284544,-0.10623089,0.018722534,-0.61416435,0.67772573,0.83311075,0.017770674,0.08970249,0.54549444,-1.3814163,-0.15807284,-0.01771373,1.0,0.0,0.0,0.0,0.0,0.0,0.0,-0.70117414,0.22602615,-0.17204422,-13.849306,33.50352,-13.012343,6.7043066,28.213215,-14.454126,-3.079956
-36.787624,90.66717,15.689822,24.515345,1.6943544,0.7860999,-0.66041255,-0.80587924,-0.33551922,-0.34477192,0.77865773,-0.54632163,0.56872964,-0.15602718,0.89460695,-0.9873084,-2.0476189,-1.1712369,2.0615613,1.7613761,-0.9064806,0.96169466,-0.96086323,-2.0159721,-1.2307119,2.104017,1.7158786,-0.89050025,-1.3794962,-0.6485804,-0.33676094,1.8066897,-1.15088,1.1032307,0.029568685,0.034065247,-0.6261101,0.72023535,-1.7107666,-0.00827626,-0.20576958,0.004562378,-0.61554337,0.6777717,0.83983755,0.0107207075,0.095029704,0.5343476,-1.4272985,-0.12106965,0.006206717,0.0,1.0,0.0,0.0,0.0,0.0,0.0,-0.6840652,0.22611007,-0.17023534,-11.819696,24.841106,-21.476057,-12.994838,26.752258,-13.753033,-3.2951546
-19.916765,64.463196,11.211959,11.169248,0.7519452,0.2013871,-0.17525563,-0.81033266,-0.33888444,-0.30450258,0.7749268,-0.51185614,0.56973517,-0.22996455,0.88066137,-0.9947517,-2.0464225,-1.1532192,2.0528314,1.7728522,-0.91349673,0.94731706,-0.966365,-2.020527,-1.214057,2.0940912,1.7259952,-0.89044875,-1.4574746,-0.5177688,-0.49498042,1.6181515,-0.9403752,0.9812511,-0.0035705238,0.016971588,-0.626194,0.7174318,-1.7090561,-0.008267987,-0.30520877,-0.009799957,-0.6166401,0.6776379,0.8466603,0.005272521,0.10021931,0.5225844,-1.4392666,-0.094276346,-0.023866443,0.0,1.0,0.0,0.0,0.0,0.0,0.0,-0.66697156,0.226194,-0.16743177,-7.864213,12.934828,-15.834469,-18.917084,20.810318,-12.170577,-3.5137355
-9.408007,45.31495,8.21721,5.3008447,0.5000913,-0.15975332,0.050162315,-0.8120522,-0.35008007,-0.32972774,0.7741401,-0.45075795,0.559829,-0.23683548,0.8661119,-1.0013729,-2.0534997,-1.1366429,2.0490153,1.7819781,-0.9141323,0.932476,-0.9713222,-2.0262756,-1.1990786,2.085882,1.7350303,-0.8906967,-1.4932183,-0.48867324,-0.60112,1.4576926,-0.7817998,0.8774853,-0.032262698,-0.00010681152,-0.6262779,0.7136346,-1.7073474,-0.00825972,-0.40454856,-0.024196625,-0.61758614,0.6769914,0.85339403,0.0012791699,0.10494589,0.51059103,-1.4400654,-0.082885064,-0.08078644,0.0,1.0,0.0,0.0,0.0,0.0,0.0,-0.64989316,0.22627792,-0.1636346,-3.6458015,2.8251827,-10.532845,-16.096783,15.619087,-10.410404,-2.9758732
1.9056005,46.616898,13.455567,5.0242047,0.41874194,-0.036842644,0.17738491,-0.8040527,-0.34133896,-0.26285264,0.77640855,-0.42123193,0.57990474,-0.27867717,0.8520707,-1.0054561,-2.0525608,-1.1214377,2.0437589,1.7930207,-0.91856444,0.9175443,-0.976369,-2.0323105,-1.1852388,2.0788705,1.7431766,-0.89122695,-1.4935311,-0.51024485,-0.60356873,1.3593439,-0.67531884,0.7933893,-0.060111217,-0.017169952,-0.62636185,0.7088448,-1.7056404,-0.008251462,-0.503789,-0.03850174,-0.61839485,0.6759177,0.85993254,-0.0017743928,0.109061494,0.49861652,-1.4276594,-0.06804603,-0.11799099,0.0,1.0,0.0,0.0,0.0,0.0,0.0,-0.63283,0.22636184,-0.15884477,-0.13051033,-2.236402,-0.010216236,-9.892416,10.323536,-8.444727,-2.8447754
5.044858,44.981186,14.59447,6.234687,0.5388695,0.008384764,0.17290287,-0.7989866,-0.36436835,-0.26163283,0.7727899,-0.4024755,0.595752,-0.2767145,0.83764565,-1.0128058,-2.0584738,-1.1079599,2.038623,1.8027518,-0.9188984,0.90275806,-0.98188096,-2.0380716,-1.171969,2.0725853,1.7505505,-0.8920095,-1.4729526,-0.56468254,-0.57476526,1.3123645,-0.6232509,0.70308286,-0.08677254,-0.034503937,-0.6260624,0.7041171,-1.8160626,0.159254,-0.10141758,-0.0526886,-0.6190777,0.6745218,0.86625123,-0.0042647035,0.112575136,0.48674157,-1.4114383,-0.059924975,-0.15177576,0.0,1.0,0.0,0.0,0.0,0.0,0.0,-0.61549604,0.22606239,-0.1541171,2.1086931,-5.464387,1.9853234,-5.261159,3.500092,-11.362564,-3.0440478
3.8417234,82.43371,26.23147,15.731879,0.45421714,0.6403552,0.0126686,-0.81723386,-0.17199908,-0.29540834,0.773424,-0.4082433,0.5667893,-0.25248024,0.82103467,-0.9990809,-2.0676124,-1.0946267,2.031761,1.8072294,-0.91725755,0.88811266,-0.9870165,-2.0436258,-1.1588694,2.0665812,1.75713,-0.8930124,-1.4621674,-0.4971083,-0.5477217,1.3088597,-0.59382904,0.6434308,-0.10521157,-0.052597046,-0.6241894,0.7034411,-1.8016981,0.1942142,-0.05744944,-0.06661987,-0.6194382,0.6733097,0.8723736,-0.0063985726,0.11611963,0.47480473,-1.386901,-0.016891886,-0.112466924,0.0,1.0,0.0,0.0,0.0,0.0,0.0,-0.59740293,0.22418937,-0.15344107,0.93700886,6.5828743,3.1098485,-0.44054985,2.649629,-5.7848454,-1.9863977
-6.1144633,78.19424,20.892076,18.637629,0.6107098,0.5293045,-0.15558264,-0.8230029,-0.18266045,-0.41408888,0.7813886,-0.4395708,0.549642,-0.22011895,0.80581236,-1.0052825,-2.0850346,-1.0807306,2.0226243,1.8120942,-0.9150243,0.87351286,-0.99140435,-2.0495424,-1.1456116,2.0606418,1.7631992,-0.8941463,-1.4595302,-0.42002773,-0.6050454,1.3312044,-0.5949345,0.5946414,-0.11671465,-0.07043457,-0.6220627,0.7030814,-1.7775769,0.21876056,-0.02964603,-0.08042908,-0.6194248,0.6723979,0.8783693,-0.008211189,0.120109014,0.4625731,-1.3780725,0.018790953,-0.08537003,0.0,1.0,0.0,0.0,0.0,0.0,0.0,-0.5795654,0.22206268,-0.15308142,0.18429756,7.522905,-5.4107785,2.2166252,-0.45417547,-4.9172997,-1.3341725
-7.90898,83.68978,21.335356,20.459578,0.49621657,0.60616416,-0.19705772,-0.8135035,-0.12257387,-0.45820338,0.7887511,-0.486537,0.5820107,-0.22359839,0.79216254,-1.0036618,-2.0953627,-1.0667366,2.0119882,1.8214003,-0.9165062,0.85894656,-0.99484044,-2.0562944,-1.1320542,2.0544968,1.7688904,-0.89537656,-1.4559834,-0.31883782,-0.6970677,1.363843,-0.62223655,0.5603122,-0.12586696,-0.088005066,-0.61967087,0.7030624,-1.7505642,0.24590828,0.0064530377,-0.09413147,-0.61901474,0.6717986,0.88424534,-0.009609151,0.12486335,0.44991872,-1.3662976,0.05931,-0.052332368,0.0,1.0,0.0,0.0,0.0,0.0,0.0,-0.5619949,0.21967086,-0.1530624,0.26128292,9.907704,-8.845711,3.2277584,-3.0928493,-3.4953356,-1.1502638
-13.568157,63.96227,13.1469,17.80431,0.6354175,0.3443682,-0.19518566,-0.821513,-0.1711374,-0.52493924,0.78821003,-0.4986841,0.5875364,-0.21866426,0.77679527,-1.0119542,-2.1087883,-1.0532331,2.0046284,1.827644,-0.917243,0.8443687,-0.99768716,-2.0641794,-1.1182088,2.0480273,1.774294,-0.8966793,-1.4585515,-0.2738866,-0.8180193,1.39166,-0.65590066,0.5334435,-0.13231772,-0.10538101,-0.6170654,0.7031161,-1.7332826,0.26546323,0.004478332,-0.10783005,-0.61831284,0.67124283,0.89000446,-0.010410584,0.13032182,0.43680635,-1.370957,0.08445535,-0.057192817,0.0,1.0,0.0,0.0,0.0,0.0,0.0,-0.54461896,0.21706542,-0.1531161,-0.29337406,4.3187437,-11.837017,2.8137684,-3.618908,-2.7810574,-0.8360714
-11.854324,64.79137,13.652425,16.779095,0.5027229,0.39276364,-0.10528228,-0.81978947,-0.11602229,-0.56104696,0.78382885,-0.5199006,0.5934836,-0.15586473,0.7623898,-1.0092894,-2.120284,-1.0398259,1.9960372,1.8336424,-0.9122658,0.8297632,-1.0000769,-2.0732203,-1.1041859,2.0412061,1.7794737,-0.8979887,-1.4614778,-0.22788484,-0.93179023,1.4058579,-0.6921588,0.51249754,-0.1312898,-0.12256241,-0.6142521,0.703176,-1.7129819,0.28641823,0.005716514,-0.1215477,-0.6173401,0.67063725,0.8955916,-0.01055849,0.13642648,0.4233107,-1.3700501,0.11293038,-0.061975107,0.0,1.0,0.0,0.0,0.0,0.0,0.0,-0.52743757,0.21425208,-0.15317601,-0.35734177,4.4166923,-11.0605955,1.4147282,-3.9263844,-2.2078633,-0.11605322
-10.785286,56.87655,11.621365,14.646105,0.5289782,0.3194704,-0.039538406,-0.81784207,-0.13839573,-0.59208626,0.7915655,-0.54058033,0.59966373,-0.16724256,0.747979,-1.0139165,-2.132429,-1.0250294,1.987148,1.83944,-0.9147129,0.8151405,-1.0022646,-2.0832424,-1.0900601,2.034026,1.7844806,-0.8992876,-1.4627669,-0.2163165,-1.0249326,1.4150175,-0.7275136,0.49623984,-0.13017595,-0.13955307,-0.6112499,0.7031585,-1.6943378,0.30484295,-0.005044868,-0.13526535,-0.61611557,0.6698836,0.9009591,-0.01006832,0.14302371,0.40953082,-1.3714279,0.13652295,-0.079929315,0.0,1.0,0.0,0.0,0.0,0.0,0.0,-0.5104469,0.21124992,-0.15315849,-0.1896143,0.9937912,-8.993435,0.92060566,-3.825128,-1.7491341,-0.08820295
-9.998493,51.007088,10.122318,12.814418,0.5358887,0.28398174,0.030406866,-0.8213108,-0.15293036,-0.62774634,0.7856939,-0.55850416,0.6097487,-0.1477754,0.7330094,-1.0175576,-2.146017,-1.0114907,1.9781755,1.8454554,-0.9140651,0.80049586,-1.0045248,-2.0940578,-1.0759152,2.0265148,1.7893558,-0.9005598,-1.465259,-0.22967508,-1.0996071,1.4144846,-0.7601464,0.48414585,-0.12685055,-0.15636444,-0.6080761,0.7029597,-1.6768986,0.32141793,-0.02548205,-0.14902496,-0.6146755,0.6688705,0.90607417,-0.0089554405,0.14992851,0.39556384,-1.3742996,0.15744953,-0.10833797,0.0,1.0,0.0,0.0,0.0,0.0,0.0,-0.49363554,0.20807609,-0.1529597,-0.308156,-1.481694,-7.1433306,-0.039100647,-3.547573,-1.3369739,0.14873743
-9.367004,47.50185,9.216138,11.733305,0.5593103,0.24574196,0.092396885,-0.82220906,-0.17284493,-0.6606216,0.7839959,-0.5819166,0.6099553,-0.09910588,0.71827495,-1.0218093,-2.16012,-0.9975156,1.9683231,1.8503513,-0.91047037,0.78582644,-1.0070635,-2.1055171,-1.0618085,2.0186832,1.7941282,-0.90176237,-1.4677006,-0.26245522,-1.1602623,1.4094762,-0.7920481,0.4745458,-0.11867896,-0.17300797,-0.6047497,0.7024969,-1.6600381,0.33645153,-0.05364347,-0.1628151,-0.61304474,0.6675134,0.91090786,-0.007229742,0.15700379,0.38150272,-1.3784796,0.17610152,-0.14465255,0.0,1.0,0.0,0.0,0.0,0.0,0.0,-0.476992,0.20474967,-0.15249687,-0.30066967,-3.4128814,-5.7362556,-0.47285557,-3.472364,-1.0927439,0.646317
-8.439903,40.674698,7.5753746,9.993431,0.6100681,0.18050009,0.14532161,-0.8193769,-0.22255407,-0.67519116,0.78531486,-0.5891841,0.6190005,-0.06447668,0.7038888,-1.0293189,-2.1730363,-0.98327696,1.9597648,1.8560282,-0.90821004,0.77115226,-1.0101439,-2.117442,-1.0477494,2.0105774,1.7988261,-0.90285903,-1.4674844,-0.32356268,-1.2022206,1.4050515,-0.81752145,0.46769455,-0.10711989,-0.18950272,-0.60129356,0.70166683,-1.645766,0.34873855,-0.09318585,-0.17667007,-0.61125946,0.6657136,0.91544825,-0.0049242517,0.16407198,0.36743775,-1.3861591,0.19063513,-0.19142906,0.0,1.0,0.0,0.0,0.0,0.0,0.0,-0.46049726,0.20129356,-0.15166682,-0.019693375,-6.223708,-3.894949,-0.3825903,-2.7936459,-0.81670284,1.0216043
-5.8083844,46.308323,9.936237,10.398069,0.62767553,0.27729535,0.19758698,-0.8161465,-0.22201325,-0.67881525,0.78297704,-0.59384006,0.6260946,0.011964557,0.6895376,-1.0323452,-2.1853235,-0.96945167,1.9511935,1.8614355,-0.9016626,0.7565,-1.0137602,-2.1296337,-1.033738,2.0022728,1.8034726,-0.9037898,-1.4646825,-0.37469977,-1.223475,1.4000851,-0.8358281,0.46312198,-0.088862434,-0.20581818,-0.5977001,0.70052093,-1.6266091,0.36286828,-0.12203161,-0.19055939,-0.609293,0.6635263,0.9196731,-0.0021375392,0.17106335,0.3534601,-1.387932,0.20985402,-0.2276038,0.0,1.0,0.0,0.0,0.0,0.0,0.0,-0.4441818,0.19770011,-0.15052092,0.20489693,-5.2380443,-1.7494917,-0.46658516,-2.148664,-0.60724616,1.6832083
-7.366644,36.402443,6.59534,8.543867,0.6580806,0.14865202,0.24861388,-0.8191904,-0.3002301,-0.7051902,0.7784023,-0.60355765,0.60290325,0.12683119,0.674581,-1.0437832,-2.2001526,-0.9558978,1.9419171,1.863763,-0.8911067,0.74186397,-1.0181109,-2.142039,-1.01978,1.9938118,1.808062,-0.9044621,-1.4632545,-0.45553473,-1.2452364,1.394772,-0.85038674,0.45712355,-0.060306553,-0.22198868,-0.59399796,0.69894254,-1.6136086,0.37271598,-0.16997387,-0.20452881,-0.60718346,0.6608496,0.9235851,0.0011562967,0.1778487,0.33964515,-1.3977009,0.22277814,-0.2809966,0.0,1.0,0.0,0.0,0.0,0.0,0.0,-0.4280113,0.19399795,-0.14894253,0.109791756,-8.183593,-1.8868923,-0.43606758,-1.6925693,-0.7426441,2.7618282
-6.404313,36.663067,6.921441,8.298166,0.72107923,0.16730136,0.26306602,-0.8148246,-0.33494255,-0.70312923,0.77847606,-0.58777064,0.60373306,0.15930688,0.6603815,-1.0516051,-2.212352,-0.94193244,1.9350348,1.8684353,-0.8885314,0.7272575,-1.0232931,-2.1545815,-1.005862,1.9852939,1.8125964,-0.9048412,-1.4599068,-0.539312,-1.2562522,1.3912604,-0.85308087,0.45183495,-0.030651389,-0.23802567,-0.5901985,0.6968786,-1.600203,0.38219157,-0.21817377,-0.21860886,-0.6049366,0.65764874,0.9271991,0.00492891,0.1843205,0.32604182,-1.4074656,0.23681216,-0.3330924,0.0,1.0,0.0,0.0,0.0,0.0,0.0,-0.4119743,0.19019851,-0.1468786,0.2975464,-8.477974,-0.80165863,-0.24721622,-0.51783323,-0.68778396,2.8915067
-6.2310543,38.34811,7.3706613,8.582037,0.76524395,0.20979607,0.26825285,-0.81438446,-0.37150228,-0.70518625,0.7794885,-0.5896296,0.59789383,0.2103452,0.64581907,-1.0604434,-2.2251003,-0.9279131,1.9263309,1.8723859,-0.88380665,0.7126825,-1.0292917,-2.1671891,-0.9919601,1.9767764,1.8170806,-0.90491176,-1.4568938,-0.6203037,-1.260953,1.3902993,-0.852156,0.44670284,0.00058983226,-0.2539177,-0.5863037,0.6943507,-1.5856119,0.3917949,-0.2645214,-0.23276901,-0.60253334,0.65395147,0.93052804,0.009130321,0.19044533,0.3126733,-1.4165127,0.25310728,-0.3820681,0.0,1.0,0.0,0.0,0.0,0.0,0.0,-0.39608228,0.1863037,-0.14435071,0.25906563,-8.205628,-0.15175343,0.015068054,-0.17864704,-0.6864786,3.0603328
-5.3821645,45.50066,9.320019,9.84174,0.78015745,0.32290912,0.27815434,-0.8118985,-0.38566604,-0.7101616,0.7798068,-0.59442043,0.61393416,0.29483184,0.6314926,-1.0678583,-2.2382052,-0.9139794,1.9173343,1.878474,-0.87542856,0.6981399,-1.0359484,-2.1798272,-0.97805744,1.9682691,1.8215344,-0.9046381,-1.4536129,-0.6812352,-1.2635865,1.3905015,-0.8515249,0.44421104,0.035994913,-0.26962662,-0.58231163,0.691439,-1.5664366,0.40191454,-0.2995115,-0.24698257,-0.5999241,0.64985305,0.933567,0.013705269,0.19628455,0.29956153,-1.4198174,0.27492106,-0.41966882,0.0,1.0,0.0,0.0,0.0,0.0,0.0,-0.38037336,0.18231162,-0.14143896,0.25684834,-6.2187314,0.12638569,0.100159645,-0.28754473,-0.42117238,3.4467843
-3.2939532,56.514984,12.776958,11.804779,0.9252262,0.48685902,0.2603349,-0.8092785,-0.38836244,-0.6874952,0.7801966,-0.5620065,0.61686045,0.31971657,0.61721206,-1.0747846,-2.2485766,-0.90003777,1.9120685,1.8832204,-0.8726665,0.68363255,-1.0430151,-2.1923661,-0.9641518,1.9598689,1.8259706,-0.90402305,-1.4502476,-0.7155148,-1.2490795,1.3906772,-0.8377962,0.44269216,0.069565654,-0.28508377,-0.57818794,0.6883094,-1.5387119,0.41582882,-0.31650662,-0.26117706,-0.5970478,0.6455291,0.93631864,0.018524773,0.201883,0.28671843,-1.4154987,0.30391547,-0.43722767,0.0,1.0,0.0,0.0,0.0,0.0,0.0,-0.3649162,0.17818794,-0.13830936,0.21324158,-3.576076,1.9665718,0.032544136,0.8913994,-0.33335686,3.2288513
-4.2433567,54.471657,11.797335,11.571184,0.9681487,0.46965286,0.24447848,-0.8114816,-0.4354098,-0.6887493,0.7804808,-0.5580499,0.6104484,0.3334762,0.6024844,-1.0865561,-2.261241,-0.88610375,1.9040639,1.8870155,-0.87067544,0.66914046,-1.050471,-2.2047598,-0.95024145,1.951614,1.8303888,-0.90309805,-1.449285,-0.7561252,-1.2343404,1.3912928,-0.82281196,0.44078997,0.09982122,-0.3002739,-0.57393646,0.68496555,-1.5125248,0.42836428,-0.33941108,-0.27534485,-0.5938816,0.64100194,0.9388057,0.02355319,0.20722073,0.27413264,-1.4134613,0.33221552,-0.45848787,0.0,1.0,0.0,0.0,0.0,0.0,0.0,-0.34972608,0.17393646,-0.13496554,-0.013995171,-4.204488,1.9685745,0.0998497,1.0354638,-0.3807068,2.916977
-3.9372213,60.828655,13.188015,12.869006,1.011073,0.54350746,0.23693457,-0.81093806,-0.4286245,-0.6864987,0.7791656,-0.5526087,0.598107,0.39132193,0.58804667,-1.0933334,-2.2734096,-0.8723249,1.8963531,1.8901994,-0.86396587,0.65465033,-1.0581938,-2.21702,-0.93633485,1.9435059,1.8347828,-0.90186405,-1.4494331,-0.7782828,-1.2213005,1.3905452,-0.8085924,0.43807197,0.13089834,-0.31516647,-0.5695591,0.6814575,-1.4819345,0.44095972,-0.3534965,-0.28945923,-0.59041023,0.6363363,0.9410334,0.028774558,0.21234657,0.26179573,-1.4065721,0.3639792,-0.47006583,0.0,1.0,0.0,0.0,0.0,0.0,0.0,-0.3348335,0.16955909,-0.13145751,-0.14948845,-2.3727655,1.8632412,-0.069475174,0.8923888,-0.47109723,2.972248
-3.319509,60.547955,12.977242,12.547274,0.99756926,0.52822727,0.2423175,-0.8088605,-0.45349026,-0.67507833,0.7774956,-0.5471954,0.58493555,0.41869208,0.57376426,-1.1035428,-2.2845278,-0.8585853,1.8887863,1.8932765,-0.8599948,0.640164,-1.0661532,-2.229135,-0.92244446,1.9355264,1.8391404,-0.90033066,-1.4488435,-0.8023157,-1.2061195,1.3885981,-0.7962548,0.43422636,0.16043046,-0.32975388,-0.5650654,0.67778534,-1.4507654,0.45245576,-0.37010583,-0.30348969,-0.5866318,0.6315461,0.94301003,0.034185242,0.2172701,0.24971409,-1.3979682,0.39474186,-0.48271465,0.0,1.0,0.0,0.0,0.0,0.0,0.0,-0.3202461,0.16506538,-0.12778533,-0.07741451,-2.5550723,2.081561,-0.19102097,0.6971717,-0.5825639,2.8200717
-3.5199318,56.71841,11.593035,11.58282,0.93634486,0.46425664,0.24805564,-0.80729973,-0.48391658,-0.67784375,0.77607876,-0.544108,0.57653266,0.4403348,0.55943406,-1.1145449,-2.2969193,-0.8448366,1.8811156,1.8967937,-0.8562972,0.6256901,-1.0744234,-2.241147,-0.90857697,1.9276451,1.8434546,-0.89851797,-1.4472163,-0.83591557,-1.1975144,1.3862221,-0.7868241,0.42973042,0.18785977,-0.34405136,-0.5604725,0.673879,-1.4221017,0.4618133,-0.39570272,-0.31745148,-0.5825558,0.6265711,0.9447495,0.03982125,0.221968,0.2378924,-1.390495,0.42274013,-0.5032234,0.0,1.0,0.0,0.0,0.0,0.0,0.0,-0.30594862,0.16047248,-0.123879015,0.04274845,-3.5013556,1.3818502,-0.21059513,0.45063496,-0.65009,2.6288419
-2.6648474,52.18235,10.579795,10.259354,0.94275576,0.40441474,0.26291028,-0.8042457,-0.5227264,-0.65497744,0.7764705,-0.5166876,0.554964,0.4836263,0.54526556,-1.1266961,-2.3066447,-0.83092993,1.8759763,1.898951,-0.85015535,0.61124665,-1.0831496,-2.2529988,-0.89472556,1.9199115,1.8477099,-0.8964296,-1.4437082,-0.88534176,-1.1798009,1.3849856,-0.77026874,0.42347103,0.21558645,-0.35808945,-0.5558014,0.6696482,-1.3972553,0.4687458,-0.43019715,-0.33134842,-0.5782242,0.6213417,0.94628125,0.045669954,0.22633891,0.22635494,-1.3848286,0.448018,-0.5304805,0.0,1.0,0.0,0.0,0.0,0.0,0.0,-0.29191053,0.15580139,-0.11964816,0.24483204,-5.0689816,2.2556782,-0.07305145,1.204598,-0.8275032,2.695942
-1.1597049,56.582302,11.748802,10.856108,0.9359883,0.45330954,0.26394677,-0.8005252,-0.52363586,-0.6400553,0.77678937,-0.53065026,0.5407922,0.5119336,0.53119415,-1.1355132,-2.3170044,-0.81704664,1.8668464,1.9017891,-0.84523624,0.5968518,-1.0922934,-2.2646294,-0.8808809,1.912283,1.8518977,-0.89407223,-1.438509,-0.9245084,-1.156016,1.38439,-0.76198334,0.41651598,0.24215549,-0.37184906,-0.55106354,0.66512,-1.3682085,0.4752749,-0.4584167,-0.34516144,-0.5736332,0.61589056,0.94761056,0.05169929,0.23040326,0.21511771,-1.373111,0.47428074,-0.550929,0.0,1.0,0.0,0.0,0.0,0.0,0.0,-0.27815092,0.15106353,-0.11511999,0.3921032,-4.047823,2.920723,-0.037932396,0.31940937,-0.8907497,2.559197
-4.594372,50.907913,9.132761,9.986576,0.8704835,0.3736667,0.2713371,-0.8107907,-0.56168437,-0.6654572,0.7609827,-0.5173066,0.4828313,0.5520549,0.51577276,-1.1484618,-2.331175,-0.8047826,1.8605523,1.9001808,-0.8388668,0.5824542,-1.1018873,-2.2761872,-0.8671076,1.9047415,1.8559753,-0.8914481,-1.440451,-0.97143286,-1.154226,1.3751822,-0.752833,0.40416405,0.26890972,-0.38536835,-0.5462723,0.66019845,-1.3454231,0.4806197,-0.50032794,-0.35889053,-0.5687885,0.61014026,0.9487502,0.058016736,0.23414552,0.20416394,-1.3675652,0.49906084,-0.5840676,0.0,1.0,0.0,0.0,0.0,0.0,0.0,-0.26463163,0.14627227,-0.11019844,-0.2832651,-4.8172474,0.6280184,-0.84490776,0.47620535,-1.43435,2.6001513
0.16121912,51.986263,10.405452,8.861663,0.88333595,0.36403996,0.29756832,-0.79367363,-0.58783305,-0.62488794,0.75555587,-0.46558008,0.4554776,0.58219635,0.50308686,-1.1606706,-2.338676,-0.79155207,1.8581835,1.901523,-0.83322847,0.56810385,-1.1119639,-2.2875926,-0.8534526,1.8974252,1.8599169,-0.8885617,-1.4336574,-1.0199653,-1.1344625,1.3623966,-0.7259684,0.39006168,0.29502827,-0.3986435,-0.54143715,0.6548698,-1.3202888,0.48425272,-0.5407356,-0.37252045,-0.56371117,0.6040842,0.9497295,0.06456309,0.23746121,0.19353941,-1.3559194,0.5214785,-0.6137714,0.0,1.0,0.0,0.0,0.0,0.0,0.0,-0.25135648,0.14143714,-0.10486978,0.5642891,-4.966402,2.4703026,-1.2430191,2.2113562,-1.6179144,2.5483131
4.8354735,54.995525,12.223917,8.234961,0.9582205,0.39918616,0.31304762,-0.7858682,-0.6090991,-0.57483006,0.740568,-0.42127207,0.41945937,0.5983524,0.48951703,-1.1728737,-2.3450756,-0.7793958,1.8552979,1.9018629,-0.8287265,0.55385685,-1.1225058,-2.2985852,-0.83997977,1.8904921,1.8637023,-0.8854301,-1.4221894,-1.0659443,-1.08544,1.3421988,-0.6839486,0.37400615,0.31916404,-0.41164017,-0.5365753,0.64917284,-1.2914555,0.4864481,-0.5760064,-0.3859825,-0.5584221,0.59778833,0.9505887,0.07117431,0.24023677,0.18330754,-1.3373166,0.54267687,-0.6359234,0.0,1.0,0.0,0.0,0.0,0.0,0.0,-0.23835981,0.13657531,-0.09917283,1.0003805,-4.7017336,5.468297,-2.0328522,3.6605477,-1.8152177,2.36032
7.1355033,53.5775,12.749648,7.1538663,1.2955317,0.37557918,0.2835054,-0.7859746,-0.6478956,-0.5192513,0.70961136,-0.24394234,0.3218703,0.6023906,0.4752594,-1.1872953,-2.3505104,-0.76901865,1.8660978,1.8958893,-0.825191,0.5397119,-1.1335627,-2.3088653,-0.8268227,1.8844593,1.8672662,-0.8820792,-1.4124619,-1.1191252,-1.0068918,1.3067721,-0.57796335,0.3496658,0.34053275,-0.42437744,-0.5316944,0.6430947,-1.2662505,0.4884036,-0.6155007,-0.39929962,-0.5529175,0.59129584,0.95143855,0.07761708,0.24215823,0.17349257,-1.3229052,0.5638197,-0.65474635,0.0,1.0,0.0,0.0,0.0,0.0,0.0,-0.22562253,0.1316944,-0.09309471,0.8262396,-5.4065466,8.417487,-3.5627604,10.055721,-2.6688397,2.1544814
6.6390824,54.464184,12.389585,7.0262547,1.3695688,0.31902438,0.2627493,-0.7847408,-0.65486,-0.5262463,0.6685412,-0.13829339,0.17985842,0.60537905,0.46123782,-1.1990486,-2.36149,-0.7599686,1.8706299,1.885252,-0.8215413,0.52564234,-1.1450621,-2.3185003,-0.8141651,1.8797208,1.870495,-0.8785386,-1.405517,-1.1603441,-0.9474539,1.2520391,-0.44056112,0.31317237,0.35874766,-0.4368744,-0.52680016,0.636599,-1.2425026,0.48971975,-0.6571996,-0.4124756,-0.5472069,0.58461547,0.9523542,0.08385256,0.24305095,0.16406186,-1.3098601,0.58437276,-0.6735475,0.0,1.0,0.0,0.0,0.0,0.0,0.0,-0.21312559,0.12680015,-0.08659899,0.55544376,-4.20804,6.471896,-5.4979086,13.218498,-3.8919091,1.8504262
14.124266,62.78899,15.994052,6.923557,1.6888922,0.3770399,0.24370024,-0.76490235,-0.65238637,-0.43686047,0.61626035,0.08511714,0.09734185,0.60638064,0.4491521,-1.2103007,-2.3621864,-0.7525391,1.8882325,1.8802291,-0.81790054,0.5117063,-1.1568247,-2.3273075,-0.8022229,1.8768411,1.8733219,-0.8748377,-1.3902273,-1.1818928,-0.8564395,1.1745217,-0.2389162,0.27172625,0.37410945,-0.44908142,-0.521904,0.62979436,-1.2116555,0.4894539,-0.6852095,-0.42546082,-0.5412941,0.5778923,0.95342934,0.08962701,0.24269903,0.15503778,-1.288208,0.60411257,-0.673279,0.0,1.0,0.0,0.0,0.0,0.0,0.0,-0.20091856,0.121903986,-0.07979435,1.3382912,-2.2302866,9.74263,-7.877445,19.547823,-4.392153,1.56793
16.0911,62.24699,15.952451,5.0631075,1.6414704,0.28717667,0.2941605,-0.7743569,-0.6587785,-0.3971473,0.50685155,0.24972144,-0.18180832,0.59156007,0.4342706,-1.2227025,-2.3670223,-0.75153774,1.9018133,1.855141,-0.8156817,0.49785978,-1.1687151,-2.3351917,-0.79143757,1.8762,1.8755628,-0.8710138,-1.3834229,-1.1917615,-0.76361096,1.04594,-0.0076571074,0.20735224,0.38528618,-0.46098328,-0.5170231,0.6226876,-1.1816392,0.48728734,-0.71640956,-0.43820953,-0.53520966,0.5711497,0.9547404,0.09486806,0.24086894,0.14646816,-1.2637684,0.61992806,-0.6760063,0.0,1.0,0.0,0.0,0.0,0.0,0.0,-0.1890167,0.11702308,-0.07268757,0.497365,-1.0440111,9.875751,-13.0057335,22.529766,-6.6567035,1.1561334
21.412998,74.20165,19.667992,7.2115498,1.8325219,0.33711135,0.24730964,-0.7571131,-0.637252,-0.29086962,0.47566888,0.34231213,-0.3709256,0.5917668,0.42214847,-1.2324404,-2.3642788,-0.7438707,1.9104311,1.8384702,-0.81183714,0.48412585,-1.1805367,-2.3418667,-0.78190243,1.8777695,1.8770639,-0.86709607,-1.370737,-1.1789492,-0.6333043,0.92200804,0.20992264,0.13054393,0.39396855,-0.47249985,-0.51218796,0.61543864,-1.1397557,0.48175302,-0.7247873,-0.45064163,-0.5289879,0.56455475,0.9563115,0.099432796,0.23757343,0.1383482,-1.2289164,0.6327983,-0.655209,0.0,1.0,0.0,0.0,0.0,0.0,0.0,-0.17750013,0.11218795,-0.06543863,1.0577917,1.2270689,13.708794,-12.606394,21.11566,-7.84961,0.8590996
15.538296,77.01786,18.682554,9.785343,1.8586174,0.3676247,0.18250147,-0.77446157,-0.6306662,-0.24982363,0.42546523,0.37470514,-0.49798685,0.5844936,0.4066797,-1.2436033,-2.3668492,-0.7393559,1.9152399,1.8272651,-0.8086467,0.47041625,-1.1921659,-2.3472946,-0.7735349,1.8811473,1.8777653,-0.86311084,-1.3715528,-1.1576077,-0.51078206,0.80780673,0.37861317,0.04946307,0.40000638,-0.483593,-0.50741196,0.60813725,-1.0979201,0.47579387,-0.729553,-0.46274948,-0.5226135,0.5581835,0.958105,0.103362694,0.23302165,0.13058266,-1.1984658,0.64840174,-0.63244116,0.0,1.0,0.0,0.0,0.0,0.0,0.0,-0.16640699,0.10741195,-0.058137238,-0.24533272,2.0741224,12.82872,-11.569405,16.325277,-8.238882,0.58184266
29.586832,104.59003,28.655018,15.124825,2.48425,0.7326704,0.08685765,-0.74120975,-0.58041155,0.060105924,0.42724165,0.4045044,-0.51078093,0.6058276,0.39629528,-1.250207,-2.341284,-0.7308107,1.9215977,1.8266872,-0.8025281,0.45682302,-1.2033637,-2.350365,-0.76598454,1.8858633,1.877733,-0.85905904,-1.3559958,-1.1072196,-0.23677543,0.73642695,0.5006455,-0.020965101,0.40656227,-0.49404907,-0.5027523,0.60123026,-1.0275878,0.46252403,-0.6760312,-0.47436905,-0.5160885,0.5525048,0.96011746,0.10610145,0.22746581,0.12319176,-1.1430906,0.66278076,-0.54779464,0.0,1.0,0.0,0.0,0.0,0.0,0.0,-0.1559509,0.1027523,-0.05123025,1.3317823,4.987049,28.192913,-7.4278235,11.554611,-7.0699344,0.5336404
34.08422,104.6998,30.27383,14.40774,2.697224,0.7902434,0.08562076,-0.74393827,-0.5924916,0.25559315,0.35599524,0.5292244,-0.5564812,0.6166071,0.38242918,-1.2626128,-2.3248055,-0.730385,1.9387858,1.8220849,-0.7973983,0.44336906,-1.2141649,-2.3501167,-0.75917333,1.8918014,1.877048,-0.8549399,-1.3424251,-1.071092,0.11443407,0.66192466,0.6231307,-0.08426227,0.41340658,-0.5037918,-0.49824333,0.5949158,-0.95592684,0.44679692,-0.6156003,-0.4854126,-0.50943756,0.5477283,0.96240526,0.1071583,0.22086322,0.11624383,-1.0872561,0.6749734,-0.45576188,0.0,1.0,0.0,0.0,0.0,0.0,0.0,-0.14620817,0.098243326,-0.044915795,1.1896849,3.5631895,35.80792,-7.680714,11.711979,-6.2980123,0.5820513
29.205309,103.39224,27.839481,14.889647,2.418897,0.6938012,0.10184769,-0.74238324,-0.5435974,0.27601433,0.28832245,0.5868312,-0.60655993,0.6231582,0.36913073,-1.2685246,-2.3225152,-0.7303411,1.9504845,1.8163921,-0.79262406,0.43003097,-1.2244893,-2.3468897,-0.7532043,1.8988628,1.8757703,-0.8507541,-1.3312016,-1.0195618,0.39348644,0.5749268,0.7326973,-0.14189306,0.41997796,-0.5128403,-0.4939041,0.5891884,-0.88812613,0.42983428,-0.55904126,-0.49593353,-0.5026684,0.54378295,0.96492124,0.10667262,0.21332929,0.10972061,-1.0363324,0.68563277,-0.37579125,0.0,1.0,0.0,0.0,0.0,0.0,0.0,-0.1371597,0.09390411,-0.039188385,1.0319948,5.095601,28.343756,-8.817959,10.64459,-5.670795,0.5744159
15.332199,127.547424,29.153048,26.669819,3.048649,0.8713734,-0.19254802,-0.7398485,-0.42543712,0.3309163,0.368625,0.60378695,-0.57395256,0.6241154,0.3560461,-1.2670331,-2.3137982,-0.7163418,1.9592415,1.8183751,-0.78834254,0.4167854,-1.2338487,-2.3415072,-0.7475313,1.9068332,1.8740097,-0.8465089,-1.3223978,-0.90811497,0.5874668,0.56470376,0.81812704,-0.18706758,0.42578295,-0.5211487,-0.48973465,0.58430916,-0.8128713,0.41285378,-0.46576557,-0.5060425,-0.49567032,0.54091823,0.9675351,0.10487693,0.20544773,0.103285775,-0.9974833,0.711643,-0.2585142,0.0,1.0,0.0,0.0,0.0,0.0,0.0,-0.1288513,0.08973464,-0.03430915,0.8706093,11.082506,19.626785,-1.0305524,8.486295,-4.3902903,0.50447583
