Afshin1997/kuka_rl_ros2/src/catch_and_throw/input_files/idealpd/recorded_trajectories/env_80_data.csv
torque0,torque1,torque2,torque3,torque4,torque5,torque6,action0,action1,action2,action3,action4,action5,action6,set_target_0,set_target_1,set_target_2,set_target_3,set_target_4,set_target_5,set_target_6,joint_pos_0,joint_pos_1,joint_pos_2,joint_pos_3,joint_pos_4,joint_pos_5,joint_pos_6,joint_vel_0,joint_vel_1,joint_vel_2,joint_vel_3,joint_vel_4,joint_vel_5,joint_vel_6,tennisball_pos_0,tennisball_pos_1,tennisball_pos_2,tennisball_lin_vel_0,tennisball_lin_vel_1,tennisball_lin_vel_2,end_effector_pos_0,end_effector_pos_1,end_effector_pos_2,end_effector_rot_0,end_effector_rot_1,end_effector_rot_2,end_effector_rot_3,end_effector_lin_vel_0,end_effector_lin_vel_1,end_effector_lin_vel_2,obs_task_0,obs_task_1,obs_task_2,obs_task_3,obs_task_4,obs_task_5,obs_task_6,to_final_target_0,to_final_target_1,to_final_target_2,joint_acc_0,joint_acc_1,joint_acc_2,joint_acc_3,joint_acc_4,joint_acc_5,joint_acc_6
0.0,0.0,0.0,0.0,0.0,0.0,0.0,0.0,0.0,0.0,0.0,0.0,0.0,0.0,1.7802359,-1.0646509,-1.8151424,-1.1170107,1.9373155,1.1170107,-0.91629785,1.7802359,-1.0646509,-1.8151424,-1.1170107,1.9373155,1.1170107,-0.91629785,0.0,0.0,0.0,0.0,0.0,0.0,0.0,3.1040306,-0.4917736,0.2529952,-3.049168,-0.019468902,5.6182647,0.5304184,-0.45449638,0.693097,0.5745483,0.17512383,0.15255436,0.7848268,0.0,0.0,0.0,1.0,0.0,0.0,0.0,0.0,0.0,0.0,-3.7540307,0.0917736,0.29700482,0.0,0.0,0.0,0.0,0.0,0.0,0.0
0.0,0.0,0.0,0.0,0.0,0.0,0.0,0.0,0.0,0.0,0.0,0.0,0.0,0.0,1.7802359,-1.0646509,-1.8151424,-1.1170107,1.9373155,1.1170107,-0.91629785,1.7802359,-1.0646509,-1.8151424,-1.1170107,1.9373155,1.1170107,-0.91629785,0.0,0.0,0.0,0.0,0.0,0.0,0.0,3.1040306,-0.4917736,0.2529952,-3.049168,-0.019468902,5.6182647,0.5304184,-0.45449638,0.693097,0.5745483,0.17512383,0.15255436,0.7848268,0.0,0.0,0.0,1.0,0.0,0.0,0.0,0.0,0.0,0.0,-3.7540307,0.0917736,0.29700482,0.0,0.0,0.0,0.0,0.0,0.0,0.0
0.0,0.0,0.0,0.0,0.0,0.0,0.0,0.0,0.0,0.0,0.0,0.0,0.0,0.0,1.7802359,-1.0646509,-1.8151424,-1.1170107,1.9373155,1.1170107,-0.91629785,1.7802359,-1.0646509,-1.8151424,-1.1170107,1.9373155,1.1170107,-0.91629785,0.0,0.0,0.0,0.0,0.0,0.0,0.0,3.1040306,-0.4917736,0.2529952,-3.049168,-0.019468902,5.6182647,0.5304184,-0.45449638,0.693097,0.5745483,0.17512383,0.15255436,0.7848268,0.0,0.0,0.0,1.0,0.0,0.0,0.0,0.0,0.0,0.0,-3.7540307,0.0917736,0.29700482,0.0,0.0,0.0,0.0,0.0,0.0,0.0
-176.0,64.51892,-7.396002,110.0,11.25263,4.723335,-3.735977,-0.8177892,0.32256544,-0.52767235,0.7364275,0.35609865,0.65695006,-0.6026812,1.698457,-1.0323944,-1.8679097,-1.043368,1.9729253,1.1827058,-0.97656596,1.778874,-1.0624632,-1.8210628,-1.1119372,1.9434628,1.1227003,-0.91870207,-0.1811881,0.29116225,-0.78898346,0.6768874,0.8185629,0.7565566,-0.31983778,3.0735588,-0.49196815,0.30839926,-3.0461195,-0.019449437,5.5144615,0.52812576,-0.45798683,0.6939576,0.57873386,0.1735412,0.15055,0.78248656,-0.30546495,-0.46548977,0.11451444,1.0,0.0,0.0,0.0,0.0,0.0,0.0,-3.723559,0.09196815,0.24160075,-18.038841,28.913164,-78.7326,67.798134,81.57204,75.020386,-31.763176
-176.0,-22.278849,-40.56842,107.94258,11.418675,1.5902909,-2.874591,-0.7967262,-0.13865183,-0.53017956,0.6992483,0.44818518,0.64544106,-0.597817,1.6992015,-1.0763284,-1.8740808,-1.0420123,1.9882814,1.1872444,-0.9784838,1.7769552,-1.0596937,-1.8356483,-1.097592,1.9542947,1.1359392,-0.9202327,-0.19306165,0.2707238,-1.68374,1.6903391,1.1716509,1.507082,-0.09410537,3.0431175,-0.4921627,0.36276606,-3.0430741,-0.019429991,5.410762,0.5231323,-0.46671867,0.69498366,0.58747894,0.17001759,0.1463614,0.77752227,-0.5653782,-1.0082655,0.09919368,1.0,0.0,0.0,0.0,0.0,0.0,0.0,-3.6931176,0.0921627,0.18723395,-0.45701265,-2.4985194,-90.086365,102.35081,35.382496,73.270485,23.616842
-151.96626,111.63638,30.316599,89.20386,7.844001,7.361437,-1.6969767,-0.77575856,0.28722724,0.08745335,0.65552807,0.49028346,0.6830809,-0.55732024,1.6993794,-1.0309709,-1.826903,-1.0320392,2.003323,1.2042474,-0.9759647,1.7717444,-1.0562624,-1.8504226,-1.0789286,1.9661164,1.1508166,-0.9213552,-0.63051754,0.363957,-1.402263,1.9263259,1.1807755,1.4745696,-0.11978458,3.0127068,-0.49235725,0.41609666,-3.0400317,-0.019410565,5.307166,0.5151825,-0.47830772,0.6976657,0.5990071,0.16487215,0.140907,0.770813,-0.8796487,-1.2017268,0.3284547,1.0,0.0,0.0,0.0,0.0,0.0,0.0,-3.6627069,0.09235725,0.13390335,-43.769245,8.356428,30.091358,23.990845,-0.558877,-5.338812,-3.0294478
-94.84946,98.95921,36.4903,52.10561,4.7733426,6.837929,-0.21528032,-0.7764896,0.07764097,0.1720422,0.64228153,0.5096541,0.6583343,-0.5824405,1.6940954,-1.0484983,-1.8332185,-1.0147004,2.0170817,1.21665,-0.97959924,1.7622877,-1.0530161,-1.8597019,-1.060412,1.977099,1.1646086,-0.9228458,-1.0515349,0.30928662,-0.7624675,1.8274187,1.0655407,1.343966,-0.16058369,2.9823265,-0.4925518,0.46839207,-3.036992,-0.019391159,5.203674,0.5046692,-0.49064827,0.702167,0.6113788,0.15845686,0.13425179,0.7635993,-1.1203508,-1.2326057,0.49511763,1.0,0.0,0.0,0.0,0.0,0.0,0.0,-3.6323266,0.0925518,0.08160794,-42.385326,-6.0898247,66.14208,-9.707999,-13.088536,-14.137793,-4.606214
-38.701588,115.689186,47.15514,27.05653,2.0494456,6.273998,0.49132925,-0.790618,0.18097979,0.22706835,0.6482406,0.5775365,0.659707,-0.58290845,1.683226,-1.0349181,-1.836995,-0.995588,2.0348525,1.2305793,-0.9811366,1.749417,-1.0499986,-1.8622901,-1.044005,1.9869428,1.1769587,-0.9247932,-1.3669642,0.2977128,-0.08474942,1.5781621,0.953447,1.1973269,-0.20821118,2.9519768,-0.49274635,0.5196533,-3.0339558,-0.01937177,5.100285,0.49238205,-0.5023651,0.70822984,0.6233572,0.15094453,0.12656632,0.7567183,-1.2782543,-1.137743,0.64522874,1.0,0.0,0.0,0.0,0.0,0.0,0.0,-3.6019769,0.09274635,0.030346692,-31.907988,-1.6147435,69.63218,-25.036764,-12.401366,-15.064597,-5.402875
-0.87563705,117.73173,46.093987,11.689078,0.03526044,4.674882,0.54033935,-0.8049171,0.28013742,0.19154909,0.6367441,0.5863496,0.6504494,-0.59366226,1.6689253,-1.0219849,-1.8431352,-0.98033065,2.0455778,1.2420037,-0.9841594,1.7344424,-1.0465769,-1.8597438,-1.03011,1.9958959,1.1879698,-0.9271831,-1.5420893,0.3558569,0.3719268,1.3261147,0.8739508,1.0692952,-0.2512848,2.9216576,-0.4929409,0.5698815,-3.0309224,-0.019352403,4.9969993,0.47912216,-0.512764,0.71549267,0.6345379,0.14264055,0.1184863,0.75031745,-1.3538227,-0.9940835,0.7525036,1.0,0.0,0.0,0.0,0.0,0.0,0.0,-3.5716577,0.0929409,-0.019881487,-17.814613,5.4820356,46.882706,-25.39141,-8.582127,-12.769914,-4.896289
20.34999,130.0723,46.037315,6.520797,-1.3934581,3.5474656,0.18994796,-0.81548536,0.45284715,0.11588958,0.6169092,0.563684,0.65141726,-0.59689623,1.6528938,-1.0012921,-1.8481549,-0.9684191,2.0522642,1.2531115,-0.98687273,1.7185637,-1.0417017,-1.8547618,-1.0182711,2.0042443,1.1978632,-0.92995733,-1.6040528,0.5304728,0.54267424,1.1359789,0.82114583,0.9634663,-0.2879344,2.8913689,-0.49313545,0.61907756,-3.027892,-0.019333053,4.8938174,0.4655304,-0.5215626,0.7237433,0.6450685,0.1338004,0.110954516,0.7440921,-1.3716807,-0.8282169,0.84677154,1.0,0.0,0.0,0.0,0.0,0.0,0.0,-3.541369,0.09313545,-0.06907755,-6.471944,17.179798,17.848122,-19.153618,-5.525577,-10.357976,-4.212153
28.18692,127.98661,42.04821,5.227748,-1.8228227,2.5618854,-0.059698224,-0.8204064,0.54153436,0.09703198,0.59604114,0.59245765,0.63818955,-0.58964074,1.636523,-0.98754823,-1.8450587,-0.958667,2.0634902,1.2616822,-0.9889214,1.7025954,-1.0347685,-1.8495224,-1.0077692,2.0123467,1.2068297,-0.93304056,-1.595145,0.74697435,0.51943094,1.0212067,0.8065041,0.87514853,-0.3166682,2.8611107,-0.49333,0.6672426,-3.024865,-0.019313725,4.7907386,0.45199585,-0.52879333,0.73280287,0.6552062,0.124659404,0.1045419,0.73772347,-1.3571233,-0.6742483,0.9229722,1.0,0.0,0.0,0.0,0.0,0.0,0.0,-3.5111108,0.093329996,-0.117242575,0.64635277,21.429253,-1.7996073,-11.568832,-1.5413642,-8.597958,-3.3167958
25.814785,118.08672,36.398453,6.8281426,-1.6488342,1.8844595,-0.24891597,-0.8237067,0.61063725,0.068087704,0.5934904,0.589671,0.6402533,-0.5810342,1.6202247,-0.97370476,-1.8427136,-0.94842017,2.0713139,1.270855,-0.991144,1.6869398,-1.0257238,-1.8452976,-0.99788725,2.0204263,1.2150275,-0.9363603,-1.5562384,0.9562984,0.39132157,0.97688556,0.808464,0.80177057,-0.3382282,2.830883,-0.49352455,0.7143776,-3.0218406,-0.019294415,4.6877627,0.43863678,-0.5346966,0.74249095,0.66519135,0.115389004,0.099424616,0.7309723,-1.3332884,-0.54815465,0.98127526,1.0,0.0,0.0,0.0,0.0,0.0,0.0,-3.4808831,0.093524545,-0.16437757,3.6881447,20.762348,-12.440085,-4.515505,0.19277334,-7.1953773,-2.5042236
21.035795,103.82917,31.02158,7.9708834,-1.1733814,1.4801148,-0.25432178,-0.82419735,0.6527578,0.06611224,0.57850206,0.61243063,0.64227253,-0.57621574,1.6045201,-0.960448,-1.8386863,-0.9400371,2.0816693,1.2792547,-0.9939819,1.6716982,-1.0149263,-1.8424327,-0.9881693,2.0286431,1.2225844,-0.93985647,-1.5141809,1.1202807,0.25238675,0.9696242,0.8266043,0.7406055,-0.3544475,2.800686,-0.4937191,0.76048356,-3.0188193,-0.019275123,4.58489,0.4255104,-0.5395508,0.75262696,0.67512745,0.10609643,0.09542813,0.7237679,-1.3124619,-0.44980574,1.021763,1.0,0.0,0.0,0.0,0.0,0.0,0.0,-3.450686,0.093719095,-0.21048355,4.0355444,16.265415,-13.582611,-0.8459449,1.8246174,-6.0707927,-1.9173622
18.147999,90.50672,27.136082,7.9824195,-0.7397796,1.2653588,-0.1533303,-0.81311405,0.68076944,0.0734772,0.5678581,0.62460226,0.6454377,-0.56778896,1.5903869,-0.94684935,-1.835085,-0.9313835,2.0911033,1.2871281,-0.9966354,1.6568476,-1.0029138,-1.840657,-0.9784142,2.037085,1.229611,-0.9434833,-1.4759442,1.2281162,0.15362577,0.9769797,0.8502281,0.6900262,-0.36640233,2.7705193,-0.49391174,0.8055616,-3.0158012,-0.019255852,4.48212,0.4125328,-0.54356575,0.76305634,0.6849842,0.09681966,0.09220509,0.71618485,-1.2965244,-0.37037042,1.047937,1.0,0.0,0.0,0.0,0.0,0.0,0.0,-3.4205194,0.09391174,-0.2555616,3.6736965,10.676098,-9.561738,0.57349205,2.3665905,-5.0614715,-1.4809966
12.52501,76.463974,22.297213,8.699958,-0.3452343,1.0174086,-0.13232109,-0.80657905,0.70073193,0.028218942,0.5778715,0.6163225,0.6581202,-0.5693662,1.5761896,-0.93284065,-1.8378351,-0.920627,2.0987172,1.295423,-1.0004199,1.6423002,-0.99018705,-1.8397262,-0.9684969,2.04571,1.2362086,-0.94721216,-1.4479107,1.2873323,0.07389841,0.99603844,0.86686283,0.649525,-0.37586787,2.7403831,-0.49410248,0.8496127,-3.012786,-0.0192366,4.379452,0.3996582,-0.5469551,0.7736108,0.69475317,0.087594345,0.08949952,0.70826197,-1.2875177,-0.3121499,1.056008,1.0,0.0,0.0,0.0,0.0,0.0,0.0,-3.3903832,0.09410247,-0.2996127,2.6735544,5.840111,-7.6876535,1.7145276,1.6821861,-4.069996,-1.2149453
9.074412,64.924034,18.260576,8.013745,-0.15872717,0.76738024,-0.078500554,-0.80458,0.71217054,-0.013674926,0.5592768,0.6275758,0.6614654,-0.5694532,1.5618422,-0.91897,-1.8410937,-0.9125692,2.1084676,1.302355,-1.0041574,1.6279417,-0.97713125,-1.839503,-0.9584881,2.0544915,1.2424608,-0.95102113,-1.4322798,1.311408,0.005981718,1.0018185,0.8818128,0.6171087,-0.3833961,2.7102776,-0.4942932,0.8926379,-3.0097737,-0.019217368,4.2768874,0.38685226,-0.5498581,0.7841043,0.7044021,0.07850054,0.08714665,0.70004344,-1.280671,-0.26706943,1.0452504,1.0,0.0,0.0,0.0,0.0,0.0,0.0,-3.3602777,0.09429321,-0.3426379,1.4367819,2.349925,-6.520163,0.35145283,1.5237212,-3.2289982,-1.0102749
8.589552,62.034195,17.71605,7.6284127,-0.07061976,0.78498995,0.0047085416,-0.80343044,0.7253727,-0.008044675,0.5440066,0.63571984,0.6579638,-0.5680121,1.5475987,-0.904594,-1.8403075,-0.9040874,2.1180634,1.3082572,-1.0078224,1.6136652,-0.963961,-1.839709,-0.94853556,2.0634065,1.2484308,-0.954894,-1.4266531,1.3187722,-0.028351212,0.9922575,0.8947244,0.5904131,-0.38945743,2.6802025,-0.49448395,0.93463826,-3.0067647,-0.019198155,4.174425,0.3740921,-0.55231476,0.7944679,0.71386373,0.0695421,0.08501226,0.69161797,-1.2755977,-0.2226336,1.0316889,1.0,0.0,0.0,0.0,0.0,0.0,0.0,-3.3302026,0.09448394,-0.38463825,0.425601,0.68280697,-3.113571,-1.194799,1.3020158,-2.651143,-0.87448955
9.062811,60.26171,17.229076,7.0029287,-0.09557587,0.74731946,0.054636218,-0.8002216,0.73161036,-0.024850827,0.5285337,0.6375837,0.6641717,-0.5690029,1.533643,-0.8908,-1.8421941,-0.8956822,2.1271648,1.3148481,-1.0117943,1.5994097,-0.9507736,-1.8401496,-0.93877566,2.0724244,1.2541777,-0.9588203,-1.4257044,1.3185736,-0.048179485,0.96973085,0.90394586,0.5693767,-0.39454418,2.650158,-0.49467468,0.9756148,-3.0037584,-0.01917896,4.0720654,0.3613968,-0.5543194,0.80467093,0.7230822,0.060705144,0.08303113,0.68306136,-1.2686644,-0.17734843,1.0148138,1.0,0.0,0.0,0.0,0.0,0.0,0.0,-3.300158,0.09467468,-0.42561477,-0.049495697,-0.06787777,-1.6395166,-2.5003672,0.9269357,-2.065158,-0.7812798
12.898719,61.80153,18.314137,5.204146,-0.25001574,0.7699348,0.1733672,-0.7982994,0.73505354,-0.0018328689,0.48445752,0.6509507,0.6640055,-0.56586695,1.5195798,-0.87726825,-1.840333,-0.8903299,2.1375194,1.3205782,-1.015407,1.5851504,-0.9376024,-1.8405654,-0.9294325,2.0815454,1.2597452,-0.9627895,-1.4265913,1.3165468,-0.038022533,0.92153776,0.91457134,0.55263513,-0.39860773,2.620144,-0.49486542,1.0155685,-3.0007553,-0.019159785,3.9698079,0.34881973,-0.555809,0.8147099,0.73195595,0.051967356,0.08114431,0.67450386,-1.2551417,-0.1231833,0.9985502,1.0,0.0,0.0,0.0,0.0,0.0,0.0,-3.270144,0.09486541,-0.46556848,-0.24974346,-0.24807453,1.4165319,-5.0759077,1.0467172,-1.6001701,-0.69630146
12.9201565,64.984985,19.42815,6.191216,-0.19964424,0.8813461,0.1879391,-0.8026925,0.74374104,0.014128777,0.47786182,0.65290105,0.6636768,-0.558977,1.5048811,-0.8632283,-1.8391526,-0.88164634,2.1468356,1.3261129,-1.0186871,1.5708567,-0.924415,-1.8407428,-0.92055094,2.090754,1.2651659,-0.96678823,-1.4309967,1.3193065,-0.009457441,0.87615526,0.9230309,0.5387838,-0.40126896,2.5901604,-0.49505615,1.0545003,-2.9977553,-0.01914063,3.8676531,0.33636475,-0.55672836,0.82464504,0.7404506,0.04325888,0.079311356,0.66601133,-1.2432306,-0.06606796,0.989857,1.0,0.0,0.0,0.0,0.0,0.0,0.0,-3.2401605,0.09505615,-0.5045003,-0.605464,0.22633076,3.2793527,-4.776001,0.8239269,-1.3316154,-0.5568385
14.434684,65.80203,19.524326,5.838124,-0.2888344,0.8211408,0.20062938,-0.7975484,0.7500459,0.009515765,0.45186433,0.6591733,0.67245924,-0.5475071,1.4911019,-0.8494104,-1.8397913,-0.8753645,2.1566713,1.3324119,-1.021539,1.556544,-0.91116655,-1.8406627,-0.9121367,2.1000466,1.2704741,-0.97080034,-1.432018,1.3266326,0.0152200125,0.8291728,0.93122697,0.528507,-0.40214872,2.5602074,-0.4952469,1.0924114,-2.9947581,-0.019121492,3.7656007,0.3240471,-0.5570564,0.83449465,0.7485574,0.034552645,0.07754175,0.6576133,-1.2267678,-0.007032577,0.9812463,1.0,0.0,0.0,0.0,0.0,0.0,0.0,-3.2102075,0.09524688,-0.5424114,-0.2635479,0.6887913,2.877052,-4.9300194,0.80896616,-0.95567703,-0.37251115
15.89146,67.02617,19.711359,5.602436,-0.3925417,0.7617618,0.20352036,-0.7935434,0.7605379,0.014106038,0.4260972,0.65820485,0.6701482,-0.53664124,1.4771897,-0.83511275,-1.8392521,-0.869527,2.165867,1.3374889,-1.0244645,1.5422484,-0.89779985,-1.8403766,-0.90419066,2.1094003,1.2756945,-0.9748096,-1.4292991,1.3399988,0.034280073,0.7823134,0.9366796,0.5201974,-0.40148985,2.530285,-0.49543762,1.1293027,-2.9917638,-0.019102374,3.6636503,0.3119316,-0.55678177,0.84426713,0.7562758,0.025838314,0.07587928,0.64932394,-1.205479,0.05399315,0.97353274,1.0,0.0,0.0,0.0,0.0,0.0,0.0,-3.180285,0.095437616,-0.5793027,0.11398792,1.2978077,2.301173,-4.91066,0.54473877,-0.7447958,-0.2117753
18.4869,63.585922,18.529648,2.8364606,-0.62491596,0.5303888,0.2887588,-0.8020565,0.7575322,0.030066634,0.34256065,0.6702787,0.66748583,-0.538626,1.4620427,-0.82204664,-1.8373699,-0.8699346,2.176428,1.3424431,-1.0286722,1.5279452,-0.88432825,-1.839894,-0.8969828,2.1188264,1.2808462,-0.97881216,-1.4312912,1.3495439,0.054214776,0.69942915,0.94469154,0.51404035,-0.4007469,2.500393,-0.49562836,1.1651753,-2.9887729,-0.019083276,3.5618014,0.30011368,-0.5558834,0.8538742,0.76354825,0.017200174,0.0743555,0.6412249,-1.1728156,0.11572516,0.95377177,1.0,0.0,0.0,0.0,0.0,0.0,0.0,-3.150393,0.09562835,-0.6151753,-0.36284924,0.93507767,2.37972,-8.530342,0.808537,-0.4451871,-0.19057989
25.03605,63.859413,19.032497,-0.96207523,-1.0213771,0.34481502,0.4249894,-0.7925315,0.76673096,0.06132124,0.25607878,0.6728675,0.6727681,-0.5275459,1.448692,-0.80765516,-1.8337619,-0.8713749,2.186113,1.3481231,-1.0315667,1.5136629,-0.8707479,-1.8391197,-0.8908869,2.1283288,1.2859541,-0.9827995,-1.4279083,1.360887,0.0864341,0.5788464,0.9521056,0.510592,-0.3989274,2.4705276,-0.4958191,1.2000301,-2.9857848,-0.019064197,3.4600546,0.28874207,-0.55430603,0.8632353,0.7702614,0.008715434,0.072994284,0.63347703,-1.1221389,0.1852159,0.9272731,1.0,0.0,0.0,0.0,0.0,0.0,0.0,-3.1205277,0.095819086,-0.6500301,0.17683506,1.133728,3.6041708,-12.304211,0.7563591,-0.07942915,-0.07759929
26.90171,63.67305,19.120657,-1.7641101,-1.0829201,0.241656,0.4729747,-0.7905844,0.7712275,0.09163075,0.20239247,0.6807533,0.6665372,-0.52042466,1.4346045,-0.7936252,-1.8299567,-0.87064767,2.1964042,1.3526078,-1.0348419,1.4994246,-0.85705984,-1.8379333,-0.8860537,2.1379113,1.2910315,-0.9867639,-1.4228728,1.3715284,0.13027447,0.4507462,0.96090686,0.5078171,-0.39634863,2.440689,-0.49600983,1.2338682,-2.9827995,-0.019045137,3.3584094,0.27792358,-0.5520382,0.87232816,0.7763656,0.00040602035,0.071782604,0.6261817,-1.065572,0.25371885,0.9000766,1.0,0.0,0.0,0.0,0.0,0.0,0.0,-3.0906892,0.09600982,-0.6838682,0.35877228,1.0795355,4.721814,-13.036376,0.92145205,0.02092123,0.018781424
32.559074,64.48817,19.97123,-5.031625,-1.3974032,0.10407758,0.6202573,-0.7881294,0.7773541,0.15324032,0.08036176,0.68302363,0.6604186,-0.5108491,1.4206116,-0.7793244,-1.8226093,-0.8780175,2.2062137,1.3570733,-1.0378488,1.4852453,-0.843264,-1.8360984,-0.8827807,2.1475778,1.296086,-0.9906959,-1.4168774,1.3823901,0.20209315,0.2855354,0.9686906,0.50587887,-0.3928829,2.410881,-0.49620056,1.2666907,-2.9798172,-0.019026095,3.256866,0.26777267,-0.5490227,0.8811192,0.78175926,-0.0076903803,0.070696875,0.61951214,-0.99362004,0.32885218,0.86858755,1.0,0.0,0.0,0.0,0.0,0.0,0.0,-3.0608811,0.096200556,-0.7166907,0.4705906,1.1212349,7.48848,-16.724205,0.8411646,0.18750429,0.12880564
36.905563,62.36721,19.57328,-8.36752,-1.6805257,-0.15765381,0.7374155,-0.7847105,0.7801787,0.19354588,-0.04848282,0.6955236,0.6523767,-0.49615487,1.4067743,-0.7652461,-1.8167439,-0.887629,2.2171302,1.3613236,-1.0403113,1.471131,-0.8293737,-1.8334701,-0.88143027,2.1573434,1.3011214,-0.9945831,-1.4099585,1.391489,0.28389397,0.08429328,0.97960365,0.5044259,-0.38794047,2.3811035,-0.4963913,1.2984985,-2.976838,-0.019007072,3.155424,0.258461,-0.54524994,0.8895257,0.78634936,-0.015478118,0.06973884,0.61363786,-0.90623075,0.40382946,0.8274893,1.0,0.0,0.0,0.0,0.0,0.0,0.0,-3.0311036,0.09639129,-0.7484985,0.59490204,0.96929073,8.408347,-20.297863,1.1919975,0.3215313,0.31827092
39.24034,60.123863,18.98968,-10.585346,-1.8749042,-0.37967333,0.8169688,-0.78544354,0.78312916,0.24479555,-0.17877625,0.6939324,0.6529268,-0.46342564,1.3925866,-0.7510608,-1.8089906,-0.8993079,2.2267365,1.3664141,-1.0409256,1.4570681,-0.81540525,-1.8299587,-0.8822905,2.1672006,1.3061491,-0.99839777,-1.4051659,1.3988802,0.37400785,-0.14333627,0.9880167,0.5039316,-0.3797605,2.3513565,-0.49658203,1.3292927,-2.973862,-0.01898807,3.0540836,0.25009155,-0.54073715,0.8974679,0.7900783,-0.022865193,0.068928085,0.608689,-0.80797994,0.4763473,0.7788011,1.0,0.0,0.0,0.0,0.0,0.0,0.0,-3.0013566,0.096582025,-0.77929264,0.42204857,0.82051754,9.138388,-22.89384,0.991559,0.47467947,0.6945491
38.90695,62.69258,20.114529,-8.934945,-1.7311773,-0.32298404,0.81926376,-0.7757569,0.7907809,0.32584944,-0.25067022,0.69280326,0.647231,-0.41871908,1.3794924,-0.7363272,-1.7973738,-0.9073575,2.236481,1.3708723,-1.0402697,1.4430834,-0.80135095,-1.825381,-0.8852564,2.1771188,1.3111693,-1.0021007,-1.3961043,1.4079468,0.48560703,-0.34798095,0.994105,0.503006,-0.36742878,2.32164,-0.49677277,1.3590741,-2.9708886,-0.018969085,2.9528444,0.24266815,-0.53549194,0.90500003,0.79294926,-0.029903593,0.06822559,0.60471684,-0.7133484,0.5477885,0.73997205,1.0,0.0,0.0,0.0,0.0,0.0,0.0,-2.97164,0.09677276,-0.8090741,0.8969784,1.0077953,11.147558,-20.533869,0.8503437,0.41731596,1.1524141
32.838493,62.37101,19.77765,-4.199296,-1.2555373,-0.21875158,0.6920895,-0.7735839,0.79062694,0.38016263,-0.28560784,0.69167036,0.6458808,-0.37735608,1.365725,-0.72228825,-1.7873647,-0.91381717,2.246286,1.3757573,-1.0398363,1.4291884,-0.78722703,-1.8196723,-0.8898512,2.187079,1.316178,-1.005656,-1.3872178,1.414344,0.5989642,-0.49679554,0.99799126,0.50144464,-0.3517851,2.291954,-0.4969635,1.387844,-2.9679182,-0.01895012,2.8517063,0.23606491,-0.52960014,0.9122354,0.7950686,-0.03671889,0.06756188,0.6016253,-0.6366389,0.6090369,0.7129472,1.0,0.0,0.0,0.0,0.0,0.0,0.0,-2.9419541,0.096963495,-0.83784395,0.9059906,0.75712204,11.196518,-14.922565,0.7126212,0.29193163,1.514399
26.759052,63.51867,19.973753,1.387424,-0.73847854,-0.039771542,0.54454273,-0.7604922,0.79441893,0.43786627,-0.28917664,0.68702054,0.6391512,-0.3114635,1.3531392,-0.7077851,-1.7758857,-0.9187689,2.255781,1.3800931,-1.0368024,1.415423,-0.77304304,-1.812844,-0.8953978,2.1970544,1.3211619,-1.0090187,-1.3727353,1.420275,0.7100114,-0.5740359,0.99906516,0.49868843,-0.33110985,2.2622986,-0.49715424,1.4156032,-2.964951,-0.018931173,2.7506692,0.23005676,-0.5231533,0.91932654,0.79657876,-0.043482423,0.06686833,0.59924966,-0.58059365,0.6625154,0.7023477,1.0,0.0,0.0,0.0,0.0,0.0,0.0,-2.9122987,0.09715423,-0.86560315,1.4803171,0.7271528,10.860979,-7.755542,0.5080581,0.108891726,2.0281076
19.390953,62.30927,19.18561,6.89322,-0.20867974,0.09753836,0.37840107,-0.75585765,0.79465747,0.48122302,-0.27632093,0.6846513,0.6349881,-0.24600251,1.3398373,-0.6935773,-1.7647218,-0.9230299,2.2655196,1.3846607,-1.0336189,1.4018027,-0.7588161,-1.805001,-0.9012295,2.2070298,1.3261133,-1.012141,-1.3585913,1.4240255,0.80810034,-0.58639574,0.9983739,0.49500793,-0.30605045,2.2326736,-0.49734497,1.4423528,-2.9619868,-0.018912246,2.6497333,0.22444916,-0.51623917,0.92640364,0.7976296,-0.050347153,0.06609187,0.5973977,-0.5464781,0.7056965,0.70360535,1.0,0.0,0.0,0.0,0.0,0.0,0.0,-2.8826737,0.097344965,-0.89235276,1.4364958,0.51960945,9.519423,-1.2845039,0.368011,-0.050467253,2.4647236
6.776189,58.59356,16.93392,15.280355,0.6004543,0.29274616,0.08621333,-0.7607019,0.79399437,0.48565707,-0.1837642,0.6763106,0.64002323,-0.16626118,1.3257325,-0.67941666,-1.7564353,-0.9196059,2.2746608,1.3901156,-1.0287671,1.3882624,-0.74457014,-1.7964504,-0.9065043,2.216971,1.3310286,-1.0149734,-1.3525362,1.4253322,0.86983305,-0.50819284,0.99399155,0.49101773,-0.27593732,2.2030792,-0.4975357,1.4680939,-2.9590254,-0.018893339,2.5488985,0.21891785,-0.5090313,0.9336002,0.79846275,-0.05747364,0.06521378,0.5957358,-0.5472283,0.7310362,0.71880364,1.0,0.0,0.0,0.0,0.0,0.0,0.0,-2.8530793,0.0975357,-0.91809386,0.57542324,0.2822876,5.8906436,7.7118635,0.0067591667,-0.1971364,2.9530942
-1.9571781,52.05382,13.854698,19.508102,1.041186,0.27696586,-0.11293706,-0.77340835,0.7896455,0.47978592,-0.13849753,0.6717905,0.64789116,-0.13479213,1.3109215,-0.6656056,-1.7484717,-0.920354,2.28415,1.3958178,-1.0284526,1.374684,-0.7303432,-1.7875736,-0.9107119,2.226851,1.3359095,-1.0175064,-1.3600018,1.422358,0.8929636,-0.3922381,0.98740476,0.487503,-0.24614589,2.1735077,-0.49772453,1.4928272,-2.9560668,-0.01887445,2.4481642,0.21323776,-0.5016823,0.9409452,0.79928344,-0.06490727,0.06426551,0.59397215,-0.56738657,0.74093014,0.7333472,1.0,0.0,0.0,0.0,0.0,0.0,0.0,-2.8235078,0.09772453,-0.94282717,-0.82712173,-0.15199184,2.089119,11.435336,-0.25326014,-0.22521615,2.911797
-7.2396593,47.211807,11.661025,21.71545,1.2690599,0.24024037,-0.24004483,-0.7889885,0.7877246,0.47749406,-0.0848701,0.6690362,0.6510413,-0.13722323,1.2957852,-0.65157074,-1.7398242,-0.9191989,2.2937546,1.4010136,-1.0312287,1.3609339,-0.7161602,-1.7786586,-0.9136578,2.2366624,1.3407599,-1.0197742,-1.3803886,1.4174216,0.8904238,-0.26255056,0.9803575,0.48430547,-0.2206588,2.1439667,-0.49791145,1.516554,-2.9531112,-0.01885558,2.3475308,0.20727158,-0.49430847,0.9484158,0.8002265,-0.072630465,0.06329028,0.5919092,-0.5982803,0.7417883,0.7452105,1.0,0.0,0.0,0.0,0.0,0.0,0.0,-2.7939668,0.09791145,-0.966554,-2.157092,-0.35772324,-0.42504072,12.78001,-0.3317356,-0.2430141,2.4797173
-7.8010855,44.09193,10.526014,21.549313,1.2580228,0.14150994,-0.28069648,-0.790865,0.78342086,0.46874547,-0.02507281,0.6663679,0.656451,-0.14802183,1.2818474,-0.6378181,-1.7317841,-0.91616505,2.3032992,1.406405,-1.0345764,1.3469797,-0.702042,-1.7698944,-0.9153067,2.2464051,1.3455836,-1.0218265,-1.4006438,1.4103565,0.8712971,-0.13288377,0.97366184,0.4819743,-0.20042945,2.1144562,-0.49809837,1.5392753,-2.9501588,-0.018836727,2.246998,0.20098877,-0.48694992,0.9559737,0.80134845,-0.08061003,0.06232098,0.58945626,-0.62884367,0.7394786,0.7528458,1.0,0.0,0.0,0.0,0.0,0.0,0.0,-2.7644563,0.09809837,-0.9892753,-2.146721,-0.5811691,-2.0545244,12.774235,-0.32634735,-0.1709342,1.9523025
-1.9197865,42.466415,10.265274,16.308437,0.7377688,-0.14141536,-0.15758806,-0.79905784,0.78328514,0.466332,-0.049642753,0.6693978,0.6550579,-0.18577373,1.267074,-0.6237135,-1.7232611,-0.920271,2.313345,1.4110893,-1.0404038,1.332831,-0.6879848,-1.7613399,-0.91610396,2.256106,1.3503901,-1.0237339,-1.419849,1.4045544,0.84990424,-0.062490974,0.96949804,0.4805038,-0.1875785,2.0849762,-0.4982853,1.560992,-2.9472094,-0.018817894,2.146566,0.19457245,-0.47957802,0.96349394,0.8025783,-0.08870245,0.06142031,0.5867091,-0.6373547,0.7419549,0.74528646,1.0,0.0,0.0,0.0,0.0,0.0,0.0,-2.7349763,0.09828529,-1.010992,-2.0252943,-0.47357082,-2.224052,6.8716993,-0.13428926,-0.026738644,1.2216449
3.1043272,43.865986,11.152478,13.345987,0.40417933,-0.27612847,-0.061463118,-0.7936879,0.7853369,0.46325484,-0.016313454,0.6713919,0.65526927,-0.17289378,1.2534622,-0.6094511,-1.7150145,-0.9177353,2.323245,1.415917,-1.0410233,1.3185717,-0.67395914,-1.7529743,-0.9163796,2.26578,1.355187,-1.0255249,-1.4282936,1.402218,0.83203727,-0.016381232,0.9677728,0.47975418,-0.17644796,2.0555267,-0.4984722,1.5817051,-2.9442627,-0.01879908,2.046234,0.18818283,-0.47213745,0.97090834,0.80382407,-0.096825406,0.060628455,0.5837944,-0.63136566,0.75067073,0.7337442,1.0,0.0,0.0,0.0,0.0,0.0,0.0,-2.7055268,0.09847221,-1.0317051,-0.9229183,-0.13551712,-1.8545151,4.4717984,0.08074045,0.07827282,1.0486811
6.6582594,43.493443,11.263358,10.328733,0.10458505,-0.44203484,0.030497398,-0.8038356,0.7840862,0.45897532,-0.024596343,0.67354876,0.65528476,-0.16516636,1.2381881,-0.59555054,-1.7070768,-0.9188392,2.333135,1.4207156,-1.0420415,1.3042303,-0.6599468,-1.7447498,-0.91645586,2.2754502,1.3599783,-1.0272148,-1.4361893,1.4011506,0.8191813,-0.0051068617,0.9677803,0.4796098,-0.1665494,2.0261078,-0.49865913,1.6014156,-2.941319,-0.018780284,1.946002,0.18194199,-0.46458817,0.97815096,0.80500704,-0.10489519,0.05997352,0.58083034,-0.6121391,0.7623222,0.7147149,1.0,0.0,0.0,0.0,0.0,0.0,0.0,-2.676108,0.09865913,-1.0514157,-0.8598089,-0.017023087,-1.3196707,1.0033435,0.22290945,0.17531514,0.927487
11.221594,43.392807,11.568436,6.684391,-0.25118977,-0.6424006,0.15432921,-0.8026227,0.7827488,0.46136656,-0.05554818,0.6712937,0.6531645,-0.1280642,1.223968,-0.5816719,-1.6986132,-0.92201066,2.3425796,1.4252948,-1.0400212,1.289847,-0.64594305,-1.736592,-0.91670096,2.2851205,1.3647696,-1.0287883,-1.4392263,1.4002984,0.8146142,-0.031216143,0.9673286,0.47987977,-0.15453252,1.9967194,-0.49884605,1.6201246,-2.938378,-0.018761506,1.8458705,0.17602158,-0.45689583,0.98514324,0.80603164,-0.11280939,0.05948883,0.57796884,-0.57650167,0.7770115,0.68770224,1.0,0.0,0.0,0.0,0.0,0.0,0.0,-2.6467195,0.09884605,-1.0701246,-0.35102367,-0.0004529953,-0.4727006,-2.713073,0.14605522,0.26592016,1.1438757
14.841259,44.031414,12.16144,4.060048,-0.5091762,-0.77690923,0.27866614,-0.80083984,0.782337,0.47615016,-0.08743991,0.6676999,0.6537182,-0.034129478,1.209763,-0.5677093,-1.688977,-0.92544496,2.3518906,1.4301414,-1.0322013,1.2754637,-0.6319469,-1.7283733,-0.9174067,2.2947717,1.3695666,-1.0301826,-1.4380327,1.3996383,0.82425857,-0.08397585,0.96539795,0.4806219,-0.13451885,1.9673576,-0.49903297,1.637833,-2.9354403,-0.01874275,1.745839,0.17054749,-0.44902802,0.9918337,0.8067974,-0.1205001,0.05919788,0.57537234,-0.52862436,0.79485625,0.65643156,1.0,0.0,0.0,0.0,0.0,0.0,0.0,-2.6173577,0.09903297,-1.0878329,0.096488,0.017118454,0.951314,-5.3524466,-0.017011166,0.34635067,1.9480824
12.794362,43.791,12.19462,6.273513,-0.28671283,-0.70833653,0.26935083,-0.80109733,0.7803977,0.47933373,-0.05409816,0.66524386,0.65606755,0.1187572,1.195354,-0.55390716,-1.68044,-0.9228165,2.3612962,1.4351733,-1.0183069,1.2611033,-0.61796415,-1.7200267,-0.9184395,2.3044,1.3743731,-1.0312755,-1.4355485,1.3981477,0.837929,-0.11001237,0.96280706,0.48128858,-0.1009028,1.9380226,-0.4992199,1.6545419,-2.9325056,-0.018724011,1.6459075,0.16548157,-0.44099426,0.99826455,0.80727935,-0.12801865,0.05907178,0.5730809,-0.4896098,0.81103915,0.6323004,1.0,0.0,0.0,0.0,0.0,0.0,0.0,-2.5880227,0.09921989,-1.1045418,0.22370815,-0.057721138,1.3238549,-2.6827784,-0.05095005,0.30712485,3.3070042
10.101428,41.50301,11.402446,8.279764,-0.06363052,-0.68888026,0.21988884,-0.8023411,0.774438,0.47665623,-0.042653754,0.6574054,0.65794945,0.19776165,1.1808691,-0.54052037,-1.6723611,-0.9227049,2.3701406,1.440168,-1.0114994,1.24676,-0.60402143,-1.7115734,-0.9195591,2.3139825,1.3791853,-1.0319908,-1.4339377,1.393257,0.8476232,-0.11292405,0.95779175,0.48179322,-0.061951056,1.9087181,-0.4994068,1.6702521,-2.9295738,-0.018705292,1.5460759,0.1607399,-0.432827,1.0044837,0.80751157,-0.1354248,0.05908924,0.57104594,-0.45952263,0.82271516,0.61201906,1.0,0.0,0.0,0.0,0.0,0.0,0.0,-2.5587182,0.09940681,-1.1202521,0.12671947,-0.39186478,0.9095669,-0.3854841,-0.27577877,0.26353002,3.8394258
6.0577135,40.137722,10.812802,11.896225,0.27023578,-0.5787066,0.113542855,-0.8038456,0.7741105,0.4693928,0.0030704243,0.6525487,0.65392536,0.26307535,1.1663754,-0.5266104,-1.6646341,-0.9192521,2.3792374,1.4445778,-1.0056832,1.2324187,-0.59012544,-1.7030914,-0.92040884,2.3235116,1.3839957,-1.0322998,-1.4343349,1.3887002,0.84815913,-0.07603249,0.95178545,0.48127472,-0.020758955,1.8794441,-0.49959373,1.6849648,-2.9266448,-0.01868659,1.4463441,0.15618134,-0.42456436,1.010566,0.80756855,-0.14281446,0.05922235,0.5691483,-0.44442478,0.83125496,0.60053706,1.0,0.0,0.0,0.0,0.0,0.0,0.0,-2.5294442,0.09959373,-1.1349647,-0.10082722,-0.35133362,-0.02090931,3.572452,-0.3440261,0.11227131,4.059848
3.2524981,38.327267,10.190279,14.477434,0.52429974,-0.51421994,0.028267533,-0.8003955,0.76896393,0.46194082,0.04827926,0.6480172,0.65478694,0.30217475,1.1523792,-0.5132291,-1.6568973,-0.9155809,2.3883133,1.4494743,-1.0020822,1.2180849,-0.5762886,-1.6946666,-0.92065585,2.3329759,1.3887984,-1.0322063,-1.4333212,1.3823626,0.8402036,-0.008018329,0.94542915,0.48040327,0.018976083,1.8502007,-0.49978065,1.6986809,-2.9237187,-0.018667908,1.346712,0.1517067,-0.41623497,1.0165784,0.80752045,-0.15027829,0.059444517,0.56726843,-0.440368,0.8370692,0.5950119,1.0,0.0,0.0,0.0,0.0,0.0,0.0,-2.5002007,0.09978065,-1.1486809,0.02579689,-0.5259752,-0.879848,6.667801,-0.36126375,0.04120469,3.9082296
-0.35563755,37.08732,9.988388,18.56662,0.9399208,-0.34005985,-0.07208341,-0.79337096,0.7601241,0.46150425,0.14400089,0.650487,0.6523368,0.3527004,1.1387478,-0.50027615,-1.6485162,-0.9062558,2.3980246,1.4540321,-0.99693626,1.2037932,-0.5625442,-1.6863315,-0.9198452,2.3423982,1.3935877,-1.0317218,-1.4281216,1.372184,0.83074224,0.110200666,0.9419197,0.4787339,0.057940573,1.8209877,-0.49996758,1.7114015,-2.9207954,-0.018649245,1.2471795,0.14711761,-0.40785217,1.0226206,0.8074294,-0.15796316,0.059671078,0.565283,-0.45428526,0.8419414,0.60079885,1.0,0.0,0.0,0.0,0.0,0.0,0.0,-2.4709878,0.09996757,-1.1614015,0.43079853,-0.9052038,-1.0539532,11.671059,-0.040626526,-0.09612441,3.8184717
-1.3112087,33.47527,8.566543,18.151787,0.92493486,-0.4472136,-0.11687277,-0.7992178,0.7535929,0.43218082,0.16481245,0.64302546,0.6533033,0.337149,1.1238713,-0.48718494,-1.6431134,-0.903364,2.4067006,1.4589181,-0.99800694,1.1895224,-0.5489172,-1.6782138,-0.91791403,2.3517709,1.3983618,-1.0309017,-1.4269216,1.3599187,0.8051947,0.22026998,0.937028,0.47723576,0.089767314,1.7918015,-0.5001545,1.7231275,-2.917875,-0.0186306,1.1477466,0.14240646,-0.39945793,1.0286814,0.8073471,-0.16586414,0.05991322,0.56310755,-0.46761954,0.8423379,0.6014259,1.0,0.0,0.0,0.0,0.0,0.0,0.0,-2.4418015,0.10015449,-1.1731274,0.023245811,-1.1212826,-2.639103,10.850406,-0.20045042,-0.081282854,3.109096
0.98218775,32.26722,7.986926,15.020837,0.6119379,-0.65537286,-0.0691127,-0.8018664,0.7536089,0.41203877,0.15998755,0.64412683,0.6514691,0.33153415,1.1093358,-0.47355628,-1.63701,-0.90191525,2.4161835,1.4635087,-0.99774826,1.1752421,-0.5353893,-1.6704204,-0.9151808,2.3611054,1.4031225,-1.0298088,-1.4287744,1.3507673,0.7706266,0.2904832,0.93329954,0.47606546,0.115656406,1.7626419,-0.5003414,1.7338599,-2.9149578,-0.018611973,1.048413,0.13765717,-0.3910656,1.034673,0.8072712,-0.17385551,0.06023822,0.5607662,-0.46730238,0.84174824,0.5920626,1.0,0.0,0.0,0.0,0.0,0.0,0.0,-2.412642,0.10034141,-1.1838598,-0.2747059,-0.82321167,-3.4985662,6.882894,-0.12983084,-0.015300512,2.5237918
4.964461,31.064026,7.4438877,9.978222,0.1368624,-0.9667879,0.038043927,-0.8036069,0.7497435,0.393728,0.12590495,0.6385292,0.6473303,0.33584246,1.0948814,-0.46041495,-1.6310476,-0.90259033,2.4249585,1.4678556,-0.9962245,1.1609312,-0.5219406,-1.6629989,-0.91219866,2.3703942,1.4078737,-1.0284889,-1.4322273,1.3431662,0.7327031,0.30041212,0.9280674,0.47534242,0.13738014,1.7335129,-0.50052834,1.7435997,-2.9120436,-0.018593365,0.9491788,0.13307571,-0.38269806,1.0404621,0.8071555,-0.18173815,0.06074406,0.5583739,-0.44512913,0.8388781,0.5682326,1.0,0.0,0.0,0.0,0.0,0.0,0.0,-2.383513,0.10052833,-1.1935997,-0.41241646,-0.6819725,-3.7869453,0.8785069,-0.34611225,0.094509125,2.1170468
8.700678,30.841133,7.4258046,5.7280455,-0.24329144,-1.2144684,0.15500809,-0.80421436,0.7445781,0.3889326,0.08984647,0.6381599,0.6484149,0.3508144,1.0805098,-0.44748276,-1.6241057,-0.90321404,2.4342103,1.4727153,-0.9934074,1.1465861,-0.50856626,-1.6558921,-0.90949595,2.3796334,1.4126211,-1.0269687,-1.4354299,1.335723,0.70342976,0.26001412,0.9232251,0.47545567,0.1568426,1.7044144,-0.50071526,1.7523478,-2.9091322,-0.018574776,0.8500438,0.12886047,-0.37436676,1.0459337,0.80693334,-0.18933715,0.061491992,0.5560833,-0.40456805,0.834596,0.53403723,1.0,0.0,0.0,0.0,0.0,0.0,0.0,-2.3544145,0.10071525,-1.2023478,-0.35779476,-0.67453384,-2.8926492,-4.1260777,-0.3607273,0.23183227,1.8979788
13.249564,33.724373,8.628004,1.8412371,-0.63164,-1.3940077,0.30522886,-0.8014144,0.7469173,0.40318307,0.030990746,0.64538443,0.64618737,0.3827977,1.0664446,-0.43387452,-1.6155739,-0.90639687,2.444172,1.4772398,-0.98868895,1.1322314,-0.49523485,-1.6489131,-0.90753615,2.3888574,1.4173743,-1.025254,-1.4353849,1.33245,0.69623226,0.17460726,0.9220921,0.47589308,0.17637251,1.6753464,-0.5009022,1.7601055,-2.9062238,-0.018556206,0.7510079,0.1251831,-0.36605072,1.0510163,0.8065056,-0.1965308,0.062499113,0.55409205,-0.34551942,0.8336896,0.49380684,1.0,0.0,0.0,0.0,0.0,0.0,0.0,-2.3253465,0.10090217,-1.2101054,0.009727478,-0.26352406,-0.6703615,-8.578444,-0.036394596,0.30471087,1.9121617
12.308411,32.222427,8.275937,2.8660908,-0.49019045,-1.4074244,0.28179148,-0.7939775,0.7370545,0.38937834,0.041167375,0.6378407,0.6412433,0.4079514,1.0528336,-0.42152938,-1.6099753,-0.90341944,2.4526415,1.4814986,-0.98445886,1.1179224,-0.48196256,-1.6419914,-0.90630877,2.3980546,1.4221255,-1.0233448,-1.4292918,1.3256991,0.690984,0.10536058,0.9195025,0.4757065,0.1956003,1.6463089,-0.5010891,1.7668735,-2.9033182,-0.018537654,0.65207106,0.1220665,-0.35775757,1.0557243,0.8058598,-0.20332529,0.06373874,0.5524366,-0.291235,0.8298824,0.45733994,1.0,0.0,0.0,0.0,0.0,0.0,0.0,-2.296309,0.10108909,-1.2168734,0.63405037,-0.6029129,-0.5192995,-6.9609165,-0.16489029,0.22274852,1.8854052
8.482835,28.377449,6.917023,6.084366,-0.15208673,-1.3436432,0.15946099,-0.7935177,0.7280081,0.36016276,0.060596157,0.61977416,0.64726824,0.42355627,1.0385706,-0.40916175,-1.6059752,-0.9002492,2.460032,1.4868523,-0.9809891,1.1036783,-0.4687885,-1.635226,-0.9054886,2.4071755,1.4268767,-1.0212524,-1.4227985,1.3148987,0.6716168,0.07393048,0.9105115,0.47563398,0.21361366,1.6172943,-0.501276,1.7726529,-2.9004154,-0.01851912,0.55323315,0.119377136,-0.3495407,1.0601174,0.8050739,-0.20980749,0.06518466,0.5509879,-0.25192693,0.8210554,0.42761415,1.0,0.0,0.0,0.0,0.0,0.0,0.0,-2.2672944,0.10127601,-1.2226529,0.6516695,-0.99749565,-1.9643664,-3.2125235,-0.7652044,0.1921773,1.7632425
5.800851,25.82044,6.2678585,8.880915,0.1678533,-1.2571256,0.08844467,-0.7868623,0.7166581,0.35556743,0.07213408,0.6164581,0.64126277,0.4526609,1.0249921,-0.39712268,-1.5996692,-0.8982752,2.4688213,1.4910029,-0.9759863,1.0895163,-0.45576036,-1.6286628,-0.90473807,2.416205,1.4316202,-1.0189807,-1.4139221,1.2991401,0.65116477,0.07510182,0.90126204,0.47464332,0.23172913,1.5883102,-0.501461,1.7774446,-2.8975155,-0.018500606,0.45449406,0.11698532,-0.34142113,1.0642657,0.8042069,-0.21607988,0.06678136,0.549637,-0.22595502,0.81025785,0.4050916,1.0,0.0,0.0,0.0,0.0,0.0,0.0,-2.2383103,0.10146102,-1.2274446,0.8723259,-1.4866352,-2.0946622,0.022916496,-0.75924397,0.065112114,1.7676681
2.6063023,20.134302,4.1128006,10.293199,0.3926397,-1.3124696,-0.014811128,-0.7913566,0.7033593,0.31030297,0.0686988,0.6062825,0.6394799,0.44989842,1.0103806,-0.38542444,-1.5976325,-0.8978682,2.476833,1.4955683,-0.9739909,1.0754057,-0.4429258,-1.6224735,-0.90388644,2.4251313,1.4363543,-1.016547,-1.410407,1.2785249,0.60794556,0.088038795,0.89016134,0.47332102,0.2470082,1.5593567,-0.50164413,1.7812498,-2.8946185,-0.01848211,0.3558537,0.114780426,-0.3334694,1.068187,0.80334395,-0.22215979,0.06852136,0.5482593,-0.208929,0.79046977,0.3824035,1.0,0.0,0.0,0.0,0.0,0.0,0.0,-2.2093568,0.10164413,-1.2312498,0.3077984,-1.970458,-4.36666,1.1654243,-0.9363055,0.016099215,1.4859229
3.1357992,18.7215,3.4384365,8.740212,0.2597134,-1.4584947,-0.0040874854,-0.78987294,0.69858515,0.28366604,0.02999338,0.60034066,0.63618565,0.45228997,0.9964184,-0.3730673,-1.5941069,-0.9008871,2.4851654,1.4999728,-0.97131795,1.0613142,-0.43028152,-1.6167877,-0.9030682,2.4339433,1.4410731,-1.0139778,-1.4086972,1.259991,0.55523676,0.07934787,0.8789945,0.47190145,0.26009944,1.5304337,-0.50182724,1.7840691,-2.8917243,-0.018463632,0.257312,0.11280441,-0.32574654,1.0718455,0.8025285,-0.22796948,0.07045078,0.54682213,-0.18534565,0.76686704,0.35521078,1.0,0.0,0.0,0.0,0.0,0.0,0.0,-2.1804338,0.101827234,-1.2340691,0.14092922,-1.7663479,-5.307889,-0.9847611,-0.96868277,0.018376112,1.275599
3.6640835,17.910692,3.1391668,7.61179,0.16642159,-1.5537233,0.0202774,-0.78978634,0.68874013,0.26380572,0.008305116,0.5900427,0.63975567,0.468879,0.98233557,-0.36140752,-1.5904071,-0.90223765,2.4929476,1.5050486,-0.9670899,1.0472285,-0.41781843,-1.6116245,-0.90246546,2.442637,1.4457823,-1.0112808,-1.4086052,1.2420505,0.5032542,0.053690743,0.8664073,0.47104025,0.2726214,1.5015411,-0.50201035,1.7859037,-2.888833,-0.018445171,0.15886879,0.11109924,-0.31826973,1.0752097,0.8017616,-0.23344283,0.07259566,0.5453555,-0.15701844,0.741177,0.3253432,1.0,0.0,0.0,0.0,0.0,0.0,0.0,-2.1515412,0.10201034,-1.2359037,-0.007963181,-1.7097473,-5.230415,-2.6687675,-1.1298418,0.08016229,1.2232065
3.2402856,15.069455,1.930577,6.527281,0.11660063,-1.6963557,0.009377081,-0.7940991,0.6781832,0.21318024,-0.020408304,0.580465,0.6429301,0.48829475,0.96781856,-0.3500001,-1.5903064,-0.90450627,2.5006835,1.5100753,-0.9624513,1.0331179,-0.40553415,-1.6070869,-0.9022442,2.4511971,1.4504858,-1.0084579,-1.4117591,1.2241514,0.43728125,0.011286823,0.85297567,0.47076312,0.28524822,1.4726715,-0.50219345,1.7867547,-2.8859446,-0.01842673,0.060524005,0.10970688,-0.31110382,1.078242,0.80107504,-0.23849663,0.07500226,0.54384995,-0.12545504,0.7087697,0.29125014,1.0,0.0,0.0,0.0,0.0,0.0,0.0,-2.1226716,0.102193445,-1.2367547,-0.32114983,-1.7073631,-6.6273985,-4.3405423,-1.2366295,0.14284253,1.2403667
2.54654,12.848734,1.1028779,6.4146485,0.15171063,-1.7689953,-0.008995183,-0.7948354,0.6669096,0.1710308,-0.039437287,0.5708258,0.6423631,0.5059461,0.9536344,-0.3388432,-1.5899838,-0.90618795,2.5082798,1.5147221,-0.9578633,1.0189711,-0.3934344,-1.6032684,-0.90247977,2.45962,1.4551874,-1.0055091,-1.4154828,1.2055446,0.36321262,-0.035473503,0.8389035,0.47049162,0.2978579,1.4438324,-0.50237656,1.7866231,-2.883059,-0.018408306,-0.037722453,0.10861969,-0.30428886,1.0809261,0.8005018,-0.24308449,0.07768872,0.5422832,-0.09457577,0.6720022,0.25649533,1.0,0.0,0.0,0.0,0.0,0.0,0.0,-2.0938325,0.10237655,-1.236623,-0.36947727,-1.7781973,-7.4420094,-4.777092,-1.3110399,0.13498664,1.240027
1.9910853,8.310122,-0.63208264,4.9700327,0.10937828,-1.9522996,-0.024328534,-0.7897809,0.64822257,0.10586825,-0.08643986,0.53822166,0.6454092,0.5218096,0.939993,-0.32861215,-1.5926815,-0.91112375,2.5134423,1.5197284,-0.9533282,1.0048224,-0.38156116,-1.600333,-0.9033028,2.467833,1.459889,-1.0024383,-1.4146309,1.1815112,0.26997373,-0.09817485,0.8152258,0.47068185,0.3103148,1.4150238,-0.50255966,1.7855097,-2.8801768,-0.018389901,-0.13587068,0.10787201,-0.2979164,1.083219,0.8000884,-0.24711819,0.08070239,0.5406276,-0.060287897,0.6251531,0.2161966,1.0,0.0,0.0,0.0,0.0,0.0,0.0,-2.065024,0.102559656,-1.2355096,0.14252663,-2.321148,-9.393811,-6.3630505,-2.3026705,0.18745065,1.2275338
1.4147146,3.8775084,-2.321354,3.4643602,0.068918824,-2.13523,-0.033493076,-0.78636396,0.62932175,0.038728666,-0.14161411,0.505499,0.64289427,0.5418165,0.92618597,-0.31862897,-1.5964601,-0.9174642,2.518383,1.5241785,-0.9482567,0.9907093,-0.3699683,-1.59846,-0.90489066,2.475737,1.4645926,-0.9992397,-1.4097406,1.1521102,0.15957652,-0.17923497,0.78194904,0.47066787,0.32301274,1.3862457,-0.50274277,1.7834156,-2.8772974,-0.018371515,-0.23392078,0.107494354,-0.29208374,1.0850645,0.79988426,-0.2504866,0.084102035,0.53885853,-0.02274481,0.5679961,0.17034769,1.0,0.0,0.0,0.0,0.0,0.0,0.0,-2.0362458,0.10274276,-1.2334156,0.60932636,-2.858901,-11.146873,-8.185569,-3.2991886,0.16735196,1.2522459
6.916017,6.4334106,-1.079951,-3.474667,-0.48613977,-2.4498224,0.21278098,-0.77753943,0.60884494,0.06058782,-0.31145313,0.4828798,0.64572567,0.53541833,0.91295534,-0.3090838,-1.5924011,-0.936036,2.524025,1.5291651,-0.94569784,0.976696,-0.35870588,-1.5973613,-0.90792525,2.4832788,1.4692999,-0.99593043,-1.3975387,1.1178745,0.092821196,-0.3447757,0.74472386,0.47134313,0.33361277,1.3574944,-0.5029259,1.7803416,-2.874421,-0.018353147,-0.33187285,0.10771179,-0.2868538,1.0863323,0.7997833,-0.2529666,0.08788786,0.53724325,0.04312844,0.5063444,0.10902419,1.0,0.0,0.0,0.0,0.0,0.0,0.0,-2.0074944,0.10292587,-1.2303417,1.5128136,-3.3383608,-6.876564,-16.523212,-3.7728548,0.27475357,1.067841
11.82229,12.345615,2.1119943,-6.9609613,-0.86084485,-2.4434845,0.47211853,-0.770357,0.5783403,0.14994347,-0.43063954,0.40371272,0.663403,0.5469222,0.8996603,-0.30087185,-1.582367,-0.9509892,2.52365,1.5356402,-0.9412382,0.9628353,-0.34785497,-1.5962379,-0.9129683,2.490275,1.4740263,-0.99251914,-1.3809874,1.0744646,0.11803527,-0.5571001,0.6845476,0.47378272,0.34371477,1.3287697,-0.503109,1.776289,-2.8715472,-0.018334799,-0.429727,0.10872269,-0.28216362,1.0869485,0.7995692,-0.25447753,0.09199595,0.5361596,0.1262066,0.45433885,0.042757433,1.0,0.0,0.0,0.0,0.0,0.0,0.0,-1.9787697,0.10310897,-1.226289,2.0576,-4.247713,2.2140994,-21.108616,-6.0623527,0.4505098,1.035732
11.529342,11.801351,2.7332728,-6.0293064,-0.6953077,-2.3355322,0.5256131,-0.7646423,0.5424294,0.17895909,-0.5040467,0.3553715,0.66074586,0.5501906,0.8863711,-0.29361203,-1.578342,-0.96337295,2.5258121,1.5401009,-0.93750006,0.9491415,-0.33752,-1.5945251,-0.92009795,2.4966035,1.4787718,-0.98901725,-1.3641032,1.0201454,0.18781054,-0.7645514,0.61560154,0.47541776,0.35250214,1.3000755,-0.5032921,1.7712585,-2.8686764,-0.018316468,-0.52748334,0.11052704,-0.27796173,1.0869206,0.7991283,-0.25506794,0.096317425,0.53577715,0.20332882,0.404962,-0.021064019,1.0,0.0,0.0,0.0,0.0,0.0,0.0,-1.9500755,0.10329208,-1.2212584,2.1151304,-5.3417444,6.6037655,-20.610666,-6.897688,0.31828284,0.9019494
7.140662,4.5284204,0.21299595,-3.059364,-0.24724317,-2.278242,0.3894437,-0.75582886,0.50513554,0.14182146,-0.56573373,0.31071138,0.65882,0.5507756,0.87355864,-0.28700644,-1.580343,-0.97667134,2.5276747,1.5446538,-0.9339397,0.9356165,-0.32779586,-1.5922935,-0.92906725,2.5022225,1.4835268,-0.98543906,-1.347296,0.9567306,0.23367772,-0.94078547,0.5440509,0.47586673,0.3594851,1.2714119,-0.5034752,1.7652512,-2.8658085,-0.018298155,-0.625142,0.11297226,-0.2743168,1.0862813,0.79852504,-0.25479448,0.10079342,0.53598326,0.261632,0.34720346,-0.081373,1.0,0.0,0.0,0.0,0.0,0.0,0.0,-1.9214119,0.10347518,-1.2152512,2.0817995,-6.270516,4.2320013,-17.542398,-7.1594954,0.12392998,0.685519
2.4577887,-5.72126,-2.7749853,0.034747362,0.13456419,-2.1609483,0.27621368,-0.7329984,0.427653,0.17583638,-0.62027943,0.11122097,0.6612643,0.55202043,0.86231667,-0.28503057,-1.5747099,-0.9910952,2.5133445,1.5496533,-0.930237,0.9223223,-0.3189348,-1.5896003,-0.93950903,2.5066667,1.4882838,-0.9818046,-1.322104,0.862675,0.28011733,-1.0786884,0.41149724,0.4757582,0.36456227,1.242775,-0.5036583,1.758268,-2.8629434,-0.01827986,-0.722703,0.11585617,-0.27129745,1.0850586,0.7978455,-0.25375625,0.1054719,0.5365873,0.3010095,0.28293484,-0.13909526,1.0,0.0,0.0,0.0,0.0,0.0,0.0,-1.8927749,0.10365829,-1.2082679,2.9149055,-9.3619585,4.28496,-13.771224,-13.249713,0.011730194,0.42426586
-6.6022696,-27.359085,-9.55063,4.949565,0.94315314,-2.0501175,0.054095052,-0.6987479,0.2968739,0.17225814,-0.62071276,-0.1661857,0.65486705,0.55306876,0.8524475,-0.2892474,-1.5723745,-1.0015804,2.4900482,1.5537704,-0.92649776,0.9093962,-0.3114704,-1.5865924,-0.9508549,2.5091043,1.4930311,-0.97813296,-1.281576,0.7076689,0.30673128,-1.1536068,0.18753275,0.4742094,0.36727145,1.2141647,-0.5038414,1.75031,-2.8600812,-0.018261584,-0.8201664,0.118873596,-0.26906967,1.083279,0.7972313,-0.2520934,0.11043508,0.5372849,0.30421206,0.19839601,-0.1940716,1.0,0.0,0.0,0.0,0.0,0.0,0.0,-1.8641647,0.103841394,-1.20031,4.431319,-15.516556,2.3608565,-7.5865746,-22.423435,-0.20166636,0.050866604
-33.39205,-106.19703,-35.30957,9.7214985,4.093033,-2.4998112,-0.42850968,-0.6522213,-0.08188124,0.07468695,-0.6121922,-0.396953,0.64136064,0.5371845,0.844174,-0.31965852,-1.5791237,-1.0120741,2.469409,1.5571672,-0.9244145,0.8970423,-0.30711544,-1.5838878,-0.96253264,2.508841,1.4977423,-0.974468,-1.2179636,0.3439924,0.25778928,-1.1733072,-0.09879803,0.4691568,0.3643995,1.185585,-0.5040245,1.741378,-2.8572218,-0.018243326,-0.9175324,0.121105194,-0.26859283,1.0807954,0.7970769,-0.24970007,0.11522873,0.5376251,0.19814734,-0.0062177572,-0.26913854,1.0,0.0,0.0,0.0,0.0,0.0,0.0,-1.835585,0.1040245,-1.1913779,6.9474936,-36.599575,-5.035263,-2.2294044,-28.95822,-0.76708794,-0.8270502
-51.123314,-151.6461,-51.392418,14.422177,6.2084737,-2.7232714,-0.8069409,-0.6044933,-0.326091,-0.07561378,-0.595402,-0.4975749,0.62545955,0.51140094,0.8365929,-0.33972454,-1.5914491,-1.0220728,2.4590836,1.5602882,-0.9233279,0.885458,-0.3071822,-1.5824535,-0.97408545,2.5058236,1.5023772,-0.9708612,-1.1361998,-0.124851696,0.10533651,-1.149823,-0.37114656,0.4598249,0.3573174,1.1570358,-0.5042076,1.7314731,-2.8543653,-0.018225087,-1.014801,0.12172699,-0.27070427,1.0775067,0.79777795,-0.2464368,0.119340524,0.53719366,0.01639761,-0.28136504,-0.35048038,1.0,0.0,0.0,0.0,0.0,0.0,0.0,-1.8070358,0.104207605,-1.181473,8.88238,-47.25897,-15.24042,2.1936417,-27.756687,-1.4809191,-1.3663352
-45.893074,-142.43567,-44.98437,15.415128,6.6394024,-2.1757019,-0.37697303,-0.5506975,-0.55911857,0.1834574,-0.6376006,-0.53998566,0.636383,0.5149881,0.83038825,-0.36309406,-1.5641078,-1.0378455,2.4518251,1.5660155,-0.91936237,0.87479496,-0.3122133,-1.5812633,-0.985499,2.5005326,1.5069243,-0.96730685,-1.0406164,-0.6304098,0.12294752,-1.138159,-0.5828491,0.4503415,0.35343593,1.1285133,-0.5043907,1.7205963,-2.8515117,-0.018206866,-1.1119723,0.12047577,-0.27536964,1.0734618,0.7990446,-0.24248944,0.1220906,0.5364889,-0.17516333,-0.5280146,-0.42352068,1.0,0.0,0.0,0.0,0.0,0.0,0.0,-1.7785133,0.10439071,-1.1705964,10.286236,-50.921257,1.5200629,1.3053894,-21.49381,-1.6754627,-0.7844269
-22.687523,-87.993324,-23.217693,11.251536,4.9533677,-1.5256131,0.3395895,-0.4044984,-0.6799338,0.3679242,-0.6901688,-0.5427953,0.63935035,0.49089512,0.8343451,-0.38020667,-1.5444709,-1.054516,2.446253,1.5708593,-0.91821736,0.865551,-0.32169902,-1.5786998,-0.9970728,2.4937081,1.5113875,-0.96378493,-0.88465273,-1.0554725,0.29997823,-1.1631624,-0.71554905,0.4428284,0.35170582,1.1000175,-0.5045738,1.7087485,-2.848661,-0.018188663,-1.2090466,0.117816925,-0.2818203,1.0687947,0.8001696,-0.23821232,0.123071715,0.53650415,-0.29861182,-0.68134516,-0.4822752,1.0,0.0,0.0,0.0,0.0,0.0,0.0,-1.7500175,0.104573816,-1.1587484,15.918231,-42.74858,17.432096,-2.3056507,-13.289237,-1.4214694,-0.20272732
1.3440673,-27.487892,-1.8710358,6.917769,2.5663612,-1.1799517,0.7400863,-0.18115783,-0.73098207,0.3204551,-0.67484283,-0.56953686,0.62981087,0.4039683,0.84743524,-0.39479724,-1.5466543,-1.0645571,2.4367545,1.5743686,-0.9233881,0.85863686,-0.33436477,-1.5745056,-1.0088702,2.4859643,1.5157915,-0.9603298,-0.6283209,-1.3373405,0.45972234,-1.1850829,-0.79353625,0.43826887,0.3440295,1.0715523,-0.5047569,1.6959306,-2.845813,-0.018170478,-1.3060238,0.114601135,-0.28913307,1.0636784,0.80062824,-0.23393501,0.12244226,0.5378445,-0.33226472,-0.743624,-0.52319443,1.0,0.0,0.0,0.0,0.0,0.0,0.0,-1.7215523,0.10475692,-1.1459305,25.257874,-28.296303,16.092182,-2.1603584,-7.6366544,-0.8603573,-0.594604
22.019997,23.39094,15.048309,2.8505542,0.3637369,-1.1437392,0.9185928,0.09351298,-0.7539485,0.21922825,-0.63462645,-0.57619935,0.6374248,0.29527232,0.86798817,-0.40975964,-1.5525827,-1.0723329,2.4283442,1.579534,-0.9308025,0.8551636,-0.3487829,-1.5695198,-1.0206653,2.4777436,1.5201803,-0.95702624,-0.25728604,-1.476624,0.5138729,-1.1783668,-0.83065957,0.43860328,0.32650715,1.0431175,-0.50494003,1.6821437,-2.842968,-0.018152311,-1.4029042,0.11166763,-0.29658127,1.0582896,0.80015033,-0.22990005,0.120642535,0.5406947,-0.28223187,-0.73899895,-0.54636717,1.0,0.0,0.0,0.0,0.0,0.0,0.0,-1.6931175,0.10494003,-1.1321437,35.999603,-13.937044,6.1111093,0.49228668,-3.4846306,-0.075769424,-1.5144289
22.969765,35.78988,14.822308,1.6646488,-0.5625768,-1.5445026,0.555861,0.1837724,-0.76197124,-0.0032958365,-0.6422547,-0.5634186,0.63613087,0.27184096,0.8735408,-0.42498,-1.5698494,-1.0848907,2.4214017,1.5837934,-0.9298422,0.85520935,-0.36379707,-1.5654514,-1.0323726,2.469378,1.5245787,-0.95391536,0.08789018,-1.5097188,0.37438107,-1.1686357,-0.8388139,0.44000325,0.30625594,1.0147095,-0.50512314,1.6673888,-2.8401258,-0.018134162,-1.4996874,0.109436035,-0.30399513,1.052655,0.7990006,-0.225946,0.11831032,0.5445632,-0.2039266,-0.73561394,-0.57176936,1.0,0.0,0.0,0.0,0.0,0.0,0.0,-1.6647094,0.10512313,-1.1173887,33.343227,-3.3295155,-12.998939,0.78935623,-0.77068806,0.068336725,-1.9080877
16.865944,27.15556,6.862729,-0.19796085,-0.5997654,-2.1851778,0.13022228,0.30220342,-0.7733979,-0.27232528,-0.67319655,-0.46678218,0.6238512,0.2500571,0.8854297,-0.44113687,-1.5926839,-1.0996922,2.4226997,1.5869638,-0.92890966,0.8583622,-0.37873828,-1.5642402,-1.0441238,2.46131,1.528977,-0.95101523,0.38744602,-1.489118,0.04044575,-1.1777626,-0.7967145,0.43907347,0.28451282,0.9863281,-0.50530434,1.6516666,-2.8372865,-0.01811603,-1.596374,0.10796738,-0.3116665,1.0466403,0.79769015,-0.22161151,0.11590607,0.5487663,-0.12571667,-0.7714665,-0.6144458,1.0,0.0,0.0,0.0,0.0,0.0,0.0,-1.6363281,0.10530433,-1.1016667,28.86202,1.9898653,-32.30267,-1.0397196,4.0821195,-0.2957642,-2.1933317
15.396722,23.133066,3.513,-2.4318376,-0.7251345,-2.4866397,0.02566826,0.4463543,-0.7839244,-0.40669054,-0.7040169,-0.45744807,0.62458515,0.27381194,0.9029976,-0.45713073,-1.6049093,-1.1145254,2.415565,1.5914356,-0.92363405,0.8642702,-0.3933667,-1.5667617,-1.0561324,2.4537187,1.5333601,-0.94829726,0.6553354,-1.4543505,-0.34651288,-1.20899,-0.7469203,0.4371128,0.26747847,0.9579773,-0.5054836,1.6349784,-2.8344498,-0.018097918,-1.692964,0.10730362,-0.31981468,1.0401021,0.7964786,-0.21655166,0.11365282,0.553001,-0.042919125,-0.82444894,-0.67093617,1.0,0.0,0.0,0.0,0.0,0.0,0.0,-1.6079773,0.10548362,-1.0849783,25.83722,3.3952951,-37.722576,-3.2262087,4.8425555,-0.496912,-1.7562151
13.169007,19.74032,2.06139,-2.110239,-0.4799953,-2.4269416,0.009673394,0.52021223,-0.78961146,-0.49903387,-0.73598725,-0.3831689,0.6150394,0.2757535,0.9162914,-0.47232783,-1.6166651,-1.1297312,2.4154017,1.594864,-0.9207219,0.8724022,-0.4076928,-1.5728519,-1.0685893,2.4467912,1.5377146,-0.94572425,0.863584,-1.4256594,-0.6943465,-1.2580898,-0.6755199,0.43378353,0.2539139,0.929657,-0.5056629,1.6173251,-2.8316157,-0.018079825,-1.7894573,0.10737991,-0.32852173,1.032963,0.7954263,-0.2106246,0.11151354,0.5572243,0.029888256,-0.88188624,-0.7333141,1.0,0.0,0.0,0.0,0.0,0.0,0.0,-1.579657,0.10566291,-1.0673251,20.168495,2.7914762,-34.12906,-4.955888,7.0257187,-0.67692995,-1.3751864
12.750897,22.904285,4.870645,0.5129638,-0.22864875,-1.9743582,0.10566092,0.56565905,-0.79562366,-0.50494266,-0.755281,-0.33058432,0.60757744,0.25760502,0.9289681,-0.48725516,-1.6233462,-1.1441175,2.4137328,1.5984724,-0.9199637,0.88212013,-0.4218415,-1.5814865,-1.0815593,2.4406343,1.5420347,-0.9432771,1.0066571,-1.4114845,-0.91881096,-1.3098572,-0.5959167,0.43047622,0.24184635,0.90135956,-0.5058422,1.5987076,-2.8287845,-0.01806175,-1.8858542,0.10807419,-0.33766556,1.025259,0.7944236,-0.20394222,0.10930619,0.5615611,0.08958664,-0.9206583,-0.7888785,1.0,0.0,0.0,0.0,0.0,0.0,0.0,-1.5513595,0.1058422,-1.0487075,13.93652,1.3595581,-22.152687,-5.184865,7.8983426,-0.62143207,-1.1481076
14.63849,31.169308,9.814331,2.938447,-0.30760503,-1.4874682,0.22442272,0.61900914,-0.7877837,-0.51467097,-0.770702,-0.3344866,0.59758556,0.23038262,0.94402105,-0.5006199,-1.6329535,-1.1586295,2.4071856,1.6017933,-0.92023885,0.8929434,-0.43589008,-1.5914867,-1.0950023,2.4351258,1.5463225,-0.940953,1.1068422,-1.4027138,-1.0269526,-1.3556479,-0.53582996,0.4275116,0.2296403,0.87309265,-0.5060215,1.5791266,-2.825956,-0.018043691,-1.9821548,0.1093483,-0.34698486,1.0170903,0.79328984,-0.19673896,0.10693119,0.5661719,0.14646178,-0.9307962,-0.83301836,1.0,0.0,0.0,0.0,0.0,0.0,0.0,-1.5230926,0.10602149,-1.0291266,9.808588,0.84724426,-10.771728,-4.594755,6.0109854,-0.49481392,-1.1044383
10.874226,31.746483,10.454757,7.3493624,-0.24945247,-1.0675534,0.12954062,0.62642485,-0.78663164,-0.57553756,-0.755248,-0.43805924,0.6147088,0.21001585,0.95558584,-0.51455325,-1.6490405,-1.1705271,2.39132,1.6077933,-0.91995144,0.90439606,-0.4498924,-1.6021926,-1.1086913,2.4297433,1.5505987,-0.93875575,1.1578978,-1.3994895,-1.085342,-1.3733846,-0.53915125,0.4273801,0.21675393,0.84485626,-0.5062008,1.5585834,-2.8231306,-0.018025652,-2.078359,0.111083984,-0.3562889,1.008556,0.7920104,-0.18923028,0.1045558,0.5709461,0.18985502,-0.9249217,-0.8676347,1.0,0.0,0.0,0.0,0.0,0.0,0.0,-1.4948562,0.106200784,-1.0085833,5.070281,0.28693676,-5.9228897,-1.7459393,-0.36860704,-0.14863014,-1.2096196
6.5772223,28.112877,8.959593,10.2121,0.029085875,-0.88599133,0.032102436,0.6391492,-0.7951233,-0.6356932,-0.7542911,-0.44205052,0.58459765,0.21361473,0.96831095,-0.52940476,-1.665762,-1.1841204,2.3855383,1.6090585,-0.9173943,0.9161329,-0.46392906,-1.613406,-1.1224262,2.4241738,1.5548579,-0.9366729,1.1791984,-1.4052708,-1.1337924,-1.3734466,-0.56278676,0.4247897,0.20562541,0.8166466,-0.5063801,1.5370789,-2.820308,-0.018007629,-2.1744666,0.113140106,-0.36553574,0.999701,0.7906542,-0.18150611,0.10229133,0.5757239,0.21793301,-0.91984475,-0.89898276,1.0,0.0,0.0,0.0,0.0,0.0,0.0,-1.4666466,0.106380075,-0.98707885,2.192688,-0.63283443,-4.95553,0.073480606,-2.455914,-0.38532615,-1.0641247
1.3721814,23.584503,6.961896,13.169416,0.44295675,-0.6888094,-0.061016068,0.6190041,-0.80679154,-0.66211,-0.74677503,-0.43560132,0.5971267,0.25232944,0.9780333,-0.54460824,-1.6796169,-1.1971036,2.3806138,1.6145705,-0.91143996,0.9278288,-0.47809207,-1.6250427,-1.1360599,2.4183602,1.5591017,-0.9346607,1.1668979,-1.4202085,-1.1742316,-1.3596047,-0.58803767,0.42369238,0.19989902,0.7884636,-0.5065594,1.514614,-2.8174882,-0.017989624,-2.2704785,0.11532593,-0.3747692,0.99054974,0.7892988,-0.1736117,0.10013708,0.5803783,0.22666498,-0.91868955,-0.9281087,1.0,0.0,0.0,0.0,0.0,0.0,0.0,-1.4384636,0.106559366,-0.964614,-1.0653973,-1.5728474,-4.1727543,1.5232563,-2.684939,-0.22853017,-0.5476624
2.300961,27.421032,8.670481,13.021523,0.3330539,-0.5776347,-0.0034077987,0.6162796,-0.79946136,-0.6561625,-0.76565355,-0.4409555,0.5836076,0.28641814,0.9894568,-0.55803823,-1.6906589,-1.2126253,2.3742647,1.6174625,-0.90601885,0.9393158,-0.49236047,-1.6369255,-1.1496326,2.4123178,1.5633246,-0.93266654,1.1432757,-1.429258,-1.1937324,-1.3560162,-0.61010164,0.42159685,0.19928801,0.7603111,-0.50673866,1.4911897,-2.8146713,-0.017971639,-2.3663943,0.11761093,-0.38394165,0.981117,0.7879202,-0.16556315,0.098092586,0.5849346,0.23767623,-0.9100834,-0.95601094,1.0,0.0,0.0,0.0,0.0,0.0,0.0,-1.4103111,0.10673866,-0.9411897,-2.164793,-0.9733677,-2.1330595,0.49238205,-2.3573518,-0.3174603,-0.026294589
3.4133577,30.914782,10.556733,13.119303,0.30221725,-0.43934435,0.06183793,0.60692453,-0.8043807,-0.64024603,-0.7672543,-0.43531525,0.5934079,0.31673267,1.0000082,-0.57279855,-1.70095,-1.226358,2.3687863,1.6226654,-0.9009933,0.9505329,-0.50670856,-1.6488197,-1.1632034,2.4061265,1.567536,-0.9306476,1.1152999,-1.4368638,-1.1888077,-1.3570615,-0.6229212,0.42089954,0.20291606,0.73218536,-0.50691795,1.466807,-2.8118572,-0.017953672,-2.4622142,0.12001419,-0.39297295,0.97142875,0.7864461,-0.15740405,0.09610695,0.5894827,0.24895328,-0.8941461,-0.9808242,1.0,0.0,0.0,0.0,0.0,0.0,0.0,-1.3821853,0.10691795,-0.916807,-2.5943756,-0.8193016,0.2747774,0.019454956,-1.4182448,-0.15761852,0.4197806
5.471181,35.426895,12.836623,12.789343,0.17596793,-0.3359651,0.128873,0.59973615,-0.80233884,-0.6261162,-0.7719314,-0.43455362,0.60185194,0.33797,1.0105065,-0.58694243,-1.7114313,-1.2403965,2.3626711,1.6277212,-0.8968506,0.9614916,-0.52109474,-1.6605346,-1.1768237,2.3998551,1.5717512,-0.9285743,1.0900391,-1.4393644,-1.1666974,-1.3633615,-0.6287874,0.42153206,0.20911552,0.7040863,-0.50709724,1.4414668,-2.809046,-0.017935721,-2.5579383,0.12256241,-0.401783,0.96151555,0.7847984,-0.14918116,0.09414054,0.5941161,0.26432335,-0.869958,-1.0024018,1.0,0.0,0.0,0.0,0.0,0.0,0.0,-1.3540863,0.10709724,-0.8914668,-2.3330927,-0.29466152,1.967454,-0.5256176,-0.6989956,-0.0057280064,0.69738626
4.2432404,36.367355,13.060616,13.697695,0.14380819,-0.22229654,0.10471606,0.5707069,-0.80284613,-0.6268024,-0.7652013,-0.49258667,0.61211026,0.37171766,1.0185623,-0.60137933,-1.7232149,-1.2533438,2.3505964,1.6329622,-0.89140254,0.97213364,-0.5354876,-1.6720302,-1.1904746,2.3933816,1.5759817,-0.9264171,1.0563025,-1.4393952,-1.1446762,-1.3654121,-0.6538526,0.42344713,0.21814172,0.67601776,-0.50727654,1.4151701,-2.8062377,-0.01791779,-2.6535666,0.12525558,-0.41033363,0.95140123,0.7829721,-0.14092806,0.09226395,0.59881645,0.2771496,-0.84225273,-1.0218313,1.0,0.0,0.0,0.0,0.0,0.0,0.0,-1.3260177,0.10727653,-0.86517006,-3.1585693,-0.047922134,1.9524813,-0.08983612,-2.6338935,0.13204813,0.9619564
3.4559324,36.680782,13.043935,13.922956,0.17143583,-0.17447755,0.09549409,0.5499901,-0.80255634,-0.62339956,-0.7719148,-0.49689016,0.60295856,0.3960687,1.0271326,-0.6157432,-1.7343701,-1.2676661,2.3436925,1.6362776,-0.88681024,0.9824095,-0.54986995,-1.683337,-1.2041656,2.386664,1.5802237,-0.9241569,1.0187646,-1.4379185,-1.1268109,-1.3698021,-0.6784984,0.42436722,0.22879453,0.6479759,-0.5074558,1.3879178,-2.8034322,-0.017899875,-2.7490995,0.12805176,-0.4186058,0.94109035,0.780979,-0.13263856,0.09050982,0.60356176,0.28779724,-0.8147227,-1.0412008,1.0,0.0,0.0,0.0,0.0,0.0,0.0,-1.2979759,0.10745582,-0.83791775,-3.5285711,0.1021862,1.5359879,-0.3116846,-2.602625,0.02989173,1.1215955
3.6030715,36.82946,13.16039,13.7379055,0.2590968,-0.17050576,0.10128084,0.5434847,-0.80402297,-0.6226635,-0.7748041,-0.46625957,0.59615785,0.40794602,1.036758,-0.63027227,-1.7456033,-1.281646,2.340038,1.6398394,-0.8833623,0.99236107,-0.5642428,-1.6945198,-1.2179042,2.3798318,1.5844675,-0.9217899,0.9880574,-1.4371321,-1.1159918,-1.3748802,-0.68520707,0.42434123,0.23958819,0.6199608,-0.5076351,1.3597108,-2.8006294,-0.017881978,-2.8445365,0.13095474,-0.4266281,0.9305824,0.7788182,-0.12429486,0.0888152,0.6083625,0.29688436,-0.78966486,-1.0607454,1.0,0.0,0.0,0.0,0.0,0.0,0.0,-1.2699608,0.10763511,-0.8097108,-2.8640032,0.032496452,0.848341,-0.3755331,-0.8071184,-0.0700295,1.1500865
2.6439886,38.68949,13.854685,14.531527,0.2969113,-0.043076783,0.09107369,0.5074611,-0.7953145,-0.60318387,-0.77772033,-0.476377,0.6041615,0.4371126,1.0431072,-0.6437742,-1.7548381,-1.2956762,2.332194,1.6448836,-0.87807864,1.001935,-0.5785689,-1.7055519,-1.2316982,2.372954,1.5887171,-0.9193046,0.94786096,-1.4312453,-1.0997212,-1.3803501,-0.6892144,0.42511863,0.2518176,0.59197617,-0.5078144,1.3305504,-2.7978292,-0.0178641,-2.9398782,0.13391495,-0.43437004,0.91990167,0.7764902,-0.11591371,0.08715767,0.6132131,0.30236962,-0.7611803,-1.0770133,1.0,0.0,0.0,0.0,0.0,0.0,0.0,-1.2419761,0.1078144,-0.7805504,-3.7920833,0.5450249,1.3818741,-0.41189194,-0.5457759,0.026500225,1.29143
-1.1188316,35.96332,12.206351,15.873304,0.5720824,0.034905195,0.012456238,0.4688306,-0.8010669,-0.6107586,-0.7733929,-0.47056848,0.5947889,0.42831898,1.0488181,-0.65867555,-1.7666277,-1.3090374,2.325897,1.648196,-0.8764727,1.0110102,-0.59286636,-1.7164886,-1.2455131,2.366076,1.5929686,-0.9167154,0.8950814,-1.4294187,-1.0923572,-1.3811343,-0.68796974,0.42491183,0.2615705,0.56401825,-0.5079937,1.3004373,-2.7950318,-0.01784624,-3.0351245,0.13685226,-0.441885,0.9090535,0.774058,-0.107489266,0.085511215,0.61803555,0.29659557,-0.739037,-1.0935856,1.0,0.0,0.0,0.0,0.0,0.0,0.0,-1.2140182,0.10799369,-0.7504373,-5.0292015,0.12598038,0.50771236,0.08788109,-0.04823208,-0.073969364,1.0350943
-4.2902617,34.435844,11.152053,16.88506,0.7401035,0.13831908,-0.0343737,0.42494512,-0.80267936,-0.6042721,-0.7763486,-0.48268887,0.5937114,0.451418,1.0535047,-0.6731343,-1.7769158,-1.3231479,2.3178072,1.6523397,-0.87157357,1.0194521,-0.60716575,-1.7273586,-1.2593337,2.3591828,1.5972162,-0.9140241,0.8283144,-1.4303306,-1.086184,-1.3815775,-0.6905066,0.42449817,0.2718749,0.53608704,-0.508173,1.2693725,-2.7922373,-0.017828397,-3.130276,0.13967133,-0.44920158,0.89803594,0.77157617,-0.09901226,0.08387049,0.622762,0.28230637,-0.7197913,-1.1104633,1.0,0.0,0.0,0.0,0.0,0.0,0.0,-1.186087,0.10817298,-0.71937245,-6.4056277,-0.15728474,0.3912449,0.14715195,-0.44802427,-0.09667277,1.0802984
-6.922614,33.59159,10.42437,17.431774,0.9079846,0.225826,-0.06886267,0.37433055,-0.8020941,-0.5963107,-0.7887686,-0.45797083,0.57215863,0.44246122,1.0568851,-0.6873752,-1.7869897,-1.3382106,2.3133857,1.654432,-0.869778,1.0271235,-0.62147945,-1.7381561,-1.2732097,2.3523355,1.6014429,-0.911247,0.7476103,-1.4319457,-1.0784576,-1.3888253,-0.6833025,0.4218518,0.27985334,0.50818634,-0.5083523,1.2373568,-2.7894456,-0.017810572,-3.225332,0.14229965,-0.45633698,0.88684106,0.7690871,-0.090455376,0.08219594,0.62734884,0.26059973,-0.7032784,-1.1281946,1.0,0.0,0.0,0.0,0.0,0.0,0.0,-1.1581863,0.10835227,-0.68735677,-7.7753425,-0.23422241,0.5378008,-0.510931,0.5112767,-0.32521486,0.849843
-13.318804,29.431885,7.4878545,19.056349,1.2422663,0.33132648,-0.18255207,0.29718044,-0.8082916,-0.6132312,-0.79114807,-0.46655437,0.5491528,0.43316346,1.0568415,-0.7023086,-1.7994792,-1.3523245,2.30568,1.6563582,-0.86793065,1.0337934,-0.6358389,-1.7489746,-1.2871658,2.3455377,1.6056257,-0.9084079,0.64130574,-1.4375913,-1.0835751,-1.39684,-0.6795533,0.41677788,0.28527796,0.48031235,-0.5085316,1.2043912,-2.7866569,-0.017792765,-3.3202932,0.14459229,-0.46338272,0.87543935,0.7666952,-0.08176169,0.08047964,0.63167757,0.22339831,-0.69549525,-1.1495037,1.0,0.0,0.0,0.0,0.0,0.0,0.0,-1.1303123,0.108531564,-0.6543912,-10.289955,-0.659585,-0.7401228,-0.5356312,0.12091398,-0.5863786,0.5739927
-18.937729,28.423563,6.0689774,21.15457,1.4008591,0.54555124,-0.28277707,0.21351796,-0.8073046,-0.61136603,-0.78459835,-0.53296703,0.5638057,0.41676372,1.0551453,-0.71656936,-1.8101112,-1.3656256,2.2922409,1.6620064,-0.8667315,1.0392122,-0.650248,-1.7598541,-1.3011543,2.3385644,1.6097704,-0.90553737,0.5100663,-1.442279,-1.0900583,-1.3984935,-0.704033,0.41348487,0.2875769,0.45246506,-0.50871086,1.1704768,-2.783871,-0.017774977,-3.4151592,0.14643097,-0.47035027,0.86383486,0.7645057,-0.07293996,0.07882859,0.6356075,0.1735921,-0.68796533,-1.1692816,1.0,0.0,0.0,0.0,0.0,0.0,0.0,-1.102465,0.108710855,-0.6204768,-12.745131,-0.5795479,-0.87668896,0.13363361,-2.7403712,-0.40671825,0.2304554
-26.338549,24.220968,2.5461137,22.734173,1.7254668,0.6317679,-0.41130632,0.115182966,-0.8101332,-0.6505524,-0.79227364,-0.5498258,0.51061153,0.408975,1.0507305,-0.7312613,-1.8249093,-1.3803816,2.2835817,1.6608316,-0.8646399,1.0431242,-0.66470665,-1.7709739,-1.3151714,2.331286,1.6138445,-0.9026573,0.352898,-1.4474541,-1.1201488,-1.4014943,-0.7372429,0.4050977,0.2879731,0.42464828,-0.50889015,1.1356144,-2.7810876,-0.017757205,-3.5099306,0.14764404,-0.4773178,0.8519904,0.7626513,-0.063916884,0.0773202,0.6389829,0.10779932,-0.69035393,-1.1945744,1.0,0.0,0.0,0.0,0.0,0.0,0.0,-1.0746483,0.108890146,-0.5856144,-15.2897835,-0.6602049,-3.2230854,0.06361008,-3.674221,-0.95559955,0.010585785
-40.01693,19.679432,-1.7766988,27.518457,2.5478442,0.9999919,-0.62001765,-0.055180863,-0.8155131,-0.6536248,-0.78941035,-0.51953006,0.4774511,0.3769427,1.0376061,-0.74625796,-1.8363364,-1.3941123,2.2793329,1.6615896,-0.864963,1.0449991,-0.6792311,-1.7823951,-1.3291923,2.323794,1.6178137,-0.89980197,0.13412414,-1.4547943,-1.1501067,-1.4005692,-0.75445133,0.3937183,0.2846391,0.39685822,-0.50906944,1.0997969,-2.778307,-0.01773945,-3.6056726,0.14794159,-0.4843979,0.83989817,0.76133657,-0.054646116,0.075899005,0.64157593,0.005190172,-0.7044909,-1.218885,1.0,0.0,0.0,0.0,0.0,0.0,0.0,-1.0468582,0.10906944,-0.5497969,-21.342623,-0.9301901,-3.2191277,0.55646896,-2.1785378,-1.2768805,-0.37690997
-58.077114,13.692857,-7.7531357,33.006424,3.4711792,1.4861641,-0.87708026,-0.27457452,-0.8167046,-0.67151976,-0.796534,-0.52834976,0.45249423,0.3737615,1.0175416,-0.7609016,-1.8495471,-1.4088457,2.270959,1.6630632,-0.8624258,1.0440607,-0.69382614,-1.7941368,-1.3432208,2.3161607,1.6216551,-0.8969829,-0.1674834,-1.4619389,-1.1830914,-1.401575,-0.76809555,0.3801782,0.28069714,0.36909485,-0.5092449,1.0630227,-2.7755291,-0.017721714,-3.701319,0.14686584,-0.49171257,0.8275548,0.7608219,-0.045083527,0.07451541,0.64309007,-0.14313762,-0.73098814,-1.2442553,1.0,0.0,0.0,0.0,0.0,0.0,0.0,-1.0190948,0.10924491,-0.5130227,-29.471281,-0.9897232,-3.5482645,0.515604,-1.968658,-1.55949,-0.46233535
-60.797905,14.347147,-8.145668,33.06118,3.633409,1.6366777,-0.8902725,-0.38918772,-0.82037014,-0.6945181,-0.8010657,-0.50966036,0.45339102,0.3446795,1.005142,-0.7758632,-1.8635886,-1.4233274,2.2651947,1.6669942,-0.862515,1.0401049,-0.70849365,-1.806237,-1.3572761,2.3084931,1.6253687,-0.8942201,-0.46933624,-1.4694395,-1.2198801,-1.4046004,-0.76862305,0.36742583,0.27465907,0.341362,-0.5094204,1.0252929,-2.7727542,-0.017703997,-3.7968695,0.14426422,-0.4992981,0.81494707,0.7611862,-0.035207618,0.07307954,0.6434402,-0.30015764,-0.7571937,-1.2709544,1.0,0.0,0.0,0.0,0.0,0.0,0.0,-0.991362,0.10942039,-0.47529286,-29.487055,-1.0616302,-3.927803,0.3818512,-0.6925225,-1.5594125,-0.6383002
-59.923824,15.4531975,-7.9102893,31.711254,3.6608176,1.6173548,-0.8784159,-0.508849,-0.8259552,-0.73894763,-0.79925096,-0.46672708,0.38008586,0.2745124,0.98921996,-0.7910892,-1.8801317,-1.4372011,2.2618203,1.6633773,-0.8667689,1.0333071,-0.7232451,-1.8188274,-1.3713485,2.3009744,1.6289088,-0.89156413,-0.74783564,-1.4782201,-1.2729335,-1.405743,-0.7481253,0.34823805,0.26265976,0.31365585,-0.5095959,0.98660815,-2.769982,-0.017686296,-3.8923247,0.14009476,-0.50714874,0.8020457,0.7624234,-0.024966434,0.071457535,0.6426359,-0.4566156,-0.7838375,-1.3011545,1.0,0.0,0.0,0.0,0.0,0.0,0.0,-0.9636558,0.109595865,-0.43660814,-27.184534,-1.2150526,-5.526638,0.6184578,1.3991356,-2.2940397,-1.1927605
-59.161266,19.085077,-6.3500624,31.090107,3.6302946,1.780885,-0.87020165,-0.65305984,-0.8253367,-0.7589893,-0.79272646,-0.43866044,0.40401092,0.18500489,0.96800107,-0.80577874,-1.8947263,-1.4506211,2.2571082,1.6693099,-0.8730636,1.0238371,-0.7380642,-1.831948,-1.3853942,2.2937531,1.6322848,-0.8890865,-1.0111544,-1.4842623,-1.3257242,-1.4015794,-0.7154572,0.33265156,0.24299486,0.2859764,-0.50977135,0.9469696,-2.7672129,-0.017668614,-3.9876845,0.13436508,-0.51522064,0.7888593,0.76451373,-0.014383922,0.06953609,0.6406845,-0.61423576,-0.8028904,-1.3288695,1.0,0.0,0.0,0.0,0.0,0.0,0.0,-0.9359764,0.10977134,-0.39696962,-25.696468,-0.95922947,-5.4777384,1.1786222,2.6142,-1.993829,-1.9226044
-53.4209,26.775629,-1.728611,30.03109,3.4459586,1.946795,-0.85331184,-0.7543655,-0.820557,-0.7615279,-0.76941633,-0.36256602,0.435848,-0.09880637,0.94840056,-0.8201199,-1.9081008,-1.4623358,2.2574966,1.6758696,-0.89896715,1.0120001,-0.75289863,-1.8454769,-1.3992873,2.2870584,1.6355482,-0.88700366,-1.2392076,-1.484216,-1.3625138,-1.3827535,-0.65580493,0.3227466,0.19709262,0.25832748,-0.5099468,0.90637827,-2.764446,-0.017650949,-4.082948,0.12714005,-0.5233898,0.77547973,0.7674228,-0.0036091239,0.06716579,0.63760316,-0.76362747,-0.80801195,-1.345364,1.0,0.0,0.0,0.0,0.0,0.0,0.0,-0.90832746,0.10994682,-0.35637826,-22.258854,-0.3335476,-3.8354158,2.5942326,5.3841114,-1.4205992,-4.494521
-40.427723,36.127766,5.2266974,26.576069,3.037331,1.9129945,-0.6990163,-0.7970612,-0.81640095,-0.76113695,-0.7520805,-0.20088439,0.4526094,-0.28014496,0.93229395,-0.8345387,-1.9215906,-1.4744954,2.26697,1.6808091,-0.91501814,0.9983778,-0.767692,-1.8592288,-1.412923,2.2813897,1.638745,-0.8854921,-1.4019536,-1.4785721,-1.3799521,-1.355422,-0.53835005,0.31736943,0.13639686,0.23070145,-0.5101223,0.86483496,-2.761682,-0.017633302,-4.178117,0.11859512,-0.5315075,0.7620198,0.77101696,0.007187338,0.064076915,0.63354194,-0.8888859,-0.7986487,-1.3506004,1.0,0.0,0.0,0.0,0.0,0.0,0.0,-0.8807014,0.11012229,-0.31483495,-15.881729,0.28948784,-1.846075,3.3054829,11.311758,-0.9134054,-5.902529
-25.025137,44.893364,12.539329,22.544727,2.5661564,1.7651222,-0.5018935,-0.80814856,-0.81244415,-0.7564524,-0.72597426,-0.007344785,0.4609223,-0.39781052,0.91756296,-0.84893644,-1.934874,-1.4855204,2.2806551,1.6848372,-0.9252731,0.9836893,-0.7824015,-1.8730228,-1.4262134,2.2773767,1.6419111,-0.88462996,-1.4904679,-1.4690654,-1.3795767,-1.3189328,-0.35643175,0.31533414,0.07016367,0.20310593,-0.5102978,0.82234067,-2.758921,-0.017615672,-4.2731905,0.10903931,-0.53946114,0.74858654,0.7751031,0.0178399,0.05995247,0.62873083,-0.98405313,-0.7779282,-1.345111,1.0,0.0,0.0,0.0,0.0,0.0,0.0,-0.8531059,0.11029777,-0.27234066,-8.627129,0.7614851,-0.004887581,4.039359,17.939865,-0.48615336,-6.397064
-11.982271,50.301758,17.723486,18.170835,2.0371892,1.5635787,-0.31499055,-0.8135473,-0.80921525,-0.75533557,-0.71755594,0.15768667,0.4717881,-0.45766976,0.9023346,-0.86332303,-1.9485563,-1.497969,2.2931454,1.68909,-0.9303969,0.9685526,-0.797008,-1.8867481,-1.4391738,2.2754693,1.6450754,-0.8844135,-1.5210794,-1.4582509,-1.3703499,-1.2876233,-0.1358062,0.31612062,0.0062838825,0.17553711,-0.51047325,0.77889633,-2.7561626,-0.017598059,-4.368169,0.09872818,-0.54714775,0.73522466,0.7794893,0.028252805,0.05457983,0.6233933,-1.0503699,-0.74925643,-1.3372746,1.0,0.0,0.0,0.0,0.0,0.0,0.0,-0.8255371,0.110473245,-0.22889632,-2.9575586,0.96468925,0.9148598,3.3783674,21.958061,-0.12367964,-6.1357512
-4.190164,51.378555,19.492994,14.366625,1.4072738,1.3526511,-0.19744715,-0.8178506,-0.80917054,-0.7729678,-0.7129945,0.19463398,0.47262016,-0.4796157,0.8867675,-0.87792504,-1.9640448,-1.5104733,2.2949326,1.6923375,-0.9323751,0.9533837,-0.81148416,-1.9008826,-1.4520351,2.2746513,1.6487654,-0.8845,-1.510356,-1.434897,-1.5254651,-1.3169432,-0.2810084,0.4601324,0.017612027,0.15120697,-0.5113621,0.7485988,-1.8219475,-0.13035911,0.6741684,0.08800888,-0.5544205,0.7217318,0.7839307,0.038397133,0.04853092,0.6177563,-1.0661272,-0.6855137,-1.3935164,0.0,1.0,0.0,0.0,0.0,0.0,0.0,-0.80120695,0.11136207,-0.1985988,1.8467426,3.763318,-30.99773,-7.824707,-48.04374,28.470934,8.21059
61.996937,176.0,110.0,105.32478,-3.1442811,10.217185,-0.5825748,-0.78368956,0.56027716,0.65545577,0.73634225,-0.29942203,0.66711664,-0.38612616,0.8750147,-0.75545645,-1.835337,-1.3784008,2.244709,1.7154771,-0.92311263,0.9429667,-0.8263462,-1.9126261,-1.4518005,2.2602203,1.6619929,-0.8835921,-0.88997877,-1.5022347,-1.0509993,0.46532875,-1.8255491,1.6209551,0.1113336,0.13299942,-0.5126648,0.754591,-1.8201259,-0.13022879,0.5742432,0.07764053,-0.5591793,0.7123573,0.78825676,0.0385767,0.049555287,0.61213344,-1.0294459,-0.38924888,-0.78709966,1.0,0.0,0.0,0.0,0.0,0.0,0.0,-0.7829994,0.11266479,-0.20459098,60.686756,-6.4258575,49.34845,176.75626,-153.07516,119.26012,8.236265
-24.57837,146.32483,63.62333,90.14488,3.5861964,4.8518577,-1.5169075,-0.82376486,-0.5320605,-0.2684088,0.7817587,-0.624261,0.50965714,-0.26081252,0.8605902,-0.87955225,-1.9394671,-1.3736246,2.1977942,1.7129586,-0.9096734,0.9342015,-0.8400839,-1.9206465,-1.4400989,2.2402198,1.6782721,-0.8826604,-0.8710611,-1.3322299,-0.71642464,1.4057385,-2.0615232,1.6354461,0.08720247,0.11481476,-0.5139656,0.7595817,-1.8183061,-0.13009858,0.47402418,0.06658554,-0.5626583,0.70757854,0.79354626,0.03208455,0.054407343,0.60522294,-1.130504,-0.32350492,-0.3795992,1.0,0.0,0.0,0.0,0.0,0.0,0.0,-0.76481473,0.1139656,-0.20958167,2.1776319,16.587902,34.21302,94.212555,-24.53835,2.9794455,-2.4065137
-40.529503,160.86021,54.088863,72.373924,3.1584496,3.7471676,-1.5202228,-0.81449205,-0.14107625,-0.5118027,0.75963145,-0.6480506,0.57567054,0.12442704,0.85275227,-0.85419154,-1.9718268,-1.3641357,2.1754148,1.7358391,-0.8702177,0.924433,-0.85019475,-1.9271258,-1.4225341,2.2206466,1.6937197,-0.88179827,-1.0103196,-0.90593475,-0.6248479,1.8739786,-1.926035,1.5177007,0.08485062,0.096645355,-0.5152664,0.76357096,-1.8164881,-0.12996851,0.3739053,0.05454254,-0.5653515,0.7061798,0.8000344,0.023294032,0.061236177,0.596366,-1.2275686,-0.24220763,-0.067508675,1.0,0.0,0.0,0.0,0.0,0.0,0.0,-0.74664533,0.11526641,-0.21357095,-13.404572,42.05793,9.1948395,47.001884,12.577844,-10.760975,-0.53512603
-45.171577,128.317,33.89849,47.4504,2.5527601,2.2792401,-1.1638608,-0.8104198,-0.11757492,-0.5584612,0.8015187,-0.65876704,0.57064354,0.030622914,0.843391,-0.86195225,-1.9829719,-1.3423822,2.15477,1.7507842,-0.87873596,0.9128468,-0.8562239,-1.933895,-1.4031059,2.2035797,1.707632,-0.8810344,-1.2070347,-0.50354856,-0.6950264,1.9660021,-1.6354558,1.3503506,0.07223873,0.07849121,-0.5165653,0.7665598,-1.8146721,-0.12983857,0.27388653,0.041656494,-0.5673485,0.70677495,0.80743647,0.014500529,0.06916747,0.5857064,-1.3081956,-0.1770526,0.094504684,1.0,0.0,0.0,0.0,0.0,0.0,0.0,-0.7284912,0.11656532,-0.21655977,-19.368671,39.743446,-7.210827,9.277964,28.422403,-16.353846,-1.6389475
-36.509216,87.89037,17.859283,25.457394,1.6058444,1.0595498,-0.6670279,-0.81885684,-0.12802228,-0.5918998,0.7915497,-0.6489446,0.6144728,-0.101621434,0.8309611,-0.8690261,-1.993085,-1.3239509,2.1386852,1.7690792,-0.8911965,0.8995049,-0.85922223,-1.9419211,-1.3843509,2.18937,1.7199725,-0.880486,-1.3764254,-0.23301537,-0.83881164,1.845281,-1.35085,1.1952983,0.0479204,0.060359955,-0.5178623,0.76854914,-1.8128577,-0.12970875,0.17396781,0.028186798,-0.56886864,0.7080353,0.8153395,0.0070121437,0.07743677,0.5737384,-1.3580747,-0.13279583,0.13132288,1.0,0.0,0.0,0.0,0.0,0.0,0.0,-0.71035993,0.117862314,-0.21854913,-16.88776,26.721058,-14.450777,-12.125635,28.02782,-15.49859,-2.7727723
-22.540867,60.76998,10.916332,12.352589,0.81409866,0.28967148,-0.2362026,-0.81952685,-0.10548403,-0.6070132,0.79679334,-0.6395546,0.61173546,-0.10200292,0.8175522,-0.86977065,-2.0026224,-1.3046715,2.1254144,1.781146,-0.8906863,0.8849366,-0.8604744,-1.951372,-1.3672687,2.17751,1.7309169,-0.88016653,-1.483822,-0.08997331,-0.9802604,1.6619922,-1.1321567,1.0603848,0.025780747,0.042243958,-0.5191593,0.76954013,-1.8110453,-0.12957907,0.074148975,0.014465332,-0.5700836,0.7091613,0.8233645,0.0012554793,0.08559242,0.5610198,-1.3775033,-0.10558507,0.10315518,1.0,0.0,0.0,0.0,0.0,0.0,0.0,-0.69224393,0.11915931,-0.21954012,-10.80904,14.101548,-14.056122,-18.444942,21.487118,-13.598275,-2.4807577
-10.865931,40.767704,7.5372396,5.990301,0.48577684,-0.1603592,0.03436251,-0.81518394,-0.12528051,-0.6168233,0.79809177,-0.62682396,0.63075936,-0.11481415,0.80341816,-0.87300247,-2.0130544,-1.2874595,2.1148276,1.7939928,-0.89164793,0.86977506,-0.8611801,-1.9619502,-1.3518363,2.167279,1.740692,-0.8800502,-1.5271581,-0.06441065,-1.0831347,1.5033537,-0.9877281,0.9495059,0.0063686664,0.024147034,-0.5204544,0.7695337,-1.8092346,-0.12944952,-0.025570057,0.00065231323,-0.57116127,0.70976174,0.83125776,-0.0028720207,0.0933485,0.5479856,-1.3809962,-0.09577219,0.0440517,1.0,0.0,0.0,0.0,0.0,0.0,0.0,-0.674147,0.1204544,-0.21953368,-4.4134855,2.4516196,-10.129118,-15.953279,14.126444,-11.187911,-2.1125388
-6.573245,20.654942,2.476244,3.4248953,0.6177807,-0.4747377,0.14212167,-0.8130007,-0.20225228,-0.64845496,0.7923689,-0.62944096,0.636927,-0.11568925,0.788475,-0.88140535,-2.0267956,-1.2725995,2.1043348,1.8043847,-0.8916191,0.85451627,-0.8624447,-1.9733332,-1.3375732,2.1579978,1.7495116,-0.8800998,-1.5255489,-0.1473274,-1.1563232,1.4007884,-0.9087794,0.85918593,-0.008884819,0.0060691833,-0.5217476,0.7685308,-1.8074257,-0.12932009,-0.1251894,-0.013221741,-0.57229996,0.709583,0.83891624,-0.005611863,0.10048409,0.53487456,-1.3888948,-0.10750136,-0.03935117,1.0,0.0,0.0,0.0,0.0,0.0,0.0,-0.65606916,0.12174758,-0.21853077,0.14648438,-8.321437,-7.202649,-10.236454,7.7169895,-9.097934,-1.5922348
-6.174303,16.039062,2.252292,5.304018,0.86485076,-0.3947205,0.1388405,-0.82156026,-0.24223047,-0.64794743,0.7949177,-0.61532587,0.6316337,-0.108399786,0.77236027,-0.8866677,-2.038128,-1.2580814,2.0964653,1.812675,-0.8909398,0.839391,-0.8648699,-1.9851512,-1.323886,2.1492126,1.7575473,-0.88027143,-1.5081846,-0.27434045,-1.1897115,1.3584816,-0.8693648,0.7847787,-0.019982433,-0.011993408,-0.5230408,0.7665324,-1.8056188,-0.1291908,-0.22470912,-0.027236938,-0.5735855,0.70861447,0.8463324,-0.0072939587,0.10692544,0.5217616,-1.4053377,-0.122903824,-0.11657015,1.0,0.0,0.0,0.0,0.0,0.0,0.0,-0.63800657,0.123040766,-0.21653241,1.7561674,-12.72943,-3.2197952,-4.119396,3.8092017,-7.504177,-1.1165179
-4.7548623,27.57417,7.2853127,8.886501,0.8074185,-0.092850745,0.11893968,-0.82051617,-0.22890876,-0.6515247,0.79495955,-0.6192151,0.62946016,-0.060168024,0.75733936,-0.88776076,-2.0503037,-1.2443901,2.087291,1.8204932,-0.8862882,0.8244679,-0.8683575,-1.9971026,-1.3103133,2.1406028,1.7649382,-0.8805022,-1.487038,-0.37392431,-1.1964343,1.3570814,-0.85871893,0.7235728,-0.024226855,-0.030033112,-0.52433014,0.7635396,-1.8038135,-0.12906164,-0.32412937,-0.041374207,-0.57491684,0.70708835,0.8535013,-0.008249415,0.112875566,0.5086516,-1.4170173,-0.12396342,-0.16542755,1.0,0.0,0.0,0.0,0.0,0.0,0.0,-0.61996686,0.12433013,-0.2135396,2.1067142,-10.032404,-0.47979355,-0.033593178,0.8734703,-6.183791,-0.45878366
-6.381778,28.856815,7.4499383,10.384622,0.9097267,0.033095002,0.07636536,-0.81608796,-0.2899425,-0.6675344,0.7973035,-0.61335486,0.62889916,-0.06250213,0.7428591,-0.89735174,-2.0638561,-1.230583,2.0792673,1.8278282,-0.8867524,0.8097422,-0.87282354,-2.0090816,-1.2965919,2.1320121,1.771799,-0.88076353,-1.4676845,-0.47119206,-1.1978835,1.3776383,-0.8595775,0.6732049,-0.026939215,-0.048057556,-0.5256195,0.7595618,-1.80201,-0.1289326,-0.422327,-0.055664062,-0.576231,0.70512545,0.86044294,-0.008655376,0.118459985,0.49550995,-1.4333029,-0.12156049,-0.20755702,1.0,0.0,0.0,0.0,0.0,0.0,0.0,-0.6019424,0.1256195,-0.20956177,1.93851,-9.816992,0.05390644,2.1948576,-0.27167797,-5.1106334,-0.29847696
-8.039406,27.722887,6.5896645,10.481984,0.9645309,0.10709506,0.06977091,-0.81332695,-0.35656047,-0.6704033,0.79396445,-0.6134341,0.6388044,-0.052433934,0.7284095,-0.9084796,-2.076122,-1.2171954,2.0706687,1.8356794,-0.88600695,0.795171,-0.8782967,-2.0210521,-1.2826492,2.1233795,1.7782305,-0.8810382,-1.4535582,-0.57295644,-1.196526,1.4004579,-0.8652777,0.63278675,-0.027668316,-0.06606674,-0.5269089,0.7546027,-1.8002083,-0.1288037,-0.52042645,-0.0701561,-0.5775089,0.7027256,0.8671721,-0.008584302,0.12369678,0.48232558,-1.4538257,-0.11696194,-0.2520704,1.0,0.0,0.0,0.0,0.0,0.0,0.0,-0.58393323,0.12690887,-0.20460266,1.4280558,-10.271347,0.32770634,2.45533,-0.74436665,-4.124391,-0.08444004
-6.7823544,31.163961,7.9897623,10.4250965,0.8836462,0.19640148,0.08247755,-0.8001448,-0.39522544,-0.6611236,0.8005917,-0.6094744,0.6433413,-0.06572303,0.71515656,-0.9178192,-2.0871644,-1.20259,2.062432,1.8425647,-0.8876105,0.78074956,-0.88471204,-2.0329578,-1.2684871,2.1146934,1.7843169,-0.88132715,-1.4382792,-0.6647259,-1.1881603,1.4221005,-0.8701798,0.6002445,-0.029355569,-0.08405304,-0.5281944,0.74866337,-1.7984085,-0.12867492,-0.6184278,-0.08481598,-0.5786972,0.69991696,0.87368214,-0.008104651,0.1286136,0.46911877,-1.4700562,-0.10659924,-0.29199493,1.0,0.0,0.0,0.0,0.0,0.0,0.0,-0.56594694,0.12819442,-0.19866335,1.525569,-9.280753,1.0533333,2.3262978,-0.68861246,-3.3388615,-0.18513389
-4.3193855,39.452503,10.888607,10.644346,0.66212904,0.28806996,0.12009017,-0.7871369,-0.4053427,-0.66722745,0.7983278,-0.619656,0.6420022,-0.027302217,0.70203584,-0.9252463,-2.0996804,-1.1886543,2.0527277,1.8485172,-0.8840574,0.7665007,-0.8918293,-2.04481,-1.2541801,2.1059349,1.7901229,-0.8816047,-1.4206463,-0.72775346,-1.1834446,1.4340849,-0.8785318,0.57366174,-0.027452078,-0.10202408,-0.52948,0.7417315,-1.7966105,-0.12854627,-0.7180887,-0.099559784,-0.57972336,0.69677377,0.87994003,-0.0072511164,0.13332295,0.4559362,-1.475003,-0.0880089,-0.3235511,1.0,0.0,0.0,0.0,0.0,0.0,0.0,-0.5479759,0.12947997,-0.19173151,1.7240286,-6.4251065,0.7349014,1.3103485,-1.0877728,-2.73602,0.13111532
-4.8647976,37.91811,9.882134,9.9299135,0.65663946,0.27433378,0.13159655,-0.7817358,-0.46204114,-0.67311335,0.79970443,-0.61472476,0.6372854,-0.009404552,0.68832713,-0.9380334,-2.1121213,-1.1742096,2.0444624,1.8538514,-0.8825451,0.752414,-0.8995951,-2.0566623,-1.2398025,2.097119,1.7956942,-0.88184786,-1.4048119,-0.7932036,-1.1848354,1.43941,-0.8832989,0.55136484,-0.023474613,-0.11997604,-0.53076553,0.73380387,-1.7948142,-0.12841776,-0.8176499,-0.114349365,-0.5805645,0.6932758,0.88593966,-0.0060078935,0.13783504,0.44280493,-1.481033,-0.07007946,-0.3605166,0.0,1.0,0.0,0.0,0.0,0.0,0.0,-0.53002393,0.13076553,-0.18380386,1.5507698,-6.663978,0.108766556,0.660038,-0.7171631,-2.3163795,0.34850353
-2.4268243,41.821106,11.389162,9.391289,0.45993194,0.31208777,0.1852463,-0.764188,-0.479017,-0.67353153,0.7982258,-0.63598686,0.6591473,0.058994975,0.6759952,-0.9474968,-2.1240156,-1.1599799,2.0335205,1.861609,-0.87594837,0.73852086,-0.9079111,-2.0685413,-1.2254173,2.0882041,1.8010882,-0.8820033,-1.384318,-0.8447462,-1.1880653,1.4383947,-0.8948175,0.5352707,-0.013093777,-0.13790894,-0.5320473,0.72488135,-1.7930198,-0.12828937,-0.91711164,-0.12914658,-0.58119965,0.689434,0.8916494,-0.0043800212,0.14220752,0.42978942,-1.4779406,-0.048291408,-0.39428586,0.0,1.0,0.0,0.0,0.0,0.0,0.0,-0.51209104,0.13204727,-0.17488134,1.990056,-5.2783012,-0.045681,-0.00834465,-1.4193416,-1.6884327,0.9630371
-1.6432271,42.8058,11.567163,9.018448,0.38820136,0.30910593,0.2125308,-0.75231445,-0.5090505,-0.6789766,0.79868424,-0.64769447,0.65672857,0.1112345,0.6632894,-0.9588162,-2.1364388,-1.1455488,2.0234346,1.8667611,-0.8708798,0.72485936,-0.91671365,-2.0805304,-1.211078,2.0791423,1.806377,-0.8820644,-1.35477,-0.8930788,-1.2238724,1.4255333,-0.90963036,0.5475671,-0.018648831,-0.15591049,-0.53253937,0.7169404,-1.7935551,0.26387957,0.05695557,-0.14387894,-0.5816231,0.68523216,0.8970543,-0.0023554969,0.1464948,0.41692576,-1.4709351,-0.026772665,-0.4396714,0.0,1.0,0.0,0.0,0.0,0.0,0.0,-0.49408948,0.13253936,-0.16694039,3.6262035,-5.029106,-6.2207937,-2.159357,-1.7698526,3.684163,-2.6958148
-2.7754917,96.30919,28.110886,20.782751,0.36998332,1.2285271,0.100663766,-0.8014404,-0.2461974,-0.6582746,0.79795086,-0.6504402,0.6169845,0.18719442,0.6447153,-0.9413334,-2.1463578,-1.1312829,2.0140984,1.8680755,-0.86334497,0.7111913,-0.9246301,-2.092703,-1.1968683,2.0699337,1.8117443,-0.88210255,-1.371536,-0.7587859,-1.2131854,1.4187421,-0.9268033,0.5329943,-3.4555902e-05,-0.17383194,-0.5299034,0.71675736,-1.791762,0.26361576,-0.04338058,-0.15832901,-0.58145714,0.681304,0.9021297,-0.00014715012,0.15135679,0.40404582,-1.4347762,0.043101147,-0.37976027,0.0,1.0,0.0,0.0,0.0,0.0,0.0,-0.47616804,0.1299034,-0.16675735,-1.8885851,13.141727,1.6905069,-0.8728981,-2.4098396,-1.5416622,1.5036191
-9.650007,98.98024,26.479645,23.62666,0.7112347,1.2860444,0.005644031,-0.8210883,-0.24879585,-0.7025894,0.79195833,-0.640687,0.5860919,0.19063038,0.62908244,-0.9495097,-2.162962,-1.1176724,2.0058649,1.8703535,-0.8630395,0.6972028,-0.93108934,-2.1049483,-1.1827406,2.0606143,1.8169514,-0.88196236,-1.408518,-0.6093356,-1.226228,1.4101564,-0.9361416,0.51618433,0.017518444,-0.19173431,-0.52726936,0.71557176,-1.7899705,0.2633522,-0.14361641,-0.17251205,-0.5805893,0.67800397,0.90687877,0.0022523813,0.15700005,0.3910457,-1.4104757,0.11377348,-0.31549153,0.0,1.0,0.0,0.0,0.0,0.0,0.0,-0.45826566,0.12726936,-0.16557175,-3.8928747,14.633036,-0.67179203,-1.0177851,-1.6473293,-1.8267989,1.3902087
-13.767616,79.92228,19.030535,20.637508,0.9033397,0.9911056,0.033139054,-0.82612395,-0.30151635,-0.7341441,0.77631176,-0.6517978,0.59232575,0.24937749,0.6145904,-0.961241,-2.1783626,-1.1051095,1.9954345,1.876184,-0.8570246,0.68282616,-0.936531,-2.11743,-1.168733,2.0512035,1.8219849,-0.88159996,-1.4477967,-0.52337146,-1.2536454,1.3974979,-0.9444346,0.4985703,0.04153421,-0.20962143,-0.5246372,0.71338457,-1.788181,0.26308888,-0.24375203,-0.1865921,-0.57912827,0.6750813,0.91132957,0.0050040423,0.1632042,0.3779122,-1.404595,0.16867267,-0.28593227,0.0,1.0,0.0,0.0,0.0,0.0,0.0,-0.44037855,0.12463722,-0.16338456,-4.0602684,8.332455,-2.218008,-1.3068914,-1.4085174,-1.9399107,2.1270313
-10.069881,76.090164,18.36943,18.76772,0.82679224,0.8491384,0.095120884,-0.81694883,-0.25048512,-0.74187046,0.7752077,-0.65211743,0.6137558,0.31706002,0.60113126,-0.9615795,-2.191617,-1.0912123,1.9859917,1.8833605,-0.849894,0.6681825,-0.9412555,-2.1302016,-1.154836,2.0417316,1.8268753,-0.8809648,-1.4703039,-0.45626426,-1.2832825,1.3868556,-0.9495013,0.48526987,0.0699182,-0.22748947,-0.5220089,0.71019673,-1.786393,0.26282585,-0.34378752,-0.20057678,-0.5771656,0.67238873,0.9154632,0.008152462,0.16980813,0.3647269,-1.394463,0.21706198,-0.2647281,0.0,1.0,0.0,0.0,0.0,0.0,0.0,-0.4225105,0.12200889,-0.16019672,-2.4007797,6.4720273,-2.4333954,-1.121378,-1.0626197,-1.5164196,2.573637
-11.4805355,50.264763,9.96599,13.442381,0.886863,0.44531763,0.13826232,-0.82506007,-0.33428472,-0.7632675,0.7687005,-0.6522138,0.59336954,0.32119137,0.5856765,-0.974684,-2.2065284,-1.077966,1.9765102,1.8862122,-0.84884566,0.6533939,-0.94596666,-2.1433744,-1.1410521,2.032426,1.8318174,-0.87999034,-1.4812741,-0.47661373,-1.3311601,1.3746467,-0.91372585,0.50800717,0.11059526,-0.2442894,-0.51940155,0.7076099,-1.5771127,0.2589189,-0.12768283,-0.21464157,-0.5748539,0.66955227,0.9193061,0.011717266,0.17640504,0.35159665,-1.4090343,0.24952686,-0.2914656,0.0,1.0,0.0,0.0,0.0,0.0,0.0,-0.40571058,0.119401544,-0.15760988,-1.2999535,-2.1887243,-3.5927534,-0.9234905,0.18384457,-1.1413574,2.6463494
-7.0986366,46.205425,10.074045,11.543129,0.8780426,0.3618436,0.17870213,-0.8157192,-0.3351084,-0.74452704,0.77563334,-0.6275238,0.5961705,0.3290214,0.571822,-0.9794775,-2.217827,-1.0634888,1.9696738,1.8914344,-0.8470882,0.6386015,-0.9510717,-2.1568213,-1.1273211,2.023411,1.83686,-0.87870014,-1.4787972,-0.52217907,-1.3480237,1.3727667,-0.8983412,0.5024717,0.13477378,-0.2599182,-0.5167141,0.7061474,-1.5578994,0.2721405,-0.15196618,-0.22879791,-0.57226753,0.6664182,0.9228776,0.01562736,0.18274537,0.33861002,-1.4152976,0.27389258,-0.32129273,0.0,1.0,0.0,0.0,0.0,0.0,0.0,-0.39008176,0.11671409,-0.15614736,0.17740726,-4.693258,-1.3404608,-0.11909008,1.2346268,-0.7302642,2.3074894
-2.7110977,50.51831,12.722184,11.523652,0.890497,0.4087186,0.19208662,-0.8102268,-0.33224034,-0.7194373,0.77938956,-0.6005462,0.6014371,0.31595594,0.5575788,-0.9842957,-2.228765,-1.0493822,1.9633564,1.8970037,-0.84710455,0.62389666,-0.95662206,-2.1702108,-1.1135652,2.014599,1.8418505,-0.8772116,-1.4681762,-0.5663989,-1.3347433,1.3766657,-0.87629604,0.49729088,0.15322724,-0.27532196,-0.5138931,0.70449394,-1.5338258,0.28542328,-0.16931798,-0.24295807,-0.5694237,0.66306174,0.9261831,0.019790843,0.18879488,0.32580605,-1.4128995,0.29974204,-0.34102988,0.0,1.0,0.0,0.0,0.0,0.0,0.0,-0.37467802,0.11389312,-0.15449393,0.9519577,-4.5553923,1.7389774,0.41599274,1.851809,-0.6954253,1.7408937
-1.5894339,58.9673,15.246566,13.142529,0.86270666,0.52264714,0.18573192,-0.8136606,-0.31699145,-0.71980464,0.7796967,-0.6185156,0.59871495,0.34094822,0.5425306,-0.9883212,-2.2421913,-1.0355955,1.9527476,1.901722,-0.84311676,0.6092806,-0.96244043,-2.1833978,-1.0997577,2.0059009,1.8467821,-0.87555206,-1.4598491,-0.5875194,-1.3117172,1.3820022,-0.8688531,0.49129438,0.16980213,-0.29043198,-0.5109272,0.7027586,-1.502502,0.30021188,-0.17332156,-0.25702667,-0.56628036,0.65961343,0.92921156,0.024124658,0.19465975,0.31319565,-1.4013499,0.33067995,-0.34677774,0.0,1.0,0.0,0.0,0.0,0.0,0.0,-0.359568,0.110927194,-0.1527586,0.6863117,-2.2649288,2.7955055,0.5162716,0.3108859,-0.77459216,1.5169054
-1.9899321,54.14065,13.264035,11.836461,0.7728473,0.43456584,0.21013218,-0.8074837,-0.36129215,-0.73320186,0.77360547,-0.6258045,0.60376567,0.38259423,0.5285322,-0.99856967,-2.256718,-1.0223972,1.9433204,1.9071586,-0.8372926,0.59475505,-0.9685601,-2.1964324,-1.0859312,1.997212,1.8516581,-0.87371624,-1.4505991,-0.6205766,-1.2992172,1.3830165,-0.8700822,0.4858342,0.18776745,-0.30524826,-0.5078354,0.7009022,-1.4739374,0.31218973,-0.18857671,-0.27099228,-0.5628662,0.65602523,0.9319605,0.028678304,0.20036446,0.30080065,-1.3911638,0.3574494,-0.36358005,0.0,1.0,0.0,0.0,0.0,0.0,0.0,-0.34475172,0.10783538,-0.15090221,0.79967976,-3.443396,1.6953707,0.1101017,-0.5151868,-0.70961714,1.6681105
0.6007633,59.55478,15.191726,12.388411,0.7494086,0.47719973,0.22256744,-0.79429877,-0.3544689,-0.71229964,0.7783492,-0.6203227,0.6114419,0.40886387,0.5153252,-1.004007,-2.2676623,-1.0080962,1.9351798,1.9128023,-0.83282983,0.5803592,-0.9749087,-2.209295,-1.0720875,1.9885097,1.8564941,-0.8716984,-1.4364998,-0.6400589,-1.2804239,1.3846375,-0.8716864,0.4824279,0.20602673,-0.3197403,-0.5046253,0.6989471,-1.4399834,0.32393292,-0.1960878,-0.28479767,-0.55916977,0.6523348,0.93442416,0.033426326,0.20594746,0.2886514,-1.3729962,0.38535282,-0.37165865,0.0,1.0,0.0,0.0,0.0,0.0,0.0,-0.33025968,0.104625314,-0.14894706,1.2521982,-2.0914435,2.384019,0.12748241,-0.6062031,-0.5048871,1.6753942
-2.5558946,50.039417,11.479758,11.031499,0.81464434,0.3651901,0.2076753,-0.7979937,-0.41535553,-0.7159066,0.78014916,-0.61273265,0.6137244,0.4130598,0.50055987,-1.0164442,-2.2808857,-0.9940726,1.9272364,1.9178665,-0.8303924,0.5660645,-0.9816569,-2.222028,-1.058219,1.9798027,1.8612918,-0.86951464,-1.4274898,-0.6868469,-1.2695514,1.38769,-0.8713309,0.47852933,0.22224358,-0.33395767,-0.5013199,0.69676566,-1.4147261,0.3326676,-0.22314052,-0.2985115,-0.5552273,0.6484383,0.9366347,0.03840475,0.21132436,0.27673513,-1.3661311,0.40880585,-0.39646572,0.0,1.0,0.0,0.0,0.0,0.0,0.0,-0.3160423,0.10131988,-0.14676565,0.79562664,-4.804456,1.4970541,0.34742355,-0.3225088,-0.55749416,1.5232146
-3.0984406,52.519836,11.733376,11.687231,0.86206657,0.3953609,0.20363522,-0.79447585,-0.41523933,-0.70984274,0.78098804,-0.6099488,0.59897923,0.45994103,0.48661688,-1.0231808,-2.2930124,-0.9801202,1.9188079,1.9211897,-0.82352054,0.5518422,-0.9888123,-2.2346692,-1.0443218,1.9711114,1.866042,-0.8671524,-1.4208695,-0.725625,-1.260789,1.3905959,-0.8694023,0.473555,0.24060448,-0.34791183,-0.49793053,0.6943275,-1.3880875,0.34109333,-0.24857073,-0.31214142,-0.5510349,0.64431965,0.9386086,0.04363132,0.21647964,0.2650408,-1.3582776,0.43392733,-0.41789383,0.0,1.0,0.0,0.0,0.0,0.0,0.0,-0.30208814,0.09793052,-0.14432746,0.55179596,-4.0106416,1.3036966,0.330019,-0.18966198,-0.67098737,1.7321348
-1.2367704,55.392265,12.851332,11.740606,0.88300747,0.4287357,0.215274,-0.78596497,-0.42860785,-0.6863284,0.777769,-0.59652567,0.60016596,0.47950456,0.4732457,-1.0316731,-2.303302,-0.96654487,1.9114588,1.9260587,-0.81920195,0.5376981,-0.9963139,-2.2471428,-1.030417,1.9624823,1.8707479,-0.86460835,-1.412665,-0.758768,-1.2415988,1.3903006,-0.8617772,0.46924138,0.25871414,-0.36158752,-0.49446297,0.6916492,-1.3587817,0.34875336,-0.27122313,-0.32567596,-0.5465851,0.6400251,0.9403531,0.049052935,0.22140455,0.25359374,-1.3456621,0.45959783,-0.43437007,0.0,1.0,0.0,0.0,0.0,0.0,0.0,-0.28841245,0.09446296,-0.14164919,0.689888,-3.446257,2.3852348,-0.015974045,0.3427148,-0.60880184,1.7049849
-3.1165347,47.20426,9.953623,10.164928,0.8588493,0.31795347,0.2278868,-0.7864145,-0.48874855,-0.6897966,0.77906454,-0.5970853,0.56907356,0.5246597,0.45905665,-1.0451888,-2.3161225,-0.95251054,1.9027739,1.9276552,-0.8121424,0.5236161,-1.0043218,-2.2594674,-1.0165138,1.9539163,1.8753837,-0.86186904,-1.4069684,-0.815059,-1.2281098,1.3906296,-0.8556619,0.46138403,0.2788415,-0.3750229,-0.49093628,0.6886209,-1.3371457,0.35410342,-0.31056923,-0.33913803,-0.5419102,0.6354546,0.9418933,0.05470954,0.22601256,0.24240889,-1.3406026,0.48135298,-0.46560192,0.0,1.0,0.0,0.0,0.0,0.0,0.0,-0.2749771,0.09093627,-0.13862091,0.4809618,-5.7450056,1.7306566,0.1083374,0.2666831,-0.9611845,1.950556
-0.6075463,51.63447,11.618752,10.4847355,0.86084443,0.36286622,0.24032627,-0.77618533,-0.49265602,-0.66270655,0.7792415,-0.59173435,0.55902016,0.55427116,0.44599754,-1.0535874,-2.325738,-0.9385897,1.8947428,1.9312857,-0.8064419,0.509617,-1.012819,-2.2715707,-1.002609,1.9454185,1.8799397,-0.8589244,-1.3978628,-0.86170644,-1.2032291,1.3903576,-0.8487907,0.4533703,0.29947594,-0.3882141,-0.4873581,0.6852408,-1.3111467,0.3587574,-0.34398696,-0.35248566,-0.5370083,0.63063055,0.9432375,0.060561117,0.23029459,0.2315162,-1.3284949,0.50364655,-0.4892769,0.0,1.0,0.0,0.0,0.0,0.0,0.0,-0.26178586,0.08735809,-0.1352408,0.7945061,-4.782939,2.9250145,0.012993813,0.2896309,-0.9763837,1.9880176
0.6050987,51.038593,11.796943,10.053201,0.8953625,0.36237276,0.23965575,-0.77248335,-0.5317224,-0.6281737,0.7814439,-0.5844446,0.54286176,0.55639684,0.43236864,-1.0659913,-2.334388,-0.92446464,1.886974,1.9342258,-0.8032847,0.49570984,-1.0218331,-2.283304,-0.9886966,1.9369965,1.8844092,-0.8557913,-1.3886563,-0.91497743,-1.1618471,1.3915741,-0.84096134,0.4444466,0.31778428,-0.40114975,-0.48374176,0.68150777,-1.285603,0.36230972,-0.3798601,-0.3657112,-0.53188896,0.6255717,0.9444052,0.06653205,0.23421736,0.2209401,-1.3151447,0.5248875,-0.5126757,0.0,1.0,0.0,0.0,0.0,0.0,0.0,-0.24885023,0.083741754,-0.13150775,0.8030653,-5.43859,4.583144,0.1652956,0.37773848,-1.066494,1.7747045
-0.7112634,46.050377,9.721648,8.866839,0.8062517,0.2735294,0.2501918,-0.7683763,-0.5735084,-0.6439398,0.7756556,-0.58030945,0.5070147,0.59216243,0.4188722,-1.0791839,-2.347698,-0.911131,1.8789655,1.9351107,-0.796575,0.48189336,-1.0314478,-2.2947547,-0.97479635,1.9286448,1.8887659,-0.8524712,-1.3795664,-0.9771423,-1.1384001,1.3896543,-0.83393604,0.43235508,0.33671665,-0.41386795,-0.48010063,0.677326,-1.2651482,0.3644429,-0.42709565,-0.37883377,-0.5265827,0.62019557,0.9454168,0.072680265,0.23773663,0.21067965,-1.3056488,0.5432926,-0.54728526,0.0,1.0,0.0,0.0,0.0,0.0,0.0,-0.23613203,0.080100626,-0.12732601,0.8200884,-6.32056,2.7211428,-0.10929108,0.35319328,-1.3834774,1.856184
7.3128,55.74475,14.13972,9.188736,0.80082595,0.35138762,0.27662277,-0.7387079,-0.57073885,-0.579026,0.776068,-0.5581702,0.5227447,0.6103737,0.40802258,-1.0885216,-2.3526573,-0.89718956,1.8728278,1.9410404,-0.7914338,0.46827957,-1.0415355,-2.3057628,-0.9609228,1.9204255,1.8930287,-0.8489658,-1.3558042,-1.0195026,-1.0865544,1.3864245,-0.8190978,0.42392653,0.3550401,-0.42629623,-0.47645378,0.67279524,-1.2332757,0.36459073,-0.45752698,-0.3917389,-0.5211086,0.6146093,0.9462743,0.07887121,0.24087511,0.20080689,-1.2789931,0.55943435,-0.56380415,0.0,1.0,0.0,0.0,0.0,0.0,0.0,-0.22370374,0.076453775,-0.122795224,2.2143126,-4.33923,5.7028055,-0.34594536,1.0074496,-1.0097623,1.7600417
12.291685,56.625393,15.846182,8.19474,0.914277,0.3284396,0.28145567,-0.7250476,-0.6134364,-0.506836,0.7678554,-0.49146193,0.4684932,0.61237663,0.3957748,-1.1028792,-2.3564463,-0.8841372,1.8712794,1.9398781,-0.7877282,0.4549428,-1.052087,-2.3159885,-0.94711894,1.9125394,1.8971777,-0.8452933,-1.3269063,-1.0673835,-0.9991036,1.3781251,-0.7796958,0.41160744,0.3712613,-0.43839645,-0.47281837,0.6679734,-1.1999135,0.3628469,-0.48672098,-0.40433884,-0.5154972,0.6089016,0.9470281,0.08488403,0.2435183,0.19139315,-1.2478714,0.5715542,-0.57460356,0.0,1.0,0.0,0.0,0.0,0.0,0.0,-0.21160352,0.07281837,-0.11797339,2.7056456,-4.8775196,9.309614,-0.8865833,3.4189343,-1.4010787,1.5840828
19.313242,63.464066,19.519377,8.089428,1.0902348,0.38127238,0.28089795,-0.7039238,-0.6223321,-0.40940374,0.748091,-0.41099516,0.4373678,0.6088277,0.3845504,-1.1143202,-2.3569288,-0.87230986,1.8714398,1.9409145,-0.78441054,0.44193882,-1.063035,-2.324994,-0.9334886,1.905267,1.9011933,-0.8414782,-1.292325,-1.1042128,-0.8656255,1.3574666,-0.71136916,0.39791778,0.3849066,-0.45010757,-0.4692154,0.6629459,-1.1590952,0.35894993,-0.50415426,-0.4165573,-0.5097809,0.60321045,0.9477479,0.09042636,0.24553305,0.18251155,-1.2059536,0.5809233,-0.56903267,0.0,1.0,0.0,0.0,0.0,0.0,0.0,-0.1998924,0.06921539,-0.112945914,3.2269955,-3.7656784,14.022028,-2.1986723,6.2034726,-1.5307188,1.3357878
22.428442,64.69897,20.739098,7.546106,1.3609053,0.32350704,0.25374195,-0.69029826,-0.64646673,-0.32005742,0.71811575,-0.26399747,0.29980028,0.62290555,0.37290898,-1.1276817,-2.3569999,-0.86167705,1.8788673,1.9311733,-0.7791877,0.42927152,-1.0743418,-2.3324509,-0.92018807,1.8990476,1.9049801,-0.8375327,-1.2589316,-1.139814,-0.70363104,1.3203597,-0.5939348,0.37186912,0.3978749,-0.46141052,-0.465662,0.6577525,-1.1188209,0.3537491,-0.52087647,-0.42835236,-0.5039921,0.5976289,0.94854033,0.0952535,0.24669388,0.17418407,-1.1649793,0.58737886,-0.55639696,0.0,1.0,0.0,0.0,0.0,0.0,0.0,-0.18858945,0.065662,-0.1077525,3.1085968,-3.6355734,16.884315,-3.8571835,11.090732,-2.767384,1.3126194
23.47696,66.51305,21.825394,7.403574,2.024612,0.24255943,0.16495758,-0.6872478,-0.6568701,-0.20623185,0.6514519,0.08537747,0.028066143,0.6212743,0.36054674,-1.1400288,-2.353074,-0.8550429,1.9075854,1.9077867,-0.7754053,0.41686556,-1.0859499,-2.3380766,-0.9075258,1.8949132,1.9083115,-0.83347356,-1.235166,-1.1679575,-0.51331866,1.2476107,-0.35506785,0.31979576,0.40891477,-0.4723549,-0.46215248,0.6523778,-1.0841067,0.34937692,-0.5397255,-0.43982697,-0.49812126,0.5922608,0.9496079,0.09904565,0.24650107,0.16634868,-1.1344068,0.5954831,-0.5320208,0.0,1.0,0.0,0.0,0.0,0.0,0.0,-0.17764509,0.062152475,-0.10237777,2.16012,-2.8835297,19.691408,-7.4290752,23.239666,-5.395341,1.194185
36.19036,71.01987,27.251186,3.956863,2.384726,0.2989515,0.22410887,-0.68106997,-0.67394936,0.07878576,0.51591676,0.36790782,-0.21696138,0.60328376,0.34875855,-1.1533449,-2.330198,-0.8559341,1.9317039,1.8866154,-0.7731452,0.40463698,-1.0978231,-2.3408644,-0.8961453,1.8937984,1.9109677,-0.8293285,-1.2195865,-1.1940159,-0.19857161,1.1006582,-0.032590594,0.2470576,0.41678846,-0.48290634,-0.4587078,0.64688784,-1.043471,0.34249023,-0.54936063,-0.45087433,-0.49219894,0.5872785,0.9511682,0.101193614,0.24434885,0.15916172,-1.0897274,0.5990295,-0.48900303,0.0,1.0,0.0,0.0,0.0,0.0,0.0,-0.16709363,0.058707803,-0.09688783,1.3120651,-2.654338,32.226883,-14.940548,31.49257,-7.4118705,0.90079904
