Afshin1997/kuka_rl_ros2/src/catch_and_throw/input_files/idealpd/recorded_trajectories/env_14_data.csv
torque0,torque1,torque2,torque3,torque4,torque5,torque6,action0,action1,action2,action3,action4,action5,action6,set_target_0,set_target_1,set_target_2,set_target_3,set_target_4,set_target_5,set_target_6,joint_pos_0,joint_pos_1,joint_pos_2,joint_pos_3,joint_pos_4,joint_pos_5,joint_pos_6,joint_vel_0,joint_vel_1,joint_vel_2,joint_vel_3,joint_vel_4,joint_vel_5,joint_vel_6,tennisball_pos_0,tennisball_pos_1,tennisball_pos_2,tennisball_lin_vel_0,tennisball_lin_vel_1,tennisball_lin_vel_2,end_effector_pos_0,end_effector_pos_1,end_effector_pos_2,end_effector_rot_0,end_effector_rot_1,end_effector_rot_2,end_effector_rot_3,end_effector_lin_vel_0,end_effector_lin_vel_1,end_effector_lin_vel_2,obs_task_0,obs_task_1,obs_task_2,obs_task_3,obs_task_4,obs_task_5,obs_task_6,to_final_target_0,to_final_target_1,to_final_target_2,joint_acc_0,joint_acc_1,joint_acc_2,joint_acc_3,joint_acc_4,joint_acc_5,joint_acc_6
0.0,0.0,0.0,0.0,0.0,0.0,0.0,0.0,0.0,0.0,0.0,0.0,0.0,0.0,1.7802359,-1.0646509,-1.8151424,-1.1170107,1.9373155,1.1170107,-0.91629785,1.7802359,-1.0646509,-1.8151424,-1.1170107,1.9373155,1.1170107,-0.91629785,0.0,0.0,0.0,0.0,0.0,0.0,0.0,3.1454544,-0.6616039,0.23182227,-3.758058,0.03714811,5.162977,0.5304184,-0.45449638,0.693097,0.5745483,0.17512383,0.15255436,0.7848268,0.0,0.0,0.0,1.0,0.0,0.0,0.0,0.0,0.0,0.0,-3.7954545,0.26160392,0.31817776,0.0,0.0,0.0,0.0,0.0,0.0,0.0
0.0,0.0,0.0,0.0,0.0,0.0,0.0,0.0,0.0,0.0,0.0,0.0,0.0,0.0,1.7802359,-1.0646509,-1.8151424,-1.1170107,1.9373155,1.1170107,-0.91629785,1.7802359,-1.0646509,-1.8151424,-1.1170107,1.9373155,1.1170107,-0.91629785,0.0,0.0,0.0,0.0,0.0,0.0,0.0,3.1454544,-0.6616039,0.23182227,-3.758058,0.03714811,5.162977,0.5304184,-0.45449638,0.693097,0.5745483,0.17512383,0.15255436,0.7848268,0.0,0.0,0.0,1.0,0.0,0.0,0.0,0.0,0.0,0.0,-3.7954545,0.26160392,0.31817776,0.0,0.0,0.0,0.0,0.0,0.0,0.0
0.0,0.0,0.0,0.0,0.0,0.0,0.0,0.0,0.0,0.0,0.0,0.0,0.0,0.0,1.7802359,-1.0646509,-1.8151424,-1.1170107,1.9373155,1.1170107,-0.91629785,1.7802359,-1.0646509,-1.8151424,-1.1170107,1.9373155,1.1170107,-0.91629785,0.0,0.0,0.0,0.0,0.0,0.0,0.0,3.1454544,-0.6616039,0.23182227,-3.758058,0.03714811,5.162977,0.5304184,-0.45449638,0.693097,0.5745483,0.17512383,0.15255436,0.7848268,0.0,0.0,0.0,1.0,0.0,0.0,0.0,0.0,0.0,0.0,-3.7954545,0.26160392,0.31817776,0.0,0.0,0.0,0.0,0.0,0.0,0.0
-176.0,46.777508,-14.792543,110.0,10.87829,3.995858,-3.79017,-0.8013446,0.23670757,-0.5528066,0.7453189,0.13905911,0.67834723,-0.5905052,1.7001014,-1.0409801,-1.8704231,-1.0424788,1.9512213,1.1848454,-0.97534835,1.7791449,-1.0630049,-1.8210952,-1.1113039,1.9403939,1.12209,-0.91646093,-0.14503129,0.2188777,-0.7934228,0.7612587,0.41003683,0.6759091,-0.021328673,3.1079025,-0.6612339,0.28267688,-3.7543006,0.03711097,5.059629,0.5283966,-0.45786858,0.69367266,0.578138,0.17359617,0.1515995,0.7827121,-0.2681839,-0.4498176,0.07650503,1.0,0.0,0.0,0.0,0.0,0.0,0.0,-3.7579026,0.2612339,0.26732314,-14.38811,21.71162,-79.29035,76.27852,40.863785,67.189804,-1.9970186
-176.0,-39.903713,-48.29375,109.256195,12.342911,1.0407482,-3.2456374,-0.7950297,-0.21253023,-0.5624911,0.706822,0.30144826,0.65190274,-0.55202836,1.699642,-1.0842578,-1.8773444,-1.0406218,1.9705387,1.1872803,-0.9716638,1.7779661,-1.0613683,-1.8360298,-1.0955969,1.9466634,1.1349093,-0.9148473,-0.10949781,0.13767278,-1.7104222,1.8423182,0.6910432,1.4621347,0.21900772,3.0703888,-0.6608639,0.33249876,-3.750547,0.037073866,4.956384,0.52389526,-0.46653938,0.69411606,0.58610255,0.17004918,0.14889437,0.77807295,-0.51172733,-1.0041234,0.03592839,1.0,0.0,0.0,0.0,0.0,0.0,0.0,-3.720389,0.26086387,0.21750125,3.3757105,-10.396999,-86.82673,108.720184,25.674284,72.10052,23.051634
-150.21967,119.42288,34.169186,89.44861,8.124627,8.165838,-1.8647606,-0.7489931,0.27982113,0.09899273,0.6630701,0.30040267,0.7025561,-0.43970963,1.7030668,-1.0333862,-1.8261305,-1.02929,1.9767036,1.2051649,-0.95881826,1.773646,-1.0591596,-1.8510082,-1.075545,1.9537454,1.1494299,-0.9129819,-0.5394416,0.24515945,-1.4206481,2.0605876,0.7085239,1.4428061,0.17454298,3.0329056,-0.66049385,0.38128898,-3.746797,0.0370368,4.8532424,0.51652527,-0.4779644,0.69621634,0.5968308,0.16482754,0.14500752,0.7717498,-0.8197946,-1.1815733,0.27165166,1.0,0.0,0.0,0.0,0.0,0.0,0.0,-3.6829057,0.26049384,0.16871104,-42.991585,9.7737875,30.91631,22.19367,0.10462999,-3.753233,-4.8148303
-103.41008,97.45215,35.137344,53.91806,5.3599253,7.3034554,-0.3083766,-0.7716948,0.021582775,0.118195765,0.6680024,0.33144447,0.674537,-0.52690625,1.6964765,-1.0570014,-1.8391886,-1.0087447,1.9868898,1.2168837,-0.96567255,1.7649332,-1.0570673,-1.8606327,-1.0559222,1.9604192,1.1629645,-0.911807,-0.98283905,0.19518581,-0.802797,1.9302967,0.6476175,1.3202282,0.09755693,2.9954681,-0.6601238,0.42904854,-3.743051,0.03699977,4.7502036,0.50657654,-0.49020195,0.7000682,0.60848916,0.15845662,0.1398724,0.7648974,-1.0654314,-1.2255822,0.42726406,1.0,0.0,0.0,0.0,0.0,0.0,0.0,-3.6454682,0.26012382,0.12095147,-44.570755,-5.6125345,63.89712,-12.824702,-7.8790665,-13.28392,-7.986556
-46.494274,125.62402,49.033836,30.100203,2.4007165,7.01426,0.38240522,-0.779346,0.19180386,0.1326667,0.675457,0.44407237,0.68965584,-0.5260604,1.6869986,-1.0378869,-1.847366,-0.98837644,2.0048263,1.23193,-0.96441305,1.752566,-1.0548223,-1.8640125,-1.0387255,1.9666677,1.1751295,-0.911437,-1.3223962,0.23273964,-0.17678456,1.6492407,0.61272943,1.1803137,0.015247778,2.9580612,-0.6597538,0.4757785,-3.7393088,0.036962777,4.647268,0.4947586,-0.5018997,0.70550114,0.6199491,0.1511307,0.13369662,0.7582531,-1.2331475,-1.1380353,0.58394444,1.0,0.0,0.0,0.0,0.0,0.0,0.0,-3.6080613,0.2597538,0.07422152,-34.320427,3.254941,64.4769,-28.236914,-4.901862,-14.520836,-8.715877
-13.831484,105.94224,37.795593,13.048732,0.32507864,4.300897,0.332672,-0.798325,0.23065677,-0.033799414,0.6613005,0.46821535,0.67464167,-0.5648555,1.6727334,-1.0317566,-1.8673924,-0.97259545,2.0134892,1.2425936,-0.9679225,1.7378718,-1.0519785,-1.8633621,-1.0242945,1.9727635,1.1860129,-0.91184133,-1.5192397,0.30074012,0.14916173,1.3737773,0.6063382,1.0574902,-0.060257696,2.9207,-0.6593838,0.52147985,-3.7355704,0.036925822,4.544435,0.48190308,-0.51257133,0.71185225,0.6308979,0.14340442,0.1272148,0.75181067,-1.3119135,-1.030085,0.65177226,1.0,0.0,0.0,0.0,0.0,0.0,0.0,-3.5707002,0.25938377,0.028520167,-19.966745,6.5071163,33.61207,-27.736877,-1.3083577,-12.33325,-7.932674
8.496085,125.201416,39.729202,9.318386,-1.3048382,3.2865512,-0.1669321,-0.8115204,0.4578429,-0.16126963,0.6576578,0.44596875,0.6716282,-0.5580683,1.6567197,-1.0061942,-1.8794891,-0.9585287,2.0173604,1.2531757,-0.96764815,1.7221075,-1.0474275,-1.8617065,-1.0119978,1.9788384,1.1958185,-0.91291517,-1.596513,0.50567573,0.17311807,1.1808605,0.6069971,0.95506227,-0.124524675,2.8833694,-0.65901375,0.56615365,-3.7318356,0.036888905,4.441705,0.46871948,-0.5219555,0.7188922,0.6415607,0.13555184,0.12152779,0.74515533,-1.3338695,-0.89511913,0.7198424,1.0,0.0,0.0,0.0,0.0,0.0,0.0,-3.5333695,0.25901374,-0.016153634,-8.019352,20.228464,3.0400217,-19.492413,-0.19882917,-10.142684,-6.876735
18.213043,125.18168,37.142788,8.378559,-1.7383517,2.3862877,-0.42250997,-0.8211203,0.54838735,-0.20567784,0.64062035,0.49312034,0.6511639,-0.560455,1.6399955,-0.9925888,-1.8822743,-0.94793576,2.0281506,1.260935,-0.96896064,1.7061373,-1.0405573,-1.8610866,-1.0009867,1.9851022,1.2047163,-0.91454977,-1.5981457,0.7467357,0.026451634,1.0739756,0.6324492,0.8682845,-0.17785165,2.8460846,-0.6586437,0.60980093,-3.7281044,0.036852024,4.3390784,0.455513,-0.5300617,0.72654146,0.65219176,0.12772143,0.11722038,0.7379651,-1.3243347,-0.7684795,0.77853954,1.0,0.0,0.0,0.0,0.0,0.0,0.0,-3.4960847,0.25864372,-0.059800923,-0.4357338,23.890972,-14.20397,-10.901141,2.4426818,-8.603311,-5.7491302
22.775284,120.285965,35.10527,8.508419,-1.7339506,1.9519967,-0.49500796,-0.8152912,0.6185823,-0.22343944,0.6292641,0.47442466,0.65229946,-0.54725826,1.6246082,-0.978699,-1.8834306,-0.9380603,2.0325446,1.2699462,-0.9692756,1.6904608,-1.0313944,-1.8622844,-0.9905381,1.9915719,1.212855,-0.9166364,-1.5584269,0.9722121,-0.16694425,1.0342942,0.65148914,0.79576176,-0.22029246,2.8088303,-0.6582737,0.6524227,-3.724377,0.03681518,4.2365537,0.44248962,-0.5369892,0.7347459,0.6629118,0.11993694,0.11439823,0.7301206,-1.3013588,-0.6530429,0.83357733,1.0,0.0,0.0,0.0,0.0,0.0,0.0,-3.4588304,0.2582737,-0.102422714,3.7253618,22.36284,-18.924034,-4.220414,1.8442273,-7.273078,-4.6434164
21.768848,109.87058,32.652416,9.293749,-1.2232003,1.816942,-0.37800622,-0.81592023,0.65997404,-0.20603892,0.61485845,0.49287194,0.6562887,-0.5359218,1.6088688,-0.96539694,-1.8828883,-0.9290523,2.040859,1.2784839,-0.9702286,1.6752325,-1.0203909,-1.8650596,-0.98021746,1.9982457,1.2203623,-0.91907877,-1.5116554,1.142592,-0.3129851,1.0303532,0.67254233,0.73529714,-0.25350726,2.771614,-0.6579075,0.69402003,-3.7206533,0.036778376,4.134132,0.4296646,-0.54288864,0.74346226,0.67369694,0.11214206,0.11276305,0.72169316,-1.281764,-0.55472237,0.8839694,1.0,0.0,0.0,0.0,0.0,0.0,0.0,-3.4216142,0.25790748,-0.14402002,4.454446,16.87529,-14.16839,-0.6708622,2.0325303,-6.1727166,-3.6997347
18.830898,95.40012,28.92346,9.262505,-0.6764553,1.6512473,-0.20921175,-0.8112116,0.6813364,-0.20373163,0.60026586,0.5119993,0.66241753,-0.5431414,1.5941113,-0.9522572,-1.8854327,-0.9201909,2.0494456,1.286604,-0.9733929,1.6604182,-1.0081838,-1.8688056,-0.9698577,2.0051465,1.2273489,-0.92181104,-1.4720279,1.2463493,-0.3937444,1.0368927,0.6954233,0.6857242,-0.2809014,2.734436,-0.6575413,0.73459387,-3.7169335,0.036741603,4.031812,0.41697693,-0.54795074,0.75257707,0.68444884,0.104307435,0.111869134,0.71283585,-1.2687517,-0.47440743,0.92074066,1.0,0.0,0.0,0.0,0.0,0.0,0.0,-3.3844361,0.25754127,-0.18459386,3.7598372,10.240674,-7.6205373,0.36888123,2.205956,-5.1184177,-3.0987442
15.351464,83.354034,25.682709,9.2916155,-0.23058245,1.5427864,-0.06660201,-0.80672497,0.69896835,-0.20066291,0.591904,0.52273834,0.67397153,-0.54165745,1.5797457,-0.938287,-1.8888719,-0.9106673,2.0574203,1.294746,-0.97597677,1.6459051,-0.99533784,-1.8729312,-0.95943785,2.0122647,1.233914,-0.9247779,-1.4451653,1.2969346,-0.41716018,1.0427356,0.71684474,0.6462066,-0.30302227,2.6972961,-0.65717506,0.7741453,-3.7132175,0.036704868,3.9295955,0.4043579,-0.55231476,0.76196337,0.6950652,0.09641611,0.11133519,0.7036993,-1.2629303,-0.4080699,0.94488126,1.0,0.0,0.0,0.0,0.0,0.0,0.0,-3.3472962,0.25717506,-0.2241453,2.495432,4.9467564,-1.8657386,0.30486584,2.0538807,-4.1067123,-2.5583148
12.980856,75.94268,23.563343,9.099073,0.007824779,1.4794245,0.037178777,-0.804715,0.71651274,-0.19381788,0.5769065,0.5319276,0.67547226,-0.5453846,1.5654336,-0.92368656,-1.892313,-0.9017472,2.0654576,1.3014612,-0.97931635,1.63156,-0.9822191,-1.8770015,-0.94903994,2.0195737,1.2401396,-0.92793745,-1.4315233,1.3165224,-0.4020674,1.0378863,0.7355199,0.61434036,-0.3213904,2.6601944,-0.65680885,0.8126753,-3.7095048,0.03666817,3.827481,0.3917694,-0.5560665,0.7715212,0.70546323,0.0884594,0.11091693,0.69440186,-1.2613498,-0.34852436,0.9597158,1.0,0.0,0.0,0.0,0.0,0.0,0.0,-3.3101945,0.25680885,-0.2626753,1.1744499,1.8632174,2.0096421,-0.7591963,1.7718077,-3.320396,-2.1767259
10.402337,70.84618,21.656393,9.292627,0.15447932,1.396799,0.077773646,-0.8060757,0.7268918,-0.19312076,0.5671794,0.54018646,0.6819784,-0.5414306,1.5509524,-0.9095299,-1.8963135,-0.892322,2.0735924,1.3083375,-0.9820805,1.6172663,-0.9690231,-1.8808181,-0.93875074,2.0270505,1.2460982,-0.9312524,-1.4292558,1.3203477,-0.37323365,1.0249211,0.7514285,0.58925486,-0.33596388,2.6231232,-0.65644264,0.850185,-3.705796,0.03663151,3.7254686,0.3791504,-0.55926895,0.78116953,0.7156012,0.08044431,0.11049818,0.6850063,-1.26275,-0.29458717,0.9665903,1.0,0.0,0.0,0.0,0.0,0.0,0.0,-3.2731233,0.25644264,-0.30018497,0.03941059,0.29838085,3.3857107,-1.5641451,1.4969707,-2.6194334,-1.7852426
11.353547,71.009834,21.923347,9.013472,0.16798812,1.4387671,0.14681803,-0.80307156,0.73530775,-0.1550889,0.55135334,0.5537212,0.681919,-0.5448572,1.5369592,-0.8954923,-1.896327,-0.88361543,2.0824227,1.31429,-0.98573816,1.602965,-0.9558214,-1.8841827,-0.9286599,2.0346875,1.2518412,-0.93469614,-1.4310584,1.319927,-0.32225922,1.00288,0.76731855,0.56906056,-0.34823743,2.5860977,-0.65607643,0.88667524,-3.702091,0.036594886,3.6235583,0.36654663,-0.5619049,0.7908914,0.72542745,0.07234347,0.110004306,0.67558897,-1.2633387,-0.23737933,0.97399193,1.0,0.0,0.0,0.0,0.0,0.0,0.0,-3.2360978,0.25607643,-0.33667523,-0.37486553,-0.12228489,5.6306305,-2.4670124,1.4862299,-2.1159768,-1.5598118
11.001417,69.74508,21.098257,9.11499,0.15965998,1.3542802,0.14437205,-0.80236197,0.73928756,-0.14997941,0.54423314,0.55983245,0.6847463,-0.540228,1.5227288,-0.8818926,-1.8991807,-0.8742366,2.0906708,1.3203158,-0.9887189,1.5886351,-0.94262445,-1.88708,-0.9187951,2.0424657,1.2574145,-0.9382419,-1.434162,1.3193623,-0.2771715,0.9802629,0.78109205,0.5530933,-0.35778344,2.5491028,-0.6557102,0.9221472,-3.6983898,0.0365583,3.5217497,0.3539276,-0.5639801,0.8006655,0.734929,0.0641483,0.10943426,0.6661745,-1.2624184,-0.18148269,0.97807485,1.0,0.0,0.0,0.0,0.0,0.0,0.0,-3.1991029,0.2557102,-0.3721472,-0.49920082,-0.12960434,5.02218,-2.517891,1.2890458,-1.6725898,-1.2766004
12.051083,69.53899,20.646378,8.57443,0.03836435,1.2571316,0.15390533,-0.8015733,0.7465578,-0.14032683,0.52251774,0.5651321,0.684704,-0.5341221,1.5084778,-0.8679687,-1.9011127,-0.86654335,2.098979,1.3258848,-0.9916541,1.5742804,-0.9294008,-1.8895996,-0.9092059,2.050366,1.2628523,-0.9418649,-1.436495,1.3232167,-0.24202648,0.95101166,0.7926278,0.5404459,-0.36487672,2.512146,-0.655344,0.95660186,-3.6946921,0.036521748,3.420043,0.34134674,-0.5654793,0.8104589,0.744097,0.05587558,0.10883489,0.65677434,-1.2567081,-0.12388449,0.97888154,1.0,0.0,0.0,0.0,0.0,0.0,0.0,-3.162146,0.255344,-0.40660185,-0.4210949,0.31974316,4.012811,-3.1818867,1.0785818,-1.309824,-1.0256946
11.707185,68.728806,19.842709,8.833154,-0.022025049,1.1560818,0.11937775,-0.8014147,0.75066876,-0.13690004,0.5166794,0.55273366,0.69240934,-0.52228665,1.494139,-0.85433394,-1.9032896,-0.857538,2.1056392,1.3320932,-0.9940936,1.5599104,-0.916118,-1.8918769,-0.8998771,2.0583158,1.2681872,-0.9455394,-1.4376549,1.3298706,-0.22140782,0.92607725,0.79542625,0.5311229,-0.3692531,2.4752274,-0.6549778,0.9900402,-3.690998,0.036485232,3.3184378,0.32884216,-0.5664158,0.8202431,0.75294936,0.047537163,0.108286224,0.6473651,-1.2484621,-0.067703225,0.9771815,1.0,0.0,0.0,0.0,0.0,0.0,0.0,-3.1252275,0.2549778,-0.44004017,-0.2965212,0.6059408,2.5290847,-2.7448297,0.22257566,-0.9595752,-0.7415831
14.805784,67.98407,19.617199,6.956253,-0.20151526,1.0153291,0.19893005,-0.7994944,0.75458527,-0.11747121,0.46886998,0.5839143,0.6895109,-0.520985,1.4799609,-0.8406595,-1.903624,-0.8529901,2.116707,1.3371383,-0.9976379,1.5455462,-0.9027561,-1.893956,-0.8909497,2.066361,1.2734438,-0.94924825,-1.4367895,1.3381702,-0.20187901,0.8807926,0.807343,0.5239213,-0.37242538,2.4383392,-0.6546116,1.0224632,-3.6873078,0.036448754,3.2169342,0.31649017,-0.56676674,0.829972,0.76144063,0.039173108,0.10780184,0.6380065,-1.2315092,-0.008619535,0.9700144,1.0,0.0,0.0,0.0,0.0,0.0,0.0,-3.0883393,0.25461158,-0.4724632,-0.09818077,0.78372955,2.418536,-4.791498,1.1407495,-0.6957531,-0.62021613
16.31749,68.144714,19.72551,6.447779,-0.25118458,0.9628486,0.24493262,-0.79971933,0.7576658,-0.08929281,0.4441431,0.589922,0.6846561,-0.51155794,1.4655743,-0.82698953,-1.9028852,-0.84653544,2.125353,1.3419094,-1.000404,1.5311934,-0.88931215,-1.8957717,-0.88252306,2.074532,1.2786375,-0.9529771,-1.4355245,1.3463988,-0.17320918,0.829213,0.8203231,0.51789033,-0.37393755,2.401497,-0.6542473,1.053872,-3.6836214,0.036412314,3.1155322,0.30431366,-0.56651115,0.83962786,0.76953137,0.030793887,0.10736147,0.62876594,-1.2104518,0.05170733,0.9624415,1.0,0.0,0.0,0.0,0.0,0.0,0.0,-3.051497,0.25424728,-0.503872,-0.057673454,0.78394413,3.3333898,-5.4164767,1.2520671,-0.55726767,-0.4518807
19.398535,70.164345,20.717062,5.3777633,-0.37204605,0.97453886,0.33622903,-0.8002855,0.7656971,-0.042077165,0.39691064,0.5990833,0.68495524,-0.50449365,1.4511648,-0.8127424,-1.8999795,-0.84283197,2.1344404,1.347133,-1.0034264,1.5168482,-0.875769,-1.8971298,-0.8747277,2.0828404,1.2837816,-0.9567117,-1.4348574,1.3569521,-0.12180385,0.76225024,0.83427143,0.5133066,-0.37429693,2.364685,-0.6538849,1.0842675,-3.6799386,0.03637591,3.0142314,0.29238892,-0.56560516,0.8492223,0.77715987,0.02237769,0.1069275,0.6197486,-1.1830351,0.118001916,0.9564366,1.0,0.0,0.0,0.0,0.0,0.0,0.0,-3.0146852,0.25388488,-0.5342675,-0.121855736,1.0239124,5.623871,-6.9465876,1.3465405,-0.38022995,-0.33677816
20.23812,68.274574,20.127094,4.6655293,-0.399777,0.8462653,0.3805399,-0.80172735,0.7639026,-0.014489616,0.35643262,0.6117938,0.6757591,-0.49566367,1.4366754,-0.79937875,-1.8985788,-0.83908445,2.1440198,1.3513576,-1.006278,1.5024992,-0.86214864,-1.8979156,-0.8676591,2.0913014,1.2888819,-0.9604415,-1.4353827,1.363661,-0.06272348,0.68761796,0.8499936,0.5090889,-0.3733719,2.327919,-0.6535225,1.1136507,-3.6762593,0.03633954,2.913032,0.2807846,-0.5640545,0.8587306,0.78429204,0.013938172,0.10646661,0.6110291,-1.1516106,0.18197258,0.9465397,1.0,0.0,0.0,0.0,0.0,0.0,0.0,-2.977919,0.2535225,-0.56365067,-0.23021698,0.6542444,6.356205,-7.703328,1.5458822,-0.30305386,-0.19191504
19.225124,65.36536,18.841713,4.865894,-0.36387205,0.68113035,0.35587528,-0.8007055,0.7647218,-0.0046650637,0.32963866,0.6193561,0.68507236,-0.4826631,1.4224287,-0.7856765,-1.8983821,-0.8346952,2.153237,1.3573891,-1.0087079,1.4881483,-0.8484825,-1.8981884,-0.8612952,2.099915,1.2939516,-0.9641494,-1.4353415,1.3675478,-0.014182881,0.6184701,0.86521775,0.50674295,-0.37085876,2.2911835,-0.6531601,1.1420227,-3.6725838,0.036303207,2.811934,0.26947784,-0.5619068,0.8681129,0.79094803,0.0055049127,0.10598233,0.6026099,-1.1193103,0.23936714,0.9326112,1.0,0.0,0.0,0.0,0.0,0.0,0.0,-2.9411836,0.2531601,-0.5920227,-0.15420914,0.38564205,5.2368,-7.1419,1.5289783,-0.09120703,-0.007504225
22.810034,64.755844,19.054491,2.5833921,-0.56794024,0.5599225,0.47137257,-0.802972,0.76638734,0.059487984,0.24542062,0.63539815,0.6754702,-0.48609355,1.4078511,-0.77184373,-1.8922396,-0.8367532,2.1634548,1.3614986,-1.0127587,1.4737898,-0.83478963,-1.897826,-0.85582685,2.1086965,1.2989985,-0.96783537,-1.4365252,1.3699212,0.054291535,0.5222146,0.8826771,0.50472015,-0.3686852,2.254486,-0.6527977,1.1693845,-3.6689122,0.03626691,2.710937,0.25858307,-0.5591564,0.8773229,0.7970749,-0.0028841754,0.1054536,0.5945945,-1.0769839,0.29970753,0.9139435,1.0,0.0,0.0,0.0,0.0,0.0,0.0,-2.9044862,0.2527977,-0.61938447,-0.27093887,0.24917126,7.21713,-9.843636,1.7622113,0.007998943,-0.029921532
29.217367,66.66959,20.240326,-0.7589569,-0.95295554,0.44452414,0.6336247,-0.79665715,0.7776816,0.12089113,0.14900367,0.65020734,0.6705377,-0.46139234,1.3941242,-0.7570215,-1.8857368,-0.84092647,2.1737173,1.3660523,-1.0139745,1.4594504,-0.821031,-1.8966262,-0.8515868,2.1176648,1.3040301,-0.9714832,-1.4335608,1.3779148,0.14293917,0.39056316,0.90202826,0.5035069,-0.3642853,2.2178268,-0.6524353,1.195737,-3.6652439,0.036230654,2.610041,0.24821472,-0.55573845,0.8863217,0.8025632,-0.011189111,0.10487333,0.58717,-1.01796,0.36777088,0.8916759,1.0,0.0,0.0,0.0,0.0,0.0,0.0,-2.867827,0.2524353,-0.645737,0.157094,0.82747936,9.210387,-13.36404,1.9763231,0.17635822,0.20495057
34.744053,62.903957,19.281273,-5.8175597,-1.4745084,0.07040241,0.7953912,-0.800253,0.780549,0.15544908,0.007207634,0.66459894,0.6693087,-0.44630694,1.379425,-0.74297607,-1.8810813,-0.8508661,2.1841247,1.370961,-1.0161139,1.4451262,-0.8071846,-1.8945472,-0.849092,2.1268353,1.3090578,-0.9750766,-1.4323272,1.3870353,0.23022676,0.20178838,0.9227633,0.50382394,-0.35834956,2.1811981,-0.6520729,1.2210814,-3.6615794,0.03619443,2.5092456,0.23860168,-0.5516319,0.8949734,0.8073037,-0.019258602,0.10429758,0.5805271,-0.93741816,0.4355352,0.85240436,1.0,0.0,0.0,0.0,0.0,0.0,0.0,-2.8311982,0.2520729,-0.67108136,0.008821487,0.9669781,9.002418,-19.061455,2.1485329,0.46241283,0.39992332
40.208923,59.926373,18.816093,-10.136349,-1.9060684,-0.26142928,0.94834816,-0.79418975,0.7806744,0.21738897,-0.12863263,0.66898584,0.6621148,-0.41578275,1.3657072,-0.72911716,-1.8728083,-0.8619553,2.193734,1.3752693,-1.0166548,1.4308401,-0.7932619,-1.8915317,-0.8487973,2.1361928,1.3140894,-0.97858995,-1.4274828,1.3941929,0.32579362,-0.028490044,0.9405398,0.50471944,-0.34949023,2.1446152,-0.6517105,1.2454185,-3.6579187,0.03615824,2.4085512,0.22993469,-0.5468521,0.903144,0.8112013,-0.02694293,0.10377577,0.57485396,-0.8376035,0.5018562,0.800973,1.0,0.0,0.0,0.0,0.0,0.0,0.0,-2.7946153,0.2517105,-0.69541854,0.41840076,0.79689026,9.718484,-23.172405,1.9059062,0.62794685,0.74294806
37.737476,61.05529,19.03075,-7.35131,-1.6453028,-0.25056234,0.8737776,-0.7851471,0.78650546,0.2745505,-0.16567384,0.6660138,0.6611487,-0.36168605,1.3523254,-0.71461135,-1.8640766,-0.86536473,2.202794,1.3802043,-1.0147586,1.4166437,-0.7792629,-1.8875301,-0.8505187,2.14568,1.3191267,-0.98197836,-1.4170164,1.4020894,0.42478487,-0.22029108,0.95236826,0.5052324,-0.33565775,2.1080627,-0.6513481,1.2687496,-3.6542614,0.03612209,2.3079574,0.22219849,-0.54143715,0.91087794,0.8142951,-0.034284677,0.10330485,0.57015437,-0.74530256,0.56235516,0.75947154,1.0,0.0,0.0,0.0,0.0,0.0,0.0,-2.7580628,0.2513481,-0.7187496,1.030612,0.88727474,9.909183,-19.271439,1.4026523,0.55463314,1.2848794
23.510895,60.694397,17.712921,3.1762872,-0.5299007,0.005546853,0.5081304,-0.7873469,0.78273314,0.29967517,-0.09869549,0.66288334,0.6605817,-0.29862878,1.3379091,-0.7009896,-1.8575625,-0.8603883,2.2119682,1.3851849,-1.0118412,1.4025332,-0.7652229,-1.882674,-0.85326624,2.1552396,1.3241602,-0.98519033,-1.4092317,1.4050368,0.50551635,-0.293217,0.9585564,0.50396407,-0.31662655,2.0715485,-0.6509857,1.2910755,-3.6506078,0.03608598,2.2074642,0.21508026,-0.53554726,0.9183833,0.8168342,-0.04151015,0.10281975,0.56611556,-0.69432837,0.6051453,0.7426008,1.0,0.0,0.0,0.0,0.0,0.0,0.0,-2.7215486,0.2509857,-0.74107546,0.76487064,0.40023327,7.9657793,-7.3841095,0.92430115,0.20852089,1.8173933
9.835496,64.87558,18.115442,15.105388,0.6593275,0.51634854,0.14539589,-0.7848239,0.78567475,0.3548346,0.00044764997,0.6498511,0.66448915,-0.22476305,1.3240508,-0.6866554,-1.8471905,-0.8532215,2.2202246,1.3906091,-1.0076666,1.3884856,-0.7511591,-1.8770149,-0.85575056,2.164803,1.3291746,-0.98817056,-1.4032506,1.4071873,0.58559567,-0.23374677,0.95667505,0.50119245,-0.29220888,2.0350723,-0.6506233,1.3123971,-3.646958,0.0360499,2.1070714,0.20812225,-0.5292778,0.9259801,0.8190978,-0.048981838,0.102211505,0.56234545,-0.6891216,0.6404504,0.7600918,1.0,0.0,0.0,0.0,0.0,0.0,0.0,-2.6850724,0.25062332,-0.7623971,0.5600691,0.32391548,7.8399897,5.8419347,0.19557476,-0.12331009,2.337426
-4.390382,65.67157,17.0636,25.899488,1.7212505,0.9043124,-0.23993146,-0.793324,0.788053,0.3636825,0.12532052,0.6409118,0.66410005,-0.18699583,1.3091532,-0.67235374,-1.8406466,-0.8432185,2.2288942,1.3955846,-1.0068702,1.3744341,-0.7370733,-1.8707378,-0.85678625,2.1743054,1.3341528,-0.9908981,-1.4059924,1.4093353,0.6412921,-0.060564924,0.94938654,0.49658993,-0.26667112,1.9986267,-0.65026474,1.3327155,-3.6433117,0.036013857,2.006779,0.20087433,-0.52272415,0.93394035,0.8213639,-0.05701391,0.10142227,0.55841225,-0.72708005,0.6664477,0.8023432,1.0,0.0,0.0,0.0,0.0,0.0,0.0,-2.6486268,0.25026473,-0.7827155,-0.35283566,0.31802654,5.401945,17.188354,-0.32508373,-0.48995018,2.4325132
-18.101856,62.734604,14.792128,35.231354,2.6768517,1.1716272,-0.6219863,-0.8051819,0.7816727,0.3492172,0.29954246,0.63146085,0.66623944,-0.18602261,1.2939159,-0.65890604,-1.835816,-0.826832,2.2374516,1.4007767,-1.0095004,1.3602816,-0.72300375,-1.8641803,-0.85534334,2.1837049,1.3390795,-0.99339384,-1.4186438,1.4065269,0.659948,0.21211764,0.93810934,0.49056208,-0.2443289,1.9622269,-0.64990616,1.3520318,-3.6396692,0.035977848,1.9065866,0.19297028,-0.51599884,0.9424441,0.823904,-0.065833315,0.10042637,0.5538616,-0.80502355,0.6811602,0.8605204,1.0,0.0,0.0,0.0,0.0,0.0,0.0,-2.612227,0.24990615,-0.8020318,-1.3730049,-0.19123554,1.708746,27.121649,-0.7343173,-0.8213103,2.104929
-20.488976,58.982533,13.152854,35.716385,2.665244,1.1134903,-0.71714,-0.8124167,0.78052497,0.33787322,0.38872847,0.6142966,0.6620247,-0.21546103,1.2790399,-0.6449512,-1.830393,-0.8164705,2.2451346,1.405282,-1.0149399,1.3459707,-0.70897424,-1.8576496,-0.8511348,2.1929479,1.3439432,-0.9957141,-1.4356185,1.4019943,0.6502732,0.4900614,0.92122924,0.4839565,-0.22830349,1.9258575,-0.6495476,1.3703469,-3.6360304,0.035941876,1.8064945,0.18422699,-0.5091438,0.95148265,0.82681865,-0.07545766,0.09928632,0.5484699,-0.886585,0.695208,0.9121851,1.0,0.0,0.0,0.0,0.0,0.0,0.0,-2.5758576,0.24954757,-0.8203469,-1.798296,-0.3878355,-1.0855794,27.671349,-1.3401031,-0.9430647,1.4817506
-12.693934,52.33256,11.422567,27.366716,1.788982,0.646481,-0.5232694,-0.81529796,0.7741648,0.3182573,0.3883757,0.60541815,0.66652364,-0.24900557,1.264441,-0.63155776,-1.8258238,-0.8122972,2.2534897,1.4105957,-1.0206147,1.3315035,-0.69501626,-1.8513782,-0.84479856,2.2020154,1.3487536,-0.99792284,-1.4507217,1.3938549,0.61930144,0.68109643,0.9028025,0.47968805,-0.21867894,1.8895187,-0.649189,1.3876618,-3.632395,0.035905942,1.7065023,0.17493439,-0.50214386,0.9608122,0.83000463,-0.08563542,0.098137274,0.5423355,-0.9366781,0.71104324,0.9334375,1.0,0.0,0.0,0.0,0.0,0.0,0.0,-2.5395188,0.24918899,-0.8376618,-1.5972614,-0.76856613,-3.1381845,18.988169,-1.5838623,-0.5903721,0.8523911
-2.6903248,47.22423,10.301018,17.611557,0.7589653,0.12576336,-0.2678107,-0.8183593,0.7727471,0.29074654,0.377151,0.6014941,0.67265636,-0.28292817,1.2496675,-0.6177416,-1.8223035,-0.8070835,2.2621648,1.4160192,-1.0262157,1.3169123,-0.6811365,-1.8455341,-0.8373313,2.210915,1.3535429,-1.0000782,-1.4622357,1.3861083,0.57302606,0.768161,0.8863957,0.47868204,-0.21485725,1.8532257,-0.6488304,1.4039775,-3.6287634,0.035870045,1.6066102,0.16543579,-0.49498177,0.97012573,0.83328587,-0.09602513,0.09713502,0.53570366,-0.947782,0.7285538,0.9239467,1.0,0.0,0.0,0.0,0.0,0.0,0.0,-2.5032258,0.24883041,-0.8539775,-1.2417078,-0.74157715,-4.573667,8.576441,-1.4621615,-0.08587837,0.27035773
7.8097134,45.34212,10.366205,8.578381,-0.20482886,-0.31437257,0.01877343,-0.81905085,0.77410144,0.27953517,0.34068373,0.59813595,0.6723279,-0.28372505,1.2350072,-0.6037263,-1.8175806,-0.80326295,2.2707286,1.4207757,-1.0284507,1.3022448,-0.66730917,-1.8401306,-0.82972383,2.2196736,1.3583361,-1.0022087,-1.4687619,1.3816359,0.529844,0.7578576,0.87278116,0.4801193,-0.21275721,1.8169632,-0.64847183,1.4192952,-3.6251354,0.035834182,1.5068178,0.15609741,-0.4876232,0.9791705,0.83647203,-0.10632274,0.096398264,0.52888316,-0.92052203,0.74914503,0.89130706,1.0,0.0,0.0,0.0,0.0,0.0,0.0,-2.4669633,0.24847183,-0.8692952,-0.748086,-0.42161942,-4.163134,-1.1706591,-1.2618423,0.3318429,0.087341666
14.140671,44.688923,10.462593,3.1377401,-0.79082674,-0.6201463,0.19897252,-0.82331204,0.77722967,0.25930497,0.30584922,0.5973557,0.67391276,-0.27275947,1.2199136,-0.5895862,-1.8142,-0.7991389,2.2794092,1.4257274,-1.0294846,1.2875239,-0.6534914,-1.835141,-0.82267904,2.2283254,1.3631521,-1.0043144,-1.4736171,1.3818642,0.4894595,0.68619186,0.86313164,0.48306608,-0.21030639,1.7807388,-0.64811325,1.4336156,-3.621511,0.035798356,1.4071254,0.14720917,-0.48005676,0.9877945,0.8394358,-0.11632102,0.09600425,0.5221112,-0.8689998,0.76966345,0.8462525,1.0,0.0,0.0,0.0,0.0,0.0,0.0,-2.430739,0.24811324,-0.88361555,-0.5814791,0.04951954,-3.8354397,-7.307267,-0.90857744,0.5882561,0.12343228
15.304063,44.214264,10.380666,2.4199495,-0.86258197,-0.74337536,0.23732871,-0.82074815,0.7743203,0.23699404,0.30826,0.58544225,0.6701663,-0.22224483,1.2054491,-0.57605934,-1.8114415,-0.7918531,2.2868695,1.4301687,-1.0265388,1.2727858,-0.6396707,-1.8305442,-0.81637526,2.236878,1.3679949,-1.0063591,-1.474021,1.3821791,0.45032606,0.61123526,0.85271305,0.485679,-0.20311381,1.7445526,-0.64775467,1.4469398,-3.6178904,0.035762563,1.3075325,0.13886261,-0.47229767,0.9959706,0.84214115,-0.12596297,0.09596978,0.51548165,-0.8130059,0.7873853,0.8016451,1.0,0.0,0.0,0.0,0.0,0.0,0.0,-2.3945527,0.24775466,-0.8969398,-0.1185894,0.06535053,-3.7337542,-7.625699,-0.98177195,0.56357384,0.60472786
15.042095,44.09612,10.589994,3.1008425,-0.7435618,-0.7524655,0.27495998,-0.8228136,0.76694024,0.24519065,0.2911307,0.57071483,0.6697168,-0.13977747,1.1905044,-0.5629767,-1.8060251,-0.7872622,2.2939494,1.4349666,-1.0203369,1.2580496,-0.62587965,-1.8261917,-0.8107543,2.2453046,1.3728606,-1.0082741,-1.4737085,1.3782662,0.43062776,0.545406,0.83946663,0.48772535,-0.18803993,1.7083969,-0.6473961,1.4592689,-3.614273,0.035726808,1.2080393,0.131073,-0.46437073,1.0037324,0.8445689,-0.13528422,0.096252404,0.50905484,-0.7596637,0.80400926,0.7615951,1.0,0.0,0.0,0.0,0.0,0.0,0.0,-2.358397,0.24739608,-0.9092689,-0.03323555,-0.35207272,-1.8084347,-6.6993356,-1.2580276,0.4859984,1.3948232
12.587346,44.78283,10.660536,5.5770783,-0.510988,-0.6854075,0.25215334,-0.82727593,0.7686321,0.231684,0.2909222,0.5498368,0.6687185,0.011089982,1.175322,-0.5490164,-1.8030232,-0.7816621,2.3002882,1.4397324,-1.0071651,1.2433001,-0.61212003,-1.8219974,-0.8055968,2.2535596,1.3777395,-1.0099316,-1.4756051,1.3753304,0.41601434,0.50545245,0.820924,0.4887921,-0.15875368,1.672287,-0.6470375,1.4706038,-3.6106596,0.03569109,1.1086454,0.12374115,-0.45626068,1.0111548,0.84672487,-0.14436187,0.09683447,0.50283176,-0.71521944,0.8207706,0.7297068,1.0,0.0,0.0,0.0,0.0,0.0,0.0,-2.322287,0.2470375,-0.9206038,-0.25634766,-0.252223,-1.3230145,-4.104984,-1.7603636,0.33676028,2.818212
12.048323,43.073483,10.410591,6.144369,-0.42213422,-0.71146286,0.30843097,-0.82159895,0.7531512,0.24272977,0.2755629,0.49893028,0.6718323,0.2232934,1.1611402,-0.5368049,-1.7977245,-0.7780405,2.3034527,1.4449228,-0.98760223,1.2285582,-0.59845483,-1.8178356,-0.8007312,2.2615018,1.38263,-1.0111523,-1.4738286,1.3638024,0.4165775,0.47987384,0.78568393,0.4897722,-0.11010984,1.6362076,-0.64668083,1.4809455,-3.6070497,0.035655405,1.009351,0.11682129,-0.44799805,1.0182748,0.8485837,-0.15325138,0.09771969,0.49686065,-0.6732625,0.8358512,0.70018697,1.0,0.0,0.0,0.0,0.0,0.0,0.0,-2.2862077,0.24668083,-0.93094546,0.13010502,-1.1064291,0.16703606,-2.6601553,-3.4168005,0.31989217,4.753171
5.5169578,37.067688,8.004665,10.2464695,-0.014343917,-0.734243,0.10675472,-0.81823653,0.73493695,0.18317094,0.3406348,0.4245094,0.6763798,0.33126095,1.1467345,-0.5249611,-1.7995185,-0.7666677,2.3039527,1.450268,-0.97802615,1.2138544,-0.5849813,-1.8139102,-0.7956958,2.26891,1.38753,-1.0118313,-1.4694518,1.3420748,0.38466495,0.51090574,0.726014,0.4904492,-0.05424722,1.6001587,-0.64632607,1.4902949,-3.6034434,0.035619758,0.9101559,0.110183716,-0.43964958,1.0251378,0.8502409,-0.1620213,0.098978385,0.49096113,-0.6498108,0.8415181,0.67574596,1.0,0.0,0.0,0.0,0.0,0.0,0.0,-2.2501588,0.24632606,-0.9402949,0.3932476,-2.1180868,-3.1600773,2.9726684,-5.8072925,0.23214221,5.4823866
0.919817,27.737625,4.4177294,10.990465,0.09160292,-1.015742,-0.058936328,-0.8177879,0.71662784,0.08992534,0.34880024,0.37001055,0.6623806,0.3977729,1.1320757,-0.51331854,-1.8049177,-0.76081574,2.305911,1.453768,-0.972054,1.1991946,-0.57178533,-1.8107364,-0.79023695,2.2756238,1.3924242,-1.0119476,-1.4650202,1.312305,0.29489398,0.5568821,0.65365,0.4896908,0.0023065028,1.5641556,-0.6459713,1.4986532,-3.5998406,0.035584144,0.81105995,0.10374451,-0.43136215,1.0317048,0.8518438,-0.17059454,0.10074929,0.48488057,-0.6329428,0.8306834,0.644588,1.0,0.0,0.0,0.0,0.0,0.0,0.0,-2.2141557,0.24597129,-0.94865316,0.4029274,-2.9125214,-9.0181055,4.4300675,-7.0437074,0.10097027,5.569265
4.0148425,22.335888,3.314721,6.7907467,-0.30290306,-1.3044115,0.060326383,-0.81054145,0.6823989,0.10136744,0.29392713,0.2597889,0.6629113,0.47651768,1.1181405,-0.50354546,-1.8005997,-0.76084423,2.3016026,1.4587153,-0.96429586,1.1846052,-0.5589975,-1.8083446,-0.78462076,2.2813916,1.3973147,-1.0114956,-1.4570107,1.2678903,0.2205607,0.5627432,0.5518039,0.48969835,0.059169393,1.528183,-0.64561653,1.5060213,-3.5962415,0.035548568,0.7120631,0.097587585,-0.42324257,1.0378674,0.8533884,-0.17882694,0.10313672,0.4786562,-0.6003503,0.8121042,0.6014774,1.0,0.0,0.0,0.0,0.0,0.0,0.0,-2.178183,0.24561653,-0.95602125,0.7992506,-4.3728113,-7.475072,0.43116808,-10.028887,0.2618432,5.602539
4.751969,19.499609,2.5810776,5.1646457,-0.3343869,-1.4954275,0.09392987,-0.8084255,0.663577,0.05413153,0.28031415,0.25665474,0.65690976,0.48671496,1.1037627,-0.4926398,-1.8029314,-0.75658935,2.3070571,1.4630057,-0.9628241,1.1700941,-0.5466684,-1.8067195,-0.77911997,2.2862744,1.4022032,-1.0105267,-1.4490981,1.221448,0.14298545,0.545336,0.46797854,0.48940772,0.109187074,1.4922485,-0.64526176,1.5124002,-3.5926461,0.03551303,0.6131652,0.091781616,-0.4153633,1.0435659,0.85486436,-0.18660918,0.106113575,0.47235975,-0.5642768,0.78584296,0.5543163,1.0,0.0,0.0,0.0,0.0,0.0,0.0,-2.1422486,0.24526176,-0.96240014,0.8012295,-4.573107,-7.8027782,-1.8894196,-8.246004,0.25333762,4.921305
2.7928596,18.374683,2.006774,6.597079,-0.18261474,-1.5294474,0.0137597695,-0.804062,0.6443588,-0.013410002,0.30794555,0.20447707,0.6572643,0.51096,1.089688,-0.4822325,-1.8080605,-0.7483254,2.3067222,1.4679296,-0.95943063,1.155665,-0.53478754,-1.8059833,-0.773705,2.2903638,1.4070879,-1.009098,-1.4409485,1.1772557,0.050419196,0.5396848,0.3898549,0.48892277,0.15364899,1.4563522,-0.644907,1.5177908,-3.589054,0.035477523,0.51436615,0.08629608,-0.40776253,1.0488193,0.856318,-0.19392416,0.109656475,0.46592745,-0.53455323,0.75669485,0.51111305,1.0,0.0,0.0,0.0,0.0,0.0,0.0,-2.1063523,0.24490699,-0.9677908,0.8229017,-4.3503284,-9.317978,-0.71439743,-7.669592,0.20443797,4.3657837
3.1367722,16.531557,1.5837431,5.7251587,-0.18455702,-1.6510726,0.034433894,-0.79910654,0.61592436,-0.055308364,0.27875087,0.1672686,0.65641576,0.5314003,1.0757544,-0.4731951,-1.8115141,-0.74582994,2.3070908,1.4727294,-0.955958,1.1413199,-0.5233606,-1.8061664,-0.7684531,2.2937436,1.4119669,-1.0072651,-1.4323226,1.1313535,-0.041524697,0.5199105,0.32151115,0.48843822,0.19290765,1.4204865,-0.64455223,1.5221941,-3.585466,0.03544205,0.41566592,0.08111572,-0.400486,1.0536264,0.8577661,-0.20073263,0.11372957,0.45935735,-0.50341624,0.7227867,0.4664698,1.0,0.0,0.0,0.0,0.0,0.0,0.0,-2.0704865,0.24455222,-0.97219414,0.8821726,-4.5203924,-9.259966,-2.118063,-6.7055407,0.20923615,3.8456678
0.7885823,14.703382,0.7277529,7.1054373,-0.019509494,-1.7051251,-0.052809455,-0.8001761,0.59494835,-0.13506508,0.28643963,0.13402276,0.6456997,0.53570753,1.0613023,-0.4638658,-1.819673,-0.73980916,2.3071458,1.4765369,-0.95369434,1.1270338,-0.5123743,-1.80741,-0.7633405,2.296513,1.4168326,-1.005085,-1.4273098,1.0879931,-0.1523021,0.50789124,0.26215625,0.48667952,0.22614641,1.3846588,-0.64419746,1.5256113,-3.581881,0.035406616,0.3170644,0.07619476,-0.39357567,1.0580047,0.85926086,-0.20700806,0.11831218,0.4525711,-0.47945014,0.68482375,0.42465565,1.0,0.0,0.0,0.0,0.0,0.0,0.0,-2.034659,0.24419746,-0.97561127,0.51341057,-4.2695284,-11.154206,-1.3480186,-5.8014097,0.054979324,3.2436042
1.6331425,15.010305,0.9469569,6.4720893,-0.15146631,-1.749856,-0.029656142,-0.7946988,0.5696249,-0.17002024,0.26041523,0.04779647,0.64546406,0.5509406,1.0475639,-0.4554118,-1.824412,-0.73729897,2.3012927,1.481379,-0.9499909,1.1128012,-0.5018209,-1.8096836,-0.75842714,2.298573,1.421681,-1.0026035,-1.4217347,1.0446675,-0.2525917,0.485451,0.18797708,0.48499048,0.25518888,1.3488693,-0.6438427,1.528043,-3.5783,0.035371218,0.21856147,0.07156372,-0.3870411,1.0619637,0.860811,-0.21272933,0.12344074,0.44554785,-0.4511338,0.64741033,0.38313454,1.0,0.0,0.0,0.0,0.0,0.0,0.0,-1.9988693,0.24384269,-0.978043,0.5773306,-4.268384,-10.09143,-2.3763597,-7.305813,0.06196499,2.8184474
1.7127943,12.1654825,0.3476627,5.5813594,-0.35851002,-1.8318648,-0.024591759,-0.7937793,0.527654,-0.19671352,0.23999824,-0.12275037,0.63946116,0.5592259,1.0334233,-0.44905552,-1.8293549,-0.73442733,2.286298,1.4856272,-0.94668096,1.0986143,-0.49178174,-1.8128078,-0.7537961,2.2995114,1.4265105,-0.99986255,-1.4174491,0.9905405,-0.33246395,0.45530674,0.0625238,0.48310104,0.2801169,1.3131104,-0.64348793,1.5294906,-3.5747223,0.035335854,0.12015702,0.067237854,-0.3808899,1.0654833,0.86241585,-0.21786226,0.12922874,0.43826324,-0.41780412,0.6070945,0.33874315,1.0,0.0,0.0,0.0,0.0,0.0,0.0,-1.9631103,0.24348792,-0.9794906,0.4688263,-5.347252,-8.052969,-3.1283915,-12.449903,0.061923265,2.3993075
5.5536623,14.62701,2.1212947,3.477322,-0.5822486,-1.7897779,0.15479514,-0.7885113,0.48680767,-0.13130505,0.1885013,-0.25563037,0.64587,0.5646708,1.0197632,-0.443101,-1.8259383,-0.73494595,2.2739484,1.4910975,-0.9433955,1.0844828,-0.48236182,-1.8161514,-0.74965334,2.2989392,1.4313284,-0.9968995,-1.4116127,0.9260476,-0.33489028,0.40036204,-0.09674118,0.4821593,0.30130687,1.2773895,-0.64313316,1.5299548,-3.5711484,0.035300523,0.021850938,0.06333923,-0.3751068,1.0685539,0.86397487,-0.22242674,0.13567284,0.43089047,-0.37358645,0.5721059,0.29405233,1.0,0.0,0.0,0.0,0.0,0.0,0.0,-1.9273895,0.24313316,-0.9799548,0.63655376,-6.38268,-0.2580881,-5.5674734,-15.88669,0.16185045,2.0198941
5.5740833,23.119186,4.9651823,7.128533,-0.31345546,-1.4283593,0.16371953,-0.7900989,0.46952435,-0.08644668,0.22077155,-0.35129336,0.65560764,0.5513409,1.0054729,-0.4354094,-1.8247961,-0.7275762,2.26381,1.4968892,-0.9417654,1.0703875,-0.47353414,-1.8190792,-0.7458339,2.296723,1.4361426,-0.9937619,-1.4088812,0.8685421,-0.2786295,0.3756048,-0.26330158,0.4816779,0.31751,1.2417068,-0.6427822,1.5294366,-3.5675778,0.03526523,-0.07635686,0.059814453,-0.3695221,1.0712922,0.86539847,-0.22662447,0.14267027,0.42352334,-0.33705315,0.5561623,0.26481646,1.0,0.0,0.0,0.0,0.0,0.0,0.0,-1.8917068,0.2427822,-0.9794366,0.27480125,-5.7046533,5.698073,-2.5349438,-16.66236,0.12832284,1.5218318
3.2766323,24.746195,5.3161383,10.411376,0.12354535,-1.3041811,0.083751634,-0.7842308,0.44228807,-0.10326593,0.24636039,-0.3879817,0.65293723,0.5491795,0.9919644,-0.42930532,-1.8294058,-0.72119784,2.2579248,1.5014362,-0.93884397,1.0563322,-0.4652467,-1.8214653,-0.74201345,2.2930493,1.4409491,-0.990487,-1.4045814,0.81558216,-0.2252134,0.38390455,-0.40224886,0.48059273,0.33050352,1.2060547,-0.64243126,1.527937,-3.564011,0.035229973,-0.17446646,0.05657196,-0.36405754,1.0738093,0.8666817,-0.23061222,0.15008391,0.41611966,-0.31457046,0.54493195,0.24511193,1.0,0.0,0.0,0.0,0.0,0.0,0.0,-1.8560547,0.24243125,-0.97793704,0.41508675,-5.2609086,5.413255,0.7681966,-13.9046135,0.017374754,1.214844
0.8395097,11.903821,1.6012484,8.201771,0.34407726,-1.7182173,0.05302699,-0.7793395,0.38199928,-0.14951515,0.19865917,-0.40620708,0.6517563,0.5470532,0.97839826,-0.42704678,-1.8364167,-0.7221475,2.2524285,1.5061247,-0.93578166,1.0423361,-0.4576154,-1.8236492,-0.7382493,2.2882771,1.4457461,-0.9871024,-1.3978906,0.7458047,-0.21629173,0.3736718,-0.50206107,0.47973615,0.34082505,1.1704407,-0.6420803,1.5254571,-3.5604477,0.03519475,-0.27247798,0.053482056,-0.35889626,1.076041,0.86789024,-0.23426095,0.1577744,0.4086509,-0.30040592,0.50754046,0.21367241,1.0,0.0,0.0,0.0,0.0,0.0,0.0,-1.8204406,0.2420803,-0.97545713,0.7143259,-6.9293976,0.8608252,-1.088357,-9.9542675,0.06904006,0.9472132
-0.011003971,-4.674962,-2.1194928,4.123034,0.621109,-2.1759694,0.14744796,-0.7620918,0.28901726,-0.110589914,0.1511387,-0.43393868,0.6553542,0.54809266,0.9661269,-0.42871368,-1.8347082,-0.7231354,2.2448833,1.5112815,-0.9322931,1.0284811,-0.45097497,-1.825711,-0.73481035,2.2827344,1.4505373,-0.9836291,-1.3808559,0.6370177,-0.20325941,0.3338649,-0.57174057,0.47962397,0.34932968,1.1348648,-0.64172935,1.521998,-3.556888,0.03515956,-0.3703915,0.050483704,-0.3543377,1.0778456,0.8690527,-0.23737936,0.16548164,0.4012658,-0.29507843,0.43923447,0.16743973,1.0,0.0,0.0,0.0,0.0,0.0,0.0,-1.7848648,0.24172935,-0.97199804,1.8450737,-10.810947,1.1463016,-4.0298405,-6.9001675,0.17015934,0.7664442
-1.5808032,-15.264463,-4.0793004,3.1529224,1.0996388,-2.3484418,0.20932442,-0.749832,0.20049559,-0.04699766,0.14267404,-0.4514684,0.6589438,0.538188,0.95349795,-0.4309254,-1.8304107,-0.72054297,2.2375875,1.5164317,-0.9298103,1.0148417,-0.4456649,-1.8274009,-0.7317929,2.2766728,1.4553305,-0.9800881,-1.3577213,0.49588886,-0.15817834,0.29092148,-0.6175297,0.4797269,0.3554394,1.0993195,-0.6413784,1.5175605,-3.5533319,0.03512441,-0.4682071,0.047416687,-0.3505783,1.0791571,0.87016433,-0.2399292,0.17288731,0.39415476,-0.30565706,0.35557523,0.11744335,1.0,0.0,0.0,0.0,0.0,0.0,0.0,-1.7493194,0.2413784,-0.96756047,2.5053978,-14.043337,4.2898297,-4.325378,-4.4971943,0.16207099,0.5415797
-7.6965194,-59.38759,-14.153759,-4.209866,1.8605418,-3.271561,0.320007,-0.73513377,-0.036822446,0.024864297,0.055709545,-0.49406683,0.6592295,0.5278736,0.9413283,-0.44934717,-1.8249145,-0.726222,2.227266,1.5212535,-0.92730075,1.0014731,-0.44261792,-1.8283432,-0.72952604,2.2701917,1.4601256,-0.9765042,-1.3286086,0.24130628,-0.074500814,0.20524612,-0.65803325,0.47973406,0.35916087,1.0638123,-0.64102745,1.5121454,-3.5497794,0.03508929,-0.56592494,0.04399872,-0.3481884,1.0797081,0.87129426,-0.24165845,0.17949794,0.38759255,-0.34987012,0.20101,0.033189464,1.0,0.0,0.0,0.0,0.0,0.0,0.0,-1.7138122,0.24102744,-0.9621454,3.2759666,-25.370043,7.9464808,-8.575231,-3.8926601,0.129956,0.29311776
-15.051319,-80.97735,-19.149675,-2.8096845,2.8891087,-3.4975884,0.23701602,-0.7197832,-0.20430431,0.07667149,0.07742223,-0.469364,0.6519257,0.5038739,0.92949474,-0.46304834,-1.820676,-0.7217838,2.2232552,1.5253181,-0.9261168,0.98841345,-0.44255403,-1.8283069,-0.72790194,2.2634854,1.4649054,-0.972906,-1.2969344,-0.07167728,0.028087586,0.14827633,-0.6741958,0.47735536,0.3598895,1.0283432,-0.6406765,1.505754,-3.5462303,0.03505421,-0.66354513,0.03983307,-0.34752846,1.079382,0.87254643,-0.24251536,0.1848544,0.38167754,-0.43628561,0.02154105,-0.055156797,1.0,0.0,0.0,0.0,0.0,0.0,0.0,-1.6783432,0.24067649,-0.955754,3.582263,-31.239536,9.79549,-5.6676836,-1.4623642,-0.2753377,0.03180504
-18.269062,-108.63099,-25.734016,-8.557396,3.0858161,-4.1074624,0.29132983,-0.679554,-0.4356268,0.10615793,-0.022917964,-0.5127965,0.6609877,0.46108353,0.9204581,-0.4861167,-1.8176911,-0.73019373,2.212206,1.5310042,-0.9267976,0.97578967,-0.4461117,-1.8272998,-0.727118,2.2565732,1.4696566,-0.96933734,-1.249418,-0.45040005,0.1235922,0.055252455,-0.6967242,0.4733993,0.3557406,0.99290466,-0.64032555,1.4983871,-3.5426848,0.035019163,-0.7610677,0.034690857,-0.34900284,1.0779754,0.87402666,-0.24230763,0.18866888,0.37652153,-0.54010934,-0.20214713,-0.1694165,1.0,0.0,0.0,0.0,0.0,0.0,0.0,-1.6429046,0.24032554,-0.9483871,5.18322,-37.851166,9.15632,-9.235443,-2.1690369,-0.68294406,-0.4548669
-6.639251,-101.01704,-21.846321,-17.200142,2.2114358,-4.0815063,0.7484663,-0.6196676,-0.6056599,0.31426945,-0.21131663,-0.5593382,0.6717471,0.40308708,0.9138229,-0.5066777,-1.7958729,-0.74824965,2.2006395,1.5368313,-0.92902863,0.9638277,-0.45347407,-1.8245971,-0.72798204,2.249329,1.474362,-0.9658555,-1.1778563,-0.8317414,0.31937948,-0.13359757,-0.73413885,0.46759078,0.34550315,0.9575043,-0.6399746,1.4900457,-3.5391428,0.034984153,-0.8584928,0.028785706,-0.35267448,1.0753173,0.8756003,-0.24093185,0.19076139,0.37267405,-0.6073111,-0.41964197,-0.2982632,1.0,0.0,0.0,0.0,0.0,0.0,0.0,-1.6075042,0.23997459,-0.94004565,7.32975,-38.189472,19.634596,-18.877047,-3.910005,-1.1877835,-1.0712087
10.497813,-76.50044,-14.917037,-27.384521,0.4039545,-3.9912646,1.2075807,-0.5401485,-0.71259665,0.3866378,-0.45538038,-0.5894143,0.6632662,0.35728243,0.90981287,-0.5247337,-1.7859334,-0.7735201,2.1903877,1.5406886,-0.93012726,0.95281756,-0.46420625,-1.8198211,-0.73166704,2.24165,1.478993,-0.96251285,-1.0763913,-1.1542264,0.5326774,-0.4475297,-0.780553,0.45844793,0.32995063,0.922142,-0.63962364,1.4807308,-3.5356045,0.034949176,-0.9558205,0.022773743,-0.35837936,1.0712744,0.87705535,-0.2382354,0.19127114,0.37071958,-0.60316324,-0.61708343,-0.44050416,1.0,0.0,0.0,0.0,0.0,0.0,0.0,-1.572142,0.23962364,-0.93073076,9.864378,-32.411278,22.017462,-31.582333,-5.0775647,-1.8156826,-1.7107427
22.631552,-26.53774,-2.2065594,-22.22512,-0.3966248,-2.9281487,1.2297941,-0.43451968,-0.7479299,0.45381016,-0.47860324,-0.57869387,0.65505666,0.25975752,0.9093656,-0.53899926,-1.77444,-0.77952737,2.1837807,1.5444987,-0.9365371,0.9431311,-0.4773307,-1.8130405,-0.7381711,2.2336125,1.4835364,-0.95938766,-0.93444544,-1.3657758,0.7291301,-0.7189054,-0.8126574,0.45041123,0.30643624,0.8868103,-0.6392727,1.4704432,-3.5320697,0.034914233,-1.0530509,0.01714325,-0.3654728,1.0660822,0.8781899,-0.23456568,0.19048263,0.3707798,-0.5532739,-0.73525304,-0.5470686,1.0,0.0,0.0,0.0,0.0,0.0,0.0,-1.5368103,0.23927268,-0.92044324,13.673651,-21.333195,20.390713,-27.390242,-3.5673141,-1.582396,-2.4362147
24.890778,9.766375,5.2221327,-13.676159,-0.83814013,-2.1353238,0.9278311,-0.36965445,-0.77022254,0.39401916,-0.5198083,-0.5848766,0.6489976,0.1888547,0.90616566,-0.554353,-1.7736386,-0.79015195,2.175125,1.5484362,-0.94050217,0.93491995,-0.49178794,-1.8051326,-0.7468381,2.2253346,1.4880186,-0.9565333,-0.7849775,-1.4727919,0.8129772,-0.91654474,-0.8333455,0.44581866,0.27842474,0.8515167,-0.63892555,1.4591842,-3.5285382,0.034879327,-1.150184,0.0121536255,-0.37332153,1.0600736,0.87896985,-0.23029548,0.18888122,0.37242424,-0.48248395,-0.7951108,-0.62096864,1.0,0.0,0.0,0.0,0.0,0.0,0.0,-1.5015167,0.23892555,-0.90918416,14.454163,-10.828519,8.868408,-19.943321,-2.248609,-0.9410262,-2.8077126
21.932045,35.066628,9.78324,-4.1071167,-0.86119384,-1.5012823,0.56750894,-0.32133424,-0.7753505,0.34332776,-0.5489856,-0.5863811,0.6475431,0.17446725,0.90278655,-0.569323,-1.7707999,-0.80173665,2.1666965,1.552773,-0.9390866,0.9280907,-0.50670725,-1.7971675,-0.7568717,2.216927,1.492478,-0.9539441,-0.64995944,-1.4984559,0.79144293,-1.0324312,-0.8429956,0.44566467,0.25272006,0.8162613,-0.6385784,1.4469545,-3.5250103,0.034844454,-1.24722,0.007881165,-0.38145256,1.05355,0.87946355,-0.22568733,0.18696567,0.37503722,-0.41039908,-0.8114644,-0.66525704,1.0,0.0,0.0,0.0,0.0,0.0,0.0,-1.4662613,0.23857841,-0.8969545,13.176834,-2.6112318,-2.0205498,-11.637306,-0.9809971,-0.16378164,-2.4959207
16.321121,43.917892,10.513043,2.665627,-0.65039635,-1.227634,0.2715296,-0.27944335,-0.7863747,0.2834745,-0.57989424,-0.5856229,0.6382055,0.18139893,0.90014637,-0.58534473,-1.76882,-0.8148611,2.1583648,1.5562986,-0.9358042,0.9224287,-0.52158266,-1.7900035,-0.7676368,2.2084775,1.496945,-0.95157707,-0.5388657,-1.4838839,0.69119614,-1.0909084,-0.84520686,0.4471569,0.2317026,0.7810364,-0.6382313,1.4337552,-3.521486,0.034809615,-1.344159,0.0042419434,-0.38962555,1.0467008,0.8797814,-0.22085623,0.18508704,0.37808713,-0.34991485,-0.81110275,-0.69404954,1.0,0.0,0.0,0.0,0.0,0.0,0.0,-1.4310364,0.23823127,-0.88375515,10.937691,1.4601231,-10.076225,-5.794549,-0.19452572,0.17256737,-1.9998223
10.8584385,43.964485,9.595679,6.7420373,-0.33238667,-1.1398304,0.09764595,-0.24516247,-0.79274094,0.22588257,-0.607893,-0.5718517,0.6309488,0.21668644,0.8979125,-0.6008568,-1.7674153,-0.82842606,2.1512923,1.5600399,-0.9299084,0.91768134,-0.5362206,-1.7841308,-0.77875566,2.2000775,1.5014254,-0.94936645,-0.4536292,-1.4569879,0.5522717,-1.1184628,-0.8384803,0.44870842,0.21788576,0.745842,-0.63788414,1.4195871,-3.5179653,0.034774814,-1.4410012,0.001083374,-0.39777374,1.0396068,0.88002276,-0.21581319,0.18340613,0.38124374,-0.30505884,-0.8082417,-0.7171917,1.0,0.0,0.0,0.0,0.0,0.0,0.0,-1.395842,0.23788413,-0.8695871,8.460683,2.7056217,-14.012814,-2.643323,0.6795645,0.22473335,-1.2798369
2.355541,36.962963,6.822879,10.631363,0.24710889,-1.1102667,-0.062105343,-0.25885653,-0.79721946,0.15978426,-0.6327539,-0.52764386,0.6286915,0.24118914,0.8917957,-0.61594254,-1.7681524,-0.84203106,2.147313,1.5642946,-0.92524755,0.9134222,-0.55062205,-1.7797496,-0.790071,2.1918836,1.5059191,-0.94725215,-0.41633993,-1.4345949,0.39956492,-1.1351942,-0.81358236,0.44959173,0.20957413,0.71069336,-0.637537,1.4044515,-3.5144482,0.034740046,-1.5377465,-0.0018386841,-0.4059353,1.0322746,0.88029593,-0.21050532,0.18193768,0.38427228,-0.28706455,-0.8110405,-0.7413863,1.0,0.0,0.0,0.0,0.0,0.0,0.0,-1.3606933,0.237537,-0.8544515,3.8131535,2.2387981,-15.443593,-1.4848948,2.4279118,0.12424588,-0.733003
2.5494683,34.789665,6.444915,9.91946,0.26467586,-1.1446826,-0.022505395,-0.20501229,-0.7977265,0.100060746,-0.6529344,-0.5374169,0.62957966,0.2741188,0.892921,-0.6303947,-1.7697436,-0.85536444,2.1381419,1.5688771,-0.9198403,0.90954745,-0.5648652,-1.7768333,-0.80155516,2.1838956,1.5104166,-0.9451808,-0.37756956,-1.420926,0.25512442,-1.1523192,-0.79416007,0.4499246,0.20660384,0.67557526,-0.63718987,1.388349,-3.5109344,0.03470531,-1.6343951,-0.004585266,-0.41414833,1.0246769,0.8806176,-0.20489341,0.1806548,0.3871627,-0.27031282,-0.8178913,-0.769078,1.0,0.0,0.0,0.0,0.0,0.0,0.0,-1.3255752,0.23718986,-0.83834904,3.9455116,1.3572216,-14.579076,-1.5405416,1.8622041,0.02360344,-0.21314323
-0.42019674,26.77576,3.3529136,9.170014,0.21297248,-1.3671639,-0.08218789,-0.18829317,-0.79495376,-0.060886562,-0.6707701,-0.54423994,0.62309384,0.32066983,0.8907181,-0.64436054,-1.7829219,-0.8686322,2.1294715,1.572726,-0.9131138,0.9060112,-0.57902247,-1.7757175,-0.8132415,2.1760335,1.5149065,-0.943097,-0.3453851,-1.414103,0.06358813,-1.1734942,-0.7843029,0.44826725,0.20901781,0.6404877,-0.6368427,1.3712809,-3.507424,0.034670614,-1.730947,-0.007209778,-0.42254448,1.0167164,0.88104385,-0.19880317,0.17963867,0.38983172,-0.25875303,-0.84027195,-0.8084738,1.0,0.0,0.0,0.0,0.0,0.0,0.0,-1.2904876,0.23684272,-0.8212809,3.2926977,0.64287186,-19.161272,-1.923275,0.7986188,-0.29138327,0.263682
0.34259376,23.04189,2.0862908,7.215748,0.034052595,-1.5039729,-0.043057498,-0.15511651,-0.7957727,-0.17397502,-0.69309455,-0.5542078,0.6231029,0.3643217,0.8904996,-0.65859973,-1.793115,-0.88255095,2.1206126,1.5772169,-0.90666485,0.90285075,-0.5931578,-1.7766597,-0.82520056,2.1681943,1.5193754,-0.94095314,-0.30614215,-1.4134997,-0.14656445,-1.2027749,-0.78465974,0.4456821,0.2160168,0.60544586,-0.6364956,1.353248,-3.5039175,0.03463595,-1.8274024,-0.009681702,-0.43123436,1.0082906,0.881594,-0.19207494,0.17895663,0.39226732,-0.2437443,-0.87170905,-0.85777164,1.0,0.0,0.0,0.0,0.0,0.0,0.0,-1.2554458,0.23649558,-0.803248,3.9762676,0.0047445297,-20.94583,-2.7397633,-0.2695799,-0.47271252,0.6839007
-0.18364167,22.024351,1.8703912,6.9498014,0.064064026,-1.4395845,-0.0066323355,-0.14996894,-0.79935795,-0.24969304,-0.7141867,-0.5607784,0.6302801,0.38940853,0.88785386,-0.6730936,-1.8016291,-0.8966192,2.1121163,1.5824034,-0.9020123,0.9000193,-0.6073275,-1.7795856,-0.8374982,2.1603055,1.5238234,-0.93872344,-0.27525452,-1.4182239,-0.34122145,-1.2380345,-0.79123837,0.44353732,0.22532226,0.5704346,-0.63614845,1.3342513,-3.5004141,0.03460132,-1.9237614,-0.012023926,-0.44024086,0.9993422,0.88224745,-0.18465722,0.17860077,0.3945159,-0.23078378,-0.90291846,-0.9116347,1.0,0.0,0.0,0.0,0.0,0.0,0.0,-1.2204345,0.23614845,-0.7842513,3.1686842,-0.535655,-19.41874,-3.3248425,-0.89975595,-0.46842694,0.91212094
-3.867804,25.492466,3.0591593,9.954635,0.4017247,-1.0948923,-0.016601406,-0.18131727,-0.7955669,-0.28616282,-0.7234504,-0.570239,0.6299784,0.41814005,0.88188756,-0.6868842,-1.8082019,-0.9098432,2.1032815,1.5868212,-0.8969094,0.89725554,-0.62153155,-1.7840965,-0.85011816,2.1523175,1.5282542,-0.9363831,-0.27625024,-1.4213531,-0.48772722,-1.2692088,-0.802123,0.4420971,0.23696077,0.5354538,-0.6358013,1.3142916,-3.4969144,0.034566727,-2.0200238,-0.014328003,-0.44945145,0.9899023,0.88297385,-0.17663166,0.17852421,0.3965947,-0.22917517,-0.9205708,-0.9598505,1.0,0.0,0.0,0.0,0.0,0.0,0.0,-1.1854538,0.23580131,-0.7642916,0.06660819,-0.3762722,-14.714527,-2.8833628,-1.3195872,-0.35532713,1.1763513
-3.7128348,33.524986,6.33642,12.0467825,0.619947,-0.6818591,0.04388762,-0.18417661,-0.7933434,-0.2858048,-0.73075867,-0.5886617,0.63917917,0.43820602,0.8788379,-0.70086586,-1.8126769,-0.92319405,2.0934513,1.592172,-0.8925625,0.8943831,-0.635747,-1.7895534,-0.8629966,2.1441808,1.532683,-0.9339179,-0.29033858,-1.4216907,-0.5658639,-1.2932854,-0.8181324,0.44283405,0.24990755,0.50051117,-0.6354542,1.2933701,-3.4934182,0.034532167,-2.11619,-0.01663208,-0.45869827,0.9800689,0.8836945,-0.16820064,0.17863344,0.39860082,-0.23001689,-0.9188206,-0.99676335,1.0,0.0,0.0,0.0,0.0,0.0,0.0,-1.1505111,0.23545417,-0.7433701,-1.2215137,-0.07662773,-8.007669,-2.1919012,-1.7475843,-0.042551756,1.3580114
-6.569383,38.95952,8.293062,15.300763,0.96052283,-0.3315786,0.010363005,-0.21100278,-0.7882349,-0.30953383,-0.7252294,-0.59793854,0.6443817,0.44544798,0.8732828,-0.7145705,-1.8205068,-0.9355195,2.0843868,1.5971212,-0.88937306,0.89122736,-0.64993197,-1.7954929,-0.8760047,2.13588,1.537129,-0.93132865,-0.3232108,-1.417563,-0.6040862,-1.302576,-0.83478796,0.44514957,0.2623443,0.4656067,-0.63511086,1.2714876,-3.4899254,0.03449764,-2.21226,-0.019004822,-0.4678192,0.96995133,0.88437086,-0.15955359,0.1788607,0.40054923,-0.24016802,-0.9024038,-1.0225443,1.0,0.0,0.0,0.0,0.0,0.0,0.0,-1.1156067,0.23511085,-0.7214876,-3.064543,0.37724972,-4.090214,-0.70848465,-1.7841935,0.19634962,1.3394535
-6.490473,41.09718,9.190414,15.7584715,1.0424128,-0.23512483,0.017158054,-0.21310587,-0.78805816,-0.34845093,-0.7317236,-0.59903544,0.63544506,0.4543525,0.8699168,-0.7287378,-1.830338,-0.949177,2.0759764,1.6006736,-0.8858934,0.88776076,-0.6640721,-1.801749,-0.8890681,2.127438,1.5415922,-0.9286202,-0.35372868,-1.4128861,-0.63355446,-1.3069655,-0.8475657,0.44677836,0.274027,0.43073273,-0.63476753,1.2486452,-3.4864361,0.034463152,-2.308234,-0.021507263,-0.47675133,0.95960027,0.88498604,-0.15077125,0.17915918,0.40245456,-0.25134334,-0.88265544,-1.0450828,1.0,0.0,0.0,0.0,0.0,0.0,0.0,-1.0807327,0.23476753,-0.6986452,-2.8426528,0.43611526,-3.2187939,-0.22685528,-1.3820052,0.14532208,1.2748718
-10.222984,39.398186,8.460517,17.277065,1.296491,-0.14434248,-0.035439253,-0.25138667,-0.79304254,-0.37157217,-0.73387206,-0.6018609,0.6422895,0.4599223,0.8626221,-0.7433764,-1.8389062,-0.96245533,2.067252,1.6058211,-0.88262796,0.883886,-0.67819697,-1.8082798,-0.90215063,2.1188931,1.5460745,-0.925804,-0.39796597,-1.4125464,-0.6604665,-1.3078005,-0.85726875,0.44870174,0.28457856,0.39588928,-0.6344242,1.2248436,-3.4829504,0.034428697,-2.4041119,-0.024162292,-0.4854889,0.9490229,0.8855613,-0.14187004,0.1794854,0.40427595,-0.27297574,-0.86296916,-1.0676837,1.0,0.0,0.0,0.0,0.0,0.0,0.0,-1.0458893,0.2344242,-0.6748436,-4.185188,-0.01282692,-2.9519439,0.16450882,-1.1137843,0.1595974,1.1669159
-12.475765,38.27682,7.8136864,17.974304,1.3965598,-0.11292708,-0.07896207,-0.27471653,-0.7924247,-0.40700644,-0.7303215,-0.61552924,0.64647585,0.4649177,0.8564143,-0.75743943,-1.8489804,-0.9751828,2.0573401,1.6107221,-0.8793123,0.879542,-0.6923285,-1.8151615,-0.91520834,2.1102376,1.5505759,-0.92289054,-0.44583067,-1.4135162,-0.6981025,-1.30426,-0.8688156,0.45058733,0.29387295,0.3610916,-0.6340809,1.2000841,-3.479468,0.034394275,-2.499894,-0.027107239,-0.49404335,0.9382077,0.8861266,-0.13282645,0.17983995,0.4059488,-0.2998683,-0.8447109,-1.0917146,1.0,0.0,0.0,0.0,0.0,0.0,0.0,-1.0110916,0.23408088,-0.6500841,-4.5406103,-0.15637875,-3.9906025,0.6242037,-1.3314724,0.13383031,1.0320544
-11.4565115,40.686047,8.834926,17.599922,1.3533169,-0.026351392,-0.043222137,-0.29239333,-0.7896023,-0.40699834,-0.7366618,-0.62760687,0.64931583,0.47844556,0.85030264,-0.77128875,-1.8558613,-0.9888745,2.047477,1.6155075,-0.875046,0.87474215,-0.70646006,-1.8223484,-0.9282565,2.1014562,1.5550963,-0.9198855,-0.49061802,-1.4132047,-0.7262059,-1.3041209,-0.8821298,0.45256385,0.3030931,0.32632446,-0.63373756,1.1743674,-3.4759893,0.034359887,-2.5955803,-0.030281067,-0.5023918,0.92716175,0.88666874,-0.12365206,0.18021254,0.40749493,-0.32362798,-0.8231369,-1.1144396,1.0,0.0,0.0,0.0,0.0,0.0,0.0,-0.97632444,0.23373756,-0.6243674,-4.2488456,-0.02295971,-3.046465,0.27358532,-1.4908552,0.14989376,1.0318875
-16.49316,37.77856,7.29802,19.05982,1.6208588,0.02296263,-0.11416751,-0.34679472,-0.79446006,-0.44240645,-0.737307,-0.6150655,0.6376349,0.47167313,0.8400627,-0.7859061,-1.866589,-1.0019872,2.0399497,1.6188598,-0.8727182,0.8693644,-0.7206107,-1.8298862,-0.9413104,2.0925946,1.5596262,-0.91680324,-0.5526086,-1.4159498,-0.76382536,-1.3047311,-0.887965,0.45268306,0.31027016,0.29158783,-0.63339424,1.1476946,-3.4725142,0.034325533,-2.691171,-0.03378296,-0.51054,0.9158673,0.88722116,-0.11431151,0.18057452,0.40885738,-0.35994077,-0.8039296,-1.1399152,1.0,0.0,0.0,0.0,0.0,0.0,0.0,-0.9415878,0.23339424,-0.5976946,-5.931556,-0.35393238,-3.9654016,0.2509594,-0.8069396,-0.07842183,0.8266926
-21.43493,32.901592,5.028644,19.628477,1.8702693,0.009144604,-0.1604134,-0.3988844,-0.8046461,-0.4826033,-0.75305814,-0.5845536,0.6132293,0.46946535,0.82947594,-0.8010753,-1.8781465,-1.0166162,2.0341392,1.6209491,-0.8698567,0.86324465,-0.7348376,-1.8379085,-0.95444345,2.0837903,1.5641314,-0.91365993,-0.6307976,-1.4253923,-0.81548434,-1.3148395,-0.87884516,0.44932312,0.31600875,0.25688934,-0.6330509,1.1200666,-3.4690423,0.034291215,-2.7866662,-0.037757874,-0.51854706,0.9042616,0.8878397,-0.10470609,0.18084778,0.40996513,-0.4091777,-0.790269,-1.1728504,1.0,0.0,0.0,0.0,0.0,0.0,0.0,-0.9068893,0.23305091,-0.57006663,-7.5110793,-1.0566473,-5.329609,-0.63073635,0.61073303,-0.5041182,0.68781376
-30.753178,28.471323,1.9455738,22.045822,2.1488452,0.08728999,-0.28796428,-0.48460284,-0.8023606,-0.54802215,-0.7622696,-0.60668606,0.6027571,0.47857815,0.81478435,-0.81507367,-1.8927107,-1.0306704,2.0231216,1.624407,-0.8658021,0.8560959,-0.74914557,-1.8466575,-0.96771383,2.0750241,1.5685908,-0.91046226,-0.74157387,-1.4332472,-0.89509624,-1.3294971,-0.87769794,0.4438839,0.3213465,0.222229,-0.6327076,1.0914844,-3.465574,0.03425693,-2.882066,-0.04235077,-0.52643204,0.8922715,0.88860387,-0.09468862,0.18107106,0.4106463,-0.4768997,-0.7786426,-1.2132169,1.0,0.0,0.0,0.0,0.0,0.0,0.0,-0.872229,0.23270759,-0.5414844,-10.693848,-0.9485245,-8.060479,-0.98485947,-0.32304525,-0.8029878,0.62255263
-39.203106,24.37697,-1.0345222,23.970789,2.4154315,0.15250373,-0.40846607,-0.5664921,-0.80341005,-0.6257353,-0.77349806,-0.6020963,0.5847014,0.4468603,0.7994467,-0.82948655,-1.9092311,-1.0450636,2.0148144,1.6270609,-0.86577624,0.84765303,-0.7635203,-1.8564365,-0.9811578,2.0662618,1.5729796,-0.9072417,-0.8769337,-1.4396354,-1.0055404,-1.3474027,-0.87766325,0.43592834,0.32249892,0.18759918,-0.6323643,1.0619489,-3.462109,0.03422268,-2.9773705,-0.04775238,-0.53422165,0.8798167,0.88959646,-0.08409665,0.18129563,0.410704,-0.5622094,-0.7689798,-1.2617427,1.0,0.0,0.0,0.0,0.0,0.0,0.0,-0.83759916,0.23236427,-0.5119489,-13.089395,-0.8562803,-11.066532,-1.2096882,-0.56972504,-1.1619747,0.18444657
-46.78557,23.749512,-2.4326289,26.669584,2.8273015,0.35402668,-0.5135638,-0.6542039,-0.8035166,-0.68515533,-0.7676601,-0.5716175,0.580319,0.42570567,0.78223264,-0.84387195,-1.924952,-1.0579238,2.0091,1.6310115,-0.8646711,0.8377186,-0.77794176,-1.8674037,-0.9947133,2.0575795,1.5772864,-0.9040307,-1.0306766,-1.4437779,-1.126993,-1.3560427,-0.867605,0.42746368,0.32090005,0.15299988,-0.63202095,1.0314611,-3.4586477,0.034188464,-3.0725796,-0.054130554,-0.5418892,0.8668761,0.8908795,-0.072874375,0.1814851,0.40998316,-0.666095,-0.7547255,-1.3105462,1.0,0.0,0.0,0.0,0.0,0.0,0.0,-0.80299985,0.23202094,-0.4814611,-14.885605,-0.6837368,-12.099338,-0.20198822,0.3213644,-1.2861788,-0.0833869
-44.816696,30.306852,0.13433456,26.76533,2.885171,0.59635764,-0.48379153,-0.7025458,-0.79625726,-0.71916455,-0.7610107,-0.53886175,0.5890065,0.39236802,0.76746404,-0.8575675,-1.9393202,-1.0708144,2.0036933,1.636187,-0.8647939,0.8263575,-0.7923518,-1.8794754,-1.0082791,2.0490918,1.5815245,-0.90086067,-1.1697977,-1.4410301,-1.2335191,-1.3547604,-0.8442516,0.4210112,0.31597003,0.11843872,-0.6316776,1.0000218,-3.4551897,0.03415428,-3.1676934,-0.061531067,-0.5493393,0.85351086,0.8924329,-0.061115466,0.1815526,0.40849346,-0.7670621,-0.7294872,-1.3511755,1.0,0.0,0.0,0.0,0.0,0.0,0.0,-0.7684387,0.23167762,-0.4500218,-13.469386,0.0074625015,-10.594916,0.7595539,1.6796231,-1.0716975,-0.39084554
-40.787956,35.221478,2.577962,25.935917,2.8699813,0.748841,-0.45702457,-0.74501944,-0.8014051,-0.75865746,-0.74334955,-0.5116498,0.57378703,0.28987494,0.75185555,-0.8724923,-1.9553411,-1.0826141,1.9979268,1.6389031,-0.8718732,0.81379473,-0.8067456,-1.8924835,-1.0217221,2.0409093,1.585694,-0.8978137,-1.2839235,-1.4397383,-1.323085,-1.3389888,-0.8115332,0.4144155,0.3012662,0.08391571,-0.6313381,0.9676322,-3.4517353,0.034120135,-3.2627122,-0.069877625,-0.55649185,0.83979225,0.8942183,-0.048960656,0.18137625,0.40629908,-0.8614654,-0.69719917,-1.3850089,1.0,0.0,0.0,0.0,0.0,0.0,0.0,-0.7339157,0.23133811,-0.41763216,-11.036181,-0.12512207,-8.894777,2.1631956,2.6877642,-1.0649145,-1.3404369
-33.539948,43.64666,6.900584,24.349081,2.6411524,0.9882668,-0.34230146,-0.78103006,-0.7969199,-0.7626967,-0.7303257,-0.5143721,0.59426135,0.29530925,0.7356917,-0.8864376,-1.9687531,-1.0947547,1.989472,1.6451201,-0.86828274,0.8002907,-0.821107,-1.9061172,-1.0349495,2.033009,1.5898253,-0.894904,-1.3715048,-1.4356189,-1.3768865,-1.315688,-0.7840762,0.41168526,0.28794822,0.049423218,-0.6309986,0.9342931,-3.4482841,0.034086023,-3.357636,-0.07904816,-0.5632458,0.8258195,0.8961502,-0.036596417,0.18089817,0.40354845,-0.938729,-0.65311176,-1.4076341,1.0,0.0,0.0,0.0,0.0,0.0,0.0,-0.6994232,0.2309986,-0.38429308,-8.469939,0.2004385,-5.355668,2.8192997,2.2891164,-0.59432983,-1.181221
-22.80978,49.559814,10.679575,20.663385,2.148182,1.0228648,-0.22588284,-0.784296,-0.79834336,-0.7815964,-0.7217236,-0.5190273,0.5799018,0.17071298,0.7218611,-0.9009413,-1.9842769,-1.107122,1.9811063,1.6478155,-0.8778327,0.78620684,-0.835435,-1.9201362,-1.0479405,2.0253148,1.5939299,-0.892208,-1.4200444,-1.4323539,-1.4101708,-1.2924464,-0.7655225,0.4093018,0.26396888,0.014961243,-0.6306591,0.90000546,-3.4448366,0.034051944,-3.4524648,-0.08881378,-0.5695324,0.8116529,0.8981383,-0.024161665,0.18009715,0.4004107,-0.99024487,-0.60517806,-1.4257253,1.0,0.0,0.0,0.0,0.0,0.0,0.0,-0.6649612,0.2306591,-0.35000545,-4.6631575,0.17542839,-3.3490896,2.699709,1.5494943,-0.47855377,-2.244544
-16.967194,55.63828,13.892456,19.543713,1.9384712,1.1531116,-0.16345422,-0.80310875,-0.79106385,-0.78672725,-0.6933973,-0.51680034,0.58295923,0.1573102,0.70589596,-0.91454136,-1.998809,-1.1172802,1.9736347,1.6522259,-0.87647694,0.771793,-0.8497029,-1.9343479,-1.0606282,2.017758,1.5980211,-0.8897475,-1.4480553,-1.4252853,-1.4249369,-1.2599221,-0.75307035,0.40852946,0.24057207,-0.019454956,-0.6303196,0.86477023,-3.4413924,0.0340179,-3.5471988,-0.09896088,-0.57530403,0.7973745,0.9001181,-0.011784812,0.1789888,0.3970031,-1.0270094,-0.5516964,-1.4344807,1.0,0.0,0.0,0.0,0.0,0.0,0.0,-0.630545,0.23031959,-0.31477022,-2.6759148,0.5946636,-1.5144825,3.5402775,1.0311604,-0.2409339,-2.1895707
-11.691923,56.378094,15.088428,17.238207,1.7148286,1.1176101,-0.15766604,-0.8057116,-0.79907477,-0.79655975,-0.68480515,-0.4953576,0.5652275,-0.08604891,0.69122183,-0.9296104,-2.0140038,-1.1291087,1.9682221,1.6545439,-0.8983524,0.7572371,-0.86394507,-1.948653,-1.0730145,2.0103498,1.6020952,-0.8876809,-1.4577843,-1.4241289,-1.4325426,-1.230723,-0.73708624,0.40657353,0.19592543,-0.053840637,-0.6299801,0.82858837,-3.4379518,0.033983886,-3.641838,-0.10939026,-0.5805626,0.78300166,0.9020782,0.00046534697,0.17754073,0.39336234,-1.052021,-0.50028586,-1.4438453,1.0,0.0,0.0,0.0,0.0,0.0,0.0,-0.59615934,0.22998008,-0.27858835,-0.8861542,0.029730797,-0.81629753,3.1661034,1.4573216,-0.33789277,-4.307482
-11.371611,57.95152,15.736548,17.078724,1.8163161,1.171195,-0.16562833,-0.82563335,-0.7911493,-0.80399233,-0.6743278,-0.41982502,0.5255984,-0.16304502,0.67467374,-0.94306,-2.0290523,-1.1404473,1.9683672,1.6546551,-0.9039854,0.7425772,-0.87815386,-1.9630172,-1.0851414,2.0033002,1.6061217,-0.88609207,-1.4684972,-1.4201163,-1.4379301,-1.2056829,-0.6947437,0.40079305,0.1471115,-0.0881958,-0.6296406,0.7914609,-3.4345145,0.03394991,-3.7363827,-0.1200943,-0.58530045,0.7685574,0.9040371,0.012554148,0.17565677,0.38949177,-1.0772389,-0.44823813,-1.4498986,0.0,1.0,0.0,0.0,0.0,0.0,0.0,-0.5618042,0.22964057,-0.24146086,-0.9925604,0.31580925,-0.5820036,2.7409554,4.093361,-0.7252991,-4.7032566
-10.425388,58.469975,16.128553,16.557589,1.9068121,1.1818801,-0.17860545,-0.8283074,-0.790452,-0.8096242,-0.6614133,-0.33759555,0.49016502,-0.28435394,0.65974647,-0.95719904,-2.0439796,-1.1512828,1.9695406,1.6551381,-0.9145275,0.7277527,-0.89220124,-1.978715,-1.0975771,1.9978375,1.6096591,-0.8852389,-1.484076,-1.4031297,-1.5842484,-1.2420915,-0.5275662,0.33790365,0.07259399,-0.10545349,-0.627861,0.7873832,-1.5935279,0.22278565,-0.059843957,-0.13122559,-0.58979034,0.75368226,0.90617317,0.025156483,0.17286891,0.38514113,-1.1230482,-0.42668396,-1.4973116,0.0,1.0,0.0,0.0,0.0,0.0,0.0,-0.5445465,0.22786102,-0.23738319,-0.31559467,0.12812614,-0.5172014,3.0509233,6.343031,-2.2004843,-5.127181
34.2512,176.0,110.0,110.0,7.4011474,12.135764,-1.9357138,-0.79515517,0.51775765,0.69691515,0.6342057,-0.30784002,0.65535843,-0.36293197,0.64823717,-0.8404255,-1.9090234,-1.0341566,1.9670535,1.675195,-0.9215321,0.7163887,-0.908963,-1.9848107,-1.0957575,1.9832654,1.6202677,-0.8834574,-1.0067233,-1.6762154,-0.4480892,0.6175392,-1.6168642,1.371912,0.24294457,-0.12137604,-0.62563515,0.78604877,-1.5919347,0.22256291,-0.15797009,-0.14247894,-0.5916271,0.74330443,0.9079356,0.02806681,0.17406863,0.38021737,-1.1257331,-0.08419974,-0.8908536,0.0,1.0,0.0,0.0,0.0,0.0,0.0,-0.52862394,0.22563514,-0.23604876,51.858402,-4.7683716e-05,64.53846,174.24979,-63.933086,124.366035,25.931286
-46.53229,153.60904,52.978863,87.3289,8.978132,4.2092,-2.3096442,-0.79158735,-0.70525634,-0.26110175,0.69153833,-0.38357943,0.61424214,-0.32147282,0.63723,-0.9794887,-2.010921,-1.0266037,1.9449074,1.681692,-0.9156047,0.7065239,-0.92535764,-1.9863652,-1.0830431,1.9670587,1.6341361,-0.88131547,-0.97825557,-1.6281325,-0.05608765,1.4913774,-1.624416,1.3958298,0.20734382,-0.13728333,-0.6234112,0.7837258,-1.5903431,0.22234039,-0.2570633,-0.15489197,-0.5916176,0.7370438,0.91031677,0.02489394,0.17720035,0.3732341,-1.2761519,0.039817642,-0.54241693,1.0,0.0,0.0,0.0,0.0,0.0,0.0,-0.51271665,0.22341117,-0.23372579,3.2809615,4.527402,39.77484,88.02698,-1.4858246,3.5941362,-2.7593346
-53.64051,143.94681,36.577187,64.61897,5.982355,2.4368382,-1.6580472,-0.77020067,-0.53743625,-0.35335392,0.69879174,-0.58794165,0.59187007,0.1377668,0.62950385,-0.97910124,-2.0217006,-1.0131639,1.9082645,1.6933231,-0.8675388,0.6961374,-0.93977624,-1.9869813,-1.0653028,1.9520898,1.647457,-0.87931275,-1.0571768,-1.3809482,-0.06331695,1.8703247,-1.4561993,1.3129716,0.19839472,-0.15317535,-0.6211891,0.7804127,-1.5887531,0.2221181,-0.35605747,-0.16843414,-0.5905304,0.73324335,0.9134089,0.020092146,0.18108045,0.36399207,-1.3792738,0.13990329,-0.33257845,0.0,1.0,0.0,0.0,0.0,0.0,0.0,-0.49682462,0.22118911,-0.23041266,-7.420826,24.35677,-0.6946914,38.49325,16.332722,-7.6272964,-0.75432956
-22.388187,118.482086,34.967762,35.01245,3.580191,1.8125007,-0.42938966,-0.71378565,-0.6646092,0.17600167,0.7584862,-0.61024606,0.62535614,0.14257425,0.62475884,-1.0062371,-1.9693811,-0.9894542,1.8910651,1.7099926,-0.8650553,0.68481636,-0.95241433,-1.9863652,-1.0463724,1.9390588,1.6596106,-0.8774321,-1.1565534,-1.22582,0.10448009,1.9013469,-1.2550476,1.1838107,0.1850711,-0.16905212,-0.61896896,0.77611035,-1.5871646,0.22189602,-0.45495266,-0.18240356,-0.5885372,0.7309215,0.91676563,0.014777821,0.18481202,0.35378918,-1.4006991,0.22755401,-0.20571475,0.0,1.0,0.0,0.0,0.0,0.0,0.0,-0.48094785,0.21896896,-0.22611034,-9.79023,15.179133,17.11962,3.311348,19.231415,-12.656999,-1.195091
-1.1796689,81.69442,24.999626,11.6325,1.4179919,0.80445457,0.28413427,-0.70146114,-0.69483715,0.20308816,0.70808995,-0.57347035,0.62234396,0.022777494,0.6146703,-1.021898,-1.9660563,-0.9755634,1.8817117,1.721845,-0.8751544,0.6726856,-0.964155,-1.9841908,-1.0286989,1.9278951,1.6705226,-0.8757632,-1.2320641,-1.1575049,0.2564175,1.7225984,-1.0726837,1.0607972,0.16099305,-0.18491364,-0.6167526,0.7708198,-1.5855778,0.22167417,-0.55374897,-0.19623566,-0.58595276,0.7291149,0.92007655,0.009516005,0.18770617,0.34370744,-1.3753018,0.27804342,-0.17877981,0.0,1.0,0.0,0.0,0.0,0.0,0.0,-0.46508634,0.21675262,-0.22081977,-7.613349,6.6215277,15.540674,-17.902351,17.470694,-12.164021,-2.349478
17.888264,77.96813,26.657692,2.739141,0.2092064,0.5086645,0.58463204,-0.67682236,-0.6382503,0.31263742,0.7223971,-0.6301904,0.6109137,0.029017758,0.60500336,-1.0279801,-1.9529271,-0.9564592,1.864876,1.731614,-0.8728614,0.6601553,-0.9754141,-1.9802979,-1.0130625,1.917973,1.6803206,-0.8743212,-1.2604849,-1.1159775,0.4353126,1.5102031,-0.96804667,0.95333636,0.1386011,-0.20075989,-0.6145363,0.764542,-1.5839926,0.22145255,-0.6524465,-0.20949554,-0.5829716,0.7274519,0.92315924,0.004415172,0.18974885,0.33429468,-1.3069196,0.3147181,-0.1676421,0.0,1.0,0.0,0.0,0.0,0.0,0.0,-0.4492401,0.21453628,-0.21454197,-3.006792,3.9589405,18.399536,-21.361446,9.624362,-10.5757,-2.2424579
12.66646,50.808712,14.618729,-0.21293497,-0.13234097,-0.33577335,0.4770731,-0.6813471,-0.6633896,0.17975205,0.70215654,-0.60147333,0.58151245,0.03463887,0.5920206,-1.041753,-1.9623227,-0.94284683,1.8578258,1.7384719,-0.87085736,0.6475394,-0.98659277,-1.9758745,-0.99942815,1.9085517,1.688721,-0.87294567,-1.2625328,-1.1187006,0.44308552,1.3143121,-0.9248714,0.80854493,0.13455935,-0.21741486,-0.60949326,0.7643327,-1.6207368,0.5665587,0.21460219,-0.2221756,-0.57998466,0.725404,0.9260095,0.00023028527,0.19116376,0.3255191,-1.2556444,0.3030029,-0.22185577,0.0,1.0,0.0,0.0,0.0,0.0,0.0,-0.43258512,0.20949325,-0.2143327,-0.35939217,-0.58624744,3.998834,-18.02256,6.2501073,-9.08407,-1.9892901
-20.024925,60.644066,8.01491,15.204223,0.59524524,-0.43771744,-0.20664962,-0.7710811,-0.4672578,-0.14931598,0.7419274,-0.57360953,0.5240704,-0.013302952,0.5704313,-1.0333185,-1.9908061,-0.9252354,1.8511907,1.741128,-0.874276,0.63459134,-0.9970193,-1.9731756,-0.9869026,1.8996673,1.6961787,-0.87176025,-1.305408,-1.0175685,0.21126321,1.2327589,-0.8760815,0.725692,0.11296573,-0.23361206,-0.60383224,0.76573265,-1.6191164,0.5659923,0.115136474,-0.2347641,-0.5769596,0.7229504,0.92883885,-0.0025839577,0.19267888,0.31642765,-1.2588199,0.31008604,-0.25723904,0.0,1.0,0.0,0.0,0.0,0.0,0.0,-0.41638792,0.20383224,-0.21573263,-4.239702,10.019231,-23.400848,-7.9452753,4.902327,-8.089458,-2.258906
-33.18974,59.93655,3.6898222,21.467417,0.8279821,-0.5945598,-0.46105212,-0.77110386,-0.4192686,-0.3479084,0.75749314,-0.58571607,0.53203213,0.14322674,0.55748093,-1.0389462,-2.0079665,-0.91115326,1.8410957,1.7493819,-0.85743755,0.6212399,-1.0062318,-1.9738699,-0.9745897,1.8911357,1.7029574,-0.8706683,-1.3446987,-0.8894459,-0.16393444,1.231772,-0.8449182,0.6622819,0.1073172,-0.249794,-0.59817696,0.76613873,-1.6174977,0.5654264,0.015770204,-0.24755096,-0.5738888,0.7201073,0.9317267,-0.003620334,0.19493541,0.306386,-1.2857466,0.31489587,-0.29668164,0.0,1.0,0.0,0.0,0.0,0.0,0.0,-0.40020597,0.19817695,-0.21613872,-3.8208246,12.700415,-37.80991,0.1876831,3.260553,-6.241083,-0.7307023
-41.2091,54.33079,-0.06890553,24.176558,0.9090821,-0.6961855,-0.5489025,-0.78741366,-0.39046833,-0.5521705,0.77598506,-0.61780494,0.50311524,0.24818917,0.5424985,-1.0452787,-2.029087,-0.8969912,1.8293552,1.753269,-0.8458494,0.6075089,-1.0142274,-1.9788195,-0.96190774,1.882709,1.7091715,-0.86953723,-1.3820368,-0.77010506,-0.60614926,1.2814101,-0.84163964,0.60773325,0.11429601,-0.2659607,-0.5925274,0.76555187,-1.6158805,0.5648611,-0.08349672,-0.26075745,-0.5707836,0.71678984,0.93466425,-0.002586324,0.19822948,0.29512876,-1.329263,0.31777933,-0.34618148,0.0,1.0,0.0,0.0,0.0,0.0,0.0,-0.38403928,0.19252738,-0.21555185,-3.5730839,11.777997,-44.48694,5.2769423,0.46534538,-5.503261,0.47314316
-40.191593,43.76495,-2.1793962,21.83515,0.84980464,-0.6557635,-0.4131226,-0.80162394,-0.407258,-0.67649835,0.77868515,-0.6570307,0.51058793,0.3355902,0.5273465,-1.0549532,-2.0464692,-0.8840392,1.817006,1.7602303,-0.8359782,0.59344506,-1.0214295,-1.9878775,-0.9486612,1.8741183,1.7149127,-0.86826026,-1.4138988,-0.7040597,-1.0062733,1.3401799,-0.86474186,0.5622257,0.13135283,-0.2821045,-0.58688354,0.76397306,-1.614265,0.56429636,-0.18266441,-0.27444458,-0.5676575,0.71286464,0.93757653,0.00052638183,0.20249018,0.2827501,-1.3776339,0.32040235,-0.4100259,0.0,1.0,0.0,0.0,0.0,0.0,0.0,-0.36789548,0.18688354,-0.21397305,-3.0011415,6.4188957,-40.179802,6.1912537,-2.2601962,-4.724574,1.4768958
-33.67593,36.847637,-1.3747556,17.54405,0.7882746,-0.41763812,-0.17071903,-0.81721306,-0.43098152,-0.7450806,0.764941,-0.67683345,0.5490592,0.40742886,0.51172376,-1.0645278,-2.0623856,-0.8721671,1.806435,1.7698185,-0.8275174,0.5790875,-1.0284009,-2.000134,-0.9349884,1.8652091,1.7202837,-0.8667611,-1.4424433,-0.6954923,-1.2988001,1.3772815,-0.89991724,0.52787495,0.15547284,-0.29823303,-0.5812435,0.7614034,-1.612651,0.56373215,-0.28173295,-0.28855896,-0.564476,0.7082479,0.9403578,0.005441146,0.20739296,0.26960266,-1.4200859,0.32850045,-0.4804588,0.0,1.0,0.0,0.0,0.0,0.0,0.0,-0.35176694,0.18124351,-0.21140337,-2.6913643,0.6664276,-29.272032,4.009342,-3.594935,-3.672576,2.2205532
-21.047646,46.81042,5.550871,14.607633,0.78856635,0.01655221,0.054624774,-0.8143939,-0.4129745,-0.7653137,0.764123,-0.67753017,0.58217573,0.44264197,0.49764812,-1.0696983,-2.0766654,-0.85857606,1.797456,1.7785013,-0.8224969,0.5645392,-1.0354104,-2.014317,-0.92110384,1.855968,1.725384,-0.8650092,-1.4587702,-0.70355755,-1.457175,1.3928353,-0.93327194,0.5031543,0.18123919,-0.3143463,-0.5756111,0.75784075,-1.6110387,0.5631685,-0.3810962,-0.30293274,-0.5611267,0.7030925,0.9428981,0.011640987,0.21263187,0.2561158,-1.4383218,0.348868,-0.52844924,0.0,1.0,0.0,0.0,0.0,0.0,0.0,-0.33565366,0.17561111,-0.20784074,-1.588726,-1.0075927,-15.559959,1.7275095,-3.6663651,-2.7436972,2.3997426
-11.4291115,50.273613,9.580748,11.661203,0.8213068,0.2955538,0.2264894,-0.815748,-0.4389218,-0.77403474,0.7603168,-0.6888449,0.61506927,0.47994182,0.4829644,-1.0793025,-2.0917206,-0.84507215,1.7870835,1.786891,-0.817015,0.5498946,-1.0426831,-2.0292783,-0.90719736,1.8464198,1.7302992,-0.86299217,-1.4665205,-0.7357356,-1.5072259,1.3903292,-0.9636524,0.48692578,0.20807336,-0.33044434,-0.5699825,0.7532852,-1.6094279,0.5626055,-0.4803601,-0.31737518,-0.5575371,0.6975396,0.94513494,0.01863697,0.21792121,0.24265808,-1.440862,0.37502703,-0.5650831,0.0,1.0,0.0,0.0,0.0,0.0,0.0,-0.31955564,0.16998252,-0.20328522,-0.816679,-3.400278,-4.546714,-0.15416145,-3.5133362,-1.894784,2.552083
-2.8352232,47.963142,11.078548,8.060384,0.7535913,0.3582853,0.36034283,-0.80463195,-0.4854621,-0.77294517,0.75143653,-0.6905889,0.629042,0.50517464,0.46943137,-1.0912293,-2.1065729,-0.8320537,1.7773609,1.7932035,-0.8124747,0.53527284,-1.0504842,-2.0442243,-0.89341486,1.8366313,1.7350943,-0.86071193,-1.4611106,-0.7952705,-1.4886262,1.3744916,-0.9856957,0.47611603,0.23441885,-0.3465271,-0.5643616,0.7477378,-1.6078188,0.562043,-0.5795247,-0.33174896,-0.5537052,0.6916169,0.94705695,0.026081234,0.22299089,0.22951685,-1.4328789,0.3987106,-0.60227,0.0,1.0,0.0,0.0,0.0,0.0,0.0,-0.30347288,0.16436157,-0.19773781,0.4531145,-6.096339,2.3718596,-1.5243769,-2.7063966,-1.3316274,2.5587707
-1.1543427,45.24153,10.801847,6.9524174,0.82545066,0.37890887,0.38304484,-0.80779445,-0.524294,-0.77434367,0.749778,-0.69263184,0.6325859,0.517959,0.4544934,-1.1029136,-2.1216586,-0.81843704,1.7673681,1.798353,-0.80891603,0.520715,-1.0589929,-2.058785,-0.87980306,1.8266807,1.7398036,-0.85818374,-1.4542869,-0.8697022,-1.4437642,1.3570627,-0.99983066,0.46828172,0.25875548,-0.3625946,-0.55874443,0.74119955,-1.6062113,0.56148106,-0.6785901,-0.34603882,-0.54964256,0.68530387,0.948693,0.033796832,0.22766702,0.21681108,-1.425174,0.42188254,-0.64207417,0.0,1.0,0.0,0.0,0.0,0.0,0.0,-0.28740537,0.15874442,-0.19119954,0.59633255,-7.5701118,4.9882174,-1.6624212,-1.9023538,-1.0322273,2.4050565
3.6682777,48.409733,12.138368,5.887558,0.72820073,0.3787037,0.4174651,-0.78691536,-0.54191405,-0.77027744,0.7425344,-0.687642,0.64100456,0.5583464,0.44202346,-1.1131842,-2.1358128,-0.8055496,1.7579165,1.803904,-0.8023491,0.5063164,-1.0681882,-2.072884,-0.86636865,1.8166518,1.7444537,-0.8554114,-1.4355128,-0.9365832,-1.396591,1.3389518,-1.005502,0.4630074,0.2833263,-0.37864685,-0.5531349,0.73367137,-1.6046054,0.5609197,-0.77755654,-0.36022186,-0.5453625,0.6786252,0.9500599,0.041696277,0.23191138,0.20460886,-1.408277,0.4424085,-0.6778309,0.0,1.0,0.0,0.0,0.0,0.0,0.0,-0.27135313,0.15313491,-0.18367136,1.7615318,-6.8082094,5.25043,-1.7803192,-1.0809898,-0.7737398,2.4215758
2.17733,40.734493,9.545019,4.922926,0.72709334,0.25846124,0.40005854,-0.7834453,-0.6120152,-0.76189286,0.7419898,-0.6887714,0.6212741,0.5657249,0.4279719,-1.1293898,-2.1490734,-0.7921697,1.7477747,1.806581,-0.7988389,0.49210668,-1.0781941,-2.0865788,-0.8530706,1.8066039,1.7490447,-0.8524121,-1.416375,-1.0223511,-1.3587132,1.3272153,-1.0061084,0.45695272,0.30557072,-0.39468384,-0.5475292,0.7251542,-1.6030011,0.5603589,-0.876424,-0.37426758,-0.5409069,0.6714951,0.9511987,0.049786624,0.23564683,0.19290633,-1.3992153,0.45908585,-0.72624004,0.0,1.0,0.0,0.0,0.0,0.0,0.0,-0.25531614,0.14752921,-0.17515421,1.8409252,-8.6811905,4.2164564,-1.0691881,-0.475502,-0.8534908,2.235204
1.0911541,44.447906,9.911792,5.9330773,0.7628537,0.29210442,0.3656692,-0.77801555,-0.6271581,-0.75946605,0.7368885,-0.6905754,0.5895625,0.58122617,0.41430512,-1.1409099,-2.1625254,-0.77938175,1.7375463,1.8080009,-0.79428947,0.47807193,-1.0889497,-2.099999,-0.839867,1.7965579,1.7535555,-0.8492049,-1.3994501,-1.0936948,-1.3352574,1.3184516,-1.0055922,0.44841328,0.32576513,-0.41069794,-0.54193115,0.7156492,-1.6013985,0.5597986,-0.9751926,-0.38822937,-0.5362663,0.66391575,0.95213026,0.058103755,0.2389027,0.18165205,-1.3884654,0.47765467,-0.7704379,0.0,1.0,0.0,0.0,0.0,0.0,0.0,-0.23930204,0.14193115,-0.16564918,1.6163588,-7.253456,2.7964592,-0.77705383,-0.39610863,-1.1172116,2.017337
5.343886,56.871895,13.530322,7.4165764,0.8466279,0.41058475,0.3336448,-0.7482695,-0.6231976,-0.73835665,0.74824464,-0.6756005,0.59031415,0.6029153,0.40324497,-1.1512694,-2.1738346,-0.76504254,1.7289978,1.8125869,-0.78891337,0.46429306,-1.1001893,-2.1131983,-0.8266704,1.7865894,1.7579886,-0.8458049,-1.3708153,-1.1339623,-1.327049,1.3153123,-0.9660129,0.44119996,0.3458621,-0.42652893,-0.53635025,0.7054074,-1.4096874,0.54528344,-0.73730063,-0.40198517,-0.5314312,0.6560471,0.9528521,0.06657931,0.24178973,0.17081524,-1.3697394,0.49775314,-0.7967155,0.0,1.0,0.0,0.0,0.0,0.0,0.0,-0.22347105,0.13635024,-0.15540737,2.7600288,-4.1230917,-0.15673637,-0.8395672,6.7654014,-0.94335675,2.1036208
3.2773952,65.18015,15.593398,10.249607,1.3301018,0.59039795,0.25053775,-0.7526613,-0.6408226,-0.6863812,0.7544562,-0.61665833,0.5707326,0.6175847,0.38902694,-1.1642716,-2.1818364,-0.75122476,1.7249236,1.8150618,-0.7840465,0.45073333,-1.1117173,-2.1261525,-0.813458,1.7772043,1.7623354,-0.8422106,-1.3515071,-1.1596037,-1.2827384,1.323112,-0.93147403,0.4313133,0.36397877,-0.4403305,-0.53087044,0.6978913,-1.3699855,0.54944944,-0.7551767,-0.41558075,-0.52632713,0.64805293,0.9534311,0.07503012,0.24419372,0.16034038,-1.3487155,0.5261284,-0.80243474,0.0,1.0,0.0,0.0,0.0,0.0,0.0,-0.20966947,0.13087043,-0.14789128,1.772213,-2.729535,5.134988,0.7576704,2.7718067,-1.315248,1.7867923
5.600937,70.09605,17.014637,10.615157,1.4163992,0.639688,0.23135313,-0.73358595,-0.64799166,-0.66073376,0.7525119,-0.59126884,0.52995783,0.6204926,0.37737474,-1.1765165,-2.192226,-0.73820686,1.7180774,1.8153312,-0.7801613,0.43738797,-1.1234075,-2.138603,-0.80017805,1.7682253,1.7665626,-0.8384536,-1.3295039,-1.1727962,-1.229799,1.3293273,-0.88903165,0.41859928,0.3795259,-0.4537201,-0.52536964,0.6902602,-1.3271583,0.55104977,-0.7640726,-0.42891693,-0.5209427,0.6400771,0.95386875,0.083351366,0.24622107,0.1502071,-1.321954,0.5539567,-0.7980218,0.0,1.0,0.0,0.0,0.0,0.0,0.0,-0.19627988,0.12536964,-0.14026016,2.0143986,-1.4867783,6.0676813,0.5503416,3.5058022,-1.6100585,1.5262663
10.776648,79.2109,19.588455,11.017255,1.3142133,0.69094676,0.23444155,-0.70458144,-0.62885576,-0.64132303,0.75612634,-0.600659,0.5110113,0.6347119,0.36692983,-1.186293,-2.2027352,-0.7245654,1.7081594,1.8176637,-0.7749824,0.42433837,-1.1350652,-2.1504965,-0.7868293,1.7595279,1.770657,-0.8345534,-1.2975572,-1.1640031,-1.172787,1.336126,-0.8660247,0.40530953,0.3932418,-0.46660614,-0.5198822,0.68265015,-1.2736268,0.54867154,-0.7580313,-0.44189453,-0.5153141,0.6322445,0.9541472,0.091506764,0.24801077,0.1404281,-1.2810732,0.5771821,-0.7802637,0.0,1.0,0.0,0.0,0.0,0.0,0.0,-0.18339384,0.119882196,-0.13265014,2.9558897,0.7038593,6.6087008,0.5164623,1.441133,-1.6540647,1.2835681
13.757248,79.00372,19.776012,9.975893,1.3124932,0.6413857,0.2536703,-0.6896582,-0.6413418,-0.59201694,0.74163204,-0.5535357,0.45163664,0.62733465,0.35537255,-1.1991994,-2.2096982,-0.7126661,1.7041744,1.8158206,-0.77181995,0.41162157,-1.1466504,-2.1617188,-0.77349955,1.7511153,1.7745882,-0.8305388,-1.26387,-1.1572315,-1.1024195,1.3313768,-0.83573323,0.38787857,0.40398797,-0.4789505,-0.51444244,0.6750966,-1.2195659,0.5432309,-0.75291425,-0.454422,-0.5094795,0.62459314,0.9542868,0.09943943,0.24955267,0.1310419,-1.2374192,0.59537065,-0.7619586,0.0,1.0,0.0,0.0,0.0,0.0,0.0,-0.17104948,0.11444244,-0.12509656,3.1222105,0.5131006,7.9660177,-0.6541014,2.1380782,-2.0677865,1.0011673
16.228308,80.68565,20.105288,9.46444,1.3203287,0.5496109,0.27266794,-0.67081857,-0.6341185,-0.55839777,0.72489864,-0.5119801,0.34147295,0.6323146,0.3445397,-1.2100623,-2.2175586,-0.7010097,1.6999173,1.8087355,-0.76730734,0.39925194,-1.1581422,-2.1722276,-0.76031387,1.7430707,1.7782757,-0.8264288,-1.2288239,-1.1470244,-1.0304623,1.3136168,-0.79681885,0.36139318,0.41315463,-0.49074554,-0.5090771,0.66758484,-1.1644121,0.534411,-0.7486459,-0.4665146,-0.5035057,0.61712855,0.9543205,0.10713359,0.25078267,0.12207738,-1.1915126,0.6078488,-0.74304056,0.0,1.0,0.0,0.0,0.0,0.0,0.0,-0.15925443,0.109077066,-0.117584825,3.2518864,0.8626461,8.145189,-1.9726276,2.9583097,-2.9421806,0.83237886
28.460537,82.5595,22.802376,6.201745,1.3634852,0.46754587,0.34589553,-0.6235447,-0.6412787,-0.42584947,0.694351,-0.41823187,0.18895784,0.6291706,0.33689746,-1.2222701,-2.2148125,-0.69087875,1.7012476,1.7971715,-0.7635117,0.3873648,-1.1695844,-2.1815686,-0.7474485,1.7356414,1.7816031,-0.82224053,-1.1763421,-1.1435735,-0.89866275,1.2765616,-0.7280847,0.3222732,0.42063573,-0.50193787,-0.5038433,0.6601738,-1.1022445,0.519331,-0.73580253,-0.4780426,-0.49749184,0.60992396,0.95433563,0.11433476,0.25149408,0.11367407,-1.133959,0.6083355,-0.7145048,0.0,1.0,0.0,0.0,0.0,0.0,0.0,-0.14806211,0.1038433,-0.11017376,4.948783,0.21247864,14.235437,-3.9812088,5.83086,-4.1696253,0.6877482
34.53571,91.78796,27.31479,6.816681,2.3210554,0.560501,0.3015886,-0.61556166,-0.6315197,-0.20491335,0.6459254,-0.18293607,-0.10091183,0.63864714,0.32580864,-1.2327363,-2.20206,-0.68285596,1.7173477,1.7715119,-0.7583758,0.37594783,-1.1809694,-2.1887434,-0.73514676,1.7295264,1.7843448,-0.8179742,-1.1312352,-1.1372669,-0.65307456,1.2136781,-0.5763484,0.25728312,0.42880425,-0.5124588,-0.4987793,0.6530408,-1.0336107,0.50161856,-0.7032549,-0.4889984,-0.49143982,0.6032481,0.954541,0.12044539,0.25124246,0.10593119,-1.0765833,0.6118748,-0.6535139,0.0,1.0,0.0,0.0,0.0,0.0,0.0,-0.13754117,0.09877929,-0.103040814,4.188943,0.49974918,25.773884,-6.5984726,13.960958,-6.7572174,0.85813403
31.858204,78.30097,23.994823,3.171606,2.7890356,0.35114977,0.3664986,-0.63128966,-0.6560935,-0.13106082,0.49213234,0.24241237,-0.36659932,0.6331575,0.31281886,-1.2465787,-2.2018495,-0.68593353,1.7537676,1.7476848,-0.75465846,0.36478552,-1.1924192,-2.1934266,-0.7241029,1.726062,1.7862767,-0.8136358,-1.1120266,-1.1477311,-0.40352684,1.0672121,-0.27289394,0.17103826,0.43600821,-0.52243805,-0.49386215,0.64602965,-0.9840736,0.48765057,-0.6974747,-0.4995575,-0.48533058,0.5970584,0.9552144,0.12506194,0.24927263,0.09893525,-1.039775,0.61836934,-0.60896003,0.0,1.0,0.0,0.0,0.0,0.0,0.0,-0.12756193,0.093862146,-0.09602964,1.6843796,-1.1431217,25.899315,-14.864349,29.362118,-8.884973,0.8651793
36.596066,90.03792,28.89777,4.2317305,3.614987,0.70298135,0.31884402,-0.632091,-0.63796157,0.20301889,0.40208262,0.41643026,-0.4531703,0.6141404,0.30157644,-1.2562153,-2.1731248,-0.68389463,1.7677051,1.7409596,-0.75222176,0.3536895,-1.2039033,-2.1946242,-0.71480066,1.7258904,1.7873421,-0.8092454,-1.1094873,-1.148885,-0.022011654,0.88392156,0.06478198,0.08447815,0.44052976,-0.5318222,-0.48910713,0.6392964,-0.92264026,0.47165626,-0.664931,-0.5096512,-0.4790783,0.5915641,0.9565618,0.12753598,0.24518506,0.09278089,-0.9956124,0.6341521,-0.5311841,0.0,1.0,0.0,0.0,0.0,0.0,0.0,-0.11817777,0.089107126,-0.0892964,0.043702126,-0.21529198,39.126198,-18.543184,32.77436,-8.817594,0.6019175
35.29556,80.08953,25.603636,1.8433883,3.1878448,0.52728826,0.35850322,-0.62390405,-0.6601021,0.29112652,0.29814762,0.55850846,-0.54827535,0.60803133,0.29129907,-1.2699136,-2.1655116,-0.6849859,1.7817413,1.7325145,-0.7484423,0.34259534,-1.2154847,-2.1922586,-0.70748013,1.7289717,1.7875625,-0.8048254,-1.109837,-1.1615396,0.32483906,0.6811138,0.38703126,0.00097256387,0.4428074,-0.5406494,-0.48451233,0.63276887,-0.8686491,0.45509169,-0.6474408,-0.51934814,-0.47271156,0.5866742,0.9586029,0.12780055,0.23894113,0.08749093,-0.95695573,0.64401925,-0.47692296,0.0,1.0,0.0,0.0,0.0,0.0,0.0,-0.10935056,0.08451232,-0.08276886,-0.15304089,-1.3581991,35.344448,-20.381844,31.557768,-8.411794,0.3420651
33.98671,82.76329,23.894215,3.3590603,2.4502072,0.32362852,0.31129733,-0.586239,-0.62342435,0.3049586,0.26689917,0.5831266,-0.56319344,0.62500983,0.28397143,-1.2778271,-2.1617627,-0.6807902,1.7872844,1.7312431,-0.7423245,0.3316591,-1.2270128,-2.187292,-0.70187175,1.7346777,1.7870342,-0.8003803,-1.0883843,-1.150082,0.55556107,0.5207502,0.63038105,-0.07069917,0.44522506,-0.5488968,-0.48012352,0.6264594,-0.8115023,0.43375242,-0.6266956,-0.52864075,-0.4663334,0.58223885,0.9611372,0.12634972,0.23102614,0.08293392,-0.91536766,0.64245737,-0.43453386,0.0,1.0,0.0,0.0,0.0,0.0,0.0,-0.10110319,0.080123514,-0.07645941,2.0853043,1.0508299,23.488443,-16.039871,23.958004,-7.1163187,0.29339194
38.017937,91.02708,24.984173,5.053524,1.9664345,0.23221561,0.2417672,-0.5353459,-0.5943184,0.4066193,0.24802816,0.62561554,-0.521778,0.62010556,0.2781245,-1.2864445,-2.1466303,-0.67706895,1.7972392,1.7348564,-0.7383697,0.32117775,-1.2382623,-2.1804876,-0.6974332,1.742282,1.7859124,-0.79591995,-1.0348518,-1.1169959,0.7230807,0.41847438,0.80291283,-0.12562455,0.44628802,-0.5565033,-0.47600174,0.6204956,-0.7452361,0.40561697,-0.5885196,-0.53743744,-0.4600544,0.5782668,0.9639456,0.123562634,0.22204614,0.07897144,-0.8652427,0.6289548,-0.38731286,0.0,1.0,0.0,0.0,0.0,0.0,0.0,-0.09349668,0.07600173,-0.070495605,5.3266287,3.2155514,17.066431,-10.165769,17.046642,-5.3496614,0.12065172
36.503754,87.73688,22.66253,3.46614,1.165194,0.17126119,0.36030397,-0.53687537,-0.5725834,0.45402226,0.10750437,0.6537631,-0.5027685,0.6170848,0.2674902,-1.2955207,-2.1350853,-0.68668276,1.8076583,1.7356355,-0.73421144,0.3111842,-1.2490939,-2.172478,-0.6942225,1.7511531,1.7843367,-0.7914548,-0.987541,-1.0721262,0.82766104,0.28905854,0.91465735,-0.16743512,0.44664514,-0.5634537,-0.4721775,0.61487025,-0.6804569,0.37562373,-0.5574591,-0.5456772,-0.45397377,0.57461935,0.96685374,0.119860046,0.21238308,0.07563655,-0.80915797,0.6069563,-0.35981375,0.0,1.0,0.0,0.0,0.0,0.0,0.0,-0.0865463,0.0721775,-0.06487024,4.731405,4.401016,10.598219,-12.822336,11.136066,-3.961873,0.06428361
50.500027,89.77021,24.294168,-1.8130438,0.26556182,0.14510283,0.5852121,-0.48022804,-0.5369282,0.55563486,-0.026484314,0.6854691,-0.44909406,0.6140045,0.2631614,-1.3027867,-2.1169145,-0.6968709,1.8197,1.7394273,-0.7300543,0.30181006,-1.2593821,-2.1634388,-0.6926256,1.760857,1.7824501,-0.78699154,-0.9206915,-1.0147461,0.9298944,0.11706372,0.9888738,-0.1945255,0.4462387,-0.56967926,-0.46871758,0.60964096,-0.60578763,0.33711502,-0.51639587,-0.5531845,-0.44827843,0.5712143,0.9697522,0.11541634,0.2022438,0.07319258,-0.7289602,0.5628483,-0.33664873,0.0,1.0,0.0,0.0,0.0,0.0,0.0,-0.080320716,0.06871757,-0.059640944,6.690967,5.648613,10.287106,-17.059174,7.49135,-2.3721397,-0.014066696
57.82706,74.64779,21.043869,-11.267884,-0.99983627,0.085737824,0.999351,-0.4881632,-0.5274412,0.60299826,-0.31186974,0.72420734,-0.38321805,0.59266347,0.25299373,-1.3121263,-2.103139,-0.7238126,1.8332777,1.7441282,-0.7277252,0.29293948,-1.269163,-2.153473,-0.6937588,1.7711589,1.7803956,-0.7825492,-0.87572294,-0.9661626,1.0183502,-0.18943734,1.0444039,-0.20756924,0.44385687,-0.5751953,-0.46565628,0.60461855,-0.53515613,0.2967122,-0.50134146,-0.5597534,-0.44315147,0.56774646,0.9725847,0.110427625,0.19153038,0.072115436,-0.6309639,0.4998154,-0.3525239,0.0,1.0,0.0,0.0,0.0,0.0,0.0,-0.07480466,0.065656275,-0.054618537,4.519093,4.7608733,8.689952,-30.465593,5.787158,-0.8795291,-0.14749765
44.376568,65.83951,17.186398,-8.970306,-0.88741195,0.06689641,0.90710086,-0.49608874,-0.52994585,0.6094712,-0.37699977,0.7445981,-0.28243956,0.5843254,0.24333061,-1.3221576,-2.0925257,-0.7314588,1.8456187,1.7521517,-0.7241167,0.2843221,-1.278612,-2.1428664,-0.6978326,1.781892,1.7783164,-0.7781335,-0.8567366,-0.9378645,1.0734688,-0.47910008,1.0841209,-0.20657113,0.44140804,-0.58010864,-0.4629383,0.5995936,-0.47918707,0.26451027,-0.5073757,-0.56547546,-0.4385662,0.5639932,0.9753092,0.1050901,0.18023714,0.07240497,-0.5517305,0.4484408,-0.38470176,0.0,1.0,0.0,0.0,0.0,0.0,0.0,-0.06989133,0.0629383,-0.049593568,1.9865274,2.7632356,5.1012754,-28.701752,4.4075966,0.48016608,-0.061297417
33.866623,57.03296,13.821348,-6.1441956,-0.6966864,-0.074297816,0.722581,-0.47137004,-0.55044484,0.5996593,-0.41934294,0.74965024,-0.22835197,0.58855987,0.2371851,-1.3336565,-2.0829005,-0.7397669,1.856857,1.7554811,-0.7192775,0.2758802,-1.2880057,-2.1319947,-0.7042808,1.7928945,1.776304,-0.7737345,-0.83961475,-0.9398661,1.0903859,-0.69909847,1.1071317,-0.19835351,0.44017887,-0.58457947,-0.46048737,0.5943503,-0.43725348,0.23904842,-0.53221214,-0.5705719,-0.43442917,0.5598142,0.97788596,0.09957829,0.16845697,0.07379334,-0.49374506,0.40556073,-0.43013287,0.0,1.0,0.0,0.0,0.0,0.0,0.0,-0.06542051,0.06048736,-0.044350266,1.8319011,-0.23901463,1.2083769,-21.698427,2.7777433,1.1163563,0.1258552
28.700253,56.514866,13.258535,-2.9126148,-0.40954888,-0.12330675,0.5239657,-0.4386366,-0.55703235,0.60680395,-0.45826188,0.75464654,-0.14293171,0.58812284,0.23201653,-1.343709,-2.0713143,-0.750107,1.8683591,1.7620108,-0.71492225,0.2676972,-1.2975348,-2.1210852,-0.71233946,1.8040438,1.7744404,-0.76934636,-0.8106879,-0.9572589,1.0892513,-0.84043133,1.1192621,-0.18154834,0.4393387,-0.5886841,-0.4582653,0.58884466,-0.40188393,0.2171131,-0.55833805,-0.57518005,-0.43066788,0.55520064,0.9802844,0.093944095,0.15633893,0.075993314,-0.44886625,0.3688628,-0.4725701,0.0,1.0,0.0,0.0,0.0,0.0,0.0,-0.061315894,0.0582653,-0.038844645,3.0334592,-1.7443776,-0.6307602,-13.825644,1.7273664,1.9400448,0.1921475
25.290304,58.11032,13.56882,0.3161922,-0.08198197,-0.099745184,0.32134804,-0.402829,-0.5734205,0.6097696,-0.4616266,0.75662297,0.028015222,0.58078724,0.22741428,-1.3548769,-2.0601082,-0.7585021,1.879706,1.777242,-0.71126765,0.25992617,-1.3073272,-2.110244,-0.7212058,1.8152575,1.7728647,-0.7649698,-0.7654326,-0.9865032,1.080729,-0.90096295,1.1239806,-0.14884758,0.43801177,-0.59246826,-0.4562378,0.583099,-0.37067094,0.1978951,-0.5801238,-0.57941437,-0.4272213,0.5502161,0.98248583,0.08813599,0.14406553,0.07873214,-0.41446108,0.33887786,-0.50752825,0.0,1.0,0.0,0.0,0.0,0.0,0.0,-0.057531714,0.056237787,-0.033098996,4.675305,-2.897799,-1.3625383,-5.75974,0.99754333,3.511399,0.14349222
42.05659,66.77277,17.914772,-1.8081393,-0.38450155,-0.17286375,0.30233777,-0.29799908,-0.57555676,0.6425791,-0.4545812,0.7538718,0.1773196,0.5724871,0.23012626,-1.3648828,-2.0459862,-0.7666639,1.8906448,1.7905966,-0.7077211,0.25303158,-1.3173846,-2.099353,-0.7302228,1.8264977,1.7717161,-0.76061344,-0.6635911,-1.0120425,1.0902156,-0.9010507,1.126025,-0.10241085,0.43567616,-0.5958786,-0.45446014,0.57731813,-0.33149618,0.17146935,-0.5778475,-0.5832062,-0.4242096,0.5450273,0.9844721,0.08196736,0.1318322,0.08195295,-0.36592185,0.2904102,-0.5229848,0.0,1.0,0.0,0.0,0.0,0.0,0.0,-0.054121375,0.054460138,-0.02731812,10.346961,-2.5003433,0.43711662,0.273633,0.81448555,4.98271,0.014561415
52.713715,64.956505,18.841951,-5.0877666,-0.7723452,-0.35679412,0.33223915,-0.22156134,-0.6083185,0.64551985,-0.46021986,0.75990504,0.23703963,0.5485297,0.23087545,-1.3782165,-2.034801,-0.7762448,1.9024882,1.79542,-0.7057605,0.24740514,-1.3277835,-2.088332,-0.7390548,1.837762,1.7710491,-0.7562989,-0.52847296,-1.0489501,1.104889,-0.8763062,1.1283823,-0.053644784,0.43093446,-0.59889984,-0.4529705,0.571554,-0.29275855,0.14139283,-0.5751725,-0.5864563,-0.4217968,0.5396706,0.9862324,0.075343445,0.11969183,0.08569072,-0.3115277,0.22663923,-0.53993595,0.0,1.0,0.0,0.0,0.0,0.0,0.0,-0.051100135,0.0529705,-0.021553993,13.667715,-3.6487818,1.0542393,2.76376,0.7755995,5.216938,-0.22925735
43.62317,78.74581,21.072544,0.6129978,-0.3846794,-0.1729895,0.18617868,-0.1951084,-0.5648232,0.6191677,-0.43086082,0.7487281,0.3040696,0.54409957,0.2278943,-1.3842658,-2.026415,-0.78214085,1.9126348,1.8014561,-0.7018889,0.24302514,-1.3382758,-2.077307,-0.74746317,1.8490129,1.7708741,-0.75203115,-0.40723518,-1.0490209,1.0998688,-0.82790935,1.1262813,-0.0042595607,0.4262172,-0.60154724,-0.45175552,0.56595516,-0.2553171,0.11473898,-0.5533246,-0.5892334,-0.4199257,0.5343228,0.9877461,0.06831501,0.107829444,0.08979642,-0.26266506,0.17553577,-0.53321064,0.0,1.0,0.0,0.0,0.0,0.0,0.0,-0.048452735,0.051755518,-0.01595515,12.305403,0.069499016,-0.99623203,5.154884,0.43365955,5.337426,-0.21705627
44.973804,81.35273,21.983034,0.46808964,-0.47986484,-0.2431466,0.18762268,-0.117088005,-0.5742411,0.6320828,-0.41219646,0.7445658,0.2727856,0.5431261,0.23131634,-1.3956999,-2.0140986,-0.7886828,1.9234694,1.7981527,-0.69771856,0.23989041,-1.3487223,-2.066305,-0.75534785,1.8602241,1.771117,-0.7478073,-0.28160045,-1.0430726,1.0986346,-0.77421814,1.1216508,0.035179935,0.42192104,-0.60382843,-0.45080566,0.56060314,-0.21915162,0.08836308,-0.52779394,-0.5914917,-0.41858673,0.52908474,0.9890075,0.060937226,0.096310966,0.09420765,-0.21365628,0.12096486,-0.5210727,0.0,1.0,0.0,0.0,0.0,0.0,0.0,-0.046171546,0.050805658,-0.01060313,12.747372,0.6657362,-0.58062077,5.6992054,0.15206337,4.339737,-0.18001795
23.85383,85.30888,20.783329,7.470323,0.23227808,-0.020825297,0.01346178,-0.12696642,-0.5526929,0.6071546,-0.38782382,0.74479747,0.26037753,0.543655,0.22719377,-1.4039916,-2.0055895,-0.7941302,1.9347038,1.7971547,-0.6934418,0.23763879,-1.3589839,-2.0554364,-0.7626929,1.8713827,1.7716906,-0.74361944,-0.20572372,-1.0201668,1.0813739,-0.7202635,1.1160066,0.06579956,0.4185646,-0.6058197,-0.45005035,0.5555028,-0.19249362,0.07154294,-0.5025065,-0.5934143,-0.4175892,0.5240189,0.9900282,0.05333105,0.085171804,0.09872009,-0.18489261,0.093912944,-0.5021788,0.0,1.0,0.0,0.0,0.0,0.0,0.0,-0.044180274,0.050050348,-0.0055027604,7.775733,2.382803,-2.2422075,5.719733,0.078988075,3.424985,-0.08069277
17.43699,98.65593,23.352854,12.078692,0.45393652,0.10659675,-0.09657132,-0.06874957,-0.49109897,0.57627976,-0.32023814,0.72365934,0.28099397,0.5456705,0.23076382,-1.4080938,-1.9978085,-0.7947167,1.9437486,1.79979,-0.6890524,0.2360924,-1.368738,-2.0448844,-0.76932085,1.8824337,1.7725397,-0.7394595,-0.13693777,-0.9600495,1.0443792,-0.6426677,1.1040406,0.09269655,0.41592216,-0.6075516,-0.44944572,0.55081856,-0.16673629,0.056722198,-0.45519558,-0.5950775,-0.41679955,0.51931894,0.99081457,0.04561606,0.07460663,0.10314738,-0.15954654,0.07511838,-0.4598851,0.0,1.0,0.0,0.0,0.0,0.0,0.0,-0.0424484,0.04944572,-0.0008185506,7.077196,6.1326265,-4.256153,8.084416,-0.47917366,3.1156092,-0.027990341
12.519561,100.436386,23.606934,13.800215,0.6190541,0.1481153,-0.143503,-0.035378024,-0.47392273,0.5783116,-0.27895766,0.7196281,0.2850794,0.5450086,0.2325546,-1.4161303,-1.9870533,-0.7972166,1.9543965,1.8010477,-0.68495864,0.23515804,-1.377859,-2.034657,-0.77512383,1.8933605,1.7736233,-0.7353225,-0.07829285,-0.8956958,1.0136054,-0.5584045,1.0912657,0.11482036,0.41361558,-0.60905457,-0.44896126,0.546639,-0.14444418,0.04594315,-0.40402263,-0.5965347,-0.41614532,0.515079,0.99138844,0.037822537,0.064685196,0.10739686,-0.14069101,0.06300879,-0.41270816,0.0,1.0,0.0,0.0,0.0,0.0,0.0,-0.04094541,0.048961252,0.0033609867,6.054105,6.5531015,-3.6007166,8.734905,-0.59387684,2.6133583,-0.012588501
6.0849032,116.315796,26.746954,17.873774,0.69929385,0.32381934,-0.19103977,-0.02207357,-0.36424345,0.5231244,-0.24914771,0.70057076,0.27965677,0.5346992,0.23295069,-1.4142834,-1.9823445,-0.8000386,1.9634175,1.801589,-0.6818526,0.23468809,-1.3859557,-2.0249255,-0.7801343,1.9041349,1.774892,-0.731215,-0.035928056,-0.7803314,0.9578447,-0.48087895,1.0754457,0.13259125,0.41052267,-0.6103287,-0.44857025,0.54317087,-0.12196565,0.036166295,-0.32681555,-0.5978012,-0.41555595,0.51150733,0.9917646,0.030062465,0.05559316,0.111393765,-0.120515935,0.058572702,-0.33936426,0.0,1.0,0.0,0.0,0.0,0.0,0.0,-0.0396713,0.048570246,0.0068291426,4.4346676,11.672354,-6.1552525,8.06756,-0.8010626,2.2424355,-0.11010766
8.9386215,134.91422,31.862423,20.277132,0.5912521,0.39958912,-0.2145748,0.034798644,-0.2527275,0.49955428,-0.16446243,0.6813393,0.29973188,0.5346843,0.23816796,-1.4112284,-1.9749701,-0.79658055,1.9722688,1.8048651,-0.6777466,0.2347477,-1.3925399,-2.0157852,-0.7841921,1.9147301,1.7763245,-0.7271371,0.020616995,-0.61733687,0.8973915,-0.37967327,1.0568982,0.14853208,0.40745583,-0.6113663,-0.44826508,0.5407482,-0.09763199,0.028563237,-0.21312587,-0.598793,-0.41502762,0.50893116,0.9919602,0.022371646,0.047609176,0.11509872,-0.09373523,0.05132375,-0.23143138,0.0,1.0,0.0,0.0,0.0,0.0,0.0,-0.038633704,0.04826507,0.009251833,5.8575444,16.44007,-6.6096783,10.44243,-1.0356665,2.1067023,-0.13706684
15.24332,153.03702,37.03524,20.600922,0.21308798,0.43140736,-0.14887306,0.08336325,-0.112565175,0.46129057,-0.12607095,0.6703288,0.3046653,0.5226643,0.24308401,-1.4037964,-1.9696561,-0.7967992,1.981763,1.8067911,-0.67487067,0.23547855,-1.397108,-2.0073087,-0.7872686,1.9251523,1.7778974,-0.7230982,0.09124424,-0.40271372,0.8294006,-0.2824023,1.0401474,0.16180255,0.40323412,-0.6121292,-0.44805527,0.53971833,-0.068945885,0.01899897,-0.065935954,-0.5994339,-0.4146366,0.50767434,0.99198943,0.0147742815,0.040980536,0.118571796,-0.05366607,0.035743076,-0.09133018,0.0,0.0,1.0,0.0,0.0,0.0,0.0,-0.037870765,0.04805526,0.010281682,7.264528,21.585691,-7.3209047,10.068644,-0.8575678,1.824069,-0.2735138
2.754538,123.186935,27.2709,20.808586,0.38325638,0.045494195,-0.32570872,0.10314318,-0.12920745,0.30162713,0.006667182,0.65128237,0.3140138,0.5004492,0.24579287,-1.4100287,-1.977146,-0.78660184,1.9902805,1.8092988,-0.6730533,0.2368652,-1.4000052,-2.0000722,-0.78899956,1.9353504,1.779593,-0.71911377,0.15486594,-0.2518991,0.6871548,-0.13589002,1.0147133,0.17304061,0.39732054,-0.6127243,-0.44789886,0.53971225,-0.055724308,0.014759737,0.021268189,-0.5998764,-0.4143467,0.5074098,0.9919066,0.0075816126,0.035646502,0.12162689,-0.041109826,0.026974017,-0.0061249137,0.0,0.0,1.0,0.0,0.0,0.0,0.0,-0.037275672,0.04789886,0.010287762,6.4834356,15.165245,-14.525307,14.899832,-2.0229578,1.4027804,-0.4569471
0.9610683,80.775,14.002761,13.679439,-0.35583794,-0.6181701,-0.28522015,0.14292349,-0.13455924,0.058781132,0.03325924,0.609828,0.30169162,0.4839532,0.25115755,-1.4134611,-1.9941941,-0.7856736,1.9963332,1.8097621,-0.67071843,0.23889366,-1.4019526,-1.9951875,-0.78939724,1.9451715,1.7813843,-0.715197,0.21898548,-0.17563556,0.4220482,-0.007168721,0.9722133,0.18154077,0.39025506,-0.6132431,-0.4478054,0.5398966,-0.050029855,0.007882028,0.017250858,-0.60025024,-0.4142704,0.5073577,0.99175876,0.0014509857,0.03135096,0.12421574,-0.037201334,0.0015621285,-0.006012059,0.0,0.0,1.0,0.0,0.0,0.0,0.0,-0.036756873,0.0478054,0.0101034045,6.4490824,7.6579866,-26.619267,13.009203,-4.02143,0.95193386,-0.5789995
