Afshin1997/kuka_rl_ros2/src/catch_and_throw/input_files/idealpd/recorded_trajectories/env_88_data.csv
torque0,torque1,torque2,torque3,torque4,torque5,torque6,action0,action1,action2,action3,action4,action5,action6,set_target_0,set_target_1,set_target_2,set_target_3,set_target_4,set_target_5,set_target_6,joint_pos_0,joint_pos_1,joint_pos_2,joint_pos_3,joint_pos_4,joint_pos_5,joint_pos_6,joint_vel_0,joint_vel_1,joint_vel_2,joint_vel_3,joint_vel_4,joint_vel_5,joint_vel_6,tennisball_pos_0,tennisball_pos_1,tennisball_pos_2,tennisball_lin_vel_0,tennisball_lin_vel_1,tennisball_lin_vel_2,end_effector_pos_0,end_effector_pos_1,end_effector_pos_2,end_effector_rot_0,end_effector_rot_1,end_effector_rot_2,end_effector_rot_3,end_effector_lin_vel_0,end_effector_lin_vel_1,end_effector_lin_vel_2,obs_task_0,obs_task_1,obs_task_2,obs_task_3,obs_task_4,obs_task_5,obs_task_6,to_final_target_0,to_final_target_1,to_final_target_2,joint_acc_0,joint_acc_1,joint_acc_2,joint_acc_3,joint_acc_4,joint_acc_5,joint_acc_6
0.0,0.0,0.0,0.0,0.0,0.0,0.0,0.0,0.0,0.0,0.0,0.0,0.0,0.0,1.7802359,-1.0646509,-1.8151424,-1.1170107,1.9373155,1.1170107,-0.91629785,1.7802359,-1.0646509,-1.8151424,-1.1170107,1.9373155,1.1170107,-0.91629785,0.0,0.0,0.0,0.0,0.0,0.0,0.0,3.0443077,-0.38339996,0.43807846,-3.9464648,-0.43264118,4.678476,0.5304184,-0.45448303,0.693097,0.5745483,0.17512383,0.15255436,0.7848268,0.0,0.0,0.0,1.0,0.0,0.0,0.0,0.0,0.0,0.0,-3.6943078,-0.016600043,0.11192155,0.0,0.0,0.0,0.0,0.0,0.0,0.0
0.0,0.0,0.0,0.0,0.0,0.0,0.0,0.0,0.0,0.0,0.0,0.0,0.0,0.0,1.7802359,-1.0646509,-1.8151424,-1.1170107,1.9373155,1.1170107,-0.91629785,1.7802359,-1.0646509,-1.8151424,-1.1170107,1.9373155,1.1170107,-0.91629785,0.0,0.0,0.0,0.0,0.0,0.0,0.0,3.0443077,-0.38339996,0.43807846,-3.9464648,-0.43264118,4.678476,0.5304184,-0.45448303,0.693097,0.5745483,0.17512383,0.15255436,0.7848268,0.0,0.0,0.0,1.0,0.0,0.0,0.0,0.0,0.0,0.0,-3.6943078,-0.016600043,0.11192155,0.0,0.0,0.0,0.0,0.0,0.0,0.0
0.0,0.0,0.0,0.0,0.0,0.0,0.0,0.0,0.0,0.0,0.0,0.0,0.0,0.0,1.7802359,-1.0646509,-1.8151424,-1.1170107,1.9373155,1.1170107,-0.91629785,1.7802359,-1.0646509,-1.8151424,-1.1170107,1.9373155,1.1170107,-0.91629785,0.0,0.0,0.0,0.0,0.0,0.0,0.0,3.0443077,-0.38339996,0.43807846,-3.9464648,-0.43264118,4.678476,0.5304184,-0.45448303,0.693097,0.5745483,0.17512383,0.15255436,0.7848268,0.0,0.0,0.0,1.0,0.0,0.0,0.0,0.0,0.0,0.0,-3.6943078,-0.016600043,0.11192155,0.0,0.0,0.0,0.0,0.0,0.0,0.0
-176.0,73.45965,-3.9066086,110.0,9.5045805,4.8609734,-4.071221,-0.7824483,0.3605101,-0.53826505,0.74395066,-0.2458368,0.69883037,-0.5444115,1.7019911,-1.0285999,-1.8689688,-1.0426157,1.9127318,1.1868937,-0.970739,1.7786204,-1.0623792,-1.8205173,-1.1120058,1.9393525,1.1213251,-0.91739744,-0.21515825,0.30215803,-0.71620756,0.66756535,0.2711262,0.57412094,-0.14642805,3.0048714,-0.3877182,0.48409167,-3.942519,-0.43220863,4.575612,0.52835846,-0.45746613,0.6939762,0.57847583,0.17347434,0.1523746,0.782339,-0.27489796,-0.39554468,0.116941355,1.0,0.0,0.0,0.0,0.0,0.0,0.0,-3.6548715,-0.012281805,0.06590834,-21.447147,30.02702,-71.48194,66.84076,26.95146,57.03521,-14.609601
-176.0,-14.918787,-39.407913,109.71916,10.431746,1.776657,-3.569896,-0.7890857,-0.07765294,-0.596549,0.73774326,-0.35309455,0.6747801,-0.54559624,1.6997118,-1.0701445,-1.8801723,-1.0382315,1.9040431,1.1888032,-0.9719571,1.7763926,-1.0592378,-1.8346183,-1.097592,1.9423032,1.1327959,-0.9172334,-0.2229332,0.31659445,-1.6436954,1.7025253,0.30481696,1.3349665,0.072108544,2.965477,-0.39203644,0.529077,-3.9385774,-0.4317765,4.472851,0.5237961,-0.46514893,0.6950552,0.5871271,0.16946751,0.15185863,0.7768535,-0.517771,-0.89374495,0.105508484,1.0,0.0,0.0,0.0,0.0,0.0,0.0,-3.615477,-0.007963568,0.020923018,-0.04823208,1.0048985,-93.463806,104.41871,3.8598418,75.17132,22.29323
-160.62611,74.43483,10.258197,86.44763,6.938844,5.508863,-2.3704317,-0.7587819,0.23327051,-0.25599766,0.68575543,-0.36766472,0.67564124,-0.45691004,1.7005144,-1.0359108,-1.860218,-1.0290165,1.9055367,1.2003601,-0.9629244,1.7710406,-1.0556177,-1.8507793,-1.0786387,1.9437623,1.1461321,-0.9167442,-0.63876504,0.3743894,-1.6025258,1.9616001,0.08880922,1.3288116,0.04051334,2.9261208,-0.39635468,0.5730355,-3.9346397,-0.4313448,4.3701925,0.51662064,-0.47577667,0.6970115,0.59894925,0.1640807,0.1516821,0.7689797,-0.7900489,-1.1115259,0.2296437,1.0,0.0,0.0,0.0,0.0,0.0,0.0,-3.5761209,-0.0036453307,-0.023035467,-41.393543,4.9350204,5.4046392,26.480818,-22.798761,-1.922512,-3.3904076
-96.59878,102.363266,33.101513,52.464397,3.8610246,6.4834414,-0.7761385,-0.7664394,0.2287845,-0.13983612,0.6539715,-0.29166844,0.64788496,-0.48488006,1.6943966,-1.0327393,-1.8647629,-1.0132415,1.9145955,1.2109206,-0.9652322,1.7616297,-1.0516618,-1.8636539,-1.059735,1.9430661,1.158652,-0.916727,-1.0427668,0.40028068,-1.1755675,1.8670735,-0.12843212,1.2228515,-0.012379997,2.8868027,-0.40066528,0.61596817,-3.9307058,-0.43091357,4.2676373,0.5071907,-0.4871521,0.70033205,0.61199874,0.15770966,0.15174016,0.75997376,-1.004518,-1.133993,0.37139282,1.0,0.0,0.0,0.0,0.0,0.0,0.0,-3.5368028,0.00066527724,-0.065968156,-40.691936,1.8786609,44.76037,-9.319639,-23.533592,-11.586714,-5.6332936
-39.841625,129.03566,47.401665,28.230633,1.0404066,6.2961655,-0.04355377,-0.7845924,0.36976916,-0.19418465,0.6538333,-0.34162405,0.63645506,-0.43424064,1.6831704,-1.0146849,-1.8830724,-0.9943516,1.9089037,1.2222974,-0.9601511,1.748902,-1.0469049,-1.8719738,-1.0429884,1.9403653,1.1699225,-0.9172372,-1.3510653,0.4989408,-0.7108516,1.6099131,-0.3229755,1.0927675,-0.06532222,2.8475266,-0.40496826,0.6578761,-3.9267757,-0.43048275,4.165184,0.49621964,-0.4977417,0.7050975,0.6250256,0.15044792,0.15216471,0.7507025,-1.1390437,-1.0225244,0.5153097,1.0,0.0,0.0,0.0,0.0,0.0,0.0,-3.4975266,0.0049682558,-0.10787606,-31.352234,9.295309,48.502014,-25.94924,-21.17521,-13.686395,-5.706044
-3.030023,138.74403,50.00042,15.308374,-0.38510406,5.1002164,0.1302927,-0.80626297,0.5142608,-0.29322648,0.64805907,-0.20906234,0.6198129,-0.4523921,1.6682757,-0.99547887,-1.9012964,-0.9781825,1.9194591,1.2319038,-0.96247643,1.7340552,-1.0405649,-1.8769996,-1.0288321,1.9365926,1.1799761,-0.9182386,-1.5308449,0.6775115,-0.42808378,1.3497934,-0.3996129,0.9744833,-0.11290208,2.8082886,-0.40927124,0.6987602,-3.92285,-0.43005234,4.0628333,0.48441696,-0.5069046,0.7111709,0.6375854,0.14258645,0.15323034,0.7414003,-1.2025262,-0.8673381,0.6398106,1.0,0.0,0.0,0.0,0.0,0.0,0.0,-3.4582887,0.009271234,-0.1487602,-18.500828,17.420685,29.808056,-26.354122,-8.934778,-12.303675,-5.113909
14.667235,130.51704,44.805214,9.984854,-0.42968374,3.5801907,0.1581005,-0.81827974,0.59985584,-0.3611038,0.63676375,0.0849015,0.60923797,-0.4690066,1.6522272,-0.9805793,-1.91311,-0.9651557,1.9450828,1.2408999,-0.96513927,1.7182318,-1.0322431,-1.8807361,-1.0167624,1.9333768,1.1889731,-0.91966814,-1.6011555,0.882871,-0.3522224,1.158172,-0.29813838,0.87347543,-0.15385653,2.7690887,-0.41357422,0.7386216,-3.918928,-0.42962238,3.9605854,0.47229767,-0.5146713,0.7182578,0.64963806,0.13458453,0.15482196,0.7320433,-1.2214328,-0.73227125,0.7322249,1.0,0.0,0.0,0.0,0.0,0.0,0.0,-3.4190888,0.013574213,-0.18862158,-7.4654818,20.232212,8.612376,-19.499111,9.312886,-10.492384,-4.3586493
25.236303,120.85215,40.837578,7.6189065,-0.2642966,2.6544137,0.16914092,-0.81692874,0.66392946,-0.33171824,0.61213,0.21925543,0.611772,-0.47663194,1.636539,-0.9658502,-1.9139079,-0.95554936,1.9553024,1.2501503,-0.96733135,1.7022711,-1.0219778,-1.8844554,-1.006045,1.9318185,1.1970907,-0.9214601,-1.5957072,1.0737444,-0.37598446,1.0417873,-0.11021441,0.7901718,-0.18849745,2.7299309,-0.41786194,0.7774613,-3.9150097,-0.42919284,3.85844,0.46017075,-0.52124786,0.7261387,0.661236,0.12669381,0.15667392,0.7226125,-1.215647,-0.6176861,0.8068684,1.0,0.0,0.0,0.0,0.0,0.0,0.0,-3.379931,0.017861933,-0.22746128,0.18491745,18.87157,-1.620084,-11.978316,18.226551,-8.681286,-3.7047715
33.811806,118.1259,42.0251,7.067156,0.11200422,2.6232975,0.3081845,-0.8046448,0.71286446,-0.18831357,0.5874554,0.3287994,0.6329518,-0.47030336,1.6218066,-0.95069134,-1.9032868,-0.9472994,1.9646984,1.2603859,-0.9684904,1.6866804,-1.0100931,-1.8880794,-0.99605924,1.9323564,1.2045027,-0.92354864,-1.548037,1.2262233,-0.35567948,0.98315704,0.10699244,0.72354394,-0.21655156,2.6908112,-0.42214966,0.81528026,-3.9110954,-0.42876375,3.7563965,0.44813538,-0.52669525,0.7348417,0.6723482,0.11879856,0.15835108,0.7132739,-1.2031053,-0.50762475,0.8915114,1.0,0.0,0.0,0.0,0.0,0.0,0.0,-3.3408113,0.022149652,-0.26528025,4.4436455,15.07082,2.7424335,-6.188917,21.261887,-7.0376277,-3.047818
38.50008,116.92853,44.558655,7.734539,0.5445297,2.9990733,0.47193962,-0.7918464,0.73682296,0.0020999042,0.57727534,0.38496274,0.6432919,-0.46018624,1.6074958,-0.9364108,-1.8878694,-0.9383317,1.9708526,1.2688318,-0.96956724,1.671662,-0.9970807,-1.8906105,-0.9863489,1.9348893,1.2113463,-0.92587465,-1.487279,1.3257457,-0.21639854,0.9661592,0.30064982,0.6700116,-0.23880461,2.6517296,-0.42643738,0.85207963,-3.907185,-0.42833507,3.6544552,0.43619156,-0.5310364,0.7445247,0.6828911,0.11056645,0.15937112,0.704298,-1.1948264,-0.3941714,0.99383515,1.0,0.0,0.0,0.0,0.0,0.0,0.0,-3.3017297,0.026437372,-0.30207962,5.7807684,9.784865,14.696622,-1.9597173,18.949318,-5.7524204,-2.4928033
34.656532,108.03596,42.089558,9.186739,0.9278836,2.9986694,0.5037587,-0.7857166,0.74995416,0.104148395,0.57879376,0.444372,0.6482573,-0.44926444,1.5930903,-0.9220853,-1.8801956,-0.92846954,1.9793265,1.276172,-0.9708011,1.6571871,-0.9834355,-1.8912971,-0.97660524,1.9391007,1.217734,-0.9283857,-1.43507,1.3769116,-0.016847914,0.97655004,0.45991695,0.6270128,-0.25607365,2.6126862,-0.43071747,0.8878603,-3.9032788,-0.4279068,3.552616,0.42425537,-0.5343323,0.75519496,0.69284713,0.10178164,0.15944149,0.6958316,-1.1954385,-0.2911053,1.0908036,1.0,0.0,0.0,0.0,0.0,0.0,0.0,-3.2626863,0.030717462,-0.3378603,4.98302,4.9602985,20.707405,0.8618474,15.568519,-4.6817064,-2.0157843
25.266354,93.97862,35.905468,11.098597,1.173279,2.6644604,0.4028051,-0.7824583,0.75105065,0.16160539,0.5992538,0.46628127,0.65672296,-0.42988843,1.5789412,-0.90833044,-1.8751366,-0.91667986,1.9857289,1.2834063,-0.9713745,1.6431013,-0.96956813,-1.8900115,-0.96658593,1.9445539,1.2237612,-0.9310302,-1.400185,1.3895179,0.17938939,1.0099231,0.5728949,0.59341294,-0.26816458,2.5736809,-0.43498993,0.9226234,-3.8993764,-0.427479,3.4508781,0.41223526,-0.5367279,0.7666738,0.7023003,0.09241787,0.15854277,0.68782073,-1.2060457,-0.20873192,1.1654766,1.0,0.0,0.0,0.0,0.0,0.0,0.0,-3.223681,0.034989923,-0.37262338,3.3173323,1.1262655,20.280704,3.2150507,11.025333,-3.6803365,-1.5016973
16.988222,80.82819,29.334896,11.827108,1.1638598,2.1889148,0.28118157,-0.7753459,0.754282,0.19455269,0.61226,0.48860738,0.6631227,-0.4014267,1.5655668,-0.89413995,-1.8705562,-0.9053599,1.9934146,1.2900735,-0.97117287,1.6292578,-0.9557246,-1.887099,-0.9561804,1.9508557,1.229508,-0.9337539,-1.3794508,1.3822823,0.33050737,1.0503553,0.64857084,0.5676667,-0.27471337,2.5347176,-0.4392624,0.9563699,-3.8954778,-0.4270516,3.3492422,0.400074,-0.5384674,0.7786959,0.7113499,0.08258005,0.15684505,0.6801186,-1.2209927,-0.14444157,1.2121682,1.0,0.0,0.0,0.0,0.0,0.0,0.0,-3.1847177,0.039262384,-0.40636986,1.945138,-0.83003044,15.654951,3.9304733,7.3756814,-2.8101206,-0.9334266
8.051492,68.68162,22.52222,12.357349,1.0488757,1.6533697,0.12746578,-0.7829517,0.75822926,0.18923801,0.6171346,0.5053273,0.66536206,-0.38782278,1.5509627,-0.87990165,-1.8681753,-0.89446694,2.0013885,1.2960442,-0.9725362,1.6154848,-0.9419917,-1.8832233,-0.94542104,1.9577069,1.2350413,-0.93651766,-1.3769456,1.3700777,0.40792271,1.0839711,0.6970585,0.5481785,-0.27768236,2.4957924,-0.44353485,0.9891007,-3.891583,-0.42662466,3.2477078,0.3877449,-0.5396881,0.79096353,0.7201109,0.07246402,0.15463817,0.6725148,-1.238529,-0.09827453,1.2286075,1.0,0.0,0.0,0.0,0.0,0.0,0.0,-3.1457925,0.043534845,-0.43910068,0.13651848,-1.2933493,8.150906,3.2269955,4.7489405,-2.0843387,-0.5380988
5.1149435,61.758423,18.573105,11.354101,0.75051004,1.2759243,0.05308926,-0.7803995,0.75881267,0.19734213,0.61598814,0.5020754,0.673548,-0.369844,1.5374448,-0.86611044,-1.863489,-0.8838222,2.0079145,1.302396,-0.97350204,1.6016852,-0.92837036,-1.878968,-0.9344347,1.9648576,1.24042,-0.9392881,-1.381354,1.3592825,0.43272558,1.1030785,0.72102696,0.5343309,-0.27754185,2.4569054,-0.44779205,1.0208169,-3.887692,-0.42619812,3.146275,0.37526703,-0.5404892,0.8032436,0.7286412,0.062234484,0.15221226,0.664861,-1.2510892,-0.057719603,1.2242401,1.0,0.0,0.0,0.0,0.0,0.0,0.0,-3.1069055,0.047792047,-0.4708169,-0.55778027,-1.13163,2.8169692,1.7487049,2.3534417,-1.429975,-0.2058506
3.5185413,57.451702,15.895548,10.512092,0.49345416,0.98583937,-0.004287295,-0.78323644,0.7603458,0.18251716,0.61550236,0.50132865,0.6766582,-0.35925,1.5233616,-0.85233575,-1.8607163,-0.87288445,2.0149903,1.3080858,-0.97521305,1.5878092,-0.91482055,-1.874789,-0.923353,1.9721341,1.2456881,-0.9420442,-1.390084,1.3534559,0.4140276,1.1092694,0.7297303,0.5244352,-0.27560195,2.4180565,-0.45204926,1.0515196,-3.8838053,-0.425772,3.0449438,0.36270905,-0.54091644,0.81537485,0.73697335,0.052016854,0.14980444,0.6570564,-1.2580954,-0.020587115,1.2055876,1.0,0.0,0.0,0.0,0.0,0.0,0.0,-3.0680566,0.05204925,-0.5015196,-0.9978056,-0.6210327,-1.5851676,0.4341364,0.8690238,-0.9695649,-0.0074267387
5.504326,57.626743,15.64109,9.291235,0.25050104,0.8762436,0.006641321,-0.7815303,0.7645767,0.18147384,0.60767776,0.50456023,0.67516774,-0.3512699,1.5096562,-0.8383629,-1.8566417,-0.86258525,2.0225902,1.3132049,-0.9771712,1.5738608,-0.90127933,-1.8708999,-0.9123066,1.9794431,1.2508742,-0.9447736,-1.396911,1.3541714,0.38150096,1.1025307,0.731332,0.5168622,-0.2727963,2.3792496,-0.45630646,1.0812098,-3.8799224,-0.42534631,2.9437137,0.350132,-0.54094696,0.82729065,0.7450967,0.0418641,0.14755686,0.6490803,-1.2575353,0.020870259,1.18295,1.0,0.0,0.0,0.0,0.0,0.0,0.0,-3.0292497,0.05630645,-0.53120977,-0.8172035,0.032496452,-2.9575646,-0.86820126,0.157547,-0.70654154,0.07684231
6.6782484,58.843975,15.825796,9.019101,0.115869224,0.84028745,0.00039881095,-0.7836214,0.7697172,0.16835934,0.6079634,0.49219358,0.68177414,-0.34275308,1.4954987,-0.8243076,-1.854064,-0.8515103,2.0286624,1.3190516,-0.9790489,1.5598551,-0.8876885,-1.867377,-0.90134984,1.9867043,1.2560011,-0.9474706,-1.4024303,1.3605623,0.3436105,1.092642,0.7243934,0.5115512,-0.26936615,2.3404808,-0.46055603,1.1098884,-3.8760433,-0.42492107,2.8425846,0.3375969,-0.5405197,0.8389852,0.7530035,0.03177611,0.14555626,0.64092845,-1.2525198,0.06578426,1.1608331,1.0,0.0,0.0,0.0,0.0,0.0,0.0,-2.990481,0.060556024,-0.5598884,-0.6919384,0.5961418,-3.4782946,-1.1821747,-0.70399046,-0.4752159,0.13726354
6.088278,58.547577,15.428375,9.294764,0.12506694,0.7822437,-0.008630484,-0.7934757,0.7722355,0.14614867,0.6017405,0.50088704,0.6814218,-0.34415945,1.4805075,-0.810465,-1.8527622,-0.8411758,2.036793,1.3241433,-0.98188657,1.5457636,-0.8740195,-1.8642604,-0.8905123,1.993916,1.2610842,-0.9501371,-1.4116378,1.3688254,0.30205885,1.0800674,0.7200489,0.507296,-0.26644576,2.3017502,-0.46479797,1.1375564,-3.872168,-0.42449623,2.7415566,0.32509995,-0.5396652,0.8504562,0.760703,0.021758487,0.14382838,0.63259053,-1.2469304,0.109493986,1.1383296,1.0,0.0,0.0,0.0,0.0,0.0,0.0,-2.9517503,0.06479797,-0.5875564,-1.0672331,0.78332424,-3.8377225,-1.4538288,-0.44306517,-0.37542582,0.08749962
8.915006,60.137722,16.38114,8.7305,0.0791384,0.7999799,0.038805254,-0.7865851,0.77116525,0.15599687,0.5982332,0.49491337,0.67874724,-0.3452698,1.4671052,-0.79690295,-1.8486607,-0.83068895,2.0434074,1.3289589,-0.9846641,1.5316302,-0.8602866,-1.8614147,-0.87979394,2.0010757,1.2661272,-0.95277876,-1.4145088,1.3746324,0.2799011,1.0685155,0.714342,0.50350225,-0.26422548,2.2630577,-0.46903992,1.164215,-3.8682966,-0.42407182,2.6406298,0.31269836,-0.5383301,0.8617315,0.76816434,0.011775228,0.14233424,0.62412,-1.2370782,0.15779945,1.1197953,1.0,0.0,0.0,0.0,0.0,0.0,0.0,-2.9130578,0.06903991,-0.61421496,-0.43087006,0.53269863,-1.856947,-1.3437271,-0.6111622,-0.33929348,0.004583597
9.842217,61.169777,16.962858,8.885861,0.085819304,0.84321874,0.06716549,-0.7913595,0.7697943,0.16839132,0.5957212,0.46602833,0.68393093,-0.32357013,1.4524943,-0.7833072,-1.8445755,-0.82022184,2.0476785,1.3345203,-0.9851358,1.5174662,-0.84652317,-1.8586242,-0.86917,2.0080986,1.2711416,-0.9553861,-1.4173521,1.3768016,0.28007638,1.0596787,0.698257,0.50071573,-0.26034328,2.2244034,-0.47328186,1.189865,-3.864429,-0.42364782,2.539804,0.30039215,-0.53648376,0.87284917,0.7753588,0.0017636473,0.14104071,0.61556727,-1.2262348,0.20919918,1.1048661,1.0,0.0,0.0,0.0,0.0,0.0,0.0,-2.8744035,0.073281854,-0.639865,-0.4272461,0.16469955,0.4125893,-1.0608673,-1.670897,-0.25106668,0.16381145
10.7533,60.512375,16.98143,8.656832,0.107343376,0.81501603,0.10541587,-0.79168254,0.7625386,0.18287827,0.59063315,0.4538068,0.68449646,-0.30933636,1.438298,-0.7702693,-1.8403364,-0.8101067,2.0534792,1.3395913,-0.9863197,1.503285,-0.83278835,-1.8556907,-0.85862714,2.0149345,1.2761313,-0.9579467,-1.4188662,1.3722118,0.29897633,1.0519289,0.6785434,0.49856436,-0.25540882,2.1857872,-0.47751617,1.2145075,-3.8605652,-0.42322427,2.4390788,0.28819656,-0.5341339,0.883823,0.78225416,-0.008314085,0.1398969,0.6069911,-1.2138603,0.26094532,1.0904305,1.0,0.0,0.0,0.0,0.0,0.0,0.0,-2.8357873,0.07751617,-0.66450745,-0.2880335,-0.5100012,2.3038864,-0.9426117,-2.0540118,-0.18557906,0.26806593
12.36898,62.534798,17.79601,8.347206,0.07505083,0.85108566,0.15190975,-0.794749,0.7672213,0.21043628,0.57511246,0.44519112,0.68035585,-0.30845338,1.4238101,-0.7560662,-1.834647,-0.8011159,2.0594537,1.3441669,-0.98879206,1.489081,-0.819085,-1.8524234,-0.8482092,2.021576,1.2810999,-0.9604606,-1.4212531,1.3694245,0.33744803,1.0379456,0.65891814,0.4963551,-0.25090632,2.1472092,-0.48174286,1.2381436,-3.8567052,-0.42280114,2.3384545,0.27614975,-0.53121185,0.89467674,0.7888128,-0.018493887,0.1388605,0.59845644,-1.1988196,0.31742692,1.078939,1.0,0.0,0.0,0.0,0.0,0.0,0.0,-2.7972093,0.08174285,-0.68814355,-0.37765503,-0.33535957,4.30218,-1.5496492,-2.0755053,-0.19555092,0.22274256
12.834583,61.082092,17.095137,7.600915,0.056090474,0.71604896,0.19168907,-0.79814595,0.76750845,0.20881268,0.5531641,0.47188276,0.6823486,-0.280577,1.4092665,-0.7423341,-1.8315421,-0.7928928,2.0687642,1.3493347,-0.9885183,1.4748427,-0.8054007,-1.8488185,-0.83801156,2.028141,1.2860514,-0.96291345,-1.4251578,1.3678894,0.3697649,1.0130932,0.65525424,0.49492106,-0.24419759,2.1086693,-0.48596954,1.2607741,-3.8528495,-0.42237842,2.2379308,0.26426697,-0.52775574,0.9053856,0.79500717,-0.028742062,0.13789524,0.59001887,-1.1805636,0.3712832,1.0632572,1.0,0.0,0.0,0.0,0.0,0.0,0.0,-2.7586694,0.08596954,-0.7107741,-0.52900314,-0.20308495,3.6735833,-2.6354313,-0.47460794,-0.09482503,0.45296252
13.909733,60.220245,16.769878,6.64491,-0.003962815,0.61816436,0.24179369,-0.8029314,0.7651651,0.23640534,0.52511716,0.47607467,0.6812314,-0.26818097,1.3945495,-0.7288842,-1.825178,-0.7854999,2.0757484,1.3541745,-0.98973155,1.460549,-0.7917346,-1.8448474,-0.828162,2.0347214,1.2909914,-0.96529573,-1.4312536,1.3660349,0.40769038,0.97512966,0.6586746,0.49393865,-0.23688602,2.0701714,-0.49019623,1.2824003,-3.8489976,-0.42195612,2.1375077,0.2525978,-0.5237503,0.91591716,0.8008047,-0.039022293,0.13697194,0.5817455,-1.1581407,0.4247292,1.0445619,1.0,0.0,0.0,0.0,0.0,0.0,0.0,-2.7201715,0.09019622,-0.73240024,-0.74818134,-0.23071766,4.2392197,-3.9420843,0.22978783,-0.022476912,0.5178124
12.894692,58.541233,15.754,6.9565554,-0.019945621,0.47740602,0.20384519,-0.8040492,0.7667249,0.22928543,0.52251077,0.46343058,0.6816476,-0.24527422,1.3801441,-0.7150621,-1.8219188,-0.7759109,2.0810645,1.3591561,-0.98982316,1.4462,-0.77807415,-1.8406227,-0.8186453,2.0413132,1.2959238,-0.96759313,-1.4367471,1.3659092,0.4288612,0.94332546,0.6594359,0.4933837,-0.22799174,2.0317116,-0.49440765,1.3030229,-3.8451495,-0.42153424,2.0371847,0.24115753,-0.51924133,0.9262475,0.8062273,-0.04930319,0.13612877,0.57361615,-1.134615,0.4734372,1.0237129,1.0,0.0,0.0,0.0,0.0,0.0,0.0,-2.6817117,0.09440765,-0.75302285,-0.67813396,-0.049209595,2.5149941,-3.318572,-0.009667873,0.035005808,0.6941974
12.181073,56.74839,14.821127,6.9805937,-0.05264318,0.34515193,0.18638378,-0.80846184,0.7662573,0.23190443,0.5055244,0.45549414,0.683739,-0.20859149,1.3653538,-0.70144844,-1.8174322,-0.7680929,2.0868626,1.3642977,-0.98845226,1.4317881,-0.7644118,-1.8362701,-0.80943567,2.0478897,1.3008543,-0.96978086,-1.4430112,1.3661997,0.43852392,0.9131161,0.65681875,0.4933482,-0.21632922,1.99329,-0.49861908,1.3226429,-3.8413053,-0.42111278,1.9369619,0.22995758,-0.5142822,0.93635243,0.81130314,-0.05955254,0.13541561,0.5655999,-1.1094364,0.5182075,1.000358,1.0,0.0,0.0,0.0,0.0,0.0,0.0,-2.64329,0.09861907,-0.7726429,-0.7499933,-0.000166893,1.3314366,-3.156376,-0.3252387,0.10206103,0.98288953
13.681759,56.656883,14.81816,6.197198,-0.12867284,0.26407555,0.23436025,-0.80680233,0.7659011,0.25370076,0.4797361,0.4564918,0.6837972,-0.14480086,1.3511078,-0.6878217,-1.8109,-0.76146203,2.093539,1.3692341,-0.984261,1.417338,-0.75074756,-1.8317859,-0.8005608,2.0544434,1.3057867,-0.97181314,-1.4462146,1.3665024,0.45290288,0.8785428,0.65425485,0.49359924,-0.19946891,1.9549065,-0.5028305,1.3412616,-3.8374648,-0.42069176,1.8368393,0.21903992,-0.5088806,0.94622034,0.8160117,-0.0697573,0.13484298,0.5577419,-1.0796266,0.56326056,0.9764666,1.0,0.0,0.0,0.0,0.0,0.0,0.0,-2.6049066,0.1028305,-0.7912616,-0.43518543,0.004529953,1.8001318,-3.5824418,-0.32269955,0.1481533,1.5063077
12.401634,56.040638,14.432192,7.2234354,-0.045987546,0.21815592,0.20658803,-0.8093534,0.7640825,0.26085758,0.48581538,0.43640226,0.68120086,-0.08391414,1.3364027,-0.6743393,-1.8057002,-0.75197923,2.0980835,1.3739069,-0.9802046,1.4028593,-0.7370881,-1.8271606,-0.79192144,2.0609093,1.3107191,-0.9736423,-1.4487008,1.3656402,0.46700683,0.8586544,0.6441973,0.4934659,-0.17797746,1.9165611,-0.5070343,1.3588797,-3.8336282,-0.42027116,1.7368168,0.20840073,-0.503006,0.9558696,0.82036734,-0.0799361,0.13442732,0.55003345,-1.0523337,0.60556537,0.95504254,1.0,0.0,0.0,0.0,0.0,0.0,0.0,-2.5665612,0.107034296,-0.8088797,-0.35262108,-0.108098984,1.7450988,-2.1003485,-1.0606527,0.09461045,1.9807875
15.323561,57.67552,15.274083,5.8132954,-0.1398806,0.20717096,0.3350306,-0.80931383,0.7647677,0.30722728,0.44295713,0.4442152,0.68000937,0.055818018,1.3219279,-0.66061133,-1.7964379,-0.7476257,2.1053307,1.37872,-0.9680605,1.3883673,-0.7234353,-1.8222091,-0.783593,2.0673065,1.3156496,-0.9751691,-1.4497669,1.3651054,0.5058736,0.8238919,0.6376195,0.4933144,-0.14477026,1.8782539,-0.51123047,1.3754983,-3.8297954,-0.41985098,1.6368943,0.19807434,-0.49669647,0.96531045,0.8242987,-0.09010359,0.13412783,0.54260725,-1.018731,0.6525122,0.93433595,1.0,0.0,0.0,0.0,0.0,0.0,0.0,-2.528254,0.11123046,-0.8254983,-0.20456314,-0.07867813,4.2600274,-3.5681963,-0.741601,0.10569692,3.1475186
16.470615,56.652473,15.207653,5.249466,-0.11314124,0.13636711,0.41710705,-0.8024368,0.75503254,0.33954826,0.43376908,0.43858036,0.68278253,0.22081532,1.3081236,-0.64793205,-1.7882543,-0.7402161,2.1111646,1.3839278,-0.95308757,1.3739039,-0.7098311,-1.8167541,-0.7755936,2.073635,1.320582,-0.9762611,-1.4452907,1.3587077,0.55983055,0.7918262,0.6312274,0.4935361,-0.097907394,1.8399849,-0.51542664,1.3911184,-3.8259664,-0.4194312,1.5370718,0.1880951,-0.48992157,0.9745462,0.8277373,-0.10027487,0.1338947,0.53560066,-0.9832526,0.6979152,0.9136671,1.0,0.0,0.0,0.0,0.0,0.0,0.0,-2.489985,0.11542663,-0.8411184,0.37391186,-0.659585,5.7522535,-3.2792091,-0.7247567,0.1527667,4.5179753
10.738361,52.539715,13.414974,8.690319,0.18614966,0.059372216,0.2743831,-0.80293334,0.74319017,0.3277316,0.49075007,0.37588486,0.67479235,0.35636422,1.2936106,-0.6355121,-1.783981,-0.7265186,2.1112237,1.3880613,-0.94062465,1.3594881,-0.69634426,-1.8109062,-0.76756555,2.079731,1.3255068,-0.9768142,-1.4404683,1.3452744,0.59400153,0.8062912,0.60228264,0.492609,-0.041545577,1.801754,-0.5196228,1.4057412,-3.8221412,-0.41901186,1.4373491,0.17836761,-0.4827652,0.9836012,0.8307594,-0.11048367,0.13377069,0.52890223,-0.961078,0.7331469,0.89627063,1.0,0.0,0.0,0.0,0.0,0.0,0.0,-2.451754,0.1196228,-0.8557412,0.42734146,-1.3500214,3.6756992,1.3772607,-2.9194832,0.00039935112,5.4914966
7.6491766,49.085022,11.89645,10.251651,0.16016012,-0.039668113,0.1520388,-0.7968336,0.73169756,0.32702404,0.5186755,0.26331168,0.6740743,0.44590807,1.2798048,-0.6231745,-1.7782037,-0.715698,2.1060622,1.3929143,-0.9322234,1.345143,-0.6830329,-1.8048542,-0.7591751,2.0852127,1.330424,-0.97678083,-1.43267,1.3264333,0.6095125,0.8497527,0.5304981,0.4915512,0.01783759,1.7635612,-0.5238037,1.4193674,-3.8183198,-0.41859293,1.337726,0.16884232,-0.47528076,0.99247825,0.83346546,-0.12075102,0.13392207,0.52232116,-0.9420862,0.76335347,0.8781501,1.0,0.0,0.0,0.0,0.0,0.0,0.0,-2.4135613,0.123803705,-0.8693674,0.7414818,-1.8836498,1.7504573,4.279721,-7.1771145,-0.015598536,5.813385
6.009463,45.61116,10.276231,10.246511,-0.020861626,-0.21349555,0.060806744,-0.7950777,0.7247783,0.30457926,0.5273672,0.1777186,0.6647484,0.48543087,1.2656353,-0.61055505,-1.7743962,-0.7064384,2.1029847,1.3968987,-0.92823774,1.3308703,-0.66991127,-1.7988575,-0.7503174,2.0897713,1.3353239,-0.97618,-1.425434,1.3073992,0.59694344,0.897589,0.43111047,0.4898998,0.07377377,1.7254066,-0.5279846,1.4319983,-3.8145022,-0.41817442,1.2382026,0.15953064,-0.46754456,1.0011369,0.8359419,-0.13102137,0.13454367,0.51568633,-0.91995966,0.7883285,0.85498565,1.0,0.0,0.0,0.0,0.0,0.0,0.0,-2.3754067,0.12798461,-0.88199824,0.6863117,-1.9004107,-1.0875821,4.7119617,-9.927172,-0.051432848,5.4860168
6.250926,42.658005,8.899288,8.683916,-0.3850643,-0.4176788,0.019707501,-0.79593605,0.7170446,0.28135636,0.52112144,0.061068736,0.65519047,0.50735503,1.2512766,-0.5982068,-1.7707218,-0.69820523,2.0958781,1.400843,-0.9254445,1.3166472,-0.6569699,-1.7931488,-0.74110585,2.0931168,1.3402029,-0.9750652,-1.4212725,1.2896664,0.56272507,0.9287594,0.30221042,0.48792675,0.12377451,1.6872902,-0.5321655,1.4436345,-3.8106885,-0.41775632,1.1387786,0.15050507,-0.4595871,1.0095052,0.8382444,-0.14118947,0.13585028,0.50887775,-0.8874588,0.80973667,0.82393587,1.0,0.0,0.0,0.0,0.0,0.0,0.0,-2.3372903,0.13216552,-0.8936345,0.3722906,-1.7709017,-3.2521963,3.0379891,-12.88575,-0.030744076,4.902777
9.268449,38.243034,7.740987,4.880224,-0.7176177,-0.68791854,0.12199876,-0.7932293,0.6939598,0.28694418,0.48108763,-0.006158859,0.6493579,0.5442454,1.2373242,-0.58757395,-1.7644544,-0.6929971,2.092501,1.4051387,-0.92064065,1.3024603,-0.6442641,-1.7877414,-0.73189336,2.0951614,1.3450648,-0.973483,-1.417914,1.2641807,0.5342223,0.9184536,0.17193621,0.4863443,0.16945194,1.6492119,-0.53634644,1.4542773,-3.8068786,-0.41733864,1.039454,0.14191437,-0.4514618,1.0174768,0.8403458,-0.15111281,0.13791439,0.5019596,-0.8404133,0.82456183,0.7815676,1.0,0.0,0.0,0.0,0.0,0.0,0.0,-2.299212,0.13634643,-0.90427727,0.2963066,-2.5428295,-2.6527643,-1.1190176,-13.059703,0.081539154,4.4653864
12.001288,34.937252,6.9170275,1.7040081,-0.9384302,-0.9335975,0.21454218,-0.7885218,0.6758771,0.27820262,0.44470733,-0.06185398,0.6456708,0.5581052,1.2236081,-0.57667637,-1.7599212,-0.68742263,2.0889761,1.4096318,-0.9176725,1.2883173,-0.6318511,-1.782582,-0.7230471,2.095993,1.3499132,-0.971487,-1.4132383,1.2337515,0.51043963,0.8730203,0.053109232,0.48518375,0.20924623,1.6111717,-0.5405121,1.4639275,-3.8030725,-0.41692138,0.9402287,0.13388062,-0.44321442,1.0249659,0.84220254,-0.16066264,0.1407081,0.4950592,-0.78201807,0.83219403,0.73153514,1.0,0.0,0.0,0.0,0.0,0.0,0.0,-2.2611718,0.14051208,-0.9139275,0.43911934,-3.0320883,-2.1711946,-4.6321034,-11.942256,0.17284751,3.8729043
13.41238,34.54393,6.8111315,0.31638813,-1.0880439,-1.0465878,0.25195682,-0.78841704,0.663229,0.27742258,0.4151237,-0.16385174,0.64766145,0.56637347,1.2094756,-0.56552815,-1.7548398,-0.6815347,2.079608,1.4146794,-0.91484964,1.2742125,-0.6197394,-1.7775867,-0.714793,2.0956001,1.3547522,-0.9691362,-1.4096938,1.2036617,0.49685076,0.8091961,-0.07034856,0.48453987,0.24330182,1.5731697,-0.54467773,1.4725863,-3.7992702,-0.41650453,0.84110266,0.1264801,-0.4349289,1.0319426,0.84379804,-0.16977537,0.14423484,0.4882391,-0.7168096,0.8376405,0.68014723,1.0,0.0,0.0,0.0,0.0,0.0,0.0,-2.2231698,0.14467773,-0.92258626,0.33307076,-2.998066,-1.1390984,-6.457913,-12.433486,0.23136139,3.3009112
18.150349,29.612053,5.5547323,-5.032672,-1.5401614,-1.4238977,0.40067786,-0.77443093,0.6349681,0.26369095,0.31123182,-0.23631398,0.64683014,0.5827823,1.1967694,-0.5562426,-1.7512176,-0.68366987,2.0719688,1.4194351,-0.9108579,1.2601992,-0.60798347,-1.7727249,-0.707568,2.0940094,1.3595911,-0.9664764,-1.3985852,1.1662596,0.48320612,0.6933198,-0.18899535,0.48469234,0.2730652,1.5352058,-0.5488434,1.4802545,-3.7954717,-0.4160881,0.74207574,0.119895935,-0.426651,1.0383064,0.84508157,-0.17829727,0.14850391,0.4816572,-0.6312368,0.8316984,0.6159135,1.0,0.0,0.0,0.0,0.0,0.0,0.0,-2.185206,0.14884338,-0.9302545,1.1252165,-3.7187815,-1.1603773,-11.65688,-11.972037,0.37926435,2.8624773
14.093235,26.364834,4.3251567,-2.3405113,-1.2580814,-1.523892,0.2661353,-0.76876986,0.61425495,0.22145405,0.33072934,-0.33122155,0.6462263,0.5954009,1.1833222,-0.54655796,-1.7505795,-0.67449504,2.0608873,1.4242138,-0.9069363,1.2463137,-0.59661853,-1.7681606,-0.7012556,2.0912094,1.3644282,-0.96354765,-1.3851366,1.1265948,0.4479309,0.6103382,-0.31067568,0.48456135,0.29916486,1.4972801,-0.5530014,1.4869334,-3.791677,-0.4156721,0.6431478,0.11406708,-0.41848755,1.0440657,0.8461248,-0.18619663,0.15351881,0.4752215,-0.5575559,0.81636757,0.55710065,1.0,0.0,0.0,0.0,0.0,0.0,0.0,-2.1472802,0.1530014,-0.93693334,1.3726234,-3.9314032,-3.4211814,-8.369732,-12.213373,0.31380057,2.506864
9.703563,14.415205,0.46808863,-2.1976986,-1.1814585,-1.932555,0.14669064,-0.76553196,0.5722357,0.12950678,0.28305534,-0.415332,0.6528458,0.5994797,1.1697605,-0.539395,-1.7552099,-0.6729501,2.0496762,1.4297128,-0.9035997,1.2325541,-0.5857543,-1.7643516,-0.6957281,2.0871964,1.3692728,-0.9603881,-1.3727535,1.0733552,0.35865846,0.53316176,-0.43139967,0.4854783,0.32112205,1.4593925,-0.5571518,1.4926234,-3.7878861,-0.4152565,0.5443188,0.10892868,-0.4106598,1.0491663,0.8470628,-0.19334604,0.15932837,0.46873897,-0.48973918,0.77618766,0.48942298,1.0,0.0,0.0,0.0,0.0,0.0,0.0,-2.1093926,0.15715179,-0.94262344,1.2773991,-5.2649736,-8.9419365,-7.8307867,-12.014044,0.45582056,2.0750046
5.707854,8.126656,-1.3291596,-0.49257946,-0.84995955,-2.0912566,0.07423932,-0.767427,0.5356645,0.091984145,0.25053892,-0.4628492,0.6589574,0.6047291,1.1558114,-0.5321878,-1.7551532,-0.6706742,2.0409114,1.4351686,-0.8999152,1.2188765,-0.5754899,-1.7615345,-0.6908863,2.0820885,1.3741289,-0.95703405,-1.3660406,1.011033,0.25585768,0.46741307,-0.53676313,0.48683512,0.33964786,1.4215431,-0.5613022,1.497326,-3.784099,-0.41484132,0.44558865,0.10438156,-0.40331268,1.0535938,0.8479875,-0.19967254,0.16587856,0.46209547,-0.43492398,0.72243845,0.42260784,1.0,0.0,0.0,0.0,0.0,0.0,0.0,-2.0715432,0.16130218,-0.947326,0.70881844,-6.1640263,-10.345232,-6.707406,-10.430098,0.47822,1.7161071
1.2931194,5.0044,-2.0102913,2.8441877,-0.33793283,-2.0854352,-0.011708811,-0.7694839,0.49560335,0.060860608,0.25052878,-0.514851,0.6583101,0.6035512,1.1419281,-0.5259296,-1.7554483,-0.6658334,2.0306034,1.43996,-0.8966789,1.2052237,-0.5659045,-1.7596939,-0.6864956,2.076027,1.3789946,-0.9535207,-1.3650761,0.94120395,0.15977022,0.4290613,-0.6286796,0.4875577,0.35475707,1.3837318,-0.5654526,1.501042,-3.7803159,-0.41442657,0.3469572,0.100234985,-0.3965683,1.0574044,0.8489617,-0.20521681,0.17302835,0.4552046,-0.39923507,0.6628119,0.3631972,1.0,0.0,0.0,0.0,0.0,0.0,0.0,-2.033732,0.16545257,-0.951042,0.12812614,-6.9135904,-9.7024975,-3.9745033,-9.059858,0.36663413,1.3699234
1.474772,0.52129126,-2.0896714,2.3879728,0.068912745,-2.103053,0.114256576,-0.76700634,0.42357174,0.11198567,0.19218615,-0.53617936,0.6671736,0.5993605,1.128523,-0.52354735,-1.7484953,-0.667277,2.022409,1.445712,-0.89358467,1.1915709,-0.55719745,-1.758313,-0.6825817,2.06921,1.3838717,-0.9498796,-1.3651978,0.84735644,0.1303811,0.37839517,-0.69866896,0.48863643,0.36674222,1.3459587,-0.5695877,1.5037726,-3.7765365,-0.41401222,0.24842438,0.096385956,-0.3904419,1.0606242,0.8499317,-0.21004641,0.18047409,0.44824725,-0.37335762,0.59742194,0.30468497,1.0,0.0,0.0,0.0,0.0,0.0,0.0,-1.9959587,0.1695877,-0.9537726,0.042963028,-9.314537,-3.0308425,-5.1908493,-6.889093,0.36340356,1.0601878
0.13104916,-11.905985,-3.758811,1.9621603,0.731001,-2.2275958,0.23868376,-0.75469065,0.3056701,0.19091158,0.16891906,-0.5584159,0.66970736,0.5993256,1.1161019,-0.52663046,-1.7392218,-0.6656898,2.0133684,1.4508424,-0.88994706,1.1779696,-0.5498036,-1.756604,-0.6791647,2.0618286,1.3887583,-0.94613546,-1.357949,0.7036616,0.18391865,0.3290493,-0.75067157,0.48949158,0.37656894,1.3082199,-0.57372284,1.5055186,-3.7727609,-0.4135983,0.14999005,0.09265518,-0.3850937,1.0632356,0.8508208,-0.21424356,0.18775529,0.4415331,-0.36684385,0.51526964,0.24371451,1.0,0.0,0.0,0.0,0.0,0.0,0.0,-1.9582199,0.17372283,-0.95551854,0.8337498,-14.291668,5.2034945,-5.05169,-5.0735235,0.3047645,0.8536041
-5.7892365,-57.2682,-13.725482,-2.820307,1.4967942,-3.1522062,0.37125874,-0.7295181,0.057117574,0.25367573,0.11395579,-0.58350277,0.6738963,0.5978778,1.1050178,-0.5440919,-1.7312363,-0.66776913,2.0034783,1.4561479,-0.88634765,1.1645666,-0.54477966,-1.7539527,-0.67637616,2.054016,1.3936564,-0.9423103,-1.3337396,0.4356514,0.29092416,0.2614734,-0.79021716,0.49062777,0.38391954,1.2705193,-0.577858,1.5062809,-3.768989,-0.4131848,0.051654145,0.08876419,-0.38111877,1.064983,0.85164726,-0.21764246,0.19425805,0.4354223,-0.39064217,0.3604921,0.14940386,1.0,0.0,0.0,0.0,0.0,0.0,0.0,-1.9205192,0.17785797,-0.9562809,2.6521683,-26.69471,10.36688,-6.932002,-3.6928296,0.33292174,0.5543232
-20.591515,-119.664375,-28.575352,-4.0171137,2.7243695,-4.3692145,0.2494308,-0.69888645,-0.26381043,0.26013562,0.13699858,-0.61350286,0.6793088,0.5536769,1.094678,-0.5711607,-1.7279391,-0.66267633,1.9926658,1.4615872,-0.88694257,1.1515394,-0.5435952,-1.7502983,-0.6740292,2.0458488,1.3985621,-0.9384584,-1.2911997,0.013175457,0.3886583,0.2248788,-0.82425255,0.49076733,0.3848317,1.2328568,-0.5819931,1.5060606,-3.7652206,-0.4127717,-0.046583448,0.08420944,-0.37942505,1.0654925,0.8526373,-0.21992607,0.1993264,0.43001297,-0.47369274,0.10640383,0.016795374,1.0,0.0,0.0,0.0,0.0,0.0,0.0,-1.8828567,0.1819931,-0.9560606,4.583335,-42.12677,9.260011,-3.916067,-2.968669,0.089138746,-0.14380813
-24.447018,-122.85383,-28.281683,1.552689,3.621725,-4.165196,0.101601094,-0.6115851,-0.43741995,0.3401651,0.24761918,-0.6459603,0.68824536,0.51956975,1.0903809,-0.5873372,-1.7162818,-0.64926726,1.9812528,1.4673866,-0.88650143,1.1392962,-0.5468272,-1.7455394,-0.6713589,2.0373306,1.403462,-0.93462366,-1.2009499,-0.43496272,0.50331163,0.28063515,-0.85957307,0.4890419,0.38285166,1.1952324,-0.586113,1.5048587,-3.761456,-0.41235903,-0.14472282,0.07857895,-0.3802414,1.0647908,0.8539154,-0.22127448,0.20254618,0.4252541,-0.5913005,-0.14311825,-0.09969284,1.0,0.0,0.0,0.0,0.0,0.0,0.0,-1.8452324,0.18611297,-0.9548587,9.3624115,-44.70414,10.94377,5.4392757,-3.1300306,-0.36283135,-0.26691556
-14.784063,-95.32998,-20.850933,1.9564419,3.2236757,-3.5662446,0.1449856,-0.48229438,-0.5644842,0.38285503,0.28099686,-0.6912529,0.6978761,0.50168836,1.0910667,-0.6032756,-1.7072539,-0.64325917,1.9682053,1.4732497,-0.88445485,1.1284548,-0.5541295,-1.7396839,-0.6678532,2.028389,1.408343,-0.9308166,-1.0445637,-0.82830256,0.6120827,0.3738056,-0.90484804,0.48665807,0.3803375,1.1576462,-0.59023285,1.5026761,-3.7576952,-0.41194674,-0.24276407,0.07195282,-0.3832016,1.0630866,0.8554059,-0.22204606,0.20392114,0.42117977,-0.68741816,-0.34436736,-0.19440523,1.0,0.0,0.0,0.0,0.0,0.0,0.0,-1.8076462,0.19023284,-0.9526761,15.82365,-39.242424,10.61511,9.289593,-4.2976856,-0.58522224,-0.15922189
-8.614334,-56.72862,-11.317996,6.985925,3.0200663,-2.634057,0.024235621,-0.3905985,-0.66606873,0.4222947,0.38884166,-0.71953344,0.70931447,0.43801567,1.0893949,-0.62073636,-1.6974545,-0.628969,1.9564357,1.4792744,-0.88701504,1.1193949,-0.56468284,-1.7328346,-0.66298753,2.0189743,1.4132105,-0.92707247,-0.8594953,-1.1307794,0.7091106,0.52446455,-0.9534446,0.4857048,0.37321928,1.1200981,-0.5943527,1.4995139,-3.7539382,-0.41153488,-0.34070733,0.06448364,-0.38768768,1.060696,0.8570264,-0.22268616,0.20367567,0.41765136,-0.7687392,-0.4787887,-0.25501767,1.0,0.0,0.0,0.0,0.0,0.0,0.0,-1.7700981,0.19435272,-0.94951385,18.572712,-30.179728,9.671426,15.177977,-4.809022,-0.42539835,-0.4682064
9.055147,-7.7796006,0.96285653,4.806812,2.0224195,-1.7692583,0.15027058,-0.21046971,-0.716245,0.4752531,0.450177,-0.72702885,0.71255946,0.36964592,1.0983479,-0.63630736,-1.6853093,-0.6179698,1.9462714,1.4844664,-0.89010787,1.1126505,-0.57743156,-1.725024,-0.65654737,2.0091171,1.4180762,-0.9234466,-0.61356837,-1.3228879,0.80701405,0.6841619,-0.9975948,0.4859007,0.3599163,1.0825882,-0.59846497,1.4953729,-3.750185,-0.41112342,-0.43855262,0.056617737,-0.39295197,1.0579447,0.85857654,-0.2236327,0.20209797,0.41471812,-0.7962894,-0.53857434,-0.28388157,1.0,0.0,0.0,0.0,0.0,0.0,0.0,-1.7325882,0.19846496,-0.9453729,24.393345,-19.217253,10.379303,16.076183,-4.8020363,-0.25694966,-1.0622561
29.287321,29.240393,9.554682,-2.756084,0.5795847,-1.4558791,0.3446211,0.008190559,-0.74964327,0.4514976,0.48916778,-0.7187212,0.70579183,0.28834248,1.1134696,-0.6523959,-1.6798742,-0.6076306,1.937245,1.4886553,-0.8946124,1.1089045,-0.5914105,-1.7165668,-0.648691,1.9989166,1.422938,-0.9200143,-0.29684067,-1.4232452,0.86345226,0.81933534,-1.0306023,0.4853317,0.33825064,1.0451126,-0.6025696,1.4902542,-3.7464356,-0.4107124,-0.5363001,0.0489769,-0.3984604,1.0550324,0.8598379,-0.22509536,0.19951326,0.4125594,-0.7560939,-0.5536819,-0.29680642,1.0,0.0,0.0,0.0,0.0,0.0,0.0,-1.6951126,0.20256957,-0.94025415,31.123018,-10.159588,7.053137,13.494623,-4.227352,-0.3614068,-2.0097792
32.52106,40.238686,9.666721,-6.0614104,-0.5392966,-1.6432008,0.28181204,0.08161772,-0.76515645,0.32286486,0.48465604,-0.72032475,0.70600015,0.21542202,1.1170663,-0.6679262,-1.6842803,-0.6002254,1.9268842,1.493538,-0.89847213,1.1080595,-0.605893,-1.7083976,-0.63991815,1.988472,1.427796,-0.9168462,-0.015696272,-1.4571551,0.80650395,0.8964073,-1.0524,0.48495564,0.30968788,1.0076752,-0.6066742,1.4841588,-3.74269,-0.41030177,-0.63394994,0.041988373,-0.40409088,1.0519542,0.86083126,-0.22683913,0.19644964,0.41100007,-0.68160516,-0.56648374,-0.31543133,1.0,0.0,0.0,0.0,0.0,0.0,0.0,-1.6576751,0.20667419,-0.93415874,27.522491,-3.585267,-4.2165995,7.6675773,-3.1574965,-0.32695532,-2.822125
33.493935,42.430405,7.971094,-9.520139,-1.4358563,-1.9252384,0.27558637,0.1691516,-0.77176565,0.22410238,0.4511585,-0.7152057,0.70845085,0.16639411,1.1249747,-0.6830696,-1.6859874,-0.5948023,1.9169514,1.4986411,-0.9002068,1.1096503,-0.6204232,-1.7014377,-0.6309059,1.9779034,1.4326521,-0.91398615,0.21539667,-1.4524685,0.6635581,0.90264076,-1.0611848,0.48495612,0.27783394,0.9702759,-0.6107788,1.4770876,-3.7389483,-0.40989155,-0.7315021,0.035930634,-0.40992737,1.0486072,0.86164844,-0.22846532,0.19339804,0.40983236,-0.5824281,-0.5873697,-0.34569934,1.0,0.0,0.0,0.0,0.0,0.0,0.0,-1.6202759,0.2107788,-0.9270876,22.536402,0.24085045,-12.979102,0.5506635,-1.7196894,-0.2810359,-3.2574236
18.28669,29.015629,1.9430187,-4.7736444,-1.5444499,-2.272607,-0.024811339,0.15117462,-0.77382773,0.012180701,0.4474249,-0.7197614,0.71239513,0.14313632,1.1247677,-0.697806,-1.7002196,-0.58616346,1.9059272,1.5038916,-0.8996725,1.1127192,-0.6347817,-1.6968658,-0.62208253,1.9673119,1.4375178,-0.911436,0.336419,-1.4308336,0.39042556,0.8757707,-1.0592151,0.4865098,0.246978,0.93291473,-0.61486816,1.4690416,-3.73521,-0.40948173,-0.8289567,0.030708313,-0.41614532,1.0448393,0.8625631,-0.22946367,0.19088387,0.40852743,-0.50161743,-0.6333913,-0.39188328,1.0,0.0,0.0,0.0,0.0,0.0,0.0,-1.5829147,0.21486816,-0.9190416,11.8001995,1.9971371,-26.779842,-2.6288152,-0.069761276,-0.015252829,-3.1906872
-0.43200994,16.351381,-2.8318272,3.2730317,-1.105828,-2.3606644,-0.35360765,0.09738874,-0.77132946,-0.16607353,0.43919197,-0.7097443,0.71244246,0.038288593,1.1224581,-0.71191466,-1.7134732,-0.5781633,1.8963374,1.508762,-0.90760714,1.1161238,-0.6488961,-1.6955783,-0.6136206,1.9568195,1.4424044,-0.90924066,0.3419506,-1.4052886,0.040901303,0.83712065,-1.045163,0.48921537,0.20999771,0.89559174,-0.6189575,1.4600219,-3.7314754,-0.40907234,-0.92631394,0.02601242,-0.42292786,1.0405383,0.8638905,-0.22943538,0.18929774,0.4064711,-0.45701864,-0.6951926,-0.44763383,1.0,0.0,0.0,0.0,0.0,0.0,0.0,-1.5455917,0.21895751,-0.91002184,0.5887866,2.456832,-35.15304,-3.6321163,1.5974283,0.21104217,-3.7970452
-7.0938377,18.347734,-1.6937248,7.636037,-0.49762115,-1.9960989,-0.3475221,0.09395825,-0.7745235,-0.17317311,0.41822928,-0.7107443,0.7200678,0.020109368,1.1255196,-0.72634846,-1.7128956,-0.57179767,1.885745,1.5144112,-0.9072297,1.1191889,-0.662815,-1.6971958,-0.6055916,1.9464664,1.4473234,-0.9073953,0.29524574,-1.3877052,-0.23046318,0.7925272,-1.0315897,0.49265552,0.17594518,0.8583069,-0.6230469,1.4500291,-3.7277446,-0.40866336,-1.0235738,0.021583557,-0.43025208,1.035724,0.8656795,-0.22839439,0.18862206,0.40355515,-0.43567252,-0.74388397,-0.4975275,1.0,0.0,0.0,0.0,0.0,0.0,0.0,-1.5083069,0.22304687,-0.9000291,-4.470408,1.6661882,-27.44093,-4.1710973,1.4748812,0.29349923,-3.4663768
-12.805746,20.767574,-0.27291942,11.707685,0.14825809,-1.6400046,-0.33934513,0.05351459,-0.77764326,-0.22436412,0.40164173,-0.71002805,0.708871,-0.02051052,1.1245403,-0.7405793,-1.7196321,-0.5654274,1.8754636,1.5182105,-0.90944636,1.121514,-0.67663753,-1.7009056,-0.59798795,1.936224,1.4522673,-0.90588087,0.21263659,-1.3806822,-0.41880503,0.7507384,-1.021835,0.49470085,0.1433355,0.82105637,-0.62713623,1.4390646,-3.7240176,-0.40825477,-1.1207365,0.017196655,-0.4379654,1.0304624,0.86787957,-0.22650643,0.18867932,0.39984986,-0.43730217,-0.7797603,-0.5404534,1.0,0.0,0.0,0.0,0.0,0.0,0.0,-1.4710563,0.22713622,-0.8890646,-7.9487085,0.604558,-19.137203,-3.8381696,0.95767975,0.15439391,-3.2714128
2.1676862,26.393003,2.145231,3.6313324,-0.31911916,-1.6318378,-0.011962105,0.14739545,-0.7912008,-0.28578243,0.34686798,-0.6993155,0.7016782,-0.05776959,1.1362535,-0.75575763,-1.7294838,-0.56330115,1.8662925,1.5224351,-0.9116578,1.1235319,-0.6905049,-1.7060058,-0.5909546,1.926075,1.4572169,-0.904684,0.19823024,-1.3890597,-0.54020524,0.68803394,-1.0133643,0.49452832,0.111706674,0.783844,-0.6312103,1.4271293,-3.7202945,-0.4078466,-1.2178019,0.013008118,-0.44599915,1.0247625,0.8702831,-0.22392942,0.18921033,0.395806,-0.40945584,-0.8104768,-0.5845679,1.0,0.0,0.0,0.0,0.0,0.0,0.0,-1.433844,0.23121032,-0.87712926,-1.3642073,-0.94308853,-12.080979,-6.113136,0.6600857,-0.17318726,-3.1961946
1.7543701,28.563274,2.79924,4.3779135,-0.1886658,-1.5284116,0.007968258,0.10732665,-0.7875245,-0.3821646,0.3392407,-0.69402367,0.69497377,-0.04277054,1.1342646,-0.76925737,-1.7442223,-0.55703056,1.8566726,1.5267142,-0.90896106,1.1254107,-0.70446384,-1.71222,-0.5844725,1.9160004,1.4621569,-0.90375704,0.1847175,-1.3985338,-0.6482442,0.6354441,-1.006281,0.49322644,0.08626774,0.74666977,-0.6352844,1.414224,-3.7165751,-0.40743884,-1.3147703,0.00907135,-0.45430756,1.0186422,0.87280047,-0.22074188,0.19011897,0.39159542,-0.3853914,-0.8370665,-0.62603426,1.0,0.0,0.0,0.0,0.0,0.0,0.0,-1.3966697,0.23528442,-0.864224,-1.2715548,-1.0545969,-10.710263,-5.1023364,0.4800558,-0.29847026,-2.5710418
-10.4269,30.979197,3.5907857,12.079657,0.6768303,-1.1546698,-0.12533045,-0.0026187575,-0.7871827,-0.38500056,0.3359353,-0.6939482,0.6991733,-0.025922826,1.1251488,-0.7831821,-1.75072,-0.55087894,1.8466055,1.5320742,-0.9063493,1.1267267,-0.7185048,-1.7191684,-0.57837564,1.9059734,1.4670893,-0.90303606,0.11496361,-1.4063784,-0.7102219,0.60203344,-1.0026803,0.49279737,0.067586824,0.7095299,-0.6393585,1.4003496,-3.7128592,-0.40703148,-1.4116418,0.0051193237,-0.46279907,1.0121783,0.8754572,-0.21705852,0.19135183,0.38709784,-0.39605916,-0.8506814,-0.65812635,1.0,0.0,0.0,0.0,0.0,0.0,0.0,-1.3595299,0.23935851,-0.8503496,-6.7231283,-0.90653896,-6.189263,-3.0561209,0.041651726,-0.15897751,-1.8318758
-14.519818,33.75597,4.465798,14.638253,1.0491076,-0.9448038,-0.12870182,-0.04320142,-0.79289573,-0.3887363,0.30351317,-0.6895391,0.6911502,-0.034956887,1.1224066,-0.79779434,-1.7580421,-0.5480243,1.8370196,1.5362043,-0.90653175,1.127196,-0.73262775,-1.7264602,-0.5726183,1.8959751,1.4720122,-0.90247816,0.025174346,-1.4146851,-0.7353921,0.5679862,-1.0001187,0.49181107,0.052103207,0.67242813,-0.643425,1.3855072,-3.709147,-0.40662453,-1.5084165,0.000957489,-0.47135925,1.0054265,0.87824327,-0.21297933,0.19283298,0.38228777,-0.41978204,-0.8559732,-0.6858647,1.0,0.0,0.0,0.0,0.0,0.0,0.0,-1.3224281,0.24342498,-0.8355072,-8.681319,-0.9619951,-2.4944782,-3.0863762,-0.13519526,-0.20445585,-1.4813215
-27.81895,33.283768,4.150298,21.447739,1.7271473,-0.7027539,-0.25280702,-0.17216907,-0.7944126,-0.3989322,0.2806216,-0.6969881,0.6836373,-0.0054798014,1.109979,-0.812069,-1.7663535,-0.54455614,1.8262763,1.540376,-0.90302616,1.1263186,-0.7468194,-1.7338645,-0.56720144,1.8859673,1.4769236,-0.902029,-0.123872034,-1.421236,-0.7423363,0.534493,-1.0024167,0.49057075,0.042937517,0.63536453,-0.6474838,1.3696978,-3.7054386,-0.406218,-1.6050944,-0.003665924,-0.4799347,0.9984206,0.88120174,-0.20852302,0.19456957,0.3770201,-0.47428918,-0.8547504,-0.7105518,1.0,0.0,0.0,0.0,0.0,0.0,0.0,-1.2853645,0.24748382,-0.8196978,-14.441816,-0.8028507,-0.7832408,-2.8934002,-0.6765127,-0.19167662,-0.8025497
-21.556322,45.262302,7.7786303,20.335487,1.9275515,-0.39449453,-0.13159439,-0.16041431,-0.7923975,-0.30288094,0.28857815,-0.701504,0.6909796,0.01805799,1.1102772,-0.8260591,-1.7641526,-0.5383436,1.8158169,1.5460216,-0.9002232,1.1242205,-0.76104724,-1.7407863,-0.5619963,1.8759117,1.4818274,-0.90163416,-0.23708814,-1.4237596,-0.6752377,0.517009,-1.0084945,0.4903269,0.038825974,0.5983391,-0.65154266,1.3529226,-3.701734,-0.40581185,-1.7016757,-0.0087890625,-0.4883499,0.99127734,0.8842356,-0.20392533,0.19638385,0.3714502,-0.5233181,-0.8334617,-0.7205753,1.0,0.0,0.0,0.0,0.0,0.0,0.0,-1.248339,0.25154266,-0.80292255,-10.97478,-0.41015148,6.8193674,-1.3771415,-1.173234,-0.08015633,-0.25883093
-23.605755,47.097622,8.158779,21.938911,2.1485252,-0.33880377,-0.18209048,-0.22199965,-0.79584473,-0.316052,0.30707553,-0.7004466,0.6877043,0.028590728,1.1020205,-0.8406317,-1.7723916,-0.53128874,1.8058671,1.5505978,-0.8987751,1.1210562,-0.775298,-1.7470691,-0.55678827,1.8658009,1.4867312,-0.90125936,-0.3416694,-1.4260727,-0.6124131,0.5232922,-1.013812,0.4900138,0.03756664,0.56134796,-0.6556015,1.3351822,-3.698033,-0.40540612,-1.7981603,-0.014446259,-0.496521,0.98406506,0.8873164,-0.19931066,0.19819234,0.3656018,-0.5791938,-0.8094132,-0.7263781,1.0,0.0,0.0,0.0,0.0,0.0,0.0,-1.2113479,0.2556015,-0.7851822,-10.111958,-0.39298534,6.394267,1.0285497,-1.0909557,-0.077700615,0.051955134
-12.223956,53.99108,10.102321,17.116064,1.8309834,-0.33150974,-0.03984172,-0.19716582,-0.7951466,-0.2655827,0.31180924,-0.6939767,0.6871099,0.055887602,1.1013396,-0.8548127,-1.7736274,-0.52560735,1.7964032,1.5554422,-0.8956706,1.1172758,-0.78955925,-1.7526062,-0.5514458,1.8556652,1.4916292,-0.9008722,-0.38955435,-1.4266099,-0.53322023,0.5387512,-1.01549,0.48961025,0.039716914,0.524395,-0.6596527,1.3164777,-3.6943357,-0.40500078,-1.8945485,-0.020496368,-0.50442505,0.9768335,0.89036417,-0.19479351,0.19988874,0.3596548,-0.6129093,-0.7801093,-0.7268163,1.0,0.0,0.0,0.0,0.0,0.0,0.0,-1.174395,0.2596527,-0.76647764,-4.597378,-0.20837784,8.203006,1.8269897,-0.75633526,-0.10086894,0.38198382
-6.639617,52.49907,9.245506,13.49899,1.3164027,-0.5374533,-0.00016165525,-0.20933148,-0.79539347,-0.31174356,0.31073964,-0.70094806,0.68299216,0.05569644,1.0963427,-0.8690986,-1.7837805,-0.5203718,1.7855704,1.5599284,-0.89530253,1.1132342,-0.80381954,-1.757735,-0.5459574,1.8455067,1.4965197,-0.900464,-0.40842754,-1.426397,-0.5049215,0.5529239,-1.0179325,0.4884865,0.0416408,0.48748016,-0.6636963,1.2968099,-3.690642,-0.40459585,-1.9908403,-0.026748657,-0.5121231,0.9695466,0.8933498,-0.19030881,0.201535,0.35368386,-0.6289501,-0.76022416,-0.7339739,1.0,0.0,0.0,0.0,0.0,0.0,0.0,-1.1374801,0.26369628,-0.7468099,-1.7664611,-0.123262405,3.1466365,1.6466498,-0.7854223,-0.20372868,0.30964836
-7.197362,45.732433,6.9464216,11.763021,0.929733,-0.77263534,0.010786004,-0.25082707,-0.8016627,-0.36935434,0.28725377,-0.6922701,0.6793213,0.074749984,1.0881515,-0.8839858,-1.7946705,-0.517232,1.7762797,1.5644518,-0.892989,1.1089731,-0.8181037,-1.7630489,-0.5404728,1.8353577,1.5013949,-0.9000253,-0.43159208,-1.4296268,-0.5395615,0.5477859,-1.0152968,0.4867279,0.044834577,0.45059967,-0.66773987,1.2761799,-3.6869524,-0.40419134,-2.087036,-0.033107758,-0.51971436,0.9620849,0.8963011,-0.18562469,0.20328991,0.34765068,-0.6388317,-0.7549944,-0.75489396,1.0,0.0,0.0,0.0,0.0,0.0,0.0,-1.1005996,0.26773986,-0.7261799,-2.1875024,-0.45681,-3.2297492,-0.27686357,-0.18668175,-0.30210614,0.39030835
8.5537405,43.579506,6.12461,1.9806432,-0.19938228,-1.0464088,0.2789021,-0.19459687,-0.8053376,-0.40830866,0.21450672,-0.6897619,0.67741185,0.10538956,1.0895134,-0.8986374,-1.8038797,-0.5190221,1.7663815,1.569136,-0.8894864,1.1048056,-0.83243644,-1.768996,-0.5354269,1.8252506,1.5062472,-0.89953893,-0.41200405,-1.4349136,-0.6119893,0.49036887,-1.010543,0.48422757,0.0497894,0.41375732,-0.67178345,1.2545888,-3.6832662,-0.40378723,-2.183135,-0.039245605,-0.527359,0.9542961,0.8991381,-0.18051793,0.20526876,0.341802,-0.60645896,-0.7634594,-0.79144746,1.0,0.0,0.0,0.0,0.0,0.0,0.0,-1.0637573,0.27178344,-0.70458883,1.9340694,-0.6350517,-6.924784,-5.675215,0.07207394,-0.4425168,0.46579018
4.959637,43.819008,5.9666524,3.4856918,-0.04337074,-0.9841855,0.2647214,-0.23735675,-0.80292577,-0.42223585,0.20210001,-0.6728736,0.67515016,0.12241494,1.08107,-0.912729,-1.8112196,-0.5152169,1.7579633,1.5737622,-0.88729745,1.1006914,-0.8468045,-1.7756851,-0.5310114,1.8152409,1.5110766,-0.89899343,-0.41108888,-1.4378444,-0.6871098,0.42554638,-0.99923104,0.48166388,0.056005724,0.37695312,-0.67581177,1.2320374,-3.6795835,-0.40338352,-2.279138,-0.045124054,-0.5350723,0.94613767,0.901839,-0.17491834,0.20749934,0.33620515,-0.5812318,-0.7707599,-0.8286257,1.0,0.0,0.0,0.0,0.0,0.0,0.0,-1.0269531,0.27581176,-0.6820374,0.104177,-0.39775372,-7.241678,-6.3945236,0.7351279,-0.45457482,0.59476864
4.316655,41.398823,5.0195537,2.0771677,-0.2781815,-1.0088778,0.35405445,-0.2700545,-0.8032431,-0.47822037,0.100421555,-0.6555486,0.66015863,0.13074313,1.073686,-0.9271288,-1.8235071,-0.5209693,1.749686,1.5770924,-0.8859191,1.0964094,-0.8611897,-1.7832267,-0.52760583,1.8053875,1.5158678,-0.8983869,-0.43364128,-1.4391365,-0.77571887,0.3124461,-0.9819246,0.47760877,0.06207483,0.34018707,-0.6798401,1.2085266,-3.6759048,-0.4029802,-2.375045,-0.050720215,-0.54291534,0.93753636,0.9043882,-0.16869529,0.21003114,0.33092397,-0.5514798,-0.78243333,-0.87540114,1.0,0.0,0.0,0.0,0.0,0.0,0.0,-0.99018705,0.27984008,-0.6585266,-2.2186995,-0.22013187,-8.658134,-11.230898,1.3588428,-0.63569546,0.5527712
2.5038147,41.881737,5.1527834,1.9001544,-0.21620582,-0.8737782,0.46267796,-0.313195,-0.80450785,-0.4703616,-0.00912422,-0.6442314,0.65323275,0.18698503,1.06509,-0.9416405,-1.8302629,-0.52851826,1.7409644,1.5811911,-0.8796884,1.0916868,-0.8755845,-1.7914245,-0.5256794,1.795721,1.5206152,-0.8976831,-0.4846812,-1.4398544,-0.8339605,0.15302065,-0.96298385,0.47302905,0.07303136,0.30345535,-0.6838684,1.1840576,-3.6722298,-0.4025773,-2.4708562,-0.05602646,-0.550827,0.9284405,0.90673923,-0.16179328,0.21283256,0.32611212,-0.5236641,-0.79034585,-0.9258311,1.0,0.0,0.0,0.0,0.0,0.0,0.0,-0.9534553,0.2838684,-0.6340576,-5.0332127,-0.14932156,-5.674541,-15.856281,1.5058994,-0.7043779,1.05585
2.4404693,41.26049,4.901021,-0.35617578,-0.44641626,-0.74042493,0.6702153,-0.3868908,-0.80144286,-0.46588558,-0.20819409,-0.6444427,0.6498798,0.24680528,1.0529977,-0.95572877,-1.838013,-0.54649884,1.7312768,1.5856032,-0.8730025,1.0861555,-0.8899659,-1.7999656,-0.52601415,1.7862091,1.5253168,-0.89683145,-0.57547444,-1.4378285,-0.86042595,-0.09538923,-0.94866496,0.46821445,0.08911018,0.26676178,-0.6878967,1.1586311,-3.6685581,-0.40217483,-2.5665717,-0.06098938,-0.558815,0.91876566,0.9088092,-0.15412274,0.21588509,0.32203338,-0.4884725,-0.79602516,-0.9863733,1.0,0.0,0.0,0.0,0.0,0.0,0.0,-0.91676176,0.28789672,-0.6086311,-8.965694,0.14817715,-2.584684,-24.747097,1.0288477,-0.7723808,1.574117
10.57545,42.322678,5.401915,-6.1220894,-0.9112255,-0.6176689,0.9823325,-0.42870596,-0.79870665,-0.43663147,-0.4392871,-0.6224646,0.6509698,0.34143898,1.0432849,-0.96983653,-1.8436288,-0.56994283,1.7239627,1.5904138,-0.8626875,1.0796362,-0.9043101,-1.8084686,-0.52953035,1.7768707,1.5299727,-0.8957576,-0.67703015,-1.433309,-0.8470852,-0.43675664,-0.93000656,0.46356216,0.113429345,0.23010254,-0.6919098,1.1322482,-3.6648903,-0.40177274,-2.6621914,-0.06544495,-0.56684875,0.9084134,0.91046506,-0.14562714,0.21909866,0.31912678,-0.43168172,-0.799369,-1.0566778,1.0,0.0,0.0,0.0,0.0,0.0,0.0,-0.8801025,0.29190978,-0.58224815,-10.047436,0.44298172,1.2504935,-34.073936,1.5422225,-0.8137107,2.4213626
12.974652,45.080257,6.0374317,-7.011001,-1.0025241,-0.49990606,1.0409323,-0.4598881,-0.78865224,-0.46039426,-0.5725927,-0.6357479,0.657797,0.43897408,1.0336474,-0.98317534,-1.854508,-0.5867896,1.7132959,1.5957524,-0.8518602,1.072169,-0.9185637,-1.8168685,-0.5364893,1.7676544,1.5345904,-0.8943824,-0.7696108,-1.4226339,-0.8383486,-0.7820565,-0.9195022,0.46011862,0.145538,0.19348145,-0.69592285,1.1049098,-3.6612263,-0.40137103,-2.7577155,-0.06927109,-0.5748825,0.897357,0.9116363,-0.13631207,0.22244741,0.3175775,-0.3690126,-0.79801834,-1.1274965,1.0,0.0,0.0,0.0,0.0,0.0,0.0,-0.8434814,0.29592285,-0.55490977,-9.134924,1.0928631,0.61240196,-34.445236,0.877738,-0.7058859,3.224358
5.621356,46.44273,6.1909285,-1.7922033,-0.4840157,-0.410771,0.81898445,-0.49407595,-0.783473,-0.51732457,-0.6251196,-0.6395559,0.6620815,0.48895454,1.0227613,-0.99691105,-1.868601,-0.5990013,1.7036989,1.6007985,-0.84548694,1.0638758,-0.93269527,-1.8254611,-0.5463093,1.7584991,1.5391852,-0.8926725,-0.8486232,-1.4099756,-0.8672832,-1.0481267,-0.91452706,0.45806348,0.17960459,0.1568985,-0.6999359,1.0766168,-3.6575656,-0.40096974,-2.853144,-0.07263565,-0.5828705,0.88564265,0.9123721,-0.1262368,0.22595407,0.31715304,-0.32698485,-0.7919483,-1.1919866,1.0,0.0,0.0,0.0,0.0,0.0,0.0,-0.8068985,0.2999359,-0.52661675,-7.743311,1.2964487,-3.2308817,-26.453758,0.41241646,-0.53658485,3.441629
-18.995268,40.64224,4.1595645,10.463036,0.7183252,-0.36736995,0.37325054,-0.5947353,-0.78970003,-0.61137813,-0.65126294,-0.6162456,0.6459014,0.48825774,1.0044023,-1.0116652,-1.886599,-0.6114356,1.6968746,1.6037753,-0.8438467,1.0545756,-0.9467572,-1.8347976,-0.55799943,1.7494221,1.5437475,-0.89065355,-0.9562835,-1.40518,-0.9560236,-1.2081184,-0.9066732,0.45447293,0.20957874,0.120349884,-0.703949,1.0473703,-3.6539087,-0.40056887,-2.948477,-0.07598877,-0.59080505,0.87330395,0.912854,-0.11538203,0.22965223,0.31724474,-0.34276873,-0.7849636,-1.254113,1.0,0.0,0.0,0.0,0.0,0.0,0.0,-0.77034986,0.30394897,-0.4973703,-10.500073,0.43063164,-8.95412,-15.655494,0.39898157,-0.7365465,3.0634522
-38.75513,40.32396,3.4157531,20.575258,1.7771406,-0.22971278,0.027260229,-0.679737,-0.7794552,-0.68089247,-0.6842324,-0.5899164,0.62702036,0.47633404,0.9866019,-1.0247027,-1.9028869,-0.62642264,1.6904304,1.6064496,-0.84302014,1.0440203,-0.96076,-1.8452842,-0.5706871,1.7404747,1.5482622,-0.8883781,-1.0875617,-1.3989964,-1.0788388,-1.287389,-0.8928351,0.44912612,0.2338255,0.08383942,-0.7079468,1.0171711,-3.6502557,-0.4001684,-3.0437148,-0.07984924,-0.5986023,0.86040175,0.91325057,-0.103746824,0.2335458,0.31727946,-0.40467313,-0.7712651,-1.3089623,1.0,0.0,0.0,0.0,0.0,0.0,0.0,-0.7338394,0.30794677,-0.46717113,-12.801957,0.49564838,-12.100196,-7.465124,0.7135272,-0.93263984,2.5111914
-41.260002,42.035652,3.8715878,22.615116,2.1418188,-0.13100564,-0.06674883,-0.7102321,-0.7783888,-0.727124,-0.7212395,-0.5642668,0.62668216,0.47621864,0.97299707,-1.0385989,-1.9179966,-0.64281106,1.684048,1.6109304,-0.84075624,1.0322729,-0.9747151,-1.8570163,-0.5838497,1.7317257,1.5527254,-0.88589185,-1.2029027,-1.3947856,-1.2038335,-1.3243636,-0.8711262,0.4442163,0.2537993,0.04736328,-0.7119446,0.98602045,-3.6466062,-0.3997683,-3.1388576,-0.084415436,-0.6062546,0.8469894,0.9136214,-0.091402814,0.23754361,0.31704018,-0.47788674,-0.75325435,-1.3591931,1.0,0.0,0.0,0.0,0.0,0.0,0.0,-0.69736326,0.31194457,-0.43602043,-11.233425,0.2786398,-12.251902,-3.2387257,1.4796853,-0.88906884,2.0908208
-37.66783,47.880886,5.817895,22.606903,2.4518027,0.036514163,-0.08953565,-0.7363808,-0.773465,-0.7479853,-0.72763497,-0.5127621,0.6180767,0.45020697,0.95863485,-1.0520616,-1.9318149,-0.65661323,1.6804495,1.6145331,-0.84087116,1.0195757,-0.98861873,-1.8697994,-0.5971535,1.7233295,1.5571429,-0.8832521,-1.2912745,-1.3893864,-1.3025652,-1.3311503,-0.8307103,0.43982106,0.2677998,0.010925293,-0.7159424,0.95391893,-3.6429603,-0.3993686,-3.233905,-0.089702606,-0.61367035,0.833162,0.91397315,-0.078535445,0.2414496,0.31652394,-0.55155516,-0.72678244,-1.3981559,1.0,0.0,0.0,0.0,0.0,0.0,0.0,-0.66092527,0.31594238,-0.40391892,-8.597946,0.41594505,-9.722447,-0.29284954,3.5230994,-0.7686317,1.5145421
-31.379257,51.19724,7.4507494,20.854624,2.6592,0.1365897,-0.05896397,-0.75767356,-0.77853245,-0.7696905,-0.7321746,-0.41481355,0.5905424,0.40730307,0.9438084,-1.0664719,-1.9467684,-0.67037094,1.6818482,1.6161971,-0.8425218,1.0062033,-1.0025042,-1.8833511,-0.6104258,1.7155991,1.561503,-0.8805236,-1.3518145,-1.3885713,-1.3724495,-1.3248386,-0.7547506,0.43390563,0.27497795,-0.025478363,-0.71993256,0.9208677,-3.6393182,-0.39896932,-3.3288577,-0.09569931,-0.6207962,0.8190041,0.9143103,-0.06535374,0.24497448,0.31583706,-0.6213527,-0.6958783,-1.4292815,1.0,0.0,0.0,0.0,0.0,0.0,0.0,-0.6245216,0.31993255,-0.37086767,-5.87306,-0.016951561,-6.9565773,0.94833374,7.26912,-0.8708894,0.8727789
-27.383217,52.57243,8.941479,19.883183,3.3398087,0.19294083,-0.039074942,-0.7816098,-0.7875768,-0.78527236,-0.7381446,-0.095338434,0.5218837,0.2986353,0.9280423,-1.0812619,-1.9618783,-0.6842402,1.7060652,1.6136914,-0.8506601,0.9923625,-1.0164355,-1.8974006,-0.6236275,1.7095203,1.5657583,-0.8778152,-1.3944257,-1.3950893,-1.4161227,-1.3176265,-0.5595906,0.42206073,0.27042297,-0.061843872,-0.7239151,0.88686764,-3.6356795,-0.39857042,-3.4237154,-0.102458954,-0.62758636,0.80461425,0.914709,-0.052134402,0.24752973,0.31514823,-0.700789,-0.66178876,-1.4499197,1.0,0.0,0.0,0.0,0.0,0.0,0.0,-0.5881561,0.3239151,-0.33686763,-4.1157007,-0.73788166,-4.4190645,1.0074139,19.319284,-1.43556,-0.17344952
-26.223995,56.09932,11.179637,20.891228,4.609167,0.26323205,-0.10319147,-0.80043447,-0.7899404,-0.790208,-0.73038197,0.45068634,0.40529767,0.06610391,0.91231906,-1.0954295,-1.9764214,-0.6966657,1.754589,1.6062881,-0.8712048,0.9781823,-1.0304488,-1.9117134,-0.63673,1.7068958,1.5698172,-0.8753261,-1.425481,-1.4036347,-1.436533,-1.3070055,-0.16354367,0.39981046,0.24333772,-0.09817505,-0.72789764,0.8519197,-3.6320446,-0.39817193,-3.5184782,-0.110198975,-0.6340027,0.79017,0.9153648,-0.039286114,0.24818619,0.314591,-0.80408883,-0.621829,-1.4496814,0.0,1.0,0.0,0.0,0.0,0.0,0.0,-0.5518249,0.32789764,-0.3019197,-2.9911518,-0.9321451,-2.1480799,1.313591,39.52397,-2.4321318,-2.2315502
-25.412575,60.648605,12.488144,21.637009,4.65665,0.3867399,-0.2669072,-0.8158163,-0.78981173,-0.78815275,-0.69711626,0.5031218,0.33438388,-0.19842124,0.89660066,-1.10943,-1.9905286,-0.70644164,1.757208,1.6032556,-0.89516824,0.9635844,-1.0444815,-1.9271952,-0.6500075,1.7099131,1.5715443,-0.8740465,-1.4702662,-1.4035059,-1.5827243,-1.3337635,0.43917045,0.08965651,0.110749066,-0.11769104,-0.7266617,0.8425247,-1.5173696,0.35027012,-0.08035957,-0.11918259,-0.6404495,0.77569485,0.91682094,-0.025971202,0.24581842,0.31358898,-0.93321306,-0.6410762,-1.4552265,0.0,1.0,0.0,0.0,0.0,0.0,0.0,-0.53230894,0.32666168,-0.2925247,-2.1003962,-0.79653263,0.41165352,3.386569,36.19763,-3.95371,-4.230678
-17.740662,176.0,77.29338,68.296814,12.736912,5.8249016,-1.3771322,-0.8043541,-0.31968024,0.61535776,-0.16358556,0.55634123,0.6663409,-0.405952,0.883149,-1.0764495,-1.8656595,-0.66636604,1.7655473,1.6381783,-0.9146417,0.9487004,-1.0612433,-1.9226424,-0.65751195,1.7026671,1.5694901,-0.8725912,-1.4915992,-1.6762146,0.8632442,-0.61246526,-0.8376229,-0.23505446,0.14405634,-0.13285446,-0.7231674,0.84098524,-1.5158526,0.34991992,-0.17846517,-0.12923431,-0.6447449,0.7647265,0.91873986,-0.017478062,0.24108925,0.31222987,-1.0326762,-0.34163925,-0.98441714,1.0,0.0,0.0,0.0,0.0,0.0,0.0,-0.5171455,0.3231674,-0.29098523,-1.2748957,-4.7683716e-05,163.18062,55.17751,-45.263184,-11.835066,-0.6010473
-14.050455,165.8029,47.79697,53.920654,9.626911,2.6793647,-1.7641071,-0.55808884,-0.7699071,0.0337741,0.31078655,0.47836438,0.65456355,-0.501393,0.8928915,-1.138234,-1.9192649,-0.6264333,1.7505035,1.6349465,-0.9227305,0.9350209,-1.0779135,-1.9098421,-0.6586745,1.6951464,1.567516,-0.87163085,-1.3253499,-1.6628243,1.415308,0.050505083,-0.7199981,-0.18045849,0.082037866,-0.14800262,-0.71967316,0.83846545,-1.5143371,0.34957007,-0.2764727,-0.14050674,-0.6471329,0.757031,0.9214113,-0.013815466,0.23443487,0.3095975,-1.1603208,-0.19282909,-0.69935244,1.0,0.0,0.0,0.0,0.0,0.0,0.0,-0.50199735,0.31967315,-0.28846544,17.03241,1.6793251,54.128838,66.69247,12.834859,6.7546396,-5.606067
-16.90416,131.201,25.779573,43.041325,3.9974916,0.31556398,-1.8573278,-0.49425566,-0.6711762,-0.39414325,0.5460401,-0.21175614,0.6860022,-0.46484855,0.8855954,-1.1450311,-1.9492564,-0.6040705,1.6739708,1.6361161,-0.9181157,0.923368,-1.0932829,-1.8987204,-0.65360093,1.6888274,1.5664669,-0.87129325,-1.1112266,-1.4944999,1.0119907,0.66225135,-0.602853,-0.078026846,0.018598007,-0.16313553,-0.7161789,0.83496636,-1.512823,0.34922057,-0.3743822,-0.15253448,-0.6487808,0.7509877,0.9246495,-0.011942393,0.22834636,0.3045302,-1.2188492,-0.14670895,-0.5737343,1.0,0.0,0.0,0.0,0.0,0.0,0.0,-0.48686445,0.3161789,-0.28496635,21.617174,16.941048,-40.07168,61.952877,11.609613,10.720733,-6.0365734
-37.32813,118.22955,20.041689,43.610733,3.1255808,0.4779789,-1.6839012,-0.61287075,-0.66214913,0.09356939,0.67985743,-0.59878737,0.71265966,-0.44369113,0.86208093,-1.1594979,-1.8893634,-0.58561516,1.6289487,1.6377329,-0.91566235,0.9129863,-1.1069605,-1.8915125,-0.64344716,1.6825732,1.5664345,-0.8715231,-1.0129696,-1.3258771,0.62429994,1.1357242,-0.6337149,0.022082333,-0.03603432,-0.17825317,-0.71268463,0.8304889,-1.5113105,0.34887144,-0.47219384,-0.16516113,-0.64992523,0.7459126,0.9282271,-0.010470469,0.22407874,0.2967715,-1.2788912,-0.09502817,-0.4886411,1.0,0.0,0.0,0.0,0.0,0.0,0.0,-0.4717468,0.31268463,-0.2804889,10.074782,16.75756,-38.56678,48.135803,-3.2848954,10.106613,-5.204672
-45.67057,112.82566,18.956226,39.810497,2.8541121,1.0210885,-1.2072183,-0.6817445,-0.60923445,0.23878151,0.69079447,-0.64123005,0.7237772,-0.36873457,0.8448118,-1.167884,-1.8676344,-0.5743677,1.6184502,1.6388122,-0.90839654,0.9027314,-1.1190531,-1.8870531,-0.63015103,1.6756171,1.5673062,-0.87218016,-1.0288862,-1.1711824,0.3874304,1.3963743,-0.71780175,0.10863297,-0.074907415,-0.19335556,-0.709198,0.8250341,-1.5097995,0.34852266,-0.5699078,-0.17832184,-0.650383,0.7415659,0.9319382,-0.009099159,0.22163166,0.2868584,-1.3310752,-0.02198261,-0.4207989,1.0,0.0,0.0,0.0,0.0,0.0,0.0,-0.45664442,0.309198,-0.27503407,-1.3608456,15.218353,-23.357374,26.71833,-8.876443,8.582367,-3.6964276
-31.636402,107.2012,19.06686,28.639317,2.1358736,1.2265971,-0.6167574,-0.6652648,-0.5496452,0.20921761,0.6838636,-0.59268755,0.7083634,-0.3209439,0.83620495,-1.1740177,-1.8661314,-0.56176466,1.6163484,1.6381425,-0.9042746,0.8920541,-1.1297667,-1.8840567,-0.6156266,1.6679305,1.5689198,-0.8731329,-1.0802895,-1.0391455,0.2729059,1.4724956,-0.7883469,0.17861453,-0.1017488,-0.20844269,-0.705719,0.8186028,-1.5082899,0.34817418,-0.667524,-0.19174957,-0.6501007,0.73777163,0.9355718,-0.0077884025,0.22057807,0.2756627,-1.347563,0.054400846,-0.36961043,1.0,0.0,0.0,0.0,0.0,0.0,0.0,-0.4415573,0.305719,-0.2686028,-5.037999,12.884355,-10.741896,8.029532,-7.9366684,6.8484664,-2.5782437
-13.7767105,99.49957,19.015102,18.058815,1.6391906,1.2128553,-0.15641752,-0.6473539,-0.518872,0.22159733,0.68965566,-0.55718046,0.7067249,-0.2607782,0.82731867,-1.1816539,-1.861897,-0.546661,1.6122124,1.6395923,-0.8992107,0.8809085,-1.1394312,-1.8814093,-0.6011479,1.6597785,1.5711361,-0.8742649,-1.1259784,-0.94337744,0.26549757,1.4404899,-0.8280896,0.23546696,-0.11676592,-0.22351456,-0.70224,0.81119615,-1.5067819,0.34782606,-0.7650426,-0.20512772,-0.6490936,0.7343877,0.938992,-0.006654735,0.22035156,0.26399767,-1.3350246,0.123848945,-0.331561,1.0,0.0,0.0,0.0,0.0,0.0,0.0,-0.42648542,0.30223998,-0.26119614,-4.570198,9.255075,0.2865672,-2.9579163,-5.1676393,5.5066943,-1.4211133
-3.222673,83.95809,16.440336,10.69766,1.3634373,0.9485053,0.117184184,-0.6513323,-0.5207322,0.2291074,0.6796268,-0.5131871,0.7037521,-0.21283174,0.8157753,-1.1915045,-1.8584986,-0.5331852,1.6084597,1.6415113,-0.89554805,0.8693967,-1.1485064,-1.8784186,-0.5873625,1.6515177,1.5738426,-0.8754789,-1.1596569,-0.8964763,0.3137075,1.3584741,-0.8292841,0.28174266,-0.12265935,-0.23857117,-0.698761,0.80281496,-1.5052755,0.3474783,-0.8624637,-0.21833801,-0.647522,0.7312094,0.9421672,-0.0057759737,0.22040443,0.25240713,-1.3148456,0.17752847,-0.3164,1.0,0.0,0.0,0.0,0.0,0.0,0.0,-0.4114288,0.29876098,-0.25281495,-3.3980846,4.4246316,5.8206263,-8.0334425,-1.2661815,4.461461,-0.49158335
3.9313173,70.80912,14.230867,6.2258997,1.3103085,0.65596354,0.24373,-0.6447386,-0.53600705,0.27748287,0.6740494,-0.48126513,0.69795585,-0.17002839,0.8049228,-1.2021071,-1.8506703,-0.5199576,1.6033913,1.6436383,-0.89248174,0.8577018,-1.1574576,-1.8746306,-0.57441163,1.643442,1.576944,-0.8766987,-1.1727624,-0.8953148,0.40357217,1.2744393,-0.80369556,0.31907701,-0.12137721,-0.25361252,-0.6952896,0.7934524,-1.5037705,0.3471309,-0.96085256,-0.23135376,-0.64551544,0.72805077,0.9451317,-0.0052247746,0.22028522,0.24119075,-1.2961874,0.21683261,-0.3185811,0.0,1.0,0.0,0.0,0.0,0.0,0.0,-0.39638746,0.2952896,-0.24345237,-1.3345242,-0.097072124,9.907407,-8.249044,1.5097141,3.5760045,0.26616603
11.823702,56.92477,11.587479,1.6376109,0.9925383,0.31598252,0.3245353,-0.6191274,-0.57035506,0.32798767,0.66004544,-0.49647185,0.68587923,-0.12103399,0.79578906,-1.214493,-1.8418318,-0.5084071,1.5937948,1.6455319,-0.88880205,0.8460927,-1.1667101,-1.8698031,-0.5621855,1.6356047,1.58036,-0.87786025,-1.1569837,-0.9357876,0.51209444,1.2058057,-0.7799851,0.3484871,-0.11388026,-0.2686386,-0.69182587,0.7831066,-1.502267,0.34678385,-1.059143,-0.24414825,-0.64323425,0.7247206,0.9479242,-0.005007581,0.219724,0.23051225,-1.2748169,0.23886313,-0.34061605,0.0,1.0,0.0,0.0,0.0,0.0,0.0,-0.38136137,0.29182586,-0.23310661,1.5597343,-4.2146206,11.685551,-6.7207336,1.439023,2.7988017,0.9076029
10.809584,38.722744,6.8452396,-0.36841825,0.5558123,-0.13280743,0.31558657,-0.6153977,-0.6185829,0.2891055,0.63883936,-0.49423578,0.6699581,-0.10743079,0.78455293,-1.2285684,-1.8408926,-0.4983016,1.5861812,1.6473559,-0.8886033,0.8347,-1.1766216,-1.8643973,-0.5505755,1.6279867,1.583881,-0.87879467,-1.1358757,-1.0095539,0.5231221,1.1335335,-0.7467144,0.3173808,-0.05555818,-0.28398132,-0.6873779,0.77483034,-1.5541362,0.7112036,0.077186465,-0.2567978,-0.6409378,0.72090596,0.9505696,-0.0047622104,0.21866195,0.22041252,-1.2595924,0.22569291,-0.40455666,0.0,1.0,0.0,0.0,0.0,0.0,0.0,-0.36601865,0.28737792,-0.22483033,1.7514944,-7.4254394,-2.5908232,-9.044385,3.7813544,-8.592301,10.932951
-25.128405,94.91623,15.9030695,21.796215,2.2400272,0.63325405,-0.2769312,-0.73237675,-0.3835588,0.16883522,0.7105273,-0.5204066,0.6314385,-0.14459755,0.76146233,-1.2149774,-1.8475138,-0.47952276,1.575946,1.6470249,-0.8932544,0.8229612,-1.1860973,-1.8596098,-0.53909993,1.6205633,1.5871636,-0.8793211,-1.1862717,-0.92778015,0.4661782,1.1536428,-0.74383044,0.33159837,-0.051053118,-0.29951096,-0.68026733,0.7748572,-1.5525823,0.71049255,-0.022141863,-0.26951218,-0.6383209,0.71714205,0.95307505,-0.004136851,0.2177901,0.21023396,-1.2745119,0.28235805,-0.37004864,0.0,1.0,0.0,0.0,0.0,0.0,0.0,-0.35048902,0.28026733,-0.22485721,-4.9378633,7.938719,-5.0293264,2.413869,-0.57992935,1.2964785,0.63017756
-38.288994,97.022064,13.697977,26.59929,1.9746443,0.4144283,-0.4297431,-0.7536599,-0.35958678,-0.07941489,0.70809156,-0.46248376,0.6135011,-0.10496556,0.7475952,-1.2220559,-1.8675513,-0.46829078,1.5743148,1.6485137,-0.88981766,0.81056154,-1.1944705,-1.8567164,-0.52727246,1.6133058,1.5905625,-0.87979984,-1.2575526,-0.8081428,0.23200525,1.1938739,-0.721972,0.34219232,-0.04663134,-0.31502533,-0.673172,0.77389157,-1.55103,0.70978224,-0.12137088,-0.28243256,-0.6351471,0.7136648,0.95542717,-0.0030050636,0.21780455,0.19927607,-1.2972611,0.3353367,-0.34318238,0.0,1.0,0.0,0.0,0.0,0.0,0.0,-0.33497465,0.273172,-0.22389156,-7.0272207,11.707342,-22.935978,4.4348717,1.5093327,0.89858174,0.5315877
-33.093033,102.51196,13.80122,24.853994,1.3850393,0.35723504,-0.3858943,-0.7452062,-0.30032027,-0.23801385,0.71688527,-0.48022377,0.6147836,0.024228958,0.73604095,-1.2245026,-1.8805177,-0.45558393,1.5652834,1.6520408,-0.877377,0.79757535,-1.2014877,-1.8567336,-0.514972,1.6061628,1.594091,-0.8801861,-1.3121761,-0.6672573,-0.07701089,1.2429569,-0.7148741,0.35545486,-0.036131095,-0.33052444,-0.66607666,0.77193433,-1.5494792,0.70907265,-0.2205007,-0.29543686,-0.6315155,0.71046215,0.9575286,-0.0010199944,0.21910125,0.18743703,-1.2998754,0.38219494,-0.31488734,0.0,1.0,0.0,0.0,0.0,0.0,0.0,-0.31947553,0.26607665,-0.22193432,-5.4350376,13.77852,-30.159546,5.186224,-0.19214153,1.0858893,1.0210879
-33.325203,72.15449,6.7637577,20.649553,0.5744745,-0.19261527,-0.28499538,-0.77237964,-0.34171933,-0.45678055,0.73873377,-0.47662333,0.5824653,0.06987074,0.7203374,-1.2356596,-1.9024116,-0.4410986,1.5585004,1.6523376,-0.873199,0.78408945,-1.2075759,-1.8603861,-0.50217557,1.5990884,1.5977131,-0.8804436,-1.360617,-0.59016925,-0.46016657,1.2923853,-0.70661026,0.36366323,-0.022733102,-0.3460083,-0.6589966,0.7689865,-1.5479301,0.7083638,-0.31953138,-0.30854416,-0.62760925,0.7071337,0.95932424,0.0022675332,0.22170788,0.17474961,-1.3113873,0.40156963,-0.34046975,0.0,1.0,0.0,0.0,0.0,0.0,0.0,-0.30399168,0.25899658,-0.21898651,-4.812908,7.4659824,-37.94811,5.122924,0.35693645,0.56162477,1.2063712
-26.198416,56.95129,3.9641008,15.620665,0.016200334,-0.38199496,-0.09010292,-0.7797066,-0.33846268,-0.59381163,0.7518868,-0.52712226,0.57048845,0.25635454,0.70611876,-1.2414222,-1.9197673,-0.42698687,1.5463762,1.6547619,-0.8548081,0.7702373,-1.2132312,-1.8677504,-0.48895288,1.5919244,1.6013962,-0.8804407,-1.3932651,-0.558219,-0.8274705,1.332509,-0.7209192,0.3687641,0.0072869295,-0.3614769,-0.6519165,0.76504916,-1.5463824,0.7076556,-0.4184631,-0.32173157,-0.6236267,0.7033501,0.96074986,0.007099643,0.2254985,0.16142997,-1.3171828,0.40654346,-0.3920291,0.0,1.0,0.0,0.0,0.0,0.0,0.0,-0.28852308,0.2519165,-0.21504915,-3.248787,2.9824138,-36.406387,4.096937,-1.8214703,0.240767,2.792318
-13.947245,54.73659,4.7438335,10.547969,-0.09941107,-0.27365482,0.10594049,-0.7703997,-0.3321373,-0.6488104,0.75632185,-0.5614357,0.5974877,0.37583494,0.69319737,-1.246445,-1.9326315,-0.4133207,1.5357809,1.661145,-0.84285724,0.7562307,-1.2187816,-1.8780787,-0.47544408,1.5844896,1.6051384,-0.88006306,-1.4031478,-0.5547067,-1.0993778,1.3569038,-0.7530049,0.37500182,0.04714064,-0.37693024,-0.64484406,0.7601232,-1.5448364,0.70694804,-0.5172959,-0.33486938,-0.619606,0.69904226,0.9617552,0.013322755,0.23021086,0.14782554,-1.3098049,0.40869537,-0.4438861,0.0,1.0,0.0,0.0,0.0,0.0,0.0,-0.27306974,0.24484405,-0.21012318,-1.0260582,0.15158653,-26.619362,2.4109364,-3.8158417,0.32778382,3.74414
-10.070208,40.676384,3.0186107,6.9862757,-0.12743305,-0.28576976,0.26299268,-0.78912294,-0.38950378,-0.71590894,0.7440203,-0.60241663,0.6209197,0.46445516,0.6773184,-1.2577319,-1.9496696,-0.40104204,1.5242479,1.6672304,-0.83361757,0.7421354,-1.2246772,-1.8904707,-0.46185946,1.576637,1.608955,-0.87924576,-1.411712,-0.60161835,-1.2842842,1.3590053,-0.7977665,0.38305265,0.092508264,-0.39236832,-0.63777924,0.7542097,-1.5432918,0.7062412,-0.6160299,-0.34797668,-0.6156311,0.6940683,0.9623396,0.020755934,0.23547702,0.1342473,-1.3072666,0.40670896,-0.51491445,0.0,1.0,0.0,0.0,0.0,0.0,0.0,-0.25763166,0.23777923,-0.20420969,-0.8735895,-4.8317313,-18.02118,0.21409988,-4.9654603,0.5405307,4.327492
-4.571003,55.077446,6.6488056,6.9073253,0.39980546,0.046214104,0.32433754,-0.7887887,-0.35843834,-0.73779637,0.741618,-0.6085355,0.62910247,0.5441174,0.6632565,-1.260521,-1.9642503,-0.38769767,1.5157834,1.6718652,-0.824834,0.727988,-1.2309281,-1.9040865,-0.44835576,1.5686258,1.6127887,-0.87801397,-1.4162008,-0.6335752,-1.386753,1.3467233,-0.7964613,0.38014248,0.13103783,-0.40618896,-0.63095856,0.7484629,-1.2772741,0.66739947,-0.51938987,-0.36102676,-0.6115494,0.68859404,0.9625453,0.029030075,0.24093468,0.120889194,-1.3020191,0.41790527,-0.5576304,0.0,1.0,0.0,0.0,0.0,0.0,0.0,-0.24381101,0.23095855,-0.1984629,-0.5023718,-3.3419728,-8.289003,-1.2203932,-4.41041,0.017911196,4.4531927
0.9822216,44.84617,6.1350365,3.8199487,0.77287996,0.04658377,0.40366042,-0.77616954,-0.4484263,-0.68913555,0.73354244,-0.5512567,0.64199346,0.5546746,0.6503711,-1.2757707,-1.973,-0.37500152,1.5135001,1.676988,-0.8225465,0.71388227,-1.237825,-1.9179004,-0.43502218,1.5606662,1.6166457,-0.8763808,-1.4089799,-0.7087568,-1.3765472,1.3286979,-0.7988002,0.38626692,0.17383993,-0.41866684,-0.62433624,0.7427548,-1.2378547,0.6601786,-0.58527356,-0.37405777,-0.6073532,0.68263096,0.96246946,0.037739668,0.24610779,0.10797807,-1.2992021,0.42953235,-0.6084959,0.0,1.0,0.0,0.0,0.0,0.0,0.0,-0.23133314,0.22433624,-0.1927548,0.63369274,-7.6360583,1.932168,-1.8636703,-1.2076974,0.27326941,4.2187634
2.8184388,34.29346,5.048902,1.9630069,0.9915553,-0.0043032765,0.43935096,-0.7719146,-0.5255369,-0.6525912,0.7291512,-0.51305,0.62253475,0.5786805,0.6366908,-1.2903787,-1.9831595,-0.36210704,1.5093611,1.6788992,-0.81851274,0.6998852,-1.2457403,-1.9311215,-0.42186368,1.5528042,1.6205558,-0.8743313,-1.3968252,-0.8192186,-1.3015423,1.3116915,-0.784322,0.39137542,0.21536735,-0.43097305,-0.61774445,0.73634416,-1.2274712,0.6592514,-0.65814525,-0.3871231,-0.60305023,0.676079,0.962215,0.046622008,0.2506296,0.095673926,-1.3048733,0.44114932,-0.67016006,0.0,1.0,0.0,0.0,0.0,0.0,0.0,-0.21902692,0.21774444,-0.18634415,1.1693478,-11.12051,8.23338,-1.6584396,0.71867704,0.17781258,4.1629524
2.669117,34.195568,5.4385805,2.3357432,1.3380439,0.05280626,0.39873224,-0.7669821,-0.5726043,-0.5999175,0.7325011,-0.46315742,0.6029132,0.56641537,0.623187,-1.3030007,-1.9911132,-0.34861356,1.5064884,1.680847,-0.8176898,0.6860217,-1.2548097,-1.9432899,-0.40881297,1.5452192,1.6244972,-0.87191355,-1.3829556,-0.9364711,-1.1861653,1.3031067,-0.75236446,0.3938632,0.2508698,-0.44319916,-0.611145,0.7291996,-1.2197922,0.6599382,-0.7318375,-0.4002838,-0.59859467,0.66894823,0.9618856,0.05545632,0.25425524,0.08399346,-1.3150904,0.45893872,-0.7272134,0.0,1.0,0.0,0.0,0.0,0.0,0.0,-0.20680082,0.21114501,-0.17919958,1.3491154,-11.798752,12.313223,-0.77991486,2.421558,-0.11506677,3.6386073
1.0799108,41.0257,6.2500706,3.6619604,1.5086638,0.13850611,0.3689894,-0.7739027,-0.5958331,-0.5871526,0.7058633,-0.41377848,0.53544784,0.57835066,0.60863143,-1.314393,-2.002005,-0.33822665,1.5038413,1.6780419,-0.8140785,0.6722346,-1.2648957,-1.9543978,-0.3959292,1.5380772,1.6284037,-0.86917466,-1.377392,-1.032837,-1.0824238,1.2836481,-0.70453125,0.3882899,0.28184998,-0.45531464,-0.60453033,0.72138315,-1.2084162,0.6615055,-0.7973127,-0.41352844,-0.59391785,0.6613229,0.96153146,0.06417491,0.25695285,0.07289797,-1.3223169,0.4820818,-0.7741939,0.0,1.0,0.0,0.0,0.0,0.0,0.0,-0.19468534,0.20453033,-0.17138314,0.5026579,-9.732175,11.302471,-1.8936396,3.8350701,-0.9486854,3.1953394
11.585409,61.52609,10.636367,3.3179452,2.285538,0.46875346,0.3494112,-0.7315696,-0.6035623,-0.4157457,0.6954258,-0.24331713,0.5445074,0.5841706,0.59907764,-1.3252519,-1.9959724,-0.3263866,1.5137455,1.6828544,-0.8107576,0.658661,-1.2756798,-1.9639187,-0.38327092,1.5318576,1.632249,-0.8661572,-1.351162,-1.0941368,-0.9034117,1.2595477,-0.599674,0.3816893,0.3089368,-0.4671936,-0.597908,0.71316046,-1.1800742,0.6630552,-0.82873666,-0.4267273,-0.5889282,0.65354353,0.9612648,0.07230533,0.25853437,0.062464017,-1.3134377,0.51630783,-0.77945215,0.0,1.0,0.0,0.0,0.0,0.0,0.0,-0.18280637,0.19790801,-0.16316044,2.467084,-6.268239,19.489038,-2.5084496,8.885468,-1.0965526,2.8650224
14.026657,63.00441,11.560771,2.1291656,3.0005932,0.5215976,0.41673443,-0.7457434,-0.6507305,-0.30158633,0.59610015,0.124216095,0.42751318,0.56918,0.58408666,-1.3407528,-1.9940773,-0.3236609,1.5442792,1.6750003,-0.80923915,0.645264,-1.2870324,-1.9713894,-0.37127468,1.5276859,1.6359445,-0.86290723,-1.3363831,-1.1492124,-0.6895611,1.1792759,-0.36190194,0.3638397,0.33140647,-0.478817,-0.5912552,0.70461076,-1.1559975,0.66665286,-0.86243784,-0.4398842,-0.5835266,0.64579684,0.9613028,0.07932794,0.25847483,0.052865613,-1.3097447,0.5583285,-0.7734611,0.0,1.0,0.0,0.0,0.0,0.0,0.0,-0.17118299,0.19125518,-0.15461075,1.3286829,-5.633521,23.015583,-8.123779,22.10756,-2.223891,2.525574
18.331745,77.42683,13.182846,1.4911853,2.9496937,0.63237673,0.49389124,-0.7587311,-0.61110735,-0.24742396,0.47023797,0.23608835,0.19795702,0.57921433,0.5693909,-1.3481431,-1.9961318,-0.32425088,1.5512947,1.6557401,-0.8049858,0.6318955,-1.298568,-1.9768838,-0.36061725,1.5260396,1.6392959,-0.8594574,-1.337571,-1.1553366,-0.49653903,1.027298,-0.104872905,0.32475778,0.35006696,-0.49009323,-0.5845947,0.6958809,-1.1176282,0.6630179,-0.874804,-0.45285416,-0.5777359,0.63825274,0.9617205,0.0851277,0.25669047,0.04423536,-1.2867767,0.5973172,-0.7486928,0.0,1.0,0.0,0.0,0.0,0.0,0.0,-0.15990674,0.18459472,-0.14588088,-0.2995968,-0.7564783,21.13325,-15.371442,23.818125,-4.2145967,2.0752788
25.961891,83.727425,13.036349,-1.5419569,2.1246614,0.5248856,0.5968568,-0.756091,-0.5904626,-0.20043741,0.3392734,0.23164092,-0.1438743,0.5573921,0.5562864,-1.3576143,-1.9969275,-0.3266899,1.5492036,1.6249084,-0.80371815,0.6184811,-1.3099186,-1.9807787,-0.3519221,1.5265456,1.6420208,-0.85586876,-1.3433576,-1.1285934,-0.34832764,0.81622565,0.09669731,0.25464255,0.3621523,-0.50086975,-0.57801056,0.6871427,-1.064241,0.6555772,-0.87326455,-0.46541214,-0.5716858,0.63095796,0.96245474,0.08998577,0.25345486,0.03665982,-1.2396848,0.61522424,-0.7239741,0.0,1.0,0.0,0.0,0.0,0.0,0.0,-0.14913023,0.17801055,-0.13714272,-0.76253414,2.5443316,16.49651,-21.31834,18.419907,-7.1428595,1.3120174
36.600197,82.1407,11.545678,-6.5469303,0.86998254,0.3264882,0.7284577,-0.7364551,-0.575342,-0.21841708,0.20416464,0.25330585,-0.33215037,0.55931604,0.54483557,-1.3674529,-2.0026205,-0.33150563,1.5518762,1.6088058,-0.7999371,0.6050934,-1.3208802,-1.9838208,-0.34561926,1.52864,1.6439536,-0.8521917,-1.33777,-1.0856736,-0.28523394,0.5675332,0.24279062,0.17298186,0.369573,-0.51103973,-0.5716171,0.6784459,-1.0008715,0.6339219,-0.868164,-0.47732162,-0.565712,0.6237963,0.9633766,0.09437026,0.24917021,0.030233216,-1.1683297,0.60304415,-0.7147292,0.0,1.0,0.0,0.0,0.0,0.0,0.0,-0.13896024,0.17161712,-0.12844586,0.3869295,4.198909,7.5597105,-25.095999,13.300332,-8.161071,0.7570505
45.933884,49.341927,5.0886693,-17.32541,-1.3707203,-0.18746513,1.0967104,-0.7516056,-0.6192225,-0.38794342,-0.06380025,0.38845965,-0.4959632,0.56600267,0.52993286,-1.3828025,-2.0226152,-0.35199928,1.567486,1.5943573,-0.7955914,0.5917067,-1.3316624,-1.9874756,-0.34253746,1.5321783,1.6450312,-0.8484601,-1.3393064,-1.0757298,-0.3908773,0.22117229,0.38897598,0.08647273,0.37419498,-0.5206604,-0.5655136,0.6694695,-0.9493798,0.60226405,-0.9084533,-0.48840332,-0.56018066,0.61618865,0.9643542,0.099053584,0.24407211,0.025260175,-1.0832299,0.5450733,-0.77726233,0.0,1.0,0.0,0.0,0.0,0.0,0.0,-0.12933958,0.1655136,-0.119469464,-0.26376247,0.98478794,-10.176325,-34.81224,14.119667,-8.52748,0.4227996
37.72569,48.36488,5.3962364,-12.9603615,-0.6090771,-0.23447853,0.8944241,-0.7451843,-0.62602943,-0.27298242,-0.09053379,0.5131031,-0.53535354,0.57096076,0.51718825,-1.3942654,-2.0147738,-0.35159084,1.5834886,1.5914959,-0.791364,0.57833046,-1.3424771,-1.9918855,-0.34241226,1.5372208,1.6452941,-0.8446836,-1.3371494,-1.0832775,-0.45725536,-0.05736268,0.5421932,0.0064362204,0.37886244,-0.5298424,-0.55968475,0.66006374,-0.90817755,0.5765098,-0.9524234,-0.498806,-0.5551224,0.608006,0.96541226,0.10405715,0.238083,0.021625588,-1.0213281,0.501094,-0.8330698,0.0,1.0,0.0,0.0,0.0,0.0,0.0,-0.1201576,0.15968475,-0.11006373,0.16434193,-0.728035,-6.567115,-27.951754,15.184223,-7.9590263,0.4846692
32.591038,45.67192,5.9876065,-10.534279,0.12563698,-0.15220559,0.7636202,-0.74841285,-0.6558764,-0.14123306,-0.21243237,0.5760998,-0.55454326,0.5433043,0.5034892,-1.4080647,-2.0060089,-0.3636555,1.5948309,1.5898397,-0.7903532,0.5649628,-1.353553,-1.9961894,-0.34479463,1.5436844,1.6448303,-0.8408814,-1.3366057,-1.1155543,-0.4220427,-0.29860196,0.68133736,-0.064012446,0.3808998,-0.5386696,-0.55407715,0.65019375,-0.8754031,0.556603,-1.0004504,-0.5087166,-0.5503769,0.5993064,0.96664834,0.10899747,0.230962,0.019158395,-0.97624004,0.47224826,-0.883694,0.0,1.0,0.0,0.0,0.0,0.0,0.0,-0.11133039,0.15407714,-0.10019374,0.043988228,-3.1831741,3.3319056,-24.150198,14.062548,-7.045704,0.28110743
29.844488,61.46097,9.766271,-5.8493423,1.467794,0.2117629,0.58858293,-0.74495,-0.6502264,0.08012163,-0.31336606,0.61989003,-0.5340177,0.5506171,0.4904678,-1.4185756,-1.9881772,-0.37613124,1.6056733,1.5914285,-0.7858197,0.5516152,-1.3649151,-1.9989326,-0.3492879,1.5513822,1.6437632,-0.83705455,-1.3341333,-1.1430281,-0.22694904,-0.49958625,0.8010877,-0.12145837,0.38387284,-0.5471382,-0.5486374,0.64002013,-0.83696276,0.5431861,-1.02459,-0.51823044,-0.54574585,0.59038675,0.9681816,0.1132087,0.22247258,0.017723765,-0.93912244,0.46772814,-0.89638674,0.0,1.0,0.0,0.0,0.0,0.0,0.0,-0.10286176,0.14863738,-0.09002012,0.25482178,-2.683401,18.925774,-20.113224,12.589598,-5.723001,0.41546822
27.686018,71.68476,11.279236,-3.1233315,1.7234751,0.40460625,0.49255282,-0.7459971,-0.635102,0.10461532,-0.42289916,0.65000427,-0.51649296,0.55409676,0.47701547,-1.4284253,-1.988471,-0.3915778,1.6163826,1.5921139,-0.7816449,0.5382866,-1.3764126,-1.9996638,-0.3556448,1.5601001,1.6422158,-0.8331992,-1.3322872,-1.1517537,-0.024991773,-0.6809565,0.89857763,-0.1655645,0.38650018,-0.55519485,-0.5433655,0.62973446,-0.795395,0.5238342,-1.0322583,-0.52734756,-0.54109955,0.58146447,0.9700029,0.11643043,0.21270344,0.01719405,-0.89980865,0.46915808,-0.8925293,0.0,1.0,0.0,0.0,0.0,0.0,0.0,-0.09480512,0.14336547,-0.079734445,0.228405,-0.7900238,19.214104,-18.108643,10.796499,-4.2963057,0.37330985
22.293545,91.055145,14.148375,2.942744,2.3820648,0.6416259,0.2721458,-0.7371664,-0.5976062,0.19822653,-0.44856048,0.6849289,-0.5051714,0.55279464,0.46457,-1.4361732,-1.9798412,-0.40050083,1.628593,1.5916986,-0.77791977,0.52501434,-1.3877445,-1.9983803,-0.3633822,1.5696777,1.6403013,-0.8293203,-1.3252329,-1.1266593,0.17460835,-0.8044583,0.98263115,-0.19935517,0.38872042,-0.562767,-0.5382767,0.61960125,-0.74560934,0.5058157,-1.0100869,-0.5361099,-0.5363693,0.5728354,0.9720489,0.118526496,0.20192246,0.0173147,-0.8633193,0.48320857,-0.8547098,0.0,1.0,0.0,0.0,0.0,0.0,0.0,-0.08723295,0.13827667,-0.06960124,0.79255104,2.635312,18.479256,-12.2931595,10.040927,-3.079915,0.2883315
16.135857,98.82082,14.128528,6.3578296,2.0437577,0.6384633,0.16742907,-0.7438862,-0.5577919,0.12479054,-0.5144821,0.70754737,-0.51562864,0.5479348,0.45062572,-1.4435238,-1.9859012,-0.4148304,1.6404325,1.5887384,-0.77452683,0.5117782,-1.3986012,-1.9959857,-0.37217176,1.579964,1.6380948,-0.8254257,-1.3226182,-1.0716282,0.25553218,-0.9033586,1.0497273,-0.22767025,0.39033207,-0.5698242,-0.53338623,0.6097604,-0.68962586,0.49105656,-0.9779721,-0.54447937,-0.53149414,0.5646062,0.9741711,0.11979458,0.19058117,0.017851103,-0.82576257,0.49376556,-0.8139002,0.0,1.0,0.0,0.0,0.0,0.0,0.0,-0.08017576,0.13338622,-0.05976039,0.39172173,5.661297,6.4251304,-9.770918,8.528495,-2.559617,0.25770068
15.706071,119.32984,17.48843,10.311557,2.4800751,0.8932816,0.04112105,-0.72785276,-0.48609188,0.25637934,-0.5373414,0.7185523,-0.50432456,0.5567779,0.4389929,-1.4472103,-1.9703478,-0.4259059,1.6518192,1.5876623,-0.7697479,0.4986299,-1.4086128,-1.9927312,-0.38169742,1.5908206,1.6356695,-0.8215165,-1.311667,-0.97692335,0.3416167,-0.9686121,1.1053921,-0.24487205,0.39088845,-0.57629395,-0.5287399,0.6005056,-0.6383572,0.4543047,-0.9096062,-0.5524483,-0.526474,0.55705035,0.97629356,0.12024308,0.17901123,0.018638683,-0.7834871,0.51042914,-0.7373782,0.0,1.0,0.0,0.0,0.0,0.0,0.0,-0.07370603,0.12873992,-0.05050558,1.2615919,9.699941,6.4364853,-6.4138412,7.975316,-1.1493862,0.0708282
11.025727,120.40234,18.265627,12.816014,2.8198922,0.9489704,-0.063417025,-0.7245336,-0.4749596,0.38032174,-0.5331321,0.7235941,-0.4803594,0.5656689,0.42617655,-1.4561088,-1.954699,-0.4350106,1.66318,1.5876335,-0.7649496,0.48559877,-1.417751,-1.9883324,-0.39157763,1.6021004,1.6330998,-0.8175878,-1.2996153,-0.89178824,0.46522754,-0.9939773,1.1437186,-0.2587909,0.3935133,-0.58218765,-0.52433014,0.5919599,-0.57635015,0.43618286,-0.83878934,-0.5600815,-0.52121735,0.5503075,0.97841406,0.11973093,0.16729918,0.019530457,-0.752613,0.5345747,-0.65413815,0.0,1.0,0.0,0.0,0.0,0.0,0.0,-0.06781232,0.12433013,-0.04195988,1.3938904,8.753562,10.089761,-2.3908973,6.361103,-0.71938634,0.25049448
15.159248,116.67979,18.259129,10.820217,2.5486877,0.94443226,-0.037843995,-0.70129615,-0.44834408,0.45061475,-0.55949086,0.7323275,-0.4273878,0.55411124,0.41546917,-1.4625853,-1.9432709,-0.44752672,1.6753331,1.590361,-0.7621767,0.47277516,-1.4261338,-1.9825938,-0.40163958,1.6136663,1.6304677,-0.813647,-1.2759209,-0.8195946,0.6027729,-1.0096021,1.1691313,-0.26274583,0.39449614,-0.58753586,-0.5201645,0.58413464,-0.522332,0.41086158,-0.76627415,-0.5673752,-0.5157852,0.54435647,0.9805281,0.11819396,0.15547892,0.020517241,-0.7194148,0.5525073,-0.5761958,0.0,1.0,0.0,0.0,0.0,0.0,0.0,-0.062464118,0.120164484,-0.034134626,2.5784016,7.455361,11.498165,-1.3682604,5.070758,0.18602014,0.15091896
17.911694,127.72886,20.644417,12.111718,2.6857343,1.1593014,-0.10867447,-0.6672206,-0.37496853,0.54865164,-0.5193905,0.7181197,-0.2561566,0.56633514,0.4060531,-1.4636306,-1.9277287,-0.45357862,1.6854782,1.604852,-0.75701344,0.46031922,-1.4336773,-1.9753389,-0.41157517,1.6253757,1.6279446,-0.8096884,-1.2346289,-0.7318095,0.75849015,-0.9873739,1.1806405,-0.24648264,0.39649326,-0.5923157,-0.5162811,0.57722294,-0.4643389,0.38222712,-0.6692391,-0.5743141,-0.5101471,0.539343,0.9826185,0.11548916,0.14373018,0.021557491,-0.68192375,0.5718595,-0.47708413,0.0,1.0,0.0,0.0,0.0,0.0,0.0,-0.057684302,0.11628112,-0.027222931,4.3803215,9.047329,13.11413,2.4690151,3.9417744,2.3207128,0.26278496
30.793343,90.428055,15.2668705,1.1654087,1.3160377,0.747431,0.13839065,-0.62100965,-0.46283886,0.60630006,-0.5723625,0.7412588,-0.091414705,0.5516579,0.39821824,-1.4799612,-1.914709,-0.46881142,1.6995016,1.6188031,-0.7545226,0.44843692,-1.4409577,-1.9665563,-0.4214846,1.6371485,1.6257113,-0.8057203,-1.1720556,-0.7262857,0.9126624,-0.99127716,1.1823605,-0.21383385,0.39728278,-0.5966072,-0.5126724,0.5708978,-0.41901106,0.35444123,-0.62390655,-0.58083725,-0.5045166,0.5348284,0.98468274,0.11168862,0.1319184,0.022871548,-0.6398032,0.5645589,-0.44348097,0.0,1.0,0.0,0.0,0.0,0.0,0.0,-0.053392768,0.11267242,-0.020897806,6.4643145,0.71879625,13.681925,-0.13481379,2.1240711,3.7924588,0.20403266
23.54793,97.4951,15.742787,3.9215915,1.1896931,0.91740423,0.11229747,-0.6333797,-0.37063882,0.58498836,-0.59143865,0.7418516,0.13173509,0.554508,0.38509893,-1.4780215,-1.9080575,-0.48062846,1.7113336,1.6388848,-0.75026953,0.43702763,-1.447971,-1.9567347,-0.4315514,1.6489106,1.6239606,-0.80174077,-1.1297251,-0.6923474,0.999472,-1.0106537,1.1805687,-0.16007446,0.39876014,-0.6004486,-0.5093384,0.56509554,-0.37396932,0.32750702,-0.56960434,-0.5869179,-0.49890137,0.5306899,0.9866592,0.106991366,0.12023264,0.024504416,-0.5957487,0.56207734,-0.40425384,0.0,1.0,0.0,0.0,0.0,0.0,0.0,-0.049551368,0.10933837,-0.015095532,4.4751883,3.5756707,6.882572,-1.594162,1.816535,5.9545426,0.33698082
48.5609,80.97336,13.933939,-6.867165,-0.065357335,0.627208,0.26632354,-0.49264517,-0.4255484,0.66106623,-0.54043305,0.7390528,0.36291432,0.5504465,0.3877631,-1.4905258,-1.890628,-0.4855947,1.7228159,1.6602521,-0.7466961,0.42654958,-1.4549729,-1.946066,-0.4415795,1.660615,1.6228964,-0.7977526,-1.019776,-0.7022815,1.084861,-0.99915785,1.1720667,-0.086445965,0.3994876,-0.60383606,-0.50632477,0.5597173,-0.32838768,0.293575,-0.5314028,-0.59241104,-0.49360657,0.5267332,0.9885225,0.10144146,0.108740814,0.026613185,-0.53177774,0.52413344,-0.3928644,0.0,1.0,0.0,0.0,0.0,0.0,0.0,-0.046163917,0.10632476,-0.009717286,11.207342,-0.84906816,7.1403503,1.45787,0.745821,7.9701557,0.26314855
54.838955,74.4418,12.761114,-10.144712,-0.6681008,0.40139627,0.30582756,-0.43564636,-0.42685205,0.6528647,-0.5341115,0.7437828,0.42566583,0.5501712,0.38298494,-1.497658,-1.8807795,-0.49499065,1.7349932,1.665463,-0.7427355,0.41731372,-1.4621502,-1.9348379,-0.4514197,1.6722314,1.6225666,-0.7937577,-0.89084184,-0.72258353,1.1319474,-0.9778966,1.1622504,-0.013228328,0.40016428,-0.60679245,-0.5036621,0.5546323,-0.28587344,0.25819358,-0.50410825,-0.59724045,-0.48876953,0.5227856,0.99024266,0.09518544,0.097477846,0.029277997,-0.46374685,0.4708659,-0.3954223,0.0,1.0,0.0,0.0,0.0,0.0,0.0,-0.043207526,0.1036621,-0.004632294,13.095152,-1.9099951,3.5853624,2.4500608,0.31986237,7.906285,0.28104782
71.50525,79.153404,13.762108,-15.071392,-1.4391726,0.19557911,0.3528248,-0.30472448,-0.4063289,0.6435403,-0.4827694,0.73595226,0.4628709,0.55657345,0.38684127,-1.5027831,-1.8704839,-0.49969664,1.7458267,1.6688536,-0.73810035,0.40973678,-1.4694382,-1.9234005,-0.46081454,1.6837398,1.6229309,-0.7897534,-0.7125683,-0.73046196,1.1445138,-0.9254478,1.1508862,0.05525632,0.40122244,-0.6092949,-0.5014038,0.5498931,-0.23959917,0.21532743,-0.46694812,-0.6012497,-0.4846878,0.51886004,0.99178356,0.088375606,0.08657525,0.032553885,-0.3794233,0.3908432,-0.39151242,0.0,1.0,0.0,0.0,0.0,0.0,0.0,-0.040705085,0.1014038,0.00010693073,18.04049,-0.6674886,0.2779007,5.610311,0.05660057,7.512812,0.32175183
71.11396,89.36197,15.514314,-13.270056,-1.392708,0.15792517,0.27100277,-0.21801622,-0.3785494,0.64936024,-0.4213233,0.72421515,0.48479545,0.55819726,0.38793516,-1.5072931,-1.8584645,-0.50294685,1.7561613,1.6714104,-0.7339336,0.40402427,-1.4766289,-1.9119587,-0.46944427,1.6951168,1.6239207,-0.78573745,-0.52338946,-0.71472317,1.1410087,-0.84071445,1.1373703,0.11645785,0.4023761,-0.611351,-0.49957275,0.5456209,-0.19644187,0.16830415,-0.4166724,-0.60443115,-0.4813919,0.51510745,0.9931247,0.081101775,0.07618225,0.036359433,-0.2971263,0.30936784,-0.36970773,0.0,1.0,0.0,0.0,0.0,0.0,0.0,-0.038648963,0.09957275,0.0043790936,19.151043,1.7053962,-1.2947321,8.891153,-0.14951229,6.8578763,0.33699274
70.69416,92.959526,16.21093,-12.722245,-1.4094952,0.058564037,0.23561937,-0.11765397,-0.37003964,0.6541117,-0.37386668,0.7217538,0.4803401,0.5437772,0.39225888,-1.5136329,-1.8465475,-0.50683093,1.7672921,1.6719546,-0.7313597,0.40023866,-1.4835945,-1.900576,-0.47711915,1.7063613,1.6254388,-0.78172153,-0.32951382,-0.68996173,1.1347157,-0.74160314,1.1235466,0.16600275,0.40208966,-0.61299133,-0.49816132,0.5418648,-0.15418692,0.12989867,-0.36315814,-0.60681915,-0.47894287,0.5116256,0.9942623,0.07342674,0.066346094,0.040608782,-0.21835451,0.22596253,-0.34106335,0.0,1.0,0.0,0.0,0.0,0.0,0.0,-0.037008643,0.09816131,0.0081352,19.622517,2.5897503,-1.4173985,10.360813,-0.33648014,5.6483774,0.19916296
57.616085,105.86987,18.14378,-7.064418,-0.9578101,0.18908764,0.13571186,-0.062692024,-0.3072994,0.6315067,-0.3394101,0.70960695,0.4683604,0.5295432,0.39396945,-1.5143244,-1.8374254,-0.5110602,1.7773219,1.6722748,-0.7287672,0.39816108,-1.4900433,-1.8893703,-0.48384064,1.7174581,1.6273805,-0.7777199,-0.16636184,-0.6293101,1.1131908,-0.6473165,1.108664,0.20558707,0.4003872,-0.614254,-0.49713135,0.53874654,-0.11723703,0.09418456,-0.29502416,-0.6084938,-0.47719574,0.50859517,0.99519295,0.06544007,0.05717042,0.045166302,-0.14971754,0.15822853,-0.29069775,0.0,1.0,0.0,0.0,0.0,0.0,0.0,-0.03574598,0.09713134,0.011253476,16.57058,6.186366,-2.989602,9.933865,-0.41456223,4.5812817,0.0764966
53.369957,126.2032,21.565714,-3.862559,-0.84357923,0.3543399,0.10370483,0.025504055,-0.20749816,0.5956074,-0.2995698,0.7017423,0.45167553,0.52403414,0.40071148,-1.5107931,-1.8298095,-0.51379764,1.7876323,1.672548,-0.7253165,0.3976237,-1.4954754,-1.8785441,-0.4896806,1.7284229,1.6296521,-0.7737394,-0.015261416,-0.5140792,1.0693886,-0.5609912,1.0962335,0.2364401,0.39814457,-0.615139,-0.49645996,0.53653604,-0.07981552,0.05846055,-0.19651574,-0.6094475,-0.47610474,0.50632846,0.995913,0.057222042,0.048859138,0.049955357,-0.07831365,0.0952055,-0.20608209,0.0,1.0,0.0,0.0,0.0,0.0,0.0,-0.03486097,0.096459955,0.013463974,15.395323,11.654245,-5.29263,9.213543,-0.07145405,3.7424803,0.032156706
55.113632,114.17618,19.646133,-6.1182547,-1.0287657,0.11505818,0.1291214,0.13320102,-0.22616562,0.60785204,-0.23277596,0.6976505,0.45880598,0.5094429,0.41094378,-1.5180919,-1.8177589,-0.51295817,1.798188,1.6755327,-0.7227951,0.39865178,-1.4999806,-1.86803,-0.49459663,1.739256,1.6321853,-0.7697917,0.14299467,-0.429057,1.0435038,-0.46670502,1.0816753,0.26061022,0.39451236,-0.61569977,-0.49611664,0.5351435,-0.04861921,0.027201494,-0.11974287,-0.6097336,-0.47564697,0.504767,0.99643725,0.04880868,0.041326456,0.05497734,-0.012323024,0.02807531,-0.14038774,0.0,1.0,0.0,0.0,0.0,0.0,0.0,-0.034300208,0.09611663,0.014856517,16.07141,8.585024,-3.18892,9.957981,-0.6572962,2.9092312,-0.11258125
10.108921,107.895744,17.804647,9.862055,0.7094935,0.29190856,-0.27355984,0.08548779,-0.19190527,0.56151664,-0.10604787,0.6817481,0.4649683,0.50817055,0.40720055,-1.5191711,-1.8118783,-0.5052014,1.8074309,1.6786822,-0.71897465,0.40063208,-1.50374,-1.8578826,-0.49821338,1.7498951,1.6349224,-0.76587784,0.21705386,-0.3579408,1.0032035,-0.3252651,1.0605487,0.27908388,0.39101475,-0.61608505,-0.4959488,0.5343694,-0.035444878,0.013844689,-0.06245949,-0.6097679,-0.47543335,0.5037964,0.9968013,0.040311106,0.03451023,0.05975945,-0.0012281662,0.020250276,-0.08383194,0.0,0.0,1.0,0.0,0.0,0.0,0.0,-0.033914924,0.095948786,0.015630603,7.6032343,7.2164955,-4.6114206,14.5637455,-1.375246,2.1980047,-0.13589263
-0.67297834,102.25995,16.442835,13.063637,0.96259755,0.21949127,-0.36620033,0.14399269,-0.15353753,0.5090164,-0.029270442,0.6715982,0.44487444,0.51763856,0.41503134,-1.5190938,-1.806981,-0.5011404,1.8170549,1.6794099,-0.714114,0.40321463,-1.5068547,-1.8482887,-0.50030106,1.7603016,1.6377953,-0.761988,0.2725414,-0.29553884,0.94346565,-0.16875356,1.0352777,0.29056412,0.3888896,-0.61639786,-0.49586487,0.5340902,-0.031507634,0.011075374,-0.01581699,-0.6097946,-0.4752121,0.5033165,0.9970346,0.031878915,0.028393937,0.06402748,-0.004203611,0.023468083,-0.037381765,0.0,0.0,1.0,0.0,0.0,0.0,0.0,-0.03360212,0.09586486,0.015909791,5.710882,6.3179674,-6.36456,16.017563,-2.0328522,1.3812125,-0.024622679
-13.249356,80.88683,11.980081,15.74384,1.1651816,-0.013185086,-0.5057514,0.1717463,-0.18401358,0.4344818,0.09680352,0.63286763,0.47651902,0.5075336,0.42038926,-1.525256,-1.8048404,-0.4906207,1.8235884,1.6854472,-0.7112346,0.40622967,-1.5096833,-1.8395225,-0.5005776,1.770356,1.6407813,-0.75812465,0.31148255,-0.27851906,0.8537494,0.02019754,0.99619496,0.3016277,0.38606748,-0.6167183,-0.4957962,0.53398687,-0.03281574,0.006530469,-0.008676622,-0.61001205,-0.47486877,0.5030219,0.9971688,0.023743497,0.022911344,0.067569435,-0.027834471,0.03724786,-0.028540365,0.0,0.0,1.0,0.0,0.0,0.0,0.0,-0.033281684,0.0957962,0.016013145,3.9968312,1.7528117,-9.143459,19.150818,-3.6729336,1.2066782,-0.12372136
-18.290663,78.80897,10.442925,16.195303,0.7453295,-0.09793597,-0.48878866,0.1690055,-0.12278521,0.27022055,0.13083479,0.5966591,0.4585815,0.49178016,0.4231302,-1.5219618,-1.8125005,-0.48749414,1.830022,1.6866394,-0.70894665,0.40946168,-1.5122257,-1.8322722,-0.49920815,1.7799497,1.6438434,-0.75429857,0.32736698,-0.24613313,0.6818786,0.17662688,0.9478316,0.30804184,0.38184184,-0.6170616,-0.49573517,0.53390354,-0.034839015,0.0065763094,-0.0092639085,-0.61042404,-0.4744339,0.50275445,0.99722385,0.016296959,0.018182859,0.070343934,-0.046839174,0.046823103,-0.027969938,0.0,0.0,1.0,0.0,0.0,0.0,0.0,-0.03293836,0.09573516,0.016096473,1.6636491,3.2548814,-17.281914,15.873444,-4.62749,0.7188797,-0.29643774
-21.420874,84.3805,10.683201,17.053778,0.456419,-0.071440615,-0.4734634,0.16920152,-0.0649098,0.13501552,0.20058295,0.5495405,0.4530613,0.5020754,0.42638183,-1.5187167,-1.8187706,-0.47914985,1.8349037,1.6891495,-0.704091,0.4127385,-1.5142514,-1.8271551,-0.49642542,1.7889916,1.6469511,-0.75050676,0.32800397,-0.18797922,0.4551062,0.3127837,0.8899586,0.31164664,0.37854445,-0.6174278,-0.49565887,0.53387654,-0.036724478,0.008514903,-0.0018964126,-0.6109848,-0.47389984,0.502551,0.9972248,0.00985103,0.014420953,0.07237191,-0.05949365,0.054342747,-0.019434605,0.0,0.0,1.0,0.0,0.0,0.0,0.0,-0.03257215,0.09565887,0.016123474,0.11699796,5.793852,-22.67971,13.80687,-5.6643844,0.37156343,-0.2557099
-21.86656,85.65047,10.661017,16.223686,0.24434473,-0.01998508,-0.38463676,0.15448819,-0.036535956,0.039560776,0.22746702,0.50121653,0.45856747,0.5188131,0.4281873,-1.517905,-1.823199,-0.4736787,1.8391132,1.6928078,-0.69862545,0.4158947,-1.515638,-1.8243496,-0.49259123,1.7974054,1.6500895,-0.746734,0.31155547,-0.12247734,0.22281423,0.4073581,0.82502383,0.31440282,0.37686536,-0.61779785,-0.49558258,0.5339411,-0.03715734,0.008467322,0.0077502723,-0.61162186,-0.47333527,0.50245094,0.99719685,0.0045219664,0.011704455,0.07376279,-0.06547473,0.060482573,-0.008317277,0.0,0.0,1.0,0.0,0.0,0.0,0.0,-0.032202125,0.095582575,0.016058922,-1.6203523,6.492868,-23.113668,9.572,-6.4967275,0.24113059,-0.15378594
-17.443632,82.18984,10.040214,13.065778,-0.05831881,-0.03615102,-0.23804785,0.14109686,-0.019216588,-0.05514088,0.22086278,0.46516392,0.450293,0.51706904,0.43000436,-1.5175596,-1.8298638,-0.47050494,1.8439218,1.6951188,-0.6950271,0.41881007,-1.5164257,-1.8237435,-0.48821685,1.805172,1.653241,-0.74297845,0.28487888,-0.06446821,0.007353709,0.4475492,0.76015127,0.31525105,0.3749389,-0.6181526,-0.4955063,0.53405744,-0.03511257,0.008174419,0.011724216,-0.6122551,-0.4727249,0.50241804,0.9971549,0.0003061374,0.009951921,0.074718446,-0.06253316,0.06000392,-0.002537702,0.0,0.0,1.0,0.0,0.0,0.0,0.0,-0.031847358,0.09550628,0.015942574,-2.6728153,5.721842,-21.318434,4.0492353,-6.601906,0.03710985,-0.22925735
-21.719988,82.27117,10.04195,14.25696,0.098660454,0.02478946,-0.22929406,0.10861789,0.013548542,-0.16469732,0.25365168,0.41449797,0.43161237,0.51843065,0.42967185,-1.5150709,-1.8402132,-0.46285167,1.8466218,1.6964023,-0.6911354,0.42133683,-1.516647,-1.825195,-0.48356715,1.8122636,1.6563822,-0.73924196,0.24189603,-0.008443163,-0.1948591,0.47068983,0.6916694,0.3133899,0.37292197,-0.61849594,-0.4954071,0.53421736,-0.033700563,0.009760558,0.016551873,-0.61288834,-0.47209167,0.5024507,0.99711496,-0.0028263428,0.00910566,0.075305045,-0.06277311,0.06581182,0.004721232,0.0,0.0,1.0,0.0,0.0,0.0,0.0,-0.031504035,0.0954071,0.015782654,-4.3260155,5.5146704,-19.91279,2.2738338,-7.037854,-0.25963783,-0.2875924
-10.096953,78.38158,9.872824,9.551118,-0.17064497,-0.055435803,-0.10454577,0.1287085,0.016727686,-0.20321934,0.26131955,0.3753879,0.42789748,0.52298474,0.43420768,-1.5149742,-1.8455169,-0.4574352,1.8498024,1.6991719,-0.6869435,0.42359084,-1.5164505,-1.8282659,-0.478794,1.8186866,1.6594987,-0.7355217,0.2197113,0.028592117,-0.3431466,0.4792402,0.6249936,0.31087777,0.37132284,-0.61880875,-0.49531555,0.534392,-0.03068683,0.009162672,0.01734177,-0.6134529,-0.47146606,0.50252086,0.9970793,-0.0050460114,0.009003646,0.07567169,-0.05429569,0.060263325,0.0076755504,0.0,0.0,1.0,0.0,0.0,0.0,0.0,-0.03119123,0.095315546,0.015608013,-2.2649467,3.615041,-14.434301,0.763464,-6.9464207,-0.34409165,-0.27346015
