Afshin1997/kuka_rl_ros2/src/catch_and_throw/input_files/idealpd/recorded_trajectories/env_457_data.csv
torque0,torque1,torque2,torque3,torque4,torque5,torque6,action0,action1,action2,action3,action4,action5,action6,set_target_0,set_target_1,set_target_2,set_target_3,set_target_4,set_target_5,set_target_6,joint_pos_0,joint_pos_1,joint_pos_2,joint_pos_3,joint_pos_4,joint_pos_5,joint_pos_6,joint_vel_0,joint_vel_1,joint_vel_2,joint_vel_3,joint_vel_4,joint_vel_5,joint_vel_6,tennisball_pos_0,tennisball_pos_1,tennisball_pos_2,tennisball_lin_vel_0,tennisball_lin_vel_1,tennisball_lin_vel_2,end_effector_pos_0,end_effector_pos_1,end_effector_pos_2,end_effector_rot_0,end_effector_rot_1,end_effector_rot_2,end_effector_rot_3,end_effector_lin_vel_0,end_effector_lin_vel_1,end_effector_lin_vel_2,obs_task_0,obs_task_1,obs_task_2,obs_task_3,obs_task_4,obs_task_5,obs_task_6,to_final_target_0,to_final_target_1,to_final_target_2,joint_acc_0,joint_acc_1,joint_acc_2,joint_acc_3,joint_acc_4,joint_acc_5,joint_acc_6
0.0,0.0,0.0,0.0,0.0,0.0,0.0,0.0,0.0,0.0,0.0,0.0,0.0,0.0,1.7802359,-1.0646509,-1.8151424,-1.1170107,1.9373155,1.1170107,-0.91629785,1.7802359,-1.0646509,-1.8151424,-1.1170107,1.9373155,1.1170107,-0.91629785,0.0,0.0,0.0,0.0,0.0,0.0,0.0,3.104702,-0.34606934,0.17674664,-3.6811743,-0.1733842,4.755701,0.5304184,-0.45449448,0.693097,0.5745483,0.17512383,0.15255436,0.7848268,0.0,0.0,0.0,1.0,0.0,0.0,0.0,0.0,0.0,0.0,-3.754702,-0.05393067,0.37325338,0.0,0.0,0.0,0.0,0.0,0.0,0.0
0.0,0.0,0.0,0.0,0.0,0.0,0.0,0.0,0.0,0.0,0.0,0.0,0.0,0.0,1.7802359,-1.0646509,-1.8151424,-1.1170107,1.9373155,1.1170107,-0.91629785,1.7802359,-1.0646509,-1.8151424,-1.1170107,1.9373155,1.1170107,-0.91629785,0.0,0.0,0.0,0.0,0.0,0.0,0.0,3.104702,-0.34606934,0.17674664,-3.6811743,-0.1733842,4.755701,0.5304184,-0.45449448,0.693097,0.5745483,0.17512383,0.15255436,0.7848268,0.0,0.0,0.0,1.0,0.0,0.0,0.0,0.0,0.0,0.0,-3.754702,-0.05393067,0.37325338,0.0,0.0,0.0,0.0,0.0,0.0,0.0
0.0,0.0,0.0,0.0,0.0,0.0,0.0,0.0,0.0,0.0,0.0,0.0,0.0,0.0,1.7802359,-1.0646509,-1.8151424,-1.1170107,1.9373155,1.1170107,-0.91629785,1.7802359,-1.0646509,-1.8151424,-1.1170107,1.9373155,1.1170107,-0.91629785,0.0,0.0,0.0,0.0,0.0,0.0,0.0,3.104702,-0.34606934,0.17674664,-3.6811743,-0.1733842,4.755701,0.5304184,-0.45449448,0.693097,0.5745483,0.17512383,0.15255436,0.7848268,0.0,0.0,0.0,1.0,0.0,0.0,0.0,0.0,0.0,0.0,-3.754702,-0.05393067,0.37325338,0.0,0.0,0.0,0.0,0.0,0.0,0.0
-176.0,59.89098,-10.174477,110.0,10.896394,4.4099655,-3.8093426,-0.82019603,0.3177383,-0.57241416,0.71925986,0.24257448,0.6328967,-0.5729606,1.6982163,-1.0328771,-1.8723838,-1.0450847,1.9615729,1.1803004,-0.9735939,1.778998,-1.0625509,-1.8211887,-1.1119066,1.942162,1.1223112,-0.91763395,-0.16497956,0.27916574,-0.80551094,0.68093216,0.6455149,0.70487386,-0.17766042,3.0679169,-0.3478012,0.22353154,-3.677494,-0.17321086,4.6527605,0.52830887,-0.45782852,0.6938062,0.5783675,0.17365983,0.15111908,0.7826214,-0.2812791,-0.4443062,0.094274744,1.0,0.0,0.0,0.0,0.0,0.0,0.0,-3.717917,-0.052198797,0.32646847,-16.411478,27.718124,-80.41445,68.20236,64.32349,69.94873,-17.604631
-176.0,-34.381413,-47.1626,110.0,12.152926,1.2432535,-3.1503866,-0.81032884,-0.17981194,-0.55853814,0.68788946,0.39961666,0.6273392,-0.6195727,1.6979651,-1.0805321,-1.8770425,-1.0431178,1.9821237,1.1850451,-0.97959125,1.7776324,-1.06014,-1.8362796,-1.0971323,1.9513726,1.1354758,-0.9178266,-0.13101016,0.21520141,-1.7104231,1.7430025,0.9960152,1.4828581,0.024992898,3.03117,-0.34953308,0.2692878,-3.6738172,-0.1730377,4.5499225,0.5236511,-0.46642303,0.69450426,0.586677,0.17020205,0.14758237,0.7778564,-0.5276086,-0.99558973,0.06554603,1.0,0.0,0.0,0.0,0.0,0.0,0.0,-3.68117,-0.050466925,0.28071222,2.2742033,-10.374451,-80.55696,106.218765,29.956997,66.53178,17.683226
-151.48857,97.44004,23.899918,85.23155,7.6580706,6.864384,-1.7118527,-0.7596385,0.23808351,-0.00018111814,0.56185347,0.45622158,0.65943164,-0.5560527,1.7016685,-1.0363317,-1.8362978,-1.040947,1.9969947,1.2014189,-0.9734319,1.7730871,-1.0574678,-1.8517063,-1.0783888,1.9616094,1.150149,-0.9178619,-0.5623412,0.28156337,-1.4809858,1.9193717,1.0280931,1.4560312,-0.014128307,2.9944572,-0.35126495,0.31401643,-3.670144,-0.17286469,4.447187,0.5162277,-0.4778824,0.6964856,0.5976698,0.16543525,0.14280018,0.77138186,-0.8215581,-1.1885185,0.2462432,1.0,0.0,0.0,0.0,0.0,0.0,0.0,-3.6444573,-0.048735052,0.23598358,-43.11769,5.746502,24.720024,18.029213,1.7490864,-4.510689,-4.2304144
-97.11055,109.565254,40.114723,53.680515,4.7227864,7.4924636,-0.25496393,-0.77615887,0.11286677,0.13949528,0.5987061,0.45977977,0.64063245,-0.58745706,1.6954713,-1.0461811,-1.8377568,-1.0185182,2.0075874,1.2142122,-0.97660756,1.7641684,-1.0547899,-1.8617866,-1.0602633,1.9712491,1.1637503,-0.91844267,-1.0030118,0.2610157,-0.8426893,1.7773498,0.9370013,1.3245769,-0.07453248,2.9577827,-0.3529892,0.3577185,-3.6664748,-0.17269185,4.3445544,0.5062866,-0.4900055,0.70023364,0.60948855,0.15951186,0.13689472,0.76442105,-1.0638629,-1.2101039,0.42227072,1.0,0.0,0.0,0.0,0.0,0.0,0.0,-3.6077828,-0.04701081,0.19228151,-44.40067,-2.7219832,66.1073,-14.105463,-10.807001,-14.236927,-6.5975165
-42.66221,116.889885,46.526733,26.908613,1.9058611,6.48982,0.5169482,-0.7943623,0.16667993,0.14004087,0.5677284,0.5400229,0.6365604,-0.5761664,1.6847322,-1.0381219,-1.8477825,-1.0034904,2.0252514,1.2274064,-0.9760593,1.7515875,-1.0521234,-1.8654163,-1.0447584,1.9800286,1.1759096,-0.9196357,-1.3443705,0.26717654,-0.19690771,1.4744838,0.85401607,1.1785046,-0.13618656,2.9211464,-0.35471344,0.400395,-3.662809,-0.17251919,4.2420244,0.49455643,-0.50151825,0.7054761,0.62094307,0.15264739,0.13003835,0.75777197,-1.2211607,-1.117903,0.5604854,1.0,0.0,0.0,0.0,0.0,0.0,0.0,-3.5711465,-0.045286566,0.149605,-34.529972,0.16912222,66.4007,-30.446457,-9.519696,-15.007281,-6.7474885
-2.2054079,124.005936,48.419006,12.087807,-0.09826654,5.1033683,0.6040269,-0.81014985,0.2771416,0.15315418,0.5523907,0.56167823,0.6212264,-0.5891098,1.6705725,-1.0244093,-1.8501009,-0.98951936,2.0361965,1.2380322,-0.9785467,1.7366701,-1.0488714,-1.863961,-1.0321947,1.9881959,1.1867319,-0.92139715,-1.5419129,0.3433929,0.26372758,1.1830977,0.8021734,1.0500785,-0.19125271,2.8845444,-0.35643768,0.44204697,-3.6591468,-0.17234671,4.139597,0.48184586,-0.51169586,0.7119256,0.63161707,0.14508115,0.12278215,0.7516222,-1.2992824,-0.9724936,0.6727706,1.0,0.0,0.0,0.0,0.0,0.0,0.0,-3.5345445,-0.043562323,0.10795304,-20.088482,7.2946844,47.269543,-29.35605,-5.8267713,-12.825751,-6.060606
22.51626,142.05115,51.901535,7.816431,-1.4568014,4.246775,0.28372014,-0.81855285,0.4550671,0.14022745,0.5415198,0.55797935,0.6212901,-0.5812237,1.6548148,-1.0033647,-1.8499383,-0.9780427,2.043994,1.248861,-0.97951955,1.7207037,-1.0440172,-1.8596733,-1.0219027,1.9960332,1.1964308,-0.9236383,-1.6160717,0.53169125,0.48648834,0.97735494,0.77683675,0.94363856,-0.23687452,2.8479805,-0.35816193,0.48267543,-3.6554885,-0.17217441,4.037272,0.46875,-0.5202217,0.71955514,0.6416206,0.1368961,0.115904614,0.7457537,-1.3227655,-0.7999432,0.79110706,1.0,0.0,0.0,0.0,0.0,0.0,0.0,-3.4979806,-0.04183808,0.06732458,-7.704687,18.54965,23.083698,-20.721424,-2.7858257,-10.448146,-5.101168
36.28702,146.32191,51.266754,5.36234,-2.0713582,3.4228613,0.10084267,-0.8190112,0.5665556,0.16534615,0.49305063,0.60635394,0.6103083,-0.5713688,1.6388026,-0.9873616,-1.8431387,-0.9725976,2.0566685,1.2574617,-0.9807752,1.7046076,-1.0369085,-1.8543861,-1.0131193,2.003899,1.2051989,-0.92626566,-1.6084003,0.7697223,0.54483294,0.84496146,0.7897183,0.85523367,-0.27288583,2.811451,-0.35988235,0.5222814,-3.6518338,-0.17200227,3.9350498,0.4556694,-0.5270004,0.7283277,0.6511306,0.12818919,0.10989301,0.73994595,-1.3103423,-0.6250041,0.9035944,1.0,0.0,0.0,0.0,0.0,0.0,0.0,-3.461451,-0.04011765,0.027718604,0.51190853,23.577452,6.429291,-13.316607,1.2059689,-8.602703,-4.068619
42.32178,142.98088,49.31679,4.2971263,-2.2025356,2.8934166,0.04809497,-0.8105054,0.65530866,0.21917799,0.45221606,0.62248313,0.6168292,-0.5618162,1.6235571,-0.9713776,-1.8324683,-0.9678977,2.0661473,1.2668818,-0.98244727,1.6889044,-1.0274233,-1.8490112,-1.0052553,2.012013,1.2132021,-0.9291925,-1.5583328,1.0075654,0.5367085,0.7669369,0.818917,0.7827974,-0.3006073,2.7749596,-0.36159897,0.56086594,-3.6481826,-0.1718303,3.8329296,0.44282913,-0.53208923,0.7381676,0.66023797,0.11901879,0.10487025,0.73411345,-1.2803581,-0.45739874,1.0083343,1.0,0.0,0.0,0.0,0.0,0.0,0.0,-3.4249597,-0.038401037,-0.010865927,4.7879696,23.600805,-0.3160715,-7.841432,2.8966427,-7.0461154,-3.1742632
42.071384,125.38083,42.84076,2.4608183,-2.0058756,2.2049155,0.10552004,-0.79550797,0.69895744,0.2474393,0.40967643,0.6369201,0.6263346,-0.5467743,1.6093537,-0.9575275,-1.8242673,-0.9642877,2.075705,1.2758356,-0.9838699,1.6738096,-1.0159429,-1.8438518,-0.997975,2.0204625,1.2205855,-0.9323415,-1.4939319,1.1942936,0.5104008,0.7149317,0.85342336,0.724076,-0.3208441,2.7385063,-0.36331558,0.59843004,-3.6445353,-0.1716585,3.7309115,0.43035507,-0.53567505,0.74883735,0.66894776,0.10950194,0.100701876,0.72827005,-1.2416875,-0.31156456,1.0836524,1.0,0.0,0.0,0.0,0.0,0.0,0.0,-3.3885064,-0.036684424,-0.048430026,6.263542,18.541073,-2.222085,-5.2590847,3.4570813,-5.7001233,-2.365452
32.883213,101.20174,33.36335,2.9202337,-1.4510427,1.5038941,0.08942352,-0.7915048,0.7265149,0.22866601,0.39212605,0.6487575,0.640261,-0.5362708,1.5946592,-0.9432914,-1.8209852,-0.9587624,2.0853384,1.2846116,-0.9859686,1.6592757,-1.0030874,-1.839072,-0.991058,2.0292401,1.227471,-0.9356517,-1.4403913,1.315603,0.4682132,0.68367624,0.8861431,0.67725575,-0.335253,2.7020874,-0.3650322,0.6349747,-3.6408913,-0.17148688,3.6289954,0.41820526,-0.53808975,0.7599766,0.67730504,0.09983105,0.097180255,0.7223902,-1.2073152,-0.20332387,1.1207857,1.0,0.0,0.0,0.0,0.0,0.0,0.0,-3.3520875,-0.03496781,-0.084974706,5.216694,12.053418,-3.9187193,-3.229785,3.3177614,-4.529035,-1.7207682
25.558125,81.29974,25.961739,3.0014558,-0.99766326,0.9903244,0.107798785,-0.77881426,0.7458802,0.22406839,0.37100372,0.65788335,0.641524,-0.53753316,1.5813942,-0.9284994,-1.8166652,-0.9539576,2.0950284,1.2916234,-0.98940504,1.6451784,-0.9894508,-1.8346832,-0.98440135,2.0383039,1.233956,-0.93908113,-1.3999944,1.3795784,0.43006313,0.65909976,0.9133583,0.6393383,-0.34640953,2.6657066,-0.3667488,0.670501,-3.6372511,-0.17131543,3.5271814,0.40636826,-0.53964233,0.7712624,0.68534046,0.090174295,0.09409338,0.7164659,-1.1775625,-0.1240796,1.1277765,1.0,0.0,0.0,0.0,0.0,0.0,0.0,-3.3157067,-0.033251196,-0.12050098,3.9245844,6.3595295,-3.5792112,-2.6165247,2.790022,-3.6285758,-1.3661146
20.350203,65.059135,19.99076,1.8126273,-0.7508297,0.5631063,0.17689763,-0.7778497,0.7523617,0.21726418,0.31566355,0.6723483,0.64071405,-0.5336095,1.5673934,-0.9142146,-1.8129568,-0.95283496,2.1055386,1.2980274,-0.9924421,1.6313425,-0.9755033,-1.8306091,-0.97815764,2.0476155,1.2401148,-0.9426021,-1.3786097,1.3997787,0.40067413,0.6120806,0.9373242,0.6088225,-0.35475963,2.6293602,-0.3684578,0.7050099,-3.6336148,-0.17114414,3.4254692,0.39480972,-0.540535,0.7824105,0.6930269,0.08069541,0.09128091,0.7105418,-1.149168,-0.0640888,1.1068994,1.0,0.0,0.0,0.0,0.0,0.0,0.0,-3.2793603,-0.03154221,-0.15500987,2.0246267,2.0129204,-2.730894,-4.918027,2.479136,-2.8372288,-1.0673165
13.781831,55.488358,16.008005,3.5573277,-0.41885015,0.3395578,0.11193746,-0.7718788,0.75902617,0.18484162,0.31973875,0.6692317,0.65324837,-0.53024143,1.5541546,-0.8996007,-1.812125,-0.94618374,2.1145387,1.3054396,-0.9956262,1.6176325,-0.9615272,-1.8268802,-0.9722973,2.0570989,1.24602,-0.9461908,-1.3686723,1.3969928,0.36421883,0.5765532,0.9522574,0.5851144,-0.36087996,2.593052,-0.37016678,0.7385024,-3.6299818,-0.17097303,3.3238587,0.3834839,-0.54097366,0.7932607,0.70041984,0.07147369,0.088671245,0.7045856,-1.1273057,-0.02357072,1.0741093,1.0,0.0,0.0,0.0,0.0,0.0,0.0,-3.243052,-0.029833227,-0.18850237,0.8907318,-0.26695728,-3.4867644,-3.785777,1.5979886,-2.1624565,-0.8190155
12.930639,53.59773,15.40196,3.7488704,-0.37580097,0.2987548,0.12951308,-0.7653426,0.76557606,0.18499714,0.2892011,0.66917664,0.6533504,-0.53159726,1.5410982,-0.8849696,-1.8083805,-0.9433772,2.1240165,1.311355,-0.9993505,1.6039854,-0.94762933,-1.8234336,-0.96682703,2.0666814,1.2517229,-0.9498319,-1.3637936,1.3874617,0.33890557,0.5363854,0.9602692,0.5660041,-0.36584082,2.556778,-0.37187576,0.7709796,-3.6263525,-0.1708021,3.22235,0.37236023,-0.54102325,0.803773,0.7075347,0.06250966,0.086234346,0.69860625,-1.1058152,0.014435311,1.0400366,1.0,0.0,0.0,0.0,0.0,0.0,0.0,-3.206778,-0.028124243,-0.22097957,0.385046,-0.93705654,-2.3700953,-4.2506933,0.9099126,-1.7014027,-0.6997764
14.479746,53.48491,15.494505,2.8082209,-0.49688756,0.24513498,0.1795673,-0.76183254,0.76658386,0.18028738,0.24308498,0.6678276,0.6559545,-0.52942675,1.5278022,-0.87097096,-1.8054049,-0.94251853,2.133464,1.3173184,-1.0027746,1.5903708,-0.9338287,-1.8201702,-0.96187365,2.076302,1.2572638,-0.95351404,-1.3611531,1.3775976,0.32282028,0.48082304,0.9629314,0.5509245,-0.36962768,2.5205421,-0.37358475,0.8024425,-3.622727,-0.17063133,3.1209424,0.36148453,-0.5406761,0.8139352,0.71433705,0.053796306,0.08397602,0.692659,-1.0798068,0.055551723,1.0046563,1.0,0.0,0.0,0.0,0.0,0.0,0.0,-3.1705422,-0.026415259,-0.25244248,0.1585722,-0.9663105,-1.4388263,-5.7893515,0.37441254,-1.277256,-0.5793512
22.320808,55.961025,16.851395,-1.8865347,-1.0414617,0.11050019,0.36523864,-0.7576706,0.776211,0.18694466,0.13105999,0.67796254,0.6490738,-0.5185274,1.5146037,-0.8562076,-1.8014756,-0.94876766,2.1440983,1.3221712,-1.0053668,1.5767828,-0.92006147,-1.8169601,-0.95789874,2.085957,1.2626749,-0.957221,-1.3582389,1.3765475,0.3211546,0.36884746,0.96677303,0.5388553,-0.37164852,2.4843407,-0.37528992,0.832892,-3.6191049,-0.17046073,3.0196364,0.35100555,-0.53977585,0.8237008,0.720679,0.045384377,0.081947,0.686911,-1.0354941,0.113391936,0.9635599,1.0,0.0,0.0,0.0,0.0,0.0,0.0,-3.1343408,-0.024710089,-0.282892,0.17347336,-0.07879734,0.04066825,-11.435848,0.48236847,-0.89023113,-0.40576458
35.747025,57.194374,18.028448,-10.967802,-2.0207834,-0.24180174,0.6818349,-0.75435567,0.78516495,0.20278102,-0.062364243,0.6844513,0.64561677,-0.5190466,1.5013473,-0.841545,-1.796682,-0.96413517,2.1544023,1.3272367,-1.0091256,1.5632311,-0.90623605,-1.8136432,-0.9558159,2.0956616,1.2679869,-0.96094316,-1.3544512,1.384672,0.33613256,0.15401798,0.9720184,0.53041315,-0.37309802,2.4481773,-0.37699127,0.8623293,-3.6154866,-0.1702903,2.9184315,0.34122467,-0.53811264,0.8329226,0.72628045,0.03743512,0.08025971,0.6816697,-0.9566463,0.19634175,0.90475404,1.0,0.0,0.0,0.0,0.0,0.0,0.0,-3.0981774,-0.023008734,-0.3123293,0.2543211,0.8562088,1.7385721,-21.727228,0.61018467,-0.35823584,-0.3383875
46.007523,58.16576,19.189709,-17.282839,-2.6688066,-0.5269277,0.9209529,-0.7445734,0.78760594,0.23898858,-0.22180218,0.6874698,0.6400257,-0.52218354,1.4887738,-0.8274754,-1.7897444,-0.9779961,2.1644087,1.3319894,-1.0131615,1.5497595,-0.89230764,-1.8099945,-0.95637,2.1054235,1.2732321,-0.9646787,-1.345116,1.3957404,0.37511206,-0.12579226,0.9777475,0.5243565,-0.3742483,2.4120483,-0.37869263,0.8907553,-3.6118717,-0.17012006,2.8173277,0.33242035,-0.5354843,0.84148157,0.73090523,0.030076029,0.078974776,0.67722654,-0.8515786,0.29399958,0.83570415,1.0,0.0,0.0,0.0,0.0,0.0,0.0,-3.0620484,-0.021307379,-0.34075528,0.8455992,1.1757612,4.088932,-28.184128,0.6822467,-0.008428097,-0.2722144
54.028065,59.681385,20.379904,-21.219872,-3.1003861,-0.7776532,1.0635376,-0.7182667,0.7963095,0.2668026,-0.37054855,0.68814266,0.6334992,-0.51735765,1.4779328,-0.81267667,-1.7833142,-0.99342483,2.1742377,1.3365821,-1.0164145,1.5364977,-0.8782419,-1.8058593,-0.9599186,2.1152349,1.2784239,-0.968419,-1.3198534,1.4105337,0.42638752,-0.43157858,0.9829837,0.51972646,-0.37425268,2.3759575,-0.38039398,0.918171,-3.6082606,-0.16994996,2.716325,0.32481003,-0.5318184,0.849326,0.7344167,0.02337258,0.07812469,0.6737821,-0.7266256,0.39933252,0.76301104,1.0,0.0,0.0,0.0,0.0,0.0,0.0,-3.0259576,-0.019606024,-0.36817098,2.5134325,1.5805721,5.1837626,-30.706268,0.69584846,0.20134449,-0.0998199
53.163353,59.546616,20.641193,-18.924839,-2.840333,-0.83428025,1.0066557,-0.6870719,0.79405713,0.29698366,-0.44565657,0.68612397,0.6282833,-0.49673578,1.4677905,-0.7988362,-1.776161,-1.0044843,2.1838472,1.3412522,-1.0180926,1.5236174,-0.8640646,-1.8011672,-0.9661814,2.1250844,1.2835718,-0.9721412,-1.2771114,1.4206154,0.48312423,-0.69134945,0.9867165,0.51519716,-0.37168843,2.339901,-0.38209534,0.94457746,-3.6046531,-0.16978005,2.6154234,0.31841278,-0.52716446,0.8565122,0.7368527,0.017268278,0.0776519,0.67135686,-0.6050415,0.49429804,0.69897413,1.0,0.0,0.0,0.0,0.0,0.0,0.0,-2.989901,-0.017904669,-0.39457744,4.3395996,1.1397123,5.5516124,-26.039528,0.6365061,0.17808676,0.20368695
50.2622,63.663685,22.67606,-14.11175,-2.3735352,-0.6005266,0.9196444,-0.6532317,0.80091804,0.3649967,-0.50891197,0.69109035,0.6200116,-0.48648033,1.4582943,-0.78397274,-1.7646676,-1.0170726,2.1941934,1.345573,-1.0207893,1.5112711,-0.84978807,-1.7957256,-0.9745499,2.1349835,1.2886702,-0.97582906,-1.2200084,1.4304847,0.56359345,-0.8852988,0.9922665,0.51012427,-0.3678705,2.3038826,-0.38378906,0.96997565,-3.6010492,-0.1696103,2.514623,0.3131218,-0.521595,0.86322236,0.7383143,0.011578338,0.07741446,0.6698992,-0.4976366,0.5824997,0.6562753,1.0,0.0,0.0,0.0,0.0,0.0,0.0,-2.9538827,-0.016210943,-0.41997564,5.8306932,1.149106,7.7501416,-19.403912,0.9405613,0.075507164,0.3590405
48.91043,68.59747,25.160809,-10.312944,-2.058411,-0.35696393,0.86761546,-0.6092752,0.8102205,0.43744054,-0.57497114,0.6916071,0.6060799,-0.4772448,1.4503436,-0.76876605,-1.7519815,-1.032047,2.2041442,1.3492782,-1.0235535,1.4996058,-0.8353981,-1.7892921,-0.9844519,2.144936,1.2937113,-0.979474,-1.1483121,1.44255,0.6683044,-1.0250798,0.99809927,0.5040986,-0.36328146,2.2678986,-0.3854828,0.9943666,-3.5974488,-0.16944073,2.413923,0.30882645,-0.51514816,0.86965686,0.7388729,0.006094088,0.07727814,0.6693711,-0.40112942,0.66996753,0.6332151,1.0,0.0,0.0,0.0,0.0,0.0,0.0,-2.9178987,-0.014517218,-0.44436657,7.336974,1.3974428,10.020828,-13.9420395,1.0839105,-0.038301945,0.45868754
39.54511,67.09967,24.412836,-4.126896,-1.4195981,-0.15134566,0.7011645,-0.59297967,0.80868584,0.48402438,-0.6018916,0.68962234,0.59478277,-0.4409066,1.4403079,-0.7545295,-1.7408897,-1.044641,2.2138984,1.3531896,-1.0235647,1.4885908,-0.8209194,-1.7817924,-0.9953257,2.1549344,1.2986876,-0.98304933,-1.0852264,1.45028,0.775412,-1.1080679,1.0021363,0.49692324,-0.35560217,2.2319489,-0.3871765,1.0177513,-3.593852,-0.16927132,2.3133237,0.30532455,-0.50793076,0.87595314,0.73867005,0.00066889165,0.07714614,0.6696376,-0.3278881,0.74252456,0.6218833,1.0,0.0,0.0,0.0,0.0,0.0,0.0,-2.881949,-0.012823492,-0.46775132,6.465411,0.9732008,10.213351,-8.27167,0.9438634,-0.22518039,0.772959
27.484722,63.69735,22.477392,3.324996,-0.6474298,0.041045606,0.45757684,-0.5739059,0.81027836,0.51079905,-0.57946,0.6944207,0.59027374,-0.40341917,1.4312003,-0.7398915,-1.7307125,-1.0532717,2.2243764,1.3577149,-1.0233912,1.4781157,-0.8063854,-1.7733562,-1.0065237,2.1649747,1.3035876,-0.9865255,-1.0345378,1.4550711,0.8647233,-1.1238564,1.0065327,0.48920065,-0.34498823,2.1960373,-0.38887024,1.0401309,-3.590259,-0.16910209,2.212825,0.30233765,-0.50014496,0.88222045,0.7379274,-0.004808002,0.07695499,0.670461,-0.28262582,0.79416674,0.62142783,1.0,0.0,0.0,0.0,0.0,0.0,0.0,-2.8460374,-0.011129767,-0.49013084,5.177045,0.68285465,8.453215,-1.601553,0.9741783,-0.36978722,1.054287
14.0901785,57.949257,19.168745,9.795872,0.02297175,0.16750275,0.21264257,-0.5852454,0.8145812,0.52669275,-0.5735934,0.6909738,0.5922268,-0.36951956,1.4195912,-0.7249273,-1.7206869,-1.0638831,2.234072,1.3628103,-1.0234774,1.467919,-0.79180753,-1.7642276,-1.0175997,2.1750379,1.3084131,-0.9898786,-1.0145767,1.4593751,0.9276338,-1.1026173,1.0077467,0.48160374,-0.3321015,2.1601639,-0.39056015,1.0615062,-3.5866694,-0.16893302,2.1124268,0.29961395,-0.4920082,0.8885021,0.7368841,-0.010375561,0.076711535,0.67157227,-0.26357925,0.8245653,0.6232687,1.0,0.0,0.0,0.0,0.0,0.0,0.0,-2.810164,-0.009439856,-0.51150614,2.0166636,0.6267071,5.912268,2.035904,0.60441494,-0.45473576,1.2732923
3.170671,51.14174,15.603149,14.420352,0.54937357,0.20018694,0.018054197,-0.60112226,0.813261,0.537265,-0.558823,0.69116944,0.59431744,-0.34234643,1.4078068,-0.7104814,-1.7105011,-1.073482,2.2441547,1.3678449,-1.0241132,1.4577013,-0.77720773,-1.7546604,-1.0283133,2.185101,1.3131701,-0.99309343,-1.0242866,1.4608091,0.96546483,-1.0614455,1.0072687,0.47448614,-0.3179989,2.1243248,-0.39224625,1.0818782,-3.5830836,-0.16876411,2.012129,0.2969246,-0.4837036,0.8947841,0.7357449,-0.016012777,0.07645037,0.6727394,-0.26412958,0.8357837,0.6224773,1.0,0.0,0.0,0.0,0.0,0.0,0.0,-2.774325,-0.0077537596,-0.5318782,-1.0359526,0.32863617,3.5138369,3.9644718,0.37579536,-0.48630834,1.3864398
-1.2735381,45.452496,12.867822,15.382357,0.698515,0.066756696,-0.06391247,-0.6087648,0.8129953,0.53610027,-0.5572359,0.69290507,0.59215516,-0.31406653,1.3968248,-0.6959082,-1.7010503,-1.0840368,2.2543914,1.3723856,-1.0245001,1.4472758,-0.762607,-1.7448986,-1.0386416,2.1951566,1.3178602,-0.9961595,-1.0489523,1.4604058,0.9791678,-1.0238829,1.0062295,0.46781352,-0.30280796,2.08852,-0.39393234,1.1012479,-3.5795012,-0.16859539,1.9119313,0.2942047,-0.4753723,0.9009987,0.7346225,-0.02164184,0.07622577,0.673833,-0.2689313,0.83634347,0.6137315,1.0,0.0,0.0,0.0,0.0,0.0,0.0,-2.7385201,-0.0060676634,-0.5512479,-2.5747538,0.13129711,1.1844039,3.570819,0.25799274,-0.47966242,1.4939725
-4.5873218,40.186428,10.493527,15.877515,0.81423926,-0.054303527,-0.1207228,-0.6312194,0.8083337,0.5351429,-0.54783195,0.69071466,0.5968613,-0.29530227,1.3841538,-0.6817736,-1.6913843,-1.0934248,2.264228,1.3775464,-1.0256897,1.436503,-0.7480377,-1.7351158,-1.0486456,2.205193,1.3224932,-0.99907297,-1.0872798,1.4561888,0.97761506,-0.99340636,1.0038352,0.46226752,-0.28769475,2.0527534,-0.39561844,1.1196164,-3.5759225,-0.16842683,1.8118336,0.29140854,-0.4670906,0.9070722,0.73358446,-0.027184559,0.07608386,0.6747786,-0.2764903,0.8281101,0.5976611,1.0,0.0,0.0,0.0,0.0,0.0,0.0,-2.7027535,-0.0043815672,-0.5696164,-3.9771318,-0.26328564,-0.27157068,2.8344512,0.07400513,-0.3976643,1.4838219
-2.4646192,38.55799,10.129488,14.182833,0.6671682,-0.19583797,-0.06375533,-0.6406278,0.80628496,0.5439092,-0.5531593,0.693306,0.59394526,-0.24906085,1.3724402,-0.6674092,-1.6807249,-1.1039616,2.2745237,1.3818877,-1.0239791,1.4253565,-0.7335218,-1.7253559,-1.0584704,2.2152143,1.3270746,-1.001817,-1.124114,1.4505757,0.9749256,-0.9796426,1.0024885,0.45741996,-0.27001584,2.0170212,-0.39730453,1.1369847,-3.5723472,-0.16825843,1.7118361,0.28858948,-0.4588852,0.9129448,0.732609,-0.032578047,0.076048665,0.675603,-0.2770573,0.8213671,0.5762366,1.0,0.0,0.0,0.0,0.0,0.0,0.0,-2.6670213,-0.002695471,-0.5869847,-3.8180828,-0.41098595,-0.3663063,1.1735201,0.15780926,-0.32263398,1.7416358
-0.8649678,39.143402,10.766808,13.945366,0.60645384,-0.2036911,-0.032424714,-0.6534245,0.8059921,0.5550054,-0.53342104,0.68880403,0.6007374,-0.20277886,1.3600141,-0.65292263,-1.6698554,-1.1118125,2.2840946,1.3871484,-1.0220948,1.4138743,-0.7190546,-1.7155769,-1.0681502,2.2252126,1.3316199,-1.0043652,-1.1567158,1.4458869,0.9783805,-0.964779,0.99994034,0.4540692,-0.24984217,1.9813232,-0.398983,1.1533538,-3.5687757,-0.16809021,1.6119386,0.28578186,-0.45072556,0.9186195,0.73165804,-0.0378331,0.07612147,0.67635095,-0.27528638,0.8177783,0.55699944,1.0,0.0,0.0,0.0,0.0,0.0,0.0,-2.6313233,-0.0010170043,-0.6033538,-3.386879,-0.31781197,0.24211407,1.2948036,0.04365444,-0.17184615,1.990962
0.59886694,39.708855,11.208438,13.622562,0.5219649,-0.24361885,-0.016283348,-0.6676518,0.8089617,0.55148417,-0.523634,0.6871944,0.5993333,-0.16417406,1.3471091,-0.63815844,-1.6604285,-1.1205136,2.293932,1.3915532,-1.0207826,1.4020964,-0.7046064,-1.705775,-1.0776812,2.2351842,1.3361365,-1.0066998,-1.1850706,1.4449341,0.9804408,-0.94996434,0.99715734,0.45131832,-0.22814311,1.9456635,-0.40066147,1.1687247,-3.5652075,-0.16792215,1.512141,0.28300858,-0.44257736,0.9241099,0.7307135,-0.042964403,0.076314665,0.6770434,-0.27030998,0.8169186,0.5388596,1.0,0.0,0.0,0.0,0.0,0.0,0.0,-2.5956635,0.00066146255,-0.61872464,-2.9567719,0.057005882,0.1029253,1.300919,0.017726421,-0.11037588,2.1471918
3.1423788,38.500137,11.099804,11.924883,0.37522185,-0.38706842,0.044006396,-0.6752558,0.802039,0.5534274,-0.53442353,0.6864232,0.59316605,-0.12396606,1.3345708,-0.6244025,-1.6504322,-1.1311235,2.3038266,1.3954531,-1.0190964,1.3900896,-0.6901878,-1.6959484,-1.0871531,2.245129,1.3406245,-1.0088093,-1.2062057,1.4413042,0.9830662,-0.9468459,0.9945566,0.44856668,-0.20518677,1.910038,-0.40233994,1.1830982,-3.5616431,-0.16775426,1.4124432,0.28034592,-0.43442535,0.9293866,0.7297296,-0.047941733,0.07663863,0.67773354,-0.25786313,0.81783134,0.51641047,1.0,0.0,0.0,0.0,0.0,0.0,0.0,-2.560038,0.0023399293,-0.6330982,-2.2125483,-0.21588802,0.1608491,0.1434803,0.020289421,-0.09998679,2.270934
1.7543945,37.815792,11.173496,13.696794,0.55667937,-0.30425033,0.036182903,-0.6925417,0.7974322,0.5651308,-0.49682298,0.6827179,0.6067728,-0.012875532,1.3208355,-0.6104446,-1.6394353,-1.1368353,2.313401,1.4013017,-1.0100969,1.3778673,-0.6758226,-1.6860473,-1.0964571,2.2550435,1.3450972,-1.0106289,-1.2279428,1.4355006,0.99218845,-0.9255476,0.9913869,0.44742513,-0.17418884,1.8744469,-0.4040184,1.1964756,-3.558082,-0.16758655,1.3128451,0.27775955,-0.42627335,0.9344824,0.7286956,-0.052809145,0.07705874,0.6784364,-0.25152004,0.8164369,0.4997729,1.0,0.0,0.0,0.0,0.0,0.0,0.0,-2.524447,0.004018396,-0.6464756,-2.2874117,-0.42932034,0.80868006,1.9500971,-0.020599365,0.045371056,3.068438
2.033947,36.27087,10.777646,13.518024,0.5630598,-0.36412734,0.07258232,-0.7031624,0.7925274,0.5647291,-0.49520436,0.67888695,0.61082083,0.110716395,1.3075511,-0.5965699,-1.6295744,-1.1459776,2.3229322,1.4061793,-0.9995573,1.365439,-0.6615299,-1.6760623,-1.1055552,2.2649198,1.3495642,-1.012069,-1.2482882,1.4276352,1.000282,-0.9053123,0.98737437,0.4470667,-0.1340227,1.8388939,-0.40569305,1.2088578,-3.554525,-0.16741899,1.2133465,0.27523804,-0.41814804,0.9394035,0.7275858,-0.057577107,0.07756431,0.6791816,-0.24386002,0.8139356,0.4819308,1.0,0.0,0.0,0.0,0.0,0.0,0.0,-2.488894,0.0056930482,-0.65885776,-2.146411,-0.63853264,0.71464777,1.8434405,-0.11113882,0.12117028,3.9821386
-1.1962624,33.2041,9.505398,15.741071,0.8224242,-0.32577157,0.01219335,-0.72440886,0.784903,0.5572268,-0.45539933,0.670552,0.62744397,0.2223254,1.2929982,-0.5830396,-1.6203396,-1.1510952,2.331975,1.4123086,-0.98983645,1.3527609,-0.6473383,-1.6660507,-1.1143099,2.2747388,1.3540407,-1.0130551,-1.2746948,1.4168606,1.0013313,-0.86634266,0.9808421,0.44831535,-0.08683198,1.8033752,-0.4073639,1.2202456,-3.550971,-0.1672516,1.1139474,0.27274323,-0.41010666,0.9441681,0.72643644,-0.06227148,0.07814536,0.6799306,-0.24430425,0.8038187,0.46710885,1.0,0.0,0.0,0.0,0.0,0.0,0.0,-2.4533753,0.0073638856,-0.6702456,-2.785182,-0.93069077,0.03478527,3.6899924,-0.36754608,0.2547145,4.678251
-1.2435241,31.981283,9.291321,16.552334,0.87571156,-0.3393138,0.009066962,-0.72446275,0.77643913,0.556541,-0.41939336,0.6448037,0.63079154,0.34816173,1.2803147,-0.56969434,-1.6103966,-1.1562493,2.339219,1.4171199,-0.97823894,1.339873,-0.63327444,-1.6560524,-1.1225611,2.2844205,1.3585325,-1.0135148,-1.2938643,1.4033347,0.9989261,-0.81212956,0.9651077,0.44992334,-0.032457624,1.7678909,-0.40903473,1.2306402,-3.5474207,-0.1670844,1.0146477,0.27022552,-0.40216827,0.9488078,0.7252601,-0.06693802,0.07881079,0.68066573,-0.24562079,0.7923005,0.45535344,1.0,0.0,0.0,0.0,0.0,0.0,0.0,-2.417891,0.009034723,-0.68064016,-2.0554066,-1.2055397,-0.3197074,5.20947,-1.2853622,0.28490424,5.388639
-4.333747,27.456373,7.3646564,18.542501,1.1349434,-0.3589161,-0.08227883,-0.7397437,0.76062924,0.5342274,-0.36685354,0.62449443,0.6461252,0.41138685,1.2658986,-0.5572115,-1.6026297,-1.1592464,2.34687,1.423145,-0.97237605,1.3267866,-0.6193937,-1.6461895,-1.1301161,2.2939,1.363051,-1.0134308,-1.3140321,1.3834187,0.9818178,-0.73738843,0.942735,0.4526828,0.021777786,1.7324448,-0.41070557,1.2400427,-3.543874,-0.16691734,0.91544724,0.2676506,-0.39442444,0.9533396,0.7241246,-0.07160899,0.0795568,0.6813122,-0.2537797,0.7709076,0.44505417,1.0,0.0,0.0,0.0,0.0,0.0,0.0,-2.3824449,0.01070556,-0.6900427,-2.1745443,-1.8491507,-1.7725229,7.233143,-1.9615889,0.37516952,5.3647523
-1.1867676,27.591337,7.9990597,16.706297,0.94651973,-0.45498377,0.0011418574,-0.7360432,0.7472252,0.54891855,-0.3626691,0.6095073,0.6496886,0.46233532,1.2531823,-0.5446712,-1.5912976,-1.166383,2.3548508,1.4280199,-0.9671973,1.3135744,-0.60574186,-1.6364257,-1.137036,2.3031354,1.3675982,-1.0128224,-1.3241322,1.3595432,0.9741881,-0.6773863,0.91814446,0.4557692,0.07372839,1.6970329,-0.4123764,1.2484539,-3.540331,-0.16675046,0.81634593,0.26504898,-0.38685608,0.9577464,0.72299063,-0.07627816,0.08038156,0.6819127,-0.2540491,0.75468385,0.43218836,1.0,0.0,0.0,0.0,0.0,0.0,0.0,-2.347033,0.012376398,-0.69845384,-1.1265993,-2.2504568,-0.84216595,5.786526,-2.191031,0.42638183,5.1347675
3.0584865,27.542324,8.312739,12.886127,0.5792031,-0.6772168,0.12219077,-0.7360542,0.7335573,0.5513782,-0.38757676,0.59377015,0.6445033,0.49367487,1.239969,-0.5323861,-1.5812879,-1.1757936,2.3625124,1.4320486,-0.9634549,1.3003145,-0.5923456,-1.6266925,-1.1436526,2.312119,1.3721701,-1.0117276,-1.3268007,1.3334144,0.97285116,-0.6569425,0.8925617,0.45824462,0.121242926,1.6616554,-0.4140396,1.2558748,-3.5367913,-0.16658375,0.71734375,0.26255417,-0.37939453,0.96194696,0.7217558,-0.08085545,0.08131292,0.68258274,-0.23958926,0.7448722,0.40911785,1.0,0.0,0.0,0.0,0.0,0.0,0.0,-2.3116555,0.014039606,-0.70587474,-0.33388138,-2.4876833,-0.21160841,1.8684506,-2.3267388,0.39340258,4.6956673
7.4790716,29.225267,8.959713,8.519014,0.11638874,-0.9188249,0.23923962,-0.7418796,0.73281723,0.54846054,-0.4354025,0.59380835,0.64434004,0.5032292,1.2261266,-0.5190639,-1.5718465,-1.1871928,2.3714998,1.4366041,-0.9614047,1.2870356,-0.5791544,-1.6169574,-1.1504523,2.3208966,1.3767649,-1.0102055,-1.3283472,1.314725,0.9733606,-0.68815446,0.87341565,0.4605618,0.16250242,1.6263161,-0.41570282,1.2623063,-3.533255,-0.1664172,0.6184405,0.2603302,-0.37196732,0.9658264,0.72031647,-0.0851947,0.08242077,0.68344194,-0.20814678,0.74363035,0.37406135,1.0,0.0,0.0,0.0,0.0,0.0,0.0,-2.2763162,0.015702814,-0.7123063,-0.18603802,-1.7546177,-0.007176399,-3.2505393,-1.7250061,0.4030645,4.085496
7.942293,28.90027,9.096154,8.788275,0.15178293,-0.94645345,0.23592243,-0.73081434,0.71728635,0.54719543,-0.40851736,0.58358145,0.64374274,0.52614117,1.2139542,-0.5074257,-1.5622379,-1.191304,2.3792548,1.4411392,-0.9575914,1.2738062,-0.5661558,-1.6072185,-1.1575171,2.3295064,1.3813807,-1.0083039,-1.3211263,1.2953007,0.9739424,-0.7131127,0.85723597,0.46243438,0.1992063,1.591011,-0.41736603,1.2677497,-3.5297227,-0.16625081,0.5196362,0.2584343,-0.36455154,0.96936953,0.7186501,-0.089268856,0.08369781,0.68452007,-0.17630972,0.74179256,0.3410985,1.0,0.0,0.0,0.0,0.0,0.0,0.0,-2.2410111,0.017366022,-0.71774966,0.7087469,-1.8254042,-0.020444393,-2.6188374,-1.4280677,0.35392642,3.6298008
6.3019557,28.779251,9.064394,11.020227,0.30306745,-0.86566687,0.15228373,-0.72857624,0.7135115,0.53592813,-0.38167265,0.5628158,0.65272784,0.54419136,1.2009486,-0.49480462,-1.5536257,-1.1956843,2.385788,1.4466535,-0.9538847,1.2606646,-0.55331457,-1.5975254,-1.1646582,2.337933,1.3860174,-1.0060685,-1.312035,1.2807604,0.9673886,-0.71496755,0.8386547,0.4646934,0.23172063,1.5557404,-0.41902924,1.2722057,-3.5261936,-0.16608459,0.42093074,0.25680542,-0.3571701,0.97263736,0.7168155,-0.09314218,0.0851363,0.68574905,-0.1506625,0.738283,0.3154209,1.0,0.0,0.0,0.0,0.0,0.0,0.0,-2.2057405,0.01902923,-0.7222057,0.8760929,-1.3302803,-0.7366419,-0.31695366,-1.6547561,0.3725946,3.2130451
3.448961,23.672945,6.505948,11.544653,0.4728222,-0.97301996,0.068074025,-0.7378073,0.6963192,0.5074025,-0.40048036,0.54575384,0.652086,0.5416372,1.1868838,-0.48368263,-1.5467851,-1.2047062,2.3925085,1.451226,-0.9519048,1.2475554,-0.5406498,-1.5880306,-1.1718374,2.3461576,1.3906752,-1.0035489,-1.3106518,1.2621305,0.9432182,-0.7195094,0.8176418,0.4663768,0.25862873,1.520504,-0.42068863,1.2756754,-3.5226681,-0.16591854,0.32232395,0.25540924,-0.3498993,0.9756128,0.71490383,-0.096784875,0.086750716,0.6870367,-0.12785006,0.7242486,0.28511432,1.0,0.0,0.0,0.0,0.0,0.0,0.0,-2.170504,0.020688623,-0.7256754,0.084877014,-1.7478704,-2.46377,-0.6068349,-1.9290447,0.29270053,2.651134
2.0967515,19.995436,4.5559335,11.057251,0.5114566,-1.1130917,0.022177089,-0.7395615,0.6851401,0.4791768,-0.42327678,0.52728766,0.65631205,0.5395677,1.1735992,-0.47213575,-1.5401129,-1.2141651,2.3988862,1.4563063,-0.9495921,1.234429,-0.52818334,-1.5788963,-1.1791502,2.3541532,1.3953482,-1.0007966,-1.3134618,1.2419282,0.90327275,-0.7356899,0.7940424,0.46805227,0.28063616,1.485302,-0.4223442,1.2781599,-3.5191462,-0.16575265,0.22381574,0.2542534,-0.34281158,0.97823906,0.7129854,-0.10011618,0.08857889,0.68831843,-0.10356129,0.70321167,0.2488359,1.0,0.0,0.0,0.0,0.0,0.0,0.0,-2.135302,0.022344202,-0.72815984,-0.33721924,-1.9142866,-4.0151477,-1.7768502,-2.2209167,0.2774179,2.1603286
3.69038,20.012653,4.514677,9.023357,0.30880558,-1.2475827,0.071770445,-0.7374277,0.6784601,0.47011593,-0.4676971,0.5088437,0.6570454,0.5465493,1.1606863,-0.46033734,-1.5318847,-1.22592,2.4050376,1.4610528,-0.9461416,1.2212778,-0.5159029,-1.570153,-1.1868216,2.361897,1.4000365,-0.9978483,-1.3158176,1.2236599,0.8646536,-0.77805835,0.7684794,0.46950224,0.29939064,1.4501381,-0.4239998,1.2796599,-3.5156276,-0.16558693,0.12540603,0.25341034,-0.33592224,0.9804522,0.71104807,-0.103053436,0.09066777,0.6896157,-0.071235485,0.6846776,0.2060662,1.0,0.0,0.0,0.0,0.0,0.0,0.0,-2.1001382,0.02399978,-0.72965986,-0.26648045,-1.7273188,-3.8781762,-4.3717146,-2.442813,0.2532661,1.8385708
3.9609456,16.932,3.1046364,7.3022184,0.21023113,-1.4170657,0.08850464,-0.7324598,0.65624666,0.44097862,-0.5071132,0.46096125,0.6623044,0.54174685,1.1480318,-0.45027822,-1.5260551,-1.2375329,2.407993,1.4662669,-0.9436736,1.2081324,-0.503858,-1.5618389,-1.195067,2.3692899,1.4047419,-0.9947412,-1.3140614,1.1983591,0.82034016,-0.8402883,0.72985417,0.47119778,0.31431568,1.4150085,-0.42565536,1.2801765,-3.5121129,-0.16542138,0.027094701,0.2529297,-0.32923508,0.9821725,0.7090801,-0.105511166,0.093068406,0.69094926,-0.032886487,0.662529,0.15481846,1.0,0.0,0.0,0.0,0.0,0.0,0.0,-2.0650086,0.025655359,-0.7301765,0.18508434,-2.4395466,-4.4579268,-6.34799,-3.781569,0.26977658,1.4479458
0.68123007,9.079014,-1.2286947,6.3272095,0.31295756,-1.6723464,-0.003112115,-0.74469435,0.63320374,0.36480322,-0.55671465,0.4029928,0.67008275,0.5368529,1.1336629,-0.4405376,-1.5253586,-1.2507385,2.409589,1.4717501,-0.9410559,1.1949564,-0.49212664,-1.5542209,-1.2040735,2.3761716,1.4094664,-0.99151015,-1.3189203,1.1649641,0.7424206,-0.921106,0.6744049,0.4731024,0.32582545,1.3799133,-0.42731094,1.2797108,-3.5086014,-0.165256,-0.07111834,0.2528572,-0.32289124,0.9832822,0.70717233,-0.10735088,0.095876455,0.6922361,0.0069400654,0.6242071,0.09067269,1.0,0.0,0.0,0.0,0.0,0.0,0.0,-2.0299134,0.027310938,-0.72971076,-0.46041012,-3.2689333,-7.78687,-8.220673,-5.5335045,0.25342703,1.0899007
-2.4391103,0.100366116,-5.9124217,5.057267,0.45220804,-1.9540346,-0.07192369,-0.7432859,0.5960847,0.28799388,-0.61829495,0.32798243,0.66879904,0.5391332,1.1206279,-0.43251818,-1.5254215,-1.265903,2.4089699,1.4763463,-0.93759686,1.1817385,-0.48084277,-1.5476291,-1.2140261,2.3823438,1.4142042,-0.9881799,-1.3225398,1.1163787,0.63151217,-1.02037,0.5980594,0.47422954,0.33503163,1.3448563,-0.4289589,1.2782637,-3.5050936,-0.16509077,-0.16923317,0.2531891,-0.31706238,0.9836453,0.7054296,-0.10841102,0.099181935,0.6933824,0.048503365,0.56757534,0.012732273,1.0,0.0,0.0,0.0,0.0,0.0,0.0,-1.9948562,0.028958887,-0.7282637,-0.28104782,-4.8112154,-11.086583,-10.070825,-7.696545,0.13250709,0.82935095
-4.4795766,-3.2977397,-7.4400334,6.019376,0.4321038,-1.9338346,-0.14107156,-0.74256486,0.5642893,0.24188834,-0.6491746,0.16104369,0.6670606,0.5437402,1.107482,-0.42441383,-1.5234402,-1.2789435,2.3984482,1.4809103,-0.9338059,1.1684958,-0.47011203,-1.5421817,-1.2249151,2.38736,1.4189497,-0.9847696,-1.324356,1.0588082,0.51592815,-1.1122462,0.46914575,0.47454494,0.34259865,1.3098297,-0.43060684,1.2758362,-3.5015893,-0.16492571,-0.26724994,0.25392532,-0.31181717,0.9832218,0.7039264,-0.108690955,0.10313401,0.69428897,0.087432854,0.5085641,-0.065865725,1.0,0.0,0.0,0.0,0.0,0.0,0.0,-1.9598297,0.030606836,-0.7258362,-0.07274151,-5.7182074,-11.577356,-9.327126,-12.965793,0.011336803,0.6288886
-12.157665,-18.839548,-15.008596,8.151103,0.8475586,-2.091057,-0.36130914,-0.7298782,0.4829002,0.10243365,-0.6606125,-0.09950243,0.6691598,0.55279577,1.095508,-0.421822,-1.5319383,-1.2909764,2.37741,1.4858657,-0.92949003,1.1553103,-0.46022242,-1.5382755,-1.236529,2.3904538,1.4236952,-0.9812925,-1.3160441,0.96566224,0.3487674,-1.178454,0.2552862,0.474302,0.34873107,1.2748413,-0.4322548,1.2724293,-3.4980884,-0.16476083,-0.3651687,0.25497437,-0.3073616,0.98194766,0.7028504,-0.108199805,0.1079491,0.6947237,0.11568572,0.4213699,-0.15284167,1.0,0.0,0.0,0.0,0.0,0.0,0.0,-1.9248413,0.032254785,-0.72242934,1.0124922,-9.312224,-16.768986,-6.789875,-21.522785,-0.10556579,0.3894329
-41.365013,-94.03862,-47.67476,10.855431,4.011698,-2.8846786,-0.6763433,-0.6868549,0.08497657,-0.1100706,-0.6851579,-0.3697421,0.6713382,0.547028,1.0866247,-0.45172477,-1.5492826,-1.3050448,2.3534796,1.490829,-0.92658967,1.1424357,-0.4529931,-1.5367477,-1.2486769,2.3908315,1.4284312,-0.97777915,-1.2759641,0.6414028,0.08642757,-1.2277244,-0.03621416,0.47255573,0.35066035,1.2398872,-0.43390274,1.268044,-3.494591,-0.1645961,-0.46298954,0.2558899,-0.3049202,0.97942793,0.70255816,-0.10657735,0.11319165,0.6944357,0.086595155,0.18287697,-0.28917444,1.0,0.0,0.0,0.0,0.0,0.0,0.0,-1.8898872,0.033902735,-0.718044,4.58982,-32.600235,-26.529709,-5.145955,-29.482311,-0.42049885,-0.2847731
-72.16871,-167.0762,-78.948235,16.18775,7.669007,-3.3446636,-0.9339336,-0.6597395,-0.33322847,-0.30200022,-0.6910612,-0.53507555,0.6626985,0.53392684,1.0764617,-0.48631594,-1.5669477,-1.317783,2.337324,1.494701,-0.92438644,1.1300932,-0.45075577,-1.5383499,-1.2611433,2.3881917,1.433127,-0.9742696,-1.2172457,0.08321174,-0.2441887,-1.2528276,-0.34144652,0.4667198,0.3491153,1.2049675,-0.4355507,1.2626811,-3.4910972,-0.16443154,-0.56071264,0.25595474,-0.30597687,0.97526515,0.70340693,-0.1033787,0.1179235,0.6932716,-0.019417569,-0.20502825,-0.46120253,1.0,0.0,0.0,0.0,0.0,0.0,0.0,-1.8549675,0.035550684,-0.7126811,6.8223953,-56.19278,-33.583694,-2.4803638,-31.001255,-1.1570752,-0.7640004
-75.9277,-173.76268,-81.59582,17.502283,8.403793,-3.194981,-0.8631038,-0.60646456,-0.53351146,-0.458901,-0.71692675,-0.60079575,0.6379121,0.52202386,1.0694468,-0.50410694,-1.58424,-1.332836,2.3281121,1.4969182,-0.9220672,1.1185099,-0.45434397,-1.5433719,-1.2738158,2.3828702,1.4377295,-0.9707782,-1.1353654,-0.5076584,-0.5900633,-1.2701848,-0.5971516,0.45525965,0.3476147,1.1700821,-0.437191,1.2563417,-3.4876068,-0.16426714,-0.658338,0.25481796,-0.31103134,0.9693621,0.7054356,-0.09843065,0.12155111,0.6913012,-0.14789149,-0.6069716,-0.6344691,1.0,0.0,0.0,0.0,0.0,0.0,0.0,-1.8200821,0.037191004,-0.7063417,9.212375,-59.522396,-35.15306,-1.1841059,-26.070583,-2.053976,-0.5991936
-51.84729,-123.88876,-55.18407,13.974807,6.4118433,-2.098776,-0.18465388,-0.5402767,-0.6769881,-0.35719365,-0.7757648,-0.6629372,0.6547125,0.5451534,1.0644822,-0.5220428,-1.5790913,-1.3513923,2.3165765,1.5032008,-0.91626287,1.1078993,-0.46319884,-1.5505512,-1.2868391,2.3754506,1.4422365,-0.96726584,-1.0338805,-1.012581,-0.76212883,-1.3105304,-0.79143345,0.44625622,0.35202062,1.135231,-0.43883133,1.2490268,-3.48412,-0.16410291,-0.7558658,0.25261307,-0.31921387,0.96195537,0.7080352,-0.09207375,0.12387398,0.68910366,-0.24926525,-0.88721025,-0.7774768,1.0,0.0,0.0,0.0,0.0,0.0,0.0,-1.785231,0.038831323,-0.69902676,10.858512,-50.838375,-17.70184,-3.2197475,-19.745695,-1.7934442,0.33200383
4.870371,-11.6436825,6.040156,9.579345,1.7149818,0.23851317,1.1186163,-0.3922957,-0.686492,0.088826776,-0.7717551,-0.71071297,0.68366015,0.53326774,1.0686698,-0.5318481,-1.5416685,-1.3640146,2.3043792,1.5106026,-0.91393906,1.0987574,-0.47560376,-1.5564525,-1.3002192,2.3665318,1.4467245,-0.96369433,-0.8746181,-1.3166345,-0.53379184,-1.3462132,-0.9249311,0.4493322,0.35996658,1.1004181,-0.44047165,1.2407373,-3.4806366,-0.16393884,-0.8532961,0.25001907,-0.32819366,0.9538636,0.70982116,-0.0855262,0.124969944,0.68791103,-0.26870486,-0.89594716,-0.8225172,1.0,0.0,0.0,0.0,0.0,0.0,0.0,-1.7504181,0.040471643,-0.6907373,15.821886,-30.461002,22.534763,-3.259468,-13.181698,0.19727945,1.1287689
49.130684,68.47123,48.510124,4.670776,-1.8502545,1.2605348,1.8950082,-0.15934788,-0.71450347,0.24196386,-0.74045163,-0.73568213,0.69558686,0.5076248,1.0828226,-0.5470541,-1.5322561,-1.3742644,2.2929637,1.5162833,-0.91293186,1.0920187,-0.48978633,-1.5587776,-1.3137461,2.3566556,1.4512926,-0.96005607,-0.6092378,-1.4515439,-0.13234992,-1.3556249,-1.0069617,0.46084598,0.36682504,1.0656357,-0.44211197,1.2314743,-3.4771566,-0.16377494,-0.950629,0.24786758,-0.3359337,0.94587606,0.7096968,-0.07989255,0.12509987,0.6886926,-0.20234795,-0.7272375,-0.79406303,1.0,0.0,0.0,0.0,0.0,0.0,0.0,-1.7156357,0.042111963,-0.68147427,25.891674,-13.31687,40.03841,-1.1906385,-7.7585816,1.6325355,1.2091517
59.58917,75.96952,45.546345,-3.3048944,-2.7915392,-0.41204464,1.5960943,0.16238219,-0.75425804,-0.18470974,-0.7285199,-0.7122693,0.6757219,0.4546334,1.1082569,-0.56521213,-1.5772486,-1.3865981,2.2854288,1.5188649,-0.91459274,1.0890394,-0.50457305,-1.5593975,-1.3272234,2.3463368,1.4559504,-0.9564073,-0.19733939,-1.4871292,-0.037121497,-1.346224,-1.0391918,0.46791545,0.36527634,1.0308914,-0.44374847,1.2212386,-3.4736803,-0.16361119,-1.0478646,0.24683762,-0.34218216,0.93800235,0.70771146,-0.07503246,0.12472939,0.69134444,-0.07257024,-0.5839566,-0.7875296,1.0,0.0,0.0,0.0,0.0,0.0,0.0,-1.6808914,0.04374847,-0.6712386,40.22896,-3.3949137,9.940074,0.5774975,-2.9274225,0.9198904,0.16303658
48.866745,52.912033,26.201275,-5.5417795,-2.0092773,-2.058936,0.9234988,0.3701835,-0.7936056,-0.50689334,-0.7023364,-0.6838254,0.6906359,0.41433403,1.1260577,-0.5839336,-1.6100868,-1.397457,2.2779543,1.5250139,-0.9149739,1.0905176,-0.5194389,-1.5614955,-1.3404394,2.3359723,1.4606615,-0.9528234,0.25941914,-1.4862698,-0.26472703,-1.3141123,-1.0354774,0.47160697,0.35652,0.9961815,-0.44538116,1.2100314,-3.4702072,-0.16344762,-1.145003,0.2471695,-0.34768295,0.9298611,0.7045505,-0.07022199,0.1242376,0.6951564,0.06742771,-0.5308341,-0.82491606,1.0,0.0,0.0,0.0,0.0,0.0,0.0,-1.6461815,0.04538116,-0.6600314,44.626472,0.1300335,-21.971025,2.968979,0.4462242,0.21042824,-0.761956
31.01611,32.303246,10.172308,-1.3600197,-0.8437734,-2.6366727,0.25857627,0.45106524,-0.79275614,-0.6618535,-0.6707882,-0.67626375,0.6741273,0.351386,1.1356242,-0.59871453,-1.6276809,-1.4075183,2.2683458,1.5280743,-0.9176848,1.0959669,-0.5341379,-1.5670459,-1.3531901,2.3257527,1.4653803,-0.94938064,0.63746524,-1.4646527,-0.6493537,-1.2621795,-1.0176915,0.47104245,0.34024742,0.9615059,-0.44701385,1.1978534,-3.4667377,-0.1632842,-1.2420442,0.24869537,-0.3531494,0.9211701,0.7009669,-0.06490348,0.12387709,0.69934785,0.18110807,-0.5448203,-0.8863271,1.0,0.0,0.0,0.0,0.0,0.0,0.0,-1.6115059,0.04701385,-0.64785343,36.988014,2.1135569,-37.722153,5.135107,1.7209053,-0.3494501,-1.6086936
16.659351,21.492434,3.057904,3.7895503,-0.00990808,-2.321587,-0.08929872,0.4921646,-0.8031446,-0.7047846,-0.66791326,-0.6875714,0.65354437,0.25831115,1.1451834,-0.61445236,-1.6375244,-1.4199814,2.2569957,1.5307348,-0.92354953,1.1042372,-0.5486509,-1.5762699,-1.3654696,2.315682,1.4700724,-0.9461639,0.88883424,-1.4471747,-1.0119772,-1.2161193,-1.0036584,0.46764106,0.31540412,0.9268646,-0.44864655,1.1847059,-3.4632716,-0.16312096,-1.3389884,0.2510643,-0.35894012,0.91183436,0.6974245,-0.05887222,0.12374024,0.7034355,0.2586148,-0.58274585,-0.95298404,1.0,0.0,0.0,0.0,0.0,0.0,0.0,-1.5768646,0.04864654,-0.63470584,24.685932,1.6583681,-35.813618,4.695654,1.2946606,-0.63712597,-2.4785995
7.0375075,22.154186,4.367425,9.770966,0.46068114,-1.377533,-0.1914661,0.4908695,-0.7999716,-0.6898408,-0.6598729,-0.6893299,0.66735816,0.23917489,1.1533241,-0.6286481,-1.6452539,-1.4314568,2.246749,1.5368083,-0.9222464,1.1139914,-0.563019,-1.5881584,-1.3773695,2.3057141,1.4747435,-0.9431951,1.0039299,-1.4336662,-1.2474451,-1.180647,-0.9948971,0.46633533,0.2906898,0.8922577,-0.45027924,1.1705896,-3.459809,-0.16295786,-1.4358357,0.2539177,-0.36502457,0.9019612,0.69407547,-0.05226127,0.12379602,0.7072499,0.29768822,-0.60890156,-1.0036616,1.0,0.0,0.0,0.0,0.0,0.0,0.0,-1.5422577,0.05027923,-0.62058955,11.41156,1.2509346,-23.401403,3.7045717,0.71617365,-0.34703016,-2.4593234
1.0442796,30.693027,11.3668995,17.449173,0.78728276,-0.0807585,-0.18772754,0.4609754,-0.7915089,-0.61774004,-0.6107514,-0.697333,0.69583815,0.24586885,1.1600889,-0.6421699,-1.6499324,-1.4384446,2.2359807,1.5443273,-0.91860825,1.1240278,-0.57726115,-1.6011093,-1.3888079,2.2957768,1.4794356,-0.9404447,1.0040175,-1.4213815,-1.3111904,-1.1311289,-0.9941448,0.46982148,0.26995212,0.8576851,-0.4519043,1.1555055,-3.45635,-0.16279495,-1.5325861,0.25686264,-0.3711357,0.89187026,0.69089496,-0.045504168,0.123936474,0.7107976,0.29819855,-0.60445917,-1.0166553,1.0,0.0,0.0,0.0,0.0,0.0,0.0,-1.5076851,0.05190429,-0.6055055,0.15192032,1.1286974,-6.4219713,5.0926685,-0.149405,0.28793812,-2.0492673
-9.013397,28.291637,10.132532,21.567154,1.241159,0.5353248,-0.3133786,0.38598973,-0.7935592,-0.6535359,-0.61989814,-0.7159643,0.68777317,0.1892981,1.1626269,-0.65661705,-1.6664629,-1.4507977,2.2241805,1.5482129,-0.92151487,1.1333338,-0.59142894,-1.6141727,-1.3998915,2.2857633,1.4841582,-0.9379184,0.9072828,-1.4156218,-1.3053392,-1.1000682,-1.0044414,0.47320274,0.24673237,0.8231468,-0.45352936,1.1394547,-3.4528944,-0.16263218,-1.6292398,0.25958633,-0.37722015,0.8817067,0.68796456,-0.038787417,0.12412703,0.71399766,0.2683328,-0.60155714,-1.0221058,1.0,0.0,0.0,0.0,0.0,0.0,0.0,-1.4731468,0.053529352,-0.5894547,-9.33218,0.4594326,0.40791035,3.3015013,-1.3260365,0.31830668,-2.329412
-16.577133,24.951992,7.7587786,22.82415,1.5556151,0.812924,-0.36781183,0.30083954,-0.79350597,-0.668357,-0.64406586,-0.70866334,0.67596674,0.19734374,1.1634178,-0.6707795,-1.6810083,-1.4642981,2.214897,1.5517548,-0.91818404,1.1412054,-0.6055719,-1.6269729,-1.4108969,2.275662,1.4889036,-0.9355972,0.74868983,-1.4143542,-1.2724875,-1.0996957,-1.0130973,0.47503978,0.22725992,0.7886429,-0.45515442,1.1224381,-3.4494421,-0.16246958,-1.7257969,0.26188278,-0.3833313,0.8714578,0.6853721,-0.03207551,0.1243469,0.7167803,0.21999905,-0.6053622,-1.0314692,1.0,0.0,0.0,0.0,0.0,0.0,0.0,-1.4386429,0.055154413,-0.57243806,-15.394127,-0.001502037,3.0154705,0.29006004,-1.2051344,0.15695095,-1.9702703
-42.263195,10.748096,-3.5034695,29.886864,2.8502746,1.3383176,-0.8087685,0.0050649485,-0.7837887,-0.6876108,-0.67515624,-0.71083736,0.6690187,0.22176172,1.141712,-0.6839508,-1.695734,-1.4784125,2.2045782,1.5558056,-0.91342103,1.1463133,-0.6196806,-1.6395137,-1.4221255,2.265473,1.4936587,-0.93343234,0.43419558,-1.4103265,-1.2493039,-1.1293285,-1.0220925,0.47548363,0.21249248,0.7541733,-0.45677948,1.1044565,-3.4459934,-0.16230714,-1.8222575,0.26326752,-0.38976288,0.861038,0.683513,-0.025176788,0.12463486,0.71877825,0.11477238,-0.64895606,-1.050882,1.0,0.0,0.0,0.0,0.0,0.0,0.0,-1.4041733,0.056779474,-0.55445653,-30.645538,0.2038002,1.8909931,-2.526188,-1.4002562,-0.00988245,-1.5920728
-65.2021,0.7832153,-11.997807,35.794292,3.9443297,1.9656146,-1.1136024,-0.303585,-0.7755399,-0.6546541,-0.7315472,-0.7016068,0.66374135,0.30754873,1.1159548,-0.6972346,-1.7049792,-1.4952801,2.1953123,1.5600328,-0.9026775,1.1472212,-0.6337206,-1.6517437,-1.4339281,2.2552342,1.498408,-0.93133044,-0.019996125,-1.4029077,-1.2162961,-1.1949867,-1.0267303,0.47422513,0.2088745,0.7197418,-0.45840454,1.0855112,-3.4425483,-0.16214487,-1.9186215,0.26321793,-0.3968544,0.8503684,0.68277514,-0.017892271,0.12499704,0.71963435,-0.043910395,-0.7203172,-1.0773613,1.0,0.0,0.0,0.0,0.0,0.0,0.0,-1.3697418,0.058404535,-0.5355112,-44.315166,0.45380592,2.7163267,-5.93307,-1.1450529,-0.26711226,-0.5177021
-55.088448,16.539814,-0.94146943,33.36555,3.3099327,2.4653656,-0.7248286,-0.402962,-0.76077956,-0.49899882,-0.76739585,-0.6529058,0.66824424,0.41842932,1.106925,-0.7097985,-1.7016436,-1.5106677,2.1899436,1.5652324,-0.8894875,1.1438414,-0.64762515,-1.6629837,-1.4464995,2.2451138,1.5031477,-0.929157,-0.4407607,-1.3872949,-1.0952618,-1.2758492,-1.0091507,0.47352606,0.22006008,0.6853409,-0.46002197,1.0656029,-3.4391065,-0.16198276,-2.0148892,0.26166916,-0.4043312,0.8395916,0.6829217,-0.010371867,0.12527584,0.7195945,-0.19244812,-0.74847776,-1.0822951,1.0,0.0,0.0,0.0,0.0,0.0,0.0,-1.3353409,0.060021967,-0.5156029,-41.092842,1.2910128,11.499929,-7.514477,1.1032581,-0.18951297,1.1005431
-31.210854,41.362022,17.688814,28.913666,2.0055184,2.8615036,-0.14989653,-0.4564214,-0.74613255,-0.30927292,-0.76818335,-0.6414706,0.6858618,0.51875806,1.0981992,-0.7222384,-1.693911,-1.5233178,2.1809669,1.571734,-0.8772812,1.1370894,-0.661318,-1.6722019,-1.4597422,2.2352262,1.5079046,-0.9267814,-0.75114787,-1.3638412,-0.8659114,-1.3393193,-0.9835596,0.4767395,0.24398287,0.6509781,-0.4616394,1.0447327,-3.435668,-0.16182081,-2.1110604,0.25893402,-0.41158676,0.82905334,0.68335116,-0.0030876326,0.12528041,0.719254,-0.30152932,-0.70933485,-1.0481192,1.0,0.0,0.0,0.0,0.0,0.0,0.0,-1.3009781,0.0616394,-0.49473268,-30.376911,2.1845102,22.393024,-5.996251,2.108848,0.4072249,2.5467544
-11.757721,51.475643,25.460117,23.144684,1.0048838,2.354978,0.13743933,-0.46722278,-0.73753625,-0.31086108,-0.760969,-0.66779995,0.69428843,0.5319644,1.0903671,-0.73507166,-1.703288,-1.5358391,2.168446,1.5773335,-0.873585,1.1282927,-0.6747667,-1.6793869,-1.4733931,2.2254987,1.5127054,-0.9241607,-0.9211821,-1.338775,-0.67081016,-1.372905,-0.96984303,0.481894,0.26874465,0.6166458,-0.46325684,1.0229014,-3.432233,-0.16165903,-2.2071357,0.25548935,-0.4182701,0.8188949,0.6836569,0.0037192763,0.12500681,0.71900815,-0.36235335,-0.6465182,-1.0076352,1.0,0.0,0.0,0.0,0.0,0.0,0.0,-1.2666458,0.06325683,-0.4729014,-16.638708,2.4435282,19.107841,-3.1606913,1.118958,0.6983161,2.6801288
-14.009075,32.282692,11.05416,18.72104,1.3447672,0.93929577,-0.098032884,-0.5087532,-0.75307894,-0.5541149,-0.7718309,-0.66743606,0.6753322,0.5094653,1.0774174,-0.7500746,-1.7347983,-1.5505762,2.158755,1.5802387,-0.8732142,1.1184813,-0.6880953,-1.6862857,-1.48725,2.215859,1.517531,-0.92133594,-1.0001702,-1.3311158,-0.69676065,-1.3888075,-0.9627436,0.48242828,0.28753018,0.5823517,-0.46487427,1.0001101,-3.4288015,-0.1614974,-2.3031147,0.25157928,-0.42477417,0.8087332,0.68398595,0.010504541,0.12457628,0.7187027,-0.40431765,-0.6421818,-1.0204612,1.0,0.0,0.0,0.0,0.0,0.0,0.0,-1.2323517,0.06487426,-0.45011014,-7.636678,0.6742239,-2.8220773,-1.2950182,0.4331708,-0.010806322,1.9943833
-19.769972,15.571026,-1.4966729,16.226318,1.8317595,0.018230975,-0.3157929,-0.5575304,-0.76839316,-0.69158655,-0.7837398,-0.6539784,0.65459865,0.47965476,1.0627283,-0.7649346,-1.7554444,-1.565624,2.1504612,1.5829909,-0.87337047,1.1081873,-0.70148486,-1.6946151,-1.501206,2.2062955,1.5223299,-0.9183738,-1.0382279,-1.3420888,-0.87879497,-1.3966732,-0.95546407,0.47795513,0.29926988,0.5480881,-0.46648788,0.9763598,-3.4253736,-0.16133595,-2.3989978,0.24726486,-0.43159103,0.79810697,0.68461543,0.017841239,0.124048576,0.7180497,-0.4450907,-0.6853581,-1.0780687,1.0,0.0,0.0,0.0,0.0,0.0,0.0,-1.198088,0.06648788,-0.42635977,-3.5584688,-1.2404203,-18.330824,-0.37193298,0.37977695,-0.7440865,1.225239
-25.40211,14.190498,-3.5109358,17.869682,2.127197,0.20059949,-0.44128856,-0.6501603,-0.75612277,-0.69617254,-0.77927417,-0.64679164,0.66672724,0.4638423,1.0431713,-0.7770971,-1.7642324,-1.5791335,2.1416163,1.5890026,-0.8719896,1.0973479,-0.7149603,-1.7048614,-1.515164,2.1968045,1.5270869,-0.9153278,-1.0981457,-1.3499817,-1.0736454,-1.3938901,-0.9483048,0.4736677,0.3065138,0.5138626,-0.4680977,0.95165133,-3.421949,-0.16117464,-2.494785,0.2424202,-0.43889236,0.78688926,0.6857071,0.025894875,0.12342226,0.7168696,-0.5010136,-0.73458785,-1.1378262,1.0,0.0,0.0,0.0,0.0,0.0,0.0,-1.1638626,0.06809768,-0.40165132,-5.692625,-0.97026825,-19.607126,0.75769424,0.3143549,-0.795722,0.7660091
-25.848906,19.562895,0.2926135,18.9291,2.1417778,0.67892694,-0.40673918,-0.7058452,-0.7567083,-0.6933795,-0.77605593,-0.6165227,0.66343373,0.44462824,1.0267633,-0.7906311,-1.7741994,-1.5927696,2.1351523,1.5934303,-0.870865,1.085776,-0.7285015,-1.7166679,-1.5290514,2.1874585,1.5318018,-0.912236,-1.1758686,-1.3562143,-1.2167451,-1.3856535,-0.9311926,0.46961156,0.31028062,0.47966766,-0.4697075,0.92598575,-3.4185276,-0.1610135,-2.5904765,0.23695374,-0.44657516,0.7751866,0.6872558,0.034542378,0.12260311,0.71516067,-0.56646055,-0.76918465,-1.1831698,1.0,0.0,0.0,0.0,0.0,0.0,0.0,-1.1296676,0.06970748,-0.37598574,-7.4623823,-0.81465244,-14.439607,1.3000965,1.3080955,-0.7563174,0.4494071
-22.450796,29.050295,7.176323,19.474873,1.9351752,1.2066203,-0.3109339,-0.7444642,-0.7490174,-0.6902966,-0.7641393,-0.5801733,0.66051596,0.42125776,1.0113295,-0.80340326,-1.7856976,-1.6054654,2.1294413,1.5978534,-0.8701102,1.0733877,-0.7420456,-1.7293861,-1.5428053,2.1783834,1.5364825,-0.9091308,-1.2590171,-1.3545007,-1.2906779,-1.3705665,-0.9011976,0.46664208,0.31095162,0.44551086,-0.4713173,0.899364,-3.4151096,-0.16085252,-2.6860723,0.23083496,-0.45443726,0.7632052,0.68915987,0.043536868,0.12147446,0.71302664,-0.6330098,-0.77957773,-1.2054348,1.0,0.0,0.0,0.0,0.0,0.0,0.0,-1.0955108,0.071317285,-0.34936398,-8.043122,-0.006055832,-7.508874,1.918745,2.6343584,-0.57041645,0.17607808
-17.690716,36.123165,12.9163475,18.86121,1.6584797,1.5425353,-0.19600713,-0.77144116,-0.7536478,-0.69013083,-0.75318325,-0.5575995,0.65262204,0.39500812,0.9962436,-0.81741035,-1.7983992,-1.6181237,2.1226234,1.6017447,-0.86963,1.0602309,-0.7555763,-1.7424324,-1.5563799,2.1696439,1.5411364,-0.9060409,-1.3339727,-1.3531238,-1.3097482,-1.3517939,-0.8656534,0.46428967,0.30872107,0.41138458,-0.4729271,0.87178695,-3.4116952,-0.1606917,-2.7815726,0.22408676,-0.4622612,0.75112736,0.6912922,0.052642,0.119949676,0.71060246,-0.6941061,-0.7700759,-1.2108039,1.0,0.0,0.0,0.0,0.0,0.0,0.0,-1.0613846,0.07292709,-0.32178694,-7.2820187,-0.01411438,-2.0079136,2.2180796,3.2483578,-0.42783618,-0.08196831
-13.752789,38.911808,15.464928,17.41848,1.5234519,1.5794247,-0.1480347,-0.78870386,-0.7603742,-0.7142708,-0.74628854,-0.49028453,0.6167304,0.2651386,0.98136044,-0.8316137,-1.8138595,-1.6310087,2.1206155,1.6028094,-0.87952703,1.0464541,-0.7691223,-1.7555435,-1.5697695,2.161408,1.5457445,-0.90307117,-1.3916225,-1.3556283,-1.3118539,-1.3337827,-0.8102737,0.4591724,0.2936261,0.37729263,-0.47453308,0.84325564,-3.4082842,-0.16053104,-2.8769772,0.21678543,-0.46993637,0.7390314,0.6935925,0.061757833,0.117912225,0.7079634,-0.7479928,-0.7537727,-1.2113917,1.0,0.0,0.0,0.0,0.0,0.0,0.0,-1.0272926,0.074533075,-0.29325563,-5.599165,-0.3799677,-0.29728413,2.1021366,5.2827835,-0.67026615,-1.3404131
-11.659718,40.89288,16.686817,16.615862,1.3672289,1.5709131,-0.1902137,-0.81162477,-0.75685287,-0.7349251,-0.72814906,-0.47668442,0.58462554,0.08829272,0.9652916,-0.84480757,-1.829036,-1.6425844,2.1137395,1.604207,-0.89424187,1.0321947,-0.7826807,-1.7686851,-1.5829436,2.1536984,1.5502802,-0.90038276,-1.436983,-1.3562752,-1.315173,-1.3109413,-0.75854796,0.45138907,0.2610318,0.34323502,-0.47613525,0.813771,-3.4048767,-0.16037054,-2.9722865,0.20898438,-0.47742462,0.72694165,0.6960776,0.07084548,0.11535615,0.7050885,-0.79591304,-0.7335068,-1.2100692,1.0,0.0,0.0,0.0,0.0,0.0,0.0,-0.993235,0.07613525,-0.263771,-4.399061,-0.18191338,-0.39713383,2.561903,4.9501896,-0.91989636,-3.0956805
-11.044325,45.02067,18.88548,18.193031,1.2486827,1.7163794,-0.3425042,-0.83608514,-0.7434127,-0.72909397,-0.6707405,-0.51270914,0.55121046,-0.18869446,0.9485862,-0.8570219,-1.8415945,-1.6500176,2.1024275,1.6054013,-0.9192522,1.0175272,-0.79617804,-1.7818134,-1.5956713,2.146294,1.5547205,-0.89821696,-1.4762367,-1.3479015,-1.312078,-1.2591063,-0.73496294,0.44134504,0.2021018,0.30921173,-0.47773743,0.78333396,-3.4014726,-0.1602102,-3.0675004,0.20072556,-0.484684,0.71495795,0.6988557,0.07977613,0.11243704,0.70185065,-0.8410249,-0.70808107,-1.1961448,1.0,0.0,0.0,0.0,0.0,0.0,0.0,-0.9592117,0.07773742,-0.23333395,-3.818512,0.7287264,0.2944231,5.420041,2.1750927,-1.1019886,-5.76427
-14.786136,51.769386,21.60431,26.284657,1.7427311,2.0479817,-0.6721147,-0.85409486,-0.70810145,-0.7323055,-0.49551865,-0.5361964,0.46887514,-0.3319171,0.93211776,-0.8669882,-1.8550439,-1.6452231,2.0926745,1.601608,-0.93140864,1.0025088,-0.8094236,-1.7949111,-1.6071173,2.1389508,1.5590101,-0.8967216,-1.5102664,-1.3171291,-1.3084041,-1.1059572,-0.7350849,0.42447686,0.13218513,0.27522278,-0.4793396,0.7519455,-3.3980718,-0.16005003,-3.1626194,0.19194031,-0.4917488,0.7033818,0.70219,0.08826033,0.10939307,0.6979775,-0.896715,-0.6920915,-1.1463485,1.0,0.0,0.0,0.0,0.0,0.0,0.0,-0.92522275,0.07933959,-0.20194548,-3.3370256,2.9580355,0.5042076,15.48593,-0.1516819,-1.7445862,-6.9283905
-19.299753,49.11793,19.819826,32.50054,2.5834656,2.0643437,-0.9084023,-0.85423005,-0.73375756,-0.7448082,-0.33072108,-0.49447393,0.32385033,-0.47024354,0.91708577,-0.8827994,-1.8693919,-1.6401894,2.0895035,1.5913951,-0.943746,0.98725474,-0.8224985,-1.808028,-1.6163756,2.1316686,1.5630289,-0.8959749,-1.5302188,-1.3047531,-1.3120333,-0.8652432,-0.7266443,0.3941542,0.055775993,0.24126816,-0.48094177,0.7196066,-3.3946743,-0.15989001,-3.257643,0.18248367,-0.4988556,0.69242394,0.70634824,0.096108675,0.106245205,0.6932151,-0.9673394,-0.7027477,-1.0805916,0.0,1.0,0.0,0.0,0.0,0.0,0.0,-0.89126813,0.08094177,-0.16960657,-1.9415617,1.0958672,-0.12831688,24.26176,0.746119,-3.1175077,-7.584874
-24.904526,47.17761,17.61367,39.862705,3.5325923,2.101623,-1.1652817,-0.8484876,-0.7347437,-0.7781829,-0.09596426,-0.4629977,0.25819594,-0.4811204,0.902406,-0.89597285,-1.8858463,-1.625972,2.0853689,1.5888485,-0.9440869,0.97190845,-0.83547294,-1.8217541,-1.6226275,2.1241004,1.5672723,-0.89567137,-1.5368985,-1.2874994,-1.4629077,-0.57263106,-0.85637516,0.48819688,0.04932228,0.2142334,-0.48350525,0.7004942,-1.5431814,-0.3473007,1.0515019,0.17211914,-0.50623703,0.68209636,0.7115044,0.103084914,0.103188194,0.687377,-1.0616293,-0.72869945,-1.0476257,0.0,1.0,0.0,0.0,0.0,0.0,0.0,-0.8642334,0.08350524,-0.15049422,-0.87411404,3.0140877,-27.38464,24.455929,-27.976429,22.20276,5.5633726
51.818,176.0,110.0,87.93672,-0.09625101,9.911372,-1.268018,-0.81299144,0.36639887,0.69467574,0.7575209,0.12563498,0.5508135,-0.49285635,0.8906093,-0.7988331,-1.7522866,-1.5468754,2.136664,1.6223537,-0.944957,0.95980555,-0.8461777,-1.8342435,-1.6193227,2.1116536,1.5793382,-0.8942455,-1.1036648,-0.9985537,-1.170988,0.6282414,-1.3700633,1.4505378,0.17120545,0.19892883,-0.4869728,0.710677,-1.5416385,-0.34695348,0.95226437,0.1613884,-0.51216507,0.6756453,0.71736276,0.10230806,0.10348201,0.6813333,-1.0810829,-0.5347309,-0.5122779,0.0,1.0,0.0,0.0,0.0,0.0,0.0,-0.8489288,0.0869728,-0.16067702,42.670036,28.839767,30.701494,118.906746,-50.726868,97.80233,11.556819
26.286865,157.76892,105.92718,72.26421,2.4896135,7.1158686,-0.6485278,-0.80510163,-0.52563864,0.5868822,0.7709763,-0.27785224,0.5389449,-0.46129075,0.8792954,-0.89874154,-1.7755554,-1.542225,2.0838683,1.6332327,-0.94037455,0.9490233,-0.8552395,-1.839565,-1.6078023,2.098653,1.5938627,-0.8928913,-1.0698237,-0.876672,-0.31707522,1.3254753,-1.2803483,1.4570332,0.12435455,0.18352127,-0.49044037,0.7194561,-1.5400972,-0.3466066,0.85312635,0.15050125,-0.5166626,0.6742585,0.72384495,0.0948786,0.10489014,0.6753107,-1.0930619,-0.41026202,-0.01825292,1.0,0.0,0.0,0.0,0.0,0.0,0.0,-0.83352125,0.09044036,-0.16945606,3.3742666,11.81922,86.0543,69.383835,7.8504086,1.8604755,-4.412715
5.819014,127.925224,73.521996,49.3778,1.601682,4.5700355,-0.5797953,-0.78249633,-0.32131273,0.14926939,0.72683895,-0.61165893,0.65423673,-0.1880864,0.8707737,-0.88737077,-1.8246381,-1.5351183,2.0374873,1.6592864,-0.91169995,0.93784815,-0.86272013,-1.8387563,-1.5920056,2.0865796,1.6076928,-0.8919281,-1.1323406,-0.70620674,0.21375637,1.6646283,-1.1864821,1.3605201,0.087224945,0.16812897,-0.4939041,0.72724444,-1.5385574,-0.3462601,0.7540874,0.13948822,-0.52007675,0.6763864,0.73075324,0.08407699,0.106713675,0.66898644,-1.106032,-0.3104234,0.28463143,1.0,0.0,0.0,0.0,0.0,0.0,0.0,-0.81812894,0.09390411,-0.17724442,-5.957818,16.707027,53.12195,33.97758,8.36978,-8.92601,-3.6407902
-5.9196224,101.84423,50.994087,31.834202,0.96779567,3.0250192,-0.4018141,-0.79318696,-0.24818623,0.23446019,0.7829218,-0.64052397,0.6130197,-0.24489203,0.85852945,-0.88753873,-1.8153104,-1.5137135,2.0225272,1.6689948,-0.9164173,0.92564875,-0.8685795,-1.834131,-1.5747098,2.0754902,1.6202585,-0.89137304,-1.2483526,-0.5465538,0.54482263,1.7518198,-1.085563,1.2236245,0.04492178,0.15275192,-0.49736404,0.73404324,-1.5370193,-0.3459139,0.65514743,0.12835693,-0.52259064,0.6805283,0.73787606,0.071939476,0.1089237,0.66219264,-1.1189265,-0.22336842,0.451972,1.0,0.0,0.0,0.0,0.0,0.0,0.0,-0.8027519,0.09736404,-0.18404323,-11.36632,15.72336,32.934753,8.836198,9.382176,-13.141036,-4.217018
-12.911462,68.79155,26.976173,17.345398,0.58832955,1.4186037,-0.2523546,-0.7974579,-0.2418561,0.20347229,0.7758595,-0.6334954,0.6231362,-0.23823647,0.845903,-0.8927651,-1.8137838,-1.4971238,2.0121408,1.6825721,-0.91519666,0.91236407,-0.8732201,-1.8279493,-1.5577,2.0652554,1.631529,-0.8911966,-1.3549016,-0.43699735,0.6418441,1.6843077,-1.0037544,1.0963317,0.008396284,0.13739014,-0.50082016,0.7398533,-1.5354825,-0.34556803,0.5563064,0.11711502,-0.52448654,0.68536043,0.7450638,0.059936788,0.11139582,0.6548881,-1.1305064,-0.17021804,0.48859265,1.0,0.0,0.0,0.0,0.0,0.0,0.0,-0.7873901,0.100820154,-0.18985331,-10.582113,10.842204,9.519661,-6.695509,7.8728676,-12.291908,-3.6816888
-12.147972,52.086655,15.377531,9.902662,0.22624916,0.44188312,-0.16545163,-0.7998345,-0.19342327,0.1933032,0.7746051,-0.6320589,0.6155619,-0.2595432,0.8323806,-0.8925624,-1.808619,-1.4802395,2.0020494,1.6930852,-0.9171509,0.8982659,-0.8769604,-1.8218458,-1.541768,2.0556462,1.6416513,-0.89136064,-1.4281648,-0.3533096,0.59946316,1.5629274,-0.9471343,0.9854421,-0.02493671,0.12204361,-0.50427246,0.74467576,-1.5339473,-0.34522253,0.45756423,0.10582733,-0.5260086,0.6900673,0.7522386,0.048892133,0.11412236,0.6470879,-1.1310638,-0.1383183,0.4604508,1.0,0.0,0.0,0.0,0.0,0.0,0.0,-0.7720436,0.104272455,-0.19467574,-7.3615074,8.315963,-4.3669343,-12.14366,5.532789,-10.708321,-3.4052105
-8.666767,40.96648,9.920972,7.25633,0.17208943,-0.1026541,-0.10485147,-0.7925317,-0.19086531,0.18597934,0.78046316,-0.6387961,0.63452554,-0.28416574,0.8190127,-0.89604694,-1.8032478,-1.4637216,1.9917666,1.7051039,-0.9197772,0.88375384,-0.88017046,-1.8166063,-1.5269479,2.046407,1.6508104,-0.8918375,-1.4591128,-0.31040004,0.49868074,1.4550233,-0.9166237,0.8938372,-0.05547829,0.10671234,-0.50772095,0.7485115,-1.5324137,-0.3448774,0.3589208,0.09458542,-0.527359,0.6942872,0.75936353,0.039052036,0.11708147,0.63885343,-1.1247643,-0.124563396,0.40560848,1.0,0.0,0.0,0.0,0.0,0.0,0.0,-0.7567123,0.10772094,-0.19851148,-3.1535149,4.2667747,-10.142785,-10.816145,2.9721856,-8.858215,-3.1329117
-10.017101,27.07076,4.2254295,7.581592,0.7003061,-0.3393107,-0.090969294,-0.8059753,-0.2501464,0.16754052,0.7724914,-0.60457945,0.61923677,-0.29263034,0.8031563,-0.9051851,-1.7998523,-1.4496987,1.985949,1.712734,-0.9211005,0.8690844,-0.8834654,-1.8124368,-1.5129594,2.0374463,1.6591569,-0.892588,-1.4695475,-0.33581194,0.38939598,1.380089,-0.88956726,0.81573355,-0.0816474,0.09139633,-0.51116943,0.75136155,-1.5308816,-0.3445326,0.260376,0.083301544,-0.5287399,0.69783664,0.76646286,0.030388797,0.12002921,0.6302413,-1.1317418,-0.13387692,0.33500242,1.0,0.0,0.0,0.0,0.0,0.0,0.0,-0.7413963,0.11116943,-0.20136154,-1.0580063,-2.5409818,-10.965318,-7.496047,2.6637316,-7.6168537,-2.6517167
-6.537841,27.562586,6.600479,9.154665,0.8090148,-0.25810504,-0.06800236,-0.7925702,-0.2546306,0.16911612,0.77844316,-0.6170099,0.6376205,-0.30832765,0.7898274,-0.90892845,-1.7955252,-1.4351151,1.9757453,1.722919,-0.9234208,0.85448366,-0.88717425,-1.8091257,-1.4993981,2.0286381,1.6668378,-0.893577,-1.4568717,-0.38268012,0.3116988,1.3480537,-0.8782153,0.75258684,-0.10480305,0.07609558,-0.5146103,0.75322694,-1.5293511,-0.34418812,0.16192974,0.07195282,-0.5302124,0.700783,0.77353185,0.022646291,0.12286205,0.6213215,-1.138075,-0.14344092,0.27844554,1.0,0.0,0.0,0.0,0.0,0.0,0.0,-0.72609556,0.114610285,-0.20322692,1.2774944,-4.6958327,-7.7709017,-3.1805277,1.056695,-6.1618924,-2.3312674
-6.9227667,19.140366,4.607537,9.694284,1.2228273,-0.21460593,-0.027221438,-0.7863084,-0.3505929,0.1663905,0.76927805,-0.5948421,0.633802,-0.31967282,0.7758528,-0.9222335,-1.7924867,-1.4224703,1.9691539,1.730218,-0.92554426,0.8400813,-0.89177954,-1.8063219,-1.4859818,2.019952,1.6739675,-0.89477575,-1.4344356,-0.48647976,0.2700222,1.3397406,-0.86581796,0.6998115,-0.12470626,0.06081009,-0.51805115,0.7541086,-1.527822,-0.343844,0.063581906,0.060451508,-0.5318527,0.70314294,0.78056043,0.015578024,0.12533951,0.6121868,-1.1564277,-0.16215806,0.21940732,1.0,0.0,0.0,0.0,0.0,0.0,0.0,-0.71081007,0.11805114,-0.2041086,2.2873878,-10.381449,-4.1416645,-0.7741213,1.1594176,-5.189991,-1.9515753
-4.6029124,24.996744,8.499295,10.956046,1.1835952,-0.042671144,-0.0036254153,-0.77235925,-0.36061957,0.16656211,0.77427006,-0.6007284,0.62613124,-0.29124147,0.76284534,-0.9278415,-1.7896657,-1.4085548,1.9598792,1.7365806,-0.9238999,0.82595164,-0.89736235,-1.8037088,-1.4725121,2.0113347,1.6806318,-0.89612615,-1.4056667,-0.5822458,0.2587174,1.3496941,-0.860472,0.6556505,-0.13832803,0.045539856,-0.5214844,0.75399953,-1.5262946,-0.34350023,-0.035732817,0.048786163,-0.5336075,0.7050324,0.78751963,0.008959286,0.12742728,0.6029053,-1.1718912,-0.17223011,0.17642365,1.0,0.0,0.0,0.0,0.0,0.0,0.0,-0.69553983,0.12148437,-0.20399952,2.9223442,-9.596909,-1.0817587,1.0714531,0.41368008,-4.324782,-1.3140678
-3.4990807,29.401997,10.595849,11.356879,1.0673217,0.03426242,-0.0056649335,-0.7576164,-0.38462058,0.14646249,0.77526313,-0.61107814,0.62998587,-0.29407716,0.75019,-0.9358244,-1.7890625,-1.3949858,1.9502268,1.7436303,-0.9255339,0.8121262,-0.9037806,-1.8011682,-1.4588994,2.0027134,1.6869165,-0.8975929,-1.3746781,-0.6617687,0.2526954,1.3654468,-0.86286974,0.6197121,-0.14933686,0.030284882,-0.5249176,0.75289804,-1.5247686,-0.3431568,-0.13494824,0.036994934,-0.5354233,0.7065527,0.79439056,0.0026611967,0.12921804,0.59349746,-1.1838576,-0.17573346,0.14124739,0.0,1.0,0.0,0.0,0.0,0.0,0.0,-0.68028486,0.1249176,-0.20289803,3.1390667,-7.9860806,-0.54426193,1.6616583,-0.37773848,-3.4921765,-1.0571837
-3.2367115,31.465672,11.113847,11.119525,0.97133726,0.037287354,0.00073203444,-0.7421914,-0.41947043,0.12437085,0.77346826,-0.6127695,0.6336921,-0.27450082,0.73790705,-0.94572765,-1.7887311,-1.3815526,1.9414365,1.7502856,-0.925043,0.79861075,-0.91090167,-1.798742,-1.4451512,1.9940515,1.6928941,-0.89913976,-1.3436651,-0.7289323,0.23955736,1.3782777,-0.8678688,0.5907121,-0.15631706,0.015045166,-0.528347,0.7508051,-1.5232441,-0.34281373,-0.23406446,0.025104523,-0.5372467,0.70772684,0.8011632,-0.003338901,0.13078779,0.58397,-1.1937019,-0.17619812,0.106721684,0.0,1.0,0.0,0.0,0.0,0.0,0.0,-0.66504514,0.12834701,-0.20080507,3.1345367,-6.7576528,-1.2538522,1.3762951,-0.6371379,-2.7944088,-0.65980554
-7.966858,29.514145,7.427305,11.694745,1.011069,-0.12279785,-0.09398432,-0.7383829,-0.43333247,0.02248706,0.78085214,-0.62524927,0.6212375,-0.24435684,0.72477245,-0.9542349,-1.7964933,-1.367066,1.9315265,1.7550179,-0.92357546,0.7853442,-0.91853964,-1.7969072,-1.4312752,1.9853063,1.6986104,-0.90072286,-1.320813,-0.77547663,0.16479965,1.3910414,-0.8770534,0.565771,-0.15881298,-0.00017929077,-0.5317726,0.74772173,-1.5217212,-0.34247097,-0.33308163,0.013057709,-0.53912735,0.70846415,0.8078989,-0.008862525,0.13227448,0.5742161,-1.2100673,-0.18386254,0.059756756,0.0,1.0,0.0,0.0,0.0,0.0,0.0,-0.6498207,0.13177261,-0.19772172,2.3290873,-4.691589,-7.4634256,1.4019728,-0.9850383,-2.3906827,-0.2274096
-8.589746,34.43685,8.492682,11.961232,0.8673129,-0.11590254,-0.1266025,-0.72920436,-0.4228019,-0.019286325,0.78278786,-0.6234059,0.62686646,-0.25530776,0.71242374,-0.96081984,-1.7988359,-1.3529965,1.9229656,1.7612971,-0.9262536,0.77227676,-0.92640704,-1.7960303,-1.4173181,1.9764489,1.7039855,-0.9023304,-1.2986372,-0.78979445,0.045831084,1.3903883,-0.89529634,0.49354953,-0.16043322,-0.016235352,-0.534214,0.74539816,-1.8673396,0.10241204,0.43242893,0.00089645386,-0.5410652,0.7087409,0.81463355,-0.013710779,0.13384908,0.5641529,-1.2141131,-0.19648965,0.0073268902,0.0,1.0,0.0,0.0,0.0,0.0,0.0,-0.6337646,0.13421401,-0.19539815,2.7049541,-1.3643861,-14.095457,-0.9284258,-2.9847026,-12.334847,-0.05620718
-22.560984,62.00858,11.440572,19.069996,0.63132834,-0.10208553,-0.53039724,-0.80826056,-0.12227175,-0.3434669,0.79043067,-0.5641501,0.5724385,-0.19141074,0.6914507,-0.9386342,-1.830377,-1.3382751,1.9200339,1.7612293,-0.9214715,0.75898826,-0.9328787,-1.7976725,-1.4033449,1.9676408,1.7087557,-0.90391254,-1.3386593,-0.60008204,-0.23482563,1.3999995,-0.8757534,0.47203276,-0.15813456,-0.034893036,-0.5331917,0.7489748,-1.8654726,0.102309644,0.3327454,-0.011325836,-0.54302216,0.7086855,0.82159114,-0.017159706,0.13632324,0.5532716,-1.2286712,-0.1868386,-0.013005381,0.0,1.0,0.0,0.0,0.0,0.0,0.0,-0.61510694,0.13319167,-0.19897479,-3.9224863,18.849743,-28.242058,1.0940313,1.968193,-2.0187378,0.036612153
-26.486578,64.953865,10.610687,20.17149,0.6390295,-0.12600118,-0.5844984,-0.81598705,-0.08770615,-0.47622308,0.79155695,-0.54394746,0.5531391,-0.18441013,0.67738956,-0.9416493,-1.8452948,-1.3241892,1.913246,1.7640697,-0.92235357,0.74521244,-0.93723315,-1.8024905,-1.3892934,1.9591111,1.7133257,-0.90546703,-1.390318,-0.38116196,-0.5647227,1.4070556,-0.8452513,0.45202804,-0.15535642,-0.05353546,-0.53216934,0.7515553,-1.8636074,0.102207355,0.23316154,-0.023738861,-0.5448761,0.70841956,0.8288548,-0.019172981,0.1400059,0.5413228,-1.2468771,-0.17658296,-0.033749226,0.0,1.0,0.0,0.0,0.0,0.0,0.0,-0.5964645,0.13216934,-0.20155531,-5.069828,21.729433,-33.148758,0.79739094,3.0326009,-2.0044982,0.021496415
-28.686905,52.710148,5.686919,18.982853,0.81486446,-0.11929655,-0.5089374,-0.8227722,-0.10551139,-0.6132397,0.79233253,-0.58138275,0.59598786,-0.14341047,0.6629352,-0.9477843,-1.8638145,-1.3100601,1.9009728,1.7729245,-0.9198081,0.7309474,-0.93985003,-1.8105853,-1.3751733,1.9507645,1.7177851,-0.9069643,-1.4381559,-0.2223122,-0.8914883,1.4140383,-0.8311796,0.44341698,-0.14873469,-0.072155,-0.531147,0.75314075,-1.8617442,0.10210517,0.13367727,-0.03643036,-0.5466995,0.70779455,0.83636993,-0.01969322,0.14477292,0.52833545,-1.2776539,-0.17366236,-0.07385282,0.0,1.0,0.0,0.0,0.0,0.0,0.0,-0.577845,0.131147,-0.20314074,-4.655218,15.715054,-32.77944,0.7912159,1.3759851,-1.0047674,0.4081875
-22.850094,48.70955,7.7281857,16.68109,0.80589545,0.08730006,-0.31334636,-0.82269806,-0.088433065,-0.65511197,0.79220873,-0.58810765,0.6122412,-0.14759007,0.6486776,-0.94869334,-1.8760965,-1.2959524,1.8919538,1.7790092,-0.9217233,0.7163304,-0.941354,-1.8213046,-1.3610055,1.9424752,1.7221892,-0.90840054,-1.4692035,-0.12700045,-1.1319398,1.4178895,-0.82849073,0.43858543,-0.1426116,-0.09075928,-0.53012466,0.7537321,-1.8598828,0.10200309,0.03429247,-0.049404144,-0.5484352,0.7067864,0.8439722,-0.018960586,0.15033364,0.5145397,-1.3050698,-0.16383846,-0.11075505,0.0,1.0,0.0,0.0,0.0,0.0,0.0,-0.5592407,0.13012466,-0.20373207,-3.007388,9.351596,-24.018002,0.44693947,0.14317036,-0.6957412,0.38228035
-16.141588,46.665012,10.841872,14.557108,0.82280135,0.3130011,-0.123215094,-0.82227033,-0.08365294,-0.6865227,0.79340297,-0.58645695,0.62336373,-0.14045376,0.63410336,-0.94971925,-1.8899568,-1.2816652,1.8838295,1.7845255,-0.9224459,0.7015313,-0.94233817,-1.833708,-1.346813,1.9341782,1.7265646,-0.9097738,-1.4834027,-0.08949163,-1.2760838,1.4198588,-0.83096987,0.43634027,-0.13610789,-0.10934448,-0.5291023,0.7533303,-1.8580234,0.10190111,-0.06499297,-0.06260681,-0.55002975,0.7054624,0.8514806,-0.017341152,0.15635656,0.5002325,-1.3268658,-0.14610732,-0.14004141,0.0,1.0,0.0,0.0,0.0,0.0,0.0,-0.5406555,0.12910232,-0.20333028,-1.3766289,3.5748377,-14.264631,0.23663044,-0.4472494,-0.44771433,0.4629314
-8.60718,47.425026,14.835465,12.535072,0.7533823,0.51301396,0.050929934,-0.8139089,-0.08908163,-0.69052446,0.79433334,-0.6020226,0.64377356,-0.1288878,0.62014043,-0.9512463,-1.9027605,-1.2673796,1.873976,1.790942,-0.9226626,0.68671787,-0.9432642,-1.8468783,-1.3326089,1.9257935,1.7309401,-0.9110775,-1.4807508,-0.09422111,-1.3297746,1.4204428,-0.84186935,0.43724453,-0.12886696,-0.12791061,-0.5280876,0.75193644,-1.8561658,0.10179923,-0.16417915,-0.07594299,-0.551384,0.70392215,0.85873723,-0.015207072,0.16258271,0.48570132,-1.3378725,-0.119723685,-0.15882073,0.0,1.0,0.0,0.0,0.0,0.0,0.0,-0.52208936,0.12808761,-0.20193642,0.2393961,-0.63771904,-5.111003,0.06854534,-1.3504624,-0.101572275,0.5784273
-6.6052504,42.06089,14.143526,11.127631,0.84596765,0.5609233,0.14167431,-0.8163332,-0.12949312,-0.7121223,0.7903766,-0.6159463,0.6463752,-0.104949355,0.60508454,-0.9562135,-1.9180906,-1.2535713,1.8641989,1.7955776,-0.92157245,0.67196643,-0.94456214,-1.8602431,-1.318424,1.91726,1.7353308,-0.9122944,-1.4733903,-0.14217664,-1.3376786,1.4179709,-0.85809624,0.43913046,-0.11964405,-0.14645767,-0.5270729,0.7495485,-1.8543099,0.101697445,-0.2636599,-0.08939743,-0.5524788,0.70215565,0.8656642,-0.012766725,0.16878413,0.47114164,-1.3498297,-0.094284184,-0.18261653,0.0,1.0,0.0,0.0,0.0,0.0,0.0,-0.5035423,0.1270729,-0.19954848,0.6952286,-4.9379797,-0.49886703,-0.20852089,-1.8811822,0.027513504,0.82412213
-9.842578,26.859596,7.9934616,9.799613,1.1823342,0.46420062,0.18030062,-0.82210386,-0.22846176,-0.7315479,0.7887979,-0.6082257,0.6391844,-0.034559537,0.5897561,-0.9674083,-1.9333979,-1.2395442,1.8564374,1.7992493,-0.9157503,0.6572717,-0.94681495,-1.8736273,-1.3042831,1.9088426,1.7399628,-0.9133605,-1.4676301,-0.25302806,-1.34195,1.4116399,-0.8163782,0.49073648,-0.101392634,-0.16358185,-0.52630997,0.74741375,-1.542205,0.04684497,-0.08407215,-0.10315323,-0.5533943,0.6999711,0.8722822,-0.010165097,0.1745499,0.45667556,-1.3895252,-0.076310486,-0.23108935,0.0,1.0,0.0,0.0,0.0,0.0,0.0,-0.48641813,0.12630996,-0.19741374,0.6857872,-11.12816,-1.2418509,-0.84166527,9.153533,10.042554,2.0251737
-5.615694,30.377768,10.971713,9.1646595,1.2019832,0.5621218,0.20430893,-0.8036945,-0.25709218,-0.6778078,0.7943573,-0.57779753,0.6448965,-0.10214141,0.5769022,-0.97252417,-1.941408,-1.2248474,1.8510628,1.8044524,-0.9235746,0.6427014,-0.9502148,-1.8867116,-1.2901671,1.9007417,1.7448906,-0.9143096,-1.4535812,-0.3692895,-1.2963265,1.4120158,-0.808329,0.49343488,-0.092775166,-0.17907715,-0.5256653,0.74626666,-1.5482107,0.0681999,-0.12490298,-0.11722183,-0.55410004,0.69738513,0.878602,-0.007588189,0.17967689,0.44239908,-1.4117959,-0.05601298,-0.26810732,0.0,1.0,0.0,0.0,0.0,0.0,0.0,-0.47092283,0.12566528,-0.19626665,1.3721466,-11.725605,4.8443317,0.17328262,0.719738,0.29835105,0.8764431
-3.59302,40.90586,15.267782,10.259425,1.0886306,0.67750853,0.17577368,-0.80197644,-0.25521535,-0.6589822,0.8011454,-0.57917017,0.6449979,-0.12789693,0.56250376,-0.9757363,-1.9526098,-1.2100526,1.8428247,1.8093903,-0.9270993,0.62826365,-0.9545197,-1.8992484,-1.2760069,1.8927188,1.7498451,-0.9152071,-1.4406928,-0.4512192,-1.238434,1.4174855,-0.80106777,0.49575496,-0.08876547,-0.19443893,-0.52484894,0.74481916,-1.5318961,0.08597467,-0.15034589,-0.13141632,-0.5545387,0.6945644,0.8846175,-0.0050378656,0.18436347,0.42829478,-1.4231615,-0.026532443,-0.28750023,0.0,1.0,0.0,0.0,0.0,0.0,0.0,-0.45556104,0.12484893,-0.19481915,1.2287617,-8.32305,6.122923,0.62835217,0.448215,0.09625554,0.40415227
-2.9916582,52.712242,19.27654,11.778483,0.97223777,0.78062576,0.1430445,-0.8058867,-0.24632634,-0.6458072,0.7989209,-0.5649078,0.62867033,-0.12001688,0.547675,-0.9791523,-1.963829,-1.1961149,1.836228,1.8127122,-0.9272088,0.61390316,-0.9593014,-1.9112263,-1.261801,1.8847587,1.7547898,-0.9160717,-1.4347475,-0.48778757,-1.1830103,1.4215698,-0.79539406,0.49339098,-0.085640915,-0.20956802,-0.5238342,0.7432685,-1.5066006,0.10852077,-0.15577202,-0.14564896,-0.554615,0.6916842,0.8903281,-0.0025369152,0.18881838,0.41431513,-1.4234977,0.011782071,-0.28938416,0.0,1.0,0.0,0.0,0.0,0.0,0.0,-0.44043195,0.12383422,-0.19326848,0.5091667,-3.822744,5.9206963,0.43141842,0.20804405,-0.39676428,0.27427673
-6.3913164,47.75994,15.7137575,11.806443,1.0390851,0.6489047,0.10325325,-0.80540633,-0.3063495,-0.6650553,0.8017836,-0.5606603,0.6187714,-0.110577986,0.5333625,-0.98993635,-1.9777318,-1.1816226,1.8286927,1.816667,-0.9271295,0.5995713,-0.96449226,-1.9228837,-1.2475492,1.8768445,1.7596935,-0.91690534,-1.4328338,-0.53011334,-1.1589218,1.4265282,-0.7909927,0.48873043,-0.082492806,-0.22448349,-0.52261734,0.7415658,-1.4860626,0.12730478,-0.17439939,-0.15994644,-0.5543556,0.68869376,0.8957681,3.6029418e-05,0.19309323,0.40039286,-1.4312552,0.044005223,-0.30357206,0.0,1.0,0.0,0.0,0.0,0.0,0.0,-0.4255165,0.122617334,-0.19156581,0.14402866,-4.388845,2.73273,0.5648136,0.1279831,-0.6174624,0.27490407
-0.36120224,61.218117,21.729095,11.93482,0.8240665,0.7639948,0.16480178,-0.78505594,-0.27021608,-0.60786927,0.80133396,-0.54896593,0.6420027,-0.03867134,0.5210657,-0.99151385,-1.9836707,-1.1674157,1.8219479,1.8238938,-0.9207725,0.58533186,-0.9698128,-1.9341806,-1.2332705,1.8690153,1.7645819,-0.9176552,-1.4214182,-0.53338057,-1.1186339,1.4282587,-0.7814155,0.48815188,-0.072541215,-0.23910141,-0.5211868,0.73985106,-1.4527695,0.15041927,-0.16937992,-0.17417526,-0.5536995,0.6857223,0.90089786,0.0026210265,0.19729868,0.38658673,-1.4189293,0.0850716,-0.29634112,0.0,1.0,0.0,0.0,0.0,0.0,0.0,-0.41089857,0.12118682,-0.18985105,1.0293245,-0.5059004,4.4345856,0.13957024,0.5533099,-0.16619563,0.87786317
2.742782,60.132736,22.081224,10.973612,0.9065996,0.7073251,0.1856491,-0.7687747,-0.31558385,-0.5607328,0.8052005,-0.50469136,0.64134496,-0.057476554,0.5084544,-1.0013711,-1.9902539,-1.1527505,1.8185462,1.8287164,-0.9234029,0.5712737,-0.9752707,-1.9449358,-1.2189672,1.861404,1.7694663,-0.9183226,-1.4009885,-0.5505241,-1.0598938,1.4307603,-0.7555004,0.4879838,-0.0647539,-0.25338364,-0.5195389,0.73815745,-1.4195325,0.1711032,-0.16798088,-0.18825912,-0.5526581,0.6828284,0.90571606,0.0051003587,0.20135497,0.37297243,-1.4042796,0.12264703,-0.28852126,0.0,1.0,0.0,0.0,0.0,0.0,0.0,-0.39661634,0.11953887,-0.18815744,1.9193172,-1.8777966,6.2901497,0.21443367,2.2226572,-0.19744635,0.7755026
3.7631888,56.166386,20.471691,9.670193,0.8615349,0.60570294,0.21490121,-0.75863636,-0.34627724,-0.54077303,0.7971941,-0.50404316,0.6415238,-0.040976085,0.49541005,-1.0098984,-1.9990131,-1.1392478,1.8109996,1.8336186,-0.9224202,0.5574433,-0.98100895,-1.9551052,-1.2046828,1.8540318,1.7743466,-0.9189086,-1.3774523,-0.58212775,-1.0012189,1.4275888,-0.73219866,0.48766184,-0.056501225,-0.26735306,-0.5177078,0.7364012,-1.3884548,0.18844639,-0.17632616,-0.20220184,-0.551281,0.67994845,0.91023606,0.0074596605,0.20517366,0.35960844,-1.389035,0.15540396,-0.28916407,0.0,1.0,0.0,0.0,0.0,0.0,0.0,-0.38264692,0.11770782,-0.18640119,2.2366524,-3.3046126,6.264472,-0.33922195,1.9782424,-0.1947105,0.8319244
-0.14262533,46.573532,15.258725,8.950177,0.8351214,0.42047143,0.21984503,-0.7548004,-0.3834436,-0.5644411,0.80013055,-0.5203765,0.6259508,0.06799328,0.48196328,-1.0193533,-2.0115492,-1.1246698,1.8019942,1.8369417,-0.91210926,0.54382,-0.9872002,-1.964939,-1.1904175,1.8467839,1.7792041,-0.919341,-1.3574859,-0.6319547,-0.97647107,1.4263477,-0.72303975,0.4846867,-0.038796335,-0.28107452,-0.51573944,0.73441625,-1.365732,0.20070884,-0.20412506,-0.21606827,-0.54963684,0.6769155,0.91448236,0.009857409,0.2087377,0.34648716,-1.3838575,0.17989859,-0.30945063,0.0,1.0,0.0,0.0,0.0,0.0,0.0,-0.36892545,0.115739435,-0.18441623,1.9289494,-5.1056623,2.7897596,-0.079512596,0.63165426,-0.44082403,1.7796718
-4.50825,36.768288,10.730799,8.731205,1.037274,0.32472485,0.18539032,-0.75385016,-0.4484448,-0.54248327,0.8068706,-0.49046534,0.61404574,0.08699667,0.468435,-1.0320446,-2.0191872,-1.1097305,1.7977374,1.8406087,-0.9106414,0.53034264,-0.9941201,-1.9745742,-1.1761199,1.839651,1.7840121,-0.9195915,-1.344535,-0.7124229,-0.9584472,1.4311013,-0.71062773,0.47914118,-0.02028989,-0.29464722,-0.5136757,0.73200095,-1.3536055,0.20904922,-0.25243646,-0.22999954,-0.54777527,0.6735635,0.9185121,0.012389992,0.21192929,0.3335683,-1.3937254,0.19938692,-0.34548137,0.0,1.0,0.0,0.0,0.0,0.0,0.0,-0.35535276,0.113675684,-0.18200094,1.2750864,-8.151257,2.0546556,0.602746,1.0200977,-0.6902695,1.9014273
2.8618073,43.12411,14.651891,7.237887,0.8118353,0.36832774,0.26391476,-0.71754277,-0.46019697,-0.4757388,0.8023672,-0.4969971,0.63620794,0.12729692,0.45858836,-1.0401398,-2.0221481,-1.0958833,1.7899513,1.8476329,-0.9068618,0.51710844,-1.0017811,-1.983804,-1.1617974,1.832607,1.7887911,-0.91964084,-1.3165998,-0.78438735,-0.9102052,1.4329085,-0.7029314,0.47717145,0.00030101545,-0.3080368,-0.5115204,0.7291849,-1.332654,0.21807516,-0.28895915,-0.24388885,-0.5457077,0.6699318,0.9223082,0.014947351,0.21473993,0.32095313,-1.385767,0.22098099,-0.37087342,0.0,1.0,0.0,0.0,0.0,0.0,0.0,-0.34196317,0.11152038,-0.17918491,2.7213097,-7.302332,5.1461577,0.2439022,0.48609972,-0.29024482,2.0807173
-0.06156683,35.951134,11.530793,6.673957,0.9646728,0.30202514,0.2762369,-0.7238775,-0.5436897,-0.45660254,0.7964773,-0.46887186,0.60068965,0.21742176,0.4447207,-1.0561501,-2.0294642,-1.0821496,1.7857199,1.84886,-0.8978987,0.504086,-1.0103605,-1.9925125,-1.1474863,1.8256873,1.7935221,-0.919437,-1.2974777,-0.8828994,-0.85685664,1.4308077,-0.6889885,0.4713125,0.027475221,-0.3212738,-0.5092964,0.725876,-1.3201258,0.22411744,-0.3430494,-0.2577858,-0.54343796,0.6659507,0.9258985,0.01750612,0.2170492,0.30869886,-1.3884244,0.23926124,-0.40936914,0.0,1.0,0.0,0.0,0.0,0.0,0.0,-0.32872617,0.10929641,-0.17587596,1.8743753,-9.943331,5.613506,-0.07855892,1.1467814,-0.69997907,2.806915
8.286028,51.179783,19.396038,6.9536977,0.9507434,0.5344124,0.30057186,-0.69648045,-0.54334295,-0.3275929,0.79897594,-0.457934,0.6082303,0.20186588,0.43443796,-1.0646948,-2.0252717,-1.0675887,1.7798939,1.8543452,-0.8992504,0.49131793,-1.0197313,-2.0001893,-1.1332002,1.8189431,1.7982138,-0.9189901,-1.2703092,-0.9554971,-0.73669815,1.42796,-0.6706242,0.46823865,0.050810885,-0.33426666,-0.5069847,0.72224987,-1.2916306,0.23436607,-0.3672897,-0.2715454,-0.5409355,0.6618189,0.9292785,0.019795388,0.21885736,0.2969022,-1.3686057,0.26621577,-0.41685995,0.0,1.0,0.0,0.0,0.0,0.0,0.0,-0.3157333,0.106984705,-0.17224985,2.6080132,-7.3777914,12.4357815,-0.2542019,1.4443994,-0.39682388,2.403911
1.6851678,46.706394,16.128672,7.6181993,1.078095,0.55142546,0.23773327,-0.7220187,-0.60325706,-0.3140969,0.77781165,-0.45788187,0.574792,0.17758892,0.41911605,-1.080057,-2.031599,-1.055419,1.773155,1.8556931,-0.90123117,0.47864786,-1.0298669,-2.006739,-1.1190343,1.8123463,1.8028483,-0.91835433,-1.2660595,-1.033372,-0.6266803,1.413114,-0.6570191,0.46150568,0.06830081,-0.34702682,-0.5045738,0.7182989,-1.2698232,0.24410117,-0.40274155,-0.2851944,-0.53814316,0.65754026,0.93248874,0.021798853,0.22016235,0.2855135,-1.3598807,0.29456985,-0.4342156,0.0,1.0,0.0,0.0,0.0,0.0,0.0,-0.30297315,0.104573816,-0.1682989,0.36768913,-7.90267,11.351395,-1.3874292,1.007545,-0.77584386,1.8608518
8.240896,57.01458,20.580326,7.305459,0.82297194,0.58697855,0.2687411,-0.6849385,-0.60399574,-0.23577416,0.78069717,-0.500204,0.5980378,0.20349486,0.410154,-1.0902665,-2.0303164,-1.0409646,1.7623259,1.8626521,-0.89800483,0.46612605,-1.0405786,-2.0120945,-1.1050017,1.80574,1.8074448,-0.91754806,-1.2478421,-1.0841334,-0.503914,1.3999734,-0.6629431,0.45900127,0.08500159,-0.35947418,-0.5020561,0.714143,-1.2350731,0.25479606,-0.41806078,-0.29860306,-0.5350609,0.65320426,0.9355082,0.023474054,0.22111909,0.27455354,-1.3313565,0.32340753,-0.43630323,0.0,1.0,0.0,0.0,0.0,0.0,0.0,-0.2905258,0.102056116,-0.16414297,1.7249107,-5.2055836,12.693012,-1.2860537,-1.0178804,-0.30836463,1.7295763
-4.2370086,46.320465,12.952974,8.755392,0.9831951,0.4046124,0.16595076,-0.71846724,-0.65252346,-0.2959466,0.7663548,-0.4651598,0.52701753,0.2319637,0.39427933,-1.1058309,-2.0416892,-1.0283662,1.759224,1.8601465,-0.8943517,0.45360714,-1.0518243,-2.0168052,-1.0911275,1.7991287,1.8119564,-0.9165764,-1.2532488,-1.1383275,-0.4590606,1.3836613,-0.66133916,0.44839647,0.101562425,-0.37168503,-0.49945068,0.70964926,-1.2158774,0.26320487,-0.45916846,-0.31191254,-0.5317192,0.648656,0.9383854,0.025107183,0.22176495,0.2638612,-1.328231,0.34891585,-0.46395886,0.0,1.0,0.0,0.0,0.0,0.0,0.0,-0.27831495,0.09945068,-0.15964925,-0.548625,-5.535102,4.72579,-1.482749,-0.12001991,-1.1395037,1.7398655
-2.8294504,52.322105,15.126857,9.362925,1.0359938,0.46108603,0.15333627,-0.7071767,-0.65983194,-0.2175967,0.7627767,-0.4486402,0.5225296,0.2669729,0.38288948,-1.1178075,-2.038565,-1.0148499,1.7542646,1.8642094,-0.8898791,0.44104815,-1.0634954,-2.0210125,-1.0774003,1.792593,1.816366,-0.9154295,-1.2568657,-1.1770304,-0.40708855,1.3694332,-0.65202296,0.43812618,0.11936377,-0.383667,-0.4967537,0.70481825,-1.1917722,0.27256516,-0.49024868,-0.3251648,-0.5280876,0.6439118,0.94114166,0.026743026,0.22211999,0.25337702,-1.3197695,0.37714756,-0.48115563,0.0,1.0,0.0,0.0,0.0,0.0,0.0,-0.26633298,0.09675369,-0.15481824,-0.38101673,-3.9970398,5.4684877,-1.2946844,0.6147623,-1.1090577,1.8600211
-5.7909975,51.19724,13.680747,9.867059,1.108999,0.42780113,0.11582416,-0.7155217,-0.68511146,-0.21242368,0.75424165,-0.42813313,0.49343795,0.28398648,0.369496,-1.1320065,-2.042255,-1.0019761,1.7497797,1.8657098,-0.88703084,0.4284138,-1.0755308,-2.0248458,-1.0638121,1.7862076,1.8206556,-0.9141095,-1.2656286,-1.2128198,-0.37470257,1.3557792,-0.6348535,0.42562288,0.13652585,-0.39543152,-0.49396515,0.6996359,-1.1708556,0.28149962,-0.5260533,-0.33837128,-0.52417755,0.63896686,0.9437977,0.028425114,0.22218294,0.24304846,-1.3168111,0.40557462,-0.50229895,0.0,1.0,0.0,0.0,0.0,0.0,0.0,-0.25456846,0.09396514,-0.14963591,-0.8758545,-3.7034273,3.4694076,-1.2090683,1.4312387,-1.3334572,1.7977893
-1.0294971,51.909702,13.834509,8.045877,0.7498043,0.2641657,0.17951974,-0.6878182,-0.69529843,-0.22929464,0.7478021,-0.4541075,0.46826676,0.34850687,0.359632,-1.1450607,-2.0477753,-0.9890319,1.7407968,1.8674823,-0.8792589,0.41583097,-1.0878599,-2.0285685,-1.050352,1.7799047,1.8248137,-0.9125897,-1.2559217,-1.2400427,-0.37048808,1.3429804,-0.6295603,0.4123705,0.15731221,-0.40695953,-0.49110413,0.69410384,-1.1463435,0.287521,-0.561238,-0.35147095,-0.5200424,0.63377535,0.9463305,0.030271636,0.22203109,0.23290445,-1.3035302,0.42624196,-0.52816826,0.0,1.0,0.0,0.0,0.0,0.0,0.0,-0.24304044,0.09110412,-0.14410383,0.9467125,-2.8425455,0.6612897,-1.1516333,0.24394989,-1.3836443,2.110535
3.032001,55.632572,16.066603,7.372324,0.79596406,0.29293138,0.18819283,-0.6819195,-0.71313655,-0.16706307,0.7374002,-0.41238087,0.44738445,0.3458281,0.34763902,-1.1591735,-2.0452747,-0.976612,1.7386667,1.8695521,-0.87800694,0.40339166,-1.1004503,-2.0320547,-1.0370349,1.7737522,1.8288364,-0.910881,-1.2400954,-1.2656926,-0.34021628,1.3281422,-0.611425,0.39880872,0.17556943,-0.4182167,-0.4881897,0.6882687,-1.1179459,0.2931078,-0.5895178,-0.3643875,-0.5157013,0.628391,0.94874215,0.03219116,0.22163644,0.22300066,-1.2838204,0.44632655,-0.5452247,0.0,1.0,0.0,0.0,0.0,0.0,0.0,-0.23178327,0.08818969,-0.13826871,1.5364408,-2.688837,3.3198774,-1.3879776,1.4778376,-1.4168084,1.8632084
6.422299,62.28008,19.452606,7.5246716,0.92302465,0.42829376,0.188712,-0.68000484,-0.72180545,-0.08608249,0.7260092,-0.40159035,0.44520184,0.36096653,0.33539116,-1.1726308,-2.040663,-0.96443397,1.7335932,1.8733566,-0.87478435,0.39110544,-1.1132619,-2.0348887,-1.0238912,1.7678047,1.8327388,-0.9089967,-1.2250221,-1.286564,-0.26299804,1.310143,-0.59056157,0.3871081,0.19288552,-0.42913437,-0.4852066,0.6822586,-1.0830332,0.29949772,-0.6042389,-0.3770523,-0.5111389,0.6229533,0.95104426,0.03395547,0.22096182,0.21339563,-1.2564203,0.4694995,-0.54652107,0.0,1.0,0.0,0.0,0.0,0.0,0.0,-0.2208656,0.0852066,-0.1322586,1.4421701,-2.2205114,8.0859,-1.7396927,1.6749024,-1.2277961,1.781553
7.6601405,66.03799,20.737387,7.3155155,0.9248899,0.45387638,0.2033718,-0.678116,-0.7208325,-0.054662142,0.69662654,-0.38393402,0.39041492,0.38557512,0.32329383,-1.1853452,-2.040355,-0.9542286,1.7294114,1.8717803,-0.8704392,0.37894085,-1.1262071,-2.0368645,-1.0110276,1.7620896,1.8364961,-0.90694064,-1.2138238,-1.2977014,-0.17458458,1.2785639,-0.56644416,0.3719359,0.21007568,-0.439682,-0.4821663,0.67614543,-1.0446614,0.30545804,-0.61253816,-0.38941574,-0.50634384,0.61754936,0.95324415,0.03546962,0.21999842,0.20412742,-1.2243199,0.49268746,-0.54183024,0.0,1.0,0.0,0.0,0.0,0.0,0.0,-0.21031797,0.082166284,-0.12614542,1.0501862,-1.2499094,9.215966,-3.1143188,1.9735098,-1.558435,1.7640233
4.0918202,62.883434,18.216106,7.4052677,0.92437255,0.3443693,0.17779954,-0.6797943,-0.7272517,-0.07835242,0.6738264,-0.33788687,0.33067718,0.3925863,0.31096143,-1.1989323,-2.0446997,-0.94364494,1.7283009,1.8695638,-0.867682,0.36684108,-1.1392362,-2.0382411,-0.99853814,1.7567044,1.8400666,-0.90472716,-1.2088355,-1.3050143,-0.12427149,1.2393064,-0.530333,0.35197106,0.2253178,-0.4498825,-0.47907257,0.66988283,-1.0114691,0.31035295,-0.62992066,-0.40151215,-0.5013199,0.6121194,0.9553644,0.036852043,0.21871781,0.19514951,-1.1993523,0.5137869,-0.54674745,0.0,1.0,0.0,0.0,0.0,0.0,0.0,-0.20011747,0.079072565,-0.11988282,0.4533291,-0.85806847,5.32832,-3.84655,3.2419086,-2.0418704,1.5752286
-0.96846247,55.028797,13.322179,6.948082,0.882965,0.09398323,0.15640709,-0.67707914,-0.73004806,-0.16107425,0.64342505,-0.22097127,0.23438503,0.42678684,0.29913315,-1.212241,-2.0543485,-0.93419564,1.7346073,1.863505,-0.8620485,0.3547728,-1.1523149,-2.0397289,-0.9865056,1.7519687,1.843374,-0.9023572,-1.2062142,-1.309229,-0.15622838,1.1916581,-0.4554358,0.32355657,0.2411166,-0.45983124,-0.47594452,0.6632956,-0.98948336,0.31330332,-0.66839135,-0.41344452,-0.49612808,0.606482,0.95744336,0.038396668,0.21701702,0.18636386,-1.1879251,0.52980345,-0.5727542,0.0,1.0,0.0,0.0,0.0,0.0,0.0,-0.19016874,0.07594451,-0.113295615,0.24454594,-0.5300045,-3.0274482,-4.633951,7.247978,-2.9173255,1.6398668
1.0022349,49.92473,10.879552,4.799799,0.72394335,-0.16423726,0.19140023,-0.65262866,-0.73085296,-0.22357248,0.60697603,-0.0794786,0.13944402,0.4722454,0.28950995,-1.2254002,-2.062086,-0.925808,1.7440209,1.8573184,-0.8551327,0.342828,-1.1654165,-2.0419831,-0.9750207,1.7483289,1.846344,-0.89981467,-1.1907041,-1.3109009,-0.24821743,1.1345363,-0.3340599,0.28781098,0.25883222,-0.4696083,-0.47280884,0.65621257,-0.9733989,0.31318933,-0.7210748,-0.42529678,-0.4908409,0.6004766,0.95951414,0.040324252,0.21473373,0.17775252,-1.1795521,0.53712606,-0.6132113,0.0,1.0,0.0,0.0,0.0,0.0,0.0,-0.18039167,0.07280883,-0.10621256,1.526761,-0.26426315,-9.079066,-5.58033,11.956424,-3.6863863,1.8305421
11.6225815,42.697987,9.373194,-1.4065802,0.34830233,-0.5386739,0.3365715,-0.60981095,-0.7408095,-0.30294895,0.514293,0.17373815,-0.061840076,0.4993572,0.2818469,-1.2394974,-2.072278,-0.9235914,1.7657027,1.84016,-0.84987897,0.33122793,-1.1785676,-2.0454965,-0.96442246,1.7465183,1.8488332,-0.8970947,-1.1499851,-1.3168427,-0.38560972,1.0351808,-0.13044314,0.23551619,0.2766194,-0.47925568,-0.46971893,0.6484675,-0.96180856,0.30733353,-0.79156774,-0.43702698,-0.48560715,0.59393036,0.961626,0.04274244,0.21149677,0.16946271,-1.1645269,0.5272247,-0.6716806,0.0,1.0,0.0,0.0,0.0,0.0,0.0,-0.1707443,0.06971893,-0.09846747,4.0094376,-0.6685257,-13.645411,-9.858608,20.216259,-5.3764524,1.844126
2.503287,35.891224,4.3612127,-0.5425477,0.1001755,-0.6677798,0.32964185,-0.6346538,-0.73579115,-0.462845,0.47169587,0.17830592,-0.27881706,0.5213256,0.26776254,-1.2521467,-2.091781,-0.9172529,1.7643489,1.8209515,-0.8449622,0.31988826,-1.1917493,-2.050936,-0.9548676,1.7465175,1.850668,-0.89419955,-1.1286346,-1.3188453,-0.5964983,0.9293916,0.043154534,0.16556598,0.29404172,-0.48884583,-0.46669006,0.6398892,-0.9580951,0.30164158,-0.87921184,-0.44866943,-0.48047638,0.5866341,0.9637649,0.046042077,0.20729204,0.16145347,-1.159408,0.5171312,-0.7518853,0.0,1.0,0.0,0.0,0.0,0.0,0.0,-0.16115415,0.06669006,-0.08988917,2.125883,-0.27275085,-21.09821,-10.421777,17.287714,-7.1765094,1.8145323
3.644368,44.172207,7.8566155,1.755563,0.30809426,-0.51891917,0.25602242,-0.60914946,-0.73462445,-0.46197087,0.48126808,0.22503786,-0.35720968,0.5472412,0.25897333,-1.2652118,-2.0971332,-0.9067408,1.7690213,1.814947,-0.83947545,0.3087913,-1.2049329,-2.0581458,-0.9460957,1.7480177,1.8517934,-0.89112866,-1.1034089,-1.3185308,-0.7624518,0.86013526,0.18520479,0.094257385,0.31163326,-0.49834824,-0.46370316,0.6305807,-0.9470676,0.29722992,-0.9475245,-0.4602394,-0.47541428,0.5786866,0.9658985,0.050188407,0.2022733,0.15364456,-1.1508915,0.5115324,-0.8120989,0.0,1.0,0.0,0.0,0.0,0.0,0.0,-0.15165174,0.06370315,-0.08058071,2.5078058,-0.056147575,-16.504692,-6.796384,14.06773,-7.340446,1.8187106
0.7982197,54.991257,12.2979765,5.413526,0.8555254,-0.11748129,0.14877512,-0.6229904,-0.7345782,-0.428164,0.45405042,0.29528403,-0.39489487,0.551354,0.24649227,-1.2783908,-2.1009622,-0.9006907,1.777546,1.8123039,-0.8359933,0.29781353,-1.2181051,-2.0663512,-0.9378741,1.7507755,1.8522434,-0.887893,-1.0959947,-1.3172892,-0.83953214,0.8097837,0.305301,0.027742878,0.3276852,-0.5076828,-0.46073532,0.6207718,-0.9287917,0.2966888,-0.9913591,-0.4717369,-0.47028732,0.57035196,0.96801984,0.054811444,0.19653612,0.14596805,-1.1424068,0.5210818,-0.8435663,0.0,1.0,0.0,0.0,0.0,0.0,0.0,-0.14231718,0.060735315,-0.07077181,0.71492195,0.018978119,-7.502675,-4.940617,11.786723,-6.882375,1.6578913
8.18336,68.3436,19.055914,6.138377,1.0608269,0.20171762,0.1380409,-0.6009662,-0.7290637,-0.35778916,0.4294624,0.32039323,-0.40500733,0.5588125,0.23771691,-1.2910115,-2.1021302,-0.89492786,1.7828147,1.8117427,-0.83201176,0.28694734,-1.231241,-2.0745409,-0.93007386,1.754512,1.8520962,-0.88450766,-1.0837666,-1.312489,-0.8106302,0.7700222,0.39559203,-0.029539019,0.34209028,-0.51672745,-0.45777893,0.6107688,-0.8963587,0.295322,-1.0020001,-0.4830284,-0.4650383,0.56194633,0.97011626,0.059419747,0.19018112,0.13847291,-1.1185154,0.5341828,-0.84205675,0.0,1.0,0.0,0.0,0.0,0.0,0.0,-0.13327253,0.057778925,-0.060768783,1.1417389,0.37767887,3.2224894,-3.9950252,8.737946,-5.922775,1.4465213
13.092647,85.9151,26.696218,8.6899605,1.4518646,0.57029897,0.08830014,-0.5979981,-0.70508885,-0.23331657,0.42082706,0.33220363,-0.43132612,0.57044494,0.22714753,-1.3017498,-2.0978725,-0.88799113,1.7877324,1.8089635,-0.82746315,0.27618462,-1.2442186,-2.081598,-0.9225751,1.7589422,1.8514286,-0.8809858,-1.0741966,-1.2930964,-0.669397,0.742643,0.4576773,-0.0797121,0.3553016,-0.5253372,-0.4548416,0.6009744,-0.8489466,0.2928547,-0.9710958,-0.49399567,-0.45962143,0.5538722,0.9721809,0.06347234,0.18335745,0.13120748,-1.082288,0.55318,-0.79855126,0.0,1.0,0.0,0.0,0.0,0.0,0.0,-0.12466276,0.054841608,-0.05097437,0.83105564,1.8351793,14.576637,-2.866292,5.8476505,-5.164423,1.26791
14.738163,89.23431,28.276775,8.810524,1.5221788,0.6676278,0.09014204,-0.5983201,-0.7034296,-0.17170037,0.3859912,0.37463057,-0.48942584,0.57106173,0.21635261,-1.3145616,-2.098768,-0.883976,1.7964053,1.8024861,-0.8238796,0.26548773,-1.2570016,-2.0869615,-0.9154035,1.7639185,1.8502783,-0.8773475,-1.068629,-1.2738504,-0.49074194,0.7081798,0.50976443,-0.12718827,0.36641413,-0.5334511,-0.45194626,0.5915739,-0.79904604,0.28842917,-0.92971325,-0.5045738,-0.45401382,0.5463009,0.97422147,0.06670479,0.17611459,0.12420423,-1.0434451,0.5717713,-0.74621147,0.0,1.0,0.0,0.0,0.0,0.0,0.0,-0.116548896,0.051946253,-0.041573882,0.43952465,1.8281221,18.305058,-3.5758257,4.8657837,-4.8582063,1.0508478
25.312113,106.61194,36.22557,10.315502,1.7341468,0.8320153,0.055331092,-0.55765027,-0.6705406,0.044954482,0.42192578,0.35342908,-0.49011272,0.5875758,0.2097227,-1.3240557,-2.0824661,-0.8732109,1.7992615,1.801267,-0.8185899,0.2550093,-1.2694795,-2.0898304,-0.90833604,1.7692261,1.8487105,-0.87360144,-1.0413737,-1.2395748,-0.2171086,0.7055823,0.5365269,-0.16680491,0.376917,-0.5409508,-0.44913483,0.5829269,-0.73428607,0.27841088,-0.8437824,-0.51465607,-0.4482422,0.53956103,0.9762385,0.068702884,0.168617,0.117501,-0.99067765,0.5849443,-0.65257764,0.0,1.0,0.0,0.0,0.0,0.0,0.0,-0.1090492,0.04913482,-0.032926917,2.587676,3.3287764,27.891308,-0.46783686,2.3068786,-4.0029526,0.92372894
47.88585,104.60545,38.882504,2.432086,0.9841533,0.5129963,0.27522236,-0.47664413,-0.67585117,0.18113065,0.3599857,0.42234042,-0.5358478,0.5866364,0.20734487,-1.3370646,-2.0717173,-0.87233746,1.8114601,1.7951257,-0.8149378,0.24516548,-1.2816904,-2.0897734,-0.9014994,1.774904,1.8467708,-0.86976564,-0.9658934,-1.2153313,0.08198088,0.6755628,0.5769418,-0.20288911,0.38525584,-0.5477524,-0.44651031,0.575199,-0.66268265,0.25735986,-0.7509812,-0.5240326,-0.44257736,0.53373164,0.9782366,0.06919542,0.16081785,0.111367725,-0.91524905,0.56758803,-0.56236774,0.0,1.0,0.0,0.0,0.0,0.0,0.0,-0.102247596,0.04651031,-0.025198996,7.4007273,2.3327827,30.445555,-3.2316804,3.6924124,-3.5632281,0.6845355
54.343483,102.8817,38.386036,0.14157653,0.7067361,0.27954626,0.3263901,-0.42987764,-0.64928,0.26248583,0.34457833,0.51556796,-0.5174898,0.5866222,0.20217772,-1.3466184,-2.0635247,-0.8670416,1.8264608,1.7950218,-0.8111034,0.23624007,-1.2936151,-2.0870006,-0.8950032,1.7811942,1.8445297,-0.86585927,-0.8684823,-1.1852926,0.34419873,0.64046025,0.6451331,-0.23095156,0.39194578,-0.55384827,-0.44412613,0.56839967,-0.59293145,0.23187764,-0.6591263,-0.53264236,-0.43717575,0.52875245,0.98021793,0.06816804,0.1526598,0.105928764,-0.8389841,0.53684545,-0.47915825,0.0,1.0,0.0,0.0,0.0,0.0,0.0,-0.09615171,0.044126123,-0.018399656,9.630907,2.8977156,26.722536,-3.660047,6.506765,-2.7301848,0.53619146
50.560333,98.5399,35.236816,-0.21148443,0.5298452,0.16815642,0.35392788,-0.4044107,-0.61937314,0.32671106,0.29770088,0.5867643,-0.47862634,0.596372,0.19579901,-1.3555524,-2.0543294,-0.8652331,1.8398707,1.7966671,-0.8062221,0.22824356,-1.3051698,-2.0820763,-0.88901067,1.7882938,1.8420751,-0.8618886,-0.7769229,-1.1459674,0.54351324,0.58539283,0.73059255,-0.24995254,0.39849693,-0.55929184,-0.44200134,0.56244206,-0.52996546,0.20675425,-0.5788419,-0.54053116,-0.43209076,0.5244875,0.9821681,0.06581022,0.14413537,0.10119233,-0.7694839,0.5045426,-0.41166314,0.0,1.0,0.0,0.0,0.0,0.0,0.0,-0.09070814,0.042001337,-0.012442052,9.094345,3.8199425,20.329374,-5.548835,8.315384,-1.7979264,0.56708455
46.076523,101.14489,34.326527,1.180437,0.4665451,0.17017873,0.34552214,-0.36720926,-0.56989485,0.41079852,0.26168996,0.6327622,-0.43514907,0.5874727,0.19152263,-1.3621593,-2.0409966,-0.86284167,1.85157,1.7985601,-0.8031413,0.22109796,-1.3161752,-2.0754828,-0.88364446,1.796257,1.8394942,-0.85786563,-0.69385433,-1.0857131,0.6992464,0.5205923,0.8174028,-0.26033378,0.40332294,-0.56412506,-0.4401207,0.5573066,-0.4698503,0.18241678,-0.4966125,-0.54774857,-0.42730713,0.52088714,0.9840569,0.06231058,0.13533781,0.09712337,-0.70369893,0.47402328,-0.3455946,0.0,1.0,0.0,0.0,0.0,0.0,0.0,-0.085874915,0.04012069,-0.007306576,8.286643,5.913472,15.871822,-6.4421654,8.549154,-0.88921785,0.42700768
51.375244,92.60059,31.330147,-5.5416574,-0.44669688,0.08673659,0.6299046,-0.33440715,-0.542572,0.46883252,0.07211837,0.6746704,-0.3923931,0.57128465,0.18765724,-1.3704324,-2.0285995,-0.8764326,1.8637241,1.800255,-0.80073714,0.21469289,-1.3265455,-2.0676262,-0.87967837,1.8050443,1.8368659,-0.853813,-0.62279767,-1.0213424,0.81528944,0.35559455,0.8987269,-0.26268816,0.40580523,-0.568367,-0.43849945,0.55285394,-0.4107997,0.15588962,-0.43380842,-0.5541725,-0.42292786,0.5177472,0.98584104,0.057910316,0.12621433,0.09398802,-0.6209381,0.43031195,-0.30641362,0.0,1.0,0.0,0.0,0.0,0.0,0.0,-0.08163297,0.038499445,-0.00285393,7.0901275,6.324911,11.78006,-16.424448,8.098555,0.0063478947,0.23361444
